sb224sc-HT22-VT27/4dt907/src/data/labeled_files/A100_kinect_mirrored.csv
FrameNo,nose_3d_x,nose_3d_y,nose_3d_z,left_shoulder_3d_x,left_shoulder_3d_y,left_shoulder_3d_z,left_elbow_3d_x,left_elbow_3d_y,left_elbow_3d_z,right_shoulder_3d_x,right_shoulder_3d_y,right_shoulder_3d_z,right_elbow_3d_x,right_elbow_3d_y,right_elbow_3d_z,left_wrist_3d_x,left_wrist_3d_y,left_wrist_3d_z,right_wrist_3d_x,right_wrist_3d_y,right_wrist_3d_z,left_hip_3d_x,left_hip_3d_y,left_hip_3d_z,right_hip_3d_x,right_hip_3d_y,right_hip_3d_z,left_knee_3d_x,left_knee_3d_y,left_knee_3d_z,right_knee_3d_x,right_knee_3d_y,right_knee_3d_z,left_ankle_3d_x,left_ankle_3d_y,left_ankle_3d_z,right_ankle_3d_x,right_ankle_3d_y,right_ankle_3d_z,activity_label
3,1.021462,0.779705,0.1079865,0.832202,0.5642550000000001,0.1007665,0.7158720000000001,0.799235,0.0630285,1.167192,0.5804050000000001,0.0850925,1.235542,0.845295,0.0034314999999999,0.699992,1.043305,-0.0120235,1.218692,1.132905,-0.0386035,0.920899,-0.00012,-0.0022805,1.079101,0.0001199999999999,0.0022804999999999,0.8687420000000001,-0.519375,0.0408685,1.134552,-0.4754449999999999,-0.0094285,0.853362,-0.916905,0.0317135,1.144732,-0.861825,0.0122724999999999,1
4,1.022188,0.779333,0.1074605,0.8318580000000001,0.565073,0.0994715,0.716388,0.799323,0.0630215,1.167618,0.580273,0.0846395,1.235698,0.8454330000000001,0.0034105,0.700628,1.0432629999999998,-0.0117284999999999,1.218948,1.132763,-0.0393154999999999,0.921067,-0.000263,-0.0021324999999999,1.078933,0.000263,0.0021325,0.868568,-0.5192469999999999,0.0407625,1.134418,-0.482297,-0.0084764999999999,0.8551880000000001,-0.913557,0.0359805,1.145018,-0.8621169999999999,0.0124915,1
5,1.022829,0.7792549999999999,0.107207,0.832384,0.565765,0.1030669999999999,0.716774,0.799515,0.063101,1.168064,0.5803649999999999,0.084468,1.235924,0.8456149999999999,0.003329,0.701044,1.0433750000000002,-0.0117089999999999,1.219264,1.132875,-0.039571,0.921127,-0.000304,-0.002144,1.078873,0.000304,0.002144,0.869154,-0.519595,0.040727,1.134944,-0.5233450000000001,-0.0016869999999999,0.855674,-0.913875,0.036252,1.1448539999999998,-0.8623550000000001,0.012727,1
6,1.023184,0.779156,0.1075655,0.832092,0.566056,0.1008015,0.717012,0.799466,0.0638305,1.168342,0.580156,0.0845695,1.235952,0.8457859999999999,0.0037275,0.7012320000000001,1.043306,-0.0110564999999999,1.219382,1.132906,-0.0393045,0.921194,-0.0001889999999999,-0.0021504999999999,1.078806,0.0001889999999999,0.0021504999999999,0.8690519999999999,-0.5191140000000001,0.0410065,1.135732,-0.5036240000000001,-0.0060004999999999,0.848472,-0.920674,0.0231255,1.144652,-0.862444,0.0136145,1
7,1.023621,0.7793654999999999,0.1079344999999999,0.832412,0.5662155,0.1006825,0.7175819999999999,0.7995654999999999,0.0643815,1.168852,0.5802855,0.0846925,1.235122,0.8506855,0.0018864999999999,0.701442,1.0433855,-0.0107514999999999,1.219802,1.1330855,-0.0387905,0.921343,-0.0002645,-0.0015314999999999,1.078657,0.0002645,0.0015314999999999,0.869442,-0.5194145,0.0414025,1.133972,-0.4775144999999999,-0.0094095,0.853942,-0.9187245,0.0338655,1.1452319999999998,-0.8636545,0.0131305,1
8,1.023891,0.7792870000000001,0.1080494999999999,0.8327460000000001,0.566307,0.1014175,0.717976,0.7995570000000001,0.0648265,1.169236,0.580227,0.0846385,1.235516,0.8510570000000001,0.0015444999999999,0.701736,1.043397,-0.0104245,1.220076,1.132997,-0.0386465,0.921443,-0.000252,-0.0012474999999999,1.078557,0.000252,0.0012474999999999,0.869636,-0.519343,0.0417275,1.134066,-0.477923,-0.0094395,0.854206,-0.918203,0.0342775,1.145476,-0.8636729999999999,0.0133835,1
9,1.0241495,0.7792165,0.108185,0.8330595000000001,0.5664065,0.101991,0.7183195,0.7995465,0.0652959999999999,1.1695895,0.5801765,0.084657,1.2358395,0.8513565,0.0012139999999999,0.7020095,1.0433165000000002,-0.010112,1.2203495,1.1329165,-0.038409,0.9215425,-0.0002495,-0.0009689999999999,1.0784575,0.0002495,0.0009689999999999,0.8698295,-0.5192735,0.04208,1.1341495,-0.4777035,-0.0095599999999999,0.8544195,-0.9175635,0.034571,1.1457895,-0.8637535,0.0138789999999999,1
10,1.0243755,0.7791405,0.108185,0.8333405,0.5665304999999999,0.102483,0.7186205,0.7995804999999999,0.065818,1.1699005,0.5802505,0.084656,1.2360905,0.8508705,0.001474,0.7022605,1.0433105,-0.00988,1.2205705,1.1326105,-0.0382649999999999,0.9216325,-0.0003005,-0.00064,1.0783675,0.0003005,0.00064,0.8700505000000001,-0.5194595000000001,0.04249,1.1342705,-0.4781895,-0.0094659999999999,0.8545705,-0.9174795,0.035057,1.1460605,-0.8644095,0.014346,1
11,1.0246004999999998,0.7790865,0.1081149999999999,0.8335025,0.5667765,0.1030949999999999,0.7189225,0.7996565,0.066291,1.1702024999999998,0.5803765,0.084634,1.2360924999999998,0.8515265,0.001194,0.7024825,1.0433565,-0.009679,1.2207025,1.1322565,-0.038486,0.9216885,-0.0003745,-0.0002899999999999,1.0783115,0.0003745,0.0002899999999999,0.8702725,-0.5195435,0.0428609999999999,1.1344125,-0.4785235,-0.0094549999999999,0.8547025,-0.9174435,0.03544,1.1462925,-0.8650035,0.0147789999999999,1
12,1.0245955,0.7789360000000001,0.108005,0.8336565,0.566966,0.103984,0.7191865,0.799686,0.066745,1.1704665,0.580476,0.084594,1.2360865,0.851966,0.000955,0.7025965000000001,1.043266,-0.009512,1.2207065,1.131866,-0.038856,0.9217275,-0.00042,4.000000000000531e-05,1.0782725,0.00042,-3.999999999999837e-05,0.8705565,-0.519624,0.043215,1.1345765,-0.478014,-0.0092199999999999,0.8547665,-0.917794,0.035439,1.1464765,-0.865694,0.015065,1
13,1.024391,0.778734,0.1078515,0.83367,0.567214,0.1043974999999999,0.71942,0.799744,0.0671045,1.1707,0.580614,0.0845505,1.23613,0.851974,0.0010374999999999,0.7026400000000002,1.043214,-0.0094155,1.22065,1.131514,-0.0392765,0.921757,-0.000447,0.0003274999999999,1.078243,0.0004469999999999,-0.0003275,0.87075,-0.519666,0.0434815,1.13471,-0.478266,-0.0088945,0.85489,-0.918046,0.0355015,1.14664,-0.866356,0.0152384999999999,1
14,1.0239185,0.778486,0.1076155,0.8335695,0.567466,0.1047815,0.7195795,0.799786,0.0673525,1.1708695,0.580786,0.0844535,1.2360795,0.851906,0.0010375,0.7025595,1.043176,-0.0094034999999999,1.2204595,1.131276,-0.0397755,0.9217705,-0.000482,0.0005474999999999,1.0782295,0.000482,-0.0005474999999999,0.8707995,-0.519714,0.0436965,1.1347795,-0.478504,-0.0086364999999999,0.8551595,-0.917624,0.0357375,1.1467695,-0.867004,0.0152975,1
15,1.02323,0.7782985,0.1073035,0.833435,0.5678285,0.1050685,0.719685,0.7999085,0.0675855,1.170995,0.5810385,0.0843335,1.236005,0.8518985,0.0010265,0.702395,1.0432185,-0.0094224999999999,1.220225,1.1311185,-0.0402855,0.921751,-0.0005624999999999,0.0007495,1.078249,0.0005625,-0.0007495,0.870815,-0.5196715,0.0438635,1.135005,-0.4792115,-0.0083994999999999,0.8553450000000001,-0.9172115,0.0358985,1.146835,-0.8676515,0.0153355,1
16,1.022377,0.7781425000000001,0.106971,0.833259,0.5682125,0.105804,0.719739,0.8000525,0.067814,1.171079,0.5812225000000001,0.084199,1.236129,0.8514125,0.001246,0.702189,1.0431925,-0.0094819999999999,1.219939,1.1309925,-0.040864,0.921709,-0.0006205,0.000909,1.078291,0.0006205,-0.000909,0.871039,-0.5198174999999999,0.044143,1.135319,-0.4801875,-0.008155,0.855539,-0.9168575,0.036018,1.146879,-0.8682575,0.015388,1
17,1.0214275,0.777958,0.1066405,0.8330535,0.5685880000000001,0.1066005,0.7197235,0.800158,0.0679695,1.1711435,0.581388,0.0840805,1.2362235,0.8510580000000001,0.0014155,0.7019535,1.043248,-0.0095704999999999,1.2195735,1.130948,-0.0416045,0.9216725,-0.0006709999999999,0.0010005,1.0783275,0.0006709999999999,-0.0010004999999999,0.8711335,-0.5198419999999999,0.0444425,1.1355335,-0.481142,-0.0079624999999999,0.8556735,-0.916822,0.0359915,1.1469135,-0.868842,0.0153465,1
18,1.020421,0.777852,0.1063675,0.8327910000000001,0.5690219999999999,0.1072115,0.719651,0.800332,0.0680555,1.171211,0.581472,0.0839445,1.236131,0.8510120000000001,0.0012835,0.701711,1.043302,-0.0097034999999999,1.219231,1.130902,-0.0424635,0.921621,-0.0007169999999999,0.0010855,1.078379,0.000717,-0.0010854999999999,0.871211,-0.5198879999999999,0.0447235,1.135741,-0.481938,-0.0078114999999999,0.855851,-0.916628,0.0362405,1.146931,-0.8693379999999999,0.0152085,1
19,1.019408,0.7777795,0.106298,0.832376,0.5692995,0.107691,0.7195659999999999,0.8003695,0.068076,1.171216,0.5815294999999999,0.083752,1.236056,0.8510495,0.001243,0.701426,1.0434395,-0.009731,1.219016,1.1310395,-0.043268,0.92156,-0.0007545,0.0011369999999999,1.07844,0.0007545,-0.0011369999999999,0.871286,-0.5199405,0.0449699999999999,1.135976,-0.4823105,-0.007708,0.856006,-0.9162905,0.036659,1.146956,-0.8697505,0.0150219999999999,1
20,1.018446,0.7776595,0.1062465,0.831946,0.5694595,0.1079155,0.719436,0.8004095,0.0680605,1.1712159999999998,0.5815294999999999,0.0835505,1.235976,0.8510495,0.0011524999999999,0.7011160000000001,1.0434395,-0.0097845,1.218946,1.1310395,-0.0437725,0.921524,-0.0007545,0.0011944999999999,1.078476,0.0007545,-0.0011945,0.871356,-0.5199405,0.0452345,1.136226,-0.4818705,-0.0076115,0.856176,-0.9160505,0.0370884999999999,1.146926,-0.8698605,0.0149854999999999,1
21,1.0175945,0.777656,0.1062685,0.8315245,0.5697260000000001,0.1079415,0.7193045,0.800556,0.0680335,1.1712445,0.581626,0.0832585,1.2359545,0.851056,0.0009785,0.7007745000000001,1.043636,-0.0098435,1.2189845,1.131236,-0.0442825,0.9214665,-0.000851,0.0013004999999999,1.0785335,0.000851,-0.0013005,0.8714345,-0.5199039999999999,0.0455065,1.1364845,-0.482404,-0.0073095,0.8562244999999999,-0.915954,0.0371784999999999,1.1469145,-0.8699439999999999,0.0149574999999999,1
22,1.0168665,0.777613,0.1064085,0.8311725,0.570153,0.1080025,0.7191825000000001,0.800933,0.0679745,1.1712725,0.581843,0.0829415,1.2359425,0.8511029999999999,0.0007054999999999,0.7004225,1.0439630000000002,-0.0098055,1.2190225,1.131263,-0.0448755,0.9214055,-0.0010069999999999,0.0014274999999999,1.0785945,0.001007,-0.0014275,0.8715125000000001,-0.519947,0.0457345,1.1367325,-0.482237,-0.0071995,0.8563025000000001,-0.915527,0.0368945,1.1469225,-0.869857,0.0147234999999999,1
23,1.016265,0.7776285,0.1065845,0.830849,0.5706185,0.1080945,0.719009,0.8013285,0.0678815,1.171279,0.5820784999999999,0.0826085,1.235909,0.8510785,0.0003365,0.700089,1.0443285,-0.0097854999999999,1.219039,1.1317285,-0.0455845,0.921337,-0.0011515,0.0015365,1.078663,0.0011515,-0.0015364999999999,0.871559,-0.5200315,0.0459425,1.136969,-0.4825715,-0.0069294999999999,0.856399,-0.9151815,0.0369125,1.147049,-0.8693915,0.0149055,1
24,1.015772,0.77773,0.1067295,0.830586,0.57104,0.1082325,0.718826,0.80174,0.0677655,1.171336,0.58233,0.0822775,1.2358859999999998,0.85104,-0.0001465,0.699716,1.0447099999999998,-0.0097575,1.219136,1.13221,-0.0465065,0.921278,-0.001318,0.0016405,1.078722,0.001318,-0.0016405,0.871556,-0.52013,0.0460515,1.137176,-0.48289,-0.0066575,0.856506,-0.91492,0.0369565,1.147166,-0.86891,0.0150005,1
25,1.015293,0.7778809999999999,0.1068315,0.8303860000000001,0.5716509999999999,0.1083605,0.718646,0.8022309999999999,0.0676545,1.171346,0.5825309999999999,0.0819415,1.235826,0.8508709999999999,-0.0006805,0.699346,1.045111,-0.0097054999999999,1.219316,1.133011,-0.0473815,0.921237,-0.001491,0.0017464999999999,1.078763,0.001491,-0.0017464999999999,0.871496,-0.520209,0.0461825,1.137396,-0.484169,-0.0064645,0.856646,-0.914029,0.0370235,1.147256,-0.868109,0.0150964999999999,1
26,1.0148389999999998,0.778073,0.106884,0.8301680000000001,0.5723929999999999,0.1078679999999999,0.718518,0.802713,0.067539,1.171338,0.582673,0.081628,1.235798,0.8508129999999999,-0.0013039999999999,0.6990180000000001,1.045603,-0.0096629999999999,1.219558,1.133703,-0.0481819999999999,0.921199,-0.0016539999999999,0.001853,1.078801,0.001654,-0.001853,0.871538,-0.520337,0.046303,1.137668,-0.483857,-0.0063889999999999,0.856828,-0.913137,0.037162,1.147298,-0.8665470000000001,0.015199,1
27,1.01445,0.7782690000000001,0.107077,0.8299300000000001,0.5730390000000001,0.107501,0.7184200000000001,0.803169,0.067426,1.1713,0.5827690000000001,0.081196,1.2357,0.850879,-0.0020899999999999,0.6987300000000001,1.045959,-0.0096209999999999,1.21978,1.134259,-0.048944,0.921172,-0.0018,0.001961,1.078828,0.0018,-0.0019609999999999,0.8716,-0.520551,0.046457,1.13792,-0.484121,-0.0063269999999999,0.8569100000000001,-0.912511,0.037012,1.1474,-0.865211,0.015378,1
28,1.0141034999999998,0.778533,0.1072834999999999,0.8297905,0.5736030000000001,0.1070125,0.7183305,0.803643,0.0672915,1.1713105,0.582963,0.0808514999999999,1.2355805,0.850933,-0.0029655,0.6985105,1.046423,-0.0096165,1.2200105,1.134823,-0.0496795,0.9211485,-0.001938,0.0020794999999999,1.0788515,0.001938,-0.0020795,0.8716705,-0.520687,0.0466184999999999,1.1380104999999998,-0.484097,-0.0064725,0.8570105,-0.911937,0.0368164999999999,1.1475105,-0.8639969999999999,0.0156284999999999,1
29,1.0137444999999998,0.778736,0.1074939999999999,0.8298015,0.574156,0.107233,0.7182515,0.804056,0.067164,1.1712415,0.583046,0.080333,1.2354315,0.8509359999999999,-0.003915,0.6983015,1.0468460000000002,-0.009634,1.2202415,1.135146,-0.0504509999999999,0.9211295,-0.002039,0.0022059999999999,1.0788705,0.002039,-0.0022059999999999,0.8718615000000001,-0.520814,0.046666,1.1381415,-0.485444,-0.006273,0.8572115,-0.911054,0.03646,1.1476115,-0.862654,0.0161,1
30,1.013358,0.778547,0.1076685,0.829774,0.574527,0.1074075,0.718164,0.804317,0.0670375,1.171164,0.583117,0.0799415,1.235184,0.850807,-0.0049405,0.698144,1.047007,-0.0096885,1.220424,1.135307,-0.0511525,0.921133,-0.002,0.0023074999999999,1.0788669999999998,0.002,-0.0023075,0.8719340000000001,-0.520863,0.0467994999999999,1.138244,-0.487273,-0.0061235,0.8573640000000001,-0.910683,0.0364894999999999,1.147724,-0.861853,0.0164684999999999,1
31,1.012998,0.7783865,0.107885,0.829698,0.5749164999999999,0.106991,0.718098,0.8045265,0.066949,1.171048,0.5830865,0.079479,1.234948,0.8506365,-0.005957,0.698048,1.0472065,-0.009729,1.220578,1.1354065,-0.051781,0.92115,-0.0019484999999999,0.0024139999999999,1.07885,0.0019485,-0.002414,0.8719380000000001,-0.5209235,0.0469539999999999,1.138318,-0.4868435,-0.006158,0.8573680000000001,-0.9105735,0.036383,1.147858,-0.8612535,0.0167649999999999,1
32,1.0127025,0.7782295,0.1081485,0.8296285,0.5752095,0.1065985,0.7181085,0.8047195,0.0668935,1.1709785,0.5829995,0.0789935,1.2347685,0.8504895,-0.0069154999999999,0.6980085,1.0473795,-0.0097084999999999,1.2206985,1.1353795,-0.0523504999999999,0.9211675,-0.0018995,0.0025525,1.0788325,0.0018995,-0.0025524999999999,0.8720085,-0.5209104999999999,0.0471475,1.1383985,-0.4882805,-0.0059084999999999,0.8574785,-0.9102605,0.0365455,1.1480785,-0.8605605,0.0170985,1
33,1.012479,0.778046,0.108437,0.829591,0.5754560000000001,0.106253,0.7181410000000001,0.8048860000000001,0.066865,1.170921,0.582906,0.0785329999999999,1.234611,0.8504360000000001,-0.0078,0.6980510000000001,1.047526,-0.0096219999999999,1.220801,1.135426,-0.052716,0.921191,-0.0018279999999999,0.002721,1.078809,0.001828,-0.002721,0.8720210000000002,-0.520914,0.047396,1.138491,-0.489704,-0.0056249999999999,0.8575610000000001,-0.910154,0.0363799999999999,1.148311,-0.8601139999999999,0.0173679999999999,1
34,1.012316,0.7779050000000001,0.108708,0.829605,0.575515,0.105852,0.718175,0.804965,0.066867,1.170875,0.582805,0.078075,1.234465,0.850295,-0.008661,0.698035,1.047645,-0.009486,1.220895,1.1354449999999998,-0.053267,0.921185,-0.001779,0.0028989999999999,1.078815,0.001779,-0.0028989999999999,0.8720950000000001,-0.520915,0.047538,1.138585,-0.490415,-0.005541,0.857695,-0.910535,0.036217,1.148495,-0.859995,0.017691,1
35,1.0122015,0.777772,0.1089605,0.8296875000000001,0.575532,0.1056375,0.7182075,0.8050120000000001,0.0669105,1.1708275,0.582732,0.0776355,1.2343475,0.8501420000000001,-0.0095364999999999,0.6979775000000001,1.047642,-0.0093605,1.2209775,1.1354419999999998,-0.0538995,0.9211845,-0.0017109999999999,0.0030745,1.0788155,0.0017109999999999,-0.0030745,0.8722175,-0.520868,0.0477045,1.1386675,-0.490678,-0.0054475,0.8577675000000001,-0.910688,0.0359845,1.1486475,-0.8599779999999999,0.0179595,1
36,1.0121135,0.777612,0.109133,0.8297385000000002,0.575552,0.105302,0.7182485000000001,0.8050419999999999,0.066963,1.1708085,0.5826319999999999,0.0773119999999999,1.2343085,0.849792,-0.010303,0.6978385,1.047732,-0.009272,1.2210785,1.135432,-0.054636,0.9211745,-0.001641,0.0032369999999999,1.0788255,0.001641,-0.003237,0.8723385000000001,-0.5207780000000001,0.0477799999999999,1.1387585,-0.4907579999999999,-0.005553,0.8580785,-0.910398,0.0366849999999999,1.1488085,-0.860068,0.0181049999999999,1
37,1.0120435,0.777445,0.109258,0.8298395000000001,0.575615,0.105168,0.7182795,0.805105,0.06698,1.1708095,0.582505,0.076997,1.2342895,0.849495,-0.011033,0.6975395,1.047695,-0.00948,1.2210895,1.135295,-0.055514,0.9211605,-0.0015539999999999,0.0033879999999999,1.0788395,0.001554,-0.003388,0.8725495,-0.520725,0.04788,1.1387195,-0.491025,-0.005486,0.8580995,-0.910255,0.036947,1.1489795,-0.860005,0.018253,1
38,1.0121315,0.7774245000000001,0.10935,0.8299535,0.5756645,0.10498,0.7184035000000001,0.8051345,0.066996,1.1709035,0.5824845000000001,0.0768679999999999,1.2343335,0.8496545,-0.0116619999999999,0.6973935,1.0477745,-0.0097439999999999,1.2211035,1.1352745,-0.0564529999999999,0.9211455,-0.0015335,0.003525,1.0788545,0.0015335,-0.003525,0.8725735,-0.5206855,0.047909,1.1386435,-0.4894955,-0.0057559999999999,0.8580635,-0.9100955,0.037115,1.1490235,-0.8601555,0.01821,1
39,1.012251,0.7774085000000001,0.109439,0.8300609999999999,0.5757285,0.104812,0.718531,0.8051285,0.067016,1.171011,0.5824685000000001,0.076684,1.234411,0.8498885,-0.0121389999999999,0.697241,1.0477585,-0.009985,1.221121,1.1352585,-0.0573999999999999,0.921124,-0.0015174999999999,0.003655,1.078876,0.0015175,-0.0036549999999999,0.872671,-0.5207015,0.048046,1.138591,-0.4878115,-0.0060549999999999,0.8580610000000001,-0.9099415,0.037514,1.149091,-0.8601715,0.018243,1
40,1.0122585,0.7773990000000001,0.1095375,0.8302155,0.575809,0.1047565,0.7186455,0.805119,0.0670195,1.1711155,0.5824590000000001,0.0765705,1.2344655,0.850139,-0.0126394999999999,0.6970855,1.047849,-0.0102555,1.2211155,1.135249,-0.0584975,0.9211025,-0.001508,0.0037905,1.0788975,0.0015079999999999,-0.0037905,0.8727555000000001,-0.520501,0.0481145,1.1384955,-0.485761,-0.0063425,0.8581155,-0.909221,0.0380015,1.1491255,-0.860181,0.0182055,1
41,1.0122345,0.776928,0.109532,0.8304745,0.575698,0.104689,0.7188045000000001,0.805218,0.066689,1.1712645,0.582268,0.076226,1.2346745,0.849338,-0.013488,0.6968544999999999,1.047848,-0.010893,1.2213045,1.134848,-0.060175,0.9210785,-0.001394,0.0038959999999999,1.0789215,0.0013939999999999,-0.003896,0.8727345000000001,-0.520412,0.048165,1.1383545,-0.486012,-0.006303,0.8581045,-0.909592,0.038374,1.1493145,-0.861282,0.018274,1
42,1.0121785,0.776755,0.1093365,0.8307355000000001,0.575615,0.1041795,0.7189654999999999,0.805285,0.0663335,1.1714455,0.582065,0.0758365,1.2349255,0.848375,-0.0143355,0.6966155,1.047925,-0.0115614999999999,1.2215255,1.134525,-0.0619264999999999,0.9210495,-0.0013189999999999,0.0039744999999999,1.0789505,0.001319,-0.0039744999999999,0.8726754999999999,-0.520365,0.0481965,1.1381855,-0.485155,-0.0064325,0.8581255,-0.909785,0.0389945,1.1494755,-0.862265,0.0183655,1
43,1.012091,0.7764335,0.109146,0.831039,0.5753735000000001,0.104,0.7190890000000001,0.8053435,0.065973,1.171629,0.5818835,0.075444,1.235129,0.8474535000000001,-0.015153,0.696419,1.0479735,-0.0122229999999999,1.221739,1.1340735,-0.06354,0.92104,-0.0012675,0.0040629999999999,1.07896,0.0012675,-0.0040629999999999,0.8727590000000001,-0.5203665,0.048346,1.137999,-0.4842065,-0.0066039999999999,0.858269,-0.9098165,0.038981,1.149599,-0.8631565,0.018456,1
44,1.0119865,0.7762065,0.1089055,0.8313925,0.5750165,0.1040535,0.7192324999999999,0.8054265,0.0656025,1.1718025,0.5817765,0.0750105,1.2353525,0.8466065,-0.0158494999999999,0.6962725000000001,1.0479465,-0.0128785,1.2219225,1.1336465,-0.0651154999999999,0.9210335,-0.0012295,0.0041665,1.0789665,0.0012295,-0.0041664999999999,0.8728625,-0.5203135,0.0486595,1.1377725,-0.4817935,-0.0070534999999999,0.8581125000000001,-0.9113835,0.0394205,1.1497225,-0.8638035,0.0185355,1
45,1.0118565,0.7760175,0.108629,0.8317075,0.5747475,0.103931,0.7193575,0.8055475,0.065227,1.1719575,0.5817975,0.074562,1.2355675,0.8458875,-0.016505,0.6961375000000001,1.0480475,-0.01353,1.2220375,1.1331475,-0.066556,0.9210385,-0.0011975,0.004282,1.0789615,0.0011975,-0.004282,0.8729875,-0.5203425,0.048721,1.1378075,-0.4825925,-0.0071619999999999,0.8578475,-0.9121325,0.039076,1.1497475,-0.8639325,0.018857,1
46,1.011719,0.775634,0.108331,0.832043,0.574504,0.10372,0.719473,0.805614,0.064886,1.172093,0.581844,0.074114,1.235703,0.845384,-0.017864,0.695973,1.048104,-0.013989,1.222123,1.132504,-0.067877,0.921032,-0.001155,0.0043679999999999,1.078968,0.001155,-0.004368,0.8731030000000001,-0.520336,0.0487929999999999,1.137573,-0.480666,-0.007442,0.8576830000000001,-0.912536,0.039117,1.149783,-0.864046,0.0192439999999999,1
47,1.011596,0.775347,0.108013,0.832345,0.574357,0.103433,0.7195850000000001,0.805697,0.06451,1.172235,0.581917,0.073647,1.235985,0.844867,-0.019239,0.6957949999999999,1.048087,-0.0144369999999999,1.222215,1.131987,-0.06925,0.921038,-0.001144,0.0044299999999999,1.078962,0.001144,-0.00443,0.873205,-0.520363,0.048825,1.137495,-0.479393,-0.007579,0.8575050000000001,-0.912893,0.039194,1.149825,-0.864353,0.019558,1
48,1.011509,0.7750670000000001,0.107667,0.8326360000000002,0.574217,0.103118,0.719686,0.805767,0.064103,1.172376,0.581977,0.073191,1.236296,0.844537,-0.020636,0.695596,1.0479569999999998,-0.0150199999999999,1.222216,1.131657,-0.070838,0.921044,-0.001128,0.004491,1.078956,0.001128,-0.004491,0.873426,-0.520303,0.04866,1.137516,-0.479433,-0.007702,0.8573360000000001,-0.913353,0.039265,1.149776,-0.864833,0.019648,1
49,1.011446,0.774792,0.1072605,0.832821,0.574052,0.1027115,0.719751,0.8058420000000001,0.0636515,1.172521,0.5820620000000001,0.0726855,1.236611,0.844172,-0.0219875,0.6955009999999999,1.047792,-0.0157115,1.222201,1.131392,-0.0726245,0.921049,-0.0011219999999999,0.0045324999999999,1.078951,0.0011219999999999,-0.0045325,0.873671,-0.520478,0.0486065,1.137561,-0.480588,-0.0077185,0.857361,-0.913478,0.0398134999999999,1.149731,-0.8653179999999999,0.0195894999999999,1
50,1.011399,0.7749524999999999,0.107018,0.8328599999999999,0.5742425,0.102354,0.71976,0.8058225,0.063461,1.17259,0.5823225,0.072438,1.23678,0.8441525,-0.023022,0.69543,1.0477725,-0.016172,1.22207,1.1316725,-0.0740629999999999,0.921056,-0.0011415,0.004577,1.078944,0.0011415,-0.0045769999999999,0.87384,-0.5200975,0.048535,1.13762,-0.4807175,-0.0077379999999999,0.8573999999999999,-0.9130275,0.0402,1.14969,-0.8652175,0.019565,1
51,1.0113515,0.7750815,0.1067375,0.8329485,0.5742415,0.1020905,0.7197485,0.8058215,0.0631855,1.1725785,0.5825315,0.0721935,1.2369085,0.8441514999999999,-0.0241384999999999,0.6953285,1.0477715,-0.0168874999999999,1.2218685,1.1317715000000002,-0.0760084999999999,0.9210475,-0.0011424999999999,0.0046325,1.0789525,0.0011425,-0.0046324999999999,0.8739985,-0.5197385,0.0485435,1.1375085,-0.4789285,-0.0079614999999999,0.8572885,-0.9124585,0.0398865,1.1496285,-0.8650685,0.0196185,1
52,1.0112875,0.7751925000000001,0.1064175,0.8329965,0.5742925,0.1016765,0.7197265000000002,0.8058125,0.0628645,1.1725765,0.5827225,0.0719515,1.2369865,0.8441425,-0.0253265,0.6951965,1.0477625,-0.0177555,1.2216665,1.1317625,-0.0779915,0.9210395,-0.0011514999999999,0.0047055,1.0789605,0.0011514999999999,-0.0047055,0.8739565,-0.5193875,0.0485915,1.1374065,-0.4775775,-0.0080474999999999,0.8572265,-0.9119075,0.0400505,1.1495065,-0.8650774999999999,0.0195605,1
53,1.011157,0.7752870000000001,0.1059789999999999,0.833036,0.574377,0.1013189999999999,0.719606,0.805857,0.0623819999999999,1.1726059999999998,0.5830770000000001,0.071629,1.237076,0.844087,-0.026602,0.6948259999999999,1.047557,-0.018738,1.221336,1.131657,-0.080114,0.920996,-0.0012299999999999,0.004815,1.079004,0.00123,-0.004815,0.874116,-0.519193,0.048586,1.137446,-0.4780729999999999,-0.008144,0.857356,-0.912203,0.0399299999999999,1.149536,-0.864983,0.0194179999999999,1
54,1.011081,0.775259,0.1054805,0.833169,0.574329,0.1011665,0.719499,0.805919,0.0618245,1.172639,0.583319,0.0712135,1.237219,0.8439490000000001,-0.0279164999999999,0.694539,1.047349,-0.0199415,1.221069,1.131549,-0.0823174999999999,0.920952,-0.0013219999999999,0.0049275,1.079048,0.001322,-0.0049274999999999,0.874179,-0.519411,0.0485655,1.137439,-0.478411,-0.0082914999999999,0.857379,-0.912551,0.0397125,1.149559,-0.864681,0.0192405,1
55,1.0109955,0.7753535,0.104941,0.8332455,0.5743535000000001,0.1009029999999999,0.7193455,0.8060335000000001,0.061214,1.1726455,0.5835935,0.070737,1.2374055,0.8438235000000001,-0.0285609999999999,0.6942254999999999,1.0471635,-0.0212589999999999,1.2207555,1.1314635,-0.084634,0.9209055,-0.0014305,0.0050079999999999,1.0790945,0.0014305,-0.0050079999999999,0.8742155,-0.5193765,0.048473,1.1374455,-0.4785264999999999,-0.0085709999999999,0.8574355000000001,-0.9130165,0.039415,1.1495655,-0.8646564999999999,0.019024,1
56,1.010891,0.7754044999999999,0.104305,0.833321,0.5744345,0.100574,0.7191810000000001,0.8061444999999999,0.060515,1.172641,0.5838745,0.070166,1.237391,0.8436545,-0.0292969999999999,0.693911,1.0469845,-0.022731,1.220451,1.1313845,-0.086931,0.920855,-0.0015515,0.005108,1.079145,0.0015515,-0.0051079999999999,0.8742210000000001,-0.5192255,0.048216,1.137661,-0.4803855,-0.0086879999999999,0.8574010000000001,-0.9133755,0.038952,1.149351,-0.8649855000000001,0.018534,1
57,1.010745,0.7754935,0.103657,0.8333820000000001,0.5745635,0.1002339999999999,0.7189920000000001,0.8063035,0.059763,1.172692,0.5841835,0.069563,1.237342,0.8434235,-0.030094,0.693632,1.0468435,-0.024175,1.220152,1.1312435,-0.089053,0.920816,-0.0016765,0.0052229999999999,1.079184,0.0016765,-0.005223,0.8742120000000001,-0.5186965,0.0479039999999999,1.137612,-0.4802265,-0.009043,0.857372,-0.9135965,0.038519,1.149012,-0.8653065,0.0179439999999999,1
58,1.010588,0.775705,0.102987,0.8333150000000001,0.574775,0.099549,0.718785,0.806435,0.058986,1.172725,0.5844550000000001,0.068962,1.237315,0.842755,-0.030703,0.693345,1.046675,-0.0256719999999999,1.219885,1.130575,-0.090978,0.920776,-0.001783,0.0053549999999999,1.079224,0.0017829999999999,-0.0053549999999999,0.874035,-0.518195,0.047517,1.137515,-0.480185,-0.0095859999999999,0.8572850000000001,-0.914095,0.038354,1.148675,-0.865525,0.017323,1
59,1.010459,0.7757805,0.1022785,0.833231,0.5750204999999999,0.0989265,0.718611,0.8065405,0.0581985,1.172731,0.5845905,0.0683235,1.237261,0.8421805,-0.0317454999999999,0.6930810000000001,1.0465105,-0.0271774999999999,1.219631,1.1299105,-0.0927775,0.92074,-0.0018275,0.0054815,1.07926,0.0018275,-0.0054814999999999,0.873911,-0.5180495,0.0469945,1.137431,-0.4800495,-0.0101954999999999,0.857241,-0.9140995,0.0380485,1.148261,-0.8657295,0.0167165,1
60,1.010326,0.775842,0.1015495,0.8331230000000001,0.5752320000000001,0.0982445,0.7184429999999999,0.806632,0.0573695,1.172713,0.5847220000000001,0.0676325,1.237203,0.8415220000000001,-0.0328425,0.692843,1.046442,-0.0286555,1.219423,1.129342,-0.0942214999999999,0.920696,-0.001859,0.0055965,1.079304,0.001859,-0.0055964999999999,0.873773,-0.517898,0.0464395,1.137053,-0.477928,-0.0113894999999999,0.857273,-0.914008,0.0378545,1.147893,-0.8658779999999999,0.0162055,1
61,1.0101805,0.7759940000000001,0.1007705,0.8330615,0.5754440000000001,0.0975785,0.7182615,0.806744,0.0565355,1.1726915,0.5848340000000001,0.0668895,1.2371615,0.840784,-0.0339194999999999,0.6925815,1.046384,-0.0301415,1.2191615,1.128784,-0.0957975,0.9206475,-0.001865,0.0057335,1.0793525,0.001865,-0.0057334999999999,0.8736615,-0.517756,0.0458665,1.1368615,-0.479606,-0.0122185,0.8573215000000001,-0.913976,0.0376215,1.1475215,-0.866036,0.0157005,1
62,1.009995,0.7761480000000001,0.100016,0.832963,0.575628,0.096938,0.718013,0.806858,0.055641,1.172583,0.584938,0.066046,1.237063,0.840078,-0.03505,0.6922630000000001,1.0460379999999998,-0.031818,1.218813,1.128238,-0.097591,0.920622,-0.00187,0.005867,1.079378,0.00187,-0.0058669999999999,0.873523,-0.517602,0.045269,1.136603,-0.481472,-0.013148,0.8573230000000001,-0.913942,0.037347,1.147103,-0.866302,0.01516,1
63,1.0097785,0.7762724999999999,0.099169,0.8328955,0.5758025,0.096277,0.7177255,0.8068825,0.0546489999999999,1.1724855,0.5850124999999999,0.065235,1.2369655,0.8393824999999999,-0.036235,0.6919355,1.0455925,-0.033608,1.2183655,1.1273925,-0.099737,0.9206005,-0.0018755,0.005988,1.0793995,0.0018754999999999,-0.005988,0.8734055000000001,-0.5178275,0.044794,1.1363355,-0.4824475,-0.014442,0.8572755000000001,-0.9135075,0.036941,1.1466755,-0.8665575000000001,0.0145949999999999,1
64,1.009525,0.7762925,0.098244,0.832881,0.5758825,0.095591,0.7173510000000001,0.8068225,0.053515,1.172341,0.5850425,0.0643799999999999,1.236861,0.8387525,-0.037731,0.691581,1.0449525,-0.035622,1.217901,1.1266524999999998,-0.1023149999999999,0.920595,-0.0018495,0.006107,1.079405,0.0018495,-0.006107,0.873321,-0.5180675,0.044109,1.136041,-0.4831074999999999,-0.0163159999999999,0.857081,-0.9135275,0.036328,1.146111,-0.8669775,0.0139719999999999,1
65,1.009227,0.7762420000000001,0.097146,0.83285,0.575972,0.094922,0.7168300000000001,0.8066420000000001,0.05216,1.17214,0.585122,0.063423,1.23686,0.8382620000000001,-0.0395819999999999,0.69108,1.044172,-0.0379719999999999,1.2174999999999998,1.125972,-0.1054349999999999,0.920585,-0.001769,0.006172,1.079415,0.001769,-0.0061719999999999,0.8732,-0.5182979999999999,0.043262,1.13565,-0.483838,-0.018706,0.85689,-0.913508,0.035762,1.14559,-0.867408,0.013403,1
66,1.008929,0.7762785,0.0957585,0.832736,0.5763685,0.0940145,0.716216,0.8063984999999999,0.0504475,1.171886,0.5854284999999999,0.0621985,1.236916,0.8380285,-0.0417604999999999,0.690426,1.0432685000000002,-0.0407695,1.217056,1.1252685,-0.1093464999999999,0.920566,-0.0017104999999999,0.0061825,1.079434,0.0017104999999999,-0.0061825,0.8730160000000001,-0.5188115000000001,0.0419285,1.135316,-0.4862815,-0.0212404999999999,0.856656,-0.9132015,0.0350625,1.145056,-0.8677815000000001,0.0127255,1
67,1.008608,0.7765115,0.0941495,0.83264,0.5768515,0.0929685,0.71555,0.8061615,0.0483845,1.17154,0.5858715,0.0606764999999999,1.23697,0.8379715,-0.0443305,0.68963,1.0422715,-0.0438735,1.21656,1.1251715,-0.1137585,0.920519,-0.0017025,0.0061944999999999,1.079481,0.0017025,-0.0061945,0.87281,-0.5184785000000001,0.0400404999999999,1.13492,-0.4877785,-0.0241545,0.85635,-0.9125985,0.0343215,1.14448,-0.8681785000000001,0.0120324999999999,1
68,1.0082434999999998,0.7767875,0.092399,0.8325104999999999,0.5773275,0.0918819999999999,0.7147605,0.8058074999999999,0.046119,1.1710805,0.5861474999999999,0.058906,1.2369804999999998,0.8379175,-0.047195,0.6886405,1.0412075,-0.047276,1.2159704999999998,1.1247075,-0.1187829999999999,0.9204145,-0.0017125,0.006205,1.0795855,0.0017125,-0.0062049999999999,0.8725805,-0.5182825000000001,0.037704,1.1344805,-0.4886025,-0.027397,0.8558605,-0.9116925,0.033128,1.1439005,-0.8684925,0.011166,1
69,1.0076919999999998,0.777051,0.0904264999999999,0.832112,0.577841,0.0907695,0.7138520000000002,0.805211,0.0435445,1.170472,0.586371,0.0569994999999999,1.236682,0.8378410000000001,-0.0504465,0.6873720000000001,1.039941,-0.0508965,1.214942,1.124141,-0.1242544999999999,0.920273,-0.001615,0.0062095,1.079727,0.001615,-0.0062095,0.872322,-0.518319,0.0348675,1.134042,-0.489199,-0.0303135,0.8555820000000001,-0.911119,0.0321185,1.143592,-0.868959,0.0101585,1
70,1.0071285,0.7773715,0.088267,0.8317065000000001,0.5783615000000001,0.089711,0.7129165,0.8044915,0.0407709999999999,1.1698465,0.5861115,0.054733,1.2363765,0.8378015000000001,-0.054086,0.6860364999999999,1.0387315,-0.054776,1.2139265,1.1232315,-0.130183,0.9200725,-0.0015235,0.0062059999999999,1.0799275,0.0015235,-0.006206,0.8719665,-0.5181884999999999,0.0310629999999999,1.1334765,-0.4908485,-0.033755,0.8552965000000001,-0.9103385,0.0310969999999999,1.1433165,-0.8694385,0.0092409999999999,1
71,1.0065069999999998,0.7776145,0.085821,0.83129,0.5790145,0.08848,0.71201,0.8038245,0.037904,1.16922,0.5860945000000001,0.052478,1.23604,0.8378745,-0.0580529999999999,0.68465,1.0376845,-0.0588729999999999,1.21294,1.1223845,-0.136182,0.919865,-0.0013865,0.006163,1.080135,0.0013865,-0.0061629999999999,0.87157,-0.5180255,0.02689,1.13287,-0.4898955,-0.037579,0.85502,-0.9092655,0.029952,1.14301,-0.8696155,0.008141,1
72,1.0058055,0.7778005,0.0831689999999999,0.8307705000000001,0.5797005,0.087133,0.7107905,0.8030905,0.034871,1.1685805,0.5860805,0.050162,1.2355904999999998,0.8379004999999999,-0.062332,0.6828905000000001,1.0366605,-0.062873,1.2118905,1.1214605,-0.14234,0.9196225,-0.0012955,0.006132,1.0803775,0.0012954999999999,-0.0061319999999999,0.8711305,-0.5175995,0.022252,1.1325305,-0.4909195,-0.041715,0.8550705000000001,-0.9080595,0.028713,1.1426605,-0.8697395,0.006991,1
73,1.005116,0.77775,0.0800945,0.830344,0.5804,0.0856895,0.7095940000000001,0.80227,0.0315345,1.167924,0.5861200000000001,0.0477835,1.235024,0.83767,-0.0667365,0.6811240000000001,1.03553,-0.0672865,1.210824,1.11973,-0.1485765,0.919354,-0.001262,0.0060995,1.080646,0.001262,-0.0060995,0.870564,-0.51716,0.0171585,1.132384,-0.48975,-0.0457534999999999,0.854994,-0.90669,0.0274195,1.142334,-0.86979,0.0059175,1
74,1.0044215,0.7777595,0.07707,0.8299245,0.5810195,0.084147,0.7085245,0.8014895,0.028169,1.1673845,0.5860695,0.045321,1.2343545,0.8372495,-0.071033,0.6794445,1.0344895,-0.071583,1.2098245,1.1179895,-0.154433,0.9190925,-0.0012364999999999,0.006062,1.0809075,0.0012365,-0.0060619999999999,0.8698845,-0.5166904999999999,0.0119259999999999,1.1322445,-0.4885905,-0.049495,0.8549045,-0.9055305,0.025798,1.1419245,-0.8698205,0.004676,1
75,1.0038065,0.7777864999999999,0.0739104999999999,0.8296245000000001,0.5813864999999999,0.0825415,0.7075644999999999,0.8009965,0.0248935,1.1669145,0.5858464999999999,0.0430405,1.2337645,0.8346365,-0.0752805,0.6778744999999999,1.0335965,-0.0759705,1.2090145,1.1156965,-0.1599104999999999,0.9188675,-0.0011124999999999,0.0060055,1.0811325,0.0011124999999999,-0.0060054999999999,0.8691245000000001,-0.5160335,0.0065925,1.1321345,-0.4874834999999999,-0.0540275,0.8549245,-0.9042235,0.0244425,1.1414545,-0.8696535000000001,0.0033495,1
76,1.003339,0.7776504999999999,0.0706795,0.829441,0.5813805,0.0808145,0.7067410000000001,0.8005104999999999,0.0216555,1.166551,0.5856205,0.0407445,1.233211,0.8315005,-0.0796225,0.676501,1.0327205000000002,-0.0803825,1.208331,1.1129205,-0.1651225,0.91874,-0.0009785,0.0059535,1.08126,0.0009785,-0.0059535,0.868431,-0.5151895000000001,0.0013884999999999,1.132141,-0.4859295,-0.0589025,0.8550409999999999,-0.9028995,0.0232744999999999,1.141251,-0.8693895,0.0019644999999999,1
77,1.00301,0.7773019999999999,0.0673054999999999,0.8294000000000001,0.581162,0.0790734999999999,0.70601,0.800162,0.0182934999999999,1.1663,0.585162,0.0383154999999999,1.23279,0.828552,-0.0836465,0.6753,1.031672,-0.0849564999999999,1.20789,1.110272,-0.1699365,0.918667,-0.0008929999999999,0.0059334999999999,1.081333,0.0008929999999999,-0.0059335,0.86788,-0.513918,-0.0036725,1.1323,-0.485008,-0.0637505,0.8552600000000001,-0.901398,0.0219455,1.14121,-0.868848,0.0006324999999999,1
78,1.0027905,0.7767275,0.063925,0.8293745000000001,0.5809074999999999,0.077346,0.7053545,0.8000575,0.015033,1.1661345,0.5847374999999999,0.035727,1.2323545,0.8256374999999999,-0.087324,0.6742345000000001,1.0307875,-0.089324,1.2076145,1.1076875,-0.174334,0.9185485,-0.0009135,0.006003,1.0814515,0.0009134999999999,-0.006003,0.8673645,-0.5118625,-0.00859,1.1324645,-0.4823125,-0.068628,0.8557545,-0.8999025,0.020747,1.1413345,-0.8679425000000001,-0.0006349999999999,1
79,1.002652,0.7762535,0.060537,0.829396,0.5805935,0.075488,0.704786,0.8003535,0.01173,1.166276,0.5848335,0.033205,1.232086,0.8227335,-0.0907099999999999,0.673326,1.0301135,-0.09361,1.207486,1.1053135,-0.17848,0.918373,-0.0008594999999999,0.006151,1.081627,0.0008595,-0.0061509999999999,0.866876,-0.5098064999999999,-0.012968,1.132806,-0.4792964999999999,-0.07325,0.856096,-0.8980665,0.019513,1.141686,-0.8662865,-0.001964,1
80,1.002629,0.776069,0.0574735,0.8295620000000001,0.5803389999999999,0.0737714999999999,0.7042820000000001,0.800689,0.0084015,1.166542,0.584789,0.0307864999999999,1.232012,0.819979,-0.0938885,0.672532,1.029619,-0.0977185,1.207392,1.103119,-0.1825485,0.91814,-0.000814,0.0063774999999999,1.0818599999999998,0.000814,-0.0063775,0.866312,-0.507171,-0.0175125,1.133242,-0.476521,-0.0776585,0.8568020000000001,-0.895951,0.0183895,1.142112,-0.864411,-0.0032365,1
81,1.002644,0.77549,0.0543745,0.829764,0.57943,0.0720445,0.704034,0.80131,0.0051074999999999,1.166794,0.58505,0.0284285,1.231904,0.81726,-0.0969005,0.6721440000000001,1.0293,-0.1018205,1.207334,1.1009,-0.1863604999999999,0.917893,-0.000765,0.0066144999999999,1.082107,0.0007649999999999,-0.0066144999999999,0.865654,-0.50428,-0.0225235,1.133304,-0.47367,-0.0830405,0.857124,-0.89375,0.0174264999999999,1.142344,-0.86231,-0.0045305,1
82,1.002702,0.7751444999999999,0.0516335,0.8299449999999999,0.5782944999999999,0.0703765,0.7037450000000001,0.8020744999999999,0.0017774999999999,1.167065,0.5855944999999999,0.0261204999999999,1.231795,0.8148145,-0.0997325,0.6717949999999999,1.0291345,-0.1054425,1.207335,1.0980345,-0.1901925,0.917627,-0.0006985,0.0068884999999999,1.082373,0.0006984999999999,-0.0068884999999999,0.8649249999999999,-0.5015555,-0.0272435,1.133225,-0.4705855,-0.0885625,0.857195,-0.8915255000000001,0.0162744999999999,1.142545,-0.8598455,-0.0057784999999999,1
83,1.002872,0.7750245,0.0487665,0.83014,0.5770145,0.0687165,0.70353,0.8033145,-0.0015224999999999,1.1674,0.5864845,0.0239845,1.23175,0.8128245,-0.1025604999999999,0.67145,1.0297145,-0.1091205,1.2074,1.0952145,-0.1941605,0.917393,-0.0005514999999999,0.0071785,1.082607,0.0005514999999999,-0.0071785,0.8642799999999999,-0.4981455,-0.0321815,1.13321,-0.4677655,-0.0940204999999999,0.85732,-0.8888455,0.0149695,1.14257,-0.8568155,-0.0080395,1
84,1.0032985,0.7744295,0.0460695,0.8305375,0.5758795,0.0671885,0.7033175,0.8041995000000001,-0.0047754999999999,1.1677975,0.5872895,0.0219685,1.2321975,0.8129095000000001,-0.1054845,0.6710775,1.0297595,-0.1124345,1.2080075,1.0928595,-0.1980345,0.9171625,-0.0004944999999999,0.0075024999999999,1.0828375,0.0004945,-0.0075024999999999,0.8635475000000001,-0.4944405,-0.0369304999999999,1.1332175,-0.4648905,-0.0986445,0.8573075,-0.8863605,0.0133055,1.1427075,-0.8538705,-0.0100745,1
85,1.003727,0.7736329999999999,0.043398,0.830933,0.574863,0.0658219999999999,0.7031229999999999,0.805133,-0.008163,1.168323,0.587633,0.020196,1.232903,0.8138029999999999,-0.108607,0.670713,1.029963,-0.115477,1.208723,1.090603,-0.201947,0.916987,-0.0004059999999999,0.0077689999999999,1.083013,0.000406,-0.0077689999999999,0.862953,-0.490527,-0.041537,1.133253,-0.461347,-0.103027,0.8573230000000001,-0.883637,0.0115489999999999,1.142883,-0.850927,-0.012118,1
86,1.0042735,0.7732915,0.040448,0.8313595,0.5742515,0.064077,0.7030195,0.8056515000000001,-0.0114939999999999,1.1691695,0.5859715000000001,0.017459,1.2336895,0.8139315,-0.112339,0.6704195,1.0306215,-0.1185189999999999,1.2096995,1.0888315,-0.2064589999999999,0.9167525,-0.0001714999999999,0.007944,1.0832475,0.0001714999999999,-0.007944,0.8625395000000001,-0.4866685,-0.046324,1.1333195,-0.4572185,-0.107429,0.8576495,-0.8802684999999999,0.010066,1.1430495,-0.8478085,-0.0147109999999999,1
87,1.004771,0.773319,0.0375939999999999,0.8317200000000001,0.5737089999999999,0.062276,0.70279,0.805809,-0.014827,1.17005,0.5840489999999999,0.0147209999999999,1.23444,0.814039,-0.116149,0.6701000000000001,1.029699,-0.121529,1.211,1.087089,-0.211459,0.916486,0.0001369999999999,0.008058,1.083514,-0.0001369999999999,-0.008058,0.8622200000000001,-0.482691,-0.051234,1.13337,-0.453551,-0.111789,0.8579600000000001,-0.876731,0.0085269999999999,1.14318,-0.8441810000000001,-0.016972,1
88,1.005246,0.7734909999999999,0.0346855,0.8319720000000002,0.573391,0.0604135,0.702322,0.805751,-0.0182135,1.170762,0.581931,0.0121754999999999,1.235242,0.814191,-0.1201505,0.669682,1.029331,-0.1245905,1.212652,1.085451,-0.2164405,0.916166,0.000376,0.0081504999999999,1.083834,-0.000376,-0.0081504999999999,0.8620220000000001,-0.477969,-0.0562315,1.133362,-0.449229,-0.1162505,0.858422,-0.8725390000000001,0.0069875,1.143282,-0.8400390000000001,-0.0193165,1
89,1.0055745,0.773566,0.0315775,0.8321085,0.572866,0.0581815,0.7016085000000001,0.805116,-0.0216045,1.1713885,0.579806,0.0094005,1.2359185,0.814216,-0.1244665,0.6690685000000001,1.029226,-0.1279165,1.2143885,1.083846,-0.2215265,0.9157905,0.0005409999999999,0.0081824999999999,1.0842094999999998,-0.0005409999999999,-0.0081824999999999,0.8618885000000001,-0.4731339999999999,-0.0608274999999999,1.1332185,-0.444694,-0.1209465,0.8587485,-0.868204,0.0052224999999999,1.1434985,-0.835504,-0.0216395,1
90,1.0057385,0.7737755,0.028072,0.8322255000000001,0.5734054999999999,0.055881,0.7007755,0.8044155,-0.025246,1.1718755,0.5768854999999999,0.006065,1.2366455,0.8141155,-0.128905,0.6682055,1.0292955,-0.132045,1.2161455,1.0823855,-0.227015,0.9154095,0.0008374999999999,0.008129,1.0845905,-0.0008375,-0.008129,0.8618055,-0.4679345,-0.064967,1.1331955,-0.4399945,-0.124635,0.8589755,-0.8635745,0.002961,1.1437855,-0.8307745000000001,-0.024073,1
91,1.0056664999999998,0.7744335,0.024086,0.8321085,0.5735735000000001,0.052462,0.6998385,0.8041835,-0.02909,1.1721285,0.5738435000000001,0.002121,1.2373885,0.8143235000000001,-0.133717,0.6670885000000001,1.0301535,-0.136927,1.2176685,1.0829535,-0.232637,0.9149825,0.0010135,0.008059,1.0850175,-0.0010135,-0.008059,0.8616185000000001,-0.4621565,-0.069326,1.1330885,-0.4347065,-0.128337,0.8590885,-0.8581664999999999,0.001022,1.1438985,-0.8257764999999999,-0.0271639999999999,1
92,1.0054094999999998,0.7750355,0.019773,0.8318285,0.5737855000000001,0.048527,0.6987085,0.8036255000000001,-0.033421,1.1721885,0.5705855,-0.0022679999999999,1.2380485,0.8143555,-0.138687,0.6659185000000001,1.0307655,-0.142127,1.2192385,1.0836655,-0.238367,0.9145945,0.0011315,0.007864,1.0854055,-0.0011314999999999,-0.007864,0.8613284999999999,-0.4566944999999999,-0.073542,1.1328685,-0.4292845,-0.132307,0.8589785,-0.8527545000000001,-0.0011649999999999,1.1438785,-0.8208945000000001,-0.0294759999999999,1
93,1.0051264999999998,0.7758935,0.015264,0.8313855,0.5737534999999999,0.044092,0.6975655000000001,0.8032735,-0.0380039999999999,1.1722555,0.5672935,-0.007171,1.2386055,0.8141634999999999,-0.143629,0.6648355,1.0321435,-0.147329,1.2209855,1.0846735,-0.244299,0.9142015,0.0012344999999999,0.007697,1.0857985,-0.0012344999999999,-0.0076969999999999,0.8610955,-0.4517764999999999,-0.0776439999999999,1.1326155,-0.4239765,-0.136279,0.8588455,-0.8470765,-0.0033879999999999,1.1438155,-0.8158665,-0.032018,1
94,1.0047615,0.7770365,0.010235,0.8307435,0.5738865,0.038814,0.6962735,0.8026365,-0.042992,1.1719735,0.5642564999999999,-0.012759,1.2391835,0.8138765,-0.148363,0.6637435,1.0301665,-0.152803,1.2228235,1.0861265,-0.250263,0.9138225,0.0013365,0.0075309999999999,1.0861774999999998,-0.0013365,-0.0075309999999999,0.8608635,-0.4461935,-0.082143,1.1323135,-0.4183535,-0.1403329999999999,0.8589335000000001,-0.8412735,-0.0059629999999999,1.1435435,-0.8107635,-0.035191,1
95,1.004306,0.778011,0.0049955,0.830038,0.573481,0.0331445,0.694928,0.8022410000000001,-0.0484254999999999,1.171588,0.563851,-0.0175145,1.239938,0.814411,-0.1529744999999999,0.6626380000000001,1.028051,-0.1583045,1.224838,1.087691,-0.2558645,0.913546,0.0012749999999999,0.0074615,1.086454,-0.0012749999999999,-0.0074614999999999,0.860588,-0.442249,-0.0868245,1.131948,-0.413259,-0.1443144999999999,0.8587279999999999,-0.8358289999999999,-0.0088884999999999,1.143188,-0.8052189999999999,-0.0381544999999999,1
96,1.0037375,0.778594,-0.0006619999999999,0.8292815,0.572864,0.027092,0.6935614999999999,0.801714,-0.054199,1.1712215,0.563984,-0.0222719999999999,1.2409815,0.814724,-0.157889,0.6615015,1.027394,-0.163959,1.2268215,1.089424,-0.261059,0.9133275,0.001198,0.007366,1.0866725,-0.001198,-0.007366,0.8603315,-0.4386859999999999,-0.091399,1.1315815,-0.408376,-0.148349,0.8584815,-0.830576,-0.0122649999999999,1.1427815,-0.800376,-0.0418869999999999,1
97,1.0030899999999998,0.7788105,-0.006694,0.828524,0.5720205,0.020568,0.6923440000000001,0.8013604999999999,-0.060281,1.170764,0.5638005,-0.027643,1.242364,0.8152604999999999,-0.162939,0.660474,1.0263805,-0.169809,1.228944,1.0912005,-0.266359,0.913297,0.0010845,0.0072599999999999,1.086703,-0.0010845,-0.00726,0.860124,-0.4358494999999999,-0.0958789999999999,1.131204,-0.4039795,-0.152089,0.858384,-0.8257995,-0.015818,1.142274,-0.7963095,-0.045863,1
98,1.0023265,0.77874,-0.0131605,0.8277765,0.57117,0.0138784999999999,0.6911165,0.80145,-0.0668914999999999,1.1698065,0.56369,-0.0332335,1.2439865,0.81565,-0.1681175,0.6593565,1.02396,-0.1758674999999999,1.2312965,1.09282,-0.2719075,0.9132205,0.0009799999999999,0.0071484999999999,1.0867795,-0.00098,-0.0071485,0.8598265,-0.4328,-0.1005674999999999,1.1308265,-0.39953,-0.1553775,0.8581165,-0.8211299999999999,-0.0194195,1.1418465,-0.79219,-0.0501345,1
99,1.001634,0.77865,-0.0194519999999999,0.827116,0.56969,0.006886,0.690056,0.80049,-0.073846,1.169006,0.56391,-0.038546,1.245946,0.81589,-0.173551,0.658426,1.0209,-0.181911,1.234046,1.09408,-0.277401,0.91319,0.00076,0.007068,1.08681,-0.0007599999999999,-0.007068,0.8597360000000001,-0.43048,-0.105021,1.130526,-0.3950599999999999,-0.158531,0.857976,-0.8166800000000001,-0.023089,1.141426,-0.7883600000000001,-0.053487,1
100,1.0008994999999998,0.77829,-0.02633,0.8265295,0.56908,6.699999999999962e-05,0.6888894999999999,0.79937,-0.081303,1.1683395,0.56329,-0.044119,1.2482095,0.81574,-0.179345,0.6576595000000001,1.01752,-0.188635,1.2374794999999998,1.09214,-0.283275,0.9130905,0.0007999999999999,0.006793,1.0869095,-0.0008,-0.006793,0.8596995000000001,-0.42915,-0.109675,1.1301995,-0.3912599999999999,-0.1619449999999999,0.8577795,-0.8122,-0.027053,1.1409495,-0.7842399999999999,-0.057393,1
101,1.0003725,0.7777499999999999,-0.0334415,0.8260855,0.56864,-0.0067535,0.6876655,0.7976099999999999,-0.0890295,1.1677855,0.56272,-0.0498485,1.2508855,0.81441,-0.1853525,0.6571555,1.01321,-0.1960325,1.2410055,1.08925,-0.2900725,0.9129905,0.0006899999999999,0.0068575,1.0870095,-0.0006899999999999,-0.0068575,0.8596455000000001,-0.42776,-0.1143125,1.1299255,-0.38772,-0.1656525,0.8574355000000001,-0.80789,-0.0319194999999999,1.1405255,-0.78052,-0.0619064999999999,1
102,0.999871,0.7768550000000001,-0.0408435,0.82569,0.568575,-0.0134155,0.68652,0.795625,-0.0971445,1.16734,0.5616650000000001,-0.0556544999999999,1.25379,0.812295,-0.1915885,0.65654,1.006925,-0.2046085,1.24453,1.085135,-0.2968285,0.912932,0.000685,0.0068185,1.087068,-0.0006849999999999,-0.0068185,0.85972,-0.4268949999999999,-0.1185985,1.12972,-0.384275,-0.1694985,0.85715,-0.803725,-0.0369855,1.14001,-0.776405,-0.0663485,1
103,0.9995595,0.77563,-0.0482775,0.8254825,0.56801,-0.0199195,0.6856125,0.7931600000000001,-0.1054255,1.1672325,0.56038,-0.0612985,1.2568325,0.8093,-0.1980355,0.6560325,1.00413,-0.2139055,1.2480925,1.08014,-0.3041155,0.9128725,0.0007199999999999,0.0067364999999999,1.0871275,-0.0007199999999999,-0.0067365,0.8599825,-0.4246999999999999,-0.1226355,1.1297025,-0.38103,-0.1733455,0.8571525,-0.79964,-0.0418505,1.1397525,-0.7717799999999999,-0.0702355,1
104,0.999481,0.77378,-0.0556505,0.825546,0.56745,-0.0261145,0.684976,0.79039,-0.1135525,1.167366,0.55872,-0.0668515,1.260126,0.8057500000000001,-0.2045525,0.655926,0.99978,-0.2233625,1.251786,1.07501,-0.3117224999999999,0.912798,0.00079,0.0066785,1.087202,-0.0007899999999999,-0.0066784999999999,0.860376,-0.4226099999999999,-0.1265125,1.129986,-0.3772099999999999,-0.1769625,0.8573459999999999,-0.79537,-0.0468075,1.139686,-0.7666299999999999,-0.0740605,1
105,0.9994445,0.771915,-0.063057,0.8258015000000001,0.566895,-0.032197,0.6845015,0.787725,-0.121642,1.1675315,0.556715,-0.072458,1.2632715,0.8023250000000001,-0.211192,0.6559515,0.995105,-0.233482,1.2555015,1.069335,-0.320052,0.9127655,0.000835,0.006627,1.0872345,-0.000835,-0.0066269999999999,0.8607715000000001,-0.4210549999999999,-0.130502,1.1303215,-0.373335,-0.180412,0.8575815000000001,-0.791505,-0.0517799999999999,1.1396715,-0.761385,-0.078,1
106,0.9995475,0.7701499999999999,-0.0701199999999999,0.8262065000000001,0.56611,-0.037831,0.6841865,0.78458,-0.129656,1.1678164999999998,0.5550299999999999,-0.077541,1.2659965,0.7980799999999999,-0.217736,0.6558965,0.99027,-0.243696,1.2591065,1.06203,-0.3286759999999999,0.9127335,0.0008899999999999,0.006581,1.0872665,-0.00089,-0.0065809999999999,0.8612365,-0.42067,-0.134466,1.1308265,-0.37072,-0.183086,0.8579765,-0.7878400000000001,-0.0557439999999999,1.1398865,-0.75667,-0.081538,1
107,0.9997585,0.768335,-0.0769275,0.8268225000000001,0.565295,-0.0432105,0.6841425,0.781355,-0.1375775,1.1682125,0.552845,-0.0823515,1.2686025,0.793115,-0.2246075,0.6558625,0.986755,-0.2542275,1.2625225,1.053675,-0.3373875,0.9126685,0.0009549999999999,0.0066965,1.0873315,-0.000955,-0.0066964999999999,0.8618525,-0.421205,-0.1375675,1.1314025,-0.368465,-0.1856575,0.8583225000000001,-0.784265,-0.0606395,1.1402625,-0.7521550000000001,-0.0849375,1
108,1.0000365,0.76691,-0.083454,0.8275445000000001,0.56463,-0.048437,0.6841545,0.77918,-0.145076,1.1685645,0.55061,-0.087123,1.2707345,0.78841,-0.2313059999999999,0.6558745,0.98402,-0.264626,1.2656245,1.04562,-0.346076,0.9125845,0.0010899999999999,0.0067559999999999,1.0874155,-0.00109,-0.006756,0.8624045000000001,-0.41955,-0.140516,1.1319845,-0.36621,-0.188086,0.8585445,-0.78054,-0.065409,1.1405445,-0.7477499999999999,-0.088419,1
109,1.0002494999999998,0.76531,-0.0890975,0.8281864999999999,0.5636300000000001,-0.0529645,0.6840765,0.77667,-0.1518515,1.1691265,0.5489999999999999,-0.0912505,1.2724765,0.78342,-0.2373715,0.6558765,0.9811,-0.2739415,1.2678065,1.03946,-0.3542215,0.9125065,0.0010799999999999,0.0070095,1.0874935,-0.0010799999999999,-0.0070094999999999,0.8628765,-0.41862,-0.1427515,1.1324365,-0.36399,-0.1902215,0.8587465,-0.77754,-0.0694515,1.1407064999999998,-0.74374,-0.0912815,1
110,1.0004369999999998,0.7633949999999999,-0.0941305,0.828756,0.562455,-0.0570215,0.6839660000000001,0.774135,-0.1578425,1.169706,0.5468850000000001,-0.0947305,1.273616,0.779205,-0.2430125,0.655996,0.978325,-0.2822125,1.269776,1.033235,-0.3612925,0.912436,0.001195,0.0069935,1.087564,-0.001195,-0.0069935,0.863326,-0.417465,-0.1446125,1.132746,-0.361915,-0.1920925,0.858946,-0.7747850000000001,-0.0731874999999999,1.140766,-0.740235,-0.0937205,1
111,1.00061,0.7619250000000001,-0.0988034999999999,0.829294,0.560995,-0.0610855,0.683794,0.771845,-0.1634855,1.170214,0.545355,-0.0980385,1.2743639999999998,0.775795,-0.2485755,0.655984,0.975235,-0.2894455,1.271444,1.028275,-0.3684655,0.912314,0.0012749999999999,0.0070665,1.087686,-0.0012749999999999,-0.0070664999999999,0.863684,-0.4153049999999999,-0.1464355,1.1330239999999998,-0.3599449999999999,-0.1939955,0.859094,-0.7719349999999999,-0.0765355,1.140814,-0.736335,-0.0962895,1
112,1.000916,0.760045,-0.1032619999999999,0.8298369999999999,0.5600849999999999,-0.064761,0.683737,0.770315,-0.168729,1.170637,0.544035,-0.101278,1.274907,0.772705,-0.253749,0.655837,0.972175,-0.2959589999999999,1.273037,1.022955,-0.375189,0.912227,0.001315,0.007225,1.087773,-0.0013149999999999,-0.007225,0.863907,-0.413595,-0.148219,1.133267,-0.358255,-0.195869,0.859017,-0.769295,-0.080024,1.140847,-0.732695,-0.098949,1
113,1.001181,0.75871,-0.1073885,0.830349,0.55965,-0.0682715,0.683879,0.76929,-0.1739695,1.170949,0.54247,-0.1044095,1.275319,0.7698200000000001,-0.2586895,0.655579,0.97024,-0.3024894999999999,1.274359,1.0173,-0.3817095,0.912169,0.00141,0.0072494999999999,1.087831,-0.0014099999999999,-0.0072495,0.864099,-0.4127999999999999,-0.1499695,1.133569,-0.35746,-0.1972395,0.858909,-0.76707,-0.0835075,1.1408489999999998,-0.72983,-0.1019665,1
114,1.0014685,0.75756,-0.111038,0.8307795,0.55941,-0.0714809999999999,0.6840395,0.7679100000000001,-0.1789009999999999,1.1712295,0.54064,-0.107288,1.2758195,0.76681,-0.263191,0.6552895000000001,0.96814,-0.308361,1.2754695,1.01173,-0.387581,0.9121195,0.00152,0.007314,1.0878805,-0.0015199999999999,-0.0073139999999999,0.8642495,-0.4102499999999999,-0.151781,1.1338595,-0.3569199999999999,-0.198401,0.8587095000000001,-0.7649900000000001,-0.087061,1.1408995,-0.7268600000000001,-0.104636,1
115,1.0018269999999998,0.75612,-0.1146095,0.831441,0.55869,-0.0747345,0.684191,0.76689,-0.1836655,1.171451,0.53895,-0.1100615,1.276361,0.7644,-0.2675754999999999,0.655011,0.96579,-0.3142755,1.276371,1.00724,-0.3931655,0.912051,0.0015999999999999,0.0074074999999999,1.087949,-0.0015999999999999,-0.0074074999999999,0.8645309999999999,-0.40778,-0.1535755,1.134071,-0.3560799999999999,-0.1999655,0.8585309999999999,-0.76283,-0.0906645,1.140971,-0.72381,-0.1072755,1
116,1.002197,0.75417,-0.118051,0.831981,0.55765,-0.077875,0.684311,0.76559,-0.188133,1.171621,0.53732,-0.112846,1.276971,0.76231,-0.271223,0.654771,0.96275,-0.319463,1.277051,1.00362,-0.398303,0.912011,0.0018199999999999,0.007371,1.087989,-0.00182,-0.0073709999999999,0.864871,-0.40552,-0.155963,1.134261,-0.35519,-0.201423,0.858491,-0.76057,-0.093569,1.141091,-0.7210799999999999,-0.109858,1
117,1.002645,0.75225,-0.1216124999999999,0.8324860000000001,0.55663,-0.0810765,0.684436,0.7640399999999999,-0.1927175,1.171836,0.5357799999999999,-0.1157965,1.277716,0.7602599999999999,-0.2748775,0.6545460000000001,0.95913,-0.3242975,1.277746,0.99908,-0.4033175,0.911976,0.0019499999999999,0.0074694999999999,1.088024,-0.00195,-0.0074694999999999,0.865226,-0.40201,-0.1582275,1.134466,-0.3539800000000001,-0.2031475,0.858526,-0.75799,-0.0960935,1.141176,-0.7188100000000001,-0.1123025,1
118,1.003181,0.750315,-0.125311,0.833117,0.555615,-0.084284,0.6846570000000001,0.762505,-0.197265,1.172067,0.534145,-0.118782,1.278447,0.7584650000000001,-0.2785849999999999,0.654417,0.955225,-0.329005,1.278427,0.995175,-0.408105,0.911917,0.002035,0.007528,1.088083,-0.002035,-0.007528,0.865597,-0.4000749999999999,-0.160392,1.134767,-0.353105,-0.204705,0.858367,-0.755775,-0.099007,1.141377,-0.716635,-0.1147769999999999,1
119,1.003654,0.74875,-0.1294405,0.8337289999999999,0.55471,-0.0877455,0.684909,0.76142,-0.2019665,1.172279,0.53304,-0.1218924999999999,1.279369,0.75685,-0.2825165,0.6542589999999999,0.9515,-0.3344965,1.279079,0.99187,-0.4134065,0.911859,0.00216,0.0076065,1.088141,-0.0021599999999999,-0.0076064999999999,0.8660289999999999,-0.3961699999999999,-0.1625495,1.135199,-0.3526499999999999,-0.2065265,0.858189,-0.75295,-0.1024934999999999,1.141559,-0.7138,-0.1174435,1
120,1.003863,0.7472949999999999,-0.13356,0.834024,0.5535749999999999,-0.09093,0.6849240000000001,0.760065,-0.206658,1.172114,0.531665,-0.124911,1.279904,0.755225,-0.286368,0.653824,0.949885,-0.340158,1.279494,0.988475,-0.418558,0.912044,0.0022049999999999,0.0076419999999999,1.087956,-0.002205,-0.007642,0.8658440000000001,-0.392765,-0.1657,1.135284,-0.350985,-0.2096879999999999,0.857764,-0.751445,-0.106187,1.141444,-0.711085,-0.120102,1
121,1.004045,0.746495,-0.137376,0.834337,0.552405,-0.0939749999999999,0.685287,0.756785,-0.211066,1.172017,0.530485,-0.127773,1.280297,0.753965,-0.290116,0.653477,0.947655,-0.345916,1.280007,0.985505,-0.423686,0.912177,0.0022349999999999,0.007707,1.087823,-0.002235,-0.0077069999999999,0.865737,-0.3888749999999999,-0.168698,1.135427,-0.349475,-0.212716,0.857397,-0.750385,-0.11007,1.141357,-0.708335,-0.12251,1
122,1.003717,0.74558,-0.146357,0.834167,0.5512,-0.102182,0.6851770000000001,0.75356,-0.220498,1.171457,0.5294,-0.135789,1.280007,0.75261,-0.299138,0.6527070000000001,0.94569,-0.3567479999999999,1.280057,0.98267,-0.4338379999999999,0.912384,0.00226,0.0076869999999999,1.087616,-0.00226,-0.0076869999999999,0.865157,-0.3851,-0.176859,1.135257,-0.3480799999999999,-0.2209279999999999,0.856607,-0.7495299999999999,-0.119091,1.140737,-0.70568,-0.129972,1
123,1.0032139999999998,0.74718,-0.156597,0.833857,0.55125,-0.111519,0.6849270000000001,0.75326,-0.231095,1.170557,0.53043,-0.145049,1.279257,0.75296,-0.309765,0.6518470000000001,0.94679,-0.369455,1.280267,0.98222,-0.445835,0.912693,0.0022199999999999,0.007884,1.087307,-0.0022199999999999,-0.007884,0.862967,-0.3726199999999999,-0.190295,1.135977,-0.33956,-0.233125,0.855477,-0.74644,-0.131146,1.140017,-0.70044,-0.138636,1
124,1.0027865,0.7491949999999999,-0.1666345,0.8334365,0.551925,-0.1206065,0.6848365000000001,0.752765,-0.2414295,1.1697165,0.531725,-0.1541785,1.2784865,0.753335,-0.3206295,0.6511865,0.947655,-0.3819495,1.2806365,0.982125,-0.4576295,0.9130725,0.0021849999999999,0.0079404999999999,1.0869274999999998,-0.0021849999999999,-0.0079405,0.8608965,-0.359955,-0.2036795,1.1368465,-0.330945,-0.2452095,0.8544665,-0.743305,-0.1431255,1.1393765,-0.695315,-0.1471035,1
125,1.0024245,0.751795,-0.1763865,0.8330955000000001,0.552745,-0.1295405,0.6849255000000001,0.7524949999999999,-0.2514635,1.1689855,0.533455,-0.1633165,1.2778155,0.754025,-0.3314835,0.6507555,0.948645,-0.3942435,1.2812855,0.982035,-0.4692335,0.9134525,0.0021849999999999,0.0079164999999999,1.0865475,-0.0021849999999999,-0.0079165,0.8588055,-0.3476849999999999,-0.2171135,1.1377555,-0.3218049999999999,-0.2577635,0.8535355,-0.7398450000000001,-0.1549625,1.1388955,-0.689675,-0.1553035,1
126,1.002071,0.75441,-0.185609,0.83276,0.5536099999999999,-0.138035,0.6851400000000001,0.75236,-0.260915,1.1683899999999998,0.53549,-0.171986,1.27719,0.75474,-0.341785,0.65048,0.94988,-0.406195,1.282,0.98278,-0.480285,0.913815,0.0021199999999999,0.0078349999999999,1.086185,-0.00212,-0.0078349999999999,0.85669,-0.33548,-0.2301949999999999,1.13874,-0.3127999999999999,-0.269715,0.85274,-0.73638,-0.166086,1.13841,-0.68454,-0.163441,1
127,1.001695,0.756965,-0.1942559999999999,0.832372,0.5544549999999999,-0.14618,0.685362,0.752095,-0.26977,1.167792,0.5377350000000001,-0.180274,1.276612,0.755535,-0.35155,0.6502319999999999,0.950965,-0.41776,1.282812,0.983545,-0.49072,0.91416,0.0020949999999999,0.00778,1.08584,-0.002095,-0.0077799999999999,0.854392,-0.323585,-0.24313,1.139632,-0.303135,-0.2817699999999999,0.8520920000000001,-0.732605,-0.176063,1.137932,-0.679445,-0.171289,1
128,1.001348,0.75939,-0.202338,0.832032,0.55522,-0.153974,0.685352,0.7527699999999999,-0.27837,1.167212,0.53983,-0.188241,1.276072,0.75634,-0.36036,0.650092,0.9523,-0.4281,1.283692,0.98456,-0.50021,0.914483,0.0020499999999999,0.0077399999999999,1.085517,-0.0020499999999999,-0.00774,0.852042,-0.3120799999999999,-0.25581,1.140422,-0.2935199999999999,-0.29361,0.851342,-0.7279,-0.186267,1.137472,-0.67516,-0.178776,1
129,1.0009629999999998,0.76196,-0.210063,0.8316870000000001,0.55626,-0.161409,0.685217,0.75421,-0.286325,1.166547,0.54227,-0.1958929999999999,1.275367,0.75768,-0.368355,0.6498470000000001,0.95379,-0.437465,1.284577,0.98628,-0.508925,0.91481,0.00204,0.007705,1.08519,-0.0020399999999999,-0.0077049999999999,0.8495969999999999,-0.30169,-0.268405,1.141157,-0.28431,-0.305115,0.8505170000000001,-0.7235,-0.196328,1.136887,-0.67099,-0.1859239999999999,1
130,1.000543,0.764955,-0.217433,0.8312470000000001,0.557205,-0.168322,0.6848069999999999,0.757245,-0.293695,1.165807,0.544375,-0.203187,1.274547,0.759355,-0.375685,0.649627,0.955695,-0.445445,1.285467,0.989165,-0.516445,0.915186,0.0020149999999999,0.007615,1.084814,-0.0020149999999999,-0.007615,0.846997,-0.290655,-0.280845,1.141817,-0.275625,-0.316475,0.849497,-0.718985,-0.206248,1.136307,-0.667195,-0.192768,1
131,1.0006944999999998,0.767725,-0.218913,0.8313655,0.5586249999999999,-0.1694459999999999,0.6851855,0.760015,-0.29545,1.1654555,0.546685,-0.204283,1.2741254999999998,0.761785,-0.37731,0.6499055,0.958465,-0.4484599999999999,1.2868055,0.991935,-0.5182599999999999,0.9154485,0.0021049999999999,0.0076799999999999,1.0845515,-0.0021049999999999,-0.0076799999999999,0.8441455,-0.280015,-0.2884799999999999,1.1428555,-0.267415,-0.32203,0.8490355,-0.716085,-0.210658,1.1362955,-0.663905,-0.193923,1
132,1.001017,0.76842,-0.218473,0.8316,0.55856,-0.169254,0.68548,0.76071,-0.2953449999999999,1.16535,0.54694,-0.203614,1.27384,0.7618,-0.377365,0.65018,0.95916,-0.448585,1.28765,0.99263,-0.518455,0.915645,0.0021299999999999,0.0075649999999999,1.084355,-0.0021299999999999,-0.007565,0.84321,-0.27823,-0.289525,1.14318,-0.26672,-0.322205,0.84894,-0.71571,-0.211741,1.13658,-0.66321,-0.19391,1
133,1.001128,0.76852,-0.217519,0.831689,0.5586599999999999,-0.168939,0.685559,0.7609199999999999,-0.2953599999999999,1.165029,0.54704,-0.2026049999999999,1.273519,0.7619,-0.3771799999999999,0.650279,0.95926,-0.44897,1.288209,0.99273,-0.51843,0.915791,0.0020899999999999,0.00755,1.084209,-0.00209,-0.00755,0.841869,-0.27683,-0.29094,1.143319,-0.26662,-0.32222,0.848689,-0.7157600000000001,-0.212807,1.136649,-0.66327,-0.193887,1
134,1.0010905,0.76863,-0.21617,0.8315585,0.5586599999999999,-0.168223,0.6856285,0.76357,-0.2949199999999999,1.1643885,0.54704,-0.201241,1.2731985,0.7619,-0.37643,0.6502985,0.9603,-0.44897,1.2882985,0.99297,-0.5178400000000001,0.9159345,0.0020899999999999,0.00753,1.0840655,-0.00209,-0.00753,0.8406885,-0.27628,-0.29114,1.1433085,-0.2665,-0.32244,0.8483485,-0.71658,-0.213801,1.1366685,-0.66327,-0.193887,1
135,1.0010724999999998,0.76911,-0.213459,0.8312795,0.5586599999999999,-0.166766,0.6851295,0.76662,-0.2941,1.1636595,0.5472699999999999,-0.19916,1.2730595,0.7626499999999999,-0.37415,0.6504695,0.96491,-0.44844,1.2886895,0.99419,-0.51536,0.9158255,0.0020899999999999,0.00747,1.0841745,-0.00209,-0.00747,0.8401695,-0.27611,-0.29101,1.1433895,-0.26641,-0.32233,0.8487395,-0.71648,-0.2133209999999999,1.1367895,-0.66418,-0.193827,1
136,1.000994,0.77079,-0.209968,0.8307820000000001,0.55913,-0.1646449999999999,0.6845220000000001,0.77027,-0.29275,1.162772,0.54739,-0.196499,1.272782,0.76386,-0.37085,0.6505719999999999,0.96989,-0.44718,1.289062,0.99583,-0.51196,0.915809,0.00218,0.0073199999999999,1.084191,-0.0021799999999999,-0.0073199999999999,0.8402120000000001,-0.2758799999999999,-0.29063,1.143332,-0.26641,-0.32174,0.8489320000000001,-0.7164699999999999,-0.2124889999999999,1.136992,-0.6653,-0.193464,1
137,1.0009009999999998,0.7729250000000001,-0.205755,0.830322,0.5598650000000001,-0.1618,0.6839320000000001,0.7744249999999999,-0.290505,1.161912,0.547745,-0.19307,1.272612,0.7655350000000001,-0.366495,0.650702,0.974635,-0.443755,1.289542,0.998165,-0.507675,0.915803,0.002165,0.0072649999999999,1.084197,-0.002165,-0.0072649999999999,0.840302,-0.276335,-0.289825,1.1431019999999998,-0.266935,-0.320625,0.849032,-0.7173449999999999,-0.211737,1.137602,-0.669915,-0.197055,1
138,1.0008565,0.77538,-0.200682,0.8297815,0.5604899999999999,-0.158307,0.6832815000000001,0.77801,-0.2872949999999999,1.1611115,0.54834,-0.188985,1.2726415,0.76771,-0.360715,0.6507915,0.97951,-0.439725,1.2898315,1.00158,-0.502645,0.9157955,0.0020499999999999,0.0072049999999999,1.0842044999999998,-0.00205,-0.007205,0.8405115,-0.27724,-0.287955,1.1424415,-0.2683,-0.318915,0.8490415,-0.71817,-0.211859,1.1381815,-0.67513,-0.200455,1
139,1.0006875,0.778165,-0.1952409999999999,0.8291275000000001,0.560485,-0.1546189999999999,0.6823575,0.781315,-0.28352,1.1601175,0.549285,-0.18455,1.2725175,0.770055,-0.3548,0.6506775,0.983745,-0.43505,1.2897475,1.005465,-0.4971799999999999,0.9156745,0.001945,0.00725,1.0843255,-0.001945,-0.0072499999999999,0.8408275000000001,-0.278985,-0.2853099999999999,1.1409075,-0.270665,-0.3168999999999999,0.8493275,-0.720285,-0.210524,1.1384575,-0.681105,-0.2035729999999999,1
140,1.0002295,0.781235,-0.189173,0.8281965,0.560145,-0.150305,0.6811465,0.783705,-0.27896,1.1590365,0.5500149999999999,-0.179865,1.2721565,0.772805,-0.34856,0.6503265,0.987095,-0.42957,1.2888665,1.010685,-0.49109,0.9155265,0.0017049999999999,0.0072699999999999,1.0844735,-0.001705,-0.0072699999999999,0.8413065,-0.281855,-0.28177,1.1386465,-0.273805,-0.31401,0.8494165,-0.723105,-0.208492,1.1383465,-0.687685,-0.205929,1
141,0.9994865,0.78467,-0.182546,0.8268715,0.5619,-0.145104,0.6799815,0.78496,-0.273675,1.1580315,0.5506,-0.174905,1.2718615,0.77513,-0.341935,0.6497014999999999,0.98938,-0.423795,1.2876515,1.01497,-0.484175,0.9154255,0.0015199999999999,0.0072449999999999,1.0845745,-0.0015199999999999,-0.007245,0.8420915,-0.28595,-0.277555,1.1358515,-0.27744,-0.310595,0.8493115,-0.72712,-0.20641,1.1380915,-0.69492,-0.208578,1
142,0.998528,0.7863549999999999,-0.175637,0.825312,0.562665,-0.1394949999999999,0.678722,0.7854650000000001,-0.2678,1.156992,0.551325,-0.1695499999999999,1.271322,0.778405,-0.33485,0.648802,0.991005,-0.41769,1.285852,1.018235,-0.47726,0.915333,0.0012949999999999,0.0072399999999999,1.0846669999999998,-0.001295,-0.0072399999999999,0.843062,-0.291285,-0.27171,1.132732,-0.282125,-0.30599,0.849042,-0.7325349999999999,-0.204083,1.1374719999999998,-0.7030750000000001,-0.211024,1
143,0.99723,0.786405,-0.167884,0.8235870000000001,0.563015,-0.134141,0.677117,0.783685,-0.26229,1.155897,0.552415,-0.164273,1.270517,0.7810349999999999,-0.32806,0.647417,0.991925,-0.41182,1.283847,1.021465,-0.47001,0.915224,0.000815,0.00715,1.084776,-0.000815,-0.0071499999999999,0.844917,-0.2988149999999999,-0.2637,1.129037,-0.287375,-0.30044,0.8490070000000001,-0.740645,-0.200375,1.136687,-0.712245,-0.213252,1
144,0.9959065,0.786055,-0.160926,0.8221835,0.562725,-0.1295,0.6760735,0.782605,-0.25689,1.1550935,0.554995,-0.159487,1.2698435,0.784005,-0.32151,0.6460535000000001,0.989765,-0.4063,1.2819835,1.024965,-0.46348,0.9153095,0.000175,0.0069799999999999,1.0846905,-0.000175,-0.00698,0.8470535,-0.305975,-0.2561,1.1252235,-0.292175,-0.29485,0.8490535,-0.748535,-0.197168,1.1363035,-0.720765,-0.215639,1
145,0.9940685,0.783925,-0.153946,0.8204994999999999,0.562165,-0.125097,0.6744395000000001,0.7814749999999999,-0.25128,1.1540294999999998,0.558095,-0.154759,1.2688795,0.786905,-0.31493,0.6442795,0.987655,-0.40052,1.2797794999999998,1.028435,-0.4566,0.9153085,-0.0005149999999999,0.0068499999999999,1.0846915,0.000515,-0.00685,0.8497395,-0.3135949999999999,-0.24823,1.1211395,-0.297295,-0.28928,0.8487095,-0.757015,-0.193363,1.1353595,-0.7301249999999999,-0.217844,1
146,0.992182,0.78076,-0.147084,0.8187420000000001,0.5609,-0.12088,0.672702,0.77918,-0.245455,1.153262,0.56079,-0.150307,1.267692,0.78943,-0.308725,0.6423020000000002,0.98475,-0.395545,1.277742,1.0323,-0.449485,0.915353,-0.0009699999999999,0.0067949999999999,1.084647,0.0009699999999999,-0.006795,0.8517720000000001,-0.32076,-0.240605,1.117272,-0.30318,-0.283055,0.848282,-0.765,-0.18958,1.134382,-0.7399,-0.215339,1
147,0.990423,0.779665,-0.140029,0.8170160000000001,0.563485,-0.1158179999999999,0.6709360000000001,0.778365,-0.2391599999999999,1.152616,0.562665,-0.1454039999999999,1.266406,0.792815,-0.30306,0.6404160000000001,0.984515,-0.38983,1.275816,1.035925,-0.4417399999999999,0.915451,-0.001235,0.00678,1.084549,0.0012349999999999,-0.0067799999999999,0.8531460000000001,-0.327345,-0.23251,1.114416,-0.308935,-0.27625,0.8478559999999999,-0.7723150000000001,-0.1838729999999999,1.133796,-0.748985,-0.2121809999999999,1
148,0.988624,0.7773000000000001,-0.132315,0.815249,0.56511,-0.110021,0.669189,0.77667,-0.232125,1.151999,0.56395,-0.1396669999999999,1.265159,0.7955699999999999,-0.296545,0.6380790000000001,0.98654,-0.383415,1.273819,1.03906,-0.433235,0.915712,-0.0017,0.0067249999999999,1.084288,0.0017,-0.0067249999999999,0.854109,-0.3389,-0.223175,1.112579,-0.31973,-0.267845,0.847309,-0.78196,-0.1774909999999999,1.132979,-0.7586999999999999,-0.2082359999999999,1
149,0.987117,0.777855,-0.1246259999999999,0.813673,0.566315,-0.104211,0.667423,0.774935,-0.224795,1.151643,0.569275,-0.1334229999999999,1.264093,0.797385,-0.289925,0.635893,0.988055,-0.3774349999999999,1.272523,1.040205,-0.424465,0.915964,-0.0022149999999999,0.006735,1.084036,0.002215,-0.0067349999999999,0.854963,-0.350755,-0.21311,1.111503,-0.331445,-0.2587549999999999,0.846973,-0.791805,-0.170651,1.131823,-0.767195,-0.2031359999999999,1
150,0.9864515,0.777335,-0.113299,0.8130385,0.564775,-0.095005,0.6661585,0.773995,-0.21363,1.1519285,0.5732349999999999,-0.123497,1.2634585,0.799325,-0.27881,0.6344285000000001,0.988975,-0.36662,1.2720985,1.041665,-0.41165,0.9161755,-0.002615,0.00648,1.0838245,0.0026149999999999,-0.00648,0.8562585,-0.362655,-0.198375,1.1116385,-0.343385,-0.24481,0.8473685000000001,-0.802605,-0.158931,1.1314285,-0.776495,-0.193332,1
151,0.9862705,0.775845,-0.1004,0.8128394999999999,0.564575,-0.08382,0.6652495,0.771885,-0.200682,1.1527595,0.574525,-0.112015,1.2627895,0.797705,-0.266272,0.6333394999999999,0.988585,-0.352292,1.2721695,1.040865,-0.396852,0.9163315,-0.0024549999999999,0.0060179999999999,1.0836685,0.002455,-0.0060179999999999,0.8582595,-0.381665,-0.178198,1.1127195,-0.359055,-0.226152,0.8479395000000001,-0.815265,-0.145531,1.1317895,-0.787565,-0.17833,1
152,0.9864475,0.776158,-0.087959,0.8128775,0.564498,-0.072552,0.6645875,0.7710279999999999,-0.187336,1.1538075,0.575838,-0.100493,1.2626475,0.7976679999999999,-0.252911,0.6326975,0.987738,-0.337381,1.2721675,1.040568,-0.381731,0.9164745,-0.002099,0.0057269999999999,1.0835255,0.002099,-0.0057269999999999,0.8602275,-0.399532,-0.158579,1.1142275,-0.374322,-0.2079909999999999,0.8488375,-0.8269920000000001,-0.131565,1.1323875,-0.7982520000000001,-0.163308,1
153,0.9867805,0.777845,-0.0751995,0.8128515000000001,0.5646549999999999,-0.0609295,0.6640115000000001,0.770155,-0.1735175,1.1548915,0.576065,-0.0886764999999999,1.2626715,0.797395,-0.2394415,0.6320915,0.987605,-0.3217415,1.2719215,1.040115,-0.3656914999999999,0.9167265,-0.001769,0.0055774999999999,1.0832735,0.0017689999999999,-0.0055774999999999,0.8619114999999999,-0.418085,-0.1386305,1.1156615,-0.389785,-0.1892915,0.8495715,-0.838355,-0.1176715,1.1330915,-0.808965,-0.1476175,1
154,0.987516,0.7796375,-0.0620089999999999,0.813114,0.5652775,-0.0485759999999999,0.663864,0.7688475,-0.159252,1.156114,0.5755875,-0.0764249999999999,1.263084,0.7968474999999999,-0.225381,0.631804,0.9868475,-0.305571,1.271654,1.0390675,-0.349321,0.916965,-0.0016525,0.005623,1.083035,0.0016525,-0.005623,0.863674,-0.4360425,-0.118388,1.117324,-0.4049725,-0.1698009999999999,0.850414,-0.8500325,-0.103334,1.134114,-0.8198725,-0.131749,1
155,0.9884305,0.783456,-0.0480475,0.8134185,0.5664560000000001,-0.0357435,0.6637584999999999,0.7678860000000001,-0.1448995,1.1573885,0.575196,-0.0637534999999999,1.2636885,0.796536,-0.2109515,0.6317885,0.985936,-0.2886215,1.2711385,1.037126,-0.3325415,0.9172585,-0.0017109999999999,0.0055914999999999,1.0827415,0.001711,-0.0055914999999999,0.8656185000000001,-0.4533339999999999,-0.0975365,1.1194285,-0.420894,-0.1499214999999999,0.8513485000000001,-0.860914,-0.0885364999999999,1.1354485,-0.8299639999999999,-0.1159564999999999,1
156,0.989286,0.78424,-0.0342105,0.813908,0.56396,-0.0234584999999999,0.663768,0.76695,-0.1308665,1.1585379999999998,0.57518,-0.0513934999999999,1.264388,0.79505,-0.1964805,0.631928,0.98443,-0.2719304999999999,1.270518,1.03447,-0.3160905,0.917547,-0.001884,0.0054775,1.082453,0.0018839999999999,-0.0054774999999999,0.867448,-0.4700499999999999,-0.0773824999999999,1.122088,-0.437,-0.1299455,0.852318,-0.87109,-0.0742434999999999,1.136848,-0.83943,-0.0995055,1
157,0.9902975,0.7863665,-0.0207814999999999,0.8144804999999999,0.5632165,-0.0118754999999999,0.6639705,0.7671565,-0.1175324999999999,1.1597005,0.5756865,-0.0397405,1.2652205,0.7942564999999999,-0.1826035,0.6324305,0.9801065,-0.2557535,1.2698305,1.0330365,-0.3006335,0.9177165,-0.0018574999999999,0.0052385,1.0822835,0.0018575,-0.0052385,0.8686805,-0.4860735,-0.0583535,1.1247505,-0.4520935,-0.1109265,0.8532905,-0.8797535000000001,-0.0613545,1.1384405,-0.8471534999999999,-0.0837265,1
158,0.9914035,0.785443,-0.0072864999999999,0.8150795,0.563343,-0.0001714999999999,0.6643995,0.766603,-0.1045475,1.1606195,0.572273,-0.0284835,1.2662395,0.793873,-0.1687745,0.6329895,0.976643,-0.2391944999999999,1.2691095,1.031883,-0.2847045,0.9178875,-0.0016989999999999,0.0050525,1.0821125,0.001699,-0.0050524999999999,0.8702595,-0.501437,-0.0400905,1.1275795,-0.466147,-0.0923895,0.8543295,-0.887547,-0.0488465,1.1400595,-0.853217,-0.0683155,1
159,0.9921485,0.7850505,0.002588,0.8152095,0.5643604999999999,0.008008,0.6645595,0.7645005,-0.095405,1.1611395,0.5703604999999999,-0.020707,1.2669295,0.7933605,-0.159404,0.6332295,0.9732005,-0.226964,1.2679495,1.0308205,-0.273204,0.9181005,-0.0017225,0.005131,1.0818995,0.0017224999999999,-0.005131,0.8712895,-0.5158495000000001,-0.026404,1.1297095,-0.4752095,-0.078102,0.8548695,-0.8944195,-0.040763,1.1409295,-0.8576495000000001,-0.057339,1
160,0.9931045,0.7870945,0.011008,0.8154515,0.5648945000000001,0.0143929999999999,0.6648215,0.7620045000000001,-0.0882719999999999,1.1618015,0.5709345,-0.014638,1.2677415,0.7943345,-0.1516829999999999,0.6337215,0.9707045,-0.218473,1.2671215,1.0319245,-0.263933,0.9182035,-0.0022874999999999,0.005415,1.0817965,0.0022875,-0.005415,0.8719115,-0.5183455,-0.019185,1.1315915,-0.4779755,-0.068826,0.8555315,-0.8972055,-0.034425,1.1415315,-0.8597655,-0.051767,1
161,0.994124,0.7889744999999999,0.019485,0.815721,0.5651845,0.021036,0.6646510000000001,0.7600245000000001,-0.082008,1.162561,0.5714745000000001,-0.0085209999999999,1.268661,0.7928845,-0.144509,0.634091,0.9687245,-0.211889,1.266751,1.0324445,-0.255409,0.918232,-0.0027644999999999,0.005576,1.081768,0.0027644999999999,-0.0055759999999999,0.872611,-0.5205455000000001,-0.011675,1.133581,-0.4802654999999999,-0.059262,0.856271,-0.8991855,-0.02828,1.142491,-0.8617455,-0.046002,1
162,0.9952305,0.7905825,0.027849,0.8160864999999999,0.5645325,0.0275139999999999,0.6640065000000002,0.7591025,-0.076999,1.1632765,0.5716125,-0.002537,1.2694365,0.7919625,-0.137607,0.6342265,0.9670525,-0.207087,1.2665965,1.0323225,-0.247797,0.9182355,-0.0029465,0.005578,1.0817645,0.0029465,-0.005578,0.8734465,-0.5222575,-0.004226,1.1357665,-0.4821074999999999,-0.049754,0.8572165,-0.9001275000000001,-0.022196,1.1432365,-0.8618675,-0.040141,1
163,0.9960215,0.7921325,0.035817,0.8161435000000001,0.5645325,0.033495,0.6620435,0.7590024999999999,-0.072548,1.1635835,0.5716125,0.002968,1.2706235,0.7919625,-0.131429,0.6339135,0.9670525,-0.202819,1.2662435,1.0323225,-0.240979,0.9184325,-0.0029465,0.005464,1.0815675,0.0029465,-0.005464,0.8737334999999999,-0.5220875,0.002785,1.1375135,-0.4799874999999999,-0.041392,0.8578935,-0.9004175,-0.01639,1.1440834999999998,-0.8599375,-0.034661,1
164,0.9968385,0.7925025,0.043804,0.8164075,0.5645325,0.039746,0.6591075,0.7509224999999999,-0.067859,1.1641075,0.5716125,0.0086229999999999,1.2727575,0.7919625,-0.1249619999999999,0.6338475,0.9601725,-0.198452,1.2667675,1.0323225,-0.233872,0.9186695,-0.0029465,0.005241,1.0813305,0.0029465,-0.005241,0.8740375,-0.5220875,0.009524,1.1390575,-0.4779974999999999,-0.033723,0.8585275,-0.9005275,-0.010838,1.1449875,-0.8578875,-0.029072,1
165,0.9976525,0.7925025,0.0519,0.8166255,0.5645325,0.04557,0.6553655,0.7365925,-0.063142,1.1648555,0.5716125,0.013882,1.2767955,0.7892524999999999,-0.119473,0.6337655,0.9456825,-0.194143,1.2674455,1.0323225,-0.225893,0.9188285,-0.0029465,0.005331,1.0811715,0.0029465,-0.005331,0.8744055,-0.5220875,0.015757,1.1403155,-0.4759575,-0.026926,0.8592155,-0.9006475,-0.005423,1.1459255,-0.8558275000000001,-0.023723,1
