sb224sc-HT22-VT27/4dt907/src/data/labeled_files/A104_kinect_mirrored.csv
FrameNo,nose_3d_x,nose_3d_y,nose_3d_z,left_shoulder_3d_x,left_shoulder_3d_y,left_shoulder_3d_z,left_elbow_3d_x,left_elbow_3d_y,left_elbow_3d_z,right_shoulder_3d_x,right_shoulder_3d_y,right_shoulder_3d_z,right_elbow_3d_x,right_elbow_3d_y,right_elbow_3d_z,left_wrist_3d_x,left_wrist_3d_y,left_wrist_3d_z,right_wrist_3d_x,right_wrist_3d_y,right_wrist_3d_z,left_hip_3d_x,left_hip_3d_y,left_hip_3d_z,right_hip_3d_x,right_hip_3d_y,right_hip_3d_z,left_knee_3d_x,left_knee_3d_y,left_knee_3d_z,right_knee_3d_x,right_knee_3d_y,right_knee_3d_z,left_ankle_3d_x,left_ankle_3d_y,left_ankle_3d_z,right_ankle_3d_x,right_ankle_3d_y,right_ankle_3d_z,activity_label
0,1.006046,0.7789925000000001,0.1129715,0.826074,0.5730925,0.1106615,0.719704,0.8199425,0.0615715,1.174164,0.5807325,0.0871565,1.2483939999999998,0.8514925,0.0095995,0.691244,1.0616325,-0.0171204999999999,1.244524,1.1541325,-0.0445345,0.921452,-0.0026245,-0.0004284999999999,1.078548,0.0026245,0.0004284999999999,0.874424,-0.5277974999999999,0.0359445,1.127584,-0.4843575,-0.0083034999999999,0.859714,-0.9136475,0.0063705,1.132674,-0.8562375,0.0068515,0
1,1.006052,0.7800235,0.1130864999999999,0.82618,0.5736235,0.1104054999999999,0.7199,0.8207635,0.0614784999999999,1.17448,0.5812634999999999,0.0865165,1.24864,0.8520734999999999,0.0095164999999999,0.6913400000000001,1.0623635,-0.0170615,1.24487,1.1558635000000002,-0.0452675,0.92135,-0.0027605,-0.0001155,1.07865,0.0027605,0.0001154999999999,0.87458,-0.5279465000000001,0.0362834999999999,1.12816,-0.4382765,-0.0141235,0.8598399999999999,-0.9088265,0.0085634999999999,1.13246,-0.8549065,0.0078574999999999,0
2,1.0058015,0.7808309999999999,0.112718,0.8262085,0.573751,0.1102229999999999,0.7200285,0.821831,0.060852,1.1745585,0.5816209999999999,0.086507,1.2488585,0.852331,0.009124,0.6912285,1.062591,-0.017344,1.2451085,1.1562910000000002,-0.045651,0.9213705,-0.002985,0.000112,1.0786295,0.002985,-0.000112,0.8761585000000001,-0.528329,0.036305,1.1281485,-0.438009,-0.01373,0.8666385,-0.855629,-0.001936,1.1320585,-0.855739,0.009366,1
3,1.0048895,0.7782375,0.11569,0.8255905,0.5730075,0.1118339999999999,0.7192505,0.8216875,0.063549,1.1740505,0.5813375000000001,0.0882439999999999,1.2482305,0.8522875000000001,0.0112289999999999,0.6901305,1.0619975,-0.013719,1.2442305,1.1564975,-0.042365,0.9213755,-0.0031094999999999,0.0002749999999999,1.0786245,0.0031094999999999,-0.000275,0.8766505,-0.5286025,0.0346859999999999,1.1286205,-0.4378225,-0.015168,0.8672305,-0.8557925,-0.00444,1.1329605,-0.8549325,0.0071819999999999,1
4,1.0047944999999998,0.7791454999999999,0.115714,0.8256685,0.5728555,0.111572,0.7192285,0.8222254999999999,0.0632,1.1741885,0.5813955,0.088225,1.2484685,0.8520255,0.010129,0.6900485000000001,1.0622455000000002,-0.0136359999999999,1.2444385,1.1563455,-0.0427479999999999,0.9213745,-0.0030925,0.000355,1.0786255,0.0030924999999999,-0.0003549999999999,0.8793385,-0.5190045,0.035203,1.1288585,-0.4384544999999999,-0.0147589999999999,0.8614485000000001,-0.9126345,0.003182,1.1327885,-0.8545545,0.007608,1
5,1.0044585,0.7797595,0.1148435,0.8256654999999999,0.5731795000000001,0.1114164999999999,0.7193054999999999,0.8227595,0.0635365,1.1744055,0.5816595,0.0880614999999999,1.2485855,0.8517695000000001,0.0094554999999999,0.6900255,1.0624995,-0.0134365,1.2448455,1.1559995,-0.0438665,0.9213455,-0.0031055,0.0005504999999999,1.0786545,0.0031054999999999,-0.0005505,0.8783055,-0.5243005,0.0363055,1.1283555,-0.4449305,-0.0138415,0.8612755,-0.9102005,0.0046874999999999,1.1325055,-0.8530605,0.0086404999999999,1
6,1.0043655,0.7782365,0.1152155,0.8256175,0.5733064999999999,0.1111035,0.7187275,0.8318365,0.0600565,1.1743375,0.5819265,0.0884485,1.2490775,0.8522465,0.0083925,0.6900275,1.0631065000000002,-0.0133524999999999,1.2453775,1.1564065,-0.0458524999999999,0.9213125,-0.0029054999999999,0.0008375,1.0786875,0.0029055,-0.0008374999999999,0.8772075,-0.5284135,0.0355155,1.1285075,-0.4481035,-0.0129124999999999,0.8610075,-0.9096935,0.0056705,1.1332775,-0.8497635,0.0090735,1
7,1.004367,0.77873,0.1145985,0.825679,0.57305,0.1108135,0.7191890000000001,0.83155,0.0609355,1.174279,0.58154,0.0878875,1.249209,0.85224,0.0075714999999999,0.6900189999999999,1.0635,-0.0136934999999999,1.245399,1.1563,-0.0472425,0.921341,-0.002853,0.0008685,1.078659,0.0028529999999999,-0.0008685,0.875979,-0.5268,0.0354335,1.128249,-0.45135,-0.0119034999999999,0.8616090000000001,-0.90735,0.0063765,1.132679,-0.84789,0.0104824999999999,1
8,1.004295,0.7786879999999999,0.114713,0.825677,0.573058,0.110776,0.719187,0.831438,0.060784,1.174267,0.581518,0.087981,1.249357,0.8522879999999999,0.0070409999999999,0.690027,1.063608,-0.0134279999999999,1.245547,1.156308,-0.0479779999999999,0.921333,-0.0028019999999999,0.0010049999999999,1.078667,0.0028019999999999,-0.0010049999999999,0.876047,-0.527792,0.035321,1.128357,-0.451242,-0.011684,0.8618669999999999,-0.908432,0.0063189999999999,1.132617,-0.847902,0.011094,1
9,1.0043075,0.7786879999999999,0.114844,0.8256844999999999,0.573058,0.110732,0.7191845,0.831438,0.060682,1.1742845,0.581518,0.088146,1.2495145,0.8522879999999999,0.0065579999999999,0.6900445,1.063608,-0.013198,1.2457045,1.156308,-0.048684,0.9213185,-0.0028019999999999,0.0011069999999999,1.0786815,0.0028019999999999,-0.001107,0.8760445,-0.5278320000000001,0.0353389999999999,1.1283945,-0.452082,-0.011396,0.8618745,-0.909872,0.0061349999999999,1.1325744999999998,-0.847902,0.0117989999999999,1
10,1.004321,0.7786879999999999,0.114998,0.8256840000000001,0.573058,0.1106859999999999,0.719194,0.831438,0.0606569999999999,1.174304,0.581518,0.08832,1.249654,0.8522879999999999,0.0060209999999999,0.690054,1.063608,-0.012989,1.245844,1.156308,-0.049399,0.921303,-0.0028019999999999,0.0011959999999999,1.078697,0.0028019999999999,-0.001196,0.8759140000000001,-0.527862,0.035363,1.128424,-0.452212,-0.011188,0.861674,-0.909872,0.0067429999999999,1.1325839999999998,-0.847902,0.0123579999999999,1
11,1.0043265,0.7787879999999999,0.1149849999999999,0.8257255,0.573058,0.110618,0.7192655,0.831668,0.0607959999999999,1.1743555,0.581518,0.0883859999999999,1.2497855,0.8522879999999999,0.0055979999999999,0.6900655,1.063808,-0.012913,1.2459855,1.156308,-0.050005,0.9212895,-0.0028019999999999,0.0012539999999999,1.0787105,0.0028019999999999,-0.001254,0.8757755,-0.527532,0.035375,1.1283554999999998,-0.454122,-0.010903,0.8614755000000001,-0.909872,0.0072769999999999,1.1324955,-0.847492,0.0130719999999999,1
12,1.0043209999999998,0.7787375,0.1149,0.825815,0.5731175,0.110505,0.719435,0.8317074999999999,0.060841,1.174395,0.5814675,0.08842,1.250005,0.8523975,0.005087,0.690055,1.0642475,-0.0128919999999999,1.246245,1.1563475,-0.050675,0.921271,-0.0027405,0.001308,1.078729,0.0027405,-0.0013079999999999,0.875525,-0.5277925,0.035433,1.128315,-0.4563925,-0.0106349999999999,0.8613850000000001,-0.9095625,0.00767,1.132435,-0.8468325,0.01382,1
13,1.004339,0.7786529999999999,0.1148484999999999,0.825906,0.5731729999999999,0.1103855,0.719616,0.8315629999999999,0.0609305,1.174406,0.5813929999999999,0.0884775,1.250196,0.852553,0.0047045,0.6900460000000002,1.0644630000000002,-0.0128535,1.246486,1.156463,-0.0511405,0.921253,-0.002691,0.0013704999999999,1.078747,0.0026909999999999,-0.0013705,0.875246,-0.5281170000000001,0.0355555,1.128316,-0.458657,-0.0103775,0.8612960000000001,-0.909727,0.0079604999999999,1.132416,-0.8465670000000001,0.0143944999999999,1
14,1.0043415,0.778768,0.1147975,0.8259915,0.573238,0.1102405,0.7197915000000001,0.831298,0.0610045,1.1744115,0.581298,0.0885325,1.2503815,0.852678,0.0043755,0.6900215000000001,1.064648,-0.0127815,1.2467115,1.156548,-0.0516735,0.9212365,-0.002661,0.0013985,1.0787635,0.002661,-0.0013984999999999,0.8750515000000001,-0.528062,0.0356765,1.1283615,-0.458972,-0.0101805,0.8612315,-0.909612,0.0085145,1.1324415,-0.846182,0.0149745,1
15,1.0043179999999998,0.7789365,0.114761,0.8260730000000001,0.5733365,0.1100749999999999,0.7199330000000002,0.8310365000000001,0.061014,1.174403,0.5812365,0.088581,1.250543,0.8527865,0.004115,0.689963,1.0646465,-0.012699,1.2469329999999998,1.1565465,-0.052082,0.921222,-0.0026385,0.0014119999999999,1.078778,0.0026385,-0.001412,0.8749629999999999,-0.5280134999999999,0.0358039999999999,1.128433,-0.4592235,-0.010105,0.861273,-0.9095935,0.0090299999999999,1.132473,-0.8457834999999999,0.0154519999999999,1
16,1.0043045,0.7790130000000001,0.114761,0.8261275,0.5734330000000001,0.1099359999999999,0.7200774999999999,0.8307530000000001,0.06103,1.1744375,0.581183,0.0886,1.2506875,0.852843,0.0039039999999999,0.6898675000000001,1.064543,-0.012555,1.2471375,1.156643,-0.05246,0.9212035,-0.00262,0.0014169999999999,1.0787965,0.0026199999999999,-0.001417,0.8748875,-0.5279769999999999,0.0359079999999999,1.1283975,-0.459147,-0.010113,0.8612875,-0.909577,0.0091679999999999,1.1324575,-0.845317,0.0159099999999999,1
17,1.0042885,0.7792795,0.1147639999999999,0.8261665,0.5735295,0.109803,0.7201965,0.8303795,0.0610359999999999,1.1744665,0.5811595,0.0886049999999999,1.2507965,0.8528695000000001,0.0036829999999999,0.6897265,1.0643395,-0.012422,1.2473065,1.1566395,-0.052821,0.9211905,-0.0026225,0.0014199999999999,1.0788095,0.0026225,-0.00142,0.8748665,-0.5279604999999999,0.036035,1.1283665,-0.4591604999999999,-0.010337,0.8609665,-0.9101505,0.0093099999999999,1.1324565,-0.8445905,0.0163509999999999,1
18,1.0042715,0.779543,0.114762,0.8262125,0.573643,0.109661,0.7203125,0.830043,0.061029,1.1744825,0.581153,0.088599,1.2509125,0.852873,0.0034679999999999,0.6894925000000001,1.064143,-0.012297,1.2474525,1.156543,-0.053217,0.9211875,-0.002634,0.0014459999999999,1.0788125,0.0026339999999999,-0.001446,0.8748825,-0.527957,0.036192,1.1283425,-0.459227,-0.010561,0.8609625,-0.910487,0.0090379999999999,1.1324225,-0.843487,0.016624,1
19,1.004264,0.7798865,0.1148035,0.8262510000000001,0.5737965,0.1095275,0.7204010000000001,0.8296165000000001,0.0610265,1.174521,0.5812065000000001,0.0885245,1.251011,0.8528865,0.0032555,0.689201,1.0638765,-0.0121454999999999,1.247531,1.1565765,-0.0535725,0.921186,-0.0026575,0.0014725,1.078814,0.0026575,-0.0014725,0.8748810000000001,-0.5279834999999999,0.0362245,1.128451,-0.4577535,-0.0108474999999999,0.860831,-0.9111835,0.0091385,1.132351,-0.8438034999999999,0.0167215,1
20,1.0042365,0.7801985,0.114823,0.8262835,0.5739385,0.10939,0.7204335,0.8292185000000001,0.060999,1.1745635,0.5812685000000001,0.088394,1.2510835,0.8528285,0.003027,0.6888935,1.0635985,-0.0120189999999999,1.2475935,1.1564985,-0.0539999999999999,0.9211865,-0.0026625,0.001507,1.0788135,0.0026625,-0.0015069999999999,0.8749835,-0.5280014999999999,0.036258,1.1285335,-0.4584215,-0.010927,0.8606135,-0.9114615,0.009509,1.1322735,-0.8437914999999999,0.01679,1
21,1.0042095,0.7804415,0.1148685,0.8262765,0.5739415,0.1093435,0.7204364999999999,0.8291115,0.0610635,1.1746065,0.5813015,0.0883055,1.2510865,0.8528115,0.0029124999999999,0.6885265,1.0635815,-0.0118904999999999,1.2475765,1.1564815,-0.0542995,0.9211875,-0.0026455,0.0015475,1.0788125,0.0026455,-0.0015475,0.8750665,-0.5279785,0.0363794999999999,1.1285965,-0.4594885,-0.0108655,0.8605965000000001,-0.9114785,0.0099465,1.1322565,-0.8434685,0.0168555,1
22,1.0041855,0.7805515,0.114895,0.8262815,0.5739615,0.109302,0.7204415,0.8290415,0.061089,1.1746215,0.5813515,0.088143,1.2510715,0.8528115,0.0027449999999999,0.6880715,1.0634815,-0.011714,1.2475515,1.1564815,-0.054744,0.9211905,-0.0026455,0.0015719999999999,1.0788095,0.0026455,-0.001572,0.8751515,-0.5279785,0.036493,1.1285915,-0.4601185,-0.010943,0.8606115,-0.9115985,0.0104519999999999,1.1321915,-0.8434685,0.0162179999999999,1
23,1.0041589999999998,0.7807015,0.114922,0.826282,0.5739715,0.109278,0.720442,0.8289815,0.061114,1.174622,0.5814015,0.087986,1.251062,0.8528115,0.0025439999999999,0.687612,1.0633815,-0.011624,1.247532,1.1564815,-0.055101,0.921192,-0.0026455,0.001596,1.078808,0.0026455,-0.001596,0.8751720000000001,-0.5279785,0.036474,1.128592,-0.4604085,-0.010943,0.860542,-0.9109885,0.011244,1.132122,-0.8434685,0.015665,1
24,1.0040555,0.780835,0.1149835,0.8262455000000001,0.5740449999999999,0.1092554999999999,0.7203755000000001,0.8286749999999999,0.0611575,1.1745955,0.581475,0.0877985,1.2510155,0.8526649999999999,0.0022614999999999,0.6869855,1.062955,-0.0114965,1.2474355,1.156255,-0.0554965,0.9211925,-0.002652,0.0016134999999999,1.0788075,0.002652,-0.0016135,0.8752355,-0.5280050000000001,0.0364014999999999,1.1285455,-0.462925,-0.0109095,0.8605455000000001,-0.910395,0.0111614999999999,1.1320355,-0.843825,0.0149044999999999,1
25,1.0039465,0.7809900000000001,0.1150414999999999,0.8262055,0.5741,0.1092144999999999,0.7202755000000001,0.82842,0.0611624999999999,1.1745755,0.58156,0.0875894999999999,1.2509355,0.85248,0.0018614999999999,0.6863455,1.0624,-0.0114625,1.2473055,1.1561,-0.0560515,0.9211925,-0.00264,0.0016134999999999,1.0788075,0.00264,-0.0016135,0.8754455,-0.52804,0.0363234999999999,1.1285055,-0.46541,-0.0108185,0.8605655,-0.91021,0.0115174999999999,1.1320555,-0.84414,0.0141544999999999,1
26,1.003822,0.781183,0.1151185,0.826165,0.574133,0.1091645,0.720155,0.8281229999999999,0.0611555,1.174535,0.581643,0.0873585,1.250855,0.852273,0.0014164999999999,0.685745,1.061933,-0.0114455,1.247175,1.155833,-0.0566875,0.921193,-0.0026429999999999,0.0016204999999999,1.078807,0.0026429999999999,-0.0016205,0.875555,-0.528097,0.0362904999999999,1.128455,-0.4647369999999999,-0.0110365,0.860515,-0.910167,0.0117924999999999,1.132255,-0.844607,0.0134224999999999,1
27,1.003725,0.781321,0.115186,0.8261270000000001,0.5741510000000001,0.109124,0.719997,0.8277610000000001,0.061141,1.174497,0.581721,0.087119,1.250767,0.8520610000000001,0.000857,0.6851970000000001,1.061651,-0.0114389999999999,1.247007,1.155551,-0.057491,0.921194,-0.002658,0.001632,1.078806,0.0026579999999999,-0.001632,0.8757070000000001,-0.528169,0.03601,1.128267,-0.463549,-0.011324,0.860567,-0.910469,0.011974,1.132337,-0.8450789999999999,0.012839,1
28,1.0035795,0.7814585,0.115201,0.8261015,0.5741885,0.109056,0.7197614999999999,0.8274185,0.061055,1.1744915,0.5818585,0.086842,1.2507015,0.8519384999999999,5.699999999999456e-05,0.6846315000000001,1.0612885,-0.011478,1.2467315,1.1550885,-0.059186,0.9212005,-0.0026695,0.0016589999999999,1.0787995,0.0026695,-0.001659,0.8758515,-0.5282315000000001,0.0357109999999999,1.1280215,-0.4624415,-0.011675,0.8606015000000001,-0.9105315,0.0122379999999999,1.1324115,-0.8455415000000001,0.0122639999999999,1
29,1.0034105,0.781617,0.115047,0.8260895,0.574237,0.108848,0.7194895,0.827087,0.060835,1.1744695,0.5820569999999999,0.08646,1.2505995,0.851837,-0.0009979999999999,0.6839895,1.061037,-0.011764,1.2464695,1.154537,-0.061018,0.9212045,-0.00268,0.0016969999999999,1.0787954999999998,0.00268,-0.001697,0.8760295,-0.528333,0.03533,1.1275995,-0.4630729999999999,-0.011816,0.8605295,-0.911003,0.0116619999999999,1.1322795,-0.8466330000000001,0.0114729999999999,1
30,1.0032,0.7817845,0.1148059999999999,0.826052,0.5742745,0.108551,0.719202,0.8268145,0.060519,1.174452,0.5822445,0.086002,1.250482,0.8517245,-0.002169,0.6833119999999999,1.0606945,-0.0123559999999999,1.246152,1.1524945,-0.0632699999999999,0.92121,-0.0026934999999999,0.0017059999999999,1.07879,0.0026934999999999,-0.0017059999999999,0.876142,-0.5284255,0.034954,1.127172,-0.4631155,-0.012033,0.860412,-0.9115955,0.0107489999999999,1.132172,-0.8482255,0.010713,1
31,1.002968,0.781951,0.114488,0.826021,0.574351,0.108142,0.718861,0.826601,0.059998,1.174411,0.582521,0.085457,1.250321,0.8516009999999999,-0.003691,0.6826810000000001,1.060481,-0.013343,1.245781,1.150481,-0.0664329999999999,0.921218,-0.002741,0.001715,1.078782,0.002741,-0.001715,0.876261,-0.528559,0.034654,1.126721,-0.464619,-0.0123529999999999,0.860561,-0.911859,0.010421,1.132111,-0.848889,0.010351,1
32,1.0027045,0.782152,0.114043,0.8259885,0.574442,0.107587,0.7184885000000001,0.8264619999999999,0.059294,1.1743685,0.582822,0.084751,1.2501285,0.851582,-0.0055649999999999,0.6820585,1.060292,-0.0147169999999999,1.2453385,1.148492,-0.069828,0.9212015,-0.00281,0.001775,1.0787985,0.00281,-0.0017749999999999,0.8763285,-0.528728,0.034199,1.1262885,-0.4657579999999999,-0.0128359999999999,0.8607585,-0.912088,0.009959,1.1320484999999998,-0.849558,0.009902,1
33,1.00233,0.782392,0.11302,0.825972,0.574572,0.106708,0.7180219999999999,0.826272,0.058109,1.174352,0.583182,0.083708,1.249772,0.851582,-0.0083139999999999,0.681432,1.059912,-0.0166819999999999,1.244832,1.147212,-0.0741629999999999,0.92116,-0.002894,0.001858,1.07884,0.0028939999999999,-0.0018579999999999,0.876432,-0.528948,0.033519,1.125842,-0.466068,-0.0138169999999999,0.860942,-0.912088,0.00926,1.132062,-0.8503580000000001,0.009127,1
34,1.0018625,0.782756,0.1115185,0.8259745000000001,0.574746,0.1057315,0.7174944999999999,0.826066,0.0565815,1.1743645,0.583606,0.0825275,1.2493945,0.851676,-0.0112304999999999,0.6808345,1.0593860000000002,-0.0189485,1.2443545,1.146286,-0.0785645,0.9210795,-0.003024,0.0019435,1.0789205,0.0030239999999999,-0.0019435,0.8765545000000001,-0.529204,0.0327035,1.1254445,-0.466114,-0.0149745,0.8610245,-0.912174,0.0076125,1.1322245,-0.850184,0.0085115,1
35,1.0014055,0.783026,0.109705,0.8260505,0.5747559999999999,0.104651,0.7171005000000001,0.826066,0.054893,1.1744005,0.5838559999999999,0.081202,1.2491105,0.851676,-0.0146029999999999,0.6802105,1.0593860000000002,-0.0213739999999999,1.2440305,1.146286,-0.0831229999999999,0.9209535,-0.003024,0.002009,1.0790464999999998,0.0030239999999999,-0.0020089999999999,0.8766105000000001,-0.529204,0.031945,1.1250505,-0.466344,-0.0159909999999999,0.8610305,-0.911424,0.006788,1.1323105,-0.850184,0.007836,1
36,1.000921,0.783282,0.1075805,0.8261149999999999,0.574782,0.1034905,0.716755,0.826062,0.0530645,1.174445,0.584102,0.0796155,1.248805,0.851672,-0.0181254999999999,0.679585,1.059382,-0.0238525,1.243715,1.146282,-0.0880664999999999,0.920824,-0.0030279999999999,0.0020324999999999,1.079176,0.0030279999999999,-0.0020324999999999,0.876525,-0.529208,0.0309295,1.124705,-0.464158,-0.0177415,0.861015,-0.910388,0.0058675,1.132345,-0.850188,0.0070915,1
37,1.0004909999999998,0.783689,0.1050845,0.826164,0.574879,0.1022595,0.716494,0.826039,0.0511395,1.174504,0.584289,0.0780055,1.248474,0.851649,-0.0218324999999999,0.679044,1.0593590000000002,-0.0264184999999999,1.243474,1.146259,-0.0925064999999999,0.92069,-0.003044,0.0020874999999999,1.07931,0.003044,-0.0020874999999999,0.8764540000000001,-0.529231,0.0298135,1.124444,-0.464921,-0.0196475,0.860954,-0.908671,0.0047805,1.132444,-0.850201,0.0063625,1
38,1.0000105,0.78445,0.101611,0.8261535,0.5752299999999999,0.100455,0.7161835,0.82592,0.048479,1.1744935,0.58468,0.0758399999999999,1.2480835,0.8514999999999999,-0.026531,0.6784435,1.05796,-0.0297739999999999,1.2431635,1.14556,-0.098081,0.9205535,-0.0031409999999999,0.00221,1.0794465,0.003141,-0.0022099999999999,0.8763335000000001,-0.52956,0.028664,1.1242735,-0.46436,-0.02157,0.8609335000000001,-0.90981,0.003393,1.1321635,-0.8515600000000001,0.005866,1
39,0.999549,0.78527,0.0980065,0.8261470000000001,0.5756100000000001,0.0985585,0.715877,0.82592,0.0457375,1.174477,0.5851000000000001,0.0736375,1.247677,0.85131,-0.0314595,0.677917,1.0566,-0.0330255,1.242907,1.1449,-0.1037144999999999,0.92042,-0.003255,0.0023565,1.07958,0.0032549999999999,-0.0023564999999999,0.8763270000000001,-0.5298999999999999,0.0276825,1.124177,-0.46384,-0.0236445,0.8607670000000001,-0.91153,0.0027555,1.131917,-0.85264,0.0053655,1
40,0.999057,0.7860905,0.094009,0.826171,0.5761105,0.096611,0.7156210000000001,0.8259105,0.042821,1.174341,0.5854505,0.071295,1.247251,0.8509105,-0.0365109999999999,0.677451,1.0552105,-0.036195,1.242721,1.1453105,-0.108997,0.920252,-0.0033515,0.002474,1.079748,0.0033514999999999,-0.0024739999999999,0.876211,-0.5302295,0.026668,1.124091,-0.4646095,-0.026096,0.860591,-0.9120195,0.0017439999999999,1.131341,-0.8539795,0.0046929999999999,1
41,0.9985385,0.786935,0.089933,0.8261415,0.576765,0.094664,0.7153715,0.825875,0.039929,1.1741315,0.585855,0.068936,1.2467915,0.850595,-0.04152,0.6768915,1.053805,-0.0392219999999999,1.2424615,1.145405,-0.1143439999999999,0.9200785,-0.003399,0.00256,1.0799215,0.003399,-0.0025599999999999,0.8760114999999999,-0.5304449999999999,0.02573,1.1239615,-0.465315,-0.028884,0.8604315,-0.912335,0.000864,1.1307415,-0.855255,0.003986,1
42,0.998141,0.7877165,0.0860475,0.826044,0.5775965000000001,0.0928035,0.715094,0.8257865,0.0372725,1.173784,0.5863765,0.0666855,1.246284,0.8501165,-0.0461745,0.676234,1.0521764999999998,-0.0419345,1.242064,1.1443765,-0.1192755,0.919959,-0.0034815,0.0026304999999999,1.080041,0.0034815,-0.0026305,0.875724,-0.5306835,0.0248564999999999,1.123774,-0.4668735,-0.0315475,0.8600940000000001,-0.9126735,-0.0004945,1.130084,-0.8565635,0.0033984999999999,1
43,0.9978355,0.7881815,0.082115,0.8260395,0.5782615,0.090751,0.7147995,0.8255515,0.034746,1.1733495,0.5868815000000001,0.063383,1.2457494999999998,0.8491615,-0.0512889999999999,0.6755295,1.0505615,-0.0446429999999999,1.2414595,1.1418615,-0.1247669999999999,0.9198635,-0.0035905,0.002696,1.0801365,0.0035904999999999,-0.0026959999999999,0.8755595,-0.5304285,0.023918,1.1235395,-0.4684185,-0.034071,0.8598494999999999,-0.9129985,-0.0020589999999999,1.1294395,-0.8578485,0.002734,1
44,0.997512,0.7882685,0.078308,0.82604,0.5788285,0.088635,0.71446,0.8252385,0.031988,1.17292,0.5873385,0.060143,1.24519,0.8480885,-0.056459,0.67474,1.0489485,-0.047589,1.24078,1.1393485,-0.130867,0.919746,-0.0037175,0.002809,1.0802539999999998,0.0037175,-0.002809,0.8753200000000001,-0.5309415000000001,0.022748,1.12328,-0.4696315,-0.036734,0.85963,-0.9132715,-0.0035949999999999,1.12874,-0.8587815,0.001913,1
45,0.9969995,0.7883215,0.0736025,0.8260865,0.5794315,0.0859495,0.7139665,0.8251215000000001,0.0283975,1.1722965,0.5871915,0.0568775,1.2444665,0.8472215000000001,-0.0629084999999999,0.6737065,1.0477314999999998,-0.0515754999999999,1.2400265,1.1384314999999998,-0.1387295,0.9194955,-0.0038245,0.0030945,1.0805045,0.0038244999999999,-0.0030945,0.8748365,-0.5303585,0.0208965,1.1229565,-0.4703585,-0.0398815,0.8593065,-0.9131285,-0.0051655,1.1277565,-0.8596585,0.0008184999999999,1
46,0.9965225,0.78813,0.0686845,0.8261815,0.57992,0.0832135,0.7135215000000001,0.8249299999999999,0.0246155,1.1716115,0.58702,0.0536205,1.2438015,0.84648,-0.0695635,0.6726715000000001,1.04679,-0.0559475,1.2391615,1.13659,-0.1472525,0.9192695,-0.00392,0.0034415,1.0807305,0.00392,-0.0034415,0.8743215000000001,-0.52957,0.0185735,1.1226615,-0.46995,-0.0429935,0.8587715000000001,-0.91284,-0.0066065,1.1267315,-0.86036,-0.0002895,1
47,0.9961325,0.78813,0.0642425,0.8262785,0.57992,0.0810105,0.7130985000000001,0.8249299999999999,0.0211755,1.1709885,0.58702,0.0508745,1.2432085,0.84632,-0.0758665,0.6717185,1.04649,-0.0601974999999999,1.2383085,1.13529,-0.1554664999999999,0.9190975,-0.00392,0.0037844999999999,1.0809025,0.00392,-0.0037844999999999,0.8739385,-0.529,0.0157875,1.1224785,-0.46912,-0.0462995,0.8583885,-0.91278,-0.0079855,1.1261185,-0.86036,-0.0013335,1
48,0.995802,0.78813,0.059311,0.826355,0.57992,0.078675,0.712645,0.8249299999999999,0.017444,1.170295,0.58702,0.045808,1.242595,0.8458,-0.082532,0.670725,1.04619,-0.065251,1.237435,1.13299,-0.164192,0.918923,-0.00392,0.004126,1.081077,0.00392,-0.004126,0.873595,-0.52856,0.01215,1.122315,-0.4689399999999999,-0.049945,0.858055,-0.91274,-0.009323,1.125445,-0.86036,-0.002561,1
49,0.995352,0.78813,0.054164,0.8262970000000001,0.57992,0.076192,0.712047,0.8249299999999999,0.013135,1.169437,0.58702,0.040407,1.241817,0.8450799999999999,-0.089728,0.6695869999999999,1.04579,-0.070961,1.236307,1.12939,-0.173808,0.918761,-0.00392,0.004611,1.081239,0.00392,-0.004611,0.872987,-0.52822,0.008388,1.122017,-0.46853,-0.0535289999999999,0.857517,-0.91261,-0.0106039999999999,1.124757,-0.86036,-0.003914,1
50,0.994791,0.7874300000000001,0.048527,0.8261890000000001,0.58035,0.073581,0.7112689999999999,0.82464,0.00839,1.168299,0.5868,0.034672,1.240799,0.8436600000000001,-0.097618,0.668419,1.04473,-0.077488,1.234779,1.12363,-0.184298,0.918608,-0.00408,0.005093,1.081392,0.00408,-0.005093,0.872329,-0.52717,0.0043279999999999,1.121749,-0.46684,-0.057102,0.8569789999999999,-0.91218,-0.012847,1.123939,-0.86026,-0.005823,1
51,0.9941975,0.786654,0.0426995,0.8261555,0.580994,0.0705405,0.7103655000000001,0.824244,0.0030344999999999,1.1670555,0.5867439999999999,0.0285665,1.2396055,0.841924,-0.1061445,0.6672055,1.043714,-0.0845644999999999,1.2331555,1.117714,-0.1948845,0.9184295,-0.004138,0.0055615,1.0815705,0.004138,-0.0055615,0.8715055,-0.525166,-0.0001745,1.1211455,-0.466656,-0.0610065,0.8563855000000001,-0.911596,-0.0155075,1.1230255,-0.860546,-0.0085415,1
52,0.993492,0.785566,0.0357095,0.825881,0.581536,0.0671085,0.709231,0.823656,-0.0037584999999999,1.165851,0.586716,0.0225345,1.238201,0.839726,-0.1160915,0.6657109999999999,1.041216,-0.0935814999999999,1.231211,1.111916,-0.2075015,0.918145,-0.0042,0.0060105,1.081855,0.0042,-0.0060104999999999,0.870501,-0.522734,-0.0053854999999999,1.1202709999999998,-0.465454,-0.0661684999999999,0.855721,-0.910834,-0.0183725,1.121851,-0.860784,-0.0115904999999999,1
53,0.9926325,0.783997,0.0277295,0.8255695000000001,0.582267,0.0635185,0.7080195,0.822937,-0.0110364999999999,1.1643895,0.585297,0.0146075,1.2366995,0.837447,-0.1264495,0.6641395,1.038967,-0.1032395,1.2289795,1.106067,-0.2208095,0.9178905,-0.004313,0.0065015,1.0821095,0.0043129999999999,-0.0065015,0.8694495,-0.520113,-0.0108405,1.1193295,-0.464933,-0.0715695,0.8550495,-0.909793,-0.0214714999999999,1.1206895,-0.860763,-0.0147904999999999,1
54,0.9917895,0.782369,0.020418,0.8251715,0.5831689999999999,0.060251,0.7067715,0.822229,-0.0181099999999999,1.1628515,0.583669,0.006268,1.2352415,0.834769,-0.136479,0.6626715000000001,1.037179,-0.1127189999999999,1.2268815,1.100679,-0.233169,0.9177365,-0.004409,0.006949,1.0822634999999998,0.004409,-0.006949,0.8685115,-0.5170910000000001,-0.016106,1.1184615,-0.464371,-0.0773129999999999,0.8544715,-0.908261,-0.024047,1.1197215,-0.8600110000000001,-0.0180019999999999,1
55,0.99075,0.78067,0.0125989999999999,0.824798,0.5835899999999999,0.0556759999999999,0.7052980000000001,0.82157,-0.025626,1.1612779999999998,0.58211,-0.002673,1.233478,0.83249,-0.1472709999999999,0.661088,1.03535,-0.1227109999999999,1.224618,1.0961500000000002,-0.2457309999999999,0.91754,-0.004391,0.0073509999999999,1.08246,0.0043909999999999,-0.007351,0.867508,-0.51357,-0.0213749999999999,1.117508,-0.46286,-0.08355,0.8538479999999999,-0.90619,-0.026436,1.118708,-0.85879,-0.021318,1
56,0.9894115,0.7793329999999999,0.0038275,0.8243165,0.583433,0.0499514999999999,0.7033265,0.8211029999999999,-0.0346065,1.1592565,0.5808329999999999,-0.0131574999999999,1.2311065,0.829213,-0.1589515,0.6590965000000001,1.033243,-0.1347015,1.2213365,1.091643,-0.2604315,0.9172295,-0.0043699999999999,0.0077925,1.0827705,0.0043699999999999,-0.0077925,0.8662465,-0.5086470000000001,-0.0269324999999999,1.1161465,-0.461007,-0.0907105,0.8529365000000001,-0.902797,-0.0293375,1.1174465,-0.856237,-0.0248585,1
57,0.9881055,0.7776135000000001,-0.0048655,0.8238915,0.5828935000000001,0.0441485,0.7012315,0.8203235,-0.0437955,1.1573715,0.5798835,-0.0218505,1.2285515,0.8262235,-0.1713454999999999,0.6571315000000001,1.0308135,-0.1464855,1.2176915,1.0869135,-0.2755155,0.9169295,-0.0043225,0.0083185,1.0830704999999998,0.0043225,-0.0083185,0.8649415,-0.5037065,-0.0320595,1.1145714999999998,-0.4587164999999999,-0.0980055,0.8520615,-0.8992165,-0.0318215,1.1162515,-0.8535065,-0.0282695,1
58,0.9868095,0.7756244999999999,-0.0135614999999999,0.8234505,0.5822744999999999,0.0382835,0.6991805,0.8195844999999999,-0.0527935,1.1555205,0.5792845,-0.0301324999999999,1.2258605,0.8235945,-0.1843225,0.6551505,1.0282145,-0.1584425,1.2138305,1.0825145,-0.2910725,0.9165715,-0.0041925,0.0087415,1.0834285,0.0041924999999999,-0.0087415,0.8636005,-0.4986055,-0.0373425,1.1128305,-0.4566655,-0.1053225,0.8511605000000001,-0.8952255,-0.0342165,1.1150205,-0.8511255000000001,-0.0318425,1
59,0.9855165,0.7739550000000001,-0.022425,0.8230635,0.581935,0.0320769999999999,0.6972134999999999,0.818015,-0.062193,1.1535835,0.576435,-0.039672,1.2243235,0.819775,-0.19735,0.6531834999999999,1.026255,-0.17032,1.2097235,1.077155,-0.30727,0.9162045,-0.004024,0.009299,1.0837955,0.004024,-0.009299,0.8623635000000001,-0.492475,-0.0427889999999999,1.1107635,-0.454215,-0.11282,0.8502635000000001,-0.8907349999999999,-0.036633,1.1134735,-0.8480449999999999,-0.036114,1
60,0.9842205,0.7721515000000001,-0.0311835,0.8225585000000001,0.5814315000000001,0.0261465,0.6952484999999999,0.8162315,-0.0711955,1.1516685,0.5737315000000001,-0.0490155,1.2228184999999998,0.8166815000000001,-0.2101355,0.6512285,1.0241915,-0.1822655,1.2054485,1.0716415,-0.3235955,0.9158225,-0.0039915,0.0099005,1.0841775,0.0039914999999999,-0.0099005,0.8612685,-0.4870684999999999,-0.0480195,1.1086085,-0.4522985,-0.1201755,0.8491385000000001,-0.8862985000000001,-0.0395234999999999,1.1118985,-0.8442084999999999,-0.0398005,1
61,0.983073,0.7704075,-0.038962,0.822345,0.5805875,0.020348,0.6934450000000001,0.8138175000000001,-0.078853,1.149925,0.5713675,-0.057779,1.221505,0.8133475,-0.221685,0.6495150000000001,1.0201275,-0.192945,1.201145,1.0662874999999998,-0.338695,0.915436,-0.0039934999999999,0.010585,1.084564,0.0039935,-0.010585,0.860385,-0.4820224999999999,-0.052744,1.106355,-0.4501125,-0.126425,0.8485250000000001,-0.8813924999999999,-0.04177,1.110585,-0.8400225,-0.043252,1
62,0.981727,0.7687405,-0.047001,0.822063,0.5796005000000001,0.0139629999999999,0.691593,0.8115305,-0.086664,1.147853,0.5700605000000001,-0.0658919999999999,1.220233,0.8075405,-0.234536,0.6478830000000001,1.0161305,-0.203066,1.196563,1.0609905,-0.354846,0.915053,-0.0039765,0.011329,1.084947,0.0039765,-0.011329,0.8593729999999999,-0.4761195,-0.057614,1.103303,-0.4480695,-0.133166,0.847783,-0.8757395,-0.044532,1.109113,-0.8355195,-0.047665,1
63,0.980417,0.7674325,-0.0551175,0.821887,0.5785125,0.0074434999999999,0.689927,0.8094125,-0.0943305,1.145697,0.5685725,-0.0741165,1.217587,0.8024924999999999,-0.2465715,0.646367,1.0120925,-0.2126015,1.191957,1.0561824999999998,-0.3709814999999999,0.91464,-0.0040075,0.0120305,1.08536,0.0040074999999999,-0.0120305,0.858237,-0.4697274999999999,-0.0621805,1.100337,-0.4451675,-0.1391015,0.847227,-0.8699275,-0.0475265,1.1075769999999998,-0.8301375,-0.0513425,1
64,0.9788545,0.7657339999999999,-0.063419,0.8216625000000001,0.578044,0.001541,0.6884025,0.806754,-0.1019829999999999,1.1434125,0.566244,-0.082921,1.2149625,0.796744,-0.259256,0.6443725,1.007324,-0.221986,1.1870525,1.051494,-0.387956,0.9142325,-0.0040219999999999,0.012726,1.0857675,0.0040219999999999,-0.012726,0.8570725000000001,-0.462706,-0.067205,1.0970325,-0.441436,-0.145336,0.8467125,-0.8636560000000001,-0.051519,1.1058225,-0.823956,-0.055483,1
65,0.9776325,0.7635975,-0.071155,0.8216175,0.5780075,-0.0037929999999999,0.6873575000000001,0.8039375,-0.108426,1.1415175,0.5633275,-0.090877,1.2126675,0.7920375,-0.270914,0.6426575,1.0029175,-0.229284,1.1831375,1.0470775,-0.403114,0.9139135,-0.0039975,0.013378,1.0860865,0.0039975,-0.013378,0.8562075,-0.4565025,-0.071528,1.0939275,-0.4379925,-0.150624,0.8465175,-0.8578225,-0.0552239999999999,1.1040774999999998,-0.8182825,-0.0596369999999999,1
66,0.976462,0.7617995,-0.0790365,0.8216289999999999,0.5781194999999999,-0.0094035,0.6862889999999999,0.8011094999999999,-0.1150065,1.139629,0.5607195,-0.0987325,1.210389,0.7868694999999999,-0.2820055,0.640899,0.9987895,-0.2365755,1.179509,1.0430095,-0.4181855,0.913532,-0.0040195,0.0139864999999999,1.086468,0.0040194999999999,-0.0139865,0.8553189999999999,-0.4510405,-0.0764025,1.090699,-0.4347705,-0.1553955,0.8462690000000002,-0.8514705,-0.0593255,1.102249,-0.8122505,-0.0641795,1
67,0.975377,0.7598575000000001,-0.0872874999999999,0.821808,0.5781075,-0.0155314999999999,0.685188,0.7979575,-0.1218455,1.137798,0.5569875,-0.1076304999999999,1.209268,0.7815375,-0.2923755,0.638978,0.9945975,-0.2437855,1.176098,1.0392275,-0.4328455,0.913282,-0.0039804999999999,0.0146085,1.086718,0.0039804999999999,-0.0146084999999999,0.854218,-0.4464925,-0.0811775,1.087598,-0.4306025,-0.1601055,0.846248,-0.8451225,-0.0636055,1.100488,-0.8057525,-0.0693465,1
68,0.9743635,0.757424,-0.095445,0.8221035,0.577434,-0.021561,0.6840035,0.795414,-0.128529,1.1361035,0.555384,-0.115219,1.2087035,0.7769539999999999,-0.302569,0.6365735,0.989394,-0.251349,1.1729235,1.037024,-0.446879,0.9130665,-0.003973,0.0150949999999999,1.0869335,0.0039729999999999,-0.015095,0.8531035000000001,-0.442316,-0.085669,1.0846825,-0.426636,-0.164379,0.8463335000000001,-0.838666,-0.067133,1.0990235,-0.799926,-0.073609,1
69,0.973429,0.7549290000000001,-0.1042525,0.822558,0.576719,-0.0282924999999999,0.6828380000000001,0.793079,-0.1357845,1.134298,0.5531389999999999,-0.1234145,1.208188,0.772059,-0.3131345,0.634158,0.984549,-0.2587545,1.170038,1.031749,-0.4615645,0.912982,-0.003851,0.0155315,1.087018,0.0038509999999999,-0.0155315,0.852158,-0.438141,-0.0906145,1.081907,-0.422011,-0.1690445,0.846668,-0.832021,-0.0716695,1.097688,-0.793601,-0.0782825,1
70,0.972622,0.75169,-0.1144599999999999,0.822926,0.5757,-0.035915,0.6817960000000001,0.79053,-0.144514,1.132206,0.54881,-0.132584,1.206806,0.7649499999999999,-0.325274,0.631086,0.98129,-0.267874,1.167316,1.02668,-0.477054,0.912904,-0.0035099999999999,0.01588,1.087096,0.0035099999999999,-0.01588,0.851296,-0.43404,-0.095843,1.079422,-0.41643,-0.174124,0.847166,-0.8245600000000001,-0.074723,1.096506,-0.7865300000000001,-0.083626,1
71,0.9717325,0.748285,-0.124337,0.8230455,0.574455,-0.043281,0.6813855,0.787635,-0.153316,1.1304855,0.544505,-0.141186,1.2053455,0.760165,-0.335956,0.6277755,0.977475,-0.277396,1.1646355,1.020435,-0.491536,0.9127045,-0.0031149999999999,0.016109,1.0872955,0.003115,-0.016109,0.8504155,-0.430625,-0.100837,1.0771735,-0.4106849999999999,-0.178846,0.8474655,-0.817615,-0.079757,1.0950655,-0.778075,-0.08628,1
72,0.970671,0.744625,-0.1347015,0.8230649999999999,0.574405,-0.0508165,0.680865,0.784625,-0.1625515,1.128765,0.539925,-0.1501315,1.203695,0.755035,-0.3476015,0.6244450000000001,0.973025,-0.2881415,1.161985,1.013685,-0.5062415,0.912455,-0.002725,0.0165885,1.087545,0.0027249999999999,-0.0165885,0.8494550000000001,-0.426855,-0.1062664999999999,1.074961,-0.404445,-0.1841515,0.8475550000000001,-0.809715,-0.0851605,1.093865,-0.770475,-0.0919415,1
73,0.9695625,0.7406900000000001,-0.1449285,0.8229235,0.57471,-0.0577025,0.6800335,0.7815799999999999,-0.1712385,1.1270135,0.5360100000000001,-0.1582585,1.2024735,0.7503900000000001,-0.3585085,0.6213535,0.96867,-0.2984085,1.1595235,1.00672,-0.5199085,0.9123065,-0.0022899999999999,0.0171385,1.0876935,0.00229,-0.0171384999999999,0.8483535,-0.4232799999999999,-0.1108905,1.0730244999999998,-0.39889,-0.1887985,0.8479235,-0.8024499999999999,-0.0897155,1.0928635,-0.7632099999999999,-0.0961885,1
74,0.968516,0.7376199999999999,-0.1553479999999999,0.8227590000000001,0.57112,-0.066342,0.678849,0.77427,-0.179938,1.125419,0.53216,-0.166608,1.199799,0.74635,-0.369548,0.618279,0.96169,-0.308988,1.1569189999999998,0.99989,-0.5336879999999999,0.912201,-0.00189,0.017716,1.087799,0.00189,-0.0177159999999999,0.8471790000000001,-0.41544,-0.115714,1.07129,-0.3900600000000001,-0.193658,0.847539,-0.79362,-0.093111,1.091759,-0.7566200000000001,-0.1017879999999999,1
75,0.967095,0.7342,-0.1659005,0.822434,0.5683400000000001,-0.0743915,0.6773840000000001,0.76761,-0.1883505,1.123804,0.52749,-0.1752905,1.197934,0.74189,-0.3804005,0.615174,0.95462,-0.3192605,1.154064,0.99225,-0.5474705,0.911996,-0.0013999999999999,0.0182755,1.088004,0.0014,-0.0182755,0.846074,-0.40652,-0.1195705,1.069499,-0.38114,-0.1983105,0.847124,-0.7847,-0.0962735,1.090914,-0.74795,-0.1059644999999999,1
76,0.965257,0.7311000000000001,-0.1807485,0.821798,0.56646,-0.0864915,0.6755979999999999,0.76173,-0.2006085,1.121948,0.52359,-0.1876085,1.194788,0.7365700000000001,-0.3956685,0.611988,0.94778,-0.3344384999999999,1.150998,0.98476,-0.5651385,0.911932,-0.00073,0.0188635,1.088068,0.00073,-0.0188634999999999,0.844908,-0.39762,-0.1279295,1.0673979999999998,-0.37224,-0.2075185,0.846338,-0.7757999999999999,-0.1029664999999999,1.089878,-0.73932,-0.1152634999999999,1
77,0.9616415,0.7326349999999999,-0.198195,0.8197895,0.568415,-0.101743,0.6725395000000001,0.760465,-0.215575,1.1186395,0.521345,-0.202035,1.1897195,0.734785,-0.412985,0.6080395000000001,0.945455,-0.351835,1.1465895,0.980565,-0.5846250000000001,0.9122405,0.0002749999999999,0.018518,1.0877595,-0.0002749999999999,-0.018518,0.8393995,-0.384105,-0.144881,1.0634465,-0.357615,-0.225565,0.8441295,-0.760015,-0.111778,1.0876495,-0.7258950000000001,-0.12652,1
78,0.958046,0.73353,-0.2154589999999999,0.818068,0.5704400000000001,-0.116169,0.6695880000000001,0.75909,-0.230709,1.115708,0.5192,-0.215659,1.1852079999999998,0.73289,-0.429359,0.6042879999999999,0.94174,-0.369799,1.142328,0.97974,-0.603359,0.912532,0.0012199999999999,0.018242,1.087468,-0.0012199999999999,-0.0182419999999999,0.834068,-0.36699,-0.161152,1.059871,-0.34339,-0.243119,0.842158,-0.7478400000000001,-0.121485,1.085598,-0.7133400000000001,-0.136222,1
79,0.954473,0.73488,-0.2311554999999999,0.816406,0.57273,-0.1292475,0.666686,0.7585600000000001,-0.2451055,1.113206,0.51932,-0.2279655,1.181026,0.73403,-0.4443454999999999,0.601236,0.93985,-0.3859454999999999,1.138356,0.97951,-0.6210955,0.912864,0.0019,0.0180855,1.087136,-0.0018999999999999,-0.0180854999999999,0.828766,-0.35078,-0.1771395,1.056587,-0.33029,-0.2600655,0.839806,-0.73217,-0.1288365,1.083566,-0.7016800000000001,-0.1455185,1
80,0.9507025,0.735665,-0.246388,0.8146895000000001,0.572485,-0.143852,0.6636895,0.7577550000000001,-0.259648,1.1106195,0.5190049999999999,-0.240048,1.1766495,0.734965,-0.458998,0.5978595,0.937095,-0.402868,1.1346695,0.975745,-0.6375780000000001,0.9132805,0.002575,0.0179519999999999,1.0867195,-0.0025749999999999,-0.017952,0.8233395,-0.335075,-0.192958,1.0537115,-0.317535,-0.276668,0.8376195,-0.717295,-0.135898,1.0816295,-0.689375,-0.154893,1
81,0.947124,0.737125,-0.261355,0.8131260000000001,0.5716049999999999,-0.158516,0.6607160000000001,0.757125,-0.274495,1.107176,0.517135,-0.251665,1.172456,0.733565,-0.472765,0.5946359999999999,0.935165,-0.419295,1.131086,0.972985,-0.653085,0.913674,0.003505,0.017605,1.086326,-0.003505,-0.0176049999999999,0.817856,-0.3230449999999999,-0.210165,1.051381,-0.305615,-0.292945,0.835686,-0.703025,-0.142793,1.079886,-0.6769050000000001,-0.1633859999999999,1
82,0.943452,0.737145,-0.2759375,0.8114370000000001,0.5690550000000001,-0.1744005,0.657497,0.756015,-0.2916674999999999,1.104007,0.5157050000000001,-0.2632575,1.166437,0.732735,-0.4869775,0.591357,0.932125,-0.4385875,1.127497,0.967845,-0.6694475,0.914113,0.004115,0.0171424999999999,1.0858869999999998,-0.0041149999999999,-0.0171425,0.8123570000000001,-0.3095249999999999,-0.2276175,1.04917,-0.293965,-0.3094475,0.833447,-0.6884049999999999,-0.1496255,1.078267,-0.663275,-0.1710815,1
83,0.939958,0.735815,-0.290049,0.810235,0.570805,-0.187936,0.654695,0.756935,-0.308749,1.100835,0.514625,-0.273949,1.160345,0.730685,-0.5006889999999999,0.5884250000000001,0.929905,-0.4571989999999999,1.1241949999999998,0.960355,-0.685319,0.914315,0.004705,0.016581,1.085685,-0.0047049999999999,-0.016581,0.8070250000000001,-0.297145,-0.244769,1.047236,-0.2820049999999999,-0.3255789999999999,0.831385,-0.674805,-0.156411,1.077205,-0.651715,-0.179,1
84,0.9364735,0.7344299999999999,-0.30394,0.8090815,0.57275,-0.201726,0.6517815,0.75818,-0.32642,1.0977415,0.5129699999999999,-0.28427,1.1558515,0.72814,-0.51432,0.5851915000000001,0.92822,-0.47664,1.1205315,0.95482,-0.7018099999999999,0.9145685,0.0055999999999999,0.01604,1.0854315,-0.0055999999999999,-0.0160399999999999,0.8017315,-0.28398,-0.26217,1.0453515,-0.27022,-0.3419999999999999,0.8293115,-0.66051,-0.163208,1.0761515,-0.6392800000000001,-0.187191,1
85,0.9335365,0.7322649999999999,-0.312915,0.8085755,0.5739449999999999,-0.2109909999999999,0.6494055000000001,0.755895,-0.3395049999999999,1.0952555,0.509855,-0.289995,1.1522555,0.724765,-0.5232049999999999,0.5825555,0.923875,-0.490825,1.1168955,0.949275,-0.714585,0.9146745,0.0063549999999999,0.015525,1.0853255,-0.0063549999999999,-0.0155249999999999,0.7970855,-0.270385,-0.2749749999999999,1.0440315,-0.2587049999999999,-0.353635,0.8272655,-0.646065,-0.1676099999999999,1.0756355,-0.627845,-0.1906939999999999,1
86,0.931792,0.7270300000000001,-0.320185,0.808122,0.5682,-0.219754,0.6471720000000001,0.7492099999999999,-0.350645,1.093232,0.5049699999999999,-0.294575,1.149022,0.7166699999999999,-0.531625,0.580652,0.91443,-0.503865,1.113592,0.93806,-0.727055,0.914688,0.00667,0.015735,1.085312,-0.00667,-0.015735,0.795982,-0.26338,-0.280985,1.043661,-0.2516,-0.357745,0.826832,-0.6352800000000001,-0.169486,1.075522,-0.61941,-0.194047,1
87,0.930064,0.7219800000000001,-0.32723,0.807923,0.56247,-0.228588,0.645193,0.7418,-0.36128,1.091103,0.50041,-0.29922,1.146023,0.70715,-0.53996,0.578273,0.90478,-0.51678,1.1103329999999998,0.92599,-0.7392799999999999,0.914687,0.00686,0.0157299999999999,1.085313,-0.0068599999999999,-0.01573,0.794633,-0.2562,-0.2872099999999999,1.043391,-0.2443499999999999,-0.36197,0.826373,-0.62769,-0.172856,1.075323,-0.6122299999999999,-0.197075,1
88,0.9281415,0.7173400000000001,-0.334705,0.8075175,0.55737,-0.237752,0.6431375000000001,0.73413,-0.372015,1.0889975,0.49522,-0.304105,1.1429575,0.69747,-0.5481750000000001,0.5755574999999999,0.8946000000000001,-0.530015,1.1070975,0.91127,-0.7508650000000001,0.9146725,0.00714,0.0154349999999999,1.0853275,-0.0071399999999999,-0.015435,0.7931275,-0.2488099999999999,-0.293655,1.0426985,-0.2369599999999999,-0.366515,0.8257675000000001,-0.6203,-0.176559,1.0750275,-0.60481,-0.20077,1
89,0.92731,0.71278,-0.342545,0.808095,0.5542,-0.245075,0.642015,0.7266900000000001,-0.3823149999999999,1.087485,0.48771,-0.308825,1.141685,0.68686,-0.5563849999999999,0.573785,0.8846499999999999,-0.542665,1.104725,0.90159,-0.762575,0.914285,0.0074799999999999,0.015055,1.085715,-0.00748,-0.0150549999999999,0.792185,-0.2408,-0.3004249999999999,1.043447,-0.23041,-0.3706649999999999,0.826355,-0.61229,-0.1806209999999999,1.075865,-0.5968,-0.2043509999999999,1
90,0.9268715,0.7078,-0.3498599999999999,0.8089795000000001,0.5504,-0.25251,0.6414095,0.71861,-0.39185,1.0873495,0.48202,-0.3129699999999999,1.1404595,0.6778500000000001,-0.5642499999999999,0.5722195,0.87393,-0.5546,1.1028795,0.88977,-0.77437,0.9138205,0.00794,0.01462,1.0861795,-0.00794,-0.0146199999999999,0.7915595,-0.2341999999999999,-0.3053599999999999,1.0444695,-0.2239799999999999,-0.37494,0.8271495,-0.60504,-0.1846549999999999,1.0769295,-0.58916,-0.2078259999999999,1
91,0.926508,0.7047950000000001,-0.3562149999999999,0.8099959999999999,0.546845,-0.2587049999999999,0.640836,0.711045,-0.3990749999999999,1.087836,0.476195,-0.316725,1.139616,0.668305,-0.570375,0.570426,0.8639450000000001,-0.563795,1.101386,0.879745,-0.784725,0.913524,0.008385,0.014175,1.086476,-0.0083849999999999,-0.0141749999999999,0.790816,-0.2280249999999999,-0.3100349999999999,1.045436,-0.2174149999999999,-0.378905,0.827956,-0.598525,-0.188487,1.078026,-0.581695,-0.2109569999999999,1
92,0.9260105,0.702815,-0.36246,0.8107285000000001,0.544135,-0.26495,0.6401684999999999,0.705735,-0.40581,1.0881785,0.471145,-0.3205099999999999,1.1389585,0.659405,-0.57626,0.5681985,0.856825,-0.57343,1.0997185,0.871355,-0.79453,0.9131815,0.0090349999999999,0.0138199999999999,1.0868185,-0.009035,-0.0138199999999999,0.7899785,-0.221055,-0.3148999999999999,1.0459835,-0.210175,-0.38334,0.8286885000000002,-0.590975,-0.1924809999999999,1.0789084999999998,-0.5725750000000001,-0.213364,1
93,0.925656,0.70114,-0.36832,0.81118,0.5410999999999999,-0.27116,0.63954,0.70021,-0.41182,1.08858,0.46723,-0.3240699999999999,1.13875,0.65189,-0.5821700000000001,0.56568,0.84898,-0.58238,1.09873,0.86041,-0.8026500000000001,0.91278,0.0095299999999999,0.0135599999999999,1.08722,-0.00953,-0.01356,0.78915,-0.21463,-0.3196299999999999,1.046194,-0.20309,-0.3877,0.82986,-0.58267,-0.195551,1.07979,-0.56583,-0.216932,1
94,0.9255845,0.698855,-0.3741649999999999,0.8111285,0.536835,-0.277155,0.6393885,0.698495,-0.417825,1.0895385,0.461635,-0.3274249999999999,1.1391685,0.644165,-0.587755,0.5633785,0.844305,-0.591715,1.0986684999999998,0.849655,-0.809525,0.9122915,0.0100549999999999,0.013465,1.0877085,-0.0100549999999999,-0.013465,0.7883585,-0.207805,-0.324345,1.0461895,-0.1955249999999999,-0.392255,0.8310385,-0.575265,-0.199543,1.0811585,-0.559125,-0.220832,1
95,0.925987,0.69529,-0.3785199999999999,0.811555,0.53621,-0.28003,0.639645,0.6927399999999999,-0.42227,1.091055,0.4562,-0.32933,1.139835,0.63764,-0.59102,0.5614250000000001,0.8379399999999999,-0.59895,1.099035,0.8411,-0.81437,0.911985,0.011,0.01352,1.088015,-0.011,-0.01352,0.787415,-0.20248,-0.32703,1.046061,-0.18951,-0.39578,0.832565,-0.56978,-0.202625,1.082525,-0.5528599999999999,-0.22207,1
96,0.9268045,0.692575,-0.38229,0.8118895000000002,0.5349250000000001,-0.2829899999999999,0.6400995,0.688065,-0.42619,1.0923195,0.449503,-0.3313199999999999,1.1410595,0.6317250000000001,-0.59392,0.5600095,0.833135,-0.60515,1.0994695,0.833065,-0.81907,0.9116305,0.012005,0.01376,1.0883695,-0.0120049999999999,-0.0137599999999999,0.7867195000000001,-0.197125,-0.32941,1.0456535,-0.1832849999999999,-0.39914,0.8342795000000001,-0.5637949999999999,-0.2053149999999999,1.0842995,-0.546995,-0.2236199999999999,1
97,0.927839,0.6899150000000001,-0.385305,0.81201,0.533335,-0.285555,0.6409,0.6840649999999999,-0.428955,1.09386,0.442666,-0.332825,1.14241,0.6259250000000001,-0.595815,0.55886,0.828865,-0.610305,1.09985,0.827255,-0.8231550000000001,0.91131,0.0130449999999999,0.014215,1.08869,-0.013045,-0.014215,0.78598,-0.191965,-0.331385,1.045116,-0.177265,-0.402225,0.83602,-0.558125,-0.207436,1.08598,-0.5406150000000001,-0.224181,1
98,0.928739,0.687665,-0.387545,0.812087,0.5326649999999999,-0.287815,0.6416470000000001,0.680335,-0.431575,1.095327,0.438932,-0.3340349999999999,1.143447,0.621355,-0.597395,0.5578270000000001,0.825145,-0.614695,1.100017,0.821035,-0.8270249999999999,0.911133,0.013975,0.014525,1.088867,-0.013975,-0.0145249999999999,0.7853570000000001,-0.186945,-0.3329649999999999,1.044306,-0.171795,-0.405155,0.837627,-0.552275,-0.2086869999999999,1.087927,-0.535505,-0.224943,1
99,0.9300775,0.685335,-0.389405,0.8122595000000001,0.531225,-0.289635,0.6423895,0.6767650000000001,-0.433925,1.0967395,0.435309,-0.335515,1.1440795,0.617345,-0.598925,0.5569195,0.8215749999999999,-0.618955,1.1003195,0.815885,-0.8304549999999999,0.9109505,0.0146549999999999,0.014715,1.0890495,-0.014655,-0.014715,0.7848695,-0.181775,-0.334755,1.0436795,-0.166665,-0.408175,0.8393195,-0.5461050000000001,-0.209555,1.0896795,-0.530595,-0.225635,1
100,0.9318185,0.6830350000000001,-0.39135,0.8125145000000001,0.530855,-0.29124,0.6432445,0.6725749999999999,-0.43638,1.0982445,0.431531,-0.33677,1.1450445,0.613375,-0.60068,0.5565245,0.818585,-0.62311,1.1008345,0.8109850000000001,-0.83355,0.9107355,0.0155649999999999,0.01488,1.0892645,-0.0155649999999999,-0.01488,0.7845945000000001,-0.1766049999999999,-0.33672,1.0435765,-0.161735,-0.41132,0.8411744999999999,-0.540395,-0.210346,1.0916345,-0.5252950000000001,-0.226281,1
101,0.9339485,0.680755,-0.3930099999999999,0.8132645000000001,0.527135,-0.29323,0.6444845,0.6684049999999999,-0.43894,1.1001345,0.427083,-0.33807,1.1464645,0.6094849999999999,-0.60245,0.5566145,0.814165,-0.6271,1.1021245,0.806265,-0.83625,0.9103455,0.0160449999999999,0.0148699999999999,1.0896545,-0.016045,-0.0148699999999999,0.7842445,-0.171725,-0.3390499999999999,1.0438715,-0.156645,-0.41372,0.8433145,-0.5352950000000001,-0.210817,1.0940445,-0.521085,-0.227286,1
102,0.936284,0.6771499999999999,-0.39429,0.8134589999999999,0.52315,-0.29513,0.645919,0.6633,-0.4413,1.101719,0.422628,-0.3393,1.148689,0.60518,-0.60404,0.557369,0.80997,-0.63068,1.1034689999999998,0.8027599999999999,-0.83892,0.910053,0.0161999999999999,0.0148599999999999,1.089947,-0.0161999999999999,-0.01486,0.7835989999999999,-0.16707,-0.34165,1.0443589999999998,-0.15158,-0.41589,0.845379,-0.5300900000000001,-0.21095,1.096419,-0.51704,-0.228106,1
103,0.9384665,0.674775,-0.395185,0.8144495,0.520535,-0.296925,0.6473095,0.6569849999999999,-0.443505,1.1033495,0.421184,-0.3403849999999999,1.1508795,0.6025050000000001,-0.605625,0.5581995,0.805205,-0.633705,1.1048995,0.7985949999999999,-0.841425,0.9098965,0.016265,0.014945,1.0901035,-0.0162649999999999,-0.0149449999999999,0.7828094999999999,-0.1629749999999999,-0.344265,1.0448295,-0.147185,-0.4177349999999999,0.8473695,-0.525495,-0.2109799999999999,1.0989095,-0.513355,-0.2292019999999999,1
104,0.9405475,0.67274,-0.396065,0.8152405,0.51782,-0.298685,0.6486905000000001,0.655,-0.445715,1.1046904999999998,0.4199009999999999,-0.341585,1.1528705,0.6002799999999999,-0.6072649999999999,0.5591005,0.80254,-0.6365149999999999,1.1068005,0.79455,-0.843315,0.9097325,0.0160899999999999,0.0149149999999999,1.0902675,-0.01609,-0.014915,0.7825305,-0.15949,-0.347115,1.0454205,-0.14364,-0.419265,0.8492805,-0.52144,-0.211122,1.1009105,-0.5102300000000001,-0.230042,1
105,0.942826,0.66988,-0.39656,0.8163040000000001,0.51587,-0.29982,0.6509240000000001,0.6529,-0.44582,1.105744,0.419693,-0.34267,1.154124,0.5987600000000001,-0.6086,0.560334,0.7996700000000001,-0.63912,1.108734,0.7904500000000001,-0.8445699999999999,0.909633,0.01596,0.01471,1.090367,-0.0159599999999999,-0.01471,0.7823640000000001,-0.1564299999999999,-0.34974,1.046027,-0.1405299999999999,-0.42032,0.8511839999999999,-0.51755,-0.210319,1.103274,-0.5070199999999999,-0.23043,1
106,0.9448205,0.66759,-0.396415,0.8174414999999999,0.51432,-0.300445,0.6531415,0.65107,-0.445565,1.1067415,0.419907,-0.343345,1.1553115,0.59754,-0.609915,0.5621715,0.7968,-0.6395150000000001,1.1106915,0.7864599999999999,-0.845275,0.9095365,0.0158099999999999,0.0144149999999999,1.0904635,-0.0158099999999999,-0.014415,0.7824015,-0.15353,-0.351915,1.0466205,-0.13777,-0.420665,0.8532215000000001,-0.5138499999999999,-0.209424,1.1052415,-0.5025599999999999,-0.229604,1
107,0.948003,0.66692,-0.396335,0.819509,0.51296,-0.301175,0.655489,0.6500299999999999,-0.447405,1.108659,0.4203609999999999,-0.344095,1.157799,0.59688,-0.611175,0.5647690000000001,0.79448,-0.641935,1.113529,0.7829699999999999,-0.845875,0.909476,0.0158399999999999,0.0141649999999999,1.090524,-0.01584,-0.014165,0.783359,-0.15081,-0.353995,1.047458,-0.13553,-0.420965,0.856069,-0.50987,-0.208493,1.108119,-0.49888,-0.229504,1
108,0.950825,0.666615,-0.396285,0.821394,0.512375,-0.301525,0.657694,0.6497350000000001,-0.449045,1.110604,0.421021,-0.344505,1.160034,0.596935,-0.612005,0.5672539999999999,0.7926550000000001,-0.6438250000000001,1.116334,0.779765,-0.8462050000000001,0.90946,0.015765,0.0139749999999999,1.09054,-0.0157649999999999,-0.013975,0.784124,-0.148505,-0.355725,1.047643,-0.1340249999999999,-0.420785,0.8586940000000001,-0.506415,-0.207464,1.110504,-0.4946849999999999,-0.228422,1
109,0.9533915,0.66681,-0.396425,0.8231215000000001,0.5116970000000001,-0.302015,0.6597215000000001,0.65099,-0.450165,1.1122315,0.421332,-0.345065,1.1622115,0.59692,-0.612535,0.5695015,0.7919400000000001,-0.645575,1.1192115,0.7772600000000001,-0.846555,0.9094185,0.01571,0.0139449999999999,1.0905815,-0.01571,-0.013945,0.7848815,-0.14667,-0.3570649999999999,1.0471445,-0.1332,-0.420785,0.8610915,-0.5037499999999999,-0.206372,1.1123315,-0.4908499999999999,-0.227264,1
110,0.9556845,0.6670149999999999,-0.396285,0.8247085000000001,0.513002,-0.302145,0.6616985,0.652295,-0.450835,1.1135785,0.4212859999999999,-0.345245,1.1643985,0.5967749999999999,-0.612695,0.5715085000000001,0.7918049999999999,-0.646555,1.1220085,0.775295,-0.8467450000000001,0.9095185,0.0157649999999999,0.013895,1.0904815,-0.015765,-0.0138949999999999,0.7858985,-0.146125,-0.357265,1.0464635,-0.133665,-0.420795,0.8631985,-0.502445,-0.205392,1.1140285,-0.489125,-0.227074,1
111,0.9577675,0.6674,-0.39592,0.8264675,0.513387,-0.30241,0.6637475000000002,0.65268,-0.45112,1.1149075,0.421613,-0.3455,1.1672375,0.59716,-0.61302,0.5737875,0.79219,-0.64685,1.1248775,0.77402,-0.84707,0.9096375,0.016,0.0137199999999999,1.0903625,-0.0159999999999999,-0.01372,0.7876375,-0.14639,-0.35753,1.0456465,-0.1349699999999999,-0.42089,0.8654175,-0.5021599999999999,-0.204775,1.1156175,-0.4897399999999999,-0.228375,1
112,0.9596105,0.6674,-0.395555,0.8281035,0.513387,-0.302735,0.6655035,0.65268,-0.451455,1.1161635,0.421613,-0.345805,1.1697135,0.59716,-0.613395,0.5761435000000001,0.79219,-0.647215,1.1276135,0.77402,-0.847455,0.9097335,0.016,0.013475,1.0902665,-0.0159999999999999,-0.0134749999999999,0.7894435,-0.1469499999999999,-0.357865,1.0447715,-0.1364999999999999,-0.420565,0.8673435,-0.5023099999999999,-0.204572,1.1175035,-0.4905899999999999,-0.228568,1
113,0.961102,0.6674,-0.3953799999999999,0.829435,0.513433,-0.30301,0.666945,0.6529900000000001,-0.45223,1.117095,0.421613,-0.34655,1.171535,0.59716,-0.61413,0.578435,0.79219,-0.64803,1.129915,0.77402,-0.8481299999999999,0.909755,0.016,0.01324,1.090245,-0.0159999999999999,-0.01324,0.7908850000000001,-0.14737,-0.3586399999999999,1.043697,-0.1379699999999999,-0.41993,0.8690450000000001,-0.5025,-0.2049059999999999,1.118735,-0.48997,-0.227901,1
114,0.962432,0.67003,-0.395595,0.830823,0.51491,-0.3028849999999999,0.668373,0.6547000000000001,-0.453005,1.118073,0.421613,-0.3467749999999999,1.173583,0.59731,-0.613855,0.5806629999999999,0.79224,-0.648555,1.132103,0.77402,-0.8486549999999999,0.909643,0.016,0.013115,1.0903569999999998,-0.0159999999999999,-0.0131149999999999,0.792333,-0.14788,-0.3590449999999999,1.042794,-0.1393599999999999,-0.419275,0.8706430000000001,-0.5029899999999999,-0.2059609999999999,1.120323,-0.4891799999999999,-0.228368,1
115,0.9639025,0.673605,-0.39508,0.8322995,0.517105,-0.30203,0.6697995000000001,0.6577850000000001,-0.45307,1.1190295,0.422071,-0.3463199999999999,1.1755395,0.5977950000000001,-0.61327,0.5828395,0.792875,-0.64821,1.1343195,0.7735650000000001,-0.84843,0.9094395,0.016155,0.0125699999999999,1.0905604999999998,-0.0161549999999999,-0.0125699999999999,0.7940595,-0.1485849999999999,-0.35879,1.0422455,-0.140895,-0.4178999999999999,0.8722195,-0.504225,-0.206866,1.1220295,-0.490305,-0.229397,1
116,0.9646525,0.67767,-0.3944499999999999,0.8329595,0.51905,-0.30136,0.6704295,0.66089,-0.45287,1.1190995,0.4226069999999999,-0.34576,1.1766895,0.59843,-0.61258,0.5840595,0.7950200000000001,-0.64771,1.1356795,0.77471,-0.84813,0.9091195,0.01632,0.0123,1.0908805,-0.01632,-0.0123,0.7955495,-0.14998,-0.3585399999999999,1.0415995,-0.14256,-0.41659,0.8728195,-0.50622,-0.208018,1.1217795,-0.49187,-0.229025,1
117,0.965363,0.681905,-0.39368,0.833689,0.520985,-0.30062,0.671009,0.6631750000000001,-0.45254,1.118847,0.428343,-0.34496,1.176539,0.600175,-0.61139,0.585189,0.797865,-0.6470400000000001,1.137019,0.776365,-0.8476300000000001,0.908839,0.015915,0.0120899999999999,1.0911609999999998,-0.0159149999999999,-0.0120899999999999,0.797489,-0.1528549999999999,-0.35806,1.041615,-0.145725,-0.41459,0.873619,-0.509095,-0.208987,1.121889,-0.4942449999999999,-0.228808,1
118,0.9663415,0.68719,-0.39127,0.8346035,0.52151,-0.2999699999999999,0.6717535,0.66763,-0.45177,1.1193354999999998,0.432889,-0.34418,1.1768435,0.60334,-0.60986,0.5863335000000001,0.8014,-0.64528,1.1383435,0.7799,-0.8463999999999999,0.9084635,0.0151999999999999,0.0117099999999999,1.0915365,-0.0151999999999999,-0.0117099999999999,0.7999134999999999,-0.1576099999999999,-0.35749,1.0424105,-0.15119,-0.41158,0.8745035,-0.5138499999999999,-0.209811,1.1226235,-0.4989999999999999,-0.229657,1
119,0.9673245,0.69199,-0.3881099999999999,0.8351515,0.52149,-0.29851,0.6723615000000001,0.67225,-0.4493999999999999,1.1199985,0.4368559999999999,-0.3423899999999999,1.1776215,0.6071799999999999,-0.60719,0.5875715,0.80679,-0.6419999999999999,1.1394814999999998,0.78443,-0.84383,0.9082915,0.0144599999999999,0.01155,1.0917085,-0.01446,-0.0115499999999999,0.8024415,-0.16273,-0.35631,1.0431825,-0.1576699999999999,-0.4076999999999999,0.8751915000000001,-0.5192100000000001,-0.210065,1.1227115,-0.50377,-0.2293759999999999,1
120,0.968449,0.697035,-0.38439,0.836008,0.524735,-0.29498,0.673038,0.676375,-0.44582,1.120114,0.44088,-0.3397,1.179658,0.612575,-0.6034900000000001,0.5887979999999999,0.812395,-0.6377200000000001,1.140728,0.789785,-0.8401400000000001,0.908258,0.0139549999999999,0.0114499999999999,1.091742,-0.0139549999999999,-0.01145,0.8054680000000001,-0.168995,-0.35444,1.044054,-0.165335,-0.4028,0.875888,-0.526335,-0.210204,1.122698,-0.510645,-0.229284,1
121,0.9698655,0.702585,-0.3807049999999999,0.8372485000000001,0.530015,-0.291005,0.6740985000000002,0.680755,-0.4418149999999999,1.1207915,0.445419,-0.336275,1.1822485,0.617725,-0.599555,0.5902285,0.817875,-0.633025,1.1423585,0.796485,-0.835715,0.9082885,0.013635,0.0114549999999999,1.0917115,-0.013635,-0.0114549999999999,0.8094685,-0.1745449999999999,-0.3520149999999999,1.0451485,-0.173335,-0.397825,0.8767585,-0.533805,-0.2103459999999999,1.1238185,-0.519445,-0.229329,1
122,0.9714675,0.7076800000000001,-0.37704,0.8386075,0.53484,-0.28702,0.6749975000000001,0.6847400000000001,-0.4373599999999999,1.1218425,0.450435,-0.33265,1.1847075,0.6228400000000001,-0.59568,0.5917575000000002,0.82311,-0.62738,1.1442375,0.80484,-0.83157,0.9084975,0.01334,0.01144,1.0915024999999998,-0.0133399999999999,-0.0114399999999999,0.8138875,-0.1815799999999999,-0.3496599999999999,1.0463695,-0.1824,-0.39303,0.8777075,-0.54265,-0.210358,1.1250075,-0.5286099999999999,-0.229096,1
123,0.9727045,0.71185,-0.373025,0.8395755,0.53917,-0.283425,0.6753855,0.6895,-0.432585,1.1224255,0.4576759999999999,-0.329325,1.1875155,0.6287499999999999,-0.592425,0.5928455,0.82978,-0.6219250000000001,1.1458455,0.8133900000000001,-0.826935,0.9089055,0.01283,0.0113949999999999,1.0910945,-0.01283,-0.011395,0.8176255,-0.18888,-0.347305,1.0474435,-0.19158,-0.388495,0.8781855,-0.5523499999999999,-0.210975,1.1261055,-0.5384,-0.229019,1
124,0.9742105,0.7168950000000001,-0.367915,0.8405305000000001,0.543135,-0.280065,0.6760405,0.6951350000000001,-0.426995,1.1231475,0.464345,-0.326095,1.1910405,0.6359250000000001,-0.587635,0.5941605,0.8375950000000001,-0.615625,1.1478005,0.824165,-0.821345,0.9092105,0.012545,0.011295,1.0907895,-0.0125449999999999,-0.011295,0.8211805,-0.1959249999999999,-0.344665,1.0486925,-0.2006649999999999,-0.384255,0.8784705000000002,-0.5615549999999999,-0.211411,1.1270205,-0.549225,-0.2295569999999999,1
125,0.975841,0.722545,-0.36122,0.84209,0.547645,-0.27474,0.67659,0.701895,-0.42053,1.12422,0.472285,-0.32116,1.19451,0.644755,-0.58091,0.5961099999999999,0.845955,-0.60738,1.15066,0.8348450000000001,-0.8130999999999999,0.90943,0.0119049999999999,0.0113199999999999,1.09057,-0.0119049999999999,-0.0113199999999999,0.82477,-0.204965,-0.33977,1.050648,-0.2118849999999999,-0.37824,0.87872,-0.5727249999999999,-0.210784,1.12794,-0.5606249999999999,-0.228503,1
126,0.9780045,0.729875,-0.352665,0.8424345,0.5520849999999999,-0.267688,0.6769645,0.710745,-0.4129549999999999,1.1252345,0.477965,-0.315305,1.1980945,0.6554949999999999,-0.572965,0.5980145,0.8569149999999999,-0.597545,1.1544445,0.8485149999999999,-0.801145,0.9095945,0.0115149999999999,0.0110349999999999,1.0904055,-0.0115149999999999,-0.0110349999999999,0.8286344999999999,-0.215545,-0.3329649999999999,1.0538725,-0.223065,-0.371375,0.8786745,-0.5860350000000001,-0.209317,1.1284445,-0.572195,-0.225705,1
127,0.9797895,0.7361500000000001,-0.34496,0.8425305000000001,0.55742,-0.26023,0.6773405,0.7176100000000001,-0.40474,1.1261205,0.48434,-0.30916,1.2014105,0.66577,-0.56443,0.5999205000000001,0.86739,-0.58831,1.1582705,0.86175,-0.78872,0.9098805,0.01125,0.01088,1.0901195,-0.0112499999999999,-0.01088,0.8321705,-0.22546,-0.32564,1.0571215,-0.23326,-0.36523,0.8784505,-0.59878,-0.207364,1.1289005,-0.58606,-0.224157,1
128,0.9815365,0.742875,-0.33628,0.8424805000000001,0.562925,-0.252535,0.6778204999999999,0.724305,-0.39655,1.1267005,0.4907749999999999,-0.3031,1.2047005,0.676175,-0.55402,0.6027305000000001,0.876565,-0.57833,1.1627705,0.8760049999999999,-0.77511,0.9103205,0.0107949999999999,0.0107499999999999,1.0896795,-0.0107949999999999,-0.01075,0.8359005000000002,-0.235505,-0.3182,1.0606345,-0.2429049999999999,-0.35912,0.8779605,-0.6117250000000001,-0.20524,1.1288905,-0.600835,-0.222794,1
129,0.9833285,0.749975,-0.32589,0.8418035,0.567035,-0.244338,0.6790035,0.731055,-0.38728,1.1281535,0.4977349999999999,-0.2959,1.2075735,0.685835,-0.54293,0.6066035000000001,0.8866649999999999,-0.56725,1.1681035,0.892515,-0.7596499999999999,0.9109535,0.0102149999999999,0.0105999999999999,1.0890465,-0.010215,-0.0105999999999999,0.8397235000000001,-0.246005,-0.30948,1.0655205,-0.252365,-0.35357,0.8766435,-0.6297050000000001,-0.206252,1.1285935,-0.616645,-0.222301,1
130,0.9849475,0.7559100000000001,-0.314625,0.8408415000000001,0.5684199999999999,-0.236022,0.6800415,0.7388600000000001,-0.378205,1.1302415,0.50704,-0.287745,1.2103215,0.69923,-0.530455,0.6107815000000001,0.8959600000000001,-0.555795,1.1736315,0.90849,-0.7433150000000001,0.9116815,0.00916,0.0107849999999999,1.0883185,-0.00916,-0.0107849999999999,0.8431015,-0.2580699999999999,-0.300685,1.0707595,-0.26028,-0.347295,0.8751815000000001,-0.64802,-0.207031,1.1279715,-0.6320999999999999,-0.22277,1
131,0.9861065,0.76227,-0.3025799999999999,0.8393085,0.57006,-0.227263,0.6806885,0.74675,-0.36934,1.1318885,0.51573,-0.27928,1.2130584999999998,0.7125,-0.51746,0.6142685,0.90628,-0.54514,1.1787985,0.92531,-0.7255199999999999,0.9122285,0.00811,0.01055,1.0877715,-0.0081099999999999,-0.01055,0.8455285000000001,-0.2692299999999999,-0.2918699999999999,1.0755335,-0.26742,-0.34103,0.8734085,-0.66383,-0.207648,1.1275385,-0.6454599999999999,-0.2243109999999999,1
132,0.987046,0.768785,-0.290245,0.8371630000000001,0.5714049999999999,-0.218849,0.6808730000000001,0.754215,-0.360925,1.132973,0.521875,-0.271105,1.214633,0.7254149999999999,-0.503735,0.6174729999999999,0.914965,-0.535025,1.183863,0.942735,-0.707475,0.912473,0.006885,0.010305,1.087527,-0.0068849999999999,-0.0103049999999999,0.8476530000000001,-0.279945,-0.283055,1.08092,-0.272385,-0.3348649999999999,0.871033,-0.679045,-0.209143,1.126953,-0.659445,-0.225055,1
133,0.9875525,0.774305,-0.278055,0.8345255,0.575205,-0.209368,0.6807155,0.759965,-0.352335,1.1334455,0.529075,-0.2617049999999999,1.2158155,0.737615,-0.490095,0.6202255,0.927485,-0.525115,1.1886955,0.957975,-0.6882349999999999,0.9126855,0.005475,0.009885,1.0873145,-0.005475,-0.009885,0.8492055000000001,-0.2923249999999999,-0.274045,1.0857705,-0.278355,-0.327845,0.8682655000000001,-0.694555,-0.21007,1.1256155,-0.673645,-0.224037,1
134,0.9876945,0.77784,-0.26636,0.8322195,0.5774699999999999,-0.201121,0.6802195000000001,0.76429,-0.34398,1.1337195,0.53556,-0.25311,1.2169694999999998,0.7483099999999999,-0.47716,0.6220895,0.93786,-0.5163800000000001,1.1928995,0.97151,-0.6700699999999999,0.9129295,0.0042599999999999,0.0093499999999999,1.0870705,-0.00426,-0.0093499999999999,0.8501295,-0.30056,-0.26628,1.0898245,-0.28303,-0.32178,0.8651295,-0.70858,-0.211362,1.1246295,-0.68774,-0.224034,1
135,0.987313,0.77837,-0.254625,0.829844,0.5787,-0.19363,0.679724,0.76765,-0.336015,1.134504,0.5386200000000001,-0.244135,1.217844,0.75585,-0.463835,0.624024,0.94409,-0.508005,1.196584,0.98192,-0.653025,0.913114,0.00335,0.0091749999999999,1.0868859999999998,-0.0033499999999999,-0.009175,0.850614,-0.30682,-0.2594349999999999,1.092957,-0.2879899999999999,-0.315355,0.8621940000000001,-0.7212999999999999,-0.212282,1.123634,-0.69967,-0.224297,1
136,0.9868425,0.7776099999999999,-0.2419,0.8272265,0.5798300000000001,-0.185892,0.6790165,0.7706200000000001,-0.32822,1.1353265,0.5426500000000001,-0.23452,1.2192065,0.7643899999999999,-0.44875,0.6262965,0.95208,-0.49906,1.2006965,0.99377,-0.6336700000000001,0.9132925,0.00259,0.00902,1.0867075,-0.0025899999999999,-0.00902,0.8509565,-0.31287,-0.25275,1.0969645,-0.29405,-0.30739,0.8592065,-0.73458,-0.212859,1.1231464999999998,-0.7120899999999999,-0.224085,1
137,0.9861955,0.7785,-0.2293029999999999,0.8238795,0.5807,-0.177942,0.6780195,0.77369,-0.320605,1.1363295,0.5468500000000001,-0.224466,1.2207895,0.77335,-0.4334949999999999,0.6280595,0.95907,-0.491025,1.2041595,1.0051100000000002,-0.6140749999999999,0.9136035,0.00193,0.008795,1.0863965,-0.0019299999999999,-0.0087949999999999,0.8509694999999999,-0.31894,-0.245495,1.1010565,-0.3003699999999999,-0.298995,0.8566995,-0.74757,-0.2121569999999999,1.1230495,-0.72508,-0.2231759999999999,1
138,0.9853195,0.778075,-0.2180139999999999,0.8220825,0.579555,-0.1719669999999999,0.6765425,0.777095,-0.31421,1.1369325,0.550265,-0.215536,1.2225025,0.781525,-0.41847,0.6291825000000001,0.967225,-0.48444,1.2066625,1.014885,-0.59517,0.9139445,0.001185,0.00847,1.0860555,-0.0011849999999999,-0.0084699999999999,0.8503925,-0.323965,-0.23939,1.1041865,-0.3053349999999999,-0.29058,0.8550925,-0.758035,-0.208172,1.1232425,-0.735665,-0.21999,1
139,0.984133,0.7774650000000001,-0.2058769999999999,0.820178,0.578485,-0.166006,0.675028,0.7787649999999999,-0.30745,1.137038,0.554905,-0.205762,1.224108,0.787595,-0.40398,0.629968,0.977565,-0.47815,1.208788,1.024095,-0.57594,0.914439,0.0004149999999999,0.0081499999999999,1.085561,-0.0004149999999999,-0.0081499999999999,0.849468,-0.3289849999999999,-0.23337,1.10681,-0.311025,-0.282,0.853448,-0.7676050000000001,-0.203982,1.123368,-0.7437050000000001,-0.215893,1
140,0.9833745000000002,0.7766149999999999,-0.194592,0.8186295,0.579195,-0.160553,0.6740195,0.780965,-0.300955,1.1374995,0.559645,-0.196733,1.2251695,0.794435,-0.389815,0.6312495,0.987245,-0.472145,1.2113595,1.0316649999999998,-0.557105,0.9150195,-0.0001349999999999,0.007705,1.0849805,0.0001349999999999,-0.007705,0.8495895,-0.333425,-0.227215,1.1098195,-0.315675,-0.273505,0.8522895,-0.776215,-0.200317,1.1236195,-0.752325,-0.212302,1
141,0.9827755,0.77417,-0.182796,0.8172695,0.57909,-0.1543479999999999,0.6729695,0.78208,-0.2938349999999999,1.1381495,0.56379,-0.1871729999999999,1.2273295,0.80127,-0.374635,0.6324595,0.99609,-0.465205,1.2138195,1.03778,-0.536815,0.9156805,-0.0002899999999999,0.0069349999999999,1.0843195,0.00029,-0.0069349999999999,0.8500894999999999,-0.34376,-0.219715,1.1115895,-0.3260099999999999,-0.263465,0.8517395,-0.78399,-0.1935279999999999,1.1237695,-0.76266,-0.208002,1
142,0.98208,0.77117,-0.170356,0.815342,0.58046,-0.148217,0.6718219999999999,0.78331,-0.286615,1.138342,0.56891,-0.176296,1.229422,0.80811,-0.359405,0.633142,0.9993,-0.457575,1.216252,1.04339,-0.516305,0.915781,-0.00082,0.0061049999999999,1.0842189999999998,0.0008199999999999,-0.0061049999999999,0.851822,-0.35417,-0.20931,1.113302,-0.33642,-0.252195,0.852102,-0.79177,-0.184564,1.123702,-0.76997,-0.201612,1
143,0.981754,0.7666299999999999,-0.152886,0.8139609999999999,0.57999,-0.136768,0.671081,0.78243,-0.274055,1.138591,0.57146,-0.160223,1.230871,0.81265,-0.337975,0.6342810000000001,1.00093,-0.443345,1.218971,1.04788,-0.490315,0.915853,-0.00179,0.0051749999999999,1.084147,0.00179,-0.0051749999999999,0.8540610000000001,-0.36622,-0.193497,1.115391,-0.3483699999999999,-0.233375,0.8529510000000001,-0.80149,-0.170279,1.124051,-0.7790600000000001,-0.188109,1
144,0.981269,0.7685150000000001,-0.135106,0.81281,0.578195,-0.124028,0.67025,0.779195,-0.259912,1.13886,0.575095,-0.14248,1.23289,0.8165450000000001,-0.315712,0.63539,1.001465,-0.427902,1.22215,1.053525,-0.463762,0.915873,-0.002125,0.003691,1.084127,0.002125,-0.003691,0.85663,-0.380685,-0.17345,1.11743,-0.360035,-0.210422,0.85407,-0.811925,-0.154798,1.12473,-0.789025,-0.17193,1
145,0.980468,0.771585,-0.1185259999999999,0.8118259999999999,0.576865,-0.111631,0.669106,0.7758349999999999,-0.2463369999999999,1.139116,0.5784549999999999,-0.125195,1.234836,0.8187249999999999,-0.295377,0.636016,1.000015,-0.413167,1.224916,1.056645,-0.440177,0.915922,-0.00252,0.002363,1.084078,0.0025199999999999,-0.002363,0.8591759999999999,-0.394505,-0.153573,1.118286,-0.3708749999999999,-0.189057,0.8551160000000001,-0.8211050000000001,-0.13913,1.125126,-0.797255,-0.155574,1
146,0.979729,0.772631,-0.1025465,0.811009,0.575361,-0.0994995,0.667659,0.771981,-0.2330645,1.139569,0.582471,-0.1078385,1.236859,0.816401,-0.2770145,0.636189,0.998321,-0.3986145,1.228129,1.055371,-0.4178644999999999,0.915959,-0.0030199999999999,0.0011384999999999,1.084041,0.00302,-0.0011385,0.861829,-0.411499,-0.1334915,1.118849,-0.383409,-0.1674395,0.856669,-0.831719,-0.1232285,1.125639,-0.805129,-0.1386625,1
147,0.9793265,0.7741315,-0.0866975,0.8104645,0.5739115,-0.0872995,0.6663945,0.7666115,-0.2200935,1.1404145,0.5867614999999999,-0.0903885,1.2391945,0.8123214999999999,-0.2584335,0.6366745,0.9918315,-0.3840535,1.2317245,1.0515915,-0.3965535,0.9160005,-0.0035165,-0.0001254999999999,1.0839995,0.0035164999999999,0.0001255,0.8646245000000001,-0.4294285,-0.1132965,1.1197345,-0.3948385,-0.1454555,0.8584445,-0.8426385000000001,-0.1071564999999999,1.1266145,-0.8128485000000001,-0.1217755,1
148,0.978904,0.7766795,-0.071997,0.809978,0.5730795,-0.075465,0.664698,0.7578095,-0.207535,1.141348,0.5872094999999999,-0.07503,1.242418,0.8044095,-0.240165,0.637238,0.9812795,-0.369695,1.2355779999999998,1.0428595,-0.375535,0.915854,-0.0037745,-0.001411,1.084146,0.0037745,0.001411,0.867348,-0.4473605,-0.093429,1.120698,-0.4046905,-0.1241809999999999,0.860318,-0.8525605,-0.090989,1.127638,-0.8196105,-0.104664,1
149,0.978475,0.779131,-0.0569295,0.809666,0.570931,-0.0637165,0.662496,0.747031,-0.1951574999999999,1.142416,0.5873109999999999,-0.0591755,1.247596,0.793831,-0.2205375,0.637676,0.970501,-0.3552175,1.239736,1.032081,-0.3543975,0.915715,-0.0041199999999999,-0.0026494999999999,1.084285,0.0041199999999999,0.0026494999999999,0.869486,-0.465239,-0.0737115,1.121766,-0.4142789999999999,-0.1029964999999999,0.861976,-0.8625390000000001,-0.0754145,1.128596,-0.8256990000000001,-0.0870845,1
150,0.9779325,0.7840564999999999,-0.0425335,0.8093475,0.5698765,-0.0525425,0.6594175,0.7378865,-0.1834104999999999,1.1435075,0.5880265,-0.0436665,1.2536375,0.7846865,-0.2027205,0.6372775000000002,0.9613565,-0.3408805,1.2439175,1.0229365,-0.3352104999999999,0.9156315,-0.0046485,-0.0035595,1.0843685,0.0046485,0.0035595,0.8713575,-0.4818535,-0.0551305,1.1222775,-0.4225235,-0.0827445,0.8634375,-0.8715135,-0.0621494999999999,1.1291975,-0.8302235,-0.0702135,1
151,0.977499,0.7892695,-0.0293669999999999,0.8093800000000001,0.5648195,-0.0422019999999999,0.6549499999999999,0.7307295,-0.1724099999999999,1.14423,0.5869795,-0.029885,1.26108,0.7775295,-0.18542,0.63629,0.9541995,-0.32757,1.2485,1.0157795,-0.31639,0.915597,-0.0048415,-0.0042129999999999,1.084403,0.0048415,0.004213,0.87218,-0.4964105,-0.039538,1.12253,-0.4315805,-0.064147,0.8640800000000001,-0.8787005,-0.051745,1.12956,-0.8332805,-0.054084,1
152,0.976785,0.796942,-0.021639,0.809083,0.562252,-0.037272,0.649763,0.725782,-0.167111,1.144673,0.587552,-0.021569,1.269163,0.773242,-0.174701,0.6347130000000001,0.947312,-0.3212609999999999,1.252503,1.011202,-0.303961,0.915578,-0.004473,-0.004577,1.084422,0.0044729999999999,0.0045769999999999,0.872703,-0.508138,-0.029417,1.122393,-0.437248,-0.053319,0.864353,-0.882848,-0.046836,1.129683,-0.833348,-0.045656,1
153,0.976265,0.8001935,-0.0153544999999999,0.8086010000000001,0.5620435,-0.0332905,0.644231,0.7193435,-0.1640085,1.145121,0.5874535000000001,-0.0155534999999999,1.278971,0.7646935,-0.1653784999999999,0.633201,0.9394135,-0.3166085,1.256281,1.0041635,-0.2935185,0.915443,-0.0045725,-0.0046484999999999,1.084557,0.0045725,0.0046485,0.873141,-0.5112464999999999,-0.0237365,1.122391,-0.4397665,-0.0476695,0.8646510000000001,-0.8849865,-0.0437324999999999,1.129801,-0.8310365,-0.0398325,1
154,0.9763445,0.803467,-0.0091105,0.8084325,0.561197,-0.0289915,0.6390125,0.708407,-0.1607995,1.1462525,0.586317,-0.0096235,1.2896725,0.752467,-0.1563995,0.6322825000000001,0.925837,-0.3118895,1.2609325,0.991677,-0.2826795,0.9157385,-0.0047229999999999,-0.0048614999999999,1.0842615,0.004723,0.0048615,0.8736725000000001,-0.513363,-0.0178805,1.1230225,-0.443053,-0.0412575,0.8651825,-0.886183,-0.0408204999999999,1.1304825,-0.828753,-0.0345064999999999,1
155,0.97636,0.805537,-0.0027294999999999,0.808144,0.561197,-0.0244595,0.633614,0.694787,-0.1569195,1.147384,0.586317,-0.0040465,1.301404,0.735777,-0.1474495,0.631324,0.911737,-0.3071395,1.265234,0.976867,-0.2720595,0.915956,-0.0047229999999999,-0.0051135,1.084044,0.004723,0.0051135,0.873864,-0.514953,-0.0112004999999999,1.123774,-0.444733,-0.0354165,0.865684,-0.887033,-0.0381275,1.131144,-0.826833,-0.0298885,0
156,0.976372,0.807277,0.003413,0.807776,0.561197,-0.019994,0.624296,0.674067,-0.152961,1.148406,0.586317,0.001236,1.312536,0.714487,-0.139551,0.6305960000000002,0.892467,-0.302521,1.270006,0.952237,-0.262181,0.91614,-0.0047229999999999,-0.005218,1.0838599999999998,0.004723,0.0052179999999999,0.873976,-0.514953,-0.004987,1.124616,-0.444513,-0.029963,0.8660760000000001,-0.886763,-0.034991,1.131866,-0.824923,-0.025491,0
157,0.9764645,0.808687,0.0092835,0.8073745,0.561197,-0.0152495,0.6163145,0.651787,-0.1487745,1.1497945,0.586317,0.0063364999999999,1.3223845,0.689577,-0.1319245,0.6301645,0.869697,-0.2979745,1.2744945,0.925827,-0.2533245,0.9162385,-0.0047229999999999,-0.0054385,1.0837615,0.004723,0.0054385,0.8743945000000001,-0.513363,0.0005054999999999,1.1255244999999998,-0.444473,-0.0244794999999999,0.8665145000000001,-0.885913,-0.0315275,1.1326145,-0.823133,-0.0215265,0
158,0.9767225,0.8105815,0.014625,0.8070115,0.5609915,-0.010457,0.6096215,0.6225115,-0.1434629999999999,1.1513115,0.5847415,0.011283,1.3300415,0.6620215,-0.124793,0.6303715,0.8416615,-0.293273,1.2786215,0.8975115,-0.245553,0.9162985,-0.0047934999999999,-0.0056869999999999,1.0837015,0.0047934999999999,0.0056869999999999,0.8748415,-0.5124385,0.005693,1.1264915,-0.4435785,-0.019262,0.8670515,-0.8842785,-0.028248,1.1335515,-0.8215884999999999,-0.01863,0
159,0.977067,0.8119365,0.0193985,0.806627,0.5607165,-0.0057114999999999,0.605317,0.5928065,-0.1382735,1.152657,0.5828965,0.0159065,1.337407,0.6342465,-0.1179035,0.631237,0.8129765,-0.2889735,1.283307,0.8633365,-0.2382935,0.91629,-0.0048535,-0.0058475,1.08371,0.0048535,0.0058475,0.875107,-0.5138035,0.0104865,1.127417,-0.4426735,-0.0146765,0.867607,-0.8823835,-0.0248135,1.134437,-0.8196035,-0.0150944999999999,0
160,0.977496,0.8134565,0.0238075,0.8060970000000001,0.5602165,-0.0009985,0.603437,0.5629965,-0.1316985,1.153927,0.5796665,0.0200075,1.341207,0.6040865,-0.1106584999999999,0.632037,0.7832765,-0.2849085,1.287367,0.8287065,-0.2329685,0.916211,-0.0048214999999999,-0.0060785,1.083789,0.0048215,0.0060785,0.875367,-0.5155135,0.0146414999999999,1.128347,-0.4412335,-0.0103795,0.8681070000000001,-0.8812935,-0.0219655,1.135297,-0.8176635,-0.0119935,0
161,0.9779495,0.815135,0.027617,0.8054975,0.559695,0.0035639999999999,0.6033075,0.5334450000000001,-0.124661,1.1551275,0.576985,0.023811,1.3421675,0.574275,-0.102861,0.6328175,0.7530450000000001,-0.2806309999999999,1.2909875,0.792795,-0.228011,0.9161345,-0.0047589999999999,-0.006387,1.0838655,0.004759,0.0063869999999999,0.8755575000000001,-0.516745,0.0184189999999999,1.1292375,-0.439635,-0.006313,0.8684475,-0.880375,-0.019541,1.1359675,-0.815495,-0.008961,0
162,0.9782455,0.8174575000000001,0.0305475,0.8049925,0.5585875,0.0073575,0.6043125,0.5030375,-0.1146644999999999,1.1562525,0.5743975,0.0272945,1.3430325,0.5441075000000001,-0.0955945,0.6336325,0.7210575,-0.2765545,1.2942125,0.7550075,-0.2238245,0.9160885,-0.0046845,-0.0065795,1.0839115,0.0046844999999999,0.0065795,0.8756125,-0.5174124999999999,0.0218665,1.1303325,-0.4392925,-0.0026724999999999,0.8686925,-0.8786625,-0.0172955,1.1365025,-0.8129925,-0.0061575,0
163,0.978414,0.8199015000000001,0.0330835,0.8044439999999999,0.5574515,0.0108345,0.6052040000000001,0.4743115,-0.1039435,1.157174,0.5718215,0.0307235,1.343814,0.5125215,-0.0869335,0.635224,0.6888615,-0.2722335,1.296144,0.7177315000000001,-0.2213834999999999,0.915961,-0.0046304999999999,-0.0068105,1.084039,0.0046305,0.0068105,0.875574,-0.5188385,0.0250745,1.131134,-0.4388885,1.7500000000000154e-05,0.868734,-0.8768684999999999,-0.0153605,1.136964,-0.8108084999999999,-0.0034415,0
164,0.978461,0.8223035000000001,0.0354415,0.8037179999999999,0.5562735000000001,0.0139835,0.606068,0.4468335,-0.0910695,1.157898,0.5686534999999999,0.0338475,1.343748,0.4814935,-0.0745855,0.637418,0.6544835,-0.2673195,1.297528,0.6785635000000001,-0.2179895,0.915834,-0.0046064999999999,-0.0070204999999999,1.084166,0.0046064999999999,0.0070204999999999,0.875528,-0.5197965,0.0274375,1.131788,-0.4366565,0.0024285,0.868628,-0.8748165000000001,-0.0136885,1.137278,-0.8081365,-0.0010975,0
165,0.9783255,0.8246475,0.03789,0.8028545000000001,0.5552075000000001,0.017114,0.6073645,0.4255575,-0.078103,1.1585945,0.5654975,0.036932,1.3411745,0.4522675,-0.061203,0.6398645000000001,0.6225175000000001,-0.2622819999999999,1.2978345,0.6388775,-0.214562,0.9156925,-0.0047045,-0.0072589999999999,1.0843075,0.0047045,0.007259,0.8754845000000001,-0.5206824999999999,0.029881,1.1323745,-0.4340125,0.004839,0.8688645,-0.8712424999999999,-0.0103489999999999,1.1374345,-0.8054925,0.001335,0
166,0.978032,0.8269765,0.040213,0.802006,0.5544665,0.020024,0.610986,0.4054665,-0.064307,1.159236,0.5628065,0.039917,1.334906,0.4258265,-0.0477819999999999,0.642726,0.5885665,-0.256677,1.298086,0.5960965,-0.210807,0.915644,-0.0045665,-0.0073149999999999,1.084356,0.0045664999999999,0.007315,0.8756560000000001,-0.5178735,0.032276,1.133006,-0.4309535,0.007209,0.869056,-0.8677735,-0.007459,1.137676,-0.8031335000000001,0.0036829999999999,0
167,0.9775945,0.829033,0.042103,0.8011865,0.553353,0.022696,0.6153865000000001,0.386623,-0.049678,1.1596065,0.559893,0.042308,1.3236065,0.403603,-0.032939,0.6458965,0.557203,-0.251508,1.2982765,0.5520229999999999,-0.207168,0.9156435,-0.0044,-0.0073219999999999,1.0843565,0.0044,0.0073219999999999,0.8759465,-0.512157,0.033936,1.1335565,-0.428307,0.009466,0.8691965,-0.8645470000000001,-0.00468,1.1378965,-0.801037,0.005832,0
168,0.976928,0.830737,0.0431764999999999,0.800367,0.552237,0.0251804999999999,0.6242369999999999,0.368997,-0.0398035,1.159797,0.557087,0.0444554999999999,1.311247,0.382487,-0.0176915,0.649697,0.523407,-0.2493755,1.297077,0.513067,-0.2038055,0.915639,-0.0042039999999999,-0.0073574999999999,1.084361,0.0042039999999999,0.0073574999999999,0.876287,-0.511793,0.0355174999999999,1.134107,-0.425763,0.0114974999999999,0.869347,-0.861203,-0.0017445,1.138107,-0.7989430000000001,0.0078014999999999,0
169,0.975964,0.8320815,0.043667,0.799548,0.5511315,0.027439,0.635768,0.3548515,-0.027808,1.159848,0.5557515000000001,0.046377,1.299288,0.3664714999999999,-0.0034889999999999,0.653728,0.4922114999999999,-0.2446489999999999,1.295418,0.4688314999999999,-0.199229,0.915595,-0.0041085,-0.0073799999999999,1.084405,0.0041085,0.00738,0.876588,-0.5124485,0.037218,1.134568,-0.4231385,0.013087,0.8694379999999999,-0.8596984999999999,-0.000399,1.138268,-0.7970085,0.0095459999999999,0
170,0.9745325,0.8330535,0.043406,0.7986995,0.5498435,0.029597,0.6472495,0.3418835,-0.0188029999999999,1.1598095,0.5544135,0.0479949999999999,1.2872095,0.3521935,0.009947,0.6589795,0.4610535,-0.242025,1.2937195,0.4259935,-0.194465,0.9155235,-0.0040904999999999,-0.0073019999999999,1.0844765,0.0040905,0.0073019999999999,0.8769795,-0.5108765,0.03899,1.1349795,-0.4209665,0.0145779999999999,0.8695094999999999,-0.8573765,0.001971,1.1383295,-0.7952764999999999,0.0112979999999999,0
171,0.9726035,0.8335425,0.042406,0.7978235,0.5489025,0.031816,0.6572835,0.3308725,-0.012747,1.1596635,0.5531925,0.049976,1.2756935,0.3432325,0.022862,0.6655035,0.4336025,-0.239144,1.2908735,0.3809025,-0.185154,0.9154495,-0.0040775,-0.007079,1.0845505,0.0040774999999999,0.0070789999999999,0.8772535,-0.5098975,0.040872,1.1350235,-0.4192275,0.016112,0.8697735,-0.8557575000000001,0.004413,1.1382835,-0.7941775000000001,0.013117,0
172,0.9704175,0.8337945,0.041098,0.7969065,0.5478744999999999,0.033946,0.6677765,0.3213645,-0.0078349999999999,1.1591965,0.5522545,0.050849,1.2649865,0.3367945,0.033729,0.6721965000000001,0.4101545,-0.2369959999999999,1.2874665,0.3375445,-0.1749359999999999,0.9153775,-0.0040475,-0.0067269999999999,1.0846224999999998,0.0040474999999999,0.006727,0.8770265,-0.5111355,0.042634,1.1349365,-0.4174755,0.017502,0.8697765,-0.8552755,0.005912,1.1381365,-0.7935655,0.014886,0
173,0.968038,0.834022,0.039658,0.7961050000000001,0.546962,0.035986,0.6770050000000001,0.313682,-0.0065029999999999,1.158655,0.552152,0.051367,1.256745,0.333722,0.039994,0.678905,0.391342,-0.235535,1.283755,0.295672,-0.162905,0.915304,-0.003992,-0.0062559999999999,1.084696,0.0039919999999999,0.006256,0.8768250000000001,-0.5110480000000001,0.044296,1.134795,-0.415788,0.018829,0.869895,-0.854568,0.00771,1.137985,-0.791638,0.016865,0
174,0.9655195,0.834058,0.0383555,0.7956295000000001,0.546028,0.0378885,0.6849594999999999,0.306198,-0.0051954999999999,1.1582695,0.552238,0.0514935,1.2488495,0.330848,0.0446405,0.6857295,0.374828,-0.2341725,1.2801295,0.258878,-0.1505125,0.9152525,-0.004004,-0.0056565,1.0847475,0.004004,0.0056564999999999,0.8768695,-0.509532,0.0458564999999999,1.1344195,-0.413952,0.0200324999999999,0.8695795,-0.854152,0.0092284999999999,1.1376795,-0.790552,0.0185485,0
175,0.9630505,0.833689,0.0370039999999999,0.7953665,0.545199,0.039642,0.6917365,0.298199,-0.004012,1.1578665,0.552489,0.051259,1.2439865,0.3268189999999999,0.04849,0.6939765,0.3613189999999999,-0.233728,1.2769265,0.223599,-0.1369179999999999,0.9152765,-0.004179,-0.005062,1.0847235,0.004179,0.0050619999999999,0.8769165000000001,-0.509891,0.047227,1.1341365,-0.412621,0.020938,0.8694465,-0.853391,0.0114769999999999,1.1374365,-0.790051,0.0199719999999999,0
176,0.960701,0.8332499999999999,0.0356345,0.7951750000000001,0.54455,0.0413515,0.6985050000000002,0.29432,-0.0036705,1.1574749999999998,0.55276,0.0507115,1.242765,0.3211199999999999,0.0500595,0.702365,0.34872,-0.2349325,1.274105,0.19117,-0.1236324999999999,0.915308,-0.0043399999999999,-0.0043974999999999,1.084692,0.00434,0.0043974999999999,0.877085,-0.50909,0.0485055,1.133955,-0.41179,0.0218095,0.869395,-0.8526400000000001,0.0137715,1.137355,-0.7893600000000001,0.0214375,0
177,0.958533,0.833024,0.034655,0.795002,0.544064,0.043012,0.704222,0.290634,-0.0043769999999999,1.157192,0.552994,0.050126,1.242522,0.315184,0.051548,0.7098720000000001,0.341794,-0.237777,1.272892,0.159166,-0.109317,0.915332,-0.0044779999999999,-0.0037649999999999,1.084668,0.004478,0.003765,0.877252,-0.5077860000000001,0.049735,1.133792,-0.410636,0.022621,0.869232,-0.851886,0.015516,1.137282,-0.788516,0.022799,0
178,0.956599,0.83286,0.0339885,0.7948999999999999,0.54375,0.0446504999999999,0.7064000000000001,0.28742,-0.0065475,1.1568999999999998,0.55321,0.0493295,1.24231,0.30874,0.0530584999999999,0.71844,0.33547,-0.2413185,1.2721,0.1366089999999999,-0.0954485,0.915359,-0.004571,-0.0031165,1.084641,0.0045709999999999,0.0031165,0.8771100000000001,-0.50641,0.0509935,1.13365,-0.40941,0.0233115,0.86908,-0.851,0.0170705,1.13723,-0.7874099999999999,0.0241884999999999,0
179,0.955017,0.8329004999999999,0.033814,0.794886,0.5435605,0.046195,0.707646,0.2849705,-0.0107269999999999,1.156616,0.5534205,0.048624,1.242126,0.3020805,0.053906,0.7257360000000002,0.3320904999999999,-0.24437,1.271606,0.1142835,-0.0805099999999999,0.91537,-0.0046215,-0.0025169999999999,1.08463,0.0046214999999999,0.002517,0.8769359999999999,-0.5051895000000001,0.05219,1.133536,-0.4084695,0.02382,0.868916,-0.8500995,0.018479,1.137136,-0.7864795,0.025502,0
180,0.953934,0.8331355,0.0341605,0.794991,0.5435555,0.0474885,0.708501,0.2848954999999999,-0.0146945,1.156411,0.5535355,0.0479525,1.242141,0.2948555,0.0539045,0.731061,0.3295455,-0.2476365,1.271661,0.0991745,-0.0691765,0.915395,-0.0046375,-0.0020605,1.084605,0.0046374999999999,0.0020605,0.876811,-0.5040945000000001,0.0530365,1.133451,-0.4083745,0.0239955,0.868751,-0.8500445000000001,0.0193235,1.137101,-0.7850945,0.0266605,0
181,0.9529995,0.8333714999999999,0.0346634999999999,0.7952265000000001,0.5436015,0.0487185,0.7082565000000001,0.2851015,-0.0161795,1.1562365,0.5535415,0.0475954999999999,1.2422065,0.2879115,0.0536435,0.7361165000000001,0.3269715,-0.2490605,1.2719364999999998,0.0852735,-0.0579305,0.9154195,-0.0046135,-0.0016275,1.0845805,0.0046134999999999,0.0016274999999999,0.8767065,-0.5036785,0.0541524999999999,1.1334065,-0.4086984999999999,0.0240694999999999,0.8686065000000001,-0.8495385000000001,0.0201154999999999,1.1370865,-0.7840785,0.0277444999999999,0
182,0.952292,0.833487,0.0353324999999999,0.795538,0.543607,0.0499525,0.708118,0.285327,-0.0170705,1.156278,0.553507,0.0473904999999999,1.242228,0.2817469999999999,0.0535294999999999,0.740368,0.324047,-0.2500285,1.272288,0.074047,-0.0481995,0.915454,-0.0046379999999999,-0.0012525,1.084546,0.004638,0.0012524999999999,0.876578,-0.503793,0.0552354999999999,1.133318,-0.409223,0.0238424999999999,0.868468,-0.8491230000000001,0.0208564999999999,1.137068,-0.783153,0.0286564999999999,0
183,0.951862,0.833594,0.036104,0.795999,0.543694,0.051105,0.707999,0.285854,-0.016577,1.156489,0.553414,0.047123,1.2423989999999998,0.2761139999999999,0.053373,0.7445390000000001,0.323924,-0.249641,1.272639,0.063886,-0.038569,0.91549,-0.00461,-0.000988,1.08451,0.00461,0.000988,0.876459,-0.502936,0.055724,1.133259,-0.409666,0.023423,0.868089,-0.848566,0.021451,1.137059,-0.782296,0.029343,0
184,0.9514985,0.8337305,0.036895,0.7964415,0.5438505,0.0522319999999999,0.7077614999999999,0.2853205,-0.018566,1.1568515,0.5533205,0.0469579999999999,1.2426415,0.2717005,0.0534869999999999,0.7467915,0.3229005,-0.250736,1.2728815,0.0563975,-0.030782,0.9155245,-0.0045484999999999,-0.000738,1.0844755,0.0045485,0.0007379999999999,0.8763115000000001,-0.5018795,0.0562509999999999,1.1332315,-0.4099895,0.0230969999999999,0.8677015000000001,-0.8478895,0.0220379999999999,1.1369315,-0.7816795,0.0299659999999999,0
185,0.951153,0.8338975,0.0376575,0.796909,0.5439475,0.0533654999999999,0.707589,0.2851775,-0.0187285,1.157269,0.5531975,0.0469145,1.243089,0.2689074999999999,0.0538965,0.7486189999999999,0.3223675,-0.2507445,1.274049,0.0508704999999999,-0.0235245,0.915555,-0.0045285,-0.0005635,1.084445,0.0045284999999999,0.0005634999999999,0.8762290000000001,-0.5008725,0.0566915,1.133229,-0.4102125,0.0226904999999999,0.8673690000000001,-0.8472824999999999,0.0228495,1.136799,-0.7813224999999999,0.0304324999999999,0
186,0.950829,0.8339479999999999,0.038284,0.797245,0.543928,0.054429,0.707565,0.284588,-0.0183079999999999,1.157495,0.5531079999999999,0.0468849999999999,1.243765,0.266688,0.054471,0.750545,0.322648,-0.251256,1.275325,0.047182,-0.018192,0.915586,-0.0045259999999999,-0.000403,1.084414,0.004526,0.000403,0.876125,-0.500362,0.056761,1.133265,-0.410402,0.022187,0.867205,-0.847002,0.0235639999999999,1.136625,-0.7819020000000001,0.0308039999999999,0
187,0.9505295,0.833955,0.038744,0.7975055,0.543935,0.055486,0.7073655,0.2837849999999999,-0.0183419999999999,1.1577355,0.552975,0.046849,1.2445055,0.265155,0.05479,0.7514755000000001,0.323265,-0.2508629999999999,1.2767655,0.0447439999999999,-0.014058,0.9156185,-0.004544,-0.000253,1.0843815,0.0045439999999999,0.0002529999999999,0.8760255,-0.5004350000000001,0.0567099999999999,1.1333455,-0.410255,0.021671,0.8670555,-0.846855,0.024211,1.1365154999999998,-0.781085,0.0312739999999999,0
188,0.9502805,0.833909,0.039194,0.7977595,0.544009,0.056407,0.7072695,0.283119,-0.017541,1.1579395,0.552859,0.046784,1.2452595,0.264119,0.054965,0.7529295,0.3234289999999999,-0.249044,1.2783095,0.043569,-0.0118729999999999,0.9156425,-0.004552,-0.0001789999999999,1.0843575,0.004552,0.0001789999999999,0.8758095000000001,-0.500471,0.0565009999999999,1.1334795,-0.410971,0.021374,0.8668695000000001,-0.846731,0.024585,1.1363295,-0.780961,0.0315929999999999,0
189,0.9499955,0.8337635000000001,0.0395255,0.7980385,0.5440834999999999,0.0572155,0.7077485,0.2831935,-0.0175945,1.1581985,0.5527335,0.0467385,1.2460785,0.2636235,0.0549345,0.7551985,0.3237835,-0.2488795,1.2803485,0.0434955,-0.0115284999999999,0.9156475,-0.0045254999999999,-9.649999999999936e-05,1.0843525,0.0045255,9.649999999999936e-05,0.8757285,-0.5002065,0.0561585,1.1336385,-0.4114665,0.0211205,0.8667285,-0.8465065,0.0250195,1.1362485,-0.7819765000000001,0.0315045,0
190,0.949714,0.8336225,0.0398305,0.798319,0.5441024999999999,0.0579825,0.707649,0.2832725,-0.0166715,1.158339,0.5527325000000001,0.0467665,1.247079,0.2634925,0.0550285,0.756259,0.3237025,-0.2477035,1.282859,0.0435745,-0.0116245,0.915652,-0.0044855,-6.149999999999906e-05,1.084348,0.0044855,6.149999999999906e-05,0.8756290000000001,-0.4994975,0.0557165,1.133769,-0.4115075,0.0208845,0.8666090000000001,-0.8461675,0.0254625,1.136239,-0.7828375,0.0314534999999999,0
191,0.94954,0.833547,0.0408034999999999,0.798881,0.544447,0.0602474999999999,0.7066209999999999,0.283077,-0.0163515,1.158571,0.5525070000000001,0.0467844999999999,1.249061,0.2595469999999999,0.0575494999999999,0.756751,0.325667,-0.2466074999999999,1.283741,0.037535,-0.0037405,0.915729,-0.004317,0.0002964999999999,1.084271,0.004317,-0.0002965,0.8757210000000001,-0.4954729999999999,0.0553144999999999,1.133841,-0.411653,0.0201065,0.865641,-0.845833,0.0232264999999999,1.135731,-0.788453,0.0315754999999999,0
192,0.949182,0.8335625,0.0408969999999999,0.7989999999999999,0.5445725,0.0604149999999999,0.7075300000000001,0.2836325,-0.0163579999999999,1.15851,0.5524225,0.0466249999999999,1.24923,0.2601525,0.057518,0.7609,0.3246425,-0.246157,1.28781,0.0393725,-0.006189,0.915625,-0.0042325,0.0002089999999999,1.084375,0.0042325,-0.000209,0.8755,-0.4954774999999999,0.0552709999999999,1.13388,-0.4096375,0.0199969999999999,0.86656,-0.8450875,0.0284809999999999,1.1353099999999998,-0.7881975000000001,0.0314799999999999,0
193,0.9489795,0.8330145,0.0415689999999999,0.7992775,0.5441445,0.0607399999999999,0.7110675,0.2811545,-0.013228,1.1591775,0.5522345,0.046851,1.2498375,0.2605245,0.0574079999999999,0.7704775,0.3298945,-0.252587,1.2927875,0.0415264999999999,-0.010127,0.9156045,-0.0043755,7.399999999999768e-05,1.0843955,0.0043754999999999,-7.400000000000462e-05,0.8754775,-0.4977954999999999,0.0552229999999999,1.1339175,-0.4087355,0.0201249999999999,0.8666175,-0.8450354999999999,0.0285859999999999,1.1352575,-0.7881755,0.0312949999999999,0
194,0.948729,0.832733,0.0417339999999999,0.799463,0.544223,0.061237,0.709503,0.280453,-0.016728,1.158953,0.552413,0.046832,1.251313,0.262633,0.056225,0.773413,0.322163,-0.2436209999999999,1.295263,0.044361,-0.013329,0.915664,-0.0045189999999999,0.0002459999999999,1.084336,0.004519,-0.000246,0.875313,-0.4977170000000001,0.0548709999999999,1.134323,-0.4033569999999999,0.0190619999999999,0.8663730000000001,-0.844867,0.0288439999999999,1.137043,-0.775767,0.0345049999999999,0
195,0.9484605,0.8328845,0.0414134999999999,0.8001165,0.5446345,0.0612065,0.7103364999999999,0.2808144999999999,-0.0164665,1.1590665,0.5528845,0.0469244999999999,1.2515465,0.2643145,0.0556654999999999,0.7709465,0.3227145,-0.2442544999999999,1.2969465,0.0475665,-0.0182225,0.9155535,-0.0043194999999999,-5.350000000000493e-05,1.0844465,0.0043195,5.3499999999998e-05,0.8751965000000002,-0.4972155,0.0543255,1.1348765,-0.4121655,0.0214184999999999,0.8658565,-0.8444055,0.0283134999999999,1.1367565,-0.7757155,0.0339484999999999,0
196,0.948152,0.832827,0.0422415,0.800763,0.545117,0.0615475,0.7114930000000002,0.280717,-0.0161624999999999,1.1594529999999998,0.552787,0.0467065,1.251583,0.265537,0.0545815,0.7689630000000001,0.323687,-0.2445725,1.298133,0.050156,-0.0230305,0.915482,-0.0042299999999999,-0.0001875,1.084518,0.0042299999999999,0.0001875,0.875163,-0.4987929999999999,0.0537524999999999,1.134783,-0.409973,0.0210495,0.865863,-0.845793,0.0261224999999999,1.136293,-0.785513,0.0306044999999999,0
197,0.9460495,0.832827,0.0439395,0.7993695000000001,0.544287,0.0623635,0.7116595,0.279127,-0.0152805,1.1579495,0.553407,0.0469575,1.2508995,0.266857,0.0539185,0.7633695,0.324867,-0.2445375,1.2982495,0.053646,-0.0298135,0.9155145,-0.0043359999999999,-0.0002545,1.0844855,0.004336,0.0002544999999999,0.8776595000000001,-0.4832829999999999,0.0522175,1.1354095,-0.409203,0.0206834999999999,0.8678995,-0.839873,0.0310865,1.1377995,-0.7850729999999999,0.0304855,0
