sb224sc-HT22-VT27/4dt907/src/data/labeled_files/A104_kinect.csv
FrameNo,nose_3d_x,nose_3d_y,nose_3d_z,left_shoulder_3d_x,left_shoulder_3d_y,left_shoulder_3d_z,left_elbow_3d_x,left_elbow_3d_y,left_elbow_3d_z,right_shoulder_3d_x,right_shoulder_3d_y,right_shoulder_3d_z,right_elbow_3d_x,right_elbow_3d_y,right_elbow_3d_z,left_wrist_3d_x,left_wrist_3d_y,left_wrist_3d_z,right_wrist_3d_x,right_wrist_3d_y,right_wrist_3d_z,left_hip_3d_x,left_hip_3d_y,left_hip_3d_z,right_hip_3d_x,right_hip_3d_y,right_hip_3d_z,left_knee_3d_x,left_knee_3d_y,left_knee_3d_z,right_knee_3d_x,right_knee_3d_y,right_knee_3d_z,left_ankle_3d_x,left_ankle_3d_y,left_ankle_3d_z,right_ankle_3d_x,right_ankle_3d_y,right_ankle_3d_z,activity_label
0,-0.0060459999999999,0.7789925000000001,0.1129715,-0.1741639999999999,0.5807325,0.0871565,-0.2483939999999999,0.8514925,0.0095995,0.173926,0.5730925,0.1106615,0.280296,0.8199425,0.0615715,-0.244524,1.1541325,-0.0445345,0.308756,1.0616325,-0.0171204999999999,-0.078548,0.0026245,0.0004284999999999,0.078548,-0.0026245,-0.0004284999999999,-0.1275839999999999,-0.4843575,-0.0083034999999999,0.125576,-0.5277974999999999,0.0359445,-0.132674,-0.8562375,0.0068515,0.140286,-0.9136475,0.0063705,0
1,-0.006052,0.7800235,0.1130864999999999,-0.17448,0.5812634999999999,0.0865165,-0.24864,0.8520734999999999,0.0095164999999999,0.17382,0.5736235,0.1104054999999999,0.2801,0.8207635,0.0614784999999999,-0.24487,1.1558635000000002,-0.0452675,0.30866,1.0623635,-0.0170615,-0.07865,0.0027605,0.0001154999999999,0.07865,-0.0027605,-0.0001155,-0.12816,-0.4382765,-0.0141235,0.12542,-0.5279465000000001,0.0362834999999999,-0.13246,-0.8549065,0.0078574999999999,0.14016,-0.9088265,0.0085634999999999,0
2,-0.0058015,0.7808309999999999,0.112718,-0.1745585,0.5816209999999999,0.086507,-0.2488585,0.852331,0.009124,0.1737915,0.573751,0.1102229999999999,0.2799715,0.821831,0.060852,-0.2451085,1.1562910000000002,-0.045651,0.3087715,1.062591,-0.017344,-0.0786294999999999,0.002985,-0.000112,0.0786294999999999,-0.002985,0.000112,-0.1281485,-0.438009,-0.01373,0.1238415,-0.528329,0.036305,-0.1320585,-0.855739,0.009366,0.1333615,-0.855629,-0.001936,1
3,-0.0048895,0.7782375,0.11569,-0.1740505,0.5813375000000001,0.0882439999999999,-0.2482305,0.8522875000000001,0.0112289999999999,0.1744095,0.5730075,0.1118339999999999,0.2807495,0.8216875,0.063549,-0.2442305,1.1564975,-0.042365,0.3098695,1.0619975,-0.013719,-0.0786245,0.0031094999999999,-0.000275,0.0786245,-0.0031094999999999,0.0002749999999999,-0.1286205,-0.4378225,-0.015168,0.1233495,-0.5286025,0.0346859999999999,-0.1329605,-0.8549325,0.0071819999999999,0.1327695,-0.8557925,-0.00444,1
4,-0.0047944999999999,0.7791454999999999,0.115714,-0.1741885,0.5813955,0.088225,-0.2484685,0.8520255,0.010129,0.1743315,0.5728555,0.111572,0.2807714999999999,0.8222254999999999,0.0632,-0.2444385,1.1563455,-0.0427479999999999,0.3099515,1.0622455000000002,-0.0136359999999999,-0.0786255,0.0030924999999999,-0.0003549999999999,0.0786255,-0.0030925,0.000355,-0.1288585,-0.4384544999999999,-0.0147589999999999,0.1206615,-0.5190045,0.035203,-0.1327885,-0.8545545,0.007608,0.1385515,-0.9126345,0.003182,1
5,-0.0044584999999999,0.7797595,0.1148435,-0.1744055,0.5816595,0.0880614999999999,-0.2485855,0.8517695000000001,0.0094554999999999,0.1743345,0.5731795000000001,0.1114164999999999,0.2806945,0.8227595,0.0635365,-0.2448455,1.1559995,-0.0438665,0.3099745,1.0624995,-0.0134365,-0.0786545,0.0031054999999999,-0.0005505,0.0786545,-0.0031055,0.0005504999999999,-0.1283555,-0.4449305,-0.0138415,0.1216945,-0.5243005,0.0363055,-0.1325055,-0.8530605,0.0086404999999999,0.1387245,-0.9102005,0.0046874999999999,1
6,-0.0043655,0.7782365,0.1152155,-0.1743375,0.5819265,0.0884485,-0.2490775,0.8522465,0.0083925,0.1743825,0.5733064999999999,0.1111035,0.2812725,0.8318365,0.0600565,-0.2453775,1.1564065,-0.0458524999999999,0.3099725,1.0631065000000002,-0.0133524999999999,-0.0786875,0.0029055,-0.0008374999999999,0.0786875,-0.0029054999999999,0.0008375,-0.1285075,-0.4481035,-0.0129124999999999,0.1227925,-0.5284135,0.0355155,-0.1332775,-0.8497635,0.0090735,0.1389925,-0.9096935,0.0056705,1
7,-0.0043669999999999,0.77873,0.1145985,-0.174279,0.58154,0.0878875,-0.2492089999999999,0.85224,0.0075714999999999,0.174321,0.57305,0.1108135,0.280811,0.83155,0.0609355,-0.2453989999999999,1.1563,-0.0472425,0.309981,1.0635,-0.0136934999999999,-0.078659,0.0028529999999999,-0.0008685,0.078659,-0.002853,0.0008685,-0.128249,-0.45135,-0.0119034999999999,0.124021,-0.5268,0.0354335,-0.132679,-0.84789,0.0104824999999999,0.138391,-0.90735,0.0063765,1
8,-0.0042949999999999,0.7786879999999999,0.114713,-0.174267,0.581518,0.087981,-0.249357,0.8522879999999999,0.0070409999999999,0.174323,0.573058,0.110776,0.280813,0.831438,0.060784,-0.245547,1.156308,-0.0479779999999999,0.309973,1.063608,-0.0134279999999999,-0.078667,0.0028019999999999,-0.0010049999999999,0.078667,-0.0028019999999999,0.0010049999999999,-0.128357,-0.451242,-0.011684,0.123953,-0.527792,0.035321,-0.1326169999999999,-0.847902,0.011094,0.138133,-0.908432,0.0063189999999999,1
9,-0.0043074999999999,0.7786879999999999,0.114844,-0.1742845,0.581518,0.088146,-0.2495144999999999,0.8522879999999999,0.0065579999999999,0.1743155,0.573058,0.110732,0.2808155,0.831438,0.060682,-0.2457045,1.156308,-0.048684,0.3099555,1.063608,-0.013198,-0.0786815,0.0028019999999999,-0.001107,0.0786815,-0.0028019999999999,0.0011069999999999,-0.1283945,-0.452082,-0.011396,0.1239555,-0.5278320000000001,0.0353389999999999,-0.1325744999999999,-0.847902,0.0117989999999999,0.1381255,-0.909872,0.0061349999999999,1
10,-0.004321,0.7786879999999999,0.114998,-0.174304,0.581518,0.08832,-0.249654,0.8522879999999999,0.0060209999999999,0.1743159999999999,0.573058,0.1106859999999999,0.280806,0.831438,0.0606569999999999,-0.245844,1.156308,-0.049399,0.309946,1.063608,-0.012989,-0.078697,0.0028019999999999,-0.001196,0.078697,-0.0028019999999999,0.0011959999999999,-0.1284239999999999,-0.452212,-0.011188,0.1240859999999999,-0.527862,0.035363,-0.1325839999999999,-0.847902,0.0123579999999999,0.138326,-0.909872,0.0067429999999999,1
11,-0.0043264999999999,0.7787879999999999,0.1149849999999999,-0.1743555,0.581518,0.0883859999999999,-0.2497855,0.8522879999999999,0.0055979999999999,0.1742745,0.573058,0.110618,0.2807345,0.831668,0.0607959999999999,-0.2459855,1.156308,-0.050005,0.3099345,1.063808,-0.012913,-0.0787105,0.0028019999999999,-0.001254,0.0787105,-0.0028019999999999,0.0012539999999999,-0.1283554999999999,-0.454122,-0.010903,0.1242245,-0.527532,0.035375,-0.1324955,-0.847492,0.0130719999999999,0.1385245,-0.909872,0.0072769999999999,1
12,-0.0043209999999999,0.7787375,0.1149,-0.174395,0.5814675,0.08842,-0.250005,0.8523975,0.005087,0.174185,0.5731175,0.110505,0.280565,0.8317074999999999,0.060841,-0.246245,1.1563475,-0.050675,0.309945,1.0642475,-0.0128919999999999,-0.078729,0.0027405,-0.0013079999999999,0.078729,-0.0027405,0.001308,-0.128315,-0.4563925,-0.0106349999999999,0.124475,-0.5277925,0.035433,-0.132435,-0.8468325,0.01382,0.138615,-0.9095625,0.00767,1
13,-0.0043389999999999,0.7786529999999999,0.1148484999999999,-0.174406,0.5813929999999999,0.0884775,-0.250196,0.852553,0.0047045,0.174094,0.5731729999999999,0.1103855,0.2803839999999999,0.8315629999999999,0.0609305,-0.2464859999999999,1.156463,-0.0511405,0.3099539999999999,1.0644630000000002,-0.0128535,-0.078747,0.0026909999999999,-0.0013705,0.078747,-0.002691,0.0013704999999999,-0.1283159999999999,-0.458657,-0.0103775,0.124754,-0.5281170000000001,0.0355555,-0.132416,-0.8465670000000001,0.0143944999999999,0.138704,-0.909727,0.0079604999999999,1
14,-0.0043414999999999,0.778768,0.1147975,-0.1744115,0.581298,0.0885325,-0.2503815,0.852678,0.0043755,0.1740085,0.573238,0.1102405,0.2802084999999999,0.831298,0.0610045,-0.2467115,1.156548,-0.0516735,0.3099785,1.064648,-0.0127815,-0.0787635,0.002661,-0.0013984999999999,0.0787635,-0.002661,0.0013985,-0.1283615,-0.458972,-0.0101805,0.1249484999999999,-0.528062,0.0356765,-0.1324415,-0.846182,0.0149745,0.1387685,-0.909612,0.0085145,1
15,-0.0043179999999999,0.7789365,0.114761,-0.174403,0.5812365,0.088581,-0.2505429999999999,0.8527865,0.004115,0.173927,0.5733365,0.1100749999999999,0.2800669999999999,0.8310365000000001,0.061014,-0.2469329999999999,1.1565465,-0.052082,0.310037,1.0646465,-0.012699,-0.078778,0.0026385,-0.001412,0.078778,-0.0026385,0.0014119999999999,-0.128433,-0.4592235,-0.010105,0.125037,-0.5280134999999999,0.0358039999999999,-0.132473,-0.8457834999999999,0.0154519999999999,0.138727,-0.9095935,0.0090299999999999,1
16,-0.0043045,0.7790130000000001,0.114761,-0.1744375,0.581183,0.0886,-0.2506875,0.852843,0.0039039999999999,0.1738725,0.5734330000000001,0.1099359999999999,0.2799225,0.8307530000000001,0.06103,-0.2471374999999999,1.156643,-0.05246,0.3101325,1.064543,-0.012555,-0.0787964999999999,0.0026199999999999,-0.001417,0.0787964999999999,-0.00262,0.0014169999999999,-0.1283975,-0.459147,-0.010113,0.1251125,-0.5279769999999999,0.0359079999999999,-0.1324575,-0.845317,0.0159099999999999,0.1387125,-0.909577,0.0091679999999999,1
17,-0.0042884999999999,0.7792795,0.1147639999999999,-0.1744665,0.5811595,0.0886049999999999,-0.2507965,0.8528695000000001,0.0036829999999999,0.1738335,0.5735295,0.109803,0.2798035,0.8303795,0.0610359999999999,-0.2473065,1.1566395,-0.052821,0.3102735,1.0643395,-0.012422,-0.0788095,0.0026225,-0.00142,0.0788095,-0.0026225,0.0014199999999999,-0.1283665,-0.4591604999999999,-0.010337,0.1251335,-0.5279604999999999,0.036035,-0.1324565,-0.8445905,0.0163509999999999,0.1390335,-0.9101505,0.0093099999999999,1
18,-0.0042715,0.779543,0.114762,-0.1744824999999999,0.581153,0.088599,-0.2509125,0.852873,0.0034679999999999,0.1737875,0.573643,0.109661,0.2796875,0.830043,0.061029,-0.2474525,1.156543,-0.053217,0.3105075,1.064143,-0.012297,-0.0788125,0.0026339999999999,-0.001446,0.0788125,-0.002634,0.0014459999999999,-0.1283425,-0.459227,-0.010561,0.1251175,-0.527957,0.036192,-0.1324225,-0.843487,0.016624,0.1390375,-0.910487,0.0090379999999999,1
19,-0.004264,0.7798865,0.1148035,-0.1745209999999999,0.5812065000000001,0.0885245,-0.251011,0.8528865,0.0032555,0.173749,0.5737965,0.1095275,0.279599,0.8296165000000001,0.0610265,-0.247531,1.1565765,-0.0535725,0.310799,1.0638765,-0.0121454999999999,-0.078814,0.0026575,-0.0014725,0.078814,-0.0026575,0.0014725,-0.1284509999999999,-0.4577535,-0.0108474999999999,0.1251189999999999,-0.5279834999999999,0.0362245,-0.132351,-0.8438034999999999,0.0167215,0.139169,-0.9111835,0.0091385,1
20,-0.0042364999999999,0.7801985,0.114823,-0.1745635,0.5812685000000001,0.088394,-0.2510835,0.8528285,0.003027,0.1737165,0.5739385,0.10939,0.2795665,0.8292185000000001,0.060999,-0.2475935,1.1564985,-0.0539999999999999,0.3111065,1.0635985,-0.0120189999999999,-0.0788135,0.0026625,-0.0015069999999999,0.0788135,-0.0026625,0.001507,-0.1285335,-0.4584215,-0.010927,0.1250165,-0.5280014999999999,0.036258,-0.1322735,-0.8437914999999999,0.01679,0.1393865,-0.9114615,0.009509,1
21,-0.0042095,0.7804415,0.1148685,-0.1746065,0.5813015,0.0883055,-0.2510865,0.8528115,0.0029124999999999,0.1737235,0.5739415,0.1093435,0.2795635,0.8291115,0.0610635,-0.2475765,1.1564815,-0.0542995,0.3114735,1.0635815,-0.0118904999999999,-0.0788125,0.0026455,-0.0015475,0.0788125,-0.0026455,0.0015475,-0.1285965,-0.4594885,-0.0108655,0.1249335,-0.5279785,0.0363794999999999,-0.1322565,-0.8434685,0.0168555,0.1394034999999999,-0.9114785,0.0099465,1
22,-0.0041854999999999,0.7805515,0.114895,-0.1746214999999999,0.5813515,0.088143,-0.2510715,0.8528115,0.0027449999999999,0.1737185,0.5739615,0.109302,0.2795585,0.8290415,0.061089,-0.2475514999999999,1.1564815,-0.054744,0.3119285,1.0634815,-0.011714,-0.0788095,0.0026455,-0.001572,0.0788095,-0.0026455,0.0015719999999999,-0.1285915,-0.4601185,-0.010943,0.1248485,-0.5279785,0.036493,-0.1321915,-0.8434685,0.0162179999999999,0.1393885,-0.9115985,0.0104519999999999,1
23,-0.0041589999999999,0.7807015,0.114922,-0.174622,0.5814015,0.087986,-0.251062,0.8528115,0.0025439999999999,0.173718,0.5739715,0.109278,0.279558,0.8289815,0.061114,-0.247532,1.1564815,-0.055101,0.312388,1.0633815,-0.011624,-0.078808,0.0026455,-0.001596,0.078808,-0.0026455,0.001596,-0.128592,-0.4604085,-0.010943,0.124828,-0.5279785,0.036474,-0.132122,-0.8434685,0.015665,0.139458,-0.9109885,0.011244,1
24,-0.0040555,0.780835,0.1149835,-0.1745955,0.581475,0.0877985,-0.2510155,0.8526649999999999,0.0022614999999999,0.1737544999999999,0.5740449999999999,0.1092554999999999,0.2796245,0.8286749999999999,0.0611575,-0.2474354999999999,1.156255,-0.0554965,0.3130145,1.062955,-0.0114965,-0.0788075,0.002652,-0.0016135,0.0788075,-0.002652,0.0016134999999999,-0.1285454999999999,-0.462925,-0.0109095,0.1247644999999999,-0.5280050000000001,0.0364014999999999,-0.1320355,-0.843825,0.0149044999999999,0.1394544999999999,-0.910395,0.0111614999999999,1
25,-0.0039465,0.7809900000000001,0.1150414999999999,-0.1745755,0.58156,0.0875894999999999,-0.2509355,0.85248,0.0018614999999999,0.1737945,0.5741,0.1092144999999999,0.2797245,0.82842,0.0611624999999999,-0.2473055,1.1561,-0.0560515,0.3136545,1.0624,-0.0114625,-0.0788075,0.00264,-0.0016135,0.0788075,-0.00264,0.0016134999999999,-0.1285055,-0.46541,-0.0108185,0.1245545,-0.52804,0.0363234999999999,-0.1320555,-0.84414,0.0141544999999999,0.1394345,-0.91021,0.0115174999999999,1
26,-0.003822,0.781183,0.1151185,-0.174535,0.581643,0.0873585,-0.250855,0.852273,0.0014164999999999,0.173835,0.574133,0.1091645,0.279845,0.8281229999999999,0.0611555,-0.247175,1.155833,-0.0566875,0.3142549999999999,1.061933,-0.0114455,-0.078807,0.0026429999999999,-0.0016205,0.078807,-0.0026429999999999,0.0016204999999999,-0.128455,-0.4647369999999999,-0.0110365,0.124445,-0.528097,0.0362904999999999,-0.132255,-0.844607,0.0134224999999999,0.139485,-0.910167,0.0117924999999999,1
27,-0.003725,0.781321,0.115186,-0.174497,0.581721,0.087119,-0.250767,0.8520610000000001,0.000857,0.173873,0.5741510000000001,0.109124,0.280003,0.8277610000000001,0.061141,-0.247007,1.155551,-0.057491,0.3148029999999999,1.061651,-0.0114389999999999,-0.078806,0.0026579999999999,-0.001632,0.078806,-0.002658,0.001632,-0.128267,-0.463549,-0.011324,0.1242929999999999,-0.528169,0.03601,-0.132337,-0.8450789999999999,0.012839,0.139433,-0.910469,0.011974,1
28,-0.0035795,0.7814585,0.115201,-0.1744915,0.5818585,0.086842,-0.2507015,0.8519384999999999,5.699999999999456e-05,0.1738985,0.5741885,0.109056,0.2802385,0.8274185,0.061055,-0.2467315,1.1550885,-0.059186,0.3153685,1.0612885,-0.011478,-0.0787995,0.0026695,-0.001659,0.0787995,-0.0026695,0.0016589999999999,-0.1280215,-0.4624415,-0.011675,0.1241485,-0.5282315000000001,0.0357109999999999,-0.1324115,-0.8455415000000001,0.0122639999999999,0.1393984999999999,-0.9105315,0.0122379999999999,1
29,-0.0034105,0.781617,0.115047,-0.1744695,0.5820569999999999,0.08646,-0.2505995,0.851837,-0.0009979999999999,0.1739105,0.574237,0.108848,0.2805105,0.827087,0.060835,-0.2464695,1.154537,-0.061018,0.3160105,1.061037,-0.011764,-0.0787954999999999,0.00268,-0.001697,0.0787954999999999,-0.00268,0.0016969999999999,-0.1275995,-0.4630729999999999,-0.011816,0.1239705,-0.528333,0.03533,-0.1322795,-0.8466330000000001,0.0114729999999999,0.1394705,-0.911003,0.0116619999999999,1
30,-0.0031999999999999,0.7817845,0.1148059999999999,-0.174452,0.5822445,0.086002,-0.250482,0.8517245,-0.002169,0.173948,0.5742745,0.108551,0.280798,0.8268145,0.060519,-0.246152,1.1524945,-0.0632699999999999,0.316688,1.0606945,-0.0123559999999999,-0.07879,0.0026934999999999,-0.0017059999999999,0.07879,-0.0026934999999999,0.0017059999999999,-0.127172,-0.4631155,-0.012033,0.123858,-0.5284255,0.034954,-0.132172,-0.8482255,0.010713,0.139588,-0.9115955,0.0107489999999999,1
31,-0.0029679999999999,0.781951,0.114488,-0.1744109999999999,0.582521,0.085457,-0.250321,0.8516009999999999,-0.003691,0.173979,0.574351,0.108142,0.281139,0.826601,0.059998,-0.245781,1.150481,-0.0664329999999999,0.3173189999999999,1.060481,-0.013343,-0.0787819999999999,0.002741,-0.001715,0.0787819999999999,-0.002741,0.001715,-0.126721,-0.464619,-0.0123529999999999,0.123739,-0.528559,0.034654,-0.1321109999999999,-0.848889,0.010351,0.139439,-0.911859,0.010421,1
32,-0.0027044999999999,0.782152,0.114043,-0.1743684999999999,0.582822,0.084751,-0.2501285,0.851582,-0.0055649999999999,0.1740115,0.574442,0.107587,0.2815114999999999,0.8264619999999999,0.059294,-0.2453385,1.148492,-0.069828,0.3179415,1.060292,-0.0147169999999999,-0.0787985,0.00281,-0.0017749999999999,0.0787985,-0.00281,0.001775,-0.1262885,-0.4657579999999999,-0.0128359999999999,0.1236715,-0.528728,0.034199,-0.1320484999999999,-0.849558,0.009902,0.1392415,-0.912088,0.009959,1
33,-0.00233,0.782392,0.11302,-0.174352,0.583182,0.083708,-0.249772,0.851582,-0.0083139999999999,0.174028,0.574572,0.106708,0.281978,0.826272,0.058109,-0.244832,1.147212,-0.0741629999999999,0.318568,1.059912,-0.0166819999999999,-0.07884,0.0028939999999999,-0.0018579999999999,0.07884,-0.002894,0.001858,-0.125842,-0.466068,-0.0138169999999999,0.123568,-0.528948,0.033519,-0.1320619999999999,-0.8503580000000001,0.009127,0.139058,-0.912088,0.00926,1
34,-0.0018624999999999,0.782756,0.1115185,-0.1743645,0.583606,0.0825275,-0.2493945,0.851676,-0.0112304999999999,0.1740255,0.574746,0.1057315,0.2825055,0.826066,0.0565815,-0.2443545,1.146286,-0.0785645,0.3191655,1.0593860000000002,-0.0189485,-0.0789205,0.0030239999999999,-0.0019435,0.0789205,-0.003024,0.0019435,-0.1254445,-0.466114,-0.0149745,0.1234454999999999,-0.529204,0.0327035,-0.1322245,-0.850184,0.0085115,0.1389755,-0.912174,0.0076125,1
35,-0.0014054999999999,0.783026,0.109705,-0.1744005,0.5838559999999999,0.081202,-0.2491105,0.851676,-0.0146029999999999,0.1739495,0.5747559999999999,0.104651,0.2828994999999999,0.826066,0.054893,-0.2440305,1.146286,-0.0831229999999999,0.3197895,1.0593860000000002,-0.0213739999999999,-0.0790464999999999,0.0030239999999999,-0.0020089999999999,0.0790464999999999,-0.003024,0.002009,-0.1250505,-0.466344,-0.0159909999999999,0.1233894999999999,-0.529204,0.031945,-0.1323105,-0.850184,0.007836,0.1389695,-0.911424,0.006788,1
36,-0.000921,0.783282,0.1075805,-0.174445,0.584102,0.0796155,-0.248805,0.851672,-0.0181254999999999,0.173885,0.574782,0.1034905,0.283245,0.826062,0.0530645,-0.243715,1.146282,-0.0880664999999999,0.320415,1.059382,-0.0238525,-0.079176,0.0030279999999999,-0.0020324999999999,0.079176,-0.0030279999999999,0.0020324999999999,-0.124705,-0.464158,-0.0177415,0.123475,-0.529208,0.0309295,-0.132345,-0.850188,0.0070915,0.138985,-0.910388,0.0058675,1
37,-0.0004909999999999,0.783689,0.1050845,-0.174504,0.584289,0.0780055,-0.248474,0.851649,-0.0218324999999999,0.173836,0.574879,0.1022595,0.283506,0.826039,0.0511395,-0.243474,1.146259,-0.0925064999999999,0.320956,1.0593590000000002,-0.0264184999999999,-0.07931,0.003044,-0.0020874999999999,0.07931,-0.003044,0.0020874999999999,-0.124444,-0.464921,-0.0196475,0.1235459999999999,-0.529231,0.0298135,-0.132444,-0.850201,0.0063625,0.139046,-0.908671,0.0047805,1
38,-1.0500000000000093e-05,0.78445,0.101611,-0.1744935,0.58468,0.0758399999999999,-0.2480835,0.8514999999999999,-0.026531,0.1738465,0.5752299999999999,0.100455,0.2838165,0.82592,0.048479,-0.2431635,1.14556,-0.098081,0.3215565,1.05796,-0.0297739999999999,-0.0794465,0.003141,-0.0022099999999999,0.0794465,-0.0031409999999999,0.00221,-0.1242735,-0.46436,-0.02157,0.1236664999999999,-0.52956,0.028664,-0.1321635,-0.8515600000000001,0.005866,0.1390664999999999,-0.90981,0.003393,1
39,0.000451,0.78527,0.0980065,-0.174477,0.5851000000000001,0.0736375,-0.2476769999999999,0.85131,-0.0314595,0.1738529999999999,0.5756100000000001,0.0985585,0.284123,0.82592,0.0457375,-0.2429069999999999,1.1449,-0.1037144999999999,0.322083,1.0566,-0.0330255,-0.07958,0.0032549999999999,-0.0023564999999999,0.07958,-0.003255,0.0023565,-0.124177,-0.46384,-0.0236445,0.1236729999999999,-0.5298999999999999,0.0276825,-0.131917,-0.85264,0.0053655,0.139233,-0.91153,0.0027555,1
40,0.0009429999999999,0.7860905,0.094009,-0.174341,0.5854505,0.071295,-0.247251,0.8509105,-0.0365109999999999,0.173829,0.5761105,0.096611,0.284379,0.8259105,0.042821,-0.242721,1.1453105,-0.108997,0.322549,1.0552105,-0.036195,-0.079748,0.0033514999999999,-0.0024739999999999,0.079748,-0.0033515,0.002474,-0.124091,-0.4646095,-0.026096,0.123789,-0.5302295,0.026668,-0.1313409999999999,-0.8539795,0.0046929999999999,0.139409,-0.9120195,0.0017439999999999,1
41,0.0014615,0.786935,0.089933,-0.1741315,0.585855,0.068936,-0.2467915,0.850595,-0.04152,0.1738585,0.576765,0.094664,0.2846284999999999,0.825875,0.039929,-0.2424615,1.145405,-0.1143439999999999,0.3231085,1.053805,-0.0392219999999999,-0.0799215,0.003399,-0.0025599999999999,0.0799215,-0.003399,0.00256,-0.1239615,-0.465315,-0.028884,0.1239885,-0.5304449999999999,0.02573,-0.1307415,-0.855255,0.003986,0.1395685,-0.912335,0.000864,1
42,0.0018589999999999,0.7877165,0.0860475,-0.173784,0.5863765,0.0666855,-0.246284,0.8501165,-0.0461745,0.173956,0.5775965000000001,0.0928035,0.284906,0.8257865,0.0372725,-0.242064,1.1443765,-0.1192755,0.323766,1.0521764999999998,-0.0419345,-0.080041,0.0034815,-0.0026305,0.080041,-0.0034815,0.0026304999999999,-0.123774,-0.4668735,-0.0315475,0.124276,-0.5306835,0.0248564999999999,-0.1300839999999999,-0.8565635,0.0033984999999999,0.1399059999999999,-0.9126735,-0.0004945,1
43,0.0021645,0.7881815,0.082115,-0.1733495,0.5868815000000001,0.063383,-0.2457494999999999,0.8491615,-0.0512889999999999,0.1739605,0.5782615,0.090751,0.2852004999999999,0.8255515,0.034746,-0.2414595,1.1418615,-0.1247669999999999,0.3244705,1.0505615,-0.0446429999999999,-0.0801365,0.0035904999999999,-0.0026959999999999,0.0801365,-0.0035905,0.002696,-0.1235395,-0.4684185,-0.034071,0.1244405,-0.5304285,0.023918,-0.1294394999999999,-0.8578485,0.002734,0.1401505,-0.9129985,-0.0020589999999999,1
44,0.002488,0.7882685,0.078308,-0.17292,0.5873385,0.060143,-0.24519,0.8480885,-0.056459,0.17396,0.5788285,0.088635,0.28554,0.8252385,0.031988,-0.24078,1.1393485,-0.130867,0.32526,1.0489485,-0.047589,-0.0802539999999999,0.0037175,-0.002809,0.0802539999999999,-0.0037175,0.002809,-0.12328,-0.4696315,-0.036734,0.1246799999999999,-0.5309415000000001,0.022748,-0.12874,-0.8587815,0.001913,0.14037,-0.9132715,-0.0035949999999999,1
45,0.0030005,0.7883215,0.0736025,-0.1722965,0.5871915,0.0568775,-0.2444665,0.8472215000000001,-0.0629084999999999,0.1739135,0.5794315,0.0859495,0.2860335,0.8251215000000001,0.0283975,-0.2400265,1.1384314999999998,-0.1387295,0.3262935,1.0477314999999998,-0.0515754999999999,-0.0805045,0.0038244999999999,-0.0030945,0.0805045,-0.0038245,0.0030945,-0.1229565,-0.4703585,-0.0398815,0.1251635,-0.5303585,0.0208965,-0.1277565,-0.8596585,0.0008184999999999,0.1406935,-0.9131285,-0.0051655,1
46,0.0034774999999999,0.78813,0.0686845,-0.1716115,0.58702,0.0536205,-0.2438015,0.84648,-0.0695635,0.1738185,0.57992,0.0832135,0.2864784999999999,0.8249299999999999,0.0246155,-0.2391615,1.13659,-0.1472525,0.3273284999999999,1.04679,-0.0559475,-0.0807305,0.00392,-0.0034415,0.0807305,-0.00392,0.0034415,-0.1226615,-0.46995,-0.0429935,0.1256784999999999,-0.52957,0.0185735,-0.1267315,-0.86036,-0.0002895,0.1412284999999999,-0.91284,-0.0066065,1
47,0.0038674999999999,0.78813,0.0642425,-0.1709885,0.58702,0.0508745,-0.2432085,0.84632,-0.0758665,0.1737215,0.57992,0.0810105,0.2869015,0.8249299999999999,0.0211755,-0.2383085,1.13529,-0.1554664999999999,0.3282815,1.04649,-0.0601974999999999,-0.0809025,0.00392,-0.0037844999999999,0.0809025,-0.00392,0.0037844999999999,-0.1224785,-0.46912,-0.0462995,0.1260615,-0.529,0.0157875,-0.1261185,-0.86036,-0.0013335,0.1416115,-0.91278,-0.0079855,1
48,0.004198,0.78813,0.059311,-0.170295,0.58702,0.045808,-0.242595,0.8458,-0.082532,0.173645,0.57992,0.078675,0.287355,0.8249299999999999,0.017444,-0.237435,1.13299,-0.164192,0.329275,1.04619,-0.065251,-0.081077,0.00392,-0.004126,0.081077,-0.00392,0.004126,-0.122315,-0.4689399999999999,-0.049945,0.126405,-0.52856,0.01215,-0.125445,-0.86036,-0.002561,0.141945,-0.91274,-0.009323,1
49,0.0046479999999999,0.78813,0.054164,-0.169437,0.58702,0.040407,-0.241817,0.8450799999999999,-0.089728,0.173703,0.57992,0.076192,0.287953,0.8249299999999999,0.013135,-0.236307,1.12939,-0.173808,0.330413,1.04579,-0.070961,-0.081239,0.00392,-0.004611,0.081239,-0.00392,0.004611,-0.122017,-0.46853,-0.0535289999999999,0.127013,-0.52822,0.008388,-0.124757,-0.86036,-0.003914,0.142483,-0.91261,-0.0106039999999999,1
50,0.005209,0.7874300000000001,0.048527,-0.168299,0.5868,0.034672,-0.240799,0.8436600000000001,-0.097618,0.173811,0.58035,0.073581,0.288731,0.82464,0.00839,-0.234779,1.12363,-0.184298,0.331581,1.04473,-0.077488,-0.0813919999999999,0.00408,-0.005093,0.0813919999999999,-0.00408,0.005093,-0.121749,-0.46684,-0.057102,0.127671,-0.52717,0.0043279999999999,-0.123939,-0.86026,-0.005823,0.143021,-0.91218,-0.012847,1
51,0.0058024999999999,0.786654,0.0426995,-0.1670555,0.5867439999999999,0.0285665,-0.2396055,0.841924,-0.1061445,0.1738445,0.580994,0.0705405,0.2896344999999999,0.824244,0.0030344999999999,-0.2331555,1.117714,-0.1948845,0.3327945,1.043714,-0.0845644999999999,-0.0815705,0.004138,-0.0055615,0.0815705,-0.004138,0.0055615,-0.1211455,-0.466656,-0.0610065,0.1284945,-0.525166,-0.0001745,-0.1230255,-0.860546,-0.0085415,0.1436144999999999,-0.911596,-0.0155075,1
52,0.006508,0.785566,0.0357095,-0.165851,0.586716,0.0225345,-0.238201,0.839726,-0.1160915,0.174119,0.581536,0.0671085,0.290769,0.823656,-0.0037584999999999,-0.231211,1.111916,-0.2075015,0.334289,1.041216,-0.0935814999999999,-0.081855,0.0042,-0.0060104999999999,0.081855,-0.0042,0.0060105,-0.1202709999999999,-0.465454,-0.0661684999999999,0.129499,-0.522734,-0.0053854999999999,-0.1218509999999999,-0.860784,-0.0115904999999999,0.144279,-0.910834,-0.0183725,1
53,0.0073675,0.783997,0.0277295,-0.1643895,0.585297,0.0146075,-0.2366995,0.837447,-0.1264495,0.1744305,0.582267,0.0635185,0.2919805,0.822937,-0.0110364999999999,-0.2289795,1.106067,-0.2208095,0.3358605,1.038967,-0.1032395,-0.0821095,0.0043129999999999,-0.0065015,0.0821095,-0.004313,0.0065015,-0.1193295,-0.464933,-0.0715695,0.1305505,-0.520113,-0.0108405,-0.1206895,-0.860763,-0.0147904999999999,0.1449505,-0.909793,-0.0214714999999999,1
54,0.0082105,0.782369,0.020418,-0.1628515,0.583669,0.006268,-0.2352415,0.834769,-0.136479,0.1748285,0.5831689999999999,0.060251,0.2932285,0.822229,-0.0181099999999999,-0.2268815,1.100679,-0.233169,0.3373285,1.037179,-0.1127189999999999,-0.0822634999999999,0.004409,-0.006949,0.0822634999999999,-0.004409,0.006949,-0.1184615,-0.464371,-0.0773129999999999,0.1314885,-0.5170910000000001,-0.016106,-0.1197215,-0.8600110000000001,-0.0180019999999999,0.1455285,-0.908261,-0.024047,1
55,0.00925,0.78067,0.0125989999999999,-0.1612779999999999,0.58211,-0.002673,-0.233478,0.83249,-0.1472709999999999,0.175202,0.5835899999999999,0.0556759999999999,0.2947019999999999,0.82157,-0.025626,-0.2246179999999999,1.0961500000000002,-0.2457309999999999,0.338912,1.03535,-0.1227109999999999,-0.08246,0.0043909999999999,-0.007351,0.08246,-0.004391,0.0073509999999999,-0.117508,-0.46286,-0.08355,0.132492,-0.51357,-0.0213749999999999,-0.118708,-0.85879,-0.021318,0.146152,-0.90619,-0.026436,1
56,0.0105885,0.7793329999999999,0.0038275,-0.1592565,0.5808329999999999,-0.0131574999999999,-0.2311065,0.829213,-0.1589515,0.1756835,0.583433,0.0499514999999999,0.2966735,0.8211029999999999,-0.0346065,-0.2213365,1.091643,-0.2604315,0.3409034999999999,1.033243,-0.1347015,-0.0827705,0.0043699999999999,-0.0077925,0.0827705,-0.0043699999999999,0.0077925,-0.1161464999999999,-0.461007,-0.0907105,0.1337535,-0.5086470000000001,-0.0269324999999999,-0.1174465,-0.856237,-0.0248585,0.1470634999999999,-0.902797,-0.0293375,1
57,0.0118945,0.7776135000000001,-0.0048655,-0.1573715,0.5798835,-0.0218505,-0.2285515,0.8262235,-0.1713454999999999,0.1761085,0.5828935000000001,0.0441485,0.2987685,0.8203235,-0.0437955,-0.2176914999999999,1.0869135,-0.2755155,0.3428684999999999,1.0308135,-0.1464855,-0.0830704999999999,0.0043225,-0.0083185,0.0830704999999999,-0.0043225,0.0083185,-0.1145714999999999,-0.4587164999999999,-0.0980055,0.1350585,-0.5037065,-0.0320595,-0.1162515,-0.8535065,-0.0282695,0.1479385,-0.8992165,-0.0318215,1
58,0.0131905,0.7756244999999999,-0.0135614999999999,-0.1555205,0.5792845,-0.0301324999999999,-0.2258605,0.8235945,-0.1843225,0.1765495,0.5822744999999999,0.0382835,0.3008195,0.8195844999999999,-0.0527935,-0.2138305,1.0825145,-0.2910725,0.3448495,1.0282145,-0.1584425,-0.0834284999999999,0.0041924999999999,-0.0087415,0.0834284999999999,-0.0041925,0.0087415,-0.1128305,-0.4566655,-0.1053225,0.1363995,-0.4986055,-0.0373425,-0.1150205,-0.8511255000000001,-0.0318425,0.1488394999999999,-0.8952255,-0.0342165,1
59,0.0144834999999999,0.7739550000000001,-0.022425,-0.1535835,0.576435,-0.039672,-0.2243235,0.819775,-0.19735,0.1769365,0.581935,0.0320769999999999,0.3027865,0.818015,-0.062193,-0.2097235,1.077155,-0.30727,0.3468165,1.026255,-0.17032,-0.0837955,0.004024,-0.009299,0.0837955,-0.004024,0.009299,-0.1107635,-0.454215,-0.11282,0.1376365,-0.492475,-0.0427889999999999,-0.1134735,-0.8480449999999999,-0.036114,0.1497365,-0.8907349999999999,-0.036633,1
60,0.0157795,0.7721515000000001,-0.0311835,-0.1516684999999999,0.5737315000000001,-0.0490155,-0.2228184999999999,0.8166815000000001,-0.2101355,0.1774414999999999,0.5814315000000001,0.0261465,0.3047515,0.8162315,-0.0711955,-0.2054484999999999,1.0716415,-0.3235955,0.3487715,1.0241915,-0.1822655,-0.0841775,0.0039914999999999,-0.0099005,0.0841775,-0.0039915,0.0099005,-0.1086085,-0.4522985,-0.1201755,0.1387315,-0.4870684999999999,-0.0480195,-0.1118985,-0.8442084999999999,-0.0398005,0.1508614999999999,-0.8862985000000001,-0.0395234999999999,1
61,0.0169269999999999,0.7704075,-0.038962,-0.149925,0.5713675,-0.057779,-0.221505,0.8133475,-0.221685,0.177655,0.5805875,0.020348,0.3065549999999999,0.8138175000000001,-0.078853,-0.201145,1.0662874999999998,-0.338695,0.350485,1.0201275,-0.192945,-0.084564,0.0039935,-0.010585,0.084564,-0.0039934999999999,0.010585,-0.106355,-0.4501125,-0.126425,0.139615,-0.4820224999999999,-0.052744,-0.110585,-0.8400225,-0.043252,0.1514749999999999,-0.8813924999999999,-0.04177,1
62,0.0182729999999999,0.7687405,-0.047001,-0.1478529999999999,0.5700605000000001,-0.0658919999999999,-0.2202329999999999,0.8075405,-0.234536,0.177937,0.5796005000000001,0.0139629999999999,0.308407,0.8115305,-0.086664,-0.196563,1.0609905,-0.354846,0.3521169999999999,1.0161305,-0.203066,-0.084947,0.0039765,-0.011329,0.084947,-0.0039765,0.011329,-0.103303,-0.4480695,-0.133166,0.140627,-0.4761195,-0.057614,-0.109113,-0.8355195,-0.047665,0.152217,-0.8757395,-0.044532,1
63,0.019583,0.7674325,-0.0551175,-0.145697,0.5685725,-0.0741165,-0.2175869999999999,0.8024924999999999,-0.2465715,0.178113,0.5785125,0.0074434999999999,0.310073,0.8094125,-0.0943305,-0.191957,1.0561824999999998,-0.3709814999999999,0.353633,1.0120925,-0.2126015,-0.08536,0.0040074999999999,-0.0120305,0.08536,-0.0040075,0.0120305,-0.100337,-0.4451675,-0.1391015,0.141763,-0.4697274999999999,-0.0621805,-0.1075769999999999,-0.8301375,-0.0513425,0.152773,-0.8699275,-0.0475265,1
64,0.0211455,0.7657339999999999,-0.063419,-0.1434125,0.566244,-0.082921,-0.2149625,0.796744,-0.259256,0.1783374999999999,0.578044,0.001541,0.3115975,0.806754,-0.1019829999999999,-0.1870525,1.051494,-0.387956,0.3556275,1.007324,-0.221986,-0.0857675,0.0040219999999999,-0.012726,0.0857675,-0.0040219999999999,0.012726,-0.0970325,-0.441436,-0.145336,0.1429274999999999,-0.462706,-0.067205,-0.1058224999999999,-0.823956,-0.055483,0.1532875,-0.8636560000000001,-0.051519,1
65,0.0223675,0.7635975,-0.071155,-0.1415175,0.5633275,-0.090877,-0.2126675,0.7920375,-0.270914,0.1783825,0.5780075,-0.0037929999999999,0.3126425,0.8039375,-0.108426,-0.1831375,1.0470775,-0.403114,0.3573425,1.0029175,-0.229284,-0.0860865,0.0039975,-0.013378,0.0860865,-0.0039975,0.013378,-0.0939275,-0.4379925,-0.150624,0.1437925,-0.4565025,-0.071528,-0.1040774999999999,-0.8182825,-0.0596369999999999,0.1534825,-0.8578225,-0.0552239999999999,1
66,0.0235379999999999,0.7617995,-0.0790365,-0.139629,0.5607195,-0.0987325,-0.210389,0.7868694999999999,-0.2820055,0.178371,0.5781194999999999,-0.0094035,0.313711,0.8011094999999999,-0.1150065,-0.179509,1.0430095,-0.4181855,0.359101,0.9987895,-0.2365755,-0.0864679999999999,0.0040194999999999,-0.0139865,0.0864679999999999,-0.0040195,0.0139864999999999,-0.090699,-0.4347705,-0.1553955,0.144681,-0.4510405,-0.0764025,-0.102249,-0.8122505,-0.0641795,0.1537309999999999,-0.8514705,-0.0593255,1
67,0.024623,0.7598575000000001,-0.0872874999999999,-0.1377979999999999,0.5569875,-0.1076304999999999,-0.209268,0.7815375,-0.2923755,0.178192,0.5781075,-0.0155314999999999,0.314812,0.7979575,-0.1218455,-0.1760979999999999,1.0392275,-0.4328455,0.361022,0.9945975,-0.2437855,-0.086718,0.0039804999999999,-0.0146084999999999,0.086718,-0.0039804999999999,0.0146085,-0.087598,-0.4306025,-0.1601055,0.145782,-0.4464925,-0.0811775,-0.100488,-0.8057525,-0.0693465,0.153752,-0.8451225,-0.0636055,1
68,0.0256364999999999,0.757424,-0.095445,-0.1361035,0.555384,-0.115219,-0.2087035,0.7769539999999999,-0.302569,0.1778965,0.577434,-0.021561,0.3159965,0.795414,-0.128529,-0.1729235,1.037024,-0.446879,0.3634265,0.989394,-0.251349,-0.0869335,0.0039729999999999,-0.015095,0.0869335,-0.003973,0.0150949999999999,-0.0846825,-0.426636,-0.164379,0.1468964999999999,-0.442316,-0.085669,-0.0990235,-0.799926,-0.073609,0.1536664999999999,-0.838666,-0.067133,1
69,0.0265709999999999,0.7549290000000001,-0.1042525,-0.134298,0.5531389999999999,-0.1234145,-0.208188,0.772059,-0.3131345,0.177442,0.576719,-0.0282924999999999,0.317162,0.793079,-0.1357845,-0.170038,1.031749,-0.4615645,0.365842,0.984549,-0.2587545,-0.087018,0.0038509999999999,-0.0155315,0.087018,-0.003851,0.0155315,-0.081907,-0.422011,-0.1690445,0.147842,-0.438141,-0.0906145,-0.097688,-0.793601,-0.0782825,0.153332,-0.832021,-0.0716695,1
70,0.027378,0.75169,-0.1144599999999999,-0.132206,0.54881,-0.132584,-0.206806,0.7649499999999999,-0.325274,0.177074,0.5757,-0.035915,0.318204,0.79053,-0.144514,-0.167316,1.02668,-0.477054,0.368914,0.98129,-0.267874,-0.087096,0.0035099999999999,-0.01588,0.087096,-0.0035099999999999,0.01588,-0.0794219999999999,-0.41643,-0.174124,0.148704,-0.43404,-0.095843,-0.096506,-0.7865300000000001,-0.083626,0.152834,-0.8245600000000001,-0.074723,1
71,0.0282675,0.748285,-0.124337,-0.1304855,0.544505,-0.141186,-0.2053455,0.760165,-0.335956,0.1769545,0.574455,-0.043281,0.3186145,0.787635,-0.153316,-0.1646355,1.020435,-0.491536,0.3722245,0.977475,-0.277396,-0.0872955,0.003115,-0.016109,0.0872955,-0.0031149999999999,0.016109,-0.0771735,-0.4106849999999999,-0.178846,0.1495845,-0.430625,-0.100837,-0.0950655,-0.778075,-0.08628,0.1525345,-0.817615,-0.079757,1
72,0.029329,0.744625,-0.1347015,-0.128765,0.539925,-0.1501315,-0.203695,0.755035,-0.3476015,0.176935,0.574405,-0.0508165,0.319135,0.784625,-0.1625515,-0.161985,1.013685,-0.5062415,0.3755549999999999,0.973025,-0.2881415,-0.087545,0.0027249999999999,-0.0165885,0.087545,-0.002725,0.0165885,-0.074961,-0.404445,-0.1841515,0.1505449999999999,-0.426855,-0.1062664999999999,-0.093865,-0.770475,-0.0919415,0.152445,-0.809715,-0.0851605,1
73,0.0304374999999999,0.7406900000000001,-0.1449285,-0.1270135,0.5360100000000001,-0.1582585,-0.2024735,0.7503900000000001,-0.3585085,0.1770765,0.57471,-0.0577025,0.3199665,0.7815799999999999,-0.1712385,-0.1595235,1.00672,-0.5199085,0.3786465,0.96867,-0.2984085,-0.0876935,0.00229,-0.0171384999999999,0.0876935,-0.0022899999999999,0.0171385,-0.0730244999999999,-0.39889,-0.1887985,0.1516465,-0.4232799999999999,-0.1108905,-0.0928635,-0.7632099999999999,-0.0961885,0.1520765,-0.8024499999999999,-0.0897155,1
74,0.031484,0.7376199999999999,-0.1553479999999999,-0.125419,0.53216,-0.166608,-0.199799,0.74635,-0.369548,0.1772409999999999,0.57112,-0.066342,0.3211509999999999,0.77427,-0.179938,-0.1569189999999999,0.99989,-0.5336879999999999,0.381721,0.96169,-0.308988,-0.087799,0.00189,-0.0177159999999999,0.087799,-0.00189,0.017716,-0.07129,-0.3900600000000001,-0.193658,0.1528209999999999,-0.41544,-0.115714,-0.091759,-0.7566200000000001,-0.1017879999999999,0.152461,-0.79362,-0.093111,1
75,0.032905,0.7342,-0.1659005,-0.123804,0.52749,-0.1752905,-0.197934,0.74189,-0.3804005,0.177566,0.5683400000000001,-0.0743915,0.3226159999999999,0.76761,-0.1883505,-0.1540639999999999,0.99225,-0.5474705,0.384826,0.95462,-0.3192605,-0.088004,0.0014,-0.0182755,0.088004,-0.0013999999999999,0.0182755,-0.069499,-0.38114,-0.1983105,0.153926,-0.40652,-0.1195705,-0.090914,-0.74795,-0.1059644999999999,0.152876,-0.7847,-0.0962735,1
76,0.0347429999999999,0.7311000000000001,-0.1807485,-0.121948,0.52359,-0.1876085,-0.194788,0.7365700000000001,-0.3956685,0.178202,0.56646,-0.0864915,0.324402,0.76173,-0.2006085,-0.150998,0.98476,-0.5651385,0.388012,0.94778,-0.3344384999999999,-0.088068,0.00073,-0.0188634999999999,0.088068,-0.00073,0.0188635,-0.0673979999999999,-0.37224,-0.2075185,0.155092,-0.39762,-0.1279295,-0.0898779999999999,-0.73932,-0.1152634999999999,0.153662,-0.7757999999999999,-0.1029664999999999,1
77,0.0383585,0.7326349999999999,-0.198195,-0.1186395,0.521345,-0.202035,-0.1897195,0.734785,-0.412985,0.1802105,0.568415,-0.101743,0.3274605,0.760465,-0.215575,-0.1465895,0.980565,-0.5846250000000001,0.3919605,0.945455,-0.351835,-0.0877594999999999,-0.0002749999999999,-0.018518,0.0877594999999999,0.0002749999999999,0.018518,-0.0634464999999999,-0.357615,-0.225565,0.1606005,-0.384105,-0.144881,-0.0876494999999999,-0.7258950000000001,-0.12652,0.1558705,-0.760015,-0.111778,1
78,0.041954,0.73353,-0.2154589999999999,-0.1157079999999999,0.5192,-0.215659,-0.1852079999999999,0.73289,-0.429359,0.181932,0.5704400000000001,-0.116169,0.330412,0.75909,-0.230709,-0.1423279999999999,0.97974,-0.603359,0.395712,0.94174,-0.369799,-0.0874679999999999,-0.0012199999999999,-0.0182419999999999,0.0874679999999999,0.0012199999999999,0.018242,-0.059871,-0.34339,-0.243119,0.165932,-0.36699,-0.161152,-0.085598,-0.7133400000000001,-0.136222,0.157842,-0.7478400000000001,-0.121485,1
79,0.045527,0.73488,-0.2311554999999999,-0.113206,0.51932,-0.2279655,-0.181026,0.73403,-0.4443454999999999,0.183594,0.57273,-0.1292475,0.333314,0.7585600000000001,-0.2451055,-0.1383559999999999,0.97951,-0.6210955,0.398764,0.93985,-0.3859454999999999,-0.0871359999999999,-0.0018999999999999,-0.0180854999999999,0.0871359999999999,0.0019,0.0180855,-0.0565869999999999,-0.33029,-0.2600655,0.171234,-0.35078,-0.1771395,-0.083566,-0.7016800000000001,-0.1455185,0.160194,-0.73217,-0.1288365,1
80,0.0492975,0.735665,-0.246388,-0.1106195,0.5190049999999999,-0.240048,-0.1766495,0.734965,-0.458998,0.1853105,0.572485,-0.143852,0.3363105,0.7577550000000001,-0.259648,-0.1346695,0.975745,-0.6375780000000001,0.4021405,0.937095,-0.402868,-0.0867195,-0.0025749999999999,-0.017952,0.0867195,0.002575,0.0179519999999999,-0.0537114999999999,-0.317535,-0.276668,0.1766605,-0.335075,-0.192958,-0.0816295,-0.689375,-0.154893,0.1623805,-0.717295,-0.135898,1
81,0.052876,0.737125,-0.261355,-0.1071759999999999,0.517135,-0.251665,-0.172456,0.733565,-0.472765,0.1868739999999999,0.5716049999999999,-0.158516,0.339284,0.757125,-0.274495,-0.131086,0.972985,-0.653085,0.405364,0.935165,-0.419295,-0.086326,-0.003505,-0.0176049999999999,0.086326,0.003505,0.017605,-0.0513809999999999,-0.305615,-0.292945,0.182144,-0.3230449999999999,-0.210165,-0.079886,-0.6769050000000001,-0.1633859999999999,0.164314,-0.703025,-0.142793,1
82,0.0565479999999999,0.737145,-0.2759375,-0.104007,0.5157050000000001,-0.2632575,-0.166437,0.732735,-0.4869775,0.1885629999999999,0.5690550000000001,-0.1744005,0.342503,0.756015,-0.2916674999999999,-0.127497,0.967845,-0.6694475,0.408643,0.932125,-0.4385875,-0.0858869999999999,-0.0041149999999999,-0.0171425,0.0858869999999999,0.004115,0.0171424999999999,-0.04917,-0.293965,-0.3094475,0.1876429999999999,-0.3095249999999999,-0.2276175,-0.078267,-0.663275,-0.1710815,0.1665529999999999,-0.6884049999999999,-0.1496255,1
83,0.060042,0.735815,-0.290049,-0.100835,0.514625,-0.273949,-0.160345,0.730685,-0.5006889999999999,0.189765,0.570805,-0.187936,0.345305,0.756935,-0.308749,-0.1241949999999999,0.960355,-0.685319,0.4115749999999999,0.929905,-0.4571989999999999,-0.085685,-0.0047049999999999,-0.016581,0.085685,0.004705,0.016581,-0.047236,-0.2820049999999999,-0.3255789999999999,0.1929749999999999,-0.297145,-0.244769,-0.077205,-0.651715,-0.179,0.168615,-0.674805,-0.156411,1
84,0.0635265,0.7344299999999999,-0.30394,-0.0977415,0.5129699999999999,-0.28427,-0.1558515,0.72814,-0.51432,0.1909185,0.57275,-0.201726,0.3482185,0.75818,-0.32642,-0.1205315,0.95482,-0.7018099999999999,0.4148084999999999,0.92822,-0.47664,-0.0854315,-0.0055999999999999,-0.0160399999999999,0.0854315,0.0055999999999999,0.01604,-0.0453515,-0.27022,-0.3419999999999999,0.1982685,-0.28398,-0.26217,-0.0761515,-0.6392800000000001,-0.187191,0.1706885,-0.66051,-0.163208,1
85,0.0664635,0.7322649999999999,-0.312915,-0.0952554999999999,0.509855,-0.289995,-0.1522555,0.724765,-0.5232049999999999,0.1914245,0.5739449999999999,-0.2109909999999999,0.3505945,0.755895,-0.3395049999999999,-0.1168955,0.949275,-0.714585,0.4174445,0.923875,-0.490825,-0.0853255,-0.0063549999999999,-0.0155249999999999,0.0853255,0.0063549999999999,0.015525,-0.0440315,-0.2587049999999999,-0.353635,0.2029145,-0.270385,-0.2749749999999999,-0.0756355,-0.627845,-0.1906939999999999,0.1727345,-0.646065,-0.1676099999999999,1
86,0.068208,0.7270300000000001,-0.320185,-0.093232,0.5049699999999999,-0.294575,-0.149022,0.7166699999999999,-0.531625,0.191878,0.5682,-0.219754,0.352828,0.7492099999999999,-0.350645,-0.1135919999999999,0.93806,-0.727055,0.419348,0.91443,-0.503865,-0.085312,-0.00667,-0.015735,0.085312,0.00667,0.015735,-0.0436609999999999,-0.2516,-0.357745,0.204018,-0.26338,-0.280985,-0.0755219999999999,-0.61941,-0.194047,0.173168,-0.6352800000000001,-0.169486,1
87,0.069936,0.7219800000000001,-0.32723,-0.0911029999999999,0.50041,-0.29922,-0.146023,0.70715,-0.53996,0.192077,0.56247,-0.228588,0.354807,0.7418,-0.36128,-0.1103329999999999,0.92599,-0.7392799999999999,0.4217269999999999,0.90478,-0.51678,-0.085313,-0.0068599999999999,-0.01573,0.085313,0.00686,0.0157299999999999,-0.043391,-0.2443499999999999,-0.36197,0.205367,-0.2562,-0.2872099999999999,-0.075323,-0.6122299999999999,-0.197075,0.173627,-0.62769,-0.172856,1
88,0.0718584999999999,0.7173400000000001,-0.334705,-0.0889975,0.49522,-0.304105,-0.1429575,0.69747,-0.5481750000000001,0.1924825,0.55737,-0.237752,0.3568624999999999,0.73413,-0.372015,-0.1070975,0.91127,-0.7508650000000001,0.4244425,0.8946000000000001,-0.530015,-0.0853275,-0.0071399999999999,-0.015435,0.0853275,0.00714,0.0154349999999999,-0.0426985,-0.2369599999999999,-0.366515,0.2068725,-0.2488099999999999,-0.293655,-0.0750275,-0.60481,-0.20077,0.1742324999999999,-0.6203,-0.176559,1
89,0.07269,0.71278,-0.342545,-0.087485,0.48771,-0.308825,-0.141685,0.68686,-0.5563849999999999,0.191905,0.5542,-0.245075,0.357985,0.7266900000000001,-0.3823149999999999,-0.104725,0.90159,-0.762575,0.426215,0.8846499999999999,-0.542665,-0.085715,-0.00748,-0.0150549999999999,0.085715,0.0074799999999999,0.015055,-0.043447,-0.23041,-0.3706649999999999,0.207815,-0.2408,-0.3004249999999999,-0.075865,-0.5968,-0.2043509999999999,0.173645,-0.61229,-0.1806209999999999,1
90,0.0731285,0.7078,-0.3498599999999999,-0.0873495,0.48202,-0.3129699999999999,-0.1404595,0.6778500000000001,-0.5642499999999999,0.1910204999999999,0.5504,-0.25251,0.3585905,0.71861,-0.39185,-0.1028795,0.88977,-0.77437,0.4277805,0.87393,-0.5546,-0.0861794999999999,-0.00794,-0.0146199999999999,0.0861794999999999,0.00794,0.01462,-0.0444695,-0.2239799999999999,-0.37494,0.2084405,-0.2341999999999999,-0.3053599999999999,-0.0769295,-0.58916,-0.2078259999999999,0.1728505,-0.60504,-0.1846549999999999,1
91,0.073492,0.7047950000000001,-0.3562149999999999,-0.087836,0.476195,-0.316725,-0.139616,0.668305,-0.570375,0.190004,0.546845,-0.2587049999999999,0.359164,0.711045,-0.3990749999999999,-0.101386,0.879745,-0.784725,0.429574,0.8639450000000001,-0.563795,-0.086476,-0.0083849999999999,-0.0141749999999999,0.086476,0.008385,0.014175,-0.045436,-0.2174149999999999,-0.378905,0.209184,-0.2280249999999999,-0.3100349999999999,-0.0780259999999999,-0.581695,-0.2109569999999999,0.172044,-0.598525,-0.188487,1
92,0.0739895,0.702815,-0.36246,-0.0881784999999999,0.471145,-0.3205099999999999,-0.1389585,0.659405,-0.57626,0.1892714999999999,0.544135,-0.26495,0.3598315,0.705735,-0.40581,-0.0997185,0.871355,-0.79453,0.4318015,0.856825,-0.57343,-0.0868184999999999,-0.009035,-0.0138199999999999,0.0868184999999999,0.0090349999999999,0.0138199999999999,-0.0459835,-0.210175,-0.38334,0.2100215,-0.221055,-0.3148999999999999,-0.0789084999999999,-0.5725750000000001,-0.213364,0.1713114999999999,-0.590975,-0.1924809999999999,1
93,0.074344,0.70114,-0.36832,-0.08858,0.46723,-0.3240699999999999,-0.13875,0.65189,-0.5821700000000001,0.18882,0.5410999999999999,-0.27116,0.36046,0.70021,-0.41182,-0.09873,0.86041,-0.8026500000000001,0.43432,0.84898,-0.58238,-0.08722,-0.00953,-0.01356,0.08722,0.0095299999999999,0.0135599999999999,-0.046194,-0.20309,-0.3877,0.21085,-0.21463,-0.3196299999999999,-0.07979,-0.56583,-0.216932,0.1701399999999999,-0.58267,-0.195551,1
94,0.0744155,0.698855,-0.3741649999999999,-0.0895385,0.461635,-0.3274249999999999,-0.1391685,0.644165,-0.587755,0.1888715,0.536835,-0.277155,0.3606115,0.698495,-0.417825,-0.0986684999999999,0.849655,-0.809525,0.4366215,0.844305,-0.591715,-0.0877085,-0.0100549999999999,-0.013465,0.0877085,0.0100549999999999,0.013465,-0.0461895,-0.1955249999999999,-0.392255,0.2116415,-0.207805,-0.324345,-0.0811585,-0.559125,-0.220832,0.1689615,-0.575265,-0.199543,1
95,0.074013,0.69529,-0.3785199999999999,-0.091055,0.4562,-0.32933,-0.139835,0.63764,-0.59102,0.188445,0.53621,-0.28003,0.360355,0.6927399999999999,-0.42227,-0.0990349999999999,0.8411,-0.81437,0.438575,0.8379399999999999,-0.59895,-0.088015,-0.011,-0.01352,0.088015,0.011,0.01352,-0.046061,-0.18951,-0.39578,0.212585,-0.20248,-0.32703,-0.0825249999999999,-0.5528599999999999,-0.22207,0.167435,-0.56978,-0.202625,1
96,0.0731955,0.692575,-0.38229,-0.0923195,0.449503,-0.3313199999999999,-0.1410595,0.6317250000000001,-0.59392,0.1881104999999999,0.5349250000000001,-0.2829899999999999,0.3599005,0.688065,-0.42619,-0.0994694999999999,0.833065,-0.81907,0.4399905,0.833135,-0.60515,-0.0883694999999999,-0.0120049999999999,-0.0137599999999999,0.0883694999999999,0.012005,0.01376,-0.0456535,-0.1832849999999999,-0.39914,0.2132804999999999,-0.197125,-0.32941,-0.0842995,-0.546995,-0.2236199999999999,0.1657205,-0.5637949999999999,-0.2053149999999999,1
97,0.072161,0.6899150000000001,-0.385305,-0.09386,0.442666,-0.332825,-0.1424099999999999,0.6259250000000001,-0.595815,0.18799,0.533335,-0.285555,0.3591,0.6840649999999999,-0.428955,-0.09985,0.827255,-0.8231550000000001,0.44114,0.828865,-0.610305,-0.0886899999999999,-0.013045,-0.014215,0.0886899999999999,0.0130449999999999,0.014215,-0.0451159999999999,-0.177265,-0.402225,0.21402,-0.191965,-0.331385,-0.08598,-0.5406150000000001,-0.224181,0.16398,-0.558125,-0.207436,1
98,0.0712609999999999,0.687665,-0.387545,-0.095327,0.438932,-0.3340349999999999,-0.143447,0.621355,-0.597395,0.187913,0.5326649999999999,-0.287815,0.358353,0.680335,-0.431575,-0.100017,0.821035,-0.8270249999999999,0.442173,0.825145,-0.614695,-0.088867,-0.013975,-0.0145249999999999,0.088867,0.013975,0.014525,-0.044306,-0.171795,-0.405155,0.2146429999999999,-0.186945,-0.3329649999999999,-0.087927,-0.535505,-0.224943,0.162373,-0.552275,-0.2086869999999999,1
99,0.0699225,0.685335,-0.389405,-0.0967395,0.435309,-0.335515,-0.1440795,0.617345,-0.598925,0.1877404999999999,0.531225,-0.289635,0.3576105,0.6767650000000001,-0.433925,-0.1003195,0.815885,-0.8304549999999999,0.4430805,0.8215749999999999,-0.618955,-0.0890495,-0.014655,-0.014715,0.0890495,0.0146549999999999,0.014715,-0.0436795,-0.166665,-0.408175,0.2151305,-0.181775,-0.334755,-0.0896795,-0.530595,-0.225635,0.1606805,-0.5461050000000001,-0.209555,1
100,0.0681815,0.6830350000000001,-0.39135,-0.0982445,0.431531,-0.33677,-0.1450445,0.613375,-0.60068,0.1874854999999999,0.530855,-0.29124,0.3567555,0.6725749999999999,-0.43638,-0.1008345,0.8109850000000001,-0.83355,0.4434755,0.818585,-0.62311,-0.0892645,-0.0155649999999999,-0.01488,0.0892645,0.0155649999999999,0.01488,-0.0435765,-0.161735,-0.41132,0.2154054999999999,-0.1766049999999999,-0.33672,-0.0916345,-0.5252950000000001,-0.226281,0.1588255,-0.540395,-0.210346,1
101,0.0660514999999999,0.680755,-0.3930099999999999,-0.1001345,0.427083,-0.33807,-0.1464645,0.6094849999999999,-0.60245,0.1867355,0.527135,-0.29323,0.3555155,0.6684049999999999,-0.43894,-0.1021245,0.806265,-0.83625,0.4433855,0.814165,-0.6271,-0.0896545,-0.016045,-0.0148699999999999,0.0896545,0.0160449999999999,0.0148699999999999,-0.0438715,-0.156645,-0.41372,0.2157555,-0.171725,-0.3390499999999999,-0.0940445,-0.521085,-0.227286,0.1566855,-0.5352950000000001,-0.210817,1
102,0.063716,0.6771499999999999,-0.39429,-0.101719,0.422628,-0.3393,-0.148689,0.60518,-0.60404,0.186541,0.52315,-0.29513,0.354081,0.6633,-0.4413,-0.1034689999999999,0.8027599999999999,-0.83892,0.442631,0.80997,-0.63068,-0.089947,-0.0161999999999999,-0.01486,0.089947,0.0161999999999999,0.0148599999999999,-0.0443589999999999,-0.15158,-0.41589,0.216401,-0.16707,-0.34165,-0.096419,-0.51704,-0.228106,0.154621,-0.5300900000000001,-0.21095,1
103,0.0615335,0.674775,-0.395185,-0.1033495,0.421184,-0.3403849999999999,-0.1508795,0.6025050000000001,-0.605625,0.1855505,0.520535,-0.296925,0.3526905,0.6569849999999999,-0.443505,-0.1048995,0.7985949999999999,-0.841425,0.4418005,0.805205,-0.633705,-0.0901035,-0.0162649999999999,-0.0149449999999999,0.0901035,0.016265,0.014945,-0.0448295,-0.147185,-0.4177349999999999,0.2171905,-0.1629749999999999,-0.344265,-0.0989095,-0.513355,-0.2292019999999999,0.1526305,-0.525495,-0.2109799999999999,1
104,0.0594525,0.67274,-0.396065,-0.1046904999999999,0.4199009999999999,-0.341585,-0.1528705,0.6002799999999999,-0.6072649999999999,0.1847595,0.51782,-0.298685,0.3513095,0.655,-0.445715,-0.1068004999999999,0.79455,-0.843315,0.4408995,0.80254,-0.6365149999999999,-0.0902675,-0.01609,-0.014915,0.0902675,0.0160899999999999,0.0149149999999999,-0.0454204999999999,-0.14364,-0.419265,0.2174695,-0.15949,-0.347115,-0.1009105,-0.5102300000000001,-0.230042,0.1507195,-0.52144,-0.211122,1
105,0.0571739999999999,0.66988,-0.39656,-0.105744,0.419693,-0.34267,-0.1541239999999999,0.5987600000000001,-0.6086,0.1836959999999999,0.51587,-0.29982,0.349076,0.6529,-0.44582,-0.108734,0.7904500000000001,-0.8445699999999999,0.439666,0.7996700000000001,-0.63912,-0.090367,-0.0159599999999999,-0.01471,0.090367,0.01596,0.01471,-0.046027,-0.1405299999999999,-0.42032,0.217636,-0.1564299999999999,-0.34974,-0.103274,-0.5070199999999999,-0.23043,0.148816,-0.51755,-0.210319,1
106,0.0551795,0.66759,-0.396415,-0.1067415,0.419907,-0.343345,-0.1553115,0.59754,-0.609915,0.1825585,0.51432,-0.300445,0.3468585,0.65107,-0.445565,-0.1106915,0.7864599999999999,-0.845275,0.4378285,0.7968,-0.6395150000000001,-0.0904635,-0.0158099999999999,-0.014415,0.0904635,0.0158099999999999,0.0144149999999999,-0.0466204999999999,-0.13777,-0.420665,0.2175985,-0.15353,-0.351915,-0.1052415,-0.5025599999999999,-0.229604,0.1467784999999999,-0.5138499999999999,-0.209424,1
107,0.051997,0.66692,-0.396335,-0.108659,0.4203609999999999,-0.344095,-0.157799,0.59688,-0.611175,0.180491,0.51296,-0.301175,0.344511,0.6500299999999999,-0.447405,-0.1135289999999999,0.7829699999999999,-0.845875,0.435231,0.79448,-0.641935,-0.090524,-0.01584,-0.014165,0.090524,0.0158399999999999,0.0141649999999999,-0.0474579999999999,-0.13553,-0.420965,0.216641,-0.15081,-0.353995,-0.1081189999999999,-0.49888,-0.229504,0.143931,-0.50987,-0.208493,1
108,0.049175,0.666615,-0.396285,-0.110604,0.421021,-0.344505,-0.1600339999999999,0.596935,-0.612005,0.178606,0.512375,-0.301525,0.342306,0.6497350000000001,-0.449045,-0.1163339999999999,0.779765,-0.8462050000000001,0.432746,0.7926550000000001,-0.6438250000000001,-0.09054,-0.0157649999999999,-0.013975,0.09054,0.015765,0.0139749999999999,-0.047643,-0.1340249999999999,-0.420785,0.215876,-0.148505,-0.355725,-0.1105039999999999,-0.4946849999999999,-0.228422,0.141306,-0.506415,-0.207464,1
109,0.0466085,0.66681,-0.396425,-0.1122315,0.421332,-0.345065,-0.1622115,0.59692,-0.612535,0.1768785,0.5116970000000001,-0.302015,0.3402785,0.65099,-0.450165,-0.1192115,0.7772600000000001,-0.846555,0.4304985,0.7919400000000001,-0.645575,-0.0905815,-0.01571,-0.013945,0.0905815,0.01571,0.0139449999999999,-0.0471445,-0.1332,-0.420785,0.2151185,-0.14667,-0.3570649999999999,-0.1123315,-0.4908499999999999,-0.227264,0.1389085,-0.5037499999999999,-0.206372,1
110,0.0443155,0.6670149999999999,-0.396285,-0.1135785,0.4212859999999999,-0.345245,-0.1643985,0.5967749999999999,-0.612695,0.1752915,0.513002,-0.302145,0.3383015,0.652295,-0.450835,-0.1220084999999999,0.775295,-0.8467450000000001,0.4284914999999999,0.7918049999999999,-0.646555,-0.0904814999999999,-0.015765,-0.0138949999999999,0.0904814999999999,0.0157649999999999,0.013895,-0.0464635,-0.133665,-0.420795,0.2141015,-0.146125,-0.357265,-0.1140285,-0.489125,-0.227074,0.1368015,-0.502445,-0.205392,1
111,0.0422325,0.6674,-0.39592,-0.1149075,0.421613,-0.3455,-0.1672375,0.59716,-0.61302,0.1735325,0.513387,-0.30241,0.3362524999999999,0.65268,-0.45112,-0.1248775,0.77402,-0.84707,0.4262125,0.79219,-0.64685,-0.0903625,-0.0159999999999999,-0.01372,0.0903625,0.016,0.0137199999999999,-0.0456465,-0.1349699999999999,-0.42089,0.2123625,-0.14639,-0.35753,-0.1156175,-0.4897399999999999,-0.228375,0.1345825,-0.5021599999999999,-0.204775,1
112,0.0403894999999999,0.6674,-0.395555,-0.1161635,0.421613,-0.345805,-0.1697135,0.59716,-0.613395,0.1718965,0.513387,-0.302735,0.3344965,0.65268,-0.451455,-0.1276135,0.77402,-0.847455,0.4238564999999999,0.79219,-0.647215,-0.0902665,-0.0159999999999999,-0.0134749999999999,0.0902665,0.016,0.013475,-0.0447715,-0.1364999999999999,-0.420565,0.2105565,-0.1469499999999999,-0.357865,-0.1175035,-0.4905899999999999,-0.228568,0.1326565,-0.5023099999999999,-0.204572,1
113,0.038898,0.6674,-0.3953799999999999,-0.117095,0.421613,-0.34655,-0.171535,0.59716,-0.61413,0.170565,0.513433,-0.30301,0.333055,0.6529900000000001,-0.45223,-0.129915,0.77402,-0.8481299999999999,0.421565,0.79219,-0.64803,-0.0902449999999999,-0.0159999999999999,-0.01324,0.0902449999999999,0.016,0.01324,-0.0436969999999999,-0.1379699999999999,-0.41993,0.209115,-0.14737,-0.3586399999999999,-0.118735,-0.48997,-0.227901,0.130955,-0.5025,-0.2049059999999999,1
114,0.037568,0.67003,-0.395595,-0.118073,0.421613,-0.3467749999999999,-0.173583,0.59731,-0.613855,0.169177,0.51491,-0.3028849999999999,0.331627,0.6547000000000001,-0.453005,-0.132103,0.77402,-0.8486549999999999,0.419337,0.79224,-0.648555,-0.0903569999999999,-0.0159999999999999,-0.0131149999999999,0.0903569999999999,0.016,0.013115,-0.042794,-0.1393599999999999,-0.419275,0.207667,-0.14788,-0.3590449999999999,-0.120323,-0.4891799999999999,-0.228368,0.129357,-0.5029899999999999,-0.2059609999999999,1
115,0.0360975,0.673605,-0.39508,-0.1190295,0.422071,-0.3463199999999999,-0.1755395,0.5977950000000001,-0.61327,0.1677005,0.517105,-0.30203,0.3302004999999999,0.6577850000000001,-0.45307,-0.1343195,0.7735650000000001,-0.84843,0.4171605,0.792875,-0.64821,-0.0905604999999999,-0.0161549999999999,-0.0125699999999999,0.0905604999999999,0.016155,0.0125699999999999,-0.0422455,-0.140895,-0.4178999999999999,0.2059405,-0.1485849999999999,-0.35879,-0.1220295,-0.490305,-0.229397,0.1277805,-0.504225,-0.206866,1
116,0.0353475,0.67767,-0.3944499999999999,-0.1190995,0.4226069999999999,-0.34576,-0.1766895,0.59843,-0.61258,0.1670405,0.51905,-0.30136,0.3295705,0.66089,-0.45287,-0.1356795,0.77471,-0.84813,0.4159405,0.7950200000000001,-0.64771,-0.0908805,-0.01632,-0.0123,0.0908805,0.01632,0.0123,-0.0415995,-0.14256,-0.41659,0.2044505,-0.14998,-0.3585399999999999,-0.1217795,-0.49187,-0.229025,0.1271805,-0.50622,-0.208018,1
117,0.0346369999999999,0.681905,-0.39368,-0.118847,0.428343,-0.34496,-0.176539,0.600175,-0.61139,0.166311,0.520985,-0.30062,0.328991,0.6631750000000001,-0.45254,-0.137019,0.776365,-0.8476300000000001,0.414811,0.797865,-0.6470400000000001,-0.0911609999999999,-0.0159149999999999,-0.0120899999999999,0.0911609999999999,0.015915,0.0120899999999999,-0.041615,-0.145725,-0.41459,0.202511,-0.1528549999999999,-0.35806,-0.121889,-0.4942449999999999,-0.228808,0.126381,-0.509095,-0.208987,1
118,0.0336585,0.68719,-0.39127,-0.1193354999999999,0.432889,-0.34418,-0.1768435,0.60334,-0.60986,0.1653965,0.52151,-0.2999699999999999,0.3282465,0.66763,-0.45177,-0.1383435,0.7799,-0.8463999999999999,0.4136665,0.8014,-0.64528,-0.0915364999999999,-0.0151999999999999,-0.0117099999999999,0.0915364999999999,0.0151999999999999,0.0117099999999999,-0.0424105,-0.15119,-0.41158,0.2000865,-0.1576099999999999,-0.35749,-0.1226235,-0.4989999999999999,-0.229657,0.1254965,-0.5138499999999999,-0.209811,1
119,0.0326754999999999,0.69199,-0.3881099999999999,-0.1199985,0.4368559999999999,-0.3423899999999999,-0.1776215,0.6071799999999999,-0.60719,0.1648485,0.52149,-0.29851,0.3276385,0.67225,-0.4493999999999999,-0.1394814999999999,0.78443,-0.84383,0.4124285,0.80679,-0.6419999999999999,-0.0917085,-0.01446,-0.0115499999999999,0.0917085,0.0144599999999999,0.01155,-0.0431825,-0.1576699999999999,-0.4076999999999999,0.1975585,-0.16273,-0.35631,-0.1227115,-0.50377,-0.2293759999999999,0.1248084999999999,-0.5192100000000001,-0.210065,1
120,0.0315509999999999,0.697035,-0.38439,-0.120114,0.44088,-0.3397,-0.179658,0.612575,-0.6034900000000001,0.163992,0.524735,-0.29498,0.326962,0.676375,-0.44582,-0.140728,0.789785,-0.8401400000000001,0.411202,0.812395,-0.6377200000000001,-0.0917419999999999,-0.0139549999999999,-0.01145,0.0917419999999999,0.0139549999999999,0.0114499999999999,-0.044054,-0.165335,-0.4028,0.1945319999999999,-0.168995,-0.35444,-0.122698,-0.510645,-0.229284,0.124112,-0.526335,-0.210204,1
121,0.0301345,0.702585,-0.3807049999999999,-0.1207915,0.445419,-0.336275,-0.1822485,0.617725,-0.599555,0.1627515,0.530015,-0.291005,0.3259014999999999,0.680755,-0.4418149999999999,-0.1423585,0.796485,-0.835715,0.4097714999999999,0.817875,-0.633025,-0.0917115,-0.013635,-0.0114549999999999,0.0917115,0.013635,0.0114549999999999,-0.0451485,-0.173335,-0.397825,0.1905315,-0.1745449999999999,-0.3520149999999999,-0.1238185,-0.519445,-0.229329,0.1232415,-0.533805,-0.2103459999999999,1
122,0.0285325,0.7076800000000001,-0.37704,-0.1218424999999999,0.450435,-0.33265,-0.1847075,0.6228400000000001,-0.59568,0.1613925,0.53484,-0.28702,0.3250024999999999,0.6847400000000001,-0.4373599999999999,-0.1442375,0.80484,-0.83157,0.4082424999999999,0.82311,-0.62738,-0.0915024999999999,-0.0133399999999999,-0.0114399999999999,0.0915024999999999,0.01334,0.01144,-0.0463695,-0.1824,-0.39303,0.1861125,-0.1815799999999999,-0.3496599999999999,-0.1250075,-0.5286099999999999,-0.229096,0.1222925,-0.54265,-0.210358,1
123,0.0272955,0.71185,-0.373025,-0.1224254999999999,0.4576759999999999,-0.329325,-0.1875155,0.6287499999999999,-0.592425,0.1604245,0.53917,-0.283425,0.3246145,0.6895,-0.432585,-0.1458455,0.8133900000000001,-0.826935,0.4071545,0.82978,-0.6219250000000001,-0.0910945,-0.01283,-0.011395,0.0910945,0.01283,0.0113949999999999,-0.0474435,-0.19158,-0.388495,0.1823745,-0.18888,-0.347305,-0.1261054999999999,-0.5384,-0.229019,0.1218145,-0.5523499999999999,-0.210975,1
124,0.0257895,0.7168950000000001,-0.367915,-0.1231475,0.464345,-0.326095,-0.1910405,0.6359250000000001,-0.587635,0.1594695,0.543135,-0.280065,0.3239595,0.6951350000000001,-0.426995,-0.1478005,0.824165,-0.821345,0.4058395,0.8375950000000001,-0.615625,-0.0907895,-0.0125449999999999,-0.011295,0.0907895,0.012545,0.011295,-0.0486925,-0.2006649999999999,-0.384255,0.1788195,-0.1959249999999999,-0.344665,-0.1270205,-0.549225,-0.2295569999999999,0.1215294999999999,-0.5615549999999999,-0.211411,1
125,0.024159,0.722545,-0.36122,-0.12422,0.472285,-0.32116,-0.19451,0.644755,-0.58091,0.15791,0.547645,-0.27474,0.32341,0.701895,-0.42053,-0.15066,0.8348450000000001,-0.8130999999999999,0.40389,0.845955,-0.60738,-0.09057,-0.0119049999999999,-0.0113199999999999,0.09057,0.0119049999999999,0.0113199999999999,-0.050648,-0.2118849999999999,-0.37824,0.17523,-0.204965,-0.33977,-0.12794,-0.5606249999999999,-0.228503,0.12128,-0.5727249999999999,-0.210784,1
126,0.0219955,0.729875,-0.352665,-0.1252345,0.477965,-0.315305,-0.1980945,0.6554949999999999,-0.572965,0.1575655,0.5520849999999999,-0.267688,0.3230355,0.710745,-0.4129549999999999,-0.1544444999999999,0.8485149999999999,-0.801145,0.4019855,0.8569149999999999,-0.597545,-0.0904055,-0.0115149999999999,-0.0110349999999999,0.0904055,0.0115149999999999,0.0110349999999999,-0.0538725,-0.223065,-0.371375,0.1713655,-0.215545,-0.3329649999999999,-0.1284445,-0.572195,-0.225705,0.1213255,-0.5860350000000001,-0.209317,1
127,0.0202105,0.7361500000000001,-0.34496,-0.1261205,0.48434,-0.30916,-0.2014105,0.66577,-0.56443,0.1574694999999999,0.55742,-0.26023,0.3226595,0.7176100000000001,-0.40474,-0.1582705,0.86175,-0.78872,0.4000795,0.86739,-0.58831,-0.0901194999999999,-0.0112499999999999,-0.01088,0.0901194999999999,0.01125,0.01088,-0.0571215,-0.23326,-0.36523,0.1678295,-0.22546,-0.32564,-0.1289005,-0.58606,-0.224157,0.1215495,-0.59878,-0.207364,1
128,0.0184634999999999,0.742875,-0.33628,-0.1267005,0.4907749999999999,-0.3031,-0.2047005,0.676175,-0.55402,0.1575194999999999,0.562925,-0.252535,0.3221795,0.724305,-0.39655,-0.1627705,0.8760049999999999,-0.77511,0.3972695,0.876565,-0.57833,-0.0896795,-0.0107949999999999,-0.01075,0.0896795,0.0107949999999999,0.0107499999999999,-0.0606345,-0.2429049999999999,-0.35912,0.1640994999999999,-0.235505,-0.3182,-0.1288905,-0.600835,-0.222794,0.1220395,-0.6117250000000001,-0.20524,1
129,0.0166715,0.749975,-0.32589,-0.1281535,0.4977349999999999,-0.2959,-0.2075735,0.685835,-0.54293,0.1581965,0.567035,-0.244338,0.3209965,0.731055,-0.38728,-0.1681035,0.892515,-0.7596499999999999,0.3933965,0.8866649999999999,-0.56725,-0.0890465,-0.010215,-0.0105999999999999,0.0890465,0.0102149999999999,0.0105999999999999,-0.0655205,-0.252365,-0.35357,0.1602765,-0.246005,-0.30948,-0.1285935,-0.616645,-0.222301,0.1233565,-0.6297050000000001,-0.206252,1
130,0.0150524999999999,0.7559100000000001,-0.314625,-0.1302415,0.50704,-0.287745,-0.2103215,0.69923,-0.530455,0.1591584999999999,0.5684199999999999,-0.236022,0.3199585,0.7388600000000001,-0.378205,-0.1736315,0.90849,-0.7433150000000001,0.3892184999999999,0.8959600000000001,-0.555795,-0.0883185,-0.00916,-0.0107849999999999,0.0883185,0.00916,0.0107849999999999,-0.0707595,-0.26028,-0.347295,0.1568985,-0.2580699999999999,-0.300685,-0.1279715,-0.6320999999999999,-0.22277,0.1248185,-0.64802,-0.207031,1
131,0.0138935,0.76227,-0.3025799999999999,-0.1318885,0.51573,-0.27928,-0.2130584999999999,0.7125,-0.51746,0.1606915,0.57006,-0.227263,0.3193115,0.74675,-0.36934,-0.1787984999999999,0.92531,-0.7255199999999999,0.3857315,0.90628,-0.54514,-0.0877715,-0.0081099999999999,-0.01055,0.0877715,0.00811,0.01055,-0.0755335,-0.26742,-0.34103,0.1544714999999999,-0.2692299999999999,-0.2918699999999999,-0.1275385,-0.6454599999999999,-0.2243109999999999,0.1265915,-0.66383,-0.207648,1
132,0.012954,0.768785,-0.290245,-0.132973,0.521875,-0.271105,-0.214633,0.7254149999999999,-0.503735,0.1628369999999999,0.5714049999999999,-0.218849,0.319127,0.754215,-0.360925,-0.183863,0.942735,-0.707475,0.382527,0.914965,-0.535025,-0.087527,-0.0068849999999999,-0.0103049999999999,0.087527,0.006885,0.010305,-0.0809199999999999,-0.272385,-0.3348649999999999,0.1523469999999999,-0.279945,-0.283055,-0.126953,-0.659445,-0.225055,0.128967,-0.679045,-0.209143,1
133,0.0124475,0.774305,-0.278055,-0.1334455,0.529075,-0.2617049999999999,-0.2158155,0.737615,-0.490095,0.1654745,0.575205,-0.209368,0.3192845,0.759965,-0.352335,-0.1886955,0.957975,-0.6882349999999999,0.3797745,0.927485,-0.525115,-0.0873145,-0.005475,-0.009885,0.0873145,0.005475,0.009885,-0.0857705,-0.278355,-0.327845,0.1507945,-0.2923249999999999,-0.274045,-0.1256155,-0.673645,-0.224037,0.1317344999999999,-0.694555,-0.21007,1
134,0.0123054999999999,0.77784,-0.26636,-0.1337195,0.53556,-0.25311,-0.2169694999999999,0.7483099999999999,-0.47716,0.1677805,0.5774699999999999,-0.201121,0.3197804999999999,0.76429,-0.34398,-0.1928995,0.97151,-0.6700699999999999,0.3779105,0.93786,-0.5163800000000001,-0.0870705,-0.00426,-0.0093499999999999,0.0870705,0.0042599999999999,0.0093499999999999,-0.0898245,-0.28303,-0.32178,0.1498705,-0.30056,-0.26628,-0.1246295,-0.68774,-0.224034,0.1348705,-0.70858,-0.211362,1
135,0.012687,0.77837,-0.254625,-0.134504,0.5386200000000001,-0.244135,-0.217844,0.75585,-0.463835,0.170156,0.5787,-0.19363,0.320276,0.76765,-0.336015,-0.196584,0.98192,-0.653025,0.375976,0.94409,-0.508005,-0.0868859999999999,-0.0033499999999999,-0.009175,0.0868859999999999,0.00335,0.0091749999999999,-0.092957,-0.2879899999999999,-0.315355,0.149386,-0.30682,-0.2594349999999999,-0.123634,-0.69967,-0.224297,0.1378059999999999,-0.7212999999999999,-0.212282,1
136,0.0131574999999999,0.7776099999999999,-0.2419,-0.1353265,0.5426500000000001,-0.23452,-0.2192065,0.7643899999999999,-0.44875,0.1727735,0.5798300000000001,-0.185892,0.3209835,0.7706200000000001,-0.32822,-0.2006965,0.99377,-0.6336700000000001,0.3737035,0.95208,-0.49906,-0.0867074999999999,-0.0025899999999999,-0.00902,0.0867074999999999,0.00259,0.00902,-0.0969645,-0.29405,-0.30739,0.1490435,-0.31287,-0.25275,-0.1231464999999999,-0.7120899999999999,-0.224085,0.1407935,-0.73458,-0.212859,1
137,0.0138044999999999,0.7785,-0.2293029999999999,-0.1363295,0.5468500000000001,-0.224466,-0.2207895,0.77335,-0.4334949999999999,0.1761205,0.5807,-0.177942,0.3219805,0.77369,-0.320605,-0.2041595,1.0051100000000002,-0.6140749999999999,0.3719405,0.95907,-0.491025,-0.0863965,-0.0019299999999999,-0.0087949999999999,0.0863965,0.00193,0.008795,-0.1010565,-0.3003699999999999,-0.298995,0.1490305,-0.31894,-0.245495,-0.1230495,-0.72508,-0.2231759999999999,0.1433005,-0.74757,-0.2121569999999999,1
138,0.0146805,0.778075,-0.2180139999999999,-0.1369324999999999,0.550265,-0.215536,-0.2225025,0.781525,-0.41847,0.1779175,0.579555,-0.1719669999999999,0.3234574999999999,0.777095,-0.31421,-0.2066625,1.014885,-0.59517,0.3708174999999999,0.967225,-0.48444,-0.0860555,-0.0011849999999999,-0.0084699999999999,0.0860555,0.001185,0.00847,-0.1041864999999999,-0.3053349999999999,-0.29058,0.1496075,-0.323965,-0.23939,-0.1232425,-0.735665,-0.21999,0.1449075,-0.758035,-0.208172,1
139,0.015867,0.7774650000000001,-0.2058769999999999,-0.137038,0.554905,-0.205762,-0.224108,0.787595,-0.40398,0.179822,0.578485,-0.166006,0.324972,0.7787649999999999,-0.30745,-0.208788,1.024095,-0.57594,0.370032,0.977565,-0.47815,-0.085561,-0.0004149999999999,-0.0081499999999999,0.085561,0.0004149999999999,0.0081499999999999,-0.10681,-0.311025,-0.282,0.150532,-0.3289849999999999,-0.23337,-0.1233679999999999,-0.7437050000000001,-0.215893,0.146552,-0.7676050000000001,-0.203982,1
140,0.0166254999999999,0.7766149999999999,-0.194592,-0.1374995,0.559645,-0.196733,-0.2251695,0.794435,-0.389815,0.1813705,0.579195,-0.160553,0.3259805,0.780965,-0.300955,-0.2113594999999999,1.0316649999999998,-0.557105,0.3687505,0.987245,-0.472145,-0.0849805,0.0001349999999999,-0.007705,0.0849805,-0.0001349999999999,0.007705,-0.1098195,-0.315675,-0.273505,0.1504105,-0.333425,-0.227215,-0.1236195,-0.752325,-0.212302,0.1477105,-0.776215,-0.200317,1
141,0.0172245,0.77417,-0.182796,-0.1381495,0.56379,-0.1871729999999999,-0.2273295,0.80127,-0.374635,0.1827305,0.57909,-0.1543479999999999,0.3270305,0.78208,-0.2938349999999999,-0.2138195,1.03778,-0.536815,0.3675405,0.99609,-0.465205,-0.0843195,0.00029,-0.0069349999999999,0.0843195,-0.0002899999999999,0.0069349999999999,-0.1115895,-0.3260099999999999,-0.263465,0.1499105,-0.34376,-0.219715,-0.1237695,-0.76266,-0.208002,0.1482605,-0.78399,-0.1935279999999999,1
142,0.01792,0.77117,-0.170356,-0.138342,0.56891,-0.176296,-0.229422,0.80811,-0.359405,0.184658,0.58046,-0.148217,0.328178,0.78331,-0.286615,-0.216252,1.04339,-0.516305,0.366858,0.9993,-0.457575,-0.0842189999999999,0.0008199999999999,-0.0061049999999999,0.0842189999999999,-0.00082,0.0061049999999999,-0.1133019999999999,-0.33642,-0.252195,0.148178,-0.35417,-0.20931,-0.123702,-0.76997,-0.201612,0.147898,-0.79177,-0.184564,1
143,0.018246,0.7666299999999999,-0.152886,-0.138591,0.57146,-0.160223,-0.230871,0.81265,-0.337975,0.186039,0.57999,-0.136768,0.3289189999999999,0.78243,-0.274055,-0.218971,1.04788,-0.490315,0.3657189999999999,1.00093,-0.443345,-0.084147,0.00179,-0.0051749999999999,0.084147,-0.00179,0.0051749999999999,-0.115391,-0.3483699999999999,-0.233375,0.1459389999999999,-0.36622,-0.193497,-0.124051,-0.7790600000000001,-0.188109,0.1470489999999999,-0.80149,-0.170279,1
144,0.018731,0.7685150000000001,-0.135106,-0.13886,0.575095,-0.14248,-0.23289,0.8165450000000001,-0.315712,0.18719,0.578195,-0.124028,0.32975,0.779195,-0.259912,-0.22215,1.053525,-0.463762,0.36461,1.001465,-0.427902,-0.084127,0.002125,-0.003691,0.084127,-0.002125,0.003691,-0.11743,-0.360035,-0.210422,0.14337,-0.380685,-0.17345,-0.12473,-0.789025,-0.17193,0.14593,-0.811925,-0.154798,1
145,0.0195319999999999,0.771585,-0.1185259999999999,-0.139116,0.5784549999999999,-0.125195,-0.234836,0.8187249999999999,-0.295377,0.188174,0.576865,-0.111631,0.330894,0.7758349999999999,-0.2463369999999999,-0.224916,1.056645,-0.440177,0.363984,1.000015,-0.413167,-0.084078,0.0025199999999999,-0.002363,0.084078,-0.00252,0.002363,-0.118286,-0.3708749999999999,-0.189057,0.140824,-0.394505,-0.153573,-0.125126,-0.797255,-0.155574,0.1448839999999999,-0.8211050000000001,-0.13913,1
146,0.020271,0.772631,-0.1025465,-0.139569,0.582471,-0.1078385,-0.236859,0.816401,-0.2770145,0.188991,0.575361,-0.0994995,0.332341,0.771981,-0.2330645,-0.228129,1.055371,-0.4178644999999999,0.363811,0.998321,-0.3986145,-0.084041,0.00302,-0.0011385,0.084041,-0.0030199999999999,0.0011384999999999,-0.118849,-0.383409,-0.1674395,0.138171,-0.411499,-0.1334915,-0.125639,-0.805129,-0.1386625,0.143331,-0.831719,-0.1232285,1
147,0.0206734999999999,0.7741315,-0.0866975,-0.1404145,0.5867614999999999,-0.0903885,-0.2391944999999999,0.8123214999999999,-0.2584335,0.1895355,0.5739115,-0.0872995,0.3336055,0.7666115,-0.2200935,-0.2317245,1.0515915,-0.3965535,0.3633255,0.9918315,-0.3840535,-0.0839995,0.0035164999999999,0.0001255,0.0839995,-0.0035165,-0.0001254999999999,-0.1197345,-0.3948385,-0.1454555,0.1353754999999999,-0.4294285,-0.1132965,-0.1266145,-0.8128485000000001,-0.1217755,0.1415555,-0.8426385000000001,-0.1071564999999999,1
148,0.021096,0.7766795,-0.071997,-0.141348,0.5872094999999999,-0.07503,-0.242418,0.8044095,-0.240165,0.190022,0.5730795,-0.075465,0.335302,0.7578095,-0.207535,-0.2355779999999999,1.0428595,-0.375535,0.362762,0.9812795,-0.369695,-0.084146,0.0037745,0.001411,0.084146,-0.0037745,-0.001411,-0.120698,-0.4046905,-0.1241809999999999,0.132652,-0.4473605,-0.093429,-0.127638,-0.8196105,-0.104664,0.139682,-0.8525605,-0.090989,1
149,0.021525,0.779131,-0.0569295,-0.142416,0.5873109999999999,-0.0591755,-0.247596,0.793831,-0.2205375,0.190334,0.570931,-0.0637165,0.337504,0.747031,-0.1951574999999999,-0.239736,1.032081,-0.3543975,0.362324,0.970501,-0.3552175,-0.084285,0.0041199999999999,0.0026494999999999,0.084285,-0.0041199999999999,-0.0026494999999999,-0.121766,-0.4142789999999999,-0.1029964999999999,0.130514,-0.465239,-0.0737115,-0.128596,-0.8256990000000001,-0.0870845,0.138024,-0.8625390000000001,-0.0754145,1
150,0.0220674999999999,0.7840564999999999,-0.0425335,-0.1435075,0.5880265,-0.0436665,-0.2536375,0.7846865,-0.2027205,0.1906525,0.5698765,-0.0525425,0.3405825,0.7378865,-0.1834104999999999,-0.2439175,1.0229365,-0.3352104999999999,0.3627224999999999,0.9613565,-0.3408805,-0.0843685,0.0046485,0.0035595,0.0843685,-0.0046485,-0.0035595,-0.1222775,-0.4225235,-0.0827445,0.1286425,-0.4818535,-0.0551305,-0.1291975,-0.8302235,-0.0702135,0.1365625,-0.8715135,-0.0621494999999999,1
151,0.022501,0.7892695,-0.0293669999999999,-0.14423,0.5869795,-0.029885,-0.26108,0.7775295,-0.18542,0.1906199999999999,0.5648195,-0.0422019999999999,0.34505,0.7307295,-0.1724099999999999,-0.2485,1.0157795,-0.31639,0.36371,0.9541995,-0.32757,-0.084403,0.0048415,0.004213,0.084403,-0.0048415,-0.0042129999999999,-0.12253,-0.4315805,-0.064147,0.12782,-0.4964105,-0.039538,-0.12956,-0.8332805,-0.054084,0.1359199999999999,-0.8787005,-0.051745,1
152,0.023215,0.796942,-0.021639,-0.144673,0.587552,-0.021569,-0.269163,0.773242,-0.174701,0.190917,0.562252,-0.037272,0.350237,0.725782,-0.167111,-0.252503,1.011202,-0.303961,0.365287,0.947312,-0.3212609999999999,-0.084422,0.0044729999999999,0.0045769999999999,0.084422,-0.004473,-0.004577,-0.122393,-0.437248,-0.053319,0.127297,-0.508138,-0.029417,-0.129683,-0.833348,-0.045656,0.135647,-0.882848,-0.046836,1
153,0.023735,0.8001935,-0.0153544999999999,-0.145121,0.5874535000000001,-0.0155534999999999,-0.2789709999999999,0.7646935,-0.1653784999999999,0.1913989999999999,0.5620435,-0.0332905,0.355769,0.7193435,-0.1640085,-0.256281,1.0041635,-0.2935185,0.366799,0.9394135,-0.3166085,-0.084557,0.0045725,0.0046485,0.084557,-0.0045725,-0.0046484999999999,-0.122391,-0.4397665,-0.0476695,0.126859,-0.5112464999999999,-0.0237365,-0.129801,-0.8310365,-0.0398325,0.135349,-0.8849865,-0.0437324999999999,1
154,0.0236555,0.803467,-0.0091105,-0.1462525,0.586317,-0.0096235,-0.2896725,0.752467,-0.1563995,0.1915675,0.561197,-0.0289915,0.3609875,0.708407,-0.1607995,-0.2609324999999999,0.991677,-0.2826795,0.3677175,0.925837,-0.3118895,-0.0842614999999999,0.004723,0.0048615,0.0842614999999999,-0.0047229999999999,-0.0048614999999999,-0.1230225,-0.443053,-0.0412575,0.1263274999999999,-0.513363,-0.0178805,-0.1304825,-0.828753,-0.0345064999999999,0.1348175,-0.886183,-0.0408204999999999,1
155,0.02364,0.805537,-0.0027294999999999,-0.147384,0.586317,-0.0040465,-0.301404,0.735777,-0.1474495,0.191856,0.561197,-0.0244595,0.366386,0.694787,-0.1569195,-0.265234,0.976867,-0.2720595,0.368676,0.911737,-0.3071395,-0.084044,0.004723,0.0051135,0.084044,-0.0047229999999999,-0.0051135,-0.123774,-0.444733,-0.0354165,0.126136,-0.514953,-0.0112004999999999,-0.1311439999999999,-0.826833,-0.0298885,0.134316,-0.887033,-0.0381275,0
156,0.0236279999999999,0.807277,0.003413,-0.148406,0.586317,0.001236,-0.312536,0.714487,-0.139551,0.192224,0.561197,-0.019994,0.375704,0.674067,-0.152961,-0.270006,0.952237,-0.262181,0.3694039999999999,0.892467,-0.302521,-0.0838599999999999,0.004723,0.0052179999999999,0.0838599999999999,-0.0047229999999999,-0.005218,-0.124616,-0.444513,-0.029963,0.126024,-0.514953,-0.004987,-0.131866,-0.824923,-0.025491,0.133924,-0.886763,-0.034991,0
157,0.0235355,0.808687,0.0092835,-0.1497945,0.586317,0.0063364999999999,-0.3223844999999999,0.689577,-0.1319245,0.1926255,0.561197,-0.0152495,0.3836855,0.651787,-0.1487745,-0.2744945,0.925827,-0.2533245,0.3698355,0.869697,-0.2979745,-0.0837615,0.004723,0.0054385,0.0837615,-0.0047229999999999,-0.0054385,-0.1255244999999999,-0.444473,-0.0244794999999999,0.1256054999999999,-0.513363,0.0005054999999999,-0.1326145,-0.823133,-0.0215265,0.1334854999999999,-0.885913,-0.0315275,0
158,0.0232775,0.8105815,0.014625,-0.1513115,0.5847415,0.011283,-0.3300415,0.6620215,-0.124793,0.1929885,0.5609915,-0.010457,0.3903784999999999,0.6225115,-0.1434629999999999,-0.2786214999999999,0.8975115,-0.245553,0.3696285,0.8416615,-0.293273,-0.0837015,0.0047934999999999,0.0056869999999999,0.0837015,-0.0047934999999999,-0.0056869999999999,-0.1264914999999999,-0.4435785,-0.019262,0.1251585,-0.5124385,0.005693,-0.1335515,-0.8215884999999999,-0.01863,0.1329485,-0.8842785,-0.028248,0
159,0.022933,0.8119365,0.0193985,-0.152657,0.5828965,0.0159065,-0.337407,0.6342465,-0.1179035,0.193373,0.5607165,-0.0057114999999999,0.394683,0.5928065,-0.1382735,-0.283307,0.8633365,-0.2382935,0.3687629999999999,0.8129765,-0.2889735,-0.08371,0.0048535,0.0058475,0.08371,-0.0048535,-0.0058475,-0.127417,-0.4426735,-0.0146765,0.124893,-0.5138035,0.0104865,-0.134437,-0.8196035,-0.0150944999999999,0.132393,-0.8823835,-0.0248135,0
160,0.022504,0.8134565,0.0238075,-0.1539269999999999,0.5796665,0.0200075,-0.341207,0.6040865,-0.1106584999999999,0.193903,0.5602165,-0.0009985,0.396563,0.5629965,-0.1316985,-0.287367,0.8287065,-0.2329685,0.367963,0.7832765,-0.2849085,-0.083789,0.0048215,0.0060785,0.083789,-0.0048214999999999,-0.0060785,-0.128347,-0.4412335,-0.0103795,0.124633,-0.5155135,0.0146414999999999,-0.135297,-0.8176635,-0.0119935,0.1318929999999999,-0.8812935,-0.0219655,0
161,0.0220505,0.815135,0.027617,-0.1551275,0.576985,0.023811,-0.3421674999999999,0.574275,-0.102861,0.1945025,0.559695,0.0035639999999999,0.3966925,0.5334450000000001,-0.124661,-0.2909874999999999,0.792795,-0.228011,0.3671825,0.7530450000000001,-0.2806309999999999,-0.0838655,0.004759,0.0063869999999999,0.0838655,-0.0047589999999999,-0.006387,-0.1292375,-0.439635,-0.006313,0.1244424999999999,-0.516745,0.0184189999999999,-0.1359675,-0.815495,-0.008961,0.1315525,-0.880375,-0.019541,0
162,0.0217545,0.8174575000000001,0.0305475,-0.1562525,0.5743975,0.0272945,-0.3430325,0.5441075000000001,-0.0955945,0.1950075,0.5585875,0.0073575,0.3956874999999999,0.5030375,-0.1146644999999999,-0.2942125,0.7550075,-0.2238245,0.3663675,0.7210575,-0.2765545,-0.0839115,0.0046844999999999,0.0065795,0.0839115,-0.0046845,-0.0065795,-0.1303325,-0.4392925,-0.0026724999999999,0.1243875,-0.5174124999999999,0.0218665,-0.1365025,-0.8129925,-0.0061575,0.1313075,-0.8786625,-0.0172955,0
163,0.021586,0.8199015000000001,0.0330835,-0.1571739999999999,0.5718215,0.0307235,-0.343814,0.5125215,-0.0869335,0.195556,0.5574515,0.0108345,0.394796,0.4743115,-0.1039435,-0.296144,0.7177315000000001,-0.2213834999999999,0.364776,0.6888615,-0.2722335,-0.084039,0.0046305,0.0068105,0.084039,-0.0046304999999999,-0.0068105,-0.131134,-0.4388885,1.7500000000000154e-05,0.124426,-0.5188385,0.0250745,-0.136964,-0.8108084999999999,-0.0034415,0.131266,-0.8768684999999999,-0.0153605,0
164,0.021539,0.8223035000000001,0.0354415,-0.1578979999999999,0.5686534999999999,0.0338475,-0.343748,0.4814935,-0.0745855,0.196282,0.5562735000000001,0.0139835,0.393932,0.4468335,-0.0910695,-0.297528,0.6785635000000001,-0.2179895,0.362582,0.6544835,-0.2673195,-0.0841659999999999,0.0046064999999999,0.0070204999999999,0.0841659999999999,-0.0046064999999999,-0.0070204999999999,-0.131788,-0.4366565,0.0024285,0.124472,-0.5197965,0.0274375,-0.137278,-0.8081365,-0.0010975,0.131372,-0.8748165000000001,-0.0136885,0
165,0.0216745,0.8246475,0.03789,-0.1585945,0.5654975,0.036932,-0.3411745,0.4522675,-0.061203,0.1971454999999999,0.5552075000000001,0.017114,0.3926355,0.4255575,-0.078103,-0.2978345,0.6388775,-0.214562,0.3601355,0.6225175000000001,-0.2622819999999999,-0.0843075,0.0047045,0.007259,0.0843075,-0.0047045,-0.0072589999999999,-0.1323745,-0.4340125,0.004839,0.1245154999999999,-0.5206824999999999,0.029881,-0.1374345,-0.8054925,0.001335,0.1311355,-0.8712424999999999,-0.0103489999999999,0
166,0.0219679999999999,0.8269765,0.040213,-0.159236,0.5628065,0.039917,-0.334906,0.4258265,-0.0477819999999999,0.197994,0.5544665,0.020024,0.3890139999999999,0.4054665,-0.064307,-0.2980859999999999,0.5960965,-0.210807,0.357274,0.5885665,-0.256677,-0.084356,0.0045664999999999,0.007315,0.084356,-0.0045665,-0.0073149999999999,-0.133006,-0.4309535,0.007209,0.1243439999999999,-0.5178735,0.032276,-0.137676,-0.8031335000000001,0.0036829999999999,0.130944,-0.8677735,-0.007459,0
167,0.0224055,0.829033,0.042103,-0.1596065,0.559893,0.042308,-0.3236065,0.403603,-0.032939,0.1988135,0.553353,0.022696,0.3846135,0.386623,-0.049678,-0.2982765,0.5520229999999999,-0.207168,0.3541035,0.557203,-0.251508,-0.0843565,0.0044,0.0073219999999999,0.0843565,-0.0044,-0.0073219999999999,-0.1335565,-0.428307,0.009466,0.1240535,-0.512157,0.033936,-0.1378965,-0.801037,0.005832,0.1308035,-0.8645470000000001,-0.00468,0
168,0.023072,0.830737,0.0431764999999999,-0.159797,0.557087,0.0444554999999999,-0.311247,0.382487,-0.0176915,0.199633,0.552237,0.0251804999999999,0.375763,0.368997,-0.0398035,-0.297077,0.513067,-0.2038055,0.350303,0.523407,-0.2493755,-0.084361,0.0042039999999999,0.0073574999999999,0.084361,-0.0042039999999999,-0.0073574999999999,-0.134107,-0.425763,0.0114974999999999,0.123713,-0.511793,0.0355174999999999,-0.1381069999999999,-0.7989430000000001,0.0078014999999999,0.130653,-0.861203,-0.0017445,0
169,0.024036,0.8320815,0.043667,-0.159848,0.5557515000000001,0.046377,-0.299288,0.3664714999999999,-0.0034889999999999,0.200452,0.5511315,0.027439,0.364232,0.3548515,-0.027808,-0.295418,0.4688314999999999,-0.199229,0.346272,0.4922114999999999,-0.2446489999999999,-0.084405,0.0041085,0.00738,0.084405,-0.0041085,-0.0073799999999999,-0.134568,-0.4231385,0.013087,0.123412,-0.5124485,0.037218,-0.138268,-0.7970085,0.0095459999999999,0.130562,-0.8596984999999999,-0.000399,0
170,0.0254675,0.8330535,0.043406,-0.1598095,0.5544135,0.0479949999999999,-0.2872095,0.3521935,0.009947,0.2013005,0.5498435,0.029597,0.3527505,0.3418835,-0.0188029999999999,-0.2937195,0.4259935,-0.194465,0.3410205,0.4610535,-0.242025,-0.0844765,0.0040905,0.0073019999999999,0.0844765,-0.0040904999999999,-0.0073019999999999,-0.1349795,-0.4209665,0.0145779999999999,0.1230205,-0.5108765,0.03899,-0.1383295,-0.7952764999999999,0.0112979999999999,0.1304905,-0.8573765,0.001971,0
171,0.0273965,0.8335425,0.042406,-0.1596634999999999,0.5531925,0.049976,-0.2756935,0.3432325,0.022862,0.2021765,0.5489025,0.031816,0.3427165,0.3308725,-0.012747,-0.2908735,0.3809025,-0.185154,0.3344965,0.4336025,-0.239144,-0.0845505,0.0040774999999999,0.0070789999999999,0.0845505,-0.0040775,-0.007079,-0.1350235,-0.4192275,0.016112,0.1227465,-0.5098975,0.040872,-0.1382835,-0.7941775000000001,0.013117,0.1302265,-0.8557575000000001,0.004413,0
172,0.0295825,0.8337945,0.041098,-0.1591965,0.5522545,0.050849,-0.2649865,0.3367945,0.033729,0.2030935,0.5478744999999999,0.033946,0.3322235,0.3213645,-0.0078349999999999,-0.2874665,0.3375445,-0.1749359999999999,0.3278034999999999,0.4101545,-0.2369959999999999,-0.0846224999999999,0.0040474999999999,0.006727,0.0846224999999999,-0.0040475,-0.0067269999999999,-0.1349365,-0.4174755,0.017502,0.1229735,-0.5111355,0.042634,-0.1381365,-0.7935655,0.014886,0.1302235,-0.8552755,0.005912,0
173,0.031962,0.834022,0.039658,-0.158655,0.552152,0.051367,-0.256745,0.333722,0.039994,0.203895,0.546962,0.035986,0.322995,0.313682,-0.0065029999999999,-0.283755,0.295672,-0.162905,0.321095,0.391342,-0.235535,-0.084696,0.0039919999999999,0.006256,0.084696,-0.003992,-0.0062559999999999,-0.134795,-0.415788,0.018829,0.1231749999999999,-0.5110480000000001,0.044296,-0.137985,-0.791638,0.016865,0.130105,-0.854568,0.00771,0
174,0.0344805,0.834058,0.0383555,-0.1582695,0.552238,0.0514935,-0.2488495,0.330848,0.0446405,0.2043704999999999,0.546028,0.0378885,0.3150405,0.306198,-0.0051954999999999,-0.2801295,0.258878,-0.1505125,0.3142705,0.374828,-0.2341725,-0.0847475,0.004004,0.0056564999999999,0.0847475,-0.004004,-0.0056565,-0.1344195,-0.413952,0.0200324999999999,0.1231305,-0.509532,0.0458564999999999,-0.1376795,-0.790552,0.0185485,0.1304205,-0.854152,0.0092284999999999,0
175,0.0369494999999999,0.833689,0.0370039999999999,-0.1578665,0.552489,0.051259,-0.2439865,0.3268189999999999,0.04849,0.2046335,0.545199,0.039642,0.3082635,0.298199,-0.004012,-0.2769264999999999,0.223599,-0.1369179999999999,0.3060235,0.3613189999999999,-0.233728,-0.0847235,0.004179,0.0050619999999999,0.0847235,-0.004179,-0.005062,-0.1341365,-0.412621,0.020938,0.1230834999999999,-0.509891,0.047227,-0.1374365,-0.790051,0.0199719999999999,0.1305535,-0.853391,0.0114769999999999,0
176,0.039299,0.8332499999999999,0.0356345,-0.1574749999999999,0.55276,0.0507115,-0.242765,0.3211199999999999,0.0500595,0.2048249999999999,0.54455,0.0413515,0.3014949999999999,0.29432,-0.0036705,-0.274105,0.19117,-0.1236324999999999,0.297635,0.34872,-0.2349325,-0.084692,0.00434,0.0043974999999999,0.084692,-0.0043399999999999,-0.0043974999999999,-0.133955,-0.41179,0.0218095,0.122915,-0.50909,0.0485055,-0.137355,-0.7893600000000001,0.0214375,0.130605,-0.8526400000000001,0.0137715,0
177,0.041467,0.833024,0.034655,-0.157192,0.552994,0.050126,-0.242522,0.315184,0.051548,0.204998,0.544064,0.043012,0.295778,0.290634,-0.0043769999999999,-0.272892,0.159166,-0.109317,0.290128,0.341794,-0.237777,-0.084668,0.004478,0.003765,0.084668,-0.0044779999999999,-0.0037649999999999,-0.133792,-0.410636,0.022621,0.122748,-0.5077860000000001,0.049735,-0.137282,-0.788516,0.022799,0.130768,-0.851886,0.015516,0
178,0.043401,0.83286,0.0339885,-0.1568999999999999,0.55321,0.0493295,-0.24231,0.30874,0.0530584999999999,0.2051,0.54375,0.0446504999999999,0.2935999999999999,0.28742,-0.0065475,-0.2721,0.1366089999999999,-0.0954485,0.28156,0.33547,-0.2413185,-0.084641,0.0045709999999999,0.0031165,0.084641,-0.004571,-0.0031165,-0.13365,-0.40941,0.0233115,0.12289,-0.50641,0.0509935,-0.13723,-0.7874099999999999,0.0241884999999999,0.13092,-0.851,0.0170705,0
179,0.0449829999999999,0.8329004999999999,0.033814,-0.156616,0.5534205,0.048624,-0.242126,0.3020805,0.053906,0.205114,0.5435605,0.046195,0.292354,0.2849705,-0.0107269999999999,-0.271606,0.1142835,-0.0805099999999999,0.2742639999999999,0.3320904999999999,-0.24437,-0.08463,0.0046214999999999,0.002517,0.08463,-0.0046215,-0.0025169999999999,-0.133536,-0.4084695,0.02382,0.123064,-0.5051895000000001,0.05219,-0.137136,-0.7864795,0.025502,0.131084,-0.8500995,0.018479,0
180,0.0460659999999999,0.8331355,0.0341605,-0.156411,0.5535355,0.0479525,-0.242141,0.2948555,0.0539045,0.205009,0.5435555,0.0474885,0.291499,0.2848954999999999,-0.0146945,-0.271661,0.0991745,-0.0691765,0.268939,0.3295455,-0.2476365,-0.084605,0.0046374999999999,0.0020605,0.084605,-0.0046375,-0.0020605,-0.133451,-0.4083745,0.0239955,0.123189,-0.5040945000000001,0.0530365,-0.137101,-0.7850945,0.0266605,0.131249,-0.8500445000000001,0.0193235,0
181,0.0470005,0.8333714999999999,0.0346634999999999,-0.1562365,0.5535415,0.0475954999999999,-0.2422065,0.2879115,0.0536435,0.2047735,0.5436015,0.0487185,0.2917435,0.2851015,-0.0161795,-0.2719364999999999,0.0852735,-0.0579305,0.2638835,0.3269715,-0.2490605,-0.0845805,0.0046134999999999,0.0016274999999999,0.0845805,-0.0046135,-0.0016275,-0.1334064999999999,-0.4086984999999999,0.0240694999999999,0.1232935,-0.5036785,0.0541524999999999,-0.1370865,-0.7840785,0.0277444999999999,0.1313935,-0.8495385000000001,0.0201154999999999,0
182,0.047708,0.833487,0.0353324999999999,-0.156278,0.553507,0.0473904999999999,-0.242228,0.2817469999999999,0.0535294999999999,0.204462,0.543607,0.0499525,0.291882,0.285327,-0.0170705,-0.272288,0.074047,-0.0481995,0.259632,0.324047,-0.2500285,-0.084546,0.004638,0.0012524999999999,0.084546,-0.0046379999999999,-0.0012525,-0.133318,-0.409223,0.0238424999999999,0.123422,-0.503793,0.0552354999999999,-0.137068,-0.783153,0.0286564999999999,0.131532,-0.8491230000000001,0.0208564999999999,0
183,0.048138,0.833594,0.036104,-0.156489,0.553414,0.047123,-0.2423989999999999,0.2761139999999999,0.053373,0.204001,0.543694,0.051105,0.292001,0.285854,-0.016577,-0.272639,0.063886,-0.038569,0.255461,0.323924,-0.249641,-0.08451,0.00461,0.000988,0.08451,-0.00461,-0.000988,-0.133259,-0.409666,0.023423,0.123541,-0.502936,0.055724,-0.137059,-0.782296,0.029343,0.131911,-0.848566,0.021451,0
184,0.0485014999999999,0.8337305,0.036895,-0.1568515,0.5533205,0.0469579999999999,-0.2426415,0.2717005,0.0534869999999999,0.2035585,0.5438505,0.0522319999999999,0.2922385,0.2853205,-0.018566,-0.2728815,0.0563975,-0.030782,0.2532085,0.3229005,-0.250736,-0.0844755,0.0045485,0.0007379999999999,0.0844755,-0.0045484999999999,-0.000738,-0.1332315,-0.4099895,0.0230969999999999,0.1236884999999999,-0.5018795,0.0562509999999999,-0.1369315,-0.7816795,0.0299659999999999,0.1322984999999999,-0.8478895,0.0220379999999999,0
185,0.048847,0.8338975,0.0376575,-0.157269,0.5531975,0.0469145,-0.243089,0.2689074999999999,0.0538965,0.203091,0.5439475,0.0533654999999999,0.292411,0.2851775,-0.0187285,-0.274049,0.0508704999999999,-0.0235245,0.251381,0.3223675,-0.2507445,-0.0844449999999999,0.0045284999999999,0.0005634999999999,0.0844449999999999,-0.0045285,-0.0005635,-0.133229,-0.4102125,0.0226904999999999,0.1237709999999999,-0.5008725,0.0566915,-0.136799,-0.7813224999999999,0.0304324999999999,0.132631,-0.8472824999999999,0.0228495,0
186,0.049171,0.8339479999999999,0.038284,-0.157495,0.5531079999999999,0.0468849999999999,-0.243765,0.266688,0.054471,0.202755,0.543928,0.054429,0.292435,0.284588,-0.0183079999999999,-0.275325,0.047182,-0.018192,0.249455,0.322648,-0.251256,-0.0844139999999999,0.004526,0.000403,0.0844139999999999,-0.0045259999999999,-0.000403,-0.133265,-0.410402,0.022187,0.1238749999999999,-0.500362,0.056761,-0.136625,-0.7819020000000001,0.0308039999999999,0.132795,-0.847002,0.0235639999999999,0
187,0.0494705,0.833955,0.038744,-0.1577355,0.552975,0.046849,-0.2445055,0.265155,0.05479,0.2024945,0.543935,0.055486,0.2926345,0.2837849999999999,-0.0183419999999999,-0.2767655,0.0447439999999999,-0.014058,0.2485244999999999,0.323265,-0.2508629999999999,-0.0843815,0.0045439999999999,0.0002529999999999,0.0843815,-0.004544,-0.000253,-0.1333455,-0.410255,0.021671,0.1239745,-0.5004350000000001,0.0567099999999999,-0.1365154999999999,-0.781085,0.0312739999999999,0.1329445,-0.846855,0.024211,0
188,0.0497195,0.833909,0.039194,-0.1579395,0.552859,0.046784,-0.2452595,0.264119,0.054965,0.2022405,0.544009,0.056407,0.2927305,0.283119,-0.017541,-0.2783095,0.043569,-0.0118729999999999,0.2470705,0.3234289999999999,-0.249044,-0.0843575,0.004552,0.0001789999999999,0.0843575,-0.004552,-0.0001789999999999,-0.1334795,-0.410971,0.021374,0.1241904999999999,-0.500471,0.0565009999999999,-0.1363295,-0.780961,0.0315929999999999,0.1331304999999999,-0.846731,0.024585,0
189,0.0500045,0.8337635000000001,0.0395255,-0.1581985,0.5527335,0.0467385,-0.2460785,0.2636235,0.0549345,0.2019615,0.5440834999999999,0.0572155,0.2922515,0.2831935,-0.0175945,-0.2803485,0.0434955,-0.0115284999999999,0.2448015,0.3237835,-0.2488795,-0.0843525,0.0045255,9.649999999999936e-05,0.0843525,-0.0045254999999999,-9.649999999999936e-05,-0.1336385,-0.4114665,0.0211205,0.1242715,-0.5002065,0.0561585,-0.1362485,-0.7819765000000001,0.0315045,0.1332715,-0.8465065,0.0250195,0
190,0.050286,0.8336225,0.0398305,-0.158339,0.5527325000000001,0.0467665,-0.247079,0.2634925,0.0550285,0.201681,0.5441024999999999,0.0579825,0.292351,0.2832725,-0.0166715,-0.2828589999999999,0.0435745,-0.0116245,0.243741,0.3237025,-0.2477035,-0.084348,0.0044855,6.149999999999906e-05,0.084348,-0.0044855,-6.149999999999906e-05,-0.133769,-0.4115075,0.0208845,0.1243709999999999,-0.4994975,0.0557165,-0.136239,-0.7828375,0.0314534999999999,0.1333909999999999,-0.8461675,0.0254625,0
191,0.05046,0.833547,0.0408034999999999,-0.158571,0.5525070000000001,0.0467844999999999,-0.2490609999999999,0.2595469999999999,0.0575494999999999,0.201119,0.544447,0.0602474999999999,0.293379,0.283077,-0.0163515,-0.283741,0.037535,-0.0037405,0.243249,0.325667,-0.2466074999999999,-0.084271,0.004317,-0.0002965,0.084271,-0.004317,0.0002964999999999,-0.133841,-0.411653,0.0201065,0.1242789999999999,-0.4954729999999999,0.0553144999999999,-0.135731,-0.788453,0.0315754999999999,0.134359,-0.845833,0.0232264999999999,0
192,0.0508179999999999,0.8335625,0.0408969999999999,-0.1585099999999999,0.5524225,0.0466249999999999,-0.24923,0.2601525,0.057518,0.201,0.5445725,0.0604149999999999,0.2924699999999999,0.2836325,-0.0163579999999999,-0.28781,0.0393725,-0.006189,0.2391,0.3246425,-0.246157,-0.084375,0.0042325,-0.000209,0.084375,-0.0042325,0.0002089999999999,-0.13388,-0.4096375,0.0199969999999999,0.1245,-0.4954774999999999,0.0552709999999999,-0.1353099999999999,-0.7881975000000001,0.0314799999999999,0.13344,-0.8450875,0.0284809999999999,0
193,0.0510204999999999,0.8330145,0.0415689999999999,-0.1591775,0.5522345,0.046851,-0.2498375,0.2605245,0.0574079999999999,0.2007225,0.5441445,0.0607399999999999,0.2889325,0.2811545,-0.013228,-0.2927875,0.0415264999999999,-0.010127,0.2295225,0.3298945,-0.252587,-0.0843955,0.0043754999999999,-7.400000000000462e-05,0.0843955,-0.0043755,7.399999999999768e-05,-0.1339175,-0.4087355,0.0201249999999999,0.1245225,-0.4977954999999999,0.0552229999999999,-0.1352575,-0.7881755,0.0312949999999999,0.1333825,-0.8450354999999999,0.0285859999999999,0
194,0.051271,0.832733,0.0417339999999999,-0.1589529999999999,0.552413,0.046832,-0.251313,0.262633,0.056225,0.200537,0.544223,0.061237,0.290497,0.280453,-0.016728,-0.295263,0.044361,-0.013329,0.226587,0.322163,-0.2436209999999999,-0.084336,0.004519,-0.000246,0.084336,-0.0045189999999999,0.0002459999999999,-0.134323,-0.4033569999999999,0.0190619999999999,0.124687,-0.4977170000000001,0.0548709999999999,-0.137043,-0.775767,0.0345049999999999,0.133627,-0.844867,0.0288439999999999,0
195,0.0515395,0.8328845,0.0414134999999999,-0.1590665,0.5528845,0.0469244999999999,-0.2515465,0.2643145,0.0556654999999999,0.1998835,0.5446345,0.0612065,0.2896635,0.2808144999999999,-0.0164665,-0.2969465,0.0475665,-0.0182225,0.2290535,0.3227145,-0.2442544999999999,-0.0844465,0.0043195,5.3499999999998e-05,0.0844465,-0.0043194999999999,-5.350000000000493e-05,-0.1348765,-0.4121655,0.0214184999999999,0.1248034999999999,-0.4972155,0.0543255,-0.1367565,-0.7757155,0.0339484999999999,0.1341435,-0.8444055,0.0283134999999999,0
196,0.051848,0.832827,0.0422415,-0.1594529999999999,0.552787,0.0467065,-0.251583,0.265537,0.0545815,0.199237,0.545117,0.0615475,0.2885069999999999,0.280717,-0.0161624999999999,-0.298133,0.050156,-0.0230305,0.231037,0.323687,-0.2445725,-0.084518,0.0042299999999999,0.0001875,0.084518,-0.0042299999999999,-0.0001875,-0.134783,-0.409973,0.0210495,0.124837,-0.4987929999999999,0.0537524999999999,-0.136293,-0.785513,0.0306044999999999,0.134137,-0.845793,0.0261224999999999,0
197,0.0539505,0.832827,0.0439395,-0.1579495,0.553407,0.0469575,-0.2508995,0.266857,0.0539185,0.2006305,0.544287,0.0623635,0.2883405,0.279127,-0.0152805,-0.2982495,0.053646,-0.0298135,0.2366305,0.324867,-0.2445375,-0.0844854999999999,0.004336,0.0002544999999999,0.0844854999999999,-0.0043359999999999,-0.0002545,-0.1354095,-0.409203,0.0206834999999999,0.1223404999999999,-0.4832829999999999,0.0522175,-0.1377995,-0.7850729999999999,0.0304855,0.1321004999999999,-0.839873,0.0310865,0
