sb224sc-HT22-VT27/4dt907/src/data/labeled_files/A105_kinect.csv
FrameNo,nose_3d_x,nose_3d_y,nose_3d_z,left_shoulder_3d_x,left_shoulder_3d_y,left_shoulder_3d_z,left_elbow_3d_x,left_elbow_3d_y,left_elbow_3d_z,right_shoulder_3d_x,right_shoulder_3d_y,right_shoulder_3d_z,right_elbow_3d_x,right_elbow_3d_y,right_elbow_3d_z,left_wrist_3d_x,left_wrist_3d_y,left_wrist_3d_z,right_wrist_3d_x,right_wrist_3d_y,right_wrist_3d_z,left_hip_3d_x,left_hip_3d_y,left_hip_3d_z,right_hip_3d_x,right_hip_3d_y,right_hip_3d_z,left_knee_3d_x,left_knee_3d_y,left_knee_3d_z,right_knee_3d_x,right_knee_3d_y,right_knee_3d_z,left_ankle_3d_x,left_ankle_3d_y,left_ankle_3d_z,right_ankle_3d_x,right_ankle_3d_y,right_ankle_3d_z,activity_label
0,-0.0148399999999999,0.758721,0.1185795,-0.173338,0.556241,0.0999295,-0.242828,0.832941,0.0275395,0.171352,0.552961,0.1349545,0.286532,0.792531,0.0902065,-0.236488,1.0964310000000002,-0.0124484999999999,0.320142,1.036631,0.0231205,-0.077482,0.00188,0.0014815,0.077482,-0.00188,-0.0014814999999999,-0.1245479999999999,-0.475289,-0.0245344999999999,0.114772,-0.527199,0.0435075,-0.126918,-0.871079,0.0048125,0.129672,-0.920199,0.0408795,0
1,-0.0144024999999999,0.7582264999999999,0.1191055,-0.1730585,0.5550164999999999,0.0997815,-0.2421285,0.8105665,0.0349165,0.1704815,0.5528465,0.1350315,0.2854215,0.7917664999999999,0.0897375,-0.2395685,1.1026865,-0.0074144999999999,0.3187215,1.0345865,0.0231945,-0.0772085,0.0016675,0.0021115,0.0772085,-0.0016675,-0.0021114999999999,-0.1246984999999999,-0.4753334999999999,-0.0256715,0.1141515,-0.5268735,0.0437205,-0.1274785,-0.8731035,0.0036945,0.1232415,-0.8547835,0.0318245,1
2,-0.01478,0.758034,0.1195015,-0.1732,0.554564,0.0999805,-0.24276,0.810244,0.0347965,0.16968,0.552984,0.1357205,0.2843799999999999,0.791354,0.0901015,-0.24065,1.099434,-0.0065414999999999,0.3177,1.034734,0.0231395,-0.0775619999999999,0.001687,0.0020024999999999,0.0775619999999999,-0.001687,-0.0020024999999999,-0.12503,-0.474286,-0.0257505,0.1135799999999999,-0.527266,0.0420165,-0.12796,-0.873626,0.0034264999999999,0.12699,-0.922786,0.0367015,1
3,-0.0148534999999999,0.7580104999999999,0.119842,-0.1729065,0.5546105,0.100189,-0.2428165,0.8095005,0.034633,0.1688935,0.5520204999999999,0.1352,0.2831635,0.7909204999999999,0.09033,-0.2409565,1.0981005,-0.006399,0.3171635,1.0349005,0.022419,-0.0775605,0.0018015,0.00193,0.0775605,-0.0018015,-0.00193,-0.1249865,-0.4741795,-0.02597,0.1153335,-0.5272795,0.042025,-0.1251165,-0.8866195,-0.0075189999999999,0.1261435,-0.9216095,0.041138,1
4,-0.014488,0.75398,0.120878,-0.173306,0.55401,0.1006199999999999,-0.245226,0.82726,0.0299769999999999,0.168804,0.55231,0.135146,0.282284,0.7909799999999999,0.0902319999999999,-0.2412659999999999,1.09656,-0.006018,0.315714,1.03456,0.0220769999999999,-0.077427,0.00179,0.0021479999999999,0.077427,-0.00179,-0.002148,-0.124976,-0.4750999999999999,-0.026134,0.115084,-0.5273800000000001,0.0411769999999999,-0.126626,-0.87926,-0.004231,0.1259839999999999,-0.92114,0.0411599999999999,1
5,-0.0147704999999999,0.7531800000000001,0.1216484999999999,-0.1780165,0.55184,0.0957835,-0.2457065,0.82957,0.0296005,0.1686135,0.5526500000000001,0.1351495,0.2819135,0.7914800000000001,0.0899254999999999,-0.2420665,1.09556,-0.0056435,0.3153134999999999,1.03486,0.0216244999999999,-0.0773534999999999,0.0018089999999999,0.0021404999999999,0.0773534999999999,-0.0018089999999999,-0.0021405,-0.1250865,-0.47471,-0.0263485,0.1150035,-0.5274399999999999,0.0409205,-0.1268365,-0.87691,-0.0031764999999999,0.1248635,-0.91961,0.0425765,1
6,-0.0158665,0.756273,0.1208905,-0.1802325,0.551423,0.0936675,-0.2462825,0.822583,0.0313925,0.1680275,0.5529329999999999,0.1350935,0.2809175,0.7919029999999999,0.0896325,-0.2436825,1.097753,-0.0072274999999999,0.3142675,1.035253,0.0211595,-0.0776685,0.001938,0.0018444999999999,0.0776685,-0.001938,-0.0018444999999999,-0.1252525,-0.479197,-0.0254565,0.1144575,-0.5277270000000001,0.0405875,-0.1273625,-0.877067,-0.0026804999999999,0.1237774999999999,-0.920867,0.0411225,1
7,-0.0178685,0.7573150000000001,0.1208635,-0.1809325,0.553465,0.0958175,-0.2491924999999999,0.8173750000000001,0.0301544999999999,0.1666075,0.553675,0.1351675,0.2794375,0.7927350000000001,0.0887795,-0.2451625,1.095645,-0.0113805,0.3138975,1.033845,0.0199644999999999,-0.0773425,0.001101,0.0015764999999999,0.0773425,-0.001101,-0.0015765,-0.1255525,-0.478325,-0.0262325,0.1138375,-0.527185,0.0395154999999999,-0.1284124999999999,-0.875015,0.0006024999999999,0.1261074999999999,-0.921755,0.0359685,1
8,-0.018256,0.7567495,0.121125,-0.182099,0.5531794999999999,0.095689,-0.250409,0.8155495,0.029872,0.166091,0.5540695,0.135224,0.278591,0.7932095,0.088582,-0.246259,1.0954795000000002,-0.0116519999999999,0.313521,1.0335795,0.019481,-0.077274,0.0009355,0.001445,0.077274,-0.0009354999999999,-0.0014449999999999,-0.125709,-0.4789905,-0.026414,0.113711,-0.5271605,0.039124,-0.128779,-0.8751405,0.000387,0.125831,-0.9219905,0.035037,1
9,-0.0187615,0.7561635,0.121314,-0.1833165,0.5528935,0.095473,-0.2516465,0.8154035000000001,0.029356,0.1655435,0.5544935,0.1353099999999999,0.2777435,0.7936935,0.08837,-0.2474065,1.0949335,-0.012745,0.3131334999999999,1.0333335,0.018615,-0.0771935,0.0007894999999999,0.001312,0.0771935,-0.0007895,-0.001312,-0.1258065,-0.4792365,-0.026564,0.1135035,-0.5271565,0.038782,-0.1292065,-0.8755865,0.0001979999999999,0.1256435,-0.9231765,0.034879,1
10,-0.019353,0.7556375,0.121593,-0.184068,0.5526475,0.095332,-0.252978,0.8154375,0.0287079999999999,0.164932,0.5550575,0.135593,0.276842,0.7943574999999999,0.0881629999999999,-0.248638,1.0945675,-0.014186,0.312652,1.0330675,0.01764,-0.077105,0.0006995,0.0011849999999999,0.077105,-0.0006995,-0.0011849999999999,-0.125948,-0.4797225,-0.026712,0.1131619999999999,-0.5271425000000001,0.038615,-0.129708,-0.8757725000000001,1.6000000000002124e-05,0.125042,-0.9221025,0.035485,1
11,-0.0200065,0.755168,0.121845,-0.1846845,0.552418,0.095168,-0.2543944999999999,0.815548,0.028014,0.1642655,0.555728,0.136047,0.2759355,0.795068,0.087943,-0.2499645,1.094178,-0.0159349999999999,0.3121254999999999,1.0326780000000002,0.016534,-0.0770065,0.0005939999999999,0.0010669999999999,0.0770065,-0.0005939999999999,-0.0010669999999999,-0.1260945,-0.480302,-0.026963,0.1128255,-0.527082,0.038456,-0.1303745,-0.875502,0.000341,0.1246355,-0.921262,0.035425,1
12,-0.0207024999999999,0.755073,0.122137,-0.1853385,0.552333,0.095022,-0.2556085,0.814213,0.027476,0.1635415,0.556033,0.136561,0.2751714999999999,0.795363,0.087786,-0.2512585,1.093583,-0.017568,0.3117014999999999,1.0324829999999998,0.015552,-0.0769125,0.0004139999999999,0.0009279999999999,0.0769125,-0.000414,-0.0009279999999999,-0.1259385,-0.480877,-0.0275069999999999,0.1124715,-0.526917,0.038339,-0.1309685,-0.875297,0.0003789999999999,0.1239815,-0.919797,0.034207,1
13,-0.021504,0.755095,0.122386,-0.186139,0.552535,0.095271,-0.256929,0.812955,0.02685,0.162711,0.556355,0.137124,0.274381,0.795665,0.08759,-0.252739,1.093045,-0.019357,0.311231,1.032445,0.014504,-0.076852,0.0001759999999999,0.000703,0.076852,-0.0001759999999999,-0.000703,-0.125819,-0.481365,-0.0279229999999999,0.112141,-0.526695,0.038074,-0.131659,-0.875035,0.000271,0.1236409999999999,-0.919455,0.033396,1
14,-0.0222379999999999,0.755234,0.1221559999999999,-0.1866469999999999,0.552594,0.0955449999999999,-0.258197,0.812504,0.025939,0.161883,0.555974,0.13748,0.2735329999999999,0.7952940000000001,0.087325,-0.254357,1.092494,-0.021262,0.310803,1.0322939999999998,0.0133619999999999,-0.076827,7.600000000000011e-05,0.000403,0.076827,-7.600000000000011e-05,-0.000403,-0.1256769999999999,-0.482546,-0.028309,0.111813,-0.5266959999999999,0.0379139999999999,-0.132387,-0.874646,0.0002069999999999,0.123403,-0.917966,0.033044,1
15,-0.0227715,0.755213,0.1218829999999999,-0.1870494999999999,0.552573,0.0957099999999999,-0.2594595,0.812433,0.024859,0.1611305,0.5559729999999999,0.137747,0.2726105,0.795283,0.087016,-0.2561295,1.092223,-0.023278,0.3105605,1.032223,0.012137,-0.0768365,5.00000000000023e-06,0.0,0.0768365,-4.999999999999796e-06,0.0,-0.1255495,-0.483357,-0.0289289999999999,0.1114604999999999,-0.526657,0.037766,-0.1332195,-0.874567,8.99999999999998e-05,0.1229505,-0.917017,0.032712,1
16,-0.023369,0.7551895,0.121485,-0.187491,0.5525194999999999,0.0955719999999999,-0.260791,0.8123695,0.0236629999999999,0.160379,0.5559695,0.137867,0.271679,0.7952795,0.086586,-0.258021,1.0919595,-0.02535,0.3102589999999999,1.0321595,0.0107929999999999,-0.076846,-5.849999999999996e-05,-0.0003849999999999,0.076846,5.849999999999996e-05,0.0003849999999999,-0.125381,-0.4844605,-0.029521,0.1111389999999999,-0.5264205000000001,0.037582,-0.134041,-0.8746305,-0.00022,0.122319,-0.9170805,0.03231,1
17,-0.023848,0.755061,0.1210665,-0.187712,0.553051,0.0955975,-0.262192,0.8119209999999999,0.0218995,0.159678,0.557241,0.1379155,0.270788,0.7965209999999999,0.0856855,-0.260112,1.091201,-0.0280955,0.309898,1.032801,0.0089475,-0.076873,-9.099999999999994e-05,-0.0007745,0.076873,9.099999999999994e-05,0.0007745,-0.125072,-0.485029,-0.0304024999999999,0.110908,-0.526509,0.0375085,-0.134662,-0.874549,-0.0003294999999999,0.1213179999999999,-0.915529,0.0327725,1
18,-0.0242385,0.754853,0.1205695,-0.1878185,0.553603,0.0954875,-0.2634385,0.811673,0.0200964999999999,0.1590715,0.558423,0.1378595,0.2699915,0.797783,0.0847485,-0.2620485,1.090563,-0.0307935,0.3094115,1.033563,0.0072724999999999,-0.0769334999999999,-0.0001199999999999,-0.0011854999999999,0.0769334999999999,0.00012,0.0011854999999999,-0.1248384999999999,-0.485547,-0.0312845,0.1107615,-0.526627,0.0374185,-0.1351885,-0.874257,-0.0004865,0.1206815,-0.916167,0.0333935,1
19,-0.02454,0.754607,0.1199785,-0.187869,0.554187,0.0952695,-0.264589,0.811507,0.0184054999999999,0.158541,0.5594870000000001,0.1374185,0.269291,0.799117,0.0837435,-0.263799,1.089927,-0.0334745,0.308941,1.034527,0.0056294999999999,-0.077014,-0.0001249999999999,-0.0016385,0.077014,0.000125,0.0016384999999999,-0.124599,-0.4857729999999999,-0.0321635,0.110801,-0.5270429999999999,0.0370254999999999,-0.1356689999999999,-0.8733529999999999,-0.0005075,0.1198809999999999,-0.915223,0.0335935,1
20,-0.0247445,0.754357,0.1192915,-0.1878274999999999,0.554647,0.0949075,-0.2655675,0.811547,0.0167135,0.1580825,0.560427,0.1369044999999999,0.2687925,0.800327,0.0826875,-0.2651575,1.089307,-0.0361705,0.3085325,1.035907,0.0040474999999999,-0.0770734999999999,-0.0001239999999999,-0.0021115,0.0770734999999999,0.0001239999999999,0.0021114999999999,-0.1244174999999999,-0.486193,-0.0330405,0.1105425,-0.5272429999999999,0.0365335,-0.1360575,-0.8725029999999999,-0.0007075,0.1192425,-0.914383,0.0335045,1
21,-0.0246855,0.754373,0.1185355,-0.1877245,0.555233,0.0944475,-0.2663345,0.811613,0.0150695,0.1576955,0.561403,0.1364064999999999,0.2685355,0.8015829999999999,0.0815695,-0.2662245,1.088773,-0.0387334999999999,0.3082455,1.037073,0.0024904999999999,-0.0771485,-0.0001109999999999,-0.0025764999999999,0.0771485,0.0001109999999999,0.0025764999999999,-0.1245145,-0.485827,-0.0339734999999999,0.1103555,-0.527477,0.0360455,-0.1364145,-0.871577,-0.0009825,0.1187055,-0.913397,0.0334565,1
22,-0.0243839999999999,0.7548404999999999,0.117644,-0.187469,0.5557705,0.094038,-0.266909,0.8116005,0.0134399999999999,0.1574009999999999,0.5621904999999999,0.135939,0.268561,0.8026804999999999,0.080412,-0.266999,1.0879105,-0.041169,0.308091,1.0381105000000002,0.0009399999999999,-0.077204,2.849999999999988e-05,-0.002961,0.077204,-2.849999999999988e-05,0.0029609999999999,-0.1245989999999999,-0.4855395,-0.035069,0.110201,-0.5278995000000001,0.035598,-0.136569,-0.8709695000000001,-0.00134,0.118391,-0.9127895,0.0333959999999999,1
23,-0.02393,0.7553315,0.1167494999999999,-0.1874259999999999,0.5563115000000001,0.0936525,-0.267376,0.8115015,0.0118265,0.157214,0.5628915,0.1352685,0.268824,0.8036015,0.0792075,-0.267436,1.0869415,-0.0437545,0.308234,1.0390415,-0.0007255,-0.077239,0.0001294999999999,-0.0033054999999999,0.077239,-0.0001295,0.0033054999999999,-0.124696,-0.4848785,-0.0362125,0.110054,-0.5283285,0.0347025,-0.136666,-0.8713385,-0.0017394999999999,0.118184,-0.9128885,0.0329865,1
24,-0.023313,0.7559275,0.1157745,-0.187247,0.5569075,0.0932774999999999,-0.267617,0.8107575,0.0102515,0.157113,0.5635074999999999,0.1345445,0.269223,0.8043175,0.0779064999999999,-0.267587,1.0862875,-0.0462735,0.308703,1.0394875,-0.0024985,-0.077246,0.0003034999999999,-0.0035405,0.077246,-0.0003034999999999,0.0035404999999999,-0.124997,-0.4867125,-0.0371815,0.1099429999999999,-0.5288625,0.0337235,-0.136787,-0.8710925,-0.0021115,0.118063,-0.9135425,0.0326135,1
25,-0.0225294999999999,0.7563795000000001,0.114805,-0.1869505,0.5573795,0.092833,-0.2677405,0.8099695,0.00858,0.1571695,0.5638995,0.133658,0.2698494999999999,0.8048295000000001,0.07653,-0.2676105,1.0856295,-0.048967,0.3095394999999999,1.0394295,-0.0043839999999999,-0.0772725,0.0004644999999999,-0.0037109999999999,0.0772725,-0.0004645,0.0037109999999999,-0.1251604999999999,-0.4883505,-0.038311,0.1098394999999999,-0.5294304999999999,0.032416,-0.1368305,-0.8710304999999999,-0.0025449999999999,0.1180695,-0.9143705,0.031381,1
26,-0.021747,0.7563795000000001,0.1142525,-0.186577,0.5573795,0.0924135,-0.267837,0.8099495000000001,0.0072324999999999,0.157323,0.5638995,0.1329415,0.270593,0.8048295000000001,0.0755285,-0.267617,1.0856295,-0.0513295,0.310543,1.0394295,-0.0059335,-0.0773129999999999,0.0004644999999999,-0.0038624999999999,0.0773129999999999,-0.0004645,0.0038625,-0.125267,-0.4891105,-0.0396445,0.109773,-0.5294304999999999,0.0307925,-0.136967,-0.8709404999999999,-0.0030085,0.1179629999999999,-0.9143705,0.0300705,1
27,-0.0207764999999999,0.7563795000000001,0.1136115,-0.1861855,0.5573795,0.0919725,-0.2679054999999999,0.8094195000000001,0.0057164999999999,0.1575745,0.5638995,0.1322355,0.2714345,0.8048295000000001,0.0744345,-0.2675554999999999,1.0856295,-0.0540654999999999,0.3117845,1.0394295,-0.0077855,-0.0773585,0.0004644999999999,-0.0039795,0.0773585,-0.0004645,0.0039795,-0.1253255,-0.4893205,-0.0412274999999999,0.1097445,-0.5294304999999999,0.0288145,-0.1371055,-0.8709404999999999,-0.0032674999999999,0.1177844999999999,-0.9149505,0.0297675,1
28,-0.0197755,0.7563795000000001,0.112976,-0.1857365,0.5573795,0.0915199999999999,-0.2679364999999999,0.8088895,0.004109,0.1579535,0.5638995,0.131497,0.2724535,0.8048295000000001,0.073298,-0.2673565,1.0856295,-0.057027,0.3131735,1.0394295,-0.00977,-0.0773885,0.0004644999999999,-0.0041029999999999,0.0773885,-0.0004645,0.0041029999999999,-0.1255665,-0.4878105,-0.043267,0.1098135,-0.5294304999999999,0.026738,-0.1371165,-0.8709404999999999,-0.0034539999999999,0.1177335,-0.9149005,0.029006,1
29,-0.018736,0.756503,0.1122819999999999,-0.185287,0.557603,0.091003,-0.267737,0.807533,0.0021729999999999,0.158383,0.5638029999999999,0.1307289999999999,0.273613,0.804693,0.0720389999999999,-0.266847,1.085373,-0.0599969999999999,0.314803,1.0387730000000002,-0.011774,-0.077423,0.000486,-0.004197,0.077423,-0.000486,0.0041969999999999,-0.125827,-0.486157,-0.046001,0.109823,-0.529037,0.0242529999999999,-0.137037,-0.871387,-0.004048,0.117553,-0.915067,0.027856,1
30,-0.017838,0.75667,0.11148,-0.184869,0.55782,0.0903269999999999,-0.267389,0.8060299999999999,0.0001889999999999,0.158881,0.56368,0.129903,0.274741,0.8044399999999999,0.070806,-0.266169,1.08512,-0.063025,0.316541,1.03752,-0.013742,-0.077466,0.000553,-0.0043669999999999,0.077466,-0.0005529999999999,0.0043669999999999,-0.126119,-0.4859799999999999,-0.048798,0.109671,-0.52936,0.021445,-0.137049,-0.87212,-0.004792,0.117461,-0.9152,0.026548,1
31,-0.0169985,0.756735,0.1104935,-0.1844535,0.558025,0.0893875,-0.2669635,0.804415,-0.0022494999999999,0.1593764999999999,0.563685,0.1291095,0.2758465,0.804035,0.0696185,-0.2654735,1.084605,-0.0663455,0.3183165,1.036105,-0.0156774999999999,-0.0774985,0.0006499999999999,-0.0045594999999999,0.0774985,-0.00065,0.0045595,-0.1264635,-0.485465,-0.0520444999999999,0.1096065,-0.5297149999999999,0.0180685,-0.1371534999999999,-0.873065,-0.0056524999999999,0.1173965,-0.914955,0.0252185,1
32,-0.0162395,0.7567725000000001,0.109546,-0.1840415,0.5581425,0.088237,-0.2665115,0.8028625,-0.004937,0.1598485,0.5637325,0.12837,0.2768285,0.8036425,0.06849,-0.2648915,1.0839124999999998,-0.069549,0.3199285,1.0344125,-0.017428,-0.0775255,0.0007395,-0.004733,0.0775255,-0.0007394999999999,0.0047329999999999,-0.1267715,-0.4860775,-0.055547,0.1097585,-0.5298575,0.014341,-0.1372715,-0.8739574999999999,-0.006433,0.1172585,-0.9146575,0.0241919999999999,1
33,-0.0152609999999999,0.7566165,0.108636,-0.183576,0.5581465,0.08712,-0.266086,0.8021965,-0.007468,0.160524,0.5634365,0.127676,0.278084,0.8030165,0.067494,-0.264106,1.0833065,-0.0727559999999999,0.321674,1.0326065,-0.018906,-0.077542,0.0009104999999999,-0.0049739999999999,0.077542,-0.0009104999999999,0.0049739999999999,-0.127226,-0.4857735,-0.059369,0.109764,-0.5283735,0.0103039999999999,-0.137406,-0.8747935,-0.007399,0.116744,-0.9140435,0.022911,1
34,-0.0141914999999999,0.756506,0.107602,-0.1831675,0.558286,0.085955,-0.2656575,0.801846,-0.0099169999999999,0.1611625,0.5632159999999999,0.1269799999999999,0.2793025,0.802566,0.066553,-0.2633275,1.082896,-0.0757579999999999,0.3232325,1.031096,-0.0201939999999999,-0.0775805,0.001034,-0.0051989999999999,0.0775805,-0.001034,0.005199,-0.1276175,-0.486324,-0.063112,0.1097725,-0.5264840000000001,0.006142,-0.1374675,-0.8753340000000001,-0.008375,0.1161925,-0.913134,0.021918,1
35,-0.0131554999999999,0.756366,0.106506,-0.1827955,0.5584560000000001,0.084665,-0.2652855,0.801676,-0.012291,0.1616045,0.563046,0.126219,0.2804244999999999,0.802176,0.065658,-0.2626455,1.082686,-0.078401,0.3246445,1.029786,-0.0211769999999999,-0.0776295,0.001152,-0.005408,0.0776295,-0.001152,0.005408,-0.1279855,-0.485044,-0.066976,0.1099445,-0.524794,0.0020209999999999,-0.1373955,-0.876074,-0.010399,0.1156445,-0.912104,0.021099,1
36,-0.0122795,0.7562665,0.105468,-0.1824865,0.5586165,0.083318,-0.2649565,0.8026265,-0.0146379999999999,0.1619735,0.5629265,0.125464,0.2814835,0.8019665,0.064897,-0.2619665,1.0824865,-0.080686,0.3258635,1.0287865,-0.0218259999999999,-0.0776895,0.0012585,-0.0056349999999999,0.0776895,-0.0012585,0.005635,-0.1281565,-0.4842735,-0.0706499999999999,0.1101935,-0.5227935,-0.0021609999999999,-0.1373365,-0.8762435000000001,-0.0121939999999999,0.1151734999999999,-0.9111135,0.020391,1
37,-0.0114379999999999,0.756186,0.104461,-0.182186,0.5588960000000001,0.08188,-0.264626,0.803786,-0.016987,0.162354,0.562746,0.124775,0.282474,0.801746,0.0642689999999999,-0.261326,1.082336,-0.082845,0.327074,1.028236,-0.022275,-0.077765,0.0013149999999999,-0.005877,0.077765,-0.001315,0.005877,-0.128176,-0.483564,-0.074275,0.110604,-0.520644,-0.006363,-0.137296,-0.876414,-0.013766,0.114734,-0.910124,0.0197369999999999,1
38,-0.010655,0.7560495,0.1034284999999999,-0.181869,0.5591295000000001,0.0804904999999999,-0.264349,0.8049495000000001,-0.0191985,0.1625909999999999,0.5624795,0.1240405,0.283321,0.8016595000000001,0.0637244999999999,-0.260759,1.0823595,-0.0850695,0.328321,1.0277595000000002,-0.0226295,-0.077861,0.0013464999999999,-0.0060795,0.077861,-0.0013465,0.0060794999999999,-0.128159,-0.4824505,-0.0780795,0.1110809999999999,-0.5188904999999999,-0.0106715,-0.137179,-0.8766704999999999,-0.0151794999999999,0.114431,-0.9090305,0.0189384999999999,1
39,-0.009945,0.755933,0.1023129999999999,-0.18159,0.559313,0.079079,-0.26418,0.806083,-0.021492,0.16273,0.562313,0.1233759999999999,0.28412,0.801683,0.063143,-0.26029,1.082453,-0.087444,0.3296099999999999,1.027253,-0.023001,-0.077976,0.001346,-0.006206,0.077976,-0.001346,0.006206,-0.12811,-0.479597,-0.081854,0.11155,-0.517067,-0.0147839999999999,-0.13695,-0.876437,-0.016594,0.11413,-0.907837,0.018129,1
40,-0.0092979999999999,0.7559670000000001,0.101361,-0.181369,0.559407,0.077788,-0.264089,0.8075370000000001,-0.0234679999999999,0.162901,0.562127,0.122713,0.2848009999999999,0.801687,0.0625749999999999,-0.260009,1.082717,-0.089642,0.330901,1.026917,-0.023272,-0.078097,0.0012799999999999,-0.0063149999999999,0.078097,-0.0012799999999999,0.006315,-0.127999,-0.477133,-0.084992,0.111991,-0.514523,-0.01831,-0.136669,-0.875863,-0.0179329999999999,0.113781,-0.906813,0.017484,1
41,-0.008701,0.7559245,0.100071,-0.181133,0.5594745,0.076307,-0.263903,0.8090345,-0.025902,0.163077,0.5619845,0.121927,0.285417,0.8018245,0.06161,-0.259693,1.0833745,-0.092335,0.3322469999999999,1.0268745,-0.02386,-0.078218,0.0011535,-0.006487,0.078218,-0.0011535,0.006487,-0.127853,-0.4754355,-0.088215,0.112637,-0.5114755,-0.021688,-0.136453,-0.8748455,-0.018954,0.113397,-0.9054855,0.0169619999999999,1
42,-0.0084339999999999,0.755945,0.0987595,-0.180846,0.559675,0.0747945,-0.263726,0.809415,-0.0283505,0.163184,0.561505,0.1207865,0.285654,0.800915,0.0606215,-0.259376,1.083975,-0.0950655,0.333264,1.0270750000000002,-0.0245415,-0.078338,0.000997,-0.0066564999999999,0.078338,-0.0009969999999999,0.0066565,-0.127386,-0.474795,-0.0917755,0.113564,-0.509505,-0.0249425,-0.136216,-0.873745,-0.0196635,0.113534,-0.904845,0.0163775,1
43,-0.0081859999999999,0.755988,0.097415,-0.1806199999999999,0.559798,0.073189,-0.26351,0.809148,-0.030892,0.16327,0.560708,0.119447,0.28587,0.799548,0.059592,-0.25901,1.084428,-0.098189,0.33427,1.027028,-0.025653,-0.078468,0.0008799999999999,-0.006815,0.078468,-0.0008799999999999,0.0068149999999999,-0.12692,-0.475292,-0.095389,0.11472,-0.508082,-0.028508,-0.13604,-0.872692,-0.020255,0.1137,-0.904272,0.0157999999999999,1
44,-0.0078914999999999,0.756437,0.0958985,-0.1804995,0.559277,0.0714815,-0.2633095,0.809367,-0.0337525,0.1633705,0.560547,0.1180225,0.2861305,0.7980769999999999,0.0583865,-0.2585195,1.084957,-0.1018215,0.3349105,1.027257,-0.0273814999999999,-0.0786895,0.0006479999999999,-0.0069304999999999,0.0786895,-0.0006479999999999,0.0069305,-0.1264595,-0.475183,-0.0987015,0.1159505,-0.5072530000000001,-0.0320385,-0.1358795,-0.871863,-0.0203345,0.1139105,-0.903443,0.0151645,1
45,-0.007511,0.756786,0.0943664999999999,-0.180425,0.558866,0.0696475,-0.263375,0.8095559999999999,-0.0365125,0.163285,0.560406,0.1163685,0.286495,0.796576,0.0568215,-0.258495,1.085256,-0.1057355,0.335595,1.027556,-0.0297685,-0.079003,0.000386,-0.0070204999999999,0.079003,-0.000386,0.0070204999999999,-0.125865,-0.474664,-0.1020455,0.117505,-0.505494,-0.0352165,-0.135455,-0.8708640000000001,-0.0203975,0.1141949999999999,-0.902014,0.0147355,1
46,-0.007324,0.757082,0.0926184999999999,-0.180364,0.558262,0.0676055,-0.263534,0.809582,-0.0394225,0.163166,0.5602520000000001,0.1145215,0.2867459999999999,0.795222,0.0550924999999999,-0.258674,1.085602,-0.1099064999999999,0.336106,1.027802,-0.0328875,-0.079265,0.000122,-0.0070705,0.079265,-0.000122,0.0070705,-0.125284,-0.473998,-0.1053264999999999,0.119086,-0.503528,-0.0382385,-0.135074,-0.869618,-0.0205015,0.114456,-0.900668,0.0140084999999999,1
47,-0.0073674999999999,0.757378,0.0901619999999999,-0.1803305,0.557848,0.064991,-0.2640805,0.809388,-0.043164,0.1629395,0.5603279999999999,0.1122949999999999,0.2867195,0.7937679999999999,0.052598,-0.2594404999999999,1.085828,-0.1150989999999999,0.3366995,1.028028,-0.037141,-0.0795525,-5.000000000000143e-05,-0.007098,0.0795525,4.999999999999796e-05,0.007098,-0.1247105,-0.4717019999999999,-0.107499,0.1207095,-0.5007820000000001,-0.040986,-0.1342705,-0.867102,-0.020082,0.1150195,-0.898452,0.01364,1
48,-0.0074799999999999,0.7574740000000001,0.0876015,-0.180275,0.557354,0.0623325,-0.264675,0.8091240000000001,-0.0470765,0.162705,0.560054,0.1097745,0.286665,0.792344,0.0499224999999999,-0.260345,1.086094,-0.1204625,0.337335,1.028394,-0.0419885,-0.079826,-0.000251,-0.0071235,0.079826,0.0002509999999999,0.0071234999999999,-0.1241549999999999,-0.469306,-0.1096424999999999,0.122275,-0.498096,-0.0436315,-0.133445,-0.8645759999999999,-0.0197585,0.115515,-0.896096,0.0140894999999999,1
49,-0.0076505,0.757636,0.0847775,-0.1802625,0.556916,0.0595565,-0.2653525,0.8085559999999999,-0.0511995,0.1624574999999999,0.559716,0.1069025,0.2865875,0.791096,0.0467235,-0.2613525,1.086486,-0.1262675,0.3379375,1.028486,-0.0471855,-0.0801505,-0.0004019999999999,-0.0071804999999999,0.0801505,0.0004019999999999,0.0071804999999999,-0.1236325,-0.467184,-0.1118475,0.1236375,-0.4954739999999999,-0.0463205,-0.1327225,-0.861924,-0.0195215,0.1159674999999999,-0.893974,0.0141075,1
50,-0.0078339999999999,0.7577805000000001,0.081817,-0.18024,0.5567805,0.05677,-0.2659499999999999,0.8081005,-0.054927,0.16231,0.5596105,0.1040629999999999,0.28651,0.7900005,0.043278,-0.2624,1.0865605,-0.132204,0.33843,1.0284605,-0.0526359999999999,-0.080484,-0.0003715,-0.0072349999999999,0.080484,0.0003715,0.007235,-0.12311,-0.4662695,-0.114024,0.12468,-0.4925295,-0.0485689999999999,-0.13198,-0.8593495,-0.019519,0.11634,-0.8922595,0.013198,1
51,-0.007977,0.7580100000000001,0.0784675,-0.180189,0.5565800000000001,0.0537165,-0.266469,0.8075600000000001,-0.0591434999999999,0.162371,0.55926,0.1011855,0.286481,0.79006,0.0392365,-0.263459,1.08676,-0.1387815,0.338811,1.02816,-0.0587525,-0.080805,-0.0003489999999999,-0.0073165,0.080805,0.000349,0.0073165,-0.122659,-0.46538,-0.1157014999999999,0.125481,-0.48992,-0.0509554999999999,-0.131309,-0.85709,-0.0196015,0.116771,-0.89052,0.0119035,1
52,-0.008083,0.758363,0.0748129999999999,-0.180083,0.556113,0.050332,-0.266863,0.807033,-0.063925,0.162417,0.5588529999999999,0.098078,0.286497,0.7900929999999999,0.034721,-0.264433,1.0864330000000002,-0.145725,0.338657,1.026573,-0.065075,-0.08113,-0.000451,-0.007303,0.08113,0.000451,0.007303,-0.1221829999999999,-0.464617,-0.1177049999999999,0.126007,-0.487487,-0.053122,-0.130623,-0.854647,-0.0199999999999999,0.117037,-0.8881870000000001,0.011241,1
53,-0.008125,0.758787,0.0708455,-0.179827,0.555677,0.0468235,-0.267087,0.806697,-0.0689625,0.162503,0.558977,0.0945775,0.286653,0.790127,0.0297455,-0.265327,1.085927,-0.1530905,0.3384029999999999,1.025187,-0.0714245,-0.08143,-0.0005629999999999,-0.0072455,0.08143,0.000563,0.0072455,-0.121637,-0.463833,-0.1200705,0.126443,-0.484673,-0.0554355,-0.129927,-0.851713,-0.0205835,0.117633,-0.885453,0.0101325,1
54,-0.0081185,0.7592730000000001,0.066271,-0.1795375,0.5549430000000001,0.042994,-0.2671274999999999,0.806463,-0.074573,0.1626524999999999,0.559303,0.090735,0.2868625,0.790643,0.02424,-0.2660174999999999,1.085513,-0.1609159999999999,0.3380925,1.024183,-0.078496,-0.0816795,-0.0005879999999999,-0.0071759999999999,0.0816795,0.0005879999999999,0.007176,-0.1211675,-0.462407,-0.122616,0.1267625,-0.481567,-0.057956,-0.1292875,-0.848347,-0.021354,0.1180425,-0.881707,0.009052,1
55,-0.0080235,0.7596205,0.061364,-0.1792055,0.5544205,0.038994,-0.2670355,0.8066004999999999,-0.080607,0.1628045,0.5601605,0.086857,0.2871545,0.7908904999999999,0.018339,-0.2665055,1.0847405,-0.168923,0.3377644999999999,1.0227105,-0.085493,-0.0818835,-0.0006755,-0.0071319999999999,0.0818835,0.0006754999999999,0.007132,-0.1206455,-0.4601895,-0.125383,0.1270845,-0.4783595,-0.0605769999999999,-0.1286255,-0.8448895,-0.022359,0.1183445,-0.8782295,0.00738,1
56,-0.007591,0.7600965,0.056801,-0.178774,0.5535365,0.035281,-0.266394,0.8063065,-0.086257,0.163166,0.5613565,0.083206,0.287706,0.7914365,0.012617,-0.266334,1.0838065,-0.176207,0.337816,1.0215865,-0.091997,-0.082062,-0.0009224999999999,-0.00705,0.082062,0.0009224999999999,0.00705,-0.120244,-0.4576535,-0.128437,0.1274559999999999,-0.4761935,-0.0635019999999999,-0.128294,-0.8427235,-0.024064,0.118666,-0.8760435,0.00527,1
57,-0.0070809999999999,0.7604825,0.0521795,-0.178247,0.5527724999999999,0.0313325,-0.265697,0.8063525,-0.0921905,0.163393,0.5619125,0.0791695,0.288383,0.7915125000000001,0.0066115,-0.266007,1.0824825,-0.1840505,0.337903,1.0198725,-0.0983805,-0.082251,-0.0010585,-0.0070694999999999,0.082251,0.0010584999999999,0.0070695,-0.1197469999999999,-0.4553775,-0.1319005,0.127903,-0.4739175,-0.0666475,-0.127917,-0.8404275000000001,-0.0259415,0.118973,-0.8737675,0.0035665,1
58,-0.006423,0.7609119999999999,0.0473745,-0.177622,0.552362,0.0272415,-0.264882,0.806572,-0.0981645,0.163578,0.562122,0.0748554999999999,0.289178,0.792052,0.0007054999999999,-0.265512,1.081272,-0.1917745,0.338218,1.016442,-0.1051145,-0.082489,-0.001145,-0.0070905,0.082489,0.001145,0.0070905,-0.119132,-0.4527879999999999,-0.1355145,0.128358,-0.471328,-0.0698455,-0.127442,-0.8378180000000001,-0.0279584999999999,0.119418,-0.871178,0.0017155,1
59,-0.0055915,0.761492,0.042694,-0.1768384999999999,0.5523319999999999,0.02303,-0.2639185,0.8065319999999999,-0.104339,0.1639715,0.561562,0.070205,0.2901415,0.792442,-0.0050519999999999,-0.2646485,1.080682,-0.199389,0.3387415,1.012922,-0.111599,-0.0828764999999999,-0.001042,-0.0070949999999999,0.0828764999999999,0.0010419999999999,0.007095,-0.1184284999999999,-0.449638,-0.139049,0.1285715,-0.468258,-0.073146,-0.1266885,-0.834288,-0.030578,0.1197515,-0.867908,-0.0006429999999999,1
60,-0.0047825,0.762092,0.03822,-0.1760325,0.552432,0.018896,-0.2628425,0.806942,-0.1103809999999999,0.1642775,0.561152,0.06557,0.2911074999999999,0.792762,-0.010607,-0.2637625,1.080202,-0.2063009999999999,0.3391775,1.009762,-0.1174609999999999,-0.0832565,-0.000954,-0.007148,0.0832565,0.0009539999999999,0.007148,-0.1177125,-0.446478,-0.1424109999999999,0.1287275,-0.4651579999999999,-0.0762679999999999,-0.1260325,-0.830708,-0.033258,0.1200575,-0.864738,-0.0026759999999999,1
61,-0.003915,0.7626545,0.033814,-0.175141,0.5524344999999999,0.014723,-0.261641,0.8073945,-0.1162,0.164639,0.5606545,0.060875,0.292149,0.7933344999999999,-0.015995,-0.262781,1.0804145,-0.21284,0.340079,1.0086645,-0.12304,-0.083609,-0.0009055,-0.007183,0.083609,0.0009054999999999,0.007183,-0.116911,-0.4431355,-0.14572,0.128979,-0.4621254999999999,-0.079513,-0.125321,-0.8272555,-0.036,0.1204689999999999,-0.8613755,-0.005454,1
62,-0.002934,0.7633289999999999,0.0294989999999999,-0.174184,0.552409,0.01051,-0.260424,0.808109,-0.121799,0.1650259999999999,0.5603589999999999,0.056341,0.293296,0.793759,-0.0212009999999999,-0.261844,1.081029,-0.218819,0.340986,1.007729,-0.128399,-0.083902,-0.0008599999999999,-0.0072499999999999,0.083902,0.0008599999999999,0.0072499999999999,-0.116094,-0.4396509999999999,-0.149099,0.129156,-0.4580009999999999,-0.082809,-0.1245739999999999,-0.822771,-0.0389469999999999,0.1209059999999999,-0.8567410000000001,-0.008421,1
63,-0.0019444999999999,0.7641555,0.025505,-0.1732665,0.5528855,0.006464,-0.2592465,0.8087955,-0.127075,0.1654035,0.5600855,0.051907,0.2943735,0.7940355,-0.026052,-0.2609765,1.0818055,-0.224385,0.3417935,1.0066355,-0.133115,-0.0841685,-0.0008505,-0.007313,0.0841685,0.0008505,0.007313,-0.1152864999999999,-0.4364645,-0.152465,0.1294335,-0.4539045,-0.086676,-0.1236565,-0.8183545000000001,-0.0423529999999999,0.1213835,-0.8533945000000001,-0.011937,1
64,-0.000967,0.7649825,0.0215755,-0.172337,0.5534125,0.0024224999999999,-0.258147,0.8098124999999999,-0.1320394999999999,0.1657529999999999,0.5592825,0.0470624999999999,0.295413,0.7947124999999999,-0.0309265,-0.260127,1.0829725,-0.2295694999999999,0.342573,1.0063825,-0.1377894999999999,-0.084449,-0.0008205,-0.0072655,0.084449,0.0008205,0.0072655,-0.114497,-0.4333575,-0.1558195,0.129753,-0.4500574999999999,-0.0905005,-0.122667,-0.8142775,-0.0460425,0.1219029999999999,-0.8501375,-0.0156845,1
65,1.4999999999999389e-05,0.7658564999999999,0.0177395,-0.171202,0.5538765,-0.0017754999999999,-0.257082,0.8108964999999999,-0.1366815,0.166148,0.5582465,0.0420475,0.296478,0.7953565,-0.0357585,-0.259272,1.0844465,-0.2345115,0.343318,1.0062565,-0.1423115,-0.084749,-0.0007465,-0.0071804999999999,0.084749,0.0007464999999999,0.0071804999999999,-0.113692,-0.4302535,-0.1592115,0.130078,-0.4465935,-0.0942115,-0.121702,-0.8105534999999999,-0.0498945,0.1224379999999999,-0.8464735000000001,-0.0196534999999999,1
66,0.0009665,0.7666185000000001,0.013752,-0.1700855,0.5541085,-0.0060739999999999,-0.2561155,0.8118185,-0.141186,0.1667445,0.5575385,0.037216,0.2974545,0.7961585,-0.040562,-0.2585555,1.0861085,-0.2389059999999999,0.3439945,1.0065685,-0.146886,-0.0849765,-0.0007064999999999,-0.007055,0.0849765,0.0007064999999999,0.007055,-0.1129155,-0.4272515,-0.162426,0.1303045,-0.4436815,-0.097056,-0.1207355,-0.8072714999999999,-0.053767,0.1230445,-0.8431215,-0.0234079999999999,1
67,0.001789,0.767227,0.009806,-0.169042,0.554157,-0.010315,-0.255302,0.812627,-0.145567,0.1674179999999999,0.5570470000000001,0.03277,0.298378,0.796657,-0.045269,-0.257982,1.087667,-0.243367,0.344598,1.008527,-0.151297,-0.085123,-0.000626,-0.00699,0.085123,0.000626,0.00699,-0.112242,-0.4243329999999999,-0.165497,0.130458,-0.4409929999999999,-0.099953,-0.119862,-0.804183,-0.057944,0.123578,-0.8402229999999999,-0.027637,1
68,0.0025435,0.767332,0.0056239999999999,-0.1681485,0.554222,-0.014449,-0.2546785,0.813122,-0.15004,0.1679015,0.556522,0.028405,0.2990914999999999,0.797042,-0.050042,-0.2575685,1.088792,-0.2478199999999999,0.3450115,1.009502,-0.15624,-0.0851835,-0.000601,-0.006947,0.0851835,0.000601,0.006947,-0.1117285,-0.4216479999999999,-0.16843,0.1306015,-0.440688,-0.102916,-0.1192385,-0.8011379999999999,-0.061482,0.1237715,-0.837378,-0.031424,1
69,0.0033679999999999,0.7672585000000001,0.001138,-0.167157,0.5540385,-0.0188559999999999,-0.254127,0.8132785,-0.15475,0.1683529999999999,0.5560885,0.0239549999999999,0.299893,0.7969385,-0.05522,-0.257047,1.0896285,-0.25316,0.345463,1.0095885,-0.1618399999999999,-0.085226,-0.0005985,-0.006807,0.085226,0.0005984999999999,0.0068069999999999,-0.111227,-0.4190715,-0.1716,0.130733,-0.4402514999999999,-0.1060919999999999,-0.118597,-0.7979115000000001,-0.065236,0.123973,-0.8346115000000001,-0.035524,1
70,0.004246,0.7667295,-0.0038374999999999,-0.166081,0.5537495,-0.0234575,-0.253581,0.8129695,-0.1597615,0.168799,0.5556395000000001,0.0193295,0.300669,0.7965095,-0.0608635,-0.256451,1.0897095,-0.2593315,0.345789,1.0094795,-0.1680115,-0.085233,-0.0005025,-0.0067374999999999,0.085233,0.0005025,0.0067375,-0.1106709999999999,-0.4167205,-0.1750215,0.130829,-0.4401205,-0.1093305,-0.1180509999999999,-0.7945005,-0.0688344999999999,0.124219,-0.8320205,-0.0399005,1
71,0.0051245,0.76586,-0.0091045,-0.1649284999999999,0.5532,-0.0281125,-0.2530185,0.81203,-0.1650775,0.1692915,0.55518,0.0145565,0.3015415,0.79573,-0.0667315,-0.2558185,1.08922,-0.2661475,0.3461015,1.00821,-0.1747875,-0.0852515,-0.0004499999999999,-0.0066455,0.0852515,0.00045,0.0066454999999999,-0.1100885,-0.4147799999999999,-0.1782375,0.1309715,-0.4410699999999999,-0.1124675,-0.1176984999999999,-0.79226,-0.0721385,0.1244115,-0.8309099999999999,-0.0440585,1
72,0.0061409999999999,0.764635,-0.0147079999999999,-0.163521,0.5524450000000001,-0.032977,-0.2524409999999999,0.8106450000000001,-0.170818,0.169959,0.554735,0.009668,0.302529,0.7949649999999999,-0.0728969999999999,-0.255001,1.088295,-0.273898,0.346379,1.006815,-0.181938,-0.085289,-0.000415,-0.006487,0.085289,0.0004149999999999,0.006487,-0.109461,-0.412525,-0.181548,0.131109,-0.442035,-0.115482,-0.1173309999999999,-0.7899050000000001,-0.075752,0.124559,-0.8281449999999999,-0.047766,1
73,0.0071895,0.763525,-0.0204735,-0.1620835,0.551755,-0.0378615,-0.2518135,0.808345,-0.1768625,0.1706765,0.554495,0.0048475,0.3034965,0.793765,-0.0791355,-0.2541235,1.087175,-0.2823425,0.3466365,1.004985,-0.1895524999999999,-0.0853265,-0.0003249999999999,-0.0064554999999999,0.0853265,0.000325,0.0064554999999999,-0.1088335,-0.410215,-0.1848125,0.1311965,-0.442585,-0.1182805,-0.1169435,-0.787465,-0.0795535,0.1248365,-0.8256549999999999,-0.0523255,1
74,0.0081569999999999,0.7620800000000001,-0.02646,-0.160831,0.55096,-0.042594,-0.251371,0.8057399999999999,-0.183078,0.171279,0.55402,-3.0000000000002247e-05,0.3042789999999999,0.7918499999999999,-0.085334,-0.253231,1.08187,-0.291188,0.346829,1.00293,-0.197458,-0.0853609999999999,-0.0002399999999999,-0.006543,0.0853609999999999,0.00024,0.006543,-0.108381,-0.4078599999999999,-0.187478,0.131209,-0.43968,-0.1209119999999999,-0.116961,-0.7846899999999999,-0.083143,0.1247389999999999,-0.82294,-0.056093,1
75,0.0091785,0.76021,-0.032578,-0.1596155,0.55035,-0.047265,-0.2509455,0.8029999999999999,-0.189411,0.1719145,0.55379,-0.004856,0.3049945,0.7899700000000001,-0.091551,-0.2524155,1.07651,-0.299791,0.3469945,1.00061,-0.205581,-0.0853905,-0.0001199999999999,-0.00664,0.0853905,0.0001199999999999,0.00664,-0.1080255,-0.40521,-0.190091,0.1309745,-0.4382999999999999,-0.123009,-0.1169455,-0.7819499999999999,-0.087056,0.1248145,-0.82043,-0.060158,1
76,0.0100159999999999,0.7584550000000001,-0.038962,-0.158609,0.549425,-0.0520959999999999,-0.250789,0.800395,-0.195954,0.172261,0.5534950000000001,-0.0098629999999999,0.305461,0.787855,-0.0981779999999999,-0.251799,1.071555,-0.308494,0.346741,0.998455,-0.2139039999999999,-0.085386,-2.4999999999997247e-05,-0.0066569999999999,0.085386,2.5000000000011124e-05,0.006657,-0.107999,-0.4029149999999999,-0.192754,0.130411,-0.436345,-0.125326,-0.117219,-0.7792650000000001,-0.0912439999999999,0.124551,-0.8178650000000001,-0.0644329999999999,1
77,0.0109024999999999,0.756785,-0.0453514999999999,-0.1575575,0.548425,-0.0569734999999999,-0.2503875,0.7977850000000001,-0.2024834999999999,0.1726925,0.553265,-0.0149514999999999,0.3060524999999999,0.785205,-0.1047714999999999,-0.2508475,1.066545,-0.3170235,0.3463724999999999,0.996805,-0.2224335,-0.0853935,3.500000000000725e-05,-0.0067664999999999,0.0853935,-3.499999999999337e-05,0.0067665,-0.1081175,-0.401095,-0.1953035,0.1297225,-0.4348149999999999,-0.1275605,-0.1176075,-0.776795,-0.0956374999999999,0.1238225,-0.815395,-0.0688675,1
78,0.0115499999999999,0.755425,-0.0517225,-0.1568,0.547585,-0.0618475,-0.25006,0.794925,-0.2089395,0.17296,0.5531550000000001,-0.0201115,0.30652,0.782695,-0.1111385,-0.24967,1.059025,-0.3252195,0.3458799999999999,0.995615,-0.2311895,-0.08542,8.500000000000174e-05,-0.0067835,0.08542,-8.500000000000174e-05,0.0067834999999999,-0.10841,-0.399595,-0.1977695,0.1289499999999999,-0.433035,-0.1308015,-0.11851,-0.7738849999999999,-0.0995825,0.12283,-0.813005,-0.0734095,1
79,0.0121355,0.75406,-0.057622,-0.1561695,0.5470200000000001,-0.066273,-0.2501295,0.79213,-0.214973,0.1732205,0.55291,-0.02488,0.3068805,0.7799100000000001,-0.116958,-0.2485295,1.05214,-0.332423,0.3453605,0.9932,-0.239273,-0.0854685,0.00014,-0.006788,0.0854685,-0.00014,0.006788,-0.1087394999999999,-0.39804,-0.199683,0.1282605,-0.43124,-0.1336999999999999,-0.1194395,-0.77119,-0.103223,0.1218105,-0.8108200000000001,-0.077485,1
80,0.0127184999999999,0.752505,-0.0632825,-0.1556775,0.546675,-0.0704885,-0.2501875,0.789615,-0.2206965,0.1733425,0.552795,-0.0294805,0.3070025,0.777345,-0.1226315,-0.2474575,1.045645,-0.3393565,0.3448525,0.991595,-0.2472065,-0.0855005,0.0001649999999999,-0.0066955,0.0855005,-0.0001649999999999,0.0066955,-0.1091075,-0.396525,-0.2015865,0.1275125,-0.429365,-0.1365434999999999,-0.1204375,-0.768615,-0.1067595,0.1207425,-0.808725,-0.0813784999999999,1
81,0.0130044999999999,0.7512000000000001,-0.068759,-0.1552265,0.54552,-0.074456,-0.2503565,0.7875399999999999,-0.226098,0.1733434999999999,0.5525,-0.0338409999999999,0.3068935,0.77478,-0.128139,-0.2465865,1.03978,-0.345438,0.3442935,0.99027,-0.254958,-0.0855964999999999,0.0001899999999999,-0.0066109999999999,0.0855964999999999,-0.0001899999999999,0.006611,-0.1096365,-0.3949499999999999,-0.203318,0.1266235,-0.4255699999999999,-0.1392499999999999,-0.1215465,-0.7660100000000001,-0.110417,0.1195934999999999,-0.8063499999999999,-0.085252,1
82,0.0131774999999999,0.749845,-0.0739965,-0.1549855,0.544485,-0.0783105,-0.2506155,0.784645,-0.2313275,0.1731645,0.552365,-0.0380625,0.3066445,0.772265,-0.1334365,-0.2459555,1.034065,-0.3509675,0.3436845,0.989115,-0.2622975,-0.0857265,0.0001649999999999,-0.0065045,0.0857265,-0.0001649999999999,0.0065044999999999,-0.1102655,-0.393505,-0.2049075,0.1255045,-0.4235649999999999,-0.1418595,-0.1227855,-0.763445,-0.1138795,0.1183645,-0.804115,-0.0892465,1
83,0.0133209999999999,0.74898,-0.0788709999999999,-0.154613,0.54341,-0.0819949999999999,-0.250813,0.78244,-0.236146,0.173037,0.55206,-0.0419809999999999,0.306447,0.7706299999999999,-0.138507,-0.245673,1.03237,-0.3562059999999999,0.343137,0.98824,-0.269016,-0.085891,0.0002699999999999,-0.0064999999999999,0.085891,-0.0002699999999999,0.0065,-0.110843,-0.39189,-0.2067459999999999,0.124557,-0.42007,-0.14438,-0.123883,-0.7609299999999999,-0.1173559999999999,0.117287,-0.80162,-0.0933159999999999,1
84,0.0133704999999999,0.748705,-0.083327,-0.1541725,0.5419849999999999,-0.085403,-0.2509725,0.7807850000000001,-0.240475,0.1729575,0.551805,-0.045625,0.3062775,0.7694050000000001,-0.143297,-0.2453825,1.030705,-0.361075,0.3425674999999999,0.986905,-0.275125,-0.0860735,0.0003049999999999,-0.0064919999999999,0.0860735,-0.0003049999999999,0.0064919999999999,-0.1113405,-0.390435,-0.208125,0.1237374999999999,-0.416365,-0.146749,-0.1249125,-0.7583549999999999,-0.120622,0.1162975,-0.799275,-0.096872,1
85,0.0136735,0.748255,-0.0873525,-0.1535985,0.541005,-0.0884495,-0.2509085,0.779215,-0.2443315,0.1731215,0.551485,-0.0488345,0.3063015,0.768425,-0.1475125,-0.2448884999999999,1.0282049999999998,-0.3655215,0.3423215,0.985445,-0.2805215,-0.0862765,0.0003149999999999,-0.0065115,0.0862765,-0.000315,0.0065115,-0.1115954999999999,-0.388915,-0.2093715,0.1231715,-0.412495,-0.1485435,-0.1256185,-0.7558750000000001,-0.1235795,0.1156415,-0.7969350000000001,-0.1001045,1
86,0.0136739999999999,0.7478899999999999,-0.0910774999999999,-0.153221,0.5398499999999999,-0.0911485,-0.251041,0.77781,-0.2477615,0.173019,0.55105,-0.0517734999999999,0.306049,0.7679699999999999,-0.1514714999999999,-0.244851,1.02589,-0.3696115,0.341979,0.98404,-0.2851114999999999,-0.0864969999999999,0.00037,-0.0065084999999999,0.0864969999999999,-0.00037,0.0065085,-0.1119169999999999,-0.38705,-0.2104615,0.1228189999999999,-0.40868,-0.1499145,-0.126281,-0.7534700000000001,-0.1263395,0.1149889999999999,-0.7944300000000001,-0.1030194999999999,1
87,0.0138384999999999,0.747335,-0.094454,-0.1527125,0.538535,-0.093386,-0.2512025,0.776845,-0.250784,0.1729975,0.5505450000000001,-0.0543169999999999,0.3059874999999999,0.767755,-0.155191,-0.2451525,1.025605,-0.373114,0.3419175,0.982495,-0.288924,-0.0867175,0.000395,-0.0066039999999999,0.0867175,-0.0003949999999999,0.0066039999999999,-0.1121975,-0.3849249999999999,-0.211434,0.1225175,-0.404815,-0.150967,-0.1269025,-0.751005,-0.1286749999999999,0.1144174999999999,-0.791965,-0.105602,1
88,0.0138794999999999,0.746785,-0.097702,-0.1523835,0.537015,-0.095445,-0.2515935,0.776155,-0.253676,0.1727665,0.549905,-0.056837,0.3058364999999999,0.767805,-0.158841,-0.2455735,1.024865,-0.376506,0.3424164999999999,0.981705,-0.292546,-0.0869165,0.0003249999999999,-0.0066549999999999,0.0869165,-0.000325,0.0066549999999999,-0.1126844999999999,-0.382735,-0.212586,0.1221164999999999,-0.4021949999999999,-0.151986,-0.1276335,-0.7485350000000001,-0.130955,0.1136565,-0.789365,-0.10766,1
89,0.0137985,0.746655,-0.1007935,-0.1520325,0.535215,-0.0975485,-0.2520125,0.7747149999999999,-0.2564645,0.1725375,0.549195,-0.0593365,0.3057575,0.768135,-0.1624175,-0.2460824999999999,1.023995,-0.3794545,0.3426175,0.981405,-0.2959045,-0.0871875,0.0002649999999999,-0.0067645,0.0871875,-0.000265,0.0067644999999999,-0.1132914999999999,-0.380995,-0.2137645,0.1217875,-0.399495,-0.1531245,-0.1282825,-0.746065,-0.1333425,0.1130175,-0.786145,-0.1101475,1
90,0.0138389999999999,0.7463850000000001,-0.103615,-0.151897,0.534135,-0.099566,-0.252357,0.773265,-0.259054,0.172333,0.548635,-0.061644,0.305823,0.7685850000000001,-0.165814,-0.246647,1.024435,-0.382084,0.342833,0.980525,-0.2988039999999999,-0.087363,0.000195,-0.006874,0.087363,-0.000195,0.006874,-0.113889,-0.3803949999999999,-0.214574,0.121493,-0.397315,-0.154296,-0.128867,-0.743835,-0.13569,0.112463,-0.783615,-0.112247,1
91,0.0137679999999999,0.745405,-0.106506,-0.151692,0.532805,-0.101514,-0.252772,0.773385,-0.261466,0.172178,0.547795,-0.063749,0.3059679999999999,0.769095,-0.169164,-0.247222,1.023955,-0.384476,0.3432679999999999,0.979805,-0.301496,-0.087488,0.0001349999999999,-0.00694,0.087488,-0.0001349999999999,0.00694,-0.1146129999999999,-0.379715,-0.215246,0.121188,-0.395205,-0.1555699999999999,-0.129472,-0.741565,-0.137885,0.111888,-0.781055,-0.114232,1
92,0.0136065,0.74375,-0.1093669999999999,-0.1518145,0.53164,-0.1034699999999999,-0.2532145,0.77233,-0.263862,0.1719155,0.54708,-0.0658079999999999,0.3060655,0.76911,-0.1724319999999999,-0.2478845,1.02196,-0.386652,0.3436355,0.97793,-0.304272,-0.0875455,-6.0000000000004494e-05,-0.0068479999999999,0.0875455,6.0000000000004494e-05,0.006848,-0.1154505,-0.37929,-0.215862,0.1206855,-0.39382,-0.156742,-0.1300845,-0.73971,-0.1399669999999999,0.1113055,-0.7789,-0.1162729999999999,1
93,0.0133024999999999,0.74185,-0.112381,-0.1521655,0.53055,-0.105562,-0.2538955,0.77112,-0.266322,0.1713644999999999,0.5462,-0.067949,0.3060445,0.76907,-0.17578,-0.2486555,1.02005,-0.388922,0.3437745,0.97565,-0.307152,-0.0875845,-0.0002699999999999,-0.006758,0.0875845,0.0002699999999999,0.006758,-0.1163485,-0.37795,-0.216912,0.1201245,-0.3915999999999999,-0.157978,-0.1308254999999999,-0.7377199999999999,-0.142199,0.1106444999999999,-0.77605,-0.118363,1
94,0.0127159999999999,0.7401599999999999,-0.1153924999999999,-0.152669,0.52921,-0.1077624999999999,-0.254389,0.7697799999999999,-0.2686375,0.170711,0.5456,-0.0701454999999999,0.305811,0.7690299999999999,-0.1791255,-0.249589,1.01853,-0.3914375,0.343771,0.97345,-0.3101575,-0.087651,-0.00046,-0.0067224999999999,0.087651,0.0004599999999999,0.0067225,-0.117341,-0.37675,-0.2179974999999999,0.119431,-0.38926,-0.1596884999999999,-0.1317289999999999,-0.7357199999999999,-0.1444514999999999,0.109841,-0.7731699999999999,-0.1206805,1
95,0.0121515,0.7383949999999999,-0.1184445,-0.1530685,0.527925,-0.1098995,-0.2548285,0.768275,-0.2710545,0.1701015,0.545005,-0.0722765,0.3056515,0.768885,-0.1824615,-0.2502185,1.017245,-0.3939045,0.3437815,0.971015,-0.3131745,-0.0876915,-0.000675,-0.0066755,0.0876915,0.000675,0.0066755,-0.1180845,-0.376055,-0.2191045,0.1185215,-0.3870349999999999,-0.1617785,-0.1326385,-0.733455,-0.1465235,0.1090315,-0.770205,-0.1228525,1
96,0.011371,0.736845,-0.1214894999999999,-0.153573,0.526535,-0.1120924999999999,-0.255443,0.765895,-0.2736294999999999,0.169377,0.544605,-0.0744864999999999,0.305327,0.768885,-0.1856985,-0.250813,1.016215,-0.3964295,0.343487,0.968795,-0.3162195,-0.0877169999999999,-0.000895,-0.0066004999999999,0.0877169999999999,0.000895,0.0066005,-0.119111,-0.375565,-0.2208395,0.1175469999999999,-0.389675,-0.1639304999999999,-0.133673,-0.731125,-0.1486875,0.1080769999999999,-0.767365,-0.1249955,1
97,0.0106034999999999,0.735625,-0.124537,-0.1539245,0.525075,-0.114326,-0.2559145,0.7636350000000001,-0.276281,0.1687455,0.544305,-0.076635,0.3050055,0.7701549999999999,-0.188939,-0.2513545,1.015535,-0.398941,0.3426054999999999,0.968755,-0.319351,-0.0877755,-0.001045,-0.006539,0.0877755,0.0010449999999999,0.006539,-0.1198605,-0.374995,-0.2225909999999999,0.1166655,-0.385665,-0.166033,-0.1347045,-0.728755,-0.150904,0.1071355,-0.7643549999999999,-0.127116,1
98,0.0098269999999999,0.734445,-0.1275,-0.154331,0.523725,-0.1166239999999999,-0.256331,0.762565,-0.27892,0.1681889999999999,0.543805,-0.078731,0.304649,0.771675,-0.1920369999999999,-0.251801,1.014985,-0.40146,0.341739,0.969075,-0.3222899999999999,-0.087769,-0.0011849999999999,-0.0065699999999999,0.087769,0.0011849999999999,0.00657,-0.120638,-0.374765,-0.2245599999999999,0.1158089999999999,-0.3861449999999999,-0.168211,-0.135681,-0.726235,-0.153001,0.106169,-0.761355,-0.1293059999999999,1
99,0.0090899999999999,0.7332299999999999,-0.130191,-0.154639,0.52203,-0.118779,-0.256809,0.76138,-0.28144,0.167631,0.54324,-0.080629,0.304301,0.77159,-0.194954,-0.252169,1.01423,-0.40396,0.3409109999999999,0.96728,-0.3251,-0.087771,-0.0012999999999999,-0.00665,0.087771,0.0012999999999999,0.00665,-0.121371,-0.37393,-0.22644,0.114981,-0.38956,-0.170087,-0.1365589999999999,-0.72388,-0.154798,0.105261,-0.7586,-0.131333,1
100,0.0084149999999999,0.7326250000000001,-0.132481,-0.154909,0.520355,-0.1208709999999999,-0.257249,0.7594749999999999,-0.28423,0.167091,0.542645,-0.082424,0.3043909999999999,0.7714650000000001,-0.1982439999999999,-0.252369,1.012635,-0.40646,0.340221,0.966325,-0.32799,-0.087791,-0.0013849999999999,-0.0067799999999999,0.087791,0.0013849999999999,0.00678,-0.121946,-0.3734249999999999,-0.22807,0.1142209999999999,-0.392835,-0.1713609999999999,-0.137279,-0.7214750000000001,-0.1565119999999999,0.1044109999999999,-0.7558849999999999,-0.13323,1
101,0.0078179999999999,0.732375,-0.134589,-0.155133,0.518925,-0.122828,-0.258093,0.7584249999999999,-0.286795,0.166577,0.542135,-0.084159,0.304467,0.7715650000000001,-0.201355,-0.2524929999999999,1.011345,-0.409035,0.339597,0.964455,-0.330605,-0.087837,-0.001445,-0.0070049999999999,0.087837,0.0014449999999999,0.0070049999999999,-0.122637,-0.373745,-0.229665,0.1134969999999999,-0.396145,-0.172236,-0.137973,-0.719125,-0.158015,0.1035269999999999,-0.753755,-0.13498,1
102,0.0072964999999999,0.73216,-0.136475,-0.1552295,0.51759,-0.124582,-0.2588095,0.75682,-0.2891749999999999,0.1661705,0.54177,-0.0857209999999999,0.3045605,0.7731,-0.204206,-0.2525895,1.00913,-0.411585,0.3390905,0.96602,-0.333015,-0.0878805,-0.0014699999999999,-0.0072249999999999,0.0878805,0.0014699999999999,0.0072249999999999,-0.1232545,-0.37481,-0.2311349999999999,0.1127305,-0.39435,-0.172889,-0.1386095,-0.71717,-0.15932,0.1027105,-0.75179,-0.136618,1
103,0.0068699999999999,0.731755,-0.138031,-0.155255,0.516375,-0.126047,-0.259245,0.754985,-0.29135,0.165825,0.541415,-0.08706,0.304865,0.7728550000000001,-0.207357,-0.252565,1.006595,-0.41378,0.3387349999999999,0.965725,-0.33562,-0.087865,-0.001555,-0.0073399999999999,0.087865,0.001555,0.0073399999999999,-0.1238,-0.375625,-0.2324999999999999,0.1122349999999999,-0.392675,-0.1733279999999999,-0.139125,-0.715495,-0.16044,0.101985,-0.750115,-0.138024,1
104,0.0064674999999999,0.7313999999999999,-0.139326,-0.1553095,0.51519,-0.127378,-0.2598795,0.75259,-0.293365,0.1654805,0.54108,-0.0881499999999999,0.3052304999999999,0.77272,-0.2108519999999999,-0.2528495,1.00494,-0.4159349999999999,0.3384104999999999,0.96586,-0.3380849999999999,-0.0878405,-0.00161,-0.007425,0.0878405,0.00161,0.007425,-0.1245345,-0.37426,-0.234195,0.1119405,-0.39131,-0.174622,-0.1396395,-0.71413,-0.16153,0.1013804999999999,-0.74924,-0.140021,1
105,0.0061815,0.730845,-0.14052,-0.1552504999999999,0.514105,-0.128584,-0.2602105,0.751095,-0.295285,0.1652495,0.540495,-0.089128,0.3055395,0.7724449999999999,-0.214159,-0.2531704999999999,1.003565,-0.4182349999999999,0.3383095,0.965615,-0.340785,-0.0878195,-0.001655,-0.0075049999999999,0.0878195,0.0016549999999999,0.0075049999999999,-0.1251664999999999,-0.373055,-0.235625,0.1119795,-0.390075,-0.175686,-0.1400404999999999,-0.712815,-0.162301,0.1009095,-0.7487050000000001,-0.142105,1
106,0.006027,0.730145,-0.14584,-0.155109,0.513155,-0.133875,-0.260549,0.7494050000000001,-0.301375,0.165111,0.539995,-0.094326,0.306021,0.7719149999999999,-0.22143,-0.253259,1.002095,-0.424955,0.338361,0.967085,-0.347685,-0.087841,-0.0017549999999999,-0.0076149999999999,0.087841,0.001755,0.0076149999999999,-0.125606,-0.372075,-0.2414049999999999,0.112151,-0.3886749999999999,-0.180974,-0.140349,-0.712075,-0.167635,0.100611,-0.7483249999999999,-0.148342,1
107,0.00583,0.730885,-0.151089,-0.154667,0.512375,-0.139076,-0.261277,0.748715,-0.30745,0.165323,0.539625,-0.099286,0.306323,0.772775,-0.228574,-0.253527,1.001405,-0.43197,0.338333,0.970295,-0.35459,-0.087963,-0.0019049999999999,-0.00766,0.087963,0.001905,0.00766,-0.126226,-0.3650949999999999,-0.24955,0.112623,-0.3835849999999999,-0.189946,-0.140757,-0.709865,-0.172916,0.100503,-0.748345,-0.157103,1
108,0.005713,0.7320150000000001,-0.156324,-0.154193,0.512045,-0.144306,-0.261223,0.748205,-0.313485,0.165667,0.539325,-0.1042689999999999,0.306637,0.774025,-0.235605,-0.253733,1.000895,-0.439025,0.338527,0.971965,-0.361405,-0.0879669999999999,-0.002045,-0.0076549999999999,0.087967,0.0020449999999999,0.0076549999999999,-0.126876,-0.358305,-0.257795,0.113427,-0.378135,-0.200376,-0.141113,-0.707505,-0.178225,0.100727,-0.7488049999999999,-0.166768,1
109,0.005698,0.734565,-0.161469,-0.153683,0.512515,-0.149542,-0.261093,0.749815,-0.319185,0.166057,0.539445,-0.109127,0.306357,0.776375,-0.242045,-0.253943,1.002225,-0.446205,0.338327,0.977845,-0.368155,-0.087897,-0.002195,-0.007495,0.087897,0.002195,0.007495,-0.127441,-0.349305,-0.266285,0.114197,-0.364975,-0.210986,-0.1414929999999999,-0.704455,-0.1836269999999999,0.100737,-0.747455,-0.175188,1
110,0.0057974999999999,0.73801,-0.167173,-0.1531145,0.51369,-0.155252,-0.2610345,0.7522500000000001,-0.32515,0.1665355,0.5402100000000001,-0.114535,0.3063555,0.7796000000000001,-0.24835,-0.2540745,1.00411,-0.4539299999999999,0.3382655,0.98421,-0.3765699999999999,-0.0876955,-0.0023199999999999,-0.00747,0.0876955,0.00232,0.00747,-0.1279185,-0.3400399999999999,-0.27534,0.1151255,-0.3517299999999999,-0.222269,-0.1417545,-0.70177,-0.189925,0.1010755,-0.7455700000000001,-0.185587,1
111,0.0060745,0.7413449999999999,-0.172966,-0.1524745,0.5151950000000001,-0.161034,-0.2602445,0.755415,-0.33115,0.1671955,0.541165,-0.120023,0.3064655,0.782035,-0.25442,-0.2540745,1.007445,-0.46117,0.3384155,0.989945,-0.38505,-0.0873655,-0.002475,-0.00745,0.0873655,0.002475,0.0074499999999999,-0.1279525,-0.328835,-0.28417,0.1163255,-0.339115,-0.233751,-0.1418245,-0.699905,-0.196428,0.1016655,-0.7439549999999999,-0.196034,1
112,0.006632,0.7436149999999999,-0.178436,-0.151724,0.517085,-0.166479,-0.258804,0.7576849999999999,-0.33696,0.168096,0.541485,-0.125257,0.306446,0.783255,-0.25916,-0.254044,1.009715,-0.46782,0.338566,0.992775,-0.39216,-0.086896,-0.002485,-0.00751,0.086896,0.0024849999999999,0.0075099999999999,-0.127989,-0.3198749999999999,-0.29235,0.117656,-0.328655,-0.24548,-0.141864,-0.6988650000000001,-0.202825,0.102456,-0.742815,-0.206244,1
113,0.0073805,0.745335,-0.183589,-0.1509305,0.518805,-0.171549,-0.2577705,0.759405,-0.3424,0.1692195,0.541315,-0.1301459999999999,0.3065795,0.784595,-0.263672,-0.2539205,1.011435,-0.4736,0.3387695,0.994955,-0.39863,-0.0866194999999999,-0.002295,-0.0075099999999999,0.0866195,0.0022949999999999,0.0075099999999999,-0.1279135,-0.310265,-0.30024,0.1192295,-0.319495,-0.25742,-0.1419905,-0.700265,-0.211612,0.1034095,-0.741955,-0.2159869999999999,1
114,0.0081084999999999,0.746105,-0.187492,-0.1504885,0.518805,-0.17548,-0.2572185,0.759405,-0.34658,0.1703414999999999,0.541315,-0.134025,0.3069015,0.784775,-0.268449,-0.2538185,1.011945,-0.47861,0.3392215,0.997655,-0.4044999999999999,-0.0863915,-0.002295,-0.0075099999999999,0.0863915,0.0022949999999999,0.0075099999999999,-0.1279205,-0.302585,-0.30699,0.1205515,-0.314675,-0.267769,-0.1422085,-0.702845,-0.219967,0.1042815,-0.741785,-0.223965,1
115,0.0085529999999999,0.748095,-0.186467,-0.150362,0.518805,-0.17429,-0.256872,0.760935,-0.345205,0.171238,0.541315,-0.133014,0.306878,0.785345,-0.2680929999999999,-0.253932,1.013775,-0.478895,0.339508,1.000685,-0.4047349999999999,-0.0863879999999999,-0.002295,-0.0075349999999999,0.0863879999999999,0.0022949999999999,0.007535,-0.128085,-0.294985,-0.309265,0.121708,-0.309895,-0.2732549999999999,-0.142702,-0.705075,-0.223611,0.104958,-0.741385,-0.2271439999999999,1
116,0.0089699999999999,0.751655,-0.184735,-0.1503769999999999,0.519265,-0.172574,-0.256137,0.763745,-0.343435,0.171773,0.541315,-0.131911,0.307063,0.786175,-0.266983,-0.253827,1.016695,-0.478885,0.339933,1.003855,-0.404695,-0.086243,-0.002295,-0.007525,0.086243,0.0022949999999999,0.007525,-0.128097,-0.292375,-0.3092749999999999,0.122593,-0.307425,-0.273175,-0.143007,-0.706415,-0.226565,0.1054929999999999,-0.741375,-0.227098,1
117,0.009401,0.756335,-0.182686,-0.150197,0.521225,-0.170508,-0.255347,0.767535,-0.3414399999999999,0.172583,0.542265,-0.130369,0.307173,0.786005,-0.264196,-0.253707,1.020585,-0.47813,0.340283,1.006555,-0.40405,-0.085873,-0.002345,-0.0074899999999999,0.085873,0.0023449999999999,0.0074899999999999,-0.127873,-0.289695,-0.30925,0.1237429999999999,-0.304365,-0.27307,-0.143067,-0.707225,-0.22985,0.106273,-0.741545,-0.227023,1
118,0.0100795,0.762195,-0.179711,-0.1494725,0.5229550000000001,-0.168081,-0.2543325,0.7714749999999999,-0.338015,0.1738375,0.5426949999999999,-0.128561,0.3077375,0.7865850000000001,-0.260893,-0.2531724999999999,1.025525,-0.475585,0.3413375,1.010725,-0.403495,-0.0854375,-0.002195,-0.007605,0.0854375,0.002195,0.007605,-0.1270925,-0.287435,-0.308715,0.1255175,-0.302275,-0.272445,-0.1426025,-0.708045,-0.232244,0.1077074999999999,-0.7423649999999999,-0.226429,1
119,0.011365,0.76502,-0.175483,-0.1487149999999999,0.52708,-0.164519,-0.252555,0.77423,-0.33409,0.175505,0.5433600000000001,-0.126084,0.308965,0.7848600000000001,-0.256609,-0.252025,1.0282,-0.4718,0.342835,1.01029,-0.40186,-0.084705,-0.0017099999999999,-0.00762,0.084705,0.00171,0.0076199999999999,-0.125885,-0.2893799999999999,-0.30596,0.1277249999999999,-0.3033999999999999,-0.27099,-0.141515,-0.7128399999999999,-0.234126,0.109705,-0.74349,-0.224977,1
120,0.0128229999999999,0.76648,-0.1702489999999999,-0.1477989999999999,0.5304599999999999,-0.1608379999999999,-0.251019,0.77732,-0.329675,0.177411,0.5435099999999999,-0.123566,0.3104909999999999,0.78251,-0.252084,-0.250689,1.03254,-0.466935,0.344391,1.00987,-0.399505,-0.084031,-0.0011399999999999,-0.0075849999999999,0.084031,0.00114,0.007585,-0.124546,-0.29177,-0.302675,0.130091,-0.3060799999999999,-0.267555,-0.140189,-0.7191099999999999,-0.2361309999999999,0.111781,-0.7461899999999999,-0.221995,1
121,0.0141984999999999,0.765765,-0.16452,-0.1469995,0.532415,-0.1572829999999999,-0.2491695,0.779555,-0.324825,0.1791205,0.543505,-0.1211189999999999,0.3118905,0.779665,-0.247138,-0.2494495,1.035155,-0.461935,0.3458005,1.006575,-0.3954649999999999,-0.0832905,-0.0006849999999999,-0.0075749999999999,0.0832905,0.0006849999999999,0.0075749999999999,-0.1232745,-0.295575,-0.2987149999999999,0.1323705,-0.309935,-0.263243,-0.1389595,-0.726615,-0.238196,0.1137804999999999,-0.750405,-0.218889,1
122,0.0154645,0.76316,-0.1569179999999999,-0.1462965,0.53484,-0.1522769999999999,-0.2475865,0.78073,-0.31889,0.1809035,0.54422,-0.1172309999999999,0.3134335,0.7762399999999999,-0.2413979999999999,-0.2482965,1.0369,-0.45454,0.3472035,1.0028,-0.38964,-0.0827335,-0.0002199999999999,-0.0075099999999999,0.0827335,0.0002199999999999,0.00751,-0.1221365,-0.30078,-0.29306,0.1346435,-0.31514,-0.25722,-0.1372565,-0.73488,-0.2366309999999999,0.1158135,-0.75585,-0.2146139999999999,1
123,0.016866,0.7593350000000001,-0.14875,-0.145235,0.536475,-0.147193,-0.246255,0.782065,-0.31254,0.1829849999999999,0.5441750000000001,-0.1130779999999999,0.315425,0.7738849999999999,-0.235265,-0.246885,1.037485,-0.44637,0.348905,0.999715,-0.38503,-0.082395,0.0004149999999999,-0.0073399999999999,0.082395,-0.0004149999999999,0.00734,-0.120783,-0.305685,-0.28676,0.137015,-0.320665,-0.250502,-0.135315,-0.742675,-0.2345149999999999,0.1184349999999999,-0.7616449999999999,-0.209648,1
124,0.0180115,0.7553000000000001,-0.139936,-0.1441245,0.53715,-0.1421879999999999,-0.2454345,0.7838400000000001,-0.305685,0.1851155,0.5445500000000001,-0.1087559999999999,0.3175455,0.77292,-0.2290809999999999,-0.2456944999999999,1.039,-0.4376649999999999,0.3508555,0.99654,-0.378945,-0.0821355,0.00082,-0.0070749999999999,0.0821355,-0.0008199999999999,0.0070749999999999,-0.1193444999999999,-0.3102499999999999,-0.280545,0.1391255,-0.32598,-0.243222,-0.1333945,-0.75027,-0.231576,0.1212555,-0.7672399999999999,-0.2056029999999999,1
125,0.0190795,0.7489250000000001,-0.1305029999999999,-0.1437785,0.540825,-0.135574,-0.2442285,0.785385,-0.2982399999999999,0.1869615,0.545945,-0.1036,0.3198215,0.7707250000000001,-0.2227029999999999,-0.2443785,1.038785,-0.42867,0.3530315,0.992775,-0.37198,-0.0818355,0.001015,-0.00694,0.0818355,-0.0010149999999999,0.00694,-0.1177884999999999,-0.315915,-0.27305,0.1411615,-0.331735,-0.2343279999999999,-0.1310885,-0.7565649999999999,-0.227676,0.1240514999999999,-0.773245,-0.198386,1
126,0.0200965,0.742705,-0.121692,-0.1432585,0.5441050000000001,-0.129185,-0.2435685,0.787265,-0.29078,0.1886815,0.546395,-0.098779,0.3221815,0.769425,-0.216807,-0.2431085,1.039525,-0.41975,0.3550615,0.990655,-0.36527,-0.0815895,0.0015049999999999,-0.00683,0.0815895,-0.001505,0.0068299999999999,-0.1161285,-0.326825,-0.26553,0.1432115,-0.342645,-0.22579,-0.1284985,-0.763355,-0.223737,0.1262915,-0.784155,-0.191766,1
127,0.0207084999999999,0.7393799999999999,-0.112558,-0.1429205,0.54771,-0.122505,-0.2433205,0.78792,-0.2836,0.1901995,0.5468999999999999,-0.093507,0.3246095,0.767,-0.210816,-0.2419705,1.03941,-0.41149,0.3570095,0.9873,-0.35881,-0.0811175,0.0018399999999999,-0.00664,0.0811175,-0.00184,0.00664,-0.1147104999999999,-0.33825,-0.25706,0.1450695,-0.35407,-0.216217,-0.1261205,-0.77115,-0.2197069999999999,0.1283495,-0.7955800000000001,-0.184438,1
128,0.020218,0.7375849999999999,-0.0998229999999999,-0.143597,0.549465,-0.1120579999999999,-0.246937,0.787245,-0.272335,0.190573,0.546125,-0.0837729999999999,0.326343,0.7631349999999999,-0.2003079999999999,-0.242057,1.038655,-0.399045,0.357773,0.983875,-0.3482449999999999,-0.08066,0.002345,-0.0062049999999999,0.08066,-0.002345,0.006205,-0.114447,-0.349285,-0.2437849999999999,0.145673,-0.365105,-0.2016949999999999,-0.124967,-0.7793950000000001,-0.2096699999999999,0.129323,-0.8066150000000001,-0.17267,1
129,0.019536,0.738591,-0.086377,-0.144805,0.550891,-0.100013,-0.2529349999999999,0.784501,-0.259825,0.190545,0.546511,-0.072452,0.328475,0.758521,-0.188216,-0.242505,1.034651,-0.385615,0.358205,0.978561,-0.3364749999999999,-0.0804169999999999,0.0022589999999999,-0.0054649999999999,0.0804169999999999,-0.002259,0.0054649999999999,-0.114675,-0.364179,-0.22659,0.143765,-0.381509,-0.182617,-0.1242949999999999,-0.788999,-0.195774,0.129765,-0.818299,-0.15944,1
130,0.0188099999999999,0.7411395,-0.073389,-0.1462629999999999,0.5535795,-0.087774,-0.259023,0.7810895,-0.24747,0.190657,0.5465195,-0.060972,0.331077,0.7537995,-0.17628,-0.2430129999999999,1.0310295,-0.37217,0.358697,0.9733295,-0.3247299999999999,-0.080247,0.0024085,-0.0048399999999999,0.080247,-0.0024084999999999,0.0048399999999999,-0.114713,-0.3785705,-0.20932,0.141697,-0.3975305,-0.163566,-0.123313,-0.7984205,-0.181205,0.130177,-0.8292905,-0.146118,1
131,0.0180165,0.7448405,-0.0606439999999999,-0.1476815,0.5551505,-0.07557,-0.2661715,0.7779205,-0.234525,0.1910785,0.5448605,-0.049571,0.3338285,0.7488305,-0.164022,-0.2437015,1.0273805,-0.359185,0.3591885,0.9683405,-0.312685,-0.0802265,0.0025185,-0.0043149999999999,0.0802265,-0.0025184999999999,0.0043149999999999,-0.1146115,-0.3907494999999999,-0.1913969999999999,0.1395185,-0.4134295,-0.144222,-0.1228415,-0.8070394999999999,-0.166687,0.1306285,-0.8387395,-0.132324,1
132,0.0170164999999999,0.74965,-0.047845,-0.1494095,0.5572900000000001,-0.063319,-0.2733495,0.77408,-0.221807,0.1914405,0.5433600000000001,-0.038122,0.3367604999999999,0.74332,-0.15189,-0.2449095,1.0247,-0.346607,0.3596405,0.96306,-0.300487,-0.0801105,0.0025,-0.003915,0.0801105,-0.0025,0.003915,-0.1147095,-0.40378,-0.173123,0.1369004999999999,-0.42946,-0.12421,-0.1224095,-0.81579,-0.151663,0.1309604999999999,-0.8486,-0.118174,1
133,0.0160515,0.754662,-0.035443,-0.1511685,0.5601020000000001,-0.051129,-0.2779385,0.7694920000000001,-0.209681,0.1919215,0.541712,-0.026637,0.3399115,0.737342,-0.139794,-0.2457585,1.021582,-0.334201,0.3602515,0.958532,-0.288271,-0.0800565,0.002744,-0.003664,0.0800565,-0.0027439999999999,0.003664,-0.1151285,-0.417338,-0.153982,0.1342315,-0.4456779999999999,-0.104215,-0.1219385,-0.8244079999999999,-0.136772,0.1312615,-0.8584579999999999,-0.10394,1
134,0.014743,0.760624,-0.0231824999999999,-0.1523499999999999,0.559314,-0.0404405,-0.28245,0.765004,-0.1974425,0.19239,0.5417540000000001,-0.0156044999999999,0.34258,0.732354,-0.1277795,-0.24686,1.019234,-0.3219525,0.36038,0.954344,-0.2756325,-0.079956,0.002859,-0.0032814999999999,0.079956,-0.002859,0.0032815,-0.11619,-0.430356,-0.1350305,0.13119,-0.460976,-0.0850364999999999,-0.12185,-0.831556,-0.1213275,0.13102,-0.867456,-0.0895894999999999,1
135,0.0133595,0.767512,-0.0114165,-0.1534654999999999,0.559212,-0.0301595,-0.2861255,0.761152,-0.1852504999999999,0.1929145,0.541542,-0.0050545,0.3453144999999999,0.7280220000000001,-0.1161365,-0.2478155,1.017342,-0.3096405,0.3606344999999999,0.948992,-0.2629705,-0.0799665,0.003025,-0.0029175,0.0799665,-0.003025,0.0029175,-0.1172755,-0.441648,-0.1161595,0.1278045,-0.475978,-0.0660145,-0.1217555,-0.8379679999999999,-0.1060504999999999,0.1305445,-0.875748,-0.0756925,1
136,0.0121229999999999,0.770451,-6.899999999999962e-05,-0.154544,0.559001,-0.020279,-0.289484,0.759361,-0.173411,0.193426,0.541841,0.005041,0.347806,0.724491,-0.104885,-0.248704,1.015321,-0.297091,0.360826,0.944341,-0.250591,-0.080101,0.0032329999999999,-0.0025319999999999,0.080101,-0.0032329999999999,0.0025319999999999,-0.118654,-0.452449,-0.097551,0.124236,-0.490549,-0.047575,-0.121594,-0.843359,-0.091375,0.129726,-0.882419,-0.0619829999999999,1
137,0.0116969999999999,0.7734595,0.0065959999999999,-0.154572,0.5581295000000001,-0.015161,-0.289342,0.7589895,-0.16594,0.194638,0.5430595,0.0102769999999999,0.350718,0.7227495,-0.098564,-0.248732,1.0152795,-0.28913,0.361778,0.9413095,-0.2428799999999999,-0.08023,0.0029544999999999,-0.002379,0.08023,-0.0029544999999999,0.0023789999999999,-0.119422,-0.4626004999999999,-0.084581,0.121678,-0.5050705,-0.035159,-0.120832,-0.8476805,-0.083007,0.129568,-0.8891605,-0.053447,1
138,0.0115095,0.7746419999999999,0.0120709999999999,-0.1542205,0.558162,-0.011181,-0.2881605,0.760002,-0.159527,0.1959295,0.543472,0.0143449999999999,0.3530795,0.722112,-0.093475,-0.2486105,1.016652,-0.282157,0.3629095,0.938002,-0.235727,-0.0802684999999999,0.003191,-0.002631,0.0802684999999999,-0.0031909999999999,0.0026309999999999,-0.1202304999999999,-0.465908,-0.074623,0.1213694999999999,-0.508378,-0.027042,-0.1198005,-0.850988,-0.077841,0.1303595,-0.892468,-0.046155,1
139,0.0116015,0.775196,0.017613,-0.1535875,0.5577460000000001,-0.0072849999999999,-0.2870875,0.761266,-0.15332,0.1971325,0.544146,0.018295,0.3550625,0.721696,-0.0884649999999999,-0.2484074999999999,1.018436,-0.27519,0.3638325,0.934946,-0.22861,-0.0801955,0.0032669999999999,-0.0026689999999999,0.0801955,-0.003267,0.002669,-0.1211474999999999,-0.468964,-0.064815,0.1210325,-0.5114339999999999,-0.0190379999999999,-0.1189274999999999,-0.8540439999999999,-0.072721,0.1308125,-0.895524,-0.0382099999999999,1
140,0.0118564999999999,0.7757415,0.022826,-0.1527455,0.5572615,-0.003931,-0.2860055,0.7623315,-0.147957,0.1983145,0.5451315,0.0216999999999999,0.3567945,0.7215015,-0.08376,-0.2478455,1.0206915,-0.268427,0.3644845,0.9337915,-0.221637,-0.0799905,0.0033385,-0.002609,0.0799905,-0.0033384999999999,0.0026089999999999,-0.1218654999999999,-0.4717085,-0.055894,0.1207945,-0.5141785,-0.011405,-0.1179555,-0.8567885,-0.067856,0.1313145,-0.8982685,-0.031149,1
141,0.012172,0.7759885000000001,0.027635,-0.151937,0.5570885000000001,-0.0007549999999999,-0.284207,0.7633285000000001,-0.142776,0.199253,0.5458985000000001,0.024946,0.3581029999999999,0.7213385,-0.079211,-0.247217,1.0215585,-0.261846,0.364843,0.9330085,-0.214816,-0.079793,0.0036144999999999,-0.0025789999999999,0.079793,-0.0036144999999999,0.0025789999999999,-0.123057,-0.4694615,-0.04751,0.120733,-0.5159414999999999,-0.004424,-0.117867,-0.8572015,-0.062544,0.131543,-0.8975015,-0.023451,1
142,0.0124935,0.7763859999999999,0.032157,-0.1512815,0.557036,0.002274,-0.2832215,0.762396,-0.138269,0.2000085,0.546856,0.028144,0.3591985,0.719486,-0.0750359999999999,-0.2467915,1.020986,-0.255869,0.3648785,0.931316,-0.208299,-0.0795815,0.003722,-0.0024799999999999,0.0795815,-0.0037219999999999,0.00248,-0.1239314999999999,-0.467304,-0.040447,0.1207285,-0.5181840000000001,0.002054,-0.1179114999999999,-0.8571040000000001,-0.057343,0.1320385,-0.897924,-0.0173499999999999,1
143,0.0129,0.7773625,0.036678,-0.150659,0.5572824999999999,0.0053969999999999,-0.282269,0.7608725000000001,-0.134504,0.200691,0.5457425,0.031551,0.360291,0.7179625000000001,-0.071273,-0.2463189999999999,1.0194625,-0.250504,0.364781,0.9297925,-0.202474,-0.0794469999999999,0.0040475,-0.0025169999999999,0.0794469999999999,-0.0040474999999999,0.002517,-0.124599,-0.4656575,-0.034546,0.120831,-0.5194775,0.0081369999999999,-0.1177489999999999,-0.8565275000000001,-0.0524759999999999,0.1327009999999999,-0.8988075,-0.0129679999999999,1
144,0.013182,0.777832,0.0411015,-0.1502959999999999,0.557172,0.0084305,-0.2816459999999999,0.759612,-0.1308925,0.201064,0.5446319999999999,0.0349715,0.361154,0.716702,-0.0676365,-0.246046,1.018202,-0.2454625,0.364264,0.928532,-0.1972825,-0.079305,0.00421,-0.0025185,0.079305,-0.0042099999999999,0.0025185,-0.125286,-0.463708,-0.0296645,0.120984,-0.520738,0.0133304999999999,-0.1177659999999999,-0.8556680000000001,-0.0477975,0.132874,-0.898398,-0.0077745,1
145,0.013318,0.7786865,0.045731,-0.150215,0.5567565,0.011698,-0.281215,0.7591865,-0.127097,0.201215,0.5442064999999999,0.038716,0.361945,0.7162765,-0.063803,-0.246005,1.0177765,-0.240977,0.363695,0.9281065,-0.192267,-0.079189,0.0042675,-0.0026759999999999,0.079189,-0.0042675,0.002676,-0.125825,-0.4611335,-0.0257479999999999,0.121285,-0.5211635,0.01801,-0.117935,-0.8541835,-0.043002,0.133165,-0.8973435000000001,-0.0034689999999999,1
146,0.0130714999999999,0.7794964999999999,0.0501424999999999,-0.1505865,0.5567565,0.0148055,-0.2810665,0.7578965,-0.1234795,0.2009335,0.5442064999999999,0.0421804999999999,0.3628234999999999,0.7144064999999999,-0.0601155,-0.2465165,1.0177765,-0.2368895,0.3626435,0.9258865,-0.1879295,-0.0790795,0.0042675,-0.0028165,0.0790795,-0.0042675,0.0028164999999999,-0.1264165,-0.4582835,-0.0221995,0.1213335,-0.5211635,0.0219304999999999,-0.1183865,-0.8523235,-0.0384995,0.1331435,-0.8961435,0.0005574999999999,1
147,0.0125895,0.7802565,0.054452,-0.1513314999999999,0.5567565,0.0177599999999999,-0.2825915,0.7537765,-0.12109,0.2004385,0.5442064999999999,0.045375,0.3651185,0.7070965,-0.056842,-0.2483115,1.0102565,-0.23309,0.3613685,0.9200365,-0.18367,-0.0789395,0.0042675,-0.0031459999999999,0.0789395,-0.0042675,0.0031459999999999,-0.1267815,-0.4570235,-0.01884,0.1212685,-0.5213835,0.025318,-0.1187814999999999,-0.8506335,-0.034386,0.1330685,-0.8951335,0.0040739999999999,0
148,0.01191,0.7809065,0.058931,-0.152575,0.5567565,0.0209849999999999,-0.2895749999999999,0.7427665,-0.118894,0.199625,0.5432365,0.048663,0.367855,0.6974965,-0.054013,-0.250515,0.9989065,-0.2297239999999999,0.360075,0.9093565,-0.180104,-0.078876,0.0042675,-0.003519,0.078876,-0.0042675,0.0035189999999999,-0.1271649999999999,-0.4560635,-0.0153,0.121075,-0.5218735,0.028877,-0.119215,-0.8493235,-0.030453,0.132845,-0.8942335,0.007634,0
149,0.0111859999999999,0.7814464999999999,0.063413,-0.154056,0.5562265,0.0244379999999999,-0.298056,0.7284565,-0.11645,0.198524,0.5417865,0.05202,0.3722339999999999,0.6848465,-0.051167,-0.253556,0.9796065,-0.22634,0.358774,0.8960064999999999,-0.17656,-0.0788089999999999,0.0042265,-0.004087,0.0788089999999999,-0.0042265,0.0040869999999999,-0.127586,-0.4553534999999999,-0.012688,0.120784,-0.5226735,0.032521,-0.119696,-0.8480435000000001,-0.026601,0.132344,-0.8928635,0.011529,0
150,0.0104725,0.7821085,0.0676555,-0.1554985,0.5560085,0.0278495,-0.3071085,0.7117585000000001,-0.1137435,0.1974215,0.5401585,0.0552615,0.3758415,0.6667285000000001,-0.0471445,-0.2568185,0.9588285,-0.2233735,0.3578315,0.8780485,-0.1727735,-0.0787735,0.0042965,-0.0044595,0.0787735,-0.0042965,0.0044595,-0.1277585,-0.4546914999999999,-0.0113165,0.1204814999999999,-0.5222915,0.0357565,-0.1200285,-0.8473815,-0.0230844999999999,0.1320214999999999,-0.8922015,0.0149055,0
151,0.0097939999999999,0.7831039999999999,0.0717989999999999,-0.156955,0.555874,0.031201,-0.316605,0.6886639999999999,-0.111062,0.196315,0.538534,0.058552,0.381105,0.645874,-0.043019,-0.260145,0.932284,-0.220782,0.356665,0.8573139999999999,-0.169292,-0.078743,0.0044069999999999,-0.0047849999999999,0.078743,-0.004407,0.004785,-0.127855,-0.453696,-0.010328,0.120205,-0.5215860000000001,0.038643,-0.120365,-0.8463860000000001,-0.019533,0.131915,-0.891526,0.017351,0
152,0.009214,0.7843895,0.0753485,-0.158356,0.5549995,0.0342625,-0.326116,0.6623595,-0.1086444999999999,0.1952539999999999,0.5370395,0.0615895,0.384904,0.6201695,-0.0393425,-0.263536,0.8997595,-0.2186145,0.355714,0.8300095,-0.1658945,-0.078715,0.0044914999999999,-0.0050774999999999,0.078715,-0.0044915,0.0050775,-0.127886,-0.4524105,-0.0100025,0.120054,-0.5205905,0.0407405,-0.120676,-0.8451005,-0.0162455,0.131784,-0.8900305,0.0199405,0
153,0.0087345,0.7861319999999999,0.078586,-0.1600805,0.553382,0.037319,-0.3356205,0.630842,-0.105185,0.1943595,0.536262,0.06473,0.3865495,0.589032,-0.034546,-0.2670405,0.859702,-0.216605,0.3546195,0.797372,-0.162595,-0.0787195,0.0043749999999999,-0.005278,0.0787195,-0.004375,0.005278,-0.1279805,-0.451728,-0.009695,0.1198195,-0.519448,0.042406,-0.1210105,-0.843188,-0.0133489999999999,0.1313695,-0.888318,0.022547,0
154,0.0082435,0.7884805,0.0816969999999999,-0.1618554999999999,0.5503705,0.040242,-0.3427855,0.5970405,-0.100616,0.1934245,0.5340205,0.067675,0.3857244999999999,0.5511205,-0.027024,-0.2704955,0.8147605,-0.213756,0.3535445,0.7582005,-0.159166,-0.0787985,0.0043374999999999,-0.005285,0.0787985,-0.0043375,0.005285,-0.1280355,-0.4496194999999999,-0.009265,0.1196145,-0.5172095,0.043974,-0.1213054999999999,-0.8408795,-0.0101859999999999,0.1311345,-0.8860795,0.025126,0
155,0.0078565,0.7908815,0.0846195,-0.1636125,0.5477215,0.0429485,-0.3454025,0.5582515,-0.0941935,0.1925875,0.5318315,0.0703915,0.3847175,0.5112715,-0.0175054999999999,-0.2716225,0.7633715,-0.2119235,0.3524975,0.7160615,-0.1560935,-0.0788685,0.0041845,-0.0052905,0.0788685,-0.0041845,0.0052905,-0.1280825,-0.4474384999999999,-0.0086865,0.1194375,-0.5148485,0.0453905,-0.1214924999999999,-0.8384685000000001,-0.0072445,0.1308775,-0.8837185000000001,0.0280605,0
156,0.007587,0.7933975000000001,0.0867969999999999,-0.1652749999999999,0.5451375,0.045451,-0.347275,0.5163975000000001,-0.082289,0.191905,0.5297375000000001,0.0727319999999999,0.383615,0.4759275,-0.006574,-0.274105,0.7122675,-0.209289,0.351115,0.6711175,-0.153259,-0.078953,0.0040354999999999,-0.00507,0.078953,-0.0040355,0.0050699999999999,-0.128215,-0.4448325,-0.007899,0.119325,-0.5123325,0.0467459999999999,-0.121585,-0.8357724999999999,-0.004429,0.130785,-0.8812025,0.0308169999999999,0
157,0.0074984999999999,0.7957205,0.0877275,-0.1665245,0.5430405,0.0474435,-0.3484845,0.4806705,-0.0700655,0.1914455,0.5279604999999999,0.0745875,0.3811455,0.4420705,0.0022094999999999,-0.2764045,0.6571405,-0.2063175,0.3491855,0.6279105,-0.1514474999999999,-0.0790245,0.0039755,-0.0048395,0.0790245,-0.0039755,0.0048395,-0.1282845,-0.4425395,-0.0069954999999999,0.1193154999999999,-0.5094595,0.0480705,-0.1215945,-0.8321594999999999,-0.0018705,0.1305155,-0.8779695,0.0339835,0
158,0.0075985,0.7979425,0.088009,-0.1676315,0.5407425,0.049242,-0.3497015,0.4473924999999999,-0.057682,0.1909985,0.5262825,0.076176,0.3778485,0.4074925,0.010988,-0.2778615,0.6058925,-0.202832,0.3466484999999999,0.5801025,-0.150042,-0.0791135,0.0040234999999999,-0.0043829999999999,0.0791135,-0.0040234999999999,0.004383,-0.1283115,-0.4405675,-0.005811,0.1193085,-0.5065875,0.049381,-0.1216215,-0.8286475,0.000625,0.1303185,-0.8746975,0.037031,0
159,0.0080684999999999,0.7998115,0.0875465,-0.1686145,0.5382715,0.0508375,-0.3511445,0.4153415,-0.0425045,0.1907055,0.5248915,0.0776805,0.3695854999999999,0.3774615,0.0194405,-0.2782345,0.5480515,-0.1989455,0.3439954999999999,0.5326115,-0.1492455,-0.0791885,0.0039305,-0.0041055,0.0791885,-0.0039304999999999,0.0041055,-0.1283445,-0.4388284999999999,-0.0043365,0.1193555,-0.5036585,0.0508095,-0.1215844999999999,-0.8253484999999999,0.0030645,0.1304355,-0.8719485,0.0387885,0
160,0.0089619999999999,0.8011845,0.0862615,-0.169387,0.5354545,0.0521825,-0.349197,0.3884945,-0.0271434999999999,0.1903329999999999,0.5236345,0.0790575,0.360723,0.3481745,0.0282185,-0.2785769999999999,0.4881345,-0.1949705,0.340153,0.4870845,-0.1525505,-0.079233,0.0038424999999999,-0.0039084999999999,0.079233,-0.0038424999999999,0.0039084999999999,-0.128427,-0.4373455,-0.0028994999999999,0.119443,-0.5007955,0.0520604999999999,-0.1215369999999999,-0.8217655,0.0054615,0.1305629999999999,-0.8696955,0.0407265,0
161,0.010092,0.8024534999999999,0.0843825,-0.170045,0.5332935,0.0532195,-0.345305,0.3634235,-0.0119714999999999,0.190045,0.5223135,0.0802985,0.349205,0.3238035,0.0337375,-0.277655,0.4324135,-0.1882475,0.333215,0.4449735,-0.1560274999999999,-0.0793089999999999,0.0038204999999999,-0.0037804999999999,0.0793089999999999,-0.0038205,0.0037805,-0.128515,-0.4360765,-0.0014364999999999,0.119535,-0.4979465,0.0532735,-0.121525,-0.8183765000000001,0.0076995,0.130685,-0.8675265000000001,0.0423395,0
162,0.011521,0.8034045,0.0818295,-0.1703899999999999,0.5313545,0.0537865,-0.33982,0.3430145,0.0023794999999999,0.18989,0.5209045,0.0814425,0.33853,0.3082345,0.0423365,-0.27428,0.3776645,-0.1799115,0.3258,0.4062145,-0.1571415,-0.079383,0.0037775,-0.0038424999999999,0.079383,-0.0037774999999999,0.0038425,-0.12855,-0.4345254999999999,-0.0001774999999999,0.11961,-0.4954355,0.0544415,-0.12164,-0.8152455,0.0098015,0.13085,-0.8657355,0.0438945,0
163,0.0136245,0.804396,0.0783195,-0.1704205,0.5304760000000001,0.0537415,-0.3295505,0.326186,0.0158344999999999,0.1898495,0.521056,0.0823115,0.3285295,0.300786,0.0484295,-0.2712205,0.326516,-0.1699715,0.3162594999999999,0.372576,-0.1581015,-0.0794705,0.003662,-0.0040055,0.0794705,-0.0036619999999999,0.0040054999999999,-0.1285305,-0.432714,0.0007194999999999,0.1197395,-0.4929139999999999,0.0552585,-0.1215205,-0.8135239999999999,0.0116294999999999,0.1309094999999999,-0.863144,0.0458704999999999,0
164,0.0159869999999999,0.805147,0.074821,-0.170228,0.529307,0.053613,-0.318758,0.3164869999999999,0.027317,0.1898719999999999,0.520977,0.083219,0.318882,0.2969969999999999,0.053104,-0.267808,0.280897,-0.1582489999999999,0.306212,0.342167,-0.158519,-0.079571,0.003619,-0.004185,0.079571,-0.0036189999999999,0.004185,-0.128448,-0.4308729999999999,0.0015809999999999,0.119942,-0.490813,0.056027,-0.121358,-0.8119930000000001,0.013531,0.1310219999999999,-0.8611730000000001,0.047094,0
165,0.0184985,0.8055915,0.0716514999999999,-0.1699765,0.5283915,0.0531834999999999,-0.3068965,0.3099015,0.0327704999999999,0.1898935,0.5208214999999999,0.0841175,0.3111935,0.2930215,0.0558155,-0.2638665,0.2394514999999999,-0.1459925,0.2968035,0.3198115,-0.1607925,-0.0796315,0.0036155,-0.0043505,0.0796315,-0.0036154999999999,0.0043504999999999,-0.1283564999999999,-0.4289185,0.0022404999999999,0.1201935,-0.4889185,0.0566555,-0.1212165,-0.8094085000000001,0.0154134999999999,0.1311335,-0.8588785,0.0487224999999999,0
166,0.021057,0.8058975,0.0688695,-0.16984,0.5272875,0.0528334999999999,-0.29584,0.3030875,0.0373325,0.18984,0.5206975,0.0850664999999999,0.30702,0.2890075,0.0585514999999999,-0.26086,0.2020775,-0.1332315,0.28735,0.2973275,-0.1627115,-0.079669,0.0035455,-0.0045125,0.079669,-0.0035455,0.0045124999999999,-0.12838,-0.4282025,0.0027184999999999,0.12028,-0.4879825,0.0570585,-0.12119,-0.8076125,0.0167664999999999,0.13118,-0.8571825,0.0498765,0
167,0.0236534999999999,0.805967,0.0661325,-0.1696464999999999,0.526257,0.0522795,-0.2873165,0.2957269999999999,0.0412504999999999,0.1897535,0.520567,0.0859095,0.3032235,0.2882369999999999,0.0590195,-0.2581865,0.166517,-0.1213785,0.2784735,0.284117,-0.1651885,-0.0796815,0.003414,-0.0047405,0.0796815,-0.003414,0.0047404999999999,-0.1284865,-0.427723,0.0031155,0.1203135,-0.487503,0.0578635,-0.1212365,-0.806133,0.0180275,0.1310835,-0.856013,0.0513934999999999,0
168,0.026164,0.806011,0.0635245,-0.169164,0.525051,0.0514415,-0.278684,0.288371,0.0429385,0.189736,0.520641,0.0865635,0.302726,0.287271,0.0607744999999999,-0.256564,0.1363079999999999,-0.1095505,0.269576,0.272461,-0.1681804999999999,-0.079688,0.0033269999999999,-0.0049314999999999,0.079688,-0.003327,0.0049314999999999,-0.128564,-0.427439,0.0033245,0.1203859999999999,-0.487219,0.0582634999999999,-0.121234,-0.8058289999999999,0.0190445,0.131136,-0.855729,0.0524555,0
169,0.028504,0.8053105,0.0612179999999999,-0.168598,0.5246705,0.050503,-0.270808,0.2818905,0.042539,0.1897519999999999,0.5207305,0.087229,0.302422,0.2859205,0.060031,-0.256038,0.1133595,-0.097165,0.262162,0.2640805,-0.169425,-0.079694,0.0033235,-0.0050559999999999,0.079694,-0.0033235,0.0050559999999999,-0.128658,-0.4268495,0.0034539999999999,0.120412,-0.4865695,0.058449,-0.121318,-0.8051294999999999,0.0197439999999999,0.130992,-0.8548595,0.0534329999999999,0
170,0.0307115,0.8045415,0.059246,-0.1679844999999999,0.5243614999999999,0.049473,-0.2639345,0.2770415,0.0438,0.1897955,0.5208515,0.087763,0.3018055,0.2852515,0.059421,-0.2569945,0.0913045,-0.0876809999999999,0.2578955,0.2590515,-0.1704109999999999,-0.0796985,0.0033365,-0.0051,0.0796985,-0.0033364999999999,0.0051,-0.1287645,-0.4264085,0.003624,0.1204754999999999,-0.4872284999999999,0.058554,-0.1214444999999999,-0.8054685,0.020325,0.1309255,-0.8542985,0.054043,0
171,0.032671,0.8039820000000001,0.0576955,-0.167395,0.524122,0.0485315,-0.258045,0.270662,0.0448485,0.189835,0.520902,0.0881685,0.301935,0.283892,0.0588635,-0.257505,0.074961,-0.0815075,0.252905,0.256282,-0.1714675,-0.0796989999999999,0.0033499999999999,-0.0050934999999999,0.0796989999999999,-0.0033499999999999,0.0050935,-0.128855,-0.426238,0.0037905,0.120535,-0.487988,0.0585665,-0.121605,-0.806018,0.0208005,0.130525,-0.8543179999999999,0.0543505,0
172,0.034324,0.803661,0.0567895,-0.166676,0.524091,0.0477435,-0.256286,0.265201,0.0450915,0.190124,0.5207809999999999,0.0885145,0.3011439999999999,0.286451,0.0601735,-0.258416,0.060794,-0.0711605,0.250004,0.254931,-0.1709205,-0.07969,0.0033939999999999,-0.0050945,0.07969,-0.003394,0.0050945,-0.129096,-0.426079,0.0037584999999999,0.120374,-0.4872589999999999,0.0583594999999999,-0.121836,-0.805589,0.0209305,0.130114,-0.853819,0.0542375,0
173,0.035777,0.8032865,0.055928,-0.166006,0.5239765000000001,0.047007,-0.2547959999999999,0.2592765,0.044775,0.190404,0.5205965,0.088693,0.300374,0.2888965,0.061209,-0.2592859999999999,0.0484335,-0.061387,0.247684,0.2540365,-0.170157,-0.079675,0.0034415,-0.005075,0.079675,-0.0034415,0.0050749999999999,-0.129336,-0.4260935,0.0036479999999999,0.120424,-0.4870135,0.0584999999999999,-0.122046,-0.8054135,0.020907,0.129784,-0.8537635,0.05363,0
174,0.0369939999999999,0.80302,0.055188,-0.165397,0.52395,0.046354,-0.2538769999999999,0.25394,0.044115,0.1906429999999999,0.5205,0.088817,0.299593,0.29059,0.061344,-0.263527,0.038242,-0.053249,0.245193,0.25317,-0.1701269999999999,-0.079659,0.0034749999999999,-0.0050829999999999,0.079659,-0.0034749999999999,0.005083,-0.129587,-0.42613,0.003511,0.120473,-0.48666,0.058107,-0.122287,-0.8052400000000001,0.020827,0.129493,-0.8533400000000001,0.053466,0
175,0.0379145,0.8029075,0.0547009999999999,-0.1648455,0.5239575,0.045873,-0.2532655,0.2492075,0.042667,0.1909045,0.5204475,0.088876,0.2986445,0.2922275,0.0613969999999999,-0.2678954999999999,0.0304955,-0.046646,0.2434845,0.2543475,-0.169722,-0.0796385,0.0034985,-0.005117,0.0796385,-0.0034985,0.0051169999999999,-0.1298455,-0.4262025,0.0033629999999999,0.1205045,-0.4868125,0.0581469999999999,-0.1225755,-0.8048124999999999,0.0206519999999999,0.1291645,-0.8528025,0.0536519999999999,0
176,0.038663,0.8027685,0.0543275,-0.164368,0.5240085,0.0455305,-0.2529979999999999,0.2452885,0.0415774999999999,0.191092,0.5204685,0.0888615,0.2976919999999999,0.2937785,0.0613714999999999,-0.272178,0.0245335,-0.0411464999999999,0.241042,0.2539185,-0.1694455,-0.079615,0.0035325,-0.0051194999999999,0.079615,-0.0035325,0.0051194999999999,-0.130088,-0.4262615,0.0031645,0.120532,-0.4881715,0.0578975,-0.122788,-0.8044715,0.0202354999999999,0.128882,-0.8522815,0.0537384999999999,0
177,0.0392779999999999,0.8026745000000001,0.0541065,-0.163982,0.5240845000000001,0.0453915,-0.252792,0.2423245,0.0410615,0.1912879999999999,0.5204945,0.0888095,0.296718,0.2930645,0.0594595,-0.276052,0.0213495,-0.0368025,0.238368,0.2550945,-0.1709095,-0.079603,0.0035424999999999,-0.0050934999999999,0.079603,-0.0035425,0.0050935,-0.130322,-0.4263655,0.0029305,0.120538,-0.4893655,0.0576225,-0.122942,-0.8039455,0.0199165,0.1286479999999999,-0.8515254999999999,0.0537415,0
178,0.0397725,0.8026369999999999,0.0540105,-0.1636435,0.524167,0.0454245,-0.2525235,0.240397,0.0410875,0.1914665,0.5204570000000001,0.0887445,0.2964065,0.292387,0.0574975,-0.2790935,0.019481,-0.0336164999999999,0.2348465,0.256757,-0.1726585,-0.0796014999999999,0.003556,-0.0050934999999999,0.0796014999999999,-0.0035559999999999,0.0050935,-0.1305235,-0.426503,0.0026915,0.1206764999999999,-0.491093,0.0576515,-0.1232834999999999,-0.802583,0.0197685,0.1285065,-0.851793,0.0529825,0
179,0.0401765,0.802674,0.053977,-0.1633555,0.524224,0.045451,-0.2522255,0.239124,0.041115,0.1916445,0.520434,0.08868,0.2953845,0.291784,0.055621,-0.2810255,0.018642,-0.031788,0.2314545,0.259374,-0.174598,-0.0795965,0.003575,-0.005093,0.0795965,-0.0035749999999999,0.005093,-0.1306755,-0.4265859999999999,0.002443,0.1207645,-0.491376,0.057448,-0.1235355,-0.8013859999999999,0.0195909999999999,0.1283945,-0.852086,0.052624,0
180,0.0405544999999999,0.8026964999999999,0.053965,-0.1631225,0.5243265,0.045464,-0.2521025,0.2384565,0.0411179999999999,0.1917974999999999,0.5203665,0.0886039999999999,0.2947375,0.2911964999999999,0.05355,-0.2815325,0.0189094999999999,-0.031845,0.2309274999999999,0.2607565,-0.174656,-0.0795955,0.0035924999999999,-0.005085,0.0795955,-0.0035925,0.0050849999999999,-0.1308325,-0.4265735,0.0021939999999999,0.1207675,-0.4911635000000001,0.057182,-0.1237725,-0.8013935,0.0191919999999999,0.1281475,-0.8510235,0.0529129999999999,0
181,0.040611,0.8027825,0.0539115,-0.163094,0.5244125,0.0454285,-0.252034,0.2383625,0.0411255,0.191826,0.5204325000000001,0.0884655,0.294156,0.2895425,0.0507155,-0.281534,0.0190555,-0.0319044999999999,0.228156,0.2629725,-0.1763355,-0.079583,0.0035575,-0.0050245,0.079583,-0.0035574999999999,0.0050245,-0.130834,-0.4265775,0.0020635,0.120756,-0.4918575,0.0567755,-0.1237639999999999,-0.8017175000000001,0.0189604999999999,0.127916,-0.8508775,0.0532954999999999,0
182,0.0406404999999999,0.802909,0.053922,-0.1630555,0.524489,0.045575,-0.2520655,0.238519,0.04138,0.1918445,0.520539,0.088287,0.2935845,0.288089,0.049788,-0.2815355,0.019212,-0.0320079999999999,0.2257445,0.263129,-0.177019,-0.0795734999999999,0.0035229999999999,-0.004947,0.0795734999999999,-0.0035229999999999,0.004947,-0.1308255,-0.426531,0.001939,0.1205644999999999,-0.490431,0.056282,-0.1237455,-0.802031,0.018704,0.1278945,-0.8507210000000001,0.053071,0
183,0.040676,0.8030115,0.0539095,-0.1630299999999999,0.5245015000000001,0.0458894999999999,-0.25201,0.2386515,0.0418005,0.19187,0.5206115,0.0880545,0.29304,0.2867115,0.0490245,-0.28152,0.0193445,-0.0322315,0.22313,0.2644615,-0.1774025,-0.079562,0.0035135,-0.0048725,0.079562,-0.0035134999999999,0.0048724999999999,-0.13082,-0.4264585,0.0017954999999999,0.12047,-0.4904885,0.0557434999999999,-0.12383,-0.8023885,0.0184154999999999,0.12797,-0.8510785,0.0521854999999999,0
184,0.0407305,0.8030725,0.0536835,-0.1630125,0.5244825,0.0461865,-0.2518725,0.2387425,0.0422465,0.1918875,0.5206525,0.0877535,0.2924875,0.2855324999999999,0.0485715,-0.2813225,0.0197214999999999,-0.0333804999999999,0.2190375,0.2642025,-0.1781325,-0.0795565,0.0035144999999999,-0.0047895,0.0795565,-0.0035145,0.0047895,-0.1308025,-0.4264075,0.0015664999999999,0.1205975,-0.4903375,0.0554955,-0.1238924999999999,-0.8024975,0.0181205,0.1280275,-0.8503475,0.0515755,0
185,0.0407409999999999,0.803155,0.053471,-0.163054,0.524435,0.0465989999999999,-0.251504,0.238595,0.0426389999999999,0.191876,0.520695,0.087454,0.292056,0.284175,0.048233,-0.280214,0.020347,-0.035376,0.2151759999999999,0.263445,-0.178799,-0.079555,0.003512,-0.004705,0.079555,-0.003512,0.0047049999999999,-0.130764,-0.426405,0.0012719999999999,0.120766,-0.490845,0.0552299999999999,-0.123854,-0.802855,0.0176719999999999,0.128296,-0.850315,0.050524,0
186,0.040768,0.803227,0.05324,-0.163043,0.524387,0.046962,-0.251033,0.238637,0.042891,0.191877,0.5207470000000001,0.087074,0.290447,0.283087,0.044257,-0.278423,0.021239,-0.0380519999999999,0.211537,0.263547,-0.181396,-0.079563,0.0035089999999999,-0.004566,0.079563,-0.0035089999999999,0.004566,-0.130703,-0.426403,0.000903,0.120957,-0.490863,0.054868,-0.123753,-0.8034429999999999,0.017133,0.128637,-0.850483,0.049308,0
187,0.040827,0.8033264999999999,0.0530615,-0.162998,0.5243665000000001,0.0472304999999999,-0.2503479999999999,0.2391665,0.0428965,0.191932,0.5208565000000001,0.0866905,0.289902,0.2824165,0.0437585,-0.2762679999999999,0.0225495,-0.0409775,0.211612,0.2644565,-0.1819975,-0.079566,0.0034915,-0.0043935,0.079566,-0.0034915,0.0043934999999999,-0.130598,-0.4263835,0.0004704999999999,0.1211619999999999,-0.4907435,0.0544404999999999,-0.123598,-0.8040935,0.0165014999999999,0.128892,-0.8506435,0.0486135,0
188,0.0408835,0.8034105,0.0530709999999999,-0.1629465,0.5243005,0.0475749999999999,-0.2496364999999999,0.2400505,0.042813,0.1920135,0.5209905,0.08632,0.2899635,0.2820405,0.043299,-0.2740464999999999,0.0241494999999999,-0.043714,0.2115835,0.2652704999999999,-0.181467,-0.0795605,0.0035195,-0.004258,0.0795605,-0.0035195,0.0042579999999999,-0.1304265,-0.4264495,5.299999999999749e-05,0.1212535,-0.4890194999999999,0.053728,-0.1233364999999999,-0.8043494999999999,0.0158789999999999,0.1290235,-0.8500295,0.0490279999999999,0
189,0.0409654999999999,0.803478,0.053113,-0.1628835,0.524248,0.047841,-0.2490035,0.240908,0.042645,0.1921065,0.521088,0.085928,0.2897965,0.282118,0.04426,-0.2719435,0.025661,-0.0462719999999999,0.2115365,0.268438,-0.180668,-0.0795495,0.003539,-0.004149,0.0795495,-0.003539,0.004149,-0.1302434999999999,-0.426562,-0.000376,0.1213865,-0.4885319999999999,0.05325,-0.1230135,-0.804342,0.0153,0.1292765,-0.849612,0.048327,0
190,0.0410825,0.803571,0.053168,-0.1628125,0.524181,0.04803,-0.2484825,0.241601,0.042448,0.1921875,0.521121,0.085503,0.2897975,0.281761,0.044641,-0.2703325,0.0268909999999999,-0.0483659999999999,0.2109175,0.270341,-0.1799089999999999,-0.0795265,0.0035589999999999,-0.0041049999999999,0.0795265,-0.003559,0.004105,-0.1300525,-0.426979,-0.0008239999999999,0.1214675,-0.4880489999999999,0.052739,-0.1226025,-0.804239,0.014745,0.1296275,-0.849509,0.047519,0
191,0.041184,0.8036774999999999,0.0531775,-0.162739,0.5241475,0.0480735,-0.248029,0.2422475,0.0420865,0.192251,0.5211175,0.0850065,0.289631,0.2822475,0.0451715,-0.2693689999999999,0.0278064999999999,-0.0497355,0.209971,0.2708475,-0.1790815,-0.079521,0.0035714999999999,-0.0040294999999999,0.079521,-0.0035715,0.0040294999999999,-0.129929,-0.4287725,-0.0009144999999999,0.121641,-0.4872625,0.0521355,-0.1222089999999999,-0.8042225000000001,0.0140785,0.130011,-0.8498325,0.0463955,0
192,0.0413345,0.803761,0.0532384999999999,-0.1626645,0.524151,0.0479965,-0.2476745,0.242821,0.0416475,0.1923155,0.521111,0.0845435,0.2903955,0.282031,0.0456974999999999,-0.2690945,0.02828,-0.0503705,0.2092455,0.271321,-0.1793665,-0.0795265,0.003575,-0.0039465,0.0795265,-0.0035749999999999,0.0039464999999999,-0.1297945,-0.430029,-0.0010505,0.1218255,-0.486499,0.0516175,-0.1219545,-0.804239,0.0131914999999999,0.1304455,-0.8503390000000001,0.0448475,0
193,0.0415125,0.8038590000000001,0.0533065,-0.1626014999999999,0.524179,0.0478895,-0.2475014999999999,0.243349,0.0412024999999999,0.1923885,0.5210790000000001,0.0840835,0.2900585,0.283149,0.0478134999999999,-0.2690315,0.028758,-0.0510355,0.2078785,0.271799,-0.1784115,-0.0795295,0.003577,-0.0038835,0.0795295,-0.0035769999999999,0.0038834999999999,-0.1296215,-0.431121,-0.0012334999999999,0.1219085,-0.485141,0.0506045,-0.1218715,-0.804211,0.0122964999999999,0.1307785,-0.849761,0.0447134999999999,0
194,0.0417355,0.8039395,0.0533354999999999,-0.1625005,0.5242595,0.0476134999999999,-0.2474505,0.2438195,0.0407845,0.1924795,0.5210395,0.0836335,0.2909895,0.2832995,0.0499395,-0.2689705,0.0292284999999999,-0.0517085,0.2079395,0.2715795,-0.1790845,-0.0795325,0.0035714999999999,-0.0038214999999999,0.0795325,-0.0035714999999999,0.0038214999999999,-0.1293804999999999,-0.4320105,-0.0014955,0.1220295,-0.4838305,0.0497144999999999,-0.1217804999999999,-0.8039905,0.0114394999999999,0.1311295,-0.8493805,0.0442875,0
195,0.042012,0.8040369999999999,0.0534325,-0.162363,0.524347,0.0473745,-0.2474229999999999,0.244187,0.0404165,0.192597,0.520977,0.0833484999999999,0.2916069999999999,0.283807,0.0506195,-0.268943,0.02967,-0.0519424999999999,0.208077,0.269537,-0.1805705,-0.079531,0.00357,-0.0038154999999999,0.079531,-0.00357,0.0038154999999999,-0.129103,-0.434373,-0.0015604999999999,0.122207,-0.4821629999999999,0.0489435,-0.121663,-0.8038129999999999,0.0105455,0.131797,-0.8498129999999999,0.0428605,0
196,0.042299,0.8041429999999999,0.053515,-0.162236,0.524433,0.047159,-0.247386,0.244383,0.040133,0.192724,0.520913,0.083103,0.292074,0.284813,0.051189,-0.269186,0.029757,-0.051593,0.211244,0.268263,-0.1788119999999999,-0.079527,0.0035859999999999,-0.0038539999999999,0.079527,-0.003586,0.003854,-0.1288159999999999,-0.436847,-0.0015399999999999,0.122414,-0.480577,0.048355,-0.121536,-0.803197,0.009839,0.132374,-0.850327,0.041395,0
197,0.042611,0.804233,0.0534624999999999,-0.162084,0.524493,0.0468704999999999,-0.247384,0.2442929999999999,0.0398745,0.192876,0.520833,0.0828035,0.2920359999999999,0.285403,0.0518195,-0.269854,0.029343,-0.0507745,0.211566,0.268353,-0.1796355,-0.0795279999999999,0.0035569999999999,-0.0038774999999999,0.0795279999999999,-0.0035569999999999,0.0038774999999999,-0.128604,-0.439257,-0.0014894999999999,0.122566,-0.480097,0.0477555,-0.1214339999999999,-0.8028770000000001,0.0092345,0.132996,-0.851307,0.0395625,0
198,0.042892,0.8043195,0.0534665,-0.161962,0.5245695,0.0466135,-0.247432,0.2441895,0.0396315,0.193028,0.5207795000000001,0.0825805,0.292088,0.2862095,0.0523045,-0.270892,0.0288095,-0.0496254999999999,0.213388,0.2695095,-0.1809525,-0.079549,0.0035325,-0.0039205,0.079549,-0.0035325,0.0039205,-0.128342,-0.4417105,-0.0014325,0.122638,-0.4806105,0.0474384999999999,-0.121362,-0.8025305,0.0086445,0.133398,-0.8521405,0.0382315,0
199,0.0430655,0.8043195,0.0532575,-0.1619125,0.5245695,0.0462135,-0.2475625,0.2441895,0.0393945,0.1931075,0.5207795000000001,0.0822695,0.2921074999999999,0.2867095,0.0528125,-0.2720225,0.0288095,-0.0482014999999999,0.2168075,0.2696795,-0.1804585,-0.0795775,0.0035325,-0.0039524999999999,0.0795775,-0.0035325,0.0039525,-0.1280625,-0.4417105,-0.0012954999999999,0.1227075,-0.4799305,0.0471505,-0.1211724999999999,-0.8024205,0.0080145,0.1336575,-0.8521405,0.0377435,0
200,0.0431755,0.8043595,0.053028,-0.1619285,0.5246095000000001,0.045841,-0.2477685,0.2443495,0.0391969999999999,0.1931515,0.5207795000000001,0.0820589999999999,0.2921715,0.2875095,0.053091,-0.2731885,0.0290015,-0.046668,0.2179015,0.2702695,-0.181001,-0.0796274999999999,0.0035325,-0.0040789999999999,0.0796274999999999,-0.0035325,0.0040789999999999,-0.1278285,-0.4401605,-0.001527,0.1228015,-0.4804605,0.047077,-0.1211484999999999,-0.8019005,0.0074369999999999,0.1336715,-0.8512205,0.038602,0
201,0.0432284999999999,0.8043619999999999,0.0528195,-0.1619485,0.524632,0.0454745,-0.2479785,0.2444219999999999,0.0390545,0.1931515,0.520742,0.0818185,0.2924915,0.288872,0.0534225,-0.2742285,0.029078,-0.0452015,0.2197414999999999,0.269082,-0.1801365,-0.0796715,0.0035239999999999,-0.0042195,0.0796715,-0.0035239999999999,0.0042194999999999,-0.1276585,-0.440108,-0.0017134999999999,0.1228815,-0.479848,0.0471635,-0.1212085,-0.8014680000000001,0.0068154999999999,0.1336715,-0.8503580000000001,0.0391245,0
202,0.0432384999999999,0.804562,0.0525815,-0.1619995,0.524742,0.0451265,-0.2481995,0.244192,0.0388854999999999,0.1931005,0.520842,0.0816335,0.2928305,0.289282,0.0534395,-0.2751195,0.028335,-0.0440565,0.2194905,0.268192,-0.1795385,-0.0797295,0.003491,-0.0043605,0.0797295,-0.0034909999999999,0.0043605,-0.1272595,-0.441188,-0.0020175,0.1232304999999999,-0.4802079999999999,0.0472905,-0.1213795,-0.801878,0.0060754999999999,0.1337305,-0.850768,0.0392915,0
203,0.0439149999999999,0.8047610000000001,0.0540035,-0.1616719999999999,0.525111,0.0460585,-0.2484719999999999,0.243291,0.0391495,0.193518,0.520571,0.0822205,0.291358,0.291491,0.0547155,-0.276532,0.02544,-0.0415534999999999,0.232998,0.255831,-0.1751835,-0.079732,0.003463,-0.0043064999999999,0.079732,-0.0034629999999999,0.0043065,-0.1267319999999999,-0.452439,-0.0016534999999999,0.122778,-0.475429,0.0453905,-0.1221319999999999,-0.796769,0.0070775,0.134098,-0.853059,0.0363655,0
204,0.0433765,0.8052370000000001,0.053679,-0.1619795,0.525337,0.045508,-0.2492695,0.2434569999999999,0.039116,0.1933905,0.521267,0.082376,0.2905905,0.292617,0.05447,-0.2772995,0.025651,-0.0417359999999999,0.2194405,0.288247,-0.187498,-0.0799295,0.003717,-0.0048629999999999,0.0799295,-0.0037169999999999,0.004863,-0.1274395,-0.452933,-0.0021139999999999,0.1222105,-0.478083,0.045055,-0.1228694999999999,-0.7967829999999999,0.00641,0.1343005,-0.8546229999999999,0.030422,0
205,0.043431,0.805299,0.0535745,-0.162168,0.525479,0.0452655,-0.249328,0.242799,0.0388605,0.193112,0.5213490000000001,0.0821375,0.291512,0.292029,0.0554145,-0.277528,0.024916,-0.0416855,0.214452,0.2829089999999999,-0.1906354999999999,-0.079907,0.003664,-0.0049444999999999,0.079907,-0.003664,0.0049445,-0.127638,-0.455871,-0.0023304999999999,0.126552,-0.524181,0.0515585,-0.123058,-0.797021,0.0063245,0.133832,-0.854691,0.0295805,0
206,0.0419345,0.8055384999999999,0.050641,-0.1633124999999999,0.5253585,0.04328,-0.2498225,0.2422085,0.037883,0.1919275,0.5219285,0.080155,0.2910574999999999,0.2923584999999999,0.053646,-0.2775825,0.0239745,-0.04186,0.2295074999999999,0.2631885,-0.176318,-0.0799665,0.0033814999999999,-0.005023,0.0799665,-0.0033815,0.005023,-0.1251525,-0.4392315,-0.0017809999999999,0.1228075,-0.4737415,0.046792,-0.1210325,-0.8078215000000001,-0.0011369999999999,0.1343675,-0.8545415000000001,0.04329,0
207,0.041853,0.8055595,0.0506445,-0.1635519999999999,0.5251795,0.0432765,-0.250122,0.2420995,0.0377485,0.192298,0.5220195,0.0806375,0.291268,0.2919395,0.0530725,-0.277322,0.0238324999999999,-0.0421324999999999,0.215258,0.2637494999999999,-0.1851275,-0.079952,0.0033624999999999,-0.0049125,0.079952,-0.0033625,0.0049125,-0.1253719999999999,-0.4462305,-0.0020405,0.1263179999999999,-0.5075505,0.0506515,-0.1217319999999999,-0.8074304999999999,-0.0002114999999999,0.133278,-0.8530405,0.0445085,0
208,0.0420645,0.8056235,0.0512575,-0.1631605,0.5249535000000001,0.0430765,-0.2496905,0.2429335,0.0379665,0.1920694999999999,0.5220135,0.0804545,0.2915995,0.2915435,0.0527525,-0.2768505,0.0247975,-0.0423254999999999,0.2230694999999999,0.2614335,-0.1803225,-0.0799795,0.0033235,-0.0048995,0.0799795,-0.0033235,0.0048995,-0.1254705,-0.4393265,-0.0031614999999999,0.1254895,-0.4863165,0.0481245,-0.1216205,-0.8060165,0.0018805,0.1334495,-0.8496965,0.0457585,0
209,0.042237,0.8056425,0.0511694999999999,-0.163295,0.5248925,0.0430134999999999,-0.2496249999999999,0.2425324999999999,0.0377645,0.191915,0.5219725,0.0805085,0.292055,0.2899125,0.0498285,-0.276455,0.0247495,-0.0437725,0.224895,0.2602725,-0.1788735,-0.079973,0.0033585,-0.0049555,0.079973,-0.0033584999999999,0.0049554999999999,-0.125915,-0.4359174999999999,-0.0047385,0.125085,-0.4847675,0.0478645,-0.1220649999999999,-0.8056975,0.0019754999999999,0.132145,-0.8464375,0.0484745,0
