sb224sc-HT22-VT27/4dt907/src/data/labeled_files/A106_kinect.csv
FrameNo,nose_3d_x,nose_3d_y,nose_3d_z,left_shoulder_3d_x,left_shoulder_3d_y,left_shoulder_3d_z,left_elbow_3d_x,left_elbow_3d_y,left_elbow_3d_z,right_shoulder_3d_x,right_shoulder_3d_y,right_shoulder_3d_z,right_elbow_3d_x,right_elbow_3d_y,right_elbow_3d_z,left_wrist_3d_x,left_wrist_3d_y,left_wrist_3d_z,right_wrist_3d_x,right_wrist_3d_y,right_wrist_3d_z,left_hip_3d_x,left_hip_3d_y,left_hip_3d_z,right_hip_3d_x,right_hip_3d_y,right_hip_3d_z,left_knee_3d_x,left_knee_3d_y,left_knee_3d_z,right_knee_3d_x,right_knee_3d_y,right_knee_3d_z,left_ankle_3d_x,left_ankle_3d_y,left_ankle_3d_z,right_ankle_3d_x,right_ankle_3d_y,right_ankle_3d_z,activity_label
0,-0.0215539999999999,0.7586510000000001,0.1371595,-0.175976,0.560581,0.1138065,-0.255156,0.808161,0.0315295,0.169234,0.555251,0.1303125,0.288194,0.800911,0.0935875,-0.2614059999999999,1.093541,-0.0200114999999999,0.333134,1.035141,0.0209775,-0.076787,0.000423,0.0015995,0.076787,-0.000423,-0.0015994999999999,-0.121506,-0.490579,-0.0449424999999999,0.113704,-0.529729,0.0201425,-0.131306,-0.872369,-0.0200674999999999,0.119304,-0.911599,0.0197785,0
1,-0.021883,0.758069,0.1369645,-0.1759899999999999,0.559859,0.1137874999999999,-0.25643,0.809029,0.0317335,0.16848,0.553909,0.1287055,0.28797,0.800169,0.0934405,-0.26159,1.092679,-0.0200255,0.3326,1.034779,0.0205134999999999,-0.076724,-0.000185,0.0017425,0.076724,0.000185,-0.0017425,-0.12151,-0.490601,-0.0454204999999999,0.1137799999999999,-0.529111,0.0201744999999999,-0.13099,-0.873401,-0.0202815,0.11924,-0.912291,0.0198645,0
2,-0.022089,0.7585959999999999,0.136797,-0.176192,0.560056,0.113692,-0.2568519999999999,0.8090259999999999,0.0315269999999999,0.168318,0.555016,0.128116,0.287508,0.800356,0.092839,-0.262022,1.092856,-0.020072,0.331098,1.035756,0.0197079999999999,-0.076668,-0.0003729999999999,0.0018819999999999,0.076668,0.0003729999999999,-0.001882,-0.121382,-0.4931439999999999,-0.04584,0.1136379999999999,-0.528934,0.0200209999999999,-0.131412,-0.8735240000000001,-0.020492,0.1190479999999999,-0.916744,0.0150239999999999,0
3,-0.022253,0.7586229999999999,0.136618,-0.176521,0.559843,0.1133079999999999,-0.257501,0.810383,0.0304329999999999,0.168129,0.555873,0.1273409999999999,0.286949,0.8008529999999999,0.0921319999999999,-0.262411,1.092703,-0.020589,0.328499,1.035303,0.0195529999999999,-0.076669,-5.8e-05,0.0016489999999999,0.076669,5.800000000000001e-05,-0.001649,-0.121531,-0.493897,-0.046195,0.112999,-0.529247,0.0205099999999999,-0.131271,-0.8741070000000001,-0.020503,0.118919,-0.916767,0.0147979999999999,0
4,-0.022322,0.7586830000000001,0.1363965,-0.176955,0.559783,0.1133915,-0.258055,0.811023,0.0297335,0.168045,0.555953,0.1269644999999999,0.286625,0.800803,0.0919025,-0.263015,1.0918830000000002,-0.0208264999999999,0.327085,1.035883,0.0183935,-0.076645,-0.000104,0.0016714999999999,0.076645,0.000104,-0.0016714999999999,-0.121605,-0.498477,-0.0459745,0.113765,-0.5292669999999999,0.0195445,-0.1307849999999999,-0.876177,-0.0203005,0.120185,-0.916747,0.0147885,0
5,-0.0233395,0.7586444999999999,0.133805,-0.1772635,0.5600345,0.112817,-0.2594235,0.8111944999999999,0.028817,0.1674065,0.5566445,0.125742,0.2847765,0.8005645,0.089581,-0.2641935,1.0910945,-0.0210879999999999,0.3228665,1.0390945,0.015554,-0.0766185,-6.750000000000001e-05,0.001115,0.0766185,6.750000000000001e-05,-0.0011149999999999,-0.1217435,-0.5070355,-0.045083,0.1132365,-0.5294555000000001,0.019082,-0.1306735,-0.8769755,-0.0201399999999999,0.1189365,-0.9171655,0.013071,0
6,-0.023572,0.758228,0.132633,-0.178097,0.559658,0.1129459999999999,-0.259737,0.811458,0.028882,0.166913,0.556408,0.1248219999999999,0.284343,0.800778,0.088697,-0.264287,1.090428,-0.0209849999999999,0.321193,1.0395279999999998,0.015024,-0.076761,-0.0001889999999999,0.0006439999999999,0.076761,0.000189,-0.0006439999999999,-0.120997,-0.496162,-0.04759,0.110593,-0.529592,0.018899,-0.131737,-0.875252,-0.019698,0.114513,-0.856662,0.001604,1
7,-0.0225415,0.7581530000000001,0.1298929999999999,-0.1786895,0.559953,0.11243,-0.2607895,0.8119730000000001,0.028401,0.1663405,0.556123,0.125697,0.2839105,0.8008230000000001,0.088229,-0.2644895,1.0915629999999998,-0.021946,0.3219305,1.040563,0.013755,-0.0768195,-0.000148,0.0008309999999999,0.0768195,0.000148,-0.0008309999999999,-0.1212295,-0.4918869999999999,-0.047526,0.1128805,-0.5293869999999999,0.018746,-0.1309894999999999,-0.8739169999999999,-0.0196539999999999,0.1196605,-0.912487,0.0156959999999999,1
8,-0.022511,0.756648,0.1273425,-0.17943,0.5598879999999999,0.1115225,-0.26175,0.8119679999999999,0.0273955,0.16574,0.556438,0.1250125,0.28302,0.8009679999999999,0.0868445,-0.26534,1.091058,-0.0232184999999999,0.3205099999999999,1.041658,0.0119485,-0.0768409999999999,-0.0002219999999999,0.0007025,0.0768409999999999,0.0002219999999999,-0.0007024999999999,-0.12117,-0.493212,-0.0479784999999999,0.1127799999999999,-0.5294420000000001,0.0184415,-0.1307299999999999,-0.8743920000000001,-0.0191894999999999,0.12001,-0.912612,0.0157755,1
9,-0.0223669999999999,0.755127,0.1238404999999999,-0.1803,0.5600069999999999,0.1104205,-0.26272,0.8119369999999999,0.0261935,0.16508,0.5569869999999999,0.1241745,0.28202,0.801337,0.0853455,-0.26627,1.090637,-0.0246544999999999,0.3191799999999999,1.042837,0.0102175,-0.076863,-0.0002349999999999,0.0005754999999999,0.076863,0.0002349999999999,-0.0005754999999999,-0.1212,-0.493483,-0.0484745,0.11273,-0.529663,0.0175535,-0.1305,-0.874603,-0.0187024999999999,0.12047,-0.913033,0.0154365,1
10,-0.0220369999999999,0.753418,0.1199554999999999,-0.181195,0.560188,0.1091864999999999,-0.263565,0.811808,0.0249964999999999,0.164485,0.5574479999999999,0.1232345,0.281175,0.801738,0.0840384999999999,-0.2670949999999999,1.090198,-0.0261435,0.318315,1.043598,0.0087704999999999,-0.076893,-0.0002349999999999,0.0004664999999999,0.076893,0.0002349999999999,-0.0004665,-0.121435,-0.493362,-0.0494715,0.112725,-0.529872,0.0166195,-0.130235,-0.874712,-0.0182235,0.120925,-0.913022,0.0155384999999999,1
11,-0.021624,0.751661,0.1156795,-0.182099,0.560581,0.1078065,-0.264369,0.8117110000000001,0.0235555,0.163981,0.557941,0.1223165,0.280351,0.8021510000000001,0.0828214999999999,-0.267899,1.089801,-0.0276975,0.317651,1.044401,0.0074014999999999,-0.076914,-0.0002669999999999,0.0004144999999999,0.076914,0.0002669999999999,-0.0004144999999999,-0.121679,-0.4930389999999999,-0.0504255,0.112771,-0.529929,0.0154235,-0.130039,-0.874749,-0.0178294999999999,0.121361,-0.912939,0.0155875,1
12,-0.0211794999999999,0.7498779999999999,0.11126,-0.1830105,0.5609479999999999,0.106223,-0.2650305,0.811448,0.0220339999999999,0.1634995,0.5584579999999999,0.121352,0.2795195,0.802658,0.081573,-0.2686805,1.089508,-0.0292219999999999,0.3170595,1.044908,0.0061539999999999,-0.0769255,-0.000286,0.0003159999999999,0.0769255,0.0002859999999999,-0.000316,-0.1219204999999999,-0.491262,-0.05147,0.1129095,-0.529962,0.0138499999999999,-0.1298905,-0.8746520000000001,-0.017504,0.1216194999999999,-0.912822,0.0156059999999999,1
13,-0.0207254999999999,0.7481115,0.106817,-0.1839025,0.5613015,0.104527,-0.2656225,0.8112115,0.020411,0.1629975,0.5589515,0.120293,0.2787275,0.8032915,0.080365,-0.2694725,1.0893415,-0.03078,0.3165075,1.0453415,0.005133,-0.0769395,-0.0003195,0.000207,0.0769395,0.0003194999999999,-0.0002069999999999,-0.1221825,-0.4895285,-0.052525,0.1130275,-0.5298984999999999,0.012212,-0.1297225,-0.8749385,-0.0172729999999999,0.1216875,-0.9120585,0.016249,1
14,-0.020251,0.7464005,0.102108,-0.184731,0.5617205000000001,0.102683,-0.2661509999999999,0.8110505,0.018473,0.162629,0.5595205000000001,0.119236,0.277949,0.8040605000000001,0.079118,-0.270241,1.0892404999999998,-0.032464,0.315969,1.0458405,0.004128,-0.076954,-0.0003455,7.499999999999868e-05,0.076954,0.0003454999999999,-7.499999999999868e-05,-0.122441,-0.4881995,-0.05401,0.1132789999999999,-0.5296595,0.0104889999999999,-0.129391,-0.8755895,-0.017182,0.121719,-0.9134595,0.017435,1
15,-0.019844,0.744771,0.0974055,-0.185527,0.5621309999999999,0.1006485,-0.266667,0.810811,0.0164655,0.162263,0.560061,0.1181235,0.277173,0.804891,0.0779634999999999,-0.270937,1.089151,-0.0344415,0.315443,1.046151,0.0031505,-0.076955,-0.0003349999999999,-7.650000000000018e-05,0.076955,0.000335,7.650000000000018e-05,-0.122737,-0.488059,-0.0554015,0.113513,-0.529249,0.0086154999999999,-0.129127,-0.8769790000000001,-0.0172695,0.121643,-0.912599,0.0186045,1
16,-0.019476,0.7432840000000001,0.0928565,-0.186202,0.562524,0.0984975,-0.267152,0.8105640000000001,0.0143274999999999,0.161838,0.560624,0.1169835,0.276388,0.8057840000000001,0.0767665,-0.271592,1.089194,-0.0365735,0.314928,1.046394,0.0021785,-0.076954,-0.0003319999999999,-0.0002284999999999,0.076954,0.000332,0.0002284999999999,-0.123042,-0.488046,-0.0568905,0.113588,-0.5287059999999999,0.0066994999999999,-0.128882,-0.878336,-0.0173455,0.121558,-0.912656,0.0195125,1
17,-0.019103,0.743174,0.088705,-0.186745,0.562524,0.096637,-0.267455,0.8105640000000001,0.012392,0.161485,0.5607540000000001,0.115958,0.275755,0.8063140000000001,0.076009,-0.271905,1.089194,-0.038112,0.314645,1.046394,0.001808,-0.076954,-0.0003319999999999,-0.0003879999999999,0.076954,0.000332,0.0003879999999999,-0.123335,-0.486676,-0.0583529999999999,0.113755,-0.528426,0.00452,-0.128655,-0.878336,-0.0174259999999999,0.121645,-0.912276,0.019695,1
18,-0.0188225,0.743174,0.0853965,-0.1870915,0.562524,0.0949515,-0.2676515,0.8105640000000001,0.0105045,0.1612085,0.5607540000000001,0.1150715,0.2752185,0.8063140000000001,0.0752895,-0.2720614999999999,1.089194,-0.0397344999999999,0.3144485,1.046394,0.0014065,-0.0769595,-0.0003319999999999,-0.0005224999999999,0.0769595,0.000332,0.0005225,-0.1234815,-0.486676,-0.0598645,0.1138484999999999,-0.528426,0.0028725,-0.1283915,-0.878686,-0.0180175,0.1217785,-0.912276,0.0188755,1
19,-0.0186179999999999,0.743174,0.0824739999999999,-0.187433,0.562524,0.093278,-0.267813,0.8105640000000001,0.0084089999999999,0.160927,0.5607540000000001,0.1142519999999999,0.274697,0.8063140000000001,0.074523,-0.272153,1.089194,-0.041599,0.314217,1.046394,0.0009579999999999,-0.0769799999999999,-0.0003319999999999,-0.000658,0.0769799999999999,0.000332,0.0006579999999999,-0.123443,-0.486676,-0.060874,0.113907,-0.528426,0.0012039999999999,-0.128203,-0.8792359999999999,-0.018717,0.121847,-0.912276,0.0187679999999999,1
20,-0.018463,0.74298,0.0797654999999999,-0.187627,0.5628299999999999,0.0911684999999999,-0.267917,0.8107599999999999,0.0060294999999999,0.160613,0.56121,0.1134144999999999,0.2741929999999999,0.80677,0.0735734999999999,-0.272137,1.08945,-0.0440375,0.3139929999999999,1.04665,0.0004794999999999,-0.07702,-0.0003619999999999,-0.0008305,0.07702,0.0003619999999999,0.0008304999999999,-0.123417,-0.48489,-0.0620625,0.113933,-0.52817,-0.0003215,-0.128167,-0.8806,-0.0195965,0.121733,-0.91228,0.0178624999999999,1
21,-0.018361,0.742914,0.077354,-0.187733,0.562974,0.089014,-0.268043,0.811054,0.003491,0.160267,0.561744,0.11273,0.273707,0.807684,0.072756,-0.272053,1.089444,-0.04681,0.313747,1.046844,9.699999999999986e-05,-0.0770909999999999,-0.000413,-0.00098,0.0770909999999999,0.000413,0.00098,-0.123343,-0.482746,-0.063458,0.1139169999999999,-0.527316,-0.0015949999999999,-0.128133,-0.881376,-0.0203,0.121447,-0.911686,0.0173919999999999,1
22,-0.0183219999999999,0.742988,0.0750465,-0.187805,0.563058,0.0867185,-0.2681349999999999,0.811368,0.0007895,0.159985,0.562288,0.1121365,0.273285,0.808538,0.0718865,-0.271895,1.0893780000000002,-0.0498985,0.313545,1.0469780000000002,-0.0006044999999999,-0.0771729999999999,-0.0004559999999999,-0.0011134999999999,0.0771729999999999,0.0004559999999999,0.0011135,-0.123245,-0.481712,-0.0649275,0.113935,-0.526442,-0.0029874999999999,-0.128135,-0.882072,-0.0210134999999999,0.121195,-0.911332,0.0170205,1
23,-0.018308,0.7431015,0.073059,-0.187827,0.5628915,0.084378,-0.268157,0.8116414999999999,-0.0017689999999999,0.159693,0.5628314999999999,0.11157,0.2729629999999999,0.8093714999999999,0.071,-0.271767,1.0904215000000002,-0.053188,0.313423,1.0471215,-0.001478,-0.077253,-0.0005085,-0.0012529999999999,0.077253,0.0005085,0.0012529999999999,-0.123117,-0.4806685,-0.066742,0.113973,-0.5255685,-0.00436,-0.128167,-0.8828185000000001,-0.0217969999999999,0.120993,-0.9109985,0.0165839999999999,1
24,-0.018273,0.7432650000000001,0.071082,-0.187872,0.562785,0.082133,-0.268092,0.811885,-0.0045619999999999,0.1594779999999999,0.5634250000000001,0.1110589999999999,0.272718,0.810115,0.069997,-0.2715019999999999,1.0909449999999998,-0.0566189999999999,0.313338,1.047145,-0.0026399999999999,-0.077354,-0.00056,-0.0014339999999999,0.077354,0.0005599999999999,0.0014339999999999,-0.1229619999999999,-0.4780749999999999,-0.068535,0.114048,-0.524695,-0.0057019999999999,-0.128142,-0.883755,-0.022759,0.1208779999999999,-0.910095,0.01624,1
25,-0.018173,0.7434955,0.069202,-0.187903,0.5627055,0.080124,-0.267973,0.8121355,-0.0072919999999999,0.159357,0.5640355,0.110662,0.272567,0.8106955,0.068883,-0.271143,1.0911055,-0.0601649999999999,0.3133169999999999,1.0469055,-0.0039929999999999,-0.07745,-0.0006164999999999,-0.0016469999999999,0.07745,0.0006164999999999,0.001647,-0.122763,-0.4754644999999999,-0.070408,0.114167,-0.5238345,-0.0071749999999999,-0.127853,-0.8843245,-0.0233669999999999,0.120917,-0.9090845,0.015896,1
26,-0.0180635,0.7437199999999999,0.067681,-0.1879445,0.5626199999999999,0.078268,-0.2677845,0.81226,-0.0100859999999999,0.1592855,0.5645899999999999,0.110319,0.2724955,0.81107,0.067666,-0.2706945,1.09134,-0.06445,0.3133955,1.04674,-0.0056019999999999,-0.0775595,-0.0006659999999999,-0.0018089999999999,0.0775595,0.0006659999999999,0.001809,-0.1225145,-0.47429,-0.0723999999999999,0.1142455,-0.52275,-0.0083759999999999,-0.1275645,-0.88466,-0.0238429999999999,0.1209455,-0.9082,0.015549,1
27,-0.0179324999999999,0.743913,0.066097,-0.1879595,0.562533,0.076339,-0.2676195,0.812403,-0.0128019999999999,0.1592305,0.565143,0.109981,0.2726105,0.811273,0.066249,-0.2702495,1.091373,-0.0686799999999999,0.3135205,1.0464730000000002,-0.0075779999999999,-0.0776695,-0.0007379999999999,-0.0019739999999999,0.0776695,0.0007379999999999,0.001974,-0.1222795,-0.474407,-0.07458,0.1143005,-0.521847,-0.0097949999999999,-0.1271995,-0.884057,-0.0241749999999999,0.1210005,-0.907337,0.014973,1
28,-0.0177655,0.744165,0.0646555,-0.1879355,0.562545,0.0744404999999999,-0.2674855,0.812625,-0.0152935,0.1592245,0.565725,0.1096345,0.2728244999999999,0.811415,0.0647055,-0.2697755,1.091585,-0.0726615,0.3137445,1.046185,-0.0097615,-0.0777605,-0.0008049999999999,-0.0021175,0.0777605,0.000805,0.0021175,-0.1220155,-0.475435,-0.0766915,0.1143845,-0.520945,-0.0111515,-0.1268355,-0.883405,-0.0244995,0.1212044999999999,-0.907355,0.0135504999999999,1
29,-0.017553,0.7444510000000001,0.0635085,-0.187917,0.562741,0.0731535,-0.267337,0.812771,-0.0173465,0.159273,0.566231,0.1093135,0.273073,0.8113210000000001,0.0631105,-0.269327,1.091641,-0.0760265,0.314103,1.045841,-0.0123105,-0.077845,-0.000841,-0.0022085,0.077845,0.000841,0.0022084999999999,-0.1217669999999999,-0.476259,-0.0785965,0.114423,-0.519879,-0.0125715,-0.126537,-0.882899,-0.0247675,0.1213529999999999,-0.906769,0.0129994999999999,1
30,-0.0172975,0.7445585,0.062056,-0.1879025,0.5630285,0.072047,-0.2671625,0.8129285,-0.0192719999999999,0.1593475,0.5667085000000001,0.108925,0.2733974999999999,0.8109785,0.061055,-0.2689025,1.0911485,-0.079113,0.3145075,1.0454485,-0.015236,-0.0779495,-0.0008565,-0.0022169999999999,0.0779495,0.0008565,0.002217,-0.1216925,-0.4761615,-0.080153,0.1144175,-0.5197215,-0.013996,-0.1264625,-0.8827715,-0.024279,0.1215374999999999,-0.9063415,0.012259,1
31,-0.0170365,0.744663,0.0607665,-0.1878635,0.563353,0.0711445,-0.2670335,0.813123,-0.0210125,0.1594465,0.567153,0.1084695,0.2737865,0.810503,0.0587455,-0.2684935,1.090853,-0.0818555,0.3149765,1.045053,-0.0180935,-0.0780735,-0.0008819999999999,-0.0022085,0.0780735,0.000882,0.0022084999999999,-0.1215535,-0.474387,-0.0819955,0.1144165,-0.519347,-0.0151955,-0.1263235,-0.882837,-0.0240835,0.1217065,-0.905847,0.0117904999999999,1
32,-0.0165919999999999,0.74468,0.0590785,-0.187695,0.5638,0.0703775,-0.266895,0.81334,-0.0227285,0.159655,0.56754,0.1079345,0.274405,0.80989,0.0561615,-0.2680349999999999,1.09059,-0.0844745,0.315725,1.04439,-0.0216854999999999,-0.078259,-0.000916,-0.0021804999999999,0.078259,0.0009159999999999,0.0021805,-0.121415,-0.4738,-0.0830545,0.114535,-0.51906,-0.0166404999999999,-0.126045,-0.88277,-0.0241185,0.121725,-0.90532,0.0113745,1
33,-0.016198,0.744687,0.0573854999999999,-0.187417,0.564317,0.0696145,-0.266797,0.813607,-0.0242575,0.1598429999999999,0.567807,0.1071984999999999,0.275053,0.809217,0.0532674999999999,-0.267657,1.090197,-0.0868865,0.316473,1.043797,-0.0252745,-0.078416,-0.000961,-0.0021265,0.078416,0.000961,0.0021264999999999,-0.1212969999999999,-0.472313,-0.0844265,0.114763,-0.518253,-0.0182435,-0.125787,-0.881893,-0.0239245,0.121753,-0.904683,0.0110784999999999,1
34,-0.015679,0.7446825,0.055597,-0.187056,0.5648425,0.068758,-0.266636,0.8138225,-0.025799,0.160094,0.5680525,0.106401,0.275824,0.8084725,0.050125,-0.267306,1.0895525,-0.089247,0.317554,1.0431525,-0.0292329999999999,-0.078566,-0.0009925,-0.002027,0.078566,0.0009925,0.002027,-0.121046,-0.4711575,-0.086497,0.114964,-0.5177475,-0.0199779999999999,-0.125656,-0.8814675,-0.023854,0.121834,-0.9048175,0.010664,1
35,-0.0149695,0.74501,0.0538374999999999,-0.1865215,0.56561,0.0678875,-0.2663615,0.81448,-0.0269795,0.1600784999999999,0.5676,0.1045535,0.2768385,0.80797,0.0468525,-0.2669815,1.08905,-0.0908775,0.3188985,1.04245,-0.0334705,-0.0787985,-0.001035,-0.0019225,0.0787985,0.001035,0.0019225,-0.1205614999999999,-0.4717699999999999,-0.0881875,0.1155185,-0.51675,-0.0218674999999999,-0.1252315,-0.88063,-0.0235825,0.1219985,-0.9048,0.0104815,1
36,-0.014223,0.74504,0.0519354999999999,-0.1859529999999999,0.56632,0.0669315,-0.2660929999999999,0.8150700000000001,-0.0283985,0.1600369999999999,0.5672200000000001,0.1027174999999999,0.277917,0.80745,0.0435244999999999,-0.266673,1.08845,-0.0926515,0.320347,1.04165,-0.0377355,-0.079039,-0.001087,-0.0017905,0.079039,0.001087,0.0017905,-0.120143,-0.4722599999999999,-0.0896414999999999,0.116167,-0.51568,-0.0238965,-0.124873,-0.87958,-0.0232805,0.122187,-0.90467,0.0102564999999999,1
37,-0.0133964999999999,0.745085,0.050147,-0.1850824999999999,0.566835,0.066056,-0.2656925,0.8149949999999999,-0.029877,0.1600275,0.566425,0.100469,0.2792475,0.806835,0.0402,-0.2665125,1.087925,-0.094494,0.3220075,1.040425,-0.0421359999999999,-0.0792765,-0.0011059999999999,-0.0016189999999999,0.0792765,0.001106,0.001619,-0.1196125,-0.4727449999999999,-0.091244,0.1168575,-0.5138750000000001,-0.0263719999999999,-0.1245125,-0.878025,-0.0227129999999999,0.1222675,-0.904255,0.01011,1
38,-0.0126174999999999,0.7447214999999999,0.04801,-0.1841615,0.5672014999999999,0.065049,-0.2652515,0.8150415,-0.031547,0.1599585,0.5657814999999999,0.098378,0.2806285,0.8061115,0.036577,-0.2662315,1.0872115,-0.096828,0.3235485,1.0387115,-0.046976,-0.0795265,-0.0011465,-0.0014839999999999,0.0795265,0.0011465,0.0014839999999999,-0.1190214999999999,-0.4730485,-0.0931679999999999,0.1175585,-0.5117885000000001,-0.029239,-0.1241915,-0.8762185,-0.0219089999999999,0.1222985,-0.9038285,0.009959,1
39,-0.0118979999999999,0.7443005,0.0460455,-0.183228,0.5672805,0.0640105,-0.264818,0.8150904999999999,-0.0335475,0.159832,0.5652604999999999,0.0963485,0.281892,0.8055105,0.0330205,-0.266138,1.0866205,-0.0996345,0.325032,1.0372205,-0.0518724999999999,-0.0798099999999999,-0.0012094999999999,-0.0013804999999999,0.0798099999999999,0.0012095,0.0013804999999999,-0.118448,-0.4734095,-0.0952245,0.118272,-0.5098695,-0.0322855,-0.1239079999999999,-0.8741795,-0.0211344999999999,0.122282,-0.9032595,0.0093315,1
40,-0.011207,0.7437885,0.043912,-0.1822679999999999,0.5674485,0.0630189999999999,-0.264328,0.8142885,-0.035861,0.159652,0.5643885,0.093867,0.283102,0.8051984999999999,0.029591,-0.266258,1.0862185000000002,-0.1029259999999999,0.326422,1.0359185000000002,-0.057086,-0.080076,-0.0012464999999999,-0.001252,0.080076,0.0012465,0.0012519999999999,-0.117908,-0.4725815,-0.097446,0.119002,-0.5081415,-0.035278,-0.123928,-0.8717615000000001,-0.020462,0.122262,-0.9025615,0.008728,1
41,-0.010701,0.7435449999999999,0.041999,-0.181458,0.5678049999999999,0.061921,-0.263968,0.813515,-0.038348,0.159402,0.5631949999999999,0.091011,0.284142,0.8052649999999999,0.02597,-0.266558,1.086115,-0.106627,0.327462,1.034915,-0.061937,-0.080222,-0.0012739999999999,-0.001215,0.080222,0.0012739999999999,0.001215,-0.117538,-0.471835,-0.099647,0.1197019999999999,-0.506685,-0.037976,-0.124098,-0.8689150000000001,-0.0197079999999999,0.122232,-0.902105,0.0074339999999999,1
42,-0.0103004999999999,0.7433645,0.0401455,-0.1807335,0.5681845,0.0607905,-0.2636535,0.8127545,-0.0409335,0.1591765,0.5620645000000001,0.0883235,0.2850364999999999,0.8055245000000001,0.0224605,-0.2669235,1.0860044999999998,-0.1104734999999999,0.3283465,1.0336044999999998,-0.0671534999999999,-0.0802665,-0.0012675,-0.0011784999999999,0.0802665,0.0012675,0.0011785,-0.1169835,-0.4687155,-0.1019635,0.1203465,-0.5037855,-0.0404375,-0.1244635,-0.8659255,-0.0190084999999999,0.1220865,-0.9011955,0.0063705,1
43,-0.009902,0.742832,0.038098,-0.180024,0.568472,0.059707,-0.263364,0.8117420000000001,-0.043698,0.158956,0.5607420000000001,0.085552,0.285876,0.805762,0.018969,-0.2671739999999999,1.085602,-0.1149819999999999,0.328986,1.032802,-0.072142,-0.080268,-0.0012659999999999,-0.0011619999999999,0.080268,0.0012659999999999,0.001162,-0.116454,-0.467258,-0.103722,0.121156,-0.502158,-0.0430769999999999,-0.124924,-0.8631179999999999,-0.0183669999999999,0.121916,-0.8995179999999999,0.005614,1
44,-0.0095445,0.74214,0.0358169999999999,-0.1793415,0.56779,0.0582909999999999,-0.2631115,0.81055,-0.04686,0.1590885,0.56019,0.0836079999999999,0.2866385,0.80606,0.0154229999999999,-0.2673615,1.0853199999999998,-0.119703,0.3295385,1.03212,-0.077283,-0.0803395,-0.00134,-0.001165,0.0803395,0.0013399999999999,0.0011649999999999,-0.1158815,-0.46595,-0.105833,0.1219185,-0.50089,-0.045582,-0.1253315,-0.86038,-0.017949,0.1216984999999999,-0.89759,0.0046619999999999,1
45,-0.0093254999999999,0.7418605,0.0336254999999999,-0.1788625,0.5671705,0.0569244999999999,-0.2629224999999999,0.8093705,-0.0502205,0.1591175,0.5595205,0.0814204999999999,0.2872375,0.8065005,0.0117024999999999,-0.2675625,1.0850905,-0.1249935,0.3299075,1.0319904999999998,-0.0826435,-0.0805285,-0.0013804999999999,-0.0011965,0.0805285,0.0013804999999999,0.0011964999999999,-0.1154024999999999,-0.4649095,-0.1081835,0.1227575,-0.4995794999999999,-0.0480565,-0.1256924999999999,-0.8576895,-0.0177115,0.1214275,-0.8958794999999999,0.0036504999999999,1
46,-0.0093415,0.7415895,0.03119,-0.1788485,0.5663195,0.055333,-0.2628585,0.8087495,-0.053799,0.1588415,0.5593095,0.079584,0.2873115,0.8071595,0.0078739999999999,-0.2678985,1.0847495,-0.1306689999999999,0.3300315,1.0323495,-0.0882289999999999,-0.0807605,-0.0014595,-0.001292,0.0807605,0.0014594999999999,0.001292,-0.1151285,-0.4642905,-0.1105989999999999,0.1233215,-0.4986804999999999,-0.05003,-0.1261685,-0.8553905,-0.01753,0.1210914999999999,-0.8945705,0.002361,1
47,-0.0096519999999999,0.7417555,0.028937,-0.17901,0.5651755,0.053559,-0.26303,0.8080555,-0.057488,0.15839,0.5589255000000001,0.077432,0.28702,0.8081455000000001,0.004273,-0.2685499999999999,1.0843455,-0.136278,0.32993,1.0334455,-0.093338,-0.0809189999999999,-0.0014815,-0.0013709999999999,0.0809189999999999,0.0014815,0.001371,-0.11517,-0.4633445,-0.112708,0.1235,-0.4978045,-0.0514,-0.12693,-0.8531345,-0.017514,0.12049,-0.8932945,0.000731,1
48,-0.0100155,0.7421580000000001,0.026574,-0.1792275,0.5642280000000001,0.051574,-0.2633175,0.807338,-0.0612389999999999,0.1578325,0.558508,0.075107,0.2866325,0.809258,0.0006989999999999,-0.2691775,1.083758,-0.142019,0.3297325,1.034398,-0.098419,-0.0810795,-0.0015339999999999,-0.001513,0.0810795,0.001534,0.001513,-0.1150674999999999,-0.463332,-0.1148289999999999,0.1235725,-0.496872,-0.0526489999999999,-0.1276975,-0.8511719999999999,-0.0182909999999999,0.1197824999999999,-0.8919819999999999,-0.0005529999999999,1
49,-0.0104765,0.742549,0.0240179999999999,-0.1794974999999999,0.563179,0.049448,-0.2636475,0.807559,-0.064982,0.1572525,0.558129,0.0726749999999999,0.2861424999999999,0.808879,-0.002829,-0.2696575,1.083269,-0.1477919999999999,0.3292625,1.035109,-0.103342,-0.0812395,-0.0015429999999999,-0.001693,0.0812395,0.001543,0.001693,-0.1151675,-0.463321,-0.116392,0.1235625,-0.496241,-0.054102,-0.1283975,-0.848851,-0.0189529999999999,0.1190525,-0.8905310000000001,-0.001728,1
50,-0.010889,0.742628,0.0210929999999999,-0.1797679999999999,0.561958,0.047213,-0.263948,0.807528,-0.069154,0.156652,0.557968,0.070276,0.285572,0.808438,-0.006088,-0.270018,1.082228,-0.153924,0.328832,1.035488,-0.108464,-0.081438,-0.001535,-0.001838,0.081438,0.001535,0.0018379999999999,-0.115128,-0.463522,-0.118464,0.1234719999999999,-0.495172,-0.055684,-0.129058,-0.8471920000000001,-0.01985,0.118132,-0.8882720000000001,-0.001655,1
51,-0.0113015,0.7427440000000001,0.0180565,-0.1800115,0.560444,0.0447355,-0.2642515,0.807554,-0.0734575,0.1560085,0.557964,0.0677745,0.2849785,0.8077840000000001,-0.0093005,-0.2703915,1.081254,-0.1601175,0.3283185,1.036164,-0.1132475,-0.0816365,-0.001534,-0.0019604999999999,0.0816365,0.001534,0.0019604999999999,-0.1151515,-0.463206,-0.1202574999999999,0.1233484999999999,-0.493636,-0.0572875,-0.1298015,-0.845556,-0.0208215,0.1170185,-0.8861559999999999,-0.0016685,1
52,-0.0116494999999999,0.7432495,0.0148475,-0.1801035,0.5588395,0.0418515,-0.2645535,0.8078195,-0.0780135,0.1554865,0.5579895,0.0648084999999999,0.2846565,0.8073995,-0.0135805,-0.2707834999999999,1.0804795,-0.1664235,0.3277765,1.0368294999999998,-0.1180934999999999,-0.0818795,-0.0015265,-0.0020575,0.0818795,0.0015265,0.0020574999999999,-0.1151935,-0.4623804999999999,-0.1219935,0.1229764999999999,-0.4918705,-0.0585134999999999,-0.1305335,-0.8435905,-0.0217785,0.1158464999999999,-0.8840205,-0.0017175,1
53,-0.0118929999999999,0.7435189999999999,0.0116949999999999,-0.180161,0.5579489999999999,0.039174,-0.264721,0.807859,-0.082743,0.155019,0.5578489999999999,0.061999,0.284409,0.8066989999999999,-0.017699,-0.271061,1.079379,-0.172773,0.327529,1.036509,-0.122863,-0.0821129999999999,-0.0013929999999999,-0.00214,0.0821129999999999,0.0013929999999999,0.0021399999999999,-0.115121,-0.461451,-0.123923,0.122729,-0.489431,-0.060313,-0.1311709999999999,-0.8415210000000001,-0.0226849999999999,0.1146389999999999,-0.8812110000000001,-0.000389,1
54,-0.0118455,0.743609,0.0083504999999999,-0.1800115,0.5570790000000001,0.0364634999999999,-0.2647815,0.8078190000000001,-0.0874654999999999,0.1546785,0.557839,0.0592425,0.2843484999999999,0.8056989999999999,-0.0214855,-0.2711215,1.078119,-0.1788755,0.3276385,1.035639,-0.1279655,-0.0823245,-0.0012649999999999,-0.0021685,0.0823245,0.001265,0.0021684999999999,-0.1148615,-0.460741,-0.1256455,0.1223185,-0.486861,-0.0618154999999999,-0.1315415,-0.8394410000000001,-0.0235625,0.1136784999999999,-0.8786609999999999,0.0005384999999999,1
55,-0.011618,0.743766,0.004888,-0.179626,0.556526,0.033575,-0.2647259999999999,0.807776,-0.092491,0.154584,0.557716,0.05621,0.284534,0.804486,-0.0254369999999999,-0.270906,1.076716,-0.185431,0.328114,1.034386,-0.133211,-0.082554,-0.001144,-0.002256,0.082554,0.0011439999999999,0.002256,-0.114416,-0.459874,-0.127191,0.122044,-0.484684,-0.063371,-0.131686,-0.837014,-0.0244809999999999,0.1131139999999999,-0.876364,0.000481,1
56,-0.0112245,0.7437035,0.0010155,-0.1792815,0.5563035,0.0306735,-0.2645915,0.8076635,-0.0976934999999999,0.1546884999999999,0.5576234999999999,0.0531275,0.2849085,0.8030335,-0.0295684999999999,-0.2706015,1.0752235,-0.1924135,0.3287485,1.0325235,-0.1390835,-0.0828235,-0.0010644999999999,-0.0024145,0.0828235,0.0010645,0.0024145,-0.1139014999999999,-0.4587064999999999,-0.1287035,0.1218084999999999,-0.4823964999999999,-0.0651235,-0.1318515,-0.8345665,-0.0253034999999999,0.1126484999999999,-0.8741065,0.0004285,1
57,-0.0106915,0.7434875000000001,-0.0030049999999999,-0.1787754999999999,0.5559975,0.027628,-0.2643255,0.8072175,-0.1029349999999999,0.1549944999999999,0.5572875,0.049776,0.2854945,0.8010975,-0.034223,-0.2701155,1.0735175,-0.1997649999999999,0.3296544999999999,1.0294375,-0.1455349999999999,-0.0830795,-0.0009624999999999,-0.0026119999999999,0.0830795,0.0009625,0.002612,-0.1134255,-0.4565825,-0.1301749999999999,0.1217144999999999,-0.4796724999999999,-0.066915,-0.1319155,-0.8320725,-0.025562,0.1123845,-0.8716725,0.0003329999999999,1
58,-0.01013,0.74326,-0.006988,-0.178225,0.55573,0.024446,-0.263995,0.80652,-0.108408,0.1553749999999999,0.55704,0.046451,0.286165,0.80034,-0.039268,-0.269555,1.0717299999999998,-0.2076179999999999,0.330505,1.02653,-0.1527079999999999,-0.0833,-0.0008999999999999,-0.0027539999999999,0.0833,0.0008999999999999,0.0027539999999999,-0.112905,-0.4541699999999999,-0.131748,0.1216549999999999,-0.4774499999999999,-0.068638,-0.131925,-0.82943,-0.026253,0.112215,-0.8691,-2.5999999999998247e-05,1
59,-0.0096219999999999,0.7431395,-0.01081,-0.177476,0.5553395,0.020943,-0.263576,0.8057495,-0.1140499999999999,0.155804,0.5568595000000001,0.043061,0.286964,0.7991895,-0.044739,-0.268976,1.0700495,-0.2155299999999999,0.331274,1.0241194999999998,-0.16016,-0.083456,-0.0008485,-0.0028479999999999,0.083456,0.0008485,0.002848,-0.112436,-0.4519105,-0.13308,0.121664,-0.4749004999999999,-0.0705,-0.131846,-0.8269505,-0.027142,0.112094,-0.8666305,-0.0005949999999999,1
60,-0.0089875,0.74273,-0.0149515,-0.1766015,0.55498,0.0172604999999999,-0.2631015,0.8044399999999999,-0.1202365,0.1563784999999999,0.55641,0.0392155,0.2879185,0.7976099999999999,-0.0510675,-0.2682815,1.06808,-0.2246965,0.3322385,1.02173,-0.1688165,-0.0835455,-0.00081,-0.0029005,0.0835455,0.0008099999999999,0.0029005,-0.1118815,-0.44961,-0.1343865,0.1215985,-0.4718,-0.0725965,-0.1317015,-0.8241200000000001,-0.0276935,0.1119785,-0.86366,-0.0005054999999999,1
61,-0.0083959999999999,0.74216,-0.0190055,-0.175925,0.55474,0.0137585,-0.262705,0.80303,-0.1263445,0.156945,0.55589,0.0354885,0.288675,0.7958,-0.0565245,-0.267575,1.06627,-0.2334645,0.333215,1.01928,-0.1780445,-0.083607,-0.000731,-0.0029474999999999,0.083607,0.0007309999999999,0.0029474999999999,-0.111315,-0.44752,-0.1355045,0.121595,-0.46916,-0.0748645,-0.131525,-0.8216600000000001,-0.0283335,0.111885,-0.8611,-0.0006635,1
62,-0.0078105,0.7415285,-0.023524,-0.1752125,0.5545385,0.009993,-0.2623525,0.8011885000000001,-0.132334,0.1575075,0.5553185,0.031186,0.2895075,0.7940585,-0.062694,-0.2667525,1.0645285,-0.242684,0.3343175,1.0173285,-0.1876939999999999,-0.0837215,-0.0007305,-0.0029269999999999,0.0837215,0.0007304999999999,0.0029269999999999,-0.1107225,-0.4458915,-0.1363639999999999,0.1215175,-0.4664615,-0.076774,-0.1311925,-0.8197715000000001,-0.0291049999999999,0.1119475,-0.8586715,-0.0013449999999999,1
63,-0.0071364999999999,0.7411585,-0.0280235,-0.1744665,0.5543185,0.0060964999999999,-0.2620665,0.7993585000000001,-0.1381695,0.1581535,0.5547985,0.0268925,0.2904235,0.7925585,-0.0693295,-0.2658764999999999,1.0629885,-0.2516494999999999,0.3355034999999999,1.0155885,-0.1971494999999999,-0.0839275,-0.0007764999999999,-0.0029495,0.0839275,0.0007764999999999,0.0029495,-0.1101065,-0.4441115,-0.1371494999999999,0.1214035,-0.4635515,-0.0786895,-0.1307565,-0.8177215,-0.0297435,0.1121635,-0.8563915,-0.0020065,1
64,-0.0064685,0.7406405,-0.032368,-0.1738035,0.5539805,0.002373,-0.2619535,0.7974305,-0.143751,0.1588065,0.5542005,0.02267,0.2913265,0.7907905,-0.0759809999999999,-0.2652735,1.0580604999999998,-0.260631,0.3365265,1.0092905,-0.206161,-0.0841455,-0.0007925,-0.0029539999999999,0.0841455,0.0007925,0.0029539999999999,-0.1095335,-0.4428594999999999,-0.137841,0.1212665,-0.4610495,-0.080551,-0.1301835,-0.8161195,-0.0306159999999999,0.1124064999999999,-0.8545495,-0.002541,1
65,-0.0057019999999999,0.7402415,-0.0365335,-0.17307,0.5537015,-0.0014935,-0.26181,0.7952915,-0.1492005,0.1596,0.5534315,0.0182855,0.29233,0.7888115,-0.0824805,-0.2646799999999999,1.0533015,-0.2689005,0.33742,1.0033815,-0.2140605,-0.084348,-0.0007614999999999,-0.0029385,0.084348,0.0007614999999999,0.0029384999999999,-0.1089499999999999,-0.4415084999999999,-0.1384705,0.1211299999999999,-0.4588285,-0.0822904999999999,-0.12949,-0.8146985,-0.0313235,0.11281,-0.8531785,-0.0037015,1
66,-0.0050109999999999,0.739894,-0.0406624999999999,-0.1722659999999999,0.553694,-0.0049634999999999,-0.261586,0.7932140000000001,-0.1544095,0.160324,0.552604,0.0139265,0.2934239999999999,0.7871440000000001,-0.0887495,-0.264166,1.048644,-0.2764295,0.338204,0.998894,-0.2213395,-0.084564,-0.000696,-0.0029364999999999,0.084564,0.000696,0.0029365,-0.108321,-0.440186,-0.1389495,0.121074,-0.456856,-0.0837594999999999,-0.128656,-0.8134459999999999,-0.0326075,0.113404,-0.851906,-0.0048504999999999,1
67,-0.0043054999999999,0.7395750000000001,-0.044944,-0.1712925,0.553485,-0.008555,-0.2612624999999999,0.7912650000000001,-0.159275,0.1610275,0.551825,0.0096719999999999,0.2945875,0.785495,-0.095045,-0.2637624999999999,1.043615,-0.283745,0.3389275,0.994055,-0.228185,-0.0847904999999999,-0.0006329999999999,-0.002961,0.0847904999999999,0.0006329999999999,0.0029609999999999,-0.1076745,-0.4388749999999999,-0.139265,0.1210874999999999,-0.4552449999999999,-0.085115,-0.1276825,-0.812295,-0.033767,0.1140675,-0.850395,-0.00547,1
68,-0.0036205,0.739299,-0.049304,-0.1701805,0.553319,-0.0120749999999999,-0.2609505,0.789629,-0.163956,0.1616595,0.550979,0.005232,0.2957795,0.784029,-0.101566,-0.2632605,1.038759,-0.290606,0.3394895,0.988849,-0.235356,-0.0849655,-0.000591,-0.0029789999999999,0.0849655,0.0005909999999999,0.002979,-0.1068675,-0.437561,-0.139616,0.1212595,-0.453221,-0.0867059999999999,-0.1265605,-0.811251,-0.034901,0.1148995,-0.8488910000000001,-0.0060019999999999,1
69,-0.0030904999999999,0.7393585,-0.0534405,-0.1692315,0.5531785,-0.0156135,-0.2607715,0.7883285,-0.1682785,0.1621585,0.5503285,0.0009344999999999,0.2967985,0.7830185,-0.1078385,-0.2629115,1.0341485,-0.2964585,0.3399985,0.9836585,-0.2416685,-0.0851125,-0.0005684999999999,-0.0029945,0.0851125,0.0005684999999999,0.0029944999999999,-0.1059535,-0.4359415,-0.1401585,0.1215285,-0.4506715,-0.0881885,-0.1253615,-0.8097015,-0.0357455,0.1157985,-0.8469015,-0.0065475,1
70,-0.0024055,0.7393955,-0.0578845,-0.1681075,0.5528055,-0.0194995,-0.2602675,0.7857255,-0.1733845,0.1627025,0.5497955,-0.0036435,0.2979325,0.7821155,-0.1144945,-0.2624075,1.0291955,-0.3025545,0.3403724999999999,0.9784355,-0.2482444999999999,-0.0852604999999999,-0.0005995,-0.0030094999999999,0.0852604999999999,0.0005995,0.0030094999999999,-0.1047535,-0.4340345,-0.1409745,0.1219224999999999,-0.4479245,-0.0903045,-0.1240675,-0.8066145,-0.0359335,0.1170025,-0.8441345,-0.0069854999999999,1
71,-0.001563,0.7391075,-0.06231,-0.166988,0.5523975,-0.023299,-0.259508,0.7830075000000001,-0.17891,0.163132,0.5491174999999999,-0.008087,0.2990819999999999,0.7806875,-0.1207,-0.261808,1.0234775,-0.30901,0.340852,0.9731075,-0.25464,-0.085374,-0.0005665,-0.003056,0.085374,0.0005664999999999,0.0030559999999999,-0.103462,-0.4319325,-0.14187,0.122622,-0.4442625,-0.09257,-0.122718,-0.8033224999999999,-0.0357969999999999,0.1184619999999999,-0.8413725000000001,-0.007323,1
72,-0.0006604999999999,0.7387900000000001,-0.066874,-0.1658715,0.55156,-0.0274949999999999,-0.2587315,0.78,-0.184284,0.1636885,0.54838,-0.012725,0.3002085,0.77912,-0.127284,-0.2611515,1.01716,-0.3160539999999999,0.3413885,0.96805,-0.261154,-0.0854805,-0.0005039999999999,-0.0030639999999999,0.0854805,0.000504,0.003064,-0.1022155,-0.42921,-0.142904,0.1234985,-0.4409799999999999,-0.0949339999999999,-0.1212715,-0.79963,-0.035607,0.1199785,-0.8386899999999999,-0.0077749999999999,1
73,0.0002819999999999,0.738275,-0.0719259999999999,-0.164553,0.550675,-0.031892,-0.257833,0.776465,-0.189806,0.164327,0.547675,-0.017476,0.301357,0.777525,-0.134106,-0.260273,1.013865,-0.322636,0.342157,0.967385,-0.268806,-0.085539,-0.000405,-0.003011,0.085539,0.000405,0.003011,-0.1009829999999999,-0.4256749999999999,-0.144096,0.124517,-0.436635,-0.0973659999999999,-0.119813,-0.7953349999999999,-0.035557,0.121587,-0.8354349999999999,-0.008286,1
74,0.0014379999999999,0.737545,-0.0773254999999999,-0.162969,0.549795,-0.0360325,-0.257089,0.772195,-0.1954155,0.165151,0.546295,-0.0223184999999999,0.302681,0.775585,-0.1411755,-0.259259,1.009735,-0.3297555,0.343091,0.966415,-0.2774155,-0.085578,-0.000285,-0.0029445,0.085578,0.0002849999999999,0.0029445,-0.099779,-0.421675,-0.1454855,0.1257809999999999,-0.432515,-0.1001954999999999,-0.118119,-0.791645,-0.0362355,0.123361,-0.831765,-0.0089305,1
75,0.0026065,0.736625,-0.0829565,-0.1612815,0.5482750000000001,-0.0407585,-0.2562315,0.768365,-0.2012665,0.1660184999999999,0.5453950000000001,-0.0270294999999999,0.3040085,0.773165,-0.1485464999999999,-0.2580615,1.0053649999999998,-0.3376665,0.3441185,0.965165,-0.2871865,-0.0856965,-0.000225,-0.0028354999999999,0.0856965,0.000225,0.0028355,-0.0987015,-0.417385,-0.1470265,0.1271685,-0.428175,-0.1033664999999999,-0.1165114999999999,-0.787155,-0.0368924999999999,0.1252385,-0.827265,-0.0097844999999999,1
76,0.0037535,0.735605,-0.0888715,-0.1597305,0.547005,-0.0455125,-0.2552505,0.765025,-0.2079114999999999,0.1668695,0.544895,-0.0314995,0.3053195,0.770595,-0.1561515,-0.2565405,1.000885,-0.3459715,0.3451095,0.963425,-0.2975215,-0.0858295,-0.0001749999999999,-0.0027174999999999,0.0858295,0.000175,0.0027174999999999,-0.0978805,-0.4128849999999999,-0.1491715,0.1284195,-0.423365,-0.1070014999999999,-0.1151404999999999,-0.781905,-0.0375795,0.1270495,-0.822305,-0.0107055,1
77,0.005017,0.734655,-0.0952515,-0.158054,0.5456650000000001,-0.0507645,-0.253824,0.762465,-0.2152315,0.167916,0.543995,-0.0368224999999999,0.306696,0.767805,-0.1640815,-0.254644,0.997285,-0.3561515,0.346146,0.959405,-0.3080515,-0.085989,-5.499999999999949e-05,-0.0027335,0.085989,5.499999999999949e-05,0.0027335,-0.097184,-0.407485,-0.1516615,0.129696,-0.417855,-0.1109214999999999,-0.113864,-0.775855,-0.0384154999999999,0.128876,-0.816605,-0.0117784999999999,1
78,0.0063534999999999,0.7323649999999999,-0.1020259999999999,-0.1562825,0.5442750000000001,-0.0560159999999999,-0.2519525,0.7597750000000001,-0.223146,0.1689075,0.5435749999999999,-0.041781,0.3081474999999999,0.7641249999999999,-0.1723259999999999,-0.2522725,0.994075,-0.367196,0.3470975,0.954685,-0.318556,-0.0861794999999999,8.500000000000174e-05,-0.0027529999999999,0.0861794999999999,-8.500000000000174e-05,0.002753,-0.0968025,-0.402115,-0.154196,0.1310275,-0.4131149999999999,-0.115616,-0.1131525,-0.7691950000000001,-0.0383919999999999,0.1307375,-0.810945,-0.0136429999999999,1
79,0.0074914999999999,0.7300599999999999,-0.1090054999999999,-0.1548275,0.54315,-0.0612255,-0.2501775,0.7583,-0.2314255,0.1699825,0.54234,-0.0473114999999999,0.3094225,0.75981,-0.1806654999999999,-0.2501275,0.98859,-0.3790455,0.3481824999999999,0.94971,-0.3290055,-0.0864135,0.0003199999999999,-0.0027534999999999,0.0864135,-0.00032,0.0027535,-0.0967775,-0.39635,-0.1571455,0.1322025,-0.4082100000000001,-0.1204054999999999,-0.1128275,-0.76212,-0.0387774999999999,0.1323125,-0.80477,-0.0155594999999999,1
80,0.008526,0.7279749999999999,-0.116107,-0.1536169999999999,0.541805,-0.066617,-0.2487069999999999,0.7571749999999999,-0.239337,0.171013,0.541265,-0.0528439999999999,0.310573,0.7555649999999999,-0.189257,-0.248337,0.983825,-0.3900869999999999,0.349213,0.944535,-0.3397369999999999,-0.0866659999999999,0.0004949999999999,-0.002616,0.0866659999999999,-0.0004949999999999,0.002616,-0.097027,-0.3905350000000001,-0.160487,0.133013,-0.402995,-0.125017,-0.112897,-0.754425,-0.039239,0.133663,-0.7981250000000001,-0.017629,1
81,0.009537,0.725355,-0.123261,-0.1524749999999999,0.540095,-0.071911,-0.247265,0.755725,-0.248131,0.171925,0.539945,-0.0582909999999999,0.311585,0.7502549999999999,-0.197801,-0.246595,0.978445,-0.401551,0.349885,0.936725,-0.350801,-0.08695,0.000675,-0.0024539999999999,0.08695,-0.000675,0.0024539999999999,-0.0968349999999999,-0.385125,-0.164241,0.1336149999999999,-0.3972549999999999,-0.130031,-0.113165,-0.7478450000000001,-0.040255,0.134865,-0.791555,-0.019693,1
82,0.0105055,0.722875,-0.1304885,-0.1512155,0.5385150000000001,-0.0772485,-0.2459255,0.754895,-0.2572185,0.1727044999999999,0.538185,-0.0638385,0.3124345,0.7449250000000001,-0.2062784999999999,-0.2446455,0.973365,-0.4133885,0.3504345,0.929325,-0.3613185,-0.0873165,0.000845,-0.0022555,0.0873165,-0.0008449999999999,0.0022554999999999,-0.0964754999999999,-0.379545,-0.1688085,0.1341244999999999,-0.3925349999999999,-0.1358484999999999,-0.1136455,-0.739675,-0.0412805,0.1360245,-0.7841049999999999,-0.0220145,1
83,0.011228,0.7208399999999999,-0.137461,-0.1501159999999999,0.5366299999999999,-0.082911,-0.244606,0.7539800000000001,-0.266601,0.173334,0.5362100000000001,-0.069891,0.312714,0.7383,-0.214121,-0.242026,0.97014,-0.426461,0.3506039999999999,0.92141,-0.372531,-0.087334,0.00092,-0.0020869999999999,0.087334,-0.0009199999999999,0.002087,-0.096016,-0.37152,-0.173261,0.133654,-0.3846299999999999,-0.1413709999999999,-0.114366,-0.73177,-0.042737,0.136734,-0.7765,-0.024425,1
84,0.0119214999999999,0.7199599999999999,-0.144173,-0.1487235,0.53576,-0.088303,-0.2428235,0.75305,-0.275983,0.1739764999999999,0.5349,-0.076103,0.3129665,0.73303,-0.2214729999999999,-0.2391035,0.96731,-0.438803,0.3505365,0.91421,-0.383033,-0.0873555,0.0011899999999999,-0.001877,0.0873555,-0.0011899999999999,0.0018769999999999,-0.0955235,-0.36238,-0.178023,0.1331365,-0.3761,-0.1472629999999999,-0.1149535,-0.72321,-0.046515,0.1374465,-0.7682300000000001,-0.027095,1
85,0.0129684999999999,0.71898,-0.155326,-0.1466285,0.53498,-0.0984659999999999,-0.2405285,0.75169,-0.2899359999999999,0.1749915,0.5329699999999999,-0.087016,0.3138315,0.7279899999999999,-0.233746,-0.2355285,0.96406,-0.456456,0.3507614999999999,0.90762,-0.398416,-0.0874665,0.0014799999999999,-0.0018819999999999,0.0874665,-0.00148,0.001882,-0.0947385,-0.35358,-0.186736,0.1326815,-0.36829,-0.157746,-0.1150685,-0.7173499999999999,-0.0561259999999999,0.1393715,-0.7604599999999999,-0.0345329999999999,1
86,0.0141459999999999,0.720615,-0.167291,-0.144742,0.5357149999999999,-0.109311,-0.238022,0.749835,-0.303961,0.176238,0.534455,-0.097951,0.314538,0.725895,-0.246771,-0.231882,0.961175,-0.473841,0.351368,0.906325,-0.415351,-0.087696,0.0014249999999999,-0.002105,0.087696,-0.001425,0.0021049999999999,-0.092552,-0.342945,-0.204781,0.131948,-0.358815,-0.176251,-0.114812,-0.710545,-0.071771,0.141988,-0.750595,-0.048741,1
87,0.015348,0.72271,-0.179377,-0.142926,0.53588,-0.120107,-0.235606,0.74764,-0.317547,0.177364,0.53576,-0.108927,0.314994,0.72397,-0.259687,-0.228276,0.95581,-0.490527,0.351694,0.90524,-0.432377,-0.087772,0.00129,-0.002335,0.087772,-0.00129,0.002335,-0.090316,-0.33318,-0.222747,0.130794,-0.35045,-0.193937,-0.114396,-0.70432,-0.087847,0.144614,-0.74115,-0.062143,1
88,0.0166375,0.723945,-0.190769,-0.1410935,0.535725,-0.130899,-0.2335135,0.744185,-0.331069,0.1786164999999999,0.536595,-0.119409,0.3151965,0.722585,-0.272879,-0.2250135,0.952355,-0.5063989999999999,0.3517465,0.904275,-0.448699,-0.0878545,0.0011349999999999,-0.002565,0.0878545,-0.0011349999999999,0.002565,-0.0877995,-0.324095,-0.2404089999999999,0.1293265,-0.342405,-0.211399,-0.1137934999999999,-0.698445,-0.104279,0.1471565,-0.732015,-0.0760069999999999,1
89,0.017932,0.725635,-0.2022209999999999,-0.139203,0.533775,-0.141761,-0.231703,0.741275,-0.344531,0.179807,0.5386949999999999,-0.129461,0.315357,0.719235,-0.285581,-0.221763,0.947135,-0.522741,0.351687,0.897735,-0.464731,-0.088016,0.0007349999999999,-0.002793,0.088016,-0.000735,0.0027929999999999,-0.084724,-0.314925,-0.258001,0.127617,-0.334715,-0.228981,-0.1130529999999999,-0.692235,-0.1208709999999999,0.149267,-0.720965,-0.085963,1
90,0.0192415,0.72777,-0.2138135,-0.1374544999999999,0.5334,-0.1525435,-0.2302445,0.73898,-0.3578635,0.1805255,0.53731,-0.1401135,0.3155055,0.7177800000000001,-0.2976135,-0.2184644999999999,0.94239,-0.5397034999999999,0.3519355,0.89498,-0.4797835,-0.0881784999999999,0.0007,-0.0031144999999999,0.0881784999999999,-0.0006999999999999,0.0031145,-0.0807765,-0.3041899999999999,-0.2760135,0.1260755,-0.3221699999999999,-0.2473334999999999,-0.1129244999999999,-0.68006,-0.1311635,0.1512755,-0.7081999999999999,-0.0954435,1
91,0.0208384999999999,0.72963,-0.2254145,-0.1356514999999999,0.53272,-0.1633345,-0.2283615,0.73529,-0.3710245,0.1817484999999999,0.53672,-0.1505245,0.3158985,0.7163200000000001,-0.3100845,-0.2148715,0.93614,-0.5572245,0.3524285,0.89073,-0.4952545,-0.0884375,0.00059,-0.0035205,0.0884375,-0.0005899999999999,0.0035205,-0.0759795,-0.2929299999999999,-0.2938745,0.1245685,-0.31263,-0.2653345,-0.1125215,-0.6677900000000001,-0.1414445,0.1533985,-0.69336,-0.1048245,1
92,0.0223109999999999,0.7304200000000001,-0.237233,-0.133812,0.53146,-0.174623,-0.226632,0.7305699999999999,-0.384523,0.182758,0.53687,-0.1609529999999999,0.315948,0.71497,-0.323163,-0.212032,0.9284,-0.573813,0.352618,0.8850399999999999,-0.509973,-0.088505,0.0005399999999999,-0.003942,0.088505,-0.0005399999999999,0.0039419999999999,-0.070721,-0.28086,-0.312453,0.123468,-0.30222,-0.284063,-0.112292,-0.65541,-0.152223,0.155438,-0.6780700000000001,-0.114623,1
93,0.0235965,0.7298450000000001,-0.2489475,-0.1323835,0.529695,-0.1858875,-0.2252735,0.725445,-0.3978775,0.1834865,0.535155,-0.1716375,0.3161564999999999,0.712145,-0.3365674999999999,-0.2092935,0.920565,-0.5918775000000001,0.3527165,0.877175,-0.5246275,-0.0884004999999999,0.000325,-0.0043525,0.0884004999999999,-0.0003249999999999,0.0043525,-0.0656974999999999,-0.2686649999999999,-0.3312275,0.1222264999999999,-0.292115,-0.3023975,-0.1124935,-0.643405,-0.1609375,0.1573565,-0.662725,-0.1235875,1
94,0.024611,0.7286699999999999,-0.256083,-0.131492,0.5274,-0.192363,-0.2244519999999999,0.71966,-0.406093,0.183778,0.5330699999999999,-0.177903,0.316098,0.7088399999999999,-0.3448529999999999,-0.2070519999999999,0.91025,-0.6044430000000001,0.352308,0.86927,-0.534713,-0.08824,0.0002099999999999,-0.004536,0.08824,-0.0002099999999999,0.0045359999999999,-0.061515,-0.25492,-0.346033,0.120988,-0.2802199999999999,-0.316453,-0.113092,-0.62947,-0.164353,0.158008,-0.6459900000000001,-0.127633,1
95,0.02524,0.7256,-0.2622359999999999,-0.13047,0.52294,-0.198106,-0.22382,0.71127,-0.414106,0.18333,0.52848,-0.183446,0.31615,0.70327,-0.3527059999999999,-0.20523,0.89822,-0.615826,0.35178,0.8588399999999999,-0.543956,-0.0886359999999999,0.0003199999999999,-0.0043029999999999,0.0886359999999999,-0.00032,0.004303,-0.05941,-0.24159,-0.3521459999999999,0.11957,-0.2684000000000001,-0.323756,-0.1139,-0.6166900000000001,-0.166996,0.15825,-0.63042,-0.129766,1
96,0.025498,0.7222,-0.2677085,-0.129633,0.5188699999999999,-0.2035785,-0.223263,0.7043200000000001,-0.4216284999999999,0.182867,0.52409,-0.1894585,0.315927,0.69882,-0.3598984999999999,-0.203573,0.8868,-0.6270485,0.351077,0.84906,-0.5542985,-0.0891079999999999,0.0002699999999999,-0.0040145,0.0891079999999999,-0.0002699999999999,0.0040145,-0.0577429999999999,-0.22781,-0.3587484999999999,0.118187,-0.25473,-0.3313985,-0.1146929999999999,-0.6018100000000001,-0.1696585,0.158257,-0.6139100000000001,-0.1319385,1
97,0.0257379999999999,0.719175,-0.2728425,-0.128902,0.515635,-0.2083824999999999,-0.222602,0.696475,-0.4278925,0.182548,0.522025,-0.1944925,0.315898,0.6886950000000001,-0.3658524999999999,-0.201502,0.875165,-0.6377425,0.350408,0.836385,-0.5654125,-0.089624,0.000145,-0.0037624999999999,0.089624,-0.000145,0.0037625,-0.056461,-0.214285,-0.3654125,0.117168,-0.241595,-0.3387425,-0.115492,-0.588625,-0.1715625,0.158378,-0.599715,-0.1337525,1
98,0.0257715,0.716,-0.2770305,-0.1281685,0.51275,-0.2126705,-0.2220285,0.6878599999999999,-0.4333905,0.1816215,0.51491,-0.1995505,0.3158714999999999,0.6822900000000001,-0.3713305,-0.1994385,0.86364,-0.6473604999999999,0.3496614999999999,0.82919,-0.5753005,-0.0903025,0.00062,-0.0036565,0.0903025,-0.00062,0.0036565,-0.0556785,-0.20214,-0.3720005,0.1160715,-0.23101,-0.3469105,-0.1168285,-0.5714400000000001,-0.1678005,0.1579115,-0.58198,-0.1307305,1
99,0.0256429999999999,0.7127950000000001,-0.280147,-0.127593,0.509125,-0.216327,-0.2214229999999999,0.6799649999999999,-0.437987,0.1804069999999999,0.512225,-0.203647,0.315017,0.6750849999999999,-0.376377,-0.197963,0.852735,-0.655437,0.348727,0.819015,-0.584817,-0.091015,0.000645,-0.003417,0.091015,-0.000645,0.003417,-0.055952,-0.190405,-0.377757,0.1146269999999999,-0.2202549999999999,-0.353897,-0.118013,-0.556185,-0.164307,0.1574769999999999,-0.564915,-0.127557,1
100,0.0254659999999999,0.70966,-0.2822915,-0.126974,0.50607,-0.2192015,-0.220944,0.6732,-0.4421815,0.179426,0.50959,-0.2072615,0.314616,0.6663399999999999,-0.3801515,-0.196234,0.8422499999999999,-0.6622515,0.347896,0.80974,-0.5931115,-0.091756,0.00068,-0.0030565,0.091756,-0.00068,0.0030565,-0.056274,-0.17858,-0.3830315,0.1128559999999999,-0.20866,-0.3609815,-0.119174,-0.53992,-0.1599915,0.157076,-0.5470200000000001,-0.1234615,1
101,0.0252925,0.70753,-0.284141,-0.1265895,0.50332,-0.221461,-0.2204394999999999,0.6685,-0.446381,0.1782505,0.50672,-0.210251,0.3144405,0.66006,-0.383871,-0.1946095,0.83136,-0.668381,0.3473905,0.80179,-0.599511,-0.0926115,0.00067,-0.0029679999999999,0.0926115,-0.00067,0.0029679999999999,-0.0564714999999999,-0.1671999999999999,-0.388191,0.1111405,-0.1961299999999999,-0.367931,-0.1202594999999999,-0.5230300000000001,-0.155091,0.1571105,-0.53322,-0.1229649999999999,1
102,0.0250115,0.704885,-0.2857409999999999,-0.1261535,0.5010349999999999,-0.223491,-0.2205835,0.6642549999999999,-0.450621,0.1770765,0.505435,-0.212771,0.3144565,0.654565,-0.386771,-0.1932135,0.820205,-0.672581,0.3467865,0.7956449999999999,-0.605611,-0.0933944999999999,0.0007249999999999,-0.0029,0.0933944999999999,-0.000725,0.0029,-0.0564384999999999,-0.155225,-0.3933509999999999,0.1093165,-0.1826850000000001,-0.375571,-0.1208334999999999,-0.5088050000000001,-0.155301,0.1570165,-0.519205,-0.123018,1
103,0.0246875,0.703495,-0.2867159999999999,-0.1259134999999999,0.498244,-0.225206,-0.2201334999999999,0.660885,-0.453866,0.1758065,0.504131,-0.214726,0.3146265,0.649015,-0.389026,-0.1919535,0.8130850000000001,-0.675866,0.3461765,0.789925,-0.610486,-0.0940884999999999,0.000735,-0.0029719999999999,0.0940884999999999,-0.0007349999999999,0.0029719999999999,-0.0565694999999999,-0.1430549999999999,-0.3986159999999999,0.1073665,-0.168965,-0.383256,-0.1215135,-0.4947549999999999,-0.155366,0.1568765,-0.505425,-0.123033,1
104,0.024604,0.700705,-0.2874235,-0.1257289999999999,0.496574,-0.2263435,-0.2195089999999999,0.6580550000000001,-0.4560035,0.174441,0.502745,-0.2163035,0.314741,0.642715,-0.3900234999999999,-0.190429,0.8064250000000001,-0.6786535,0.3457309999999999,0.7813950000000001,-0.6132835,-0.094367,0.000765,-0.0026145,0.094367,-0.0007649999999999,0.0026144999999999,-0.056637,-0.132255,-0.4031034999999999,0.105781,-0.156845,-0.3896235,-0.122139,-0.4826349999999999,-0.1550435,0.156751,-0.493305,-0.1226585,1
105,0.0245804999999999,0.69777,-0.2880475,-0.1255735,0.495119,-0.2273575,-0.2190135,0.65171,-0.4577075,0.1732965,0.5005459999999999,-0.2173475,0.3147065,0.63466,-0.3907275,-0.1889835,0.80091,-0.6810075,0.3450865,0.77261,-0.6143875,-0.0946745,0.0010299999999999,-0.0022305,0.0946745,-0.00103,0.0022305,-0.0568385,-0.1218,-0.4070875,0.1041864999999999,-0.14555,-0.3957275,-0.1225435,-0.4724900000000001,-0.1561575,0.1563765,-0.48201,-0.1222814999999999,1
106,0.0245269999999999,0.69571,-0.2879104999999999,-0.125382,0.49312,-0.2279205,-0.219372,0.64898,-0.4566504999999999,0.171948,0.497478,-0.2179205,0.314318,0.63249,-0.3895705,-0.187832,0.79762,-0.6822104999999999,0.344238,0.7679400000000001,-0.6130805,-0.095051,0.00186,-0.0012114999999999,0.095051,-0.0018599999999999,0.0012115,-0.057061,-0.1103499999999999,-0.4099905,0.102748,-0.1331,-0.4023104999999999,-0.1230219999999999,-0.46182,-0.1563105,0.155808,-0.46999,-0.1211065,1
107,0.024591,0.694205,-0.2860924999999999,-0.12513,0.492475,-0.2275525,-0.21933,0.648005,-0.4549825,0.17098,0.498687,-0.2169825,0.31404,0.630315,-0.3879225,-0.18648,0.797005,-0.6828025,0.34376,0.7640750000000001,-0.6112825,-0.095008,0.002035,-0.0005664999999999,0.095008,-0.0020349999999999,0.0005665,-0.0569279999999999,-0.0989249999999999,-0.4123325,0.10273,-0.1207849999999999,-0.4073425,-0.12297,-0.451685,-0.1559925,0.15578,-0.4585749999999999,-0.1194805,1
108,0.0246765,0.69224,-0.28452,-0.1249575,0.4919489999999999,-0.2270499999999999,-0.2185575,0.64684,-0.4539,0.1701625,0.499477,-0.21585,0.3136325,0.62803,-0.38545,-0.1850775,0.79747,-0.6828500000000001,0.3430425,0.76268,-0.60798,-0.0949375,0.00217,0.0002029999999999,0.0949375,-0.00217,-0.000203,-0.0568575,-0.08777,-0.41446,0.1029525,-0.10835,-0.41207,-0.1228775,-0.44183,-0.15571,0.1556725,-0.44784,-0.11821,1
109,0.0248305,0.6906,-0.282496,-0.1247625,0.491023,-0.226376,-0.2176725,0.6446,-0.453076,0.1693974999999999,0.5006039999999999,-0.214446,0.3125374999999999,0.62713,-0.383736,-0.1840625,0.7998099999999999,-0.682206,0.3429875,0.76112,-0.606126,-0.0949445,0.0020699999999999,0.0009049999999999,0.0949445,-0.00207,-0.0009049999999999,-0.0564815,-0.0774,-0.416136,0.1033175,-0.0962699999999999,-0.416206,-0.1224524999999999,-0.43315,-0.155276,0.1555274999999999,-0.43828,-0.117401,1
110,0.0248189999999999,0.68908,-0.2806895,-0.124758,0.491743,-0.2254495,-0.216798,0.64411,-0.4523095,0.168802,0.500144,-0.2127295,0.311532,0.62741,-0.3820095,-0.183058,0.8045599999999999,-0.6812395,0.3427119999999999,0.7614000000000001,-0.6027195,-0.094986,0.00245,0.0017404999999999,0.094986,-0.00245,-0.0017405,-0.056114,-0.06609,-0.4174795,0.103402,-0.0821599999999999,-0.4200395,-0.121788,-0.4237899999999999,-0.1550695,0.155272,-0.4276899999999999,-0.1165825,1
111,0.0248404999999999,0.68848,-0.278708,-0.1248595,0.491923,-0.224438,-0.2158895,0.64388,-0.451178,0.1684505,0.499059,-0.211138,0.3107705,0.62752,-0.380468,-0.1817495,0.80952,-0.6801879999999999,0.3426105,0.7620199999999999,-0.5992879999999999,-0.0949975,0.0028099999999999,0.0025029999999999,0.0949975,-0.0028099999999999,-0.002503,-0.0556085,-0.05619,-0.418448,0.1036405,-0.06911,-0.423408,-0.1208695,-0.41497,-0.155018,0.1550905,-0.41828,-0.115688,1
112,0.0246315,0.6885399999999999,-0.276981,-0.1251625,0.493275,-0.223151,-0.2150824999999999,0.6446,-0.4495309999999999,0.1680675,0.499377,-0.209581,0.3095675,0.6297,-0.3789909999999999,-0.1804125,0.81508,-0.678451,0.3423474999999999,0.76414,-0.595591,-0.0949415,0.00295,0.0031769999999999,0.0949415,-0.00295,-0.003177,-0.0550275,-0.04629,-0.419211,0.1039674999999999,-0.0563799999999999,-0.4262309999999999,-0.1202425,-0.40626,-0.154771,0.1548375,-0.4093799999999999,-0.1149709999999999,1
113,0.024125,0.6893250000000001,-0.2747805,-0.125681,0.493735,-0.2214505,-0.214431,0.6470750000000001,-0.4470504999999999,0.167499,0.498698,-0.2078805,0.308199,0.6330450000000001,-0.3767705,-0.179461,0.8207550000000001,-0.6766005,0.341819,0.769575,-0.5917705000000001,-0.095004,0.003045,0.0038224999999999,0.095004,-0.0030449999999999,-0.0038224999999999,-0.054584,-0.0375749999999999,-0.4198205,0.104079,-0.0458949999999999,-0.4285605,-0.119811,-0.398485,-0.1539404999999999,0.154539,-0.4015249999999999,-0.1138605,1
114,0.023642,0.6917300000000001,-0.2730765,-0.126276,0.494306,-0.2198765,-0.214596,0.65235,-0.4436865,0.167244,0.497997,-0.2059264999999999,0.307494,0.6381800000000001,-0.3749065,-0.178686,0.82745,-0.6748865,0.340994,0.77676,-0.5878964999999999,-0.095054,0.00311,0.0043605,0.095054,-0.0031099999999999,-0.0043605,-0.054282,-0.02942,-0.4204765,0.104284,-0.0362,-0.4306465,-0.1196059999999999,-0.3910399999999999,-0.1530965,0.154164,-0.3942599999999999,-0.1128865,1
115,0.023291,0.6939150000000001,-0.2714845,-0.1267059999999999,0.494896,-0.2193045,-0.214206,0.6569750000000001,-0.4413045,0.166824,0.497209,-0.2048245,0.306294,0.6428050000000001,-0.3737045,-0.178076,0.832075,-0.6740944999999999,0.3403339999999999,0.781385,-0.5844444999999999,-0.094886,0.0025249999999999,0.0040005,0.094886,-0.0025249999999999,-0.0040005,-0.0539659999999999,-0.0240249999999999,-0.4218445,0.104704,-0.029405,-0.4311545,-0.119076,-0.386575,-0.1532645,0.1539039999999999,-0.3896349999999999,-0.1128045,1
116,0.0231539999999999,0.69434,-0.269298,-0.126822,0.4951449999999999,-0.218788,-0.213732,0.6578599999999999,-0.438888,0.166648,0.4973799999999999,-0.203518,0.305258,0.64369,-0.372218,-0.1776019999999999,0.8329599999999999,-0.671928,0.339898,0.7822699999999999,-0.581508,-0.0948489999999999,0.0020999999999999,0.0034879999999999,0.0948489999999999,-0.0021000000000001,-0.0034879999999999,-0.053663,-0.02301,-0.4224779999999999,0.105548,-0.02748,-0.430548,-0.118402,-0.3857900000000001,-0.153368,0.153988,-0.38882,-0.1126979999999999,1
117,0.023047,0.69434,-0.2668065,-0.126966,0.4951449999999999,-0.2180865,-0.2132359999999999,0.6578599999999999,-0.4377565,0.166484,0.4973799999999999,-0.2021465,0.304234,0.64369,-0.3703865,-0.177556,0.8329599999999999,-0.6689165,0.339504,0.7824599999999999,-0.5778565,-0.094736,0.0020999999999999,0.0030005,0.094736,-0.0021000000000001,-0.0030004999999999,-0.053655,-0.02301,-0.4227765,0.106334,-0.02715,-0.4299665,-0.117746,-0.38587,-0.1534865,0.154144,-0.3891300000000001,-0.1125465,1
118,0.0229234999999999,0.69434,-0.2639195,-0.1270295,0.4951449999999999,-0.2164695,-0.2128695,0.65945,-0.4366495,0.1665005,0.4973799999999999,-0.2002195,0.3034705,0.6443899999999999,-0.3682195,-0.1778895,0.83432,-0.6645995,0.3392705,0.7842199999999999,-0.5741895,-0.0945755,0.0020999999999999,0.0024954999999999,0.0945755,-0.0021000000000001,-0.0024955,-0.0535855,-0.02301,-0.4223995,0.1073305,-0.0266,-0.4293595,-0.1172695,-0.38587,-0.1530695,0.1543805,-0.3893000000000001,-0.1121995,1
119,0.0229175,0.69434,-0.261793,-0.1269855,0.4951449999999999,-0.215023,-0.2125855,0.6620999999999999,-0.435153,0.1673545,0.4973799999999999,-0.198583,0.3033245,0.6475899999999999,-0.3664429999999999,-0.1780855,0.83806,-0.6601629999999999,0.3392345,0.7883499999999999,-0.571323,-0.0942665,0.0020999999999999,0.0020029999999999,0.0942665,-0.0021000000000001,-0.002003,-0.0534404999999999,-0.02301,-0.422273,0.1078845,-0.02651,-0.429123,-0.1170255,-0.38587,-0.1529329999999999,0.1549945,-0.3893700000000001,-0.112163,1
120,0.022947,0.6971149999999999,-0.25971,-0.126819,0.496048,-0.21342,-0.2123789999999999,0.668355,-0.43371,0.168201,0.497741,-0.19674,0.303411,0.651365,-0.36427,-0.1781789999999999,0.841475,-0.65537,0.339451,0.7921149999999999,-0.56811,-0.093942,0.0017949999999999,0.0014999999999999,0.093942,-0.0017949999999999,-0.0014999999999999,-0.053347,-0.0255549999999999,-0.4222599999999999,0.108521,-0.028405,-0.42833,-0.116629,-0.387115,-0.15289,0.155881,-0.391005,-0.11219,1
121,0.0231139999999999,0.699725,-0.2576635,-0.12674,0.496701,-0.2119935,-0.21184,0.6747350000000001,-0.4336534999999999,0.16925,0.496881,-0.1950935,0.30366,0.655705,-0.3618435,-0.17815,0.844775,-0.6509435,0.33999,0.796875,-0.5645735000000001,-0.093827,0.001755,0.0008774999999999,0.093827,-0.0017549999999999,-0.0008774999999999,-0.053279,-0.030945,-0.4224935,0.10921,-0.0327349999999999,-0.4271034999999999,-0.11636,-0.3898349999999999,-0.1529935,0.15683,-0.394815,-0.1123234999999999,1
122,0.023254,0.702655,-0.2550465,-0.126893,0.496356,-0.2103965,-0.211313,0.679575,-0.4334765,0.170627,0.497762,-0.1935465,0.304207,0.659335,-0.3621265,-0.178363,0.847575,-0.6464865,0.341157,0.801105,-0.5642765,-0.094139,0.001475,0.0004745,0.094139,-0.001475,-0.0004744999999999,-0.053451,-0.0394949999999999,-0.4223865,0.109947,-0.041045,-0.4254565,-0.115813,-0.395865,-0.1531765,0.157767,-0.4016649999999999,-0.1125865,1
123,0.023798,0.705135,-0.2526675,-0.12685,0.4964619999999999,-0.2086475,-0.2107,0.683445,-0.4318675,0.17213,0.5006879999999999,-0.1916375,0.30505,0.6629349999999999,-0.3627475,-0.17879,0.850335,-0.6419374999999999,0.34305,0.8043049999999999,-0.5640674999999999,-0.094299,0.0009649999999999,-0.0002504999999999,0.094299,-0.0009650000000001,0.0002505,-0.053658,-0.050655,-0.4216375,0.11083,-0.052565,-0.4225775,-0.11551,-0.404735,-0.1526075,0.1586099999999999,-0.4113650000000001,-0.1132075,1
124,0.0242509999999999,0.707125,-0.250363,-0.127103,0.496546,-0.206963,-0.210343,0.685935,-0.430433,0.173547,0.502212,-0.189823,0.305867,0.665285,-0.360863,-0.1794629999999999,0.853755,-0.637853,0.344607,0.807015,-0.561093,-0.094336,0.0006349999999999,-0.0012379999999999,0.094336,-0.0006349999999999,0.0012379999999999,-0.053768,-0.0640249999999999,-0.420133,0.1118069999999999,-0.067275,-0.418603,-0.115203,-0.416685,-0.152413,0.159597,-0.4238449999999999,-0.114063,1
125,0.0251445,0.70905,-0.248218,-0.1270015,0.497386,-0.205258,-0.2098015,0.69147,-0.428868,0.1752285,0.504949,-0.187858,0.3076284999999999,0.67198,-0.358988,-0.1796315,0.85718,-0.634598,0.3470284999999999,0.81322,-0.558288,-0.0940555,0.0005,-0.0023339999999999,0.0940555,-0.0005,0.002334,-0.0535895,-0.0782699999999999,-0.4178779999999999,0.1135584999999999,-0.0827299999999999,-0.413848,-0.1150815,-0.42822,-0.151348,0.1610985,-0.4376299999999999,-0.114818,1
126,0.0259844999999999,0.71143,-0.2457495,-0.1268735,0.498034,-0.2037595,-0.2091635,0.69548,-0.4273895,0.1769965,0.509501,-0.1859095,0.3094965,0.67802,-0.3571695,-0.1796135,0.86083,-0.6319795,0.3496165,0.8175399999999999,-0.5548095,-0.0937515,-2.000000000002e-05,-0.0034055,0.0937515,1.999999999996449e-05,0.0034055,-0.0534845,-0.0942899999999999,-0.4148895,0.1153565,-0.0993399999999999,-0.4077195,-0.1148235,-0.44229,-0.1507795,0.1629165,-0.45414,-0.1160395,1
127,0.0268704999999999,0.7135,-0.2433205,-0.1267755,0.499474,-0.2019905,-0.2084255,0.69783,-0.4258205,0.1786144999999999,0.512833,-0.1837705,0.3113045,0.68234,-0.3540405,-0.1793455,0.8651899999999999,-0.6301605,0.3523745,0.8213699999999999,-0.5510605000000001,-0.0934395,-8.00000000000245e-05,-0.0041265,0.0934395,7.999999999996898e-05,0.0041264999999999,-0.0534585,-0.1112199999999999,-0.4108504999999999,0.1172945,-0.11679,-0.4013604999999999,-0.1143754999999999,-0.45733,-0.1499105,0.1646345,-0.47168,-0.1171705,1
128,0.02786,0.716875,-0.240932,-0.126638,0.501409,-0.200492,-0.2074679999999999,0.701535,-0.424212,0.180192,0.515532,-0.181862,0.313382,0.684535,-0.351072,-0.1789079999999999,0.870445,-0.628232,0.355212,0.824595,-0.546902,-0.093007,-0.0002449999999999,-0.004657,0.093007,0.000245,0.004657,-0.0535579999999999,-0.128475,-0.405792,0.119322,-0.134815,-0.393692,-0.113838,-0.4737449999999999,-0.149282,0.165992,-0.4902649999999999,-0.118742,1
129,0.0284335,0.720305,-0.238219,-0.1266475,0.503032,-0.199139,-0.2063875,0.703255,-0.4228989999999999,0.1815725,0.517525,-0.179869,0.3154425,0.6882349999999999,-0.347999,-0.1785275,0.876625,-0.6256889999999999,0.3580525,0.828935,-0.541929,-0.0924575,-0.0002849999999999,-0.0050409999999999,0.0924575,0.000285,0.005041,-0.0546045,-0.145675,-0.400089,0.1216325,-0.153645,-0.3855889999999999,-0.1133275,-0.4908949999999999,-0.148839,0.1677024999999999,-0.512745,-0.124799,1
130,0.0289775,0.7236400000000001,-0.2352285,-0.1267795,0.50582,-0.1974785,-0.2055795,0.70697,-0.4206085,0.1829205,0.51942,-0.1775285,0.3174705,0.69292,-0.3440285,-0.1781394999999999,0.8835500000000001,-0.6226485,0.3606305,0.83614,-0.5367785,-0.0919494999999999,-0.0002599999999999,-0.0055015,0.0919494999999999,0.0002599999999999,0.0055014999999999,-0.0564425,-0.16272,-0.3936285,0.1239905,-0.17197,-0.3770485,-0.1128395,-0.5098,-0.1500985,0.1695005,-0.53165,-0.1310285,1
131,0.0291979999999999,0.727805,-0.231513,-0.127246,0.508095,-0.195143,-0.205806,0.708855,-0.417223,0.183854,0.5252950000000001,-0.1740729999999999,0.319104,0.696945,-0.339693,-0.178166,0.890055,-0.618483,0.362754,0.841735,-0.530943,-0.091366,-0.0007549999999999,-0.0060959999999999,0.091366,0.000755,0.006096,-0.05938,-0.1800049999999999,-0.386263,0.126254,-0.1902349999999999,-0.367593,-0.112646,-0.529735,-0.151183,0.171314,-0.5513049999999999,-0.138123,1
132,0.0291705,0.732135,-0.2271145,-0.1278045,0.509145,-0.1930445,-0.2062645,0.713415,-0.4142344999999999,0.1845055,0.527825,-0.1711745,0.3206555,0.704025,-0.3355645,-0.1785945,0.8993150000000001,-0.6139045000000001,0.3643054999999999,0.850875,-0.5250845000000001,-0.0908045,-0.000925,-0.0064735,0.0908045,0.000925,0.0064735,-0.0630475,-0.195205,-0.3784745,0.1287055,-0.2059049999999999,-0.3578345,-0.1126345,-0.547485,-0.1520345,0.1728955,-0.5693250000000001,-0.1432145,1
133,0.0290695,0.7373700000000001,-0.2213149999999999,-0.1285085,0.51381,-0.189855,-0.2070685,0.7176,-0.409675,0.1852215,0.53271,-0.166645,0.3222815,0.71011,-0.330455,-0.1791785,0.90605,-0.6080949999999999,0.3659914999999999,0.8624700000000001,-0.518775,-0.0901484999999999,-0.0008499999999999,-0.006734,0.0901484999999999,0.00085,0.006734,-0.0677055,-0.2101199999999999,-0.369525,0.1320915,-0.2186899999999999,-0.3481849999999999,-0.1131885,-0.56618,-0.152925,0.1747315,-0.58894,-0.1473249999999999,1
134,0.0289445,0.742055,-0.2146115,-0.1290755,0.5169050000000001,-0.1862915,-0.2078555,0.7201550000000001,-0.4037015,0.1861645,0.536215,-0.1619615,0.3236445,0.711425,-0.3249115,-0.1801255,0.915275,-0.6008715,0.3671145,0.8687050000000001,-0.5107515,-0.0895755,-0.0010449999999999,-0.0069685,0.0895755,0.001045,0.0069684999999999,-0.0731865,-0.224615,-0.3601215,0.1361445,-0.231255,-0.3387415,-0.1138954999999999,-0.584905,-0.1534015,0.1766545,-0.6087849999999999,-0.1507515,1
135,0.0287825,0.74744,-0.207318,-0.1300965,0.52183,-0.181818,-0.2092865,0.72729,-0.397418,0.1870935,0.53927,-0.156328,0.3245935,0.71871,-0.317368,-0.1814065,0.92559,-0.592678,0.3682235,0.87857,-0.503448,-0.0890165,-0.0007699999999999,-0.0069109999999999,0.0890165,0.0007699999999999,0.006911,-0.0797055,-0.2370999999999999,-0.351268,0.1403735,-0.24306,-0.329108,-0.1151965,-0.6036,-0.153948,0.1789835,-0.62793,-0.154128,1
136,0.028475,0.7533399999999999,-0.198409,-0.131066,0.52533,-0.176969,-0.2109059999999999,0.73435,-0.390479,0.187994,0.5428999999999999,-0.1500689999999999,0.325544,0.72492,-0.308509,-0.183006,0.93848,-0.5830289999999999,0.368964,0.89076,-0.493639,-0.0883859999999999,-0.0009,-0.0068459999999999,0.0883859999999999,0.0008999999999999,0.006846,-0.086286,-0.25016,-0.341669,0.145144,-0.25486,-0.317979,-0.116516,-0.6237400000000001,-0.1538189999999999,0.181464,-0.6476200000000001,-0.156699,1
137,0.028031,0.75798,-0.189191,-0.132323,0.52903,-0.171291,-0.212683,0.73978,-0.382381,0.188737,0.5469999999999999,-0.143291,0.326117,0.73215,-0.299151,-0.185123,0.94822,-0.572351,0.369147,0.90509,-0.483361,-0.087593,-0.0006,-0.006883,0.087593,0.0005999999999999,0.006883,-0.093083,-0.26303,-0.331451,0.150427,-0.26539,-0.307461,-0.117833,-0.64509,-0.155221,0.1841269999999999,-0.66627,-0.159341,1
138,0.0278485,0.76275,-0.1790965,-0.1333135,0.53369,-0.1645565,-0.2148834999999999,0.7458199999999999,-0.3718965,0.1896765,0.55077,-0.1363165,0.3266465,0.7398499999999999,-0.2885065,-0.1881835,0.95949,-0.5586265,0.3695265,0.92053,-0.4717565,-0.0869035,-0.00034,-0.0069735,0.0869035,0.00034,0.0069734999999999,-0.0994335,-0.2752199999999999,-0.3201265,0.1561965,-0.27547,-0.2965265,-0.1193835,-0.6654199999999999,-0.1555765,0.1869865,-0.6840900000000001,-0.1585865,1
139,0.0276719999999999,0.764715,-0.1677104999999999,-0.134253,0.536475,-0.1573605,-0.217583,0.7520249999999999,-0.3603505,0.190527,0.555025,-0.1284605,0.327157,0.7456849999999999,-0.2772505,-0.191333,0.968215,-0.5432705,0.369677,0.929495,-0.4578305,-0.085523,0.0002449999999999,-0.0071565,0.085523,-0.0002449999999999,0.0071565,-0.104443,-0.287495,-0.3066705,0.1626869999999999,-0.286425,-0.2833805,-0.120643,-0.686415,-0.1547704999999999,0.189257,-0.7030449999999999,-0.1574205,1
140,0.02747,0.7667349999999999,-0.155214,-0.135063,0.539815,-0.150204,-0.219763,0.761035,-0.348084,0.191297,0.554965,-0.121004,0.327847,0.753015,-0.2646739999999999,-0.194773,0.980545,-0.5256339999999999,0.369627,0.942495,-0.442024,-0.084313,0.001085,-0.0073779999999999,0.084313,-0.001085,0.007378,-0.108493,-0.2983249999999999,-0.293054,0.168987,-0.296115,-0.2695539999999999,-0.121783,-0.7058650000000001,-0.153424,0.191527,-0.720045,-0.155714,1
141,0.0265434999999999,0.76786,-0.1423275,-0.1364294999999999,0.5442400000000001,-0.1426575,-0.2226595,0.76853,-0.3349675,0.1913905,0.55644,-0.1131255,0.3277905,0.76085,-0.2516575,-0.1990695,0.99105,-0.5075575,0.3688105,0.95329,-0.4253675,-0.0837895,0.0016899999999999,-0.0073995,0.0837895,-0.0016899999999999,0.0073995,-0.1104795,-0.31191,-0.2787674999999999,0.1721005,-0.31209,-0.2543175,-0.1224495,-0.7245499999999999,-0.1515275,0.1910805,-0.73493,-0.1487575,1
142,0.0255635,0.768715,-0.1308949999999999,-0.1376895,0.547415,-0.133885,-0.2256695,0.7753950000000001,-0.321275,0.1913405,0.557345,-0.104792,0.3276305,0.764835,-0.238985,-0.2039595,0.999285,-0.4882749999999999,0.3674905,0.956955,-0.407565,-0.0835195,0.002035,-0.007338,0.0835195,-0.002035,0.007338,-0.1120895,-0.329855,-0.262095,0.1734804999999999,-0.335485,-0.2365149999999999,-0.1227595,-0.745165,-0.147895,0.1901705,-0.7559549999999999,-0.140255,1
143,0.0238935,0.7714449999999999,-0.1153059999999999,-0.1391464999999999,0.551425,-0.121706,-0.2293865,0.780225,-0.304666,0.1906935,0.5584250000000001,-0.0931449999999999,0.3270035,0.768875,-0.221936,-0.2092065,1.005835,-0.465346,0.3659135,0.962565,-0.386626,-0.0834765,0.002435,-0.007085,0.0834765,-0.0024349999999999,0.0070849999999999,-0.1143964999999999,-0.347635,-0.240306,0.1731935,-0.3575049999999999,-0.213236,-0.1237564999999999,-0.763515,-0.138796,0.1888135,-0.776085,-0.127716,1
144,0.021938,0.7714595,-0.0984559999999999,-0.140786,0.5525495,-0.1081029999999999,-0.232956,0.7820195,-0.285443,0.189744,0.5574995,-0.08026,0.326404,0.7658395,-0.204433,-0.214736,1.0118995000000002,-0.440223,0.363894,0.9644895,-0.362803,-0.0832759999999999,0.0023225,-0.00676,0.0832759999999999,-0.0023224999999999,0.00676,-0.117466,-0.3689004999999999,-0.212953,0.1717739999999999,-0.3792505,-0.1850429999999999,-0.125416,-0.7815105,-0.1249629999999999,0.1860939999999999,-0.7970405,-0.1106829999999999,1
145,0.0198049999999999,0.771548,-0.0825505,-0.142653,0.554828,-0.0947414999999999,-0.236433,0.7839480000000001,-0.2662655,0.1885869999999999,0.557588,-0.0676585,0.325837,0.765928,-0.1885555,-0.220763,1.013938,-0.4153155,0.3621169999999999,0.966538,-0.3410255,-0.082823,0.002387,-0.0064455,0.082823,-0.002387,0.0064455,-0.120673,-0.388212,-0.1864155,0.1691369999999999,-0.398722,-0.1586755,-0.127563,-0.7974319999999999,-0.1089054999999999,0.1826469999999999,-0.816232,-0.0930444999999999,1
146,0.017748,0.7729685,-0.0663045,-0.144786,0.5577485,-0.0813305,-0.239296,0.7877385,-0.2479105,0.187404,0.5566885,-0.0556335,0.325164,0.7677084999999999,-0.1724505,-0.2271159999999999,1.0191185,-0.3906405,0.360284,0.9687385,-0.3199005,-0.082193,0.0022915,-0.0059895,0.082193,-0.0022915,0.0059895,-0.122896,-0.4046214999999999,-0.1609005,0.165724,-0.4163115,-0.1329004999999999,-0.129216,-0.8113515,-0.0931805,0.178644,-0.8326415,-0.0758295,1
147,0.0160515,0.773003,-0.050682,-0.1465855,0.559503,-0.068339,-0.2423155,0.790263,-0.230732,0.1863145,0.556113,-0.044187,0.3243645,0.7686930000000001,-0.1574219999999999,-0.2323955,1.023413,-0.367982,0.3583345,0.969613,-0.300342,-0.0815815,0.002136,-0.0056499999999999,0.0815815,-0.0021359999999999,0.00565,-0.1236055,-0.4193969999999999,-0.134912,0.1623745,-0.433037,-0.1074219999999999,-0.1302755,-0.823677,-0.077435,0.1736045,-0.847417,-0.058432,1
148,0.014548,0.7761985,-0.0359815,-0.148451,0.5625184999999999,-0.0554765,-0.2449409999999999,0.7917585,-0.2139615,0.185279,0.5557585,-0.0336615,0.324249,0.7707284999999999,-0.1428515,-0.237531,1.0281085,-0.3459414999999999,0.357259,0.9744285,-0.2820114999999999,-0.081064,0.0017424999999999,-0.0051135,0.081064,-0.0017425,0.0051135,-0.124081,-0.4306015,-0.1111414999999999,0.158969,-0.4479115,-0.0830014999999999,-0.131471,-0.8337915,-0.0622485,0.168269,-0.8586914999999999,-0.0419174999999999,1
149,0.0133225,0.778369,-0.022209,-0.1501105,0.565309,-0.042317,-0.2472805,0.791979,-0.196464,0.1846495,0.557099,-0.0215119999999999,0.3242395,0.771009,-0.128934,-0.2425304999999999,1.028659,-0.325764,0.3565595,0.976639,-0.265024,-0.0806245,0.0014629999999999,-0.0044319999999999,0.0806245,-0.001463,0.004432,-0.1249905,-0.441961,-0.087614,0.1549395,-0.464221,-0.059382,-0.1327505,-0.843421,-0.047372,0.1620095,-0.871471,-0.0258639999999999,1
150,0.0122209999999999,0.780816,-0.0087015,-0.151791,0.568026,-0.0293064999999999,-0.249101,0.7912859999999999,-0.1796704999999999,0.184049,0.558106,-0.0100894999999999,0.323829,0.7680359999999999,-0.1150904999999999,-0.247111,1.029016,-0.3057904999999999,0.356029,0.978376,-0.2486005,-0.0802509999999999,0.00134,-0.0037724999999999,0.0802509999999999,-0.0013399999999999,0.0037725,-0.125201,-0.452674,-0.0651215,0.1500689999999999,-0.480654,-0.0385094999999999,-0.133731,-0.8523540000000001,-0.0331845,0.1555889999999999,-0.884124,-0.0122904999999999,1
151,0.010927,0.782363,0.0064964999999999,-0.153299,0.567973,-0.0172245,-0.252369,0.791723,-0.1628925,0.1836809999999999,0.557793,0.0003584999999999,0.323301,0.769813,-0.1005524999999999,-0.251759,1.032453,-0.2840425,0.355231,0.983173,-0.2315725,-0.08033,0.0012449999999999,-0.0031344999999999,0.08033,-0.001245,0.0031344999999999,-0.126089,-0.460777,-0.0460195,0.144011,-0.493557,-0.0194325,-0.135079,-0.856207,-0.0218395,0.149401,-0.892157,-0.0014095,1
152,0.0103065,0.7825005,0.01664,-0.1542225,0.5683405,-0.0085579999999999,-0.2550725,0.7928105,-0.149342,0.1840475,0.5582005,0.00733,0.3231775,0.7710005,-0.090402,-0.2553525,1.0350905,-0.266672,0.3550875,0.9876005,-0.218812,-0.0804755,0.0012975,-0.0026539999999999,0.0804755,-0.0012975,0.002654,-0.1262625,-0.4685695,-0.0330059999999999,0.1382475,-0.5059795,-0.005835,-0.1358525,-0.8594195,-0.0159409999999999,0.1438875,-0.8993195,0.004764,1
153,0.0106434999999999,0.7835040000000001,0.0255035,-0.1542794999999999,0.5698340000000001,-0.0012025,-0.2559895,0.793564,-0.1374225,0.1855305,0.559374,0.0132435,0.3237805,0.7733540000000001,-0.0813925,-0.2579995,1.036734,-0.2506225,0.3554105,0.992334,-0.2077325,-0.0801175,0.001792,-0.0026165,0.0801175,-0.001792,0.0026165,-0.1273695,-0.471266,-0.0255935,0.1354005,-0.5107259999999999,0.0027705,-0.1367495,-0.8600359999999999,-0.0145684999999999,0.1411205,-0.902936,0.0069205,1
154,0.0111965,0.7842119999999999,0.034179,-0.1542615,0.570792,0.0058939999999999,-0.2569114999999999,0.793692,-0.126029,0.1871285,0.560062,0.0190049999999999,0.3244384999999999,0.775102,-0.072889,-0.2606115,1.0386220000000002,-0.235419,0.3554485,0.994772,-0.196959,-0.0797745,0.0022,-0.002581,0.0797745,-0.0022,0.002581,-0.1285615,-0.472578,-0.018629,0.1325785,-0.514988,0.0112459999999999,-0.1377915,-0.8617180000000001,-0.013389,0.1386585,-0.906088,0.008568,1
155,0.011892,0.7845715,0.0421995,-0.154503,0.5709515,0.0123965,-0.257703,0.7936215,-0.1150655,0.188817,0.5604915,0.0248165,0.325127,0.7761315,-0.0650555,-0.263403,1.0402815,-0.2203854999999999,0.3552369999999999,0.9963915,-0.1864555,-0.079418,0.0025765,-0.0025444999999999,0.079418,-0.0025765,0.0025445,-0.129963,-0.4738185,-0.0124754999999999,0.129807,-0.5182585000000001,0.0189645,-0.139033,-0.8631585,-0.0121874999999999,0.1360569999999999,-0.9087585,0.0097605,1
156,0.012529,0.7841045,0.0492775,-0.1546769999999999,0.5707645,0.0180205,-0.2583169999999999,0.7929545,-0.1055675,0.190383,0.5609945,0.0300604999999999,0.325683,0.7763245,-0.0582315,-0.266327,1.0404345000000002,-0.2078375,0.354813,0.9977345,-0.1768175,-0.079091,0.0029405,-0.0021315,0.079091,-0.0029405,0.0021315,-0.131437,-0.4748455,-0.0090765,0.127213,-0.5213355000000001,0.0252885,-0.140287,-0.8639155000000001,-0.0117815,0.133933,-0.9109055,0.0101545,1
157,0.0129804999999999,0.783356,0.0557495,-0.1548415,0.5702860000000001,0.0228075,-0.2589815,0.7923060000000001,-0.0973945,0.1917085,0.561396,0.0350825,0.3261185,0.775686,-0.0523855,-0.2692315,1.041666,-0.1974745,0.3543285,0.997566,-0.1685045,-0.0787865,0.003138,-0.0016644999999999,0.0787865,-0.003138,0.0016644999999999,-0.1329315,-0.475334,-0.0070185,0.1249784999999999,-0.523424,0.0294024999999999,-0.1416415,-0.864394,-0.0121225,0.1316185,-0.912594,0.0101044999999999,1
158,0.0133514999999999,0.7830415,0.0613019999999999,-0.1549375,0.5701015,0.026962,-0.2598775,0.7920815,-0.091315,0.1925425,0.5609715,0.038428,0.3266725,0.7751115,-0.047478,-0.2714575,1.0468415000000002,-0.1887849999999999,0.3538625,0.9971415,-0.162195,-0.0784585,0.0032874999999999,-0.0011989999999999,0.0784585,-0.0032875,0.0011989999999999,-0.1343775,-0.4753585,-0.0060199999999999,0.1229524999999999,-0.5248385,0.0327379999999999,-0.1430675,-0.8644385,-0.012796,0.1297525,-0.9134885,0.009928,1
159,0.013681,0.7826690000000001,0.06594,-0.155065,0.5697190000000001,0.0305399999999999,-0.260835,0.791749,-0.086219,0.193375,0.560679,0.041984,0.327325,0.774509,-0.043583,-0.2729649999999999,1.046539,-0.181979,0.353505,0.996539,-0.158059,-0.078153,0.0034029999999999,-0.0007489999999999,0.078153,-0.0034029999999999,0.0007489999999999,-0.135815,-0.474231,-0.005921,0.120855,-0.526161,0.035269,-0.1445949999999999,-0.864691,-0.0137419999999999,0.127805,-0.914181,0.009183,1
160,0.0139614999999999,0.7824775,0.0688535,-0.1553965,0.5694975,0.0326895,-0.2618165,0.7913175,-0.0834265,0.1940035,0.5603775,0.0448665,0.3281334999999999,0.7741275,-0.0419885,-0.2741265,1.0459575,-0.1797765,0.3537535,0.9961575,-0.1577664999999999,-0.0778945,0.0034465,-0.0004694999999999,0.0778945,-0.0034465,0.0004695,-0.1371264999999999,-0.4732625,-0.0066494999999999,0.1189935,-0.5269525,0.0360705,-0.1459365,-0.8648425,-0.0150324999999999,0.1259435,-0.9146425,0.0085185,1
161,0.0142429999999999,0.7818809999999999,0.071792,-0.155634,0.568871,0.034407,-0.262894,0.790651,-0.082009,0.194506,0.559421,0.047595,0.329306,0.7732209999999999,-0.0409789999999999,-0.275154,1.044391,-0.178759,0.354486,0.995491,-0.1591989999999999,-0.077703,0.0033829999999999,-0.0003879999999999,0.077703,-0.0033829999999999,0.0003879999999999,-0.138244,-0.472869,-0.0075899999999999,0.117506,-0.528339,0.036465,-0.1471839999999999,-0.865189,-0.01629,0.124156,-0.915139,0.008117,1
162,0.0144579999999999,0.781572,0.0745715,-0.1557319999999999,0.568582,0.0358335,-0.264002,0.790292,-0.0815445,0.194848,0.558992,0.0502585,0.330968,0.771092,-0.0411255,-0.275902,1.0427019999999998,-0.1792345,0.355738,0.993262,-0.1604245,-0.077594,0.0033369999999999,-0.0003804999999999,0.077594,-0.0033369999999999,0.0003804999999999,-0.139062,-0.472098,-0.0085335,0.116608,-0.528958,0.0359065,-0.148202,-0.865458,-0.0174955,0.122748,-0.915078,0.0073545,1
163,0.0145929999999999,0.7815814999999999,0.0774415,-0.155897,0.5684815,0.0371285,-0.265307,0.7899714999999999,-0.0815585,0.195073,0.5587515,0.0530585,0.3337029999999999,0.7666314999999999,-0.0420135,-0.276477,1.0426715,-0.1803785,0.357303,0.9908115,-0.1614384999999999,-0.077493,0.0033675,-0.0004825,0.077493,-0.0033675,0.0004825,-0.139567,-0.4721285,-0.0097545,0.1158329999999999,-0.5294785000000001,0.0352955,-0.149017,-0.8654585,-0.0185084999999999,0.121573,-0.9144585,0.0061215,1
164,0.0145649999999999,0.7815715,0.0801875,-0.15604,0.5682714999999999,0.0380945,-0.26635,0.7897814999999999,-0.0823385,0.19502,0.5583615,0.0557485,0.33643,0.7612715,-0.0427375,-0.27696,1.0426715,-0.1814385,0.3593,0.9830015,-0.1624884999999999,-0.07741,0.0033675,-0.0006595,0.07741,-0.0033675,0.0006595,-0.14005,-0.4721785,-0.0108095,0.11517,-0.5299685000000001,0.0346045,-0.14959,-0.8654485000000001,-0.0194944999999999,0.1204299999999999,-0.9137185,0.0055655,1
165,0.0143635,0.7814669999999999,0.0828879999999999,-0.1561325,0.5680769999999999,0.039022,-0.2672125,0.789697,-0.08318,0.1950075,0.5572469999999999,0.0591239999999999,0.3391275,0.753547,-0.04321,-0.2774125,1.042677,-0.18224,0.3613675,0.973857,-0.1644999999999999,-0.0773415,0.003373,-0.000941,0.0773415,-0.0033729999999999,0.0009409999999999,-0.1404225,-0.473213,-0.011601,0.1146075,-0.5302530000000001,0.034121,-0.1501025,-0.8654430000000001,-0.020254,0.1196975,-0.912933,0.0048539999999999,0
166,0.0141204999999999,0.78133,0.0858215,-0.1564825,0.56762,0.0400215,-0.2679925,0.78781,-0.0836845,0.1947875,0.55597,0.0624114999999999,0.3421174999999999,0.7436,-0.0436904999999999,-0.2780525,1.04239,-0.1827244999999999,0.3633375,0.9623,-0.1688445,-0.0773234999999999,0.00336,-0.0013624999999999,0.0773234999999999,-0.0033599999999999,0.0013624999999999,-0.1407825,-0.47329,-0.0120615,0.1141875,-0.53083,0.0339325,-0.1504625,-0.86543,-0.0206805,0.1190374999999999,-0.91303,0.0040264999999999,0
167,0.0137864999999999,0.7813015,0.088977,-0.1570415,0.5669915,0.040979,-0.2696515,0.7845415,-0.084215,0.1940885,0.5542914999999999,0.065758,0.3454085,0.7311814999999999,-0.045015,-0.2784215,1.0358915,-0.185295,0.3650285,0.9479015,-0.1763549999999999,-0.0773785,0.0033715,-0.0017269999999999,0.0773785,-0.0033715,0.0017269999999999,-0.1410015,-0.4733185,-0.0127859999999999,0.1138285,-0.5310385000000001,0.033712,-0.1507515,-0.8655485,-0.021228,0.1183984999999999,-0.9127185,0.0034029999999999,0
168,0.013447,0.781573,0.092092,-0.15751,0.566093,0.041932,-0.27243,0.779303,-0.084946,0.19338,0.552233,0.069016,0.34908,0.716243,-0.048155,-0.27895,1.033173,-0.188186,0.36612,0.929033,-0.186136,-0.0775609999999999,0.003317,-0.001891,0.0775609999999999,-0.003317,0.001891,-0.14103,-0.473137,-0.013422,0.1136099999999999,-0.531137,0.033544,-0.15079,-0.865287,-0.021549,0.11807,-0.911957,0.0030709999999999,0
169,0.013178,0.782528,0.0951944999999999,-0.1577529999999999,0.564968,0.0427145,-0.276233,0.7721279999999999,-0.0865135,0.193017,0.549738,0.0708895,0.352997,0.697058,-0.0523974999999999,-0.2792929999999999,1.029608,-0.1912035,0.367097,0.908778,-0.1972335,-0.077726,0.00343,-0.0019484999999999,0.077726,-0.00343,0.0019484999999999,-0.140953,-0.4734919999999999,-0.0139294999999999,0.113497,-0.530502,0.0335725,-0.150733,-0.864062,-0.0215134999999999,0.117867,-0.910722,0.0028185,0
170,0.012892,0.78378,0.098296,-0.157926,0.56374,0.043075,-0.281786,0.76207,-0.089055,0.192744,0.54666,0.072323,0.357314,0.67614,-0.05511,-0.279606,1.01993,-0.194445,0.368274,0.88477,-0.209875,-0.077831,0.00348,-0.002194,0.077831,-0.00348,0.0021939999999999,-0.141016,-0.47349,-0.014578,0.113344,-0.52952,0.0337909999999999,-0.150696,-0.8623500000000001,-0.021275,0.1176639999999999,-0.90827,0.0035489999999999,0
171,0.0128855,0.7861445,0.1007744999999999,-0.1581695,0.5622045,0.0435735,-0.2905594999999999,0.7453245000000001,-0.0912014999999999,0.1925405,0.5434345,0.0730065,0.3608805,0.6505745000000001,-0.0570725,-0.2795795,1.0022345,-0.1982715,0.3695505,0.8550545,-0.2226315,-0.0778275,0.0036534999999999,-0.0027175,0.0778275,-0.0036534999999999,0.0027174999999999,-0.1409795,-0.4722655,-0.0153715,0.1132505,-0.5270555,0.0342175,-0.1506095,-0.8596955,-0.0206915,0.1176405,-0.9049555,0.0043814999999999,0
172,0.0131525,0.789149,0.10297,-0.1584375,0.560859,0.04449,-0.2999875,0.720489,-0.0919099999999999,0.1916125,0.539129,0.073855,0.3623425,0.618449,-0.0571499999999999,-0.2789275,0.975269,-0.2039,0.3689325,0.816789,-0.23217,-0.0778685,0.003698,-0.0033079999999999,0.0778685,-0.003698,0.003308,-0.1408575,-0.4703509999999999,-0.0158859999999999,0.1132525,-0.523861,0.034915,-0.1505075,-0.856251,-0.0196599999999999,0.1177024999999999,-0.900871,0.005534,0
173,0.0139094999999999,0.7926575,0.105112,-0.1588055,0.5591575,0.045965,-0.3072555,0.6880575,-0.0911319999999999,0.1906545,0.5352475,0.075268,0.3632444999999999,0.5831675,-0.05653,-0.2792355,0.9362475,-0.210352,0.3670245,0.7785375,-0.240052,-0.0780375,0.0039645,-0.0037029999999999,0.0780375,-0.0039645,0.003703,-0.1407255,-0.4673225,-0.015868,0.1131845,-0.5198925,0.035911,-0.1504055,-0.8520925,-0.018222,0.1178344999999999,-0.8958825,0.00723,0
174,0.0148014999999999,0.796256,0.1071105,-0.1593755,0.557646,0.0474674999999999,-0.3138255,0.652106,-0.0898735,0.1897145,0.532056,0.0770764999999999,0.3634245,0.549126,-0.0552365,-0.2800455,0.8908659999999999,-0.2168835,0.3636845,0.739036,-0.2474735,-0.0783244999999999,0.0041699999999999,-0.0040055,0.0783244999999999,-0.00417,0.0040054999999999,-0.1405755,-0.464614,-0.0154125,0.1131345,-0.515584,0.0371624999999999,-0.1502055,-0.8470340000000001,-0.0163485,0.1179045,-0.890134,0.0096754999999999,0
175,0.0157635,0.7995629999999999,0.1093855,-0.1599775,0.5556629999999999,0.0489645,-0.3179174999999999,0.614313,-0.0881145,0.1889025,0.528643,0.0787725,0.3635525,0.515543,-0.0530475,-0.2808374999999999,0.839063,-0.2244344999999999,0.3597625,0.698213,-0.2522345,-0.0786535,0.004305,-0.0042504999999999,0.0786535,-0.004305,0.0042505,-0.1405075,-0.460927,-0.0145445,0.1130425,-0.5114470000000001,0.0386215,-0.1500774999999999,-0.841937,-0.0141594999999999,0.1181924999999999,-0.885047,0.0115405,0
176,0.0170115,0.8028949999999999,0.1118925,-0.1605875,0.5536049999999999,0.0504525,-0.3214775,0.5736349999999999,-0.0838265,0.1883024999999999,0.525525,0.0802924999999999,0.3637525,0.483365,-0.0506495,-0.2796775,0.7806649999999999,-0.2312765,0.3548425,0.6596949999999999,-0.2536865,-0.0790174999999999,0.0044239999999999,-0.0045434999999999,0.0790174999999999,-0.004424,0.0045434999999999,-0.1404175,-0.457155,-0.0132735,0.1130225,-0.507185,0.0401614999999999,-0.1498775,-0.8366750000000001,-0.0117615,0.1185624999999999,-0.880555,0.0131524999999999,0
177,0.0184765,0.806335,0.1145285,-0.1611085,0.5511649999999999,0.0515415,-0.3244785,0.5329349999999999,-0.0784924999999999,0.1878814999999999,0.5227550000000001,0.0815065,0.3639615,0.453925,-0.0480644999999999,-0.2786785,0.716445,-0.2354625,0.3489915,0.6240650000000001,-0.2533125,-0.0793605,0.00459,-0.0047744999999999,0.0793605,-0.00459,0.0047745,-0.1403384999999999,-0.452935,-0.0117964999999999,0.1131015,-0.5038050000000001,0.0418245,-0.1496185,-0.8311249999999999,-0.0091334999999999,0.1188015,-0.875715,0.0157085,0
178,0.0203355,0.8093135,0.1164514999999999,-0.1611294999999999,0.5484335,0.0522335,-0.3244895,0.4926135,-0.0711475,0.1877005,0.5205635,0.0825765,0.3628404999999999,0.4267735,-0.0440925,-0.2796595,0.6452435,-0.2370275,0.3428205,0.5897735,-0.2511875,-0.0797035,0.0045044999999999,-0.0049664999999999,0.0797035,-0.0045045,0.0049664999999999,-0.1400995,-0.4490665,-0.0104194999999999,0.1133005,-0.5005465,0.0435275,-0.1492195,-0.8257565,-0.0063075,0.1191805,-0.8713965,0.0185315,0
179,0.0224209999999999,0.8120925,0.117586,-0.161127,0.5455425,0.0525729999999999,-0.324477,0.4538225,-0.063324,0.187813,0.5188825,0.083213,0.3607129999999999,0.4004425,-0.041843,-0.279027,0.5769925,-0.235174,0.3365329999999999,0.5580225,-0.249394,-0.080024,0.0045294999999999,-0.005083,0.080024,-0.0045294999999999,0.0050829999999999,-0.139917,-0.4455175,-0.008854,0.113533,-0.4965674999999999,0.045132,-0.148747,-0.8206275,-0.0034469999999999,0.119793,-0.8678275,0.0207769999999999,0
180,0.024436,0.814166,0.118064,-0.161023,0.542916,0.052652,-0.3245329999999999,0.421816,-0.054629,0.188127,0.517326,0.083468,0.357847,0.379176,-0.036063,-0.277813,0.514856,-0.232239,0.330667,0.533006,-0.247189,-0.080268,0.00446,-0.0052349999999999,0.080268,-0.0044599999999999,0.005235,-0.1397729999999999,-0.442024,-0.0070579999999999,0.113717,-0.492934,0.046968,-0.1482629999999999,-0.816594,-0.0006059999999999,0.120357,-0.8646240000000001,0.023346,0
181,0.0263379999999999,0.8157065,0.117725,-0.160999,0.5403865,0.052486,-0.324299,0.3979765,-0.0453719999999999,0.188321,0.5163065,0.083987,0.353361,0.3666765,-0.02882,-0.276369,0.4520965,-0.229486,0.3259209999999999,0.5154765,-0.245086,-0.0804479999999999,0.0045315,-0.005383,0.0804479999999999,-0.0045314999999999,0.0053829999999999,-0.139659,-0.4389335,-0.00546,0.113841,-0.4905135,0.048692,-0.147869,-0.8133735,0.0019139999999999,0.1207709999999999,-0.8621635,0.0257549999999999,0
182,0.0278425,0.8169575,0.116783,-0.1610395,0.5385975,0.0523929999999999,-0.3221795,0.3819475,-0.034578,0.1884505,0.5154975,0.084452,0.3483305,0.3584575,-0.02329,-0.2744295,0.3983775,-0.226962,0.3213105,0.5030475,-0.240602,-0.0805154999999999,0.0044475,-0.005726,0.0805154999999999,-0.0044475,0.005726,-0.1395694999999999,-0.4361825,-0.004236,0.1139705,-0.4908825,0.050088,-0.1474895,-0.8105225,0.0041609999999999,0.1212505,-0.8601525,0.0277059999999999,0
183,0.0292489999999999,0.818126,0.115732,-0.160882,0.5365960000000001,0.052339,-0.316172,0.368606,-0.023972,0.188348,0.5141359999999999,0.084948,0.3437179999999999,0.349266,-0.015728,-0.272112,0.348026,-0.221534,0.317368,0.491236,-0.234694,-0.080557,0.004444,-0.006232,0.080557,-0.0044439999999999,0.0062319999999999,-0.139512,-0.433664,-0.0032949999999999,0.114078,-0.490174,0.051432,-0.147132,-0.808744,0.0064649999999999,0.121678,-0.858374,0.0298549999999999,0
184,0.0305215,0.8194955,0.1145005,-0.1606635,0.5351255,0.0521365,-0.3053435,0.3536155,-0.0137105,0.1882465,0.5127455,0.0852325,0.3392365,0.3398855,-0.0082074999999999,-0.2690534999999999,0.2999055,-0.2137915,0.3134865,0.4826155,-0.2303915,-0.0805995,0.0044525,-0.0067664999999999,0.0805995,-0.0044524999999999,0.0067665,-0.1393835,-0.4318645,-0.0024354999999999,0.1141765,-0.4888645,0.0523305,-0.1468635,-0.8068845,0.0087245,0.1222665,-0.8562145,0.0321485,0
185,0.0314905,0.8208835,0.1133965,-0.1604875,0.5339535,0.0518055,-0.2962775,0.3426235,-0.0070624999999999,0.1881525,0.5113835,0.0853885,0.3352525,0.3315135,-0.0014044999999999,-0.2651175,0.2577235,-0.2031764999999999,0.3093525,0.4736635,-0.2252564999999999,-0.0806205,0.0045115,-0.0072035,0.0806205,-0.0045115,0.0072035,-0.1392775,-0.4301465,-0.0017054999999999,0.1142924999999999,-0.4871164999999999,0.0532155,-0.1465875,-0.8051665,0.0107955,0.1229424999999999,-0.8546064999999999,0.0335195,0
186,0.032269,0.8217025,0.112304,-0.160486,0.5334025,0.0517409999999999,-0.287416,0.3329025,-0.0014689999999999,0.1879839999999999,0.5100825,0.0853889999999999,0.331594,0.3229625,0.0054239999999999,-0.2616159999999999,0.2200725,-0.190086,0.305604,0.4661125,-0.220496,-0.080654,0.0045605,-0.0076489999999999,0.080654,-0.0045605,0.0076489999999999,-0.139116,-0.4290075,-0.0010049999999999,0.114364,-0.4887975,0.054645,-0.146396,-0.8038075,0.012572,0.1234039999999999,-0.8542575,0.034829,0
187,0.0328645,0.8221795000000001,0.111136,-0.1607485,0.5332495,0.051652,-0.2791984999999999,0.3216095,0.0021209999999999,0.1875315,0.5087795,0.08494,0.3288615,0.3159395,0.011587,-0.2590885,0.1864495,-0.174864,0.3019915,0.4582195,-0.216774,-0.0806524999999999,0.0046314999999999,-0.007969,0.0806524999999999,-0.0046315,0.0079689999999999,-0.1389685,-0.4278005,-0.000252,0.1143414999999999,-0.4879705,0.055274,-0.1460785,-0.8026304999999999,0.014129,0.1237214999999999,-0.8537804999999999,0.03643,0
188,0.033402,0.822527,0.110017,-0.160968,0.533397,0.051388,-0.271848,0.310967,0.0054289999999999,0.186602,0.507607,0.084061,0.326732,0.309857,0.017145,-0.256918,0.1553169999999999,-0.159346,0.298702,0.451717,-0.213626,-0.080656,0.0047029999999999,-0.008301,0.080656,-0.004703,0.008301,-0.138728,-0.426633,0.0004119999999999,0.114302,-0.487353,0.056003,-0.145828,-0.801973,0.015737,0.1239019999999999,-0.853433,0.038171,0
189,0.033831,0.8227045000000001,0.1089055,-0.161254,0.5335745000000001,0.0509015,-0.264904,0.2998245,0.0079915,0.185336,0.5066445,0.0829505,0.324256,0.3045245,0.0223285,-0.257964,0.1247435,-0.1444964999999999,0.295366,0.4457645,-0.2111765,-0.080651,0.0047894999999999,-0.0085304999999999,0.080651,-0.0047895,0.0085305,-0.138654,-0.4256655,0.0009265,0.114236,-0.4868855,0.0564745,-0.145774,-0.8012954999999999,0.0172515,0.124106,-0.8532555,0.0396255,0
190,0.0338109999999999,0.823196,0.107568,-0.161773,0.533656,0.0500549999999999,-0.259463,0.288756,0.0101089999999999,0.183817,0.506386,0.0817669999999999,0.321537,0.2992559999999999,0.026593,-0.259143,0.103698,-0.1309159999999999,0.292157,0.441556,-0.209316,-0.080648,0.004783,-0.0088,0.080648,-0.004783,0.0087999999999999,-0.138633,-0.425154,0.0013359999999999,0.114267,-0.4884739999999999,0.057045,-0.145783,-0.8009040000000001,0.0185199999999999,0.1241169999999999,-0.853054,0.0409669999999999,0
191,0.0336305,0.823793,0.105955,-0.1624025,0.533693,0.049086,-0.2544625,0.277803,0.012028,0.1821875,0.506383,0.08023,0.3194475,0.2942829999999999,0.030656,-0.2605625,0.085664,-0.1191219999999999,0.2893675,0.437483,-0.208402,-0.0806285,0.004772,-0.008993,0.0806285,-0.0047719999999999,0.008993,-0.1385425,-0.424027,0.0017759999999999,0.1143175,-0.4904369999999999,0.057767,-0.1458625,-0.8005469999999999,0.019753,0.1242274999999999,-0.852277,0.042133,0
192,0.0333775,0.8244045,0.104433,-0.1631245,0.5338345,0.048052,-0.2502445,0.2673545,0.013142,0.1808255,0.5064045,0.078915,0.3176255,0.2936145,0.031494,-0.2619245,0.0698475,-0.109119,0.2866554999999999,0.4355045,-0.207659,-0.0806315,0.0047735,-0.009103,0.0806315,-0.0047735,0.009103,-0.1385245,-0.4232754999999999,0.0023159999999999,0.1143355,-0.4893154999999999,0.058399,-0.1459244999999999,-0.7999755000000001,0.020825,0.1243255,-0.8514055,0.043214,0
193,0.0329915,0.8250465,0.1028635,-0.1639155,0.5339865,0.0469965,-0.2503555,0.2614965,0.0143834999999999,0.1796645,0.5063665,0.0778145,0.3159145,0.2912865,0.0315254999999999,-0.2630455,0.0579035,-0.0982885,0.2840245,0.4335565,-0.2070385,-0.0806215,0.0048054999999999,-0.0092015,0.0806215,-0.0048054999999999,0.0092014999999999,-0.1385655,-0.4226835,0.0027234999999999,0.1143045,-0.4867235,0.0586594999999999,-0.1460155,-0.8002935,0.0213464999999999,0.1243344999999999,-0.8504935,0.0442584999999999,0
194,0.0327709999999999,0.825431,0.1011275,-0.1645789999999999,0.534041,0.0460055,-0.250489,0.255941,0.0156335,0.1785709999999999,0.5061910000000001,0.0765535,0.314181,0.289951,0.0321875,-0.264569,0.047542,-0.0887574999999999,0.281791,0.4322609999999999,-0.2064475,-0.080613,0.004829,-0.0092804999999999,0.080613,-0.004829,0.0092804999999999,-0.138709,-0.423649,0.0031324999999999,0.114401,-0.487669,0.0594834999999999,-0.146089,-0.8004490000000001,0.0218254999999999,0.124331,-0.849449,0.0455254999999999,0
195,0.0327474999999999,0.825647,0.099104,-0.1650725,0.534037,0.044921,-0.2505625,0.251057,0.016327,0.1775275,0.506357,0.075157,0.3127175,0.288477,0.032753,-0.2675425,0.03933,-0.081148,0.2798575,0.430827,-0.2064379999999999,-0.0806085,0.00483,-0.009329,0.0806085,-0.00483,0.009329,-0.1387225,-0.424593,0.003374,0.1145274999999999,-0.488343,0.060157,-0.1461425,-0.800403,0.022349,0.1243375,-0.848543,0.046694,0
196,0.0328055,0.8257275000000001,0.096977,-0.1654735,0.5339975,0.04392,-0.2506035,0.2487075,0.016665,0.1765765,0.5070975,0.073853,0.3112465,0.2879875,0.032476,-0.2717934999999999,0.0343464999999999,-0.074201,0.2782565,0.4301675,-0.2068809999999999,-0.0806125,0.0047924999999999,-0.009367,0.0806125,-0.0047925,0.009367,-0.1386835,-0.4251724999999999,0.003709,0.1144965,-0.4863124999999999,0.060453,-0.1460535,-0.8004724999999999,0.0230239999999999,0.1243665,-0.8471425,0.0479389999999999,0
197,0.031273,0.8278205,0.095415,-0.166535,0.5337505,0.042831,-0.250405,0.2428605,0.015063,0.175155,0.5075905000000001,0.073222,0.309035,0.2855305,0.03649,-0.278395,0.0232985,-0.06084,0.276945,0.4293105,-0.2085099999999999,-0.080646,0.0047065,-0.0093369999999999,0.080646,-0.0047065,0.009337,-0.139125,-0.4253495,0.004512,0.114495,-0.4939295,0.062771,-0.146835,-0.7904695,0.027738,0.123255,-0.8445195,0.050489,0
198,0.031541,0.8280164999999999,0.0932235,-0.16693,0.5341765,0.0425355,-0.252,0.2420565,0.0158184999999999,0.17496,0.5079865,0.0718685,0.30851,0.2847665,0.0363555,-0.28138,0.0220585,-0.0579075,0.27603,0.4289865,-0.2095775,-0.080515,0.0046585,-0.0093945,0.080515,-0.0046584999999999,0.0093945,-0.13803,-0.4210834999999999,0.0027924999999999,0.11448,-0.4956635,0.0633215,-0.14689,-0.7920235,0.0278765,0.12426,-0.8459935000000001,0.0494294999999999,0
199,0.032399,0.8266985,0.0900485,-0.166833,0.5345185,0.0413225,-0.253453,0.2417085,0.0167825,0.174477,0.5085785,0.0706645,0.297727,0.3062785,-0.0228885,-0.286333,0.0215374999999999,-0.0544225,0.273927,0.4352785,-0.2218524999999999,-0.080626,0.0047274999999999,-0.0094884999999999,0.080626,-0.0047275,0.0094884999999999,-0.138253,-0.4206915,0.0031785,0.1146669999999999,-0.4979615,0.0642555,-0.146493,-0.7935315000000001,0.0280725,0.124197,-0.8455915,0.0500885,0
200,0.032579,0.8262285,0.08767,-0.166706,0.5346785000000001,0.0408839999999999,-0.254306,0.2418185,0.0179459999999999,0.174154,0.5112585000000001,0.0695329999999999,0.308224,0.2785285,0.0272859999999999,-0.290236,0.0220325,-0.052811,0.274974,0.4255685,-0.211071,-0.0806979999999999,0.0046695,-0.009377,0.0806979999999999,-0.0046695,0.0093769999999999,-0.1384159999999999,-0.4203615,0.0038419999999999,0.1146939999999999,-0.4854915,0.0618899999999999,-0.146256,-0.8017715000000001,0.0242449999999999,0.124284,-0.8430515000000001,0.0514179999999999,0
201,0.0334839999999999,0.8248145,0.084665,-0.166678,0.5348345,0.040619,-0.255598,0.2427145,0.019664,0.1741619999999999,0.5124245,0.069879,0.307662,0.2779245,0.027816,-0.292218,0.0232845,-0.0519809999999999,0.274622,0.4236045,-0.212821,-0.080676,0.0045975,-0.009272,0.080676,-0.0045974999999999,0.009272,-0.139858,-0.4376955,0.0061039999999999,0.114632,-0.4834255,0.062134,-0.146538,-0.8015055,0.024611,0.124062,-0.8423655,0.052623,0
202,0.0344875,0.823874,0.0823675,-0.1663845,0.535224,0.0402915,-0.2565045,0.243914,0.0206105,0.1742755,0.511954,0.0698805,0.3073855,0.277334,0.0266685,-0.2936244999999999,0.0248429999999999,-0.0520014999999999,0.2743755,0.421714,-0.2140714999999999,-0.0807425,0.0048739999999999,-0.0093184999999999,0.0807425,-0.004874,0.0093185,-0.1392945,-0.430036,0.0057195,0.1146955,-0.4796759999999999,0.0621105,-0.1458745,-0.801896,0.0259365,0.1240354999999999,-0.8439760000000001,0.0527975,0
203,0.034822,0.823982,0.081552,-0.166101,0.535512,0.039918,-0.256951,0.245642,0.021389,0.1749389999999999,0.510992,0.067481,0.302589,0.3062519999999999,-0.0294539999999999,-0.296351,0.0279279999999999,-0.0544639999999999,0.271809,0.4309619999999999,-0.2303039999999999,-0.0806969999999999,0.0049149999999999,-0.0093469999999999,0.0806969999999999,-0.004915,0.009347,-0.138571,-0.425118,0.006676,0.1147989999999999,-0.475998,0.061846,-0.145841,-0.8035880000000001,0.025701,0.1240889999999999,-0.843738,0.053056,0
