sb224sc-HT22-VT27/4dt907/src/data/labeled_files/A108_kinect.csv
FrameNo,nose_3d_x,nose_3d_y,nose_3d_z,left_shoulder_3d_x,left_shoulder_3d_y,left_shoulder_3d_z,left_elbow_3d_x,left_elbow_3d_y,left_elbow_3d_z,right_shoulder_3d_x,right_shoulder_3d_y,right_shoulder_3d_z,right_elbow_3d_x,right_elbow_3d_y,right_elbow_3d_z,left_wrist_3d_x,left_wrist_3d_y,left_wrist_3d_z,right_wrist_3d_x,right_wrist_3d_y,right_wrist_3d_z,left_hip_3d_x,left_hip_3d_y,left_hip_3d_z,right_hip_3d_x,right_hip_3d_y,right_hip_3d_z,left_knee_3d_x,left_knee_3d_y,left_knee_3d_z,right_knee_3d_x,right_knee_3d_y,right_knee_3d_z,left_ankle_3d_x,left_ankle_3d_y,left_ankle_3d_z,right_ankle_3d_x,right_ankle_3d_y,right_ankle_3d_z,activity_label
0,-0.06337,0.7123445,-0.1396385,-0.226553,0.4976445,-0.0600685,-0.284583,0.2356045,-0.0305705,0.131547,0.5153745,-0.0659985,0.238437,0.2574745,-0.0090845,-0.262653,0.0117425,-0.0855085,0.268487,0.0372555,-0.0756185,-0.062803,-0.0018555,-0.0010855,0.062803,0.0018555,0.0010854999999999,-0.103813,-0.4653655,-0.0258605,0.133807,-0.5472755,-0.0459575,-0.1109629999999999,-0.8184755,-0.0568385,0.161597,-0.8842655,-0.1275385,0
1,-0.0628635,0.7125790000000001,-0.139487,-0.2262285,0.497739,-0.060487,-0.2839185,0.235749,-0.0305389999999999,0.1315615,0.515799,-0.065807,0.2387214999999999,0.257629,-0.00855,-0.2617985,0.011977,-0.085827,0.2683915,0.037086,-0.073917,-0.0629305,-0.001844,-0.001268,0.0629305,0.001844,0.0012679999999999,-0.1034485,-0.465461,-0.025996,0.1367415,-0.5603009999999999,-0.043367,-0.1109885,-0.8112509999999999,-0.054807,0.1615515,-0.8837309999999999,-0.125517,0
2,-0.0616585,0.7125635,-0.1400995,-0.2255434999999999,0.4977935,-0.0606195,-0.2832834999999999,0.2357635,-0.0298145,0.1321365,0.5158135,-0.0651295,0.2391065,0.2574635,-0.0071805,-0.2613235,0.0121215,-0.0859095,0.2682265,0.0366815,-0.0718295,-0.0629615,-0.0016695,-0.0014435,0.0629615,0.0016695,0.0014434999999999,-0.1037335,-0.4496965,-0.0272455,0.1369865,-0.5559165,-0.0424405,-0.1109735,-0.8104565,-0.0538095,0.1613465,-0.8841165,-0.1261295,0
3,-0.060172,0.712618,-0.139394,-0.225118,0.497818,-0.0606039999999999,-0.283068,0.236028,-0.029722,0.133462,0.515188,-0.064034,0.239072,0.257378,-0.0062479999999999,-0.259638,0.011922,-0.086004,0.267952,0.036537,-0.0708039999999999,-0.062933,-0.001877,-0.0017519999999999,0.062933,0.001877,0.001752,-0.104248,-0.449272,-0.0274859999999999,0.137402,-0.540412,-0.040036,-0.111568,-0.8076220000000001,-0.0533339999999999,0.160202,-0.8810420000000001,-0.119814,0
4,-0.0562724999999999,0.713766,-0.1377335,-0.2224845,0.498086,-0.0608335,-0.2799945,0.236956,-0.0299684999999999,0.1342654999999999,0.5155259999999999,-0.0628635,0.2414555,0.256546,-0.0036565,-0.2570945,0.012239,-0.0875535,0.2708855,0.035064,-0.0649334999999999,-0.0630324999999999,-0.001868,-0.0021594999999999,0.0630324999999999,0.001868,0.0021595,-0.1047744999999999,-0.446284,-0.0281695,0.1422854999999999,-0.560064,-0.0382344999999999,-0.1140245,-0.811214,-0.0559834999999999,0.1588755,-0.881104,-0.1193634999999999,0
5,-0.0495615,0.715541,-0.137325,-0.2191935,0.499351,-0.061165,-0.2760535,0.237881,-0.030281,0.1387264999999999,0.515591,-0.0619549999999999,0.2427264999999999,0.254321,-0.001645,-0.2511035,0.011467,-0.087675,0.2707965,0.032927,-0.064115,-0.0632965,-0.0018419999999999,-0.002243,0.0632965,0.0018419999999999,0.0022429999999999,-0.1052635,-0.4624189999999999,-0.03009,0.1404764999999999,-0.551179,-0.036312,-0.1158735,-0.813019,-0.055955,0.1596564999999999,-0.921489,-0.154845,0
6,-0.0443149999999999,0.715128,-0.1359715,-0.2146779999999999,0.5009079999999999,-0.0616114999999999,-0.270448,0.2365179999999999,-0.0282745,0.142712,0.5153179999999999,-0.0615014999999999,0.247162,0.253178,-0.0002704999999999,-0.243058,0.0106749999999999,-0.0918014999999999,0.271122,0.032067,-0.0662214999999999,-0.0632559999999999,-0.001598,-0.0021165,0.0632559999999999,0.001598,0.0021165,-0.107998,-0.463032,-0.0297635,0.138012,-0.544482,-0.0345065,-0.118008,-0.818202,-0.0570914999999999,0.157972,-0.900252,-0.1331115,0
7,-0.036659,0.7135915,-0.1360445,-0.208504,0.5017415000000001,-0.0600645,-0.266864,0.2391315,-0.0257594999999999,0.148206,0.5139715,-0.0611945,0.249226,0.2518315,-0.0029095,-0.235334,0.0124645,-0.0898345,0.274256,0.0304725,-0.0690045,-0.0634779999999999,-0.0010635,-0.0015405,0.0634779999999999,0.0010635,0.0015405,-0.113006,-0.4660585,-0.0290385,0.134556,-0.5544185,-0.0330205,-0.124214,-0.8176785,-0.0562645,0.149396,-0.8895585,-0.1222145,0
8,-0.0308255,0.713456,-0.135424,-0.2041795,0.502686,-0.059434,-0.2630495,0.240236,-0.0245419999999999,0.1522305,0.513176,-0.060584,0.2520905,0.249716,-0.0024859999999999,-0.2305095,0.013917,-0.090064,0.2758005,0.028305,-0.0686539999999999,-0.0637045,-0.000819,-0.0014179999999999,0.0637045,0.000819,0.001418,-0.1160105,-0.467804,-0.0297969999999999,0.1326305,-0.5542140000000001,-0.0315729999999999,-0.1288794999999999,-0.816934,-0.0559739999999999,0.1452305,-0.890024,-0.121064,0
9,-0.024602,0.7132944999999999,-0.1347775,-0.199647,0.5033945,-0.0589175,-0.259047,0.2413445,-0.0231845,0.156783,0.5121344999999999,-0.0601475,0.2553029999999999,0.2472345,-0.0023965,-0.225717,0.0153715,-0.0901375,0.277703,0.0258084999999999,-0.0686775,-0.063927,-0.0005385,-0.0012484999999999,0.063927,0.0005384999999999,0.0012484999999999,-0.119093,-0.4699455,-0.0308125,0.129793,-0.5524155000000001,-0.0304935,-0.133697,-0.8176555,-0.0559175,0.140983,-0.8909155,-0.1203374999999999,0
10,-0.0187504999999999,0.713047,-0.134163,-0.1951605,0.5040169999999999,-0.0584929999999999,-0.2553805,0.242527,-0.02167,0.1610395,0.5110469999999999,-0.059943,0.2587795,0.244677,-0.002918,-0.2212005,0.014362,-0.090553,0.2795895,0.023176,-0.0692629999999999,-0.0641115,-0.000253,-0.0010819999999999,0.0641115,0.0002529999999999,0.0010819999999999,-0.1226535,-0.472653,-0.031796,0.1267495,-0.552813,-0.029514,-0.1386804999999999,-0.819573,-0.055993,0.1362094999999999,-0.891453,-0.119613,0
11,-0.0130059999999999,0.712786,-0.133546,-0.190712,0.5044959999999999,-0.058046,-0.2518019999999999,0.243716,-0.0200429999999999,0.165258,0.509956,-0.059916,0.262028,0.241976,-0.0036729999999999,-0.217162,0.013091,-0.0905459999999999,0.281758,0.020418,-0.0702359999999999,-0.064225,4.399999999999999e-05,-0.0009399999999999,0.064225,-4.399999999999999e-05,0.00094,-0.12618,-0.474764,-0.0331729999999999,0.123898,-0.552974,-0.0288529999999999,-0.143872,-0.820714,-0.0559859999999999,0.131468,-0.891714,-0.118986,0
12,-0.007757,0.7122855,-0.133013,-0.186671,0.5049855,-0.057353,-0.248461,0.2449055,-0.018307,0.169129,0.5084354999999999,-0.059973,0.265689,0.2386255,-0.005006,-0.214221,0.0111785,-0.090583,0.284049,0.0171255,-0.071793,-0.064339,0.0004604999999999,-0.000843,0.064339,-0.0004604999999999,0.0008429999999999,-0.129717,-0.4764245,-0.034775,0.120699,-0.5529245,-0.028247,-0.149061,-0.8211045,-0.055943,0.126879,-0.8917245,-0.118413,0
13,-0.002878,0.71162,-0.1325775,-0.1830069999999999,0.5053300000000001,-0.0566475,-0.245537,0.24591,-0.0166904999999999,0.172943,0.50698,-0.0602175,0.269143,0.23557,-0.0067445,-0.210147,0.00655,-0.0919074999999999,0.286523,0.014102,-0.0735875,-0.064483,0.00089,-0.0007834999999999,0.064483,-0.00089,0.0007834999999999,-0.133056,-0.47808,-0.0365194999999999,0.1182329999999999,-0.55375,-0.0278075,-0.153777,-0.82122,-0.0558675,0.1227529999999999,-0.8915,-0.1176975,0
14,0.0010214999999999,0.7109795,-0.1322455,-0.1801114999999999,0.5056995,-0.0559055,-0.2433715,0.2470495,-0.0152125,0.1760884999999999,0.5055695,-0.0605855,0.2723085,0.2326195,-0.0086434999999999,-0.2066915,0.0020025,-0.0933055,0.2882185,0.0115255,-0.0755355,-0.0646085,0.0013075,-0.0007594999999999,0.0646085,-0.0013075,0.0007595,-0.1361145,-0.4796905,-0.0382185,0.1156485,-0.5554105,-0.0274564999999999,-0.1581315,-0.8212705,-0.0558455,0.1189384999999999,-0.8915105,-0.1170555,0
15,0.0040475,0.71055,-0.131949,-0.1776885,0.50591,-0.0552389999999999,-0.2417285,0.2476,-0.0138319999999999,0.1786315,0.50447,-0.0610789999999999,0.2750515,0.23049,-0.0106519999999999,-0.2064285,0.0045579999999999,-0.093509,0.2904415,0.009601,-0.077789,-0.0646815,0.001655,-0.000785,0.0646815,-0.001655,0.000785,-0.1387035,-0.4813,-0.039538,0.1135614999999999,-0.55571,-0.02745,-0.1621485,-0.82043,-0.055479,0.1158114999999999,-0.89143,-0.116549,0
16,0.0063594999999999,0.710303,-0.1317934999999999,-0.1759175,0.506023,-0.0543335,-0.2408675,0.247933,-0.0127185,0.1805325,0.503503,-0.0613835,0.2773525,0.228563,-0.0127564999999999,-0.2054975,0.002267,-0.0944934999999999,0.2925625,0.007918,-0.0801435,-0.0648125,0.001931,-0.0008125,0.0648125,-0.001931,0.0008125,-0.1409675,-0.481717,-0.0400924999999999,0.1117025,-0.556997,-0.0275774999999999,-0.1654074999999999,-0.820357,-0.0554835,0.1134525,-0.891357,-0.1162334999999999,0
17,0.0075045,0.7103835,-0.131556,-0.1751885,0.5061635,-0.053396,-0.2407185,0.2484635,-0.012064,0.1816615,0.5029534999999999,-0.061346,0.2790315,0.2275035,-0.0142349999999999,-0.2065485,0.0052785,-0.094236,0.2945615,0.0071804999999999,-0.0823059999999999,-0.0648115,0.0021265,-0.000821,0.0648115,-0.0021265,0.0008209999999999,-0.1426715,-0.4822665,-0.039955,0.1104415,-0.5573965,-0.02777,-0.1678985,-0.8192065000000001,-0.055086,0.1117515,-0.8912165,-0.115906,0
18,0.0070704999999999,0.7105095,-0.1308105,-0.1756335,0.5064095000000001,-0.0525805,-0.2412535,0.2486895,-0.0116784999999999,0.1814565,0.5027495000000001,-0.0609905,0.2794065,0.2275495,-0.0154154999999999,-0.2075735,0.0071245,-0.0939605,0.2956865,0.0073065,-0.0846305,-0.0647165,0.0022525,-0.0008324999999999,0.0647165,-0.0022525,0.0008324999999999,-0.1437965,-0.4830705,-0.0395495,0.1097664999999999,-0.5598105,-0.0279045,-0.1698035,-0.8200905,-0.0551305,0.1107765,-0.8912205,-0.1155205,0
19,0.0068604999999999,0.710648,-0.1299719999999999,-0.1758545,0.506388,-0.0520319999999999,-0.2414745,0.249178,-0.0111499999999999,0.1812355,0.502888,-0.060462,0.2791455,0.227688,-0.0160809999999999,-0.2078145,0.0076409999999999,-0.094022,0.2964055,0.0074449999999999,-0.0865919999999999,-0.0646154999999999,0.002391,-0.000918,0.0646154999999999,-0.002391,0.000918,-0.1440175,-0.482472,-0.039021,0.1097155,-0.560812,-0.0279279999999999,-0.1709645,-0.818922,-0.054412,0.1106055,-0.891332,-0.115052,0
20,0.0069099999999999,0.7107205,-0.1286324999999999,-0.1758259999999999,0.5063305,-0.0513224999999999,-0.241446,0.2496504999999999,-0.0104404999999999,0.1812639999999999,0.5029605,-0.0598424999999999,0.279134,0.2277604999999999,-0.0165054999999999,-0.207806,0.0073974999999999,-0.0940525,0.296354,0.0075175,-0.0881925,-0.064614,0.0024635,-0.0009884999999999,0.064614,-0.0024635,0.0009885,-0.143989,-0.4823995,-0.0383115,0.109724,-0.5617795,-0.0277815,-0.1719959999999999,-0.8197795,-0.0541124999999999,0.110724,-0.8912495,-0.1143425,0
21,0.0069595,0.710955,-0.1270764999999999,-0.1758015,0.506225,-0.0504965,-0.2414215,0.250035,-0.0096144999999999,0.1812784999999999,0.502985,-0.0591765,0.2791285,0.227785,-0.0165175,-0.2078115,0.0062229999999999,-0.0942165,0.2963085,0.007884,-0.0894664999999999,-0.0646185,0.002439,-0.0010315,0.0646185,-0.002439,0.0010314999999999,-0.1443434999999999,-0.482115,-0.0364785,0.1097285,-0.562815,-0.0274895,-0.1730715,-0.821245,-0.0537465,0.1107485,-0.891205,-0.1135165,0
22,0.0057049999999999,0.7116345,-0.1255409999999999,-0.176814,0.5061545,-0.0494509999999999,-0.242974,0.2503945,-0.009368,0.180426,0.5030745,-0.0583009999999999,0.278546,0.2287045,-0.0161779999999999,-0.208994,0.0054434999999999,-0.0941809999999999,0.296296,0.0093195,-0.0900709999999999,-0.064616,0.0023495,-0.001048,0.064616,-0.0023495,0.001048,-0.14499,-0.4813354999999999,-0.0346969999999999,0.1097559999999999,-0.5635355000000001,-0.0269389999999999,-0.174214,-0.8255655000000001,-0.053591,0.1106959999999999,-0.8908555,-0.112231,0
23,0.002789,0.712642,-0.1242105,-0.179338,0.5062220000000001,-0.0484505,-0.245478,0.250622,-0.0091095,0.178142,0.503472,-0.0571405,0.276992,0.230252,-0.0154015,-0.210648,0.00523,-0.0940905,0.296252,0.011417,-0.0902905,-0.064552,0.002122,-0.0010014999999999,0.064552,-0.002122,0.0010014999999999,-0.145624,-0.480828,-0.0320925,0.110242,-0.564288,-0.0262345,-0.174848,-0.827788,-0.0531005,0.111322,-0.890628,-0.1110105,0
24,-0.001431,0.7134619999999999,-0.1228534999999999,-0.182595,0.506212,-0.0475534999999999,-0.248525,0.250302,-0.0092934999999999,0.175005,0.504162,-0.0559334999999999,0.274165,0.232682,-0.0144584999999999,-0.212105,0.0049679999999999,-0.0935135,0.295015,0.014135,-0.0897734999999999,-0.064535,0.001848,-0.0009674999999999,0.064535,-0.001848,0.0009675,-0.145452,-0.480138,-0.0292004999999999,0.111495,-0.5650980000000001,-0.0254074999999999,-0.174735,-0.8302080000000001,-0.0524734999999999,0.112725,-0.8889480000000001,-0.1090934999999999,0
25,-0.0065389999999999,0.714037,-0.121413,-0.186633,0.506007,-0.046673,-0.2517729999999999,0.250027,-0.009549,0.171347,0.505147,-0.054833,0.271287,0.235057,-0.013396,-0.216483,0.010565,-0.091983,0.293167,0.016696,-0.088823,-0.0644769999999999,0.001528,-0.000838,0.064477,-0.001528,0.0008379999999999,-0.144576,-0.480313,-0.026433,0.113407,-0.564323,-0.024631,-0.173273,-0.830313,-0.051303,0.115207,-0.888163,-0.107913,0
26,-0.012536,0.714769,-0.1199045,-0.191135,0.505609,-0.0458845,-0.255295,0.249829,-0.0099045,0.167065,0.5061289999999999,-0.0538145,0.267665,0.237579,-0.0123095,-0.221335,0.015654,-0.0903345,0.290255,0.019257,-0.0874144999999999,-0.064345,0.001068,-0.0006934999999999,0.064345,-0.001068,0.0006934999999999,-0.143082,-0.481081,-0.0236835,0.115905,-0.564351,-0.0239515,-0.170865,-0.830461,-0.0499945,0.1185249999999999,-0.887561,-0.1067945,0
27,-0.019058,0.715233,-0.1187744999999999,-0.1957529999999999,0.5051530000000001,-0.0452245,-0.258803,0.249703,-0.0104665,0.162257,0.5071530000000001,-0.0530645,0.2637469999999999,0.240143,-0.0112364999999999,-0.2236729999999999,0.020661,-0.0885244999999999,0.286657,0.021744,-0.0860645,-0.064217,0.0005549999999999,-0.0005595,0.064217,-0.000555,0.0005595,-0.140737,-0.481647,-0.0211895,0.119007,-0.564337,-0.0234375,-0.167243,-0.8304469999999999,-0.0483245,0.122517,-0.8871469999999999,-0.1060145,0
28,-0.0261885,0.7156754999999999,-0.1177685,-0.2007105,0.5044755,-0.0447584999999999,-0.2627805,0.2496355,-0.0111294999999999,0.1569995,0.5081954999999999,-0.0526184999999999,0.2591095,0.2427955,-0.0100414999999999,-0.2257805,0.0207135,-0.0865784999999999,0.2820795,0.0241815,-0.0848384999999999,-0.0640495,-1.8500000000000016e-05,-0.0005744999999999,0.0640495,1.8500000000000016e-05,0.0005745,-0.1383495,-0.4818345,-0.0189914999999999,0.1206394999999999,-0.5636245000000001,-0.0239264999999999,-0.1630905,-0.8301145000000001,-0.0467984999999999,0.1268595,-0.8868345000000001,-0.1053684999999999,0
29,-0.0334709999999999,0.715851,-0.1170689999999999,-0.2055759999999999,0.503571,-0.044439,-0.266376,0.248661,-0.011732,0.151374,0.509301,-0.052339,0.254144,0.245321,-0.0090049999999999,-0.227246,0.020699,-0.084849,0.276574,0.026357,-0.083559,-0.0639029999999999,-0.0004879999999999,-0.000627,0.063903,0.000488,0.000627,-0.135646,-0.4807689999999999,-0.017726,0.122454,-0.562039,-0.024756,-0.158586,-0.8296789999999999,-0.045139,0.131414,-0.885149,-0.104489,0
30,-0.040617,0.7159185,-0.1164905,-0.21041,0.5024285000000001,-0.0442204999999999,-0.2700599999999999,0.2474585,-0.0123164999999999,0.14618,0.5103485,-0.0521104999999999,0.2492199999999999,0.2472585,-0.0080784999999999,-0.2297,0.0193484999999999,-0.0839004999999999,0.27034,0.0277735,-0.0815704999999999,-0.063761,-0.0009245,-0.0007284999999999,0.063761,0.0009245,0.0007285,-0.13264,-0.4792315,-0.0170704999999999,0.12433,-0.5610315,-0.0256774999999999,-0.15393,-0.8289314999999999,-0.0434604999999999,0.13604,-0.8845915,-0.1042604999999999,0
31,-0.0475865,0.715912,-0.1161695,-0.2151525,0.501102,-0.0439795,-0.2730425,0.246212,-0.0126175,0.1412074999999999,0.511382,-0.0520895,0.2447574999999999,0.248732,-0.0073345,-0.2327624999999999,0.019322,-0.0822395,0.2642075,0.02868,-0.0794395,-0.0635695,-0.001346,-0.0008444999999999,0.0635695,0.001346,0.0008444999999999,-0.1295224999999999,-0.477158,-0.0165815,0.1263175,-0.559308,-0.0267465,-0.1492025,-0.826718,-0.0417795,0.1406675,-0.883968,-0.1038294999999999,0
32,-0.054136,0.715866,-0.1162044999999999,-0.219312,0.499526,-0.0437545,-0.275822,0.244356,-0.0132415,0.136828,0.512486,-0.0523244999999999,0.240688,0.250126,-0.0066265,-0.2364919999999999,0.0176309999999999,-0.0816945,0.258118,0.029448,-0.0773045,-0.0634,-0.0016649999999999,-0.0010035,0.0634,0.0016649999999999,0.0010035,-0.126272,-0.475514,-0.0162385,0.1284179999999999,-0.556974,-0.0279385,-0.144282,-0.8267639999999999,-0.0412845,0.145358,-0.882494,-0.1036245,0
33,-0.059812,0.7158845,-0.1166369999999999,-0.223017,0.4979645,-0.0436369999999999,-0.2782869999999999,0.2426645,-0.0137939999999999,0.132843,0.5136745,-0.0525569999999999,0.237133,0.2512545,-0.0059689999999999,-0.2410769999999999,0.0158845,-0.081147,0.2528829999999999,0.0300945,-0.0752569999999999,-0.063153,-0.0018815,-0.0011559999999999,0.063153,0.0018815,0.001156,-0.123287,-0.4737455,-0.0163509999999999,0.130363,-0.5559554999999999,-0.0291889999999999,-0.139477,-0.8223254999999999,-0.0397769999999999,0.149693,-0.8824755,-0.1039269999999999,0
34,-0.0646549999999999,0.7158549999999999,-0.116804,-0.2259789999999999,0.496615,-0.043474,-0.280389,0.240655,-0.014312,0.129321,0.5146449999999999,-0.052594,0.234021,0.252285,-0.005265,-0.245309,0.014239,-0.080174,0.248581,0.030716,-0.073444,-0.062911,-0.002057,-0.001295,0.062911,0.002057,0.0012949999999999,-0.120609,-0.472375,-0.016411,0.131821,-0.5548550000000001,-0.030321,-0.135509,-0.822265,-0.039734,0.153171,-0.8824150000000001,-0.104774,0
35,-0.0682075,0.7157165000000001,-0.1165374999999999,-0.2280135,0.4955265,-0.0431774999999999,-0.2817835,0.2391265,-0.0145464999999999,0.1267765,0.5156865,-0.0524174999999999,0.2319565,0.2532265,-0.0046804999999999,-0.2484835,0.0129125,-0.0788275,0.2463465,0.0313385,-0.0717775,-0.0627605,-0.0021785,-0.0013694999999999,0.0627605,0.0021785,0.0013695,-0.1182935,-0.4709035,-0.0163814999999999,0.1331165,-0.5540235,-0.0312174999999999,-0.1319634999999999,-0.8190234999999999,-0.0380874999999999,0.1561665,-0.8808334999999999,-0.1044175,0
36,-0.070396,0.7158045000000001,-0.1161155,-0.229306,0.4948145,-0.0427755,-0.282796,0.2375645,-0.0145735,0.125524,0.5165045,-0.0520455,0.2306939999999999,0.2541245,-0.0039185,-0.251296,0.0121395,-0.0771855,0.2452039999999999,0.0319355,-0.0704655,-0.062628,-0.0022665,-0.0014255,0.062628,0.0022665,0.0014254999999999,-0.116476,-0.4682155,-0.0163265,0.1340239999999999,-0.5535055,-0.0318855,-0.129136,-0.8158354999999999,-0.0361655,0.158714,-0.8822055,-0.1059055,0
37,-0.070885,0.715843,-0.115827,-0.2293859999999999,0.494403,-0.042507,-0.282296,0.236003,-0.014323,0.125494,0.517103,-0.051777,0.230964,0.254783,-0.003462,-0.2534659999999999,0.010985,-0.075387,0.245314,0.032529,-0.070017,-0.062563,-0.0023049999999999,-0.001432,0.062563,0.0023049999999999,0.0014319999999999,-0.114986,-0.469547,-0.016198,0.135764,-0.553467,-0.031677,-0.1273159999999999,-0.813507,-0.034687,0.160294,-0.883567,-0.106957,0
38,-0.069992,0.7159220000000001,-0.115652,-0.2284929999999999,0.494442,-0.0423319999999999,-0.281403,0.234872,-0.0141479999999999,0.126387,0.517452,-0.0516019999999999,0.231857,0.255402,-0.0032869999999999,-0.254183,0.010127,-0.073692,0.246207,0.033169,-0.0698419999999999,-0.062507,-0.002301,-0.001501,0.062507,0.002301,0.001501,-0.114103,-0.469228,-0.0162609999999999,0.136657,-0.553388,-0.031502,-0.126543,-0.8130879999999999,-0.034512,0.161277,-0.885068,-0.1080619999999999,0
39,-0.06997,0.716068,-0.1150085,-0.228486,0.494528,-0.0421085,-0.281396,0.234198,-0.0139444999999999,0.126394,0.517538,-0.0513985,0.231864,0.255898,-0.0032505,-0.254136,0.009601,-0.0722985,0.246214,0.0338619999999999,-0.0696384999999999,-0.062509,-0.002268,-0.0015664999999999,0.062509,0.002268,0.0015664999999999,-0.114106,-0.468812,-0.0163375,0.1366639999999999,-0.553302,-0.0312985,-0.126536,-0.812442,-0.0343085,0.161214,-0.8849819999999999,-0.1078485,0
40,-0.069936,0.716491,-0.114046,-0.228469,0.494581,-0.041776,-0.281389,0.233881,-0.01356,0.1264009999999999,0.517591,-0.050976,0.231871,0.256051,-0.003058,-0.254099,0.009654,-0.071186,0.246221,0.034332,-0.069446,-0.062512,-0.002166,-0.0016509999999999,0.062512,0.002166,0.0016509999999999,-0.114109,-0.468759,-0.016521,0.137141,-0.553249,-0.030956,-0.126629,-0.812389,-0.034106,0.161271,-0.883899,-0.107376,0
41,-0.0695819999999999,0.716862,-0.112923,-0.228441,0.494622,-0.041283,-0.281011,0.233922,-0.012949,0.127099,0.517632,-0.050483,0.232729,0.256092,-0.0030229999999999,-0.254061,0.009695,-0.070203,0.246989,0.034411,-0.069813,-0.062512,-0.002048,-0.001652,0.062512,0.002048,0.001652,-0.114031,-0.468718,-0.016725,0.137839,-0.552108,-0.030633,-0.1266509999999999,-0.8123480000000001,-0.034103,0.161379,-0.8828280000000001,-0.106363,0
42,-0.0668989999999999,0.717832,-0.1117015,-0.226327,0.494882,-0.0404915,-0.279347,0.233982,-0.0120084999999999,0.129593,0.517692,-0.0498914999999999,0.235023,0.256152,-0.0031204999999999,-0.253837,0.009755,-0.0692515,0.249853,0.034471,-0.0709214999999999,-0.062552,-0.001934,-0.0015975,0.062552,0.001934,0.0015975,-0.113867,-0.468658,-0.0168994999999999,0.138783,-0.553188,-0.0300315,-0.126847,-0.8127679999999999,-0.0347715,0.161293,-0.881868,-0.1052514999999999,0
43,-0.0631259999999999,0.718777,-0.1104564999999999,-0.223329,0.495617,-0.0394964999999999,-0.276609,0.234037,-0.0101844999999999,0.132851,0.5174369999999999,-0.0491464999999999,0.238011,0.255937,-0.0034155,-0.252869,0.009822,-0.0684065,0.253021,0.034471,-0.0724964999999999,-0.062642,-0.001805,-0.0013404999999999,0.062642,0.001805,0.0013405,-0.1142189999999999,-0.468993,-0.0169425,0.139041,-0.554513,-0.0290165,-0.128209,-0.813153,-0.0353965,0.1601709999999999,-0.881633,-0.1047565,0
44,-0.057835,0.7198,-0.108805,-0.219507,0.4966899999999999,-0.0382649999999999,-0.273377,0.23469,-0.007842,0.1369129999999999,0.51682,-0.0483949999999999,0.2413729999999999,0.25587,-0.0041319999999999,-0.2508869999999999,0.01065,-0.067765,0.256993,0.034514,-0.074525,-0.062726,-0.001612,-0.0010779999999999,0.062726,0.001612,0.0010779999999999,-0.115297,-0.47129,-0.017096,0.138313,-0.55567,-0.027975,-0.130847,-0.81311,-0.035695,0.158163,-0.88286,-0.104815,0
45,-0.0519605,0.7208655,-0.1071449999999999,-0.2151895,0.4981055,-0.0366849999999999,-0.2700995,0.2355855,-0.0051779999999999,0.1415305,0.5160755,-0.0477149999999999,0.2451705,0.2553455,-0.0055559999999999,-0.2478895,0.0119105,-0.067245,0.2606005,0.0341935,-0.077295,-0.0629135,-0.0013484999999999,-0.0006839999999999,0.0629135,0.0013484999999999,0.000684,-0.1173995,-0.4732645,-0.017289,0.1367305,-0.5566045,-0.0269919999999999,-0.1345295,-0.8128445,-0.0359749999999999,0.1550004999999999,-0.8830444999999999,-0.1036649999999999,0
46,-0.045228,0.721863,-0.1053485,-0.21069,0.499623,-0.0348485,-0.26631,0.236883,-0.0021464999999999,0.14652,0.5152030000000001,-0.0470585,0.24855,0.254693,-0.0073425,-0.24433,0.013213,-0.0667085,0.2637,0.033505,-0.0804085,-0.063097,-0.001011,-0.0003625,0.063097,0.001011,0.0003625,-0.11999,-0.475037,-0.0177065,0.13459,-0.558377,-0.0260434999999999,-0.1388,-0.812137,-0.0359985,0.15118,-0.883297,-0.1025585,0
47,-0.037843,0.7227800000000001,-0.1035935,-0.2057729999999999,0.50111,-0.0330434999999999,-0.262553,0.23831,0.0007074999999999,0.151957,0.51412,-0.0465234999999999,0.252067,0.25379,-0.0094105,-0.240813,0.014661,-0.0663235,0.266357,0.032446,-0.0842034999999999,-0.0632699999999999,-0.000677,-0.0001414999999999,0.0632699999999999,0.000677,0.0001415,-0.123023,-0.47599,-0.0182404999999999,0.132097,-0.5595699999999999,-0.0251794999999999,-0.143253,-0.8121799999999999,-0.0365235,0.147147,-0.88337,-0.1013234999999999,0
48,-0.030909,0.723457,-0.1021489999999999,-0.200875,0.502517,-0.0309389999999999,-0.258735,0.239697,0.003604,0.1568949999999999,0.513027,-0.0461989999999999,0.255195,0.252447,-0.0116899999999999,-0.237755,0.014518,-0.066329,0.268475,0.03126,-0.0881789999999999,-0.063367,-0.000308,9.200000000000874e-05,0.063367,0.000308,-9.199999999999486e-05,-0.126735,-0.477033,-0.0189939999999999,0.129135,-0.5593929999999999,-0.0245059999999999,-0.148235,-0.812233,-0.0372389999999999,0.142315,-0.882293,-0.0993189999999999,0
49,-0.024194,0.7239135,-0.1010605,-0.1960339999999999,0.5038635,-0.0289404999999999,-0.255314,0.2410835,0.0062865,0.1618259999999999,0.5118334999999999,-0.0460905,0.258476,0.2504435,-0.0145355,-0.234534,0.0158444999999999,-0.0661104999999999,0.2705559999999999,0.0296955,-0.0922405,-0.063445,8.25e-05,0.0003164999999999,0.063445,-8.249999999999997e-05,-0.0003164999999999,-0.130484,-0.4786665,-0.0199755,0.126166,-0.5603965,-0.0241004999999999,-0.153474,-0.8136865,-0.0383005,0.137676,-0.8819665,-0.0989105,0
50,-0.017586,0.724159,-0.1000944999999999,-0.191248,0.504939,-0.0270045,-0.251918,0.242299,0.0089994999999999,0.166182,0.510529,-0.0461045,0.260952,0.248199,-0.0171255,-0.2318879999999999,0.0170559999999999,-0.0656345,0.272002,0.027797,-0.0961844999999999,-0.063505,0.000554,0.0005264999999999,0.063505,-0.000554,-0.0005264999999999,-0.134048,-0.480231,-0.0214125,0.123062,-0.561221,-0.0238435,-0.158348,-0.813831,-0.0394044999999999,0.133282,-0.883671,-0.0996445,0
51,-0.011408,0.7238315,-0.0992154999999999,-0.186809,0.5059214999999999,-0.0252825,-0.248469,0.2434215,0.0116595,0.170181,0.5091815,-0.0463055,0.2640409999999999,0.2456715,-0.0201824999999999,-0.228889,0.0182285,-0.0650854999999999,0.273431,0.0255955,-0.1002154999999999,-0.063551,0.0010995,0.0008345,0.063551,-0.0010994999999999,-0.0008345,-0.137392,-0.4814285,-0.0230054999999999,0.120331,-0.5618885,-0.0237135,-0.162939,-0.8143185000000001,-0.0405254999999999,0.1281209999999999,-0.8838885000000001,-0.0991455,0
52,-0.005787,0.723461,-0.0983095,-0.182738,0.506711,-0.0236145,-0.245628,0.244481,0.0138654999999999,0.174072,0.507901,-0.0466195,0.266832,0.243261,-0.0233735,-0.226328,0.019712,-0.0641095,0.275322,0.023521,-0.1043695,-0.063612,0.001635,0.0012074999999999,0.063612,-0.001635,-0.0012075,-0.140592,-0.482119,-0.0248485,0.118072,-0.562379,-0.0239235,-0.1669979999999999,-0.814609,-0.0417095,0.124472,-0.882879,-0.0981995,0
53,-0.000965,0.7230505,-0.097633,-0.179082,0.5075305,-0.022121,-0.243312,0.2447905,0.01593,0.177608,0.5067505,-0.0469929999999999,0.269418,0.2411005,-0.026341,-0.224552,0.0211345,-0.063123,0.276868,0.0216825,-0.108183,-0.063718,0.0020954999999999,0.0016209999999999,0.063718,-0.0020955,-0.0016209999999999,-0.143385,-0.4827595,-0.02669,0.115978,-0.5628394999999999,-0.0242079999999999,-0.170502,-0.8137694999999999,-0.0429429999999999,0.1210979999999999,-0.8832895,-0.098063,0
54,0.0033009999999999,0.7226375,-0.097001,-0.175912,0.5080475,-0.021028,-0.241312,0.2451475,0.0178189999999999,0.180618,0.5057175,-0.047321,0.271588,0.2392775,-0.0287909999999999,-0.223582,0.0221705,-0.0621309999999999,0.2788779999999999,0.0203215,-0.111581,-0.063758,0.0025085,0.0019749999999999,0.063758,-0.0025085,-0.001975,-0.1452729999999999,-0.4838825,-0.028291,0.114218,-0.5632524999999999,-0.024555,-0.1732719999999999,-0.8133425,-0.044371,0.118508,-0.8851424999999999,-0.099621,0
55,0.0062689999999999,0.722403,-0.0966139999999999,-0.173504,0.508423,-0.0202359999999999,-0.240174,0.245093,0.019298,0.1829859999999999,0.505093,-0.0476339999999999,0.273836,0.237973,-0.0308939999999999,-0.223214,0.023015,-0.0611339999999999,0.281006,0.019716,-0.1145839999999999,-0.063796,0.0028829999999999,0.002255,0.063796,-0.002883,-0.0022549999999999,-0.1467419999999999,-0.483907,-0.0295439999999999,0.112836,-0.564497,-0.0249049999999999,-0.175534,-0.811957,-0.0450439999999999,0.1162859999999999,-0.886787,-0.101074,0
56,0.00795,0.7222425,-0.096201,-0.172346,0.5087725000000001,-0.019444,-0.2398259999999999,0.2449425,0.0206449999999999,0.184184,0.5046625,-0.047821,0.2755039999999999,0.2368725,-0.032531,-0.223216,0.0236845,-0.060131,0.282614,0.0193455,-0.116771,-0.0638239999999999,0.0032305,0.0025069999999999,0.0638239999999999,-0.0032305,-0.002507,-0.147704,-0.4842875,-0.030461,0.111744,-0.5655675,-0.025241,-0.1770759999999999,-0.8102575,-0.045661,0.114474,-0.8880374999999999,-0.102411,0
57,0.0084899999999999,0.721985,-0.0955885,-0.172207,0.5086550000000001,-0.0191935,-0.240117,0.245035,0.0217625,0.184683,0.504245,-0.0477785,0.276493,0.236395,-0.0334185,-0.223337,0.024056,-0.0590985,0.284033,0.018988,-0.1182484999999999,-0.063903,0.0034869999999999,0.0024954999999999,0.063903,-0.003487,-0.0024954999999999,-0.148059,-0.484645,-0.0306784999999999,0.110853,-0.565925,-0.0254135,-0.1777969999999999,-0.8104549999999999,-0.0466184999999999,0.113523,-0.8893249999999999,-0.1033585,0
58,0.0079369999999999,0.7218125,-0.0948664999999999,-0.172777,0.5083325000000001,-0.0189925,-0.2406869999999999,0.2452725,0.0221834999999999,0.184103,0.5039225,-0.0475465,0.276053,0.2360725,-0.0334665,-0.223877,0.0241385,-0.0581764999999999,0.284793,0.0186655,-0.1189965,-0.063913,0.0035945,0.0024274999999999,0.063913,-0.0035945,-0.0024274999999999,-0.147949,-0.4851175,-0.0307465,0.110273,-0.5662475,-0.0254025,-0.177787,-0.8107774999999999,-0.0476165,0.1132529999999999,-0.8898675,-0.1037565,0
59,0.007961,0.7216345,-0.094166,-0.172777,0.5081545000000001,-0.019012,-0.2406869999999999,0.2453345,0.0221639999999999,0.184133,0.5037445,-0.046966,0.276053,0.2358945,-0.033486,-0.223877,0.0240545,-0.058006,0.284943,0.0186545,-0.119146,-0.063913,0.0035614999999999,0.0024079999999999,0.063913,-0.0035615,-0.002408,-0.147738,-0.4858755,-0.030776,0.110273,-0.5661754999999999,-0.025375,-0.177247,-0.8105355,-0.048296,0.113243,-0.8901255,-0.104096,0
60,0.0079829999999999,0.721513,-0.093588,-0.172777,0.5080830000000001,-0.019064,-0.2406869999999999,0.245713,0.0221119999999999,0.184153,0.503733,-0.046348,0.276053,0.235823,-0.033538,-0.223877,0.024241,-0.058058,0.284943,0.018991,-0.119198,-0.063913,0.00349,0.0023559999999999,0.063913,-0.0034899999999999,-0.002356,-0.147738,-0.4853969999999999,-0.030828,0.110273,-0.5658569999999999,-0.025385,-0.176847,-0.810127,-0.048868,0.113223,-0.890307,-0.104598,0
61,0.0078374999999999,0.721542,-0.0930474999999999,-0.1731115,0.508042,-0.0191024999999999,-0.2415014999999999,0.246152,0.0220905,0.1839184999999999,0.5039319999999999,-0.0456175,0.2760485,0.236392,-0.0335275,-0.2240114999999999,0.024431,-0.0581074999999999,0.2849385,0.01946,-0.1192474999999999,-0.0639185,0.003489,0.0022744999999999,0.0639185,-0.003489,-0.0022744999999999,-0.1477415,-0.484818,-0.0308375,0.1102285,-0.565708,-0.0254334999999999,-0.1767515,-0.8101280000000001,-0.0489975,0.1132085,-0.890408,-0.1051174999999999,0
62,0.005603,0.7215995000000001,-0.092829,-0.175111,0.5076295000000001,-0.019201,-0.244081,0.2463795,0.0220229999999999,0.182279,0.5041395000000001,-0.045099,0.274709,0.2370595,-0.033179,-0.225341,0.0247075,-0.058189,0.284959,0.0201175,-0.119279,-0.063939,0.0034465,0.0021919999999999,0.063939,-0.0034465,-0.0021919999999999,-0.147705,-0.4848605,-0.030389,0.109959,-0.5657805,-0.025455,-0.176731,-0.8106605,-0.049069,0.1129989999999999,-0.8908404999999999,-0.106239,0
63,0.0020555,0.721651,-0.0926705,-0.1783355,0.507291,-0.0195095,-0.2470655,0.246631,0.0216174999999999,0.1797645,0.5045510000000001,-0.0446305,0.2722645,0.238201,-0.0321405,-0.2277755,0.0249399999999999,-0.0580705,0.2837245,0.021085,-0.1182105,-0.0639345,0.0033479999999999,0.0020594999999999,0.0639345,-0.003348,-0.0020595,-0.1471055,-0.485789,-0.0295305,0.1101045,-0.566329,-0.0254565,-0.1758155,-0.810889,-0.0490605,0.1134544999999999,-0.891249,-0.1073805,0
64,-0.0023144999999999,0.7218224999999999,-0.0924179999999999,-0.1818555,0.5068824999999999,-0.0200409999999999,-0.2503555,0.2468425,0.02065,0.1764845,0.5050924999999999,-0.0441579999999999,0.2691444999999999,0.2396025,-0.030628,-0.2298355,0.0248705,-0.0586179999999999,0.2817044999999999,0.0222035,-0.1166479999999999,-0.0639145,0.0031154999999999,0.0018859999999999,0.0639145,-0.0031154999999999,-0.0018859999999999,-0.1463345,-0.4860175,-0.028308,0.1105545,-0.5660575,-0.0254169999999999,-0.1740155,-0.8104175,-0.048708,0.1148545,-0.8915375000000001,-0.107948,0
65,-0.007299,0.7220055,-0.092125,-0.185774,0.5064055,-0.020794,-0.253544,0.2471255,0.0192379999999999,0.172686,0.5058155,-0.043795,0.265626,0.2410755,-0.028995,-0.231684,0.0247565,-0.059265,0.279206,0.0233945,-0.114595,-0.063836,0.0028325,0.001736,0.063836,-0.0028325,-0.001736,-0.144714,-0.4861845,-0.0269879999999999,0.111676,-0.5658045,-0.025314,-0.171314,-0.8105045,-0.049215,0.117006,-0.8913845,-0.1087549999999999,0
66,-0.013071,0.7223040000000001,-0.0919764999999999,-0.190448,0.5057940000000001,-0.0217554999999999,-0.256668,0.247394,0.0172955,0.168362,0.506634,-0.0436064999999999,0.261112,0.242764,-0.0273294999999999,-0.233338,0.024633,-0.0601265,0.275322,0.024686,-0.1122765,-0.063732,0.00248,0.0015495,0.063732,-0.0024799999999999,-0.0015494999999999,-0.143548,-0.487226,-0.0258945,0.1128919999999999,-0.5655159999999999,-0.0252975,-0.168178,-0.8110059999999999,-0.0496765,0.119622,-0.891196,-0.1094064999999999,0
67,-0.0191415,0.72267,-0.0921295,-0.1949555,0.50508,-0.0229795,-0.2597055,0.24738,0.0151035,0.1638745,0.50718,-0.0434094999999999,0.2560845,0.24401,-0.0257584999999999,-0.2347855,0.024357,-0.0612895,0.2703844999999999,0.0256239999999999,-0.1098595,-0.0636145,0.002039,0.0013515,0.0636144999999999,-0.002039,-0.0013514999999999,-0.1420525,-0.48835,-0.0250234999999999,0.1143145,-0.56519,-0.0252744999999999,-0.1646055,-0.81114,-0.0497595,0.1225445,-0.891,-0.1096695,0
68,-0.025232,0.723105,-0.092465,-0.199062,0.504355,-0.024378,-0.262322,0.247025,0.0127509999999999,0.159408,0.507725,-0.043295,0.250818,0.245335,-0.024456,-0.235842,0.023995,-0.062645,0.264878,0.0265,-0.107655,-0.063538,0.001534,0.0011749999999999,0.063538,-0.001534,-0.001175,-0.140332,-0.489565,-0.024351,0.115898,-0.565105,-0.025341,-0.161902,-0.813455,-0.050405,0.125668,-0.890995,-0.110075,0
69,-0.0310915,0.7236309999999999,-0.0928575,-0.2029425,0.503721,-0.0255175,-0.2645524999999999,0.246091,0.0104565,0.1550975,0.508281,-0.0431675,0.2459375,0.246421,-0.0235675,-0.2366625,0.023362,-0.0639275,0.2589575,0.027306,-0.1057674999999999,-0.0634475,0.001021,0.0010504999999999,0.0634474999999999,-0.0010209999999999,-0.0010504999999999,-0.1386005,-0.488479,-0.0238995,0.1177675,-0.565049,-0.0254275,-0.1602025,-0.8175790000000001,-0.0531075,0.1287575,-0.8903490000000001,-0.1100575,0
70,-0.036656,0.7240245,-0.0936225,-0.2064329999999999,0.5031945,-0.0266094999999999,-0.266043,0.2447045,0.0084655,0.151237,0.5090945,-0.0431825,0.241307,0.2474145,-0.0229914999999999,-0.237223,0.0226255,-0.0652025,0.252897,0.0281594999999999,-0.1042025,-0.063362,0.0006175,0.0009365,0.063362,-0.0006175,-0.0009364999999999,-0.136983,-0.4880155,-0.0233924999999999,0.119667,-0.5655155000000001,-0.0256295,-0.158783,-0.8214555,-0.0561824999999999,0.1312769999999999,-0.8898255,-0.1101024999999999,0
71,-0.0416335,0.7242385,-0.094209,-0.2095265,0.5027985,-0.027353,-0.2667065,0.2435185,0.0068209999999999,0.1478335,0.5096685,-0.043479,0.2373734999999999,0.2481284999999999,-0.0226159999999999,-0.2374465,0.0219144999999999,-0.0660989999999999,0.2470934999999999,0.0287715,-0.102999,-0.0632975,0.0003504999999999,0.0008129999999999,0.0632974999999999,-0.0003505,-0.000813,-0.1354565,-0.4877215,-0.023041,0.1214535,-0.5658314999999999,-0.0258359999999999,-0.1574964999999999,-0.8251415,-0.059519,0.1337535,-0.8895514999999999,-0.110249,0
72,-0.045684,0.724456,-0.0947305,-0.211586,0.502386,-0.0276985,-0.267016,0.242256,0.0052325,0.1450739999999999,0.510146,-0.0439305,0.233954,0.248686,-0.0224904999999999,-0.237146,0.021181,-0.0669404999999999,0.242514,0.029361,-0.1028804999999999,-0.063247,0.0001559999999999,0.0007165,0.063247,-0.000156,-0.0007164999999999,-0.1339159999999999,-0.486714,-0.0228574999999999,0.123044,-0.566594,-0.0259544999999999,-0.154986,-0.827354,-0.0602004999999999,0.135964,-0.889434,-0.1104505,0
73,-0.048962,0.7245945,-0.095005,-0.213466,0.5019545,-0.0278879999999999,-0.266926,0.2410045,0.003927,0.142894,0.5105545,-0.044475,0.2313039999999999,0.2491545,-0.022493,-0.236856,0.0204475,-0.067775,0.238614,0.0298154999999999,-0.102835,-0.063197,1.7499999999999937e-05,0.0007049999999999,0.063197,-1.7500000000000046e-05,-0.0007049999999999,-0.132266,-0.4852555,-0.0228619999999999,0.1243239999999999,-0.5662755,-0.026173,-0.153636,-0.8308755,-0.062535,0.138114,-0.8892955,-0.110955,0
74,-0.0515975,0.7250354999999999,-0.0950189999999999,-0.2150615,0.5014955,-0.027959,-0.2668515,0.2397955,0.0029809999999999,0.1410885,0.5109555,-0.044819,0.2291885,0.2496755,-0.022527,-0.2365315,0.0200245,-0.068509,0.2354984999999999,0.0305825,-0.102839,-0.0631724999999999,-0.0002014999999999,0.0007229999999999,0.0631724999999999,0.0002015,-0.000723,-0.1313115,-0.4842545,-0.022891,0.1250485,-0.5658245000000001,-0.026462,-0.1521615,-0.8321745,-0.063359,0.1393485,-0.8888445,-0.110549,0
75,-0.0532015,0.7253944999999999,-0.0950464999999999,-0.2158665,0.5012345,-0.0280104999999999,-0.2664265,0.2385245,0.0023615,0.1398835,0.5113245,-0.0450265,0.2283035,0.2500345,-0.0225754999999999,-0.2360965,0.0192445,-0.0690964999999999,0.2337834999999999,0.0312115,-0.1029664999999999,-0.0631535,-0.0003884999999999,0.0007265,0.0631535,0.0003884999999999,-0.0007264999999999,-0.1299265,-0.4851455,-0.0229154999999999,0.1259835,-0.5662255,-0.0265704999999999,-0.1523264999999999,-0.8361455,-0.0674164999999999,0.1402634999999999,-0.8886955,-0.1101065,0
76,-0.0538894999999999,0.7256365,-0.0951205,-0.2163264999999999,0.5009565,-0.0280904999999999,-0.2657765,0.2376865,0.0019755,0.1391335,0.5116265,-0.0452004999999999,0.2280735,0.2502565,-0.0228715,-0.2355165,0.0184105,-0.0694505,0.2332635,0.0315185,-0.1033905,-0.0631424999999999,-0.0005825,0.0007125,0.0631424999999999,0.0005825,-0.0007124999999999,-0.1287565,-0.4849235,-0.0230515,0.1267535,-0.5671134999999999,-0.0266035,-0.1514365,-0.8360535,-0.0675405,0.1409235,-0.8888035,-0.1095704999999999,0
77,-0.054089,0.7259095000000001,-0.0950125,-0.216641,0.5007395,-0.0281835,-0.265091,0.2373795,0.0018475,0.138789,0.5119095,-0.0453225,0.228329,0.2504695,-0.0234135,-0.2350509999999999,0.0181185,-0.0696225,0.233429,0.0317945,-0.1044924999999999,-0.063118,-0.0007055,0.0006945,0.063118,0.0007055,-0.0006945,-0.128001,-0.4847105,-0.0231595,0.127319,-0.5678804999999999,-0.0266084999999999,-0.151991,-0.8411105,-0.0727325,0.141169,-0.8889904999999999,-0.1091625,0
78,-0.0536004999999999,0.726406,-0.094371,-0.2166515,0.500426,-0.028033,-0.2643915,0.237416,0.0016959999999999,0.1388484999999999,0.512036,-0.045491,0.2287985,0.250316,-0.024143,-0.2346615,0.018185,-0.069761,0.2342385,0.031861,-0.105881,-0.0631095,-0.000822,0.0006899999999999,0.0631095,0.0008219999999999,-0.00069,-0.1273615,-0.484104,-0.023265,0.1278285,-0.569184,-0.026591,-0.1527115,-0.8452339999999999,-0.0779509999999999,0.1412884999999999,-0.889044,-0.108651,0
79,-0.052874,0.7273845,-0.0929735,-0.216549,0.5002745,-0.0276865,-0.263809,0.2374145,0.0015064999999999,0.139301,0.5120945,-0.0457635,0.229431,0.2499345,-0.0252365,-0.234319,0.0182005,-0.0699435,0.234861,0.0318895,-0.1076635,-0.063122,-0.0009145,0.0007375,0.063122,0.0009145,-0.0007375,-0.126729,-0.4828355,-0.0234565,0.128191,-0.5691555,-0.0266355,-0.1537889999999999,-0.8498455,-0.0830935,0.141531,-0.8886155,-0.1081235,0
80,-0.0522894999999999,0.7286945,-0.091061,-0.2161745,0.5002345,-0.027172,-0.2633445,0.2373444999999999,0.0014769999999999,0.1398055,0.5121844999999999,-0.046041,0.2298855,0.2494845,-0.026539,-0.2339544999999999,0.0181165,-0.070081,0.2353155,0.0316685,-0.109581,-0.0631285,-0.0010005,0.0008179999999999,0.0631285,0.0010005,-0.0008179999999999,-0.1262145,-0.4817054999999999,-0.0236139999999999,0.1281255,-0.5686355000000001,-0.0267079999999999,-0.1550744999999999,-0.8540155,-0.0879409999999999,0.1420555,-0.8886355,-0.107641,0
81,-0.051809,0.7305525,-0.0884909999999999,-0.215774,0.5001825,-0.026577,-0.262944,0.2372825,0.001766,0.140196,0.5122425,-0.046241,0.230226,0.2491625,-0.0280099999999999,-0.233604,0.0180584999999999,-0.070081,0.235636,0.0314545,-0.1114709999999999,-0.063136,-0.0010625,0.000921,0.063136,0.0010625,-0.000921,-0.125834,-0.4805075,-0.023887,0.128156,-0.5686875,-0.0266409999999999,-0.155484,-0.8572575,-0.091751,0.142446,-0.8886974999999999,-0.107221,0
82,-0.0512325,0.7329325,-0.0850789999999999,-0.2154315,0.5001325,-0.025817,-0.2626015,0.2373525,0.002322,0.1404885,0.5122325,-0.046229,0.2305785,0.2488025,-0.029616,-0.2333315,0.0181515,-0.069849,0.2364284999999999,0.0312025,-0.113349,-0.0631505,-0.0010825,0.00096,0.0631505,0.0010825,-0.00096,-0.1255215,-0.4800375,-0.024093,0.1281785,-0.5685874999999999,-0.0265429999999999,-0.1562315,-0.8612175,-0.095949,0.1427285,-0.8887674999999999,-0.1066189999999999,0
83,-0.0502925,0.7357475,-0.0815175,-0.2151645,0.5001975000000001,-0.0252265,-0.2622744999999999,0.2375375,0.0028364999999999,0.1407455,0.5122275,-0.0461975,0.2311055,0.2487975,-0.0314575,-0.2331245,0.0183435,-0.0696475,0.2376154999999999,0.0310975,-0.1153575,-0.0631775,-0.0010875,0.0009865,0.0631775,0.0010875,-0.0009865,-0.1252444999999999,-0.4795425,-0.0243405,0.1282055,-0.5684025,-0.0266395,-0.1547545,-0.8599225,-0.0934975,0.1430455,-0.8889925,-0.1065675,0
84,-0.049191,0.7390605,-0.077571,-0.214941,0.5003905,-0.024935,-0.261951,0.2377805,0.0032929999999999,0.141119,0.5122304999999999,-0.046321,0.231849,0.2487805,-0.033121,-0.232961,0.0185945,-0.069471,0.238959,0.0310805,-0.116541,-0.063191,-0.0011045,0.0009909999999999,0.063191,0.0011045,-0.000991,-0.124891,-0.4793495,-0.024727,0.127969,-0.5665195000000001,-0.026762,-0.153231,-0.8575795,-0.090771,0.143309,-0.8896895,-0.106801,0
85,-0.0478505,0.742498,-0.0733559999999999,-0.2145555,0.500708,-0.0244289999999999,-0.2615155,0.237958,0.003945,0.1415944999999999,0.512138,-0.046456,0.2326645,0.248638,-0.033706,-0.2327555,0.018807,-0.0690759999999999,0.2401744999999999,0.030938,-0.116376,-0.0631875,-0.000996,0.001124,0.0631875,0.000996,-0.001124,-0.1244355,-0.479722,-0.0250709999999999,0.1278445,-0.564462,-0.0268769999999999,-0.1505855,-0.850622,-0.0832259999999999,0.1438245,-0.889832,-0.1063459999999999,0
86,-0.046504,0.7460965,-0.0682414999999999,-0.213936,0.5010565,-0.0231824999999999,-0.260946,0.2377065,0.0052175,0.142184,0.5119965,-0.0462615,0.2336339999999999,0.2480765,-0.0328914999999999,-0.232496,0.0185835,-0.0678915,0.241584,0.0305145,-0.1155815,-0.063115,-0.0008784999999999,0.0013935,0.063115,0.0008784999999999,-0.0013934999999999,-0.1237959999999999,-0.4804235,-0.0248084999999999,0.127824,-0.5621835,-0.0262704999999999,-0.148246,-0.8472135,-0.0770815,0.144684,-0.8904635,-0.1052714999999999,0
87,-0.045104,0.749542,-0.0626804999999999,-0.212993,0.501572,-0.0214914999999999,-0.260283,0.237282,0.0073985,0.143027,0.511972,-0.0458105,0.235307,0.247802,-0.0316204999999999,-0.232543,0.018157,-0.0656004999999999,0.243737,0.030119,-0.1143205,-0.063017,-0.0007369999999999,0.0016935,0.063017,0.000737,-0.0016935,-0.123003,-0.481348,-0.0241524999999999,0.127997,-0.560028,-0.0257445,-0.147463,-0.848138,-0.0757004999999999,0.1457169999999999,-0.891088,-0.1033104999999999,0
88,-0.0435385,0.7529089999999999,-0.0563685,-0.2117504999999999,0.5023989999999999,-0.0189565,-0.2593605,0.236809,0.0112034999999999,0.1441495,0.511919,-0.0449485,0.2379195,0.2479789999999999,-0.0297585,-0.2330305,0.01742,-0.0613684999999999,0.2475294999999999,0.029787,-0.1111585,-0.0628325,-0.0006529999999999,0.0022044999999999,0.0628325,0.0006529999999999,-0.0022045,-0.1219805,-0.483651,-0.0230365,0.1288595,-0.561311,-0.0245795,-0.1454804999999999,-0.846851,-0.0716185,0.1465995,-0.8916810000000001,-0.1003685,0
89,-0.0421005,0.755692,-0.0494239999999999,-0.2105985,0.503482,-0.01577,-0.2584785,0.236842,0.01731,0.1452415,0.511882,-0.043584,0.2409514999999999,0.248052,-0.027164,-0.2345684999999999,0.016936,-0.054294,0.2518715,0.02925,-0.105994,-0.0625855,-0.000561,0.002707,0.0625855,0.0005609999999999,-0.002707,-0.1210184999999999,-0.486478,-0.021674,0.1296215,-0.563048,-0.023044,-0.1443984999999999,-0.848238,-0.068784,0.1479215,-0.892898,-0.096774,0
90,-0.04072,0.7580925,-0.0422595,-0.209425,0.5047524999999999,-0.0121565,-0.257665,0.2366325,0.0244584999999999,0.146375,0.5120225,-0.0418595,0.244835,0.2483325,-0.0228695,-0.236515,0.0157995,-0.0458095,0.258175,0.0288264999999999,-0.0972795,-0.062343,-0.0003674999999999,0.0030724999999999,0.062343,0.0003675,-0.0030725,-0.120165,-0.4887575,-0.0198325,0.129875,-0.5615075,-0.0213595,-0.142475,-0.8473475,-0.0633895,0.149085,-0.8945975,-0.0928595,0
91,-0.0393975,0.7599645,-0.0348195,-0.2082095,0.5057845,-0.0085165,-0.2570894999999999,0.2352645,0.0326924999999999,0.1474405,0.5122245,-0.0396895,0.2491505,0.2483545,-0.0173595,-0.2394095,0.0134645,-0.0347795,0.2650305,0.0277765,-0.0867795,-0.0621174999999999,-0.0002454999999999,0.0034474999999999,0.0621174999999999,0.0002455,-0.0034475,-0.1194595,-0.4935355,-0.0176395,0.1303705,-0.5620955,-0.0193995,-0.1430995,-0.8534655,-0.0635695,0.1501005,-0.8970755,-0.0892595,0
92,-0.0380785,0.7618155,-0.026905,-0.2069754999999999,0.5063455,-0.004429,-0.2566855,0.2329254999999999,0.039524,0.1484745,0.5123355,-0.036955,0.2538145,0.2479755,-0.010977,-0.2431755,0.0110555,-0.0217949999999999,0.2730645,0.0258905,-0.074215,-0.0619055,-0.0001735,0.003775,0.0619055,0.0001735,-0.003775,-0.1186455,-0.4982545,-0.0150949999999999,0.1309445,-0.5628145,-0.0170349999999999,-0.1423654999999999,-0.8547144999999999,-0.057645,0.1511044999999999,-0.8994845,-0.0851649999999999,0
93,-0.0367505,0.763483,-0.0189595,-0.2057834999999999,0.506723,-3.5000000000035003e-06,-0.2567635,0.230583,0.0440294999999999,0.1494965,0.512443,-0.0338394999999999,0.2586064999999999,0.247393,-0.0057505,-0.2474434999999999,0.008639,-0.0131495,0.2818064999999999,0.0239899999999999,-0.0630195,-0.0617225,-0.000103,0.0039594999999999,0.0617225,0.0001029999999999,-0.0039595,-0.1178635,-0.500527,-0.0121995,0.1315465,-0.563667,-0.0145895,-0.1415535,-0.8565969999999999,-0.0522694999999999,0.1520465,-0.901817,-0.0807995,0
94,-0.0355265,0.7653535,-0.0110269999999999,-0.2046195,0.5071135,0.004255,-0.2573594999999999,0.2287135,0.048345,0.1504205,0.5125335,-0.0306969999999999,0.2633905,0.2472935,-0.0019049999999999,-0.2523395,0.0064735,-0.0086769999999999,0.2910205,0.0234194999999999,-0.0572069999999999,-0.0615524999999999,-0.0001104999999999,0.0040369999999999,0.0615524999999999,0.0001104999999999,-0.0040369999999999,-0.1172494999999999,-0.5025465,-0.0093169999999999,0.1320505,-0.5651465,-0.012227,-0.1388395,-0.8515165,-0.041367,0.1528605,-0.9044065,-0.0770169999999999,0
95,-0.0344654999999999,0.767078,-0.003846,-0.2035854999999999,0.507258,0.007439,-0.2586655,0.229398,0.052173,0.1511945,0.512728,-0.027906,0.2682045,0.248088,0.001587,-0.2581555,0.006207,-0.004696,0.3011745,0.023564,-0.0537659999999999,-0.0614605,-9.10000000000008e-05,0.003956,0.0614605,9.10000000000008e-05,-0.003956,-0.1168355,-0.504322,-0.007536,0.1322944999999999,-0.564592,-0.0101259999999999,-0.1366855,-0.852052,-0.035066,0.1534045,-0.906802,-0.073906,0
96,-0.033648,0.7687480000000001,0.0028999999999999,-0.202843,0.507098,0.0097909999999999,-0.261293,0.230628,0.0555719999999999,0.151747,0.5129680000000001,-0.02506,0.272787,0.248678,0.0046509999999999,-0.265303,0.0063779999999999,-0.00115,0.312107,0.023867,-0.05083,-0.0614679999999999,-0.000123,0.0037399999999999,0.0614679999999999,0.0001229999999999,-0.00374,-0.1167629999999999,-0.507672,-0.00543,0.132227,-0.565332,-0.00752,-0.134983,-0.853062,-0.02959,0.153557,-0.908912,-0.07149,0
97,-0.0328755,0.770421,0.008909,-0.2021025,0.506591,0.0112339999999999,-0.2648625,0.232251,0.055562,0.1522575,0.513351,-0.022425,0.2772675,0.248811,0.0069909999999999,-0.2731625,0.0071699999999999,0.000435,0.3240475,0.024355,-0.048595,-0.0614855,-9.600000000000232e-05,0.0032249999999999,0.0614855,9.599999999999886e-05,-0.003225,-0.1167725,-0.510819,-0.0038249999999999,0.1321475,-0.565179,-0.005375,-0.1348925,-0.854159,-0.0269449999999999,0.1537774999999999,-0.909699,-0.068465,0
98,-0.03214,0.772179,0.014352,-0.201429,0.505999,0.0116249999999999,-0.269989,0.2343589999999999,0.0499439999999999,0.152721,0.513809,-0.020575,0.282201,0.249479,0.0063949999999999,-0.281829,0.0089899999999999,-0.0054649999999999,0.337461,0.028144,-0.0508649999999999,-0.061506,-7.700000000000068e-05,0.0026349999999999,0.061506,7.700000000000068e-05,-0.0026349999999999,-0.116769,-0.513211,-0.002575,0.132211,-0.565761,-0.003585,-0.135129,-0.854751,-0.025075,0.1538709999999999,-0.909441,-0.065685,0
99,-0.031424,0.773707,0.019497,-0.200823,0.506017,0.011207,-0.2760829999999999,0.238337,0.041187,0.153147,0.514117,-0.0193399999999999,0.287457,0.2524369999999999,0.00255,-0.2923429999999999,0.0132369999999999,-0.02057,0.350457,0.036486,-0.0593299999999999,-0.06147,-7.899999999999921e-05,0.00214,0.06147,7.900000000000268e-05,-0.0021399999999999,-0.1168829999999999,-0.515253,-0.00132,0.132247,-0.565753,-0.00236,-0.136723,-0.858563,-0.02673,0.1538769999999999,-0.908573,-0.0635699999999999,0
100,-0.0309414999999999,0.775007,0.0245559999999999,-0.2004685,0.506067,0.01006,-0.2833385,0.246147,0.026879,0.1533614999999999,0.5144270000000001,-0.018485,0.2924515,0.259957,-0.005495,-0.3042784999999999,0.024979,-0.042685,0.3637715,0.051301,-0.075805,-0.0615305,-7.899999999999921e-05,0.001545,0.0615305,7.900000000000268e-05,-0.001545,-0.1173485,-0.517873,-0.000605,0.1318415,-0.564653,-0.001715,-0.1381685,-0.861923,-0.028645,0.1536415,-0.908253,-0.063085,0
101,-0.0303525,0.7760370000000001,0.0294829999999999,-0.2000285,0.5062270000000001,0.0087149999999999,-0.2909585,0.256487,0.0083249999999999,0.1536815,0.514757,-0.017585,0.2973915,0.270997,-0.015135,-0.3183385,0.043293,-0.073025,0.3770814999999999,0.0742009999999999,-0.097425,-0.0616775,-7.899999999999921e-05,0.0012149999999999,0.0616775,7.900000000000268e-05,-0.001215,-0.1176585,-0.520353,-0.000255,0.1315415,-0.564013,-0.001365,-0.1398385,-0.863543,-0.031435,0.1534015,-0.907803,-0.062745,0
102,-0.0297725,0.7768315,0.0343649999999999,-0.1994695,0.5057815,0.00723,-0.2994495,0.2683915,-0.0132899999999999,0.1539705,0.5152715,-0.0163099999999999,0.3027605,0.2854115,-0.02839,-0.3349795,0.0688265,-0.10985,0.3909405,0.1036315,-0.12611,-0.0618325,-0.0001614999999999,0.0011699999999999,0.0618325,0.0001615,-0.00117,-0.1181495,-0.5242985,-0.0001499999999999,0.1312905,-0.5632985,-0.00131,-0.1417095,-0.8659385,-0.0347,0.1531205,-0.9073685,-0.06268,0
103,-0.0291724999999999,0.7773639999999999,0.039246,-0.1988665,0.505644,0.006205,-0.3089865,0.283304,-0.037645,0.1543235,0.5157539999999999,-0.014575,0.3091935,0.302954,-0.0439149999999999,-0.3527665,0.1014839999999999,-0.1525749999999999,0.4051134999999999,0.140794,-0.159345,-0.0619964999999999,-0.000299,0.0011749999999999,0.0619964999999999,0.0002989999999999,-0.0011749999999999,-0.1184965,-0.525066,-0.000585,0.1309935,-0.561976,-0.0012049999999999,-0.1437765,-0.869586,-0.037645,0.1527435,-0.907456,-0.0637549999999999,0
104,-0.028638,0.777694,0.043982,-0.1981709999999999,0.505644,0.00565,-0.319371,0.3021939999999999,-0.06007,0.154769,0.5163639999999999,-0.0125399999999999,0.3175389999999999,0.3255139999999999,-0.0617699999999999,-0.371741,0.143694,-0.19856,0.420969,0.185154,-0.1979099999999999,-0.0621769999999999,-0.000299,0.00096,0.0621769999999999,0.0002989999999999,-0.00096,-0.118911,-0.526196,-0.00093,0.130649,-0.560636,-0.00121,-0.1458809999999999,-0.871706,-0.0406799999999999,0.152199,-0.906986,-0.0639599999999999,0
105,-0.0281604999999999,0.7780239999999999,0.04825,-0.1975385,0.505644,0.00523,-0.3295685,0.326354,-0.08109,0.1553615,0.517444,-0.0102099999999999,0.3257515,0.3533139999999999,-0.07774,-0.3912084999999999,0.194584,-0.2402699999999999,0.4352815,0.240604,-0.2339299999999999,-0.0623264999999999,-0.000299,0.00056,0.0623264999999999,0.0002989999999999,-0.0005599999999999,-0.1193485,-0.527086,-0.0012399999999999,0.1302715,-0.562076,-0.0012599999999999,-0.1455685,-0.871706,-0.0402099999999999,0.1516915,-0.906076,-0.06422,0
106,-0.0276349999999999,0.77826,0.0518469999999999,-0.196695,0.50562,0.0044699999999999,-0.3397949999999999,0.35674,-0.09964,0.156145,0.51906,-0.00793,0.333435,0.38484,-0.09282,-0.4094549999999999,0.25431,-0.27481,0.446465,0.30531,-0.26222,-0.0624519999999999,-0.000323,0.0001099999999999,0.0624519999999999,0.000323,-0.00011,-0.119555,-0.52364,-0.00192,0.129875,-0.56016,-0.0016,-0.144605,-0.8679100000000001,-0.03801,0.151125,-0.90443,-0.06402,0
107,-0.0270029999999999,0.77837,0.054835,-0.195693,0.50632,0.0033549999999999,-0.349363,0.38761,-0.112895,0.157047,0.5212600000000001,-0.005515,0.340437,0.42033,-0.105275,-0.427863,0.32126,-0.2997649999999999,0.455427,0.37346,-0.283105,-0.062522,-0.0003659999999999,-0.0003049999999999,0.062522,0.000366,0.0003049999999999,-0.119973,-0.52374,-0.0021449999999999,0.129387,-0.5576,-0.002155,-0.143413,-0.86407,-0.0351849999999999,0.150527,-0.90285,-0.063955,0
108,-0.0265225,0.777946,0.057099,-0.1947535,0.507226,0.002,-0.3605035,0.421876,-0.12293,0.1581265,0.523956,-0.00322,0.3470165,0.455806,-0.11343,-0.4449835,0.394646,-0.31341,0.4617265,0.445106,-0.29572,-0.0625175,-0.0003079999999999,-0.00064,0.0625175,0.0003079999999999,0.00064,-0.1207235,-0.524444,-0.00313,0.1287365,-0.555494,-0.0027599999999999,-0.1424735,-0.859874,-0.0321599999999999,0.1497565,-0.901664,-0.06404,0
109,-0.0259464999999999,0.777492,0.058426,-0.1937465,0.508472,0.0007849999999999,-0.3705465,0.457492,-0.127135,0.1592835,0.526732,-0.001325,0.3555335,0.4916819999999999,-0.118695,-0.4603365,0.466902,-0.318265,0.4665535,0.515522,-0.300485,-0.0624674999999999,-0.0001959999999999,-0.000865,0.0624674999999999,0.000196,0.0008649999999999,-0.1214765,-0.525328,-0.0043149999999999,0.1282435,-0.5550080000000001,-0.003435,-0.1429365,-0.860448,-0.0327949999999999,0.1489235,-0.901288,-0.063895,0
110,-0.0253405,0.7765525000000001,0.058954,-0.1926555,0.5101625000000001,-0.0002849999999999,-0.3810854999999999,0.4899324999999999,-0.1279549999999999,0.1607045,0.5297225,0.0002049999999999,0.3639845,0.5251325,-0.123025,-0.4737055,0.5374725,-0.318995,0.4694645,0.5838925,-0.3017649999999999,-0.0623155,-0.0001104999999999,-0.0010249999999999,0.0623155,0.0001104999999999,0.0010249999999999,-0.1222055,-0.5266875,-0.0053949999999999,0.1277945,-0.5585074999999999,-0.0042949999999999,-0.1436255,-0.8575575,-0.0322649999999999,0.1481444999999999,-0.9014875,-0.0640949999999999,0
111,-0.0247375,0.7753395,0.058871,-0.1917164999999999,0.5121694999999999,-0.00106,-0.3914165,0.5222095,-0.12868,0.1623635,0.5326095,0.00131,0.3701135,0.5562895,-0.1243,-0.4844665,0.6044895,-0.3197,0.4704835,0.6481595,-0.30287,-0.0621135,8.74999999999973e-05,-0.0011099999999999,0.0621135,-8.750000000000077e-05,0.0011099999999999,-0.1225565,-0.5273105,-0.0064099999999999,0.1273935,-0.5607405,-0.00507,-0.1442465,-0.8549605,-0.03194,0.1474035,-0.9021005,-0.06422,0
112,-0.0239974999999999,0.7744030000000001,0.058341,-0.1909134999999999,0.514193,-0.0016349999999999,-0.3983135,0.552853,-0.129335,0.1639565,0.535413,0.002125,0.3749464999999999,0.5865530000000001,-0.125365,-0.4939935,0.6671330000000001,-0.320265,0.4698965,0.709963,-0.303745,-0.0618775,0.000278,-0.001115,0.0618775,-0.000278,0.001115,-0.1228635,-0.5286569999999999,-0.007265,0.1272365,-0.5634969999999999,-0.005585,-0.1433935,-0.8517469999999999,-0.029175,0.1466465,-0.903857,-0.064385,0
113,-0.0230075,0.773516,0.057557,-0.1903415,0.516356,-0.0021699999999999,-0.4036415,0.580716,-0.1298,0.1655885,0.537896,0.002543,0.3776185,0.613336,-0.1261999999999999,-0.5015315,0.722066,-0.31651,0.4695185,0.7669360000000001,-0.30166,-0.0616185,0.000493,-0.0010899999999999,0.0616185,-0.000493,0.00109,-0.1230614999999999,-0.530574,-0.0079999999999999,0.1269585,-0.564094,-0.0061699999999999,-0.1435914999999999,-0.853764,-0.0299199999999999,0.1459885,-0.905874,-0.0648899999999999,0
114,-0.021898,0.7725974999999999,0.0568989999999999,-0.189838,0.5186775,-0.002595,-0.407828,0.6050774999999999,-0.126665,0.167212,0.5401575,0.0026079999999999,0.379962,0.6365075,-0.124325,-0.506618,0.7709675,-0.303905,0.469412,0.8149675,-0.292665,-0.061365,0.0007745,-0.001035,0.061365,-0.0007744999999999,0.0010349999999999,-0.123358,-0.5308625,-0.009015,0.126782,-0.5662225,-0.006605,-0.142738,-0.8518625,-0.028125,0.145332,-0.9080425,-0.065485,0
115,-0.020892,0.7717390000000001,0.0564359999999999,-0.189631,0.521049,-0.0028,-0.410811,0.626129,-0.11852,0.168709,0.541839,0.0025889999999999,0.382329,0.657419,-0.12023,-0.508721,0.814559,-0.2846,0.469469,0.855279,-0.27736,-0.061091,0.001159,-0.00091,0.061091,-0.001159,0.0009099999999999,-0.123541,-0.531521,-0.00949,0.126819,-0.569981,-0.00687,-0.142231,-0.8500409999999999,-0.02635,0.144789,-0.910431,-0.06589,0
116,-0.0198875,0.7710275,0.0558125,-0.1896795,0.5231175,-0.0028654999999999,-0.4128895,0.6452575,-0.1090155,0.1700205,0.5428975,0.0023545,0.3844905,0.6746675,-0.1134255,-0.5092495,0.8517375,-0.2618155,0.4659304999999999,0.8895175000000001,-0.2562655,-0.0608405,0.0014704999999999,-0.0007754999999999,0.0608405,-0.0014704999999999,0.0007754999999999,-0.1236695,-0.5321525,-0.0098054999999999,0.1270005,-0.5742125,-0.0070254999999999,-0.1412995,-0.8476024999999999,-0.0233454999999999,0.1444704999999999,-0.9129725,-0.0666454999999999,0
117,-0.0187575,0.7706379999999999,0.0550485,-0.1896864999999999,0.525178,-0.0027205,-0.4126865,0.660068,-0.0989004999999999,0.1710435,0.5431279999999999,0.0023115,0.3859335,0.6905979999999999,-0.1062705,-0.5085265,0.8758279999999999,-0.2361305,0.4624235,0.916618,-0.2337205,-0.0606935,0.001633,-0.0007204999999999,0.0606935,-0.0016329999999999,0.0007204999999999,-0.1236765,-0.532782,-0.0099004999999999,0.1272535,-0.577932,-0.0070905,-0.1414465,-0.848292,-0.0231104999999999,0.1442235,-0.915542,-0.0677304999999999,0
118,-0.017806,0.770124,0.0540205,-0.189763,0.5268539999999999,-0.0024305,-0.412473,0.669234,-0.0885105,0.171817,0.543064,0.0022945,0.386427,0.702094,-0.0987904999999999,-0.507683,0.893284,-0.2081005,0.459057,0.940044,-0.2110505,-0.060577,0.001759,-0.0007204999999999,0.060577,-0.0017589999999999,0.0007204999999999,-0.123693,-0.533116,-0.0099105,0.127137,-0.579406,-0.0070905,-0.141543,-0.847996,-0.0225905,0.1440669999999999,-0.916766,-0.0677205,0
119,-0.0169845,0.770063,0.0528104999999999,-0.1898195,0.5280830000000001,-0.0020755,-0.4121895,0.6776730000000001,-0.0778055,0.1722605,0.542633,0.0022824999999999,0.3869205,0.7125130000000001,-0.0911055,-0.5068695,0.904753,-0.1820555,0.4557405,0.957353,-0.1896055,-0.0605105,0.0018889999999999,-0.0007255,0.0605105,-0.001889,0.0007254999999999,-0.1236795,-0.533017,-0.0099055,0.1272605,-0.582757,-0.0070955,-0.1416095,-0.847977,-0.0224655,0.1439705,-0.918937,-0.0686055,0
120,-0.0161034999999999,0.7703095,0.05153,-0.1898085,0.5290095,-0.001641,-0.4114285,0.6837795,-0.067701,0.1724615,0.5423595,0.001987,0.3871815,0.7212395,-0.085071,-0.5039885,0.9122095,-0.1575309999999999,0.4533515,0.9719695,-0.170611,-0.0604385,0.0019525,-0.000641,0.0604385,-0.0019524999999999,0.000641,-0.1236285,-0.5326905,-0.009931,0.1270415,-0.5826505,-0.007431,-0.1416585,-0.8482505,-0.022641,0.1439015,-0.9206405,-0.069301,0
121,-0.0153915,0.7702264999999999,0.050471,-0.1898585,0.5301665,-0.0010349999999999,-0.4107085,0.6880265,-0.059115,0.1727515,0.5421665,0.0017159999999999,0.3862015,0.7275765,-0.078905,-0.5019985,0.9223365,-0.136575,0.4512415,0.9813365,-0.1529849999999999,-0.0603584999999999,0.0019855,-0.0005349999999999,0.0603584999999999,-0.0019855,0.0005349999999999,-0.1235285,-0.5324335,-0.010105,0.1270015,-0.5823235,-0.007855,-0.1420285,-0.8490635000000001,-0.022995,0.1438915,-0.9223035,-0.070115,0
122,-0.014924,0.770225,0.0496569999999999,-0.190076,0.5307550000000001,-0.00023,-0.409016,0.691045,-0.05129,0.172824,0.5421250000000001,0.0016849999999999,0.3849539999999999,0.732425,-0.07274,-0.497966,0.924365,-0.1181,0.449804,0.988295,-0.13752,-0.0603,0.001962,-0.00044,0.0603,-0.0019619999999999,0.0004399999999999,-0.123436,-0.531835,-0.01028,0.126964,-0.5823649999999999,-0.00826,-0.142386,-0.8499049999999999,-0.02329,0.144054,-0.923885,-0.07096,0
123,-0.014585,0.7702685,0.049082,-0.190298,0.5308685000000001,0.00067,-0.406408,0.6929085,-0.04452,0.172832,0.5418285,0.001798,0.3848919999999999,0.7357785,-0.06958,-0.493858,0.9244085,-0.10293,0.4485619999999999,0.9931885,-0.12487,-0.0602609999999999,0.0019604999999999,-0.00035,0.0602609999999999,-0.0019605,0.00035,-0.123378,-0.5310315,-0.0103499999999999,0.127252,-0.5851215,-0.0081299999999999,-0.142728,-0.8512514999999999,-0.0235599999999999,0.144192,-0.9253315,-0.07161,0
124,-0.014313,0.7703384999999999,0.0486859999999999,-0.190479,0.5309185,0.001709,-0.405959,0.6928985,-0.04023,0.172841,0.5415985,0.0019629999999999,0.384841,0.7379285,-0.06657,-0.489929,0.9244085,-0.09042,0.447661,0.9970785,-0.11479,-0.060231,0.0019524999999999,-0.0002199999999999,0.060231,-0.0019525,0.0002199999999999,-0.123329,-0.5306015000000001,-0.0103,0.127581,-0.5875715,-0.0078,-0.143059,-0.8517115000000001,-0.02326,0.144391,-0.9262315,-0.07215,0
125,-0.014179,0.7703275,0.0485469999999999,-0.19065,0.5310775,0.0027199999999999,-0.40568,0.6928275,-0.03625,0.1728599999999999,0.5409875000000001,0.0022259999999999,0.38476,0.7393375,-0.06379,-0.4872599999999999,0.9315175,-0.0805,0.447,1.0000075,-0.10646,-0.060196,0.0019144999999999,-8.000000000001062e-05,0.060196,-0.0019144999999999,7.999999999999674e-05,-0.12329,-0.5306225,-0.01021,0.1273,-0.5864024999999999,-0.0077,-0.1432,-0.8517325,-0.02272,0.14468,-0.9267725,-0.07219,0
126,-0.014163,0.7704115,0.048658,-0.1908639999999999,0.5312715,0.0037029999999999,-0.405554,0.6929415,-0.03276,0.172726,0.5401615,0.002502,0.3848459999999999,0.7405615,-0.06136,-0.484554,0.9396315,-0.07361,0.446486,1.0025215,-0.10031,-0.060166,0.0018205,6.0000000000004494e-05,0.060166,-0.0018205,-6.0000000000004494e-05,-0.123224,-0.5300785,-0.01022,0.126906,-0.5842985,-0.00765,-0.143184,-0.8512985000000001,-0.02216,0.144986,-0.9268885,-0.07186,0
127,-0.0141605,0.770522,0.048787,-0.1910355,0.5317120000000001,0.004505,-0.4054755,0.693002,-0.0303849999999999,0.1726245,0.5401020000000001,0.002732,0.3849045,0.741282,-0.059445,-0.4835755,0.942242,-0.070995,0.4463245,1.003392,-0.0968149999999999,-0.0601605,0.001697,0.000175,0.0601605,-0.0016969999999999,-0.0001749999999999,-0.1231555,-0.529918,-0.0099949999999999,0.1265645,-0.582178,-0.0076749999999999,-0.1433555,-0.8515079999999999,-0.0216349999999999,0.1452345,-0.926788,-0.071545,0
128,-0.0141545,0.77062,0.048948,-0.1911745,0.53179,0.0051719999999999,-0.4054145,0.6928,-0.0286349999999999,0.1724955,0.54006,0.0029689999999999,0.3849055,0.74202,-0.057815,-0.4833045,0.94436,-0.069865,0.4460755,1.00429,-0.094005,-0.0601565,0.0015639999999999,0.0002849999999999,0.0601565,-0.001564,-0.000285,-0.1231045,-0.52976,-0.009765,0.1266054999999999,-0.5832900000000001,-0.007495,-0.1435445,-0.85131,-0.021515,0.1455354999999999,-0.92699,-0.071815,0
129,-0.0141505,0.77062,0.049096,-0.1913145,0.5318999999999999,0.005696,-0.4053645,0.69219,-0.0273299999999999,0.1723555,0.53981,0.003176,0.3848355,0.7424999999999999,-0.0567199999999999,-0.4831645,0.94514,-0.0695799999999999,0.4457655,1.00489,-0.0921999999999999,-0.0601525,0.0015639999999999,0.00041,0.0601525,-0.001564,-0.0004099999999999,-0.1230245,-0.5303,-0.0094799999999999,0.1264255,-0.58335,-0.0073299999999999,-0.1436645,-0.8499300000000001,-0.0206499999999999,0.1457555,-0.92743,-0.0717199999999999,0
130,-0.0141834999999999,0.77062,0.0492939999999999,-0.1915545,0.5318999999999999,0.0061559999999999,-0.4054645,0.6916599999999999,-0.02652,0.1723155,0.53981,0.0033749999999999,0.3846155,0.7429199999999999,-0.0558,-0.4829745,0.95062,-0.06927,0.4453054999999999,1.00509,-0.09149,-0.0601525,0.0015639999999999,0.0005499999999999,0.0601525,-0.001564,-0.00055,-0.1229845,-0.53001,-0.00925,0.1263155,-0.58331,-0.00706,-0.1437445,-0.8485,-0.01985,0.1459655,-0.9277,-0.07137,0
131,-0.0142255,0.77062,0.049442,-0.1917465,0.5318999999999999,0.006456,-0.4055165,0.6913699999999999,-0.02626,0.1723235,0.53981,0.0035199999999999,0.3843535,0.7433099999999999,-0.05515,-0.4827165,0.95062,-0.06902,0.4448135,1.00539,-0.0911299999999999,-0.0601504999999999,0.0015639999999999,0.00068,0.0601504999999999,-0.001564,-0.00068,-0.1229265,-0.5289200000000001,-0.0092,0.1262135,-0.5832,-0.00683,-0.1438164999999999,-0.8482500000000001,-0.01965,0.1459635,-0.92826,-0.0715899999999999,1
132,-0.0144105,0.770559,0.049338,-0.1921155,0.532149,0.006588,-0.4056155,0.691159,-0.0261299999999999,0.1723145,0.540069,0.00353,0.3841245,0.743529,-0.05473,-0.4838755,0.957949,-0.07024,0.4442545,1.005409,-0.091,-0.0601435,0.001479,0.0008,0.0601435,-0.001479,-0.0007999999999999,-0.1229355,-0.527661,-0.0093199999999999,0.1261644999999999,-0.582801,-0.0067799999999999,-0.1439055,-0.8474010000000001,-0.0193799999999999,0.1459945,-0.928441,-0.0715099999999999,1
133,-0.0146234999999999,0.7703145,0.048968,-0.1923995,0.5324345,0.006598,-0.4056995,0.6907945,-0.0261299999999999,0.1722105,0.5404445,0.00331,0.3837905,0.7434645,-0.0547199999999999,-0.4849895,0.9651445,-0.07183,0.4436605,1.0053445,-0.0909799999999999,-0.0601574999999999,0.0013955,0.0008,0.0601574999999999,-0.0013954999999999,-0.0007999999999999,-0.1229895,-0.5280255,-0.0091899999999999,0.1263205,-0.5842155,-0.0064899999999999,-0.1438595,-0.8472555,-0.0193299999999999,0.1460205,-0.9286155,-0.0716699999999999,1
134,-0.0148394999999999,0.769966,0.048518,-0.1926594999999999,0.532826,0.006605,-0.4057894999999999,0.690306,-0.0262399999999999,0.1721205,0.540986,0.003,0.3835005,0.743236,-0.0547099999999999,-0.4860095,0.972456,-0.0738,0.4430405,1.005056,-0.09095,-0.0601574999999999,0.0012899999999999,0.0008,0.0601574999999999,-0.0012899999999999,-0.0007999999999999,-0.1229994999999999,-0.527514,-0.0092099999999999,0.1262205,-0.583824,-0.0063899999999999,-0.1439495,-0.847844,-0.0200299999999999,0.1460105,-0.928934,-0.0718,1
135,-0.0150544999999999,0.769568,0.047789,-0.1928794999999999,0.533288,0.006407,-0.4059395,0.6897679999999999,-0.0268899999999999,0.1720505,0.5416179999999999,0.00248,0.3832305,0.7429079999999999,-0.0547,-0.4869395,0.979818,-0.07615,0.4424504999999999,1.004718,-0.0910099999999999,-0.0601465,0.001189,0.0008,0.0601465,-0.0011889999999999,-0.0007999999999999,-0.1230294999999999,-0.526502,-0.0092699999999999,0.1261805,-0.5838620000000001,-0.0063899999999999,-0.1441395,-0.847472,-0.0200199999999999,0.1460505,-0.929032,-0.07119,1
136,-0.0152645,0.768978,0.046581,-0.1932085,0.533338,0.005677,-0.4060985,0.689218,-0.028055,0.1718915,0.541528,0.001805,0.3829615,0.742598,-0.0547949999999999,-0.4866385,0.979208,-0.0791849999999999,0.4418815,1.004508,-0.091545,-0.0601405,0.001125,0.000805,0.0601405,-0.001125,-0.000805,-0.1230885,-0.526682,-0.009465,0.1261914999999999,-0.586102,-0.006445,-0.1442685,-0.848582,-0.020335,0.1460815,-0.929622,-0.070635,1
137,-0.0154834999999999,0.7679455000000001,0.044784,-0.1935115,0.5336955,0.0043549999999999,-0.4062915,0.6883555,-0.0298,0.1717385,0.5414255,0.00089,0.3826885,0.7419155000000001,-0.05524,-0.4866815,0.9786755,-0.0818,0.4413384999999999,1.0040755,-0.09244,-0.0601545,0.0010215,0.00082,0.0601545,-0.0010215,-0.00082,-0.1231314999999999,-0.5276645,-0.0096799999999999,0.1262285,-0.5871345,-0.0066599999999999,-0.1444615,-0.8496144999999999,-0.02054,0.1459985,-0.9304345,-0.0707199999999999,1
138,-0.0156985,0.7672460000000001,0.0423009999999999,-0.1937035,0.5333960000000001,0.0023549999999999,-0.4065035,0.687566,-0.032415,0.1716165,0.5411760000000001,-0.000445,0.3824865,0.7412160000000001,-0.056385,-0.4866335,0.977976,-0.085105,0.4408765,1.003576,-0.093835,-0.0602045,0.0009479999999999,0.0008449999999999,0.0602045,-0.0009479999999999,-0.0008449999999999,-0.1231235,-0.526944,-0.010365,0.1260965,-0.585954,-0.007455,-0.1447435,-0.8503139999999999,-0.021575,0.1459165,-0.930214,-0.0704149999999999,1
139,-0.015995,0.7672460000000001,0.038485,-0.1937499999999999,0.5333960000000001,-0.00042,-0.40675,0.687486,-0.03601,0.17153,0.5411760000000001,-0.0031899999999999,0.38238,0.7412160000000001,-0.0583,-0.48654,0.977976,-0.08961,0.44049,1.003576,-0.0958099999999999,-0.0602189999999999,0.0009479999999999,0.0008699999999999,0.0602189999999999,-0.0009479999999999,-0.0008699999999999,-0.12316,-0.5250739999999999,-0.01199,0.12595,-0.5844339999999999,-0.0093499999999999,-0.14515,-0.851564,-0.02364,0.14586,-0.929684,-0.07146,1
140,-0.0162794999999999,0.7672460000000001,0.033624,-0.1936615,0.5333960000000001,-0.004102,-0.4068915,0.687396,-0.0406519999999999,0.1714285,0.5411760000000001,-0.0063119999999999,0.3823785,0.7412160000000001,-0.061122,-0.4856415,0.977876,-0.094902,0.4401485,1.003576,-0.098472,-0.0603135,0.0009479999999999,0.0009219999999999,0.0603135,-0.0009479999999999,-0.000922,-0.1231714999999999,-0.5241439999999999,-0.0145819999999999,0.1260985,-0.584194,-0.014362,-0.1457115,-0.854174,-0.026622,0.1459585,-0.929074,-0.072912,1
141,-0.0164835,0.765946,0.027031,-0.1933265,0.5333960000000001,-0.0090449999999999,-0.4069965,0.6866960000000001,-0.0469749999999999,0.1713935,0.5411760000000001,-0.010065,0.3824835,0.7404660000000001,-0.0657049999999999,-0.4842865,0.977576,-0.101685,0.4398435,1.003576,-0.102365,-0.0604635,0.0009479999999999,0.001004,0.0604635,-0.0009479999999999,-0.001004,-0.1231565,-0.5241439999999999,-0.018725,0.1266635,-0.584004,-0.0205749999999999,-0.1460665,-0.856514,-0.030195,0.1462435,-0.928354,-0.0749249999999999,1
142,-0.016916,0.763702,0.0188894999999999,-0.193288,0.5331720000000001,-0.0150745,-0.407088,0.6852520000000001,-0.0550144999999999,0.171112,0.540552,-0.0149845,0.382192,0.7377520000000001,-0.0722245,-0.483178,0.972792,-0.1111745,0.439172,1.003492,-0.1079345,-0.060686,0.000904,0.0012094999999999,0.060686,-0.000904,-0.0012095,-0.123808,-0.522218,-0.0255645,0.1271119999999999,-0.5846779999999999,-0.0291445,-0.146588,-0.858868,-0.0351145,0.1464819999999999,-0.927688,-0.0782845,1
143,-0.0174335,0.7600675,0.00936,-0.1932875,0.5325975,-0.0217109999999999,-0.4074375,0.6824375,-0.064391,0.1708625,0.5398875,-0.0215609999999999,0.3816925,0.7340075,-0.0799709999999999,-0.4810875,0.9648075,-0.121151,0.4382125,1.0038075000000002,-0.1147209999999999,-0.0608705,0.0007735,0.001451,0.0608705,-0.0007734999999999,-0.0014509999999999,-0.1250875,-0.5200325,-0.0344009999999999,0.1271825,-0.5800525,-0.0405309999999999,-0.1472975,-0.8619625,-0.0414009999999999,0.1468324999999999,-0.9257125,-0.081591,1
144,-0.0182529999999999,0.755027,-0.0012444999999999,-0.193779,0.531737,-0.0288014999999999,-0.4081189999999999,0.678977,-0.0747114999999999,0.1703309999999999,0.539667,-0.0287214999999999,0.380601,0.728657,-0.0892715,-0.479419,0.953887,-0.1320214999999999,0.435881,1.002257,-0.1237514999999999,-0.060864,0.0006089999999999,0.0017174999999999,0.060864,-0.0006089999999999,-0.0017174999999999,-0.127759,-0.516973,-0.0451914999999999,0.1267309999999999,-0.574573,-0.0537014999999999,-0.148589,-0.864343,-0.0481115,0.1467109999999999,-0.923863,-0.0855414999999999,1
145,-0.019121,0.750024,-0.0123205,-0.194593,0.528554,-0.0377225,-0.408843,0.674504,-0.0860525,0.169407,0.5358639999999999,-0.0399125,0.379437,0.7242139999999999,-0.0997325,-0.477523,0.944114,-0.1430925,0.432697,0.996174,-0.1343125,-0.06085,0.0004139999999999,0.0021334999999999,0.06085,-0.000414,-0.0021335,-0.130843,-0.511246,-0.0568724999999999,0.126337,-0.5658160000000001,-0.0678725,-0.149853,-0.864266,-0.0551225,0.146547,-0.919876,-0.0900525,1
146,-0.0199654999999999,0.7443805,-0.0234019999999999,-0.1954425,0.5261605,-0.046322,-0.4094425,0.6698305,-0.0972319999999999,0.1684275,0.5323005000000001,-0.051012,0.3782474999999999,0.7172105000000001,-0.1107519999999999,-0.4753325,0.9322505,-0.154322,0.4294874999999999,0.9908505,-0.144922,-0.0608465,0.0004574999999999,0.002639,0.0608465,-0.0004574999999999,-0.0026389999999999,-0.1343725,-0.5047794999999999,-0.069692,0.1258675,-0.5538795,-0.0848519999999999,-0.1511025,-0.8629295,-0.061442,0.1464675,-0.9142995,-0.0937419999999999,1
147,-0.0206805,0.7389159999999999,-0.0348925,-0.1964034999999999,0.521876,-0.0553925,-0.4102235,0.6642859999999999,-0.1083625,0.1676865,0.529196,-0.0622025,0.3768765,0.7110559999999999,-0.1219624999999999,-0.4730235,0.922676,-0.1651925,0.4258165,0.982896,-0.1571024999999999,-0.0609684999999999,0.000265,0.0030934999999999,0.0609684999999999,-0.0002649999999999,-0.0030934999999999,-0.1381635,-0.4966339999999999,-0.0829925,0.1253665,-0.540684,-0.1014524999999999,-0.1523334999999999,-0.8589640000000001,-0.0672825,0.1462465,-0.905364,-0.0977225,1
148,-0.021474,0.7319745,-0.0460005,-0.197447,0.5186545,-0.0634705,-0.411287,0.6574445,-0.1190305,0.166683,0.5257245,-0.0726405,0.375243,0.7042645,-0.1336705,-0.471077,0.9086445,-0.1764405,0.421923,0.9757945,-0.1685005,-0.061034,0.0002395,0.0035805,0.061034,-0.0002395,-0.0035805,-0.142297,-0.4872155,-0.0960205,0.125333,-0.5271755,-0.1176904999999999,-0.153557,-0.8518655,-0.0726504999999999,0.145803,-0.8963155,-0.1013505,1
149,-0.0223995,0.725926,-0.0574939999999999,-0.1986875,0.513586,-0.072804,-0.4124575,0.651536,-0.130184,0.1657325,0.521956,-0.084764,0.3734025,0.696556,-0.146314,-0.4694574999999999,0.896206,-0.188194,0.4174425,0.965686,-0.181984,-0.0606955,9.900000000000002e-05,0.0039819999999999,0.0606955,-9.900000000000002e-05,-0.0039819999999999,-0.1473475,-0.475714,-0.111064,0.1257525,-0.5126740000000001,-0.132554,-0.1548075,-0.841724,-0.0780339999999999,0.1451625,-0.884654,-0.105404,1
150,-0.023144,0.7202595,-0.0680944999999999,-0.199339,0.5094995,-0.0815345,-0.413559,0.6465295000000001,-0.1403845,0.164591,0.5189595,-0.0965345,0.371761,0.6905995,-0.1581044999999999,-0.467829,0.8859395000000001,-0.1991345,0.413131,0.9573295,-0.1944345,-0.059936,-5.349999999999973e-05,0.0043875,0.059936,5.349999999999973e-05,-0.0043875,-0.152929,-0.4600105,-0.1263945,0.126981,-0.4925305,-0.1472345,-0.155959,-0.8296005,-0.0830244999999999,0.144871,-0.8700205,-0.1105545,1
151,-0.023982,0.7146945,-0.07786,-0.199947,0.5049045,-0.08999,-0.414957,0.6421445,-0.15012,0.163403,0.5150445,-0.10791,0.370093,0.6834845,-0.16932,-0.466257,0.8805845000000001,-0.20861,0.408473,0.9487845,-0.20648,-0.059103,-0.0002064999999999,0.004665,0.059103,0.0002064999999999,-0.004665,-0.158327,-0.4424455,-0.1407,0.128953,-0.4710055,-0.16201,-0.157187,-0.8155155,-0.08749,0.144693,-0.8532654999999999,-0.11423,1
152,-0.0253764999999999,0.7132335000000001,-0.092453,-0.2011534999999999,0.5034035,-0.1039529999999999,-0.4172535,0.6411235000000001,-0.1650329999999999,0.1615365,0.5152035,-0.123283,0.3677765,0.6820735,-0.185533,-0.4662435,0.8827635,-0.224013,0.4030365,0.9433735,-0.2240329999999999,-0.0582935,-0.0005215,0.0047239999999999,0.0582935,0.0005215,-0.0047239999999999,-0.1641535,-0.4204565,-0.160623,0.1302265,-0.4475665,-0.182623,-0.1588835,-0.7954064999999999,-0.096493,0.1442665,-0.8324165,-0.1239029999999999,1
153,-0.0268025,0.713683,-0.1070025,-0.2022285,0.504583,-0.1194425,-0.4192285,0.6455529999999999,-0.1806325,0.1595414999999999,0.516213,-0.1401724999999999,0.3650215,0.683943,-0.2028424999999999,-0.4659685,0.890203,-0.2416324999999999,0.3980215,0.943503,-0.2417725,-0.0574575,-0.00066,0.0046054999999999,0.0574575,0.0006599999999999,-0.0046055,-0.1719385,-0.393987,-0.1887925,0.1321915,-0.418047,-0.2114424999999999,-0.1634185,-0.770727,-0.1132625,0.1446915,-0.806377,-0.1422525,1
154,-0.0281765,0.71349,-0.121371,-0.2029845,0.50524,-0.133551,-0.4208345,0.6488499999999999,-0.196191,0.1574555,0.52013,-0.153381,0.3619155,0.68443,-0.219351,-0.4659445,0.8968299999999999,-0.259301,0.3934255,0.94812,-0.2585309999999999,-0.0568005,-0.0008299999999999,0.004586,0.0568005,0.0008299999999999,-0.004586,-0.1796845,-0.36895,-0.216931,0.1339354999999999,-0.38916,-0.240001,-0.1683245,-0.74734,-0.130401,0.1450354999999999,-0.7807200000000001,-0.160791,1
155,-0.029632,0.7137800000000001,-0.1364975,-0.2039409999999999,0.5045599999999999,-0.1477175,-0.422861,0.6508099999999999,-0.2123075,0.1553589999999999,0.52287,-0.1668575,0.358709,0.6855100000000001,-0.2359075,-0.466211,0.90001,-0.2777975,0.388629,0.95126,-0.2762075,-0.05619,-0.00135,0.0044344999999999,0.05619,0.0013499999999999,-0.0044345,-0.187211,-0.34253,-0.2447975,0.135689,-0.36098,-0.2664175,-0.173111,-0.7230400000000001,-0.1476075,0.145229,-0.75465,-0.1792075,1
156,-0.0307435,0.71444,-0.1506025,-0.2044785,0.5055700000000001,-0.1609725,-0.4241485,0.653,-0.2280225,0.1535214999999999,0.5251699999999999,-0.1800425,0.3559215,0.68544,-0.2516225,-0.4662985,0.90143,-0.2965325,0.3844815,0.95757,-0.2923225,-0.0556565,-0.0015499999999999,0.0042204999999999,0.0556565,0.0015499999999999,-0.0042205,-0.1941385,-0.31779,-0.2728325,0.1378815,-0.33357,-0.2937225,-0.1775785,-0.69837,-0.1651525,0.1458515,-0.72866,-0.1968825,1
157,-0.031918,0.715695,-0.164025,-0.204455,0.506145,-0.174445,-0.425725,0.655565,-0.2436549999999999,0.151285,0.526915,-0.192845,0.352985,0.686025,-0.266725,-0.466295,0.908205,-0.314655,0.380205,0.957565,-0.310305,-0.055491,-0.0018549999999999,0.0041759999999999,0.055491,0.0018549999999999,-0.0041759999999999,-0.201225,-0.2915149999999999,-0.301035,0.140095,-0.3061549999999999,-0.321345,-0.182265,-0.672315,-0.1826549999999999,0.146785,-0.7008949999999999,-0.2145449999999999,1
158,-0.032818,0.71687,-0.1770189999999999,-0.204157,0.5079899999999999,-0.1870689999999999,-0.426867,0.6584099999999999,-0.258849,0.149263,0.52899,-0.204619,0.350413,0.68704,-0.2812989999999999,-0.465387,0.91367,-0.3326989999999999,0.376623,0.96099,-0.326989,-0.055541,-0.00201,0.003995,0.055541,0.0020099999999999,-0.0039949999999999,-0.207427,-0.26594,-0.327609,0.142043,-0.28087,-0.3487389999999999,-0.186797,-0.6463300000000001,-0.2002089999999999,0.148223,-0.67364,-0.2326189999999999,1
159,-0.03374,0.718835,-0.189226,-0.203823,0.509185,-0.199096,-0.427883,0.657575,-0.273186,0.147157,0.530925,-0.216096,0.347717,0.687605,-0.295406,-0.464553,0.910845,-0.3509359999999999,0.373557,0.963325,-0.344026,-0.0552619999999999,-0.0021549999999999,0.003712,0.055262,0.0021549999999999,-0.003712,-0.213723,-0.2402349999999999,-0.3527059999999999,0.143847,-0.255645,-0.375916,-0.191493,-0.620015,-0.217156,0.1496569999999999,-0.645275,-0.2505759999999999,1
160,-0.0345175,0.720235,-0.2008585,-0.2034495,0.511115,-0.2104985,-0.4289894999999999,0.657995,-0.2865385,0.1451905,0.5333950000000001,-0.2270885,0.3458605,0.690125,-0.3087485,-0.4634995,0.908825,-0.3680585,0.3712305,0.967085,-0.3603484999999999,-0.0549475,-0.002265,0.0032435,0.0549475,0.002265,-0.0032435,-0.2207395,-0.214445,-0.3765485,0.1455905,-0.2305849999999999,-0.4012685,-0.1964295,-0.594115,-0.2334085,0.1512905,-0.6171949999999999,-0.2683385,1
161,-0.0348825,0.7180949999999999,-0.206609,-0.2026695,0.510815,-0.215659,-0.4294495,0.656485,-0.293709,0.1437505,0.531825,-0.232339,0.3447205,0.687775,-0.316229,-0.4622495,0.903865,-0.379179,0.3697804999999999,0.963355,-0.371179,-0.0544505,-0.002045,0.0030589999999999,0.0544505,0.002045,-0.003059,-0.2278495,-0.192415,-0.392569,0.1489204999999999,-0.209965,-0.417969,-0.2013895,-0.572095,-0.243479,0.1530004999999999,-0.593445,-0.278259,1
162,-0.0350485,0.715275,-0.2117895,-0.2025075,0.508405,-0.2191695,-0.4294475,0.649815,-0.3002695,0.1426825,0.529505,-0.2358895,0.3442425,0.6829149999999999,-0.3221495,-0.4613175,0.896755,-0.3885295,0.3689125,0.954845,-0.3807295,-0.0539955,-0.0020149999999999,0.0030435,0.0539955,0.0020149999999999,-0.0030435,-0.2330275,-0.174915,-0.3988395,0.1522725,-0.1930549999999999,-0.4255695,-0.2036775,-0.5548249999999999,-0.2459895,0.1541924999999999,-0.5754250000000001,-0.2798495,1
163,-0.035485,0.7141200000000001,-0.2164945,-0.202709,0.50873,-0.2224745,-0.428879,0.64695,-0.3061844999999999,0.141511,0.52589,-0.2397245,0.343601,0.67979,-0.3278244999999999,-0.460699,0.89134,-0.3980444999999999,0.3681609999999999,0.9488,-0.3896745,-0.053554,-0.0018699999999999,0.0030285,0.053554,0.00187,-0.0030285,-0.239049,-0.1560599999999999,-0.4044945,0.156271,-0.1741999999999999,-0.4328045,-0.206889,-0.53648,-0.2481845,0.155211,-0.55618,-0.2799445,1
164,-0.0357895,0.712375,-0.2198155,-0.2027605,0.509715,-0.2253455,-0.4285805,0.6436350000000001,-0.3114255,0.1405595,0.5230950000000001,-0.2430855,0.3431695,0.6771550000000001,-0.3328855,-0.4600805,0.8897550000000001,-0.4065555,0.3676295,0.942745,-0.3976655,-0.0538475,-0.0016149999999999,0.0030385,0.0538475,0.001615,-0.0030385,-0.2451805,-0.1385149999999999,-0.4091055,0.1611395,-0.1566549999999999,-0.4393955,-0.2100205,-0.5199849999999999,-0.2498055,0.1564495,-0.538635,-0.2810755,1
165,-0.036533,0.71199,-0.2219819999999999,-0.203336,0.51034,-0.226982,-0.429066,0.64259,-0.315292,0.1390739999999999,0.5212399999999999,-0.2452619999999999,0.342214,0.6769000000000001,-0.337342,-0.460016,0.8897900000000001,-0.413792,0.366564,0.9384,-0.404502,-0.053883,-0.0014299999999999,0.0030189999999999,0.053883,0.0014299999999999,-0.003019,-0.252586,-0.12037,-0.411612,0.164924,-0.13968,-0.444362,-0.214096,-0.50133,-0.2500219999999999,0.1562239999999999,-0.52067,-0.281062,1
166,-0.0368715,0.71095,-0.2236125,-0.2035585,0.5106299999999999,-0.2282225,-0.4291885,0.64184,-0.3185625,0.1380815,0.5207999999999999,-0.2466524999999999,0.3419915,0.67521,-0.3411625,-0.4593385,0.88447,-0.4194525,0.3660315,0.93886,-0.4098625,-0.0539425,-0.00137,0.0029944999999999,0.0539425,0.0013699999999999,-0.0029944999999999,-0.2596985,-0.10359,-0.4128625,0.1696115,-0.12469,-0.4480925,-0.2181085,-0.48425,-0.2500025,0.1569315,-0.50407,-0.2803525,1
167,-0.037048,0.7099150000000001,-0.224675,-0.203441,0.511525,-0.228655,-0.429131,0.640125,-0.321445,0.137359,0.520425,-0.247455,0.3421889999999999,0.6743250000000001,-0.344135,-0.459271,0.879815,-0.424465,0.3659989999999999,0.939705,-0.414545,-0.053992,-0.0012649999999999,0.0029369999999999,0.053992,0.001265,-0.002937,-0.266391,-0.0875849999999999,-0.413525,0.1754689999999999,-0.1104749999999999,-0.451145,-0.221961,-0.467155,-0.250035,0.158649,-0.487735,-0.279665,1
168,-0.037219,0.7086399999999999,-0.2252055,-0.203286,0.51308,-0.2287455,-0.429226,0.64171,-0.3239654999999999,0.136844,0.51991,-0.2479755,0.342594,0.67274,-0.3464755,-0.459366,0.88217,-0.4285555,0.366404,0.9403,-0.4187855,-0.053966,-0.0012199999999999,0.0028344999999999,0.053966,0.0012199999999999,-0.0028345,-0.2722759999999999,-0.0724799999999999,-0.4135755,0.180644,-0.09683,-0.4533255,-0.225476,-0.45127,-0.2506454999999999,0.160064,-0.47171,-0.2792354999999999,1
169,-0.0373935,0.708195,-0.2254084999999999,-0.2032225,0.514144,-0.2283885,-0.4293625,0.641435,-0.3259585,0.1363774999999999,0.519075,-0.2479585,0.3430375,0.671835,-0.3483085,-0.4594724999999999,0.883625,-0.4320985,0.3668875,0.934275,-0.4228185,-0.0540035,-0.0010049999999999,0.0027244999999999,0.0540034999999999,0.001005,-0.0027244999999999,-0.2770225,-0.057975,-0.4138185,0.1850375,-0.0842849999999999,-0.4548285,-0.2284825,-0.4358149999999999,-0.2505185,0.1612875,-0.456715,-0.2782485,1
170,-0.0375965,0.708225,-0.225065,-0.2032295,0.513442,-0.227875,-0.4291795,0.641385,-0.326635,0.1358805,0.518998,-0.247755,0.3432605,0.6708449999999999,-0.349655,-0.4597495,0.883995,-0.434705,0.3674605,0.933565,-0.425365,-0.0540105,-0.001005,0.002691,0.0540104999999999,0.0010049999999999,-0.002691,-0.2810795,-0.044115,-0.414235,0.1882805,-0.072165,-0.456415,-0.2285595,-0.4211749999999999,-0.248575,0.1623305,-0.442195,-0.276995,1
171,-0.0376925,0.708285,-0.2244055,-0.2033065,0.513417,-0.2271955,-0.4292565,0.641195,-0.3263355,0.1354535,0.518955,-0.2472755,0.3434235,0.670585,-0.3503355,-0.4598965,0.879035,-0.4362055,0.3678335,0.934095,-0.4273055,-0.0539905,-0.0009549999999999,0.0026165,0.0539905,0.0009549999999999,-0.0026164999999999,-0.2840465,-0.030895,-0.4145554999999999,0.1907335,-0.060515,-0.4576654999999999,-0.2285865,-0.4076249999999999,-0.2466954999999999,0.1631834999999999,-0.428255,-0.2750055,1
172,-0.0375535,0.7076950000000001,-0.2234925,-0.2030914999999999,0.51285,-0.2259125,-0.4291014999999999,0.6399050000000001,-0.3254425,0.1352285,0.51925,-0.2459825,0.3437385,0.669595,-0.3508225,-0.4597515,0.873615,-0.4368825,0.3683885,0.932055,-0.4290025,-0.0540465,-0.0008749999999999,0.0026164999999999,0.0540465,0.000875,-0.0026165,-0.2858815,-0.0187949999999999,-0.4146125,0.1930685,-0.0498149999999999,-0.4584825,-0.2283514999999999,-0.394875,-0.2446125,0.1641485,-0.415945,-0.2731025,1
173,-0.03757,0.70834,-0.222416,-0.20281,0.5127349999999999,-0.224526,-0.42911,0.6391899999999999,-0.3240659999999999,0.1350799999999999,0.520643,-0.244616,0.34411,0.67006,-0.350906,-0.45951,0.87128,-0.436726,0.3689,0.93158,-0.430296,-0.0541349999999999,-0.0008799999999999,0.0025629999999999,0.054135,0.0008799999999999,-0.0025629999999999,-0.28768,-0.00669,-0.4145459999999999,0.195,-0.0373899999999999,-0.459066,-0.22602,-0.38209,-0.236776,0.16447,-0.4019999999999999,-0.270606,1
174,-0.0374795,0.707085,-0.22139,-0.2023485,0.513064,-0.2231,-0.4288685,0.637015,-0.32263,0.1351015,0.520833,-0.2431999999999999,0.3445315,0.668405,-0.35046,-0.4594485,0.866475,-0.4362,0.3696215,0.927415,-0.43135,-0.0542155,-0.0008049999999999,0.0023269999999999,0.0542155,0.000805,-0.0023269999999999,-0.2886784999999999,0.002435,-0.41433,0.1965415,-0.027155,-0.45922,-0.2232585,-0.371735,-0.2294399999999999,0.1649715,-0.390435,-0.26775,1
175,-0.0374245,0.70773,-0.220277,-0.2019275,0.513628,-0.2216469999999999,-0.4283875,0.63569,-0.321087,0.1351824999999999,0.521564,-0.241737,0.3449925,0.6682699999999999,-0.349777,-0.4597775,0.86602,-0.435877,0.3703725,0.92454,-0.431787,-0.0543055,-0.0007399999999999,0.002062,0.0543055,0.0007399999999999,-0.002062,-0.2892675,0.0115499999999999,-0.414307,0.1980325,-0.01643,-0.459207,-0.2193875,-0.36107,-0.221627,0.1654225,-0.3796,-0.264627,1
176,-0.037493,0.70759,-0.219486,-0.201527,0.514258,-0.220446,-0.428307,0.63414,-0.3197859999999999,0.135263,0.522282,-0.2405759999999999,0.3453429999999999,0.6676,-0.3493659999999999,-0.460327,0.86473,-0.435536,0.371063,0.92047,-0.432156,-0.054357,-0.0006599999999999,0.001881,0.054357,0.0006599999999999,-0.001881,-0.289857,0.01932,-0.4142459999999999,0.199313,-0.0068,-0.459066,-0.215437,-0.35148,-0.214436,0.1641429999999999,-0.36983,-0.2578959999999999,1
177,-0.0377734999999999,0.707485,-0.2188179999999999,-0.2012075,0.51475,-0.219448,-0.4284575,0.6324690000000001,-0.3187379999999999,0.1352025,0.522853,-0.239578,0.3453025,0.666805,-0.349038,-0.4612475,0.8628750000000001,-0.434878,0.3715225,0.916015,-0.432208,-0.0544034999999999,-0.0005249999999999,0.001808,0.0544035,0.0005249999999999,-0.0018079999999999,-0.2904175,0.025955,-0.414008,0.2003725,0.0013349999999999,-0.458818,-0.2110975,-0.3426549999999999,-0.207288,0.1621425,-0.3615549999999999,-0.251028,1
178,-0.038175,0.707125,-0.2185385,-0.20106,0.514899,-0.2188485,-0.4288,0.630705,-0.3179585,0.13505,0.523349,-0.2389984999999999,0.34529,0.666145,-0.3489685,-0.46273,0.8595550000000001,-0.4343585,0.37174,0.916865,-0.4322585,-0.054414,-0.000565,0.0018015,0.054414,0.000565,-0.0018015,-0.29103,0.0311449999999999,-0.4136185,0.20122,0.0078449999999999,-0.4587385,-0.2065,-0.335685,-0.2007485,0.16044,-0.354965,-0.2452784999999999,1
179,-0.0385375,0.7068000000000001,-0.218451,-0.2010305,0.5156890000000001,-0.218691,-0.4290305,0.6293010000000001,-0.317221,0.1349095,0.5229260000000001,-0.238831,0.3451795,0.6659400000000001,-0.349281,-0.4641305,0.8561500000000001,-0.434161,0.3719295,0.9187,-0.432751,-0.0544255,-0.0005199999999999,0.0017559999999999,0.0544255,0.00052,-0.001756,-0.2916105,0.03389,-0.413441,0.2017795,0.01146,-0.458621,-0.2016105,-0.33136,-0.193911,0.1584895,-0.3512499999999999,-0.2386709999999999,1
180,-0.038791,0.707885,-0.2184424999999999,-0.200883,0.5143610000000001,-0.2185824999999999,-0.428973,0.630604,-0.3166025,0.134847,0.520941,-0.2388124999999999,0.345107,0.666765,-0.3493624999999999,-0.465383,0.8592550000000001,-0.4338725,0.372267,0.919885,-0.4330025,-0.054438,-0.0004049999999999,0.0017565,0.054438,0.0004049999999999,-0.0017564999999999,-0.292083,0.0354149999999999,-0.4134224999999999,0.202127,0.013585,-0.4586325,-0.196673,-0.329005,-0.1865824999999999,0.159117,-0.349325,-0.2388325,1
181,-0.0391899999999999,0.707885,-0.2184249999999999,-0.200609,0.5143610000000001,-0.218435,-0.429129,0.630604,-0.315715,0.135021,0.520941,-0.238665,0.344771,0.666765,-0.349355,-0.466679,0.8592550000000001,-0.433195,0.372301,0.919885,-0.433005,-0.054465,-0.0004049999999999,0.001757,0.054465,0.0004049999999999,-0.0017569999999999,-0.292499,0.034185,-0.413415,0.202491,0.012075,-0.458645,-0.191819,-0.330375,-0.1793749999999999,0.159321,-0.3508449999999999,-0.238575,1
182,-0.039824,0.707885,-0.2184054999999999,-0.200588,0.5143610000000001,-0.2181155,-0.429608,0.630604,-0.3149455,0.134842,0.520941,-0.2385255,0.344362,0.666765,-0.3493354999999999,-0.468018,0.8592550000000001,-0.4321454999999999,0.371582,0.919885,-0.4329755,-0.054492,-0.0004049999999999,0.0017584999999999,0.054492,0.0004049999999999,-0.0017584999999999,-0.292288,0.034185,-0.4130855,0.202802,0.012075,-0.4586555,-0.1915079999999999,-0.330535,-0.1793854999999999,0.159322,-0.3508449999999999,-0.2379055,1
183,-0.0409705,0.707885,-0.21813,-0.2006575,0.5143610000000001,-0.21824,-0.4307674999999999,0.630604,-0.3146,0.1346825,0.520941,-0.23886,0.3437424999999999,0.666765,-0.34977,-0.4690075,0.8592550000000001,-0.43117,0.3707924999999999,0.919885,-0.43341,-0.0544815,-0.0004049999999999,0.0018899999999999,0.0544815,0.0004049999999999,-0.0018899999999999,-0.2921175,0.034185,-0.41266,0.2030925,0.012075,-0.45866,-0.1912275,-0.330535,-0.1798499999999999,0.1590025,-0.3508449999999999,-0.23788,1
184,-0.0422785,0.7078199999999999,-0.218266,-0.2013395,0.51452,-0.218776,-0.4316494999999999,0.6303259999999999,-0.314836,0.1337305,0.5224289999999999,-0.239826,0.3425605,0.6668999999999999,-0.350726,-0.4698095,0.85947,-0.430616,0.3697205,0.92064,-0.434126,-0.0544975,-0.0007,0.002047,0.0544975,0.0006999999999999,-0.002047,-0.2918595,0.0333399999999999,-0.412676,0.2025605,0.0112299999999999,-0.4585359999999999,-0.1910095,-0.3313800000000001,-0.181076,0.1585905,-0.35169,-0.239086,1
185,-0.0435075,0.70816,-0.2190099999999999,-0.2020725,0.514575,-0.21996,-0.4327425,0.6315550000000001,-0.31569,0.1328475,0.521443,-0.24146,0.3411975,0.66788,-0.35196,-0.4702825,0.8589600000000001,-0.4303,0.3683575,0.92522,-0.43525,-0.0544445,-0.0006499999999999,0.0023389999999999,0.0544445,0.00065,-0.002339,-0.2913925,0.0291,-0.41281,0.2017175,0.0071499999999999,-0.45886,-0.1944025,-0.3363499999999999,-0.18907,0.1579475,-0.35648,-0.24023,1
186,-0.0451745,0.70848,-0.219746,-0.2033455,0.514594,-0.221076,-0.4340555,0.633197,-0.316346,0.1316645,0.52167,-0.2430959999999999,0.3388845,0.66896,-0.353056,-0.4710255,0.8635299999999999,-0.429666,0.3667145,0.93042,-0.436286,-0.0543565,-0.00094,0.0025319999999999,0.0543565,0.0009399999999999,-0.0025319999999999,-0.2911655,0.0231099999999999,-0.412896,0.1996345,0.0003099999999999,-0.459306,-0.1977255,-0.34335,-0.196426,0.1573045,-0.36414,-0.242496,1
187,-0.0469335,0.709935,-0.2205705,-0.2047505,0.512634,-0.2227104999999999,-0.4354905,0.635505,-0.3171305,0.1305095,0.519497,-0.2453405,0.3364695,0.672185,-0.3546005,-0.4717805,0.866375,-0.4292005,0.3650095,0.935005,-0.4372405,-0.0542725,-0.0009449999999999,0.0029025,0.0542724999999999,0.0009449999999999,-0.0029024999999999,-0.2908605,0.014985,-0.4129105,0.1972095,-0.0082849999999999,-0.4600005,-0.2001504999999999,-0.3532449999999999,-0.2019605,0.1569495,-0.3740749999999999,-0.2455605,1
188,-0.0486175,0.71017,-0.2213145,-0.2063525,0.513002,-0.2239145,-0.4369725,0.6374399999999999,-0.3178145,0.1296875,0.5198569999999999,-0.2473145,0.3342174999999999,0.6740899999999999,-0.3559745,-0.4722425,0.87252,-0.4278545,0.3633075,0.93782,-0.4378445,-0.0541465,-0.00096,0.0032175,0.0541465,0.0009599999999999,-0.0032175,-0.2902225,0.0033499999999999,-0.4126545,0.1947675,-0.02085,-0.4600545,-0.2026425,-0.3671200000000001,-0.2082345,0.1587775,-0.3878600000000001,-0.2543245,1
189,-0.0503124999999999,0.710815,-0.221476,-0.2076654999999999,0.511222,-0.225186,-0.4386755,0.639845,-0.318586,0.1288545,0.519328,-0.2491359999999999,0.3319045,0.676215,-0.356716,-0.4728855,0.876055,-0.426616,0.3615445,0.938875,-0.437826,-0.0540704999999999,-0.001345,0.003309,0.0540704999999999,0.0013449999999999,-0.0033089999999999,-0.2895054999999999,-0.0114849999999999,-0.4120359999999999,0.1921745,-0.035935,-0.459366,-0.2048755,-0.383865,-0.214026,0.1603845,-0.404725,-0.2630059999999999,1
190,-0.051706,0.7115750000000001,-0.221141,-0.209046,0.509793,-0.226161,-0.4400759999999999,0.6425350000000001,-0.319261,0.128044,0.5194920000000001,-0.250651,0.330204,0.6784650000000001,-0.356851,-0.472796,0.878885,-0.424861,0.360034,0.945785,-0.436551,-0.054035,-0.0015149999999999,0.0034959999999999,0.054035,0.001515,-0.003496,-0.288306,-0.0279249999999999,-0.410851,0.1895839999999999,-0.0518949999999999,-0.458261,-0.207596,-0.401925,-0.220871,0.1621739999999999,-0.422875,-0.272701,1
191,-0.0526579999999999,0.71262,-0.2201085,-0.210541,0.508321,-0.2265485,-0.441451,0.64426,-0.3190285,0.127889,0.520933,-0.2513585,0.328609,0.68093,-0.3560385,-0.472711,0.8797200000000001,-0.4221585,0.359149,0.94846,-0.4346085,-0.054028,-0.00189,0.0037034999999999,0.054028,0.00189,-0.0037035,-0.286721,-0.0459199999999999,-0.4090685,0.187119,-0.0687799999999999,-0.4561285,-0.209661,-0.42111,-0.2260685,0.163739,-0.4427,-0.2823385,1
192,-0.0530035,0.712935,-0.218997,-0.2121715,0.508696,-0.2264469999999999,-0.4420415,0.646075,-0.318197,0.1275684999999999,0.522377,-0.251497,0.3271685,0.6824049999999999,-0.354777,-0.4727615,0.8801950000000001,-0.420057,0.3581685,0.950635,-0.432077,-0.0539395,-0.0021249999999999,0.00373,0.0539395,0.0021249999999999,-0.00373,-0.2847814999999999,-0.065325,-0.406637,0.1848484999999999,-0.086755,-0.453097,-0.2119815,-0.441885,-0.231477,0.1637385,-0.463555,-0.286587,1
193,-0.0532045,0.71651,-0.2168735,-0.2131984999999999,0.50778,-0.2262934999999999,-0.4425985,0.65002,-0.3163335,0.1273015,0.52245,-0.2510435,0.3262615,0.6872,-0.3524235,-0.4726185,0.89293,-0.4164135,0.3572815,0.95569,-0.4285535,-0.0537915,-0.0021599999999999,0.0037665,0.0537915,0.0021599999999999,-0.0037665,-0.2829485,-0.0827399999999999,-0.4038635,0.1828515,-0.10257,-0.4500234999999999,-0.2146085,-0.4605399999999999,-0.2362834999999999,0.1637915,-0.48244,-0.2907135,1
194,-0.0532565,0.715875,-0.214106,-0.2136455,0.506605,-0.224606,-0.4428955,0.652325,-0.313486,0.1272145,0.524285,-0.249426,0.3258844999999999,0.6860850000000001,-0.349386,-0.4721455,0.898255,-0.412226,0.3570545,0.955815,-0.424336,-0.0533894999999999,-0.002585,0.003703,0.0533895,0.002585,-0.0037029999999999,-0.2798955,-0.104155,-0.3989959999999999,0.1811945,-0.1236849999999999,-0.444156,-0.2160554999999999,-0.4830049999999999,-0.240166,0.1640845,-0.5072350000000001,-0.2932459999999999,1
195,-0.0537545,0.71694,-0.2109105,-0.2141725,0.50657,-0.2225005,-0.4436325,0.65352,-0.3106005,0.1266675,0.5248200000000001,-0.2477505,0.3253875,0.68756,-0.3460505,-0.4725225,0.90282,-0.4075005,0.3565975,0.95623,-0.4199305,-0.0531375,-0.00263,0.0036775,0.0531375,0.00263,-0.0036775,-0.2771525,-0.12574,-0.3936705,0.1798175,-0.14443,-0.4371305,-0.2171825,-0.5065,-0.2422505,0.1629075,-0.53195,-0.2943805,1
196,-0.0543055,0.7182200000000001,-0.2076065,-0.2147925,0.50884,-0.2201865,-0.4442125,0.65673,-0.3070564999999999,0.1267075,0.52905,-0.2453965,0.3248175,0.6880999999999999,-0.3422265,-0.4728825,0.90922,-0.4020964999999999,0.3559775,0.95834,-0.4148664999999999,-0.0529805,-0.00284,0.0036535,0.0529805,0.00284,-0.0036534999999999,-0.2743125,-0.14659,-0.3881765,0.1784175,-0.16424,-0.4296365,-0.2180825,-0.5292699999999999,-0.2440765,0.1619475,-0.55545,-0.2956465,1
197,-0.054712,0.720235,-0.203333,-0.215637,0.507845,-0.218413,-0.444997,0.661575,-0.3035029999999999,0.1266629999999999,0.529775,-0.243393,0.324053,0.691535,-0.3383029999999999,-0.473247,0.912905,-0.396663,0.355153,0.961535,-0.4102929999999999,-0.052537,-0.003095,0.003605,0.052537,0.0030949999999999,-0.0036049999999999,-0.271747,-0.165005,-0.382403,0.1769029999999999,-0.181875,-0.421693,-0.2175369999999999,-0.550295,-0.242623,0.160673,-0.5769650000000001,-0.297043,1
198,-0.0547775,0.72157,-0.19946,-0.2163755,0.51062,-0.21573,-0.4457255,0.66537,-0.29926,0.1268245,0.53377,-0.24054,0.3238244999999999,0.6936800000000001,-0.33423,-0.4728955,0.91716,-0.39053,0.3544345,0.96359,-0.40586,-0.0521315,-0.0031999999999999,0.0036069999999999,0.0521315,0.0031999999999999,-0.003607,-0.2683255,-0.18398,-0.37489,0.1751645,-0.20072,-0.41196,-0.2176855,-0.5723199999999999,-0.24206,0.1598345,-0.59911,-0.29665,1
199,-0.0548175,0.722655,-0.195141,-0.2171275,0.5125949999999999,-0.212951,-0.4463475,0.6696249999999999,-0.294321,0.1267125,0.536915,-0.237681,0.3237725,0.6971350000000001,-0.329931,-0.4726975,0.921555,-0.3842009999999999,0.3535725,0.963705,-0.4003609999999999,-0.0518195,-0.003385,0.0034819999999999,0.0518195,0.0033849999999999,-0.003482,-0.2646775,-0.202325,-0.366811,0.1734025,-0.219365,-0.4011409999999999,-0.2177675,-0.594525,-0.241651,0.1589825,-0.6210450000000001,-0.295261,1
200,-0.055047,0.72428,-0.1903145,-0.217293,0.51573,-0.2098745,-0.446473,0.67457,-0.2886645,0.126137,0.53994,-0.2345045,0.323477,0.70149,-0.3251845,-0.472593,0.92918,-0.3765445,0.352407,0.96636,-0.3943245,-0.051274,-0.00345,0.0032785,0.051274,0.00345,-0.0032784999999999,-0.261233,-0.21958,-0.3574545,0.1713569999999999,-0.23669,-0.3897945,-0.218603,-0.61565,-0.2409945,0.157957,-0.64096,-0.2944145,1
201,-0.05462,0.724805,-0.1842655,-0.216586,0.5177149999999999,-0.2059154999999999,-0.445856,0.679825,-0.2816255,0.126204,0.543995,-0.2305054999999999,0.3236839999999999,0.705335,-0.3193155,-0.472266,0.938415,-0.3669854999999999,0.3517039999999999,0.971185,-0.3867355,-0.050339,-0.0038849999999999,0.0032634999999999,0.050339,0.0038849999999999,-0.0032635,-0.257006,-0.236505,-0.3465554999999999,0.169844,-0.252925,-0.3775555,-0.218946,-0.636485,-0.2396154999999999,0.157214,-0.660165,-0.2914954999999999,1
202,-0.053821,0.7231650000000001,-0.1784629999999999,-0.215408,0.520105,-0.201843,-0.444748,0.683965,-0.275193,0.126732,0.546805,-0.226683,0.324392,0.708765,-0.313503,-0.472078,0.935975,-0.358763,0.351602,0.979555,-0.379183,-0.049827,-0.004005,0.003246,0.049827,0.004005,-0.003246,-0.251858,-0.254385,-0.335043,0.168592,-0.269325,-0.365143,-0.219028,-0.657745,-0.238373,0.156962,-0.679485,-0.287833,1
203,-0.0531495,0.72388,-0.172128,-0.2143685,0.52471,-0.198058,-0.4437485,0.6909,-0.268678,0.1274615,0.55314,-0.222228,0.3249714999999999,0.71718,-0.307428,-0.4718785,0.93967,-0.350228,0.3515215,0.98684,-0.371698,-0.0492535,-0.0040499999999999,0.0032259999999999,0.0492535,0.0040499999999999,-0.0032259999999999,-0.2470385,-0.26902,-0.323988,0.1669515,-0.28535,-0.353168,-0.2189785,-0.67556,-0.236038,0.1563615,-0.69757,-0.284778,1
204,-0.051969,0.722205,-0.165833,-0.213076,0.526205,-0.194733,-0.4420759999999999,0.697105,-0.261993,0.128194,0.557355,-0.217913,0.326074,0.721585,-0.301103,-0.471196,0.941805,-0.341133,0.352064,0.992955,-0.363653,-0.049144,-0.0041449999999999,0.0031739999999999,0.049144,0.004145,-0.003174,-0.240846,-0.2876749999999999,-0.311233,0.165234,-0.3019349999999999,-0.340083,-0.2174859999999999,-0.6944049999999999,-0.232183,0.156524,-0.715835,-0.279993,1
205,-0.0508524999999999,0.7202449999999999,-0.1593439999999999,-0.2116535,0.526705,-0.190964,-0.4401934999999999,0.701545,-0.255264,0.1289765,0.558815,-0.2137039999999999,0.3272065,0.7268249999999999,-0.293884,-0.4707535,0.947465,-0.331604,0.3529565,0.998495,-0.354824,-0.0488195,-0.004215,0.0033699999999999,0.0488194999999999,0.0042149999999999,-0.0033699999999999,-0.2341335,-0.3068849999999999,-0.297524,0.1635565,-0.320285,-0.325054,-0.2151335,-0.713345,-0.2270039999999999,0.1565065,-0.7356050000000001,-0.273344,1
206,-0.0491335,0.7191075,-0.1542085,-0.2103884999999999,0.5285675,-0.1872184999999999,-0.4374685,0.7064975,-0.2484485,0.1309015,0.5613675,-0.2095785,0.3293415,0.7320475000000001,-0.2864685,-0.4690185,0.9538975,-0.3226185,0.3549414999999999,1.0061975,-0.3449685,-0.0484155,-0.0040514999999999,0.0035775,0.0484155,0.0040514999999999,-0.0035774999999999,-0.2262185,-0.3275825,-0.2831085,0.1585915,-0.3409825,-0.3051385,-0.2123985,-0.7318524999999999,-0.2222785,0.1550214999999999,-0.7561025,-0.2610385,1
