sb224sc-HT22-VT27/4dt907/src/data/labeled_files/A112_kinect.csv
FrameNo,nose_3d_x,nose_3d_y,nose_3d_z,left_shoulder_3d_x,left_shoulder_3d_y,left_shoulder_3d_z,left_elbow_3d_x,left_elbow_3d_y,left_elbow_3d_z,right_shoulder_3d_x,right_shoulder_3d_y,right_shoulder_3d_z,right_elbow_3d_x,right_elbow_3d_y,right_elbow_3d_z,left_wrist_3d_x,left_wrist_3d_y,left_wrist_3d_z,right_wrist_3d_x,right_wrist_3d_y,right_wrist_3d_z,left_hip_3d_x,left_hip_3d_y,left_hip_3d_z,right_hip_3d_x,right_hip_3d_y,right_hip_3d_z,left_knee_3d_x,left_knee_3d_y,left_knee_3d_z,right_knee_3d_x,right_knee_3d_y,right_knee_3d_z,left_ankle_3d_x,left_ankle_3d_y,left_ankle_3d_z,right_ankle_3d_x,right_ankle_3d_y,right_ankle_3d_z,activity_label
0,-0.032206,0.792692,0.0424885,-0.196803,0.515592,-0.0080854999999999,-0.2510929999999999,0.249882,-0.0255435,0.149557,0.517362,-0.0172315,0.221567,0.252452,-0.0383154999999999,-0.227503,0.035434,-0.1157725,0.200847,0.032426,-0.1407125,-0.064256,0.0002289999999999,-0.0002344999999999,0.064256,-0.0002289999999999,0.0002344999999999,-0.126153,-0.477468,-0.0033704999999999,0.142887,-0.560318,0.0065805,-0.154963,-0.828348,-0.0132245,0.172777,-0.887118,-0.0527225,0
1,-0.0321295,0.793057,0.042614,-0.1968165,0.515597,-0.008217,-0.2512864999999999,0.249977,-0.025722,0.1495234999999999,0.517357,-0.0173629999999999,0.2215935,0.252657,-0.038505,-0.2278965,0.035687,-0.116431,0.2008634999999999,0.032549,-0.140931,-0.0642585,0.000261,-0.0003249999999999,0.0642585,-0.000261,0.0003249999999999,-0.1264865,-0.479583,-0.003592,0.1433835,-0.563153,0.0067919999999999,-0.1545065,-0.826693,-0.012738,0.1725735,-0.887363,-0.053605,0
2,-0.0321024999999999,0.7929355,0.042557,-0.1971225,0.5159855,-0.0078119999999999,-0.2515524999999999,0.2502155,-0.025823,0.1478775,0.5174755,-0.0188729999999999,0.2215675,0.2528554999999999,-0.038602,-0.2280625,0.0359165,-0.116489,0.2010275,0.0325555,-0.141239,-0.0642425,0.0002325,-0.000334,0.0642425,-0.0002324999999999,0.000334,-0.1265225,-0.4804345,-0.0039309999999999,0.1434075,-0.5628245000000001,0.00649,-0.1546125,-0.8269845,-0.0127299999999999,0.1728174999999999,-0.8827845,-0.0482199999999999,0
3,-0.032049,0.7928164999999999,0.0426125,-0.197254,0.5159064999999999,-0.0077215,-0.251544,0.2507065,-0.0258955,0.148416,0.5177664999999999,-0.0181435,0.221616,0.2526765,-0.0386185,-0.228164,0.0363105,-0.1163575,0.201076,0.0321755,-0.1413075,-0.064215,0.0001905,-0.0002795,0.064215,-0.0001905,0.0002794999999999,-0.126904,-0.4857335,-0.0033345,0.143506,-0.5630235,0.0064704999999999,-0.153434,-0.8220735,-0.0118875,0.172926,-0.8832335,-0.0481285,0
4,-0.0320964999999999,0.792715,0.042638,-0.1969354999999999,0.516595,-0.0081009999999999,-0.2518755,0.2508249999999999,-0.025983,0.1485345,0.517705,-0.018153,0.2216544999999999,0.252685,-0.038685,-0.2280755,0.036517,-0.116555,0.2010945,0.031985,-0.141565,-0.0642225,0.000196,-0.000279,0.0642225,-0.000196,0.000279,-0.1268455,-0.485765,-0.003393,0.1435945,-0.562655,0.006384,-0.1535455,-0.8401350000000001,-0.026753,0.1715045,-0.880425,-0.0468559999999999,0
5,-0.0322655,0.792693,0.0428295,-0.1969115,0.516543,-0.0080064999999999,-0.2518215,0.250883,-0.0259044999999999,0.1486285,0.5177229999999999,-0.0180324999999999,0.2217885,0.252863,-0.0386335,-0.2280515,0.036564,-0.1164535,0.2011585,0.03206,-0.1416535,-0.0642175,0.0001839999999999,-0.0002104999999999,0.0642175,-0.000184,0.0002105,-0.1270615,-0.484867,-0.0031044999999999,0.1436585,-0.5627570000000001,0.0063475,-0.1558215,-0.843697,-0.0321574999999999,0.1695285,-0.882217,-0.0402585,0
6,-0.0324049999999999,0.7925949999999999,0.042815,-0.197166,0.5167849999999999,-0.0079899999999999,-0.251936,0.250995,-0.026065,0.148814,0.5177649999999999,-0.0179539999999999,0.221804,0.253175,-0.038824,-0.228466,0.036599,-0.116812,0.201654,0.0329179999999999,-0.141592,-0.064197,0.000208,-0.0002129999999999,0.064197,-0.000208,0.0002129999999999,-0.127006,-0.4850549999999999,-0.003165,0.143694,-0.562995,0.0063199999999999,-0.166236,-0.862785,-0.048471,0.169244,-0.883865,-0.038386,0
7,-0.0322405,0.7924145,0.0427665,-0.1963335,0.5166845,-0.0084505,-0.2520135,0.2511945,-0.0260535,0.1494265,0.5177845,-0.0175905,0.2218665,0.2530745,-0.0388325,-0.2282735,0.0367855,-0.1169065,0.2015665,0.0327195,-0.1415665,-0.0642224999999999,0.0002485,-0.0002424999999999,0.0642224999999999,-0.0002485,0.0002424999999999,-0.1270435,-0.4883455,-0.0028615,0.1433865,-0.5636154999999999,0.0064024999999999,-0.1556135,-0.8325055,-0.0195534999999999,0.1724965,-0.8868655,-0.0519625,0
8,-0.0322735,0.7923585,0.0427865,-0.1962295,0.5167885,-0.0085065,-0.2520895,0.2512785,-0.0260825,0.1494805,0.5177885,-0.0175934999999999,0.2219205,0.2531385,-0.0388825,-0.2282995,0.0368695,-0.1170134999999999,0.2017205,0.0328785,-0.1416035,-0.0642165,0.0002585,-0.0002395,0.0642165,-0.0002585,0.0002394999999999,-0.1271195,-0.4894115,-0.0027355,0.1433905,-0.5637715,0.0063864999999999,-0.1565195,-0.8363215,-0.0230125,0.1722805,-0.8875515,-0.0527115,0
9,-0.032318,0.792257,0.0428085,-0.196132,0.5168170000000001,-0.0085524999999999,-0.252132,0.251347,-0.0261054999999999,0.149538,0.517807,-0.0175784999999999,0.221978,0.253237,-0.0389245,-0.228322,0.036934,-0.1170435,0.201878,0.0330779999999999,-0.1416234999999999,-0.064211,0.000268,-0.0002184999999999,0.064211,-0.0002679999999999,0.0002185,-0.127122,-0.489443,-0.0027254999999999,0.143368,-0.563743,0.0063645,-0.156432,-0.836213,-0.0229824999999999,0.1720479999999999,-0.8878229999999999,-0.0530075,0
10,-0.032375,0.7921560000000001,0.042827,-0.196063,0.516856,-0.008608,-0.252183,0.251416,-0.0261259999999999,0.149717,0.517816,-0.017477,0.2220369999999999,0.253326,-0.038956,-0.228343,0.036994,-0.117075,0.2020469999999999,0.033284,-0.141625,-0.064207,0.000277,-0.000193,0.064207,-0.000277,0.0001929999999999,-0.1271229999999999,-0.489474,-0.002707,0.143337,-0.563734,0.0063479999999999,-0.156993,-0.837294,-0.024721,0.171677,-0.8878539999999999,-0.052599,0
11,-0.0324445,0.7920595,0.0428534999999999,-0.1959475,0.5168595,-0.0086615,-0.2522275,0.2514595,-0.0261435,0.1498624999999999,0.5178294999999999,-0.0173875,0.2220825,0.2533795,-0.0389735,-0.2283575,0.0370545,-0.1170775,0.2021524999999999,0.0334475,-0.1416075,-0.0642085,0.0002785,-0.0001655,0.0642085,-0.0002785,0.0001654999999999,-0.1270975,-0.4893905,-0.0026825,0.1433025,-0.5637205,0.0063454999999999,-0.1576775,-0.8394905,-0.0265195,0.1712624999999999,-0.8882405,-0.0534185,0
12,-0.032511,0.791952,0.042883,-0.195932,0.5168619999999999,-0.0086569999999999,-0.252262,0.251472,-0.0261529999999999,0.149978,0.5178619999999999,-0.0173109999999999,0.222128,0.253422,-0.038984,-0.228362,0.037084,-0.117046,0.202248,0.033599,-0.141596,-0.064211,0.000271,-0.0001379999999999,0.064211,-0.000271,0.0001379999999999,-0.127152,-0.488268,-0.0026619999999999,0.143058,-0.562938,0.006287,-0.1586219999999999,-0.8423280000000001,-0.0285799999999999,0.170988,-0.888278,-0.053368,0
13,-0.0325625,0.7918434999999999,0.0428985,-0.1959325,0.5168935,-0.0086644999999999,-0.2522925,0.2514435,-0.0261715,0.1500774999999999,0.5178634999999999,-0.0172814999999999,0.2221775,0.2534535,-0.0389915,-0.2283825,0.0370425,-0.1170465,0.2023575,0.0337305,-0.1415665,-0.0642115,0.0002544999999999,-0.0001094999999999,0.0642115,-0.0002545,0.0001094999999999,-0.1271224999999999,-0.4865465,-0.0027354999999999,0.1428074999999999,-0.5621765000000001,0.0062355,-0.1597724999999999,-0.8438965,-0.0299714999999999,0.1708775,-0.8883265,-0.0533385,0
14,-0.032611,0.7917625,0.042916,-0.195929,0.5169225,-0.0086569999999999,-0.252299,0.2514025,-0.0261809999999999,0.150101,0.5178825,-0.0172369999999999,0.222211,0.2534825,-0.03899,-0.228369,0.0370015,-0.1170219999999999,0.202461,0.0338445,-0.141542,-0.0642109999999999,0.0002345,-7.799999999999474e-05,0.0642109999999999,-0.0002344999999999,7.800000000000168e-05,-0.127189,-0.4876074999999999,-0.0025589999999999,0.142631,-0.5614375,0.006132,-0.158569,-0.8443075,-0.0282199999999999,0.170831,-0.8882775,-0.053366,0
15,-0.032664,0.791676,0.042931,-0.195938,0.516946,-0.0086529999999999,-0.252318,0.251356,-0.0261929999999999,0.150102,0.5178860000000001,-0.0171949999999999,0.222232,0.253516,-0.0389969999999999,-0.2283879999999999,0.036955,-0.11699,0.202532,0.033942,-0.1415199999999999,-0.0642099999999999,0.000218,-4.499999999999643e-05,0.0642099999999999,-0.0002179999999999,4.500000000000337e-05,-0.127298,-0.488594,-0.0023799999999999,0.142472,-0.561004,0.006018,-0.157858,-0.8435039999999999,-0.0253769999999999,0.170822,-0.888504,-0.0534029999999999,0
16,-0.0327239999999999,0.791575,0.0429405,-0.195955,0.516945,-0.0086245,-0.252355,0.251305,-0.0262525,0.150105,0.517885,-0.0171355,0.222265,0.253525,-0.0390005,-0.228405,0.036904,-0.1169495,0.202535,0.033942,-0.1414695,-0.0642109999999999,0.0001909999999999,-2.5000000000025e-06,0.0642109999999999,-0.0001909999999999,2.5000000000025e-06,-0.127235,-0.488975,-0.0024414999999999,0.142325,-0.560535,0.0059174999999999,-0.1578949999999999,-0.842955,-0.0239925,0.170425,-0.8877849999999999,-0.0528245,0
17,-0.0328105,0.7914680000000001,0.042949,-0.1960255,0.516898,-0.0085859999999999,-0.2524055,0.251238,-0.026316,0.1501045,0.517888,-0.017082,0.2222744999999999,0.253538,-0.039018,-0.2283855,0.036808,-0.116916,0.2025345,0.033947,-0.141416,-0.0642195,0.00017,3.199999999999731e-05,0.0642195,-0.00017,-3.199999999999731e-05,-0.1270955,-0.488612,-0.002611,0.1421745,-0.560252,0.005843,-0.1581355,-0.845322,-0.024942,0.1700944999999999,-0.886642,-0.0514759999999999,0
18,-0.0328884999999999,0.791373,0.0429685,-0.1960815,0.516853,-0.0085755,-0.2524215,0.251193,-0.0263804999999999,0.1501085,0.517893,-0.0170314999999999,0.2222985,0.253543,-0.0390285,-0.2283715,0.03673,-0.1168194999999999,0.2025385,0.033918,-0.1413695,-0.0642274999999999,0.000152,6.149999999999906e-05,0.0642274999999999,-0.000152,-6.149999999999906e-05,-0.1269515,-0.488247,-0.0027664999999999,0.1420385,-0.559927,0.0057945,-0.1583515,-0.847227,-0.0258284999999999,0.1693685,-0.885447,-0.0497395,0
19,-0.032952,0.7912925,0.0429795,-0.196146,0.5168024999999999,-0.0085695,-0.252446,0.2511425,-0.0264475,0.150114,0.5178925,-0.0169865,0.222334,0.2535525,-0.0390394999999999,-0.228336,0.0366555,-0.1167214999999999,0.202534,0.0338675,-0.1413415,-0.064232,0.0001315,8.850000000000524e-05,0.064232,-0.0001314999999999,-8.84999999999983e-05,-0.126976,-0.4884374999999999,-0.0027884999999999,0.141964,-0.5599075,0.0058165,-0.158306,-0.8473675,-0.0257504999999999,0.168704,-0.8845575,-0.0482775,0
20,-0.0330115,0.7912275,0.042988,-0.1962125,0.5167775,-0.008495,-0.2524725,0.2511075,-0.026512,0.1501175,0.5179174999999999,-0.016954,0.2223575,0.2535675,-0.039053,-0.2283125,0.0365954999999999,-0.116627,0.2025275,0.0338375,-0.141317,-0.0642385,0.0001215,0.0001109999999999,0.0642385,-0.0001214999999999,-0.0001109999999999,-0.1268825,-0.4885624999999999,-0.002714,0.1418775,-0.5599225,0.005818,-0.1580525,-0.8473825,-0.025568,0.1682675,-0.8844225,-0.046568,0
21,-0.0330774999999999,0.7911695,0.0429899999999999,-0.1962835,0.5167094999999999,-0.008417,-0.2525035,0.2510895,-0.026573,0.1500965,0.5179195,-0.016959,0.2223765,0.2535995,-0.039077,-0.2283135,0.0365394999999999,-0.116526,0.2025265,0.0338295,-0.141306,-0.0642435,0.0001225,0.0001349999999999,0.0642435,-0.0001225,-0.000135,-0.1268034999999999,-0.4859505,-0.002878,0.1418865,-0.5599305,0.0058829999999999,-0.1581135,-0.8473905,-0.025555,0.1678565,-0.8839505000000001,-0.04452,0
22,-0.0331655,0.7911005,0.042996,-0.1963734999999999,0.5166405000000001,-0.008335,-0.2525335,0.2510705,-0.026644,0.1500765,0.5179205,-0.0169679999999999,0.2223865,0.2536305,-0.039145,-0.2283135,0.0364855,-0.1164429999999999,0.2025065,0.0338205,-0.141293,-0.0642435,0.0001315,0.0001589999999999,0.0642435,-0.0001314999999999,-0.0001589999999999,-0.1266834999999999,-0.4829395,-0.003068,0.1418865,-0.5599394999999999,0.0059559999999999,-0.1571535,-0.8432995,-0.022286,0.1675065,-0.8835695,-0.042393,0
23,-0.0332585,0.7910425,0.042982,-0.1966415,0.5164625,-0.0080249999999999,-0.2525515,0.2510424999999999,-0.026705,0.1500484999999999,0.5179225000000001,-0.016968,0.2223985,0.2536825,-0.039206,-0.2283115,0.0364295,-0.116366,0.2024885,0.0337685,-0.141316,-0.0642455,0.0001394999999999,0.0001849999999999,0.0642455,-0.0001395,-0.0001849999999999,-0.1267114999999999,-0.4805675,-0.003171,0.1418884999999999,-0.5599474999999999,0.0060329999999999,-0.1565615,-0.8399875,-0.0206089999999999,0.1675085,-0.8835775,-0.042316,0
24,-0.033355,0.7909635,0.0429655,-0.196893,0.5162935,-0.0077515,-0.252563,0.2510135,-0.0267665,0.1500169999999999,0.5179135,-0.0169845,0.2223969999999999,0.2537635,-0.0392605,-0.228303,0.0363685,-0.1163285,0.202447,0.0336845,-0.1413285,-0.064247,0.0001464999999999,0.0002064999999999,0.064247,-0.0001464999999999,-0.0002064999999999,-0.126713,-0.4805765,-0.0030934999999999,0.142007,-0.5609265,0.0062014999999999,-0.156563,-0.8399965,-0.0205314999999999,0.167507,-0.8835865,-0.0422385,0
25,-0.0334425,0.790964,0.0429665,-0.1971215,0.5160739999999999,-0.0075725,-0.2525715,0.250984,-0.0267685,0.1499885,0.517914,-0.0169845,0.2223985,0.253844,-0.0392935,-0.2282915,0.0363249999999999,-0.1163074999999999,0.2024085,0.033579,-0.1413575,-0.0642555,0.000164,0.0002165,0.0642555,-0.0001639999999999,-0.0002165,-0.1267715,-0.485526,-0.0027674999999999,0.1421085,-0.5618660000000001,0.0063384999999999,-0.1559115,-0.839226,-0.0189365,0.1676785,-0.8840760000000001,-0.0418065,0
26,-0.0335219999999999,0.7909665,0.0429555,-0.197343,0.5158364999999999,-0.0074194999999999,-0.252583,0.2509365,-0.0267784999999999,0.149957,0.5179165,-0.0169975,0.222397,0.2539465,-0.0393315,-0.228163,0.0362395,-0.1163765,0.202397,0.0334725,-0.1413865,-0.064261,0.0001785,0.0002325,0.064261,-0.0001785,-0.0002324999999999,-0.126603,-0.4855235,-0.0027164999999999,0.142187,-0.5628235,0.0064005,-0.155583,-0.8373935,-0.0173505,0.167827,-0.8840735000000001,-0.0417555,0
27,-0.033605,0.7909795000000001,0.0428915,-0.197554,0.5156195,-0.0072984999999999,-0.252594,0.2508995,-0.0268115,0.149756,0.5178995,-0.0172105,0.222406,0.2540495,-0.0393925,-0.228184,0.0361595,-0.1164725,0.2023859999999999,0.0333455,-0.1414625,-0.0642649999999999,0.0001884999999999,0.0002564999999999,0.0642649999999999,-0.0001885,-0.0002564999999999,-0.126304,-0.4837105,-0.0030985,0.1422459999999999,-0.5628805,0.0063744999999999,-0.155304,-0.8336705,-0.0162965,0.167976,-0.8845505,-0.0420335,0
28,-0.033687,0.791003,0.0428905,-0.197806,0.515423,-0.0072655,-0.2526159999999999,0.250923,-0.0268495,0.149534,0.517903,-0.0174415,0.222404,0.254173,-0.0394795,-0.228206,0.036183,-0.1166025,0.202364,0.033156,-0.1415725,-0.064274,0.000202,0.0002564999999999,0.064274,-0.0002019999999999,-0.0002564999999999,-0.126176,-0.485267,-0.0030425,0.142294,-0.563087,0.0064034999999999,-0.155066,-0.8311970000000001,-0.0153704999999999,0.1681139999999999,-0.8850870000000001,-0.0428235,0
29,-0.033769,0.791027,0.0428905,-0.198037,0.515267,-0.0072564999999999,-0.252637,0.250947,-0.0268855,0.149313,0.5178969999999999,-0.0176845,0.222403,0.254307,-0.0395745,-0.2282269999999999,0.036207,-0.1167125,0.202373,0.0329,-0.1416925,-0.064279,0.000213,0.0002564999999999,0.064279,-0.000213,-0.0002564999999999,-0.125887,-0.479593,-0.0033285,0.142353,-0.563303,0.0064624999999999,-0.155377,-0.831173,-0.0153714999999999,0.168203,-0.885533,-0.0435615,0
30,-0.0338795,0.7910615,0.0428879999999999,-0.1982445,0.5151415,-0.007341,-0.2526845,0.2509715,-0.027013,0.1490754999999999,0.5179115,-0.017924,0.2224054999999999,0.2544315,-0.039665,-0.2282644999999999,0.0362265,-0.116845,0.2027855,0.0329195,-0.141815,-0.0642775,0.0002104999999999,0.0002589999999999,0.0642775,-0.0002104999999999,-0.000259,-0.1254245,-0.4748084999999999,-0.003767,0.1423755,-0.5633684999999999,0.0065199999999999,-0.1554545,-0.8311585,-0.015682,0.1683155,-0.8858285,-0.044255,0
31,-0.0340935,0.7911495,0.042858,-0.1984175,0.5149495,-0.0074719999999999,-0.2528375,0.2511195,-0.027526,0.1487925,0.5179195,-0.0182739999999999,0.2227625,0.2548895,-0.0402419999999999,-0.2294775,0.0363465,-0.11798,0.2048625,0.0329184999999999,-0.1432399999999999,-0.0642695,0.0002125,0.0002629999999999,0.0642695,-0.0002125,-0.0002629999999999,-0.1253274999999999,-0.4729804999999999,-0.0036679999999999,0.1422925,-0.5633705,0.006523,-0.1555774999999999,-0.8312505,-0.0159699999999999,0.1683825,-0.8863805,-0.0450739999999999,0
32,-0.0343124999999999,0.791226,0.042663,-0.1985025,0.514946,-0.007745,-0.2535325,0.252396,-0.029827,0.1485075,0.5179360000000001,-0.018858,0.2248875,0.256526,-0.043268,-0.2328625,0.036488,-0.1218649999999999,0.2118275,0.032915,-0.148885,-0.0642595,0.000216,0.0002909999999999,0.0642595,-0.0002159999999999,-0.0002909999999999,-0.1253125,-0.471064,-0.003712,0.1422075,-0.563354,0.006324,-0.1556825,-0.829484,-0.015224,0.1688075,-0.8869739999999999,-0.047074,0
33,-0.034568,0.791308,0.042522,-0.1986,0.514938,-0.0080459999999999,-0.25677,0.255018,-0.036025,0.14813,0.5180980000000001,-0.019634,0.22905,0.259788,-0.049482,-0.24019,0.038465,-0.13034,0.2234,0.034045,-0.1594399999999999,-0.064278,0.0002239999999999,0.000288,0.064278,-0.000224,-0.0002879999999999,-0.12533,-0.469252,-0.0038969999999999,0.14211,-0.563172,0.005961,-0.15577,-0.827782,-0.0147329999999999,0.1692,-0.887702,-0.049181,0
34,-0.0348395,0.7915245,0.0427065,-0.1986455,0.5148345,-0.0085934999999999,-0.2614655,0.2594545,-0.0441455,0.1477045,0.5184345,-0.0205614999999999,0.2346845,0.2655544999999999,-0.0581605,-0.2520755,0.0423205,-0.1447304999999999,0.2400845,0.0406805,-0.1741504999999999,-0.0642945,0.0001595,0.0002515,0.0642945,-0.0001594999999999,-0.0002514999999999,-0.1253755,-0.4693555,-0.0042685,0.1419945,-0.5623355,0.0054755,-0.1565955,-0.8304755,-0.0177915,0.1697045,-0.8881755,-0.0511805,0
35,-0.0351255,0.791737,0.043324,-0.1985395,0.5145069999999999,-0.0096899999999999,-0.2686295,0.2686969999999999,-0.054921,0.1471905,0.519037,-0.0216519999999999,0.2417505,0.275547,-0.068604,-0.2680295,0.054298,-0.162324,0.2616605,0.054039,-0.1943939999999999,-0.0643064999999999,9.200000000000008e-05,0.000278,0.0643064999999999,-9.200000000000008e-05,-0.000278,-0.1254295,-0.469983,-0.0049039999999999,0.1418905,-0.562023,0.004859,-0.1576094999999999,-0.835593,-0.0215419999999999,0.1696605,-0.888803,-0.052054,0
36,-0.03543,0.7919244999999999,0.044239,-0.198377,0.5142545,-0.010728,-0.278127,0.2807945,-0.067143,0.146903,0.5198944999999999,-0.0226909999999999,0.251143,0.2904245,-0.081503,-0.289497,0.0746724999999999,-0.183713,0.285163,0.0793735,-0.214913,-0.064293,2.050000000000012e-05,0.00034,0.064293,-2.050000000000012e-05,-0.00034,-0.126077,-0.4770054999999999,-0.005037,0.141673,-0.5612755,0.0042169999999999,-0.158037,-0.8380755000000001,-0.023001,0.1695829999999999,-0.8895355,-0.053093,0
37,-0.0357655,0.792094,0.0456165,-0.1981805,0.514004,-0.0119755,-0.2896404999999999,0.296294,-0.0809205,0.1467795,0.521034,-0.0239384999999999,0.2632695,0.309154,-0.0955504999999999,-0.3149705,0.102374,-0.2080105,0.3158395,0.111714,-0.2380405,-0.0642745,-9.70000000000003e-05,0.0004284999999999,0.0642745,9.699999999999986e-05,-0.0004284999999999,-0.1267204999999999,-0.482076,-0.0053344999999999,0.1412995,-0.559836,0.0032574999999999,-0.1597905,-0.842896,-0.0281085,0.1695395,-0.890386,-0.0543405,0
38,-0.0361045,0.7921269999999999,0.04724,-0.1979685,0.5137769999999999,-0.0132019999999999,-0.3033085,0.316497,-0.093678,0.1466815,0.5223369999999999,-0.0251659999999999,0.2756615,0.334217,-0.109198,-0.3456385,0.139337,-0.2304979999999999,0.3481714999999999,0.154157,-0.263028,-0.0642165,-0.000279,0.000558,0.0642165,0.0002789999999999,-0.000558,-0.1267085,-0.481433,-0.0062489999999999,0.1408215,-0.5578230000000001,0.002241,-0.1617285,-0.8487030000000001,-0.0335219999999999,0.1694115,-0.891413,-0.055443,0
39,-0.036446,0.7919115000000001,0.0492515,-0.197677,0.5138215,-0.0144525,-0.318247,0.3426515,-0.1059044999999999,0.1466029999999999,0.5241715,-0.0260685,0.289743,0.3645215,-0.1227844999999999,-0.378337,0.1859215,-0.2520945,0.380163,0.2078915,-0.2858445,-0.064149,-0.0004454999999999,0.0007054999999999,0.064149,0.0004454999999999,-0.0007054999999999,-0.126997,-0.4840885,-0.0067745,0.140313,-0.5551685,0.0012565,-0.163317,-0.8550184999999999,-0.0401165,0.1689729999999999,-0.8932485,-0.0572515,0
40,-0.0366925,0.7916295,0.0518405,-0.1973495,0.5139195,-0.0152925,-0.3336095,0.3722094999999999,-0.1181295,0.1465405,0.5261995,-0.0264834999999999,0.3044205,0.3990895,-0.1343895,-0.4115295,0.2418294999999999,-0.2712095,0.4125605,0.2713395,-0.3042595,-0.0640645,-0.0006604999999999,0.0008384999999999,0.0640645,0.0006604999999999,-0.0008384999999999,-0.1273095,-0.4828205,-0.0077424999999999,0.1402305,-0.5564505,0.0006605,-0.1649395,-0.8605505,-0.0458775,0.1694005,-0.8957305,-0.0603404999999999,0
41,-0.0369399999999999,0.791029,0.05507,-0.19709,0.513979,-0.015523,-0.34922,0.405499,-0.127131,0.1467699999999999,0.529039,-0.0259609999999999,0.31801,0.437099,-0.143081,-0.44349,0.305619,-0.285441,0.43941,0.345309,-0.314581,-0.063964,-0.001067,0.00102,0.063964,0.001067,-0.00102,-0.12774,-0.486951,-0.007725,0.13964,-0.554591,0.000479,-0.16651,-0.867021,-0.051106,0.16898,-0.899001,-0.062061,0
42,-0.0372124999999999,0.7902205,0.0581135,-0.1969275,0.5148805,-0.0156495,-0.3634575,0.4422204999999999,-0.1315315,0.1472625,0.5322505,-0.0249905,0.3283625,0.4788604999999999,-0.1473315,-0.4732375,0.3766204999999999,-0.2918215,0.4588925,0.4272304999999999,-0.3152515,-0.0638165,-0.0013095,0.0011805,0.0638165,0.0013095,-0.0011805,-0.1282075,-0.4910295,-0.0077065,0.1389925,-0.5531195,0.0004035,-0.1682075,-0.8741095,-0.0570774999999999,0.1688025,-0.9017195,-0.0634915,0
43,-0.0374155,0.78862,0.060475,-0.1970315,0.51616,-0.0155729999999999,-0.3770415,0.48252,-0.1327819999999999,0.1483785,0.53627,-0.0233769999999999,0.3355285,0.52201,-0.147722,-0.4981615,0.45328,-0.2918619999999999,0.4714985,0.51117,-0.3152319999999999,-0.0636355,-0.0013579999999999,0.001181,0.0636355,0.0013579999999999,-0.0011809999999999,-0.1288515,-0.49675,-0.0072409999999999,0.1383484999999999,-0.55224,0.000402,-0.1696615,-0.88038,-0.061972,0.1688184999999999,-0.90473,-0.0645419999999999,0
44,-0.037589,0.7867974999999999,0.061867,-0.197105,0.5176375,-0.0152369999999999,-0.386775,0.5198674999999999,-0.132802,0.149355,0.5399174999999999,-0.0217899999999999,0.337605,0.5644374999999999,-0.1477119999999999,-0.516815,0.5291075,-0.291892,0.475915,0.5946975,-0.315222,-0.0634,-0.0014664999999999,0.001181,0.0634,0.0014665,-0.0011809999999999,-0.129405,-0.4993824999999999,-0.0072409999999999,0.137845,-0.5519625,0.000402,-0.170725,-0.8858825,-0.0656819999999999,0.168975,-0.9079225,-0.0656119999999999,0
45,-0.0377555,0.784953,0.0625945,-0.1971075,0.518933,-0.0147054999999999,-0.3908575,0.557883,-0.1327144999999999,0.1503125,0.5429729999999999,-0.0201494999999999,0.3376524999999999,0.604903,-0.1476144999999999,-0.5260575000000001,0.603363,-0.2918145,0.4782725,0.6704129999999999,-0.3151245,-0.0631485,-0.0017689999999999,0.0012795,0.0631485,0.0017689999999999,-0.0012794999999999,-0.1298775,-0.502917,-0.0071444999999999,0.1375825,-0.5535370000000001,0.0004985,-0.1708975,-0.890037,-0.0672045,0.1687925,-0.910957,-0.0641645,0
46,-0.037801,0.7831925000000001,0.063027,-0.1970869999999999,0.5207025000000001,-0.01387,-0.392417,0.5954725000000001,-0.1322819999999999,0.151833,0.5456825000000001,-0.0180649999999999,0.337673,0.6440925000000001,-0.1471819999999999,-0.5262570000000001,0.6748625,-0.288702,0.478283,0.7445025000000001,-0.308122,-0.062913,-0.0019465,0.0015109999999999,0.062913,0.0019465,-0.0015109999999999,-0.130287,-0.5056875,-0.0067129999999999,0.137423,-0.5555375,0.000814,-0.170727,-0.8941074999999999,-0.067812,0.168603,-0.9129475,-0.0615419999999999,0
47,-0.0377799999999999,0.7816615,0.063873,-0.197606,0.5228915000000001,-0.0126589999999999,-0.392396,0.6305815,-0.129066,0.152664,0.5481915,-0.0157189999999999,0.337684,0.6765815000000001,-0.141016,-0.526246,0.7410515000000001,-0.2784959999999999,0.478274,0.8082415000000001,-0.2906459999999999,-0.062666,-0.0020155,0.001647,0.062666,0.0020155,-0.001647,-0.130586,-0.5095385,-0.006753,0.137374,-0.5584085,0.001412,-0.171396,-0.8979984999999999,-0.067416,0.168444,-0.9156285,-0.058898,0
48,-0.0376335,0.7795974999999999,0.0650205,-0.1982995,0.5249075,-0.0110464999999999,-0.3922595,0.6607975,-0.1212684999999999,0.1535805,0.5500975,-0.0133075,0.3376205,0.7068375,-0.1319185,-0.5261294999999999,0.7996475,-0.2612485,0.4783905,0.8676375,-0.2710385,-0.0624885,-0.0021375,0.0017204999999999,0.0624885,0.0021375,-0.0017204999999999,-0.1307195,-0.5138024999999999,-0.0066605,0.1371305,-0.5601225,0.0020905,-0.1714195,-0.9019925,-0.0662685,0.1680905,-0.9185325,-0.0563105,0
49,-0.0373765,0.776496,0.0663025,-0.1987515,0.526956,-0.0087184999999999,-0.3920415,0.689236,-0.1109314999999999,0.1538784999999999,0.552586,-0.0105875,0.3340685,0.733696,-0.1202314999999999,-0.5259315,0.8477560000000001,-0.2373415,0.4686885,0.918226,-0.2427414999999999,-0.0622485,-0.002042,0.0016164999999999,0.0622485,0.002042,-0.0016164999999999,-0.1304715,-0.514174,-0.0064704999999999,0.1371385,-0.563634,0.0031395,-0.1711815,-0.904764,-0.0647514999999999,0.1678885,-0.922924,-0.0540354999999999,0
50,-0.0370825,0.7733105,0.0668565,-0.1992104999999999,0.5291705,-0.0062274999999999,-0.3904305,0.7145805,-0.1006204999999999,0.1542995,0.5545905,-0.0081414999999999,0.3289495,0.7561705,-0.1079504999999999,-0.5192705000000001,0.8929705,-0.2147905,0.4545895,0.9593305,-0.2143005,-0.0620045,-0.0018285,0.0013915,0.0620045,0.0018284999999999,-0.0013914999999999,-0.1302405,-0.5136095,-0.0060954999999999,0.1372095,-0.5676495,0.0042075,-0.1704205,-0.9067995,-0.0602404999999999,0.1681695,-0.9278295,-0.0533754999999999,0
51,-0.036473,0.7700490000000001,0.0669889999999999,-0.199716,0.5307390000000001,-0.00368,-0.386456,0.7358790000000001,-0.089713,0.154724,0.556749,-0.00521,0.318704,0.7733190000000001,-0.094333,-0.506506,0.930369,-0.190553,0.435214,0.994999,-0.183583,-0.061716,-0.001749,0.0009479999999999,0.061716,0.001749,-0.000948,-0.130146,-0.514931,-0.005217,0.137354,-0.571241,0.0054299999999999,-0.170136,-0.910931,-0.058403,0.168604,-0.932641,-0.052296,0
52,-0.035543,0.767134,0.0660309999999999,-0.200062,0.532254,-0.001047,-0.380142,0.751934,-0.078671,0.155168,0.5577439999999999,-0.002565,0.309008,0.789014,-0.081391,-0.4897519999999999,0.960574,-0.165621,0.415598,1.0240740000000002,-0.154291,-0.061465,-0.001647,0.0005519999999999,0.061465,0.001647,-0.000552,-0.129892,-0.516036,-0.004449,0.137708,-0.5749660000000001,0.0064459999999999,-0.168582,-0.910456,-0.051409,0.168988,-0.936766,-0.050564,0
53,-0.0346434999999999,0.7642825,0.063967,-0.2003895,0.5337824999999999,0.0013889999999999,-0.3712495,0.7663225,-0.06728,0.1554305,0.5588925,-0.000289,0.2972605,0.8026425,-0.06816,-0.4679795,0.9856425,-0.1414,0.3907104999999999,1.0478425,-0.12662,-0.0612734999999999,-0.0014715,-2.5000000000004186e-05,0.0612734999999999,0.0014715,2.4999999999997247e-05,-0.1295595,-0.5186975,-0.004046,0.1380205,-0.5779975,0.0071449999999999,-0.1671895,-0.9093475,-0.044597,0.1691105,-0.9395675,-0.048787,0
54,-0.0335755,0.7612855,0.061621,-0.2005215,0.5349355,0.0040159999999999,-0.3606315,0.7773954999999999,-0.05624,0.1555385,0.5600855,0.002159,0.2832585,0.8144855,-0.0554,-0.4416115,1.0091455,-0.11738,0.3661385,1.0683455000000002,-0.1023399999999999,-0.0610705,-0.0011385,-0.000896,0.0610705,0.0011385,0.000896,-0.1292315,-0.5208045,-0.0035359999999999,0.1383085,-0.5809945000000001,0.0078649999999999,-0.1659315,-0.9082645,-0.037913,0.1697185,-0.9417845,-0.0457459999999999,0
55,-0.03225,0.7583285,0.0590194999999999,-0.20043,0.5354485,0.0065314999999999,-0.34802,0.7853485,-0.0461235,0.15521,0.5619685,0.0046415,0.2705,0.8220284999999999,-0.0438184999999999,-0.41465,1.0277885,-0.0961605,0.33987,1.0823885,-0.0794905,-0.060863,-0.0007974999999999,-0.0018025,0.060863,0.0007974999999999,0.0018024999999999,-0.12906,-0.5210615,-0.0031225,0.13842,-0.5831315,0.0084664999999999,-0.16454,-0.9074715,-0.0318245,0.16985,-0.9439415,-0.0427815,0
56,-0.030275,0.7547505,0.0565175,-0.199957,0.5345505,0.0089975,-0.336187,0.7901305,-0.0367604999999999,0.154973,0.5629605,0.0072235,0.260533,0.8313405,-0.0357415,-0.388347,1.0418105,-0.0777735,0.316283,1.1012105,-0.0609734999999999,-0.060611,-0.0006564999999999,-0.0029775,0.060611,0.0006565,0.0029775,-0.1286769999999999,-0.5191995,-0.0024174999999999,0.138403,-0.5850095,0.0091665,-0.1629769999999999,-0.9055595,-0.0253475,0.170543,-0.9471595,-0.0401894999999999,0
57,-0.0279965,0.7507375000000001,0.054165,-0.1995205,0.5331475,0.0113189999999999,-0.3270405,0.7935175,-0.030495,0.1549895,0.5637875,0.009845,0.2503095,0.8336075000000001,-0.027994,-0.3632105,1.0535774999999998,-0.061876,0.2920395,1.1072775,-0.045326,-0.0603735,-0.0004994999999999,-0.004156,0.0603735,0.0004994999999999,0.004156,-0.1283605,-0.5183025,-0.001736,0.1382995,-0.5866225,0.0098829999999999,-0.1617005,-0.9036725,-0.0188979999999999,0.1709795,-0.9507925,-0.038702,0
58,-0.02574,0.7470285,0.051726,-0.199195,0.5313285,0.013174,-0.317995,0.7948185,-0.025506,0.155135,0.5637385,0.012643,0.2403249999999999,0.8346685,-0.0216519999999999,-0.342795,1.0662585,-0.0498079999999999,0.271015,1.1144585,-0.0327839999999999,-0.060216,-0.0005344999999999,-0.0052759999999999,0.060216,0.0005344999999999,0.005276,-0.128025,-0.5196215,-0.0008269999999999,0.1379449999999999,-0.5872615,0.010489,-0.160405,-0.9011415,-0.0122779999999999,0.171185,-0.9537115,-0.0372939999999999,0
59,-0.0236705,0.7426379999999999,0.0496135,-0.1987805,0.529258,0.0148895,-0.3095305,0.7941879999999999,-0.0212645,0.1553595,0.5632680000000001,0.0153775,0.2315395,0.8354980000000001,-0.0163625,-0.3237905,1.073878,-0.0384265,0.2518795,1.120578,-0.0222445,-0.0600075,-0.000516,-0.0063705,0.0600075,0.000516,0.0063705,-0.1280005,-0.522382,8.650000000000324e-05,0.1374595,-0.587812,0.0111045,-0.1593905,-0.900282,-0.0077654999999999,0.1712995,-0.956722,-0.0359375,0
60,-0.021921,0.738482,0.04764,-0.198188,0.526862,0.016429,-0.301978,0.793392,-0.017806,0.155532,0.5620120000000001,0.017384,0.224472,0.836912,-0.0124099999999999,-0.308888,1.080392,-0.0299079999999999,0.235762,1.123492,-0.0141349999999999,-0.0598309999999999,-0.0005369999999999,-0.00737,0.0598309999999999,0.0005369999999999,0.00737,-0.127788,-0.521718,0.000609,0.136962,-0.587948,0.011666,-0.158518,-0.900448,-0.004122,0.171242,-0.960698,-0.0363339999999999,0
61,-0.0204475,0.7346585,0.04613,-0.1978795,0.5242485,0.017686,-0.2958395,0.7924585,-0.0151859999999999,0.1556205,0.5608285,0.019302,0.2186005,0.8358585,-0.009186,-0.2966195,1.0857385,-0.0239979999999999,0.2221505,1.1254385,-0.0076999999999999,-0.0597385,-0.0007184999999999,-0.0083359999999999,0.0597385,0.0007184999999999,0.008336,-0.1277695,-0.5249815,0.001333,0.1364205,-0.5879315,0.012245,-0.1582295,-0.9030315,-0.0028349999999999,0.1713305,-0.9648415,-0.036979,0
62,-0.019033,0.7310675,0.045213,-0.197571,0.5214075,0.01888,-0.291581,0.7909275,-0.0137029999999999,0.155899,0.5596975,0.021133,0.213579,0.8345675,-0.0066999999999999,-0.288731,1.0886775,-0.0196669999999999,0.212269,1.1265775,-0.0035909999999999,-0.059647,-0.0008965,-0.0093339999999999,0.059647,0.0008964999999999,0.009334,-0.127911,-0.5259425,0.001797,0.135889,-0.5879325000000001,0.012827,-0.158021,-0.9041225,-0.0009649999999999,0.171419,-0.9686725,-0.03762,0
63,-0.017972,0.7284975,0.044569,-0.197455,0.5189475,0.0198329999999999,-0.288175,0.7893675,-0.012744,0.155925,0.5587075,0.0226079999999999,0.211185,0.8350875,-0.005225,-0.284155,1.0865075,-0.018706,0.204635,1.1295075,-0.00107,-0.059547,-0.0010494999999999,-0.010159,0.059547,0.0010495,0.010159,-0.128075,-0.5275924999999999,0.00218,0.135365,-0.5879624999999999,0.0133189999999999,-0.157915,-0.9041625,0.0007129999999999,0.171355,-0.9712425,-0.036667,0
64,-0.0173114999999999,0.7259580000000001,0.044105,-0.1974715,0.516518,0.020544,-0.2860415,0.7877080000000001,-0.0120289999999999,0.1562085,0.556978,0.023652,0.2091184999999999,0.8354680000000001,-0.004358,-0.2806515,1.084298,-0.0179889999999999,0.2004285,1.132298,8.299999999999974e-05,-0.0593805,-0.0012959999999999,-0.011018,0.0593805,0.001296,0.011018,-0.1281915,-0.529212,0.002392,0.1348085,-0.5878920000000001,0.013686,-0.1579215,-0.903812,0.001806,0.1715985,-0.973672,-0.035914,0
65,-0.0171845,0.7242455,0.0437475,-0.1974925,0.5150155,0.0208995,-0.2846025,0.7870755,-0.0116614999999999,0.1564175,0.5561855,0.0243205,0.2076875,0.8367255,-0.0039944999999999,-0.2788125,1.0835455,-0.0176204999999999,0.1970275,1.1356455,0.0004425,-0.0592395,-0.0013925,-0.0115434999999999,0.0592395,0.0013925,0.0115435,-0.1281824999999999,-0.5293345,0.0027115,0.1344075,-0.5879045,0.0138365,-0.1577825,-0.9024945,0.0026535,0.1720674999999999,-0.9748445,-0.0359084999999999,0
66,-0.01728,0.7225595,0.0434495,-0.197566,0.5138395,0.0211055,-0.283826,0.7863295,-0.0114684999999999,0.1565639999999999,0.5557095,0.0248465,0.206544,0.8364095,-0.0037245,-0.278936,1.0825895,-0.0175135,0.195484,1.1340895,0.0007115,-0.059116,-0.0014585,-0.0120104999999999,0.059116,0.0014585,0.0120105,-0.128166,-0.5294805,0.0029544999999999,0.134094,-0.5879205000000001,0.0139385,-0.1575559999999999,-0.9016905,0.0034114999999999,0.171734,-0.9756505,-0.0349425,0
67,-0.0173275,0.7212705,0.043199,-0.1976665,0.5129305,0.0211069999999999,-0.2837065,0.7855105,-0.012003,0.1565535,0.5553205,0.025075,0.2058435,0.8354505,-0.0036459999999999,-0.2790465,1.0814305,-0.018185,0.1949935,1.1332305,0.000432,-0.0590215,-0.0014765,-0.012337,0.0590215,0.0014765,0.0123369999999999,-0.1281565,-0.5297795,0.0030349999999999,0.1339735,-0.5879695,0.0140179999999999,-0.1572665,-0.9025295,0.0041809999999999,0.1716235,-0.9764095,-0.035036,0
68,-0.017485,0.720151,0.0430509999999999,-0.197814,0.512281,0.0210829999999999,-0.283864,0.784721,-0.012909,0.156426,0.555161,0.0252499999999999,0.2050259999999999,0.834551,-0.004007,-0.279204,1.080331,-0.019642,0.194836,1.132331,-0.0001649999999999,-0.058962,-0.0014539999999999,-0.012465,0.058962,0.0014539999999999,0.0124649999999999,-0.128314,-0.533269,0.0034079999999999,0.133816,-0.588079,0.0140729999999999,-0.156984,-0.903189,0.004565,0.171476,-0.976939,-0.035073,0
69,-0.0176325,0.7193095,0.042912,-0.1979585,0.5117795,0.02099,-0.2840085,0.7839495,-0.013839,0.1562815,0.5551695,0.025341,0.2042715,0.8335595,-0.004442,-0.2802385,1.0791595,-0.0219199999999999,0.1946915,1.1313595,-0.0007979999999999,-0.0589255,-0.0013895,-0.012475,0.0589255,0.0013894999999999,0.012475,-0.1284985,-0.5370305,0.0037029999999999,0.1336715,-0.5882405,0.014016,-0.1567184999999999,-0.9030005,0.004865,0.1715915,-0.9778305,-0.035259,0
70,-0.0179905,0.7186515,0.0426055,-0.1981145,0.5113915,0.0207765,-0.2841645,0.7833215,-0.0145565,0.1561255,0.5551714999999999,0.0252475,0.2036255,0.8341615,-0.0049535,-0.2819345,1.0785315,-0.0242054999999999,0.1945555,1.1307315,-0.0015265,-0.0588945,-0.0013225,-0.0126074999999999,0.0588945,0.0013225,0.0126075,-0.1285845,-0.5400484999999999,0.0036495,0.1335155,-0.5884484999999999,0.0137325,-0.1567545,-0.9042785,0.0046965,0.1718855,-0.9786885,-0.0356284999999999,0
71,-0.018817,0.7184655,0.0421675,-0.198311,0.5112954999999999,0.0204255,-0.284551,0.7830355,-0.0153485,0.155949,0.5553954999999999,0.0249884999999999,0.203559,0.8319354999999999,-0.0054775,-0.284061,1.0776455,-0.0262345,0.195319,1.1257454999999998,-0.0025755,-0.058893,-0.0012615,-0.0128665,0.058893,0.0012614999999999,0.0128664999999999,-0.128851,-0.5417445000000001,0.0033904999999999,0.133219,-0.5879645,0.0133344999999999,-0.156911,-0.9056945,0.0044374999999999,0.171819,-0.9789445,-0.0358155,0
72,-0.0197765,0.7184955,0.0414515,-0.1985955,0.5114155,0.0197715,-0.2853555,0.7822054999999999,-0.0166184999999999,0.1556645,0.5557455,0.0244665,0.2032245,0.8320755,-0.0061915,-0.2862255,1.0766455,-0.0281764999999999,0.1960145,1.1280455,-0.0034354999999999,-0.0588815,-0.0012615,-0.0132014999999999,0.0588815,0.0012614999999999,0.0132015,-0.1291955,-0.5431545,0.0028285,0.1330245,-0.5872445,0.0127475,-0.1571655,-0.9057345,0.0039165,0.1713945,-0.9782345,-0.0351905,0
73,-0.020858,0.7184955,0.040533,-0.198913,0.5114155,0.018867,-0.2866829999999999,0.7809355,-0.0181649999999999,0.1551769999999999,0.5559354999999999,0.023738,0.202897,0.8320755,-0.0071319999999999,-0.288273,1.0758455,-0.0298809999999999,0.1975269999999999,1.1269455,-0.005433,-0.058887,-0.0012615,-0.013565,0.058887,0.0012614999999999,0.013565,-0.129533,-0.5432045,0.001621,0.1328369999999999,-0.5867645,0.011879,-0.157493,-0.9064945,0.0026429999999999,0.171117,-0.9770345,-0.03446,0
74,-0.0219849999999999,0.7184955,0.039147,-0.199247,0.5114155,0.017501,-0.288087,0.7794755,-0.020314,0.154623,0.5559354999999999,0.022579,0.202553,0.8320755,-0.0086009999999999,-0.290587,1.0751455,-0.0319529999999999,0.199373,1.1255455,-0.0077379999999999,-0.058903,-0.0012615,-0.0137779999999999,0.058903,0.0012614999999999,0.0137779999999999,-0.129887,-0.5433345,-0.0003159999999999,0.132683,-0.5866845,0.009134,-0.157837,-0.9079145,0.000862,0.170813,-0.9767845,-0.0351589999999999,0
75,-0.02312,0.7188815,0.037277,-0.199659,0.5117915,0.015718,-0.289259,0.7782115000000001,-0.023044,0.154051,0.5563214999999999,0.020896,0.202131,0.8324615,-0.0106989999999999,-0.292709,1.0743315,-0.035226,0.201181,1.1235315,-0.010376,-0.058978,-0.0012005,-0.013664,0.058978,0.0012004999999999,0.013664,-0.130589,-0.5444385,-0.0037659999999999,0.132521,-0.5862985000000001,0.005656,-0.158929,-0.9097285,-0.0019129999999999,0.170731,-0.9763985,-0.0367159999999999,0
76,-0.024401,0.7189139999999999,0.034398,-0.20027,0.5125339999999999,0.0136089999999999,-0.29044,0.7762239999999999,-0.0264669999999999,0.1532899999999999,0.5572239999999999,0.018943,0.20177,0.832754,-0.0133689999999999,-0.29475,1.073534,-0.038639,0.20287,1.122034,-0.013304,-0.059078,-0.001259,-0.0132019999999999,0.059078,0.0012589999999999,0.0132019999999999,-0.1314,-0.5427960000000001,-0.008895,0.13223,-0.584866,0.001015,-0.16051,-0.910366,-0.006045,0.16951,-0.974856,-0.037579,0
77,-0.025688,0.7182665,0.0307115,-0.200979,0.5132965,0.0109485,-0.291479,0.7741265,-0.0307064999999999,0.152371,0.5584165,0.0164125,0.2016909999999999,0.8312065,-0.0170675,-0.296509,1.0727265,-0.0425045,0.204541,1.1198264999999998,-0.0174224999999999,-0.059148,-0.0011964999999999,-0.0130094999999999,0.059148,0.0011965,0.0130095,-0.132459,-0.5411135,-0.0154045,0.1319509999999999,-0.5829335,-0.0047234999999999,-0.162329,-0.9133235,-0.0112535,0.168181,-0.9730835,-0.0390625,0
78,-0.027074,0.7180085,0.026161,-0.2017,0.5150284999999999,0.007751,-0.29241,0.7715084999999999,-0.035932,0.1513499999999999,0.5605985,0.0130969999999999,0.2019699999999999,0.8286085000000001,-0.0215889999999999,-0.29762,1.0712585,-0.047087,0.20549,1.1155585,-0.0226439999999999,-0.059165,-0.0015534999999999,-0.0126089999999999,0.059165,0.0015534999999999,0.012609,-0.13422,-0.5379515,-0.024188,0.1319499999999999,-0.5792315,-0.012963,-0.16456,-0.9152915,-0.017237,0.1673599999999999,-0.9701515,-0.041754,0
79,-0.0286835,0.7173415000000001,0.0205389999999999,-0.2019385,0.5167815,0.0038769999999999,-0.2934184999999999,0.7694715000000001,-0.041874,0.1496115,0.5595015000000001,0.0082169999999999,0.2021915,0.8272815,-0.026769,-0.2986284999999999,1.0701515,-0.052568,0.2062515,1.1123515,-0.028044,-0.0592135,-0.0016044999999999,-0.012068,0.0592135,0.0016044999999999,0.0120679999999999,-0.1369685,-0.5345785,-0.0351999999999999,0.1319115,-0.5736785,-0.0229059999999999,-0.1669585,-0.9155985,-0.023603,0.1661715,-0.9652785,-0.0447059999999999,0
80,-0.029888,0.7155535,0.014642,-0.202208,0.5183234999999999,-0.0004559999999999,-0.294618,0.7666335,-0.048843,0.147422,0.5571635,0.002721,0.202312,0.8248234999999999,-0.0334929999999999,-0.299828,1.0680135000000002,-0.059002,0.2068019999999999,1.1081135000000002,-0.03444,-0.0591659999999999,-0.0018365,-0.0113609999999999,0.0591659999999999,0.0018365,0.011361,-0.140208,-0.5306164999999999,-0.0473279999999999,0.131932,-0.5665365,-0.035563,-0.169528,-0.9157365,-0.0304359999999999,0.164962,-0.9598565,-0.0478499999999999,0
81,-0.031177,0.7124324999999999,0.0090335,-0.201601,0.5165725,-0.0057315,-0.2959009999999999,0.7641724999999999,-0.0562245,0.145539,0.5523925,-0.0027884999999999,0.202419,0.8212925,-0.0400004999999999,-0.301111,1.0614625,-0.0690645,0.207189,1.1095625,-0.0400445,-0.059092,-0.0019964999999999,-0.0105205,0.059092,0.0019964999999999,0.0105205,-0.143721,-0.5260475,-0.0601245,0.132069,-0.5582075,-0.0491425,-0.172201,-0.9139275,-0.0372725,0.164129,-0.9540475,-0.0513425,0
82,-0.032736,0.7120635000000001,0.0034019999999999,-0.201266,0.5183935000000001,-0.010306,-0.296766,0.7613835,-0.063452,0.143754,0.5511635,-0.007442,0.2022739999999999,0.8225735000000001,-0.046078,-0.3025159999999999,1.0583135,-0.078582,0.206574,1.1118135,-0.045606,-0.059077,-0.0025985,-0.008961,0.059077,0.0025984999999999,0.0089609999999999,-0.148056,-0.5179265,-0.073382,0.132274,-0.5466165000000001,-0.062972,-0.175166,-0.9083965,-0.0435399999999999,0.163014,-0.9442365,-0.054224,0
83,-0.034136,0.7115790000000001,-0.0020644999999999,-0.200619,0.519399,-0.0147515,-0.297289,0.758239,-0.0703645,0.141061,0.550349,-0.0119265,0.202621,0.824549,-0.0521665,-0.303379,1.055179,-0.0883644999999999,0.206371,1.1077789999999998,-0.0536615,-0.059309,-0.0030919999999999,-0.0075085,0.059309,0.0030919999999999,0.0075085,-0.152559,-0.508571,-0.0871845,0.132711,-0.534891,-0.0761945,-0.177889,-0.901801,-0.0495825,0.161901,-0.934251,-0.0568344999999999,0
84,-0.035475,0.707589,-0.0068845,-0.1998039999999999,0.5158590000000001,-0.0192555,-0.297704,0.754799,-0.0769825,0.138286,0.549529,-0.0156205,0.2030759999999999,0.821849,-0.0584495,-0.303854,1.052549,-0.0971625,0.206026,1.104649,-0.0610625,-0.05956,-0.0034529999999999,-0.0064535,0.05956,0.0034529999999999,0.0064535,-0.157054,-0.497491,-0.0991825,0.133396,-0.522401,-0.0893925,-0.179944,-0.8907609999999999,-0.0528055,0.160436,-0.922571,-0.0585855,1
85,-0.0366935,0.7055635,-0.0109205,-0.1989765,0.5149535,-0.0235155,-0.2980365,0.7536735,-0.0834975,0.1354334999999999,0.5495234999999999,-0.0191005,0.2033634999999999,0.8225635,-0.0642375,-0.3043465,1.0514335,-0.1065375,0.2055235,1.1032335,-0.0683075,-0.0598945,-0.0034785,-0.0059745,0.0598945,0.0034784999999999,0.0059745,-0.1617064999999999,-0.4837865,-0.1106775,0.1339935,-0.5074164999999999,-0.1028575,-0.1818965,-0.8768465,-0.0551235,0.1588935,-0.9081365,-0.0602534999999999,1
86,-0.03787,0.7041360000000001,-0.015316,-0.198019,0.5129360000000001,-0.028599,-0.298149,0.7528360000000001,-0.0901459999999999,0.1326609999999999,0.544416,-0.024788,0.203371,0.822636,-0.069856,-0.304429,1.050596,-0.1170959999999999,0.205001,1.103896,-0.075076,-0.0601929999999999,-0.004427,-0.005336,0.0601929999999999,0.004427,0.0053359999999999,-0.167319,-0.469804,-0.123466,0.134691,-0.491624,-0.1172359999999999,-0.183609,-0.860344,-0.057364,0.1577509999999999,-0.891214,-0.062956,1
87,-0.039129,0.7026145,-0.019611,-0.197099,0.5109245,-0.0330969999999999,-0.298439,0.7518845,-0.096076,0.129811,0.5389845,-0.029612,0.203231,0.8214144999999999,-0.074746,-0.304419,1.0495645,-0.127246,0.204461,1.1043645,-0.080996,-0.060462,-0.0046195,-0.0049929999999999,0.060462,0.0046195,0.0049929999999999,-0.172499,-0.4570355,-0.134786,0.135341,-0.4757655,-0.130376,-0.185329,-0.8438855000000001,-0.059025,0.157171,-0.8759555,-0.0677059999999999,1
88,-0.040086,0.7002554999999999,-0.022708,-0.1966899999999999,0.5095055,-0.0367249999999999,-0.29874,0.7489454999999999,-0.101209,0.12718,0.5370754999999999,-0.032679,0.20318,0.8188955,-0.079019,-0.3045,1.0431455,-0.136729,0.20401,1.1026455,-0.086709,-0.0607609999999999,-0.0049345,-0.005094,0.0607609999999999,0.0049345,0.005094,-0.1769299999999999,-0.4452244999999999,-0.144379,0.13615,-0.4600845,-0.142129,-0.1870099999999999,-0.8281145000000001,-0.060868,0.15636,-0.8610345,-0.071229,1
89,-0.0402305,0.700051,-0.0264735,-0.1955805,0.5085109999999999,-0.0409885,-0.2982605,0.746461,-0.1066405,0.1258395,0.5378609999999999,-0.0362305,0.2040395,0.815401,-0.0831405,-0.3038505,1.038601,-0.1464504999999999,0.2044195,1.095481,-0.0936705,-0.0604595,-0.0053689999999999,-0.0051725,0.0604595,0.005369,0.0051725,-0.1809305,-0.432279,-0.1550205,0.1378095,-0.443649,-0.1531405,-0.1878304999999999,-0.8106990000000001,-0.0636125,0.1562495,-0.844579,-0.0749705,1
90,-0.0409965,0.7002895,-0.03077,-0.1958495,0.5081895,-0.044479,-0.2984095,0.7458095,-0.111222,0.1242305,0.5355995,-0.041504,0.2040405,0.8129195,-0.087292,-0.3043095,1.0397895,-0.152312,0.2041805,1.0907895,-0.100222,-0.0608065,-0.0057824999999999,-0.0055339999999999,0.0608065,0.0057825,0.005534,-0.1860095,-0.4132305,-0.167392,0.1388005,-0.4223005,-0.164592,-0.1891895,-0.7910705,-0.0658719999999999,0.1561905,-0.8236905,-0.0790819999999999,1
91,-0.0414795,0.6971455,-0.03478,-0.1959345,0.5047254999999999,-0.048406,-0.2990745,0.7443755,-0.1160819999999999,0.1231155,0.5303154999999999,-0.047034,0.2041555,0.8059655,-0.092072,-0.3047045,1.0358555,-0.158862,0.2041355,1.0822955,-0.107112,-0.0609565,-0.0057485,-0.005672,0.0609565,0.0057484999999999,0.0056719999999999,-0.1905045,-0.3985944999999999,-0.178972,0.1398455,-0.4051845,-0.177012,-0.1905144999999999,-0.7744145,-0.068352,0.1565055,-0.8065945,-0.085082,1
92,-0.0431555,0.697165,-0.044982,-0.1973965,0.5056350000000001,-0.058757,-0.3009365,0.746645,-0.127538,0.1210735,0.529075,-0.058904,0.2028235,0.803535,-0.102878,-0.3064665,1.036755,-0.171258,0.2024834999999999,1.086315,-0.117618,-0.0599835,-0.0056749999999999,-0.005691,0.0599835,0.0056749999999999,0.0056909999999999,-0.1965365,-0.378225,-0.196828,0.1398635,-0.385085,-0.195508,-0.1929765,-0.752475,-0.077468,0.1559934999999999,-0.784915,-0.0978779999999999,1
93,-0.0442545,0.70291,-0.0555925,-0.1972465,0.50779,-0.0703685,-0.3027265,0.7502300000000001,-0.1391695,0.1193935,0.5271399999999999,-0.0712795,0.2014735,0.80675,-0.1127395,-0.3080265,1.0335,-0.1847194999999999,0.2014935,1.09102,-0.1289894999999999,-0.0589675,-0.0060299999999999,-0.0060205,0.0589675,0.00603,0.0060204999999999,-0.2059565,-0.35584,-0.2212595,0.1403935,-0.36327,-0.2201695,-0.1995365,-0.72912,-0.0941295,0.1556235,-0.76156,-0.1167295,1
94,-0.0450305,0.7053799999999999,-0.066686,-0.1968174999999999,0.50764,-0.0821539999999999,-0.3041375,0.75265,-0.150728,0.1180425,0.52486,-0.0838309999999999,0.2004024999999999,0.8076099999999999,-0.122838,-0.3091275,1.02962,-0.1976679999999999,0.2011325,1.09349,-0.140728,-0.0578345,-0.00667,-0.0068869999999999,0.0578345,0.0066699999999999,0.0068869999999999,-0.2151874999999999,-0.33568,-0.2456679999999999,0.1413825,-0.34325,-0.243758,-0.2061474999999999,-0.7081500000000001,-0.110898,0.1555925,-0.74044,-0.1356979999999999,1
95,-0.045653,0.709015,-0.078189,-0.196101,0.5109349999999999,-0.094192,-0.305211,0.755485,-0.163393,0.117089,0.530115,-0.095141,0.199709,0.806785,-0.134283,-0.309811,1.028175,-0.211003,0.201409,1.093085,-0.153663,-0.056574,-0.006845,-0.008073,0.056574,0.0068449999999999,0.008073,-0.2237309999999999,-0.314915,-0.2691429999999999,0.142699,-0.322215,-0.267763,-0.213021,-0.686935,-0.128423,0.155709,-0.719195,-0.154053,1
96,-0.0459735,0.71216,-0.0893225,-0.1950505,0.51317,-0.1068825,-0.3060205,0.75982,-0.1765924999999999,0.1161095,0.5349900000000001,-0.1069125,0.1992895,0.80752,-0.1461124999999999,-0.3104805,1.02728,-0.2254024999999999,0.2024995,1.08897,-0.1672725,-0.0555675,-0.0073799999999999,-0.0094745,0.0555675,0.0073799999999999,0.0094745,-0.2326505,-0.29423,-0.2922325,0.1443795,-0.30125,-0.2910324999999999,-0.2197905,-0.66572,-0.1457024999999999,0.1562495,-0.69792,-0.1718525,1
97,-0.046287,0.71514,-0.1006315,-0.194074,0.51343,-0.1199365,-0.3066339999999999,0.76474,-0.1900565,0.1150559999999999,0.53965,-0.1188265,0.199246,0.80824,-0.1579765,-0.311234,1.03173,-0.2398165,0.203796,1.08622,-0.1808364999999999,-0.0545449999999999,-0.00814,-0.0120735,0.0545449999999999,0.0081399999999999,0.0120735,-0.241974,-0.27337,-0.3149065,0.146336,-0.28007,-0.3139865,-0.226944,-0.64449,-0.1635865,0.156816,-0.67615,-0.1893965,1
98,-0.0464269999999999,0.7165349999999999,-0.1127775,-0.192832,0.5133749999999999,-0.1336235,-0.306982,0.769685,-0.2039735,0.114748,0.542165,-0.1314035,0.199658,0.8103049999999999,-0.1705335,-0.311652,1.035185,-0.2552735,0.205388,1.090005,-0.1938535,-0.05347,-0.008615,-0.0141635,0.05347,0.0086149999999999,0.0141634999999999,-0.251352,-0.251895,-0.3370835,0.148678,-0.260515,-0.3366435,-0.233982,-0.6249950000000001,-0.1820635,0.157468,-0.654715,-0.2067935,1
99,-0.0464205,0.718865,-0.1243755,-0.1915535,0.515855,-0.1469345,-0.3070135,0.771855,-0.2178245,0.1143365,0.548605,-0.1424145,0.2004565,0.8123849999999999,-0.1834345,-0.3116435,1.037455,-0.2711445,0.2073365,1.090815,-0.2069845,-0.0523804999999999,-0.009105,-0.0160665,0.0523804999999999,0.009105,0.0160664999999999,-0.2604134999999999,-0.233175,-0.3565745,0.1516565,-0.243215,-0.3576745,-0.2409135,-0.608415,-0.2007945,0.1582965,-0.635065,-0.2234545,1
100,-0.046446,0.72282,-0.1361045,-0.1902529999999999,0.51649,-0.1605585,-0.306943,0.777,-0.2313385,0.113857,0.55287,-0.1543385,0.201347,0.8173,-0.1962785,-0.311003,1.0435,-0.2868485,0.209527,1.09378,-0.2201085,-0.0513659999999999,-0.0096499999999999,-0.0180525,0.0513659999999999,0.0096499999999999,0.0180525,-0.270253,-0.21264,-0.3760785,0.154857,-0.22397,-0.3776184999999999,-0.248243,-0.59018,-0.2192385,0.159237,-0.61377,-0.2397485,1
101,-0.0456665,0.723205,-0.1398315,-0.1880545,0.513285,-0.1659435,-0.3058445,0.778255,-0.2364335,0.1141754999999999,0.552335,-0.1582635,0.2033154999999999,0.817055,-0.2013335,-0.3092645,1.044605,-0.2945935,0.2127254999999999,1.092145,-0.2251135,-0.0508705,-0.010355,-0.0189204999999999,0.0508705,0.010355,0.0189205,-0.2786245,-0.196455,-0.3863935,0.1587754999999999,-0.209385,-0.3887935,-0.2545445,-0.577805,-0.2295435,0.1606855,-0.599095,-0.2480735,1
102,-0.0449455,0.721265,-0.1423925,-0.1874354999999999,0.513625,-0.1685525,-0.3047755,0.778305,-0.2399925,0.1147144999999999,0.551915,-0.1614125,0.2051045,0.816015,-0.2056625,-0.3074155,1.050045,-0.2998425,0.2156845,1.088495,-0.2287125,-0.0503035,-0.0106549999999999,-0.0189825,0.0503035,0.010655,0.0189825,-0.2835255,-0.1869849999999999,-0.3888025,0.1623445,-0.2003649999999999,-0.3920825,-0.2563755,-0.568295,-0.2314125,0.1621945,-0.588925,-0.2506625,1
103,-0.0440455,0.721395,-0.144282,-0.1867065,0.5138550000000001,-0.170887,-0.3035865,0.7783450000000001,-0.242917,0.1153235,0.551085,-0.164487,0.2070735,0.814345,-0.209777,-0.3055465,1.054995,-0.304847,0.2186035,1.085305,-0.231847,-0.0495865,-0.0108849999999999,-0.018801,0.0495865,0.010885,0.018801,-0.2880165,-0.178085,-0.390347,0.1659335,-0.1919249999999999,-0.395037,-0.2577565,-0.5593549999999999,-0.233007,0.1639435,-0.579665,-0.253117,1
104,-0.0427525,0.721705,-0.146096,-0.1854875,0.513325,-0.172995,-0.3020175,0.779485,-0.245035,0.1162925,0.549135,-0.167435,0.2095125,0.8178650000000001,-0.213265,-0.3034075,1.058895,-0.309145,0.2216925,1.084685,-0.234615,-0.0503544999999999,-0.0102649999999999,-0.01779,0.0503545,0.010265,0.01779,-0.2911975,-0.1710549999999999,-0.391435,0.1702525,-0.1850449999999999,-0.3979049999999999,-0.2579275,-0.5522549999999999,-0.234115,0.1666525,-0.572045,-0.2548249999999999,1
105,-0.041042,0.72252,-0.1482,-0.183524,0.5131699999999999,-0.17499,-0.299734,0.78006,-0.2467099999999999,0.117846,0.5470299999999999,-0.17048,0.212566,0.82085,-0.2170099999999999,-0.300774,1.06306,-0.31242,0.224916,1.08875,-0.23692,-0.050588,-0.00959,-0.0166429999999999,0.050588,0.0095899999999999,0.0166429999999999,-0.292924,-0.16493,-0.39265,0.174936,-0.17886,-0.40104,-0.257194,-0.5456300000000001,-0.2353299999999999,0.169926,-0.56543,-0.25661,1
106,-0.039499,0.724965,-0.15027,-0.181707,0.514845,-0.176652,-0.297807,0.7823249999999999,-0.247882,0.119223,0.5451349999999999,-0.173502,0.2150929999999999,0.823905,-0.220682,-0.2986769999999999,1.067265,-0.315122,0.227823,1.092715,-0.239232,-0.050844,-0.009015,-0.015562,0.050844,0.0090149999999999,0.015562,-0.294027,-0.159285,-0.393832,0.1791829999999999,-0.173305,-0.404092,-0.256007,-0.539745,-0.236302,0.173143,-0.5596450000000001,-0.258182,1
107,-0.0377385,0.728075,-0.1525475,-0.1797554999999999,0.516675,-0.1786125,-0.2957455,0.7853749999999999,-0.2494925,0.1207044999999999,0.544065,-0.1767725,0.2175445,0.8271949999999999,-0.2243625,-0.2966155,1.071585,-0.3173025,0.2306645,1.096335,-0.2420525,-0.0511165,-0.008465,-0.0145045,0.0511165,0.008465,0.0145045,-0.2937754999999999,-0.1543049999999999,-0.3947525,0.1831745,-0.168265,-0.4074025,-0.2542655,-0.5345850000000001,-0.2372225,0.1764245,-0.5543450000000001,-0.2597525,1
108,-0.0362755,0.7316499999999999,-0.1547974999999999,-0.1782215,0.51849,-0.1802734999999999,-0.2940015,0.78913,-0.2510135,0.1219784999999999,0.54514,-0.1794535,0.2193885,0.83033,-0.2275335,-0.2948714999999999,1.07564,-0.3188235,0.2329285,1.09937,-0.2448735,-0.0514105,-0.0078,-0.0134024999999999,0.0514105,0.0077999999999999,0.0134024999999999,-0.2929815,-0.15015,-0.3956235,0.1861785,-0.16421,-0.4102235,-0.2525215,-0.53027,-0.2381134999999999,0.1793585,-0.55012,-0.2619935,1
109,-0.035129,0.7338549999999999,-0.157223,-0.176937,0.520695,-0.181948,-0.292637,0.791335,-0.252688,0.1228529999999999,0.547345,-0.181518,0.220763,0.832005,-0.230598,-0.2935069999999999,1.077845,-0.3204979999999999,0.234293,1.100955,-0.247758,-0.051808,-0.007045,-0.012144,0.051808,0.0070449999999999,0.012144,-0.2916169999999999,-0.147625,-0.396628,0.188393,-0.161915,-0.412698,-0.251157,-0.5277850000000001,-0.239138,0.181833,-0.547615,-0.264278,1
110,-0.034049,0.73614,-0.1598815,-0.175748,0.52298,-0.1838665,-0.291508,0.79362,-0.2541765,0.1237419999999999,0.5496300000000001,-0.1836765,0.222022,0.8341799999999999,-0.2335465,-0.292428,1.08013,-0.3224165,0.235552,1.10299,-0.2506965,-0.052226,-0.00633,-0.0105924999999999,0.052226,0.00633,0.0105925,-0.290358,-0.1448999999999999,-0.3976564999999999,0.190242,-0.1595399999999999,-0.4150665,-0.249898,-0.5252600000000001,-0.2407965,0.184122,-0.5450200000000001,-0.2666965,1
111,-0.0332125,0.7380249999999999,-0.162721,-0.1748695,0.524865,-0.185771,-0.2908895,0.795505,-0.255531,0.1247404999999999,0.551515,-0.185581,0.2230204999999999,0.836065,-0.236261,-0.2919895,1.082015,-0.324191,0.2365605,1.104835,-0.253461,-0.0526525,-0.005755,-0.0090369999999999,0.0526525,0.005755,0.009037,-0.2893595,-0.142665,-0.398241,0.1915204999999999,-0.157655,-0.4174609999999999,-0.2487695,-0.523225,-0.242521,0.1861405,-0.542825,-0.269071,1
112,-0.0322625,0.74078,-0.1656719999999999,-0.1741965,0.52925,-0.187252,-0.2905264999999999,0.7973399999999999,-0.256662,0.1257434999999999,0.55414,-0.187442,0.2236735,0.83766,-0.238762,-0.2921165,1.08361,-0.325572,0.2373835,1.10643,-0.256082,-0.0530855,-0.0051299999999999,-0.007286,0.0530855,0.00513,0.007286,-0.2880164999999999,-0.1405799999999999,-0.398452,0.1928234999999999,-0.15603,-0.419712,-0.2466965,-0.52114,-0.243922,0.1881435,-0.54098,-0.271282,1
113,-0.0319405,0.742735,-0.168104,-0.1741965,0.531945,-0.188504,-0.2910065,0.798365,-0.257454,0.1260734999999999,0.555555,-0.189084,0.2233435,0.837695,-0.240784,-0.2931864999999999,1.083915,-0.326434,0.2371734999999999,1.106465,-0.258454,-0.0532735,-0.0050949999999999,-0.006069,0.0532735,0.005095,0.0060689999999999,-0.2872065,-0.139785,-0.3983339999999999,0.1933335,-0.155725,-0.421354,-0.2452465,-0.520645,-0.244804,0.1890234999999999,-0.540945,-0.273814,1
114,-0.0316545,0.745235,-0.1699835,-0.1742725,0.534615,-0.1896634999999999,-0.2915725,0.799865,-0.2580335,0.1263375,0.558125,-0.1903535,0.2228375,0.838125,-0.2423935,-0.2945025,1.084505,-0.3268835,0.2365275,1.106805,-0.2605935,-0.0533825,-0.0050749999999999,-0.0050135,0.0533825,0.0050749999999999,0.0050135,-0.2861625,-0.138885,-0.3981435,0.1937575,-0.155335,-0.4228634999999999,-0.2439025,-0.5202850000000001,-0.2456235,0.1897675,-0.541185,-0.2759735,1
115,-0.031432,0.7484299999999999,-0.171631,-0.17431,0.53733,-0.190671,-0.29222,0.80185,-0.258451,0.12668,0.56104,-0.191411,0.22235,0.83924,-0.243911,-0.29584,1.08527,-0.327131,0.23568,1.1074,-0.262701,-0.0535169999999999,-0.0050399999999999,-0.003911,0.0535169999999999,0.0050399999999999,0.0039109999999999,-0.285,-0.13795,-0.397951,0.19411,-0.15487,-0.424381,-0.24263,-0.5200400000000001,-0.246651,0.19044,-0.54128,-0.2779709999999999,1
116,-0.031401,0.751455,-0.173406,-0.174471,0.539595,-0.191886,-0.292991,0.8039350000000001,-0.258786,0.126929,0.563855,-0.192616,0.221579,0.840185,-0.245686,-0.297331,1.086095,-0.327276,0.234719,1.107815,-0.264946,-0.05366,-0.004705,-0.003136,0.05366,0.004705,0.003136,-0.283901,-0.1373749999999999,-0.398136,0.194149,-0.1546949999999999,-0.425466,-0.241371,-0.5200450000000001,-0.247696,0.190949,-0.5418050000000001,-0.280186,1
117,-0.0314035,0.7547250000000001,-0.1753735,-0.1744735,0.541645,-0.1932935,-0.2938135,0.806285,-0.2592035,0.1271364999999999,0.566585,-0.1939435,0.2208665,0.841035,-0.2476535,-0.2987435,1.087145,-0.3275135,0.2337765,1.108165,-0.2673035,-0.0538405,-0.0043849999999999,-0.0025364999999999,0.0538405,0.004385,0.0025364999999999,-0.2828934999999999,-0.1369349999999999,-0.3985035,0.1940665,-0.154435,-0.4264135,-0.2402135,-0.5202249999999999,-0.2491935,0.1912164999999999,-0.542325,-0.2825435,1
118,-0.031368,0.75793,-0.1771985,-0.174438,0.5438000000000001,-0.1943985,-0.294408,0.8083400000000001,-0.2594885,0.1274219999999999,0.56928,-0.1951085,0.220302,0.84189,-0.2493685,-0.299948,1.08826,-0.3273884999999999,0.2329719999999999,1.10849,-0.2694685,-0.053995,-0.0041399999999999,-0.0022235,0.053995,0.00414,0.0022234999999999,-0.281638,-0.13659,-0.3987985,0.1939719999999999,-0.15424,-0.4271184999999999,-0.238998,-0.52041,-0.2507185,0.191322,-0.5425599999999999,-0.2842485,1
119,-0.0315415,0.761165,-0.1785769999999999,-0.1746115,0.545925,-0.1950569999999999,-0.2951015,0.810395,-0.259327,0.1275185,0.5718650000000001,-0.1958669999999999,0.2195784999999999,0.8428850000000001,-0.2505469999999999,-0.3011915,1.089665,-0.326817,0.2321385,1.108935,-0.271127,-0.0541845,-0.0039449999999999,-0.0019759999999999,0.0541845,0.0039449999999999,0.001976,-0.2807515,-0.1360549999999999,-0.398827,0.1937984999999999,-0.153955,-0.4274369999999999,-0.2381615,-0.520305,-0.251927,0.1913485,-0.542805,-0.285977,1
120,-0.031372,0.763425,-0.179715,-0.174458,0.5493049999999999,-0.195015,-0.295388,0.812485,-0.258975,0.127942,0.574435,-0.196565,0.2191519999999999,0.843915,-0.251655,-0.301928,1.091125,-0.326165,0.231712,1.109305,-0.272705,-0.0542049999999999,-0.0037449999999999,-0.0017329999999999,0.0542049999999999,0.0037449999999999,0.0017329999999999,-0.279798,-0.135505,-0.3993549999999999,0.1938119999999999,-0.153785,-0.428035,-0.237468,-0.520235,-0.253075,0.191522,-0.543135,-0.287935,1
121,-0.0312945,0.76493,-0.180356,-0.1743595,0.55096,-0.1949759999999999,-0.2955095,0.8150999999999999,-0.258226,0.1282205,0.57674,-0.1970259999999999,0.2190005,0.84447,-0.252426,-0.3022295,1.09249,-0.3250159999999999,0.2316105,1.10929,-0.273926,-0.0542905,-0.00362,-0.001504,0.0542905,0.00362,0.001504,-0.2791794999999999,-0.13521,-0.399906,0.1937104999999999,-0.15391,-0.428336,-0.2371795,-0.5206,-0.254076,0.1915504999999999,-0.5438099999999999,-0.289466,1
122,-0.031169,0.7661549999999999,-0.1802105,-0.174188,0.5538649999999999,-0.1941705,-0.295568,0.8181149999999999,-0.2568505,0.128512,0.578605,-0.1972304999999999,0.218942,0.8449249999999999,-0.2527405,-0.302288,1.0938949999999998,-0.3229805,0.231552,1.109505,-0.2747805,-0.05432,-0.003565,-0.0013194999999999,0.05432,0.0035649999999999,0.0013195,-0.278478,-0.135205,-0.4001905,0.193842,-0.153815,-0.4282005,-0.236968,-0.5208050000000001,-0.2549305,0.191742,-0.544435,-0.2908405,1
123,-0.0308135,0.7667900000000001,-0.1795695,-0.1737585,0.55667,-0.1929715,-0.2956385,0.8213,-0.2553015,0.1290515,0.58064,-0.1972015,0.2188615,0.8449899999999999,-0.2530915,-0.3023685,1.09512,-0.3206315,0.2314815,1.10951,-0.2757715,-0.0542475,-0.00328,-0.0011265,0.0542475,0.00328,0.0011265,-0.2774985,-0.13571,-0.4004615,0.1942115,-0.15408,-0.4280415,-0.2369085,-0.52142,-0.2563215,0.1919315,-0.54495,-0.2928415,1
124,-0.0301565,0.76663,-0.178328,-0.1728355,0.5595600000000001,-0.191614,-0.2955055,0.8245800000000001,-0.253384,0.1298945,0.58263,-0.1970839999999999,0.2189545,0.8449800000000001,-0.253164,-0.3022255,1.09638,-0.317664,0.2317445,1.10945,-0.276734,-0.0542035,-0.0030799999999999,-0.000903,0.0542035,0.00308,0.000903,-0.2761655,-0.1365899999999999,-0.4006639999999999,0.1947345,-0.1543599999999999,-0.427894,-0.2367655,-0.52226,-0.257824,0.1923545,-0.5459999999999999,-0.295274,1
125,-0.029223,0.7668349999999999,-0.1766174999999999,-0.171966,0.563025,-0.1901775,-0.295266,0.827625,-0.2514475,0.130604,0.584735,-0.1970175,0.2190339999999999,0.845385,-0.2529175,-0.302196,1.097415,-0.3145575,0.232144,1.109395,-0.2774975,-0.054176,-0.002975,-0.0008724999999999,0.054176,0.002975,0.0008724999999999,-0.274966,-0.1369449999999999,-0.4012375,0.195174,-0.154785,-0.4275775,-0.236996,-0.523355,-0.2595975,0.1927839999999999,-0.547215,-0.2980975,1
126,-0.0282969999999999,0.76631,-0.174257,-0.171094,0.56507,-0.18873,-0.294944,0.8300500000000001,-0.24897,0.131276,0.5859000000000001,-0.19684,0.219006,0.84475,-0.2521,-0.301954,1.09788,-0.31081,0.2328059999999999,1.1083500000000002,-0.27783,-0.054176,-0.0029399999999999,-0.000838,0.054176,0.0029399999999999,0.000838,-0.273544,-0.1386299999999999,-0.4012799999999999,0.195176,-0.1560399999999999,-0.42694,-0.237354,-0.5259699999999999,-0.26171,0.1927859999999999,-0.54987,-0.30075,1
127,-0.0275795,0.7656749999999999,-0.1716335,-0.1702925,0.5660449999999999,-0.1873125,-0.2943025,0.832565,-0.2457325,0.1318375,0.586465,-0.1965625,0.2190375,0.8440749999999999,-0.2503625,-0.3018625,1.098035,-0.3068925,0.2336174999999999,1.112135,-0.2764025,-0.0541755,-0.002835,-0.0009235,0.0541755,0.0028349999999999,0.0009234999999999,-0.2719725,-0.140585,-0.4011425,0.1951775,-0.157205,-0.4261325,-0.2375025,-0.5290950000000001,-0.2639025,0.1927875,-0.552675,-0.3029525,1
128,-0.026804,0.76711,-0.168393,-0.169497,0.56806,-0.185267,-0.293537,0.8358800000000001,-0.241512,0.132343,0.5886,-0.195482,0.219043,0.8480300000000001,-0.247212,-0.301767,1.10439,-0.300782,0.234383,1.11733,-0.274362,-0.054046,-0.0027399999999999,-0.0010919999999999,0.054046,0.00274,0.0010919999999999,-0.270287,-0.1438799999999999,-0.400302,0.194983,-0.15991,-0.424602,-0.238237,-0.53386,-0.266502,0.192523,-0.55675,-0.303582,1
129,-0.0271065,0.76969,-0.1644955,-0.1698525,0.56663,-0.1831435,-0.2937125,0.83707,-0.2364035,0.1317875,0.5889,-0.1936135,0.2182575,0.8522000000000001,-0.2431235,-0.3022525,1.10854,-0.2938334999999999,0.2344175,1.12587,-0.2695735,-0.0537205,-0.0030499999999999,-0.0010915,0.0537205,0.0030499999999999,0.0010914999999999,-0.2693725,-0.14859,-0.3980335,0.1937375,-0.16445,-0.4216935,-0.2389825,-0.5404,-0.2663135,0.1913475,-0.5628,-0.3033835,1
130,-0.027478,0.7722849999999999,-0.1601555,-0.1705789999999999,0.568875,-0.1799565,-0.294149,0.841005,-0.2310955,0.130991,0.589005,-0.1916355,0.217491,0.856105,-0.2390155,-0.302979,1.112395,-0.2867955,0.234491,1.132305,-0.2647655,-0.053574,-0.002885,-0.0010915,0.053574,0.0028849999999999,0.0010914999999999,-0.268409,-0.155055,-0.3947955,0.192051,-0.171175,-0.4182055,-0.239649,-0.548965,-0.2659355,0.189831,-0.571175,-0.3033855,1
131,-0.027839,0.77563,-0.1560099999999999,-0.171399,0.5682400000000001,-0.177128,-0.294579,0.84274,-0.2258079999999999,0.130541,0.59277,-0.188008,0.216831,0.86205,-0.233898,-0.303779,1.11529,-0.2800479999999999,0.234441,1.13636,-0.259968,-0.053398,-0.00313,-0.0010909999999999,0.053398,0.00313,0.001091,-0.267099,-0.16381,-0.390988,0.190101,-0.17994,-0.4133679999999999,-0.240539,-0.55979,-0.265638,0.188241,-0.58139,-0.3029779999999999,1
132,-0.028231,0.7754700000000001,-0.150609,-0.172153,0.56557,-0.17397,-0.294793,0.8413600000000001,-0.219536,0.129997,0.5909599999999999,-0.184256,0.2161269999999999,0.8648100000000001,-0.227966,-0.304453,1.11823,-0.271576,0.234657,1.14326,-0.251996,-0.052938,-0.0033199999999999,-0.0008789999999999,0.052938,0.0033199999999999,0.000879,-0.264393,-0.17767,-0.383996,0.187967,-0.1938,-0.405786,-0.241193,-0.57589,-0.2647359999999999,0.187017,-0.5966800000000001,-0.3013559999999999,1
133,-0.0285365,0.77501,-0.144753,-0.1727975,0.55914,-0.170732,-0.2948675,0.8367,-0.212412,0.1292925,0.58634,-0.180182,0.2153624999999999,0.86453,-0.221492,-0.3050775,1.11814,-0.262812,0.2348825,1.14525,-0.243302,-0.0523925,-0.0033299999999999,-0.000717,0.0523925,0.0033299999999999,0.0007169999999999,-0.2601875,-0.19555,-0.374482,0.1860225,-0.21089,-0.395772,-0.2413075,-0.5963,-0.262862,0.1864525,-0.61582,-0.299932,1
134,-0.0289695,0.77629,-0.139294,-0.1730845,0.55391,-0.167451,-0.2946845,0.83351,-0.205404,0.1289155,0.58133,-0.17602,0.2146955,0.86382,-0.214694,-0.3055245,1.11978,-0.253544,0.2354455,1.14769,-0.234104,-0.0517115,-0.0033399999999999,-0.000473,0.0517115,0.00334,0.000473,-0.2557245,-0.2137399999999999,-0.364664,0.1839055,-0.2288,-0.385784,-0.2414845,-0.61662,-0.261414,0.1860555,-0.63561,-0.296284,1
135,-0.0299429999999999,0.77905,-0.134213,-0.174067,0.54988,-0.163598,-0.294347,0.8306500000000001,-0.198412,0.128443,0.57677,-0.171987,0.213833,0.86382,-0.207362,-0.306527,1.12178,-0.244582,0.235653,1.1524,-0.223512,-0.050959,-0.0032799999999999,-0.000461,0.050959,0.00328,0.0004609999999999,-0.251717,-0.23095,-0.3550919999999999,0.181413,-0.24717,-0.375402,-0.242667,-0.6359999999999999,-0.260112,0.185423,-0.65558,-0.2917619999999999,1
136,-0.030766,0.78128,-0.127876,-0.174883,0.5458799999999999,-0.159055,-0.294013,0.8272900000000001,-0.191348,0.127627,0.57207,-0.168149,0.212967,0.8631500000000001,-0.200008,-0.307363,1.12359,-0.234758,0.234827,1.14821,-0.2136779999999999,-0.0501869999999999,-0.00332,-0.0006769999999999,0.0501869999999999,0.0033199999999999,0.000677,-0.247823,-0.24887,-0.344458,0.179117,-0.26829,-0.364408,-0.243833,-0.6559600000000001,-0.257868,0.1835169999999999,-0.6767000000000001,-0.285618,1
137,-0.03159,0.781545,-0.1208509999999999,-0.175658,0.5412250000000001,-0.154314,-0.293568,0.823275,-0.184609,0.126872,0.565995,-0.1635309999999999,0.212872,0.858125,-0.192909,-0.308188,1.1193650000000002,-0.226249,0.235302,1.145785,-0.203179,-0.049447,-0.003425,-0.0005929999999999,0.049447,0.003425,0.000593,-0.244128,-0.266045,-0.333709,0.176202,-0.287395,-0.353029,-0.243268,-0.674965,-0.252029,0.181512,-0.696245,-0.279119,1
138,-0.032374,0.7806799999999999,-0.112928,-0.176347,0.54258,-0.149163,-0.292587,0.82511,-0.177197,0.126503,0.56165,-0.1583899999999999,0.213273,0.85373,-0.1852869999999999,-0.308687,1.12125,-0.2167069999999999,0.236193,1.13997,-0.193707,-0.049721,-0.00296,-0.000223,0.049721,0.0029599999999999,0.000223,-0.240137,-0.28181,-0.3231269999999999,0.174003,-0.3021,-0.340407,-0.242047,-0.69203,-0.245937,0.179283,-0.7124400000000001,-0.269657,1
139,-0.033344,0.77972,-0.104994,-0.177265,0.54017,-0.144916,-0.293055,0.82332,-0.169658,0.126525,0.5573600000000001,-0.153213,0.213675,0.84979,-0.176708,-0.309535,1.12318,-0.206658,0.235865,1.1373,-0.183208,-0.0501739999999999,-0.00295,0.0002629999999999,0.0501739999999999,0.00295,-0.0002629999999999,-0.236755,-0.29716,-0.313078,0.1687949999999999,-0.31745,-0.320068,-0.240555,-0.70738,-0.2384879999999999,0.176115,-0.72779,-0.254578,1
140,-0.034322,0.77332,-0.0953155,-0.1786229999999999,0.53471,-0.1390055,-0.293633,0.81853,-0.1603485,0.126487,0.55118,-0.1469605,0.213607,0.84446,-0.1675705,-0.310553,1.12122,-0.1944605,0.235437,1.13532,-0.1708405,-0.050584,-0.0035,0.0003195,0.050584,0.0035,-0.0003195,-0.232603,-0.31504,-0.2984105,0.162517,-0.33533,-0.2969104999999999,-0.238873,-0.72526,-0.2286305,0.172087,-0.7466,-0.2385005,1
141,-0.0342945,0.7656895,-0.07948,-0.1790675,0.5259495,-0.1260669999999999,-0.2937675,0.8111595,-0.144553,0.1272925,0.5451695,-0.134083,0.2149825,0.8377795,-0.151504,-0.3106575,1.1137895,-0.17689,0.2357925,1.1265895,-0.1536,-0.0504135,-0.0032625,2.1000000000000185e-05,0.0504135,0.0032625,-2.1000000000000185e-05,-0.2266675,-0.3328704999999999,-0.27447,0.1567025,-0.3577504999999999,-0.26651,-0.2349775,-0.7432305,-0.2085699999999999,0.1689825,-0.7669705,-0.21564,1
142,-0.034462,0.7642245,-0.0621395,-0.181529,0.5288845,-0.1075785,-0.2954989999999999,0.8103945,-0.1274615,0.128331,0.5465445,-0.1162884999999999,0.2168709999999999,0.8359345,-0.1330865,-0.3109989999999999,1.1049745000000002,-0.1579325,0.2360909999999999,1.1230745000000002,-0.1335325,-0.050359,-0.0034175,-5.499999999998562e-06,0.050359,0.0034175,5.499999999998562e-06,-0.217749,-0.3552155,-0.2459525,0.150471,-0.3849555,-0.2324024999999999,-0.228829,-0.7652755,-0.1851825,0.1661409999999999,-0.7916255,-0.1901624999999999,1
143,-0.035135,0.760663,-0.0448835,-0.184172,0.530093,-0.0893355,-0.297352,0.807933,-0.1106265,0.128548,0.547933,-0.0988565,0.217578,0.833893,-0.1152635,-0.311512,1.098793,-0.1388385,0.235728,1.119193,-0.1138045,-0.050389,-0.003514,-6.950000000000012e-05,0.0503889999999999,0.0035139999999999,6.950000000000012e-05,-0.208932,-0.376667,-0.2169485,0.144278,-0.412967,-0.1972685,-0.222772,-0.787187,-0.1618185,0.163008,-0.8168569999999999,-0.1653385,1
144,-0.035566,0.7559885,-0.027849,-0.186692,0.5316985,-0.071265,-0.298862,0.8051685,-0.094452,0.129018,0.5496685,-0.081283,0.2189279999999999,0.8317384999999999,-0.098529,-0.312242,1.0926685,-0.120158,0.235228,1.1165685,-0.095761,-0.050654,-0.0035864999999999,-0.0001029999999999,0.050654,0.0035865,0.000103,-0.199822,-0.3991215,-0.187618,0.1383279999999999,-0.4409915,-0.162648,-0.216662,-0.8088815,-0.138738,0.160578,-0.8421615,-0.141058,1
145,-0.036273,0.752433,-0.0120895,-0.189141,0.534453,-0.0536505,-0.3005509999999999,0.802723,-0.0789334999999999,0.129489,0.5525329999999999,-0.0641725,0.219749,0.830303,-0.0825004999999999,-0.312851,1.087523,-0.1025534999999999,0.234639,1.113823,-0.0785034999999999,-0.050809,-0.003292,0.0002174999999999,0.050809,0.003292,-0.0002175,-0.190381,-0.420827,-0.1583835,0.133569,-0.470217,-0.1282735,-0.211211,-0.830067,-0.1179235,0.159339,-0.868027,-0.1198735,1
146,-0.037095,0.7489175,0.0029979999999999,-0.191639,0.5368275,-0.036274,-0.302189,0.7999275,-0.06374,0.1298309999999999,0.5550975,-0.047152,0.220681,0.8284374999999999,-0.06701,-0.313509,1.0825475,-0.085529,0.2336909999999999,1.1111475000000002,-0.0620779999999999,-0.051052,-0.0029335,0.0001209999999999,0.051052,0.0029335,-0.0001209999999999,-0.180839,-0.4421725,-0.127909,0.128441,-0.4982725,-0.094219,-0.205499,-0.8503425,-0.096639,0.157511,-0.8912625000000001,-0.096119,1
147,-0.0370585,0.744726,0.017848,-0.1926185,0.5347860000000001,-0.019212,-0.3037685,0.7928160000000001,-0.049581,0.1309315,0.556366,-0.0302819999999999,0.2228215,0.825226,-0.052107,-0.3132385,1.073786,-0.069824,0.2334115,1.108186,-0.046499,-0.0515575,-0.0029329999999999,-0.0001999999999999,0.0515575,0.002933,0.0002,-0.1711484999999999,-0.465024,-0.096285,0.1234415,-0.523774,-0.06163,-0.1989485,-0.8706039999999999,-0.074375,0.1556015,-0.914194,-0.071965,0
148,-0.0363695,0.7405815,0.032758,-0.1930605,0.5327215000000001,-0.0016759999999999,-0.3053905,0.7837015,-0.0352979999999999,0.1327495,0.5577615,-0.0119589999999999,0.2256794999999999,0.8216515,-0.0376259999999999,-0.3124905,1.0647215,-0.054761,0.2334195,1.1041215,-0.0314509999999999,-0.0526295,-0.0029915,-0.0009209999999999,0.0526295,0.0029915,0.0009209999999999,-0.1610205,-0.4878984999999999,-0.064155,0.1228894999999999,-0.5509785,-0.0367669999999999,-0.1912405,-0.8907685,-0.050261,0.1564795,-0.9361885,-0.0559589999999999,0
149,-0.035362,0.7410785,0.046125,-0.193751,0.5355185,0.0145879999999999,-0.3067809999999999,0.7799885,-0.022925,0.134729,0.5574185,0.0050949999999999,0.2284389999999999,0.8174785,-0.024675,-0.3113809999999999,1.0610185,-0.042072,0.233669,1.1017185,-0.018221,-0.05393,-0.0019155,-0.000882,0.05393,0.0019154999999999,0.0008819999999999,-0.151691,-0.5031015,-0.037064,0.123919,-0.5718315,-0.016092,-0.183701,-0.9064315,-0.030281,0.158929,-0.9522015,-0.042271,0
150,-0.034226,0.7468945,0.051208,-0.19478,0.5440745,0.02271,-0.30824,0.7821144999999999,-0.01919,0.13678,0.5623144999999999,0.01351,0.2314299999999999,0.8183644999999999,-0.020371,-0.3102,1.0617845,-0.038199,0.2350499999999999,1.1042845,-0.013941,-0.055092,-0.0018495,-0.0008659999999999,0.055092,0.0018495,0.0008659999999999,-0.14503,-0.5149255,-0.023212,0.12538,-0.5837455,-0.0060939999999999,-0.1784299999999999,-0.9166555,-0.025571,0.1617299999999999,-0.9619155,-0.03596,0
151,-0.0324389999999999,0.7466664999999999,0.0539754999999999,-0.193598,0.5442065,0.0247125,-0.306738,0.7825165000000001,-0.0179725,0.139852,0.5619965,0.0163574999999999,0.234502,0.8180464999999999,-0.0193065,-0.309158,1.0658664999999998,-0.0367845,0.238172,1.1060664999999998,-0.0130345,-0.056256,-0.0017295,-0.0010005,0.056256,0.0017294999999999,0.0010004999999999,-0.141968,-0.5187835000000001,-0.0163095,0.127602,-0.5853335,-0.0019635,-0.1753579999999999,-0.9176135,-0.0246645,0.164652,-0.9611735,-0.0334345,0
152,-0.0309355,0.746677,0.0567639999999999,-0.1929345,0.544177,0.026574,-0.3059145,0.782657,-0.016945,0.1425255,0.561967,0.019101,0.2369455,0.818017,-0.01837,-0.3084845,1.065837,-0.036072,0.2393355,1.107637,-0.012321,-0.0577965,-0.0017279999999999,-0.001055,0.0577965,0.001728,0.001055,-0.1392745,-0.522703,-0.010225,0.1294755,-0.5858829999999999,0.0007879999999999,-0.1726945,-0.917733,-0.023631,0.1670154999999999,-0.961503,-0.031299,0
153,-0.029362,0.746697,0.059409,-0.192358,0.544177,0.028363,-0.305218,0.782837,-0.0160749999999999,0.1451319999999999,0.561967,0.021711,0.2394319999999999,0.818017,-0.01761,-0.308338,1.065837,-0.035522,0.241122,1.107637,-0.011769,-0.0578329999999999,-0.0017279999999999,-0.0010429999999999,0.0578329999999999,0.001728,0.001043,-0.136588,-0.526323,-0.0045719999999999,0.1313919999999999,-0.586403,0.003095,-0.169418,-0.917623,-0.020941,0.169812,-0.962453,-0.031735,0
154,-0.026649,0.7467965000000001,0.0617395,-0.191179,0.5444765,0.0302095,-0.303599,0.7813965,-0.0155285,0.147741,0.5620665,0.0241615,0.242111,0.8169165,-0.0172424999999999,-0.307249,1.0659364999999998,-0.0352394999999999,0.244211,1.1077365,-0.0119824999999999,-0.058642,-0.0016284999999999,-0.0011024999999999,0.058642,0.0016285,0.0011024999999999,-0.1334489999999999,-0.5289535000000001,-9.549999999999836e-05,0.1343909999999999,-0.5867635,0.0049285,-0.1652989999999999,-0.9163735,-0.0185415,0.173361,-0.9623535,-0.0314475,0
155,-0.0239609999999999,0.7468345000000001,0.0637055,-0.190019,0.5450845,0.0318255,-0.302059,0.7798245,-0.0150845,0.150351,0.5619645,0.0262664999999999,0.244861,0.8157545,-0.0171245,-0.306409,1.0649445,-0.0357455,0.247501,1.1081445,-0.0124345,-0.059444,-0.0013675,-0.0010965,0.059444,0.0013674999999999,0.0010965,-0.1303389999999999,-0.5307055,0.0027644999999999,0.137421,-0.5864655,0.0062815,-0.161079,-0.9148555,-0.0162174999999999,0.176851,-0.9619455,-0.0314205,0
156,-0.0213044999999999,0.746896,0.065029,-0.1890085,0.545556,0.033412,-0.3007085,0.778446,-0.014544,0.1528314999999999,0.561926,0.028241,0.2477415,0.814956,-0.0171199999999999,-0.3054785,1.063856,-0.036315,0.2508315,1.108456,-0.0134369999999999,-0.0602565,-0.0011099999999999,-0.0010979999999999,0.0602565,0.0011099999999999,0.001098,-0.1273585,-0.532314,0.004412,0.1404814999999999,-0.5862539999999999,0.007328,-0.1569885,-0.913194,-0.0137859999999999,0.1805014999999999,-0.962254,-0.032913,0
157,-0.0202405,0.7466725000000001,0.066219,-0.1897525,0.5454725,0.035471,-0.3008225,0.7771824999999999,-0.013897,0.1539175,0.5615924999999999,0.029398,0.2494475,0.8142425,-0.017117,-0.3060725,1.0650525,-0.036266,0.2525374999999999,1.1079525,-0.0145059999999999,-0.0603025,-0.0010065,-0.001098,0.0603025,0.0010064999999999,0.001098,-0.1259025,-0.5338975,0.00577,0.1421575,-0.5863175,0.008355,-0.1545025,-0.9117275,-0.011252,0.1826975,-0.9618975,-0.0337059999999999,0
158,-0.020084,0.746467,0.0671865,-0.190421,0.545477,0.0373595,-0.301631,0.7759769999999999,-0.0131485,0.154249,0.561487,0.0302444999999999,0.250319,0.813777,-0.0171155,-0.307511,1.063187,-0.0369445,0.253409,1.107387,-0.0156255,-0.060367,-0.001044,-0.0010985,0.060367,0.001044,0.0010984999999999,-0.125441,-0.537403,0.0071894999999999,0.143029,-0.586223,0.0093944999999999,-0.1527909999999999,-0.910743,-0.0090535,0.184059,-0.961623,-0.0344195,0
159,-0.0202605,0.7465305,0.0677495,-0.1909445,0.5454605,0.0388405,-0.3023845,0.7746605,-0.0125374999999999,0.1543255,0.5613805,0.0305065,0.2507755,0.8140105,-0.0173834999999999,-0.3092145,1.0605205,-0.0378744999999999,0.2541855,1.1069205,-0.0173774999999999,-0.0603615,-0.0010795,-0.0011194999999999,0.0603615,0.0010794999999999,0.0011195,-0.1249945,-0.5399895,0.0083535,0.1434855,-0.5859895,0.0100785,-0.1516144999999999,-0.9094395,-0.0082764999999999,0.1843555,-0.9603695,-0.0332045,0
160,-0.0207044999999999,0.7467835,0.067391,-0.1915865,0.5454035,0.03946,-0.3031265,0.7742135,-0.013515,0.1544135,0.5614235,0.029806,0.2511235,0.8143635,-0.0188269999999999,-0.3108365,1.0543735,-0.04022,0.2555235,1.1065735,-0.0206999999999999,-0.0603785,-0.0010904999999999,-0.0007949999999999,0.0603785,0.0010904999999999,0.000795,-0.1248065,-0.5400265,0.008482,0.1436735,-0.5859265,0.009786,-0.1507765,-0.9081865,-0.00833,0.1846435,-0.9589665,-0.033112,0
161,-0.0212435,0.7468655,0.066484,-0.1924015,0.5444154999999999,0.039871,-0.3038615,0.7736955,-0.014828,0.1544385,0.5613954999999999,0.028494,0.2522685,0.8140855,-0.0211219999999999,-0.3136915,1.0467655,-0.04316,0.2588585,1.1042655,-0.0262289999999999,-0.0603565,-0.0012274999999999,-0.0005529999999999,0.0603565,0.0012275,0.0005529999999999,-0.1247815,-0.5398944999999999,0.0082949999999999,0.1437985,-0.5856345000000001,0.0091629999999999,-0.1505215,-0.9078945,-0.0091499999999999,0.1850585,-0.9594645,-0.035658,0
162,-0.0217959999999999,0.7465999999999999,0.065436,-0.193149,0.5435,0.040133,-0.305039,0.7730699999999999,-0.016253,0.154441,0.56146,0.0270709999999999,0.256781,0.8138099999999999,-0.0257369999999999,-0.316579,1.03898,-0.046743,0.263661,1.10188,-0.033318,-0.060357,-0.001376,-0.000252,0.060357,0.001376,0.000252,-0.1243689999999999,-0.5405300000000001,0.007711,0.144561,-0.5854900000000001,0.008514,-0.149699,-0.90429,-0.0089069999999999,0.185351,-0.95963,-0.0382099999999999,0
163,-0.022387,0.7462519999999999,0.064583,-0.1935069999999999,0.542662,0.040225,-0.307817,0.772562,-0.017924,0.154443,0.5616319999999999,0.025818,0.262323,0.812932,-0.0304339999999999,-0.321247,1.031112,-0.052102,0.271443,1.098412,-0.043286,-0.060357,-0.001506,4.699999999999843e-05,0.060357,0.0015059999999999,-4.699999999999843e-05,-0.123797,-0.5409980000000001,0.007141,0.145423,-0.585278,0.007849,-0.1489369999999999,-0.900468,-0.008833,0.185483,-0.959558,-0.039656,0
164,-0.022996,0.746042,0.064316,-0.193772,0.541622,0.040802,-0.312152,0.769312,-0.020365,0.154488,0.560132,0.024625,0.2693279999999999,0.804112,-0.0355129999999999,-0.327982,1.022702,-0.060478,0.281698,1.090002,-0.055928,-0.06035,-0.0016739999999999,0.0004279999999999,0.06035,0.0016739999999999,-0.0004279999999999,-0.123362,-0.541408,0.006526,0.146258,-0.584998,0.007161,-0.147652,-0.895718,-0.0079829999999999,0.185568,-0.959458,-0.040804,0
165,-0.023947,0.746287,0.0643255,-0.194024,0.540857,0.0416225,-0.318184,0.763927,-0.0237775,0.154556,0.558897,0.0232985,0.279286,0.795227,-0.0417325,-0.338514,1.014437,-0.0729665,0.294576,1.081537,-0.0716365,-0.060318,-0.001833,0.0008994999999999,0.060318,0.001833,-0.0008995,-0.1227439999999999,-0.539073,0.0056184999999999,0.146906,-0.584803,0.0063394999999999,-0.146974,-0.890303,-0.0073835,0.185606,-0.958983,-0.0442315,0
166,-0.025311,0.7468605,0.065066,-0.1945569999999999,0.5399205,0.042143,-0.326417,0.7533205000000001,-0.027061,0.154413,0.5575505000000001,0.021863,0.292353,0.7827805,-0.0465099999999999,-0.352617,1.0016005,-0.088521,0.311073,1.0633005,-0.0909209999999999,-0.060257,-0.0020774999999999,0.001522,0.060257,0.0020774999999999,-0.001522,-0.122497,-0.5373095,0.0045199999999999,0.147273,-0.5845695,0.005428,-0.1465769999999999,-0.8864095,-0.007794,0.185053,-0.9572195,-0.045716,0
167,-0.0265695,0.7475825,0.066577,-0.1952715,0.5383625,0.0425829999999999,-0.3353815,0.7381125,-0.0299009999999999,0.1541985,0.5555325,0.020365,0.3060785,0.7638025,-0.050767,-0.3695315,0.9836625,-0.105057,0.3298585,1.0355625000000002,-0.111667,-0.0601765,-0.0024324999999999,0.0023219999999999,0.0601765,0.0024325,-0.0023219999999999,-0.1225314999999999,-0.5356875,0.003317,0.1473385,-0.5841875,0.0044049999999999,-0.1467315,-0.8840475,-0.009319,0.1842885,-0.9555875,-0.0480089999999999,0
168,-0.027818,0.7491265,0.0690985,-0.195273,0.5352165,0.0432685,-0.345833,0.7175564999999999,-0.0316285,0.153727,0.5531965000000001,0.0192005,0.3193269999999999,0.7393464999999999,-0.0530074999999999,-0.390153,0.9558565,-0.1260075,0.350157,0.9987565,-0.1343575,-0.060171,-0.0026464999999999,0.0030945,0.060171,0.0026464999999999,-0.0030945,-0.123003,-0.5351334999999999,0.0021595,0.147127,-0.5840034999999999,0.0033994999999999,-0.146963,-0.8810534999999999,-0.0103284999999999,0.183227,-0.9526735,-0.0494004999999999,0
169,-0.0291465,0.751578,0.0726145,-0.1952795,0.532638,0.0440145,-0.3557195,0.692998,-0.0328124999999999,0.1529805,0.550288,0.0181345,0.3303505,0.708948,-0.0543985,-0.4123795,0.919958,-0.1462685,0.3716005,0.954228,-0.1559485,-0.0602375,-0.002741,0.0038525,0.0602375,0.002741,-0.0038524999999999,-0.1238595,-0.535482,0.0012085,0.1465405,-0.583362,0.0023795,-0.1475895,-0.877252,-0.0116084999999999,0.1815004999999999,-0.948062,-0.0492865,0
170,-0.030399,0.754694,0.0769245,-0.194733,0.5310239999999999,0.0439485,-0.363613,0.6636839999999999,-0.0339374999999999,0.152287,0.547094,0.0168565,0.339067,0.673064,-0.0556315,-0.432093,0.876954,-0.1630714999999999,0.3906469999999999,0.896774,-0.1731214999999999,-0.060353,-0.0026889999999999,0.0044075,0.060353,0.002689,-0.0044075,-0.124733,-0.534956,0.0002204999999999,0.146017,-0.583196,0.0013594999999999,-0.147973,-0.872196,-0.0123144999999999,0.179727,-0.943136,-0.0491105,0
171,-0.0316025,0.7581859999999999,0.0820169999999999,-0.1942355,0.529446,0.0433079999999999,-0.3690055,0.629076,-0.035076,0.1515545,0.5435359999999999,0.0154919999999999,0.3418545,0.631486,-0.056885,-0.4477755,0.822936,-0.176875,0.4031544999999999,0.8284159999999999,-0.184485,-0.0605335,-0.002602,0.0047689999999999,0.0605335,0.002602,-0.004769,-0.1256255,-0.534564,-0.000732,0.1454545,-0.5832240000000001,0.0002469999999999,-0.1489355,-0.867194,-0.013142,0.1781345,-0.938524,-0.049283,0
172,-0.0327444999999999,0.762197,0.087257,-0.1936275,0.528047,0.0420769999999999,-0.3714975,0.591757,-0.036305,0.1506025,0.539817,0.0138959999999999,0.3418325,0.587097,-0.058109,-0.4556175,0.758287,-0.188139,0.4089625,0.747407,-0.189219,-0.0607405,-0.002555,0.0050099999999999,0.0607405,0.002555,-0.00501,-0.1264675,-0.533803,-0.001665,0.1447525,-0.582473,-0.000848,-0.1498475,-0.860753,-0.013228,0.1766025,-0.933793,-0.050013,0
173,-0.033674,0.76667,0.0923515,-0.193232,0.52577,0.0407435,-0.372642,0.55216,-0.0363805,0.149468,0.53783,0.0121105,0.340698,0.54617,-0.0585545,-0.456752,0.6863,-0.1894745,0.4078279999999999,0.66112,-0.1905545,-0.061019,-0.002409,0.0050805,0.061019,0.002409,-0.0050805,-0.127552,-0.53287,-0.0027015,0.143928,-0.58039,-0.0018065,-0.150982,-0.85562,-0.0145635,0.174978,-0.92803,-0.0504615,0
174,-0.0339065,0.7716985,0.0973385,-0.1922815,0.5234985,0.0392955,-0.3736315,0.5124485,-0.0362684999999999,0.1484784999999999,0.5354884999999999,0.0102345,0.3396985,0.5006085,-0.0568194999999999,-0.4577414999999999,0.6061384999999999,-0.1909255,0.4068385,0.5644585,-0.1920055,-0.0613185,-0.0021704999999999,0.0049374999999999,0.0613185,0.0021704999999999,-0.0049375,-0.1283015,-0.5315715,-0.0038484999999999,0.1433285,-0.5788015000000001,-0.0029855,-0.1519715,-0.8540615,-0.0169245,0.1741684999999999,-0.9223615,-0.0522085,0
175,-0.0337839999999999,0.7767675,0.1013555,-0.190858,0.5210575000000001,0.0376695,-0.374578,0.4723875,-0.0351625,0.147582,0.5329875000000001,0.0078505,0.338742,0.4542075,-0.0543805,-0.458688,0.5192375,-0.1923195,0.405892,0.4688975,-0.1933995,-0.061646,-0.0018974999999999,0.0046865,0.061646,0.0018974999999999,-0.0046864999999999,-0.129058,-0.5290525,-0.0049484999999999,0.142752,-0.5774324999999999,-0.0038564999999999,-0.152918,-0.8523925,-0.0197334999999999,0.173042,-0.9164525,-0.0534824999999999,0
176,-0.0334015,0.7816369999999999,0.104069,-0.1890565,0.5191669999999999,0.0350729999999999,-0.3732765,0.433517,-0.031881,0.1466935,0.530887,0.0054229999999999,0.3341834999999999,0.410637,-0.049978,-0.4581265,0.433067,-0.193593,0.4045735,0.376947,-0.187493,-0.0620344999999999,-0.001423,0.0041889999999999,0.0620344999999999,0.001423,-0.004189,-0.1298564999999999,-0.525303,-0.005489,0.1421135,-0.573673,-0.004585,-0.1535564999999999,-0.8488530000000001,-0.021267,0.1717035,-0.910503,-0.054046,0
177,-0.0323485,0.7863420000000001,0.10517,-0.1880335,0.5191520000000001,0.031418,-0.3661735,0.396642,-0.025301,0.1458465,0.528942,0.0024479999999999,0.3230765,0.3717519999999999,-0.040743,-0.4487635,0.349032,-0.184779,0.3951765,0.291142,-0.173639,-0.0623255,-0.001122,0.003734,0.0623255,0.0011219999999999,-0.003734,-0.1305335,-0.5219480000000001,-0.006205,0.1416065,-0.5692680000000001,-0.005134,-0.1545335,-0.849148,-0.024354,0.1704765,-0.904798,-0.054505,0
178,-0.0309395,0.790304,0.1045665,-0.1868795,0.518574,0.0259995,-0.3529195,0.361454,-0.0164165,0.1448105,0.527504,-0.0012394999999999,0.3070405,0.339064,-0.0315965,-0.4318195,0.268534,-0.1679705,0.3772305,0.213244,-0.1508904999999999,-0.0624695,-0.0009919999999999,0.0032814999999999,0.0624695,0.0009919999999999,-0.0032814999999999,-0.1312595,-0.5179860000000001,-0.0075165,0.1410105,-0.5653060000000001,-0.0060085,-0.1552795,-0.845186,-0.0260955,0.1696905,-0.9001560000000001,-0.0564455,0
179,-0.0293705,0.7939155,0.102787,-0.1857435,0.5179755,0.019748,-0.3365735,0.3312755,-0.0076309999999999,0.1439365,0.5261955,-0.005117,0.2887665,0.3115655,-0.019337,-0.4063335,0.1993454999999999,-0.144701,0.3557565,0.1495854999999999,-0.124161,-0.0625855,-0.0008874999999999,0.0028359999999999,0.0625855,0.0008874999999999,-0.0028359999999999,-0.1318835,-0.5145845,-0.008826,0.1405965,-0.5634245,-0.006843,-0.1558835,-0.8417844999999999,-0.027905,0.1689465,-0.8959245,-0.058258,0
180,-0.0279669999999999,0.7973520000000001,0.1008915,-0.184638,0.517402,0.0134805,-0.318528,0.306482,0.0018965,0.143172,0.525272,-0.0092965,0.271342,0.289902,-0.0086124999999999,-0.375538,0.140942,-0.1156594999999999,0.332742,0.094442,-0.0945795,-0.062689,-0.00079,0.0024335,0.062689,0.00079,-0.0024334999999999,-0.1326079999999999,-0.511498,-0.0103165,0.140122,-0.560338,-0.0077855,-0.1566679999999999,-0.840938,-0.0300164999999999,0.168222,-0.892488,-0.0601565,0
181,-0.0257694999999999,0.802377,0.110208,-0.1827335,0.517247,0.008836,-0.2997235,0.258307,0.009597,0.1413765,0.522717,-0.0163499999999999,0.2342365,0.227717,0.005908,-0.3277335,0.043295,-0.076704,0.2799465,-0.024793,-0.0397229999999999,-0.0631205,-0.000614,0.0023789999999999,0.0631205,0.000614,-0.0023789999999999,-0.1329435,-0.536933,-0.008305,0.1411665,-0.567173,-0.006211,-0.1670935,-0.856933,-0.0502399999999999,0.1684065,-0.883933,-0.061418,0
182,-0.0260664999999999,0.8047485000000001,0.103371,-0.1831465,0.5153384999999999,-0.0024689999999999,-0.2639765,0.2251585,0.031506,0.1392835,0.5233384999999999,-0.0212549999999999,0.2181435,0.2272385,0.017624,-0.2914565,0.0040095,-0.0327789999999999,0.2369335,-0.0317775,0.006421,-0.0626335,-0.0009264999999999,0.001888,0.0626335,0.0009265,-0.0018879999999999,-0.1357664999999999,-0.5022415,-0.0123489999999999,0.1385035,-0.5649614999999999,-0.009874,-0.1669665,-0.8376414999999999,-0.041132,0.1651135,-0.8815415,-0.06235,0
183,-0.024136,0.8058195,0.0958425,-0.179998,0.5172495,-0.0118824999999999,-0.2427979999999999,0.2188695,0.0341055,0.139142,0.5236795,-0.0233384999999999,0.204522,0.2450995,0.0483175,-0.239838,-0.0096095,0.0085115,0.225622,0.0015935,0.0254295,-0.062732,-0.0006535,0.0014025,0.062732,0.0006535,-0.0014025,-0.135888,-0.4946205,-0.0144234999999999,0.136672,-0.5427905000000001,-0.0108704999999999,-0.155998,-0.8174205,-0.0312685,0.164132,-0.8806405,-0.0599975,0
184,-0.0226245,0.806525,0.088989,-0.1791255,0.516985,-0.0155059999999999,-0.2369255,0.236405,0.049912,0.1395045,0.523765,-0.025275,0.2035944999999999,0.2459049999999999,0.049187,-0.2227755,-0.01167,0.02434,0.2244045,0.003155,0.026947,-0.0626125,-0.0005349999999999,0.000767,0.0626125,0.0005349999999999,-0.000767,-0.1357355,-0.500335,-0.0150809999999999,0.1371045,-0.5413349999999999,-0.0127209999999999,-0.1615955,-0.848085,-0.050685,0.1628245,-0.8676849999999999,-0.051487,0
185,-0.022576,0.8076945,0.0837035,-0.178979,0.5167245,-0.0172354999999999,-0.236199,0.2371745,0.0515735,0.139591,0.5235845,-0.0262105,0.204181,0.2463245,0.0535605,-0.217799,-0.0020375,0.0348605,0.2249509999999999,0.0041105,0.0315875,-0.062598,-0.0004855,0.0007834999999999,0.062598,0.0004854999999999,-0.0007834999999999,-0.129399,-0.4622755,-0.0188045,0.136991,-0.5406755,-0.0136025,-0.154879,-0.8038455,-0.0294445,0.1673309999999999,-0.8825255,-0.0737075,0
186,-0.023522,0.806618,0.079277,-0.18005,0.517778,-0.020696,-0.23731,0.236508,0.053706,0.13915,0.522298,-0.0281439999999999,0.20484,0.244058,0.05435,-0.2091,-0.052124,0.058445,0.22687,-0.051735,0.054232,-0.062764,-0.000518,0.000474,0.062764,0.000518,-0.0004739999999999,-0.1305,-0.473152,-0.020107,0.1396099999999999,-0.556432,-0.0132649999999999,-0.15579,-0.8074020000000001,-0.031785,0.16696,-0.883992,-0.075327,0
187,-0.023275,0.8067124999999999,0.0757395,-0.18063,0.5180625,-0.0214355,-0.23892,0.2287025,0.0579545,0.14074,0.5211625,-0.0283165,0.211,0.2358325,0.0545505,-0.22174,-0.0167515,0.0563445,0.2318599999999999,-0.0493715,0.0587475,-0.062733,-0.0004615,0.0007045,0.062733,0.0004615,-0.0007045,-0.13083,-0.4766875,-0.0207935,0.13757,-0.5434175,-0.0146085,-0.15961,-0.8375275,-0.0379845,0.1664999999999999,-0.8894475000000001,-0.0795235,0
