sb224sc-HT22-VT27/4dt907/src/data/labeled_files/A115_kinect.csv
FrameNo,nose_3d_x,nose_3d_y,nose_3d_z,left_shoulder_3d_x,left_shoulder_3d_y,left_shoulder_3d_z,left_elbow_3d_x,left_elbow_3d_y,left_elbow_3d_z,right_shoulder_3d_x,right_shoulder_3d_y,right_shoulder_3d_z,right_elbow_3d_x,right_elbow_3d_y,right_elbow_3d_z,left_wrist_3d_x,left_wrist_3d_y,left_wrist_3d_z,right_wrist_3d_x,right_wrist_3d_y,right_wrist_3d_z,left_hip_3d_x,left_hip_3d_y,left_hip_3d_z,right_hip_3d_x,right_hip_3d_y,right_hip_3d_z,left_knee_3d_x,left_knee_3d_y,left_knee_3d_z,right_knee_3d_x,right_knee_3d_y,right_knee_3d_z,left_ankle_3d_x,left_ankle_3d_y,left_ankle_3d_z,right_ankle_3d_x,right_ankle_3d_y,right_ankle_3d_z,activity_label
0,-0.0248709999999999,0.773239,0.038709,-0.192637,0.5015890000000001,0.0033339999999999,-0.244367,0.241419,-0.019067,0.154303,0.499949,-0.0043059999999999,0.214763,0.233599,-0.0280869999999999,-0.2088469999999999,0.0158169999999999,-0.093499,0.192803,0.015064,-0.109579,-0.076688,-0.000889,-0.000625,0.076688,0.000889,0.000625,-0.153907,-0.5653509999999999,0.03001,0.163293,-0.559331,0.024904,-0.190937,-0.907541,-0.0197569999999999,0.207013,-0.897281,-0.035474,0
1,-0.0244045,0.7730925000000001,0.0384129999999999,-0.1924445,0.5016025000000001,0.0030579999999999,-0.2440845,0.2398925,-0.019572,0.1543655,0.5000325,-0.00434,0.2148355,0.2334525,-0.0280129999999999,-0.2087745,0.0165745,-0.093503,0.1925555,0.0151435,-0.109653,-0.0766915,-0.0007934999999999,-0.000628,0.0766915,0.0007934999999999,0.0006279999999999,-0.1539245,-0.5667074999999999,0.0297069999999999,0.1633755,-0.5592975,0.0249339999999999,-0.1887645,-0.9072275,-0.0146719999999999,0.2059955,-0.8953675,-0.0351299999999999,0
2,-0.0242369999999999,0.773113,0.0402845,-0.192101,0.5015729999999999,0.0036264999999999,-0.244151,0.240473,-0.0190354999999999,0.154429,0.5000129999999999,-0.0032114999999999,0.214789,0.232993,-0.0273675,-0.208761,0.016776,-0.0935345,0.191929,0.015138,-0.1096944999999999,-0.076712,-0.000772,-0.0006315,0.076712,0.000772,0.0006315,-0.153971,-0.566737,0.0284175,0.163139,-0.557097,0.0233725,-0.189361,-0.909147,-0.0189865,0.198649,-0.890367,-0.0016745,0
3,-0.0240015,0.7731095,0.0400229999999999,-0.1917355,0.5015895,0.0034269999999999,-0.2440455,0.2406795,-0.018906,0.1545645,0.4999895,-0.003188,0.2149145,0.2329495,-0.0273329999999999,-0.2084855,0.0168765,-0.093522,0.1915744999999999,0.0153295,-0.109752,-0.0767595,-0.0008105,-0.0006229999999999,0.0767595,0.0008105,0.0006229999999999,-0.1536655,-0.5661105,0.0287069999999999,0.1632144999999999,-0.5566305,0.0230639999999999,-0.1926955,-0.9118805,-0.029725,0.2014045,-0.8827405,-0.005831,0
4,-0.023814,0.7731045,0.040045,-0.191579,0.5015745,0.0033759999999999,-0.243669,0.2414545,-0.019008,0.154731,0.4999645,-0.0030869999999999,0.215021,0.2329345,-0.027409,-0.207709,0.0168924999999999,-0.093803,0.190771,0.0155725,-0.110163,-0.076768,-0.0008144999999999,-0.0006169999999999,0.076768,0.0008145,0.0006169999999999,-0.153379,-0.5653155000000001,0.0289359999999999,0.163971,-0.5591455000000001,0.0237269999999999,-0.191779,-0.9132855,-0.0297889999999999,0.200441,-0.8845855,-0.00536,0
5,-0.0233035,0.7727805,0.039575,-0.1912685,0.5016005,0.003532,-0.2435685,0.2416105,-0.01885,0.1549915,0.5001605,-0.003216,0.2152315,0.2329505,-0.027285,-0.2067185,0.0175675,-0.0938939999999999,0.1895915,0.0161235,-0.111164,-0.0768055,-0.0008295,-0.000699,0.0768055,0.0008294999999999,0.0006989999999999,-0.1531584999999999,-0.5655295,0.0291089999999999,0.1642414999999999,-0.5592195,0.0238549999999999,-0.1916785,-0.9118095,-0.028447,0.1965615,-0.8895695,-0.018315,0
6,-0.0229824999999999,0.772833,0.0393489999999999,-0.1911775,0.501663,0.003643,-0.2435175,0.242003,-0.018935,0.1550625,0.500033,-0.003153,0.2151925,0.232693,-0.027242,-0.2051775,0.01745,-0.094419,0.1887325,0.016395,-0.111789,-0.0768445,-0.000854,-0.0007759999999999,0.0768445,0.0008539999999999,0.0007759999999999,-0.1530274999999999,-0.565987,0.029219,0.1642525,-0.560017,0.0240489999999999,-0.1918575,-0.910757,-0.027554,0.2064725,-0.8973169999999999,-0.046709,0
7,-0.0230805,0.772739,0.0389175,-0.1905995,0.501459,0.0041175,-0.2435795,0.242789,-0.0188955,0.1549005,0.500229,-0.0032674999999999,0.2151005,0.235599,-0.0270224999999999,-0.2030295,0.016248,-0.0964145,0.1881305,0.017202,-0.1120545,-0.0769255,-0.000878,-0.0007394999999999,0.0769255,0.000878,0.0007394999999999,-0.1531495,-0.565671,0.0293735,0.1639905,-0.5575910000000001,0.0243715,-0.1927895,-0.909341,-0.0268004999999999,0.2046105,-0.889171,-0.0363945,0
8,-0.0228975,0.7727075,0.038934,-0.1903405,0.5014575,0.0042359999999999,-0.2434905,0.2427975,-0.0188559999999999,0.1549795,0.5002175,-0.003186,0.2151394999999999,0.2354175,-0.0269389999999999,-0.2019605,0.0159165,-0.0969509999999999,0.1875494999999999,0.0172005,-0.112511,-0.0769505,-0.0008694999999999,-0.0007479999999999,0.0769505,0.0008695,0.0007479999999999,-0.1530205,-0.5660625,0.02942,0.1641095,-0.5579425,0.02442,-0.1931105,-0.9102625,-0.027486,0.2044195,-0.8892025,-0.035869,0
9,-0.022733,0.7726775,0.038991,-0.190096,0.5014675,0.004343,-0.243426,0.2428175,-0.0187649999999999,0.155034,0.5002175,-0.003095,0.215144,0.2352675,-0.0268469999999999,-0.201036,0.0156805,-0.097429,0.187064,0.0171915,-0.112939,-0.076973,-0.0008695,-0.0007599999999999,0.076973,0.0008694999999999,0.00076,-0.152906,-0.5660425,0.029479,0.164204,-0.5582825,0.024466,-0.193396,-0.9109225,-0.0278189999999999,0.204154,-0.8894625,-0.0354609999999999,0
10,-0.0226144999999999,0.7726675000000001,0.0389955,-0.1898765,0.5014675,0.0044125,-0.2433965,0.2431475,-0.0187325,0.1550735,0.5002475,-0.0030774999999999,0.2151335,0.2355975,-0.0267844999999999,-0.2002865,0.0154625,-0.0978025,0.1867535,0.0173784999999999,-0.1132325,-0.0769795,-0.0008824999999999,-0.0007645,0.0769795,0.0008825,0.0007645,-0.1528165,-0.5657225,0.0295895,0.1642735,-0.5585025,0.0245715,-0.1933865,-0.9108025,-0.0277424999999999,0.2044834999999999,-0.8894825,-0.0368755,0
11,-0.022615,0.772657,0.0390615,-0.189807,0.5014569999999999,0.0045064999999999,-0.243397,0.243367,-0.0187155,0.155073,0.500257,-0.0030695,0.215113,0.235977,-0.0267375,-0.199857,0.015251,-0.0979765,0.1865529999999999,0.01755,-0.1134465,-0.07699,-0.0008999999999999,-0.0007544999999999,0.07699,0.0009,0.0007544999999999,-0.1527069999999999,-0.565363,0.0296885,0.1643629999999999,-0.558793,0.0246645,-0.193287,-0.910373,-0.0272085,0.204673,-0.890263,-0.0368155,0
12,-0.0226274999999999,0.7726515,0.03913,-0.1897694999999999,0.5014415,0.004603,-0.2433894999999999,0.2433615,-0.0186839999999999,0.1550605,0.5002814999999999,-0.0030629999999999,0.2150705,0.2363315,-0.0266999999999999,-0.1998694999999999,0.0150715,-0.0979059999999999,0.1864805,0.0176795,-0.113566,-0.0770095,-0.0009195,-0.0007389999999999,0.0770095,0.0009195,0.000739,-0.1526195,-0.5649285,0.029786,0.1644305,-0.5588385,0.024761,-0.1932394999999999,-0.9098685,-0.0263589999999999,0.2046605,-0.8908985,-0.036745,0
13,-0.022648,0.7727075,0.039166,-0.1897889999999999,0.5013875,0.004671,-0.243409,0.2433575,-0.0186469999999999,0.155041,0.5002875,-0.00306,0.215031,0.2364775,-0.0266099999999999,-0.1998889999999999,0.0150134999999999,-0.097842,0.186461,0.0177975,-0.113612,-0.0770309999999999,-0.0009475,-0.000729,0.0770309999999999,0.0009474999999999,0.000729,-0.152399,-0.5645924999999999,0.029875,0.164501,-0.5589425,0.024844,-0.1928689999999999,-0.9093425,-0.0253079999999999,0.204641,-0.8909425,-0.036681,0
14,-0.022772,0.772748,0.0391435,-0.189813,0.501328,0.0047015,-0.243433,0.243348,-0.0186464999999999,0.1549169999999999,0.500288,-0.0030724999999999,0.215007,0.236648,-0.0265335,-0.199913,0.014977,-0.0978115,0.186437,0.017881,-0.1136115,-0.077044,-0.0009779999999999,-0.0007204999999999,0.077044,0.000978,0.0007205,-0.152333,-0.565002,0.0299425,0.1646869999999999,-0.558982,0.0248765,-0.192603,-0.908962,-0.0243955,0.204457,-0.890262,-0.0349094999999999,0
15,-0.022941,0.7727835,0.0391225,-0.1898429999999999,0.5012835,0.0047285,-0.243483,0.2433335,-0.0186434999999999,0.154777,0.5002735,-0.0030694999999999,0.214997,0.2368835,-0.0264824999999999,-0.2000529999999999,0.0150165,-0.0976344999999999,0.186407,0.0179095,-0.1135944999999999,-0.0770579999999999,-0.0010124999999999,-0.0007164999999999,0.0770579999999999,0.0010124999999999,0.0007165,-0.152313,-0.5654365,0.0299675,0.164867,-0.5592165,0.0248975,-0.192133,-0.9089765,-0.0236394999999999,0.204397,-0.8902765,-0.0313824999999999,0
16,-0.0231404999999999,0.7728555,0.039124,-0.1900475,0.5012955,0.004624,-0.2435975,0.2432455,-0.0186599999999999,0.1546225,0.5002555,-0.0030869999999999,0.2149525,0.2371655,-0.0264639999999999,-0.2002875,0.0149924999999999,-0.097409,0.1864025,0.0179415,-0.113589,-0.0770685,-0.0010435,-0.0007199999999999,0.0770685,0.0010435,0.0007199999999999,-0.1521875,-0.5647145,0.02998,0.1650125,-0.5593144999999999,0.024871,-0.1916575,-0.9089945,-0.0229799999999999,0.2042025,-0.8902945,-0.0307119999999999,0
17,-0.023344,0.772957,0.0391254999999999,-0.190274,0.501297,0.0045534999999999,-0.243704,0.2431769999999999,-0.0186565,0.154436,0.500287,-0.0031455,0.2149459999999999,0.2375169999999999,-0.0264035,-0.200594,0.015004,-0.0971175,0.186466,0.017997,-0.1135875,-0.077082,-0.0010919999999999,-0.0007195,0.077082,0.001092,0.0007194999999999,-0.152024,-0.564053,0.0300104999999999,0.1651559999999999,-0.559583,0.0248734999999999,-0.190904,-0.908733,-0.0220585,0.204146,-0.8905230000000001,-0.0298815,0
18,-0.0235569999999999,0.773065,0.039126,-0.190541,0.501285,0.004489,-0.243851,0.243085,-0.0186619999999999,0.154259,0.500305,-0.0032189999999999,0.214909,0.237755,-0.0263879999999999,-0.201231,0.0151589999999999,-0.096597,0.186569,0.018036,-0.1135669999999999,-0.07709,-0.001137,-0.00073,0.07709,0.001137,0.00073,-0.151881,-0.563875,0.03006,0.165309,-0.559765,0.024856,-0.190241,-0.908715,-0.0220339999999999,0.204029,-0.8901049999999999,-0.0290519999999999,0
19,-0.0237784999999999,0.773169,0.03916,-0.1908105,0.501269,0.0044519999999999,-0.2440105,0.242979,-0.018676,0.1540795,0.500329,-0.003283,0.2148895,0.238119,-0.0263489999999999,-0.2018905,0.01519,-0.0960309999999999,0.1867095,0.01808,-0.113541,-0.0770915,-0.0011879999999999,-0.000735,0.0770915,0.0011879999999999,0.0007349999999999,-0.1517605,-0.5639909999999999,0.0301349999999999,0.1653595,-0.559761,0.0248169999999999,-0.1895605,-0.908821,-0.022062,0.2038295,-0.8901009999999999,-0.028189,0
20,-0.0240005,0.7732695,0.0391595,-0.1911025,0.5012395000000001,0.0043884999999999,-0.2441625,0.2428294999999999,-0.0187005,0.1539075,0.5003395,-0.0033885,0.2148975,0.2383394999999999,-0.0263695,-0.2024925,0.0152515,-0.0956315,0.1868575,0.0181115,-0.1135014999999999,-0.0770985,-0.0012224999999999,-0.0007615,0.0770985,0.0012225,0.0007614999999999,-0.1518325,-0.5644205,0.0301875,0.1653875,-0.5597705,0.0247445,-0.1893825,-0.9094205,-0.0226055,0.2036275,-0.8905504999999999,-0.0277315,0
21,-0.024235,0.7733300000000001,0.0391319999999999,-0.191412,0.50119,0.0043159999999999,-0.244282,0.24284,-0.018755,0.153718,0.50035,-0.003508,0.2148779999999999,0.23862,-0.026436,-0.203112,0.015222,-0.095619,0.186988,0.018131,-0.113569,-0.0770899999999999,-0.0012519999999999,-0.00079,0.0770899999999999,0.001252,0.0007899999999999,-0.151672,-0.56335,0.0301609999999999,0.165368,-0.5597599999999999,0.0246659999999999,-0.188952,-0.90954,-0.022614,0.203438,-0.89098,-0.027783,0
22,-0.0245085,0.773384,0.039146,-0.1917805,0.501144,0.0042169999999999,-0.2443905,0.242804,-0.018872,0.1535195,0.500364,-0.003637,0.2147995,0.238984,-0.0265439999999999,-0.2036705,0.0153149999999999,-0.095663,0.1870895,0.018095,-0.113643,-0.0770825,-0.001288,-0.0008109999999999,0.0770825,0.001288,0.0008109999999999,-0.1515005,-0.562286,0.030142,0.1653495,-0.559696,0.024555,-0.1887705,-0.909656,-0.0223909999999999,0.2033195,-0.891186,-0.027908,0
23,-0.02461,0.7734505,0.039171,-0.192029,0.5011205,0.0040959999999999,-0.244439,0.2427805,-0.019017,0.153411,0.5003905,-0.003817,0.214771,0.2394705,-0.0266529999999999,-0.204119,0.0152915,-0.095726,0.187221,0.0180635,-0.113716,-0.077071,-0.0013115,-0.000828,0.077071,0.0013115,0.0008279999999999,-0.151309,-0.5619095,0.0301419999999999,0.165341,-0.5594695,0.0244649999999999,-0.188549,-0.9095095,-0.022049,0.203271,-0.8913595,-0.028071,0
24,-0.024719,0.7735075,0.039161,-0.192236,0.5010375,0.003942,-0.244606,0.2427875,-0.0193349999999999,0.1532939999999999,0.5004175,-0.0040419999999999,0.214774,0.2401575,-0.0267609999999999,-0.204696,0.0154665,-0.095813,0.1874239999999999,0.0180815,-0.1138329999999999,-0.077038,-0.0013224999999999,-0.0008519999999999,0.077038,0.0013224999999999,0.0008519999999999,-0.151166,-0.5619525,0.030121,0.1653039999999999,-0.5592125,0.024321,-0.188586,-0.9094825,-0.0221559999999999,0.2032139999999999,-0.8910724999999999,-0.0281779999999999,0
25,-0.0248894999999999,0.7735845,0.038936,-0.1924354999999999,0.5009545000000001,0.0035999999999999,-0.2447955,0.2431145,-0.020419,0.1532445,0.5004745,-0.004319,0.2147545,0.2413345,-0.0276659999999999,-0.2058455,0.0156305,-0.097195,0.1881145,0.0180695,-0.115375,-0.0769955,-0.0013265,-0.000789,0.0769955,0.0013265,0.0007889999999999,-0.1511054999999999,-0.5615055,0.0298349999999999,0.1652545,-0.5588555,0.0239759999999999,-0.1886654999999999,-0.9093755,-0.023326,0.2030845,-0.8912954999999999,-0.028599,0
26,-0.0250019999999999,0.7736004999999999,0.038594,-0.1925549999999999,0.5009705,0.00298,-0.245105,0.2442504999999999,-0.024091,0.153055,0.5005904999999999,-0.004865,0.214625,0.2430405,-0.030321,-0.208945,0.0158395,-0.1035369999999999,0.190625,0.0181344999999999,-0.120847,-0.07689,-0.0013425,-0.0006489999999999,0.07689,0.0013425,0.000649,-0.151245,-0.5612895,0.029365,0.164945,-0.5580295000000001,0.023379,-0.189125,-0.9097995,-0.025005,0.202985,-0.8908195000000001,-0.0283429999999999,0
27,-0.0250784999999999,0.7736379999999999,0.0382835,-0.1926505,0.500988,0.0020915,-0.2459505,0.246638,-0.0312184999999999,0.1528995,0.500848,-0.0057525,0.2158395,0.246358,-0.0385284999999999,-0.2145905,0.016974,-0.1158854999999999,0.1960095,0.019073,-0.1327955,-0.0767925,-0.001394,-0.0004154999999999,0.0767925,0.001394,0.0004154999999999,-0.1514805,-0.561572,0.0286555,0.1644695,-0.556562,0.0224555,-0.1895204999999999,-0.910262,-0.0269834999999999,0.2030095,-0.890462,-0.0290585,0
28,-0.0250944999999999,0.7736495,0.0382235,-0.1927005,0.5009195,0.0009935,-0.2480305,0.2518694999999999,-0.0421804999999999,0.1527395,0.5012195,-0.0066995,0.2175495,0.2510095,-0.0489035,-0.2230105,0.0215015,-0.1345135,0.2039995,0.0217995,-0.1524335,-0.0766475,-0.0014385,-0.0002065,0.0766475,0.0014385,0.0002064999999999,-0.1514005,-0.5609505,0.0276925,0.1636695,-0.5515205,0.0213415,-0.1897705,-0.9102105,-0.0288285,0.2030895,-0.8901304999999999,-0.0297865,0
29,-0.0251085,0.7736345,0.038662,-0.1927095,0.5008345000000001,-0.0004529999999999,-0.2530895,0.2611945,-0.0565929999999999,0.1524005,0.5020345,-0.0079139999999999,0.2201005,0.2606445,-0.062377,-0.2339795,0.0343915,-0.15821,0.2140805,0.0324545,-0.1781599999999999,-0.0764685,-0.0014665,7.599999999999968e-05,0.0764685,0.0014665,-7.599999999999968e-05,-0.1514695,-0.5600855,0.026554,0.1633405,-0.5502455,0.019889,-0.1901995,-0.9107655,-0.0312469999999999,0.2031205,-0.8902255,-0.0313529999999999,0
30,-0.0250924999999999,0.7736615,0.0395509999999999,-0.1924515,0.5008015,-0.001917,-0.2590515,0.2732914999999999,-0.072587,0.1517585,0.5033215,-0.00929,0.2239285,0.2731515,-0.077987,-0.2484215,0.0544824999999999,-0.188547,0.2254685,0.0559645,-0.206207,-0.0762885,-0.0014905,0.0003789999999999,0.0762885,0.0014904999999999,-0.000379,-0.1512415,-0.5592285,0.0252169999999999,0.1623185,-0.5444285,0.0182399999999999,-0.1906615,-0.9106285,-0.033118,0.2032785,-0.8889185000000001,-0.032784,0
31,-0.024953,0.7735965,0.0410984999999999,-0.191822,0.5008765,-0.0030314999999999,-0.265992,0.2898065,-0.0904204999999999,0.150968,0.5052465,-0.0104674999999999,0.229198,0.2901365,-0.0958304999999999,-0.2667819999999999,0.0879305,-0.2227304999999999,0.2376079999999999,0.0877015,-0.2386104999999999,-0.076098,-0.0016265,0.0006354999999999,0.076098,0.0016264999999999,-0.0006354999999999,-0.151092,-0.5557435,0.0236615,0.161918,-0.5428335,0.0164415,-0.1910919999999999,-0.9099535,-0.0353034999999999,0.203268,-0.8891835,-0.0339495,0
32,-0.0247055,0.77334,0.042748,-0.1909365,0.5010600000000001,-0.003909,-0.2744165,0.31082,-0.107794,0.1501235,0.50743,-0.011374,0.2346635,0.3122499999999999,-0.115844,-0.2864165,0.13085,-0.255754,0.2522835,0.12779,-0.273504,-0.0759165,-0.0018069999999999,0.0008579999999999,0.0759165,0.001807,-0.0008579999999999,-0.1508265,-0.5521499999999999,0.021951,0.1609735,-0.5376599999999999,0.0144959999999999,-0.1917265,-0.90975,-0.0373579999999999,0.2032535,-0.88866,-0.035893,0
33,-0.0243974999999999,0.7727655,0.0446175,-0.1897555,0.5015155,-0.0044284999999999,-0.2837555,0.3370655,-0.1241794999999999,0.1495044999999999,0.5096055,-0.0119515,0.2413445,0.3396355,-0.1360395,-0.3085255,0.1802155,-0.2868894999999999,0.2676545,0.1779455,-0.3088595,-0.0757235,-0.0021125,0.0010544999999999,0.0757235,0.0021125,-0.0010544999999999,-0.1509355,-0.5529544999999999,0.0203855,0.1600045,-0.5328345,0.0124425,-0.1923655,-0.9105545,-0.0393604999999999,0.2031845,-0.8883844999999999,-0.0382624999999999,0
34,-0.0239735,0.7717815,0.0466185,-0.1882635,0.5023415,-0.0047084999999999,-0.2937435,0.3677115,-0.1393495,0.1490665,0.5118715,-0.0121925,0.2481765,0.3721215,-0.1550995,-0.3300935,0.2380315,-0.3161895,0.2816965,0.2328615,-0.3437795,-0.0755625,-0.0024805,0.0011815,0.0755625,0.0024805,-0.0011814999999999,-0.1509635,-0.5508285,0.0186155,0.1599565,-0.5331485,0.0106615,-0.1929635,-0.9109385,-0.0410694999999999,0.2035564999999999,-0.8903585,-0.0406804999999999,0
35,-0.0233885,0.7707195,0.0486955,-0.1866825,0.5036095,-0.0044924999999999,-0.3038425,0.4036195,-0.1504795,0.1489075,0.5143395000000001,-0.0118134999999999,0.2552675,0.4092795,-0.1695995,-0.3513225,0.3074395,-0.3390395,0.2920574999999999,0.3042295,-0.3685994999999999,-0.0753945,-0.0027685,0.0012185,0.0753945,0.0027685,-0.0012184999999999,-0.1509125,-0.5491405,0.0172165,0.1589375,-0.5285805,0.0091705,-0.1934925,-0.9116805,-0.0427524999999999,0.2035375,-0.8896205,-0.0433305,0
36,-0.022778,0.7692375,0.0501739999999999,-0.185204,0.5050074999999999,-0.003753,-0.313314,0.4428775,-0.155825,0.148716,0.5169575,-0.010922,0.260376,0.4505675,-0.175915,-0.367724,0.3852675,-0.349205,0.297786,0.3856974999999999,-0.381235,-0.075214,-0.0031834999999999,0.0012209999999999,0.075214,0.0031834999999999,-0.0012209999999999,-0.150974,-0.5485925,0.016145,0.157726,-0.5240525,0.0080539999999999,-0.193994,-0.9129325,-0.043881,0.203476,-0.8883425,-0.0445349999999999,0
37,-0.0221295,0.7672225,0.0510964999999999,-0.1842435,0.5066525000000001,-0.0025815,-0.3210435,0.4848325,-0.1562315,0.1485365,0.5199725000000001,-0.0101515,0.2636064999999999,0.4952625,-0.1791215,-0.3798035,0.4694925,-0.3494615,0.2990965,0.4763425,-0.3834015,-0.0750545,-0.0035695,0.0012704999999999,0.0750545,0.0035694999999999,-0.0012705,-0.1511134999999999,-0.5487275,0.0154934999999999,0.1574065,-0.5262875,0.0074304999999999,-0.1946235,-0.9146575,-0.0447835,0.2037565,-0.8916175,-0.0458405,0
38,-0.0214964999999999,0.764838,0.0512279999999999,-0.1835165,0.508708,-0.000732,-0.3250565,0.526398,-0.156223,0.1484335,0.523568,-0.009023,0.2653534999999999,0.5369980000000001,-0.179303,-0.3871065,0.5536580000000001,-0.349353,0.2991835,0.563118,-0.383533,-0.0749415,-0.003967,0.0012609999999999,0.0749415,0.003967,-0.001261,-0.1512565,-0.550082,0.0153119999999999,0.1573435,-0.529412,0.00733,-0.1949064999999999,-0.918112,-0.045335,0.2039735,-0.8950619999999999,-0.046321,0
39,-0.0206739999999999,0.7621065,0.0512,-0.182947,0.5108465000000001,0.000975,-0.3273169999999999,0.5677165000000001,-0.1561469999999999,0.148203,0.5266365000000001,-0.007861,0.2654729999999999,0.5787765,-0.179307,-0.3895269999999999,0.6345965,-0.349277,0.299303,0.6420365,-0.383537,-0.074848,-0.0043495,0.001258,0.074848,0.0043494999999999,-0.0012579999999999,-0.151347,-0.5540934999999999,0.015336,0.156753,-0.5303334999999999,0.007335,-0.195127,-0.9220335,-0.0453979999999999,0.203693,-0.8960634999999999,-0.04885,0
40,-0.0198035,0.7587845000000001,0.0511715,-0.1826285,0.5133745000000001,0.0022324999999999,-0.3281685,0.6077145,-0.1554815,0.1480215,0.5288745,-0.0069865,0.2656015,0.6204545,-0.1793115,-0.3893284999999999,0.7047745000000001,-0.3471815,0.2994315,0.7212445000000001,-0.3835415,-0.0747195,-0.0045584999999999,0.0012535,0.0747195,0.0045585,-0.0012535,-0.1517985,-0.5622455,0.0154395,0.1557215,-0.5267755,0.0068755,-0.1953985,-0.9282855,-0.0458815,0.2033515,-0.8948455,-0.0488395,0
41,-0.01895,0.7554894999999999,0.0511439999999999,-0.182344,0.5165195,0.0032569999999999,-0.327864,0.6448294999999999,-0.149955,0.147606,0.5305995000000001,-0.006827,0.265756,0.6578595,-0.178065,-0.388814,0.7677395,-0.335085,0.297436,0.7955494999999999,-0.373845,-0.07457,-0.0046804999999999,0.001249,0.07457,0.0046805,-0.001249,-0.151324,-0.5634305,0.015026,0.156446,-0.5358805,0.006855,-0.195274,-0.9314305,-0.0454469999999999,0.202946,-0.9016605,-0.053304,0
42,-0.0180989999999999,0.752355,0.050329,-0.18218,0.519825,0.004086,-0.32743,0.677795,-0.14084,0.1473,0.532305,-0.0066779999999999,0.26529,0.691925,-0.17291,-0.38801,0.833735,-0.31486,0.29281,0.862685,-0.35721,-0.074383,-0.0047369999999999,0.001202,0.074383,0.004737,-0.0012019999999999,-0.15144,-0.568005,0.01517,0.15723,-0.545195,0.006985,-0.19553,-0.936325,-0.0455359999999999,0.20239,-0.909965,-0.057589,0
43,-0.01728,0.7491150000000001,0.0485275,-0.181903,0.5226350000000001,0.0051295,-0.326883,0.7067950000000001,-0.1286655,0.147497,0.5348550000000001,-0.0059134999999999,0.262467,0.721635,-0.1642755,-0.383633,0.8932150000000001,-0.2870355,0.286367,0.927065,-0.3326055,-0.074125,-0.004788,0.0011195,0.074125,0.004788,-0.0011194999999999,-0.151973,-0.576345,0.0157875,0.1570369999999999,-0.547385,0.0067725,-0.195973,-0.942875,-0.0455784999999999,0.201687,-0.912025,-0.0599655,0
44,-0.0165365,0.7461074999999999,0.0462825,-0.1816275,0.5249775,0.0062925,-0.3250775,0.7306174999999999,-0.1156695,0.1479325,0.5368775,-0.0050854999999999,0.2588725,0.7467374999999999,-0.1521295,-0.3762575,0.9408775,-0.2567195,0.2766825,0.9759175,-0.3012695,-0.0738745,-0.0048924999999999,0.0009895,0.0738745,0.0048925,-0.0009894999999999,-0.1520675,-0.5816225,0.0164435,0.1558925,-0.5426725,0.0067605,-0.1957275,-0.9475325,-0.0448255,0.2006025,-0.9101825,-0.0622654999999999,0
45,-0.015714,0.7432615,0.043802,-0.18162,0.5286814999999999,0.007998,-0.32149,0.7510614999999999,-0.1022839999999999,0.14848,0.5383715,-0.0039799999999999,0.2533499999999999,0.7671515,-0.138564,-0.36495,0.9789415,-0.224584,0.2658399999999999,1.0137415,-0.266684,-0.073619,-0.0048525,0.000796,0.073619,0.0048524999999999,-0.0007959999999999,-0.15264,-0.5900385,0.017411,0.15654,-0.5518285,0.007571,-0.19568,-0.9536285,-0.0439959999999999,0.20018,-0.9184085,-0.065713,0
46,-0.014209,0.741101,0.041026,-0.181695,0.531601,0.009696,-0.316465,0.7658309999999999,-0.088753,0.148815,0.5415409999999999,-0.0029379999999999,0.247365,0.782691,-0.124503,-0.353025,1.007011,-0.191803,0.254995,1.041311,-0.231413,-0.073433,-0.0048479999999999,0.000514,0.073433,0.004848,-0.000514,-0.153005,-0.597539,0.018404,0.155315,-0.547089,0.0077839999999999,-0.195735,-0.959019,-0.0426459999999999,0.199845,-0.915599,-0.066106,0
47,-0.0122815,0.738445,0.038407,-0.1817145,0.533135,0.011394,-0.3113045,0.775875,-0.0758619999999999,0.1489655,0.543115,-0.0019389999999999,0.2409055,0.795305,-0.112452,-0.3389545,1.0258349999999998,-0.159302,0.2456055,1.063535,-0.199932,-0.0731725,-0.0049,9.20000000000018e-05,0.0731725,0.0048999999999999,-9.199999999999832e-05,-0.1534045,-0.6052150000000001,0.019507,0.1549454999999999,-0.548635,0.008112,-0.1958545,-0.964615,-0.0414769999999999,0.1997555,-0.916905,-0.067073,0
48,-0.010289,0.735928,0.0364185,-0.181641,0.5346080000000001,0.0129874999999999,-0.305671,0.783688,-0.0649385,0.149129,0.5450980000000001,-0.0010735,0.234919,0.805388,-0.1025025,-0.326711,1.041488,-0.1330125,0.237729,1.079288,-0.1732925,-0.072907,-0.0049659999999999,-0.0004155,0.072907,0.0049659999999999,0.0004154999999999,-0.152921,-0.606792,0.0199004999999999,0.154539,-0.549762,0.0083924999999999,-0.195721,-0.968222,-0.0400075,0.199309,-0.917782,-0.0675495,0
49,-0.0084455,0.7336360000000001,0.034803,-0.1817455,0.534956,0.014442,-0.3005255,0.787816,-0.055497,0.1490245,0.547006,-0.000399,0.2300745,0.810766,-0.093157,-0.3157855,1.054456,-0.1117269999999999,0.2312245,1.085756,-0.148997,-0.0725835,-0.0050839999999999,-0.0010089999999999,0.0725835,0.005084,0.0010089999999999,-0.1529255,-0.610664,0.020445,0.1529445,-0.544224,0.008536,-0.1957055,-0.972084,-0.0386689999999999,0.1983145,-0.914444,-0.067913,0
50,-0.0062134999999999,0.7316334999999999,0.033644,-0.1819095,0.5344935,0.015681,-0.2961295,0.7902035,-0.047602,0.1488405,0.5493035,0.0001739999999999,0.2256305,0.8163435,-0.084564,-0.3073295,1.0650235,-0.095694,0.2256705,1.0886235000000002,-0.129864,-0.0723145,-0.0052304999999999,-0.00156,0.0723145,0.0052304999999999,0.0015599999999999,-0.1534394999999999,-0.6166865,0.0213999999999999,0.1537705,-0.5557265,0.0097259999999999,-0.1960694999999999,-0.9763165,-0.037741,0.1984305,-0.9249065,-0.06735,0
51,-0.0040014999999999,0.7294475,0.0330219999999999,-0.1817305,0.5330675,0.016909,-0.2925505,0.7909175,-0.041611,0.1486495,0.5517475000000001,0.0008449999999999,0.2221695,0.8196075,-0.077931,-0.3003004999999999,1.0659575,-0.081221,0.2211395,1.0887574999999998,-0.115131,-0.0721135,-0.0053365,-0.0020629999999999,0.0721135,0.0053365,0.0020629999999999,-0.1539805,-0.6224124999999999,0.0222749999999999,0.1531995,-0.5576525,0.0104599999999999,-0.1964904999999999,-0.9807425,-0.037165,0.1976695,-0.9265325,-0.06683,0
52,-0.00181,0.7275905,0.0327195,-0.181092,0.5314405,0.0178395,-0.289032,0.7906805000000001,-0.0365915,0.148438,0.5531904999999999,0.0017075,0.219568,0.8213305,-0.0724765,-0.295322,1.0645005,-0.0706665,0.217568,1.0870005,-0.1040265,-0.071882,-0.0054054999999999,-0.0023975,0.071882,0.0054055,0.0023975,-0.154602,-0.6279295,0.0230795,0.153038,-0.5605595,0.0103945,-0.1972519999999999,-0.9848795,-0.0370315,0.196848,-0.9296595,-0.0663105,0
53,0.0003885,0.725551,0.032692,-0.1804885,0.5297409999999999,0.018535,-0.2860385,0.7895409999999999,-0.0329629999999999,0.1481915,0.555041,0.002554,0.2178215,0.822591,-0.0682789999999999,-0.2918385,1.062761,-0.064386,0.2147615,1.084861,-0.096736,-0.0716165,-0.0055169999999999,-0.0026,0.0716165,0.0055169999999999,0.0026,-0.1548385,-0.631629,0.023511,0.1527915,-0.562989,0.010054,-0.1979485,-0.987599,-0.036857,0.1964615,-0.932459,-0.066146,0
54,0.0024369999999999,0.723611,0.032455,-0.179997,0.527261,0.018529,-0.283857,0.787181,-0.0308069999999999,0.1478529999999999,0.5563710000000001,0.002839,0.216853,0.821971,-0.0657609999999999,-0.289647,1.060881,-0.061977,0.212363,1.082881,-0.091866,-0.071295,-0.0056269999999999,-0.0027119999999999,0.071295,0.005627,0.002712,-0.154967,-0.633259,0.02348,0.153673,-0.575039,0.009923,-0.198417,-0.990079,-0.036943,0.196803,-0.944209,-0.066972,0
55,0.003487,0.722298,0.0320015,-0.179575,0.525928,0.0182715,-0.2822349999999999,0.785848,-0.0297345,0.147365,0.555038,0.0025624999999999,0.2162649999999999,0.821448,-0.0641765,-0.288035,1.059848,-0.0617395,0.210815,1.081948,-0.0894135,-0.0709549999999999,-0.005747,-0.0030165,0.0709549999999999,0.005747,0.0030165,-0.154385,-0.626852,0.0228525,0.153565,-0.577072,0.0096335,-0.198165,-0.985612,-0.0369545,0.1970049999999999,-0.946492,-0.0672545,0
56,0.003658,0.722298,0.031239,-0.1792689999999999,0.525928,0.017851,-0.281099,0.785848,-0.030038,0.146791,0.555038,0.0021709999999999,0.215721,0.821448,-0.063639,-0.286889,1.0588479999999998,-0.062188,0.209851,1.082148,-0.088045,-0.070742,-0.005747,-0.0034339999999999,0.070742,0.005747,0.0034339999999999,-0.1549589999999999,-0.626852,0.022461,0.152111,-0.568372,0.008636,-0.198759,-0.985612,-0.038033,0.195571,-0.938592,-0.065783,0
57,0.002948,0.722298,0.0302524999999999,-0.179137,0.525108,0.0170475,-0.280487,0.785848,-0.0307225,0.146093,0.555038,0.0015304999999999,0.215013,0.821448,-0.0642135,-0.286547,1.0588479999999998,-0.0628624999999999,0.209163,1.081448,-0.0884455,-0.070573,-0.005747,-0.0040704999999999,0.070573,0.005747,0.0040704999999999,-0.154587,-0.617552,0.0211564999999999,0.150853,-0.559212,0.0076584999999999,-0.198397,-0.978282,-0.0387044999999999,0.194493,-0.930272,-0.0646075,0
58,0.002299,0.722298,0.028792,-0.179191,0.524178,0.015717,-0.280151,0.785518,-0.032049,0.145099,0.554668,-0.0001389999999999,0.214369,0.821448,-0.065508,-0.286531,1.0588479999999998,-0.064179,0.2085189999999999,1.079748,-0.08974,-0.0704569999999999,-0.005747,-0.0042519999999999,0.0704569999999999,0.005747,0.004252,-0.153911,-0.608132,0.018113,0.151119,-0.559172,0.003726,-0.197851,-0.970922,-0.040038,0.194369,-0.930682,-0.064662,0
59,0.001552,0.721906,0.026942,-0.179425,0.523476,0.013902,-0.279725,0.784806,-0.033858,0.143805,0.553336,-0.0026289999999999,0.213665,0.821286,-0.06728,-0.286625,1.058426,-0.0676229999999999,0.207775,1.078126,-0.091511,-0.07039,-0.005594,-0.0042689999999999,0.07039,0.005594,0.0042689999999999,-0.153375,-0.598244,0.013584,0.151665,-0.558944,-0.0010369999999999,-0.198085,-0.963524,-0.042932,0.193955,-0.930474,-0.064913,0
60,-0.0002805,0.721231,0.0235114999999999,-0.1802205,0.523131,0.0111425,-0.2796805,0.783631,-0.0373765,0.1417995,0.549171,-0.0074024999999999,0.2132595,0.8205009999999999,-0.0698605,-0.2869105,1.056751,-0.0733295,0.2071095,1.078451,-0.0940855,-0.0701985,-0.005375,-0.0040544999999999,0.0701985,0.005375,0.0040544999999999,-0.1531405,-0.5877290000000001,0.0069695,0.1506595,-0.548579,-0.0078265,-0.1983805,-0.954859,-0.0464955,0.1928795,-0.920349,-0.0656145,0
61,-0.0026449999999999,0.7207009999999999,0.018992,-0.181081,0.523631,0.0076879999999999,-0.2800809999999999,0.783251,-0.042261,0.140159,0.545661,-0.01294,0.212889,0.820341,-0.073865,-0.287331,1.054191,-0.081056,0.206889,1.077691,-0.098626,-0.0699579999999999,-0.0051039999999999,-0.003763,0.0699579999999999,0.005104,0.0037629999999999,-0.153151,-0.575029,-0.001521,0.150969,-0.545869,-0.016392,-0.198581,-0.943949,-0.050629,0.191699,-0.917949,-0.069651,0
62,-0.0059584999999999,0.719218,0.013992,-0.1819835,0.524548,0.003673,-0.2807735,0.779648,-0.048698,0.1384465,0.541798,-0.0190159999999999,0.2130865,0.817788,-0.079496,-0.2879434999999999,1.052138,-0.089778,0.2066265,1.077238,-0.104238,-0.0697165,-0.0047939999999999,-0.003452,0.0697165,0.004794,0.003452,-0.1533335,-0.561502,-0.011836,0.1511965,-0.542632,-0.026933,-0.1988335,-0.932292,-0.0548119999999999,0.1908265,-0.915162,-0.0730909999999999,0
63,-0.0094785,0.717252,0.0082399999999999,-0.1829485,0.526242,-0.000953,-0.2815685,0.776872,-0.056078,0.1371915,0.538172,-0.02569,0.2133515,0.815242,-0.08602,-0.2889585,1.050242,-0.099659,0.2068015,1.0772419999999998,-0.111299,-0.0695305,-0.0045389999999999,-0.003018,0.0695305,0.004539,0.003018,-0.1550585,-0.557908,-0.022854,0.1514015,-0.538958,-0.039303,-0.2002185,-0.928558,-0.059229,0.1901314999999999,-0.911838,-0.07685,0
64,-0.0129374999999999,0.7155400000000001,0.0018655,-0.1839994999999999,0.5262899999999999,-0.0063315,-0.2827095,0.7746999999999999,-0.0645385,0.1354505,0.5341899999999999,-0.0328685,0.2134705,0.81318,-0.0934605,-0.2902395,1.05056,-0.1100005,0.2067005,1.07956,-0.1190605,-0.0695705,-0.00431,-0.0021775,0.0695705,0.0043099999999999,0.0021774999999999,-0.1575995,-0.55477,-0.0346145,0.1514805,-0.53657,-0.0525405,-0.2028095,-0.92523,-0.0636195,0.1893805,-0.90962,-0.0820205,0
65,-0.0164385,0.7120154999999999,-0.005447,-0.1849915,0.5268155000000001,-0.011838,-0.2838915,0.7722655,-0.073831,0.1337084999999999,0.5308155000000001,-0.040186,0.2136884999999999,0.8101555,-0.101687,-0.2915015,1.0513355,-0.121167,0.2061785,1.0815355,-0.127637,-0.0696225,-0.0041785,-0.000996,0.0696225,0.0041785,0.000996,-0.1591815,-0.5415145,-0.048109,0.1511485,-0.5240345,-0.066991,-0.2043915,-0.9133245,-0.0681119999999999,0.1880685,-0.8974745,-0.08702,1
66,-0.020034,0.710042,-0.0127105,-0.185492,0.527372,-0.0175185,-0.285262,0.769652,-0.0837285,0.131548,0.528012,-0.0472795,0.213648,0.805042,-0.1106434999999999,-0.292912,1.048112,-0.1344634999999999,0.204978,1.077612,-0.1380134999999999,-0.06966,-0.003654,0.0005675,0.06966,0.0036539999999999,-0.0005675,-0.160962,-0.5270079999999999,-0.0625555,0.151478,-0.5204679999999999,-0.0820274999999999,-0.205822,-0.899848,-0.0723345,0.1872079999999999,-0.893028,-0.0922385,1
67,-0.023563,0.709361,-0.019636,-0.185702,0.5262610000000001,-0.0238379999999999,-0.286652,0.7685310000000001,-0.093233,0.129248,0.5244310000000001,-0.054695,0.213578,0.803241,-0.118822,-0.294442,1.048501,-0.146632,0.203208,1.077301,-0.147572,-0.069842,-0.0033369999999999,0.001384,0.069842,0.0033369999999999,-0.0013839999999999,-0.163682,-0.513119,-0.076626,0.152398,-0.506579,-0.096054,-0.207372,-0.8859589999999999,-0.07596,0.187118,-0.879039,-0.095389,1
68,-0.026858,0.706576,-0.0268415,-0.1858659999999999,0.524726,-0.0301365,-0.288026,0.765846,-0.1027445,0.127194,0.520956,-0.0618815,0.213054,0.801566,-0.1274565,-0.296096,1.048186,-0.1588065,0.201464,1.075386,-0.1574065,-0.069987,-0.003313,0.0024175,0.069987,0.003313,-0.0024174999999999,-0.1669959999999999,-0.499534,-0.0907675,0.153514,-0.492994,-0.1110265,-0.208926,-0.872374,-0.0801765,0.186764,-0.8654540000000001,-0.0983525,1
69,-0.02858,0.7036815,-0.0330005,-0.18599,0.5215015,-0.0360525,-0.28949,0.7635115,-0.1117525,0.1252299999999999,0.5176915,-0.0677575,0.2128,0.7967915,-0.1358925,-0.29777,1.0494915,-0.1706125,0.1997499999999999,1.0735915,-0.1664925,-0.07025,-0.0030395,0.0031734999999999,0.07025,0.0030394999999999,-0.0031735,-0.17109,-0.4844285,-0.1039345,0.1553699999999999,-0.4778885,-0.1261624999999999,-0.21069,-0.8572685,-0.0835535,0.18658,-0.8503485000000001,-0.1006215,1
70,-0.0302425,0.699176,-0.0377825,-0.1861435,0.518316,-0.0404805,-0.2909735,0.758726,-0.1196605,0.1235465,0.514566,-0.0721535,0.2121665,0.791686,-0.1428205,-0.2993035,1.045106,-0.1817405,0.1979965,1.0715059999999998,-0.1737505,-0.0705935,-0.0029719999999999,0.0040835,0.0705935,0.002972,-0.0040835,-0.1769235,-0.472434,-0.1156205,0.1577665,-0.468274,-0.1394205,-0.2136235,-0.8447739999999999,-0.0859585,0.1870865,-0.840104,-0.1019855,1
71,-0.0319985,0.6968095,-0.0434775,-0.1863785,0.5130495,-0.0460275,-0.2924185,0.7584895,-0.1278294999999999,0.1221315,0.5101295,-0.0782605,0.2112915,0.7881895,-0.1497995,-0.3008885,1.0421395,-0.1929294999999999,0.1954815,1.0718394999999998,-0.1814494999999999,-0.0709965,-0.0032324999999999,0.0046855,0.0709965,0.0032324999999999,-0.0046854999999999,-0.1843185,-0.4618405,-0.1281095,0.1600115,-0.4577405,-0.1535794999999999,-0.2174085,-0.8332505,-0.0897285,0.1864114999999999,-0.8283105,-0.1065545,1
72,-0.033733,0.6938635,-0.0496895,-0.186533,0.5085235,-0.0513315,-0.293583,0.7566735,-0.1359545,0.121347,0.5062335,-0.0842445,0.209597,0.7853034999999999,-0.1572545,-0.302083,1.0375235,-0.2036745,0.192877,1.0656435,-0.1891645,-0.071411,-0.0032725,0.0053265,0.071411,0.0032724999999999,-0.0053265,-0.191953,-0.4462565,-0.1406045,0.162327,-0.4447965,-0.1675445,-0.222133,-0.8153565,-0.0937114999999999,0.186807,-0.8134465000000001,-0.1130745,1
73,-0.0349645,0.6922945,-0.0554765,-0.1866065,0.5060045,-0.0561925,-0.2948265,0.7554645000000001,-0.1438165,0.1203535,0.5019645,-0.0904095,0.2081135,0.7814145,-0.1645165,-0.3030265,1.0325645,-0.2146865,0.1902035,1.0608045,-0.1963865,-0.0716925,-0.0032495,0.0060165,0.0716925,0.0032495,-0.0060165,-0.2005964999999999,-0.4300655,-0.1540265,0.1646035,-0.4310555,-0.1828765,-0.2280464999999999,-0.7966854999999999,-0.0987715,0.1874035,-0.7975255,-0.1239265,1
74,-0.0358195,0.6914525,-0.0647325,-0.1867265,0.5042424999999999,-0.0653035,-0.2958865,0.7554624999999999,-0.1552425,0.1194035,0.4995625,-0.1004805,0.2073035,0.7810725000000001,-0.1756724999999999,-0.3039165,1.0286825,-0.2289525,0.1877335,1.0585025,-0.2073424999999999,-0.0718615,-0.0032804999999999,0.0062714999999999,0.0718615,0.0032805,-0.0062715,-0.2094765,-0.4117875,-0.1735425,0.1670434999999999,-0.4141075,-0.2019024999999999,-0.2341765,-0.7757674999999999,-0.1080494999999999,0.1880335,-0.7782674999999999,-0.1399625,1
75,-0.0365495,0.69164,-0.077076,-0.1872305,0.50198,-0.077796,-0.2971705,0.7579899999999999,-0.16846,0.1184595,0.49749,-0.113779,0.2065495,0.7839499999999999,-0.18896,-0.3047505,1.03332,-0.24352,0.1854995,1.05997,-0.22058,-0.0722065,-0.00375,0.0060829999999999,0.0722065,0.00375,-0.006083,-0.2214105,-0.39119,-0.20156,0.1692695,-0.39472,-0.2313899999999999,-0.2416005,-0.75263,-0.12605,0.1889895,-0.75665,-0.16115,1
76,-0.0366705,0.688585,-0.089649,-0.1872475,0.500375,-0.088976,-0.2977475,0.7542550000000001,-0.181972,0.1184224999999999,0.496805,-0.125362,0.2065924999999999,0.783485,-0.202862,-0.3047775,1.025605,-0.259042,0.1842224999999999,1.054695,-0.234532,-0.0723985,-0.0039349999999999,0.005787,0.0723985,0.003935,-0.0057869999999999,-0.2310675,-0.3706449999999999,-0.228142,0.1713424999999999,-0.376505,-0.259282,-0.2472775,-0.7320249999999999,-0.144592,0.1902325,-0.736855,-0.183562,1
77,-0.036814,0.6904049999999999,-0.103188,-0.187378,0.497465,-0.102542,-0.298398,0.755085,-0.196284,0.118302,0.496755,-0.139106,0.206722,0.781075,-0.218384,-0.304948,1.0240049999999998,-0.275154,0.1832319999999999,1.054775,-0.249714,-0.072524,-0.004265,0.005385,0.072524,0.0042649999999999,-0.005385,-0.241178,-0.345245,-0.256614,0.173342,-0.353425,-0.288634,-0.252688,-0.706245,-0.164374,0.191162,-0.712165,-0.206164,1
78,-0.0377095,0.69021,-0.1165445,-0.1877985,0.49596,-0.1156025,-0.2994285,0.75356,-0.2110475,0.1173314999999999,0.4989599999999999,-0.1520475,0.2062415,0.7805000000000001,-0.2332475,-0.3052685,1.02106,-0.2908775,0.1821215,1.05272,-0.2653375,-0.0725245,-0.0047999999999999,0.0050345,0.0725245,0.0047999999999999,-0.0050344999999999,-0.2509085,-0.3221299999999999,-0.2842175,0.1745114999999999,-0.3311999999999999,-0.3161775,-0.2586684999999999,-0.68263,-0.1840775,0.1918315,-0.68946,-0.2283875,1
79,-0.0385695,0.69301,-0.1295975,-0.1879895,0.49496,-0.1289785,-0.3003294999999999,0.75536,-0.2252694999999999,0.1167404999999999,0.50031,-0.1648795,0.2062205,0.78073,-0.2479694999999999,-0.3056495,1.02488,-0.3063695,0.1810905,1.05428,-0.2806095,-0.0725575,-0.0047499999999999,0.0039895,0.0725575,0.00475,-0.0039895,-0.2601095,-0.2964799999999999,-0.3109495,0.1759905,-0.30623,-0.3436595,-0.2643295,-0.6545799999999999,-0.2038395,0.1921405,-0.66394,-0.2510795,1
80,-0.0392794999999999,0.6934899999999999,-0.143558,-0.1881815,0.4959399999999999,-0.142423,-0.3013215,0.75437,-0.240704,0.1162184999999999,0.5035999999999999,-0.1771339999999999,0.2058485,0.77882,-0.263544,-0.3059515,1.02581,-0.3237939999999999,0.1798785,1.052,-0.297374,-0.0725965,-0.0045499999999999,0.003366,0.0725965,0.0045499999999999,-0.0033659999999999,-0.2680315,-0.2753300000000001,-0.336714,0.1766685,-0.28571,-0.369824,-0.2694815,-0.63126,-0.223634,0.1917385,-0.6427200000000001,-0.2736039999999999,1
81,-0.039965,0.694215,-0.157049,-0.1890599999999999,0.495425,-0.156382,-0.30227,0.754215,-0.256703,0.11613,0.507115,-0.189543,0.2056,0.776755,-0.278443,-0.3061999999999999,1.028785,-0.3417829999999999,0.17876,1.055855,-0.3140929999999999,-0.07256,-0.004985,0.003088,0.07256,0.0049849999999999,-0.0030879999999999,-0.27534,-0.253365,-0.3619529999999999,0.17635,-0.265775,-0.3950629999999999,-0.27359,-0.607125,-0.243053,0.19111,-0.620605,-0.294023,1
82,-0.040755,0.694445,-0.1706905,-0.190095,0.495065,-0.1711225,-0.303475,0.7536149999999999,-0.2732105,0.116195,0.507895,-0.2020405,0.205335,0.7763249999999999,-0.2933705,-0.306765,1.031545,-0.3602805,0.1775749999999999,1.058455,-0.3313205,-0.072495,-0.004925,0.0029745,0.072495,0.0049249999999999,-0.0029745,-0.281465,-0.231985,-0.3861105,0.175785,-0.246735,-0.4194305,-0.276445,-0.583755,-0.2623505,0.1901149999999999,-0.5995550000000001,-0.3102105,1
83,-0.041312,0.69589,-0.179944,-0.190674,0.49295,-0.180788,-0.304664,0.75124,-0.2853,0.116186,0.5062800000000001,-0.20977,0.2056559999999999,0.7728200000000001,-0.3030699999999999,-0.307394,1.0268000000000002,-0.37432,0.176696,1.05747,-0.34412,-0.072506,-0.00467,0.002626,0.072506,0.00467,-0.0026259999999999,-0.287124,-0.21092,-0.4022099999999999,0.1747959999999999,-0.2284699999999999,-0.43826,-0.279014,-0.56098,-0.27668,0.189276,-0.57946,-0.3204,1
84,-0.04201,0.694025,-0.1863905,-0.191019,0.491675,-0.1870865,-0.305799,0.7455050000000001,-0.2950085,0.1161909999999999,0.504735,-0.2138685,0.205781,0.767835,-0.3098885,-0.307849,1.018205,-0.3853785,0.175981,1.057945,-0.3527485,-0.072281,-0.0043549999999999,0.0027014999999999,0.072281,0.0043549999999999,-0.0027014999999999,-0.289029,-0.1978349999999999,-0.4085285,0.174141,-0.2153849999999999,-0.4451585,-0.279939,-0.547895,-0.2821185,0.188471,-0.566375,-0.3244785,1
85,-0.042656,0.6931700000000001,-0.191531,-0.1913119999999999,0.49092,-0.19322,-0.306882,0.74361,-0.304142,0.116278,0.50368,-0.217702,0.205838,0.76249,-0.316082,-0.308272,1.0167000000000002,-0.395792,0.175418,1.06028,-0.360922,-0.072138,-0.0042099999999999,0.002828,0.072138,0.0042099999999999,-0.0028279999999999,-0.290632,-0.1846,-0.414252,0.173598,-0.2021499999999999,-0.451002,-0.280842,-0.53436,-0.285672,0.188038,-0.55314,-0.326982,1
86,-0.042987,0.68912,-0.1950065,-0.191306,0.49079,-0.1969665,-0.307646,0.73793,-0.3121195,0.116674,0.50221,-0.2191995,0.205964,0.75917,-0.3198795,-0.308426,1.01005,-0.4048695,0.175074,1.05828,-0.3675495,-0.072254,-0.0038999999999999,0.0030305,0.072254,0.0039,-0.0030304999999999,-0.290846,-0.1762599999999999,-0.4165295,0.173384,-0.1938099999999999,-0.4539495,-0.281006,-0.52565,-0.2867495,0.187884,-0.5448,-0.3279395,1
87,-0.043282,0.686085,-0.1982265,-0.1914779999999999,0.490625,-0.2007585,-0.308228,0.734405,-0.3189905,0.117072,0.5009349999999999,-0.2207505,0.206172,0.7572949999999999,-0.3237505,-0.308558,1.004085,-0.4135505,0.174852,1.057775,-0.3735905,-0.072092,-0.003725,0.0032294999999999,0.072092,0.0037249999999999,-0.0032294999999999,-0.290918,-0.1688050000000001,-0.4185505,0.172532,-0.188275,-0.4568105,-0.280738,-0.517445,-0.2881205,0.1865919999999999,-0.5379550000000001,-0.3286505,1
88,-0.043705,0.6809799999999999,-0.2012419999999999,-0.191535,0.48978,-0.204054,-0.308645,0.72966,-0.32564,0.117495,0.50021,-0.22225,0.206405,0.75457,-0.32746,-0.308645,0.99734,-0.42122,0.174765,1.05459,-0.37983,-0.072005,-0.00401,0.0032299999999999,0.072005,0.0040099999999999,-0.0032299999999999,-0.290925,-0.1633799999999999,-0.41966,0.171535,-0.18441,-0.45862,-0.280855,-0.51169,-0.28978,0.1852249999999999,-0.53308,-0.3297,1
89,-0.044416,0.6764749999999999,-0.203849,-0.192005,0.488825,-0.2075,-0.309495,0.7268749999999999,-0.33135,0.1176849999999999,0.499145,-0.22392,0.2062449999999999,0.753735,-0.33083,-0.309215,0.991625,-0.42811,0.1743549999999999,1.053305,-0.38543,-0.071665,-0.004195,0.0032099999999999,0.071665,0.004195,-0.00321,-0.291325,-0.1579549999999999,-0.42082,0.169635,-0.180195,-0.4599,-0.280945,-0.506175,-0.29046,0.183415,-0.528465,-0.33059,1
90,-0.044856,0.67459,-0.206635,-0.192542,0.4879,-0.210805,-0.310322,0.7241599999999999,-0.336495,0.1178179999999999,0.49648,-0.225885,0.2060779999999999,0.7524,-0.334325,-0.309782,0.98483,-0.434595,0.1738179999999999,1.05195,-0.391075,-0.0713179999999999,-0.0039399999999999,0.0031449999999999,0.071318,0.0039399999999999,-0.003145,-0.291672,-0.15419,-0.422325,0.167418,-0.17684,-0.461345,-0.281232,-0.5021800000000001,-0.291965,0.181398,-0.52464,-0.331535,1
91,-0.045198,0.67123,-0.2095,-0.193187,0.48631,-0.2131699999999999,-0.310967,0.72124,-0.34094,0.1174929999999999,0.4968599999999999,-0.2274199999999999,0.205903,0.7497499999999999,-0.33758,-0.310237,0.97617,-0.4402399999999999,0.173423,1.04886,-0.39646,-0.071043,-0.0041499999999999,0.00316,0.071043,0.0041499999999999,-0.0031599999999999,-0.291727,-0.15363,-0.42374,0.164803,-0.17629,-0.4627799999999999,-0.281397,-0.50208,-0.29296,0.179423,-0.52393,-0.33163,1
92,-0.045484,0.6675500000000001,-0.21237,-0.193769,0.485,-0.21587,-0.311529,0.71946,-0.3453,0.1172609999999999,0.4967,-0.22943,0.205781,0.74794,-0.3412,-0.310799,0.97355,-0.44549,0.1730809999999999,1.04718,-0.4018199999999999,-0.070881,-0.0041899999999999,0.0030799999999999,0.070881,0.00419,-0.0030799999999999,-0.291509,-0.15359,-0.42543,0.162621,-0.1763799999999999,-0.46472,-0.281619,-0.50232,-0.29467,0.1779609999999999,-0.52416,-0.33225,1
93,-0.045595,0.6657900000000001,-0.215525,-0.194056,0.48385,-0.218325,-0.311976,0.71946,-0.349455,0.1171639999999999,0.4967,-0.231765,0.205794,0.7476,-0.344865,-0.3110659999999999,0.97355,-0.451075,0.172974,1.0467,-0.407355,-0.070864,-0.0041899999999999,0.0030049999999999,0.070864,0.00419,-0.003005,-0.291146,-0.15364,-0.426355,0.161004,-0.1763799999999999,-0.466495,-0.281416,-0.50257,-0.296305,0.176954,-0.52416,-0.332955,1
94,-0.04565,0.6655200000000001,-0.21888,-0.194278,0.48306,-0.22092,-0.312408,0.71946,-0.35318,0.1171219999999999,0.4967,-0.2343599999999999,0.2057919999999999,0.7476,-0.34878,-0.311228,0.97355,-0.45606,0.173222,1.0467,-0.41303,-0.070822,-0.0041899999999999,0.00296,0.070822,0.00419,-0.0029599999999999,-0.290678,-0.15364,-0.42682,0.1595619999999999,-0.1763799999999999,-0.4670299999999999,-0.280848,-0.50288,-0.2966999999999999,0.1761619999999999,-0.52416,-0.33387,1
95,-0.045829,0.6653800000000001,-0.22242,-0.1943679999999999,0.48292,-0.22371,-0.312708,0.71932,-0.35643,0.117212,0.49656,-0.23711,0.205922,0.74746,-0.35263,-0.311288,0.97341,-0.46077,0.1738219999999999,1.04656,-0.41861,-0.070592,-0.00433,0.00288,0.070592,0.00433,-0.0028799999999999,-0.289958,-0.1537499999999999,-0.42718,0.158292,-0.17652,-0.46715,-0.279958,-0.50302,-0.2974299999999999,0.175572,-0.5243,-0.33484,1
96,-0.045937,0.664255,-0.225405,-0.194126,0.481795,-0.226675,-0.313126,0.718815,-0.359375,0.117354,0.4954949999999999,-0.239975,0.206134,0.746335,-0.356415,-0.311336,0.976365,-0.465535,0.174754,1.045435,-0.424095,-0.070254,-0.004545,0.0028549999999999,0.070254,0.0045449999999999,-0.0028549999999999,-0.289086,-0.154225,-0.4272849999999999,0.157314,-0.176975,-0.467235,-0.278756,-0.503505,-0.297865,0.175204,-0.525135,-0.336315,1
97,-0.0459134999999999,0.661965,-0.2282799999999999,-0.1936764999999999,0.479505,-0.22974,-0.3134564999999999,0.718575,-0.3624699999999999,0.1176235,0.493765,-0.24296,0.2065635,0.745035,-0.36009,-0.3111965,0.980005,-0.47002,0.1759535,1.043675,-0.429,-0.0700035,-0.004635,0.00284,0.0700035,0.004635,-0.0028399999999999,-0.2879965,-0.1554749999999999,-0.4269699999999999,0.1567335,-0.177885,-0.46708,-0.2771965,-0.505285,-0.29902,0.1753035,-0.5265949999999999,-0.33791,1
98,-0.0459015,0.66003,-0.230585,-0.1929755,0.47677,-0.232395,-0.3138455,0.71885,-0.365455,0.1179045,0.49141,-0.245735,0.2070345,0.74363,-0.363645,-0.3109655,0.98363,-0.473705,0.1771745,1.04163,-0.433575,-0.0698345,-0.00461,0.0028449999999999,0.0698345,0.00461,-0.002845,-0.2868955,-0.1577299999999999,-0.426305,0.1562745,-0.1799099999999999,-0.466425,-0.2755855,-0.50786,-0.299725,0.1755045,-0.52918,-0.339075,1
99,-0.0456275,0.65952,-0.23317,-0.1923355,0.4741499999999999,-0.23472,-0.3142055,0.71926,-0.3682,0.1181845,0.48884,-0.24825,0.2074845,0.74239,-0.3669,-0.3107655,0.98727,-0.47686,0.1782845,1.03956,-0.43761,-0.0697335,-0.0045,0.0028999999999999,0.0697335,0.0045,-0.0029,-0.2856655,-0.1608899999999999,-0.42527,0.1560045,-0.18144,-0.46547,-0.2738655,-0.51115,-0.30022,0.1758145,-0.53145,-0.3401,1
100,-0.0449655,0.660015,-0.235895,-0.1918225,0.471475,-0.236835,-0.3145025,0.719855,-0.370385,0.1185575,0.486035,-0.250645,0.2079775,0.741305,-0.369945,-0.3105025,0.990915,-0.479535,0.1792775,1.0387149999999998,-0.441325,-0.0697235,-0.0043349999999999,0.0030449999999999,0.0697235,0.0043349999999999,-0.003045,-0.2843125,-0.164545,-0.424215,0.1560575,-0.183875,-0.464365,-0.2719825,-0.515075,-0.300735,0.1762975,-0.534535,-0.341395,1
101,-0.04441,0.661105,-0.2381599999999999,-0.19129,0.469055,-0.2380799999999999,-0.31473,0.720025,-0.37181,0.11863,0.484195,-0.2525199999999999,0.20845,0.740095,-0.37248,-0.31034,0.994475,-0.48179,0.17997,1.037225,-0.44433,-0.069796,-0.0042249999999999,0.00325,0.069796,0.004225,-0.0032499999999999,-0.2829,-0.1683949999999999,-0.42321,0.15653,-0.1870549999999999,-0.4632199999999999,-0.27037,-0.519195,-0.30139,0.17698,-0.538235,-0.34216,1
102,-0.0441145,0.660775,-0.2401749999999999,-0.1908145,0.466845,-0.238975,-0.3150645,0.720105,-0.372795,0.1185855,0.482545,-0.2540949999999999,0.2088555,0.7388950000000001,-0.3747549999999999,-0.3103545,0.998175,-0.483795,0.1806654999999999,1.035625,-0.446965,-0.0699135,-0.0041249999999999,0.003475,0.0699135,0.0041249999999999,-0.0034749999999999,-0.2815345,-0.172165,-0.422305,0.1572655,-0.1906949999999999,-0.461835,-0.2689345,-0.523495,-0.302025,0.1777655,-0.542285,-0.342085,1
103,-0.044172,0.66048,-0.2418349999999999,-0.190527,0.46487,-0.239695,-0.315507,0.7196,-0.3733649999999999,0.1183729999999999,0.48091,-0.255465,0.208983,0.73751,-0.376635,-0.3107769999999999,1.00209,-0.485495,0.181193,1.03373,-0.449125,-0.070029,-0.0039899999999999,0.003735,0.070029,0.0039899999999999,-0.0037349999999999,-0.280307,-0.17583,-0.421255,0.157903,-0.19422,-0.4605349999999999,-0.267517,-0.52756,-0.302335,0.1783729999999999,-0.54612,-0.341785,1
104,-0.0446965,0.66061,-0.243095,-0.1904964999999999,0.46322,-0.240255,-0.3162065,0.7191700000000001,-0.373415,0.1179535,0.47976,-0.256635,0.2087535,0.73641,-0.3782149999999999,-0.3115665,1.00664,-0.486485,0.1814635,1.03218,-0.450995,-0.0701835,-0.00395,0.003955,0.0701835,0.00395,-0.0039549999999999,-0.2793865,-0.17888,-0.4202849999999999,0.1582635,-0.19686,-0.459485,-0.2665165,-0.53139,-0.302555,0.1787835,-0.54918,-0.341725,1
105,-0.0454695,0.6607449999999999,-0.243265,-0.1906515,0.4621349999999999,-0.240381,-0.3169515,0.718715,-0.372895,0.1173785,0.4791249999999999,-0.257335,0.2082284999999999,0.735865,-0.379235,-0.3126715,1.005265,-0.486815,0.1812984999999999,1.030885,-0.452145,-0.0702735,-0.003945,0.0041549999999999,0.0702735,0.0039449999999999,-0.004155,-0.2788115,-0.181255,-0.419425,0.1583885,-0.198715,-0.458685,-0.2659415,-0.5342950000000001,-0.302615,0.1789984999999999,-0.5514450000000001,-0.341945,1
106,-0.0462395,0.66083,-0.242895,-0.1908175,0.46151,-0.240112,-0.3176874999999999,0.71817,-0.372035,0.1168125,0.47882,-0.257585,0.2076424999999999,0.73552,-0.379695,-0.3138475,1.00311,-0.486615,0.1807925,1.03012,-0.452635,-0.0702875,-0.0039299999999999,0.0043549999999999,0.0702875,0.0039299999999999,-0.0043549999999999,-0.2784075,-0.1829599999999999,-0.418685,0.1585425,-0.2001799999999999,-0.458015,-0.2655875,-0.5362800000000001,-0.302425,0.1792224999999999,-0.5531600000000001,-0.341885,1
107,-0.0467714999999999,0.660785,-0.242195,-0.1910105,0.461205,-0.23953,-0.3184505,0.7178249999999999,-0.370905,0.1162795,0.478995,-0.257485,0.2070295,0.735665,-0.379715,-0.3150405,1.001685,-0.486045,0.1800894999999999,1.029805,-0.452685,-0.0702945,-0.0040149999999999,0.0044249999999999,0.0702945,0.0040149999999999,-0.004425,-0.2780805,-0.184055,-0.418325,0.1590295,-0.2009249999999999,-0.457495,-0.2652605,-0.537595,-0.302315,0.1795995,-0.554135,-0.341885,1
108,-0.0472215,0.661305,-0.241665,-0.1911995,0.461195,-0.2390189999999999,-0.3191795,0.717375,-0.36998,0.1158405,0.479435,-0.2573499999999999,0.2064605,0.736035,-0.37967,-0.3164595,1.001025,-0.48479,0.1791305,1.029975,-0.45261,-0.0704325,-0.0041749999999999,0.0044299999999999,0.0704325,0.0041749999999999,-0.0044299999999999,-0.2778395,-0.184185,-0.41833,0.1597305,-0.2010749999999999,-0.45736,-0.2652195,-0.5382549999999999,-0.30232,0.1800105,-0.5545249999999999,-0.3419,1
109,-0.0475945,0.662165,-0.241364,-0.1913895,0.4612349999999999,-0.238619,-0.3198995,0.717195,-0.369135,0.1154104999999999,0.479935,-0.257255,0.2058705,0.736495,-0.3796049999999999,-0.3183595,0.997375,-0.481715,0.1780905,1.030185,-0.452485,-0.0706035,-0.0043549999999999,0.0044349999999999,0.0706035,0.0043549999999999,-0.0044349999999999,-0.2776395,-0.184365,-0.418335,0.1606705,-0.2008649999999999,-0.457385,-0.2649395,-0.538435,-0.3023249999999999,0.1802805,-0.554605,-0.341905,1
110,-0.0477725,0.662875,-0.24122,-0.1916125,0.4612349999999999,-0.238608,-0.3204725,0.717195,-0.36848,0.1153374999999999,0.479935,-0.25725,0.2052975,0.736495,-0.37956,-0.3200625,0.993405,-0.4789,0.1770975,1.030185,-0.4522799999999999,-0.0707764999999999,-0.0043549999999999,0.00445,0.0707764999999999,0.0043549999999999,-0.0044499999999999,-0.2775625,-0.184365,-0.41834,0.1617575,-0.2006649999999999,-0.45742,-0.2651325,-0.538555,-0.3026999999999999,0.1807675,-0.554605,-0.34192,1
111,-0.047843,0.662885,-0.240949,-0.191823,0.4612349999999999,-0.238331,-0.320993,0.717195,-0.36757,0.115267,0.479935,-0.25695,0.204727,0.736495,-0.37911,-0.321553,0.989285,-0.47585,0.176197,1.030185,-0.45163,-0.070914,-0.0043549999999999,0.00443,0.070914,0.0043549999999999,-0.0044299999999999,-0.277673,-0.184365,-0.41849,0.1629769999999999,-0.2006649999999999,-0.4572,-0.265413,-0.538635,-0.30311,0.1812669999999999,-0.554605,-0.34203,1
112,-0.0480035,0.662885,-0.2402,-0.1921275,0.4612349999999999,-0.237667,-0.3214975,0.716835,-0.3663849999999999,0.1151025,0.479935,-0.256245,0.2041125,0.736495,-0.378295,-0.3228074999999999,0.984805,-0.472555,0.1752425,1.030185,-0.450455,-0.0709555,-0.0043549999999999,0.0043249999999999,0.0709555,0.0043549999999999,-0.0043249999999999,-0.2778875,-0.184365,-0.418705,0.1640925,-0.2006649999999999,-0.456865,-0.2658875,-0.538635,-0.3033949999999999,0.1815825,-0.554625,-0.3423549999999999,1
113,-0.048145,0.6635949999999999,-0.2389029999999999,-0.192374,0.4612849999999999,-0.2365339999999999,-0.321914,0.716105,-0.364375,0.1149559999999999,0.4796249999999999,-0.255055,0.203606,0.736895,-0.376765,-0.323714,0.980655,-0.4689049999999999,0.174416,1.030135,-0.448405,-0.071062,-0.004455,0.004255,0.071062,0.0044549999999999,-0.0042549999999999,-0.278084,-0.184555,-0.4188949999999999,0.1651059999999999,-0.199955,-0.456875,-0.266134,-0.5385150000000001,-0.303355,0.182006,-0.553915,-0.342765,1
114,-0.0481825,0.665225,-0.237235,-0.1926245,0.461905,-0.235144,-0.3222144999999999,0.715935,-0.361915,0.1149055,0.479765,-0.253535,0.2031955,0.737365,-0.374705,-0.3244545,0.977415,-0.464865,0.1736755,1.030675,-0.445825,-0.0711895,-0.004545,0.0041649999999999,0.0711895,0.0045449999999999,-0.004165,-0.2782845,-0.1839049999999999,-0.419225,0.1659555,-0.198305,-0.457225,-0.2667745,-0.537545,-0.303085,0.1822955,-0.552265,-0.343005,1
115,-0.0481525,0.66714,-0.235388,-0.1928715,0.46297,-0.2335499999999999,-0.3224315,0.7162599999999999,-0.359255,0.1148985,0.48044,-0.251845,0.2028184999999999,0.7381599999999999,-0.3723849999999999,-0.3251015,0.97472,-0.460565,0.1730285,1.03161,-0.442905,-0.0713885,-0.00475,0.004055,0.0713885,0.0047499999999999,-0.004055,-0.2787314999999999,-0.18242,-0.419815,0.1665885,-0.19608,-0.457855,-0.2671815,-0.5358700000000001,-0.302645,0.1825485,-0.5499,-0.343145,1
116,-0.04792,0.66928,-0.233586,-0.193077,0.46447,-0.2319069999999999,-0.322507,0.71665,-0.356515,0.114933,0.48151,-0.250185,0.202543,0.73895,-0.370095,-0.325517,0.97205,-0.456315,0.172623,1.03269,-0.4399349999999999,-0.071558,-0.00494,0.0039649999999999,0.071558,0.00494,-0.0039649999999999,-0.279167,-0.18056,-0.420625,0.166813,-0.1936399999999999,-0.458445,-0.267317,-0.5338499999999999,-0.3021749999999999,0.182773,-0.5471999999999999,-0.3427449999999999,1
117,-0.047532,0.6712849999999999,-0.232025,-0.193152,0.4660849999999999,-0.230449,-0.322452,0.717055,-0.35392,0.115088,0.4825649999999999,-0.24867,0.202438,0.739525,-0.36799,-0.325522,0.969895,-0.45226,0.172518,1.033685,-0.4372,-0.071608,-0.005095,0.00383,0.071608,0.0050949999999999,-0.00383,-0.279512,-0.178835,-0.4215,0.167088,-0.191155,-0.45891,-0.267332,-0.531725,-0.30182,0.182998,-0.544425,-0.34233,1
118,-0.0473305,0.6738899999999999,-0.2307489999999999,-0.1932095,0.46756,-0.2293599999999999,-0.3224195,0.71943,-0.351495,0.1152505,0.4832999999999999,-0.247465,0.2024205,0.73986,-0.3662649999999999,-0.3254295,0.97192,-0.450335,0.1726105,1.03501,-0.434975,-0.0716395,-0.00513,0.003685,0.0716395,0.0051299999999999,-0.0036849999999999,-0.2795895,-0.17748,-0.422635,0.1673105,-0.1890400000000001,-0.459285,-0.2674395,-0.52993,-0.302245,0.1832804999999999,-0.5420200000000001,-0.341865,1
119,-0.0472495,0.675635,-0.230093,-0.1932645,0.468415,-0.228848,-0.3223745,0.720785,-0.34955,0.1153355,0.483615,-0.24681,0.2024155,0.740415,-0.3651,-0.3253245,0.973275,-0.44889,0.1727255,1.036365,-0.43345,-0.0717005,-0.005025,0.0036299999999999,0.0717005,0.005025,-0.0036299999999999,-0.2796145,-0.176665,-0.4236799999999999,0.1675454999999999,-0.187955,-0.45941,-0.2676545,-0.5290250000000001,-0.30328,0.1833054999999999,-0.540665,-0.34137,1
120,-0.047002,0.676085,-0.229588,-0.193196,0.468415,-0.228497,-0.322136,0.720785,-0.34761,0.1155739999999999,0.483605,-0.24638,0.202544,0.740415,-0.36426,-0.325026,0.973275,-0.44703,0.1729939999999999,1.036365,-0.43224,-0.0719259999999999,-0.005025,0.0035999999999999,0.0719259999999999,0.005025,-0.0036,-0.2793759999999999,-0.1769949999999999,-0.42402,0.167874,-0.187955,-0.45918,-0.267666,-0.5294350000000001,-0.30411,0.183664,-0.540665,-0.34115,1
121,-0.046392,0.676545,-0.229012,-0.192836,0.468415,-0.228284,-0.321536,0.720785,-0.34518,0.116174,0.483605,-0.24616,0.202914,0.740415,-0.36339,-0.323746,0.973275,-0.4443899999999999,0.173654,1.036365,-0.43098,-0.072188,-0.005025,0.00361,0.072188,0.005025,-0.00361,-0.278756,-0.177055,-0.42404,0.168464,-0.187955,-0.4592,-0.267086,-0.529935,-0.30423,0.184254,-0.540635,-0.34117,1
122,-0.0451339999999999,0.677095,-0.2272489999999999,-0.191805,0.468415,-0.227901,-0.320185,0.7216549999999999,-0.342565,0.117535,0.483605,-0.245745,0.203905,0.740415,-0.361975,-0.321785,0.979795,-0.441435,0.175315,1.036365,-0.429635,-0.072301,-0.005025,0.003615,0.072301,0.005025,-0.003615,-0.277415,-0.177055,-0.424085,0.169805,-0.187955,-0.459245,-0.265755,-0.529935,-0.304855,0.185565,-0.5406150000000001,-0.341035,1
123,-0.0438685,0.67805,-0.224631,-0.1903975,0.4685699999999999,-0.227243,-0.3184575,0.7236899999999999,-0.339545,0.1193025,0.4831999999999999,-0.2451249999999999,0.2052525,0.74098,-0.360155,-0.3197575,0.98689,-0.438615,0.1775425,1.03684,-0.427905,-0.0723685,-0.00482,0.003615,0.0723685,0.0048199999999999,-0.003615,-0.2756075,-0.17746,-0.424145,0.1718825,-0.18819,-0.458985,-0.2636475,-0.53034,-0.305045,0.1875225,-0.5407000000000001,-0.3403549999999999,1
124,-0.0423785,0.6788099999999999,-0.222096,-0.1895035,0.47169,-0.223895,-0.3164535,0.72571,-0.3359999999999999,0.1203365,0.48633,-0.24251,0.2068364999999999,0.74134,-0.35792,-0.3174635,0.99227,-0.4353399999999999,0.1802865,1.03666,-0.42565,-0.0723815,-0.00463,0.00361,0.0723815,0.0046299999999999,-0.00361,-0.2734034999999999,-0.18049,-0.42393,0.1742965,-0.19062,-0.4573399999999999,-0.2614835,-0.53337,-0.30569,0.1900865,-0.54306,-0.3394399999999999,1
125,-0.040934,0.678455,-0.2190059999999999,-0.188236,0.473115,-0.22094,-0.313936,0.7274750000000001,-0.3324749999999999,0.121884,0.487705,-0.240375,0.2089539999999999,0.741285,-0.355635,-0.314576,0.996225,-0.432175,0.1836539999999999,1.035485,-0.423805,-0.072113,-0.0043249999999999,0.003695,0.072113,0.004325,-0.003695,-0.270236,-0.1848149999999999,-0.423675,0.177234,-0.194775,-0.454585,-0.258386,-0.538395,-0.306685,0.193264,-0.547285,-0.338645,1
126,-0.0393135,0.67733,-0.214218,-0.1876465,0.47605,-0.21679,-0.3122965,0.73289,-0.327735,0.1228335,0.49057,-0.237135,0.2105735,0.74367,-0.352145,-0.3121365,1.00075,-0.427415,0.1866435,1.0345,-0.420505,-0.0710955,-0.0040499999999999,0.003665,0.0710955,0.0040499999999999,-0.003665,-0.2673265,-0.1886299999999999,-0.421805,0.1794035,-0.1992399999999999,-0.450415,-0.2554465,-0.54327,-0.306715,0.1957035,-0.55242,-0.336385,1
127,-0.038191,0.676495,-0.208775,-0.187028,0.482005,-0.212688,-0.310778,0.738555,-0.323565,0.123652,0.495425,-0.2336949999999999,0.212142,0.746965,-0.348445,-0.309818,1.005455,-0.422295,0.1893119999999999,1.033405,-0.416965,-0.069972,-0.003645,0.003605,0.069972,0.003645,-0.0036049999999999,-0.264208,-0.193425,-0.419475,0.182022,-0.204525,-0.445835,-0.252598,-0.549415,-0.3071049999999999,0.1984719999999999,-0.558825,-0.334155,1
128,-0.037602,0.67455,-0.20336,-0.186491,0.48641,-0.208774,-0.309361,0.7432799999999999,-0.31885,0.1243489999999999,0.49817,-0.230522,0.213409,0.75004,-0.34416,-0.307941,1.01417,-0.41589,0.191719,1.03063,-0.41308,-0.069049,-0.00295,0.0035899999999999,0.069049,0.00295,-0.00359,-0.260931,-0.2000299999999999,-0.4165,0.1842389999999999,-0.21162,-0.44079,-0.249871,-0.55693,-0.30712,0.200789,-0.56724,-0.3314,1
129,-0.037567,0.670685,-0.1972239999999999,-0.186268,0.486855,-0.20464,-0.308318,0.745775,-0.31321,0.124412,0.500525,-0.2268319999999999,0.214092,0.751605,-0.33911,-0.306648,1.017485,-0.40958,0.1939219999999999,1.023555,-0.4082099999999999,-0.068065,-0.002805,0.00358,0.068065,0.002805,-0.00358,-0.257618,-0.212425,-0.41095,0.186222,-0.224575,-0.43259,-0.247158,-0.570525,-0.30552,0.2033319999999999,-0.581755,-0.3286099999999999,1
130,-0.0378234999999999,0.66701,-0.191176,-0.1863285,0.48724,-0.200528,-0.3076185,0.7471399999999999,-0.30781,0.1241715,0.50301,-0.223099,0.2145715,0.75529,-0.33398,-0.3060085,1.02315,-0.40309,0.1958315,1.02402,-0.40211,-0.0672005,-0.00286,0.0035,0.0672005,0.0028599999999999,-0.0035,-0.2547185,-0.22452,-0.40506,0.1879015,-0.23656,-0.42464,-0.2452285,-0.58426,-0.3042,0.2053415,-0.59546,-0.32548,1
131,-0.038688,0.664435,-0.185271,-0.1872329999999999,0.4911149999999999,-0.194929,-0.307823,0.749125,-0.3016,0.123127,0.505735,-0.2186479999999999,0.214477,0.7590250000000001,-0.3283,-0.306213,1.022835,-0.3958899999999999,0.196027,1.028095,-0.39479,-0.0665149999999999,-0.002845,0.00348,0.0665149999999999,0.0028449999999999,-0.0034799999999999,-0.251763,-0.238845,-0.3967799999999999,0.188937,-0.250835,-0.41452,-0.243473,-0.600155,-0.3020199999999999,0.206177,-0.6115950000000001,-0.32182,1
132,-0.0388695,0.66177,-0.179494,-0.1882635,0.49473,-0.189503,-0.3083635,0.7519500000000001,-0.295265,0.1219064999999999,0.51091,-0.214036,0.2142365,0.7646,-0.322345,-0.3070235,1.02413,-0.387345,0.1958565,1.03376,-0.3877549999999999,-0.0660815,-0.0030699999999999,0.0034649999999999,0.0660815,0.00307,-0.0034649999999999,-0.2488935,-0.25325,-0.3878749999999999,0.1897464999999999,-0.26514,-0.4036849999999999,-0.2417435,-0.61601,-0.298705,0.2067065,-0.62801,-0.317915,1
133,-0.0390574999999999,0.6621,-0.173376,-0.1886895,0.49683,-0.186587,-0.3091295,0.75731,-0.28889,0.1214405,0.51405,-0.211268,0.2138705,0.77165,-0.31625,-0.3084995,1.02762,-0.37878,0.1952404999999999,1.04046,-0.38066,-0.0657315,-0.00328,0.0034899999999999,0.0657315,0.00328,-0.00349,-0.2463795,-0.26581,-0.37927,0.1900905,-0.27821,-0.39322,-0.2402695,-0.63021,-0.29449,0.2068305,-0.64302,-0.31377,1
134,-0.038371,0.65954,-0.166905,-0.188573,0.49706,-0.182655,-0.309703,0.7597400000000001,-0.28147,0.1212869999999999,0.51605,-0.207198,0.213637,0.77515,-0.30903,-0.309643,1.03207,-0.36843,0.1951169999999999,1.04644,-0.37117,-0.065848,-0.00347,0.00362,0.065848,0.00347,-0.00362,-0.242253,-0.2818199999999999,-0.36649,0.1896769999999999,-0.29437,-0.37982,-0.237823,-0.64765,-0.28776,0.2076069999999999,-0.66113,-0.30739,1
135,-0.0377025,0.65959,-0.160754,-0.1883875,0.49908,-0.178327,-0.3098175,0.75963,-0.27363,0.1210625,0.5174799999999999,-0.203092,0.2133825,0.78072,-0.30121,-0.3105475,1.03543,-0.35835,0.1950225,1.05208,-0.36178,-0.0658335,-0.0034899999999999,0.0036799999999999,0.0658335,0.0034899999999999,-0.00368,-0.2378575,-0.30058,-0.35311,0.1890524999999999,-0.31043,-0.36604,-0.2352775,-0.66779,-0.27952,0.2080924999999999,-0.67883,-0.30114,1
136,-0.037012,0.659225,-0.154853,-0.188311,0.497905,-0.173794,-0.309491,0.760185,-0.2648,0.120849,0.516215,-0.199346,0.212859,0.7849649999999999,-0.29344,-0.311541,1.039685,-0.34786,0.194949,1.058045,-0.35183,-0.065622,-0.0036049999999999,0.0036799999999999,0.065622,0.0036049999999999,-0.00368,-0.2334109999999999,-0.320335,-0.33884,0.188249,-0.329185,-0.35219,-0.232741,-0.6888650000000001,-0.27133,0.208479,-0.699025,-0.29432,1
137,-0.036923,0.659075,-0.1476849999999999,-0.188747,0.497815,-0.168592,-0.309357,0.761145,-0.2557,0.119753,0.5146850000000001,-0.19504,0.211473,0.787745,-0.28495,-0.312867,1.039625,-0.33762,0.194593,1.064275,-0.34121,-0.064848,-0.003295,0.00339,0.064848,0.003295,-0.0033899999999999,-0.228917,-0.341295,-0.32325,0.186903,-0.348755,-0.33708,-0.230747,-0.711045,-0.26125,0.208413,-0.719905,-0.28715,1
138,-0.036611,0.660405,-0.141379,-0.189087,0.5009250000000001,-0.16391,-0.309187,0.766095,-0.247405,0.119003,0.512785,-0.191898,0.209443,0.791295,-0.276295,-0.313917,1.045215,-0.327245,0.1943929999999999,1.074245,-0.331565,-0.064142,-0.002515,0.003085,0.064142,0.002515,-0.003085,-0.223557,-0.357395,-0.306355,0.1847629999999999,-0.364105,-0.323835,-0.228297,-0.728405,-0.249875,0.2072929999999999,-0.736415,-0.280175,1
139,-0.0359899999999999,0.6611435000000001,-0.134745,-0.1894249999999999,0.5042635,-0.159191,-0.308895,0.7702435000000001,-0.23891,0.117955,0.5112734999999999,-0.18839,0.207255,0.7928835000000001,-0.26751,-0.314825,1.0491935,-0.31761,0.194505,1.0764835,-0.32272,-0.064289,-0.0022095,0.00281,0.064289,0.0022095,-0.0028099999999999,-0.218145,-0.3739465,-0.28856,0.180395,-0.3806565,-0.3041,-0.225825,-0.7449565,-0.23826,0.204655,-0.7529665000000001,-0.2675499999999999,1
140,-0.036096,0.660547,-0.128109,-0.1895089999999999,0.504317,-0.155226,-0.309759,0.773687,-0.23015,0.117301,0.509717,-0.184824,0.206391,0.7938369999999999,-0.25834,-0.315679,1.053277,-0.30738,0.193401,1.074827,-0.31356,-0.064381,-0.0018959999999999,0.0022599999999999,0.064381,0.001896,-0.0022599999999999,-0.213309,-0.387303,-0.27005,0.175891,-0.394013,-0.28498,-0.2223389999999999,-0.758313,-0.22623,0.202021,-0.7663230000000001,-0.25466,1
141,-0.03677,0.660468,-0.122066,-0.189051,0.504768,-0.151675,-0.309891,0.776378,-0.221595,0.1171789999999999,0.506288,-0.18195,0.206029,0.792718,-0.249445,-0.315891,1.056708,-0.2976649999999999,0.192679,1.072788,-0.303815,-0.065062,-0.00142,0.001725,0.065062,0.0014199999999999,-0.0017249999999999,-0.207811,-0.399652,-0.251835,0.172019,-0.406362,-0.264965,-0.218471,-0.771342,-0.215446,0.199949,-0.778672,-0.241885,1
142,-0.036633,0.6572895,-0.109759,-0.187837,0.5035995,-0.141855,-0.309397,0.7765595,-0.206414,0.1178829999999999,0.5012095000000001,-0.172691,0.206353,0.7903895,-0.234375,-0.314737,1.0598595,-0.281005,0.193043,1.0715595,-0.287185,-0.065976,-0.0010234999999999,0.001915,0.065976,0.0010235,-0.001915,-0.199527,-0.4152105,-0.222635,0.169143,-0.4198705,-0.236675,-0.213717,-0.7882205,-0.198698,0.200623,-0.7928305,-0.225025,1
143,-0.0351735,0.6636625,-0.09389,-0.1879044999999999,0.5087125,-0.123858,-0.3083445,0.7763825,-0.1879009999999999,0.1192555,0.5064125,-0.154648,0.2072155,0.7928125,-0.215767,-0.3128845,1.0574125,-0.258997,0.1944854999999999,1.0719125,-0.265797,-0.0665545,-0.0014034999999999,0.0013019999999999,0.0665545,0.0014035,-0.0013019999999999,-0.1909345,-0.4401075,-0.190257,0.1674455,-0.4405675,-0.204417,-0.2096045,-0.8135275,-0.180567,0.2015755,-0.8143975,-0.206007,1
144,-0.0332615,0.668628,-0.078381,-0.1878635,0.510228,-0.106534,-0.3070335,0.775308,-0.170037,0.1208065,0.510518,-0.136742,0.2081365,0.7912180000000001,-0.197873,-0.3108435,1.056558,-0.236683,0.1959165,1.072058,-0.244743,-0.0670925,-0.0019309999999999,0.0008379999999999,0.0670925,0.001931,-0.000838,-0.1823435,-0.459332,-0.158737,0.1658664999999999,-0.466092,-0.172116,-0.2052034999999999,-0.8329519999999999,-0.162614,0.2024865,-0.835892,-0.187323,1
145,-0.031774,0.6741670000000001,-0.0631475,-0.187765,0.5115770000000001,-0.0892145,-0.305635,0.773247,-0.1524195,0.1222849999999999,0.514877,-0.1187145,0.2093149999999999,0.7900870000000001,-0.1796525,-0.308625,1.055327,-0.2144225,0.197285,1.071927,-0.2241125,-0.067581,-0.002393,0.0004944999999999,0.067581,0.002393,-0.0004945,-0.173895,-0.479673,-0.1278915,0.1645249999999999,-0.490623,-0.1397385,-0.2009449999999999,-0.853193,-0.1445875,0.203475,-0.859713,-0.1690825,1
146,-0.0300944999999999,0.68048,-0.0488549999999999,-0.1875695,0.51316,-0.07235,-0.3040294999999999,0.77181,-0.135435,0.1241805,0.52088,-0.10095,0.2110605,0.79103,-0.162411,-0.3070994999999999,1.04832,-0.192681,0.1990105,1.07302,-0.204151,-0.0679845,-0.003495,0.00031,0.0679845,0.003495,-0.0003099999999999,-0.1661595,-0.5014500000000001,-0.0987619999999999,0.1633605,-0.51113,-0.1101689999999999,-0.1970895,-0.87478,-0.127862,0.2051105,-0.87941,-0.1529309999999999,1
147,-0.0297575,0.6874135,-0.0348509999999999,-0.1875445,0.5152735,-0.0556079999999999,-0.3024845,0.7686935,-0.11896,0.1258355,0.5274435,-0.083393,0.2125955,0.7926235,-0.1464099999999999,-0.3056645,1.0447335,-0.171726,0.2004254999999999,1.0745335,-0.184386,-0.0686055,-0.0042815,0.000254,0.0686055,0.0042815,-0.0002539999999999,-0.1605944999999999,-0.5228465,-0.074016,0.1619855,-0.5321265,-0.0823779999999999,-0.1938245,-0.8958865,-0.114634,0.2060055,-0.8995665,-0.1359369999999999,1
148,-0.0300489999999999,0.6948325,-0.0209724999999999,-0.187618,0.5178925,-0.0386915,-0.301118,0.7665624999999999,-0.1026395,0.127472,0.5336225,-0.0658755,0.214092,0.7949324999999999,-0.1305365,-0.3043579999999999,1.0429025,-0.1506875,0.201352,1.0758025,-0.1649775,-0.069071,-0.0049845,8.149999999999824e-05,0.069071,0.0049844999999999,-8.149999999999824e-05,-0.155428,-0.5433475,-0.0503275,0.1627019999999999,-0.5536975000000001,-0.0607225,-0.190998,-0.9160175,-0.1022625,0.207722,-0.9200975,-0.1235284999999999,1
149,-0.0308305,0.7025655,-0.0071395,-0.1880405,0.5208955,-0.0218495,-0.3001205,0.7646155,-0.0870045,0.1288595,0.5409255,-0.0482165,0.2154194999999999,0.7973555,-0.1155705,-0.3033705,1.0404755,-0.1306245,0.2016295,1.0770755,-0.1466945,-0.0696235,-0.0056304999999999,0.0001614999999999,0.0696235,0.0056305,-0.0001615,-0.1501705,-0.5628245,-0.0299925,0.1635095,-0.5747045,-0.0406845,-0.1892405,-0.9347945,-0.0900285,0.2086295,-0.9400145,-0.1112665,1
150,-0.0317875,0.7106480000000001,0.0063725,-0.1886525,0.5238780000000001,-0.0049074999999999,-0.2997125,0.761548,-0.0719205,0.1300575,0.5482480000000001,-0.0305054999999999,0.2173875,0.799648,-0.1013955,-0.3026125,1.037308,-0.1110215,0.2015175,1.077808,-0.1294415,-0.0703395,-0.0063059999999999,0.0002855,0.0703395,0.006306,-0.0002854999999999,-0.1453625,-0.581622,-0.0107335,0.1641975,-0.5940219999999999,-0.0232435,-0.1879124999999999,-0.952852,-0.0784725,0.2099275,-0.958182,-0.0989935,1
151,-0.033352,0.718958,0.0141395,-0.18984,0.527468,0.0061665,-0.30038,0.7584380000000001,-0.0633845,0.1308399999999999,0.5549080000000001,-0.0189235,0.21902,0.8018580000000001,-0.0936325,-0.30238,1.033728,-0.0980055,0.20067,1.077028,-0.1192975,-0.070532,-0.006926,-0.0003185,0.070532,0.006926,0.0003185,-0.14351,-0.599542,-0.0022385,0.16435,-0.6109519999999999,-0.0143395,-0.18709,-0.970212,-0.0732645,0.21052,-0.974342,-0.0926465,1
152,-0.0337839999999999,0.7201380000000001,0.0171979999999999,-0.1890869999999999,0.527468,0.00817,-0.300017,0.7584380000000001,-0.059432,0.131403,0.5549080000000001,-0.017249,0.220063,0.802058,-0.090825,-0.3020069999999999,1.038128,-0.092357,0.201523,1.077028,-0.116559,-0.070397,-0.006926,-0.000236,0.070397,0.006926,0.0002359999999999,-0.142317,-0.605042,-0.000563,0.164753,-0.6154919999999999,-0.012714,-0.1860369999999999,-0.974892,-0.071399,0.212173,-0.977822,-0.094392,1
153,-0.034184,0.720518,0.020522,-0.188357,0.527468,0.010413,-0.299737,0.7584380000000001,-0.054545,0.132313,0.5549080000000001,-0.01545,0.2210929999999999,0.802058,-0.08793,-0.301357,1.038428,-0.087078,0.202453,1.077028,-0.113915,-0.070295,-0.006926,-0.000181,0.070295,0.006926,0.0001809999999999,-0.141027,-0.609142,0.0010139999999999,0.1650829999999999,-0.617642,-0.011018,-0.185057,-0.978352,-0.069886,0.213403,-0.980382,-0.095594,1
154,-0.0340365,0.720538,0.023321,-0.1875585,0.527468,0.012502,-0.2993785,0.7584380000000001,-0.0500629999999999,0.1333615,0.554998,-0.013725,0.2223115,0.802058,-0.0855409999999999,-0.3006085,1.038428,-0.082693,0.2034515,1.077028,-0.111582,-0.0701335,-0.006926,-0.000154,0.0701335,0.006926,0.0001539999999999,-0.1396785,-0.611872,0.0024699999999999,0.1658115,-0.620722,-0.009246,-0.1841885,-0.981162,-0.068777,0.2145115,-0.983782,-0.095871,1
155,-0.0341179999999999,0.7218585,0.0264635,-0.186997,0.5276885,0.0145875,-0.2992769999999999,0.7591885,-0.0458285,0.133683,0.5541385,-0.0119035,0.223043,0.8033685,-0.0834755,-0.3002869999999999,1.0397385,-0.0788585,0.204183,1.0758385,-0.1096434999999999,-0.070122,-0.0068555,-0.0001475,0.070122,0.0068555,0.0001475,-0.139277,-0.6118015,0.0036065,0.165833,-0.6158615,-0.0083605,-0.183807,-0.9810015,-0.0682504999999999,0.215223,-0.9824715,-0.0945334999999999,1
156,-0.0340494999999999,0.723163,0.0292424999999999,-0.1865955,0.5279130000000001,0.0164904999999999,-0.2993254999999999,0.7596829999999999,-0.0422055,0.1339845,0.553493,-0.0102515,0.2236245,0.8045629999999999,-0.0817205,-0.3004354999999999,1.039843,-0.0754775,0.2047544999999999,1.074943,-0.1080525,-0.0701045,-0.006801,-9.55000000000001e-05,0.0701045,0.006801,9.549999999999988e-05,-0.1392255,-0.6128370000000001,0.0045935,0.1659445,-0.614557,-0.0081444999999999,-0.1836555,-0.981577,-0.0680395,0.2157845,-0.981167,-0.0933625,1
157,-0.0340325,0.7245444999999999,0.031727,-0.1864765,0.5282844999999999,0.0182069999999999,-0.2996065,0.7601145,-0.039159,0.1341235,0.5533745,-0.008728,0.2239135,0.8053845,-0.080149,-0.3011165,1.0391245,-0.0727179999999999,0.2051435,1.0744245,-0.1068839999999999,-0.0700715,-0.0068244999999999,7.900000000000008e-05,0.0700715,0.0068244999999999,-7.900000000000008e-05,-0.1392665,-0.6134255000000001,0.004945,0.1653835,-0.6096855,-0.008114,-0.1835365,-0.9820555,-0.068092,0.2147435,-0.9764755,-0.092431,1
158,-0.034084,0.725826,0.0340045,-0.186521,0.5286759999999999,0.0197935,-0.3000609999999999,0.760286,-0.0364205,0.134189,0.553646,-0.0072845,0.224249,0.805526,-0.0786915,-0.3014509999999999,1.038416,-0.0702935,0.205459,1.073916,-0.1057945,-0.070069,-0.006841,0.0002914999999999,0.070069,0.006841,-0.0002915,-0.139091,-0.6113540000000001,0.0051885,0.164979,-0.6051340000000001,-0.0075445,-0.183281,-0.980344,-0.0671794999999999,0.213289,-0.972614,-0.0909265,1
159,-0.0340145,0.72684,0.0361235,-0.1865555,0.52903,0.0211975,-0.3004955,0.76001,-0.0341265,0.1342344999999999,0.55416,-0.0058924999999999,0.2247045,0.8055599999999999,-0.0774115,-0.3018355,1.03798,-0.0690715,0.2059845,1.0727799999999998,-0.1050335,-0.0700615,-0.006904,0.0005245,0.0700615,0.0069039999999999,-0.0005244999999999,-0.1394455,-0.613,0.0057315,0.1646445,-0.60088,-0.0068374999999999,-0.1835155,-0.9811,-0.0673025,0.2127544999999999,-0.96863,-0.0898255,1
160,-0.033955,0.7276865,0.037922,-0.18656,0.5294265,0.0224359999999999,-0.30082,0.7588865,-0.032941,0.13429,0.5545565,-0.004453,0.22535,0.8053665,-0.076168,-0.3021,1.0382865,-0.068308,0.20677,1.0719865,-0.104369,-0.070052,-0.0069695,0.0008119999999999,0.070052,0.0069695,-0.000812,-0.1398299999999999,-0.6146235,0.0061499999999999,0.16467,-0.5990435000000001,-0.006101,-0.18356,-0.9807035,-0.066668,0.21261,-0.9670135,-0.088987,1
161,-0.033904,0.728292,0.039477,-0.186539,0.529712,0.023566,-0.301079,0.757592,-0.0322789999999999,0.134331,0.554792,-0.0030589999999999,0.226501,0.804502,-0.0755499999999999,-0.302219,1.039482,-0.06765,0.207721,1.070982,-0.1039559999999999,-0.070043,-0.007023,0.001087,0.070043,0.007023,-0.0010869999999999,-0.140169,-0.616318,0.006568,0.165611,-0.600858,-0.005346,-0.183569,-0.980298,-0.066024,0.212431,-0.969038,-0.087407,1
162,-0.034032,0.7285205,0.040637,-0.186689,0.5300005,0.0245099999999999,-0.301599,0.7572205000000001,-0.031612,0.134761,0.5547305,-0.001281,0.228311,0.8025505,-0.07496,-0.302679,1.0385405,-0.0669849999999999,0.209091,1.0696405,-0.1035809999999999,-0.070104,-0.0070785,0.0013539999999999,0.070104,0.0070785,-0.001354,-0.140339,-0.6162694999999999,0.0070049999999999,0.166041,-0.6042194999999999,-0.004711,-0.183619,-0.9806895,-0.065372,0.211901,-0.9724695,-0.0857889999999999,1
163,-0.0342915,0.7287899999999999,0.0418155,-0.1872115,0.53035,0.0254275,-0.3035415,0.7554,-0.0309135,0.1348784999999999,0.55457,0.0002944999999999,0.2312084999999999,0.7989999999999999,-0.0744205,-0.3042815,1.03248,-0.0689645,0.2102284999999999,1.06828,-0.1033684999999999,-0.0702235,-0.007143,0.0015325,0.0702235,0.0071429999999999,-0.0015325,-0.1405215,-0.6128300000000001,0.0074684999999999,0.1650684999999999,-0.59984,-0.0042045,-0.1839615,-0.97945,-0.0640345,0.2102484999999999,-0.96814,-0.0827344999999999,1
164,-0.0345295,0.729169,0.0431229999999999,-0.1879114999999999,0.530859,0.026394,-0.3069314999999999,0.7520690000000001,-0.030532,0.1348885,0.5546690000000001,0.0019229999999999,0.2369485,0.7910090000000001,-0.073934,-0.3061415,1.026779,-0.071357,0.2110385,1.064079,-0.10342,-0.0703195,-0.0072719999999999,0.0017449999999999,0.0703195,0.007272,-0.001745,-0.1414915,-0.615091,0.008176,0.1636985,-0.594171,-0.003622,-0.1847214999999999,-0.979011,-0.062863,0.2084185,-0.963281,-0.080315,1
165,-0.034607,0.729197,0.044531,-0.188601,0.531497,0.027433,-0.313971,0.745537,-0.031976,0.134989,0.5550970000000001,0.003639,0.244499,0.7820870000000001,-0.074113,-0.308721,1.019367,-0.076113,0.212089,1.053767,-0.106565,-0.070348,-0.007348,0.002023,0.070348,0.0073479999999999,-0.002023,-0.142601,-0.6170629999999999,0.008973,0.1622189999999999,-0.588783,-0.0029599999999999,-0.185631,-0.978873,-0.062208,0.207719,-0.958413,-0.077751,1
166,-0.0347709999999999,0.7297145,0.046119,-0.189441,0.5322445,0.028501,-0.323191,0.7381545,-0.03231,0.135259,0.5561945,0.005341,0.255879,0.7698245,-0.074958,-0.3122709999999999,1.0082345,-0.084105,0.213059,1.0404345,-0.111248,-0.070321,-0.0073834999999999,0.00233,0.070321,0.0073835,-0.00233,-0.143541,-0.6165055,0.009254,0.160639,-0.5831355,-0.002928,-0.186551,-0.9770055,-0.061391,0.206909,-0.9531955,-0.0764509999999999,1
167,-0.034802,0.7313850000000001,0.0480185,-0.189711,0.531765,0.0305325,-0.334051,0.722905,-0.0323245,0.136969,0.553415,0.0072164999999999,0.269019,0.752475,-0.0761835,-0.318351,0.989405,-0.0940184999999999,0.217239,1.016605,-0.1176784999999999,-0.0702339999999999,-0.007169,0.0026664999999999,0.0702339999999999,0.0071689999999999,-0.0026665,-0.144551,-0.615835,0.0095675,0.1601689999999999,-0.580955,-0.0022635,-0.187561,-0.973855,-0.0613134999999999,0.205589,-0.949325,-0.0733245,1
168,-0.0347979999999999,0.733246,0.0502134999999999,-0.189982,0.530386,0.0323775,-0.3434419999999999,0.702876,-0.0312055,0.138578,0.550486,0.0089454999999999,0.282828,0.728716,-0.0754865,-0.3272719999999999,0.959846,-0.1050095,0.222328,0.985346,-0.1258294999999999,-0.07019,-0.007057,0.0029824999999999,0.07019,0.0070569999999999,-0.0029825,-0.145792,-0.615414,0.0099354999999999,0.159738,-0.578864,-0.0016715,-0.188622,-0.971004,-0.0611765,0.2047179999999999,-0.945974,-0.0698475,1
169,-0.0347125,0.7351424999999999,0.0524245,-0.1898935,0.5291625,0.0342785,-0.3504135,0.6762625,-0.0301265,0.1401765,0.5473925,0.0103065,0.2942965,0.6998825,-0.0747235,-0.3372635,0.9250025,-0.1200715,0.2280865,0.9466725,-0.1374715,-0.0701965,-0.0068814999999999,0.0031964999999999,0.0701965,0.0068814999999999,-0.0031965,-0.1470635,-0.6149475,0.0102475,0.1591165,-0.5766275000000001,-0.0009965,-0.1897435,-0.9677175,-0.0608844999999999,0.2040965,-0.9427875,-0.0688295,0
170,-0.034427,0.73741,0.0547015,-0.189718,0.5275099999999999,0.0359445,-0.355848,0.64338,-0.0291565,0.141822,0.5440499999999999,0.0112265,0.301022,0.6647599999999999,-0.0737745,-0.350338,0.87774,-0.1329935,0.234042,0.90706,-0.1513435,-0.070213,-0.006811,0.0033655,0.070213,0.0068109999999999,-0.0033655,-0.148278,-0.61409,0.0105395,0.159622,-0.5793200000000001,-0.0002804999999999,-0.190698,-0.96416,-0.0601135,0.203352,-0.94308,-0.0658375,0
171,-0.0340889999999999,0.7404875,0.0570735,-0.189437,0.5252374999999999,0.0370585,-0.358667,0.6041274999999999,-0.0268195,0.142963,0.5405675,0.0118275,0.305873,0.6237874999999999,-0.0718055,-0.362727,0.8186975,-0.1438195,0.241813,0.8456275,-0.1621095,-0.070278,-0.0064555,0.0034824999999999,0.070278,0.0064554999999999,-0.0034824999999999,-0.148807,-0.6089825,0.0107464999999999,0.159083,-0.5757125000000001,5.05000000000002e-05,-0.191207,-0.9594125,-0.0588155,0.202933,-0.9395025,-0.0627625,0
172,-0.0336324999999999,0.7437825,0.0594115,-0.1890065,0.5224825000000001,0.0375405,-0.3591165,0.5620525000000001,-0.0230744999999999,0.1442834999999999,0.5358425,0.0122495,0.3078234999999999,0.5777125000000001,-0.0685545,-0.3693465,0.7505625,-0.1481655,0.2521435,0.7705525000000001,-0.1687155,-0.0703785,-0.0060345,0.0035884999999999,0.0703785,0.0060344999999999,-0.0035884999999999,-0.1495965,-0.6072575,0.0108605,0.1590735,-0.5733475,7.749999999999944e-05,-0.1918665,-0.9549875,-0.0575474999999999,0.2026135,-0.9365575,-0.0597254999999999,0
173,-0.0332374999999999,0.7474854999999999,0.061804,-0.1884715,0.5192055,0.037867,-0.3595215,0.5191555,-0.018948,0.1455185,0.5302754999999999,0.0125529999999999,0.3074785,0.5330855,-0.062478,-0.3710815,0.6684855,-0.1477639999999999,0.2617285,0.6965155,-0.1686939999999999,-0.0705845,-0.0055444999999999,0.0036769999999999,0.0705845,0.0055445,-0.0036769999999999,-0.1501315,-0.6028545000000001,0.0108849999999999,0.1588885,-0.5697645,3.099999999999804e-05,-0.1923915,-0.9507945,-0.057133,0.2025085,-0.9327745,-0.058654,0
174,-0.0329405,0.751855,0.0641579999999999,-0.1879195,0.515555,0.038021,-0.3598695,0.475295,-0.01449,0.1465905,0.524465,0.011909,0.3071905,0.485375,-0.056326,-0.3715695,0.580445,-0.1475759999999999,0.2677605,0.606775,-0.168716,-0.0708505,-0.005078,0.0037249999999999,0.0708505,0.0050779999999999,-0.0037249999999999,-0.1504695,-0.598095,0.010804,0.1591105,-0.567825,-0.0001,-0.1929595,-0.945965,-0.0569419999999999,0.2016805,-0.928795,-0.055907,0
175,-0.032635,0.7565515,0.066177,-0.18728,0.5115115,0.038034,-0.35992,0.4289815,-0.009267,0.14753,0.5188315,0.011,0.30695,0.4385015,-0.050144,-0.37201,0.4863515,-0.147527,0.27094,0.5104215,-0.168787,-0.07116,-0.0046115,0.0037009999999999,0.07116,0.0046114999999999,-0.0037009999999999,-0.15071,-0.5926285,0.010824,0.1590099999999999,-0.5641885,-0.00025,-0.19344,-0.9411085,-0.057888,0.20077,-0.9223485,-0.054149,0
176,-0.032338,0.760372,0.0677675,-0.187163,0.508582,0.0373965,-0.355923,0.387842,-0.0030324999999999,0.147087,0.517422,0.0099215,0.303747,0.393492,-0.0429585,-0.372323,0.393362,-0.1444535,0.270607,0.419032,-0.1668335,-0.071471,-0.004429,0.0036854999999999,0.071471,0.0044289999999999,-0.0036854999999999,-0.150793,-0.587688,0.0107705,0.158967,-0.5621579999999999,-0.0004255,-0.193993,-0.938028,-0.0590935,0.200317,-0.917208,-0.0537165,0
177,-0.0321395,0.764122,0.068787,-0.1870625,0.506672,0.036211,-0.3453925,0.349762,0.0054319999999999,0.1466275,0.515862,0.008573,0.2967875,0.356592,-0.033288,-0.3683625,0.307122,-0.131515,0.2706475,0.331882,-0.1532649999999999,-0.0717045,-0.004091,0.003707,0.0717045,0.004091,-0.003707,-0.1508725,-0.582928,0.010725,0.1588475,-0.559218,-0.000554,-0.1946425,-0.934428,-0.06,0.1997875,-0.913328,-0.053508,0
178,-0.031963,0.7679370000000001,0.0694719999999999,-0.187263,0.504607,0.034898,-0.329843,0.322457,0.01686,0.146207,0.514437,0.007134,0.284887,0.324987,-0.0186169999999999,-0.357713,0.230317,-0.108308,0.271027,0.252127,-0.130218,-0.071902,-0.003774,0.0036439999999999,0.071902,0.0037739999999999,-0.0036439999999999,-0.151243,-0.5794630000000001,0.010879,0.159167,-0.5588930000000001,-0.000285,-0.195013,-0.931013,-0.059913,0.199957,-0.912393,-0.05331,0
179,-0.0318365,0.7714315,0.0697545,-0.1875145,0.5029715,0.0322365,-0.3118545,0.3022614999999999,0.0316445,0.1456955,0.5133015000000001,0.0051664999999999,0.2710154999999999,0.3027215,7.049999999999938e-05,-0.3437345,0.1673915,-0.0796255,0.2705355,0.1794115,-0.1020435,-0.0720875,-0.0033794999999999,0.0035004999999999,0.0720875,0.0033795,-0.0035005,-0.1513245,-0.5753685,0.0109395,0.1593155,-0.5583684999999999,-0.0002865,-0.1953245,-0.9277685,-0.0598045,0.1998655,-0.9113885,-0.0533045,0
180,-0.031708,0.7742755,0.069717,-0.187789,0.5019655000000001,0.029684,-0.2945689999999999,0.2882754999999999,0.046623,0.145251,0.5120755,0.0031559999999999,0.256231,0.2870454999999999,0.018947,-0.3261389999999999,0.1168454999999999,-0.047005,0.269151,0.1286455,-0.068551,-0.072212,-0.0032505,0.0033519999999999,0.072212,0.0032505,-0.003352,-0.151229,-0.5719245,0.010903,0.159401,-0.5584844999999999,-0.0001229999999999,-0.195299,-0.9242145,-0.0584149999999999,0.199461,-0.9102145,-0.0540169999999999,0
181,-0.031634,0.776127,0.0695185,-0.188128,0.501447,0.0270014999999999,-0.2790979999999999,0.2786869999999999,0.0612795,0.1448219999999999,0.511567,0.0012735,0.2437619999999999,0.2767469999999999,0.0369875,-0.3068079999999999,0.079983,-0.0090275,0.267322,0.091477,-0.0311774999999999,-0.072306,-0.003172,0.0032704999999999,0.072306,0.0031719999999999,-0.0032704999999999,-0.151108,-0.569743,0.0106935,0.1593119999999999,-0.557593,-0.0003154999999999,-0.195428,-0.922033,-0.0581075,0.199462,-0.909993,-0.0542135,0
182,-0.031706,0.7773935,0.0693135,-0.188414,0.5010635,0.0244155,-0.265314,0.2695035,0.0744684999999999,0.144356,0.5113835,-0.0001095,0.236646,0.2673235,0.0519405,-0.284484,0.0549405,0.0258675,0.269096,0.0496444999999999,0.0127445,-0.0723439999999999,-0.0030685,0.0031625,0.0723439999999999,0.0030685,-0.0031624999999999,-0.1507939999999999,-0.5681965,0.0104745,0.159096,-0.5558065,-0.0006905,-0.195314,-0.9209565,-0.0574835,0.199556,-0.9100065,-0.0547405,0
183,-0.031851,0.7782760000000001,0.0689445,-0.188862,0.500866,0.0222155,-0.254882,0.261916,0.0861215,0.144128,0.511266,-0.0009485,0.231348,0.260606,0.0642105,-0.263672,0.034842,0.0576855,0.264468,0.028135,0.0509245,-0.072353,-0.003004,0.0031254999999999,0.072353,0.003004,-0.0031255,-0.150672,-0.5660839999999999,0.0102894999999999,0.158888,-0.5548139999999999,-0.0009055,-0.195152,-0.918964,-0.0564974999999999,0.199538,-0.910124,-0.0554154999999999,0
184,-0.0320525,0.778881,0.06826,-0.1892905,0.500801,0.020657,-0.2462205,0.255951,0.095311,0.1439395,0.511101,-0.0012419999999999,0.2281895,0.255251,0.07446,-0.2470205,0.023422,0.085386,0.2615395,0.0174399999999999,0.078492,-0.0723535,-0.002962,0.003125,0.0723535,0.002962,-0.0031249999999999,-0.1501505,-0.560469,0.010156,0.1586695,-0.554209,-0.0010449999999999,-0.1950005,-0.916229,-0.055855,0.1992195,-0.909339,-0.054563,0
185,-0.0322285,0.779525,0.0671765,-0.1898224999999999,0.500995,0.0199155,-0.2411225,0.248965,0.1025105,0.1437775,0.511065,-0.0013985,0.2282075,0.249085,0.0815205,-0.2382125,0.017075,0.0994825,0.2611675,0.008752,0.0913865,-0.0723695,-0.002935,0.0031085,0.0723695,0.002935,-0.0031085,-0.1495225,-0.554715,0.0099915,0.1584775,-0.553395,-0.0012005,-0.1948625,-0.913365,-0.0552485,0.1992875,-0.908525,-0.0557165,0
186,-0.0323455,0.7801185,0.0655985,-0.1903325,0.5014385,0.0194885,-0.2405224999999999,0.2427385,0.1034404999999999,0.1435874999999999,0.5107085,-0.0018185,0.2281174999999999,0.2431985,0.0840154999999999,-0.2364724999999999,0.0115675,0.0989994999999999,0.2609775,0.0016454999999999,0.0909664999999999,-0.0723845,-0.0029335,0.0031015,0.0723845,0.0029335,-0.0031015,-0.1496624999999999,-0.5564414999999999,0.0095855,0.1586874999999999,-0.5526015,-0.0015475,-0.1948325,-0.9149615,-0.0560445,0.1995475,-0.9076415,-0.0561345,0
187,-0.0324325,0.7808275,0.0636685,-0.1909725,0.5020175,0.0186335,-0.2407325,0.2375175,0.1025715,0.1436475,0.5101375,-0.0026965,0.2279074999999999,0.2391675,0.0831465,-0.2366825,0.0078435,0.0981305,0.2607675,-0.0034885,0.0900975,-0.0723825,-0.0029085,0.0030594999999999,0.0723825,0.0029085,-0.0030594999999999,-0.1490625,-0.5508225,0.0087145,0.1588275,-0.5516025,-0.0023344999999999,-0.1944625,-0.9127325,-0.0568894999999999,0.1994475,-0.9075525,-0.0584964999999999,0
188,-0.0325145,0.7816015,0.061861,-0.1919175,0.5024015,0.017449,-0.2409875,0.2372815,0.101364,0.1439325,0.5096815,-0.0036299999999999,0.2276524999999999,0.2397315,0.081939,-0.2369375,0.0081605,0.096923,0.2605125,-0.0014464999999999,0.08889,-0.0723875,-0.0028304999999999,0.002891,0.0723875,0.0028304999999999,-0.0028909999999999,-0.1484975,-0.5460385,0.007515,0.1590524999999999,-0.5530685,-0.0033249999999999,-0.1941575,-0.9098685,-0.057187,0.1992825,-0.9078685,-0.061361,0
189,-0.0327635,0.782319,0.0603205,-0.1930224999999999,0.502979,0.0159855,-0.2414224999999999,0.242759,0.0998785,0.1442975,0.509509,-0.0043175,0.2291875,0.245679,0.0803885,-0.2373725,0.016283,0.0953225,0.2605575,0.007065,0.0856585,-0.0724295,-0.002709,0.0026325,0.0724295,0.002709,-0.0026324999999999,-0.1480925,-0.541331,0.0062715,0.1588275,-0.550911,-0.0043584999999999,-0.1938225,-0.906171,-0.0574164999999999,0.1988575,-0.907501,-0.0627015,0
190,-0.0331725,0.7830245,0.0586115,-0.1941845,0.5036145,0.0144495,-0.2451745,0.2500845,0.0932955,0.1445955,0.5095345,-0.0048375,0.2316055,0.2528145,0.0752285,-0.2437345,0.0240595,0.0800655,0.2621955,0.0177795,0.0673545,-0.0724985,-0.0025725,0.0023355,0.0724985,0.0025725,-0.0023355,-0.1482045,-0.5399855,0.0049715,0.1583854999999999,-0.5502455,-0.0056905,-0.1942545,-0.9047855,-0.0588545,0.1982954999999999,-0.9067555,-0.0643904999999999,0
191,-0.0337985,0.78331,0.0566545,-0.1953825,0.50401,0.0130865,-0.2507425,0.25688,0.0793985,0.1447775,0.50964,-0.0054665,0.2337274999999999,0.2580699999999999,0.0627095,-0.2527324999999999,0.031127,0.0550425,0.2636175,0.028404,0.0400165,-0.0725705,-0.0024909999999999,0.0020315,0.0725705,0.002491,-0.0020315,-0.1484725,-0.53891,0.0035865,0.1575075,-0.5463,-0.0069415,-0.1948725,-0.90334,-0.0607745,0.1973275,-0.90584,-0.0656585,0
192,-0.0342965,0.7840545,0.0504055,-0.1976665,0.5041845,0.0115785,-0.2514365,0.2070745,0.0761265,0.1471435,0.5077245,-0.0060284999999999,0.2447435,0.2191845,0.0465445,-0.2556365,-0.0221584999999999,0.0557835,0.2820535,-0.0166895,0.0193955,-0.0723305,-0.0022785,0.0014845,0.0723305,0.0022785,-0.0014844999999999,-0.1455665,-0.5165555000000001,-0.0008564999999999,0.1601835,-0.5624355,-0.0099575,-0.1910565,-0.8883955,-0.0625265,0.2002435,-0.9292055,-0.1029335,0
193,-0.0355935,0.7844899999999999,0.0483855,-0.1995655,0.50428,0.0091855,-0.2676855,0.22734,0.0316974999999999,0.1471545,0.50849,-0.0069245,0.2465345,0.22552,0.0223415,-0.2777055,-0.0004929999999999,-0.0066215,0.2867745,-0.0025859999999999,-0.0403115,-0.0726475,-0.001954,0.0009305,0.0726475,0.001954,-0.0009305,-0.1487554999999999,-0.53801,0.0001004999999999,0.1555045,-0.5277700000000001,-0.0106334999999999,-0.1946155,-0.90873,-0.0685845,0.1999445,-0.8881100000000001,-0.0620905,0
194,-0.036909,0.7854175,0.0472449999999999,-0.2010219999999999,0.5052175,0.006938,-0.278422,0.2347075,0.010234,0.146328,0.5095675,-0.007741,0.243248,0.2382575,-0.001602,-0.296562,0.0153324999999999,-0.0670009999999999,0.283518,0.0145064999999999,-0.10529,-0.072918,-0.0017155,0.0006249999999999,0.072918,0.0017155,-0.000625,-0.1489019999999999,-0.5154025,-0.001284,0.153498,-0.5258725,-0.013064,-0.1943919999999999,-0.8867125,-0.066798,0.193288,-0.8970125,-0.083218,0
195,-0.03739,0.7843515000000001,0.048176,-0.201913,0.5049815,0.005968,-0.2887229999999999,0.2519815,-0.021286,0.145047,0.5103715000000001,-0.0091089999999999,0.241927,0.2533315,-0.02889,-0.3136529999999999,0.0417245,-0.122014,0.277207,0.0516805,-0.156264,-0.072986,-0.0021085,0.000602,0.072986,0.0021085,-0.0006019999999999,-0.150053,-0.5184785,-0.0028329999999999,0.1562069999999999,-0.5487985,-0.0124809999999999,-0.196113,-0.8896784999999999,-0.068554,0.193017,-0.9131185,-0.0865239999999999,0
196,-0.0373425,0.784376,0.0477085,-0.2021204999999999,0.505436,0.0030765,-0.2927905,0.263576,-0.0426435,0.1448694999999999,0.511226,-0.0109364999999999,0.2369295,0.272256,-0.0490905,-0.3265105,0.06784,-0.1890055,0.2662595,0.086246,-0.2007155,-0.0730615,-0.002408,0.0010645,0.0730615,0.0024079999999999,-0.0010644999999999,-0.1501305,-0.516064,-0.0062054999999999,0.1529595,-0.528934,-0.0164414999999999,-0.1960605,-0.887384,-0.0712005,0.1907595,-0.898354,-0.0731335,0
197,-0.0376005,0.7832635,0.0481765,-0.2024844999999999,0.5053435000000001,0.0009764999999999,-0.2942345,0.2845634999999999,-0.0591275,0.1439355,0.5118135,-0.0131445,0.2369755,0.2846634999999999,-0.0656025,-0.3369045,0.1246635,-0.2294185,0.2595355,0.1304735,-0.2452085,-0.0731195,-0.0026785,0.0016585,0.0731195,0.0026784999999999,-0.0016585,-0.1551345,-0.5672965,-0.0036214999999999,0.1544255,-0.5531065,-0.0168625,-0.2027145,-0.9111765,-0.0802885,0.1910155,-0.8956164999999999,-0.0775075,0
198,-0.037827,0.7828215,0.0486515,-0.2026109999999999,0.5052815,-0.0007235,-0.296721,0.2999115,-0.0717245,0.143259,0.5120914999999999,-0.0145875,0.233969,0.3020315,-0.0755025,-0.349471,0.1628215,-0.2590795,0.2570489999999999,0.1638315,-0.2682495,-0.073274,-0.0029025,0.0015545,0.073274,0.0029025,-0.0015545,-0.156141,-0.5668085,-0.0055985,0.150109,-0.5268385,-0.0164785,-0.203861,-0.9100585,-0.0819285,0.190079,-0.8963385,-0.0805955,0
