sb224sc-HT22-VT27/4dt907/src/data/labeled_files/A121_kinect.csv
FrameNo,nose_3d_x,nose_3d_y,nose_3d_z,left_shoulder_3d_x,left_shoulder_3d_y,left_shoulder_3d_z,left_elbow_3d_x,left_elbow_3d_y,left_elbow_3d_z,right_shoulder_3d_x,right_shoulder_3d_y,right_shoulder_3d_z,right_elbow_3d_x,right_elbow_3d_y,right_elbow_3d_z,left_wrist_3d_x,left_wrist_3d_y,left_wrist_3d_z,right_wrist_3d_x,right_wrist_3d_y,right_wrist_3d_z,left_hip_3d_x,left_hip_3d_y,left_hip_3d_z,right_hip_3d_x,right_hip_3d_y,right_hip_3d_z,left_knee_3d_x,left_knee_3d_y,left_knee_3d_z,right_knee_3d_x,right_knee_3d_y,right_knee_3d_z,left_ankle_3d_x,left_ankle_3d_y,left_ankle_3d_z,right_ankle_3d_x,right_ankle_3d_y,right_ankle_3d_z,activity_label
0,-0.010765,0.725459,0.0463224999999999,-0.176289,0.561939,0.0532575,-0.266169,0.738389,-0.0460705,0.1675809999999999,0.543319,0.0349115,0.2329109999999999,0.7405889999999999,-0.0354375,-0.281029,0.941879,-0.1231685,0.245081,0.949099,-0.0950185,-0.0713429999999999,-0.000233,0.0001424999999999,0.0713429999999999,0.000233,-0.0001425,-0.096335,-0.355241,0.0126744999999999,0.109691,-0.353531,0.0131344999999999,-0.1162489999999999,-0.8346210000000001,0.0748765,0.147701,-0.847341,0.0788135,1
1,-0.0109219999999999,0.7254915000000001,0.046708,-0.176415,0.5618515000000001,0.0535179999999999,-0.2661949999999999,0.7383015,-0.045901,0.167535,0.5431715,0.035089,0.2328049999999999,0.7404615,-0.0352619999999999,-0.280945,0.9417715,-0.1231019999999999,0.244965,0.9489715,-0.094802,-0.071444,-0.0002265,0.0003189999999999,0.071444,0.0002264999999999,-0.0003189999999999,-0.0964239999999999,-0.3552185,0.0129389999999999,0.109465,-0.3535385,0.0131699999999999,-0.116315,-0.8351584999999999,0.075005,0.1477149999999999,-0.8472685,0.079071,1
2,-0.011023,0.725781,0.046818,-0.176543,0.561971,0.053445,-0.266403,0.7384609999999999,-0.0458199999999999,0.167507,0.543241,0.034911,0.2327469999999999,0.7405309999999999,-0.035447,-0.2809629999999999,0.941851,-0.12327,0.244887,0.949041,-0.09501,-0.071452,-0.000182,0.00014,0.071452,0.0001819999999999,-0.00014,-0.095992,-0.355189,0.012905,0.109487,-0.3535689999999999,0.013393,-0.116053,-0.8357490000000001,0.074739,0.147977,-0.8488990000000001,0.080414,1
3,-0.011034,0.7259,0.0468095,-0.176577,0.56206,0.0537085,-0.266357,0.7384,-0.0459575,0.167533,0.54332,0.0348715,0.232663,0.74063,-0.0355435,-0.280257,0.94194,-0.1231325,0.244823,0.94915,-0.0950625,-0.07144,-0.0002099999999999,0.0001444999999999,0.07144,0.00021,-0.0001444999999999,-0.095615,-0.35523,0.0130005,0.109573,-0.35353,0.0133785,-0.116047,-0.83562,0.0746685,0.147793,-0.84774,0.0802215,1
4,-0.0112824999999999,0.7262219999999999,0.0472545,-0.1767505,0.562462,0.0537435,-0.2665405,0.738742,-0.0460234999999999,0.1674895,0.543342,0.0346945,0.2324895,0.740652,-0.0359354999999999,-0.2795404999999999,0.942252,-0.1234965,0.2447195,0.949182,-0.0953664999999999,-0.0714905,-0.000141,4.250000000000087e-05,0.0714905,0.000141,-4.250000000000087e-05,-0.0958064999999999,-0.355158,0.0127915,0.1100195,-0.353528,0.0136604999999999,-0.1160804999999999,-0.8349380000000001,0.0743665,0.1476795,-0.846338,0.0807875,1
5,-0.0112455,0.726229,0.0476614999999999,-0.1767955,0.562559,0.0539095,-0.2665255,0.7388290000000001,-0.0459635,0.1674845,0.543359,0.0348244999999999,0.2324545,0.740529,-0.0363405,-0.2792855,0.942329,-0.1234855,0.2447045,0.949069,-0.0957255,-0.0715915,-0.000187,0.0001224999999999,0.0715915,0.0001869999999999,-0.0001225,-0.0958465,-0.355211,0.0129024999999999,0.1104845,-0.353451,0.0135374999999999,-0.1161155,-0.8348209999999999,0.0744644999999999,0.1476444999999999,-0.846251,0.0809185,1
6,-0.0117234999999999,0.7268495,0.0478135,-0.1772205,0.5629895,0.0542325,-0.2669605,0.7391995,-0.0457724999999999,0.1670295,0.5438395,0.0348725,0.2319295,0.7410395,-0.0362654999999999,-0.2795105,0.9426595,-0.1234594999999999,0.2440895,0.9495695,-0.0957394999999999,-0.0715415,-7.949999999999971e-05,9.950000000000236e-05,0.0715415,7.950000000000014e-05,-9.949999999999544e-05,-0.0963445,-0.3550405,0.0129505,0.1101395,-0.3536205,0.0132415,-0.1165705,-0.8345205,0.0746145,0.1473195,-0.8455604999999999,0.0811505,1
7,-0.0115555,0.726855,0.0477159999999999,-0.1771525,0.562915,0.054171,-0.2669224999999999,0.739115,-0.0459969999999999,0.1670575,0.543845,0.034776,0.2319975,0.741005,-0.036475,-0.2795324999999999,0.942605,-0.123586,0.2441275,0.949445,-0.096356,-0.0715205,-0.00017,0.0002349999999999,0.0715205,0.00017,-0.0002349999999999,-0.0961845,-0.355165,0.0129019999999999,0.1103675,-0.3535149999999999,0.0129649999999999,-0.1165425,-0.833485,0.0742589999999999,0.1471575,-0.845135,0.079904,1
8,-0.0116665,0.727048,0.0478455,-0.1772885,0.563048,0.0543065,-0.2670585,0.739168,-0.0459925,0.1669614999999999,0.543948,0.0347345,0.2318715,0.741088,-0.0366665,-0.2795384999999999,0.942648,-0.1236944999999999,0.2440014999999999,0.949488,-0.0967345,-0.0715285,-0.0001799999999999,0.0002785,0.0715285,0.00018,-0.0002785,-0.0962645,-0.355182,0.0129004999999999,0.1105115,-0.353492,0.0129074999999999,-0.1166385,-0.833142,0.0741395,0.1470314999999999,-0.844632,0.0799255,1
9,-0.0117575,0.7272185,0.0478345,-0.1774025,0.5631484999999999,0.0543555,-0.2672025,0.7391884999999999,-0.0460575,0.1668675,0.5440484999999999,0.0346235,0.2317475,0.7411685,-0.0369255,-0.2796625,0.9426485,-0.1238745,0.2438775,0.9495185,-0.0971944999999999,-0.0715264999999999,-0.0002035,0.0003674999999999,0.0715264999999999,0.0002034999999999,-0.0003674999999999,-0.0963435,-0.3552114999999999,0.0128715,0.1105974999999999,-0.3534615,0.0127975,-0.1167325,-0.8327915,0.0739555,0.1469175,-0.8442215000000001,0.0798365,1
10,-0.0118275,0.7273850000000001,0.0477845,-0.1775105,0.563245,0.0543975,-0.2673305,0.739195,-0.0461494999999999,0.1667795,0.544155,0.0345035,0.2316295,0.741225,-0.0372514999999999,-0.2797805,0.942635,-0.1240115,0.2437995,0.949525,-0.0977015,-0.0715195,-0.000227,0.0004644999999999,0.0715195,0.0002269999999999,-0.0004644999999999,-0.0964115,-0.355245,0.0128515,0.1106595,-0.353435,0.0126365,-0.1168105,-0.832465,0.0737994999999999,0.1467895,-0.843835,0.0796165,1
11,-0.0118424999999999,0.7274754999999999,0.047713,-0.1775515,0.5632455,0.054451,-0.2674114999999999,0.7390855,-0.046241,0.1667385,0.5441954999999999,0.034373,0.2315585,0.7411955,-0.037647,-0.2798515,0.9424955,-0.1241579999999999,0.2437585,0.9494655,-0.0982379999999999,-0.0715185,-0.0002575,0.000604,0.0715185,0.0002574999999999,-0.000604,-0.0964385,-0.3553045,0.0128159999999999,0.1107685,-0.3534045,0.0124629999999999,-0.1168415,-0.8321445000000001,0.0736219999999999,0.1467185,-0.8435145000000001,0.079405,1
12,-0.0118295,0.7275105000000001,0.04763,-0.1775515,0.5632005,0.054523,-0.2674715,0.7389305,-0.046332,0.1667085,0.5442105,0.034238,0.2315185,0.7411505,-0.038014,-0.2799215,0.9423105,-0.124302,0.2437685,0.9493805,-0.098742,-0.0715215,-0.0002735,0.0007509999999999,0.0715215,0.0002735,-0.000751,-0.0964395,-0.3553495,0.0127999999999999,0.1108585,-0.3533795,0.0122929999999999,-0.1168515,-0.8318495,0.073449,0.1466385,-0.8432394999999999,0.0791699999999999,1
13,-0.0118205,0.7275365,0.047518,-0.1775505,0.5631265,0.0545849999999999,-0.2675305,0.7387465,-0.046422,0.1666795,0.5441865,0.034093,0.2314895,0.7410765,-0.038394,-0.2800505,0.9420965,-0.1244239999999999,0.2438295,0.9492665,-0.099274,-0.0715175,-0.0002904999999999,0.0009149999999999,0.0715175,0.0002905,-0.000915,-0.0964135,-0.3553935,0.0127769999999999,0.1108895,-0.3533435,0.0121699999999999,-0.1169005,-0.8316735000000001,0.073299,0.1465595,-0.8429235,0.0790319999999999,1
14,-0.011804,0.727494,0.0474039999999999,-0.177537,0.563014,0.0546349999999999,-0.2675769999999999,0.738534,-0.04654,0.166673,0.5441239999999999,0.0339289999999999,0.2315229999999999,0.7408939999999999,-0.038898,-0.280197,0.941864,-0.124548,0.243953,0.949064,-0.099828,-0.0715119999999999,-0.0003059999999999,0.0010439999999999,0.0715119999999999,0.000306,-0.001044,-0.0963749999999999,-0.355436,0.0127529999999999,0.1108629999999999,-0.353336,0.0120559999999999,-0.116927,-0.831546,0.073127,0.146473,-0.842726,0.0789179999999999,1
15,-0.0117885,0.727438,0.047271,-0.1775275,0.5628879999999999,0.054664,-0.2676175,0.738298,-0.04666,0.1666225,0.544128,0.033795,0.2315025,0.740748,-0.039439,-0.2804075,0.941608,-0.124682,0.2440324999999999,0.948898,-0.1003619999999999,-0.0715015,-0.00031,0.0011779999999999,0.0715015,0.0003099999999999,-0.0011779999999999,-0.0963385,-0.355462,0.0127369999999999,0.1108125,-0.353332,0.0119219999999999,-0.1169475,-0.831542,0.072935,0.1463824999999999,-0.842722,0.0787839999999999,1
16,-0.0117685,0.727378,0.047125,-0.1775225,0.562818,0.0546,-0.2676525,0.738148,-0.0467859999999999,0.1665775,0.544128,0.033649,0.2314675,0.740588,-0.0399519999999999,-0.2806025,0.941438,-0.124868,0.2440675,0.948718,-0.100878,-0.0714875,-0.00031,0.001322,0.0714875,0.0003099999999999,-0.0013219999999999,-0.0962855,-0.355472,0.01272,0.1107674999999999,-0.353332,0.011779,-0.1169725,-0.831572,0.072722,0.1463075,-0.842722,0.078637,1
17,-0.0117429999999999,0.727322,0.0469565,-0.177514,0.562752,0.0545375,-0.2676739999999999,0.7380019999999999,-0.0469104999999999,0.166536,0.544132,0.0335085,0.231466,0.740412,-0.0404655,-0.280744,0.941282,-0.1250684999999999,0.244036,0.948552,-0.1013684999999999,-0.071476,-0.000314,0.0014625,0.071476,0.000314,-0.0014624999999999,-0.0962379999999999,-0.355478,0.0127115,0.1107259999999999,-0.353328,0.0116385,-0.116974,-0.831568,0.0724825,0.146226,-0.842718,0.0785325,1
18,-0.0117299999999999,0.7272385,0.0467895,-0.177501,0.5626785000000001,0.0545175,-0.267701,0.7378585000000001,-0.0470344999999999,0.166259,0.5441885000000001,0.0336775,0.231489,0.7402285000000001,-0.0409495,-0.280831,0.9411185,-0.1252425,0.243979,0.9483585,-0.1018324999999999,-0.071467,-0.0003424999999999,0.0015505,0.071467,0.0003424999999999,-0.0015504999999999,-0.096215,-0.3555115,0.0127025,0.110679,-0.3533115,0.0115455,-0.116981,-0.8315914999999999,0.0723275,0.146159,-0.8428315,0.0785455,1
19,-0.011711,0.727157,0.046605,-0.177477,0.562577,0.05449,-0.267747,0.7377170000000001,-0.047186,0.165933,0.544307,0.033926,0.231513,0.7400570000000001,-0.041341,-0.280877,0.940937,-0.125483,0.243933,0.948197,-0.1022629999999999,-0.071459,-0.0003769999999999,0.0016209999999999,0.071459,0.0003769999999999,-0.0016209999999999,-0.096201,-0.355553,0.012673,0.110613,-0.3532929999999999,0.0114429999999999,-0.116997,-0.831673,0.072197,0.146123,-0.842993,0.078427,1
20,-0.011693,0.7270544999999999,0.046442,-0.177483,0.5624945,0.054439,-0.267793,0.7376145,-0.047305,0.165617,0.5443344999999999,0.034101,0.231537,0.7399045,-0.0416489999999999,-0.280923,0.9407945,-0.125729,0.243887,0.9480345,-0.1026989999999999,-0.071437,-0.0004054999999999,0.001661,0.071437,0.0004054999999999,-0.0016609999999999,-0.096192,-0.3556054999999999,0.012682,0.110527,-0.3532855,0.011335,-0.116993,-0.8318455,0.072012,0.146097,-0.8432955,0.078354,1
21,-0.0116799999999999,0.7269835,0.0462464999999999,-0.177509,0.5624335,0.0543574999999999,-0.267799,0.7375435,-0.0474215,0.165361,0.5443335,0.0342064999999999,0.231571,0.7397235,-0.0419875,-0.280969,0.9406635,-0.1260775,0.243821,0.9478235,-0.1031875,-0.071421,-0.0004185,0.0016834999999999,0.071421,0.0004184999999999,-0.0016835,-0.096201,-0.3556165,0.0126744999999999,0.110451,-0.3532865,0.0112464999999999,-0.117019,-0.8320365,0.0718725,0.146091,-0.8435165,0.0783125,1
22,-0.0116695,0.7268755,0.046038,-0.1775035,0.5623055,0.054298,-0.2677535,0.7374054999999999,-0.047527,0.1651765,0.5443055,0.034261,0.2316065,0.7394955,-0.042355,-0.2810335,0.9404355,-0.126463,0.2437065,0.9475855,-0.1036729999999999,-0.0714085,-0.0004354999999999,0.00171,0.0714085,0.0004355,-0.0017099999999999,-0.0962445,-0.3556445,0.012683,0.1103165,-0.3532944999999999,0.011162,-0.1170335,-0.8322645000000001,0.071705,0.1461065,-0.8438145,0.07828,1
23,-0.0116525,0.726784,0.0458025,-0.1774755,0.562144,0.0542505,-0.2676755,0.737214,-0.0476454999999999,0.1648244999999999,0.544404,0.0344215,0.2316645,0.739254,-0.0426484999999999,-0.2810955,0.940144,-0.1268695,0.2435844999999999,0.947334,-0.1041594999999999,-0.0713955,-0.0004559999999999,0.0017445,0.0713955,0.0004559999999999,-0.0017444999999999,-0.0962615,-0.355656,0.0126995,0.1102045,-0.353306,0.0110795,-0.1170855,-0.832456,0.0716415,0.1461345,-0.8440960000000001,0.0782855,1
24,-0.0116379999999999,0.7266765000000001,0.0455715,-0.177417,0.5619565000000001,0.0542345,-0.267607,0.7370065,-0.0477705,0.164463,0.5445565,0.0347145,0.231713,0.7390665000000001,-0.0429545,-0.2811269999999999,0.9398265,-0.1272915,0.243433,0.9471365,-0.1046215,-0.071391,-0.0004834999999999,0.0017595,0.071391,0.0004835,-0.0017594999999999,-0.096292,-0.3556835,0.0127175,0.110063,-0.3532935,0.0109775,-0.117117,-0.8325535,0.0715935,0.1461529999999999,-0.8443934999999999,0.0781935,1
25,-0.0116115,0.7265875,0.045405,-0.1773345,0.5617775,0.054287,-0.2675145,0.7367675,-0.047837,0.1640954999999999,0.5447375,0.034949,0.2318055,0.7388575000000001,-0.043265,-0.2811545,0.9394775,-0.127682,0.2430854999999999,0.9469175,-0.105052,-0.0713895,-0.0005155,0.0017849999999999,0.0713895,0.0005154999999999,-0.001785,-0.0963225,-0.3557125,0.012752,0.1099455,-0.3532924999999999,0.0109299999999999,-0.1171345,-0.8326224999999999,0.071563,0.1461154999999999,-0.8447224999999999,0.078163,1
26,-0.011587,0.726522,0.0452145,-0.177232,0.561582,0.0543305,-0.267402,0.736502,-0.0479774999999999,0.163658,0.544962,0.0352455,0.231898,0.738682,-0.0436715,-0.2812219999999999,0.939112,-0.1280955,0.242708,0.946722,-0.1055355,-0.071395,-0.0005349999999999,0.0018125,0.071395,0.000535,-0.0018124999999999,-0.096353,-0.355728,0.0127695,0.1098379999999999,-0.353288,0.0108865,-0.117172,-0.832838,0.0715425,0.1460779999999999,-0.845028,0.0781195,1
27,-0.0115415,0.726439,0.045002,-0.1771355,0.561379,0.054372,-0.2672955,0.736209,-0.048111,0.1633645,0.545159,0.035467,0.2320045,0.738529,-0.0441059999999999,-0.2812655,0.938709,-0.12857,0.2423645,0.946559,-0.1061,-0.0714005,-0.0005519999999999,0.001827,0.0714005,0.000552,-0.0018269999999999,-0.0963935,-0.355741,0.012779,0.1097845,-0.3532809999999999,0.010872,-0.1171655,-0.832951,0.071598,0.1460645,-0.8452310000000001,0.078067,1
28,-0.0115039999999999,0.7263375000000001,0.04475,-0.177032,0.5611575000000001,0.054405,-0.267202,0.7358875,-0.048273,0.1631679999999999,0.5452775000000001,0.035466,0.232128,0.7383375000000001,-0.0445599999999999,-0.281302,0.9382975,-0.128969,0.242118,0.9463475,-0.106699,-0.071411,-0.0005644999999999,0.001836,0.071411,0.0005644999999999,-0.0018359999999999,-0.0964199999999999,-0.3557525,0.01277,0.109758,-0.3532725,0.010841,-0.117162,-0.8330825,0.071748,0.146068,-0.8454225,0.07797,1
29,-0.0114815,0.7262280000000001,0.0444834999999999,-0.1769275,0.560948,0.0544294999999999,-0.2671175,0.735568,-0.0484415,0.1630925,0.5452980000000001,0.0354534999999999,0.2322625,0.7381380000000001,-0.0450175,-0.2813175,0.937898,-0.1293115,0.2419425,0.946138,-0.1072615,-0.0714245,-0.0005779999999999,0.0018484999999999,0.0714245,0.000578,-0.0018485,-0.0964454999999999,-0.355782,0.0127624999999999,0.1097325,-0.353272,0.0107714999999999,-0.1171474999999999,-0.833202,0.0719664999999999,0.1461025,-0.8455419999999999,0.0778204999999999,1
30,-0.0114764999999999,0.7261475000000001,0.044231,-0.1768395,0.5607475000000001,0.054453,-0.2671194999999999,0.7352575,-0.048594,0.1630905,0.5451075000000001,0.0352759999999999,0.2323305,0.7379875,-0.04544,-0.2813495,0.9375175,-0.129573,0.2417505,0.9459975,-0.107743,-0.0714465,-0.0005964999999999,0.0018629999999999,0.0714465,0.0005965,-0.001863,-0.0964754999999999,-0.3558225,0.0127909999999999,0.1097005,-0.3532725,0.0106859999999999,-0.1171495,-0.8332624999999999,0.072172,0.1461205,-0.8456224999999999,0.077717,1
31,-0.011483,0.726066,0.0439904999999999,-0.1768,0.560606,0.0544574999999999,-0.26715,0.735006,-0.0487645,0.16326,0.544856,0.0350254999999999,0.23235,0.737876,-0.0458505,-0.28149,0.937216,-0.1298275,0.24156,0.945896,-0.1082075,-0.071467,-0.0006229999999999,0.0018744999999999,0.071467,0.000623,-0.0018745,-0.096473,-0.3558739999999999,0.0127764999999999,0.10968,-0.353274,0.0105874999999999,-0.11707,-0.833494,0.0723495,0.14609,-0.845734,0.0776325,1
32,-0.0115064999999999,0.725994,0.043749,-0.1768015,0.560524,0.0544339999999999,-0.2671814999999999,0.734824,-0.0489569999999999,0.1633485,0.5446740000000001,0.034778,0.2323184999999999,0.7377640000000001,-0.0462389999999999,-0.2817415,0.936994,-0.130098,0.2413684999999999,0.945784,-0.1086879999999999,-0.0714855,-0.0006399999999999,0.001905,0.0714855,0.0006399999999999,-0.0019049999999999,-0.0964505,-0.355906,0.01275,0.1096785,-0.353276,0.010465,-0.1170215,-0.833676,0.0724549999999999,0.1460585,-0.845826,0.077536,1
33,-0.0115409999999999,0.7259485,0.043453,-0.176843,0.5604685,0.054361,-0.267223,0.7346385,-0.0491989999999999,0.163387,0.5445985,0.034433,0.2322769999999999,0.7376685000000001,-0.0467169999999999,-0.282113,0.9367185,-0.130521,0.241037,0.9456485,-0.109331,-0.071486,-0.0006414999999999,0.001975,0.071486,0.0006415,-0.0019749999999999,-0.096389,-0.3559015,0.012708,0.109677,-0.3532714999999999,0.010304,-0.116983,-0.8338615,0.072512,0.146017,-0.8458915,0.077397,1
34,-0.0115785,0.7259085000000001,0.0431384999999999,-0.1768825,0.5603985,0.0542664999999999,-0.2673124999999999,0.7344585,-0.0495055,0.1635775,0.5444485,0.0340245,0.2322374999999999,0.7375685000000001,-0.0472114999999999,-0.2824824999999999,0.9364385,-0.1310555,0.2407475,0.9455385,-0.1100055,-0.0715015,-0.0006414999999999,0.0020184999999999,0.0715015,0.0006415,-0.0020184999999999,-0.0963295,-0.3559015,0.0126395,0.1096675,-0.3532714999999999,0.0101365,-0.1169425,-0.8340015,0.0724964999999999,0.1459375,-0.8459315,0.0772555,1
35,-0.0116344999999999,0.7258715,0.042823,-0.1769395,0.5603615,0.054159,-0.2674595,0.7343014999999999,-0.049766,0.1636605,0.5443614999999999,0.033592,0.2321505,0.7374715,-0.047684,-0.2828595,0.9361615,-0.131623,0.2403905,0.9454215,-0.110663,-0.0715135,-0.0006445,0.0020519999999999,0.0715135,0.0006444999999999,-0.002052,-0.0962925,-0.3559085,0.0125689999999999,0.1096205,-0.3532685,0.0099609999999999,-0.1169494999999999,-0.8341485,0.0724519999999999,0.1458205,-0.8460785,0.077028,1
36,-0.0116885,0.7258479999999999,0.0425685,-0.1770035,0.5603279999999999,0.0540195,-0.2676235,0.7341679999999999,-0.0500365,0.1636765,0.544298,0.0331745,0.2320065,0.7373679999999999,-0.0481265,-0.2832135,0.935938,-0.1321295,0.2399465,0.945298,-0.1112695,-0.0715235,-0.0006389999999999,0.0021005,0.0715235,0.0006389999999999,-0.0021004999999999,-0.0962515,-0.3559319999999999,0.0124655,0.1095865,-0.353302,0.0097785,-0.1169435,-0.8342820000000001,0.0723645,0.1456865,-0.846232,0.0767565,1
37,-0.0117604999999999,0.7258145,0.0423465,-0.1771015,0.5602645,0.0538415,-0.2678215,0.7339945000000001,-0.0502905,0.1636485,0.5442445,0.0327825,0.2317685,0.7372945000000001,-0.0486085,-0.2835615,0.9356745,-0.1326605,0.2394685,0.9451745,-0.1118905,-0.0715365,-0.0006345,0.0021504999999999,0.0715365,0.0006345,-0.0021504999999999,-0.0962095,-0.3559555,0.0123615,0.1095885,-0.3533255,0.0096115,-0.1169214999999999,-0.8344155,0.0722695,0.1455685,-0.8461854999999999,0.0765265,1
38,-0.0118499999999999,0.725816,0.0420355,-0.177208,0.560236,0.0536415,-0.268098,0.733816,-0.0506355,0.163802,0.544106,0.0322315,0.231432,0.737266,-0.0491985,-0.283928,0.935346,-0.1334165,0.238952,0.945096,-0.1126364999999999,-0.071551,-0.000649,0.0021874999999999,0.071551,0.0006489999999999,-0.0021875,-0.096171,-0.355994,0.0122355,0.109592,-0.353354,0.0094585,-0.116898,-0.834484,0.0721435,0.145462,-0.846114,0.0762625,1
39,-0.0119754999999999,0.7258425000000001,0.04169,-0.1773374999999999,0.5602325,0.053415,-0.2684075,0.7336425,-0.051046,0.1640424999999999,0.5438825,0.031624,0.2310725,0.7372325000000001,-0.049885,-0.2843075,0.9350125,-0.134256,0.2384224999999999,0.9450125,-0.113506,-0.0715625,-0.0006565,0.00219,0.0715625,0.0006564999999999,-0.0021899999999999,-0.0961235,-0.3560275,0.012088,0.1095425,-0.3533874999999999,0.009298,-0.1168775,-0.8344675,0.071985,0.1453725,-0.8460475,0.075983,1
40,-0.01211,0.725922,0.0413105,-0.177467,0.5602619999999999,0.0531635,-0.268747,0.733462,-0.0515105,0.164233,0.543702,0.0309905,0.230673,0.7372219999999999,-0.0506145,-0.284657,0.934682,-0.1351274999999999,0.2378529999999999,0.944962,-0.1144475,-0.071569,-0.0006719999999999,0.0021874999999999,0.071569,0.000672,-0.0021875,-0.096142,-0.356068,0.0119435,0.109523,-0.353398,0.0091025,-0.116897,-0.834358,0.0717815,0.1452729999999999,-0.845848,0.0757295,1
41,-0.012236,0.725996,0.040867,-0.177604,0.560296,0.052909,-0.269094,0.733216,-0.0521039999999999,0.164426,0.543546,0.030418,0.230266,0.737216,-0.0513829999999999,-0.284954,0.934326,-0.136059,0.237256,0.944866,-0.1156089999999999,-0.071587,-0.000684,0.002157,0.071587,0.0006839999999999,-0.0021569999999999,-0.096175,-0.3560939999999999,0.01182,0.109496,-0.353424,0.008908,-0.116934,-0.834264,0.071553,0.145156,-0.845634,0.075521,1
42,-0.0123629999999999,0.7260605,0.040402,-0.177739,0.5603505,0.052668,-0.269409,0.7330004999999999,-0.052689,0.164511,0.5435105,0.0299989999999999,0.229951,0.7372205,-0.052101,-0.285169,0.9340005,-0.136942,0.236781,0.9447605,-0.116772,-0.071612,-0.0006884999999999,0.0020839999999999,0.071612,0.0006884999999999,-0.0020839999999999,-0.0962359999999999,-0.3560895,0.0117549999999999,0.109471,-0.3534494999999999,0.0087639999999999,-0.1169689999999999,-0.8341295000000001,0.071363,0.1450509999999999,-0.8454495000000001,0.07534,1
43,-0.0124735,0.7261055,0.0398335,-0.1778515,0.5603954999999999,0.0524344999999999,-0.2697115,0.7327254999999999,-0.0532955,0.1645885,0.5434654999999999,0.0296105,0.2296985,0.7371854999999999,-0.0528574999999999,-0.2853414999999999,0.9336655,-0.1377475,0.2364085,0.9446055,-0.1180074999999999,-0.0716415,-0.0006974999999999,0.0020405,0.0716415,0.0006975,-0.0020405,-0.0962784999999999,-0.3560945,0.0117244999999999,0.1094584999999999,-0.3534745,0.0086205,-0.1170315,-0.8339245000000001,0.0712105,0.1449385,-0.8452445000000001,0.0751835,1
44,-0.012562,0.7260915,0.039135,-0.177943,0.5603714999999999,0.052138,-0.2700129999999999,0.7323915,-0.054008,0.164527,0.5434215,0.029278,0.229457,0.7370614999999999,-0.0537939999999999,-0.285513,0.9332515,-0.138715,0.236147,0.9443015,-0.1196349999999999,-0.071669,-0.0007194999999999,0.001996,0.071669,0.0007195,-0.001996,-0.09631,-0.3561185,0.011658,0.109497,-0.3534785,0.008491,-0.117053,-0.8337385,0.071078,0.144877,-0.8450385,0.075101,1
45,-0.0126454999999999,0.7260310000000001,0.03841,-0.1780034999999999,0.560281,0.051826,-0.2702735,0.7319410000000001,-0.054772,0.1644765,0.5434410000000001,0.029005,0.2292664999999999,0.7368410000000001,-0.054839,-0.2856634999999999,0.932691,-0.139814,0.2360665,0.943911,-0.121314,-0.0717135,-0.00076,0.0019509999999999,0.0717135,0.00076,-0.0019509999999999,-0.0963385,-0.356159,0.011581,0.1095265,-0.353469,0.008365,-0.1170835,-0.8336089999999999,0.070947,0.1448165,-0.844849,0.074998,1
46,-0.0126875,0.7260144999999999,0.0376484999999999,-0.1780594999999999,0.5602045,0.0515024999999999,-0.2705195,0.7315145,-0.0555375,0.1644405,0.5434644999999999,0.0287244999999999,0.2291404999999999,0.7365944999999999,-0.0559055,-0.2857995,0.9321245,-0.1409854999999999,0.2360304999999999,0.9434945,-0.1230555,-0.0717565,-0.0007815,0.0019304999999999,0.0717565,0.0007815,-0.0019305,-0.0963625,-0.3561755,0.0115194999999999,0.1095805,-0.3534755,0.0082554999999999,-0.1171195,-0.8334555,0.0708274999999999,0.1447505,-0.8445855000000001,0.0749354999999999,1
47,-0.0127064999999999,0.7259925,0.0368595,-0.1781025,0.5601125,0.0511775,-0.2707425,0.7310625000000001,-0.0563554999999999,0.1642874999999999,0.5434225,0.0284935,0.2290975,0.7362225,-0.0569355,-0.2858825,0.9315325,-0.1422435,0.2360175,0.9429025,-0.1248835,-0.0717815,-0.0007794999999999,0.0019265,0.0717815,0.0007795,-0.0019265,-0.0963755,-0.3561875,0.0114715,0.1096375,-0.3534875,0.0081395,-0.1171025,-0.8333575,0.0707235,0.1447275,-0.8443375,0.0748995,1
48,-0.0127084999999999,0.7259369999999999,0.036115,-0.1781325,0.5600069999999999,0.050855,-0.2709425,0.730587,-0.057238,0.1641675,0.543397,0.028309,0.2291175,0.735827,-0.057981,-0.2859125,0.930887,-0.143585,0.2360375,0.942277,-0.126785,-0.0718034999999999,-0.000762,0.0019349999999999,0.0718034999999999,0.0007619999999999,-0.0019349999999999,-0.0963685,-0.356193,0.01146,0.1097175,-0.353523,0.008034,-0.1170624999999999,-0.8332430000000001,0.070613,0.1446875,-0.844103,0.074945,1
49,-0.0127139999999999,0.72588,0.0353105,-0.178178,0.55989,0.0504675,-0.271138,0.73013,-0.0581195,0.163972,0.54347,0.0281055,0.2291119999999999,0.73541,-0.0590305,-0.285958,0.93027,-0.1449605,0.236062,0.94164,-0.1286304999999999,-0.071808,-0.000725,0.0019395,0.071808,0.000725,-0.0019395,-0.0963639999999999,-0.35617,0.0114025,0.109832,-0.35356,0.0079344999999999,-0.117008,-0.8331200000000001,0.0705205,0.144652,-0.8440300000000001,0.0750545,1
50,-0.0126844999999999,0.7258175,0.034595,-0.1781935,0.5597675,0.050068,-0.2712835,0.7297175,-0.058899,0.1637265,0.5435275,0.0279359999999999,0.2291565,0.7349975,-0.060094,-0.2859635,0.9296675,-0.1462919999999999,0.2361665,0.9410575,-0.130282,-0.0718425,-0.0006744999999999,0.0019289999999999,0.0718425,0.0006745,-0.001929,-0.0963294999999999,-0.3561225,0.0113569999999999,0.1098665,-0.3536225,0.0078709999999999,-0.1169234999999999,-0.8330125,0.070416,0.1445965,-0.8439725,0.075211,1
51,-0.0126349999999999,0.7257695000000001,0.0338315,-0.1782079999999999,0.5596595000000001,0.0496174999999999,-0.271428,0.7293195,-0.0597255,0.163422,0.5435495,0.0277755,0.229222,0.7345795,-0.0611545,-0.285978,0.9291395,-0.1475735,0.236332,0.9405095,-0.1317935,-0.071888,-0.0006224999999999,0.0019165,0.071888,0.0006224999999999,-0.0019165,-0.0962839999999999,-0.3560705,0.0112935,0.109892,-0.3536805,0.0077834999999999,-0.1168279999999999,-0.8329504999999999,0.0703295,0.144552,-0.8439205,0.0753395,1
52,-0.0125635,0.7257295,0.033117,-0.1782075,0.5595195,0.049151,-0.2715075,0.7289694999999999,-0.0604879999999999,0.1631025,0.5435895,0.02759,0.2293325,0.7341695,-0.062092,-0.2859675,0.9286195,-0.148803,0.2365025,0.9399895,-0.133133,-0.0719404999999999,-0.0005754999999999,0.001894,0.0719404999999999,0.0005755,-0.0018939999999999,-0.0962475,-0.3560305,0.01125,0.1099525,-0.3537305,0.007684,-0.1167175,-0.8329205000000001,0.070257,0.1445425,-0.8440105,0.075456,1
53,-0.012436,0.7257065,0.0324025,-0.178173,0.5594265,0.0485545,-0.271613,0.7286865,-0.0613315,0.162767,0.5436465,0.0274225,0.229517,0.7338165,-0.0629715,-0.285933,0.9281965,-0.1500375,0.236777,0.9395865,-0.1341474999999999,-0.071966,-0.0005174999999999,0.0018794999999999,0.071966,0.0005174999999999,-0.0018794999999999,-0.096229,-0.3559735,0.0112144999999999,0.1100569999999999,-0.3538035,0.0076264999999999,-0.116563,-0.8328435,0.0702535,0.144527,-0.8441235,0.0755595,1
54,-0.0122594999999999,0.7256895,0.03165,-0.1781215,0.5594595,0.047897,-0.2716815,0.7284895,-0.062219,0.1624585,0.5436695,0.027241,0.2297585,0.7335094999999999,-0.063747,-0.2858515,0.9278895,-0.151164,0.2371185,0.9392195,-0.1351139999999999,-0.0719785,-0.0004534999999999,0.001884,0.0719785,0.0004534999999999,-0.001884,-0.0961735,-0.3559205,0.011193,0.1101885,-0.3538605,0.007589,-0.1163915,-0.8327905,0.070189,0.1445485,-0.8442605000000001,0.075721,1
55,-0.012054,0.7256825,0.0307875,-0.178015,0.5594825,0.0471575,-0.271745,0.7283025,-0.0631845,0.162275,0.5436825,0.0270795,0.230035,0.7332325,-0.0644515,-0.285745,0.9276725,-0.1522605,0.237475,0.9389025,-0.1359405,-0.071974,-0.0004284999999999,0.0018845,0.071974,0.0004285,-0.0018845,-0.096094,-0.3558975,0.0111595,0.110295,-0.3538774999999999,0.0075444999999999,-0.116205,-0.8326775000000001,0.0701675,0.144595,-0.8445775,0.0758974999999999,1
56,-0.011824,0.7257005,0.0299674999999999,-0.1778759999999999,0.5595205,0.0463685,-0.271776,0.7281905,-0.0640825,0.1624439999999999,0.5437004999999999,0.0269365,0.2303339999999999,0.7330304999999999,-0.0651285,-0.285646,0.9275505,-0.1531894999999999,0.237854,0.9387105,-0.1366095,-0.071966,-0.0004134999999999,0.0018754999999999,0.071966,0.0004135,-0.0018754999999999,-0.096082,-0.3558995,0.0111325,0.110254,-0.3538995,0.0074655,-0.116036,-0.8325495,0.0701654999999999,0.144674,-0.8448695,0.0760835,1
57,-0.0115489999999999,0.7257295,0.029018,-0.1776829999999999,0.5595395000000001,0.0456359999999999,-0.271733,0.7280995,-0.064892,0.1626969999999999,0.5436995,0.026726,0.230707,0.7327895000000001,-0.065798,-0.285493,0.9274395,-0.154074,0.2381869999999999,0.9385095,-0.137154,-0.071937,-0.0003864999999999,0.0018689999999999,0.071937,0.0003865,-0.001869,-0.0960459999999999,-0.3558905,0.0110909999999999,0.110217,-0.3539205,0.0074169999999999,-0.115823,-0.8324005,0.070147,0.144777,-0.8452504999999999,0.076208,1
58,-0.011244,0.7257174999999999,0.0280514999999999,-0.1774089999999999,0.5595475,0.0449885,-0.271629,0.7279774999999999,-0.0657295,0.1629709999999999,0.5437074999999999,0.0264694999999999,0.2311309999999999,0.7325275,-0.0665625,-0.285299,0.9272675,-0.1550445,0.238581,0.9382975,-0.1377145,-0.07188,-0.0003405,0.0018524999999999,0.07188,0.0003404999999999,-0.0018525,-0.096016,-0.3558624999999999,0.0110274999999999,0.110011,-0.3539625,0.0073994999999999,-0.115609,-0.8322925000000001,0.0701415,0.144951,-0.8456425000000001,0.0762974999999999,1
59,-0.010858,0.7257015,0.0270995,-0.177044,0.5595515,0.0444855,-0.271374,0.7278415,-0.0665275,0.163266,0.5436814999999999,0.0262315,0.231676,0.7322015,-0.0673465,-0.284994,0.9270815,-0.1559714999999999,0.239096,0.9380615,-0.1382115,-0.0718159999999999,-0.0002845,0.0018855,0.0718159999999999,0.0002845,-0.0018854999999999,-0.095947,-0.3558185,0.0110045,0.109786,-0.3540285,0.0073625,-0.1153039999999999,-0.8321285,0.0701955,0.145246,-0.8460185,0.0764805,1
60,-0.0104599999999999,0.7257125000000001,0.0262509999999999,-0.176688,0.5595525,0.0440819999999999,-0.271098,0.7277225,-0.06728,0.163792,0.5435525,0.025938,0.232252,0.7318825,-0.068143,-0.284648,0.9268725,-0.156925,0.239702,0.9377925,-0.138815,-0.07176,-0.0002434999999999,0.0019039999999999,0.07176,0.0002435,-0.0019039999999999,-0.0959889999999999,-0.3557775,0.0109299999999999,0.109562,-0.3540775,0.0073349999999999,-0.114998,-0.8319074999999999,0.07031,0.145542,-0.8463674999999999,0.076696,1
61,-0.0100135,0.7257205,0.0253595,-0.1762505,0.5595304999999999,0.0433594999999999,-0.2707905,0.7275805,-0.0680775,0.1642795,0.5434505,0.0256474999999999,0.2328495,0.7315305,-0.0690515,-0.2842705,0.9266505,-0.1579215,0.2404195,0.9374305,-0.1396915,-0.0717225,-0.0001955,0.0019214999999999,0.0717225,0.0001954999999999,-0.0019214999999999,-0.0960195,-0.3557295,0.0108584999999999,0.1093595,-0.3541395,0.0072994999999999,-0.1147005,-0.8317695,0.0704375,0.1458595,-0.8464095,0.0768555,1
62,-0.0095374999999999,0.725714,0.0244574999999999,-0.1758274999999999,0.5594939999999999,0.0427645,-0.2704175,0.7274039999999999,-0.0688075,0.1647325,0.543364,0.0252774999999999,0.2334525,0.731074,-0.0699975,-0.2838875,0.926404,-0.1588275,0.2411825,0.936984,-0.1406675,-0.0717135,-0.000152,0.0019254999999999,0.0717135,0.000152,-0.0019255,-0.0960485,-0.355686,0.0107134999999999,0.1092825,-0.354196,0.0072824999999999,-0.1143975,-0.8317060000000001,0.0705865,0.1461724999999999,-0.8464360000000001,0.0770585,1
63,-0.0090505,0.7256144999999999,0.0233659999999999,-0.1754045,0.5594444999999999,0.0421449999999999,-0.2700745,0.7272244999999999,-0.069525,0.1651355,0.5432745,0.0249089999999999,0.2340755,0.7305545,-0.071035,-0.2835145,0.9261345,-0.159805,0.2419655,0.9364345,-0.141745,-0.0717115,-0.0001194999999999,0.0019189999999999,0.0717115,0.0001195,-0.001919,-0.0962475,-0.3556955,0.0102759999999999,0.1091554999999999,-0.3542655,0.0072039999999999,-0.1141244999999999,-0.8316655000000001,0.070597,0.1464754999999999,-0.8464155000000001,0.077231,1
64,-0.0085484999999999,0.7255045,0.022364,-0.1749795,0.5593545,0.041586,-0.2697794999999999,0.7270544999999999,-0.070141,0.1657705,0.5430545,0.024572,0.2347405,0.7300445,-0.072021,-0.2831595,0.9258745,-0.160711,0.2427605,0.9358845,-0.142851,-0.0717265,-8.74999999999999e-05,0.0019159999999999,0.0717265,8.750000000000077e-05,-0.001916,-0.0965395,-0.3557155,0.0096709999999999,0.1089205,-0.3543755,0.0069299999999999,-0.1139095,-0.8317355,0.07058,0.1467705,-0.8463455,0.077486,1
65,-0.0079644999999999,0.7254635,0.0213409999999999,-0.1744615,0.5592035,0.0409969999999999,-0.2694615,0.7268135,-0.070877,0.1661685,0.5429035,0.0242419999999999,0.2355185,0.7295535,-0.073057,-0.2827715,0.9256135,-0.1614769999999999,0.2436385,0.9353435,-0.144057,-0.0717905,-7.449999999999991e-05,0.0018889999999999,0.0717905,7.449999999999991e-05,-0.001889,-0.0968725,-0.3557965,0.0086849999999999,0.1089285,-0.3544965,0.0063899999999999,-0.1136915,-0.8316965,0.070581,0.1471085,-0.8463565,0.0777289999999999,1
66,-0.0073385,0.725433,0.0204089999999999,-0.1739244999999999,0.5589930000000001,0.04023,-0.2690745,0.7265330000000001,-0.0716779999999999,0.1666555,0.5428430000000001,0.0240589999999999,0.2363555,0.729093,-0.074098,-0.2823845,0.925323,-0.162328,0.2446555,0.934753,-0.145498,-0.0719394999999999,-9.19999999999992e-05,0.0017789999999999,0.0719394999999999,9.200000000000008e-05,-0.001779,-0.0972855,-0.355967,0.0070869999999999,0.1090355,-0.354627,0.0055129999999999,-0.1135245,-0.831997,0.070736,0.1475355,-0.8463269999999999,0.078024,1
67,-0.0066445,0.7254185,0.019278,-0.1733215,0.5588285,0.039233,-0.2686314999999999,0.7262084999999999,-0.072772,0.1671385,0.5430284999999999,0.023931,0.2373084999999999,0.7287585,-0.075192,-0.2819315,0.9250285,-0.163382,0.2457285,0.9342485,-0.147202,-0.0721795,-0.0001085,0.001652,0.0721795,0.0001085,-0.001652,-0.0978055,-0.3561715,0.00494,0.1095285,-0.3548115,0.003903,-0.1132215,-0.8319815,0.070758,0.1479984999999999,-0.8460615,0.07835,1
68,-0.0060139999999999,0.7253425,0.0179254999999999,-0.1727759999999999,0.5587725,0.0381255,-0.2682259999999999,0.7258625000000001,-0.0741955,0.167564,0.5429925,0.0233815,0.238384,0.7279625000000001,-0.0767355,-0.2815259999999999,0.9245625,-0.1651155,0.247044,0.9331025,-0.1498555,-0.072481,-0.0001224999999999,0.0015344999999999,0.072481,0.0001225,-0.0015345,-0.0985159999999999,-0.3564275,0.0020264999999999,0.109954,-0.3550375,0.0017314999999999,-0.112986,-0.8321575,0.0705955,0.148394,-0.8456175,0.0783645,1
69,-0.0053919999999999,0.7248325,0.0161635,-0.172261,0.5587825000000001,0.0368625,-0.267911,0.7253525000000001,-0.0759415,0.167959,0.5430825,0.0228895,0.239529,0.7271325000000001,-0.0784815,-0.281261,0.9238725,-0.1673115,0.248289,0.9319325,-0.1527115,-0.072833,-7.949999999999971e-05,0.0014305,0.072833,7.949999999999971e-05,-0.0014305,-0.099211,-0.3566375,-0.0011584999999999,0.110369,-0.3553475,-0.0010314999999999,-0.112731,-0.8324075,0.0702885,0.148759,-0.8450075,0.0782665,1
70,-0.004674,0.7244940000000001,0.0139119999999999,-0.171708,0.5588040000000001,0.035119,-0.2675579999999999,0.724604,-0.0787269999999999,0.1679419999999999,0.542624,0.0212769999999999,0.2409319999999999,0.725504,-0.081247,-0.280978,0.922644,-0.171207,0.249632,0.929974,-0.156567,-0.073281,5.199999999999996e-05,0.001353,0.073281,-5.199999999999996e-05,-0.001353,-0.100058,-0.356786,-0.0054799999999999,0.110902,-0.355756,-0.0050349999999999,-0.1124179999999999,-0.831916,0.069283,0.1492419999999999,-0.8432759999999999,0.078137,1
71,-0.0038975,0.724148,0.0111764999999999,-0.1710665,0.558828,0.0329605,-0.2670464999999999,0.723608,-0.0821735,0.1678835,0.542088,0.0192635,0.2424635,0.723828,-0.0842735,-0.2805665,0.921118,-0.1759035,0.2509935,0.927868,-0.1609935,-0.0737275,0.0001629999999999,0.0013135,0.0737275,-0.0001629999999999,-0.0013135,-0.1010165,-0.356942,-0.0102635,0.1115835,-0.356162,-0.0095885,-0.1120865,-0.831222,0.0680834999999999,0.1497635,-0.841202,0.0776745,1
72,-0.003086,0.7237205,0.0080285,-0.170385,0.5584005,0.0304315,-0.266545,0.7222305,-0.0858395,0.1677249999999999,0.5417005,0.0170235,0.244025,0.7221204999999999,-0.0877594999999999,-0.280115,0.9191105,-0.1810395,0.252395,0.9257705,-0.1657695,-0.074207,0.0003374999999999,0.0012745,0.074207,-0.0003375,-0.0012744999999999,-0.102025,-0.3569795,-0.0153104999999999,0.112255,-0.3566195,-0.0145744999999999,-0.111765,-0.8301895,0.0669465,0.150245,-0.8387195000000001,0.0770965,1
73,-0.0022615,0.7234115,0.004614,-0.1696865,0.5580415000000001,0.027598,-0.2660865,0.7207915,-0.0901039999999999,0.1675134999999999,0.5410915000000001,0.014349,0.2455635,0.7201815,-0.091724,-0.2798265,0.9169315,-0.187004,0.2539234999999999,0.9232515,-0.171534,-0.0747255,0.0005205,0.001243,0.0747255,-0.0005205,-0.001243,-0.1029365,-0.3569985,-0.020968,0.1129734999999999,-0.3570485,-0.0198469999999999,-0.1114465,-0.8285585,0.065752,0.1508135,-0.8356585,0.075949,1
74,-0.0014984999999999,0.7231985,0.0009084999999999,-0.1688875,0.5575485,0.0243475,-0.2655875,0.7193285,-0.0945765,0.1674625,0.5403585,0.0113084999999999,0.2469525,0.7182285,-0.0958465,-0.2795275,0.9147385,-0.1931865,0.2555125,0.9206285,-0.1776465,-0.0752275,0.0007005,0.0012365,0.0752275,-0.0007004999999999,-0.0012365,-0.1038875,-0.3569415,-0.0266245,0.1137325,-0.3573815,-0.0251354999999999,-0.1110875,-0.8264215,0.0644115,0.1513825,-0.8318615,0.0746485,1
75,-0.0009174999999999,0.7222595,-0.003153,-0.1681274999999999,0.5566095,0.020793,-0.2651875,0.7174695,-0.099336,0.1672325,0.5394695,0.0079849999999999,0.2482625,0.7161495,-0.100166,-0.2793575,0.9122395,-0.199436,0.2569924999999999,0.9178295,-0.183996,-0.0756645,0.0009014999999999,0.001313,0.0756645,-0.0009014999999999,-0.001313,-0.1049374999999999,-0.3567605,-0.032055,0.1145025,-0.3576705,-0.030717,-0.1108774999999999,-0.8233305,0.063092,0.1518625,-0.8282205,0.0733719999999999,1
76,-0.0005285,0.721137,-0.007134,-0.1674165,0.555487,0.017138,-0.2650065,0.7154469999999999,-0.1041109999999999,0.1668234999999999,0.5383169999999999,0.004588,0.2493334999999999,0.713767,-0.1047009999999999,-0.2792765,0.909217,-0.206431,0.2581934999999999,0.914737,-0.1905609999999999,-0.0760295,0.0011099999999999,0.001299,0.0760295,-0.0011099999999999,-0.001299,-0.1059665,-0.356483,-0.037299,0.1153435,-0.357863,-0.036107,-0.1109065,-0.820183,0.061728,0.1522835,-0.8246330000000001,0.0720949999999999,1
77,-0.0001305,0.7202875000000001,-0.011312,-0.1667915,0.5544175,0.0132559999999999,-0.2647914999999999,0.7136075000000001,-0.1088519999999999,0.1663985,0.5373275,0.0012319999999999,0.2501085,0.7118675,-0.108912,-0.2791015,0.9065975,-0.212862,0.2589085,0.9122275,-0.196432,-0.0763685,0.0013174999999999,0.001291,0.0763685,-0.0013174999999999,-0.001291,-0.1070015,-0.3561125,-0.0423059999999999,0.1161085,-0.3579725,-0.0413899999999999,-0.1110115,-0.8161525,0.0603159999999999,0.1525785,-0.8200824999999999,0.071057,1
78,0.000244,0.719367,-0.0155935,-0.166156,0.553057,0.0090584999999999,-0.264476,0.711757,-0.1136125,0.1660539999999999,0.536617,-0.0021434999999999,0.250644,0.710077,-0.1133825,-0.278796,0.904007,-0.2192625,0.259374,0.909877,-0.2024425,-0.076716,0.001441,0.0013395,0.076716,-0.0014409999999999,-0.0013395,-0.107966,-0.355743,-0.0475475,0.116834,-0.357943,-0.0466735,-0.111046,-0.8119230000000001,0.0589495,0.1529039999999999,-0.815333,0.0698355,1
79,0.000507,0.7185115,-0.0195325,-0.165771,0.5520815,0.0054844999999999,-0.264471,0.7102715000000001,-0.1177835,0.165879,0.5357315,-0.0051705,0.250769,0.7085215,-0.1172535,-0.278701,0.9021215,-0.2243235,0.259499,0.9079115,-0.2074735,-0.076923,0.0015135,0.0015144999999999,0.076923,-0.0015135,-0.0015145,-0.108831,-0.3553084999999999,-0.0526395,0.117239,-0.3577685,-0.0515925,-0.111231,-0.8074385,0.0582844999999999,0.153049,-0.8106985,0.0686895,1
80,0.0005295,0.7171535,-0.0236335,-0.1655005,0.5508135000000001,0.0018354999999999,-0.2646605,0.7089335,-0.1215665,0.1656595,0.5349435,-0.0083565,0.2507895,0.7072235,-0.1212065,-0.2787405,0.9004035,-0.2289365,0.2595295,0.9063035,-0.2123165,-0.0770465,0.0016134999999999,0.0016764999999999,0.0770465,-0.0016134999999999,-0.0016765,-0.1097205,-0.3547565,-0.0580055,0.1176195,-0.3575165,-0.0567105,-0.1116005,-0.8024265,0.0574314999999999,0.1530795,-0.8056965,0.0673555,1
81,0.0004885,0.716036,-0.0273025,-0.1653315,0.549536,-0.0017134999999999,-0.2648414999999999,0.707596,-0.1253915,0.1654385,0.533956,-0.0116075,0.2507485,0.7060460000000001,-0.1248115,-0.2789315,0.8988560000000001,-0.2332415,0.2594885,0.904826,-0.2167915,-0.0771065,0.001578,0.0018554999999999,0.0771065,-0.001578,-0.0018555,-0.1104815,-0.354264,-0.0633115,0.1181285,-0.357014,-0.0621205,-0.1118214999999999,-0.797094,0.0566514999999999,0.1530385,-0.8005239999999999,0.0662664999999999,1
82,0.0003979999999999,0.7141985,-0.0311795,-0.165212,0.5484184999999999,-0.0050915,-0.2649419999999999,0.7061885,-0.1291515,0.165248,0.5335185,-0.0147355,0.250638,0.7052385,-0.1286515,-0.279012,0.8973285,-0.2373215,0.259378,0.9035985,-0.2217215,-0.077205,0.0014844999999999,0.0020314999999999,0.077205,-0.0014844999999999,-0.0020315,-0.111192,-0.3537415,-0.0683115,0.1186579999999999,-0.3563715,-0.0676715,-0.111942,-0.7916915,0.0557314999999999,0.152938,-0.7955515,0.0654495,1
83,0.000252,0.7125555,-0.0350155,-0.165152,0.5476655,-0.0083485,-0.265032,0.7048855,-0.1330135,0.165078,0.5329955000000001,-0.0181075,0.250428,0.7044355,-0.1327635,-0.2790819999999999,0.8958355,-0.2416335,0.2590679999999999,0.9026555,-0.2262635,-0.077303,0.0014374999999999,0.0022154999999999,0.077303,-0.0014374999999999,-0.0022155,-0.1116019999999999,-0.3531445,-0.0732735,0.119448,-0.3556545,-0.0735635,-0.112042,-0.7856445,0.0549184999999999,0.152908,-0.7902745,0.0648334999999999,1
84,-2.1000000000000185e-05,0.7113195,-0.038898,-0.165093,0.5473295,-0.011732,-0.265283,0.7039295,-0.136936,0.164887,0.5326895,-0.021568,0.250067,0.7038495,-0.137096,-0.279313,0.8943295,-0.246726,0.258547,0.9020495,-0.230756,-0.077389,0.0013724999999999,0.0024019999999999,0.077389,-0.0013724999999999,-0.002402,-0.111673,-0.3524805,-0.078246,0.120357,-0.3547905,-0.079446,-0.112133,-0.7793304999999999,0.053868,0.1528669999999999,-0.7841705,0.0641559999999999,1
85,-0.0002694999999999,0.7102815,-0.043472,-0.1651465,0.5470215,-0.0157139999999999,-0.2657365,0.7028614999999999,-0.141558,0.1646935,0.5321915,-0.025906,0.2495435,0.7030514999999999,-0.142168,-0.2797865,0.8931515,-0.251638,0.2577335,0.9013415,-0.235778,-0.0774255,0.0013034999999999,0.002718,0.0774255,-0.0013034999999999,-0.0027179999999999,-0.1118565,-0.3517985,-0.0836679999999999,0.1212335,-0.3538584999999999,-0.0857479999999999,-0.1123365,-0.7725385,0.052418,0.1526135,-0.7774585,0.063018,1
86,-0.0005525,0.7089095000000001,-0.048403,-0.1652755,0.5460095,-0.019634,-0.2664055,0.7009895,-0.146324,0.1644045,0.5320895,-0.030194,0.2489245,0.7025595,-0.147454,-0.2808755,0.8904495,-0.257924,0.2567844999999999,0.9006995000000001,-0.2415739999999999,-0.0774094999999999,0.0012905,0.0028639999999999,0.0774094999999999,-0.0012905,-0.002864,-0.1121355,-0.3510405,-0.088894,0.1219345,-0.3528505,-0.092184,-0.1123455,-0.7658904999999999,0.051024,0.1522745,-0.7707004999999999,0.0615199999999999,1
87,-0.0010484999999999,0.7078949999999999,-0.0539129999999999,-0.1654185,0.5446150000000001,-0.023991,-0.2673485,0.698515,-0.151637,0.1639815,0.530845,-0.035741,0.2481715,0.7013750000000001,-0.153417,-0.2818985,0.8872850000000001,-0.264497,0.2554714999999999,0.8993249999999999,-0.248097,-0.0774205,0.001305,0.0028639999999999,0.0774205,-0.001305,-0.0028639999999999,-0.1124785,-0.350145,-0.094457,0.1222415,-0.351795,-0.098687,-0.1124185,-0.7582949999999999,0.049126,0.1517615,-0.763255,0.060043,1
88,-0.0020525,0.705945,-0.0607439999999999,-0.1660175,0.542505,-0.0289389999999999,-0.2687575,0.694605,-0.158092,0.1629225,0.530165,-0.0418299999999999,0.2471525,0.700195,-0.160882,-0.2831074999999999,0.882565,-0.272482,0.2537925,0.897595,-0.2569619999999999,-0.0774625,0.001125,0.002864,0.0774625,-0.001125,-0.0028639999999999,-0.1129775,-0.349155,-0.099572,0.1219125,-0.350415,-0.104952,-0.1126175,-0.749515,0.047017,0.1506525,-0.754565,0.058552,1
89,-0.0030825,0.704055,-0.0681685,-0.1665725,0.540355,-0.0343524999999999,-0.2700225,0.6900850000000001,-0.1654285,0.1619475,0.528975,-0.0482515,0.2461074999999999,0.697755,-0.1697085,-0.2842925,0.8765850000000001,-0.2823385,0.2521075,0.893875,-0.2685885,-0.0775165,0.001025,0.0030545,0.0775165,-0.0010249999999999,-0.0030545,-0.1133225,-0.348055,-0.1043485,0.1211575,-0.349085,-0.1108784999999999,-0.1128225,-0.7403649999999999,0.0449095,0.1494375,-0.745535,0.0571944999999999,1
90,-0.004044,0.701435,-0.0770525,-0.167125,0.538355,-0.0401015,-0.271105,0.684915,-0.1741225,0.160795,0.527825,-0.0552455,0.244745,0.694735,-0.1798024999999999,-0.285275,0.869885,-0.2937425,0.250585,0.889735,-0.2812525,-0.077662,0.000945,0.0033064999999999,0.077662,-0.000945,-0.0033065,-0.113655,-0.346755,-0.1086525,0.120065,-0.347695,-0.1160725,-0.113055,-0.7306549999999999,0.0425824999999999,0.147835,-0.735955,0.0554785,1
91,-0.00489,0.6989449999999999,-0.0871645,-0.167409,0.5355449999999999,-0.0471744999999999,-0.272259,0.6786449999999999,-0.1842145,0.159721,0.526795,-0.0628945,0.243381,0.690305,-0.1919445,-0.286219,0.861245,-0.3076844999999999,0.2491509999999999,0.8838649999999999,-0.2962845,-0.077786,0.000865,0.0035195,0.077786,-0.000865,-0.0035195,-0.1138889999999999,-0.344845,-0.1131745,0.118981,-0.346225,-0.1212045,-0.1131689999999999,-0.7206250000000001,0.0397045,0.146111,-0.725665,0.0532965,1
92,-0.0050904999999999,0.6954750000000001,-0.0985979999999999,-0.1671385,0.531895,-0.055326,-0.2729485,0.671695,-0.195318,0.1590115,0.526535,-0.070718,0.2425014999999999,0.685055,-0.205428,-0.2868485,0.850825,-0.323928,0.2482315,0.877015,-0.313078,-0.0783575,0.0005749999999999,0.0038879999999999,0.0783575,-0.0005749999999999,-0.003888,-0.1135485,-0.339145,-0.118128,0.1182615,-0.341545,-0.126518,-0.1128985,-0.7104349999999999,0.036384,0.1447615,-0.7150949999999999,0.0504069999999999,1
93,-0.0055215,0.692345,-0.111438,-0.1670395,0.528755,-0.06439,-0.2739494999999999,0.664455,-0.208218,0.1576805,0.521685,-0.081098,0.2415105,0.6774450000000001,-0.2194279999999999,-0.2877694999999999,0.8410549999999999,-0.340698,0.2471005,0.867205,-0.3312779999999999,-0.0787025,0.0005949999999999,0.0042409999999999,0.0787025,-0.000595,-0.004241,-0.1134795,-0.331435,-0.123738,0.1172205,-0.334945,-0.132418,-0.1131095,-0.6988749999999999,0.032238,0.1430405,-0.7033849999999999,0.046382,1
94,-0.005856,0.6883349999999999,-0.130759,-0.166724,0.5253749999999999,-0.079249,-0.2749439999999999,0.656075,-0.227049,0.156296,0.518375,-0.096759,0.2405459999999999,0.669825,-0.240009,-0.2883239999999999,0.828985,-0.364969,0.2460959999999999,0.856585,-0.357249,-0.079071,0.000785,0.0044359999999999,0.079071,-0.000785,-0.004436,-0.1134739999999999,-0.321835,-0.134429,0.115816,-0.326195,-0.143449,-0.113464,-0.685775,0.0227199999999999,0.141186,-0.690335,0.03678,1
95,-0.0056774999999999,0.6856949999999999,-0.1504415,-0.1655475,0.521675,-0.0947315,-0.2744474999999999,0.648995,-0.2459515,0.1550625,0.514855,-0.1126215,0.2398725,0.661595,-0.2611515,-0.2881174999999999,0.8181550000000001,-0.3885515,0.2452925,0.8448950000000001,-0.3841215,-0.0799604999999999,0.0008849999999999,0.0044824999999999,0.0799604999999999,-0.0008849999999999,-0.0044825,-0.1131375,-0.3098149999999999,-0.1455015,0.1138325,-0.314805,-0.1543215,-0.1138375,-0.670445,0.0129974999999999,0.1395925,-0.6753049999999999,0.0271365,1
96,-0.005315,0.681075,-0.1701065,-0.1644709999999999,0.518965,-0.1099265,-0.273471,0.641355,-0.2658165,0.1538089999999999,0.5129349999999999,-0.1277065,0.239159,0.653115,-0.2827465,-0.287311,0.805715,-0.4142865,0.244549,0.8320749999999999,-0.4124065,-0.080754,0.0007649999999999,0.0045455,0.080754,-0.000765,-0.0045455,-0.113041,-0.297535,-0.1561365,0.111769,-0.302755,-0.1648365,-0.114151,-0.6552849999999999,0.0034395,0.137929,-0.660355,0.0172115,1
97,-0.0050655,0.67673,-0.1884664999999999,-0.1633715,0.51542,-0.1248165,-0.2725415,0.63398,-0.2845265,0.1523785,0.51193,-0.1415165,0.2385185,0.6444,-0.3023165,-0.2864915,0.7935699999999999,-0.4387365,0.2438685,0.8186500000000001,-0.4393065,-0.0810915,0.00064,0.0040765,0.0810915,-0.00064,-0.0040764999999999,-0.1131915,-0.2846599999999999,-0.1664765,0.1094385,-0.29018,-0.1746865,-0.1147115,-0.6411500000000001,-0.0060494999999999,0.1361085,-0.64649,0.0073235,1
98,-0.0051215,0.673625,-0.2058365,-0.1625865,0.513525,-0.1392364999999999,-0.2718665,0.627445,-0.3028865,0.1506935,0.507625,-0.1546364999999999,0.2375735,0.634915,-0.3205064999999999,-0.2854665,0.782135,-0.4625265,0.2428635,0.805015,-0.4632065,-0.0815174999999999,0.001085,0.0034735,0.0815174999999999,-0.001085,-0.0034735,-0.1135065,-0.270715,-0.1768465,0.1068234999999999,-0.275195,-0.1839565,-0.1154965,-0.625545,-0.0153335,0.1340935,-0.630995,-0.0023725,1
99,-0.0045965,0.67052,-0.2224934999999999,-0.1610985,0.51212,-0.1538635,-0.2706785,0.62171,-0.3202635,0.1494815,0.50286,-0.1675735,0.2375815,0.62578,-0.3375535,-0.2841985,0.77135,-0.4852435,0.2423815,0.79092,-0.4862535,-0.0813985,0.00134,0.0029705,0.0813985,-0.00134,-0.0029705,-0.1131885,-0.25693,-0.1874835,0.1048215,-0.26012,-0.1937035,-0.1157985,-0.60979,-0.0250685,0.1328515,-0.61509,-0.0122215,1
100,-0.0035885,0.6673899999999999,-0.2388995,-0.1590295,0.50909,-0.1683095,-0.2688395,0.6156999999999999,-0.3372295,0.1486704999999999,0.4981599999999999,-0.1809095,0.2381105,0.61633,-0.3534595,-0.2827894999999999,0.7611699999999999,-0.5064995,0.2423604999999999,0.77745,-0.5070295,-0.0814575,0.00139,0.0023474999999999,0.0814575,-0.00139,-0.0023475,-0.1124695,-0.24288,-0.1985495,0.1032405,-0.24561,-0.2039495,-0.1158195,-0.5939099999999999,-0.0353055,0.1321105,-0.5991200000000001,-0.0225595,1
101,-0.0030109999999999,0.664335,-0.2548295,-0.157255,0.508005,-0.1824595,-0.267105,0.610255,-0.3538194999999999,0.147815,0.493405,-0.1946095,0.238685,0.608275,-0.3689095,-0.281495,0.752595,-0.5262395,0.242145,0.765385,-0.5272495,-0.081506,0.001545,0.0014735,0.081506,-0.001545,-0.0014734999999999,-0.1115249999999999,-0.2287249999999999,-0.2100495,0.101865,-0.2311349999999999,-0.2145595,-0.1159449999999999,-0.5780150000000001,-0.0461814999999999,0.131295,-0.583245,-0.0335314999999999,1
102,-0.0021799999999999,0.661585,-0.270659,-0.155304,0.505295,-0.196989,-0.2652239999999999,0.605275,-0.3702689999999999,0.147536,0.491655,-0.207359,0.239386,0.602255,-0.385069,-0.2803839999999999,0.7435849999999999,-0.546599,0.242176,0.756105,-0.547869,-0.081407,0.0016249999999999,0.000447,0.081407,-0.0016249999999999,-0.000447,-0.110134,-0.213655,-0.222389,0.100676,-0.2159849999999999,-0.225849,-0.115924,-0.562345,-0.058123,0.130606,-0.567695,-0.045583,1
103,-0.0012515,0.658435,-0.280352,-0.1534005,0.502245,-0.205772,-0.2632905,0.600865,-0.380722,0.1474195,0.488795,-0.214942,0.2400795,0.596245,-0.394852,-0.2794805,0.736415,-0.5596019999999999,0.2424595,0.7475849999999999,-0.560712,-0.0813065,0.001435,-0.000487,0.0813065,-0.001435,0.000487,-0.1085805,-0.200155,-0.2295319999999999,0.0998294999999999,-0.2017349999999999,-0.231552,-0.1157505,-0.548435,-0.065163,0.1301695,-0.553785,-0.05279,1
104,-0.000294,0.65406,-0.2892625,-0.152112,0.49951,-0.2137425,-0.262182,0.59528,-0.3906725,0.147318,0.48635,-0.2223525,0.241048,0.58975,-0.4036424999999999,-0.279002,0.7285200000000001,-0.5717625000000001,0.242978,0.73943,-0.5717525,-0.08136,0.0009799999999999,-0.0012355,0.08136,-0.0009799999999999,0.0012355,-0.107187,-0.18894,-0.2369325,0.099618,-0.1899499999999999,-0.2376225,-0.115562,-0.5369,-0.0723935,0.129738,-0.54233,-0.0600445,1
105,0.0004105,0.65008,-0.2980454999999999,-0.1509795,0.49578,-0.2220555,-0.2614995,0.59012,-0.3998155,0.1472505,0.4813499999999999,-0.2303055,0.2423904999999999,0.5831999999999999,-0.4118954999999999,-0.2789195,0.72192,-0.5819455,0.2436704999999999,0.73144,-0.5811055,-0.0813155,0.0009299999999999,-0.0020654999999999,0.0813155,-0.0009299999999999,0.0020654999999999,-0.1059644999999999,-0.17718,-0.2448755,0.0992105,-0.1781899999999999,-0.2440855,-0.1156195,-0.52539,-0.0801755,0.1292405,-0.53088,-0.0677425,1
106,0.000987,0.646415,-0.3057075,-0.150131,0.492715,-0.2296675,-0.260691,0.585745,-0.4079975,0.147089,0.476105,-0.2379275,0.2437389999999999,0.577205,-0.4200775,-0.279001,0.715945,-0.5914575,0.244309,0.7249749999999999,-0.5894775000000001,-0.081342,0.000865,-0.0024894999999999,0.081342,-0.000865,0.0024895,-0.104897,-0.1659749999999999,-0.2524875,0.098649,-0.1669849999999999,-0.2500875,-0.115851,-0.514465,-0.0876294999999999,0.128709,-0.520045,-0.0748834999999999,1
107,0.001988,0.641745,-0.3140325,-0.149121,0.487375,-0.2377925,-0.259511,0.580745,-0.4162725,0.147239,0.473805,-0.2459425,0.244959,0.572905,-0.4281925,-0.278611,0.710215,-0.6002825,0.245109,0.720305,-0.5979125000000001,-0.081231,0.0002149999999999,-0.0028075,0.081231,-0.000215,0.0028075,-0.103684,-0.159235,-0.2600025,0.098279,-0.1589549999999999,-0.2556525,-0.115911,-0.504985,-0.0956715,0.128419,-0.510715,-0.0825255,1
108,0.0035435,0.63695,-0.3218365,-0.1475695,0.481668,-0.2455965,-0.2577995,0.57484,-0.4242065,0.1480205,0.471432,-0.2535665,0.2469705,0.56803,-0.4359965,-0.2775795,0.704,-0.6087865,0.2464405,0.71582,-0.6062265,-0.0808105,-0.0001399999999999,-0.0032935,0.0808105,0.00014,0.0032935,-0.1025305,-0.1530699999999999,-0.2668465,0.0985105,-0.1520599999999999,-0.2607365,-0.1154095,-0.4966399999999999,-0.1033405,0.1287305,-0.5024799999999999,-0.0897485,1
109,0.005074,0.63115,-0.32944,-0.146282,0.477982,-0.25303,-0.256282,0.56993,-0.43182,0.148948,0.468554,-0.26083,0.248398,0.56406,-0.44292,-0.276462,0.69838,-0.61701,0.248008,0.7113,-0.6141,-0.080926,-0.0003399999999999,-0.00361,0.080926,0.00034,0.00361,-0.1016349999999999,-0.1472799999999999,-0.27307,0.098758,-0.1456499999999999,-0.26553,-0.114912,-0.4889799999999999,-0.1106839999999999,0.129018,-0.4948599999999999,-0.0967659999999999,1
110,0.0063125,0.626165,-0.33638,-0.1450255,0.472974,-0.25944,-0.2550155,0.564775,-0.43913,0.1496645,0.463125,-0.26667,0.2493945,0.5581849999999999,-0.44954,-0.2752655,0.6918150000000001,-0.6250600000000001,0.2492145,0.704765,-0.62221,-0.0809435,-0.000275,-0.00388,0.0809435,0.0002749999999999,0.0038799999999999,-0.1015715,-0.1417049999999999,-0.27814,0.0986545,-0.139765,-0.26971,-0.1148154999999999,-0.4820149999999999,-0.11748,0.1289645,-0.487925,-0.103279,1
111,0.0076344999999999,0.6192,-0.343415,-0.1435685,0.468224,-0.2649749999999999,-0.2536585,0.55759,-0.446105,0.1505615,0.458921,-0.271745,0.2504415,0.55082,-0.456295,-0.2735885,0.68295,-0.632735,0.2511215,0.69496,-0.630085,-0.0809315,-0.0002699999999999,-0.0040049999999999,0.0809315,0.0002699999999999,0.004005,-0.1015295,-0.13621,-0.282285,0.0985615,-0.1341999999999999,-0.273265,-0.1146885,-0.47559,-0.123975,0.1289115,-0.48132,-0.109916,1
112,0.0088695,0.61278,-0.348965,-0.1420205,0.4638069999999999,-0.270095,-0.2520505,0.5506599999999999,-0.453195,0.1514595,0.454061,-0.276165,0.2514495,0.54313,-0.462005,-0.2719205,0.67362,-0.640565,0.2529695,0.685,-0.637445,-0.0809145,-0.0001599999999999,-0.004165,0.0809145,0.0001599999999999,0.0041649999999999,-0.1015075,-0.13077,-0.285855,0.0984995,-0.12829,-0.276565,-0.1145704999999999,-0.46943,-0.130141,0.1287595,-0.47497,-0.115802,1
113,0.010178,0.606025,-0.354315,-0.140225,0.459852,-0.275105,-0.2503849999999999,0.5435650000000001,-0.459845,0.152675,0.447924,-0.280165,0.252225,0.534945,-0.467695,-0.269915,0.663895,-0.648795,0.255075,0.674375,-0.645065,-0.081126,0.0002449999999999,-0.004305,0.081126,-0.0002449999999999,0.004305,-0.101204,-0.1255349999999999,-0.289005,0.098735,-0.1228249999999999,-0.279675,-0.114245,-0.463825,-0.136225,0.128885,-0.469145,-0.12165,1
114,0.011554,0.600905,-0.358515,-0.138772,0.456439,-0.279775,-0.248882,0.5364949999999999,-0.465505,0.153498,0.44355,-0.283795,0.253018,0.526775,-0.473375,-0.2680519999999999,0.653995,-0.6565749999999999,0.256828,0.663995,-0.6524749999999999,-0.08147,0.0004649999999999,-0.0044249999999999,0.08147,-0.000465,0.004425,-0.1012479999999999,-0.120925,-0.291655,0.098688,-0.118125,-0.282385,-0.114162,-0.458945,-0.141771,0.128828,-0.464115,-0.127052,1
115,0.0132629999999999,0.595675,-0.36277,-0.137292,0.453465,-0.28464,-0.247502,0.5288649999999999,-0.47136,0.154358,0.438612,-0.28755,0.253848,0.518437,-0.47873,-0.265972,0.643585,-0.66523,0.259008,0.652145,-0.6595199999999999,-0.081742,0.0008449999999999,-0.00456,0.081742,-0.000845,0.00456,-0.101166,-0.116545,-0.2945,0.098668,-0.113765,-0.28488,-0.114032,-0.454665,-0.147374,0.128718,-0.459635,-0.132528,1
116,0.0149064999999999,0.590115,-0.3661649999999999,-0.1357795,0.4514039999999999,-0.2899349999999999,-0.2460095,0.521508,-0.4770649999999999,0.1551805,0.433498,-0.290995,0.2545404999999999,0.509802,-0.483695,-0.2637294999999999,0.6325449999999999,-0.6733149999999999,0.2613005,0.6400049999999999,-0.665905,-0.0821065,0.0012249999999999,-0.0046749999999999,0.0821065,-0.001225,0.004675,-0.1008425,-0.113105,-0.2971049999999999,0.0987504999999999,-0.110325,-0.286815,-0.1137695,-0.451225,-0.152882,0.1287005,-0.4560349999999999,-0.1378609999999999,1
117,0.016502,0.58391,-0.3702,-0.1337519999999999,0.446694,-0.29518,-0.243722,0.51401,-0.48345,0.156088,0.429101,-0.29478,0.255358,0.502136,-0.48913,-0.261182,0.62141,-0.68171,0.263498,0.62941,-0.6724399999999999,-0.082456,0.00145,-0.00467,0.082456,-0.00145,0.0046699999999999,-0.1004569999999999,-0.1095499999999999,-0.30006,0.098878,-0.1067699999999999,-0.28943,-0.113462,-0.4476699999999999,-0.158977,0.128718,-0.45224,-0.143738,1
118,0.0180499999999999,0.57924,-0.3743499999999999,-0.131686,0.44218,-0.30013,-0.241276,0.506725,-0.48948,0.157004,0.424255,-0.29806,0.256034,0.494782,-0.49411,-0.258586,0.61121,-0.68942,0.265084,0.6207,-0.67848,-0.082797,0.00179,-0.0047099999999999,0.082797,-0.00179,0.0047099999999999,-0.100149,-0.1063399999999999,-0.3026,0.0991539999999999,-0.1035599999999999,-0.29146,-0.113186,-0.44442,-0.164641,0.128794,-0.4487,-0.149272,1
119,0.0195149999999999,0.574365,-0.379135,-0.130046,0.437664,-0.304525,-0.239166,0.499792,-0.495405,0.157744,0.421263,-0.301375,0.256834,0.488878,-0.498565,-0.255546,0.602445,-0.6959850000000001,0.265974,0.6141449999999999,-0.684265,-0.083066,0.0019649999999999,-0.004645,0.083066,-0.0019649999999999,0.0046449999999999,-0.100035,-0.1035449999999999,-0.304805,0.099414,-0.1008349999999999,-0.293145,-0.113006,-0.441815,-0.169772,0.128764,-0.445785,-0.154154,1
120,0.0208159999999999,0.5710999999999999,-0.382725,-0.128874,0.434024,-0.307455,-0.237174,0.494594,-0.4993249999999999,0.1582859999999999,0.418371,-0.303405,0.257516,0.484698,-0.501065,-0.252764,0.5965,-0.6999850000000001,0.265906,0.61176,-0.688285,-0.083274,0.0019899999999999,-0.0045749999999999,0.083274,-0.0019899999999999,0.004575,-0.100098,-0.10222,-0.306115,0.0997359999999999,-0.09927,-0.293715,-0.112904,-0.44056,-0.173256,0.128686,-0.4441599999999999,-0.1572599999999999,1
121,0.0223225,0.56836,-0.38639,-0.1274124999999999,0.43026,-0.31025,-0.2352125,0.4897019999999999,-0.50295,0.1588375,0.415561,-0.30532,0.2581975,0.481167,-0.50309,-0.2494724999999999,0.59218,-0.70365,0.2659775,0.61014,-0.69045,-0.0833265,0.0020499999999999,-0.00448,0.0833265,-0.0020499999999999,0.00448,-0.1000385,-0.10127,-0.30737,0.1002275,-0.09808,-0.29445,-0.1126725,-0.43966,-0.176392,0.1287475,-0.44293,-0.160587,1
122,0.0241715,0.5659700000000001,-0.38969,-0.1258775,0.426641,-0.31261,-0.2331575,0.485486,-0.50607,0.1593925,0.413561,-0.30725,0.2590825,0.479177,-0.50468,-0.2454875,0.5898000000000001,-0.7069399999999999,0.2661425,0.61112,-0.6924399999999999,-0.0833484999999999,0.00221,-0.0043799999999999,0.0833484999999999,-0.0022099999999999,0.0043799999999999,-0.0998075,-0.1002899999999999,-0.30873,0.1008425,-0.09682,-0.29517,-0.1123575,-0.4386399999999999,-0.179207,0.1289225,-0.4416,-0.163548,1
123,0.025646,0.564325,-0.39565,-0.12442,0.422486,-0.31481,-0.23112,0.481873,-0.50898,0.15989,0.410969,-0.3086,0.25951,0.478145,-0.50547,-0.24108,0.588605,-0.70987,0.26592,0.612125,-0.69158,-0.083431,0.002365,-0.00414,0.083431,-0.002365,0.00414,-0.0990149999999999,-0.099285,-0.31015,0.10131,-0.095625,-0.29612,-0.1120799999999999,-0.437455,-0.181994,0.12902,-0.440275,-0.166398,1
124,0.0268244999999999,0.560655,-0.404265,-0.1229265,0.418244,-0.320385,-0.2290865,0.478846,-0.515395,0.1604335,0.407907,-0.313065,0.2600335,0.477411,-0.509315,-0.2358865,0.589715,-0.715535,0.2651334999999999,0.613235,-0.6933549999999999,-0.0834864999999999,0.0025149999999999,-0.0035149999999999,0.0834864999999999,-0.0025149999999999,0.003515,-0.0979464999999999,-0.0982349999999999,-0.315225,0.1017935,-0.0944549999999999,-0.3010649999999999,-0.1118665,-0.436165,-0.1882529999999999,0.1292135,-0.438845,-0.1726909999999999,1
125,0.026922,0.556455,-0.41266,-0.12145,0.412874,-0.32584,-0.22719,0.4755439999999999,-0.52083,0.16088,0.405317,-0.31752,0.26065,0.476935,-0.51281,-0.22982,0.590695,-0.71889,0.26245,0.614385,-0.69293,-0.083531,0.0025649999999999,-0.0030699999999999,0.083531,-0.0025649999999999,0.00307,-0.096884,-0.0972549999999999,-0.32041,0.10216,-0.0934749999999999,-0.30639,-0.11168,-0.4349849999999999,-0.194246,0.1293699999999999,-0.437385,-0.178682,1
126,0.0271044999999999,0.553515,-0.41859,-0.1204915,0.409682,-0.33083,-0.2259515,0.47306,-0.52564,0.1611685,0.402196,-0.32098,0.2611585,0.47617,-0.51515,-0.2230815,0.591065,-0.72001,0.2586485,0.616945,-0.6899,-0.0835005,0.0026849999999999,-0.00268,0.0835005,-0.0026849999999999,0.0026799999999999,-0.0958415,-0.096745,-0.3251,0.1026185,-0.0929249999999999,-0.31084,-0.1114614999999999,-0.4342649999999999,-0.199203,0.1295784999999999,-0.436375,-0.18347,1
127,0.027198,0.549775,-0.425125,-0.119685,0.406234,-0.335615,-0.2249149999999999,0.470427,-0.530455,0.161355,0.398943,-0.324485,0.261775,0.475607,-0.5170250000000001,-0.215005,0.591195,-0.718585,0.252995,0.621325,-0.685385,-0.083355,0.0027649999999999,-0.0023549999999999,0.083355,-0.002765,0.0023549999999999,-0.094931,-0.096325,-0.329885,0.102965,-0.0923749999999999,-0.315575,-0.1112549999999999,-0.433645,-0.204047,0.129765,-0.435405,-0.187915,1
128,0.0269965,0.546062,-0.43206,-0.1188434999999999,0.402537,-0.34021,-0.2239135,0.46753,-0.53506,0.1615165,0.395746,-0.32754,0.2624765,0.475216,-0.51866,-0.2072335,0.591315,-0.71697,0.2456865,0.627055,-0.67868,-0.0832074999999999,0.002875,-0.00225,0.0832074999999999,-0.0028749999999999,0.00225,-0.0942125,-0.0957749999999999,-0.33449,0.1033365,-0.091685,-0.3201,-0.1110535,-0.432945,-0.208652,0.1299365,-0.434295,-0.192211,1
129,0.02762,0.542052,-0.44091,-0.118596,0.398842,-0.34503,-0.223076,0.464331,-0.54002,0.161554,0.392555,-0.33096,0.2629539999999999,0.474845,-0.52054,-0.1988859999999999,0.592005,-0.71502,0.237864,0.632105,-0.67185,-0.083184,0.002915,-0.00203,0.083184,-0.002915,0.00203,-0.093702,-0.095245,-0.33914,0.103474,-0.0910649999999999,-0.32466,-0.111016,-0.432235,-0.213292,0.129974,-0.433245,-0.19657,1
130,0.0273055,0.537913,-0.449105,-0.1186055,0.395679,-0.349525,-0.2231055,0.460995,-0.544525,0.1615045,0.389559,-0.334435,0.2634245,0.474393,-0.522325,-0.1901055,0.59292,-0.7128650000000001,0.2297845,0.63639,-0.665295,-0.0831725,0.0029299999999999,-0.002015,0.0831725,-0.0029299999999999,0.0020149999999999,-0.0933674999999999,-0.09457,-0.343545,0.1035345,-0.0905599999999999,-0.329035,-0.1110454999999999,-0.43132,-0.217663,0.1299345,-0.4320199999999999,-0.200777,1
131,0.0265745,0.5340940000000001,-0.45623,-0.1187765,0.392266,-0.3539299999999999,-0.2232765,0.45643,-0.5495,0.1611535,0.386785,-0.3374899999999999,0.2632435,0.474062,-0.52389,-0.1819764999999999,0.593955,-0.7117,0.2217835,0.637425,-0.65916,-0.0832465,0.0026349999999999,-0.0019299999999999,0.0832465,-0.0026349999999999,0.00193,-0.0932335,-0.093925,-0.3480499999999999,0.1034635,-0.090245,-0.33335,-0.1112165,-0.4304449999999999,-0.2220049999999999,0.1297734999999999,-0.4306649999999999,-0.204916,1
132,0.0254425,0.530758,-0.4628649999999999,-0.1191595,0.387764,-0.358425,-0.2236495,0.451627,-0.554405,0.1603405,0.38487,-0.340765,0.2628405,0.4738219999999999,-0.525895,-0.1747095,0.595255,-0.713015,0.2140505,0.638725,-0.655195,-0.0831235,0.002085,-0.001945,0.0831235,-0.002085,0.001945,-0.0934195,-0.093005,-0.3524049999999999,0.1032705,-0.089735,-0.337525,-0.1115595,-0.429325,-0.22612,0.1293905,-0.429035,-0.208829,1
133,0.022114,0.528956,-0.4653699999999999,-0.119794,0.3839829999999999,-0.35949,-0.224224,0.445465,-0.55613,0.159406,0.383857,-0.34085,0.262386,0.4741519999999999,-0.52491,-0.168534,0.594715,-0.7116899999999999,0.206876,0.640605,-0.64896,-0.082944,0.0012749999999999,-0.0021899999999999,0.082944,-0.001275,0.00219,-0.093814,-0.091535,-0.3533,0.103076,-0.088665,-0.33834,-0.112024,-0.427525,-0.2268049999999999,0.128936,-0.4267849999999999,-0.2093819999999999,1
134,0.0186494999999999,0.527868,-0.46731,-0.1197874999999999,0.382113,-0.36053,-0.2247575,0.440062,-0.5578000000000001,0.1570625,0.38257,-0.34138,0.2626925,0.473441,-0.52542,-0.1640275,0.593435,-0.71155,0.2014325,0.642355,-0.6466000000000001,-0.0826975,0.001075,-0.0022599999999999,0.0826975,-0.0010749999999999,0.00226,-0.0940765,-0.089415,-0.35395,0.1030524999999999,-0.0868149999999999,-0.33899,-0.1123075,-0.4249849999999999,-0.227312,0.1286125,-0.4240549999999999,-0.209867,1
135,0.013937,0.524149,-0.468905,-0.120514,0.3814789999999999,-0.362005,-0.225694,0.4344989999999999,-0.559795,0.154476,0.3790409999999999,-0.341505,0.261766,0.471788,-0.523765,-0.1605339999999999,0.5892949999999999,-0.712035,0.197296,0.642605,-0.644875,-0.082408,0.0009849999999999,-0.0023249999999999,0.082408,-0.000985,0.0023249999999999,-0.094363,-0.0877149999999999,-0.354615,0.103056,-0.085355,-0.339585,-0.112644,-0.422865,-0.227833,0.128226,-0.421755,-0.210304,1
136,0.008614,0.522115,-0.47062,-0.121573,0.381977,-0.36362,-0.227093,0.429707,-0.56206,0.151577,0.375972,-0.34176,0.2601569999999999,0.470268,-0.52262,-0.159113,0.5850500000000001,-0.71258,0.194317,0.64275,-0.64493,-0.082237,0.00089,-0.0022699999999999,0.082237,-0.00089,0.0022699999999999,-0.094871,-0.08543,-0.3553,0.102867,-0.0831299999999999,-0.34019,-0.113243,-0.41996,-0.228381,0.127627,-0.4187799999999999,-0.210783,1
137,0.0030249999999999,0.52043,-0.472245,-0.1229089999999999,0.3846819999999999,-0.365195,-0.228839,0.4250649999999999,-0.564715,0.148341,0.371963,-0.342115,0.258091,0.4685499999999999,-0.521995,-0.158409,0.580155,-0.713145,0.193191,0.641535,-0.645495,-0.082044,0.0009849999999999,-0.002165,0.082044,-0.000985,0.002165,-0.095651,-0.083295,-0.355925,0.102551,-0.0810349999999999,-0.340755,-0.113969,-0.417195,-0.228926,0.1269209999999999,-0.415975,-0.211258,1
138,-0.0023405,0.518934,-0.473915,-0.1256345,0.387197,-0.367815,-0.2314045,0.420682,-0.5687450000000001,0.1453255,0.367946,-0.342705,0.2558655,0.465553,-0.5217350000000001,-0.1588745,0.5750500000000001,-0.714865,0.1924954999999999,0.638,-0.6461749999999999,-0.0818395,0.00119,-0.001865,0.0818395,-0.0011899999999999,0.001865,-0.0964975,-0.08135,-0.356605,0.1023355,-0.07909,-0.341435,-0.1146544999999999,-0.4146799999999999,-0.229542,0.1261654999999999,-0.4133,-0.211884,1
139,-0.007307,0.518092,-0.475185,-0.128529,0.389717,-0.370385,-0.234079,0.416865,-0.572505,0.142511,0.36466,-0.343435,0.253831,0.462553,-0.5217849999999999,-0.159439,0.56928,-0.719095,0.191851,0.6338,-0.6466350000000001,-0.0816409999999999,0.00156,-0.001605,0.0816409999999999,-0.00156,0.0016049999999999,-0.097355,-0.07942,-0.357065,0.102211,-0.0770699999999999,-0.341895,-0.115289,-0.4121,-0.229993,0.125451,-0.41064,-0.212345,1
140,-0.0118544999999999,0.516913,-0.476105,-0.1342545,0.392472,-0.379645,-0.2370845,0.414135,-0.576705,0.1399255,0.361075,-0.344045,0.2518255,0.4588629999999999,-0.522075,-0.1599245,0.5641849999999999,-0.723815,0.1913555,0.6283449999999999,-0.649105,-0.0813615,0.0021549999999999,-0.001305,0.0813615,-0.002155,0.001305,-0.0980854999999999,-0.0778849999999999,-0.357365,0.1020555,-0.075295,-0.342175,-0.1157945,-0.410005,-0.230258,0.1247455,-0.408495,-0.212646,1
141,-0.0156859999999999,0.515374,-0.4766049999999999,-0.1396119999999999,0.394727,-0.3883749999999999,-0.239112,0.412061,-0.580395,0.137818,0.35701,-0.344545,0.250458,0.454475,-0.522405,-0.159402,0.55964,-0.728995,0.191218,0.62244,-0.652045,-0.081204,0.00323,-0.0012349999999999,0.081204,-0.00323,0.001235,-0.098271,-0.07715,-0.357315,0.101978,-0.0743499999999999,-0.3421249999999999,-0.1159419999999999,-0.4086599999999999,-0.2301669999999999,0.124378,-0.40725,-0.2126969999999999,1
142,-0.0177925,0.514155,-0.47639,-0.1444855,0.3972819999999999,-0.39671,-0.2401855,0.413273,-0.58368,0.1359645,0.35253,-0.34393,0.2486644999999999,0.450768,-0.52173,-0.1591755,0.5585249999999999,-0.73424,0.1915645,0.61734,-0.65517,-0.0813065,0.00373,-0.0013199999999999,0.0813065,-0.00373,0.00132,-0.0983765,-0.0760599999999999,-0.35677,0.1018744999999999,-0.0729799999999999,-0.3418,-0.1160455,-0.40689,-0.229765,0.1240645,-0.40559,-0.212474,1
143,-0.0197795,0.512473,-0.476205,-0.1492265,0.3994729999999999,-0.404965,-0.2405265,0.413968,-0.586865,0.1357335,0.348905,-0.343505,0.2469334999999999,0.448044,-0.521605,-0.1591465,0.558825,-0.738865,0.1926035,0.614655,-0.658805,-0.0813065,0.003925,-0.0012949999999999,0.0813065,-0.003925,0.0012949999999999,-0.0983795,-0.075915,-0.3560649999999999,0.1018734999999999,-0.072635,-0.341465,-0.1160265,-0.405895,-0.229395,0.1238535,-0.404895,-0.212244,1
144,-0.020573,0.513898,-0.475615,-0.15378,0.40376,-0.412635,-0.24051,0.414608,-0.590035,0.13573,0.347535,-0.342365,0.24613,0.445531,-0.520765,-0.15914,0.559465,-0.741585,0.19385,0.611775,-0.6613249999999999,-0.0813069999999999,0.003995,-0.0011649999999999,0.0813069999999999,-0.0039949999999999,0.0011649999999999,-0.098387,-0.0757249999999999,-0.354765,0.1018699999999999,-0.0724049999999999,-0.340705,-0.1159699999999999,-0.4049549999999999,-0.228633,0.12362,-0.404265,-0.211535,1
145,-0.0197995,0.516463,-0.470195,-0.1578015,0.410445,-0.416735,-0.2401315,0.417653,-0.5898650000000001,0.1360785,0.34914,-0.337555,0.2459684999999999,0.445913,-0.516155,-0.1582915,0.56251,-0.740585,0.1956284999999999,0.61132,-0.660245,-0.0812114999999999,0.00478,-0.000605,0.0812114999999999,-0.00478,0.0006049999999999,-0.0979545,-0.0730199999999999,-0.349925,0.1022085,-0.06971,-0.336345,-0.1155515,-0.4017,-0.224365,0.1237585,-0.40138,-0.207199,1
146,-0.0185644999999999,0.516278,-0.47024,-0.1621905,0.413665,-0.4256,-0.2400205,0.4193,-0.5955,0.1362295,0.349305,-0.33849,0.2463795,0.4436259999999999,-0.51755,-0.1577605,0.562325,-0.74355,0.1972995,0.608105,-0.66265,-0.0810154999999999,0.0049649999999999,-0.0001099999999999,0.0810154999999999,-0.0049649999999999,0.0001099999999999,-0.0979255,-0.073485,-0.34989,0.1019994999999999,-0.070265,-0.33672,-0.1155905,-0.401785,-0.224826,0.1234095,-0.4017349999999999,-0.20758,1
147,-0.0173895,0.515883,-0.470875,-0.1653275,0.41593,-0.433515,-0.2396474999999999,0.42157,-0.600435,0.1360425,0.34891,-0.339385,0.2460524999999999,0.443231,-0.518825,-0.1575675,0.5645100000000001,-0.745225,0.1987025,0.60771,-0.663945,-0.0807515,0.0050499999999999,0.000365,0.0807515,-0.0050499999999999,-0.000365,-0.0979295,-0.0740899999999999,-0.349925,0.1016825,-0.0709399999999999,-0.337135,-0.1157875,-0.40202,-0.225327,0.1230324999999999,-0.40229,-0.20806,1
148,-0.017534,0.515748,-0.47153,-0.168144,0.417636,-0.44065,-0.238954,0.424155,-0.6049,0.136186,0.34801,-0.34002,0.245776,0.442331,-0.51937,-0.156404,0.567185,-0.74574,0.200016,0.6068100000000001,-0.6641900000000001,-0.080312,0.0053199999999999,0.0007699999999999,0.080312,-0.0053199999999999,-0.0007699999999999,-0.0977099999999999,-0.0751,-0.3494,0.101516,-0.07214,-0.3369499999999999,-0.115754,-0.40284,-0.22524,0.122806,-0.40336,-0.207893,1
149,-0.017794,0.514514,-0.47216,-0.168348,0.416042,-0.44077,-0.238638,0.426871,-0.60827,0.1364719999999999,0.346415,-0.3400499999999999,0.245412,0.440736,-0.51919,-0.154818,0.570463,-0.74577,0.2008819999999999,0.6052150000000001,-0.66433,-0.079855,0.006155,0.00123,0.079855,-0.0061549999999999,-0.0012299999999999,-0.097605,-0.076735,-0.3488,0.101182,-0.0740149999999999,-0.3367,-0.115848,-0.404435,-0.2251439999999999,0.122442,-0.4051549999999999,-0.207641,1
150,-0.0182565,0.513287,-0.47223,-0.1684255,0.414468,-0.44054,-0.2367854999999999,0.429798,-0.61137,0.1369645,0.34545,-0.3399999999999999,0.2452844999999999,0.439242,-0.5190699999999999,-0.1530455,0.5740700000000001,-0.7454400000000001,0.2018845,0.6041300000000001,-0.6641600000000001,-0.0794265,0.00678,0.00142,0.0794265,-0.0067799999999999,-0.00142,-0.0972585,-0.07833,-0.34789,0.1010945,-0.0757799999999999,-0.33607,-0.1157355,-0.40603,-0.224645,0.1223045,-0.4069999999999999,-0.207171,1
151,-0.0184235,0.511429,-0.47231,-0.1685475,0.412528,-0.44026,-0.2347975,0.433102,-0.61469,0.1373625,0.3443299999999999,-0.34013,0.2451525,0.4382189999999999,-0.51881,-0.1510375,0.57752,-0.74515,0.2028625,0.6035699999999999,-0.66395,-0.0789475,0.00711,0.00154,0.0789475,-0.00711,-0.0015399999999999,-0.0969275,-0.08027,-0.34707,0.1009724999999999,-0.0777299999999999,-0.33553,-0.1157575,-0.40803,-0.224266,0.1221425,-0.40919,-0.206749,1
152,-0.0182335,0.509585,-0.4722699999999999,-0.1686095,0.410622,-0.44001,-0.2325595,0.4369599999999999,-0.61807,0.1376805,0.3432349999999999,-0.33991,0.2447005,0.437701,-0.5186299999999999,-0.1491295,0.581305,-0.7447900000000001,0.2036705,0.603575,-0.66377,-0.0784614999999999,0.0072949999999999,0.00164,0.0784614999999999,-0.0072949999999999,-0.0016399999999999,-0.0966285,-0.082125,-0.34643,0.1009005,-0.079615,-0.3351699999999999,-0.1158194999999999,-0.409985,-0.2239729999999999,0.1219505,-0.411315,-0.206503,1
153,-0.0180609999999999,0.507765,-0.4726599999999999,-0.168564,0.40876,-0.43976,-0.230824,0.440581,-0.6209899999999999,0.138146,0.342455,-0.33986,0.244486,0.438251,-0.5184599999999999,-0.147734,0.584995,-0.744,0.204456,0.604405,-0.6635899999999999,-0.078064,0.007425,0.00174,0.078064,-0.007425,-0.0017399999999999,-0.0963459999999999,-0.083845,-0.34596,0.100946,-0.081435,-0.3348879999999999,-0.115764,-0.4118549999999999,-0.2236469999999999,0.121886,-0.413275,-0.206279,1
154,-0.0178505,0.506035,-0.473275,-0.1684995,0.406895,-0.439585,-0.2293994999999999,0.443836,-0.623515,0.1386405,0.3409649999999999,-0.339295,0.2441505,0.4387729999999999,-0.518065,-0.1468195,0.588275,-0.742985,0.2051505,0.605205,-0.663175,-0.0777394999999999,0.0076049999999999,0.001895,0.0777394999999999,-0.007605,-0.0018949999999999,-0.0960625,-0.085395,-0.345605,0.1010705,-0.083165,-0.3346699999999999,-0.1156395,-0.413655,-0.223346,0.1219005,-0.415155,-0.2060929999999999,1
155,-0.017799,0.504282,-0.474215,-0.168562,0.4050499999999999,-0.439595,-0.228762,0.4452819999999999,-0.625065,0.139038,0.3386099999999999,-0.338575,0.243718,0.438812,-0.517585,-0.146672,0.59016,-0.741865,0.2054579999999999,0.60569,-0.661975,-0.077449,0.0077999999999999,0.0021449999999999,0.077449,-0.0078,-0.002145,-0.095905,-0.08691,-0.345425,0.101118,-0.08488,-0.33468,-0.115612,-0.4155500000000001,-0.223232,0.1218379999999999,-0.417,-0.206124,1
156,-0.018608,0.502893,-0.475525,-0.169182,0.403581,-0.439825,-0.229252,0.446494,-0.626145,0.138708,0.33786,-0.3386249999999999,0.2429879999999999,0.440454,-0.517215,-0.147172,0.59162,-0.740405,0.2051879999999999,0.60773,-0.660875,-0.077245,0.00775,0.002465,0.077245,-0.0077499999999999,-0.0024649999999999,-0.096293,-0.08809,-0.3455749999999999,0.100768,-0.0860099999999999,-0.334929,-0.116132,-0.41698,-0.223328,0.121248,-0.4183899999999999,-0.206423,1
157,-0.019036,0.49826,-0.481715,-0.169739,0.398936,-0.444015,-0.229679,0.44405,-0.630585,0.138401,0.334735,-0.343315,0.2426009999999999,0.43915,-0.5210049999999999,-0.147609,0.5890150000000001,-0.7428349999999999,0.204981,0.607075,-0.664255,-0.076731,0.007505,0.0028849999999999,0.076731,-0.0075049999999999,-0.0028849999999999,-0.096608,-0.0925349999999999,-0.349605,0.1004809999999999,-0.0904049999999999,-0.339038,-0.116619,-0.421725,-0.227286,0.120711,-0.4230349999999999,-0.210534,1
158,-0.0191399999999999,0.498129,-0.483155,-0.169949,0.3987409999999999,-0.444095,-0.2297489999999999,0.4456599999999999,-0.630745,0.1383309999999999,0.3359299999999999,-0.343925,0.242811,0.4417939999999999,-0.520755,-0.147689,0.58972,-0.741905,0.205111,0.61047,-0.663305,-0.076762,0.0076299999999999,0.0028849999999999,0.076762,-0.00763,-0.0028849999999999,-0.096564,-0.09254,-0.349605,0.100541,-0.09039,-0.339038,-0.116739,-0.42202,-0.2271099999999999,0.120541,-0.4232100000000001,-0.210551,1
159,-0.0196539999999999,0.498276,-0.484225,-0.170358,0.398566,-0.444215,-0.230178,0.446899,-0.630755,0.1380819999999999,0.336335,-0.344195,0.242562,0.4433519999999999,-0.520095,-0.1482279999999999,0.5903149999999999,-0.7413049999999999,0.204842,0.611875,-0.6630050000000001,-0.076762,0.0077949999999999,0.0028849999999999,0.076762,-0.0077949999999999,-0.0028849999999999,-0.096699,-0.0925849999999999,-0.349605,0.100402,-0.090405,-0.339082,-0.117048,-0.422325,-0.227079,0.120192,-0.423385,-0.210662,1
160,-0.0209215,0.499287,-0.48593,-0.1708885,0.398472,-0.4443399999999999,-0.2310785,0.447539,-0.63076,0.1377914999999999,0.33614,-0.3442,0.2422614999999999,0.444324,-0.51945,-0.1494285,0.59075,-0.74117,0.2043114999999999,0.6125700000000001,-0.66258,-0.0767825,0.00796,0.00289,0.0767825,-0.0079599999999999,-0.00289,-0.0968634999999999,-0.0926599999999999,-0.34961,0.1002015,-0.09048,-0.3393,-0.1173885,-0.42259,-0.227084,0.1197915,-0.42357,-0.211062,1
161,-0.0235464999999999,0.50086,-0.48783,-0.1708305,0.3982169999999999,-0.44394,-0.2319005,0.4477879999999999,-0.63014,0.1378095,0.33596,-0.3435,0.2417095,0.4452679999999999,-0.518,-0.1505905,0.59092,-0.74054,0.2041195,0.61318,-0.66152,-0.0767425,0.0081399999999999,0.0030499999999999,0.0767425,-0.00814,-0.00305,-0.0966995,-0.0926799999999999,-0.34908,0.1002395,-0.0904599999999999,-0.33898,-0.1173605,-0.4228700000000001,-0.226407,0.1197495,-0.42371,-0.210681,1
162,-0.025722,0.502649,-0.48965,-0.170728,0.397947,-0.44373,-0.233378,0.44801,-0.6289899999999999,0.137602,0.335735,-0.34283,0.241222,0.445938,-0.51674,-0.1524879999999999,0.591275,-0.7401200000000001,0.204002,0.613725,-0.66058,-0.076638,0.008305,0.00309,0.076638,-0.008305,-0.00309,-0.096504,-0.092755,-0.34886,0.1003419999999999,-0.0904749999999999,-0.33896,-0.117268,-0.423135,-0.226002,0.119782,-0.423825,-0.210371,1
163,-0.0279025,0.5044109999999999,-0.491315,-0.1707064999999999,0.397622,-0.443385,-0.2352365,0.4483689999999999,-0.6271249999999999,0.1372034999999999,0.3361499999999999,-0.342575,0.2404235,0.4461779999999999,-0.515725,-0.1545365,0.59154,-0.739615,0.2039535,0.61392,-0.6595850000000001,-0.0765835,0.00844,0.0031549999999999,0.0765835,-0.00844,-0.003155,-0.0963715,-0.09288,-0.348565,0.1003735,-0.0906199999999999,-0.338845,-0.1172765,-0.42346,-0.225555,0.1197635,-0.4240300000000001,-0.209951,1
164,-0.0299964999999999,0.506134,-0.492955,-0.1659055,0.397526,-0.444495,-0.2372555,0.448764,-0.625115,0.1366845,0.3363299999999999,-0.342205,0.2400445,0.4462549999999999,-0.5151249999999999,-0.1572855,0.59212,-0.739035,0.2037945,0.61396,-0.659035,-0.0764275,0.0087299999999999,0.0032949999999999,0.0764275,-0.00873,-0.0032949999999999,-0.0962555,-0.09316,-0.348205,0.1003845,-0.0908999999999999,-0.338605,-0.1172655,-0.42384,-0.225019,0.1196845,-0.4242600000000001,-0.209418,1
165,-0.0327235,0.508224,-0.4956,-0.1593135,0.3971679999999999,-0.44599,-0.2397435,0.4491059999999999,-0.62304,0.1358365,0.3359399999999999,-0.3417,0.2396265,0.445926,-0.51454,-0.1604934999999999,0.5924699999999999,-0.7386900000000001,0.2032565,0.61354,-0.65847,-0.0762495,0.0090699999999999,0.0034999999999999,0.0762495,-0.00907,-0.0035,-0.0963985,-0.0936299999999999,-0.34793,0.1000965,-0.09145,-0.33839,-0.1175035,-0.4244800000000001,-0.224463,0.1193565,-0.4248,-0.208996,1
166,-0.035877,0.510895,-0.499365,-0.1512949999999999,0.3966879999999999,-0.4481549999999999,-0.242405,0.4498689999999999,-0.6210450000000001,0.134895,0.33536,-0.341295,0.238535,0.4464049999999999,-0.514115,-0.163565,0.5925,-0.738785,0.202395,0.6141399999999999,-0.658045,-0.076079,0.0093599999999999,0.0035349999999999,0.076079,-0.00936,-0.003535,-0.096455,-0.09419,-0.347965,0.099835,-0.09218,-0.338335,-0.117615,-0.4253,-0.224054,0.119215,-0.42552,-0.208667,1
167,-0.039914,0.513851,-0.50297,-0.142986,0.395549,-0.45044,-0.2449559999999999,0.4504519999999999,-0.6190599999999999,0.133894,0.33796,-0.34235,0.237704,0.448621,-0.51473,-0.166616,0.59281,-0.7395700000000001,0.201424,0.61636,-0.65893,-0.075903,0.0093699999999999,0.00334,0.075903,-0.00937,-0.00334,-0.096415,-0.09548,-0.34803,0.0995939999999999,-0.09366,-0.3383,-0.117616,-0.42674,-0.223878,0.119164,-0.42693,-0.208463,1
168,-0.0437425,0.516488,-0.5065500000000001,-0.1345885,0.3942369999999999,-0.4529499999999999,-0.2473785,0.4509979999999999,-0.6171,0.1329515,0.3399649999999999,-0.34336,0.2365515,0.4509069999999999,-0.51528,-0.1697385,0.593115,-0.7408299999999999,0.2002615,0.618155,-0.66003,-0.0757154999999999,0.0093849999999999,0.00307,0.0757154999999999,-0.009385,-0.0030699999999999,-0.0964385,-0.096935,-0.3481599999999999,0.0991914999999999,-0.095165,-0.33843,-0.1176484999999999,-0.428555,-0.2238409999999999,0.1190915,-0.428435,-0.2084249999999999,1
169,-0.0466165,0.516725,-0.5094799999999999,-0.1258635,0.391358,-0.45365,-0.2472435,0.449859,-0.61534,0.1322765,0.3411499999999999,-0.34489,0.2352165,0.452733,-0.51633,-0.1732334999999999,0.59299,-0.7407900000000001,0.1992665,0.61947,-0.6615599999999999,-0.0754995,0.00928,0.00303,0.0754995,-0.00928,-0.0030299999999999,-0.0962575,-0.09963,-0.34851,0.0989365,-0.0977299999999999,-0.33859,-0.1174635,-0.43167,-0.223929,0.1192365,-0.43132,-0.2085709999999999,1
170,-0.046821,0.51324,-0.509485,-0.122858,0.387733,-0.453635,-0.247808,0.44912,-0.613285,0.131652,0.342035,-0.345005,0.233842,0.454208,-0.516705,-0.177058,0.592195,-0.740815,0.198092,0.620475,-0.662335,-0.075704,0.009095,0.003025,0.075704,-0.0090949999999999,-0.003025,-0.096391,-0.102715,-0.348775,0.0982819999999999,-0.1005549999999999,-0.338815,-0.117598,-0.4351549999999999,-0.224047,0.1190719999999999,-0.434635,-0.20881,1
171,-0.046799,0.510059,-0.509555,-0.119306,0.384557,-0.453685,-0.249826,0.448395,-0.611625,0.131414,0.342375,-0.3455649999999999,0.232674,0.455469,-0.517295,-0.180536,0.59124,-0.742445,0.196924,0.62132,-0.662995,-0.075775,0.0089,0.002955,0.075775,-0.0088999999999999,-0.0029549999999999,-0.096309,-0.10599,-0.3490649999999999,0.097894,-0.1033999999999999,-0.339205,-0.117556,-0.4388999999999999,-0.2241299999999999,0.119154,-0.43814,-0.209107,1
172,-0.046667,0.508624,-0.510285,-0.115669,0.380811,-0.453345,-0.251529,0.447188,-0.607675,0.131471,0.342124,-0.344825,0.231911,0.456235,-0.516495,-0.183999,0.59043,-0.743565,0.196141,0.6217600000000001,-0.662615,-0.075765,0.00872,0.002755,0.075765,-0.0087199999999999,-0.002755,-0.096138,-0.1097199999999999,-0.348955,0.0976409999999999,-0.1065899999999999,-0.339185,-0.117429,-0.4431499999999999,-0.223815,0.119341,-0.44231,-0.208787,1
173,-0.0461235,0.507301,-0.510935,-0.1154285,0.376625,-0.4474249999999999,-0.2528685,0.445688,-0.603645,0.1316415,0.342576,-0.343955,0.2312314999999999,0.457598,-0.515515,-0.1878085,0.589965,-0.744635,0.1956615,0.622825,-0.6618850000000001,-0.0756035,0.007855,0.002505,0.0756035,-0.007855,-0.002505,-0.0959235,-0.1136149999999999,-0.348955,0.0975315,-0.1099849999999999,-0.339365,-0.1172585,-0.447785,-0.223505,0.1196515,-0.446795,-0.208519,1
174,-0.044997,0.5055419999999999,-0.511275,-0.1149419999999999,0.378953,-0.441145,-0.253392,0.44652,-0.599735,0.132158,0.345001,-0.343125,0.231128,0.4600349999999999,-0.514525,-0.191132,0.5904499999999999,-0.7455450000000001,0.1959179999999999,0.62539,-0.6610750000000001,-0.075409,0.0073799999999999,0.0023449999999999,0.075409,-0.0073799999999999,-0.002345,-0.0954049999999999,-0.11789,-0.348815,0.097808,-0.1135399999999999,-0.339605,-0.116742,-0.45278,-0.222947,0.1204079999999999,-0.4516799999999999,-0.208156,1
175,-0.043671,0.50862,-0.5113399999999999,-0.114541,0.38161,-0.43471,-0.254161,0.448004,-0.59536,0.132599,0.346949,-0.3441599999999999,0.231569,0.461782,-0.5152399999999999,-0.194691,0.59228,-0.74648,0.196309,0.62661,-0.66216,-0.07577,0.00705,0.00221,0.07577,-0.00705,-0.0022099999999999,-0.094973,-0.1221399999999999,-0.34853,0.0980689999999999,-0.1169399999999999,-0.33986,-0.116401,-0.4576499999999999,-0.222299,0.121129,-0.45644,-0.2077419999999999,1
176,-0.04214,0.512302,-0.510065,-0.1157459999999999,0.386351,-0.425965,-0.254596,0.450724,-0.5902350000000001,0.133284,0.346496,-0.344765,0.232834,0.46257,-0.515625,-0.198106,0.594565,-0.745725,0.196904,0.626895,-0.6628350000000001,-0.07636,0.0070149999999999,0.0019349999999999,0.07636,-0.0070149999999999,-0.001935,-0.094386,-0.125695,-0.347685,0.098554,-0.119765,-0.339565,-0.115936,-0.461875,-0.221126,0.122044,-0.4606249999999999,-0.206839,1
177,-0.0401339999999999,0.516625,-0.507605,-0.1193569999999999,0.3927609999999999,-0.4159549999999999,-0.254617,0.4560619999999999,-0.5841449999999999,0.133793,0.346419,-0.344715,0.234213,0.4637759999999999,-0.515505,-0.201597,0.599335,-0.743835,0.197263,0.627895,-0.662765,-0.077037,0.0072349999999999,0.001655,0.077037,-0.007235,-0.0016549999999999,-0.0941509999999999,-0.129185,-0.346425,0.0989029999999999,-0.122825,-0.338615,-0.115697,-0.466175,-0.219281,0.122723,-0.464835,-0.205308,1
178,-0.0380005,0.522215,-0.4978,-0.1248025,0.400328,-0.39863,-0.2547425,0.462844,-0.57101,0.1344075,0.356296,-0.33848,0.2361275,0.471068,-0.50845,-0.2049725,0.6051150000000001,-0.73456,0.1972875,0.634795,-0.6556,-0.0772755,0.006415,0.0004599999999999,0.0772755,-0.006415,-0.0004599999999999,-0.0945015,-0.132175,-0.3386099999999999,0.0988075,-0.1256949999999999,-0.33117,-0.1159525,-0.4703249999999999,-0.210616,0.1230275,-0.468965,-0.19702,1
179,-0.034698,0.529335,-0.48798,-0.129691,0.4085249999999999,-0.38093,-0.254671,0.47042,-0.55755,0.135049,0.366103,-0.33143,0.237199,0.479439,-0.50048,-0.208761,0.612425,-0.72492,0.198099,0.642745,-0.64771,-0.077507,0.0056249999999999,-0.0005699999999999,0.077507,-0.0056249999999999,0.00057,-0.095201,-0.1349149999999999,-0.33145,0.098529,-0.128485,-0.32428,-0.116451,-0.474535,-0.202203,0.1231589999999999,-0.473085,-0.189069,1
180,-0.0315469999999999,0.539275,-0.477975,-0.135137,0.416287,-0.362975,-0.255627,0.479167,-0.5447850000000001,0.135573,0.376498,-0.324555,0.238113,0.489422,-0.493655,-0.211757,0.620905,-0.713815,0.198853,0.6530750000000001,-0.639925,-0.077936,0.004655,-0.001555,0.077936,-0.004655,0.001555,-0.096164,-0.137965,-0.324225,0.098093,-0.131775,-0.317275,-0.117147,-0.479145,-0.193789,0.1231229999999999,-0.477935,-0.181052,1
181,-0.0283829999999999,0.551465,-0.46702,-0.1410759999999999,0.423681,-0.3461,-0.256666,0.48887,-0.53259,0.135884,0.387536,-0.31702,0.240274,0.500365,-0.48546,-0.214886,0.630065,-0.70086,0.199654,0.664065,-0.63039,-0.078694,0.003365,-0.0024,0.078694,-0.003365,0.0023999999999999,-0.0974979999999999,-0.140845,-0.31585,0.097544,-0.135375,-0.30917,-0.1181459999999999,-0.484305,-0.184505,0.122744,-0.483085,-0.172167,1
182,-0.027657,0.565255,-0.45557,-0.142246,0.4306169999999999,-0.33416,-0.2580759999999999,0.498815,-0.5193300000000001,0.136464,0.405121,-0.30923,0.243914,0.515355,-0.47652,-0.217026,0.638165,-0.68668,0.200254,0.6790849999999999,-0.61861,-0.0791169999999999,0.001985,-0.0032399999999999,0.0791169999999999,-0.001985,0.0032399999999999,-0.099027,-0.144935,-0.30589,0.0969039999999999,-0.140125,-0.29955,-0.119346,-0.490695,-0.174226,0.1221239999999999,-0.489475,-0.1622019999999999,1
183,-0.0268755,0.5785399999999999,-0.44237,-0.1432755,0.4380549999999999,-0.32054,-0.2591255,0.50834,-0.50424,0.1372345,0.4191169999999999,-0.29981,0.2470844999999999,0.5279099999999999,-0.46408,-0.2193355,0.64964,-0.67108,0.2016045,0.6923699999999999,-0.60535,-0.0794435,0.0012499999999999,-0.00398,0.0794435,-0.00125,0.0039799999999999,-0.1003705,-0.15115,-0.29405,0.0965545,-0.14762,-0.28769,-0.1203755,-0.5002800000000001,-0.162404,0.1216045,-0.49909,-0.150597,1
184,-0.026249,0.5884050000000001,-0.4293949999999999,-0.144595,0.444889,-0.307155,-0.260885,0.518735,-0.489515,0.1380449999999999,0.432245,-0.290775,0.250925,0.541635,-0.452945,-0.2214249999999999,0.661285,-0.657025,0.203035,0.706315,-0.592455,-0.079457,0.000385,-0.004805,0.079457,-0.0003849999999999,0.004805,-0.101708,-0.1572249999999999,-0.282595,0.096485,-0.155015,-0.276235,-0.121265,-0.510455,-0.151077,0.1211449999999999,-0.509435,-0.139608,1
185,-0.0271775,0.59822,-0.41807,-0.1457435,0.451445,-0.29583,-0.2622735,0.52835,-0.47819,0.1390564999999999,0.4476439999999999,-0.28335,0.2547265,0.55572,-0.44156,-0.2236135,0.6726099999999999,-0.64488,0.2043465,0.7218,-0.58007,-0.0793065,-0.00074,-0.0054599999999999,0.0793065,0.0007399999999999,0.0054599999999999,-0.1031605,-0.16491,-0.27127,0.0964665,-0.16466,-0.26491,-0.1223435,-0.52359,-0.139994,0.1205265,-0.52266,-0.128757,1
186,-0.028074,0.609935,-0.404955,-0.147024,0.455785,-0.281795,-0.263084,0.537215,-0.461865,0.140136,0.460985,-0.274575,0.258436,0.570325,-0.428805,-0.225814,0.684375,-0.626555,0.206076,0.738265,-0.565515,-0.079026,-0.0018449999999999,-0.006065,0.079026,0.001845,0.0060649999999999,-0.104531,-0.1738349999999999,-0.258435,0.096826,-0.1763549999999999,-0.252575,-0.123394,-0.539575,-0.128227,0.1199059999999999,-0.538905,-0.117224,1
187,-0.0278585,0.61917,-0.3962799999999999,-0.1488425,0.46235,-0.2743299999999999,-0.2645825,0.54664,-0.4510999999999999,0.1404375,0.46897,-0.26957,0.2595075,0.5805100000000001,-0.42254,-0.2280725,0.6962,-0.61405,0.2073275,0.7507600000000001,-0.55775,-0.0784795,-0.0022499999999999,-0.00558,0.0784795,0.00225,0.00558,-0.1061895,-0.1843,-0.25139,0.0969575,-0.1897599999999999,-0.2462599999999999,-0.1248725,-0.55696,-0.123127,0.1187975,-0.55757,-0.112051,1
188,-0.0281975,0.6254649999999999,-0.382995,-0.1509414999999999,0.467805,-0.266495,-0.2657115,0.5573349999999999,-0.440255,0.1404285,0.4764049999999999,-0.263525,0.2594085,0.591145,-0.416175,-0.2307314999999999,0.7086049999999999,-0.601005,0.2073185,0.763965,-0.548535,-0.0777035,-0.0025749999999999,-0.0050549999999999,0.0777035,0.0025749999999999,0.005055,-0.1080855,-0.194165,-0.243215,0.0967685,-0.203975,-0.239005,-0.1267615,-0.573825,-0.117558,0.1172885,-0.577365,-0.106524,1
189,-0.0284605,0.627085,-0.36754,-0.1525525,0.473165,-0.25883,-0.2672825,0.566795,-0.42924,0.1405475,0.482525,-0.25701,0.2585675,0.6003050000000001,-0.40966,-0.2334725,0.722145,-0.58569,0.2072274999999999,0.775315,-0.5377000000000001,-0.0765075,-0.0024749999999999,-0.00485,0.0765075,0.002475,0.0048499999999999,-0.1097985,-0.2049249999999999,-0.2337,0.0970075,-0.2175049999999999,-0.23019,-0.1286425,-0.5914849999999999,-0.1115,0.1158575,-0.5972149999999999,-0.100518,1
190,-0.0285635,0.6275299999999999,-0.3505399999999999,-0.1538175,0.48175,-0.25087,-0.2680175,0.5786,-0.41817,0.1411725,0.49155,-0.2505699999999999,0.2571624999999999,0.61222,-0.39924,-0.2360975,0.73751,-0.57139,0.2058425,0.78986,-0.52334,-0.0755945,-0.00226,-0.0045899999999999,0.0755945,0.0022599999999999,0.00459,-0.1111625,-0.21545,-0.22338,0.0974225,-0.23116,-0.22091,-0.1302375,-0.60833,-0.105262,0.1147325,-0.6167900000000001,-0.094676,1
191,-0.0287505,0.6263799999999999,-0.33267,-0.1552915,0.48992,-0.24151,-0.2680715,0.59049,-0.40585,0.1412385,0.4917199999999999,-0.24392,0.2555385,0.61952,-0.38737,-0.2387115,0.75405,-0.5556,0.2044085,0.80031,-0.5064500000000001,-0.0746425,-0.00136,-0.00421,0.0746425,0.00136,0.0042099999999999,-0.1125725,-0.22375,-0.21168,0.0978185,-0.24259,-0.21018,-0.1318915,-0.62305,-0.098623,0.1136084999999999,-0.63424,-0.088641,1
192,-0.029382,0.627295,-0.3149435,-0.156499,0.491145,-0.2337435,-0.267509,0.601325,-0.3931335,0.141841,0.494795,-0.2370235,0.2543709999999999,0.629455,-0.3754635,-0.240869,0.7676350000000001,-0.5388735,0.203221,0.812335,-0.4897335,-0.073972,-0.001565,-0.0038364999999999,0.073972,0.001565,0.0038365,-0.113727,-0.2292249999999999,-0.2009355,0.098351,-0.249725,-0.2000215,-0.133289,-0.633855,-0.0933785,0.112751,-0.6468849999999999,-0.0837084999999999,1
193,-0.02992,0.62558,-0.296244,-0.157444,0.49173,-0.226044,-0.267164,0.60999,-0.378964,0.142616,0.49738,-0.229754,0.250756,0.63927,-0.361484,-0.240994,0.77958,-0.520934,0.200526,0.82574,-0.469374,-0.07319,-0.0018299999999999,-0.002957,0.07319,0.0018299999999999,0.002957,-0.114454,-0.2360999999999999,-0.1895939999999999,0.098946,-0.25778,-0.18922,-0.134464,-0.64518,-0.08771,0.1121959999999999,-0.65985,-0.078083,1
194,-0.0304645,0.62237,-0.2781835,-0.1587215,0.48993,-0.2213635,-0.2678615,0.61755,-0.3672235,0.1430685,0.4959599999999999,-0.2224635,0.2445184999999999,0.64703,-0.3470835,-0.2406715,0.791,-0.5019935,0.1982084999999999,0.83644,-0.4497835,-0.0725685,-0.00162,-0.0023125,0.0725685,0.0016199999999999,0.0023124999999999,-0.1149085,-0.24271,-0.1788005,0.0995085,-0.26478,-0.1787885,-0.1354515,-0.65484,-0.0823895,0.1117884999999999,-0.67127,-0.0729405,1
195,-0.031104,0.6167549999999999,-0.261349,-0.1598569999999999,0.488155,-0.215769,-0.266377,0.623625,-0.354529,0.143403,0.495845,-0.216149,0.238033,0.6537850000000001,-0.333559,-0.241197,0.800195,-0.484249,0.195043,0.8461050000000001,-0.4311089999999999,-0.072253,-0.001645,-0.001447,0.072253,0.001645,0.0014469999999999,-0.115253,-0.248665,-0.169525,0.0999129999999999,-0.270455,-0.169603,-0.136397,-0.662215,-0.077883,0.111563,-0.6803650000000001,-0.068815,1
196,-0.0313915,0.612685,-0.2446269999999999,-0.1604705,0.483755,-0.210367,-0.2619605,0.630355,-0.341147,0.1439495,0.4921149999999999,-0.209737,0.2336194999999999,0.6593450000000001,-0.320317,-0.2413305,0.811235,-0.465517,0.1951595,0.854525,-0.411707,-0.0720955,-0.001335,-0.000599,0.0720955,0.001335,0.000599,-0.1152205,-0.252735,-0.160414,0.1004495,-0.274215,-0.160522,-0.1369405,-0.667435,-0.073269,0.1116794999999999,-0.686465,-0.064771,1
197,-0.031614,0.60998,-0.2319554999999999,-0.160928,0.47994,-0.2053055,-0.257588,0.63517,-0.3286455,0.144882,0.48872,-0.2035255,0.230852,0.66381,-0.3071855,-0.241968,0.82067,-0.4464255,0.195052,0.86176,-0.3928455,-0.072259,-0.0010999999999999,0.0001234999999999,0.072259,0.0011,-0.0001234999999999,-0.115135,-0.25759,-0.1518825,0.100962,-0.27704,-0.1517305,-0.137448,-0.67313,-0.0687995,0.1120319999999999,-0.69121,-0.0606955,1
198,-0.032409,0.612425,-0.2205785,-0.16147,0.4768449999999999,-0.2006585,-0.25355,0.6400549999999999,-0.3166585,0.14459,0.4862149999999999,-0.1994785,0.22504,0.6680349999999999,-0.2947484999999999,-0.24248,0.828305,-0.4296085,0.1915,0.868605,-0.3740785,-0.07253,-0.0010249999999999,0.0012194999999999,0.07253,0.0010249999999999,-0.0012195,-0.115146,-0.264745,-0.1440185,0.1009799999999999,-0.280265,-0.1439465,-0.1379699999999999,-0.681455,-0.0645355,0.1123,-0.698095,-0.0565515,1
199,-0.0328945,0.614425,-0.2090075,-0.1617565,0.471155,-0.1931075,-0.2536165,0.642005,-0.3021375,0.1445535,0.480395,-0.1908675,0.2229435,0.668195,-0.2797375,-0.2435065,0.833655,-0.4089075,0.1896835,0.871105,-0.3540275,-0.0725335,-0.000945,0.0023514999999999,0.0725335,0.000945,-0.0023515,-0.1148945,-0.269485,-0.1340895,0.1009335,-0.283205,-0.1334185,-0.1382364999999999,-0.689515,-0.0573785,0.1128135,-0.705105,-0.0499145,1
200,-0.0335675,0.61685,-0.191473,-0.1617815,0.46688,-0.179943,-0.2535314999999999,0.64396,-0.282933,0.1447385,0.48469,-0.176333,0.2211685,0.6758000000000001,-0.260093,-0.2437115,0.83853,-0.383243,0.1877185,0.88029,-0.329903,-0.0725585,-0.00117,0.003422,0.0725585,0.00117,-0.0034219999999999,-0.1144535,-0.2749399999999999,-0.1189289999999999,0.1011185,-0.28883,-0.1177489999999999,-0.1382615,-0.69821,-0.04418,0.1135285,-0.71379,-0.037077,1
201,-0.0342555,0.616225,-0.172594,-0.1616645,0.460365,-0.164534,-0.2532145,0.6428149999999999,-0.262774,0.1443155,0.486375,-0.157934,0.2198055,0.680585,-0.239834,-0.2445345,0.840095,-0.357474,0.1854755,0.887365,-0.302194,-0.0729455,-0.001695,0.0044619999999999,0.0729455,0.001695,-0.004462,-0.1132405,-0.284645,-0.101149,0.1014955,-0.298115,-0.100503,-0.1382245,-0.709255,-0.027933,0.1144655,-0.7247650000000001,-0.020961,1
202,-0.0356034999999999,0.6220505,-0.1532585,-0.1648285,0.4665505,-0.1437785,-0.2562985,0.6470705,-0.2428385,0.1444115,0.4918005,-0.1395885,0.2195015,0.6846205,-0.2199785,-0.2469485,0.8444905,-0.3306484999999999,0.1838015,0.8923504999999999,-0.2767385,-0.0733105,-0.0017314999999999,0.0048635,0.0733105,0.0017315,-0.0048635,-0.1114385,-0.2961295,-0.0824845,0.1022615,-0.3073095,-0.0825595,-0.1372485,-0.7255895,-0.0106484999999999,0.1162614999999999,-0.7400395000000001,-0.0035784999999999,1
203,-0.037016,0.629502,-0.133896,-0.1673039999999999,0.474482,-0.123026,-0.259744,0.652992,-0.222516,0.144816,0.499002,-0.121316,0.219996,0.690612,-0.199936,-0.248724,0.849832,-0.304806,0.182706,0.899072,-0.251196,-0.073744,-0.002084,0.005433,0.073744,0.002084,-0.0054329999999999,-0.1092839999999999,-0.305988,-0.064314,0.103466,-0.314568,-0.06536,-0.135654,-0.741958,0.006305,0.118706,-0.754228,0.014037,1
204,-0.0385445,0.6361184999999999,-0.115148,-0.1698645,0.4829385,-0.102888,-0.2643145,0.6587485,-0.202368,0.1446955,0.5068485,-0.103958,0.2203355,0.6968985,-0.1805679999999999,-0.2506645,0.8555185,-0.278908,0.1828755,0.9057385,-0.226458,-0.0739865,-0.0024865,0.005842,0.0739865,0.0024865,-0.005842,-0.1073765,-0.3154415,-0.046851,0.1045255,-0.3212414999999999,-0.048996,-0.1341145,-0.7579615000000001,0.023412,0.1210155,-0.7689615000000001,0.031459,1
205,-0.0402219999999999,0.6423144999999999,-0.0965149999999999,-0.172505,0.4916845,-0.083011,-0.269555,0.6620645000000001,-0.181695,0.144735,0.5149345000000001,-0.087345,0.223145,0.7035845000000001,-0.161185,-0.252515,0.8598844999999999,-0.253515,0.184375,0.9127145,-0.201895,-0.074084,-0.0029015,0.006205,0.074084,0.0029015,-0.0062049999999999,-0.10536,-0.3246055,-0.030112,0.105625,-0.3275155,-0.033339,-0.132415,-0.7737855,0.040322,0.1235049999999999,-0.7842655000000001,0.048664,1
206,-0.041822,0.649008,-0.07797,-0.175248,0.500818,-0.061971,-0.275018,0.664948,-0.16053,0.144992,0.523078,-0.06963,0.226082,0.710408,-0.14205,-0.254218,0.863638,-0.22807,0.185612,0.919508,-0.1778,-0.07388,-0.0032729999999999,0.006675,0.07388,0.0032729999999999,-0.006675,-0.103259,-0.333432,-0.014057,0.106752,-0.333862,-0.018449,-0.130518,-0.789502,0.0570689999999999,0.126002,-0.799362,0.065384,1
207,-0.043056,0.652923,-0.05894,-0.1781999999999999,0.509853,-0.039659,-0.2809299999999999,0.667413,-0.1381399999999999,0.14549,0.531743,-0.051283,0.22946,0.717843,-0.12283,-0.25594,0.866853,-0.20154,0.18669,0.926573,-0.15483,-0.07364,-0.003674,0.0071189999999999,0.07364,0.003674,-0.007119,-0.100924,-0.341767,0.0016769999999999,0.10778,-0.339717,-0.003306,-0.12839,-0.804397,0.073992,0.12862,-0.8135169999999999,0.082096,1
208,-0.0446769999999999,0.6571985,-0.0426625,-0.181634,0.5189685,-0.0188834999999999,-0.290554,0.6697785,-0.1173725,0.1454359999999999,0.5407685,-0.0350035,0.232766,0.7259985,-0.1061225,-0.260444,0.8696685000000001,-0.1772225,0.187086,0.9342685,-0.1338625,-0.07308,-0.0040094999999999,0.0075234999999999,0.07308,0.0040095,-0.0075235,-0.098761,-0.3493415,0.0147634999999999,0.108386,-0.3448015,0.0095244999999999,-0.126414,-0.8184515,0.0884305,0.130936,-0.8266815,0.0962784999999999,1
209,-0.047048,0.6661119999999999,-0.03288,-0.185364,0.528102,-0.003809,-0.300124,0.672252,-0.102699,0.1456759999999999,0.5411819999999999,-0.0247799999999999,0.2351559999999999,0.7268819999999999,-0.095719,-0.264764,0.872262,-0.159539,0.1868059999999999,0.934772,-0.119519,-0.072455,-0.004072,0.0080579999999999,0.072455,0.0040719999999999,-0.0080579999999999,-0.096534,-0.354758,0.020966,0.108926,-0.347238,0.0155739999999999,-0.124194,-0.830198,0.096082,0.1334159999999999,-0.837318,0.10349,1
210,-0.049932,0.6774150000000001,-0.024291,-0.189691,0.5397749999999999,0.0108149999999999,-0.310591,0.6770050000000001,-0.088571,0.147539,0.544165,-0.019318,0.2379089999999999,0.729905,-0.087421,-0.269121,0.8770150000000001,-0.141251,0.186809,0.936685,-0.109101,-0.071864,-0.00381,0.0087289999999999,0.071864,0.00381,-0.008729,-0.0942929999999999,-0.357555,0.0253009999999999,0.109369,-0.346995,0.0188169999999999,-0.121541,-0.835415,0.101084,0.136199,-0.8428850000000001,0.108074,1
