sb224sc-HT22-VT27/4dt907/src/data/labeled_files/A123_kinect_mirrored.csv
FrameNo,nose_3d_x,nose_3d_y,nose_3d_z,left_shoulder_3d_x,left_shoulder_3d_y,left_shoulder_3d_z,left_elbow_3d_x,left_elbow_3d_y,left_elbow_3d_z,right_shoulder_3d_x,right_shoulder_3d_y,right_shoulder_3d_z,right_elbow_3d_x,right_elbow_3d_y,right_elbow_3d_z,left_wrist_3d_x,left_wrist_3d_y,left_wrist_3d_z,right_wrist_3d_x,right_wrist_3d_y,right_wrist_3d_z,left_hip_3d_x,left_hip_3d_y,left_hip_3d_z,right_hip_3d_x,right_hip_3d_y,right_hip_3d_z,left_knee_3d_x,left_knee_3d_y,left_knee_3d_z,right_knee_3d_x,right_knee_3d_y,right_knee_3d_z,left_ankle_3d_x,left_ankle_3d_y,left_ankle_3d_z,right_ankle_3d_x,right_ankle_3d_y,right_ankle_3d_z,activity_label
0,1.013306,0.7245235000000001,0.052139,0.851254,0.5593135,0.053768,0.760354,0.7480035,-0.018267,1.177674,0.5589235,0.062034,1.266874,0.7314235,-0.050286,0.734754,0.9565335,-0.080485,1.294774,0.9290435,-0.1448249999999999,0.927594,0.0015425,-0.0004089999999999,1.072406,-0.0015425,0.000409,0.889714,-0.3503665,0.011251,1.094643,-0.3535865,0.018965,0.852024,-0.8392065,0.078439,1.106874,-0.8226964999999999,0.09513,1
1,1.01292,0.7250129999999999,0.0526535,0.851565,0.5600229999999999,0.0537655,0.760235,0.748613,-0.0178754999999999,1.178175,0.558433,0.0624185,1.267715,0.7300829999999999,-0.0511334999999999,0.734485,0.957123,-0.0801395,1.299875,0.907423,-0.1473495,0.927601,0.0016059999999999,-0.0001875,1.072399,-0.0016059999999999,0.0001875,0.890135,-0.350327,0.0115545,1.09491,-0.353527,0.0193335,0.852275,-0.838677,0.0789215,1.107255,-0.821907,0.0955795,1
2,1.0116044999999998,0.726356,0.0533225,0.8502635000000001,0.560436,0.0555095,0.7596835,0.7488760000000001,-0.0178655,1.1785435,0.5577960000000001,0.0622965,1.2681035,0.729396,-0.0513345,0.7333835,0.957256,-0.0803525,1.2985735,0.924726,-0.1502824999999999,0.9276355,0.001606,-0.0001384999999999,1.0723645,-0.0016059999999999,0.0001384999999999,0.8899935,-0.350354,0.0113445,1.0948555,-0.353534,0.0192885,0.8516935,-0.8388739999999999,0.0783335,1.1073435,-0.8221839999999999,0.0955324999999999,1
3,1.0101635,0.7265385,0.053751,0.8502385,0.5606485,0.054976,0.7592985000000001,0.7491285,-0.0176689999999999,1.1787085,0.5572785,0.062444,1.2682585,0.7287985,-0.0513369999999999,0.7318184999999999,0.9572485,-0.080589,1.2985085,0.9243885,-0.149799,0.9276385,0.0015774999999999,-0.0002379999999999,1.0723615,-0.0015775,0.000238,0.8899785,-0.3503715,0.011282,1.0948665,-0.3535115,0.019319,0.8512585,-0.8383815,0.078328,1.1071485,-0.8214915,0.095451,1
4,1.0093474999999998,0.726635,0.053658,0.8504005,0.561345,0.054444,0.7589705,0.749665,-0.017958,1.1787205,0.555905,0.062401,1.2680605,0.7275849999999999,-0.051297,0.7297305000000001,0.957355,-0.081654,1.2983305,0.923345,-0.149384,0.9276405,0.001454,-0.0001659999999999,1.0723595,-0.0014539999999999,0.0001659999999999,0.8900705,-0.350555,0.010945,1.0949345,-0.353485,0.018651,0.8510805000000001,-0.837645,0.079125,1.1070605,-0.821345,0.095111,1
5,1.00765,0.727066,0.0537929999999999,0.848563,0.5628960000000001,0.0579849999999999,0.758153,0.750706,-0.017703,1.179213,0.554716,0.0629909999999999,1.268623,0.726076,-0.051227,0.725553,0.957446,-0.083089,1.300893,0.918906,-0.155019,0.927695,0.0014039999999999,0.00016,1.072305,-0.0014039999999999,-0.00016,0.889533,-0.350404,0.012169,1.094908,-0.3533239999999999,0.0189249999999999,0.8505929999999999,-0.835924,0.079346,1.106663,-0.819444,0.093848,1
6,1.0071955,0.727269,0.0542475,0.8484415000000001,0.562939,0.0591315,0.7578815,0.750429,-0.0173195,1.1794415,0.554659,0.0630985,1.2691214999999998,0.725799,-0.0512804999999999,0.7233715000000001,0.956819,-0.0829085,1.2998015,0.919509,-0.1537585,0.9276725,0.001382,0.0003015,1.0723275,-0.0013819999999999,-0.0003014999999999,0.8896915,-0.350391,0.0126785,1.0950295,-0.353201,0.0193615,0.8507715,-0.834571,0.0812235,1.1065415,-0.819681,0.0949235,1
7,1.0064915,0.7271025,0.053746,0.8479695,0.5629325,0.059188,0.7567794999999999,0.7501025,-0.016602,1.1788895,0.5545024999999999,0.062508,1.2690595,0.7254925,-0.051941,0.7214195,0.9569025,-0.079388,1.3001195,0.9128525,-0.1542279999999999,0.9276445,0.0013265,0.000253,1.0723555,-0.0013264999999999,-0.0002529999999999,0.8898695000000001,-0.3504875,0.012786,1.0949235,-0.3531674999999999,0.019337,0.8505795,-0.8356375,0.080962,1.1070895,-0.8203675,0.095344,1
8,1.00561,0.7272865000000001,0.053811,0.8475010000000001,0.5633765000000001,0.059978,0.756001,0.7502665000000001,-0.016228,1.178871,0.5539365,0.0623209999999999,1.269221,0.7248465000000001,-0.052164,0.7190110000000001,0.9568465,-0.078936,1.300381,0.9108065,-0.1549559999999999,0.927649,0.0012735,0.0003299999999999,1.072351,-0.0012734999999999,-0.00033,0.889891,-0.3504935,0.0129889999999999,1.094949,-0.3530935,0.0193639999999999,0.850441,-0.8353435,0.081329,1.107151,-0.8200835,0.095453,1
9,1.004737,0.7274625,0.0538585,0.846991,0.5637425,0.0607145,0.7551209999999999,0.7504125,-0.0157095,1.178841,0.5533724999999999,0.0619735,1.269361,0.7242325,-0.0523975,0.716681,0.9567825,-0.0783665,1.300221,0.9116925,-0.1556765,0.927648,0.0012334999999999,0.0004154999999999,1.072352,-0.0012335,-0.0004154999999999,0.889881,-0.3504975,0.0132045,1.094967,-0.3530275,0.0194175,0.8502810000000001,-0.8350975,0.0817815,1.107241,-0.8198275,0.0955925,1
10,1.0039445,0.7276195,0.0537965,0.8465795,0.5639395,0.0612365,0.7542195,0.7505595,-0.0152804999999999,1.1787595,0.5529395,0.0614935,1.2693695,0.7237695,-0.0527035,0.7147195,0.9567295,-0.0780005,1.3001795,0.9113195,-0.1559005,0.9276505,0.0011905,0.0004895,1.0723495,-0.0011904999999999,-0.0004894999999999,0.8898595,-0.3505005,0.0134865,1.0949715,-0.3529905,0.0194155,0.8501495,-0.8347405,0.0822595,1.1073095,-0.8195805,0.0955515,1
11,1.003173,0.727757,0.0536955,0.846174,0.5640970000000001,0.0616805,0.753274,0.750667,-0.0148905,1.178644,0.552517,0.0609385,1.269354,0.7233470000000001,-0.0530315,0.7129639999999999,0.956737,-0.0776165,1.300154,0.911027,-0.1561364999999999,0.927652,0.0011549999999999,0.0005334999999999,1.072348,-0.001155,-0.0005334999999999,0.889824,-0.3505029999999999,0.0137225,1.094999,-0.3529429999999999,0.0193505,0.850094,-0.834583,0.0825965,1.1074739999999998,-0.819333,0.0954885,1
12,1.0024075,0.7279395000000001,0.053594,0.8457645,0.5642995000000001,0.062026,0.7523145,0.7507495000000001,-0.014517,1.1785245,0.5521495000000001,0.060385,1.2693545,0.7229995,-0.0533409999999999,0.7112045,0.9567495,-0.0771449999999999,1.2997945,0.9107895,-0.1563149999999999,0.9276525,0.0011064999999999,0.0005749999999999,1.0723475,-0.0011064999999999,-0.0005749999999999,0.8897745,-0.3505105,0.013968,1.0950185,-0.3529005,0.019285,0.8499845,-0.8341704999999999,0.082994,1.1076445,-0.8190505,0.0954069999999999,1
13,1.001628,0.7281905000000001,0.053491,0.845306,0.5645605,0.062397,0.751336,0.7507905,-0.0141179999999999,1.178256,0.5518205,0.059793,1.269346,0.7227205,-0.053609,0.709456,0.9566905,-0.076635,1.299046,0.9110605,-0.156275,0.927653,0.0010394999999999,0.0006149999999999,1.072347,-0.0010395,-0.0006149999999999,0.8897660000000001,-0.3505195,0.014231,1.095037,-0.3528395,0.019209,0.849876,-0.8337295,0.0833899999999999,1.1078059999999998,-0.8188595,0.0954599999999999,1
14,1.000872,0.7284705,0.053401,0.844826,0.5648505,0.062724,0.750416,0.7508005000000001,-0.013807,1.177956,0.5515005000000001,0.0592,1.269316,0.7225005000000001,-0.053846,0.708306,0.9566505,-0.076335,1.298346,0.9113505,-0.156245,0.927654,0.0009764999999999,0.0006919999999999,1.072346,-0.0009764999999999,-0.0006919999999999,0.889716,-0.3505395,0.014508,1.095036,-0.3527695,0.0191119999999999,0.849746,-0.8333094999999999,0.083994,1.107946,-0.8186095,0.095455,1
15,1.0001825,0.7287485,0.053325,0.8443835,0.5651085,0.063033,0.7495735,0.7507885000000001,-0.013529,1.1776135,0.5513685,0.058682,1.2691835,0.7224085,-0.0541489999999999,0.7073935,0.9566085,-0.076293,1.2976435,0.9116585,-0.156213,0.9276495,0.0009075,0.0007699999999999,1.0723505,-0.0009075,-0.0007699999999999,0.8895935000000001,-0.3505715,0.01479,1.0950615,-0.3526915,0.018998,0.8496435,-0.8328915,0.084615,1.1080535,-0.8183714999999999,0.095566,1
16,0.9996305,0.729023,0.053296,0.8439885,0.565283,0.063345,0.7488385,0.750713,-0.0133029999999999,1.1772785,0.551373,0.05831,1.2690085,0.722433,-0.0544009999999999,0.7066885,0.956493,-0.0762289999999999,1.2967085,0.912593,-0.156059,0.9276495,0.000831,0.000863,1.0723505,-0.000831,-0.0008629999999999,0.8894785000000001,-0.350617,0.015042,1.0950895,-0.352607,0.018914,0.8495485,-0.8324170000000001,0.085264,1.1081184999999998,-0.818107,0.095596,1
17,0.9991715,0.7292655,0.0532249999999999,0.8436205,0.5654355,0.063624,0.7482405000000001,0.7506155,-0.013246,1.1769705,0.5515255,0.057946,1.2688205,0.7225955,-0.05462,0.7063005,0.9563655,-0.076182,1.2958105,0.9138155,-0.155902,0.9276515,0.0007444999999999,0.0009629999999999,1.0723485,-0.0007445,-0.000963,0.8893805,-0.3506745,0.0152499999999999,1.0951335,-0.3525145,0.0188269999999999,0.8494505,-0.8320145,0.085793,1.1081805,-0.8177745,0.095637,1
18,0.9988085,0.729518,0.053149,0.8432805000000001,0.565518,0.06384,0.7477805,0.750498,-0.013196,1.1767505,0.551808,0.0577849999999999,1.2686205,0.7228779999999999,-0.054839,0.7061405000000001,0.956168,-0.07614,1.2948605,0.915388,-0.1556199999999999,0.9276505,0.0006569999999999,0.0010499999999999,1.0723495,-0.000657,-0.00105,0.8892805,-0.350722,0.0153879999999999,1.0951755,-0.352412,0.0187609999999999,0.8493505,-0.831592,0.0862179999999999,1.1082705,-0.817462,0.095668,1
19,0.998522,0.729696,0.0530534999999999,0.843114,0.5655159999999999,0.0638924999999999,0.747474,0.750346,-0.0131415,1.176544,0.552036,0.0577285,1.268414,0.7231059999999999,-0.0549635,0.7061840000000001,0.956026,-0.0762704999999999,1.293864,0.916946,-0.1552805,0.9276600000000002,0.000591,0.0011045,1.0723399999999998,-0.0005909999999999,-0.0011045,0.889144,-0.3507639999999999,0.0154394999999999,1.095183,-0.352334,0.0187234999999999,0.849254,-0.831194,0.0865535,1.108344,-0.8172940000000001,0.0957295,1
20,0.9983445,0.7298454999999999,0.0529105,0.8429935,0.5654555,0.0639445,0.7473035,0.7501855,-0.0131054999999999,1.1763935,0.5522355,0.0577555,1.2682735,0.7233054999999999,-0.0550135,0.7062235,0.9558955,-0.0765805,1.2928535,0.9187355,-0.1548505,0.9276705,0.0005345,0.0011545,1.0723295,-0.0005345,-0.0011545,0.8890035000000001,-0.3507945,0.0154925,1.0951915,-0.3522645,0.0187065,0.8491235,-0.8307845,0.0868065,1.1084335,-0.8170945000000001,0.0957305,1
21,0.9982905,0.7299669999999999,0.0527735,0.8429295,0.565357,0.0640035,0.7472195000000001,0.750027,-0.0132255,1.1762495,0.5524469999999999,0.0578035,1.2681395,0.723467,-0.0550035,0.7062595,0.955717,-0.0770535,1.2924895,0.919347,-0.1543135,0.9276665,0.000489,0.0012124999999999,1.0723335,-0.0004889999999999,-0.0012124999999999,0.8887995,-0.350823,0.0155535,1.0952105,-0.352223,0.0186675,0.8489995,-0.830573,0.0870015,1.1084795,-0.8170130000000001,0.0957415,1
22,0.998301,0.729968,0.052628,0.842903,0.565248,0.06377,0.747223,0.749848,-0.013544,1.176183,0.552628,0.057848,1.268073,0.723618,-0.055004,0.706413,0.955578,-0.07753,1.292193,0.919888,-0.15369,0.927655,0.0004669999999999,0.001256,1.072345,-0.0004669999999999,-0.001256,0.8886130000000001,-0.350842,0.015563,1.095187,-0.352202,0.018623,0.848843,-0.830112,0.087132,1.108533,-0.817012,0.095735,1
23,0.9983125,0.7299085000000001,0.052446,0.8428975,0.5650985000000001,0.063486,0.7472375,0.7496785,-0.013941,1.1761575,0.5528985000000001,0.057893,1.2680675,0.7238385,-0.054978,0.7068274999999999,0.9554285,-0.0781449999999999,1.2919875,0.9204685,-0.153065,0.9276415,0.0004574999999999,0.0012749999999999,1.0723585,-0.0004574999999999,-0.0012749999999999,0.8884375,-0.3508615,0.0154949999999999,1.0951665,-0.3522115,0.01858,0.8487475,-0.8298814999999999,0.087179,1.1084675,-0.8170815,0.095705,1
24,0.9983125,0.7298455,0.052251,0.8428815000000001,0.5649455,0.063182,0.7472315,0.7495255000000001,-0.0143739999999999,1.1761615,0.5531555,0.05795,1.2680715,0.7240655,-0.054947,0.7074015,0.9552955,-0.078848,1.2918215,0.9210255,-0.152368,0.9276395,0.0004565,0.001277,1.0723605,-0.0004565,-0.001277,0.8883115,-0.3508745,0.015398,1.0951345,-0.3522345,0.018565,0.8486315,-0.8298445,0.087238,1.1083915,-0.8171745,0.095682,1
25,0.9983375,0.7297655000000001,0.052009,0.8428725,0.5649055000000001,0.062813,0.7472225,0.7493755,-0.0150329999999999,1.1761625,0.5535455,0.058083,1.2680725,0.7243955,-0.054912,0.7082725000000001,0.9551755,-0.079724,1.2917425,0.9216355,-0.1516739999999999,0.9276395,0.0004565,0.001223,1.0723605,-0.0004565,-0.0012229999999999,0.8882125,-0.3508745,0.015255,1.0951075,-0.3522645,0.018524,0.8485525,-0.8298445,0.087303,1.1083125,-0.8172845,0.095709,1
26,0.9984955,0.7297055,0.051715,0.8429165000000001,0.5648555000000001,0.0623669999999999,0.7472765,0.7491355000000001,-0.015906,1.1761565,0.5539655,0.0581919999999999,1.2680665,0.7247455,-0.054904,0.7092665,0.9550055,-0.080896,1.2917065,0.9222655,-0.151026,0.9276305,0.0004565,0.0011459999999999,1.0723695,-0.0004565,-0.001146,0.8881465,-0.3508745,0.0149659999999999,1.0950995,-0.3522845,0.0184599999999999,0.8485165,-0.8298445,0.0871919999999999,1.1082265,-0.8175344999999999,0.0957089999999999,1
27,0.9987405,0.7296555,0.0513715,0.8429605,0.5648155,0.0619134999999999,0.7473605,0.7489255,-0.0169165,1.1761505,0.5544155000000001,0.0582725,1.2681105,0.7251055,-0.0548375,0.7103705,0.9548355,-0.0821975,1.2916705,0.9228255,-0.1506075,0.9276155,0.0004565,0.0010674999999999,1.0723845,-0.0004565,-0.0010674999999999,0.8881005,-0.3508745,0.0146664999999999,1.0950615,-0.3523044999999999,0.0183955,0.8484605000000001,-0.8298445,0.0869215,1.1081005,-0.8177745,0.0957895,1
28,0.9991315,0.7295355,0.050922,0.8431805,0.5647955,0.061148,0.7474405,0.7486555,-0.0180929999999999,1.1761805,0.5548855,0.058328,1.2682105,0.7254754999999999,-0.054783,0.7115005,0.9546255,-0.083651,1.2916305,0.9233855,-0.150281,0.9276005,0.0004724999999999,0.0009899999999999,1.0723995,-0.0004724999999999,-0.0009899999999999,0.8880405000000001,-0.3508845,0.014365,1.0950095,-0.3523545,0.018291,0.8484105,-0.8299145,0.086631,1.1079405,-0.8180145,0.095672,1
29,0.999621,0.7293525,0.0502969999999999,0.843369,0.5647225,0.0603089999999999,0.747539,0.7483525,-0.019356,1.176239,0.5552925,0.0583279999999999,1.268359,0.7257825,-0.054815,0.712539,0.9543625,-0.085279,1.291519,0.9238425,-0.150149,0.927591,0.0004995,0.0008779999999999,1.072409,-0.0004994999999999,-0.000878,0.8879290000000001,-0.3508875,0.0139969999999999,1.094873,-0.3524575,0.0180859999999999,0.8482890000000001,-0.8300575,0.0863879999999999,1.107749,-0.8183175,0.0955329999999999,1
30,1.0003255,0.7291645,0.0495105,0.8437385,0.5646445,0.0591494999999999,0.7476085,0.7479745,-0.0209025,1.1763285,0.5557345,0.0583135,1.2685485,0.7261145,-0.0549464999999999,0.7135585000000001,0.9540945,-0.0871265,1.2914185,0.9242945,-0.1501565,0.9275795,0.0005405,0.0007664999999999,1.0724205,-0.0005405,-0.0007665,0.8878785,-0.3508954999999999,0.0135944999999999,1.0947575,-0.3525655,0.0178154999999999,0.8481485000000001,-0.8301655,0.0861425,1.1075585,-0.8186455,0.0953104999999999,1
31,1.0012035,0.7289540000000001,0.048538,0.8440915,0.564544,0.0581919999999999,0.7476115,0.747604,-0.022369,1.1764515,0.556234,0.0582639999999999,1.2687715,0.726504,-0.055153,0.7143315,0.953804,-0.089012,1.2913515,0.924774,-0.150202,0.9275565,0.0005849999999999,0.0006689999999999,1.0724435,-0.000585,-0.000669,0.8878515,-0.350946,0.0131339999999999,1.0946315,-0.352676,0.0173009999999999,0.8480315,-0.830306,0.085866,1.1074215,-0.8189559999999999,0.095077,1
32,1.00227,0.7287224999999999,0.0472325,0.8445690000000001,0.5644524999999999,0.0570015,0.7476389999999999,0.7472424999999999,-0.0240125,1.176569,0.5567124999999999,0.0581325,1.268959,0.7268525,-0.0554485,0.7150190000000001,0.9535325,-0.0909375,1.291309,0.9252125,-0.1502875,0.927526,0.0006495,0.0005814999999999,1.072474,-0.0006494999999999,-0.0005814999999999,0.8878290000000001,-0.3509974999999999,0.0125704999999999,1.094543,-0.3528374999999999,0.0162875,0.848039,-0.8309775,0.0854635,1.107319,-0.8195275000000001,0.0947595,1
33,1.0034235,0.7284419999999999,0.0457755,0.8451075,0.564392,0.0557345,0.7477575000000001,0.746892,-0.0258154999999999,1.1767475,0.557252,0.0578575,1.2692075,0.727142,-0.0558295,0.7157175,0.953272,-0.0929345,1.2913675,0.925632,-0.1504345,0.9274975,0.0006899999999999,0.0004935,1.0725025,-0.00069,-0.0004935,0.8879175,-0.3510379999999999,0.0119395,1.0945525,-0.3530379999999999,0.0148575,0.8480775,-0.831408,0.0850655,1.1072175,-0.8200780000000001,0.0944635,1
34,1.004709,0.728042,0.0440525,0.845681,0.564332,0.0543645,0.748001,0.746572,-0.0276305,1.176961,0.5575519999999999,0.0574575,1.269481,0.727142,-0.0563355,0.716461,0.953012,-0.0948504999999999,1.291441,0.925812,-0.1507405,0.927458,0.0006899999999999,0.0003955,1.072542,-0.00069,-0.0003955,0.888001,-0.3510379999999999,0.0111995,1.0947639999999998,-0.353328,0.0125345,0.848201,-0.831808,0.0846515,1.107131,-0.820748,0.0940295,1
35,1.00605,0.727557,0.042083,0.846311,0.564257,0.052937,0.748391,0.746327,-0.02949,1.177231,0.557567,0.056953,1.2698109999999998,0.727147,-0.056994,0.717361,0.952837,-0.096737,1.291531,0.925817,-0.151177,0.927398,0.000695,0.000275,1.072602,-0.000695,-0.0002749999999999,0.8880810000000001,-0.351093,0.010107,1.095141,-0.353703,0.009538,0.848381,-0.832103,0.084253,1.107111,-0.821543,0.093553,1
36,1.007374,0.7268465000000001,0.039861,0.847082,0.5638665,0.051217,0.7489520000000001,0.7457265,-0.031458,1.177532,0.5575965,0.056394,1.270212,0.7271765,-0.057884,0.7184820000000001,0.9523065,-0.0987659999999999,1.291642,0.9258465,-0.151876,0.927299,0.0007245,0.0001589999999999,1.072701,-0.0007245,-0.0001589999999999,0.888132,-0.3512234999999999,0.0083479999999999,1.095625,-0.3541535,0.005988,0.848592,-0.8325435,0.083684,1.107232,-0.8226935,0.092588,1
37,1.0086834999999998,0.7260785000000001,0.0373955,0.8476095000000001,0.5635985,0.0496785,0.7495295,0.7452385,-0.0336165,1.1778795,0.5578485000000001,0.0555625,1.2706295,0.7274185000000001,-0.0591135,0.7197395,0.9518885,-0.1010184999999999,1.2916995,0.9260985,-0.1527784999999999,0.9272275,0.0008095,2.7499999999999747e-05,1.0727725,-0.0008094999999999,-2.7499999999999747e-05,0.8881895,-0.3514415,0.0060165,1.0961325,-0.3546715,0.0020524999999999,0.8487495,-0.8328315,0.0830185,1.1073995,-0.8236414999999999,0.0915295,1
38,1.009864,0.7252814999999999,0.0347685,0.848364,0.5625815000000001,0.0473985,0.750394,0.7441415,-0.0361294999999999,1.178204,0.5585015,0.0545015,1.271104,0.7276615,-0.0606575,0.721294,0.9508715,-0.1036075,1.291704,0.9265815,-0.1539475,0.927151,0.0009064999999999,-6.0499999999998055e-05,1.072849,-0.0009065,6.0500000000004994e-05,0.8882140000000001,-0.3516685,0.0030465,1.096678,-0.3552185,-0.0023524999999999,0.8488640000000001,-0.8328385,0.0822285,1.107624,-0.8243085000000001,0.0904264999999999,1
39,1.0108925,0.7245185000000001,0.0318974999999999,0.8490314999999999,0.5615485,0.0451005,0.7514215,0.7430885,-0.0387645,1.1785915,0.5587884999999999,0.0527895,1.2716115,0.7276585,-0.0626705,0.7230215000000001,0.9498785,-0.1064885,1.2917615,0.9268185,-0.1555785,0.9270295,0.0010095,-0.0001794999999999,1.0729705,-0.0010095,0.0001794999999999,0.8880715,-0.3519415,-0.0007974999999999,1.0972355,-0.3557915,-0.0073275,0.8489815000000001,-0.8324715,0.0813005,1.1077915,-0.8246715,0.0892125,1
40,1.011839,0.723403,0.0277215,0.849709,0.5602130000000001,0.0418945,0.752509,0.741573,-0.0428164999999999,1.178939,0.558833,0.0500525,1.272189,0.727243,-0.0659095,0.724959,0.948273,-0.1111295,1.292069,0.926463,-0.1588295,0.926712,0.001178,-0.0003114999999999,1.0732879999999998,-0.001178,0.0003114999999999,0.8877190000000001,-0.3521769999999999,-0.0062274999999999,1.098095,-0.356367,-0.0137354999999999,0.849059,-0.830847,0.0802155,1.107719,-0.824417,0.0877115,1
41,1.012541,0.721762,0.0229264999999999,0.850159,0.559092,0.0388895,0.7535689999999999,0.740032,-0.0478995,1.179179,0.558052,0.0464944999999999,1.272939,0.725812,-0.0700285,0.726719,0.946342,-0.1178485,1.293009,0.924042,-0.1650785,0.926306,0.001338,-0.0004495,1.073694,-0.0013379999999999,0.0004494999999999,0.887379,-0.352408,-0.0124005,1.098889,-0.356798,-0.0205515,0.849009,-0.828788,0.0791955,1.107579,-0.823628,0.0859925,1
42,1.0131575,0.7200675,0.017431,0.8504275,0.5572675,0.0344519999999999,0.7544875,0.7379275000000001,-0.053818,1.1792675,0.5569575,0.042123,1.2737575,0.7238775000000001,-0.075125,0.7284675,0.9440175,-0.125025,1.2937975,0.9216475,-0.171285,0.9257995,0.0014995,-0.000564,1.0742005,-0.0014995,0.000564,0.8871175,-0.3525824999999999,-0.019497,1.0995875,-0.3571225,-0.0277199999999999,0.8488375,-0.8256725,0.077941,1.1073075,-0.8217925,0.083867,1
43,1.0136165,0.7185945,0.0115574999999999,0.8507915,0.5551345,0.0293915,0.7554815,0.7355545,-0.0604614999999999,1.1793615,0.5560545,0.0372015,1.2748015,0.7217345000000001,-0.0811695,0.7301115,0.9413445,-0.1330995,1.2948415,0.9189745,-0.1786295,0.9252375,0.0014795,-0.0006475,1.0747625,-0.0014794999999999,0.0006475,0.8863615,-0.3528354999999999,-0.0273795,1.1002615,-0.3570755,-0.0349294999999999,0.8485615,-0.8214655,0.0764295,1.1069115,-0.8188455,0.0816215,1
44,1.0139995,0.717077,0.00519,0.8512145,0.553187,0.023747,0.7563145,0.733067,-0.068034,1.1793745,0.554827,0.03165,1.2757545,0.719137,-0.087994,0.7316445,0.938377,-0.142604,1.2961445,0.915517,-0.187384,0.9246625,0.001451,-0.0006709999999999,1.0753375,-0.001451,0.000671,0.8853845,-0.352923,-0.03555,1.1010345,-0.356863,-0.0422169999999999,0.8478945,-0.816423,0.074441,1.1064345,-0.814503,0.0792,1
45,1.0144455,0.715624,-0.0018094999999999,0.8515685,0.551644,0.0174595,0.7569985,0.7308939999999999,-0.0764664999999999,1.1792085,0.553204,0.0252165,1.2766185,0.716054,-0.0959464999999999,0.7328185,0.935514,-0.1534665,1.2979185,0.911204,-0.1977165,0.9240855,0.001382,-0.0007854999999999,1.0759145,-0.001382,0.0007855,0.8843485000000001,-0.352736,-0.0448264999999999,1.1020785,-0.356386,-0.0499665,0.8470685,-0.810266,0.0720145,1.1058385,-0.8085060000000001,0.0767225,1
46,1.01474,0.7138745,-0.0094394999999999,0.851917,0.5509745,0.0110545,0.757707,0.7288045,-0.0861035,1.178937,0.5512645,0.0181625,1.277407,0.7125845000000001,-0.1044735,0.7337670000000001,0.9319845,-0.1668535,1.300127,0.9060945,-0.2093035,0.923561,0.0013815,-0.0008444999999999,1.076439,-0.0013814999999999,0.0008444999999999,0.883327,-0.3521255,-0.0549215,1.103587,-0.3557154999999999,-0.0583615,0.8462270000000001,-0.8035255,0.0690004999999999,1.105207,-0.8016955,0.0741215,1
47,1.015755,0.711633,-0.0184545,0.852131,0.549033,0.0030594999999999,0.758281,0.725883,-0.0967595,1.178491,0.5488930000000001,0.0098164999999999,1.278881,0.707593,-0.1151695,0.7347710000000001,0.928493,-0.1798995,1.303951,0.899023,-0.2235795,0.922845,0.0011349999999999,-0.0010334999999999,1.077155,-0.001135,0.0010334999999999,0.881621,-0.350887,-0.0666895,1.106791,-0.354007,-0.0684795,0.845421,-0.792437,0.0656175,1.105171,-0.790457,0.0712145,1
48,1.016697,0.7096985,-0.0274999999999999,0.852322,0.5472985,-0.0050679999999999,0.758922,0.7233185,-0.1073799999999999,1.177982,0.5466884999999999,0.001891,1.280322,0.7023584999999999,-0.12569,0.735912,0.9250285,-0.1934,1.308332,0.8909885,-0.23861,0.922087,0.0009534999999999,-0.001202,1.077913,-0.0009535,0.001202,0.878932,-0.3489515,-0.07922,1.110612,-0.3519315,-0.07918,0.844482,-0.7804315,0.061944,1.105502,-0.7783315,0.06809,1
49,1.0175029999999998,0.7077905,-0.0353765,0.85246,0.5459205,-0.0124625,0.75949,0.7212305,-0.1173245,1.17735,0.5439205,-0.0051885,1.28174,0.6965104999999999,-0.1353745,0.7371099999999999,0.9223505,-0.2054544999999999,1.31244,0.8828404999999999,-0.2519544999999999,0.921533,0.0007544999999999,-0.0014325,1.078467,-0.0007545,0.0014324999999999,0.8762,-0.3466395,-0.0911045,1.1146,-0.3493195,-0.0891745,0.84365,-0.7671195000000001,0.0583415,1.1060599999999998,-0.7645695,0.0653005,1
50,1.0183295,0.70657,-0.0427855,0.8526795,0.54391,-0.0206355,0.7602295,0.71883,-0.1268845,1.1768095,0.54138,-0.0117395,1.2831495,0.69034,-0.1447645,0.7387895,0.9196,-0.2163545,1.3160995,0.8755,-0.2628945,0.9210835,0.0007599999999999,-0.0016994999999999,1.0789165,-0.0007599999999999,0.0016994999999999,0.8734395,-0.34365,-0.1034645,1.1190595,-0.34487,-0.0992545,0.8428195,-0.75131,0.0547855,1.1068995,-0.7485,0.0626065,1
51,1.0192234999999998,0.70524,-0.050398,0.8531655,0.54271,-0.028106,0.7611455,0.7168,-0.13668,1.1765555,0.53911,-0.017963,1.2841655,0.6849299999999999,-0.15362,0.7406455000000001,0.91667,-0.22887,1.3198255,0.8675799999999999,-0.27535,0.9209185,0.00068,-0.001799,1.0790815,-0.00068,0.0017989999999999,0.8709255,-0.33835,-0.11618,1.1242454999999998,-0.33874,-0.11018,0.8422255,-0.73357,0.050668,1.1082255,-0.7307,0.05955,1
52,1.0197524999999998,0.70303,-0.0581685,0.8533695,0.5415,-0.0352255,0.7616695,0.7148000000000001,-0.1461955,1.1761995,0.53574,-0.0238655,1.2838095,0.67736,-0.1620555,0.7426695,0.91379,-0.2410854999999999,1.3221795,0.8579399999999999,-0.2873055,0.9206515,0.00073,-0.0018274999999999,1.0793485,-0.0007299999999999,0.0018274999999999,0.8681595,-0.33093,-0.1292855,1.1294895,-0.32981,-0.1207655,0.8410695,-0.71427,0.0458645,1.1095894999999998,-0.71011,0.0564245,1
53,1.020249,0.70218,-0.0656945,0.853452,0.54045,-0.0424465,0.762662,0.7128300000000001,-0.1559605,1.175782,0.53247,-0.0295705,1.283602,0.67133,-0.1697905,0.744872,0.91103,-0.2532405,1.324382,0.8491500000000001,-0.2987404999999999,0.920246,0.00067,-0.0018055,1.079754,-0.00067,0.0018054999999999,0.865092,-0.3203,-0.1425805,1.135522,-0.31762,-0.1320104999999999,0.839892,-0.69198,0.0410645,1.111132,-0.6872,0.0532425,1
54,1.02092,0.701105,-0.0768835,0.853622,0.539765,-0.0533285,0.7639819999999999,0.711175,-0.1694635,1.175612,0.530105,-0.0387005,1.283772,0.666195,-0.1807135,0.747552,0.908715,-0.2687735,1.326132,0.841545,-0.3128634999999999,0.919908,0.000815,-0.0021865,1.080092,-0.000815,0.0021864999999999,0.861192,-0.307065,-0.1599634999999999,1.142012,-0.302855,-0.1467935,0.8385819999999999,-0.667905,0.0319915,1.113312,-0.662705,0.0462235,1
55,1.021701,0.701625,-0.0876125,0.854055,0.539045,-0.0645685,0.7654650000000001,0.709485,-0.1821525,1.174385,0.525865,-0.0479295,1.283755,0.661085,-0.1913625,0.750425,0.907305,-0.2819225,1.327275,0.8339150000000001,-0.3262925,0.919301,0.0006649999999999,-0.0027664999999999,1.080699,-0.0006649999999999,0.0027665,0.856195,-0.290335,-0.1798925,1.151395,-0.284875,-0.1645725,0.837385,-0.6408149999999999,0.0228735,1.116115,-0.6357349999999999,0.0380225,1
56,1.022212,0.7020500000000001,-0.0967525,0.854568,0.5399400000000001,-0.0735085,0.766908,0.70923,-0.1938425,1.173218,0.5229,-0.0555315,1.283448,0.6576200000000001,-0.1995825,0.753118,0.90575,-0.2952025,1.327768,0.82855,-0.3367925,0.918769,0.00074,-0.0033285,1.081231,-0.0007399999999999,0.0033285,0.851978,-0.27318,-0.1973825,1.159178,-0.26651,-0.1799125,0.836508,-0.61673,0.0144444999999999,1.118588,-0.61199,0.0305884999999999,1
57,1.0232195,0.705565,-0.1058149999999999,0.8554955000000001,0.5403249999999999,-0.082568,0.7690954999999999,0.710475,-0.205365,1.1723855,0.5231950000000001,-0.0632369999999999,1.2835455,0.657275,-0.207695,0.7568755,0.906665,-0.3089449999999999,1.3287655,0.827395,-0.346255,0.9185315,0.000765,-0.0037789999999999,1.0814685,-0.0007649999999999,0.003779,0.8489255,-0.251015,-0.213545,1.1670955,-0.2429249999999999,-0.194115,0.8362355000000001,-0.588135,0.006303,1.1213055,-0.583835,0.023516,1
58,1.024274,0.707095,-0.1142435,0.856309,0.540525,-0.0907055,0.771459,0.709985,-0.2160635,1.1714989999999998,0.522895,-0.0702975,1.283429,0.657405,-0.2148634999999999,0.7608090000000001,0.905525,-0.3215335,1.329819,0.826155,-0.3550635,0.918167,0.0007949999999999,-0.0044075,1.081833,-0.0007949999999999,0.0044075,0.845639,-0.229225,-0.2288535,1.174909,-0.2197249999999999,-0.2067034999999999,0.836049,-0.561315,-0.0010814999999999,1.124109,-0.557285,0.0173485,1
59,1.024985,0.70873,-0.121671,0.8567660000000001,0.54019,-0.097758,0.7739659999999999,0.7093499999999999,-0.225321,1.170556,0.52257,-0.0764359999999999,1.282176,0.65864,-0.220791,0.764596,0.90441,-0.332421,1.329476,0.82597,-0.362761,0.918237,0.0005499999999999,-0.005017,1.081763,-0.0005499999999999,0.005017,0.842596,-0.2060699999999999,-0.242671,1.182746,-0.1964599999999999,-0.217841,0.8360660000000001,-0.53471,-0.008014,1.126896,-0.53074,0.011413,1
60,1.0252344999999998,0.70984,-0.1282785,0.8571345,0.53903,-0.1046585,0.7766845,0.70811,-0.2340285,1.1693745,0.52286,-0.0826175,1.2805244999999998,0.65923,-0.2271685,0.7682645,0.90249,-0.3423785,1.3281444999999998,0.82606,-0.3700785,0.9183055,0.00033,-0.0055465,1.0816945,-0.0003299999999999,0.0055465,0.8395144999999999,-0.1835,-0.2562184999999999,1.1901745,-0.1734599999999999,-0.2282985,0.8360145,-0.50896,-0.0149185,1.1294944999999998,-0.50489,0.0056105,1
61,1.025412,0.711455,-0.1344135,0.857607,0.538895,-0.1114535,0.779447,0.707185,-0.2424135,1.167947,0.523815,-0.0887015,1.278587,0.6623950000000001,-0.2331135,0.771937,0.901195,-0.3523635,1.326497,0.828105,-0.3769935,0.918395,0.000145,-0.0060535,1.081605,-0.000145,0.0060535,0.836477,-0.1614649999999999,-0.2694935,1.197367,-0.151105,-0.2388035,0.8359970000000001,-0.484055,-0.0213865,1.132077,-0.479785,-4.44999999999994e-05,1
62,1.025489,0.712605,-0.1398525,0.8580019999999999,0.537285,-0.1178324999999999,0.781852,0.706955,-0.2503825,1.166612,0.525555,-0.0944884999999999,1.276272,0.664505,-0.2391425,0.775382,0.9006350000000001,-0.3613425,1.324132,0.830145,-0.3831124999999999,0.918565,3.500000000000725e-05,-0.0065674999999999,1.081435,-3.500000000000725e-05,0.0065674999999999,0.833672,-0.140375,-0.2825225,1.203752,-0.1293649999999999,-0.2480725,0.835922,-0.459885,-0.0276965,1.134632,-0.455175,-0.0056495,1
63,1.0253139999999998,0.713085,-0.141671,0.858348,0.535445,-0.120241,0.784198,0.705365,-0.254151,1.165238,0.526209,-0.096457,1.274308,0.665955,-0.241181,0.7786379999999999,0.8987149999999999,-0.3658809999999999,1.321748,0.831535,-0.385571,0.918965,-0.0002849999999999,-0.006611,1.081035,0.0002849999999999,0.006611,0.831788,-0.1211349999999999,-0.290311,1.209828,-0.109765,-0.252901,0.836158,-0.4374749999999999,-0.029414,1.137058,-0.432235,-0.007342,1
64,1.0250039999999998,0.712635,-0.143567,0.858344,0.532634,-0.123067,0.786884,0.703295,-0.258557,1.164464,0.528591,-0.097846,1.272994,0.667685,-0.243167,0.7815840000000001,0.8960049999999999,-0.371557,1.3196139999999998,0.833745,-0.387847,0.91957,-0.0003949999999999,-0.006757,1.08043,0.000395,0.006757,0.829734,-0.105005,-0.296497,1.212644,-0.0914949999999999,-0.253987,0.836014,-0.4172249999999999,-0.030711,1.138644,-0.4113949999999999,-0.008596,1
65,1.0246195,0.711185,-0.145187,0.8583215000000001,0.5310239999999999,-0.125767,0.7894114999999999,0.701295,-0.263197,1.1635715,0.5296069999999999,-0.099222,1.2717015,0.668795,-0.244897,0.7843915000000001,0.8940649999999999,-0.377737,1.3172215,0.8349549999999999,-0.389937,0.9200325,-0.000435,-0.006936,1.0799675,0.0004349999999999,0.0069359999999999,0.8275215000000001,-0.089135,-0.302557,1.2154915,-0.072635,-0.255117,0.8354615000000001,-0.397915,-0.032124,1.1400715,-0.391295,-0.009673,1
66,1.023424,0.70705,-0.146125,0.858012,0.5272399999999999,-0.128305,0.7910420000000001,0.69546,-0.267795,1.162202,0.52787,-0.099867,1.269602,0.66735,-0.2462649999999999,0.7860320000000001,0.88725,-0.383255,1.314252,0.83284,-0.392395,0.920057,-0.0007,-0.007234,1.079943,0.0006999999999999,0.007234,0.824542,-0.07488,-0.307805,1.217452,-0.05713,-0.255775,0.8342220000000001,-0.38224,-0.03309,1.141062,-0.37455,-0.01022,1
67,1.022142,0.705195,-0.1466905,0.857648,0.5237350000000001,-0.1305305,0.792438,0.691435,-0.2717105,1.160488,0.526806,-0.0999704999999999,1.267248,0.665895,-0.2474005,0.7871980000000001,0.882145,-0.3892105,1.311638,0.830725,-0.3945805,0.920192,-0.0010149999999999,-0.0073855,1.079808,0.0010149999999999,0.0073855,0.821848,-0.0630749999999999,-0.3119305,1.218788,-0.0451449999999999,-0.2560705,0.832748,-0.3668549999999999,-0.0337515,1.141928,-0.358955,-0.0101505,1
68,1.020862,0.70296,-0.1474875,0.857524,0.521226,-0.1326574999999999,0.793664,0.68744,-0.2764375,1.158904,0.526668,-0.1001945,1.265454,0.66431,-0.2486675,0.7883640000000001,0.8768199999999999,-0.3962475,1.309804,0.82822,-0.3972175,0.920314,-0.0012299999999999,-0.0073925,1.079686,0.0012299999999999,0.0073925,0.819194,-0.0528999999999999,-0.3153875,1.219644,-0.0347699999999999,-0.2562475,0.831074,-0.3536,-0.0342495,1.142944,-0.34552,-0.0100415,1
69,1.020042,0.70121,-0.1482525,0.857491,0.5193110000000001,-0.1348425,0.7936810000000001,0.68381,-0.2815425,1.157701,0.526364,-0.1005414999999999,1.264261,0.66318,-0.2497125,0.788501,0.8722000000000001,-0.4034825,1.308601,0.82567,-0.3995825,0.920361,-0.00146,-0.0074305,1.079639,0.00146,0.0074305,0.816641,-0.0442699999999999,-0.3183525,1.220171,-0.0257699999999999,-0.2563325,0.8295410000000001,-0.3424399999999999,-0.0346044999999999,1.143971,-0.3339,-0.0099565,1
70,1.019266,0.69975,-0.148995,0.857463,0.5165420000000001,-0.136975,0.794613,0.67994,-0.286665,1.156863,0.52623,-0.100906,1.263343,0.66169,-0.251025,0.789643,0.86685,-0.410595,1.307843,0.82304,-0.402325,0.920398,-0.0017,-0.0074309999999999,1.079602,0.0017,0.007431,0.814093,-0.0368699999999999,-0.320445,1.220363,-0.0179899999999999,-0.256445,0.8281229999999999,-0.3331499999999999,-0.0347429999999999,1.144933,-0.3241699999999999,-0.010064,1
71,1.018513,0.69759,-0.1497715,0.857438,0.514871,-0.1391015,0.795428,0.67525,-0.2911815,1.156158,0.525792,-0.1012704999999999,1.262748,0.66031,-0.2525215,0.790288,0.8606400000000001,-0.4175915,1.307918,0.82071,-0.4052315,0.920385,-0.0019299999999999,-0.0075084999999999,1.079615,0.0019299999999999,0.0075085,0.811688,-0.0319399999999999,-0.3222015,1.220528,-0.01268,-0.2568015,0.8268679999999999,-0.32672,-0.0349735,1.145718,-0.31743,-0.0101745,1
72,1.017968,0.69645,-0.150616,0.8574189999999999,0.513043,-0.1410759999999999,0.796049,0.6716500000000001,-0.295566,1.155559,0.525802,-0.101812,1.262369,0.65923,-0.254056,0.790589,0.8558000000000001,-0.424226,1.308069,0.81896,-0.407256,0.920424,-0.00212,-0.007571,1.079576,0.00212,0.007571,0.809619,-0.0280899999999999,-0.323606,1.220709,-0.0083999999999999,-0.257356,0.825799,-0.32158,-0.035257,1.146539,-0.31209,-0.010405,1
73,1.0174605,0.6950449999999999,-0.1519105,0.8575665,0.5112349999999999,-0.1427105,0.7963865,0.6686249999999999,-0.2989305,1.1552764999999998,0.5262669999999999,-0.1024645,1.2625365,0.658387,-0.2554805,0.7906965,0.8518049999999999,-0.4292005,1.3082265,0.8174849999999999,-0.4089205,0.9204535,-0.002295,-0.0076485,1.0795465,0.0022949999999999,0.0076485,0.8091665,-0.025025,-0.3239905,1.2208765,-0.0056650000000001,-0.2578205,0.8249265,-0.3183150000000001,-0.0357815,1.1473065,-0.3086750000000001,-0.0108665,1
74,1.0170374999999998,0.6953499999999999,-0.153258,0.8576095000000001,0.509114,-0.144398,0.7956595000000001,0.6661699999999999,-0.301178,1.1551095,0.52698,-0.103289,1.2626795,0.658168,-0.256678,0.7900294999999999,0.84867,-0.432578,1.3083895,0.8171599999999999,-0.409788,0.9204855,-0.00251,-0.007738,1.0795145,0.00251,0.007738,0.8090595,-0.02277,-0.324478,1.2206995,-0.00369,-0.258148,0.8244795,-0.3159200000000001,-0.036116,1.1480495,-0.30638,-0.011381,1
75,1.0168865,0.69499,-0.1543604999999999,0.8576535000000001,0.50958,-0.1450205,0.7958035,0.66623,-0.3019905,1.1550835,0.5274,-0.1037455,1.2628335,0.658142,-0.2570005,0.7901735,0.84886,-0.4331605,1.3089535,0.81762,-0.4097905,0.9204765,-0.0025,-0.0077375,1.0795235,0.0024999999999999,0.0077375,0.8090935,-0.02263,-0.3248205,1.2199935,-0.0036,-0.2581405,0.8242935,-0.3156299999999999,-0.0360995,1.1485835,-0.30656,-0.0115535,1
76,1.016734,0.69481,-0.1553625,0.857666,0.5096900000000001,-0.1455725,0.7958959999999999,0.66634,-0.3020325,1.155206,0.527418,-0.1041905,1.262996,0.6582520000000001,-0.2570125,0.790026,0.84897,-0.4331625,1.310186,0.8177300000000001,-0.4098125,0.920516,-0.0024599999999999,-0.0077385,1.079484,0.00246,0.0077384999999999,0.8090459999999999,-0.0227899999999999,-0.3248225,1.218916,-0.0036699999999999,-0.2584325,0.824226,-0.3157,-0.0360585,1.148926,-0.3070999999999999,-0.0118105,1
77,1.016795,0.6949,-0.156275,0.857742,0.50978,-0.145875,0.795982,0.66643,-0.302035,1.155372,0.527508,-0.104624,1.263642,0.658342,-0.257015,0.789432,0.8490599999999999,-0.4331549999999999,1.312062,0.81782,-0.409835,0.92056,-0.0024399999999999,-0.0077389999999999,1.07944,0.0024399999999999,0.0077389999999999,0.8090220000000001,-0.02292,-0.324825,1.217652,-0.00382,-0.259145,0.8243320000000001,-0.31589,-0.0361839999999999,1.149212,-0.30754,-0.0120569999999999,1
78,1.017059,0.69496,-0.1569145,0.857928,0.5098400000000001,-0.1458245,0.795218,0.66649,-0.3018445,1.155648,0.527601,-0.1047265,1.264928,0.658402,-0.2567145,0.788578,0.8491200000000001,-0.4329545,1.314488,0.81788,-0.4087045,0.920533,-0.00239,-0.0077324999999999,1.079467,0.00239,0.0077325,0.809218,-0.0231599999999999,-0.3246445,1.216538,-0.0040299999999999,-0.2601245,0.8245880000000001,-0.31611,-0.0362355,1.149628,-0.30796,-0.0121404999999999,1
79,1.017342,0.6950299999999999,-0.1569875,0.858152,0.510165,-0.1451975,0.794342,0.6668499999999999,-0.3011275,1.156112,0.528832,-0.1042985,1.266522,0.6591119999999999,-0.2560375,0.787372,0.8500599999999999,-0.4312975,1.316682,0.81944,-0.4066775,0.920527,-0.00232,-0.0076005,1.079473,0.0023199999999999,0.0076005,0.809512,-0.02351,-0.3239975,1.215552,-0.0042700000000001,-0.2608074999999999,0.824832,-0.3163,-0.0357855,1.150062,-0.30839,-0.0117585,1
80,1.0176234999999998,0.6950350000000001,-0.156571,0.8584235,0.510602,-0.144101,0.7931735,0.668085,-0.298691,1.1567735,0.52967,-0.103389,1.2681535,0.660326,-0.254611,0.7856335,0.852195,-0.427311,1.3187434999999998,0.821895,-0.403371,0.9204735,-0.002325,-0.0074319999999999,1.0795265,0.002325,0.007432,0.8098635,-0.0242649999999999,-0.323221,1.2147335,-0.0049749999999999,-0.261271,0.8250635,-0.316835,-0.0349359999999999,1.1505235,-0.309095,-0.0111949999999999,1
81,1.017858,0.695425,-0.1558514999999999,0.858641,0.511261,-0.1428515,0.7917810000000001,0.670005,-0.2952714999999999,1.157441,0.530076,-0.1023095,1.269611,0.661519,-0.2527315,0.783391,0.855525,-0.4214414999999999,1.320491,0.825035,-0.3991115,0.920357,-0.002245,-0.0072835,1.079643,0.0022449999999999,0.0072835,0.810191,-0.025035,-0.3225415,1.214051,-0.005755,-0.2619515,0.825271,-0.3173749999999999,-0.0340035,1.150931,-0.3097149999999999,-0.0105085,1
82,1.0180905,0.6958,-0.1545659999999999,0.8588565,0.5121039999999999,-0.141426,0.7903665,0.6723299999999999,-0.291266,1.1580765,0.5305329999999999,-0.101037,1.2710065,0.6628999999999999,-0.250266,0.7811465,0.8597199999999999,-0.414166,1.3220565,0.82843,-0.393996,0.9202695,-0.00214,-0.007141,1.0797305,0.0021399999999999,0.007141,0.8104865,-0.02579,-0.321786,1.2135065,-0.00653,-0.262716,0.8255665,-0.3178400000000001,-0.032967,1.1513365,-0.31022,-0.009684,1
83,1.01839,0.6961499999999999,-0.1527819999999999,0.859065,0.513118,-0.139422,0.788905,0.67531,-0.285982,1.158675,0.530739,-0.099269,1.272315,0.66441,-0.246972,0.778925,0.8647099999999999,-0.405372,1.323245,0.8318699999999999,-0.388042,0.920174,-0.00207,-0.006996,1.079826,0.0020699999999999,0.006996,0.810675,-0.0265900000000001,-0.320982,1.213075,-0.00745,-0.263252,0.825775,-0.31825,-0.031538,1.151765,-0.31073,-0.00869,1
84,1.018711,0.696495,-0.1508205,0.859244,0.514149,-0.1372605,0.7875940000000001,0.678375,-0.2803405,1.159264,0.531005,-0.0974145,1.273444,0.6659149999999999,-0.2433605,0.7770440000000001,0.8697649999999999,-0.3961705,1.324084,0.8350949999999999,-0.3823605,0.920067,-0.002035,-0.0068825,1.079933,0.002035,0.0068825,0.810834,-0.027345,-0.3201505,1.212874,-0.008315,-0.2637704999999999,0.825944,-0.318515,-0.0299485,1.152214,-0.311085,-0.0074635,1
85,1.0190255,0.6968399999999999,-0.1488985,0.8594045000000001,0.515173,-0.1350985,0.7865645,0.6814199999999999,-0.2747485,1.1598045,0.531239,-0.0955885,1.2743945,0.66737,-0.2398785,0.7755745000000001,0.87463,-0.3872685,1.3246245,0.8381399999999999,-0.3770385,0.9199725,-0.002,-0.0067825,1.0800275,0.002,0.0067825,0.8109645,-0.02805,-0.3194485,1.2127645,-0.00922,-0.2639785,0.8261245,-0.31867,-0.0284034999999999,1.1525445,-0.31142,-0.0062825,1
86,1.019379,0.697135,-0.147161,0.85956,0.515787,-0.133021,0.78588,0.683985,-0.2693709999999999,1.1603,0.5315669999999999,-0.093846,1.2752,0.6688649999999999,-0.2366909999999999,0.77456,0.8787849999999999,-0.378941,1.32495,0.840905,-0.372431,0.919914,-0.001935,-0.00672,1.080086,0.0019349999999999,0.00672,0.81107,-0.028675,-0.318901,1.21268,-0.010025,-0.264181,0.82628,-0.318695,-0.027035,1.15288,-0.3116850000000001,-0.005081,1
87,1.0197485,0.69745,-0.145709,0.8597315,0.516429,-0.131129,0.7854115,0.68625,-0.2647589999999999,1.1607915,0.531912,-0.0924,1.2758915,0.6702600000000001,-0.233909,0.7738315,0.8822700000000001,-0.3719289999999999,1.3252615,0.8434200000000001,-0.368459,0.9198905,-0.0018699999999999,-0.006652,1.0801095,0.00187,0.006652,0.8108715000000001,-0.0292,-0.318449,1.2125915,-0.0108199999999999,-0.264619,0.8263715,-0.31875,-0.026069,1.1531815,-0.31192,-0.004176,1
88,1.0201275,0.69774,-0.144467,0.8598615000000001,0.517036,-0.129437,0.7850515,0.68831,-0.2606569999999999,1.1612515,0.531926,-0.0911859999999999,1.2764915,0.67153,-0.231457,0.7732715,0.88541,-0.365627,1.3256015,0.84577,-0.3648369999999999,0.9198615,-0.00182,-0.006643,1.0801385,0.00182,0.006643,0.8107815,-0.02963,-0.318107,1.2124715,-0.0115699999999999,-0.265237,0.8263915,-0.3188299999999999,-0.025306,1.1534315,-0.3121699999999999,-0.0033329999999999,1
89,1.02047,0.6980149999999999,-0.1435185,0.8599860000000001,0.5176379999999999,-0.1280685,0.784896,0.6901149999999999,-0.2573085,1.161616,0.5321579999999999,-0.0902375,1.276996,0.672735,-0.2292884999999999,0.772876,0.888185,-0.3602685,1.325836,0.847955,-0.3616284999999999,0.919851,-0.001765,-0.0066225,1.080149,0.0017649999999999,0.0066225,0.8106960000000001,-0.0299450000000001,-0.3178785,1.2122959999999998,-0.012215,-0.2660484999999999,0.826356,-0.3188550000000001,-0.0249445,1.153566,-0.312215,-0.0026695,1
90,1.0207815,0.6980749999999999,-0.142654,0.8600765000000001,0.5181399999999999,-0.126814,0.7849165000000001,0.6917449999999999,-0.254244,1.1618565,0.5323119999999999,-0.089377,1.2774465,0.6738449999999999,-0.227264,0.7726565000000001,0.8905649999999999,-0.355574,1.3259465,0.8497849999999999,-0.358824,0.9198205,-0.001685,-0.006569,1.0801795,0.0016849999999999,0.006569,0.8105964999999999,-0.030255,-0.317574,1.2121565,-0.012775,-0.266574,0.8262865,-0.3189050000000001,-0.0247289999999999,1.1536565,-0.3124350000000001,-0.002095,1
91,1.0211635,0.69815,-0.141903,0.8601595000000001,0.518599,-0.125693,0.7849195,0.6932400000000001,-0.251463,1.1622395,0.532347,-0.088613,1.2778995,0.67484,-0.225363,0.7725295,0.8925700000000001,-0.351653,1.3259795,0.8513900000000001,-0.356143,0.9197995,-0.00161,-0.006507,1.0802005,0.00161,0.006507,0.8105295,-0.0304499999999999,-0.317293,1.2121095,-0.0132099999999999,-0.266923,0.8262195,-0.3188499999999999,-0.024477,1.1537495,-0.31262,-0.001406,1
92,1.021617,0.69819,-0.1414899999999999,0.8602650000000001,0.5189189999999999,-0.1250099999999999,0.784925,0.69434,-0.24959,1.162595,0.5323,-0.088193,1.278295,0.6755399999999999,-0.2239199999999999,0.772535,0.8940999999999999,-0.34878,1.325995,0.85254,-0.35399,0.919781,-0.0015399999999999,-0.006438,1.080219,0.0015399999999999,0.006438,0.810485,-0.03053,-0.31721,1.212085,-0.01345,-0.26707,0.826125,-0.31882,-0.024332,1.154165,-0.3127000000000001,-0.001059,1
93,1.0221735,0.6982499999999999,-0.141168,0.8603475,0.5191879999999999,-0.124448,0.7848875000000001,0.6953199999999999,-0.2479779999999999,1.1628675,0.5323539999999999,-0.0878709999999999,1.2786675,0.67619,-0.222628,0.7724975000000001,0.8953599999999999,-0.346488,1.3263275,0.8536199999999999,-0.351988,0.9197115,-0.00148,-0.006368,1.0802885,0.0014799999999999,0.006368,0.8104175,-0.03053,-0.317148,1.2120175,-0.0136100000000001,-0.266888,0.8259275,-0.31876,-0.024399,1.1546175,-0.31271,-0.000825,1
94,1.022686,0.6983050000000001,-0.1409325,0.860304,0.5194270000000001,-0.1239825,0.784894,0.696185,-0.2467125,1.163104,0.532409,-0.0877325,1.278884,0.676575,-0.2214525,0.772314,0.896445,-0.3446324999999999,1.326814,0.8542350000000001,-0.3500425,0.919591,-0.0014249999999998,-0.0063075,1.080409,0.001425,0.0063075,0.810204,-0.0305149999999999,-0.3170825,1.211824,-0.0137149999999999,-0.2667425,0.8255440000000001,-0.318785,-0.0245535,1.155034,-0.3127049999999999,-0.0006515,1
95,1.0232635,0.69833,-0.1407815,0.8602255,0.519662,-0.1236015,0.7850455000000001,0.6969099999999999,-0.2457114999999999,1.1632855,0.5321319999999999,-0.0876455,1.2790655,0.67683,-0.2204915,0.7720855,0.8973800000000001,-0.3431115,1.3274555,0.8544700000000001,-0.3485015,0.9195245,-0.00136,-0.0062495,1.0804755,0.00136,0.0062495,0.8099455,-0.0304499999999999,-0.3170415,1.2117255,-0.0137899999999999,-0.2666915,0.8249655000000001,-0.31879,-0.0247855,1.1554155,-0.31269,-0.0003874999999999,1
96,1.023823,0.698275,-0.140689,0.860105,0.5198659999999999,-0.123329,0.785275,0.697605,-0.244969,1.163385,0.5318769999999999,-0.087545,1.279175,0.6769149999999999,-0.219689,0.772125,0.898255,-0.3418989999999999,1.328265,0.854555,-0.347209,0.919445,-0.001295,-0.006241,1.080555,0.0012949999999999,0.006241,0.8096650000000001,-0.030395,-0.317059,1.2118749999999998,-0.0138249999999999,-0.266679,0.8242550000000001,-0.318795,-0.024918,1.155695,-0.3126649999999999,-0.0001769999999999,1
97,1.024418,0.69814,-0.140603,0.859935,0.520104,-0.123053,0.785495,0.69825,-0.244453,1.163505,0.5314540000000001,-0.087462,1.279195,0.67706,-0.218963,0.7722450000000001,0.89903,-0.341093,1.329175,0.8547,-0.346253,0.919375,-0.0012199999999999,-0.00624,1.080625,0.0012199999999999,0.00624,0.8092950000000001,-0.0302899999999999,-0.317063,1.212045,-0.0137799999999999,-0.266583,0.823375,-0.31872,-0.024932,1.155925,-0.3125899999999999,3.900000000000084e-05,1
98,1.0249545,0.6979549999999999,-0.140538,0.8597145000000002,0.520295,-0.122838,0.7857545,0.6988049999999999,-0.244098,1.1635545,0.5307999999999999,-0.087425,1.2791344999999998,0.6771749999999999,-0.218408,0.7723845,0.899565,-0.3409379999999999,1.3302445,0.8548149999999999,-0.3454979999999999,0.9193445,-0.001175,-0.006197,1.0806555,0.0011749999999999,0.006197,0.8088744999999999,-0.030225,-0.3171079999999999,1.2121745,-0.013715,-0.266458,0.8224145,-0.318695,-0.02496,1.1560245,-0.312505,0.000239,1
99,1.025436,0.6977399999999999,-0.1405225,0.859668,0.5206689999999999,-0.1226324999999999,0.7860480000000001,0.6993299999999999,-0.2439825,1.163758,0.5301569999999999,-0.0873915,1.279058,0.6771199999999999,-0.2180025,0.772578,0.8998899999999999,-0.3410025,1.331328,0.8546699999999999,-0.3450824999999999,0.91933,-0.00113,-0.0061344999999999,1.08067,0.0011299999999999,0.0061345,0.8084680000000001,-0.0301300000000001,-0.3171624999999999,1.212338,-0.0136300000000001,-0.2662525,0.821438,-0.31864,-0.0250075,1.156128,-0.3123800000000001,0.0003684999999999,1
100,1.0258855,0.697505,-0.1404895,0.8596035,0.521037,-0.1225095,0.7863535,0.699785,-0.2440495,1.1638235,0.5293749999999999,-0.0874395,1.2790435,0.676995,-0.2178495,0.7728435,0.9000349999999999,-0.3411295,1.3325935,0.854305,-0.3450895,0.9192985,-0.0010649999999999,-0.0060785,1.0807015,0.0010649999999999,0.0060785,0.8081335000000001,-0.030005,-0.3172795,1.2124835,-0.0135549999999999,-0.2660195,0.8204035000000001,-0.318585,-0.0250724999999999,1.1561335,-0.312235,0.0005045,1
101,1.0263075,0.6973550000000001,-0.1406639999999999,0.8596485,0.521528,-0.122414,0.7866585,0.7001250000000001,-0.244244,1.1641585,0.5286770000000001,-0.0875089999999999,1.2790485,0.676365,-0.2179839999999999,0.7732585,0.900215,-0.341324,1.3338885,0.853295,-0.345304,0.9192635,-0.0009749999999999,-0.00605,1.0807365,0.000975,0.00605,0.8078285000000001,-0.0298349999999999,-0.3174639999999999,1.2126685,-0.0134749999999999,-0.265744,0.8193985,-0.3186049999999999,-0.0251699999999999,1.1558385,-0.3120449999999999,0.000587,1
102,1.0266485,0.6970799999999999,-0.1407935,0.8597675,0.5220549999999999,-0.1223735,0.7869675,0.70038,-0.2444835,1.1645975,0.527717,-0.0876625,1.2792375,0.67552,-0.2182035,0.7736975,0.90039,-0.3418434999999999,1.3353374999999998,0.8519699999999999,-0.3455534999999999,0.9192295,-0.0008799999999999,-0.0060435,1.0807705,0.0008799999999999,0.0060435,0.8075875,-0.02966,-0.3176735,1.2128975,-0.01343,-0.2655134999999999,0.8183975,-0.31861,-0.0252905,1.1554575,-0.31186,0.0006144999999999,1
103,1.0270175,0.6967450000000001,-0.1409575,0.8600925,0.52263,-0.1223674999999999,0.7872925,0.7005750000000001,-0.2447675,1.1650425,0.5267740000000001,-0.0878895,1.2797725,0.6746650000000001,-0.2184875,0.7742025,0.9005650000000001,-0.3427975,1.3371125,0.850435,-0.3458575,0.9192675,-0.0007749999999999,-0.0060555,1.0807325,0.0007749999999999,0.0060555,0.8074825,-0.029475,-0.3179275,1.2131124999999998,-0.013375,-0.2653675,0.8175225,-0.318585,-0.0254295,1.1550725,-0.3116449999999999,0.0003404999999999,1
104,1.027343,0.696295,-0.1411195,0.860407,0.523117,-0.1224094999999999,0.787667,0.7007950000000001,-0.2452195,1.165577,0.5258970000000001,-0.0881825,1.280527,0.673685,-0.2187895,0.774747,0.900575,-0.3440895,1.339037,0.8488249999999999,-0.3463394999999999,0.919246,-0.000665,-0.0060564999999999,1.080754,0.000665,0.0060564999999999,0.807517,-0.0293149999999999,-0.3181695,1.213297,-0.0133149999999999,-0.2653195,0.816837,-0.3184049999999999,-0.0256105,1.154707,-0.3114249999999999,5.749999999999983e-05,1
105,1.027601,0.6958000000000001,-0.141298,0.8607899999999999,0.523653,-0.122428,0.788,0.7010200000000001,-0.245818,1.16616,0.5251,-0.088501,1.28133,0.6725500000000001,-0.219088,0.77498,0.90049,-0.345548,1.34083,0.847,-0.3469379999999999,0.919235,-0.0005399999999999,-0.006007,1.080765,0.00054,0.006007,0.8075800000000001,-0.0291599999999999,-0.318428,1.2132299999999998,-0.0132699999999998,-0.265428,0.81623,-0.3182699999999999,-0.0257519999999999,1.15436,-0.3112299999999999,-0.000221,1
106,1.0277975,0.6953100000000001,-0.1413485,0.8613115,0.5242030000000001,-0.1223684999999999,0.7883415,0.7011700000000001,-0.2464285,1.1667115,0.524464,-0.0886935,1.2823115,0.6714,-0.2194385,0.7751915,0.9002600000000001,-0.3469885,1.3425915,0.8453700000000001,-0.3476685,0.9192185,-0.0004199999999999,-0.0059325,1.0807815,0.00042,0.0059325,0.8078115000000001,-0.0290799999999999,-0.3186185,1.2131715,-0.0132899999999999,-0.2655385,0.8157915,-0.3181999999999999,-0.0258025,1.1540815,-0.3110299999999999,-0.0004275,1
107,1.0279685,0.69479,-0.141267,0.8619145,0.524796,-0.1221469999999999,0.7886945,0.70121,-0.246987,1.1672945,0.5240020000000001,-0.088799,1.2832745,0.6702600000000001,-0.219717,0.7753445,0.89993,-0.348337,1.3440445,0.84388,-0.3483469999999999,0.9191225,-0.00029,-0.005876,1.0808775,0.00029,0.005876,0.8080445,-0.0289899999999999,-0.318677,1.2130645,-0.0132899999999999,-0.2655969999999999,0.8153845,-0.3181499999999999,-0.0258569999999999,1.1537645,-0.31079,-0.0005679999999999,1
108,1.0281829999999998,0.6941550000000001,-0.141123,0.862325,0.5252190000000001,-0.121943,0.789015,0.7012050000000001,-0.247443,1.167735,0.5236350000000001,-0.088877,1.284205,0.669405,-0.219993,0.775425,0.8995150000000001,-0.349723,1.345385,0.8427450000000001,-0.3490229999999999,0.919031,-0.0001649999999999,-0.005875,1.080969,0.000165,0.005875,0.808285,-0.028895,-0.3187129999999999,1.212945,-0.013305,-0.2655929999999999,0.8149649999999999,-0.3180649999999999,-0.025812,1.153465,-0.3105549999999999,-0.0006349999999999,1
109,1.0283585,0.693485,-0.141019,0.8628015,0.52564,-0.121829,0.7893114999999999,0.701245,-0.247919,1.1681715,0.523508,-0.088884,1.2850415,0.668695,-0.220359,0.7754615000000001,0.899135,-0.351079,1.3464015,0.841865,-0.349709,0.9189655,-2.500000000005276e-05,-0.005874,1.0810345,2.500000000005276e-05,0.005874,0.8085315000000001,-0.0288049999999999,-0.318789,1.2128614999999998,-0.013325,-0.2655889999999999,0.8145915000000001,-0.318015,-0.025769,1.1531915,-0.310365,-0.000771,1
110,1.028425,0.6927800000000001,-0.1409235,0.863154,0.5259010000000001,-0.1218135,0.789474,0.70128,-0.2483935,1.168294,0.523583,-0.0889175,1.285734,0.66862,-0.2207435,0.7752140000000001,0.89886,-0.3521034999999999,1.347154,0.84178,-0.3503535,0.918871,4.999999999999449e-05,-0.0058725,1.081129,-4.999999999999449e-05,0.0058725,0.8087340000000001,-0.0289699999999999,-0.3189134999999999,1.212734,-0.0134699999999999,-0.2656035,0.8141840000000001,-0.31809,-0.0257624999999999,1.152864,-0.3102899999999999,-0.0010424999999999,1
111,1.0284,0.6923600000000001,-0.140741,0.863401,0.526112,-0.121681,0.789471,0.7013,-0.248691,1.168311,0.5236510000000001,-0.088908,1.286201,0.6686400000000001,-0.2210109999999999,0.774841,0.8987700000000001,-0.352801,1.347601,0.8418000000000001,-0.350781,0.918828,7.00000000000145e-05,-0.00577,1.081172,-6.999999999990347e-05,0.00577,0.808851,-0.0291999999999998,-0.319051,1.212471,-0.0136999999999999,-0.265571,0.8138310000000001,-0.3181599999999999,-0.0256199999999999,1.152511,-0.3102399999999999,-0.0012049999999999,1
112,1.0282145,0.6923600000000001,-0.1402505,0.8633925,0.526402,-0.1211905,0.7892325,0.7013,-0.2486505,1.1682025,0.5236510000000001,-0.0887445,1.2863225,0.6686400000000001,-0.2209805,0.7743525,0.8987700000000001,-0.3526605,1.3473725,0.8418000000000001,-0.3508205,0.9188035,7.00000000000145e-05,-0.0056455,1.0811965,-6.999999999990347e-05,0.0056455,0.8087825000000001,-0.0294599999999999,-0.3189105,1.2120025,-0.0140999999999998,-0.2655205,0.8133425000000001,-0.3181799999999999,-0.0251415,1.1519725,-0.3102199999999999,-0.0010314999999999,1
113,1.027919,0.6923349999999999,-0.139595,0.863285,0.52677,-0.120525,0.788695,0.7012749999999999,-0.248325,1.1680849999999998,0.5240659999999999,-0.088684,1.286345,0.668615,-0.2208149999999999,0.773815,0.8987449999999999,-0.352395,1.346895,0.8417749999999999,-0.350635,0.918789,9.499999999995624e-05,-0.005463,1.081211,-9.500000000006724e-05,0.0054629999999999,0.808585,-0.029735,-0.318795,1.211465,-0.014585,-0.265575,0.8128150000000001,-0.318185,-0.024573,1.151395,-0.3102350000000001,-0.000696,1
114,1.02736,0.6923599999999999,-0.1388805,0.862997,0.5272089999999999,-0.1197805,0.788177,0.7012799999999999,-0.2478605,1.168037,0.5247809999999999,-0.0885365,1.286427,0.66889,-0.2206005,0.773117,0.8986799999999999,-0.3519005,1.346497,0.8420699999999999,-0.3503905,0.918797,0.0001599999999999,-0.0052845,1.081203,-0.00016,0.0052845,0.808287,-0.03001,-0.3188005,1.210887,-0.01504,-0.2656604999999999,0.812357,-0.3181900000000001,-0.0239985,1.150777,-0.3103000000000001,-0.0002684999999999,1
115,1.0269155,0.6931750000000001,-0.1383055,0.8625755000000002,0.5274230000000001,-0.1191155,0.7877255000000001,0.701145,-0.2474154999999999,1.1679855,0.5256700000000001,-0.0884855,1.2865555,0.669555,-0.2203255,0.7721155,0.8985150000000001,-0.3514155,1.3462055,0.8429650000000001,-0.3501855,0.9189135,0.000175,-0.0050065,1.0810865,-0.0001749999999999,0.0050065,0.8080555,-0.0302949999999999,-0.3183554999999999,1.2104355,-0.0154549999999999,-0.2660254999999999,0.8122355,-0.3184049999999999,-0.0236135,1.1502955,-0.310565,0.0001324999999999,1
116,1.0265225,0.693425,-0.1377519999999999,0.8622565,0.52793,-0.118672,0.7873465,0.701225,-0.247002,1.1680164999999998,0.526219,-0.08871,1.2868765,0.670165,-0.220252,0.7709064999999999,0.898605,-0.350962,1.3459765,0.843865,-0.350072,0.9190925,0.000205,-0.004724,1.0809075,-0.000205,0.004724,0.8079065,-0.0312249999999999,-0.317712,1.2099365,-0.016395,-0.2665119999999999,0.8122564999999999,-0.319225,-0.023264,1.1496665,-0.3114749999999999,0.000595,1
117,1.0261034999999998,0.69515,-0.1375545,0.8617954999999999,0.527737,-0.1183845,0.7867554999999999,0.7008700000000001,-0.2468645,1.1679755,0.527726,-0.0893175,1.2867455,0.6715300000000001,-0.2205345,0.7695155,0.8981700000000001,-0.3506245,1.3456955,0.8455000000000001,-0.3503445,0.9191635,0.0001000000000001,-0.0045334999999999,1.0808365,-9.9999999999989e-05,0.0045335,0.8076655,-0.0328599999999998,-0.3171145,1.2092655,-0.0180299999999999,-0.2668645,0.8123355000000001,-0.3207399999999999,-0.0231065,1.1488655,-0.3130599999999999,0.0011185,1
118,1.025766,0.6968000000000001,-0.138221,0.8614460000000002,0.5294900000000001,-0.119101,0.785666,0.70176,-0.247771,1.168026,0.5289130000000001,-0.0906279999999999,1.287076,0.6721600000000001,-0.221571,0.767626,0.8988200000000001,-0.351971,1.345316,0.84616,-0.351631,0.919372,0.0003,-0.004528,1.080628,-0.0002999999999999,0.004528,0.8078860000000001,-0.0365099999999999,-0.317111,1.208656,-0.0220599999999999,-0.267351,0.812616,-0.3246099999999999,-0.023469,1.147866,-0.3169899999999999,0.0011409999999999,1
119,1.025402,0.69789,-0.139217,0.8611110000000001,0.529539,-0.119927,0.784451,0.70138,-0.248797,1.168221,0.530483,-0.092072,1.287411,0.67316,-0.222817,0.765501,0.8981300000000001,-0.353547,1.345351,0.84674,-0.353327,0.919629,0.00024,-0.004532,1.080371,-0.00024,0.004532,0.8083910000000001,-0.0418199999999999,-0.317117,1.207841,-0.0280199999999999,-0.267417,0.8130809999999999,-0.33075,-0.023797,1.146651,-0.32311,0.001159,1
120,1.0251275,0.699475,-0.140754,0.8607275,0.5297519999999999,-0.120874,0.7830874999999999,0.701185,-0.249934,1.1683575,0.532152,-0.093594,1.2879075,0.6751849999999999,-0.224074,0.7634675,0.8974549999999999,-0.355264,1.3452775,0.8473949999999999,-0.355334,0.9198525,0.0001049999999999,-0.004535,1.0801475,-0.000105,0.004535,0.8090575,-0.049115,-0.3171239999999999,1.2066875,-0.035595,-0.267404,0.8136775,-0.339075,-0.024073,1.1454275,-0.3315450000000001,0.0011469999999999,1
121,1.024905,0.70041,-0.1425295,0.8603879999999999,0.5299349999999999,-0.1220094999999999,0.781778,0.7004699999999999,-0.2515995,1.1685279999999998,0.53328,-0.0953395,1.287808,0.67601,-0.2257895,0.761418,0.89625,-0.3577295,1.344958,0.84837,-0.3577595,0.919982,-1.0000000000065512e-05,-0.0044395,1.080018,9.99999999995449e-06,0.0044395,0.810048,-0.05828,-0.3165795,1.205218,-0.04516,-0.2674795,0.815048,-0.3497100000000001,-0.0243175,1.144118,-0.3426600000000001,0.0008624999999999,1
122,1.0245795,0.70274,-0.145378,0.8599575,0.530235,-0.123728,0.7803675000000001,0.6998000000000001,-0.253968,1.1683975,0.535162,-0.0974479999999999,1.2876775,0.67766,-0.227508,0.7593975,0.89519,-0.360608,1.3448175,0.8492900000000001,-0.360608,0.9200885,-8.999999999992347e-05,-0.00427,1.0799115,9.00000000000345e-05,0.00427,0.8115875000000001,-0.0683699999999999,-0.315388,1.2035275,-0.0564599999999999,-0.267908,0.8165575,-0.3624099999999999,-0.0248,1.1427175,-0.3560299999999999,0.000284,1
123,1.024211,0.7045950000000001,-0.1487184999999999,0.859536,0.532389,-0.1259885,0.778986,0.700775,-0.2572985,1.168526,0.5357280000000001,-0.1000785,1.288316,0.6778150000000001,-0.2300185,0.7574460000000001,0.895765,-0.3644885,1.344766,0.849145,-0.3640385,0.920221,-0.0001349999999999,-0.0042015,1.079779,0.0001350000000001,0.0042014999999999,0.813396,-0.0801949999999999,-0.3138485,1.201466,-0.0692649999999999,-0.2684384999999999,0.818306,-0.3774749999999999,-0.0257925,1.141246,-0.371575,-0.0008375,1
124,1.023875,0.70589,-0.152436,0.85919,0.5333570000000001,-0.128626,0.77771,0.70045,-0.2609459999999999,1.16853,0.5366650000000001,-0.103186,1.28884,0.67905,-0.233216,0.75595,0.89489,-0.3690759999999999,1.34482,0.84952,-0.367946,0.920427,-0.0001899999999999,-0.004166,1.079573,0.00019,0.004166,0.81609,-0.09221,-0.311056,1.19914,-0.08306,-0.268696,0.8212,-0.3941099999999999,-0.0273419999999999,1.13976,-0.38895,-0.002509,1
125,1.0235655,0.707475,-0.155947,0.8588925000000001,0.53728,-0.130857,0.7761125,0.701635,-0.263817,1.1686525,0.536735,-0.106427,1.2889725,0.679555,-0.235847,0.7546025000000001,0.8956850000000001,-0.373047,1.3449225,0.848765,-0.372187,0.9205995,5.500000000002725e-05,-0.004144,1.0794005,-5.500000000002725e-05,0.004144,0.8192225,-0.1058049999999999,-0.307687,1.1966225,-0.0986349999999999,-0.268677,0.8245825,-0.412875,-0.0297969999999999,1.1384125,-0.4087249999999999,-0.004719,1
126,1.023421,0.708345,-0.1574074999999999,0.858672,0.540264,-0.1323675,0.7742820000000001,0.702985,-0.2655575,1.168752,0.539641,-0.1083175,1.288902,0.681195,-0.2377375,0.753302,0.896485,-0.3752675,1.345012,0.850435,-0.3739475,0.920821,4.999999999977245e-06,-0.0040415,1.079179,-5.000000000032756e-06,0.0040415,0.8226519999999999,-0.120075,-0.3027074999999999,1.1937019999999998,-0.114495,-0.2674475,0.828132,-0.432875,-0.0314525,1.137032,-0.429365,-0.0064165,1
127,1.0231815,0.7089749999999999,-0.158859,0.8583145,0.5408649999999999,-0.133809,0.7729845,0.702665,-0.2669789999999999,1.1687845,0.5403049999999999,-0.110139,1.2887945,0.681975,-0.239189,0.7525445,0.8957249999999999,-0.376699,1.3453145,0.8508249999999999,-0.375399,0.9210785,-0.000205,-0.004139,1.0789215,0.0002049999999999,0.004139,0.8258645,-0.135565,-0.2976189999999999,1.1902145,-0.129615,-0.264599,0.8318945,-0.453995,-0.033017,1.1359445,-0.450435,-0.008444,1
128,1.023015,0.71246,-0.1594055,0.857999,0.54449,-0.1343555,0.771829,0.70539,-0.2675155,1.168869,0.54165,-0.1106854999999999,1.288699,0.68462,-0.2397355,0.751849,0.8980300000000001,-0.3772355,1.345799,0.85246,-0.3759555,0.921407,-0.0001499999999999,-0.0041505,1.078593,0.0001499999999999,0.0041505,0.8301490000000001,-0.1497599999999999,-0.2893555,1.185909,-0.14433,-0.2585055,0.836039,-0.4756299999999999,-0.0335525,1.134809,-0.47246,-0.0094855,1
129,1.023378,0.713475,-0.1611469999999999,0.858601,0.549735,-0.136107,0.773231,0.709645,-0.269277,1.169491,0.543965,-0.112437,1.289191,0.6863049999999999,-0.241487,0.753251,0.902475,-0.378997,1.345981,0.855815,-0.377697,0.922192,0.0001049999999999,-0.0043619999999999,1.077808,-0.000105,0.0043619999999999,0.835771,-0.163575,-0.281257,1.182431,-0.159065,-0.252837,0.841271,-0.4972649999999999,-0.035161,1.134511,-0.4943849999999999,-0.011637,1
130,1.0233899999999998,0.7124900000000001,-0.1615905,0.858913,0.554,-0.1371105,0.7747930000000001,0.7136199999999999,-0.2699005,1.170263,0.54472,-0.1140005,1.289443,0.68814,-0.2424805,0.754623,0.90666,-0.3794605,1.345743,0.85712,-0.3789405,0.922764,0.0004899999999999,-0.0045835,1.077236,-0.0004899999999999,0.0045835,0.8416129999999999,-0.17711,-0.2727005,1.178813,-0.17368,-0.2463705,0.845793,-0.5186,-0.0367715,1.133953,-0.51604,-0.0136775,1
131,1.02273,0.7071000000000001,-0.1601395,0.8585860000000001,0.5541900000000001,-0.1375694999999999,0.7757760000000001,0.71634,-0.2699895,1.170346,0.54582,-0.1151295,1.289136,0.6906300000000001,-0.2430095,0.7556160000000001,0.90945,-0.3792195,1.345106,0.86009,-0.3791295,0.92335,0.00104,-0.0046574999999999,1.07665,-0.0010399999999999,0.0046575,0.846976,-0.19211,-0.2637494999999999,1.174346,-0.1884499999999999,-0.2384295,0.8498260000000001,-0.54101,-0.0381115,1.133046,-0.53832,-0.0154015,1
132,1.021488,0.70187,-0.1571015,0.8592569999999999,0.55165,-0.1374415,0.776137,0.71675,-0.2661715,1.170157,0.5470200000000001,-0.1157315,1.288567,0.69373,-0.2418615,0.755797,0.91006,-0.3746715,1.343997,0.8635,-0.3765315,0.924036,0.0010999999999999,-0.0049025,1.075964,-0.0010999999999999,0.0049025,0.852447,-0.20433,-0.2534814999999999,1.170137,-0.2012999999999999,-0.2291415,0.853657,-0.56087,-0.0387125,1.132287,-0.55873,-0.0164484999999999,1
133,1.0198495,0.69482,-0.152518,0.8598415,0.55071,-0.135698,0.7776815000000001,0.7171700000000001,-0.260798,1.1696814999999998,0.5463100000000001,-0.115208,1.2875614999999998,0.6959500000000001,-0.238858,0.7570415,0.911,-0.3675679999999999,1.3403915,0.8676600000000001,-0.3729579999999999,0.9247735,0.0011499999999999,-0.005117,1.0752265,-0.0011499999999999,0.005117,0.8570915,-0.21425,-0.242928,1.1657615,-0.2127,-0.218508,0.8559415000000001,-0.57789,-0.03837,1.1313115,-0.5774999999999999,-0.0166499999999999,1
134,1.0177535,0.685535,-0.1460715,0.8593305000000001,0.544745,-0.1331314999999999,0.7789405,0.715365,-0.2538515,1.1686505,0.543715,-0.1140615,1.2848705,0.696955,-0.2349514999999999,0.7579005,0.909715,-0.3589815,1.3350105,0.870785,-0.3670015,0.9250175,0.000895,-0.0051205,1.0749825,-0.0008949999999999,0.0051205,0.8612805,-0.2230849999999999,-0.2313615,1.1605005,-0.2218049999999999,-0.2055114999999999,0.8571605000000001,-0.5942649999999999,-0.0377865,1.1298905,-0.594445,-0.0166295,1
135,1.0158145,0.675305,-0.1395519999999999,0.8585375,0.542895,-0.130312,0.7775375,0.716845,-0.246912,1.1682175,0.536805,-0.112652,1.2850875,0.695395,-0.231122,0.7570475,0.912155,-0.350942,1.3298975,0.870935,-0.361202,0.9254115,0.001225,-0.005053,1.0745885,-0.001225,0.005053,0.8656275,-0.2314649999999999,-0.217562,1.1549575,-0.230845,-0.190522,0.8579275,-0.616225,-0.036751,1.1287675,-0.6167450000000001,-0.015952,1
136,1.014042,0.670075,-0.132983,0.85762,0.538985,-0.126493,0.77603,0.716555,-0.238843,1.16799,0.539655,-0.108173,1.28489,0.7003649999999999,-0.226313,0.7562900000000001,0.912815,-0.341463,1.32471,0.8775949999999999,-0.353723,0.92575,0.0011849999999999,-0.004938,1.07425,-0.0011849999999999,0.004938,0.86999,-0.244075,-0.201743,1.14942,-0.2456149999999999,-0.174213,0.85836,-0.6424749999999999,-0.0340069999999999,1.12769,-0.643605,-0.013613,1
137,1.01228,0.6625300000000001,-0.124366,0.8563720000000001,0.5349200000000001,-0.1212159999999999,0.775402,0.716,-0.229866,1.167832,0.5433,-0.1018719999999999,1.284362,0.70337,-0.2193459999999999,0.7560020000000001,0.91331,-0.330436,1.319192,0.88282,-0.344136,0.925956,0.00113,-0.005174,1.074044,-0.0011299999999999,0.005174,0.8731920000000001,-0.2566,-0.184396,1.144472,-0.25908,-0.156826,0.8586420000000001,-0.66637,-0.029124,1.126972,-0.66772,-0.008692,1
138,1.0109035,0.6585799999999999,-0.112541,0.8544175,0.53154,-0.110651,0.7731574999999999,0.7136399999999999,-0.217141,1.1678775,0.54393,-0.090827,1.2835175,0.7028399999999999,-0.2082109999999999,0.7564175,0.91128,-0.316241,1.3141975,0.88366,-0.331791,0.9260455,0.0010399999999999,-0.005443,1.0739545,-0.0010399999999999,0.005443,0.8761575,-0.2715499999999999,-0.160711,1.1382275,-0.2746599999999999,-0.133151,0.8588875,-0.69527,-0.018468,1.1262275,-0.6966300000000001,0.002272,1
139,1.009569,0.6608310000000001,-0.1013125,0.85252,0.529131,-0.1001325,0.77119,0.712271,-0.2046725,1.16789,0.546801,-0.0793445,1.28285,0.704391,-0.1973225,0.75731,0.910231,-0.3020325,1.30861,0.8871610000000001,-0.3189025,0.92606,0.000773,-0.0055134999999999,1.07394,-0.0007729999999999,0.0055134999999999,0.87857,-0.2848889999999999,-0.1369825,1.13215,-0.2883289999999999,-0.1099025,0.8587899999999999,-0.721679,-0.0069835,1.12582,-0.723059,0.0139545,1
140,1.008413,0.666984,-0.0914665,0.850518,0.530854,-0.0897765,0.769378,0.7123940000000001,-0.1927265,1.167748,0.548504,-0.0680725,1.282028,0.704874,-0.1866165,0.759158,0.910804,-0.2886565,1.302258,0.889514,-0.3052165,0.926289,0.000295,-0.0056565,1.073711,-0.0002949999999999,0.0056564999999999,0.880488,-0.295436,-0.1133765,1.126428,-0.299836,-0.0870665,0.8579180000000001,-0.7441559999999999,0.0056864999999999,1.125348,-0.744906,0.0258965,1
141,1.006946,0.6738055,-0.0832555,0.847948,0.5336155,-0.0803655,0.767198,0.7135155,-0.1852754999999999,1.166848,0.5509755,-0.0576444999999999,1.280608,0.7064954999999999,-0.1778755,0.760328,0.9126855,-0.2796155,1.295458,0.8933055,-0.2943555,0.926134,0.0002494999999999,-0.0059855,1.073866,-0.0002494999999999,0.0059855,0.8813680000000002,-0.3065345,-0.0910955,1.1198279999999998,-0.3112045,-0.0654865,0.855888,-0.7655845,0.0175065,1.124058,-0.7655645,0.0370865,1
142,1.005551,0.6819850000000001,-0.075571,0.84538,0.536375,-0.0713709999999999,0.76517,0.716025,-0.177561,1.16585,0.554255,-0.04694,1.27929,0.707175,-0.169031,0.76188,0.915775,-0.271201,1.29039,0.895385,-0.283501,0.926302,0.000285,-0.006169,1.073698,-0.000285,0.006169,0.88195,-0.3195249999999999,-0.069392,1.11356,-0.322715,-0.044284,0.8536900000000001,-0.785535,0.030224,1.12268,-0.7845949999999999,0.048731,1
143,1.0047215,0.6925979999999999,-0.0691605,0.8435155,0.540898,-0.0636825,0.7635455,0.7189679999999999,-0.1708305,1.1651655,0.5591079999999999,-0.0374335,1.2782455,0.709718,-0.1613005,0.7637455,0.913128,-0.2627305,1.2862355,0.8995179999999999,-0.2743805,0.9263205,0.000261,-0.0063105,1.0736795,-0.0002609999999999,0.0063104999999999,0.8826355,-0.331332,-0.0499934999999999,1.1084155,-0.333922,-0.0266635,0.8519455,-0.803162,0.0417784999999999,1.1216255,-0.801512,0.0593055,1
144,1.0040585,0.7035239999999999,-0.061453,0.8422805,0.542874,-0.054795,0.7588005,0.718504,-0.16244,1.1648305,0.566534,-0.026199,1.2775305,0.7130139999999999,-0.1518,0.7645705,0.912634,-0.25248,1.2809405,0.902344,-0.26285,0.9263765,7.300000000000004e-05,-0.0061,1.0736235,-7.299999999999999e-05,0.0060999999999999,0.8833905,-0.342296,-0.031709,1.1044805,-0.344316,-0.00989,0.8503505,-0.820136,0.054117,1.1208205,-0.817126,0.0700899999999999,1
145,1.0034675,0.70994,-0.0540865,0.8408275000000001,0.54725,-0.0458905,0.7534775000000001,0.72004,-0.1546985,1.1645775,0.56571,-0.0170335,1.2779375,0.7112700000000001,-0.1425385,0.7654375000000001,0.90913,-0.2426085,1.2741575,0.90167,-0.2507085,0.9263775,0.0001719999999999,-0.0061295,1.0736225,-0.000172,0.0061294999999999,0.8840275,-0.34595,-0.0156385,1.1012285,-0.34769,0.0043744999999999,0.8490475,-0.83219,0.0647485,1.1197275,-0.8263699999999999,0.0800475,1
146,1.0027629999999998,0.7163575000000001,-0.0492545,0.839376,0.5504075,-0.0391925,0.749276,0.7202475,-0.1496135,1.164466,0.5630275,-0.0103885,1.278036,0.7091975,-0.1364035,0.767066,0.9092275,-0.2337935,1.266626,0.9010375,-0.2411535,0.926379,0.0002544999999999,-0.0060095,1.073621,-0.0002544999999999,0.0060095,0.8846660000000001,-0.3494725,-0.0042454999999999,1.098472,-0.3510125,0.0142874999999999,0.848046,-0.8445925,0.0722155,1.118536,-0.8367224999999999,0.0866995,1
147,1.001945,0.719995,-0.0461865,0.839176,0.550385,-0.0352015,0.747996,0.720285,-0.1456735,1.1644759999999998,0.563005,-0.0058495,1.278096,0.709225,-0.1320635,0.770106,0.909645,-0.2263534999999999,1.260356,0.901555,-0.2344335,0.926379,0.0002529999999999,-0.0060095,1.073621,-0.0002529999999999,0.0060095,0.884916,-0.349495,0.0026385,1.097292,-0.351035,0.0198945,0.847626,-0.845205,0.0765095,1.117336,-0.836745,0.0903505,1
148,1.001199,0.719995,-0.042264,0.8390420000000001,0.550385,-0.030719,0.7467820000000001,0.720285,-0.141603,1.164332,0.563005,-0.001152,1.277192,0.709225,-0.127003,0.7725220000000002,0.914165,-0.2181929999999999,1.251082,0.901555,-0.2253529999999999,0.926317,0.0002529999999999,-0.006009,1.073683,-0.0002529999999999,0.006009,0.885112,-0.349495,0.008965,1.096268,-0.351035,0.025393,0.847592,-0.845525,0.08019,1.116062,-0.836745,0.093783,1
149,1.000771,0.719995,-0.0381155,0.839176,0.550385,-0.0260325,0.746056,0.720285,-0.1372965,1.164646,0.563005,0.0035545,1.277516,0.709225,-0.1218165,0.776096,0.915335,-0.2102365,1.241336,0.901555,-0.2157664999999999,0.926453,0.0002529999999999,-0.0060104999999999,1.073547,-0.0002529999999999,0.0060105,0.885506,-0.349495,0.0143895,1.095564,-0.351035,0.0300115,0.847876,-0.845845,0.0831935,1.114906,-0.836745,0.0969475,1
150,1.000198,0.7211230000000001,-0.035912,0.839237,0.550953,-0.024784,0.745367,0.720593,-0.136111,1.164187,0.562193,0.005184,1.276667,0.710353,-0.1200209999999999,0.781367,0.912763,-0.205111,1.232247,0.902703,-0.210301,0.926627,0.00024,-0.005807,1.073373,-0.0002399999999999,0.005807,0.885597,-0.349027,0.0152969999999999,1.095039,-0.3506169999999999,0.0301649999999999,0.848037,-0.845017,0.082532,1.113647,-0.834737,0.0963219999999999,1
151,0.999772,0.7223755000000001,-0.0342389999999999,0.839424,0.5514055,-0.0239109999999999,0.744894,0.7205855,-0.1353639999999999,1.163574,0.5611655,0.006614,1.275844,0.7102755000000001,-0.1190039999999999,0.786384,0.9122155,-0.200204,1.224084,0.9032855,-0.206284,0.926797,0.0002334999999999,-0.0056599999999999,1.073203,-0.0002335,0.00566,0.885674,-0.3486245,0.015404,1.094522,-0.3502645,0.029404,0.848184,-0.8438245,0.0805879999999999,1.1125539999999998,-0.8324945,0.094791,1
152,0.999463,0.7226615,-0.0332354999999999,0.839655,0.5516415,-0.0226735,0.744895,0.7201215,-0.1352045,1.162955,0.5599715,0.0076014999999999,1.2751249999999998,0.7095015,-0.1187645,0.791295,0.9111915,-0.1971645,1.216235,0.9030815,-0.2020645,0.92682,0.0002424999999999,-0.0055554999999999,1.07318,-0.0002424999999999,0.0055554999999999,0.885865,-0.3484385,0.0145484999999999,1.094139,-0.3501185,0.0281594999999999,0.848715,-0.8423785,0.0781335,1.111715,-0.8305285,0.0923835,1
153,0.999227,0.7224940000000001,-0.0325285,0.839834,0.551564,-0.0216325,0.745054,0.719244,-0.1353575,1.162364,0.5589740000000001,0.0080455,1.274294,0.7082040000000001,-0.1187975,0.796914,0.909084,-0.1946175,1.209534,0.901694,-0.1985475,0.926728,0.0002559999999999,-0.0053364999999999,1.073272,-0.000256,0.0053364999999999,0.885984,-0.348686,0.0135874999999999,1.093698,-0.3503659999999999,0.0268965,0.8493440000000001,-0.841316,0.0756775,1.110844,-0.828726,0.0900825,1
154,0.9991275,0.7221449999999999,-0.031892,0.8401035,0.550835,-0.020422,0.7452335,0.718055,-0.135335,1.1618235,0.5583549999999999,0.0085259999999999,1.2734635,0.707175,-0.119165,0.8033535,0.906815,-0.191805,1.2042335,0.900185,-0.196375,0.9265595,0.000259,-0.005042,1.0734404999999998,-0.0002589999999999,0.0050419999999999,0.8861435,-0.3489649999999999,0.0124549999999999,1.0933275,-0.350615,0.025647,0.8501735,-0.8407250000000001,0.073514,1.1103535,-0.827445,0.087355,1
155,0.9993215,0.721612,-0.0315805,0.8405035,0.5500820000000001,-0.0191085,0.7454235,0.717072,-0.1349814999999999,1.1614335,0.557852,0.0089595,1.2730534999999998,0.7063020000000001,-0.1194615,0.8092835,0.904362,-0.1905615,1.1992135,0.898582,-0.1939314999999999,0.9263715,0.000301,-0.0049624999999999,1.0736285,-0.000301,0.0049625,0.8862035,-0.349208,0.0109845,1.0929995,-0.350898,0.0245685,0.8510335,-0.840638,0.0710824999999999,1.1100235,-0.8269979999999999,0.0843775,1
156,0.999519,0.7211700000000001,-0.0313489999999999,0.84114,0.5491400000000001,-0.0177459999999999,0.74602,0.7165800000000001,-0.134287,1.16094,0.5574,0.009649,1.27256,0.7054100000000001,-0.1194869999999999,0.81555,0.9018,-0.1893369999999999,1.19413,0.89724,-0.1920069999999999,0.926177,0.00034,-0.0049559999999999,1.073823,-0.00034,0.004956,0.88627,-0.34946,0.009459,1.092789,-0.35119,0.023457,0.85184,-0.84073,0.068779,1.10975,-0.8267699999999999,0.081575,1
157,0.9997235,0.7209800000000001,-0.0310645,0.8418565,0.5482400000000001,-0.0166214999999999,0.7473365000000001,0.71635,-0.1333665,1.1603165,0.55698,0.0104295,1.2718765,0.70463,-0.1192864999999999,0.8213265,0.89891,-0.1876165,1.1896365,0.89591,-0.1900265,0.9259545,0.0003099999999999,-0.0048775,1.0740455,-0.00031,0.0048775,0.8864265,-0.34975,0.0081975,1.0926335,-0.35138,0.0223465,0.8524665,-0.841,0.0667135,1.1095365,-0.8267399999999999,0.0790535,1
158,1.0000025,0.7209920000000001,-0.0305655,0.8425415,0.5474720000000001,-0.0152635,0.7487215,0.716362,-0.1321615,1.1596715,0.556662,0.0115714999999999,1.2709115,0.704022,-0.1186815,0.8266614999999999,0.8993220000000001,-0.1848515,1.1854315,0.8946820000000001,-0.1881614999999999,0.9256855,0.0003199999999999,-0.0048995,1.0743145,-0.0003199999999999,0.0048994999999999,0.8865915,-0.349798,0.0071884999999999,1.0925574999999998,-0.351428,0.0213685,0.8529615,-0.841148,0.0653255,1.1094615,-0.8267479999999999,0.0771024999999999,1
159,1.0004795,0.721013,-0.029949,0.8432045000000001,0.546773,-0.013592,0.7502545,0.716383,-0.130625,1.1590444999999998,0.556333,0.01277,1.2698545,0.7035629999999999,-0.117335,0.8315645,0.8970629999999999,-0.182225,1.1812345,0.8926729999999999,-0.186175,0.9254165,0.0003249999999999,-0.004979,1.0745835,-0.000325,0.004979,0.8867245,-0.349807,0.0064199999999999,1.0925315,-0.351467,0.020658,0.8532945000000001,-0.841287,0.064391,1.1093145,-0.826767,0.075679,1
160,1.0009875,0.7210295,-0.0291615,0.8438825,0.5461094999999999,-0.0118824999999999,0.7518724999999999,0.7163295,-0.1290204999999999,1.1584425,0.5557595,0.0137285,1.2685625,0.7028595,-0.1157204999999999,0.8368325,0.8970794999999999,-0.1797504999999999,1.1761225,0.8903194999999999,-0.1842704999999999,0.9251495,0.0003305,-0.0050535,1.0748505,-0.0003305,0.0050535,0.8868225,-0.3498205,0.0056844999999999,1.0925705,-0.3515105,0.0200085,0.8535125,-0.8412505,0.0635685,1.1091325,-0.8268105,0.0743025,1
161,1.0015759999999998,0.7212165,-0.028211,0.844537,0.5453165,-0.010862,0.7535769999999999,0.7162665,-0.127343,1.157287,0.5543764999999999,0.015136,1.266837,0.7020565,-0.113923,0.842477,0.8945865,-0.176303,1.171367,0.8878265,-0.183273,0.924909,0.0003254999999999,-0.005101,1.075091,-0.0003255,0.005101,0.886917,-0.3499535,0.005186,1.092627,-0.3516835,0.019408,0.853697,-0.8413535,0.063027,1.108977,-0.8270135,0.073264,1
162,1.0021445,0.7217045000000001,-0.0273675,0.8451155,0.5445445000000001,-0.0099395,0.7552555,0.7161645000000001,-0.1257225,1.1565855,0.5529045,0.0161195,1.2650755,0.7017845,-0.1123025,0.8475055,0.8944845,-0.1726925,1.1666455,0.8857445,-0.1826025,0.9247175,0.0003144999999999,-0.0053325,1.0752825,-0.0003144999999999,0.0053325,0.8869955,-0.3500555,0.0045815,1.0927515,-0.3518155,0.0188605,0.8538455,-0.8414554999999999,0.0624535,1.1088055,-0.8272754999999999,0.0724445,1
163,1.002708,0.722207,-0.02657,0.8455190000000001,0.544007,-0.009571,0.7569290000000001,0.715987,-0.124142,1.156049,0.551387,0.016333,1.263399,0.701607,-0.110972,0.852139,0.892137,-0.169572,1.162109,0.883687,-0.182302,0.924539,0.0003049999999999,-0.0057129999999999,1.075461,-0.000305,0.005713,0.887089,-0.350203,0.004026,1.09285,-0.351943,0.0184119999999999,0.853979,-0.841663,0.061817,1.108639,-0.827603,0.071848,0
164,1.0032635,0.722805,-0.0255945,0.8458445,0.5434749999999999,-0.0092055,0.7584545,0.716065,-0.1227224999999999,1.1555544999999998,0.5498649999999999,0.0171765,1.2616445,0.701185,-0.1094425,0.8565545,0.8919549999999999,-0.1664925,1.1582545,0.881545,-0.1823725,0.9243705,0.0002919999999999,-0.0060645,1.0756295,-0.000292,0.0060645,0.8871945,-0.350245,0.0037164999999999,1.0929575,-0.352015,0.0181375,0.8541045,-0.841825,0.0614805,1.1085045,-0.827975,0.0715495,0
165,1.0038375,0.7233525,-0.024727,0.8461145,0.5431225,-0.009281,0.7598245,0.7163425,-0.1216169999999999,1.1553745,0.5483325,0.017305,1.2600145,0.7010124999999999,-0.1081169999999999,0.8606245000000001,0.8915124999999999,-0.163827,1.1551445,0.8800325,-0.182507,0.9242215,0.0002975,-0.006364,1.0757785,-0.0002975,0.006364,0.8873345,-0.3502674999999999,0.0034559999999999,1.0930985,-0.3520875,0.0178639999999999,0.8542145,-0.8418675,0.061239,1.1084145,-0.8283575000000001,0.071341,0
166,1.0043175,0.7240519999999999,-0.023912,0.8463435000000001,0.542862,-0.00945,0.7609035,0.7170519999999999,-0.120591,1.1553735,0.5469219999999999,0.017422,1.2585535,0.7010219999999999,-0.106941,0.8639935000000001,0.8892319999999999,-0.161671,1.1523135,0.8787619999999999,-0.182671,0.9240935,0.0003229999999999,-0.006575,1.0759065,-0.000323,0.006575,0.8874835000000001,-0.3502679999999999,0.0032419999999999,1.0932025,-0.352128,0.01765,0.8543435,-0.841878,0.0610249999999999,1.1083035,-0.8286680000000001,0.071266,0
167,1.0045835,0.72465,-0.023384,0.8465605,0.54267,-0.009574,0.7618605,0.71775,-0.119584,1.1554805,0.54528,0.017468,1.2573605,0.70108,-0.105794,0.8668205,0.88808,-0.1603139999999999,1.1505205,0.8776200000000001,-0.182774,0.9239885,0.000344,-0.006695,1.0760115,-0.0003439999999999,0.0066949999999999,0.8876105,-0.35027,0.003118,1.0933475,-0.35214,0.017527,0.8543805000000001,-0.84168,0.060908,1.1081705,-0.82887,0.071274,0
168,1.004837,0.7252385,-0.022777,0.846796,0.5425085000000001,-0.009578,0.762686,0.7183785,-0.118606,1.155606,0.5436885,0.0175449999999999,1.256296,0.7012685,-0.105276,0.869786,0.8873885,-0.1591159999999999,1.148476,0.8775185,-0.1827359999999999,0.923909,0.0003505,-0.0066939999999999,1.076091,-0.0003505,0.0066939999999999,0.8877460000000001,-0.3502715,0.003116,1.093473,-0.3521614999999999,0.017509,0.854456,-0.8414915,0.060848,1.108206,-0.8290514999999999,0.071357,0
169,1.005132,0.72541,-0.022189,0.847046,0.54233,-0.009495,0.7634460000000001,0.7188699999999999,-0.117751,1.155736,0.5422399999999999,0.017654,1.255386,0.7014499999999999,-0.104871,0.872436,0.8866099999999999,-0.1582009999999999,1.147096,0.8773,-0.182741,0.923846,0.00039,-0.00678,1.076154,-0.0003899999999999,0.00678,0.887946,-0.35025,0.0031119999999999,1.093602,-0.35223,0.017544,0.854506,-0.84136,0.060804,1.108286,-0.82928,0.071448,0
170,1.0052439999999998,0.7261845,-0.0223305,0.846581,0.5421545,-0.0107175,0.7643610000000001,0.7209745,-0.1180625,1.156121,0.5434145,0.0130595,1.257961,0.7041345,-0.1072425,0.874941,0.8861945,-0.1546725,1.145201,0.8782045,-0.1840625,0.923748,0.0004285,-0.0070785,1.076252,-0.0004285,0.0070785,0.887951,-0.3502855,0.0026325,1.094059,-0.3523755,0.0171145,0.854441,-0.8410755,0.0608435,1.108441,-0.8282155,0.0707585,0
171,1.0054445,0.7259454999999999,-0.0218294999999999,0.8483445000000001,0.5411554999999999,-0.0069855,0.7657145000000001,0.7188454999999999,-0.1162095,1.1562345,0.5390754999999999,0.0193865,1.2540445,0.7009055,-0.1030595,0.8755545000000001,0.8855055,-0.1552495,1.1453145,0.8762355,-0.1830895,0.9236495,0.0005015,-0.0073115,1.0763505,-0.0005015,0.0073115,0.8882545,-0.3502145,0.0027225,1.0941575,-0.3524445,0.0173885,0.8545245000000001,-0.8413045,0.0608535,1.1085045,-0.8297845,0.0707575,0
172,1.0058245,0.725138,-0.0213044999999999,0.8480265,0.541688,-0.0097974999999999,0.7649365,0.720248,-0.1168965,1.1571565,0.539488,0.0162805,1.2542065,0.7030179999999999,-0.1041965,0.8765565,0.884838,-0.1562865,1.1427865,0.876678,-0.1842764999999999,0.9237825,0.000377,-0.0074684999999999,1.0762175,-0.0003769999999999,0.0074685,0.8883465000000001,-0.350342,0.0025465,1.0941995,-0.352352,0.0172755,0.8545365,-0.841692,0.0609395,1.1086565,-0.830082,0.0712825,0
173,1.0064095,0.7243145000000001,-0.0197435,0.8478815,0.5411945,-0.0102734999999999,0.7640815,0.7202545,-0.1157035,1.1574815,0.5386445000000001,0.0171355,1.2528715,0.7029145,-0.1036835,0.8768215,0.8834145,-0.1567335,1.1404815,0.8758145,-0.1841235,0.9235575,0.0006254999999999,-0.0078284999999999,1.0764425,-0.0006255,0.0078285,0.8887115,-0.3500855,0.0027725,1.0940065,-0.3526755,0.0173275,0.8546415,-0.8427555,0.0611975,1.1084215,-0.8303355,0.0725025,0
174,1.0067795,0.7234430000000001,-0.0183845,0.8476375,0.540493,-0.0108534999999999,0.7637375,0.720153,-0.1149544999999999,1.1580075,0.537603,0.0177015,1.2512575,0.703303,-0.1027545,0.8774175,0.882113,-0.1570945,1.1388175,0.875883,-0.1838845,0.9236435,0.000654,-0.0078084999999999,1.0763565,-0.000654,0.0078085,0.8891575,-0.3500769999999999,0.0029825,1.0937265,-0.3527369999999999,0.0172655,0.8547475,-0.841917,0.0619955,1.1082375,-0.831107,0.0730725,0
175,1.00799,0.7241200000000001,-0.0168405,0.848011,0.54154,-0.0109504999999999,0.763891,0.7213700000000001,-0.1144775,1.158851,0.5381,0.0182905,1.248881,0.7056300000000001,-0.1020375,0.878651,0.8826700000000001,-0.1572875,1.137081,0.87834,-0.1837975,0.923794,0.00076,-0.0069784999999999,1.076206,-0.0007599999999999,0.0069785,0.889431,-0.35002,0.0034895,1.093877,-0.35269,0.0173574999999999,0.855251,-0.84142,0.0621655,1.108631,-0.83044,0.0735695,0
176,1.0084665,0.7234499999999999,-0.015345,0.8480624999999999,0.54145,-0.011059,0.7644925,0.72187,-0.113867,1.1594525,0.53758,0.018847,1.2464025,0.70689,-0.101197,0.8789625000000001,0.88225,-0.157827,1.1363025,0.87758,-0.182447,0.9239185,0.0007739999999999,-0.007273,1.0760815,-0.000774,0.007273,0.8897625000000001,-0.35001,0.003361,1.0936255,-0.35272,0.017568,0.8549625,-0.8417600000000001,0.062569,1.1084025,-0.83094,0.07396,0
