sb224sc-HT22-VT27/4dt907/src/data/labeled_files/A125_kinect.csv
FrameNo,nose_3d_x,nose_3d_y,nose_3d_z,left_shoulder_3d_x,left_shoulder_3d_y,left_shoulder_3d_z,left_elbow_3d_x,left_elbow_3d_y,left_elbow_3d_z,right_shoulder_3d_x,right_shoulder_3d_y,right_shoulder_3d_z,right_elbow_3d_x,right_elbow_3d_y,right_elbow_3d_z,left_wrist_3d_x,left_wrist_3d_y,left_wrist_3d_z,right_wrist_3d_x,right_wrist_3d_y,right_wrist_3d_z,left_hip_3d_x,left_hip_3d_y,left_hip_3d_z,right_hip_3d_x,right_hip_3d_y,right_hip_3d_z,left_knee_3d_x,left_knee_3d_y,left_knee_3d_z,right_knee_3d_x,right_knee_3d_y,right_knee_3d_z,left_ankle_3d_x,left_ankle_3d_y,left_ankle_3d_z,right_ankle_3d_x,right_ankle_3d_y,right_ankle_3d_z,activity_label
0,-0.0231644999999999,0.7098025,-0.0061734999999999,-0.1796615,0.5609225,0.0463515,-0.2796315,0.7271225,-0.0674095,0.1483985,0.5479425,0.0259015,0.2311085,0.7351424999999999,-0.0631684999999999,-0.2991815,0.9080025,-0.1527995,0.2494185,0.9446125,-0.1265695,-0.0729215,-0.0016855,0.0004624999999999,0.0729215,0.0016854999999999,-0.0004624999999999,-0.0931645,-0.3532975,0.0080065,0.1083585,-0.3489575,0.0062425,-0.0986755,-0.8270675000000001,0.0534385,0.1454585,-0.8452975,0.0553065,0
1,-0.0226654999999999,0.7113845,-0.0040999999999999,-0.1800415,0.5599045,0.046004,-0.2797015,0.7265245,-0.067361,0.1490885,0.5484045,0.026758,0.2314385,0.7352345,-0.06364,-0.3007615,0.9278445,-0.155881,0.2493285,0.9447445,-0.126981,-0.0727474999999999,-0.0012955,0.0004159999999999,0.0727474999999999,0.0012955,-0.0004159999999999,-0.0935635,-0.3529355,0.0076719999999999,0.1082984999999999,-0.3494355,0.005652,-0.0999355,-0.8273455000000001,0.053308,0.1456485,-0.8472555,0.057235,0
2,-0.021393,0.7143065,-0.0012414999999999,-0.1796809999999999,0.5603665,0.0456955,-0.2785809999999999,0.7278965,-0.0668464999999999,0.148999,0.5475665,0.0260375,0.2313489999999999,0.7347665,-0.0634295,-0.300921,0.9287265,-0.1562665,0.249519,0.9443865,-0.1262464999999999,-0.072571,-0.0012855,0.0001655,0.072571,0.0012855,-0.0001654999999999,-0.09373,-0.3528635,0.0077135,0.1080489999999999,-0.3494535,0.0059095,-0.100204,-0.8269635000000001,0.0538545,0.1450989999999999,-0.8462135000000001,0.0579365,0
3,-0.019061,0.717087,0.0028599999999999,-0.178619,0.560207,0.0453829999999999,-0.276379,0.729017,-0.066066,0.149071,0.546667,0.0258319999999999,0.231661,0.734097,-0.062748,-0.300879,0.911487,-0.151776,0.2503809999999999,0.943877,-0.124676,-0.072703,-0.001096,0.0001559999999999,0.072703,0.001096,-0.000156,-0.092667,-0.352773,0.0075739999999999,0.108641,-0.349553,0.0062139999999999,-0.10018,-0.827843,0.054476,0.145761,-0.8452230000000001,0.0567059999999999,0
4,-0.0184479999999999,0.7175845,0.0042885,-0.178614,0.5599545,0.0457525,-0.275744,0.7292645,-0.0654225,0.149026,0.5459145,0.0261085,0.231426,0.7335845,-0.0620465,-0.302374,0.9299745,-0.1537224999999999,0.251616,0.9431745,-0.1242125,-0.072576,-0.0009855,0.0001574999999999,0.072576,0.0009855,-0.0001574999999999,-0.092871,-0.3526155,0.0078835,0.109576,-0.3496555,0.0055105,-0.100366,-0.8286855,0.0548335,0.145546,-0.8447055,0.0573585,0
5,-0.0177489999999999,0.7180179999999999,0.0061639999999999,-0.178251,0.559558,0.0459549999999999,-0.275091,0.729408,-0.064561,0.151209,0.5478679999999999,0.0277359999999999,0.232669,0.7353879999999999,-0.061849,-0.302471,0.929908,-0.153121,0.2522589999999999,0.945098,-0.1237009999999999,-0.0726469999999999,-0.001158,0.000591,0.0726469999999999,0.001158,-0.000591,-0.093116,-0.352772,0.008378,0.1093389999999999,-0.349462,0.0055739999999999,-0.1005699999999999,-0.829102,0.0558,0.145309,-0.8449720000000001,0.05859,1
6,-0.0171959999999999,0.7183515,0.0088165,-0.177591,0.5601815,0.0467725,-0.274581,0.7302215,-0.0632165,0.151199,0.5472115000000001,0.0292695,0.232929,0.7348415,-0.0597484999999999,-0.301401,0.9091815,-0.1501665,0.253069,0.9444815,-0.1216565,-0.072792,-0.0008275,-0.0005734999999999,0.072792,0.0008275,0.0005735,-0.093024,-0.3522685,0.0087305,0.109439,-0.3497584999999999,0.0070615,-0.100826,-0.8294385,0.0574575,0.145249,-0.8449585,0.0610985,1
7,-0.0164055,0.7189194999999999,0.010147,-0.1772445,0.5598894999999999,0.047328,-0.2740645,0.7301795,-0.062521,0.1512655,0.5465194999999999,0.029345,0.2336955,0.7338295,-0.05909,-0.3005045,0.9089195,-0.148261,0.2547555,0.9434895,-0.120611,-0.0725665,-0.0006554999999999,-0.000195,0.0725665,0.0006554999999999,0.000195,-0.0930965,-0.3520405,0.0093759999999999,0.1088955,-0.3497305,0.007564,-0.1003295,-0.8291005,0.058525,0.1452455,-0.8471405000000001,0.061091,1
8,-0.015817,0.719378,0.0118424999999999,-0.1769099999999999,0.559888,0.0478615,-0.27358,0.730508,-0.0614735,0.1516,0.546408,0.0301335,0.2342,0.733678,-0.0580475,-0.30032,0.908638,-0.1470035,0.2558399999999999,0.943338,-0.1193635,-0.072526,-0.000533,-0.0001265,0.072526,0.000533,0.0001265,-0.093129,-0.351852,0.0099455,0.10887,-0.349752,0.0080135,-0.100382,-0.829072,0.0597405,0.14519,-0.847302,0.0625045,1
9,-0.0152855,0.7198035,0.0135055,-0.1765805,0.5599235,0.0484675,-0.2730905,0.7307935000000001,-0.0604834999999999,0.1519495,0.5461735000000001,0.0310135,0.2347894999999999,0.7334835000000001,-0.0569684999999999,-0.2999705,0.9060435,-0.1453935,0.2568595,0.9431535,-0.1180034999999999,-0.0724915,-0.0004285,-3.949999999999787e-05,0.0724915,0.0004285,3.950000000000481e-05,-0.0931615,-0.3516665,0.0105905,0.1088295,-0.3497865,0.0085445,-0.1003265,-0.8290765,0.0610495,0.1451194999999999,-0.8472464999999999,0.0637575,1
10,-0.0148055,0.7201485000000001,0.0150195,-0.1762535,0.5599885,0.0490885,-0.2726335,0.7310985000000001,-0.0595455,0.1520765,0.5460285,0.0318995,0.2353665,0.7333385,-0.0558685,-0.2995135,0.9052285,-0.1437655,0.2578965,0.9430185,-0.1166555,-0.0724654999999999,-0.0003434999999999,4.950000000000093e-05,0.0724654999999999,0.0003435,-4.950000000000093e-05,-0.0931815,-0.3515115,0.0112075,0.1088764999999999,-0.3498415,0.0091515,-0.1002645,-0.8290915,0.0623945,0.1451165,-0.8473014999999999,0.0649705,1
11,-0.014361,0.7204825,0.01628,-0.175957,0.5600325,0.049627,-0.272207,0.7313525000000001,-0.05872,0.152213,0.5459925,0.032601,0.236013,0.7332325000000001,-0.054928,-0.298897,0.9043925,-0.14256,0.258923,0.9429025,-0.1155499999999999,-0.072425,-0.0002855,0.000314,0.072425,0.0002854999999999,-0.000314,-0.093203,-0.3513875,0.011831,0.108913,-0.3498875,0.0095859999999999,-0.100203,-0.8291375,0.063595,0.145073,-0.8472474999999999,0.066123,1
12,-0.014,0.7208424999999999,0.017575,-0.175673,0.5601925,0.050108,-0.271753,0.7317224999999999,-0.05799,0.152287,0.5459824999999999,0.033273,0.236607,0.7331525,-0.053979,-0.298193,0.9036825,-0.14127,0.259827,0.9428525,-0.11445,-0.072379,-0.0002614999999999,0.0005739999999999,0.072379,0.0002615,-0.0005739999999999,-0.093228,-0.3512775,0.0124529999999999,0.108857,-0.3498975,0.009978,-0.100132,-0.8289875,0.064865,0.1450369999999999,-0.8472375,0.067285,1
13,-0.0136484999999999,0.721191,0.0188805,-0.1753945,0.560361,0.0505845,-0.2713545,0.732071,-0.0572985,0.1523955,0.545821,0.0339875,0.2372155,0.7328410000000001,-0.0530734999999999,-0.2974945,0.903141,-0.1399584999999999,0.2606455,0.942561,-0.1133885,-0.0723135,-0.0002229999999999,0.0007395,0.0723135,0.000223,-0.0007394999999999,-0.0932095,-0.351239,0.0129745,0.1088455,-0.349869,0.0103235,-0.1000195,-0.8289989999999999,0.0661675,0.1450155,-0.8471989999999999,0.0683705,1
14,-0.0133545,0.721414,0.0202365,-0.1751215,0.560474,0.0511245,-0.2709615,0.732344,-0.0565684999999999,0.1525685,0.5456540000000001,0.0346355,0.2378785,0.732504,-0.0522684999999999,-0.2969615,0.903184,-0.1385885,0.2614385,0.942234,-0.1123984999999999,-0.0722395,-0.0001799999999999,0.0008575,0.0722395,0.00018,-0.0008574999999999,-0.0931895,-0.351196,0.0135585,0.1088485,-0.349826,0.0106585,-0.0999225,-0.8290059999999999,0.0675575,0.1449785,-0.8471559999999999,0.0694745,1
15,-0.013083,0.721627,0.021455,-0.174899,0.560577,0.051695,-0.270619,0.732507,-0.055874,0.152681,0.5455369999999999,0.0353369999999999,0.238451,0.732217,-0.051514,-0.296239,0.902797,-0.137214,0.2621409999999999,0.941957,-0.1115039999999999,-0.0721769999999999,-0.0001169999999999,0.0010559999999999,0.0721769999999999,0.000117,-0.001056,-0.093175,-0.351133,0.0141919999999999,0.108881,-0.349773,0.0110189999999999,-0.099821,-0.828953,0.068965,0.144951,-0.847233,0.070688,1
16,-0.012851,0.7218675,0.0225375,-0.1746639999999999,0.5607075,0.0522245,-0.270334,0.7326375,-0.0552325,0.152796,0.5454375,0.0360425,0.238996,0.7319675,-0.0508325,-0.295554,0.9024475,-0.1360525,0.2626659999999999,0.9416975,-0.1108125,-0.072127,-6.649999999999999e-05,0.0012815,0.072127,6.649999999999999e-05,-0.0012814999999999,-0.093163,-0.3510225,0.0147585,0.1088959999999999,-0.3497325,0.0113655,-0.099677,-0.8287525,0.0703875,0.144906,-0.8473725,0.0720155,1
17,-0.012616,0.7220575,0.0234224999999999,-0.174448,0.5608675,0.0526935,-0.270028,0.7328075000000001,-0.0546635,0.152932,0.5453575,0.0367514999999999,0.2394819999999999,0.7317275,-0.0502735,-0.294938,0.9021875,-0.1361035,0.263162,0.9414075,-0.1104335,-0.072077,-3.249999999999998e-05,0.0014414999999999,0.072077,3.2500000000000004e-05,-0.0014415,-0.09314,-0.3509224999999999,0.0152094999999999,0.108932,-0.3496725,0.0116835,-0.099575,-0.8284525,0.0717815,0.1448419999999999,-0.8470125,0.0734274999999999,1
18,-0.012426,0.7222395,0.024031,-0.174312,0.5610495,0.052934,-0.269862,0.7329895000000001,-0.0544689999999999,0.153098,0.5454295,0.037348,0.239898,0.7315195,-0.0499589999999999,-0.294902,0.9023695,-0.136349,0.263528,0.9411895,-0.110379,-0.072026,4.999999999999986e-07,0.001588,0.072026,-4.999999999999986e-07,-0.0015879999999999,-0.093106,-0.3508405,0.015494,0.1089479999999999,-0.3496205,0.011887,-0.099604,-0.8282705,0.073065,0.144758,-0.8468304999999999,0.074583,1
19,-0.0122855,0.7224195,0.0243639999999999,-0.1741545,0.5612294999999999,0.053033,-0.2697045,0.7331394999999999,-0.0545449999999999,0.1532555,0.5455095,0.037857,0.2401955,0.7314094999999999,-0.049795,-0.2948545,0.9025495,-0.136895,0.2637855,0.9410695,-0.110515,-0.0719955,1.849999999999999e-05,0.0017319999999999,0.0719955,-1.849999999999999e-05,-0.001732,-0.0930765,-0.3507905,0.015743,0.1089655,-0.3496005,0.0119989999999999,-0.0996475,-0.8282105000000001,0.0742579999999999,0.1446755,-0.8466505,0.075676,1
20,-0.0122559999999999,0.722638,0.0245225,-0.174018,0.561408,0.0530565,-0.269628,0.733268,-0.0547695,0.153432,0.545628,0.0383575,0.2404319999999999,0.731308,-0.0497595,-0.294768,0.905068,-0.1378295,0.263872,0.940978,-0.1108294999999999,-0.071964,1.0999999999999996e-05,0.0017165,0.071964,-1.100000000000005e-05,-0.0017164999999999,-0.093025,-0.350762,0.0159155,0.108962,-0.349582,0.0121725,-0.0996109999999999,-0.828252,0.0754215,0.144582,-0.846472,0.0767385,1
21,-0.0122439999999999,0.7228105,0.0240849999999999,-0.173926,0.5614305,0.052674,-0.269606,0.7332205,-0.055408,0.153734,0.5456605,0.0380979999999999,0.240704,0.7311505,-0.0505279999999999,-0.294736,0.9075205,-0.139998,0.263894,0.9407505,-0.111798,-0.071971,-5.000000000000664e-07,0.001728,0.071971,4.999999999999579e-07,-0.001728,-0.0929899999999999,-0.3508195,0.0155589999999999,0.108874,-0.3495795,0.0118759999999999,-0.099616,-0.8283595,0.076469,0.144464,-0.8464695,0.077686,1
22,-0.0122084999999999,0.7229140000000001,0.0233749999999999,-0.1738035,0.561324,0.0521089999999999,-0.2695735,0.732974,-0.0563,0.1541365,0.545714,0.037512,0.2409465,0.731034,-0.05158,-0.2947335,0.909694,-0.14246,0.2639364999999999,0.940574,-0.113,-0.0719974999999999,-1.0000000000000026e-05,0.0017409999999999,0.0719974999999999,1.0000000000000026e-05,-0.001741,-0.0929774999999999,-0.350946,0.0146789999999999,0.1088264999999999,-0.349656,0.0112389999999999,-0.0996364999999999,-0.828456,0.077491,0.1444465,-0.846346,0.07858,1
23,-0.0121719999999999,0.7228770000000001,0.0222034999999999,-0.1737189999999999,0.5612370000000001,0.0511284999999999,-0.269529,0.7327070000000001,-0.0575535,0.154511,0.545837,0.0365615,0.241081,0.7309770000000001,-0.0531535,-0.294889,0.911597,-0.1456335,0.263981,0.940437,-0.1146235,-0.072029,-9.00000000000011e-06,0.0018244999999999,0.072029,8.999999999999894e-06,-0.0018245,-0.092956,-0.351133,0.0131224999999999,0.1087009999999999,-0.349793,0.0102744999999999,-0.099666,-0.828553,0.0781665,0.144411,-0.8462029999999999,0.0795305,1
24,-0.01218,0.7226315,0.0206844999999999,-0.173679,0.5609715000000001,0.0498994999999999,-0.269559,0.7321115,-0.0592615,0.1547909999999999,0.5459715,0.0352924999999999,0.2411309999999999,0.7309115,-0.0550915,-0.295159,0.9126615,-0.1489415,0.264021,0.9402915,-0.1169115,-0.0720929999999999,-2.45e-05,0.0018324999999999,0.0720929999999999,2.45e-05,-0.0018325,-0.09295,-0.3514285,0.0109664999999999,0.1086709999999999,-0.3500085,0.0088654999999999,-0.0996799999999999,-0.8286685,0.0786395,0.144291,-0.8460885,0.0804754999999999,1
25,-0.0123409999999999,0.7220635,0.0187719999999999,-0.173689,0.5604635,0.0484599999999999,-0.2697389999999999,0.7311934999999999,-0.061221,0.154811,0.5461134999999999,0.0337809999999999,0.241121,0.7308935,-0.057481,-0.295629,0.9129335,-0.152271,0.263931,0.9401735,-0.119811,-0.072208,-7.050000000000003e-05,0.0017749999999999,0.072208,7.050000000000003e-05,-0.0017749999999999,-0.093022,-0.3517965,0.0082129999999999,0.108571,-0.3502465,0.0069119999999999,-0.099723,-0.8287465,0.079105,0.144081,-0.8459665000000001,0.0813039999999999,1
26,-0.012597,0.7214425000000001,0.0166239999999999,-0.1737159999999999,0.5600225000000001,0.0469749999999999,-0.270096,0.7300925,-0.0635869999999999,0.154704,0.5462725,0.0319789999999999,0.2410939999999999,0.7308825000000001,-0.060077,-0.296236,0.9135825,-0.155007,0.263594,0.9400425,-0.122877,-0.072369,-0.0001554999999999,0.001666,0.072369,0.0001554999999999,-0.001666,-0.093248,-0.3522275,0.0049599999999999,0.108554,-0.3505475,0.0041749999999999,-0.099746,-0.8289475,0.079569,0.143864,-0.8458475,0.082091,1
27,-0.0130615,0.720693,0.014004,-0.1737305,0.559323,0.045238,-0.2706205,0.728683,-0.066087,0.1546495,0.546383,0.029904,0.2410695,0.7308129999999999,-0.062897,-0.2968904999999999,0.914593,-0.158687,0.2631095,0.939743,-0.126487,-0.0726045,-0.0001739999999999,0.0016319999999999,0.0726045,0.000174,-0.0016319999999999,-0.0936385,-0.352607,0.001339,0.1085595,-0.350917,0.0009969999999999,-0.0999075,-0.8290770000000001,0.07998,0.1436795,-0.845387,0.083146,1
28,-0.01355,0.7199614999999999,0.0108875,-0.173671,0.5587915,0.0431305,-0.271081,0.7275214999999999,-0.0687974999999999,0.154699,0.5467615,0.0274525,0.241049,0.7308614999999999,-0.0661475,-0.297811,0.9132815,-0.1629975,0.262589,0.9395815,-0.1305774999999999,-0.072969,-0.0001184999999999,0.0015944999999999,0.072969,0.0001184999999999,-0.0015944999999999,-0.094086,-0.3529385,-0.0033195,0.108679,-0.3513584999999999,-0.0027065,-0.100027,-0.8284885000000001,0.0804695,0.143629,-0.8440985000000001,0.0842485,1
29,-0.0141315,0.7189885,0.0071909999999999,-0.1736095,0.5580185,0.0405029999999999,-0.2717195,0.7258585000000001,-0.072181,0.1548605,0.5471885000000001,0.0246709999999999,0.2409605,0.7307985,-0.069981,-0.2985295,0.9094885,-0.167121,0.2619405,0.9393085,-0.135341,-0.0733605,-6.749999999999985e-05,0.0016869999999999,0.0733605,6.749999999999985e-05,-0.001687,-0.0947655,-0.3532915,-0.008699,0.1088605,-0.3518214999999999,-0.008017,-0.1001215,-0.8276315,0.081007,0.1435405,-0.8422815,0.0852219999999999,1
30,-0.0148145,0.717645,0.002284,-0.1736404999999999,0.556465,0.036533,-0.2724805,0.7235849999999999,-0.076798,0.1548695,0.546835,0.020751,0.2409895,0.730155,-0.074738,-0.2994105,0.908855,-0.172938,0.2609094999999999,0.938305,-0.141828,-0.0738635,-4.200000000000037e-05,0.0019399999999999,0.0738635,4.200000000000037e-05,-0.0019399999999999,-0.0958215,-0.353525,-0.0153849999999999,0.1092095,-0.352215,-0.014505,-0.1003125,-0.8253050000000001,0.081132,0.1431695,-0.838825,0.086189,1
31,-0.0156054999999999,0.7159275,-0.0034865,-0.1737925,0.5551675,0.0319825,-0.2734125,0.7209875,-0.0826615,0.1548475,0.5465275,0.0160855,0.2407875,0.7295175,-0.0805915,-0.3004825,0.9085875,-0.1801715,0.2598575,0.9371575,-0.1499215,-0.0744065,-0.0001635,0.0022815,0.0744065,0.0001635,-0.0022815,-0.0972035,-0.3537525,-0.0224285,0.1095875,-0.3523325,-0.0216545,-0.1006455,-0.8217625,0.0808735,0.1428275,-0.8340325,0.0868095,1
32,-0.0162935,0.7140839999999999,-0.0097685,-0.1739665,0.553124,0.0271214999999999,-0.2742965,0.717634,-0.0890835,0.1548034999999999,0.5464739999999999,0.0113134999999999,0.2404835,0.728884,-0.0870935,-0.3015565,0.907454,-0.1878335,0.2588835,0.936004,-0.1588435,-0.0749465,-0.000268,0.0025284999999999,0.0749465,0.000268,-0.0025285,-0.0986545,-0.353746,-0.0300735,0.1101134999999999,-0.352326,-0.0295935,-0.1009715,-0.8172560000000001,0.0806205,0.1427135,-0.8281860000000001,0.0869944999999999,1
33,-0.017001,0.712116,-0.0168094999999999,-0.174124,0.551476,0.0218595,-0.2751639999999999,0.714646,-0.0961194999999999,0.154396,0.545616,0.0058404999999999,0.239946,0.7267859999999999,-0.0948895,-0.302544,0.903306,-0.1972695,0.257866,0.933416,-0.1686595,-0.075484,-0.0002759999999999,0.0027775,0.075484,0.0002759999999999,-0.0027775,-0.100603,-0.353404,-0.0383994999999999,0.111206,-0.352044,-0.0391094999999999,-0.101325,-0.811434,0.0801845,0.142626,-0.821134,0.0863555,1
34,-0.017566,0.710145,-0.0244274999999999,-0.174171,0.549565,0.0155235,-0.275791,0.711485,-0.1040975,0.154009,0.545045,-0.0003514999999999,0.239449,0.725095,-0.1031574999999999,-0.303471,0.899055,-0.2075675,0.256829,0.931125,-0.1792575,-0.075946,-0.00035,0.0030315,0.075946,0.0003499999999999,-0.0030314999999999,-0.102891,-0.3527949999999999,-0.0474574999999999,0.1128889999999999,-0.351415,-0.0493474999999999,-0.101706,-0.803565,0.0791155,0.1426089999999999,-0.812095,0.0855915,1
35,-0.0180969999999999,0.70781,-0.033013,-0.174224,0.54789,0.008648,-0.276404,0.7080500000000001,-0.1130429999999999,0.153576,0.54416,-0.007069,0.238916,0.72324,-0.112083,-0.3045339999999999,0.89409,-0.219663,0.255816,0.92826,-0.1914529999999999,-0.076377,-0.00032,0.0033429999999999,0.076377,0.00032,-0.0033429999999999,-0.1055239999999999,-0.3517599999999999,-0.057243,0.114846,-0.35048,-0.060003,-0.1023149999999999,-0.79352,0.077234,0.142566,-0.8012199999999999,0.0842779999999999,1
36,-0.0187089999999999,0.7056905,-0.0421159999999999,-0.1743009999999999,0.5459205,0.001258,-0.277051,0.7043505,-0.1226559999999999,0.153129,0.5422405,-0.01457,0.238309,0.7203905,-0.1219859999999999,-0.305601,0.8887805000000001,-0.2324259999999999,0.254399,0.9244905,-0.204316,-0.0767269999999999,-0.0002655,0.00361,0.0767269999999999,0.0002655,-0.0036099999999999,-0.1087009999999999,-0.3502095,-0.0683159999999999,0.117019,-0.3491995,-0.071466,-0.103301,-0.7813095,0.074733,0.142649,-0.7884795,0.082002,1
37,-0.0192194999999999,0.7027279999999999,-0.0516079999999999,-0.1743765,0.542588,-0.0061769999999999,-0.2773365,0.699548,-0.132218,0.1528334999999999,0.540618,-0.0222079999999999,0.2375035,0.7173879999999999,-0.132668,-0.3062365,0.885458,-0.2450579999999999,0.2528935,0.920688,-0.217738,-0.0770515,-0.000369,0.0037729999999999,0.0770515,0.0003689999999999,-0.0037729999999999,-0.1120265,-0.348422,-0.0794179999999999,0.1192334999999999,-0.347342,-0.083678,-0.1043764999999999,-0.767452,0.071754,0.1424135,-0.774072,0.079336,1
38,-0.0196465,0.699725,-0.061375,-0.1745135,0.539485,-0.013314,-0.2779135,0.694215,-0.142225,0.1524964999999999,0.538475,-0.0302049999999999,0.2367365,0.713765,-0.143865,-0.3069435,0.880625,-0.259245,0.2509665,0.916125,-0.232005,-0.0774364999999999,-0.0005549999999999,0.0039639999999999,0.0774364999999999,0.0005549999999999,-0.0039639999999999,-0.1155134999999999,-0.346275,-0.0908549999999999,0.1213364999999999,-0.344985,-0.0957649999999999,-0.1056635,-0.752135,0.068382,0.1420865,-0.758015,0.076125,1
39,-0.01984,0.6968300000000001,-0.0704684999999999,-0.1746029999999999,0.53709,-0.0193284999999999,-0.278053,0.68908,-0.1516285,0.152117,0.53659,-0.0370884999999999,0.235717,0.71019,-0.1544984999999999,-0.307413,0.87433,-0.2720984999999999,0.249257,0.91097,-0.2467185,-0.077841,-0.00069,0.0039595,0.077841,0.0006899999999999,-0.0039594999999999,-0.118963,-0.34217,-0.1016384999999999,0.123337,-0.3418799999999999,-0.1081985,-0.107013,-0.73498,0.0651695,0.141837,-0.74068,0.0722285,1
40,-0.020041,0.6933400000000001,-0.0794819999999999,-0.174758,0.53372,-0.0252019999999999,-0.278258,0.68377,-0.160262,0.151652,0.53456,-0.043622,0.234672,0.70607,-0.1652219999999999,-0.307608,0.86664,-0.284672,0.247232,0.90546,-0.261032,-0.078146,-0.0007199999999999,0.003956,0.078146,0.00072,-0.003956,-0.122708,-0.33621,-0.112332,0.125292,-0.33692,-0.120012,-0.108318,-0.71702,0.062112,0.141532,-0.72253,0.067571,1
41,-0.020125,0.69078,-0.0882745,-0.174757,0.53101,-0.0311344999999999,-0.2783369999999999,0.67765,-0.1696045,0.151103,0.53112,-0.0503444999999999,0.233683,0.70068,-0.1757544999999999,-0.307887,0.85833,-0.2977945,0.245103,0.89811,-0.2761445,-0.07854,-0.00084,0.0039514999999999,0.07854,0.00084,-0.0039514999999999,-0.1267869999999999,-0.32751,-0.1231045,0.127233,-0.32913,-0.1314045,-0.109527,-0.69738,0.0590765,0.141423,-0.70257,0.0626565,1
42,-0.0203884999999999,0.68862,-0.101608,-0.1735865,0.52851,-0.042338,-0.2780165,0.67253,-0.183418,0.1504734999999999,0.52986,-0.061958,0.2325435,0.69636,-0.1921679999999999,-0.3084165,0.8501099999999999,-0.315948,0.2425935,0.89201,-0.296898,-0.0789685,-0.0006899999999999,0.004114,0.0789685,0.0006899999999999,-0.004114,-0.1327865,-0.31203,-0.141798,0.1292235,-0.31462,-0.149488,-0.1110865,-0.6717000000000001,0.050694,0.1413035,-0.67656,0.053419,1
43,-0.020682,0.6872,-0.1158655,-0.172149,0.52459,-0.0531354999999999,-0.277319,0.6667,-0.1968455,0.149881,0.53045,-0.0736055,0.231421,0.69323,-0.2092455,-0.308949,0.8400099999999999,-0.3347655,0.240121,0.8862599999999999,-0.3194055,-0.0793089999999999,-0.00112,0.0040405,0.0793089999999999,0.00112,-0.0040405,-0.138409,-0.2942,-0.1599955,0.130891,-0.29779,-0.1672555,-0.1128089999999999,-0.64547,0.0419525,0.141331,-0.6498900000000001,0.0434545,1
44,-0.0210755,0.68531,-0.129089,-0.1707165,0.52197,-0.0639189999999999,-0.2778265,0.66081,-0.210539,0.1492235,0.52972,-0.085479,0.2301834999999999,0.68876,-0.225899,-0.3096264999999999,0.83088,-0.352899,0.2375634999999999,0.8792599999999999,-0.341469,-0.0795925,-0.0007199999999999,0.004167,0.0795925,0.0007199999999999,-0.004167,-0.1438865,-0.27439,-0.177259,0.1323835,-0.27901,-0.184799,-0.1146565,-0.61877,0.033671,0.1412635,-0.62277,0.033604,1
45,-0.0214824999999999,0.685675,-0.1414815,-0.1693365,0.5205649999999999,-0.0739114999999999,-0.2780465,0.656925,-0.2234215,0.1484735,0.529185,-0.0962315,0.2288335,0.685395,-0.2416415,-0.3103965,0.823135,-0.3698415,0.2352935,0.8728549999999999,-0.3621515,-0.0796834999999999,-0.000995,0.0042555,0.0796834999999999,0.0009949999999999,-0.0042554999999999,-0.1493265,-0.251615,-0.1930515,0.1337535,-0.2566750000000001,-0.2014615,-0.1165165,-0.5901150000000001,0.0260035,0.1410535,-0.5937650000000001,0.0244915,1
46,-0.0218149999999999,0.685335,-0.152671,-0.168096,0.520305,-0.083301,-0.278326,0.6530549999999999,-0.235931,0.147864,0.5285949999999999,-0.1062009999999999,0.228204,0.681435,-0.256051,-0.311496,0.815655,-0.386551,0.233654,0.865735,-0.382471,-0.079891,-0.0009149999999999,0.0043249999999999,0.079891,0.0009149999999999,-0.004325,-0.155306,-0.227535,-0.208421,0.135464,-0.234345,-0.217661,-0.118466,-0.562065,0.018741,0.1407439999999999,-0.565465,0.015853,1
47,-0.0219035,0.68518,-0.16299,-0.1667924999999999,0.51999,-0.09271,-0.2780424999999999,0.6487499999999999,-0.24747,0.1471575,0.52687,-0.11577,0.2275475,0.6767799999999999,-0.2696599999999999,-0.3128025,0.80854,-0.4018,0.2327775,0.85792,-0.4013299999999999,-0.0799965,-0.0005899999999999,0.0042929999999999,0.0799965,0.0005899999999999,-0.0042929999999999,-0.1616125,-0.1998599999999999,-0.22329,0.1378075,-0.2090399999999999,-0.23455,-0.1207625,-0.53189,0.011532,0.1408675,-0.5347599999999999,0.007233,1
48,-0.0218444999999999,0.68539,-0.1724994999999999,-0.1654705,0.51978,-0.1017294999999999,-0.2777705,0.6455500000000001,-0.2581595,0.1464795,0.52551,-0.1250695,0.2271295,0.67245,-0.2825795,-0.3141305,0.8020400000000001,-0.4160095,0.2321795,0.8514,-0.4178695,-0.0799795,-0.0002699999999999,0.0042935,0.0799795,0.00027,-0.0042934999999999,-0.1681105,-0.1729399999999999,-0.2376295,0.1403395,-0.1831399999999999,-0.2501795,-0.1231305,-0.50269,0.0043785,0.1409095,-0.5049899999999999,-0.0011054999999999,1
49,-0.0219114999999999,0.686785,-0.1799645,-0.1639135,0.520515,-0.1101745,-0.2778935,0.642965,-0.2680145,0.1457265,0.524525,-0.1336445,0.2263565,0.667915,-0.2942745,-0.3155835,0.796505,-0.4287545,0.2315165,0.8449450000000001,-0.4331744999999999,-0.0798845,4.999999999977245e-06,0.0042405,0.0798845,-5.000000000032756e-06,-0.0042405,-0.1745735,-0.145945,-0.2513344999999999,0.1431465,-0.157595,-0.2655645,-0.1257734999999999,-0.4730150000000001,-0.0024945,0.1409265,-0.4753549999999999,-0.0083755,1
50,-0.0214649999999999,0.686145,-0.1868304999999999,-0.162176,0.5204420000000001,-0.1178305,-0.277836,0.6417550000000001,-0.2763204999999999,0.1451339999999999,0.524888,-0.1415705,0.226074,0.665145,-0.3050305,-0.316916,0.792395,-0.4395305,0.2309739999999999,0.840525,-0.4465004999999999,-0.0798919999999999,0.000275,0.0041375,0.0798919999999999,-0.0002749999999999,-0.0041374999999999,-0.180946,-0.120595,-0.2638205,0.1468239999999999,-0.1339949999999999,-0.2806005,-0.128276,-0.444655,-0.0091424999999999,0.141114,-0.4469149999999999,-0.0150724999999999,1
51,-0.0208419999999999,0.686175,-0.1878159999999999,-0.161321,0.519828,-0.1193559999999999,-0.277911,0.639195,-0.278556,0.144829,0.524096,-0.1433859999999999,0.226489,0.662615,-0.308116,-0.317921,0.788265,-0.442776,0.231009,0.835835,-0.452486,-0.079848,8.500000000000174e-05,0.003966,0.079848,-8.500000000000174e-05,-0.0039659999999999,-0.185401,-0.1013049999999999,-0.266926,0.150859,-0.116255,-0.287126,-0.1304509999999999,-0.422245,-0.0099129999999999,0.141869,-0.424435,-0.016445,1
52,-0.0203935,0.6839999999999999,-0.188112,-0.1610265,0.521681,-0.1206819999999999,-0.2783065,0.63793,-0.280532,0.1443535,0.519547,-0.144892,0.2268235,0.65782,-0.310212,-0.3193165,0.78644,-0.445052,0.2312035,0.83004,-0.4560419999999999,-0.0796615,0.00079,0.003968,0.0796615,-0.00079,-0.0039679999999999,-0.1905765,-0.0834599999999999,-0.269822,0.1552035,-0.10009,-0.2935219999999999,-0.1326965,-0.40098,-0.0105469999999999,0.1429935,-0.40344,-0.017679,1
53,-0.0197065,0.68293,-0.1881864999999999,-0.1604125,0.5208079999999999,-0.1216765,-0.2784625,0.63617,-0.2810665,0.1443775,0.516624,-0.1456164999999999,0.2274475,0.6542399999999999,-0.3120265,-0.3204625,0.78404,-0.4459765,0.2321075,0.82586,-0.4584965,-0.0796345,0.0006099999999999,0.0039685,0.0796345,-0.0006099999999999,-0.0039685,-0.1956425,-0.06673,-0.2727565,0.1601675,-0.08555,-0.2996864999999999,-0.1348425,-0.38135,-0.0112955,0.1448175,-0.3843,-0.0189355,1
54,-0.0187814999999999,0.6796,-0.1873195,-0.1595895,0.5191600000000001,-0.1215695,-0.2789895,0.63297,-0.2801595,0.1446405,0.514815,-0.1454095,0.2286805,0.6503000000000001,-0.3123194999999999,-0.3214795,0.78119,-0.4451994999999999,0.2343805,0.82155,-0.4598494999999999,-0.0795345,0.00095,0.0038124999999999,0.0795345,-0.00095,-0.0038125,-0.2001995,-0.0541399999999999,-0.2744795,0.1655205,-0.0741399999999999,-0.3046695,-0.1366595,-0.36493,-0.0111675,0.1471805,-0.3684699999999999,-0.0193134999999999,1
55,-0.0178819999999999,0.6779550000000001,-0.1863485,-0.158679,0.5178240000000001,-0.1213084999999999,-0.279609,0.630965,-0.2794385,0.145031,0.512692,-0.1452885,0.230101,0.647115,-0.3123885,-0.3222689999999999,0.779385,-0.4446385,0.237011,0.8181050000000001,-0.4601085,-0.079435,0.000925,0.0038095,0.079435,-0.0009249999999999,-0.0038095,-0.203979,-0.042115,-0.2754785,0.170961,-0.0626849999999999,-0.3087485,-0.1385189999999999,-0.349765,-0.0111474999999999,0.149561,-0.353665,-0.0197474999999999,1
56,-0.017111,0.67611,-0.1857265,-0.1579829999999999,0.5172810000000001,-0.1215364999999999,-0.280483,0.630811,-0.2792965,0.145297,0.512,-0.1456365,0.231757,0.6456900000000001,-0.3124265,-0.323163,0.77897,-0.4444865,0.240027,0.8166800000000001,-0.4602765,-0.0795549999999999,0.00084,0.0036445,0.0795549999999999,-0.0008399999999999,-0.0036444999999999,-0.207343,-0.0339699999999999,-0.2768965,0.175907,-0.0547399999999999,-0.3115465,-0.140063,-0.3387799999999999,-0.0117074999999999,0.151387,-0.3434399999999999,-0.0203544999999999,1
57,-0.016449,0.6739900000000001,-0.184026,-0.157394,0.5171,-0.120776,-0.280604,0.6314550000000001,-0.278156,0.145526,0.511298,-0.144756,0.233576,0.6446390000000001,-0.311266,-0.324034,0.78046,-0.443356,0.2431459999999999,0.8159400000000001,-0.459096,-0.079595,0.00075,0.0034049999999999,0.079595,-0.0007499999999999,-0.0034049999999999,-0.210334,-0.0273799999999999,-0.277126,0.180656,-0.0484299999999999,-0.312916,-0.141504,-0.3298599999999999,-0.011248,0.153226,-0.33531,-0.0197559999999999,1
58,-0.015819,0.671485,-0.182323,-0.1571139999999999,0.516905,-0.119833,-0.280704,0.632141,-0.276873,0.145746,0.510083,-0.1437129999999999,0.234756,0.644593,-0.310153,-0.324904,0.7827249999999999,-0.441733,0.246056,0.816265,-0.457963,-0.079677,0.0008049999999999,0.003278,0.079677,-0.000805,-0.0032779999999999,-0.2127339999999999,-0.023045,-0.277033,0.185346,-0.044025,-0.313963,-0.1426839999999999,-0.323605,-0.0107109999999999,0.155106,-0.3294950000000001,-0.019058,1
59,-0.0153049999999999,0.6701750000000001,-0.180979,-0.156993,0.517561,-0.118819,-0.280093,0.6333350000000001,-0.275199,0.146017,0.508572,-0.1425989999999999,0.235807,0.6442700000000001,-0.308999,-0.325383,0.7858450000000001,-0.439939,0.248867,0.816945,-0.456799,-0.0797799999999999,0.000925,0.0031029999999999,0.0797799999999999,-0.0009249999999999,-0.003103,-0.2143729999999999,-0.0201149999999998,-0.276819,0.189567,-0.0406149999999999,-0.314509,-0.143873,-0.3191149999999999,-0.01009,0.157157,-0.3254449999999999,-0.018255,1
60,-0.0149634999999999,0.667985,-0.179174,-0.1570415,0.518146,-0.117814,-0.2798715,0.634953,-0.273684,0.1461985,0.50668,-0.141454,0.2366085,0.644289,-0.307554,-0.3257315,0.7894950000000001,-0.437084,0.2507685,0.818705,-0.4548439999999999,-0.0797745,0.0011349999999999,0.0028959999999999,0.0797745,-0.0011349999999999,-0.002896,-0.2153315,-0.0182949999999999,-0.276744,0.1930285,-0.038335,-0.314614,-0.1448715,-0.316045,-0.009501,0.1589985,-0.3229149999999999,-0.017408,1
61,-0.014601,0.667342,-0.177908,-0.157002,0.518158,-0.116938,-0.279562,0.636778,-0.272068,0.146438,0.506331,-0.140368,0.236638,0.646114,-0.305118,-0.3257219999999999,0.79132,-0.434018,0.250778,0.82053,-0.451728,-0.079864,0.0011599999999999,0.0027179999999999,0.079864,-0.00116,-0.0027179999999999,-0.2153219999999999,-0.0176899999999999,-0.276848,0.196058,-0.0370599999999999,-0.314478,-0.145542,-0.31464,-0.009071,0.160938,-0.32192,-0.016609,1
62,-0.0143269999999999,0.6664300000000001,-0.176754,-0.1570349999999999,0.5189180000000001,-0.116054,-0.279555,0.637538,-0.2705039999999999,0.146595,0.5059460000000001,-0.139114,0.2366349999999999,0.6468740000000001,-0.302484,-0.325725,0.7920800000000001,-0.4306939999999999,0.250765,0.8212900000000001,-0.447474,-0.079861,0.00119,0.002583,0.079861,-0.0011899999999999,-0.002583,-0.215285,-0.0177399999999999,-0.277044,0.198375,-0.0363299999999999,-0.3137439999999999,-0.145945,-0.3142699999999999,-0.0087319999999999,0.162295,-0.3216599999999999,-0.0157,1
63,-0.0140805,0.665621,-0.175923,-0.1571145,0.5189180000000001,-0.1155929999999999,-0.2795745,0.637538,-0.269223,0.1467554999999999,0.5055780000000001,-0.138153,0.2363855,0.6468740000000001,-0.299843,-0.3257645,0.7922800000000001,-0.427533,0.2507055,0.8212900000000001,-0.442393,-0.0798595,0.00119,0.00247,0.0798595,-0.0011899999999999,-0.00247,-0.2152845,-0.0181299999999999,-0.277523,0.2002055,-0.0363299999999999,-0.312883,-0.1461345,-0.3145599999999999,-0.008783,0.1633655,-0.3219099999999999,-0.01507,1
64,-0.0139094999999999,0.665247,-0.1754994999999999,-0.1570714999999999,0.5189180000000001,-0.1153294999999999,-0.2795615,0.6375870000000001,-0.2680095,0.1469085,0.5055780000000001,-0.1374095,0.2348885,0.64788,-0.2965395,-0.3257215,0.7947000000000001,-0.4241895,0.2499084999999999,0.8240700000000001,-0.4364895,-0.0798585,0.00119,0.0023654999999999,0.0798585,-0.0011899999999999,-0.0023654999999999,-0.2152715,-0.0182999999999999,-0.2782695,0.2016985,-0.0363299999999999,-0.3122495,-0.1461315,-0.3146599999999999,-0.0088945,0.1646085,-0.3220499999999999,-0.0144485,1
65,-0.0137699999999999,0.665058,-0.175051,-0.157218,0.5192760000000001,-0.1149709999999999,-0.2794379999999999,0.6397570000000001,-0.266951,0.147042,0.5055780000000001,-0.136831,0.2331119999999999,0.6503230000000001,-0.2931209999999999,-0.325798,0.7987600000000001,-0.420871,0.2486119999999999,0.8282800000000001,-0.430401,-0.079857,0.00119,0.0022459999999999,0.079857,-0.0011899999999999,-0.0022459999999999,-0.214918,-0.0183799999999999,-0.278861,0.202982,-0.0363299999999999,-0.311701,-0.146128,-0.3147099999999999,-0.009154,0.165662,-0.3220699999999999,-0.013907,1
66,-0.0137394999999999,0.664668,-0.1747465,-0.1574325,0.5205310000000001,-0.1148865,-0.2792325,0.642815,-0.2659565,0.1470975,0.5053380000000001,-0.1363365,0.2305275,0.6539670000000001,-0.2897565,-0.3260625,0.8036300000000001,-0.4176565,0.2462775,0.83399,-0.4240965,-0.0798335,0.0012700000000001,0.0021414999999999,0.0798335,-0.0012699999999999,-0.0021415,-0.2144424999999999,-0.0186199999999999,-0.2793465,0.2040675,-0.0362499999999998,-0.3112265,-0.1462024999999999,-0.3149499999999999,-0.0095515,0.1665675,-0.32236,-0.0134165,1
67,-0.0136805,0.6635599999999999,-0.174529,-0.1576305,0.521518,-0.114939,-0.2794005,0.6455919999999999,-0.265069,0.1471695,0.504542,-0.135999,0.2302195,0.6560429999999999,-0.287029,-0.3262605,0.808365,-0.414719,0.2455995,0.8381449999999999,-0.418379,-0.0798145,0.0014649999999999,0.002061,0.0798145,-0.001465,-0.002061,-0.2138005,-0.019545,-0.279789,0.2050294999999999,-0.0366849999999999,-0.310579,-0.1461805,-0.316005,-0.009895,0.1674494999999999,-0.323295,-0.012936,1
68,-0.0135565,0.662446,-0.174527,-0.1578265,0.521783,-0.1149869999999999,-0.2800065,0.64784,-0.2642469999999999,0.1472535,0.50394,-0.1357769999999999,0.2302335,0.657706,-0.284417,-0.3262465,0.812525,-0.4118969999999999,0.2444835,0.842025,-0.413107,-0.0797684999999999,0.001595,0.00199,0.0797684999999999,-0.001595,-0.0019899999999999,-0.2130265,-0.020625,-0.280177,0.2058435,-0.037015,-0.3097669999999999,-0.1460765,-0.317215,-0.0103189999999999,0.1683035,-0.324385,-0.0126269999999999,1
69,-0.0134645,0.661632,-0.174624,-0.1580005,0.5218090000000001,-0.115154,-0.2800905,0.648634,-0.263734,0.1473295,0.5034930000000001,-0.135694,0.2301695,0.65918,-0.282174,-0.3259405,0.815065,-0.409774,0.2431795,0.845375,-0.408774,-0.0797275,0.001695,0.0019689999999999,0.0797275,-0.001695,-0.001969,-0.2121105,-0.0215149999999999,-0.280404,0.2066095,-0.0371349999999999,-0.309174,-0.1459205,-0.318195,-0.010796,0.1690895,-0.325245,-0.012487,1
70,-0.013372,0.661235,-0.1745645,-0.158139,0.521819,-0.1151545,-0.280239,0.649424,-0.2628645,0.1473509999999999,0.503344,-0.1356445,0.230011,0.660651,-0.2803345,-0.325499,0.817105,-0.4078445,0.241641,0.848665,-0.4052545,-0.0796989999999999,0.001775,0.0019705,0.0796989999999999,-0.0017749999999999,-0.0019705,-0.211279,-0.0219949999999999,-0.2804845,0.207221,-0.0372049999999999,-0.3085445,-0.145819,-0.318665,-0.0111385,0.1695509999999999,-0.325805,-0.0123475,1
71,-0.0132545,0.661078,-0.1744145,-0.1582675,0.521915,-0.1151445,-0.2803775,0.649969,-0.2618145,0.1474025,0.503326,-0.1355745,0.2301025,0.662039,-0.2786845,-0.3253574999999999,0.8183750000000001,-0.4062345,0.2399925,0.8516650000000001,-0.4021645,-0.0796795,0.001865,0.0019824999999999,0.0796795,-0.001865,-0.0019824999999999,-0.2106075,-0.022285,-0.2804645,0.2077625,-0.0372249999999999,-0.3079845,-0.1457175,-0.3189849999999999,-0.0111814999999999,0.1700424999999999,-0.326125,-0.0123305,1
72,-0.013063,0.661204,-0.1743565,-0.15841,0.5219280000000001,-0.1151465,-0.2811,0.65019,-0.2606665,0.14744,0.503433,-0.1354865,0.23045,0.663268,-0.2772665,-0.32525,0.8193,-0.4048765,0.23866,0.85422,-0.3996265,-0.079666,0.00192,0.0019824999999999,0.079666,-0.00192,-0.0019824999999999,-0.21013,-0.0223099999999999,-0.2804665,0.20819,-0.0371399999999999,-0.3074665,-0.14573,-0.31904,-0.0111815,0.17051,-0.32618,-0.0122625,1
73,-0.0127335,0.661322,-0.174366,-0.1584815,0.521962,-0.1151259999999999,-0.2817115,0.65028,-0.259556,0.1475185,0.503467,-0.135296,0.2309884999999999,0.6636150000000001,-0.276336,-0.3246515,0.8197099999999999,-0.403586,0.2384285,0.8555,-0.397546,-0.0796395,0.00192,0.002013,0.0796395,-0.00192,-0.002013,-0.2100515,-0.0223099999999999,-0.280476,0.2084385,-0.0371399999999999,-0.307216,-0.1458715,-0.31904,-0.011201,0.1706885,-0.32618,-0.012075,1
74,-0.012336,0.6614800000000001,-0.174397,-0.158397,0.521997,-0.114857,-0.282267,0.650423,-0.258367,0.147623,0.503467,-0.135137,0.231623,0.663969,-0.2755769999999999,-0.323887,0.82003,-0.4021869999999999,0.238233,0.85667,-0.3951869999999999,-0.079604,0.00192,0.0020979999999999,0.079604,-0.00192,-0.002098,-0.210117,-0.0223099999999999,-0.280477,0.208443,-0.0371399999999999,-0.307287,-0.146027,-0.31909,-0.011302,0.170813,-0.3262199999999999,-0.011969,1
75,-0.01185,0.6617430000000001,-0.1741895,-0.158077,0.522051,-0.1140495,-0.282767,0.650625,-0.2567395,0.147753,0.503507,-0.1349294999999999,0.232393,0.6643950000000001,-0.2747995,-0.322547,0.8204400000000001,-0.4002095,0.238043,0.8578100000000001,-0.3925694999999999,-0.079538,0.00196,0.0022464999999999,0.079538,-0.0019599999999999,-0.0022464999999999,-0.2102369999999999,-0.0222699999999999,-0.2804695,0.208293,-0.0370999999999999,-0.3074395,-0.1461869999999999,-0.31916,-0.0113144999999999,0.170893,-0.32624,-0.0119475,1
76,-0.0113494999999999,0.662158,-0.17368,-0.1577785,0.522251,-0.11318,-0.2832385,0.651043,-0.25516,0.1479215,0.503702,-0.13466,0.2356415,0.66397,-0.27392,-0.3210885,0.821105,-0.39816,0.2393414999999999,0.8585149999999999,-0.38967,-0.0794815,0.0020449999999999,0.002396,0.0794815,-0.0020449999999999,-0.002396,-0.2103785,-0.0220949999999999,-0.28028,0.2081615,-0.037085,-0.3076,-0.1463185,-0.319125,-0.011331,0.1709715,-0.326165,-0.0121059999999999,1
77,-0.0107579999999999,0.6626620000000001,-0.1728395,-0.157409,0.5225010000000001,-0.1122695,-0.283589,0.6514690000000001,-0.2535294999999999,0.148201,0.5039610000000001,-0.1343095,0.239101,0.663544,-0.2728595,-0.319399,0.821925,-0.3961194999999999,0.240931,0.8591550000000001,-0.3866095,-0.079451,0.002155,0.0025555,0.079451,-0.0021549999999999,-0.0025555,-0.2104089999999999,-0.0218849999999999,-0.2800494999999999,0.208131,-0.0371649999999998,-0.3077594999999999,-0.1463789999999999,-0.3189649999999999,-0.0112794999999999,0.171081,-0.326005,-0.0122635,1
78,-0.0101355,0.66326,-0.171783,-0.1570814999999999,0.522837,-0.111313,-0.2838615,0.651905,-0.251773,0.1485085,0.504231,-0.133893,0.2426284999999999,0.663116,-0.271613,-0.3175015,0.822975,-0.393973,0.2426984999999999,0.8597250000000001,-0.383383,-0.0794325,0.002275,0.0027089999999999,0.0794325,-0.002275,-0.002709,-0.2104315,-0.0216549999999999,-0.279793,0.2081285,-0.037305,-0.307953,-0.1465814999999999,-0.318725,-0.011132,0.1711984999999999,-0.325905,-0.012416,1
79,-0.009517,0.6641279999999999,-0.170307,-0.15681,0.523172,-0.1102669999999999,-0.28388,0.652335,-0.250077,0.14884,0.504548,-0.133397,0.24382,0.663516,-0.270217,-0.3153899999999999,0.824275,-0.391877,0.24282,0.860395,-0.379977,-0.079434,0.0023749999999999,0.002833,0.079434,-0.002375,-0.002833,-0.21049,-0.021355,-0.279607,0.20801,-0.037455,-0.308407,-0.14688,-0.3183950000000001,-0.011123,0.17131,-0.3258150000000001,-0.012642,1
80,-0.008793,0.665422,-0.168491,-0.156465,0.523716,-0.109181,-0.283785,0.653075,-0.248501,0.149295,0.505031,-0.132811,0.244415,0.664126,-0.268611,-0.312945,0.8260649999999999,-0.389571,0.243105,0.861205,-0.376641,-0.079322,0.0025349999999999,0.0029619999999999,0.079322,-0.002535,-0.002962,-0.210565,-0.020875,-0.279441,0.207905,-0.037465,-0.308971,-0.147125,-0.3177850000000001,-0.011081,0.171495,-0.325515,-0.012884,1
81,-0.0081845,0.6667630000000001,-0.1664865,-0.1561925,0.524456,-0.1080365,-0.2836625,0.654008,-0.2468965,0.1497274999999999,0.5055700000000001,-0.1321564999999999,0.2446975,0.6647860000000001,-0.2668665,-0.3103625,0.8281450000000001,-0.3871464999999999,0.2434775,0.862055,-0.3735064999999999,-0.0791815,0.002685,0.0030855,0.0791815,-0.0026849999999999,-0.0030854999999999,-0.2107325,-0.0204449999999999,-0.2792165,0.2079375,-0.0374549999999999,-0.3095164999999999,-0.1474025,-0.317125,-0.0109994999999999,0.1716375,-0.3251649999999999,-0.0130614999999999,1
82,-0.0077679999999999,0.667935,-0.1644695,-0.155939,0.5250619999999999,-0.1069194999999999,-0.283369,0.6550699999999999,-0.2452395,0.150121,0.506118,-0.1314495,0.244901,0.665991,-0.2652995,-0.308129,0.8303349999999999,-0.3845495,0.243861,0.863705,-0.3710495,-0.079017,0.0027649999999999,0.0032035,0.079017,-0.002765,-0.0032034999999999,-0.2109889999999999,-0.020205,-0.2789495,0.208111,-0.0374349999999999,-0.3100395,-0.147559,-0.316535,-0.0108994999999999,0.171871,-0.324855,-0.0131814999999999,1
83,-0.007437,0.6688500000000001,-0.1623929999999999,-0.155721,0.5253920000000001,-0.105823,-0.282741,0.6561300000000001,-0.243543,0.150489,0.506403,-0.130653,0.2451189999999999,0.6669830000000001,-0.263523,-0.306101,0.83243,-0.381943,0.2442889999999999,0.86499,-0.368663,-0.07887,0.00279,0.003269,0.07887,-0.0027899999999999,-0.003269,-0.211511,-0.0202799999999999,-0.278603,0.208339,-0.0376099999999999,-0.310393,-0.147621,-0.31621,-0.010749,0.172099,-0.3248099999999999,-0.013246,1
84,-0.0071605,0.6696500000000001,-0.160113,-0.1554265,0.52541,-0.105033,-0.2819165,0.657983,-0.241463,0.1508335,0.506403,-0.129773,0.2453835,0.6679900000000001,-0.2612629999999999,-0.3044365,0.83535,-0.378723,0.2446535,0.8662000000000001,-0.365973,-0.0787565,0.00279,0.0033369999999999,0.0787565,-0.0027899999999999,-0.0033369999999999,-0.2123664999999999,-0.0206399999999999,-0.278103,0.2086335,-0.0379799999999999,-0.3107129999999999,-0.1476464999999999,-0.3161499999999999,-0.010587,0.1724535,-0.3249999999999999,-0.013337,1
85,-0.0068614999999999,0.67071,-0.157689,-0.1551105,0.525486,-0.104159,-0.2808004999999999,0.660491,-0.2389889999999999,0.1512494999999999,0.506403,-0.1288989999999999,0.2454594999999999,0.6693800000000001,-0.258659,-0.3028605,0.8392000000000001,-0.374559,0.2449495,0.8677600000000001,-0.362989,-0.0786735,0.00279,0.0033979999999999,0.0786735,-0.0027899999999999,-0.0033979999999999,-0.2133005,-0.02098,-0.277559,0.2089494999999999,-0.0382799999999999,-0.310929,-0.1476505,-0.3161499999999999,-0.0104199999999999,0.1728595,-0.3251499999999999,-0.0134939999999999,1
86,-0.0065724999999999,0.6720700000000001,-0.155395,-0.1550264999999999,0.525827,-0.102675,-0.2794465,0.663659,-0.235975,0.1516435,0.506595,-0.127985,0.2452835,0.67118,-0.255845,-0.3013965,0.8436,-0.369755,0.2452234999999999,0.86978,-0.3596749999999999,-0.0786405,0.00279,0.003499,0.0786405,-0.0027899999999999,-0.003499,-0.2142765,-0.0212599999999999,-0.277005,0.2092535,-0.03847,-0.311005,-0.1476464999999999,-0.31604,-0.0102229999999999,0.1732335,-0.3252299999999999,-0.013497,1
87,-0.006248,0.673485,-0.1529445,-0.1550959999999999,0.526398,-0.1011445,-0.277826,0.66728,-0.2324045,0.152064,0.506812,-0.1269745,0.244654,0.673485,-0.2524545,-0.300076,0.848545,-0.3641145,0.245534,0.872155,-0.3560645,-0.078682,0.002835,0.0035624999999999,0.078682,-0.002835,-0.0035625,-0.215226,-0.0216349999999999,-0.2763845,0.209574,-0.0386649999999999,-0.3110245,-0.147566,-0.316015,-0.0099865,0.173624,-0.3253549999999999,-0.0134645,1
88,-0.005987,0.675615,-0.1509484999999999,-0.1551509999999999,0.5270199999999999,-0.0991584999999999,-0.275401,0.6716949999999999,-0.2281185,0.152469,0.5082749999999999,-0.1249484999999999,0.241209,0.6780849999999999,-0.2481085,-0.2986709999999999,0.8541749999999999,-0.3577185,0.242699,0.877475,-0.3499685,-0.07872,0.0027649999999999,0.0036124999999999,0.07872,-0.002765,-0.0036124999999999,-0.216181,-0.022515,-0.2757084999999999,0.209889,-0.039355,-0.3109285,-0.1474309999999999,-0.316575,-0.0096844999999999,0.173929,-0.326025,-0.0133054999999999,1
89,-0.0057945,0.67733,-0.149562,-0.1551345,0.527592,-0.097002,-0.2731745,0.6760099999999999,-0.223552,0.1527355,0.5095259999999999,-0.122952,0.2373755,0.6824499999999999,-0.243802,-0.2970845,0.85996,-0.350662,0.2396455,0.8825799999999999,-0.343852,-0.0788254999999999,0.0026899999999999,0.003641,0.0788254999999999,-0.00269,-0.0036409999999999,-0.2171245,-0.02356,-0.274962,0.2100655,-0.04034,-0.310752,-0.1474345,-0.3174100000000001,-0.0093489999999999,0.1740755,-0.32701,-0.0130559999999999,1
90,-0.0055955,0.67893,-0.1487959999999999,-0.1550475,0.528398,-0.0946859999999999,-0.2706874999999999,0.6807,-0.218826,0.1529424999999999,0.510572,-0.120806,0.2332725,0.68677,-0.2394659999999999,-0.2954875,0.86606,-0.343416,0.2365025,0.88767,-0.337606,-0.0789465,0.0025999999999999,0.0036269999999999,0.0789465,-0.0026,-0.0036269999999999,-0.2178574999999999,-0.0249399999999999,-0.274256,0.2101425,-0.0417199999999999,-0.310416,-0.1474174999999999,-0.31865,-0.008881,0.1741325,-0.3282899999999999,-0.012741,1
91,-0.0053659999999999,0.681225,-0.147986,-0.154882,0.529106,-0.092516,-0.267802,0.685275,-0.214446,0.153478,0.5121549999999999,-0.118646,0.228968,0.6916049999999999,-0.2352459999999999,-0.293772,0.871985,-0.336576,0.232898,0.893335,-0.331256,-0.078983,0.0024949999999999,0.003478,0.078983,-0.002495,-0.003478,-0.2182819999999999,-0.027115,-0.273586,0.210308,-0.043895,-0.310096,-0.1472319999999999,-0.320705,-0.008425,0.1742179999999999,-0.3302250000000001,-0.012393,1
92,-0.0051074999999999,0.684515,-0.1479825,-0.1546845,0.52964,-0.0910825,-0.2646545,0.689575,-0.2111325,0.1540855,0.5136620000000001,-0.1170325,0.2250955,0.696235,-0.2340125,-0.2919045,0.877595,-0.3315424999999999,0.2286254999999999,0.898845,-0.3285825,-0.0789705,0.0023549999999999,0.0034664999999999,0.0789705,-0.0023549999999999,-0.0034665,-0.2180745,-0.0300349999999999,-0.2731425,0.2104754999999999,-0.0466349999999999,-0.3100825,-0.1470245,-0.3235049999999999,-0.0082685,0.1742955,-0.3328749999999999,-0.0123545,1
93,-0.0047335,0.68751,-0.1478695,-0.1542935,0.529918,-0.0897495,-0.2616935,0.69258,-0.2091395,0.1546765,0.514683,-0.1156695,0.2211265,0.70011,-0.2334095,-0.2901335,0.88176,-0.3287695,0.2227565,0.90359,-0.3271294999999999,-0.0789225,0.0022699999999999,0.0034755,0.0789225,-0.0022699999999999,-0.0034754999999999,-0.2179335,-0.03392,-0.2728695,0.2103565,-0.0499399999999999,-0.3095694999999999,-0.1468735,-0.3275099999999999,-0.0081304999999999,0.1741765,-0.33671,-0.0123034999999999,1
94,-0.0042259999999999,0.69024,-0.1476085,-0.153643,0.5303209999999999,-0.0884385,-0.258793,0.6951499999999999,-0.2077085,0.155227,0.5141809999999999,-0.1142485,0.217347,0.7023299999999999,-0.2332185,-0.288733,0.8849199999999999,-0.3277885,0.216527,0.90651,-0.3270385,-0.078842,0.0024999999999999,0.0034765,0.078842,-0.0025,-0.0034765,-0.217853,-0.0387400000000001,-0.2724585,0.209877,-0.05395,-0.3085585,-0.1467129999999999,-0.3329000000000001,-0.0079265,0.173897,-0.3418700000000001,-0.0122305,1
95,-0.0035214999999999,0.692785,-0.1477305,-0.1527865,0.529175,-0.0879505,-0.2561665,0.6956149999999999,-0.2073705,0.1559634999999999,0.5165009999999999,-0.1128605,0.2137635,0.705355,-0.2331405,-0.2877065,0.8855449999999999,-0.3279105,0.2102735,0.909805,-0.3272405,-0.0787955,0.0024449999999999,0.0033445,0.0787955,-0.002445,-0.0033445,-0.2175665,-0.0467050000000001,-0.2714705,0.2092235,-0.060945,-0.3063605,-0.1462864999999999,-0.342725,-0.0078965,0.1734534999999999,-0.351095,-0.0120945,1
96,-0.0026905,0.69486,-0.148568,-0.1516865,0.5286879999999999,-0.0877179999999999,-0.2535565,0.69583,-0.2076479999999999,0.1568034999999999,0.51828,-0.112158,0.2117534999999999,0.70733,-0.2335679999999999,-0.2860365,0.8854,-0.328298,0.2047034999999999,0.91199,-0.327718,-0.0787085,0.00246,0.003227,0.0787085,-0.00246,-0.003227,-0.2166765,-0.05575,-0.270418,0.2084234999999999,-0.06889,-0.303828,-0.1457565,-0.35428,-0.008168,0.1729935,-0.3619,-0.012232,1
97,-0.0017645,0.696815,-0.1500429999999999,-0.1506175,0.527866,-0.088333,-0.2522775,0.694785,-0.208453,0.1575225,0.518901,-0.112563,0.2117425,0.706915,-0.2343929999999999,-0.2848775,0.883575,-0.329113,0.2026025,0.910725,-0.328563,-0.0785875,0.0023749999999999,0.0030999999999999,0.0785875,-0.002375,-0.0030999999999999,-0.2155075,-0.065665,-0.269283,0.2073725,-0.0776650000000001,-0.3012229999999999,-0.1452675,-0.367465,-0.008815,0.1723225,-0.373925,-0.012801,1
98,-0.0005384999999999,0.6997800000000001,-0.1521544999999999,-0.1491465,0.5280250000000001,-0.0891044999999999,-0.2519265,0.6940000000000001,-0.2094045,0.1584335,0.5208510000000001,-0.1130744999999999,0.2117835,0.70774,-0.2355744999999999,-0.2848465,0.8812,-0.3300944999999999,0.2013035,0.91021,-0.3302345,-0.0783735,0.00242,0.0029515,0.0783735,-0.0024199999999999,-0.0029514999999999,-0.2138364999999999,-0.0763899999999999,-0.2678244999999999,0.2057635,-0.0866499999999999,-0.2975144999999999,-0.1446664999999999,-0.3821199999999999,-0.0095584999999999,0.1716535,-0.3873599999999999,-0.0134914999999999,1
99,0.000633,0.702325,-0.154091,-0.147687,0.527404,-0.089981,-0.251727,0.6922349999999999,-0.210671,0.1592329999999999,0.526259,-0.113741,0.211733,0.710235,-0.237891,-0.284887,0.878255,-0.332761,0.200643,0.912205,-0.332651,-0.0781419999999999,0.002095,0.002861,0.0781419999999999,-0.002095,-0.0028609999999999,-0.211717,-0.0884649999999999,-0.2660409999999999,0.203753,-0.0970249999999999,-0.293351,-0.144167,-0.399035,-0.010393,0.170533,-0.4025749999999999,-0.0146149999999999,1
100,0.0020805,0.70296,-0.156434,-0.1461275,0.526445,-0.0918339999999999,-0.2503075,0.68944,-0.2133939999999999,0.1600825,0.52824,-0.115544,0.2113025,0.7094400000000001,-0.2402139999999999,-0.2840775,0.87364,-0.337014,0.1994325,0.91064,-0.336754,-0.0779615,0.00221,0.002855,0.0779615,-0.0022099999999999,-0.0028549999999999,-0.2089275,-0.1028999999999999,-0.264824,0.2015225,-0.1095599999999999,-0.289504,-0.1431975,-0.41864,-0.0123129999999999,0.1694525,-0.4205399999999999,-0.0167929999999999,1
101,0.0031064999999999,0.7034199999999999,-0.158912,-0.1449735,0.527851,-0.093972,-0.2498935,0.6875899999999999,-0.217232,0.1608265,0.5301389999999999,-0.117202,0.2122965,0.7089699999999999,-0.244302,-0.2842035,0.86978,-0.343182,0.1992865,0.90918,-0.343112,-0.0777095,0.0022399999999999,0.002797,0.0777095,-0.00224,-0.002797,-0.2057035,-0.11803,-0.2629419999999999,0.1986564999999999,-0.12348,-0.285502,-0.1423635,-0.43957,-0.0146289999999999,0.1680164999999999,-0.4400200000000001,-0.019303,1
102,0.004192,0.7040249999999999,-0.161434,-0.143846,0.5275749999999999,-0.0964739999999999,-0.248886,0.6850449999999999,-0.221124,0.162014,0.532445,-0.118864,0.214074,0.708415,-0.248264,-0.2837159999999999,0.864805,-0.348974,0.199474,0.907525,-0.350194,-0.0775619999999999,0.0021149999999999,0.0027449999999999,0.0775619999999999,-0.002115,-0.0027449999999999,-0.201876,-0.133845,-0.260494,0.195684,-0.137245,-0.280874,-0.1411659999999999,-0.461555,-0.0171489999999999,0.167114,-0.4602550000000001,-0.021941,1
103,0.004943,0.7050799999999999,-0.164013,-0.143455,0.5269699999999999,-0.099063,-0.248835,0.68367,-0.225033,0.162915,0.53497,-0.120743,0.216395,0.70997,-0.252723,-0.2840149999999999,0.86164,-0.355573,0.199395,0.9081,-0.3572729999999999,-0.077213,0.0019,0.0027449999999999,0.077213,-0.0019,-0.002745,-0.197895,-0.1486099999999999,-0.2576429999999999,0.192435,-0.15077,-0.276293,-0.140115,-0.4827499999999999,-0.0198,0.165965,-0.48012,-0.024603,1
104,0.0056099999999999,0.70589,-0.1659584999999999,-0.1434,0.5282600000000001,-0.1011185,-0.24889,0.68316,-0.2276585,0.1640599999999999,0.5371900000000001,-0.1213284999999999,0.21971,0.71048,-0.2547385,-0.28429,0.85965,-0.3596185,0.2015,0.90772,-0.3592985,-0.076868,0.00159,0.0027455,0.076868,-0.0015899999999999,-0.0027454999999999,-0.1938099999999999,-0.16218,-0.2537285,0.18862,-0.1634799999999999,-0.2709385,-0.13934,-0.5026799999999999,-0.0221195,0.16475,-0.49922,-0.0267125,1
105,0.0064799999999999,0.70533,-0.165209,-0.143621,0.52895,-0.102759,-0.248721,0.6829700000000001,-0.229299,0.165259,0.54039,-0.121539,0.222779,0.71233,-0.257309,-0.284451,0.85881,-0.361439,0.205559,0.90848,-0.361909,-0.076599,0.00156,0.0028129999999999,0.076599,-0.00156,-0.002813,-0.189571,-0.1750399999999999,-0.248719,0.184549,-0.176,-0.265109,-0.138631,-0.522,-0.024279,0.1633589999999999,-0.51789,-0.028665,1
106,0.007275,0.701585,-0.163788,-0.143784,0.531245,-0.104158,-0.248734,0.684045,-0.230948,0.166606,0.544085,-0.121518,0.226426,0.7139949999999999,-0.258928,-0.2847739999999999,0.8592850000000001,-0.363098,0.210816,0.909825,-0.363498,-0.076328,0.0015249999999999,0.0027629999999999,0.076328,-0.0015249999999999,-0.002763,-0.185194,-0.1876549999999999,-0.243098,0.180036,-0.187205,-0.257828,-0.137934,-0.541085,-0.026335,0.161836,-0.536195,-0.030884,1
107,0.0077094999999999,0.6979200000000001,-0.161897,-0.1439045,0.53335,-0.105337,-0.2489545,0.68562,-0.232677,0.1678455,0.5467500000000001,-0.120937,0.2285555,0.71566,-0.258817,-0.2851545,0.86109,-0.364827,0.2165055,0.91191,-0.364717,-0.0761685,0.0015,0.002678,0.0761685,-0.0014999999999999,-0.002678,-0.1807445,-0.1992999999999999,-0.236847,0.1758355,-0.1993399999999999,-0.251557,-0.1373545,-0.55918,-0.0280519999999999,0.1601855,-0.55438,-0.0329369999999999,1
108,0.0082884999999999,0.694355,-0.1598955,-0.1440655,0.533355,-0.1064155,-0.2489954999999999,0.686205,-0.2337354999999999,0.1687145,0.545975,-0.1205755,0.2302845,0.7147950000000001,-0.2583555,-0.2851955,0.861465,-0.3665155,0.2216745,0.910545,-0.3652255,-0.0760595,0.0016349999999999,0.0025004999999999,0.0760595,-0.0016349999999999,-0.0025005,-0.1761855,-0.212875,-0.2297255,0.1720045,-0.214155,-0.2449555,-0.1366255,-0.578905,-0.0296765,0.1588244999999999,-0.575255,-0.0347635,1
109,0.009102,0.687935,-0.155695,-0.143924,0.530235,-0.106375,-0.249044,0.686445,-0.232715,0.168506,0.544355,-0.119165,0.230716,0.715465,-0.255345,-0.284564,0.8625550000000001,-0.365355,0.226626,0.911205,-0.361725,-0.076018,0.001545,0.0022779999999999,0.076018,-0.0015449999999999,-0.0022779999999999,-0.170864,-0.2241949999999999,-0.219025,0.167926,-0.2254049999999999,-0.2348049999999999,-0.135724,-0.5970949999999999,-0.030284,0.157636,-0.5935549999999999,-0.03552,1
110,0.0102614999999999,0.681195,-0.1498235,-0.1435715,0.524845,-0.1054435,-0.2486915,0.685905,-0.2301635,0.1686085,0.543245,-0.1171435,0.2310185,0.7160850000000001,-0.2495235,-0.2827615,0.863605,-0.3611635,0.2315485,0.911995,-0.3545435,-0.0761505,0.0015149999999999,0.0022765,0.0761505,-0.001515,-0.0022764999999999,-0.1655615,-0.233495,-0.2071735,0.1643285,-0.234635,-0.2227934999999999,-0.1346515,-0.613685,-0.0300555,0.1566685,-0.6098350000000001,-0.0354485,1
111,0.0112409999999999,0.674415,-0.145365,-0.143879,0.523045,-0.104495,-0.249369,0.686205,-0.227645,0.170371,0.5432049999999999,-0.115315,0.233431,0.717125,-0.2436249999999999,-0.282049,0.865845,-0.357305,0.236191,0.913425,-0.347765,-0.076322,0.001505,0.0022739999999999,0.076322,-0.001505,-0.002274,-0.160249,-0.2412949999999999,-0.194045,0.160951,-0.242115,-0.210175,-0.133759,-0.632995,-0.0290549999999999,0.155491,-0.6306350000000001,-0.035363,1
112,0.01216,0.66793,-0.1409375,-0.144394,0.5205,-0.1032575,-0.2497039999999999,0.6860700000000001,-0.2243375,0.171726,0.54335,-0.1132575,0.236756,0.71772,-0.2375775,-0.280824,0.8671,-0.3518375,0.240316,0.91423,-0.3401775,-0.076299,0.00128,0.0022744999999999,0.076299,-0.00128,-0.0022745,-0.155144,-0.2529399999999999,-0.1803675,0.157526,-0.25293,-0.1967275,-0.133194,-0.65609,-0.0274065,0.154356,-0.6548999999999999,-0.0348245,1
113,0.01262,0.66562,-0.1318774999999999,-0.145412,0.52563,-0.0970375,-0.250252,0.69172,-0.2174275,0.172508,0.53751,-0.1075375,0.239918,0.71505,-0.2276375,-0.279232,0.8741,-0.3422575,0.243758,0.91235,-0.3284675,-0.07621,0.00187,0.0023514999999999,0.07621,-0.00187,-0.0023515,-0.150592,-0.2659399999999999,-0.1622275,0.153928,-0.2635499999999999,-0.1787075,-0.133182,-0.67959,-0.0212014999999999,0.153198,-0.67937,-0.0301775,1
114,0.0126729999999999,0.66521,-0.1222385,-0.146447,0.5274,-0.0879785,-0.250807,0.69282,-0.2077885,0.173253,0.53608,-0.0979984999999999,0.242843,0.71299,-0.2158884999999999,-0.277707,0.87629,-0.3302184999999999,0.247183,0.91124,-0.3147485,-0.076049,0.00176,0.0021494999999999,0.076049,-0.0017599999999999,-0.0021494999999999,-0.144337,-0.28028,-0.1397985,0.1484929999999999,-0.27778,-0.1561485,-0.133317,-0.70843,-0.0113545,0.152473,-0.70843,-0.0203945,1
115,0.0125755,0.6682655,-0.1132334999999999,-0.1475145,0.5282355,-0.0787335,-0.2522645,0.6937854999999999,-0.1978234999999999,0.1734855,0.5342955,-0.0883134999999999,0.2455455,0.7120055,-0.2043135,-0.2761944999999999,0.8788155,-0.3180935,0.2493554999999999,0.9109455,-0.3015735,-0.0759695,0.0018434999999999,0.0019165,0.0759695,-0.0018434999999999,-0.0019165,-0.1383945,-0.2934945,-0.1181035,0.1434554999999999,-0.2920045,-0.1347735,-0.1335345,-0.7349345,-0.0010854999999999,0.1519255,-0.7347345000000001,-0.0101844999999999,1
116,0.0125115,0.6712445,-0.1034065,-0.1488545,0.5292144999999999,-0.0687464999999999,-0.2527844999999999,0.6950045,-0.1875765,0.1735055,0.5322745,-0.0787265,0.2471054999999999,0.7105845,-0.1911665,-0.2743545,0.8814645,-0.3050065,0.2503055,0.9100045,-0.2869665,-0.0757525,0.0017594999999999,0.0018665,0.0757525,-0.0017595,-0.0018665,-0.1327045,-0.3065655,-0.0962465,0.1386055,-0.3047555,-0.1119465,-0.1336945,-0.7600255,0.0098154999999999,0.1514555,-0.7598955000000001,0.0006284999999999,1
117,0.012227,0.6745099999999999,-0.0938699999999999,-0.150315,0.53279,-0.05841,-0.2538249999999999,0.69764,-0.17803,0.173335,0.5311,-0.06864,0.248585,0.71076,-0.17869,-0.272855,0.88578,-0.29285,0.250955,0.91081,-0.27282,-0.075629,0.0018839999999999,0.001825,0.075629,-0.001884,-0.001825,-0.127495,-0.31595,-0.0748099999999999,0.1335549999999999,-0.31306,-0.0890999999999999,-0.133745,-0.78066,0.020803,0.150855,-0.78089,0.011635,1
118,0.012067,0.682313,-0.086202,-0.1514859999999999,0.539153,-0.048962,-0.254286,0.701793,-0.169542,0.173064,0.533513,-0.059432,0.249384,0.712683,-0.168322,-0.271416,0.892133,-0.281902,0.251794,0.913753,-0.261042,-0.075496,0.0016799999999999,0.001888,0.075496,-0.00168,-0.001888,-0.1229359999999999,-0.324407,-0.056822,0.129524,-0.321677,-0.069472,-0.133716,-0.797497,0.030495,0.150524,-0.799227,0.0221169999999999,1
119,0.011897,0.6900375000000001,-0.0786144999999999,-0.1525639999999999,0.5455874999999999,-0.0400545,-0.254754,0.7057475,-0.1611645,0.172616,0.5354075,-0.0503845,0.250766,0.7141074999999999,-0.1590945,-0.270524,0.8976275,-0.2710345,0.252306,0.9163975,-0.2486944999999999,-0.075371,0.0015494999999999,0.0018754999999999,0.075371,-0.0015495,-0.0018755,-0.118374,-0.3337325,-0.0398045,0.125726,-0.3305925,-0.0509445,-0.1336139999999999,-0.8143425,0.0391274999999999,0.150296,-0.8165625000000001,0.0323445,1
120,0.0118635,0.6975564999999999,-0.0708069999999999,-0.1534145,0.5502165,-0.0307349999999999,-0.2554745,0.7095564999999999,-0.152277,0.1722155,0.5364264999999999,-0.0412169999999999,0.2510055,0.7151164999999999,-0.149947,-0.2696845,0.9029265,-0.259537,0.2530655,0.9184165,-0.236227,-0.0753095,0.0014895,0.001825,0.0753095,-0.0014895,-0.0018249999999999,-0.1142354999999999,-0.3429435,-0.0252009999999999,0.1225155,-0.3409034999999999,-0.0345369999999999,-0.1331545,-0.8310535,0.047213,0.1500155,-0.8332535000000001,0.042522,1
121,0.0114354999999999,0.7047315000000001,-0.0620509999999999,-0.1546555,0.5556915,-0.020401,-0.2572255,0.7118815000000001,-0.142391,0.1715945,0.5380315,-0.031311,0.2515745,0.7153415,-0.139961,-0.2698155,0.9067015,-0.246251,0.2524245,0.9197815,-0.222391,-0.0748935,0.0014754999999999,0.0019339999999999,0.0748935,-0.0014755,-0.001934,-0.1106475,-0.3482385,-0.011132,0.1192145,-0.3472385,-0.019046,-0.1330455,-0.8449285,0.0549409999999999,0.1493945,-0.8483284999999999,0.0530439999999999,1
122,0.0110784999999999,0.7081235,-0.0566459999999999,-0.1560265,0.5529035,-0.0139959999999999,-0.2589465,0.7085535000000001,-0.135276,0.1710934999999999,0.5434135,-0.024787,0.2550135,0.7189435000000001,-0.132646,-0.2713465,0.9048935,-0.2366059999999999,0.2539735,0.9242035,-0.2119059999999999,-0.0744705,0.0010555,0.0019389999999999,0.0744705,-0.0010555,-0.0019389999999999,-0.1074015,-0.3500465,-0.0023239999999999,0.1164534999999999,-0.3514665,-0.0092499999999999,-0.1326065,-0.8546165,0.058922,0.1489335,-0.8595864999999999,0.060195,1
123,0.0106885,0.7098035,-0.051272,-0.1568195,0.5529035,-0.007836,-0.2607395,0.7085535000000001,-0.128602,0.1707905,0.5434335,-0.019599,0.2560504999999999,0.7193835000000001,-0.124862,-0.2729895,0.9048935,-0.2281719999999999,0.2547804999999999,0.9255935,-0.200922,-0.0741915,0.0010555,0.0019419999999999,0.0741915,-0.0010555,-0.0019419999999999,-0.1061095,-0.3500465,0.0035199999999999,0.1156005,-0.3514665,-0.002448,-0.1319495,-0.8546165,0.0617609999999999,0.1483705,-0.8599465,0.065658,1
124,0.0100285,0.7099535,-0.0450089999999999,-0.1575505,0.5529035,-0.0008739999999999,-0.2632405,0.7085535000000001,-0.1207689999999999,0.1703994999999999,0.5434335,-0.0135249999999999,0.2571695,0.7193835000000001,-0.1169689999999999,-0.2748005,0.9048935,-0.218219,0.2554995,0.9255935,-0.1905289999999999,-0.0738534999999999,0.0010555,0.001946,0.0738534999999999,-0.0010555,-0.001946,-0.1048185,-0.3500465,0.009543,0.1146794999999999,-0.3514665,0.004246,-0.1310305,-0.8546165,0.065091,0.1476994999999999,-0.8600264999999999,0.071272,1
125,0.009412,0.7099535,-0.0379995,-0.158162,0.5529035,0.0051544999999999,-0.266152,0.7085535000000001,-0.1131195,0.170078,0.5434335,-0.0087885,0.258478,0.7193835000000001,-0.1105895,-0.2754419999999999,0.9048935,-0.2087595,0.256438,0.9255935,-0.1815095,-0.073525,0.0010555,0.0019465,0.073525,-0.0010555,-0.0019465,-0.103505,-0.3500465,0.0135564999999999,0.113898,-0.3514665,0.0084295,-0.1300319999999999,-0.8546165,0.0673205,0.147118,-0.8600264999999999,0.0754365,1
126,0.0087505,0.711741,-0.0329175,-0.1588035,0.553611,0.0086704999999999,-0.2691834999999999,0.7091109999999999,-0.1080334999999999,0.1694564999999999,0.544231,-0.0068924999999999,0.2589965,0.721171,-0.1069135,-0.2762035,0.906681,-0.2025834999999999,0.2557765,0.927381,-0.1758235,-0.0732565,0.0010049999999999,0.0022925,0.0732565,-0.0010049999999999,-0.0022925,-0.1023114999999999,-0.349909,0.0145315,0.1131465,-0.351139,0.0095155,-0.1285835,-0.852619,0.0675875,0.1464365,-0.858129,0.0768095,1
127,0.007972,0.71421,-0.0287055,-0.1596679999999999,0.55408,0.0117294999999999,-0.273028,0.7082700000000001,-0.1042765,0.169052,0.54484,-0.0048365,0.259932,0.7222200000000001,-0.1043265,-0.2788279999999999,0.90688,-0.1983165,0.255522,0.92913,-0.1720765,-0.073107,0.001048,0.0024184999999999,0.073107,-0.001048,-0.0024185,-0.1012619999999999,-0.34972,0.0141234999999999,0.112232,-0.35104,0.0087734999999999,-0.127008,-0.8497899999999999,0.0664884999999999,0.145382,-0.8553499999999999,0.0765454999999999,1
128,0.007116,0.7164,-0.025875,-0.160316,0.55358,0.0143749999999999,-0.276896,0.70617,-0.101704,0.1688339999999999,0.5457,-0.003667,0.261494,0.72259,-0.103404,-0.2822759999999999,0.90546,-0.196124,0.255874,0.93017,-0.1720439999999999,-0.072976,0.00105,0.002582,0.072976,-0.00105,-0.002582,-0.100555,-0.34968,0.0121719999999999,0.111274,-0.35098,0.0065259999999999,-0.125186,-0.8458,0.0643229999999999,0.144094,-0.85161,0.074583,1
129,0.006223,0.7187975,-0.0238069999999999,-0.160979,0.5531175,0.015999,-0.281179,0.7038375,-0.099797,0.168601,0.5458175,-0.0030149999999999,0.263321,0.7220675,-0.1032169999999999,-0.286979,0.9034075,-0.195097,0.256891,0.9301875,-0.172837,-0.072849,0.0010085,0.002861,0.072849,-0.0010084999999999,-0.002861,-0.099983,-0.3498025,0.010015,0.110291,-0.3509625,0.003817,-0.123669,-0.8408825,0.061168,0.142421,-0.8468725,0.0716789999999999,1
130,0.005427,0.7205940000000001,-0.022333,-0.161438,0.5534140000000001,0.0173439999999999,-0.285568,0.700994,-0.09828,0.168552,0.546114,-0.002435,0.265802,0.720784,-0.10313,-0.292798,0.8997040000000001,-0.19537,0.259802,0.928644,-0.17483,-0.072888,0.001079,0.0030639999999999,0.072888,-0.0010789999999999,-0.003064,-0.099472,-0.349996,0.0079269999999999,0.109432,-0.351336,0.0013129999999999,-0.1221579999999999,-0.8366359999999999,0.058223,0.1406919999999999,-0.842666,0.068435,1
131,0.0047089999999999,0.721695,-0.021009,-0.161999,0.5534849999999999,0.0184569999999999,-0.2900689999999999,0.6977949999999999,-0.0967799999999999,0.1688309999999999,0.5463849999999999,-0.001923,0.268551,0.7194149999999999,-0.10335,-0.3004389999999999,0.8955649999999999,-0.1952999999999999,0.264281,0.926725,-0.17686,-0.072998,0.001084,0.0032379999999999,0.072998,-0.001084,-0.0032379999999999,-0.0989839999999999,-0.350255,0.0059509999999999,0.1086609999999999,-0.351645,-0.001015,-0.120945,-0.8336150000000001,0.0546549999999999,0.139011,-0.839585,0.0647119999999999,1
132,0.004087,0.72285,-0.0202854999999999,-0.162582,0.55328,0.0196175,-0.294682,0.6943100000000001,-0.0945504999999999,0.169288,0.5467000000000001,-0.0014274999999999,0.270768,0.7184200000000001,-0.1036505,-0.308702,0.89092,-0.1950005,0.269328,0.92522,-0.1789504999999999,-0.073123,0.001076,0.0033585,0.073123,-0.001076,-0.0033585,-0.098615,-0.3505,0.0039334999999999,0.1080579999999999,-0.35194,-0.0032854999999999,-0.119925,-0.83129,0.0506584999999999,0.137728,-0.837,0.0602194999999999,1
133,0.0035409999999999,0.723627,-0.0197425,-0.163135,0.5530269999999999,0.0205495,-0.298955,0.691017,-0.0924145,0.169725,0.547567,-0.0012295,0.273015,0.717787,-0.1038645,-0.317325,0.886567,-0.1943345,0.274955,0.924167,-0.1804045,-0.07325,0.001035,0.0035155,0.07325,-0.001035,-0.0035155,-0.098401,-0.350763,0.0020634999999999,0.107455,-0.352193,-0.0053675,-0.11942,-0.829573,0.0466315,0.136705,-0.835063,0.0560415,1
134,0.0028859999999999,0.724265,-0.0194055,-0.163592,0.552695,0.0213914999999999,-0.302862,0.688115,-0.0903465,0.170318,0.548195,-0.0004215,0.275568,0.716875,-0.1035265,-0.326082,0.882735,-0.1932565,0.280998,0.922885,-0.1810365,-0.073386,0.000985,0.0036334999999999,0.073386,-0.0009849999999999,-0.0036335,-0.098323,-0.350995,0.0002564999999999,0.106908,-0.3524049999999999,-0.0072855,-0.119054,-0.828145,0.0427735,0.135788,-0.833485,0.0522215,1
135,0.0020384999999999,0.7247465,-0.019266,-0.1639735,0.5523065,0.022425,-0.3070935,0.6851665,-0.087666,0.1710565,0.5486065,0.000795,0.2780065,0.7158765,-0.102986,-0.3348735,0.8788765,-0.1915259999999999,0.2869764999999999,0.9216565,-0.1810359999999999,-0.0734605,0.0009124999999999,0.003711,0.0734605,-0.0009125,-0.0037109999999999,-0.0982915,-0.3512535,-0.0014949999999999,0.1064364999999999,-0.3525635,-0.0091039999999999,-0.1188865,-0.8268935000000001,0.038745,0.1349865,-0.8323635,0.048616,1
136,0.0013289999999999,0.7248994999999999,-0.0192755,-0.164226,0.5520894999999999,0.0233755,-0.310636,0.6830295,-0.0846445,0.171394,0.5488795,0.0013554999999999,0.280894,0.7150295,-0.1020264999999999,-0.342466,0.8761795,-0.1889365,0.292944,0.9207495,-0.1798165,-0.073465,0.0006684999999999,0.0040804999999999,0.073465,-0.0006685,-0.0040805,-0.098232,-0.3516505,-0.0028415,0.106324,-0.3524105,-0.0104885,-0.118582,-0.8260705,0.0357925,0.134694,-0.8313705,0.0460825,1
137,0.0001119999999999,0.7245635,-0.0187789999999999,-0.164635,0.5520134999999999,0.024486,-0.314425,0.6813135,-0.0811429999999999,0.171485,0.5490435,0.002184,0.283515,0.7140934999999999,-0.1005979999999999,-0.349805,0.8741335,-0.185888,0.298615,0.9198735,-0.177928,-0.073468,0.0004334999999999,0.0043789999999999,0.073468,-0.0004334999999999,-0.0043789999999999,-0.09822,-0.3520165,-0.003819,0.106215,-0.3522465,-0.011571,-0.118411,-0.8256865,0.033458,0.134465,-0.8307265,0.0441989999999999,1
138,-0.0016474999999999,0.7240285,-0.0185125,-0.1652974999999999,0.5520285,0.0259225,-0.3179975,0.6801885,-0.0778065,0.1714725,0.5491385,0.0028695,0.2856925,0.7131585,-0.0993685,-0.3565474999999999,0.8730685,-0.1826384999999999,0.3032225,0.9191385,-0.1760485,-0.0734715,0.0002314999999999,0.0046625,0.0734715,-0.0002314999999999,-0.0046625,-0.0982115,-0.3523315,-0.0046195,0.1061125,-0.3520815,-0.0124924999999999,-0.1183745,-0.8256615,0.0314335,0.1343425,-0.8302715,0.0425005,1
139,-0.0046945,0.723296,-0.018238,-0.1666585,0.5521060000000001,0.027839,-0.3217685,0.679486,-0.074044,0.1715415,0.549226,0.003387,0.2874914999999999,0.712446,-0.098227,-0.3620985,0.872726,-0.178617,0.3059615,0.918646,-0.173557,-0.0734525,5.400000000000023e-05,0.005097,0.0734525,-5.399999999999936e-05,-0.005097,-0.0981335,-0.352594,-0.005302,0.1060415,-0.351904,-0.013342,-0.1182825,-0.8254039999999999,0.029502,0.1343515,-0.829974,0.04067,1
140,-0.008023,0.722604,-0.0180835,-0.168286,0.552274,0.0296485,-0.324986,0.6790039999999999,-0.0704375,0.171794,0.549304,0.0033215,0.288804,0.7118639999999999,-0.0974165,-0.365476,0.872894,-0.1745064999999999,0.307674,0.918394,-0.1710664999999999,-0.0734549999999999,-0.000114,0.0055405,0.0734549999999999,0.000114,-0.0055404999999999,-0.0979869999999999,-0.352826,-0.0059704999999999,0.106154,-0.351736,-0.0142244999999999,-0.118007,-0.825176,0.0277645,0.1345539999999999,-0.829746,0.0389145,1
141,-0.011797,0.7218235,-0.017924,-0.170063,0.5523835,0.031563,-0.3275929999999999,0.6790134999999999,-0.067242,0.1718569999999999,0.5493035,0.002835,0.289457,0.7113335,-0.09672,-0.368133,0.8730034999999999,-0.169853,0.308097,0.9182235,-0.168433,-0.073433,-0.0002234999999999,0.006033,0.073433,0.0002235,-0.006033,-0.097771,-0.3529965,-0.006455,0.106377,-0.3516265,-0.015036,-0.11763,-0.8249565,0.026289,0.1348869999999999,-0.8295765,0.03739,1
142,-0.012698,0.722324,-0.0176085,-0.170089,0.5492739999999999,0.0306955,-0.329889,0.6727839999999999,-0.0671365,0.174021,0.550584,0.0038004999999999,0.294391,0.710974,-0.0966405,-0.376199,0.863714,-0.1701765,0.318901,0.917914,-0.1674365,-0.073217,-0.0001799999999999,0.0060285,0.073217,0.00018,-0.0060285,-0.098164,-0.352956,-0.0072485,0.105931,-0.351776,-0.0157715,-0.118097,-0.8242860000000001,0.0245205,0.134261,-0.829306,0.0356575,1
143,-0.0223834999999999,0.719533,-0.0172335,-0.1752234999999999,0.552443,0.0369195,-0.3342435,0.676853,-0.0609435,0.1729665,0.549483,0.0028585,0.2950264999999999,0.709693,-0.0955225,-0.3794835,0.869223,-0.1614325,0.3196965,0.917713,-0.1623125,-0.0731425,-0.000412,0.0075315,0.0731425,0.000412,-0.0075315,-0.0973165,-0.353337,-0.0072075,0.1071165,-0.351387,-0.0167725,-0.1169405,-0.8251769999999999,0.0230585,0.1360465,-0.829497,0.0333045,1
144,-0.026574,0.7190495,-0.0179954999999999,-0.177283,0.5531895,0.0376835,-0.3359129999999999,0.6787095000000001,-0.0578855,0.1722969999999999,0.5494495,0.0023225,0.294347,0.7099295,-0.0955365,-0.378293,0.8727695,-0.1560725,0.318417,0.9181295,-0.1619025,-0.072912,-0.0007724999999999,0.0077325,0.072912,0.0007724999999999,-0.0077325,-0.097029,-0.3537504999999999,-0.0078485,0.107097,-0.3511005,-0.0179464999999999,-0.1166799999999999,-0.8259205,0.0213685,0.1364469999999999,-0.8292105,0.0321825,1
145,-0.0316785,0.7174094999999999,-0.0180615,-0.1790175,0.5541895,0.0405515,-0.3372475,0.6818595,-0.0530815,0.1696325,0.5490495,0.0018114999999999,0.2924525,0.7092594999999999,-0.0954755,-0.3757375,0.8784394999999999,-0.1472795,0.3137825,0.9183495,-0.1595795,-0.0731224999999999,-0.0009094999999999,0.0083185,0.0731224999999999,0.0009094999999999,-0.0083185,-0.0969735,-0.3539204999999999,-0.0075655,0.1075525,-0.3509405,-0.0185045,-0.1162615,-0.8260605,0.0207975,0.1369025,-0.8293205,0.0316135,1
146,-0.0357825,0.7164699999999999,-0.017977,-0.1801865,0.5545,0.042533,-0.3378465,0.68267,-0.048636,0.1636135,0.5480999999999999,-0.0005869999999999,0.2920835,0.70646,-0.092719,-0.3732264999999999,0.8810199999999999,-0.139983,0.3097335,0.91566,-0.157843,-0.0731914999999999,-0.001141,0.008859,0.0731914999999999,0.0011409999999999,-0.008859,-0.0970065,-0.35418,-0.007596,0.1077235,-0.35069,-0.018917,-0.1164525,-0.8246100000000001,0.020644,0.1371834999999999,-0.82972,0.03074,1
147,-0.040402,0.7162605,-0.01709,-0.1826289999999999,0.5556105,0.046653,-0.338979,0.6817805,-0.0419799999999999,0.163191,0.5480805,-0.001413,0.291261,0.7066304999999999,-0.093833,-0.370639,0.8811405,-0.132402,0.304711,0.9162405,-0.1586419999999999,-0.07303,-0.0014685,0.009429,0.07303,0.0014684999999999,-0.009429,-0.096141,-0.3545895,-0.007588,0.1082909999999999,-0.3502995,-0.019586,-0.115567,-0.8248095000000001,0.0200629999999999,0.137771,-0.8299795,0.029298,1
148,-0.04388,0.7157525,-0.016311,-0.183254,0.5556925,0.049972,-0.344634,0.6815825000000001,-0.031922,0.160246,0.5452325,-0.0046879999999999,0.290096,0.7040025000000001,-0.093635,-0.369144,0.8820225,-0.1222729999999999,0.300606,0.9138325,-0.158303,-0.073283,-0.0016135,0.009959,0.073283,0.0016135,-0.0099589999999999,-0.095153,-0.3548075,-0.006955,0.109176,-0.3500975,-0.020096,-0.114517,-0.8245175,0.020127,0.138956,-0.8301075,0.028619,1
