sb224sc-HT22-VT27/4dt907/src/data/labeled_files/A127_kinect.csv
FrameNo,nose_3d_x,nose_3d_y,nose_3d_z,left_shoulder_3d_x,left_shoulder_3d_y,left_shoulder_3d_z,left_elbow_3d_x,left_elbow_3d_y,left_elbow_3d_z,right_shoulder_3d_x,right_shoulder_3d_y,right_shoulder_3d_z,right_elbow_3d_x,right_elbow_3d_y,right_elbow_3d_z,left_wrist_3d_x,left_wrist_3d_y,left_wrist_3d_z,right_wrist_3d_x,right_wrist_3d_y,right_wrist_3d_z,left_hip_3d_x,left_hip_3d_y,left_hip_3d_z,right_hip_3d_x,right_hip_3d_y,right_hip_3d_z,left_knee_3d_x,left_knee_3d_y,left_knee_3d_z,right_knee_3d_x,right_knee_3d_y,right_knee_3d_z,left_ankle_3d_x,left_ankle_3d_y,left_ankle_3d_z,right_ankle_3d_x,right_ankle_3d_y,right_ankle_3d_z,activity_label
0,-0.0106965,0.7251995,0.0645885,-0.1705005,0.5291795,0.0227305,-0.2584405,0.7843095,-0.0654265,0.1728395,0.5287395,0.0237355,0.2748394999999999,0.7560195000000001,-0.0673064999999999,-0.1930705,1.0476895,-0.0956865,0.2480295,1.0232895,-0.1012465,-0.0791905,-0.0008035,3.550000000000081e-05,0.0791905,0.0008035,-3.549999999999387e-05,-0.1371105,-0.4642405,0.0313465,0.1193495,-0.4610404999999999,0.0548435,-0.1640105,-0.8103405,0.0769905,0.1353995,-0.8125804999999999,0.0884485,0
1,-0.0100139999999999,0.7237304999999999,0.067103,-0.1706619999999999,0.5315705,0.025722,-0.255012,0.7859605,-0.05734,0.172588,0.5270005,0.025615,0.2723379999999999,0.7642005,-0.062192,-0.1908719999999999,1.0477305,-0.0847229999999999,0.238148,1.0244305,-0.0902029999999999,-0.079084,-0.0005434999999999,0.0001,0.079084,0.0005435,-9.999999999999593e-05,-0.137102,-0.4648494999999999,0.031684,0.119398,-0.4612495,0.055098,-0.1643819999999999,-0.8120495,0.078384,0.135008,-0.8144495,0.089938,0
2,-0.0092979999999999,0.7228635,0.0696384999999999,-0.1709339999999999,0.5322235,0.0275844999999999,-0.253614,0.7853535,-0.0522455,0.172056,0.5260535,0.0267625,0.2696759999999999,0.7614835,-0.0579815,-0.186854,1.0526235,-0.0714835,0.232126,1.0212235,-0.0854135,-0.079084,-0.0005315,0.0001994999999999,0.079084,0.0005315,-0.0001994999999999,-0.1372939999999999,-0.4649065,0.0313085,0.119106,-0.4612365,0.0553405,-0.164864,-0.8130565,0.0793165,0.134396,-0.8147265,0.0906565,0
3,-0.0081765,0.7221825000000001,0.0736715,-0.1711134999999999,0.5325525,0.0297115,-0.2530535,0.7862325,-0.0474874999999999,0.1717165,0.5250525,0.0282075,0.2673565,0.7603925,-0.0531585,-0.1874235,1.0494625,-0.0683695,0.2290364999999999,0.9644925,-0.0814495,-0.0790415,-0.0003665,0.0002035,0.0790415,0.0003665,-0.0002035,-0.1368835,-0.4649575,0.0303915,0.1188465,-0.4613775,0.0556365,-0.1651335,-0.8134775,0.0798935,0.1338165,-0.8158875,0.0922735,0
4,-0.007791,0.7221965,0.0787595,-0.171819,0.5315565,0.0312685,-0.253019,0.7847165,-0.0437235,0.170701,0.5243865,0.0299185,0.264601,0.7597665,-0.0490584999999999,-0.187499,1.0478365,-0.0649105,0.2154609999999999,1.0179365,-0.0617004999999999,-0.078932,-0.0003375,0.0002735,0.078932,0.0003375,-0.0002734999999999,-0.137289,-0.4649335,0.0302425,0.118101,-0.4613935,0.0559945,-0.165949,-0.8148635,0.0808935,0.1329509999999999,-0.8174235,0.0931855,0
5,-0.0076924999999999,0.7217884999999999,0.086211,-0.1731355,0.5302884999999999,0.032954,-0.2547955,0.7810885,-0.039428,0.1667044999999999,0.5318885,0.038854,0.2611645,0.7619085,-0.044897,-0.1928655,1.0453985,-0.057209,0.2155945,0.9648185,-0.069685,-0.0789035,-0.0006505,0.000681,0.0789035,0.0006505,-0.000681,-0.1381155,-0.4653715,0.0292629999999999,0.1172245,-0.4612815,0.055134,-0.1674155,-0.8154115000000001,0.081269,0.1316745,-0.8186615,0.093832,0
6,-0.0073949999999999,0.721971,0.0879905,-0.173261,0.530141,0.0336075,-0.256981,0.777991,-0.0365655,0.167069,0.530091,0.0383234999999999,0.261029,0.760671,-0.0424305,-0.196121,1.043011,-0.0556675,0.215789,0.963581,-0.0683874999999999,-0.078826,-0.0006739999999999,0.0007624999999999,0.078826,0.000674,-0.0007624999999999,-0.138031,-0.465449,0.0289614999999999,0.117459,-0.461329,0.0545945,-0.167541,-0.815199,0.0811085,0.131609,-0.818349,0.0936865,0
7,-0.007446,0.7229835,0.0863575,-0.172785,0.5304435000000001,0.0356085,-0.261825,0.7765635,-0.0374245,0.169005,0.5259735000000001,0.0348955,0.265315,0.7588135,-0.0423555,-0.208575,1.0332835,-0.0630665,0.225385,0.9708435,-0.0666665,-0.078721,-0.0005024999999999,0.0007334999999999,0.078721,0.0005024999999999,-0.0007334999999999,-0.137735,-0.4654765,0.0279855,0.117715,-0.4612965,0.0550625,-0.167515,-0.8149365,0.0798585,0.131905,-0.8171965000000001,0.0919325,0
8,-0.0073735,0.7232,0.0887995,-0.1730885,0.53027,0.0372705,-0.2631285,0.77533,-0.0354115,0.1685815,0.52597,0.0359115,0.2648515,0.75864,-0.0401544999999999,-0.2140584999999999,1.03211,-0.0615155,0.2249215,0.96463,-0.0642155,-0.0786544999999999,-0.000497,0.0007334999999999,0.0786544999999999,0.000497,-0.0007334999999999,-0.1378885,-0.46555,0.0278215,0.1176115,-0.4613,0.0550625,-0.1679584999999999,-0.81511,0.0798524999999999,0.1314915,-0.81733,0.0919335,0
9,-0.0073475,0.7234189999999999,0.09083,-0.1733485,0.530269,0.038773,-0.2649185,0.773799,-0.033653,0.1682515,0.526029,0.036826,0.2644615,0.758379,-0.03823,-0.2198485,1.030809,-0.059682,0.2245315,0.964179,-0.0630889999999999,-0.0785945,-0.000496,0.0008179999999999,0.0785945,0.0004959999999999,-0.0008179999999999,-0.1379785,-0.465551,0.027737,0.1175914999999999,-0.461301,0.055056,-0.1683185,-0.8151510000000001,0.079741,0.1311515,-0.8173210000000001,0.091859,0
10,-0.007351,0.723537,0.0920645,-0.173486,0.530207,0.0400244999999999,-0.266826,0.772207,-0.0323895,0.168084,0.526227,0.0367644999999999,0.264424,0.7583070000000001,-0.0367095,-0.2256159999999999,1.029207,-0.0579665,0.225074,0.963727,-0.0622405,-0.078543,-0.0004979999999999,0.0008984999999999,0.078543,0.000498,-0.0008985,-0.137996,-0.465553,0.0275354999999999,0.1176639999999999,-0.461303,0.0550434999999999,-0.168526,-0.815183,0.0795215,0.130994,-0.817323,0.0916575,0
11,-0.0074125,0.7236385,0.0930735,-0.1736315,0.5299585,0.0410194999999999,-0.2687315,0.7709484999999999,-0.0315885,0.1679085,0.5263985,0.0365464999999999,0.2647285,0.7581785,-0.0354925,-0.2310415,1.0278985,-0.0564415,0.2261885,0.9636385,-0.0618935,-0.0784935,-0.0005065,0.0010164999999999,0.0784935,0.0005065,-0.0010165,-0.1380615,-0.4655615,0.0271614999999999,0.1176785,-0.4613015,0.0549424999999999,-0.1687515,-0.8153215,0.0791755,0.1308485,-0.8173315000000001,0.0912844999999999,0
12,-0.0075349999999999,0.723704,0.093822,-0.173802,0.5296139999999999,0.04173,-0.270392,0.769784,-0.0311449999999999,0.167768,0.526484,0.036179,0.265348,0.7578739999999999,-0.034537,-0.236042,1.026774,-0.055102,0.228748,0.963104,-0.062339,-0.078455,-0.000513,0.001121,0.078455,0.000513,-0.0011209999999999,-0.138182,-0.465636,0.02664,0.117688,-0.4613159999999999,0.05481,-0.168992,-0.815446,0.0786729999999999,0.130698,-0.8173560000000001,0.090767,0
13,-0.0076384999999999,0.7238994999999999,0.0944305,-0.1739345,0.5293795,0.0422685,-0.2717845,0.7689594999999999,-0.0308875,0.1677855,0.5263494999999999,0.0365975,0.2660755,0.7576695,-0.0339745,-0.2386945,1.0268795,-0.0546144999999999,0.2313855,0.9628495,-0.0627315,-0.0784305,-0.0004775,0.0011754999999999,0.0784305,0.0004775,-0.0011755,-0.1382645,-0.4656405,0.0262255,0.1176555,-0.4613505,0.0547975,-0.1691945,-0.8155605,0.0780865,0.1305655,-0.8172705,0.0901635,0
14,-0.0077145,0.724051,0.0949125,-0.1740315,0.529141,0.0419925,-0.2728515,0.768411,-0.0307864999999999,0.1678585,0.526161,0.0374095,0.2667885,0.757301,-0.0335785,-0.2409715,1.026951,-0.0543884999999999,0.2336485,0.962481,-0.0634275,-0.0784015,-0.0004369999999999,0.0011925,0.0784015,0.0004369999999999,-0.0011924999999999,-0.1382815,-0.465649,0.0258575,0.1176585,-0.461409,0.0548255,-0.1693115,-0.8157490000000001,0.0774245,0.1305184999999999,-0.817249,0.0894875,0
15,-0.007766,0.72418,0.0953105,-0.174086,0.52886,0.0414845,-0.273626,0.76807,-0.0307884999999999,0.167964,0.52596,0.0380515,0.267484,0.7569100000000001,-0.0332885,-0.2428759999999999,1.027,-0.0543665,0.236024,0.96208,-0.0641125,-0.078377,-0.0004009999999999,0.0011835,0.078377,0.0004009999999999,-0.0011834999999999,-0.138256,-0.46564,0.0255995,0.117634,-0.46145,0.0548145,-0.169366,-0.81591,0.0767525,0.1305239999999999,-0.8172499999999999,0.0888485,0
16,-0.0077729999999999,0.7243580000000001,0.0957105,-0.174095,0.528628,0.0411374999999999,-0.2742449999999999,0.767818,-0.0308035,0.168065,0.525788,0.0388774999999999,0.268155,0.756528,-0.0330525,-0.244495,1.030258,-0.0537005,0.238005,0.961638,-0.0647695,-0.07837,-0.000368,0.0011455,0.07837,0.0003679999999999,-0.0011455,-0.138235,-0.465632,0.0254065,0.117625,-0.461492,0.0548285,-0.169385,-0.816052,0.0761345,0.130575,-0.817282,0.0882395,0
17,-0.0077715,0.7244775,0.0960435,-0.1741765,0.5283875,0.0409395,-0.2747465,0.7676375,-0.0309335,0.1681535,0.5255974999999999,0.0395294999999999,0.2687535,0.7560675,-0.0329485,-0.2445665,1.0314775,-0.0537735,0.2396734999999999,0.9613475,-0.0655825,-0.0783705,-0.0003574999999999,0.0011274999999999,0.0783705,0.0003575,-0.0011275,-0.1382165,-0.4656425,0.0252464999999999,0.1176235,-0.4615125,0.0545955,-0.1693865,-0.8162425,0.0755174999999999,0.1306235,-0.8173525,0.0876135,0
18,-0.007794,0.724598,0.09631,-0.174258,0.528198,0.040679,-0.275158,0.767558,-0.031125,0.168202,0.525358,0.0400019999999999,0.269272,0.755548,-0.033031,-0.244568,1.0321980000000002,-0.0542669999999999,0.241142,0.960698,-0.066806,-0.07837,-0.000344,0.0011049999999999,0.07837,0.000344,-0.001105,-0.138208,-0.465652,0.025053,0.117622,-0.461532,0.054429,-0.169398,-0.816242,0.074947,0.130662,-0.817442,0.0870259999999999,0
19,-0.0078424999999999,0.724725,0.096474,-0.1743575,0.528025,0.040133,-0.2755575,0.767455,-0.031354,0.1682625,0.525075,0.040317,0.2697025,0.754875,-0.03333,-0.2445675,1.032215,-0.0549309999999999,0.2424625,0.960015,-0.06817,-0.0783675,-0.000327,0.001124,0.0783675,0.000327,-0.001124,-0.1382074999999999,-0.465635,0.024827,0.1176125,-0.461555,0.05422,-0.1694274999999999,-0.816225,0.074289,0.1306725,-0.817505,0.0863869999999999,0
20,-0.0078635,0.7248224999999999,0.0965385,-0.1744115,0.5279125,0.0398675,-0.2758615,0.7673725,-0.0315815,0.1683685,0.5247325,0.0405315,0.2700685,0.7541325000000001,-0.0337804999999999,-0.2444915,1.0322225,-0.0555394999999999,0.2436285,0.9592325,-0.0696575,-0.0783425,-0.0003124999999999,0.0010845,0.0783425,0.0003125,-0.0010844999999999,-0.1381615,-0.4656375,0.0246465,0.1175785,-0.4615875,0.0540475,-0.1694115,-0.8162175,0.0736875,0.1307185,-0.8175275,0.0858125,1
21,-0.0078625,0.724888,0.0965389999999999,-0.1744115,0.527898,0.039776,-0.2760815,0.7672680000000001,-0.031861,0.1685185,0.5242680000000001,0.040712,0.2704185,0.753378,-0.034376,-0.2443915,1.032208,-0.056282,0.2446185,0.958498,-0.0711519999999999,-0.0783145,-0.0002929999999999,0.0010209999999999,0.0783145,0.0002929999999999,-0.001021,-0.1380915,-0.4656519999999999,0.0244809999999999,0.1175485,-0.4616719999999999,0.053841,-0.1693715,-0.8161919999999999,0.073154,0.1308185,-0.817562,0.085257,1
22,-0.007832,0.724932,0.0964599999999999,-0.174389,0.527882,0.039802,-0.276269,0.767092,-0.032214,0.168701,0.523792,0.040144,0.270761,0.7526120000000001,-0.0349439999999999,-0.244229,1.032192,-0.05685,0.245621,0.957792,-0.07277,-0.078278,-0.0002699999999999,0.0009209999999999,0.078278,0.00027,-0.0009209999999999,-0.137999,-0.465658,0.024343,0.117531,-0.461758,0.053633,-0.169299,-0.816168,0.072659,0.130951,-0.817588,0.0847489999999999,1
23,-0.0076979999999999,0.7249555,0.0962399999999999,-0.174318,0.5278455,0.0401199999999999,-0.276398,0.7668655,-0.032673,0.168972,0.5232555,0.03958,0.271182,0.7518655,-0.035509,-0.2439879999999999,1.0320555,-0.057716,0.246732,0.9571455,-0.074574,-0.0782519999999999,-0.0002585,0.0008819999999999,0.0782519999999999,0.0002585,-0.000882,-0.137838,-0.4656745,0.0241839999999999,0.117572,-0.4618345,0.05334,-0.169118,-0.8161645,0.072163,0.131182,-0.8176445,0.084232,1
24,-0.0075065,0.7249585000000001,0.09596,-0.1742785,0.5277885,0.0408349999999999,-0.2764884999999999,0.7665985000000001,-0.033218,0.1693115,0.5227185000000001,0.0390309999999999,0.2716615,0.7511285000000001,-0.0361409999999999,-0.2436885,1.0318984999999998,-0.058673,0.2478415,0.9565385,-0.0763829999999999,-0.0782155,-0.0002404999999999,0.0008669999999999,0.0782155,0.0002405,-0.0008669999999999,-0.1376185,-0.4656915,0.024023,0.1176715,-0.4618815,0.053052,-0.1688685,-0.8161915,0.07168,0.1314315,-0.8177215,0.083726,1
25,-0.0073055,0.7249535,0.095614,-0.1742135,0.5277935,0.041754,-0.2765635,0.7663135,-0.033757,0.1696165,0.5219835,0.038319,0.2721465,0.7504535,-0.036819,-0.2433835,1.0317435,-0.059805,0.2489265,0.9559735,-0.078223,-0.0781834999999999,-0.0002225,0.0008519999999999,0.0781834999999999,0.0002225,-0.000852,-0.1373835,-0.4657064999999999,0.0238449999999999,0.1178164999999999,-0.4619264999999999,0.052728,-0.1685935,-0.8162265,0.07121,0.1317065,-0.8177965,0.083229,1
26,-0.0070929999999999,0.724945,0.095223,-0.174163,0.527815,0.041968,-0.276643,0.765965,-0.034224,0.169987,0.521405,0.03719,0.2726369999999999,0.749835,-0.037603,-0.243083,1.031475,-0.061054,0.249917,0.955515,-0.0799209999999999,-0.078163,-0.000184,0.0008699999999999,0.078163,0.0001839999999999,-0.0008699999999999,-0.137143,-0.465715,0.023701,0.117947,-0.462005,0.052499,-0.168333,-0.816275,0.070813,0.131967,-0.817955,0.082801,1
27,-0.006873,0.7249485,0.0948064999999999,-0.174107,0.5278985,0.0423395,-0.276717,0.7656185,-0.0346975,0.170363,0.5208985,0.0360474999999999,0.273133,0.7493085,-0.0384425,-0.242777,1.0312085,-0.0623925,0.250813,0.9551685,-0.0815255,-0.078132,-0.0001484999999999,0.0008574999999999,0.078132,0.0001485,-0.0008575,-0.136927,-0.4657314999999999,0.0235604999999999,0.118093,-0.4620714999999999,0.0522124999999999,-0.168067,-0.8163414999999999,0.0703864999999999,0.132243,-0.8181215,0.0823645,1
28,-0.0066234999999999,0.724959,0.0944095,-0.1739695,0.528029,0.0427965,-0.2767395,0.765259,-0.0351825,0.1707505,0.5203990000000001,0.0350465,0.2736705,0.748839,-0.0392975,-0.2424595,1.030929,-0.0638525,0.2517005,0.954909,-0.0830415,-0.0780875,-0.0001069999999999,0.0008094999999999,0.0780875,0.0001069999999999,-0.0008095,-0.1367095,-0.465731,0.0234645,0.1182305,-0.462151,0.0519655,-0.1677695,-0.816431,0.0699935,0.1325505,-0.818281,0.0819475,1
29,-0.0063499999999999,0.7249800000000001,0.093988,-0.173775,0.52812,0.042674,-0.276755,0.76491,-0.035722,0.171145,0.5200400000000001,0.03405,0.274235,0.7486900000000001,-0.040221,-0.242125,1.03066,-0.065362,0.252595,0.95475,-0.084418,-0.0780619999999999,-7.099999999999988e-05,0.0008219999999999,0.0780619999999999,7.099999999999988e-05,-0.0008219999999999,-0.136485,-0.46575,0.023363,0.1183849999999999,-0.4622199999999999,0.051726,-0.167445,-0.8164899999999999,0.069598,0.132875,-0.81845,0.081502,1
30,-0.0060409999999999,0.725021,0.093555,-0.173531,0.5281009999999999,0.042342,-0.276741,0.764541,-0.036349,0.171549,0.5197609999999999,0.033163,0.274819,0.748521,-0.041152,-0.2417909999999999,1.030381,-0.066907,0.253499,0.954631,-0.085781,-0.078037,-2.7000000000000118e-05,0.0008459999999999,0.078037,2.7000000000000118e-05,-0.0008459999999999,-0.136251,-0.4657489999999999,0.023251,0.118549,-0.4623089999999999,0.051519,-0.167151,-0.816579,0.069251,0.133209,-0.818619,0.081069,1
31,-0.0057315,0.7250589999999999,0.093142,-0.1732265,0.528249,0.042366,-0.2766665,0.7642289999999999,-0.037052,0.1719534999999999,0.519539,0.0323839999999999,0.2754035,0.7483089999999999,-0.042012,-0.2414665,1.030099,-0.068449,0.2543635,0.954539,-0.087034,-0.0780145,-1.999999999999832e-06,0.0008799999999999,0.0780145,2.000000000000265e-06,-0.00088,-0.1360064999999999,-0.465761,0.023166,0.1187435,-0.462381,0.051326,-0.1668665,-0.8166610000000001,0.068913,0.1335434999999999,-0.818791,0.080661,1
32,-0.0054934999999999,0.7250825,0.092834,-0.1729705,0.5282724999999999,0.042064,-0.2765605,0.7639625,-0.0376769999999999,0.1722495,0.5194525,0.032076,0.2759595,0.7481525,-0.0428119999999999,-0.2412505,1.0297125,-0.069908,0.2550495,0.9544325,-0.087952,-0.0779915,1.4499999999999756e-05,0.000905,0.0779915,-1.450000000000019e-05,-0.0009049999999999,-0.1358105,-0.4657775,0.023115,0.1188695,-0.4624375,0.051193,-0.1666505,-0.8167475000000001,0.06868,0.1338095,-0.8189375000000001,0.080361,1
33,-0.005302,0.7251325,0.0925665,-0.172754,0.5283025,0.0419945,-0.276414,0.7637625,-0.0382664999999999,0.172506,0.5193725,0.0318305,0.276486,0.7479725,-0.0434885,-0.241084,1.0293325000000002,-0.0713115,0.255686,0.9543525,-0.0888275,-0.077974,1.650000000000002e-05,0.0009164999999999,0.077974,-1.650000000000002e-05,-0.0009165,-0.135664,-0.4657775,0.0231094999999999,0.1189559999999999,-0.4624675,0.0511185,-0.166484,-0.8168275,0.0684355,0.1340259999999999,-0.8190975,0.0801225,1
34,-0.0050999999999999,0.7251725,0.092319,-0.172546,0.5282325,0.041782,-0.276246,0.7636125,-0.0388289999999999,0.172744,0.5193025,0.031618,0.277004,0.7478125,-0.0441159999999999,-0.240876,1.0292625000000002,-0.072558,0.256364,0.9542225,-0.08961,-0.0779479999999999,2.1500000000000685e-05,0.00087,0.0779479999999999,-2.1499999999999814e-05,-0.0008699999999999,-0.135516,-0.4657975,0.023124,0.119034,-0.4624875,0.051075,-0.166326,-0.8169375,0.068222,0.134234,-0.8192575,0.079915,1
35,-0.004925,0.725224,0.092109,-0.172351,0.528254,0.041566,-0.276081,0.7634839999999999,-0.039378,0.172949,0.5194139999999999,0.0314939999999999,0.277479,0.7477239999999999,-0.044663,-0.240711,1.029114,-0.073728,0.2570989999999999,0.954194,-0.090368,-0.077926,2.000000000000005e-05,0.0008299999999999,0.077926,-2.000000000000005e-05,-0.00083,-0.1353909999999999,-0.465806,0.023107,0.119099,-0.4624959999999999,0.051023,-0.166191,-0.8170160000000001,0.0680119999999999,0.134409,-0.819326,0.0797259999999999,1
36,-0.004769,0.72527,0.091908,-0.172035,0.52824,0.040804,-0.275925,0.76339,-0.039943,0.173125,0.51958,0.0315229999999999,0.277925,0.74769,-0.0451499999999999,-0.240555,1.02908,-0.074834,0.2578249999999999,0.95416,-0.091074,-0.077917,3.5999999999999574e-05,0.0007929999999999,0.077917,-3.600000000000044e-05,-0.000793,-0.135265,-0.4658,0.0230739999999999,0.119165,-0.46252,0.050979,-0.166085,-0.81723,0.067827,0.134565,-0.81936,0.079551,1
37,-0.00465,0.7253075,0.091691,-0.171776,0.5282975,0.040115,-0.275816,0.7633274999999999,-0.040509,0.173274,0.5198075,0.0316209999999999,0.278324,0.7476674999999999,-0.045566,-0.240416,1.0289575,-0.075949,0.258574,0.9541375,-0.091709,-0.077924,4.149999999999987e-05,0.000785,0.077924,-4.150000000000074e-05,-0.000785,-0.135166,-0.4657925,0.023043,0.119234,-0.4625325,0.050943,-0.166016,-0.8174225,0.067683,0.134694,-0.8193925000000001,0.079402,1
38,-0.0045544999999999,0.725337,0.09151,-0.1715225,0.528297,0.039607,-0.2757325,0.763247,-0.041027,0.1734175,0.520037,0.031713,0.2786775,0.747597,-0.045908,-0.2403124999999999,1.028737,-0.076994,0.2592575,0.954117,-0.092284,-0.0779195,4.80000000000003e-05,0.000744,0.0779195,-4.80000000000003e-05,-0.000744,-0.1350825,-0.465793,0.023038,0.1192875,-0.462543,0.050917,-0.1659725,-0.817633,0.06756,0.1347875,-0.819403,0.079292,1
39,-0.0044869999999999,0.725356,0.0913535,-0.171303,0.528266,0.0393224999999999,-0.275683,0.763166,-0.0414664999999999,0.173527,0.520216,0.0317434999999999,0.278977,0.747506,-0.0461345,-0.240283,1.028616,-0.0779575,0.259917,0.954016,-0.0927175,-0.0779219999999999,5.5999999999999626e-05,0.0007094999999999,0.0779219999999999,-5.6000000000000494e-05,-0.0007095,-0.135033,-0.465794,0.0230304999999999,0.119297,-0.462544,0.0508855,-0.165943,-0.817834,0.0674464999999999,0.1348369999999999,-0.819394,0.0792025,1
40,-0.0044134999999999,0.725368,0.09118,-0.1711325,0.528258,0.039226,-0.2756325,0.763098,-0.0418819999999999,0.1736375,0.520408,0.031748,0.2792575,0.747388,-0.046347,-0.2402625,1.028408,-0.078883,0.2605775,0.953878,-0.093063,-0.0779265,6.700000000000022e-05,0.000677,0.0779265,-6.699999999999935e-05,-0.000677,-0.1349925,-0.465792,0.023013,0.1193075,-0.4625519999999999,0.050863,-0.1659025,-0.818032,0.067325,0.1348875,-0.8193819999999999,0.079128,1
41,-0.004349,0.7253620000000001,0.091008,-0.170965,0.528342,0.039189,-0.275595,0.762992,-0.042294,0.173735,0.520592,0.03172,0.279465,0.747292,-0.046477,-0.240235,1.028292,-0.0796679999999999,0.261235,0.953692,-0.093398,-0.077927,8.299999999999974e-05,0.000649,0.077927,-8.299999999999974e-05,-0.000649,-0.134955,-0.4657779999999999,0.022995,0.119335,-0.462568,0.050846,-0.165875,-0.818228,0.067196,0.134935,-0.819368,0.079037,1
42,-0.0043044999999999,0.7253635,0.090857,-0.1708454999999999,0.5283335,0.039096,-0.2755355,0.7628635,-0.042701,0.1738345,0.5207835000000001,0.031682,0.2796444999999999,0.7471835,-0.046609,-0.2402254999999999,1.0280835,-0.080381,0.2618344999999999,0.9535135,-0.093631,-0.0779275,0.0001015,0.0006269999999999,0.0779275,-0.0001015,-0.000627,-0.1349055,-0.4657665,0.022972,0.1193545,-0.4625865,0.050878,-0.1658355,-0.8184365,0.067024,0.1349845,-0.8193765,0.078932,1
43,-0.0042664999999999,0.725383,0.090717,-0.1707475,0.5283329999999999,0.039015,-0.2754974999999999,0.762753,-0.043084,0.1739625,0.520953,0.031612,0.2798125,0.747093,-0.0467319999999999,-0.2402175,1.027883,-0.081042,0.2623925,0.953333,-0.093892,-0.0779364999999999,0.0001169999999999,0.000636,0.0779364999999999,-0.0001169999999999,-0.000636,-0.1348575,-0.465757,0.022982,0.1193724999999999,-0.462597,0.050929,-0.1657875,-0.818617,0.066874,0.1350325,-0.819377,0.078832,1
44,-0.004225,0.7254025000000001,0.0905739999999999,-0.170665,0.5284225,0.039163,-0.275455,0.7626125,-0.043488,0.174095,0.5209525,0.031536,0.279995,0.7468425,-0.0469459999999999,-0.240175,1.0277825,-0.0816379999999999,0.2628749999999999,0.9531525,-0.094178,-0.077944,0.0001225,0.0006479999999999,0.077944,-0.0001225,-0.0006479999999999,-0.134815,-0.4657575,0.02301,0.119415,-0.4625975,0.050975,-0.165745,-0.8187774999999999,0.066735,0.135085,-0.8193775,0.078759,1
45,-0.0041799999999999,0.725421,0.090448,-0.170625,0.5285610000000001,0.039599,-0.2754149999999999,0.762451,-0.0438359999999999,0.174225,0.521101,0.031943,0.280165,0.746571,-0.047138,-0.240145,1.027581,-0.082254,0.263375,0.952931,-0.094504,-0.0779499999999999,0.0001399999999999,0.0006759999999999,0.0779499999999999,-0.00014,-0.0006759999999999,-0.1347749999999999,-0.465739,0.023044,0.119465,-0.462599,0.0510479999999999,-0.1656949999999999,-0.818839,0.066661,0.135145,-0.819379,0.078704,1
46,-0.0041339999999999,0.72544,0.09032,-0.17059,0.5285299999999999,0.039329,-0.2753799999999999,0.76228,-0.044167,0.17434,0.5213,0.03236,0.28036,0.7462599999999999,-0.047381,-0.24012,1.02739,-0.082706,0.26384,0.95272,-0.094926,-0.077958,0.000165,0.000705,0.077958,-0.000165,-0.000705,-0.1347499999999999,-0.4657199999999999,0.023089,0.11951,-0.4626,0.051125,-0.16565,-0.8189000000000001,0.066597,0.13519,-0.81937,0.078652,1
47,-0.004089,0.7254695,0.09017,-0.170561,0.5285394999999999,0.039282,-0.275371,0.7621195,-0.0445,0.1744089999999999,0.5214194999999999,0.032324,0.280579,0.7458494999999999,-0.047692,-0.240101,1.0271995,-0.083173,0.264289,0.9525195,-0.095453,-0.077971,0.0001965,0.000725,0.077971,-0.0001964999999999,-0.000725,-0.134711,-0.4656905,0.023128,0.1195489999999999,-0.4626105,0.051217,-0.165601,-0.8189105000000001,0.06655,0.135239,-0.8193605,0.078601,1
48,-0.004046,0.7254855,0.089887,-0.170554,0.5284955,0.038999,-0.2753939999999999,0.7618955,-0.0449979999999999,0.174486,0.5216354999999999,0.032495,0.280836,0.7454155,-0.048206,-0.240054,1.0268155,-0.0840569999999999,0.264696,0.9522955,-0.096167,-0.077994,0.0002244999999999,0.000771,0.077994,-0.0002244999999999,-0.000771,-0.134674,-0.4656745,0.023156,0.119586,-0.4626045,0.051288,-0.165544,-0.8188945000000001,0.0664889999999999,0.1353059999999999,-0.8193345000000001,0.078547,1
49,-0.003999,0.7255155,0.0895509999999999,-0.170535,0.5285055000000001,0.0389259999999999,-0.275425,0.7616555,-0.045588,0.174555,0.5217855,0.0326,0.281095,0.7449355000000001,-0.048761,-0.240065,1.0262255,-0.08504,0.265055,0.9520555,-0.09698,-0.078014,0.0002475,0.0008169999999999,0.078014,-0.0002474999999999,-0.000817,-0.134625,-0.4656445,0.023186,0.1196049999999999,-0.4625945,0.051356,-0.165485,-0.8188945,0.0664289999999999,0.1353649999999999,-0.8193145,0.0785019999999999,1
50,-0.0039545,0.725524,0.089193,-0.1705105,0.528474,0.038549,-0.2754005,0.7614839999999999,-0.0461839999999999,0.1746295,0.521644,0.032202,0.2813395,0.744474,-0.049327,-0.2400405,1.025744,-0.086084,0.2654095,0.951834,-0.097844,-0.0780385,0.0002659999999999,0.0008629999999999,0.0780385,-0.000266,-0.0008629999999999,-0.1345905,-0.465626,0.0232759999999999,0.1196295,-0.462586,0.051437,-0.1654305,-0.818906,0.066381,0.1354195,-0.819266,0.078467,1
51,-0.003911,0.725526,0.0887935,-0.170489,0.528456,0.0382885,-0.275389,0.7613260000000001,-0.0468424999999999,0.1746909999999999,0.521646,0.0320825,0.281611,0.743996,-0.0499074999999999,-0.2400189999999999,1.025166,-0.0872895,0.265811,0.951676,-0.0988795,-0.07806,0.000288,0.0009095,0.07806,-0.0002879999999999,-0.0009095,-0.134569,-0.465604,0.0234095,0.119651,-0.462574,0.0514705,-0.165379,-0.818884,0.0663305,0.1355009999999999,-0.819174,0.0784095,1
52,-0.003858,0.725529,0.0882245,-0.170464,0.5283289999999999,0.0376785,-0.275364,0.761189,-0.0475255,0.174736,0.5216189999999999,0.0318575,0.281896,0.7435189999999999,-0.0505145,-0.240004,1.024599,-0.0885855,0.266176,0.951579,-0.0999855,-0.078075,0.0003109999999999,0.0009434999999999,0.078075,-0.000311,-0.0009434999999999,-0.134544,-0.465581,0.0235475,0.119666,-0.462571,0.0515405,-0.165334,-0.818851,0.0662735,0.135576,-0.8190310000000001,0.0783595,1
53,-0.0038029999999999,0.7255405,0.0876174999999999,-0.170453,0.5281805,0.0368634999999999,-0.275353,0.7611305,-0.0483075,0.174807,0.5216705,0.0318725,0.2821869999999999,0.7431105,-0.0510685,-0.239983,1.0240405,-0.0899865,0.2665269999999999,0.9515305,-0.1010764999999999,-0.0780899999999999,0.0003274999999999,0.0009834999999999,0.0780899999999999,-0.0003275,-0.0009835,-0.1345329999999999,-0.4655595,0.0235334999999999,0.119687,-0.4625595,0.0515635,-0.165293,-0.8188095,0.0661895,0.135657,-0.8188895,0.0783055,1
54,-0.0037045,0.7254514999999999,0.086843,-0.1704305,0.5280015,0.035871,-0.2752805,0.7611114999999999,-0.0491269999999999,0.1748994999999999,0.5218014999999999,0.032049,0.2824895,0.7426915,-0.051652,-0.2398905,1.0234815000000002,-0.0914239999999999,0.2668895,0.9515315,-0.102334,-0.0781015,0.0003335,0.001028,0.0781015,-0.0003334999999999,-0.001028,-0.1345505,-0.4655384999999999,0.023436,0.1196995,-0.4625485,0.051466,-0.1652505,-0.8187085000000001,0.066101,0.1357295,-0.8187485,0.078222,1
55,-0.0035949999999999,0.7253315,0.0859945,-0.170398,0.5278015,0.0347435,-0.2751679999999999,0.7611015,-0.0500334999999999,0.174982,0.5219315,0.0323215,0.282762,0.7423215,-0.0522435,-0.239748,1.0229015,-0.0930495,0.267222,0.9514815,-0.1035595,-0.078126,0.0003544999999999,0.0010685,0.078126,-0.0003545,-0.0010685,-0.134578,-0.4655085,0.0233405,0.119752,-0.4625785,0.0513705,-0.165218,-0.8186285,0.0660055,0.135782,-0.8186085,0.0781215,1
56,-0.0034769999999999,0.725222,0.0850365,-0.17031,0.527562,0.0335045,-0.27499,0.7610319999999999,-0.0511365,0.17504,0.5220819999999999,0.0325895,0.28301,0.742072,-0.0529194999999999,-0.23959,1.022242,-0.0949084999999999,0.26757,0.951352,-0.1048185,-0.078162,0.00036,0.0010815,0.078162,-0.0003599999999999,-0.0010814999999999,-0.13463,-0.465468,0.0231715,0.11979,-0.462608,0.0512015,-0.1651999999999999,-0.818518,0.0658265,0.13583,-0.818488,0.0779395,1
57,-0.00337,0.725105,0.084027,-0.17022,0.527325,0.032197,-0.27491,0.760975,-0.0523629999999999,0.1750799999999999,0.522155,0.032681,0.28325,0.741845,-0.053647,-0.23938,1.0215850000000002,-0.096764,0.26795,0.951225,-0.106284,-0.078213,0.000367,0.00106,0.078213,-0.000367,-0.0010599999999999,-0.13474,-0.465405,0.02289,0.11985,-0.462565,0.050896,-0.16519,-0.818375,0.06563,0.13587,-0.818325,0.077744,1
58,-0.0033169999999999,0.7249285,0.082757,-0.170125,0.5271985,0.031296,-0.274885,0.7609085,-0.0538,0.175115,0.5221985,0.032612,0.2835749999999999,0.7415085,-0.054589,-0.2391049999999999,1.0209285,-0.098936,0.268385,0.9510885,-0.1080159999999999,-0.078258,0.0003814999999999,0.001093,0.078258,-0.0003814999999999,-0.001093,-0.134895,-0.4651714999999999,0.021793,0.120005,-0.4625114999999999,0.049774,-0.165235,-0.8181915000000001,0.065306,0.135895,-0.8181215000000001,0.077442,1
59,-0.003259,0.724657,0.0811834999999999,-0.170001,0.527057,0.0304214999999999,-0.274941,0.760837,-0.0557675,0.1751589999999999,0.522247,0.0322765,0.284009,0.740927,-0.0559255,-0.238771,1.020177,-0.1020755,0.268929,0.950887,-0.1103055,-0.078302,0.0003979999999999,0.0011444999999999,0.078302,-0.0003979999999999,-0.0011444999999999,-0.135121,-0.464843,0.0200475,0.1203489999999999,-0.462453,0.0473544999999999,-0.165281,-0.817993,0.0648255,0.135949,-0.8179230000000001,0.0769815,1
60,-0.0033605,0.7242115,0.0788939999999999,-0.1699605,0.5270615000000001,0.0292889999999999,-0.2750805,0.7605615,-0.058446,0.1750895,0.5222415,0.0315759999999999,0.2845695,0.7396815,-0.058138,-0.2385405,1.0178115,-0.106501,0.2694995,0.9503415,-0.113271,-0.0784185,0.0004014999999999,0.0010979999999999,0.0784185,-0.0004014999999999,-0.001098,-0.1355005,-0.4643784999999999,0.0175999999999999,0.1209495,-0.4619884999999999,0.0431649999999999,-0.1654205,-0.8176785,0.064,0.1359195,-0.8176285,0.076139,1
61,-0.0035964999999999,0.7237115000000001,0.0760615,-0.1700124999999999,0.5270815000000001,0.0277555,-0.2752725,0.7599515,-0.0620374999999999,0.1749275,0.5223015000000001,0.0302355,0.2851574999999999,0.7381315,-0.0609885,-0.2386825,1.0156215,-0.1114545,0.2700574999999999,0.9493115,-0.1171945,-0.0786095,0.0003735,0.0011164999999999,0.0786095,-0.0003735,-0.0011164999999999,-0.1362325,-0.4632785,0.0137645,0.1216475,-0.4609985,0.0373025,-0.1656525,-0.8171885,0.0627065,0.1358375,-0.8171084999999999,0.0748505,1
62,-0.0038859999999999,0.7231835000000001,0.072513,-0.1701369999999999,0.5270935,0.025892,-0.2755269999999999,0.7581435000000001,-0.066694,0.174653,0.5222535,0.0283889999999999,0.285773,0.7343135000000001,-0.064593,-0.2387969999999999,1.0135735,-0.117054,0.270433,0.9479935,-0.122164,-0.078854,0.0003995,0.0009429999999999,0.078854,-0.0003995,-0.000943,-0.1372169999999999,-0.4615465,0.0085669999999999,0.1226029999999999,-0.4596965,0.03027,-0.166047,-0.8165064999999999,0.060882,0.135753,-0.8163665,0.073041,1
63,-0.004224,0.72207,0.0680294999999999,-0.170319,0.52686,0.0235075,-0.275849,0.75586,-0.0724965,0.174321,0.52185,0.0259555,0.286301,0.73034,-0.0689615,-0.238829,1.00847,-0.1252094999999999,0.270571,0.94634,-0.1284394999999999,-0.079135,0.000399,0.0008065,0.079135,-0.000399,-0.0008064999999999,-0.1385489999999999,-0.45876,0.0016285,0.1239509999999999,-0.45774,0.0217665,-0.166619,-0.81548,0.0584745,0.1357109999999999,-0.81527,0.0705605,1
64,-0.0048054999999999,0.7203809999999999,0.0625115,-0.1705624999999999,0.5261509999999999,0.0204945,-0.2762624999999999,0.7532909999999999,-0.0794465,0.1739175,0.521111,0.0230565,0.2868875,0.7260409999999999,-0.0745275,-0.2389224999999999,0.999891,-0.1348125,0.2704475,0.944611,-0.1360225,-0.0794805,0.000295,0.0008015,0.0794805,-0.000295,-0.0008015,-0.1402225,-0.455199,-0.0068095,0.1256775,-0.454719,0.0116195,-0.1673025,-0.813759,0.0554685,0.1356075,-0.813519,0.0675185,1
65,-0.005451,0.718477,0.0561394999999999,-0.1709989999999999,0.525337,0.0169275,-0.276839,0.750467,-0.0873425,0.173481,0.520127,0.0196635,0.287491,0.721477,-0.0813445,-0.239059,0.992037,-0.1452355,0.270061,0.943017,-0.1446355,-0.079854,0.000188,0.0009135,0.079854,-0.0001879999999999,-0.0009134999999999,-0.142129,-0.450553,-0.0167925,0.127641,-0.451093,0.0003595,-0.168079,-0.8112429999999999,0.0518715,0.135511,-0.8110029999999999,0.0638235,1
66,-0.006154,0.7165745,0.0490385,-0.171438,0.5244945,0.0128244999999999,-0.277498,0.7474045,-0.0962575,0.172982,0.5188745,0.0154775,0.288192,0.7170044999999999,-0.0892565,-0.239188,0.9846745,-0.1563975,0.269602,0.9413245,-0.1542475,-0.080232,0.0001235,0.0010775,0.080232,-0.0001235,-0.0010775,-0.144118,-0.4454855,-0.0276955,0.129962,-0.4467655,-0.0117285,-0.168908,-0.8077455,0.0478785,0.135452,-0.8075055,0.0596305,1
67,-0.0068864999999999,0.714739,0.04107,-0.1718595,0.523969,0.007789,-0.2781895,0.7420990000000001,-0.10616,0.1724205,0.517389,0.010453,0.2888305,0.711859,-0.09814,-0.2393795,0.977829,-0.16885,0.2690805,0.940199,-0.16498,-0.0806315,4.700000000000017e-05,0.0013009999999999,0.0806315,-4.700000000000017e-05,-0.001301,-0.1462294999999999,-0.439341,-0.039172,0.1325505,-0.441341,-0.024649,-0.1698194999999999,-0.8030809999999999,0.043032,0.1353505,-0.802701,0.054602,1
68,-0.0075344999999999,0.7122835,0.032425,-0.1721675,0.5223335,0.002152,-0.2788874999999999,0.7376135,-0.1166809999999999,0.1718925,0.5162235000000001,0.004862,0.2895125,0.7066135,-0.107751,-0.2394375,0.9708235,-0.182031,0.2686025,0.9391935,-0.176451,-0.0811025,-1.7500000000000154e-05,0.001398,0.0811025,1.7500000000000154e-05,-0.001398,-0.1483475,-0.4326265,-0.050974,0.1353425,-0.4349565,-0.0376009999999999,-0.1707475,-0.7974965,0.037893,0.1353325,-0.7970565000000001,0.049246,1
69,-0.008107,0.7100955,0.023426,-0.172404,0.5207955,-0.0038609999999999,-0.279374,0.7329954999999999,-0.127688,0.171406,0.5141255,-0.0013239999999999,0.290236,0.7023355,-0.117488,-0.239424,0.9646255,-0.195538,0.2679359999999999,0.9390855,-0.188698,-0.081514,-0.0001495,0.001651,0.081514,0.0001495,-0.0016509999999999,-0.150704,-0.4248544999999999,-0.06348,0.138066,-0.4275245,-0.049777,-0.171654,-0.7905045,0.03239,0.135476,-0.7899845000000001,0.0434989999999999,1
70,-0.008517,0.7081350000000001,0.0141129999999999,-0.172626,0.519105,-0.010437,-0.279726,0.7274550000000001,-0.138786,0.170844,0.512035,-0.008023,0.2908139999999999,0.698195,-0.1280659999999999,-0.239776,0.959325,-0.209806,0.267204,0.938515,-0.201906,-0.081821,-0.0001339999999999,0.0017739999999999,0.081821,0.000134,-0.001774,-0.152936,-0.416155,-0.075617,0.141054,-0.418825,-0.061514,-0.172546,-0.782295,0.026598,0.135654,-0.781705,0.037398,1
71,-0.0089494999999999,0.704886,0.0047799999999999,-0.1729015,0.518066,-0.016684,-0.2801215,0.722026,-0.149381,0.1704085,0.508866,-0.01483,0.2912785,0.695446,-0.138541,-0.2404215,0.953796,-0.224501,0.2663585,0.937026,-0.214961,-0.0820205,-9.599999999999886e-05,0.002009,0.0820205,9.60000000000058e-05,-0.002009,-0.1554415,-0.4070539999999999,-0.087232,0.1439685,-0.409724,-0.07274,-0.1734415,-0.7738240000000001,0.020996,0.1357885,-0.773024,0.031429,1
72,-0.0093499999999999,0.702555,-0.004198,-0.173122,0.517845,-0.02322,-0.280502,0.717225,-0.159862,0.170048,0.506285,-0.021889,0.291858,0.693235,-0.149282,-0.241052,0.951645,-0.238282,0.265408,0.935365,-0.227872,-0.082182,1.5000000000001124e-05,0.0021729999999999,0.082182,-1.5000000000001124e-05,-0.002173,-0.157962,-0.396955,-0.098163,0.146628,-0.399625,-0.083412,-0.1742419999999999,-0.764405,0.0153089999999999,0.135908,-0.7635149999999999,0.025337,1
73,-0.0096524999999999,0.699976,-0.012962,-0.1732665,0.518196,-0.029488,-0.2807465,0.7115360000000001,-0.169789,0.1697635,0.504536,-0.028617,0.2926335,0.690686,-0.1597489999999999,-0.2416864999999999,0.947756,-0.251839,0.2645935,0.933446,-0.240279,-0.0822845,0.000194,0.002156,0.0822845,-0.0001939999999999,-0.0021559999999999,-0.1602865,-0.3868939999999999,-0.1082,0.1491135,-0.389694,-0.093253,-0.1750065,-0.754954,0.009631,0.1361235,-0.754034,0.019363,1
74,-0.0101815,0.6980745,-0.0216185,-0.1735904999999999,0.5144445,-0.0367495,-0.2810205,0.7062845000000001,-0.1795425,0.1691995,0.5024245,-0.0355945,0.2931195,0.6892245,-0.1697625,-0.2424305,0.9447345,-0.2651225,0.2639795,0.9322245,-0.2523825,-0.0824965,0.0002385,0.0020974999999999,0.0824965,-0.0002385,-0.0020974999999999,-0.1627905,-0.3764155,-0.1172745,0.1513695,-0.3787355,-0.1027685,-0.1759105,-0.7443755,0.0039895,0.1361195,-0.7434554999999999,0.0134165,1
75,-0.010874,0.6957850000000001,-0.0301245,-0.173942,0.511325,-0.0438405,-0.281372,0.701335,-0.1888345,0.168458,0.5008349999999999,-0.0425475,0.293258,0.6878850000000001,-0.1792345,-0.243262,0.941485,-0.2782445,0.263368,0.931325,-0.2639545,-0.0828319999999999,0.0002749999999999,0.0019414999999999,0.0828319999999999,-0.0002749999999999,-0.0019414999999999,-0.165372,-0.366365,-0.1257615,0.153258,-0.367985,-0.1118805,-0.176882,-0.733565,-0.0015905,0.135968,-0.7326550000000001,0.0075594999999999,1
76,-0.011354,0.6932205,-0.0380275,-0.174242,0.5082305,-0.0503285,-0.281722,0.6987405,-0.1976405,0.167598,0.4988005,-0.0490395,0.293158,0.6865705,-0.1881405,-0.243702,0.9378505,-0.2907404999999999,0.262748,0.9290805,-0.2747405,-0.083234,0.0003034999999999,0.0017105,0.083234,-0.0003035,-0.0017104999999999,-0.167972,-0.3568595,-0.1336554999999999,0.1550979999999999,-0.3584895,-0.1202735,-0.177742,-0.7226695000000001,-0.0065925,0.135678,-0.7217695000000001,0.0022534999999999,1
77,-0.011714,0.6908000000000001,-0.0459775,-0.1741879999999999,0.5049399999999999,-0.0576675,-0.281758,0.6940200000000001,-0.2065584999999999,0.166812,0.49661,-0.0557655,0.292672,0.68496,-0.1969584999999999,-0.244118,0.93335,-0.3028985,0.262272,0.92604,-0.2856685,-0.083541,0.0001499999999999,0.0016134999999999,0.083541,-0.00015,-0.0016135,-0.170458,-0.34522,-0.1416425,0.157042,-0.34705,-0.1287165,-0.178558,-0.7105699999999999,-0.0117195,0.135562,-0.7095400000000001,-0.0030555,1
78,-0.012068,0.68824,-0.0533315,-0.17399,0.50183,-0.0646385,-0.28174,0.68926,-0.2147234999999999,0.16599,0.49481,-0.0621214999999999,0.29216,0.68315,-0.2053535,-0.24457,0.92866,-0.3139535,0.26175,0.92241,-0.2958135,-0.0838349999999999,0.00014,0.0014645,0.0838349999999999,-0.00014,-0.0014644999999999,-0.17263,-0.33364,-0.1488935,0.1589,-0.33592,-0.1370195,-0.17934,-0.69891,-0.0164544999999999,0.13536,-0.69767,-0.0079144999999999,1
79,-0.0123014999999999,0.68623,-0.064941,-0.1736504999999999,0.4997199999999999,-0.075693,-0.2814605,0.6876,-0.227245,0.1652695,0.49402,-0.072584,0.2918095,0.6828,-0.217365,-0.2447005,0.92474,-0.328785,0.2615395,0.92131,-0.3094449999999999,-0.0841494999999999,4.999999999999449e-05,0.0014079999999999,0.0841494999999999,-4.999999999999449e-05,-0.0014079999999999,-0.1745604999999999,-0.32138,-0.160005,0.1605795,-0.3237799999999999,-0.1490679999999999,-0.1796805,-0.68621,-0.0253079999999999,0.1352695,-0.68545,-0.0167859999999999,1
80,-0.0124189999999999,0.68862,-0.077976,-0.17255,0.49626,-0.088626,-0.28015,0.6892199999999999,-0.24148,0.16464,0.49559,-0.084643,0.29164,0.68618,-0.2310499999999999,-0.24483,0.92368,-0.34504,0.2621,0.92286,-0.32463,-0.08442,-0.00029,0.001307,0.08442,0.0002899999999999,-0.001307,-0.17703,-0.30584,-0.1774899999999999,0.16329,-0.30855,-0.16775,-0.17979,-0.67029,-0.035738,0.13655,-0.6727500000000001,-0.031266,1
81,-0.012444,0.69014,-0.090797,-0.171336,0.4915899999999999,-0.1010559999999999,-0.278276,0.69007,-0.255191,0.1640439999999999,0.49687,-0.096112,0.291134,0.68863,-0.244281,-0.244786,0.92193,-0.360291,0.263044,0.92443,-0.339401,-0.084661,-0.0007399999999999,0.0012609999999999,0.084661,0.0007399999999999,-0.0012609999999999,-0.179146,-0.29145,-0.194241,0.165984,-0.29455,-0.185821,-0.179816,-0.65529,-0.045714,0.137864,-0.66102,-0.0452329999999999,1
82,-0.012385,0.6915749999999999,-0.103434,-0.170018,0.4867249999999999,-0.1134059999999999,-0.276098,0.691915,-0.268913,0.163592,0.497865,-0.107501,0.290362,0.691075,-0.257403,-0.244978,0.925915,-0.374903,0.263962,0.926025,-0.354533,-0.084734,-0.0011649999999999,0.0011639999999999,0.084734,0.0011649999999999,-0.0011639999999999,-0.181088,-0.277555,-0.2109329999999999,0.168602,-0.281255,-0.2034929999999999,-0.179648,-0.6403650000000001,-0.055438,0.137932,-0.6464650000000001,-0.0548619999999999,1
83,-0.0124935,0.69235,-0.115513,-0.1687715,0.48653,-0.12452,-0.2738914999999999,0.69373,-0.282549,0.1628085,0.49776,-0.118806,0.2893185,0.69224,-0.270449,-0.2451515,0.92952,-0.389339,0.2645085,0.92398,-0.369799,-0.0847735,-0.00134,0.0009739999999999,0.0847735,0.00134,-0.000974,-0.1830315,-0.26458,-0.227249,0.1710785,-0.26897,-0.220729,-0.1793815,-0.62649,-0.064687,0.1379485,-0.63285,-0.063882,1
84,-0.0126415,0.693185,-0.127547,-0.1676135,0.485025,-0.135961,-0.2718735,0.694935,-0.296115,0.1618865,0.497915,-0.129864,0.2883565,0.692685,-0.2834649999999999,-0.2452135,0.933725,-0.404155,0.2648265,0.922435,-0.384765,-0.0847835,-0.0016549999999999,0.0007549999999999,0.0847835,0.0016549999999999,-0.000755,-0.1851435,-0.2516049999999999,-0.243635,0.1734164999999999,-0.256455,-0.237785,-0.1790935,-0.612425,-0.07384,0.1378464999999999,-0.619035,-0.072764,1
85,-0.0127469999999999,0.693945,-0.139879,-0.166364,0.483295,-0.147473,-0.269734,0.695325,-0.310285,0.161116,0.4968749999999999,-0.140607,0.287446,0.693735,-0.296415,-0.244474,0.937875,-0.418655,0.265006,0.922295,-0.400105,-0.084946,-0.001805,0.0004849999999999,0.084946,0.001805,-0.0004849999999999,-0.187174,-0.238635,-0.259905,0.175736,-0.2435449999999999,-0.254525,-0.178534,-0.5980850000000001,-0.082864,0.137496,-0.6052350000000001,-0.081487,1
86,-0.0124635,0.695005,-0.15193,-0.1651155,0.482595,-0.158155,-0.2673455,0.696785,-0.32395,0.1605345,0.495905,-0.150915,0.2870345,0.695395,-0.3090299999999999,-0.2433354999999999,0.937355,-0.43416,0.2656745,0.923265,-0.41523,-0.0850675,-0.0018249999999999,0.0002,0.0850675,0.0018249999999999,-0.0002,-0.1890655,-0.227005,-0.27554,0.1781344999999999,-0.231975,-0.27043,-0.1775455,-0.584825,-0.091652,0.1374745,-0.592615,-0.090004,1
87,-0.0120054999999999,0.696215,-0.163727,-0.1636625,0.481425,-0.168759,-0.2648125,0.697775,-0.337825,0.1601975,0.496155,-0.160835,0.2869175,0.696365,-0.321625,-0.2419725,0.938615,-0.449345,0.2666975,0.924425,-0.430495,-0.0850335,-0.0019949999999999,-0.000145,0.0850335,0.001995,0.000145,-0.1911425,-0.215495,-0.290745,0.1806475,-0.2205349999999999,-0.285815,-0.1763825,-0.5716549999999999,-0.10022,0.1375975,-0.580035,-0.098352,1
88,-0.0114999999999999,0.6956199999999999,-0.170814,-0.162178,0.47985,-0.17445,-0.262158,0.69658,-0.34686,0.160212,0.4956199999999999,-0.165851,0.287182,0.69494,-0.32955,-0.240358,0.93795,-0.4602199999999999,0.267992,0.92342,-0.44109,-0.084938,-0.00215,-0.0004699999999999,0.084938,0.0021499999999999,0.0004699999999999,-0.193318,-0.20549,-0.3011899999999999,0.1832619999999999,-0.21083,-0.29649,-0.175138,-0.5603,-0.1040069999999999,0.137682,-0.5685600000000001,-0.1019499999999999,1
89,-0.0108094999999999,0.6918850000000001,-0.176157,-0.1610605,0.478385,-0.178576,-0.2600805,0.693025,-0.35428,0.1605095,0.491865,-0.169412,0.2879995,0.690395,-0.33567,-0.2384605,0.934605,-0.46971,0.2693695,0.921205,-0.45011,-0.0849225,-0.002045,-0.00067,0.0849225,0.002045,0.0006699999999999,-0.1944405,-0.197535,-0.30487,0.1850695,-0.202615,-0.30034,-0.1737805,-0.551555,-0.106134,0.1378295,-0.5597749999999999,-0.103819,1
90,-0.0100129999999999,0.688705,-0.181311,-0.159825,0.477055,-0.182808,-0.2583149999999999,0.689665,-0.3616899999999999,0.160985,0.488315,-0.172954,0.288995,0.685805,-0.3417,-0.236385,0.931505,-0.47941,0.270905,0.918835,-0.45914,-0.084995,-0.0018549999999999,-0.00089,0.084995,0.0018549999999999,0.00089,-0.195655,-0.188805,-0.30865,0.187045,-0.193415,-0.3042,-0.172315,-0.5423549999999999,-0.10813,0.138095,-0.5506549999999999,-0.105609,1
91,-0.0091305,0.68621,-0.186076,-0.1585794999999999,0.47549,-0.187087,-0.2566995,0.6861900000000001,-0.36889,0.1615605,0.48474,-0.176336,0.2898305,0.6814,-0.34751,-0.2338495,0.92724,-0.48921,0.2728005,0.91333,-0.46748,-0.0850415,-0.0017699999999999,-0.00107,0.0850415,0.0017699999999999,0.0010699999999999,-0.1970195,-0.1800899999999999,-0.31232,0.1890305,-0.1844599999999999,-0.30787,-0.1710395,-0.5329699999999999,-0.109945,0.1385905,-0.5413399999999999,-0.107238,1
92,-0.0082895,0.68336,-0.191081,-0.1574175,0.47342,-0.1915049999999999,-0.2551475,0.6822600000000001,-0.375935,0.1623625,0.48305,-0.179209,0.2904425,0.67734,-0.353255,-0.2314675,0.91883,-0.498865,0.2739724999999999,0.91104,-0.475415,-0.0851375,-0.0018299999999999,-0.0012149999999999,0.0851375,0.0018299999999999,0.0012149999999999,-0.1985375,-0.1734699999999999,-0.316025,0.1906925,-0.1779299999999999,-0.311485,-0.1700275,-0.5233599999999999,-0.11184,0.1374925,-0.52971,-0.1051489999999999,1
93,-0.0074234999999999,0.68009,-0.195985,-0.1564185,0.47219,-0.195576,-0.2535685,0.67873,-0.382995,0.1631314999999999,0.47956,-0.1820399999999999,0.2911315,0.6732499999999999,-0.3587749999999999,-0.2292185,0.91005,-0.507565,0.2751215,0.90812,-0.4836749999999999,-0.0852465,-0.0017199999999999,-0.0012349999999999,0.0852465,0.0017199999999999,0.001235,-0.2000285,-0.1666,-0.3193749999999999,0.1923215,-0.17132,-0.315065,-0.1690285,-0.5139199999999999,-0.11367,0.1363415,-0.5182200000000001,-0.1028969999999999,1
94,-0.0066924999999999,0.677705,-0.200262,-0.1554714999999999,0.470975,-0.199289,-0.2520515,0.675835,-0.389165,0.1637785,0.4782349999999999,-0.184656,0.2919985,0.669415,-0.364195,-0.2271814999999999,0.901125,-0.516235,0.2761185,0.904815,-0.491865,-0.0853325,-0.001695,-0.001315,0.0853325,0.001695,0.001315,-0.2016214999999999,-0.159765,-0.3225449999999999,0.1937385,-0.164485,-0.318425,-0.1682015,-0.504945,-0.115586,0.1367385,-0.5090250000000001,-0.104576,1
95,-0.005863,0.675535,-0.204167,-0.154304,0.469465,-0.202623,-0.250464,0.6723049999999999,-0.3951199999999999,0.1645459999999999,0.476515,-0.1871789999999999,0.293276,0.665315,-0.36939,-0.225304,0.897895,-0.52287,0.2770459999999999,0.901015,-0.49976,-0.085413,-0.0016249999999999,-0.0013999999999999,0.085413,0.0016249999999999,0.0014,-0.2029139999999999,-0.152905,-0.3256099999999999,0.195146,-0.1574849999999999,-0.3216299999999999,-0.167264,-0.496035,-0.1174059999999999,0.137216,-0.499855,-0.1061459999999999,1
96,-0.0050855,0.672615,-0.208047,-0.1531195,0.467775,-0.205841,-0.2492895,0.669285,-0.40059,0.1653305,0.473895,-0.189819,0.2945005,0.661215,-0.37432,-0.2230095,0.893145,-0.5297700000000001,0.2781605,0.896215,-0.5073799999999999,-0.0855134999999999,-0.0015149999999999,-0.0014699999999999,0.0855134999999999,0.001515,0.0014699999999999,-0.2039095,-0.145955,-0.32867,0.1964405,-0.1502649999999999,-0.32478,-0.1663195,-0.487345,-0.119352,0.1376504999999999,-0.490835,-0.107814,1
97,-0.0042335,0.67092,-0.211678,-0.1519565,0.46576,-0.209126,-0.2478465,0.6663,-0.406275,0.1661534999999999,0.47077,-0.192647,0.2957035,0.65827,-0.379225,-0.2209265,0.88693,-0.536645,0.2794735,0.8919300000000001,-0.514785,-0.0855944999999999,-0.0014,-0.001545,0.0855944999999999,0.0014,0.0015449999999999,-0.2046565,-0.1385,-0.331765,0.1975935,-0.14255,-0.327825,-0.1652765,-0.47856,-0.12146,0.1381835,-0.48217,-0.109728,1
98,-0.0034799999999999,0.66866,-0.215099,-0.150904,0.46412,-0.212,-0.246784,0.66307,-0.4115,0.166756,0.46964,-0.195035,0.296756,0.65532,-0.38398,-0.219374,0.8807200000000001,-0.5428999999999999,0.280896,0.88769,-0.52188,-0.085624,-0.0014199999999999,-0.0016899999999999,0.085624,0.00142,0.0016899999999999,-0.205344,-0.13126,-0.33451,0.198436,-0.1347499999999999,-0.33058,-0.164364,-0.4702199999999999,-0.123577,0.138536,-0.4737899999999999,-0.111517,1
99,-0.0028449999999999,0.6662399999999999,-0.2186749999999999,-0.14989,0.463008,-0.2147989999999999,-0.24567,0.66001,-0.416775,0.16725,0.468124,-0.1977119999999999,0.29778,0.65206,-0.388715,-0.21822,0.87496,-0.548885,0.28212,0.88186,-0.5284949999999999,-0.0856389999999999,-0.00142,-0.0018249999999999,0.0856389999999999,0.0014199999999999,0.001825,-0.20579,-0.12367,-0.337275,0.19914,-0.12669,-0.333125,-0.1634999999999999,-0.46181,-0.126043,0.13885,-0.46545,-0.1136049999999999,1
100,-0.002048,0.6641250000000001,-0.222267,-0.148941,0.461969,-0.217219,-0.244901,0.656525,-0.422255,0.1676689999999999,0.46623,-0.20027,0.298739,0.648595,-0.393215,-0.217551,0.869495,-0.5548649999999999,0.2829089999999999,0.879325,-0.535095,-0.085742,-0.0012749999999999,-0.001895,0.085742,0.001275,0.0018949999999999,-0.206011,-0.1161849999999999,-0.339715,0.199819,-0.1186349999999999,-0.335545,-0.162681,-0.453665,-0.128674,0.139129,-0.457345,-0.115846,1
101,-0.001253,0.6616949999999999,-0.2257489999999999,-0.148132,0.46072,-0.21959,-0.244222,0.652505,-0.427255,0.168068,0.463665,-0.2027209999999999,0.299548,0.644145,-0.3973649999999999,-0.216872,0.866045,-0.5612550000000001,0.283738,0.875265,-0.5420050000000001,-0.085794,-0.0010749999999999,-0.0019249999999999,0.085794,0.0010749999999999,0.001925,-0.206102,-0.1090349999999999,-0.342085,0.200508,-0.1107449999999999,-0.3379149999999999,-0.161872,-0.4459849999999999,-0.131288,0.1394679999999999,-0.449665,-0.118041,1
102,-0.0001265,0.660075,-0.228926,-0.1469085,0.458756,-0.22206,-0.2431185,0.648155,-0.432035,0.1688815,0.462434,-0.205191,0.3006915,0.638915,-0.401375,-0.2157785,0.862125,-0.568015,0.2849415,0.8702650000000001,-0.5489550000000001,-0.0858635,-0.0008549999999999,-0.002065,0.0858635,0.0008549999999999,0.0020649999999999,-0.2057785,-0.1022549999999999,-0.344555,0.2014815,-0.1031349999999999,-0.340385,-0.1607385,-0.4387049999999999,-0.133984,0.1402115,-0.442325,-0.12025,1
103,0.0009975,0.6574949999999999,-0.2321849999999999,-0.1457824999999999,0.456184,-0.224713,-0.2420025,0.642705,-0.43671,0.1696174999999999,0.460305,-0.207845,0.3017175,0.632995,-0.4052599999999999,-0.2148425,0.8566750000000001,-0.57541,0.2859675,0.862815,-0.5561,-0.0860135,-0.0007349999999999,-0.0021399999999999,0.0860135,0.0007349999999999,0.00214,-0.2054125,-0.0960449999999999,-0.3471999999999999,0.2023475,-0.096175,-0.34297,-0.1596024999999999,-0.4320849999999999,-0.136791,0.1409774999999999,-0.435725,-0.1226219999999999,1
104,0.0020464999999999,0.6550199999999999,-0.235231,-0.1447025,0.4539259999999999,-0.2271119999999999,-0.2415125,0.63725,-0.44121,0.1702774999999999,0.4580809999999999,-0.2105139999999999,0.3026275,0.62724,-0.4090399999999999,-0.2142125,0.8509899999999999,-0.5828599999999999,0.2869374999999999,0.8552,-0.56258,-0.0861695,-0.00063,-0.0022099999999999,0.0861695,0.0006299999999999,0.00221,-0.2051124999999999,-0.09041,-0.34962,0.2030675,-0.08996,-0.34545,-0.1585125,-0.4262,-0.1395809999999999,0.1417775,-0.42963,-0.1250119999999999,1
105,0.0031494999999999,0.65302,-0.238156,-0.1435985,0.452074,-0.229268,-0.2411585,0.63197,-0.445535,0.1709915,0.456139,-0.213033,0.3035015,0.6220600000000001,-0.412575,-0.2137685,0.8446400000000001,-0.589785,0.2879115,0.84846,-0.568515,-0.0863355,-0.0004899999999999,-0.0022449999999999,0.0863355,0.00049,0.0022449999999999,-0.2046985,-0.08533,-0.351805,0.2036915,-0.0844399999999999,-0.347455,-0.1574085,-0.42108,-0.142295,0.1426215,-0.42416,-0.12735,1
106,0.0041475,0.6508149999999999,-0.240831,-0.1425735,0.4500719999999999,-0.231142,-0.2410535,0.627045,-0.449175,0.1716565,0.4542509999999999,-0.215353,0.3045265,0.6168549999999999,-0.4155749999999999,-0.2133835,0.839665,-0.595955,0.2888365,0.8418049999999999,-0.5737749999999999,-0.0865255,-0.000395,-0.0022849999999999,0.0865255,0.0003949999999999,0.002285,-0.2043235,-0.080795,-0.3534049999999999,0.2041365,-0.079575,-0.3490649999999999,-0.1563635,-0.416545,-0.1448789999999999,0.1434465,-0.419375,-0.1295619999999999,1
107,0.0049739999999999,0.64913,-0.243217,-0.141691,0.4481839999999999,-0.232828,-0.2410009999999999,0.62245,-0.45224,0.172319,0.4525969999999999,-0.217435,0.305529,0.61188,-0.41814,-0.213111,0.8346,-0.60143,0.289739,0.83491,-0.57832,-0.086706,-0.00029,-0.00228,0.086706,0.0002899999999999,0.0022799999999999,-0.203961,-0.07694,-0.35467,0.204619,-0.07542,-0.35027,-0.155361,-0.41264,-0.147294,0.144299,-0.41536,-0.131739,1
108,0.0056025,0.647545,-0.245136,-0.1408515,0.446216,-0.234144,-0.2409515,0.618105,-0.45446,0.1729685,0.451249,-0.219131,0.3064085,0.607885,-0.42006,-0.2128015,0.830725,-0.60599,0.2905385,0.831675,-0.5819,-0.0868205,-0.0003049999999999,-0.00228,0.0868205,0.0003049999999999,0.00228,-0.2037515,-0.074265,-0.3555,0.2050285,-0.0724749999999999,-0.35096,-0.1544615,-0.4099349999999999,-0.14926,0.1450884999999999,-0.412455,-0.1334739999999999,1
109,0.0061404999999999,0.6463749999999999,-0.246765,-0.1400334999999999,0.444584,-0.23517,-0.2403934999999999,0.616055,-0.45609,0.1736265,0.450115,-0.220374,0.3071765,0.605325,-0.42169,-0.2122635,0.8281149999999999,-0.60933,0.2912565,0.8292349999999999,-0.58463,-0.0869115,-0.000285,-0.0023,0.0869115,0.0002849999999999,0.0022999999999999,-0.2035735,-0.072575,-0.35611,0.2054365,-0.070535,-0.35137,-0.1536735,-0.408235,-0.150889,0.1458964999999999,-0.410495,-0.134902,1
110,0.0065755,0.64622,-0.2481489999999999,-0.1391785,0.442758,-0.2360449999999999,-0.2397885,0.61449,-0.4574749999999999,0.1742315,0.449298,-0.221325,0.3076815,0.605,-0.423075,-0.2116685,0.82698,-0.611795,0.2918214999999999,0.82831,-0.586435,-0.0870085,-0.00046,-0.0023749999999999,0.0870085,0.00046,0.002375,-0.2033585,-0.07212,-0.356635,0.2058315,-0.0698099999999999,-0.351545,-0.1529585,-0.4078,-0.1522799999999999,0.1466515,-0.40979,-0.1360789999999999,1
111,0.0065044999999999,0.64622,-0.249208,-0.1389035,0.442758,-0.236894,-0.2399434999999999,0.61449,-0.458825,0.1744065,0.449298,-0.222111,0.3073865,0.605,-0.424165,-0.2112835,0.82698,-0.613405,0.2912265,0.82831,-0.587685,-0.0870835,-0.00046,-0.002465,0.0870835,0.00046,0.0024649999999999,-0.2031835,-0.07212,-0.356925,0.2058765,-0.06979,-0.351625,-0.1526735,-0.40799,-0.15353,0.1469765,-0.4097,-0.137114,1
112,0.0061964999999999,0.64622,-0.249752,-0.1386815,0.442758,-0.23767,-0.2398015,0.61449,-0.45981,0.1745685,0.449298,-0.222826,0.3068885,0.605,-0.42469,-0.2109815,0.82698,-0.61449,0.2902085,0.82831,-0.58876,-0.0871015,-0.00046,-0.00252,0.0871015,0.00046,0.0025199999999999,-0.2028715,-0.07212,-0.35707,0.2059085,-0.06971,-0.3516,-0.1524815,-0.40814,-0.154615,0.1472785,-0.4095899999999999,-0.137989,1
113,0.0055944999999999,0.64622,-0.249683,-0.1387175,0.442758,-0.238132,-0.2401875,0.61449,-0.4599,0.1744125,0.449298,-0.223113,0.3059625,0.605,-0.42478,-0.2109375,0.82698,-0.6152500000000001,0.2886325,0.82831,-0.58952,-0.0871475,-0.00046,-0.0024099999999999,0.0871475,0.00046,0.0024099999999999,-0.2028275,-0.07212,-0.35687,0.2055825,-0.0696999999999999,-0.35108,-0.1525475,-0.40821,-0.15534,0.1473225,-0.4095899999999999,-0.138521,1
114,0.0047929999999999,0.646355,-0.248582,-0.139455,0.443341,-0.23782,-0.240705,0.614225,-0.46002,0.173875,0.449437,-0.222278,0.305045,0.605705,-0.42461,-0.210695,0.825515,-0.61554,0.287025,0.8271850000000001,-0.58921,-0.087225,-0.0006149999999999,-0.00242,0.087225,0.000615,0.0024199999999999,-0.202745,-0.073855,-0.35572,0.205175,-0.0715249999999999,-0.34981,-0.152515,-0.410045,-0.155578,0.147405,-0.4113049999999999,-0.138604,1
115,0.0041099999999999,0.647445,-0.246838,-0.140189,0.444227,-0.237289,-0.241139,0.615935,-0.45919,0.173401,0.4501239999999999,-0.221202,0.304121,0.607885,-0.42348,-0.210039,0.826065,-0.61435,0.285531,0.829155,-0.5871200000000001,-0.087259,-0.000715,-0.00242,0.087259,0.000715,0.0024199999999999,-0.202279,-0.076955,-0.35411,0.204741,-0.0746749999999999,-0.34785,-0.152339,-0.413575,-0.155586,0.147601,-0.414625,-0.138432,1
116,0.0032969999999999,0.64775,-0.24499,-0.140963,0.445133,-0.236609,-0.241213,0.61783,-0.45794,0.1726869999999999,0.450852,-0.220083,0.303077,0.60901,-0.42189,-0.209173,0.8270500000000001,-0.61278,0.284057,0.83134,-0.58474,-0.087313,-0.00102,-0.00242,0.087313,0.0010199999999999,0.0024199999999999,-0.2014429999999999,-0.0828299999999999,-0.35216,0.204287,-0.0808099999999999,-0.34583,-0.152133,-0.4201,-0.155497,0.147807,-0.4209199999999999,-0.138224,1
117,0.0022384999999999,0.6491899999999999,-0.243047,-0.1419775,0.446717,-0.235796,-0.2418475,0.6201,-0.45663,0.1717225,0.4512279999999999,-0.218755,0.3017225,0.61166,-0.42002,-0.2088175,0.8295299999999999,-0.61082,0.2826225,0.83558,-0.5821700000000001,-0.0873174999999999,-0.00102,-0.00242,0.0873174999999999,0.0010199999999999,0.0024199999999999,-0.2005375,-0.08993,-0.35024,0.2036224999999999,-0.08818,-0.3436,-0.1521375,-0.4279200000000001,-0.155402,0.1478924999999999,-0.42861,-0.138052,1
118,0.0012434999999999,0.652655,-0.240464,-0.1430075,0.448346,-0.234624,-0.2425975,0.622125,-0.45528,0.1707425,0.453954,-0.217276,0.3004925,0.6153150000000001,-0.41824,-0.2085775,0.834825,-0.6080000000000001,0.2811425,0.839745,-0.57931,-0.0873174999999999,-0.0011549999999999,-0.00242,0.0873174999999999,0.001155,0.0024199999999999,-0.1993575,-0.0983749999999999,-0.34803,0.2029425,-0.0968249999999999,-0.34099,-0.1521375,-0.437295,-0.155256,0.1479825,-0.4379349999999999,-0.137863,1
119,0.000289,0.6556649999999999,-0.237531,-0.144231,0.450716,-0.233117,-0.243641,0.625015,-0.45388,0.169689,0.456263,-0.2158649999999999,0.299269,0.618925,-0.41608,-0.208561,0.8402350000000001,-0.6049899999999999,0.279669,0.844125,-0.57579,-0.087321,-0.0012249999999999,-0.0022999999999999,0.087321,0.001225,0.0023,-0.197661,-0.107875,-0.34535,0.202139,-0.106985,-0.33772,-0.152191,-0.448585,-0.154831,0.148099,-0.449065,-0.1373819999999999,1
120,-0.000737,0.6594450000000001,-0.234281,-0.145847,0.453197,-0.231416,-0.244847,0.628285,-0.4520499999999999,0.168453,0.458927,-0.214272,0.298003,0.623275,-0.41374,-0.208757,0.845095,-0.60176,0.278583,0.847315,-0.57242,-0.087227,-0.0014449999999999,-0.0022999999999999,0.087227,0.001445,0.0022999999999999,-0.195587,-0.1187149999999999,-0.34221,0.200893,-0.1185149999999999,-0.3338299999999999,-0.152377,-0.4617449999999999,-0.154223,0.148173,-0.4619649999999999,-0.136813,1
121,-0.0019125,0.6631849999999999,-0.230979,-0.1477705,0.455879,-0.2296,-0.2457404999999999,0.631605,-0.450055,0.1671095,0.460345,-0.212479,0.2967095,0.6272249999999999,-0.411145,-0.2091105,0.848735,-0.5985849999999999,0.2775795,0.851405,-0.569015,-0.0872005,-0.001475,-0.002255,0.0872005,0.001475,0.002255,-0.1931705,-0.130255,-0.338685,0.1993495,-0.131085,-0.329575,-0.1527105,-0.476255,-0.15335,0.1480894999999999,-0.476265,-0.136047,1
122,-0.002953,0.66707,-0.227647,-0.149688,0.45903,-0.227345,-0.247008,0.6342300000000001,-0.447235,0.165662,0.4657,-0.210323,0.295682,0.62982,-0.408285,-0.209348,0.8506,-0.594775,0.276942,0.8540399999999999,-0.565265,-0.087008,-0.0018,-0.002255,0.087008,0.0018,0.0022549999999999,-0.190208,-0.14315,-0.334375,0.197512,-0.14468,-0.324385,-0.152978,-0.49334,-0.15237,0.148152,-0.4925299999999999,-0.134931,1
123,-0.0038984999999999,0.67132,-0.224251,-0.1509645,0.4607799999999999,-0.224825,-0.2482845,0.6367400000000001,-0.444265,0.1646255,0.46891,-0.208343,0.2947055,0.63402,-0.405125,-0.2100445,0.85267,-0.590335,0.2763255,0.85924,-0.5613250000000001,-0.0867945,-0.0019699999999999,-0.002115,0.0867945,0.00197,0.002115,-0.1871745,-0.15535,-0.329705,0.1954555,-0.1574999999999999,-0.319085,-0.1532445,-0.51026,-0.15097,0.1482355,-0.50945,-0.133536,1
124,-0.0048939999999999,0.67623,-0.221015,-0.1521159999999999,0.46154,-0.222025,-0.2485359999999999,0.63861,-0.4408849999999999,0.163624,0.47193,-0.206501,0.293904,0.638,-0.402275,-0.210946,0.85886,-0.586005,0.275694,0.86461,-0.557555,-0.086549,-0.00239,-0.0019949999999999,0.086549,0.00239,0.0019949999999999,-0.184116,-0.1672599999999999,-0.3249849999999999,0.193224,-0.1701599999999999,-0.3134949999999999,-0.1535159999999999,-0.5271899999999999,-0.149293,0.148334,-0.52643,-0.131847,1
125,-0.0057139999999999,0.68089,-0.217189,-0.1535069999999999,0.4651,-0.218712,-0.248977,0.64235,-0.43688,0.162923,0.47567,-0.204085,0.293333,0.64402,-0.3986699999999999,-0.2119069999999999,0.8629600000000001,-0.58103,0.275043,0.87061,-0.55316,-0.08632,-0.0021299999999999,-0.0020499999999999,0.08632,0.00213,0.0020499999999999,-0.180807,-0.1788699999999999,-0.31889,0.190673,-0.1824899999999999,-0.30634,-0.1543469999999999,-0.5442699999999999,-0.1487109999999999,0.148553,-0.5438799999999999,-0.129533,1
126,-0.006433,0.6856450000000001,-0.213448,-0.1548149999999999,0.467255,-0.215369,-0.249415,0.6454150000000001,-0.432325,0.162185,0.479585,-0.201708,0.292925,0.648675,-0.395615,-0.2130949999999999,0.870675,-0.576355,0.2741949999999999,0.875475,-0.548895,-0.086132,-0.0023549999999999,-0.001955,0.086132,0.0023549999999999,0.0019549999999999,-0.177535,-0.1903349999999999,-0.312375,0.188085,-0.1944949999999999,-0.298845,-0.155275,-0.561355,-0.148168,0.1499849999999999,-0.561405,-0.129806,1
127,-0.0074229999999999,0.68852,-0.2099619999999999,-0.156217,0.46933,-0.21233,-0.2502769999999999,0.6512800000000001,-0.42732,0.161463,0.4813699999999999,-0.1991399999999999,0.292123,0.65273,-0.39234,-0.2145169999999999,0.87405,-0.5720999999999999,0.273033,0.8807,-0.5445,-0.085872,-0.0024399999999999,-0.0019099999999999,0.085872,0.0024399999999999,0.0019099999999999,-0.174397,-0.20214,-0.30493,0.185133,-0.20693,-0.29035,-0.1563669999999999,-0.57935,-0.147344,0.151283,-0.5792999999999999,-0.129524,1
128,-0.008126,0.6916,-0.206407,-0.157192,0.47135,-0.209327,-0.250792,0.65644,-0.421925,0.161018,0.48238,-0.196438,0.2915179999999999,0.65682,-0.389005,-0.215812,0.87912,-0.567395,0.2722679999999999,0.8858699999999999,-0.540495,-0.085415,-0.00242,-0.0019949999999999,0.085415,0.00242,0.0019949999999999,-0.171402,-0.2135899999999999,-0.297115,0.182568,-0.21857,-0.281875,-0.157202,-0.59655,-0.146308,0.152808,-0.5964700000000001,-0.129052,1
129,-0.008751,0.6924,-0.201652,-0.158009,0.47365,-0.205888,-0.250929,0.66177,-0.416165,0.1605609999999999,0.48479,-0.1931969999999999,0.290871,0.6612100000000001,-0.385395,-0.216669,0.8832,-0.561905,0.271661,0.89147,-0.535625,-0.085032,-0.0022199999999999,-0.0018349999999999,0.085032,0.00222,0.001835,-0.168829,-0.22479,-0.288355,0.180031,-0.22995,-0.272765,-0.158139,-0.6136699999999999,-0.14476,0.1542309999999999,-0.61353,-0.1280619999999999,1
130,-0.009288,0.69105,-0.196343,-0.158955,0.47724,-0.202256,-0.251205,0.66659,-0.410065,0.160175,0.4883699999999999,-0.190262,0.290135,0.66555,-0.381295,-0.217565,0.88818,-0.555905,0.271085,0.89526,-0.530175,-0.084686,-0.00209,-0.001725,0.084686,0.00209,0.001725,-0.166715,-0.23595,-0.278785,0.177605,-0.24111,-0.262845,-0.159115,-0.63038,-0.142674,0.155435,-0.6304000000000001,-0.126161,1
131,-0.0097429999999999,0.688305,-0.190376,-0.15986,0.480085,-0.198383,-0.25071,0.672315,-0.40424,0.16002,0.4882249999999999,-0.187203,0.28907,0.670275,-0.37694,-0.21841,0.8951849999999999,-0.54958,0.27083,0.901395,-0.52443,-0.084364,-0.001535,-0.0014099999999999,0.084364,0.0015349999999999,0.0014099999999999,-0.1648899999999999,-0.2459049999999999,-0.26886,0.17562,-0.251395,-0.25294,-0.16021,-0.6453549999999999,-0.140266,0.15668,-0.6461049999999999,-0.1241,1
132,-0.0097185,0.683865,-0.183606,-0.1603505,0.482275,-0.19406,-0.2495305,0.6777549999999999,-0.398115,0.1601595,0.488195,-0.183634,0.2883095,0.673935,-0.371765,-0.2186005,0.904385,-0.542465,0.2708895,0.907085,-0.518275,-0.0837165,-0.001085,-0.0012649999999999,0.0837165,0.001085,0.0012649999999999,-0.1628905,-0.255575,-0.258695,0.1740595,-0.261335,-0.2425189999999999,-0.1610505,-0.6595550000000001,-0.137803,0.1582095,-0.6610750000000001,-0.121877,1
133,-0.0093414999999999,0.6767750000000001,-0.175925,-0.1606004999999999,0.484755,-0.188829,-0.2485104999999999,0.683705,-0.390745,0.1605295,0.488205,-0.179105,0.2877395,0.6768350000000001,-0.365965,-0.2186005,0.908995,-0.534305,0.2712595,0.911425,-0.511105,-0.0830535,-0.0004049999999999,-0.001115,0.0830535,0.000405,0.001115,-0.1607205,-0.265845,-0.247175,0.1727695,-0.2718549999999999,-0.230925,-0.1615504999999999,-0.674255,-0.133972,0.1599495,-0.676895,-0.11863,1
134,-0.0086074999999999,0.6700699999999999,-0.1681019999999999,-0.1601145,0.48367,-0.183612,-0.2464144999999999,0.68804,-0.382995,0.1613755,0.48755,-0.174388,0.2874455,0.67942,-0.359695,-0.2182444999999999,0.91474,-0.525935,0.2719955,0.91554,-0.503435,-0.0827654999999999,-8.00000000000245e-05,-0.0009949999999999,0.0827654999999999,7.999999999999674e-05,0.000995,-0.1584245,-0.27519,-0.236085,0.1720355,-0.28117,-0.219665,-0.1608244999999999,-0.68727,-0.129262,0.1619855,-0.69092,-0.1148879999999999,1
135,-0.0078015,0.66323,-0.160127,-0.1594375,0.4832,-0.178817,-0.2441975,0.6934499999999999,-0.373725,0.1625125,0.48689,-0.169796,0.2866225,0.6827700000000001,-0.352355,-0.2179475,0.91767,-0.516715,0.2728025,0.91981,-0.495335,-0.0825055,0.00038,-0.000855,0.0825055,-0.00038,0.0008549999999999,-0.1560375,-0.28314,-0.224963,0.1713125,-0.28938,-0.208376,-0.1600275,-0.6984999999999999,-0.124632,0.1628525,-0.70339,-0.110258,1
136,-0.007013,0.65723,-0.153452,-0.158726,0.48473,-0.174435,-0.243386,0.6964600000000001,-0.36549,0.163724,0.48586,-0.165432,0.286014,0.6856199999999999,-0.34512,-0.217786,0.92283,-0.50682,0.273794,0.92538,-0.48601,-0.082267,0.00085,-0.00064,0.082267,-0.00085,0.00064,-0.153656,-0.28992,-0.214063,0.170594,-0.2964299999999999,-0.197496,-0.159266,-0.7074400000000001,-0.120267,0.163614,-0.71329,-0.105893,1
137,-0.006856,0.6518250000000001,-0.146612,-0.158823,0.486505,-0.170011,-0.243473,0.6999949999999999,-0.35713,0.1641669999999999,0.485325,-0.161224,0.285917,0.688795,-0.33782,-0.218373,0.926435,-0.49621,0.274317,0.930795,-0.47605,-0.082157,0.0012749999999999,-0.00035,0.082157,-0.0012749999999999,0.0003499999999999,-0.151843,-0.300225,-0.202025,0.168627,-0.306735,-0.185524,-0.159293,-0.714955,-0.113811,0.163517,-0.722685,-0.101193,1
138,-0.0067105,0.6546685,-0.139673,-0.1589745,0.4887285,-0.165267,-0.2436145,0.7056885,-0.34803,0.1647354999999999,0.4815385,-0.156683,0.2857755,0.6899685,-0.32935,-0.2189745,0.9352485,-0.4848,0.2752455,0.9346485,-0.4655,-0.0819915,0.0020914999999999,-7.000000000000062e-05,0.0819915,-0.0020914999999999,7.000000000000062e-05,-0.1496345,-0.3099615,-0.18866,0.1662555,-0.3164714999999999,-0.172258,-0.1589145,-0.7223215,-0.105994,0.1631955,-0.7301215,-0.093342,1
139,-0.006432,0.6634424999999999,-0.126103,-0.1591699999999999,0.4946025,-0.153574,-0.24502,0.7112125,-0.33196,0.16547,0.4753025,-0.145524,0.28557,0.6886025,-0.31392,-0.21943,0.9410825,-0.46673,0.27643,0.9367625,-0.44864,-0.081745,0.0029935,0.0002299999999999,0.081745,-0.0029934999999999,-0.0002299999999999,-0.1472,-0.3202375,-0.16841,0.16302,-0.3267474999999999,-0.151502,-0.15796,-0.7312875000000001,-0.09079,0.1626,-0.7385375000000001,-0.078151,1
140,-0.006226,0.6693985,-0.111118,-0.15946,0.4976885,-0.1401319999999999,-0.2464299999999999,0.7143485,-0.313887,0.16612,0.4772685,-0.132735,0.28569,0.6893685,-0.296837,-0.22003,0.9431785,-0.4464869999999999,0.2774,0.9381885,-0.429247,-0.081514,0.0028504999999999,0.000674,0.081514,-0.0028505,-0.0006739999999999,-0.14438,-0.3355015,-0.1444659999999999,0.15833,-0.3432415,-0.12645,-0.1570099999999999,-0.7436115000000001,-0.0739539999999999,0.16126,-0.7496915,-0.0613059999999999,1
141,-0.006036,0.677072,-0.0964894999999999,-0.159743,0.500962,-0.1268535,-0.247933,0.717572,-0.2961125,0.166707,0.480442,-0.1197314999999999,0.285387,0.690582,-0.2799025,-0.220713,0.944542,-0.4259925,0.278377,0.939422,-0.4102825,-0.081324,0.002618,0.0011385,0.081324,-0.0026179999999999,-0.0011385,-0.141783,-0.3505479999999999,-0.1212345,0.153747,-0.3594279999999999,-0.1017154999999999,-0.156123,-0.755138,-0.0573184999999999,0.159967,-0.760048,-0.0446814999999999,1
142,-0.005856,0.686652,-0.082147,-0.159818,0.505092,-0.11362,-0.249138,0.7205820000000001,-0.278738,0.167232,0.484042,-0.106571,0.2852119999999999,0.692352,-0.263278,-0.221438,0.947652,-0.405388,0.2792719999999999,0.941432,-0.391438,-0.081266,0.002397,0.0015229999999999,0.081266,-0.0023969999999999,-0.001523,-0.1392779999999999,-0.365208,-0.09898,0.149412,-0.374848,-0.077898,-0.155238,-0.765358,-0.041379,0.158562,-0.768908,-0.029121,1
143,-0.0057984999999999,0.6972115,-0.0680735,-0.1601044999999999,0.5101915,-0.1002704999999999,-0.2504145,0.7249315,-0.2620615,0.1676955,0.4881115,-0.0936505,0.2850455,0.6943915,-0.2472115,-0.2222545,0.9525715,-0.3841215,0.2798355,0.9442815,-0.3718214999999999,-0.0812455,0.0020844999999999,0.0019395,0.0812455,-0.0020845,-0.0019394999999999,-0.1368745,-0.3798985,-0.0772855,0.1451755,-0.3900385,-0.0547624999999999,-0.1544245,-0.7746585,-0.0257664999999999,0.1571255,-0.7769185,-0.0138264999999999,1
144,-0.005856,0.7070595000000001,-0.0534044999999999,-0.160579,0.5153195,-0.0866015,-0.252059,0.7291795000000001,-0.2457265,0.1678909999999999,0.4923495,-0.0804054999999999,0.285211,0.6959295000000001,-0.2312465,-0.223079,0.9576695,-0.3620565,0.279981,0.9465395,-0.3512564999999999,-0.0813899999999999,0.0018394999999999,0.0023265,0.0813899999999999,-0.0018395,-0.0023264999999999,-0.134699,-0.3950405,-0.0556875,0.140931,-0.4055005,-0.0318774999999999,-0.153789,-0.7840205,-0.0099244999999999,0.155411,-0.7852005,0.0017695,1
145,-0.0061029999999999,0.716017,-0.038357,-0.161272,0.518427,-0.072734,-0.253192,0.733517,-0.228575,0.167988,0.497027,-0.066775,0.285178,0.697637,-0.214315,-0.224122,0.963057,-0.339105,0.279918,0.947567,-0.330395,-0.081682,0.001611,0.0024959999999999,0.081682,-0.0016109999999999,-0.002496,-0.132982,-0.410723,-0.03465,0.136748,-0.421143,-0.009643,-0.153392,-0.7936030000000001,0.0056169999999999,0.1536779999999999,-0.793863,0.0174179999999999,1
146,-0.0063695,0.7248275,-0.022923,-0.1619425,0.5215475,-0.058259,-0.2556625,0.7377075,-0.2109079999999999,0.1680175,0.5021375,-0.052979,0.2851875,0.6994375,-0.197238,-0.2253125,0.9697575,-0.315478,0.2799175,0.9488275,-0.308898,-0.0820675,0.0013035,0.002659,0.0820675,-0.0013034999999999,-0.002659,-0.1315825,-0.4260525,-0.015139,0.1329375,-0.4361425,0.0111939999999999,-0.1532225,-0.8028225,0.020319,0.1517275,-0.8021525,0.032376,1
147,-0.0065999999999999,0.7270515,-0.0077304999999999,-0.1627279999999999,0.5238514999999999,-0.0450055,-0.258998,0.7395115,-0.1930395,0.168262,0.5091715,-0.0396525,0.286242,0.7025414999999999,-0.1797795,-0.2265579999999999,0.9713315,-0.2921094999999999,0.280002,0.9514015,-0.2869595,-0.082344,0.0006424999999999,0.0027945,0.082344,-0.0006424999999999,-0.0027944999999999,-0.1307579999999999,-0.4399085,0.0019985,0.129602,-0.4494984999999999,0.0296135,-0.1533879999999999,-0.8101885000000001,0.0337205,0.1497919999999999,-0.8085885,0.0458565,1
148,-0.0069754999999999,0.72512,0.000956,-0.1637605,0.52094,-0.038651,-0.2617905,0.7404,-0.181655,0.1682195,0.5188,-0.033002,0.2873395,0.7079,-0.168795,-0.2283005,0.97531,-0.274445,0.2801395,0.95625,-0.270635,-0.0825285,-0.0002529999999999,0.002869,0.0825285,0.000253,-0.002869,-0.1304905,-0.45115,0.010897,0.1268495,-0.46013,0.039238,-0.1543705,-0.81488,0.039208,0.1479995,-0.81328,0.051409,1
149,-0.0068985,0.7270705,0.0074225,-0.1643005,0.5217404999999999,-0.0337434999999999,-0.2636605,0.7436905,-0.1725695,0.1686895,0.5200805,-0.0282975,0.2876995,0.7109405,-0.1596995,-0.2293105,0.9824405,-0.2590794999999999,0.2810795,0.9603805,-0.2565095,-0.0821145,-6.149999999999992e-05,0.0026045,0.0821145,6.150000000000036e-05,-0.0026045,-0.1304705,-0.4528695,0.0148595,0.1259895,-0.4605995,0.0434775,-0.1549205,-0.8153295,0.0425565,0.1472395,-0.8137495,0.0547755,1
150,-0.0068964999999999,0.728209,0.0148345,-0.1648204999999999,0.522709,-0.0278254999999999,-0.2653905,0.746489,-0.1619735,0.1693795,0.5212289999999999,-0.0233675,0.2882395,0.713329,-0.1508235,-0.2306105,0.988119,-0.2442335,0.2824195,0.963549,-0.2419035,-0.0817335,8.5e-05,0.0024385,0.0817335,-8.5e-05,-0.0024385,-0.1303405,-0.454731,0.0186585,0.1253095,-0.461061,0.0473015,-0.1554105,-0.815771,0.0458645,0.1465294999999999,-0.814211,0.0581025,1
151,-0.006878,0.7288105,0.021984,-0.165347,0.5237205,-0.0220039999999999,-0.266947,0.7487705,-0.151533,0.170193,0.5221605,-0.018691,0.288823,0.7153705,-0.1423829999999999,-0.231977,0.9921605,-0.2301129999999999,0.283973,0.9661905,-0.2280529999999999,-0.0813649999999999,0.0002175,0.002312,0.0813649999999999,-0.0002174999999999,-0.002312,-0.1302569999999999,-0.4565495,0.021856,0.1247429999999999,-0.4615094999999999,0.050325,-0.155867,-0.8166095,0.048909,0.145903,-0.8147395,0.061197,1
152,-0.006835,0.7290565,0.0284239999999999,-0.165906,0.5248965,-0.016287,-0.268186,0.7502365,-0.142189,0.170994,0.5227065,-0.013149,0.289294,0.7166264999999999,-0.133799,-0.233406,0.9951565,-0.217269,0.285674,0.9677665,-0.216079,-0.081046,0.0003465,0.002255,0.081046,-0.0003465,-0.002255,-0.130226,-0.4581035,0.024588,0.1243239999999999,-0.4613635,0.053059,-0.156286,-0.8172035,0.051701,0.145334,-0.8156335,0.064043,1
153,-0.0067779999999999,0.7290715,0.0343815,-0.166353,0.5261915,-0.0109144999999999,-0.269103,0.7511315,-0.1340145,0.171837,0.5231215,-0.0081025,0.2900569999999999,0.7175215,-0.1259845,-0.2347729999999999,0.9970715,-0.2060745,0.287537,0.9687915,-0.2055245,-0.080799,0.0004415,0.0021484999999999,0.080799,-0.0004415,-0.0021484999999999,-0.130153,-0.4596585,0.0267715,0.123967,-0.4612585,0.0552435,-0.156643,-0.8176585000000001,0.0539535,0.144837,-0.8164885000000001,0.0663195,1
154,-0.006645,0.729108,0.039742,-0.166646,0.527568,-0.005859,-0.269806,0.751768,-0.126973,0.172644,0.523378,-0.0037969999999999,0.290924,0.718278,-0.119433,-0.235886,0.998258,-0.196923,0.289344,0.969388,-0.196923,-0.08058,0.000494,0.002227,0.08058,-0.0004939999999999,-0.002227,-0.129966,-0.461072,0.028532,0.123674,-0.461122,0.057005,-0.156916,-0.818112,0.055776,0.144424,-0.817202,0.068163,1
155,-0.006598,0.7290639999999999,0.044347,-0.166931,0.528094,-0.0021629999999999,-0.270261,0.7519239999999999,-0.1212159999999999,0.173529,0.523644,0.000252,0.291709,0.7186939999999999,-0.1138859999999999,-0.236711,0.998474,-0.1897859999999999,0.291039,0.969694,-0.189886,-0.080359,0.0005269999999999,0.002274,0.080359,-0.000527,-0.0022739999999999,-0.1297809999999999,-0.4622259999999999,0.029669,0.123409,-0.4609959999999999,0.058001,-0.1572009999999999,-0.8185260000000001,0.057196,0.144079,-0.817836,0.06961,1
156,-0.006526,0.7290265,0.0482075,-0.167158,0.5286265,0.0013465,-0.2704879999999999,0.7517465,-0.1167154999999999,0.174232,0.5235164999999999,0.0032975,0.2923219999999999,0.7187365,-0.1096654999999999,-0.237188,0.9985565,-0.1843255,0.2925419999999999,0.9695365,-0.1849055,-0.08018,0.0005795,0.0022375,0.08018,-0.0005795,-0.0022375,-0.129558,-0.4631835,0.0302845,0.123232,-0.4609635,0.0584775,-0.157458,-0.8188835,0.0581845,0.143822,-0.8184435,0.0706215,1
157,-0.0065145,0.7289344999999999,0.0513235,-0.1673764999999999,0.5291845,0.0047935,-0.2707065,0.7515845,-0.1134985,0.1747235,0.5233545,0.0058525,0.2927335,0.7187045,-0.1067084999999999,-0.2374065,0.9984945,-0.1804285,0.2937035,0.9693745,-0.1814484999999999,-0.0800475,0.0006125,0.0022605,0.0800475,-0.0006125,-0.0022604999999999,-0.1293865,-0.4639055,0.0307365,0.1230834999999999,-0.4609255,0.0588145,-0.1576865,-0.8191855,0.0590465,0.1435735,-0.8189955,0.0714735,1
158,-0.006432,0.7289129999999999,0.0541079999999999,-0.167437,0.529573,0.0074769999999999,-0.270927,0.751493,-0.111036,0.175173,0.5232629999999999,0.0079969999999999,0.293103,0.7186929999999999,-0.104296,-0.237617,0.998203,-0.177336,0.294523,0.969283,-0.178966,-0.079931,0.000634,0.0023329999999999,0.079931,-0.000634,-0.002333,-0.129267,-0.4644669999999999,0.030854,0.123003,-0.460927,0.058898,-0.157917,-0.8194170000000001,0.0596789999999999,0.143343,-0.8193170000000001,0.072133,1
159,-0.006317,0.7289215,0.056461,-0.167426,0.5298415000000001,0.009668,-0.271086,0.7514515,-0.109166,0.175464,0.5232215,0.009671,0.2933639999999999,0.7186515,-0.102526,-0.2378259999999999,0.9980615,-0.175386,0.2949739999999999,0.9692415,-0.177346,-0.0798369999999999,0.0006645,0.0023999999999999,0.0798369999999999,-0.0006645,-0.0023999999999999,-0.129206,-0.4648385,0.0308039999999999,0.1229639999999999,-0.4609485,0.05888,-0.158126,-0.8196184999999999,0.060178,0.143114,-0.8195285,0.07266,1
160,-0.0061439999999999,0.7289450000000001,0.0584655,-0.167314,0.529865,0.0113395,-0.271144,0.751405,-0.1077424999999999,0.175656,0.523165,0.0109655,0.293516,0.718645,-0.1013024999999999,-0.2377639999999999,0.998055,-0.1740924999999999,0.295216,0.968925,-0.1761724999999999,-0.079771,0.000671,0.0025015,0.079771,-0.0006709999999999,-0.0025014999999999,-0.1291939999999999,-0.4650749999999999,0.0306895,0.122956,-0.460955,0.0587515,-0.1583339999999999,-0.819805,0.0605165,0.142926,-0.819695,0.0730215,1
161,-0.0059599999999999,0.7289629999999999,0.060157,-0.167195,0.529863,0.012442,-0.271175,0.7513329999999999,-0.106539,0.175835,0.523133,0.012038,0.293655,0.7186429999999999,-0.100339,-0.237615,0.998053,-0.173249,0.295335,0.968483,-0.175289,-0.079714,0.000673,0.002563,0.079714,-0.000673,-0.0025629999999999,-0.129265,-0.4651969999999999,0.030548,0.1229649999999999,-0.460957,0.058534,-0.158525,-0.819967,0.060723,0.142745,-0.819867,0.073259,1
162,-0.0057735,0.7289329999999999,0.0613374999999999,-0.1670134999999999,0.529863,0.0130235,-0.2711035,0.751193,-0.1056794999999999,0.1759565,0.522953,0.0127865,0.2937265,0.718583,-0.0998894999999999,-0.2373635,0.998053,-0.1728595,0.2953865,0.968013,-0.1747795,-0.0796775,0.000673,0.0026384999999999,0.0796775,-0.000673,-0.0026385,-0.1293435,-0.4652369999999999,0.0303635,0.1229764999999999,-0.460957,0.0582875,-0.1587035,-0.820117,0.0608835,0.1425664999999999,-0.819987,0.0734605,1
163,-0.0055579999999999,0.7289075,0.0623425,-0.166833,0.5298775,0.0132765,-0.271013,0.7510475,-0.1049435,0.176067,0.5227775,0.0134045,0.293827,0.7183675,-0.0995435,-0.236973,0.9980675,-0.1726234999999999,0.295407,0.9675475,-0.1745035,-0.079656,0.0006865,0.0026955,0.079656,-0.0006864999999999,-0.0026955,-0.129433,-0.4652525,0.0302425,0.1229669999999999,-0.4609825,0.0580425,-0.158863,-0.8201125,0.0609985,0.142407,-0.8200725,0.0736585,1
164,-0.0053529999999999,0.7289424999999999,0.0631335,-0.166634,0.5296225,0.0135494999999999,-0.270884,0.7508825,-0.1043745,0.176126,0.5226425,0.0138865,0.293896,0.7181225,-0.0992845,-0.236144,0.9981124999999998,-0.1725145,0.295346,0.9670725,-0.1743445,-0.07964,0.0007125,0.0027534999999999,0.07964,-0.0007124999999999,-0.0027534999999999,-0.1295639999999999,-0.4652275,0.0301315,0.122936,-0.4610275,0.0578635,-0.158994,-0.8201275,0.0611285,0.142246,-0.8201275,0.0738715,1
165,-0.0051769999999999,0.7289880000000001,0.0637254999999999,-0.1664769999999999,0.5292880000000001,0.0138504999999999,-0.270787,0.7507280000000001,-0.1039865,0.176153,0.5225080000000001,0.0142344999999999,0.293973,0.7178580000000001,-0.0990765,-0.235397,0.997868,-0.1723865,0.295273,0.966578,-0.1742065,-0.079632,0.000741,0.0028124999999999,0.079632,-0.0007409999999999,-0.0028125,-0.129677,-0.465212,0.0300275,0.122893,-0.461092,0.0576524999999999,-0.159117,-0.8201419999999999,0.0612565,0.142123,-0.820132,0.0741334999999999,0
166,-0.0050209999999999,0.7290365,0.064144,-0.166383,0.5289564999999999,0.01398,-0.270663,0.7505464999999999,-0.1037259999999999,0.176197,0.5224065,0.014468,0.294087,0.7175564999999999,-0.098896,-0.2346929999999999,0.9977165,-0.172256,0.295197,0.9661565,-0.174076,-0.079621,0.0007715,0.002862,0.079621,-0.0007714999999999,-0.002862,-0.1297729999999999,-0.4652035,0.02991,0.122887,-0.4611635,0.057433,-0.159243,-0.8201635,0.061387,0.142017,-0.8201235,0.074387,0
167,-0.0049444999999999,0.729093,0.0644115,-0.1662895,0.5285829999999999,0.0140875,-0.2705295,0.750373,-0.1035904999999999,0.1762305,0.522323,0.0146855,0.2942005,0.717233,-0.0987205,-0.2340495,0.997873,-0.1721504999999999,0.2951305,0.965773,-0.1739405,-0.0796165,0.0008009999999999,0.0029015,0.0796165,-0.000801,-0.0029014999999999,-0.1298595,-0.4651869999999999,0.0297675,0.1228705,-0.461237,0.0572395,-0.1593395,-0.820187,0.0615225,0.1419305,-0.820107,0.0746005,0
168,-0.004889,0.7291425,0.0646275,-0.166227,0.5281525,0.0138755,-0.270427,0.7502025,-0.1034684999999999,0.1762829999999999,0.5222425,0.0149065,0.294323,0.7169025,-0.0985685,-0.233447,0.9979225,-0.1722584999999999,0.2950629999999999,0.9653925,-0.1738885,-0.07961,0.0008355,0.0029245,0.07961,-0.0008354999999999,-0.0029245,-0.129957,-0.4651675,0.0295935,0.122843,-0.4613175,0.0570365,-0.159437,-0.8202175,0.0616545,0.141853,-0.8200775,0.0748004999999999,0
169,-0.0048919999999999,0.7291650000000001,0.0647795,-0.166176,0.5277350000000001,0.0134275,-0.270306,0.750025,-0.1033165,0.176344,0.522185,0.0151185,0.294454,0.716605,-0.0983864999999999,-0.232896,0.997895,-0.1724965,0.294994,0.965055,-0.1739065,-0.07963,0.000873,0.0029535,0.07963,-0.0008729999999999,-0.0029534999999999,-0.130036,-0.465165,0.0293995,0.122844,-0.461385,0.0568715,-0.159506,-0.8202149999999999,0.0618375,0.141784,-0.819975,0.0750155,0
170,-0.0049185,0.7291795,0.0649395,-0.1661475,0.5273095,0.0128645,-0.2701775,0.7498295,-0.1031764999999999,0.1764125,0.5221195,0.0153385,0.2945824999999999,0.7163195,-0.0982165,-0.2324175,0.9972695,-0.1729865,0.2949225,0.9648095,-0.1739465,-0.0796485,0.0009085,0.0029685,0.0796485,-0.0009085,-0.0029684999999999,-0.1301275,-0.4651504999999999,0.0291955,0.1228425,-0.4614605,0.0567085,-0.1595775,-0.8202005,0.0620095,0.1417225,-0.8198805,0.0752375,0
171,-0.0049364999999999,0.7291635000000001,0.065097,-0.1661244999999999,0.5268635,0.012316,-0.2700545,0.7496035,-0.103168,0.1764655,0.5220835,0.0155509999999999,0.2946955,0.7160835,-0.098058,-0.2320644999999999,0.9967435,-0.173568,0.2948755,0.9646035,-0.173988,-0.0796595,0.0009325,0.002974,0.0796595,-0.0009324999999999,-0.002974,-0.1302245,-0.4651464999999999,0.028985,0.1228455,-0.4615264999999999,0.056533,-0.1596445,-0.8201565,0.06218,0.1416655,-0.8197765,0.075438,0
172,-0.0049815,0.7291675,0.0651895,-0.1661305,0.5267075,0.0121805,-0.2699705,0.7493574999999999,-0.1032714999999999,0.1764795,0.5220674999999999,0.0157735,0.2947495,0.7157475,-0.0978614999999999,-0.2318405,0.9962375,-0.1742215,0.2947995,0.9644075,-0.1740415,-0.0796535,0.0009275,0.0029625,0.0796535,-0.0009274999999999,-0.0029625,-0.1303705,-0.4651625,0.0287935,0.1227995,-0.4615825,0.0562815,-0.1597505,-0.8201125,0.0622905,0.1415795,-0.8196425,0.0755885,0
173,-0.0050469999999999,0.7291625,0.065272,-0.166151,0.5266625,0.0123179999999999,-0.269921,0.7490925,-0.1034139999999999,0.176469,0.5220425,0.015997,0.294789,0.7153825,-0.097664,-0.231871,0.9958125,-0.174844,0.294709,0.9642025,-0.174094,-0.079656,0.0009085,0.0029509999999999,0.079656,-0.0009084999999999,-0.0029509999999999,-0.130511,-0.4651875,0.028622,0.122739,-0.4616275,0.0560289999999999,-0.159851,-0.8200675,0.062386,0.141479,-0.8195275,0.075726,0
174,-0.0051384999999999,0.729136,0.065293,-0.1661824999999999,0.526606,0.0124219999999999,-0.2699025,0.748836,-0.10362,0.1764575,0.521976,0.016176,0.2948175,0.715036,-0.09755,-0.2319524999999999,0.995336,-0.17547,0.2946175,0.964116,-0.1741299999999999,-0.0796585,0.0008869999999999,0.002935,0.0796585,-0.000887,-0.002935,-0.1306524999999999,-0.465224,0.028423,0.1226775,-0.461664,0.055809,-0.1599525,-0.8200540000000001,0.062448,0.1414075,-0.819464,0.07582,0
175,-0.0052354999999999,0.72913,0.065298,-0.1662354999999999,0.5266299999999999,0.012537,-0.2699155,0.74862,-0.1038539999999999,0.1764245,0.52191,0.01635,0.2948245,0.7147,-0.097414,-0.2320654999999999,0.99492,-0.176034,0.2945144999999999,0.96408,-0.174134,-0.0796605,0.0008679999999999,0.002913,0.0796605,-0.000868,-0.0029129999999999,-0.1307954999999999,-0.46525,0.028199,0.1226045,-0.4617,0.055605,-0.1600555,-0.8200200000000001,0.0625189999999999,0.1413345,-0.8193900000000001,0.075934,0
176,-0.005225,0.7290895,0.0650459999999999,-0.166593,0.5257995,0.010211,-0.269943,0.7482994999999999,-0.104694,0.176377,0.5220594999999999,0.016726,0.294617,0.7141095,-0.096424,-0.232013,0.9949095,-0.1771539999999999,0.294267,0.9640695,-0.173894,-0.079611,0.0007585,0.002835,0.079611,-0.0007584999999999,-0.002835,-0.131103,-0.4653305,0.02806,0.122437,-0.4617605,0.054978,-0.160333,-0.8198805,0.06292,0.141057,-0.8191505,0.076078,0
177,-0.0053164999999999,0.7291179999999999,0.0652325,-0.1663595,0.525898,0.0115485,-0.2697994999999999,0.7477779999999999,-0.1044935,0.1762905,0.5220279999999999,0.0169295,0.2947405,0.713638,-0.0964135,-0.2320695,0.994588,-0.1770435,0.2942005,0.963728,-0.1740935,-0.0796564999999999,0.000771,0.0028894999999999,0.0796564999999999,-0.000771,-0.0028894999999999,-0.1311695,-0.465322,0.0280645,0.1223205,-0.461762,0.0550385,-0.1604095,-0.8197720000000001,0.0631015,0.1409705,-0.819142,0.0762645,0
178,-0.0052825,0.7291075,0.065225,-0.1663555,0.5262575,0.0129459999999999,-0.2698255,0.7478075000000001,-0.104575,0.1762245,0.5215475,0.017018,0.2947944999999999,0.7134675,-0.096365,-0.2325955,0.9932475,-0.177455,0.2941944999999999,0.9637375,-0.174115,-0.0796675,0.0007545,0.0029019999999999,0.0796675,-0.0007545,-0.002902,-0.1312255,-0.4653725,0.0278469999999999,0.1222945,-0.4617925,0.054818,-0.1603855,-0.8196724999999999,0.063216,0.1412045,-0.8189225,0.0762549999999999,0
179,-0.0053469999999999,0.7291095,0.065282,-0.166434,0.5267894999999999,0.013672,-0.269924,0.7478095,-0.104516,0.176176,0.5215394999999999,0.017102,0.294806,0.7132894999999999,-0.096326,-0.232794,0.9928195,-0.177536,0.294096,0.9635895,-0.174236,-0.079659,0.0007724999999999,0.002838,0.079659,-0.0007724999999999,-0.002838,-0.131274,-0.4653704999999999,0.027588,0.122316,-0.4618405,0.05476,-0.160424,-0.8201105000000001,0.062929,0.141156,-0.8188405000000001,0.076291,0
180,-0.0055695,0.728895,0.065062,-0.1666165,0.526895,0.0146139999999999,-0.2700565,0.7477349999999999,-0.1044769999999999,0.1761435,0.521565,0.0172589999999999,0.2948135,0.713135,-0.096277,-0.2329765,0.992705,-0.177537,0.2940235,0.963605,-0.174617,-0.0796745,0.000759,0.0027979999999999,0.0796745,-0.0007589999999999,-0.002798,-0.1314265,-0.465465,0.0269139999999999,0.1223635,-0.4618949999999999,0.05445,-0.1604265,-0.8197650000000001,0.062918,0.1410135,-0.818965,0.0763089999999999,0
181,-0.005857,0.7286735,0.064966,-0.166704,0.5268935,0.015003,-0.270284,0.7477035,-0.104673,0.176026,0.5214235,0.017285,0.294856,0.7127535,-0.096513,-0.233344,0.9930435,-0.177443,0.293956,0.9637935,-0.174673,-0.079743,0.0007764999999999,0.002909,0.079743,-0.0007764999999999,-0.0029089999999999,-0.131444,-0.4654865,0.026815,0.122256,-0.4619065,0.054429,-0.160544,-0.8197065,0.063055,0.140846,-0.8191465,0.076072,0
182,-0.005861,0.728586,0.064901,-0.166853,0.527476,0.015728,-0.270333,0.7477159999999999,-0.104578,0.175997,0.5211659999999999,0.017257,0.294857,0.712776,-0.0966279999999999,-0.233623,0.992816,-0.177178,0.293957,0.964186,-0.174848,-0.079758,0.000828,0.002975,0.079758,-0.000828,-0.0029749999999999,-0.131413,-0.465204,0.026325,0.1222669999999999,-0.461934,0.054495,-0.160513,-0.8194640000000001,0.063145,0.140907,-0.819114,0.076077,0
