sb224sc-HT22-VT27/4dt907/src/data/labeled_files/A128_kinect.csv
FrameNo,nose_3d_x,nose_3d_y,nose_3d_z,left_shoulder_3d_x,left_shoulder_3d_y,left_shoulder_3d_z,left_elbow_3d_x,left_elbow_3d_y,left_elbow_3d_z,right_shoulder_3d_x,right_shoulder_3d_y,right_shoulder_3d_z,right_elbow_3d_x,right_elbow_3d_y,right_elbow_3d_z,left_wrist_3d_x,left_wrist_3d_y,left_wrist_3d_z,right_wrist_3d_x,right_wrist_3d_y,right_wrist_3d_z,left_hip_3d_x,left_hip_3d_y,left_hip_3d_z,right_hip_3d_x,right_hip_3d_y,right_hip_3d_z,left_knee_3d_x,left_knee_3d_y,left_knee_3d_z,right_knee_3d_x,right_knee_3d_y,right_knee_3d_z,left_ankle_3d_x,left_ankle_3d_y,left_ankle_3d_z,right_ankle_3d_x,right_ankle_3d_y,right_ankle_3d_z,activity_label
0,-0.004154,0.7290745,0.0797249999999999,-0.15947,0.5382045,0.034119,-0.255,0.7613044999999999,-0.076818,0.17484,0.5176545,0.0356329999999999,0.2842,0.7327144999999999,-0.070878,-0.2176199999999999,1.0249345,-0.142648,0.2725,0.9443845,-0.141658,-0.080403,0.0006515,0.0004399999999999,0.080403,-0.0006514999999999,-0.00044,-0.13689,-0.4613855,0.0249749999999999,0.1185399999999999,-0.4617655,0.0590939999999999,-0.16938,-0.8129955000000001,0.071778,0.13174,-0.8112755,0.093308,1
1,-0.004245,0.7292775,0.0796985,-0.159036,0.5372175,0.0322825,-0.255836,0.7613875,-0.0772625,0.174684,0.5178975,0.0357655,0.284284,0.7326475,-0.0710925,-0.2177359999999999,1.0245875,-0.1432125,0.272524,0.9423775,-0.1418724999999999,-0.080408,0.0006475,0.0004644999999999,0.080408,-0.0006475,-0.0004644999999999,-0.1368359999999999,-0.4613625,0.0250275,0.1184639999999999,-0.4617525,0.0591125,-0.1695559999999999,-0.8126224999999999,0.0717715,0.131694,-0.8111625,0.0931295,1
2,-0.004244,0.7292775,0.0796505,-0.159344,0.5368875,0.0327155,-0.256394,0.7610175,-0.0773655,0.1746859999999999,0.5175675,0.0354205,0.284346,0.7325675,-0.0712555,-0.218024,1.0238675,-0.1437854999999999,0.272746,0.9412375,-0.1420055,-0.080383,0.0006305,0.0004764999999999,0.080383,-0.0006305,-0.0004764999999999,-0.136884,-0.4613725,0.0250485,0.118476,-0.4617325,0.0591155,-0.169524,-0.8125825,0.0717754999999999,0.1316459999999999,-0.8113625,0.0932345,1
3,-0.0044569999999999,0.7296255,0.0799805,-0.159606,0.5366755000000001,0.0320785,-0.258106,0.7597155,-0.0773695,0.174544,0.5181355000000001,0.0358795,0.284254,0.7329155,-0.0714995,-0.220506,1.0200855,-0.1444794999999999,0.273254,0.9394955,-0.1426195,-0.080404,0.0006314999999999,0.0004135,0.080404,-0.0006315,-0.0004134999999999,-0.1371959999999999,-0.4609745,0.0254045,0.118354,-0.4616345,0.0596445,-0.1696959999999999,-0.8119744999999999,0.0722945,0.131574,-0.8108845,0.0937225,1
4,-0.004304,0.7298105,0.0798545,-0.160114,0.5369805,0.0322275,-0.258864,0.7591705000000001,-0.0778935,0.174406,0.5177505,0.0356695,0.284396,0.7327105,-0.0720635,-0.220664,1.0202205,-0.1445235,0.273636,0.9384705,-0.1434335,-0.080389,0.0006535,0.0005065,0.080389,-0.0006535,-0.0005065,-0.137134,-0.4608095,0.0254415,0.118376,-0.4615995,0.0597785,-0.169514,-0.8115994999999999,0.0721945,0.131566,-0.8105795,0.0936075,1
5,-0.0042669999999999,0.7298610000000001,0.0798484999999999,-0.1599,0.5360410000000001,0.0307164999999999,-0.25934,0.7579910000000001,-0.0780665,0.17438,0.518321,0.0359494999999999,0.28435,0.732711,-0.0721965,-0.22082,1.020331,-0.1446265,0.2737799999999999,0.938091,-0.1436464999999999,-0.080398,0.000646,0.0005264999999999,0.080398,-0.000646,-0.0005264999999999,-0.13711,-0.460839,0.0253984999999999,0.11837,-0.461499,0.0597775,-0.1697,-0.811399,0.0723345,0.13153,-0.8105589999999999,0.0936325,1
6,-0.0044019999999999,0.730039,0.0798955,-0.159697,0.535439,0.0297165,-0.2597669999999999,0.758019,-0.0781085,0.174153,0.518559,0.0360305,0.284203,0.7326389999999999,-0.0726185,-0.221137,1.020409,-0.1452985,0.273773,0.937369,-0.1441785,-0.080411,0.000608,0.0005464999999999,0.080411,-0.000608,-0.0005464999999999,-0.137277,-0.4607509999999999,0.0254875,0.118213,-0.4612509999999999,0.0598135,-0.169807,-0.811211,0.0722775,0.131273,-0.8102410000000001,0.0939214999999999,1
7,-0.0044014999999999,0.7299305,0.079743,-0.1605105,0.5358105,0.0314469999999999,-0.2599205,0.7580905,-0.078385,0.1741295,0.5181505,0.035709,0.2842895,0.7326405,-0.072875,-0.2210504999999999,1.0204705,-0.145535,0.2725295,0.9393805,-0.144975,-0.0804095,0.0006345,0.0005899999999999,0.0804095,-0.0006345,-0.00059,-0.1372505,-0.4607395,0.0254959999999999,0.1182695,-0.4611695,0.059877,-0.1699505,-0.8116695,0.072388,0.1313995,-0.8100095,0.094002,1
8,-0.004406,0.7299255,0.079589,-0.160686,0.5356455,0.0312869999999999,-0.260256,0.7577554999999999,-0.078644,0.174074,0.5181655,0.035661,0.284294,0.7325455,-0.073304,-0.221156,1.0204655,-0.145884,0.2725039999999999,0.9393955,-0.145754,-0.080411,0.0006245,0.0006019999999999,0.080411,-0.0006245,-0.000602,-0.137276,-0.4606745,0.0255479999999999,0.118254,-0.4611245,0.059949,-0.169976,-0.8115045000000001,0.0724259999999999,0.131384,-0.8098645000000001,0.094069,1
9,-0.004445,0.729919,0.0794015,-0.160908,0.535469,0.0311045,-0.260548,0.757469,-0.0788784999999999,0.174012,0.518169,0.0356095,0.2842719999999999,0.732469,-0.0736985,-0.221308,1.020169,-0.1463684999999999,0.272482,0.938719,-0.1465185,-0.0804149999999999,0.0006139999999999,0.0005835,0.0804149999999999,-0.000614,-0.0005835,-0.1373079999999999,-0.460621,0.0256145,0.118242,-0.461071,0.0600155,-0.170008,-0.811451,0.0724605,0.131322,-0.809731,0.0941515,1
10,-0.004486,0.729904,0.079194,-0.161108,0.535404,0.030996,-0.260808,0.7573340000000001,-0.079127,0.173952,0.518194,0.035529,0.284242,0.732404,-0.074087,-0.221418,1.019994,-0.146967,0.2723819999999999,0.938054,-0.147297,-0.080416,0.0006129999999999,0.000562,0.080416,-0.0006129999999999,-0.000562,-0.137348,-0.460546,0.025676,0.118212,-0.460986,0.060088,-0.170038,-0.811356,0.072498,0.131272,-0.8095859999999999,0.094229,1
11,-0.0045095,0.729878,0.078953,-0.1613095,0.535408,0.0308459999999999,-0.2610395,0.757238,-0.079376,0.1739004999999999,0.518268,0.0355309999999999,0.2842405,0.732358,-0.074456,-0.2214795,1.019708,-0.147476,0.2721605,0.937548,-0.148026,-0.0804155,0.000615,0.0005289999999999,0.0804155,-0.000615,-0.000529,-0.1373795,-0.460472,0.0257269999999999,0.1182005,-0.460892,0.060153,-0.1700695,-0.811292,0.072528,0.1312404999999999,-0.809472,0.094305,1
12,-0.0045255,0.7298385000000001,0.078687,-0.1615855,0.5353885,0.0306639999999999,-0.2612455,0.7571385,-0.079622,0.1738545,0.5182785000000001,0.035494,0.2842245,0.7322885,-0.074802,-0.2215355,1.0195085,-0.148062,0.2719145,0.9371185,-0.1487419999999999,-0.0804145,0.0006155,0.0004899999999999,0.0804145,-0.0006154999999999,-0.00049,-0.1374055,-0.4604415,0.025768,0.1182044999999999,-0.4608015,0.060207,-0.1700955,-0.8112714999999999,0.0725089999999999,0.1312045,-0.8093714999999999,0.094383,1
13,-0.0045455,0.7297935,0.078441,-0.1618254999999999,0.5353635,0.030564,-0.2614255,0.7571035,-0.0798639999999999,0.1738145,0.5183235,0.035475,0.2842145,0.7322335,-0.0751339999999999,-0.2215655,1.0193035,-0.148644,0.2718244999999999,0.9366935,-0.149424,-0.0804115,0.0006134999999999,0.000453,0.0804115,-0.0006135,-0.0004529999999999,-0.1374255,-0.4604165,0.025823,0.1181945,-0.4607365,0.060275,-0.1701254999999999,-0.8112365,0.07248,0.1311745,-0.8092765,0.09446,1
14,-0.004565,0.7297669999999999,0.0781969999999999,-0.162062,0.5353669999999999,0.0305809999999999,-0.261602,0.7570969999999999,-0.080115,0.173768,0.518347,0.0354639999999999,0.284218,0.7321869999999999,-0.075435,-0.221592,1.019097,-0.149185,0.271768,0.936317,-0.149945,-0.080408,0.000612,0.0004089999999999,0.080408,-0.0006119999999999,-0.0004089999999999,-0.137452,-0.460383,0.025879,0.1181879999999999,-0.460663,0.060347,-0.170142,-0.811183,0.07246,0.131158,-0.809223,0.094538,1
15,-0.00458,0.7297450000000001,0.077991,-0.162199,0.5353450000000001,0.030513,-0.261769,0.7570450000000001,-0.080319,0.173731,0.518395,0.0354709999999999,0.2842209999999999,0.732125,-0.075669,-0.221579,1.018785,-0.149749,0.2717509999999999,0.935955,-0.150319,-0.080401,0.000602,0.0003649999999999,0.080401,-0.000602,-0.000365,-0.137459,-0.460335,0.025931,0.118181,-0.460575,0.060403,-0.170139,-0.8110649999999999,0.07244,0.131141,-0.8092349999999999,0.094605,1
16,-0.0045915,0.7297224999999999,0.0777745,-0.1622905,0.5353525,0.0303375,-0.2619205,0.7570425,-0.0805625,0.1736995,0.5184525,0.0354765,0.2842194999999999,0.7320525,-0.0759025,-0.2215504999999999,1.0183725,-0.1503225,0.2718095,0.9351925,-0.1507425,-0.0803995,0.0005935,0.0003174999999999,0.0803995,-0.0005934999999999,-0.0003174999999999,-0.1374805,-0.4602874999999999,0.0259865,0.1181794999999999,-0.4604275,0.0604395,-0.1701305,-0.8109375000000001,0.0724195,0.1311395,-0.8091675,0.0946615,1
17,-0.0046215,0.7297079999999999,0.077651,-0.1623425,0.535358,0.030113,-0.2620725,0.757108,-0.08074,0.1736675,0.518528,0.035487,0.2842075,0.732038,-0.07599,-0.2215325,1.018148,-0.1508,0.2718075,0.934518,-0.15098,-0.0803985,0.0005929999999999,0.0002839999999999,0.0803985,-0.0005929999999999,-0.0002839999999999,-0.1375025,-0.4602719999999999,0.02605,0.1181675,-0.4602819999999999,0.060454,-0.1701224999999999,-0.810872,0.072378,0.1311575,-0.809092,0.0946859999999999,1
18,-0.004653,0.7296615,0.077526,-0.162336,0.5353215,0.029824,-0.262176,0.7571615,-0.080973,0.173614,0.5185915,0.035502,0.284194,0.7319915,-0.0761029999999999,-0.221506,1.0181015,-0.151203,0.271814,0.9341515,-0.151193,-0.0804,0.0005874999999999,0.000242,0.0804,-0.0005875,-0.0002419999999999,-0.137516,-0.4602785,0.026091,0.1181639999999999,-0.4601584999999999,0.06047,-0.170106,-0.8108185,0.072307,0.131154,-0.8090785,0.094703,1
19,-0.0046934999999999,0.7296265,0.077407,-0.1623525,0.5352565,0.0294909999999999,-0.2622425,0.7571965,-0.081214,0.1735574999999999,0.5186565,0.0354899999999999,0.2841674999999999,0.7319165,-0.076234,-0.2214525,1.0180364999999998,-0.151534,0.2718275,0.9337765,-0.151374,-0.0803975,0.0005754999999999,0.0001989999999999,0.0803975,-0.0005755,-0.000199,-0.1375425,-0.4602835,0.0261219999999999,0.1181475,-0.4600635,0.0604779999999999,-0.1700825,-0.8108535,0.0722269999999999,0.1311375,-0.8090435,0.0947129999999999,1
20,-0.004742,0.729584,0.077286,-0.162378,0.535264,0.0291529999999999,-0.262278,0.757214,-0.08147,0.173492,0.518744,0.035459,0.284132,0.731844,-0.07635,-0.2213679999999999,1.0179539999999998,-0.15192,0.271702,0.933794,-0.15152,-0.0803929999999999,0.000569,0.0001549999999999,0.0803929999999999,-0.000569,-0.000155,-0.137628,-0.460266,0.0261399999999999,0.118122,-0.460076,0.0605349999999999,-0.170048,-0.810976,0.072113,0.131142,-0.809056,0.094725,1
21,-0.004769,0.7295885,0.0771755,-0.162378,0.5352885,0.0288794999999999,-0.262258,0.7573085,-0.0817005,0.173402,0.5187785,0.0354325,0.2841019999999999,0.7317685,-0.0764505,-0.221168,1.0179785,-0.1522205,0.2715619999999999,0.9340685,-0.1516505,-0.080389,0.0005655,0.0001234999999999,0.080389,-0.0005655,-0.0001235,-0.137678,-0.4602515,0.0261854999999999,0.118112,-0.4600915,0.0606135,-0.169998,-0.8110215,0.0720474999999999,0.131152,-0.8090415,0.0947375,1
22,-0.004795,0.7296135,0.077041,-0.162351,0.5353335,0.0286239999999999,-0.262221,0.7574935,-0.082073,0.173339,0.5188435,0.0354299999999999,0.2840789999999999,0.7316935,-0.076593,-0.220931,1.0180034999999998,-0.152573,0.271339,0.9351535,-0.151713,-0.080383,0.0005624999999999,9.099999999999386e-05,0.080383,-0.0005625,-9.10000000000008e-05,-0.137731,-0.4602265,0.0262279999999999,0.118139,-0.4600665,0.060641,-0.169941,-0.8110664999999999,0.0719819999999999,0.131169,-0.8090265,0.094731,1
23,-0.0048125,0.72964,0.076863,-0.1622635,0.53537,0.028345,-0.2621735,0.75768,-0.0824699999999999,0.1732864999999999,0.5188699999999999,0.035448,0.2840465,0.73163,-0.07676,-0.2206735,1.01783,-0.15308,0.2713765,0.93672,-0.15181,-0.0803784999999999,0.0005579999999999,6.899999999999962e-05,0.0803784999999999,-0.000558,-6.899999999999962e-05,-0.1377735,-0.4602,0.0262629999999999,0.1181464999999999,-0.46004,0.0606629999999999,-0.1698735,-0.81116,0.071913,0.1312065,-0.809,0.094719,1
24,-0.0048169999999999,0.7296604999999999,0.076596,-0.162091,0.5353705,0.028045,-0.262121,0.7579505,-0.082918,0.173249,0.5189404999999999,0.035388,0.284029,0.7315404999999999,-0.076968,-0.220381,1.0175505,-0.153618,0.2710889999999999,0.9413005,-0.151958,-0.080377,0.0005595,4.799999999999943e-05,0.080377,-0.0005595,-4.799999999999943e-05,-0.137801,-0.4601395,0.026284,0.118159,-0.4600194999999999,0.0607,-0.169821,-0.8112495000000001,0.071848,0.131269,-0.8089695,0.0946849999999999,1
25,-0.0048145,0.729698,0.0762875,-0.1618725,0.5353779999999999,0.0277755,-0.2620425,0.7582979999999999,-0.0834314999999999,0.1732375,0.5189779999999999,0.0353355,0.2840275,0.731478,-0.0771815,-0.2200925,1.017268,-0.1541415,0.2707075,0.946208,-0.1520815,-0.0803764999999999,0.0005599999999999,3.349999999999881e-05,0.0803764999999999,-0.00056,-3.349999999999881e-05,-0.1378325,-0.460082,0.0263065,0.1181675,-0.460012,0.0607885,-0.1697825,-0.811362,0.0717845,0.1313274999999999,-0.808932,0.0946495,1
26,-0.0047764999999999,0.729735,0.0759015,-0.1615714999999999,0.5353950000000001,0.0274774999999999,-0.2618514999999999,0.7588250000000001,-0.0841645,0.1732485,0.5190250000000001,0.0351364999999999,0.2840885,0.731415,-0.0774945,-0.2197615,1.016875,-0.1548945,0.2705585,0.950725,-0.1522545,-0.0803835,0.0005669999999999,3.849999999999687e-05,0.0803835,-0.000567,-3.850000000000381e-05,-0.1378615,-0.460035,0.0263294999999999,0.1182085,-0.460015,0.0608175,-0.1696915,-0.8114849999999999,0.0717154999999999,0.1313984999999999,-0.8088749999999999,0.0945955,1
27,-0.0047229999999999,0.7297805,0.07546,-0.161282,0.5354405000000001,0.0272349999999999,-0.261602,0.7594105,-0.084964,0.173268,0.5191305,0.0349229999999999,0.284148,0.7313605000000001,-0.077794,-0.219442,1.0164805,-0.155704,0.270328,0.9559705,-0.152484,-0.0803899999999999,0.0005725,3.799999999999637e-05,0.0803899999999999,-0.0005725,-3.800000000000331e-05,-0.137892,-0.4599995,0.0263709999999999,0.118258,-0.4599395,0.0607949999999999,-0.169612,-0.8116194999999999,0.071664,0.131468,-0.8088095,0.094537,1
28,-0.0046665,0.7298515,0.074941,-0.1610115,0.5354415,0.027017,-0.2613015,0.7600914999999999,-0.085897,0.1733085,0.5192515,0.034686,0.2842085,0.7313215,-0.0781169999999999,-0.2191515,1.0161815,-0.156567,0.2703385,0.9603015,-0.152817,-0.0803945,0.0005735,3.299999999999831e-05,0.0803945,-0.0005735,-3.299999999999831e-05,-0.1379315,-0.4599585,0.0264189999999999,0.1182985,-0.4598684999999999,0.060756,-0.1695515,-0.8117885,0.071605,0.1315285,-0.8087985000000001,0.094475,1
29,-0.0046164999999999,0.7299745,0.0743185,-0.1607805,0.5354745,0.0268075,-0.2610005,0.7607745,-0.0868625,0.1733495,0.5193945,0.0344105,0.2842895,0.7312145,-0.0785525,-0.2188905,1.0158745,-0.1574725,0.2703995,0.9644745,-0.1533325,-0.0804105,0.0005805,2.9500000000001747e-05,0.0804105,-0.0005805,-2.9500000000001747e-05,-0.1379305,-0.4599155,0.0264665,0.1183295,-0.4598255,0.0607075,-0.1695005,-0.8119155,0.0715775,0.1315895,-0.8088055000000001,0.0944275,1
30,-0.0045674999999999,0.7301235,0.0736265,-0.1605415,0.5355335,0.0265925,-0.2607015,0.7614235,-0.0878475,0.1733885,0.5195335000000001,0.0341035,0.2844885,0.7309935000000001,-0.0791375,-0.2186315,1.0154535,-0.1585175,0.2704685,0.9686435,-0.1539975,-0.0804344999999999,0.0005865,3.350000000000575e-05,0.0804344999999999,-0.0005865,-3.349999999999881e-05,-0.1379315,-0.4598565,0.0265285,0.1183585,-0.4598765,0.0606825,-0.1694615,-0.8120465,0.0715495,0.1316385,-0.8087964999999999,0.0943635,1
31,-0.0045069999999999,0.7302665,0.0728405,-0.1602519999999999,0.5356065000000001,0.0263125,-0.260412,0.7619965000000001,-0.0887594999999999,0.173428,0.5196865,0.0337155,0.284768,0.7306665,-0.0798494999999999,-0.218412,1.0150265,-0.1596795,0.270548,0.9726865,-0.1549895,-0.080463,0.0005954999999999,4.250000000000087e-05,0.080463,-0.0005955,-4.250000000000087e-05,-0.137932,-0.4597935,0.0265845,0.118388,-0.4599035,0.0606235,-0.169432,-0.8121535,0.0714945,0.131698,-0.8088135,0.0942834999999999,1
32,-0.004424,0.730298,0.0718175,-0.160005,0.535618,0.0259975,-0.260075,0.762558,-0.0898485,0.173475,0.519718,0.0333005,0.285115,0.730308,-0.0807185,-0.2181449999999999,1.014888,-0.1608585,0.270645,0.973628,-0.1561584999999999,-0.080488,0.000602,4.749999999999893e-05,0.080488,-0.000602,-4.749999999999893e-05,-0.1379349999999999,-0.459762,0.0265045,0.118435,-0.459942,0.0605394999999999,-0.169405,-0.8121120000000001,0.0714185,0.131745,-0.808832,0.0941805,1
33,-0.0043215,0.730282,0.0707165,-0.1597705,0.535602,0.0256515,-0.2597705,0.7629319999999999,-0.0910074999999999,0.1735395,0.519722,0.0328335,0.2854695,0.729962,-0.0816775,-0.2179205,1.014772,-0.1621275,0.2707294999999999,0.973612,-0.1575275,-0.0804884999999999,0.0006259999999999,8.149999999999824e-05,0.0804884999999999,-0.0006259999999999,-8.149999999999824e-05,-0.1379705,-0.459628,0.0263425,0.1184595,-0.459958,0.0603594999999999,-0.1694005,-0.812018,0.0712565,0.1317895,-0.808818,0.0940054999999999,1
34,-0.004192,0.73029,0.0693635,-0.159574,0.53561,0.0251535,-0.259434,0.76306,-0.0922695,0.1735959999999999,0.51971,0.0321775,0.285906,0.72956,-0.0828895,-0.217664,1.01468,-0.1636295,0.2708359999999999,0.97362,-0.1591295,-0.080502,0.000634,0.0001564999999999,0.080502,-0.000634,-0.0001565,-0.138004,-0.45947,0.0260784999999999,0.118486,-0.45994,0.0600275,-0.169414,-0.81193,0.0710015,0.131846,-0.80881,0.0937254999999999,1
35,-0.0040199999999999,0.730307,0.067144,-0.159463,0.535617,0.024269,-0.259123,0.763077,-0.0941829999999999,0.173647,0.5196270000000001,0.031011,0.286497,0.728977,-0.084763,-0.217283,1.014497,-0.1657829999999999,0.271217,0.973637,-0.161763,-0.0805839999999999,0.0006389999999999,0.00016,0.0805839999999999,-0.000639,-0.00016,-0.138123,-0.458773,0.02511,0.118687,-0.459513,0.05866,-0.169443,-0.811873,0.070348,0.131927,-0.808643,0.0930479999999999,1
36,-0.0039055,0.7301285,0.064423,-0.1594034999999999,0.5355785,0.023002,-0.2588835,0.7630885,-0.0967219999999999,0.1735864999999999,0.5195784999999999,0.029508,0.2870765,0.7281584999999999,-0.087192,-0.2168135,1.0143085,-0.168542,0.2717265,0.9715685,-0.164852,-0.0807345,0.0006414999999999,0.000107,0.0807345,-0.0006414999999999,-0.0001069999999999,-0.1382935,-0.4579215,0.023328,0.1190065,-0.4584514999999999,0.055959,-0.1695435,-0.8118015000000001,0.069436,0.1319965,-0.8084015,0.092073,1
37,-0.003847,0.7298100000000001,0.0610955,-0.159393,0.53554,0.0212175,-0.258713,0.76312,-0.0998025,0.173467,0.51954,0.0274725,0.287657,0.7269500000000001,-0.0904124999999999,-0.216343,1.0140399999999998,-0.1720225,0.272017,0.96936,-0.1687125,-0.080912,0.000655,6.950000000000012e-05,0.080912,-0.000655,-6.950000000000012e-05,-0.138663,-0.45663,0.0204695,0.119407,-0.45708,0.0518305,-0.169763,-0.81153,0.0681005,0.132037,-0.80821,0.0907015,1
38,-0.0037644999999999,0.7291765,0.056873,-0.1593235,0.5355165,0.0188129999999999,-0.2583935,0.7627965,-0.103903,0.1733765,0.5196065,0.024796,0.2882565,0.7254665,-0.094503,-0.2158135,1.0135665,-0.176663,0.2725265,0.9668665,-0.173563,-0.0811145,0.0006944999999999,0.000167,0.0811145,-0.0006944999999999,-0.000167,-0.1391235,-0.4546334999999999,0.016165,0.1200365,-0.4555935,0.046645,-0.1699635,-0.8111735,0.066216,0.1320865,-0.8079835000000001,0.088806,1
39,-0.003686,0.7281755,0.0516975,-0.159253,0.5354855,0.0155605,-0.258033,0.7622355,-0.1090295,0.173257,0.5196155,0.0213835,0.288787,0.7239355,-0.0994595,-0.2151829999999999,1.0130655000000002,-0.1823595,0.272947,0.9643055,-0.1794095,-0.0813639999999999,0.0007635,0.0002015,0.0813639999999999,-0.0007634999999999,-0.0002015,-0.139763,-0.4521345,0.0103635,0.120807,-0.4538045,0.0398985,-0.1702229999999999,-0.8105545,0.0637465,0.132167,-0.8075145,0.0863275,1
40,-0.0036255,0.7263084999999999,0.0446715,-0.1591925,0.5360385,0.0110065,-0.2574825,0.7605384999999999,-0.1163945,0.1730175,0.5189085,0.0167135,0.2892575,0.7203084999999999,-0.1058345,-0.2145425,1.0086585,-0.1906245,0.2732075,0.9610185,-0.1875645,-0.0816745,0.0009015,9.550000000000183e-05,0.0816745,-0.0009015,-9.549999999999836e-05,-0.1409525,-0.4485015,0.0013325,0.1224375,-0.4510015,0.0299815,-0.1705525,-0.8089615,0.0600315,0.1321875,-0.8059315,0.0826385,1
41,-0.0034339999999999,0.7239295,0.036806,-0.159024,0.5351095,0.0052849999999999,-0.256764,0.7590895,-0.12469,0.172766,0.5179495,0.011326,0.289796,0.7174195,-0.11323,-0.213794,1.0051695,-0.1997499999999999,0.273556,0.9555195,-0.19751,-0.08201,0.0009634999999999,1.8000000000000654e-05,0.08201,-0.0009635,-1.8000000000000654e-05,-0.142294,-0.4440405,-0.009308,0.1244359999999999,-0.4474205,0.0181899999999999,-0.170814,-0.8063505,0.055589,0.132266,-0.8033005,0.078205,1
42,-0.0029014999999999,0.7211420000000001,0.0281529999999999,-0.1585285,0.534122,-0.001174,-0.2556585,0.757202,-0.134166,0.1727215,0.516182,0.004998,0.2906114999999999,0.712812,-0.121456,-0.2126584999999999,1.001352,-0.210346,0.2741515,0.950652,-0.208086,-0.0822505,0.0011319999999999,-0.0001029999999999,0.0822505,-0.0011319999999999,0.0001029999999999,-0.1433285,-0.439538,-0.021565,0.1269914999999999,-0.4431879999999999,0.004855,-0.1707785,-0.802538,0.05061,0.1326115,-0.799698,0.073098,1
43,-0.0023809999999999,0.7183265000000001,0.019041,-0.15793,0.5327965,-0.00812,-0.2544999999999999,0.7554165,-0.1445429999999999,0.17264,0.5150165,-0.001705,0.29142,0.7083965000000001,-0.130163,-0.2114599999999999,0.9937865,-0.2224229999999999,0.27475,0.9465265,-0.219223,-0.082524,0.0011544999999999,-0.000105,0.082524,-0.0011544999999999,0.0001049999999999,-0.14443,-0.4340735,-0.034801,0.12969,-0.4376935,-0.009714,-0.1707499999999999,-0.7973534999999999,0.0451749999999999,0.13292,-0.7948135,0.067498,1
44,-0.0019375,0.7153905,0.0098915,-0.1573905,0.5317205,-0.0156525,-0.2532805,0.7536705,-0.1554964999999999,0.1724695,0.5124005,-0.0085864999999999,0.2920594999999999,0.7045605,-0.1392265,-0.2105004999999999,0.9874005,-0.2346065,0.2751294999999999,0.9432305,-0.2308464999999999,-0.0829525,0.0013295,-8.750000000000077e-05,0.0829525,-0.0013294999999999,8.74999999999999e-05,-0.1457605,-0.4272795,-0.0487865,0.1323295,-0.4308995,-0.0248945,-0.1707705,-0.7906195,0.0393675,0.1331295,-0.7884295,0.0614905,1
45,-0.0012674999999999,0.7118365,-0.000791,-0.1566484999999999,0.5299765,-0.024378,-0.2516585,0.7485364999999999,-0.1670559999999999,0.1725015,0.5093765,-0.016786,0.2927915,0.7000565,-0.149866,-0.2091184999999999,0.9820865,-0.2488959999999999,0.2755815,0.9383165,-0.2443759999999999,-0.0834535,0.0015464999999999,-0.0001989999999999,0.0834535,-0.0015464999999999,0.000199,-0.1473384999999999,-0.4170034999999999,-0.064748,0.1353115,-0.4206235,-0.041894,-0.1706984999999999,-0.7807235,0.0323209999999999,0.1334314999999999,-0.7788235,0.0542109999999999,1
46,-0.000429,0.7074615000000001,-0.0114025,-0.155684,0.5275815,-0.0330645,-0.2498739999999999,0.7434915000000001,-0.1783404999999999,0.172526,0.5062715,-0.0248245,0.293666,0.6954515,-0.1602805,-0.207324,0.9772615,-0.2632505,0.276196,0.9333115,-0.2579105,-0.083996,0.0018225,-0.0003365,0.083996,-0.0018224999999999,0.0003365,-0.148814,-0.4052985,-0.0804985,0.138396,-0.4089185,-0.0581535,-0.170394,-0.7695885,0.0253585,0.133896,-0.7680385,0.0470975,1
47,0.00054,0.7032419999999999,-0.021979,-0.154695,0.524402,-0.042251,-0.248135,0.738402,-0.190097,0.172445,0.502642,-0.03299,0.294595,0.690662,-0.1710269999999999,-0.205555,0.968572,-0.277927,0.276665,0.928282,-0.271567,-0.084595,0.001966,-0.000656,0.084595,-0.0019659999999999,0.000656,-0.150605,-0.391688,-0.096293,0.141545,-0.3951679999999999,-0.074488,-0.170135,-0.755878,0.01837,0.134275,-0.7545780000000001,0.039864,1
48,0.0015075,0.6981845,-0.0325965,-0.1537204999999999,0.5207545,-0.0511665,-0.2464205,0.7339445,-0.2017634999999999,0.1724595,0.4992845,-0.0412765,0.2955895,0.6856345,-0.1817435,-0.2038404999999999,0.9612945,-0.2920335,0.2770695,0.9229445,-0.2850435,-0.0851145,0.0018694999999999,-0.0008804999999999,0.0851145,-0.0018695,0.0008804999999999,-0.1526205,-0.3772655,-0.1116735,0.1449595,-0.3819455,-0.0906335,-0.1699204999999999,-0.7406754999999999,0.0114895,0.1346494999999999,-0.7397254999999999,0.0327435,1
49,0.0024429999999999,0.6947920000000001,-0.0419495,-0.152731,0.5169520000000001,-0.0594984999999999,-0.244831,0.730032,-0.2122415,0.172669,0.495962,-0.0489775,0.296459,0.6823520000000001,-0.1917015,-0.202261,0.957292,-0.3046815,0.277329,0.918432,-0.2968215,-0.08555,0.0018729999999999,-0.0010725,0.08555,-0.0018729999999999,0.0010725,-0.154671,-0.362068,-0.1250615,0.147959,-0.3670879999999999,-0.1050045,-0.169811,-0.7246680000000001,0.0052864999999999,0.1349889999999999,-0.723908,0.0262105,1
50,0.0033589999999999,0.6909449999999999,-0.051124,-0.151658,0.513585,-0.067074,-0.243458,0.7260749999999999,-0.222206,0.172882,0.492745,-0.0563349999999999,0.297232,0.6781849999999999,-0.201066,-0.200528,0.953055,-0.316906,0.277492,0.915205,-0.307236,-0.08566,0.002055,-0.0011619999999999,0.08566,-0.002055,0.0011619999999999,-0.156898,-0.347495,-0.137466,0.150872,-0.352585,-0.118324,-0.169788,-0.708315,-0.0004869999999999,0.135272,-0.7078150000000001,0.020193,1
51,0.0044805,0.688885,-0.0648105,-0.1504075,0.511335,-0.0792535,-0.2419875,0.722815,-0.2362865,0.1732525,0.4913849999999999,-0.0682615,0.2981725,0.6769350000000001,-0.2152565,-0.1986675,0.947625,-0.3334965,0.2778525,0.913525,-0.3224365,-0.0856685,0.002165,-0.0010755,0.0856685,-0.002165,0.0010755,-0.1590475,-0.331905,-0.1533965,0.1537125,-0.336665,-0.1356375,-0.1695875,-0.690325,-0.0109495,0.1354925,-0.6901149999999999,0.0096414999999999,1
52,0.0058954999999999,0.690175,-0.079952,-0.1485435,0.5089250000000001,-0.092911,-0.2393735,0.721085,-0.251581,0.1737264999999999,0.4917849999999999,-0.081972,0.2991765,0.678825,-0.231471,-0.1967235,0.950325,-0.350501,0.2783865,0.915465,-0.339191,-0.0856115,0.001945,-0.00119,0.0856115,-0.001945,0.0011899999999999,-0.1632435,-0.313365,-0.174941,0.1580365,-0.318275,-0.159281,-0.1692735,-0.6689449999999999,-0.022821,0.1357565,-0.669055,-0.002366,1
53,0.007409,0.69008,-0.0956279999999999,-0.1465349999999999,0.5065999999999999,-0.106344,-0.2369549999999999,0.71889,-0.266792,0.1744649999999999,0.49269,-0.0958749999999999,0.300245,0.67908,-0.248222,-0.1947749999999999,0.94757,-0.368162,0.278545,0.91413,-0.3567519999999999,-0.085606,0.00182,-0.001277,0.085606,-0.0018199999999999,0.001277,-0.1675849999999999,-0.2944799999999999,-0.1957819999999999,0.162295,-0.29949,-0.182432,-0.169035,-0.64716,-0.0342839999999999,0.1358849999999999,-0.64757,-0.0139239999999999,1
54,0.0086465,0.6906,-0.1098534999999999,-0.1447395,0.5049699999999999,-0.1187705,-0.2349095,0.72016,-0.2812085,0.1751805,0.49204,-0.1084304999999999,0.3011904999999999,0.68043,-0.2636385,-0.1933794999999999,0.94371,-0.3834585,0.2783604999999999,0.91495,-0.3722785,-0.0856275,0.0017899999999999,-0.0012635,0.0856275,-0.00179,0.0012635,-0.1719195,-0.27677,-0.2144685,0.1660505,-0.28244,-0.2030585,-0.1689594999999999,-0.62733,-0.0444894999999999,0.1357005,-0.62821,-0.0241884999999999,1
55,0.0099579999999999,0.69128,-0.1241005,-0.142736,0.50245,-0.1312755,-0.2326659999999999,0.71755,-0.2954195,0.175444,0.4921,-0.1207665,0.302144,0.68124,-0.2787295,-0.192136,0.93942,-0.3984895,0.278114,0.91621,-0.3878395,-0.0856,0.00159,-0.0012685,0.0856,-0.00159,0.0012684999999999,-0.176266,-0.25907,-0.2328595,0.169814,-0.26581,-0.2233595,-0.168796,-0.6075400000000001,-0.0544565,0.135574,-0.60892,-0.0343715,1
56,0.010935,0.691435,-0.1377915,-0.1410489999999999,0.500915,-0.1428835,-0.2307489999999999,0.715695,-0.3081815,0.175641,0.4929449999999999,-0.1324025,0.302721,0.682025,-0.2930215,-0.190989,0.938835,-0.4126614999999999,0.277691,0.917695,-0.4028115,-0.085614,0.0014249999999999,-0.0012624999999999,0.085614,-0.001425,0.0012624999999999,-0.1805689999999999,-0.243065,-0.2500414999999999,0.173061,-0.250985,-0.2427415,-0.168839,-0.589915,-0.0639445,0.135151,-0.5919749999999999,-0.0439875,1
57,0.011695,0.6922200000000001,-0.1510425,-0.139648,0.50022,-0.1542275,-0.2290579999999999,0.71328,-0.3207905,0.175792,0.49376,-0.1434635,0.3030319999999999,0.68288,-0.3071305,-0.189888,0.93689,-0.4269005,0.2770419999999999,0.9194,-0.4180105,-0.085454,0.00152,-0.0013345,0.085454,-0.0015199999999999,0.0013345,-0.184838,-0.2277799999999999,-0.2665105,0.175612,-0.2369299999999999,-0.2610805,-0.169098,-0.57336,-0.0731465,0.134392,-0.57611,-0.0532915,1
58,0.0123765,0.69197,-0.164353,-0.1384775,0.49846,-0.165673,-0.2275075,0.7109800000000001,-0.33331,0.1761025,0.49352,-0.154662,0.3035325,0.68342,-0.32128,-0.1884674999999999,0.93527,-0.44109,0.2768825,0.92124,-0.4334099999999999,-0.0853695,0.00152,-0.0012299999999999,0.0853695,-0.0015199999999999,0.00123,-0.1887875,-0.2137899999999999,-0.28218,0.1776125,-0.2235199999999999,-0.27858,-0.1694375,-0.5579799999999999,-0.082108,0.1335425,-0.56123,-0.0622879999999999,1
59,0.012873,0.6919949999999999,-0.17735,-0.137494,0.4966449999999999,-0.177255,-0.225814,0.707815,-0.346275,0.176376,0.4937749999999999,-0.165879,0.304116,0.6832149999999999,-0.335505,-0.187164,0.933075,-0.455745,0.276716,0.923265,-0.449705,-0.085326,0.0013249999999999,-0.001265,0.085326,-0.001325,0.001265,-0.192624,-0.200105,-0.2974549999999999,0.179386,-0.210445,-0.295475,-0.169834,-0.543035,-0.0908819999999999,0.132546,-0.546925,-0.071161,1
60,0.013303,0.689605,-0.185543,-0.13653,0.494155,-0.183593,-0.22417,0.703675,-0.35457,0.17651,0.493285,-0.171704,0.3048,0.680725,-0.34462,-0.18599,0.931335,-0.46577,0.27651,0.922545,-0.4612699999999999,-0.085223,0.001045,-0.00146,0.085223,-0.001045,0.0014599999999999,-0.19642,-0.188515,-0.30759,0.1812,-0.1993749999999999,-0.30694,-0.17017,-0.530365,-0.094538,0.13154,-0.534635,-0.074892,1
61,0.0133529999999999,0.683775,-0.192157,-0.136303,0.492685,-0.1882309999999999,-0.223883,0.697315,-0.36184,0.176517,0.490605,-0.175466,0.305237,0.6737150000000001,-0.35204,-0.185333,0.920825,-0.47497,0.275857,0.914035,-0.4718,-0.085226,0.0012349999999999,-0.0016899999999999,0.085226,-0.0012349999999999,0.0016899999999999,-0.198423,-0.1800749999999999,-0.31112,0.181307,-0.190965,-0.31077,-0.170683,-0.5215449999999999,-0.096611,0.130257,-0.526105,-0.076762,1
62,0.0136835,0.67977,-0.199353,-0.1358705,0.48874,-0.194336,-0.2233505,0.69157,-0.3703349999999999,0.1766295,0.48633,-0.180248,0.3058495,0.66791,-0.359755,-0.1847504999999999,0.91597,-0.485105,0.2755695,0.90908,-0.4828949999999999,-0.0852575,0.00137,-0.0018749999999999,0.0852575,-0.0013699999999999,0.001875,-0.2002105,-0.1694899999999999,-0.315245,0.1817895,-0.1800899999999999,-0.314845,-0.1708405,-0.5113599999999999,-0.09974,0.1293095,-0.5161399999999999,-0.079714,1
63,0.0140184999999999,0.6751900000000001,-0.20625,-0.1355124999999999,0.48503,-0.200061,-0.2229525,0.68466,-0.379185,0.1769275,0.4842000000000001,-0.184949,0.3058575,0.6607500000000001,-0.367085,-0.1842524999999999,0.91029,-0.495705,0.2752975,0.90342,-0.494125,-0.0853285,0.0013,-0.002015,0.0853285,-0.0012999999999999,0.002015,-0.2020124999999999,-0.1602499999999999,-0.318925,0.1823575,-0.1704299999999999,-0.318545,-0.1709425,-0.502,-0.102807,0.1284274999999999,-0.5068999999999999,-0.082609,1
64,0.0146675,0.671125,-0.213615,-0.1348835,0.482695,-0.206015,-0.2226235,0.6816150000000001,-0.389105,0.1774464999999999,0.480735,-0.190533,0.3061264999999999,0.6543950000000001,-0.375095,-0.1836235,0.904285,-0.507185,0.2754165,0.8975850000000001,-0.506135,-0.0854225,0.001325,-0.002205,0.0854225,-0.001325,0.0022049999999999,-0.2033635,-0.1514849999999999,-0.322905,0.1832965,-0.1619149999999999,-0.322685,-0.1707235,-0.4925949999999999,-0.106556,0.1278264999999999,-0.4966449999999999,-0.086011,1
65,0.015094,0.66732,-0.221127,-0.134032,0.47916,-0.21215,-0.222232,0.67721,-0.399585,0.177598,0.47653,-0.196455,0.306248,0.64747,-0.383195,-0.183252,0.89743,-0.518895,0.275358,0.88953,-0.518475,-0.085544,0.0014199999999999,-0.0023849999999999,0.085544,-0.0014199999999999,0.0023849999999999,-0.204632,-0.14212,-0.327115,0.184338,-0.15266,-0.326845,-0.170402,-0.48292,-0.110659,0.127378,-0.4859099999999999,-0.089741,1
66,0.015469,0.663675,-0.228599,-0.133011,0.475595,-0.218279,-0.221911,0.672695,-0.409975,0.177859,0.472515,-0.202358,0.306479,0.638945,-0.390965,-0.182891,0.890535,-0.530715,0.275439,0.881285,-0.530095,-0.08554,0.001445,-0.002515,0.08554,-0.0014449999999999,0.0025149999999999,-0.205811,-0.132525,-0.331235,0.185549,-0.1429549999999999,-0.330765,-0.169961,-0.473155,-0.114788,0.127139,-0.4758449999999999,-0.093643,1
67,0.0156905,0.659795,-0.235835,-0.1320715,0.472107,-0.2237509999999999,-0.2216015,0.667555,-0.4199299999999999,0.1781285,0.470317,-0.207683,0.3067085,0.631955,-0.39829,-0.1825314999999999,0.8830150000000001,-0.54245,0.2756085,0.8737349999999999,-0.54137,-0.0855345,0.001425,-0.0026899999999999,0.0855345,-0.001425,0.0026899999999999,-0.2070115,-0.122695,-0.33526,0.1868085,-0.132785,-0.33463,-0.1695415,-0.463135,-0.1188449999999999,0.1269485,-0.4655149999999999,-0.0974559999999999,1
68,0.0161095,0.65629,-0.243005,-0.1311095,0.468617,-0.228682,-0.2211894999999999,0.66201,-0.429165,0.1784905,0.467046,-0.213038,0.3069305,0.62473,-0.405585,-0.1820395,0.8752800000000001,-0.554125,0.2758305,0.86574,-0.552505,-0.0856555,0.00134,-0.002955,0.0856555,-0.00134,0.0029549999999999,-0.2083095,-0.11242,-0.339335,0.1881605,-0.1219399999999999,-0.338625,-0.1689594999999999,-0.45276,-0.123038,0.1268505,-0.45493,-0.101243,1
69,0.0166135,0.653845,-0.24967,-0.1300365,0.4647139999999999,-0.233576,-0.2208564999999999,0.655635,-0.43795,0.1789835,0.463214,-0.218395,0.3071235,0.618475,-0.41262,-0.1816364999999999,0.868125,-0.56514,0.2761335,0.856875,-0.5633699999999999,-0.0858615,0.0013549999999999,-0.0031899999999999,0.0858615,-0.0013549999999999,0.0031899999999999,-0.2094764999999999,-0.102065,-0.34331,0.1896635,-0.110925,-0.3426,-0.1681865,-0.442345,-0.127166,0.1269235,-0.4442649999999999,-0.1049649999999999,1
70,0.017173,0.65117,-0.255845,-0.12912,0.460005,-0.238062,-0.22064,0.64978,-0.445615,0.17953,0.45897,-0.223656,0.30706,0.61339,-0.419035,-0.18166,0.86479,-0.575545,0.27648,0.8514600000000001,-0.573215,-0.0859719999999999,0.00132,-0.0033749999999999,0.0859719999999999,-0.0013199999999999,0.0033749999999999,-0.21052,-0.0920699999999999,-0.3469649999999999,0.19116,-0.10038,-0.346085,-0.16735,-0.43221,-0.131001,0.12716,-0.4339799999999999,-0.108548,1
71,0.017813,0.647775,-0.2601949999999999,-0.128272,0.4569809999999999,-0.2406789999999999,-0.220752,0.643795,-0.450915,0.180138,0.456935,-0.2271159999999999,0.306718,0.608425,-0.423915,-0.181902,0.859885,-0.583865,0.276728,0.845245,-0.580785,-0.086042,0.0011449999999999,-0.0035149999999999,0.086042,-0.001145,0.003515,-0.211182,-0.084955,-0.349255,0.192378,-0.0926949999999999,-0.3481149999999999,-0.166532,-0.424875,-0.1336139999999999,0.127498,-0.426685,-0.1108869999999999,1
72,0.018613,0.6453249999999999,-0.26442,-0.1272589999999999,0.4542119999999999,-0.243382,-0.220709,0.639405,-0.45568,0.180981,0.4549809999999999,-0.230588,0.306631,0.604775,-0.42872,-0.181829,0.855985,-0.59168,0.277091,0.839595,-0.58822,-0.086176,0.0010449999999999,-0.00361,0.086176,-0.001045,0.00361,-0.2115189999999999,-0.077575,-0.35153,0.193651,-0.084575,-0.35019,-0.165539,-0.417355,-0.136313,0.128121,-0.4190750000000001,-0.11331,1
73,0.0194924999999999,0.6428449999999999,-0.26765,-0.1262315,0.4516189999999999,-0.245492,-0.2204715,0.634755,-0.45941,0.1820185,0.4538869999999999,-0.233174,0.3063285,0.600695,-0.43267,-0.1813515,0.8523449999999999,-0.5983,0.2771785,0.8337249999999999,-0.59459,-0.0862985,0.0010049999999999,-0.00367,0.0862985,-0.001005,0.00367,-0.2117315,-0.0711750000000001,-0.35317,0.1950385,-0.077345,-0.35162,-0.1642615,-0.410785,-0.138389,0.1290085,-0.412285,-0.115272,1
74,0.0202199999999999,0.6406350000000001,-0.270215,-0.125124,0.449974,-0.246915,-0.220214,0.630925,-0.462485,0.182836,0.453245,-0.235333,0.305756,0.597175,-0.436025,-0.180534,0.849885,-0.6039650000000001,0.277206,0.830265,-0.599985,-0.086501,0.000975,-0.003725,0.086501,-0.000975,0.0037249999999999,-0.211804,-0.0658849999999999,-0.354465,0.1964159999999999,-0.0712749999999999,-0.352655,-0.162894,-0.405095,-0.140025,0.129966,-0.406655,-0.11681,1
75,0.0208305,0.6388550000000001,-0.272175,-0.1240805,0.44813,-0.2481539999999999,-0.2200605,0.6274350000000001,-0.464785,0.1835995,0.452245,-0.23718,0.3055795,0.595645,-0.439055,-0.1798205,0.8474250000000001,-0.608815,0.2770995,0.8269650000000001,-0.604965,-0.0866955,0.000995,-0.003775,0.0866955,-0.0009949999999999,0.003775,-0.2119005,-0.0613849999999999,-0.355525,0.1976395,-0.0660449999999999,-0.353435,-0.1616005,-0.4002249999999999,-0.141336,0.1308595,-0.401795,-0.1181339999999999,1
76,0.0212289999999999,0.637455,-0.273675,-0.123224,0.446831,-0.2490619999999999,-0.219994,0.624805,-0.466595,0.184406,0.451173,-0.2387929999999999,0.305196,0.593555,-0.441785,-0.179254,0.845845,-0.612575,0.276906,0.8230649999999999,-0.609205,-0.086814,0.000985,-0.0038449999999999,0.086814,-0.000985,0.003845,-0.212064,-0.0580449999999999,-0.3564549999999999,0.198576,-0.061905,-0.353965,-0.160464,-0.396565,-0.1425169999999999,0.131596,-0.398095,-0.1192849999999999,1
77,0.0216455,0.6365200000000001,-0.2748199999999999,-0.1226725,0.446677,-0.2498889999999999,-0.2201125,0.62337,-0.4681599999999999,0.1849475,0.450729,-0.239979,0.3048975,0.59287,-0.4440099999999999,-0.1787125,0.84466,-0.61539,0.2765775,0.8208200000000001,-0.6121399999999999,-0.0868655,0.00108,-0.0038099999999999,0.0868655,-0.0010799999999999,0.00381,-0.2120425,-0.05567,-0.35707,0.1993075,-0.0591599999999999,-0.35436,-0.1595325,-0.3940899999999999,-0.143501,0.1322374999999999,-0.3955499999999999,-0.1203179999999999,1
78,0.022021,0.63578,-0.27585,-0.122307,0.4464869999999999,-0.250605,-0.2200669999999999,0.62341,-0.46927,0.185363,0.450438,-0.241016,0.304453,0.59267,-0.4459,-0.178247,0.84381,-0.61756,0.276163,0.82005,-0.61439,-0.0868839999999999,0.0011299999999999,-0.00379,0.0868839999999999,-0.00113,0.0037899999999999,-0.212037,-0.0537199999999999,-0.35747,0.199923,-0.05696,-0.3547099999999999,-0.158757,-0.39218,-0.144318,0.132753,-0.39355,-0.121289,1
79,0.022316,0.63539,-0.27683,-0.121957,0.446328,-0.251191,-0.220047,0.62337,-0.4702699999999999,0.185773,0.45003,-0.241982,0.303873,0.59245,-0.44742,-0.177827,0.84306,-0.61907,0.275583,0.8193600000000001,-0.61619,-0.086872,0.00124,-0.00375,0.086872,-0.0012399999999999,0.00375,-0.211897,-0.0526699999999999,-0.35769,0.200493,-0.0556799999999999,-0.35497,-0.158017,-0.3912099999999999,-0.14508,0.133263,-0.3923299999999999,-0.12219,1
80,0.022454,0.63575,-0.27744,-0.1217319999999999,0.446561,-0.251841,-0.2199519999999999,0.62303,-0.47108,0.186088,0.4497409999999999,-0.242788,0.303208,0.59224,-0.44841,-0.177582,0.8426199999999999,-0.62015,0.274788,0.81873,-0.61754,-0.086838,0.0013399999999999,-0.0037999999999999,0.086838,-0.00134,0.0037999999999999,-0.211712,-0.0524299999999999,-0.35784,0.200928,-0.05525,-0.35507,-0.157352,-0.39109,-0.145757,0.133798,-0.3919,-0.1230189999999999,1
81,0.022365,0.63575,-0.277865,-0.121558,0.446561,-0.25234,-0.219988,0.62303,-0.471975,0.186332,0.4497409999999999,-0.243386,0.302462,0.59224,-0.449095,-0.177518,0.8426199999999999,-0.620835,0.273862,0.81873,-0.618455,-0.086775,0.0013399999999999,-0.0038749999999999,0.086775,-0.00134,0.0038749999999999,-0.211368,-0.05256,-0.358005,0.201222,-0.0552099999999999,-0.354975,-0.156768,-0.39136,-0.1462709999999999,0.134252,-0.3919,-0.123705,1
82,0.022087,0.63575,-0.27816,-0.121418,0.446561,-0.252952,-0.220228,0.62303,-0.47275,0.186462,0.4497409999999999,-0.243859,0.301842,0.59224,-0.44977,-0.177688,0.8426199999999999,-0.6214999999999999,0.272722,0.81873,-0.61914,-0.086806,0.0013399999999999,-0.00392,0.086806,-0.00134,0.00392,-0.211028,-0.05256,-0.35805,0.201342,-0.05514,-0.35483,-0.156398,-0.39139,-0.146855,0.134642,-0.3919,-0.124428,1
83,0.0216824999999999,0.63575,-0.27849,-0.1213134999999999,0.446561,-0.253598,-0.2204735,0.62303,-0.47359,0.1866465,0.4497409999999999,-0.244338,0.3013564999999999,0.59224,-0.45029,-0.1780035,0.8426199999999999,-0.6222000000000001,0.2716564999999999,0.81873,-0.61987,-0.0868174999999999,0.0013399999999999,-0.00398,0.0868174999999999,-0.00134,0.0039799999999999,-0.2106434999999999,-0.05256,-0.35809,0.2014465,-0.0549899999999999,-0.35463,-0.1559735,-0.39139,-0.147455,0.1350365,-0.39181,-0.125067,1
84,0.0210509999999999,0.63556,-0.2784999999999999,-0.121843,0.447556,-0.253897,-0.221493,0.6222799999999999,-0.47416,0.1865669999999999,0.450234,-0.244249,0.300787,0.59136,-0.45043,-0.178563,0.8413900000000001,-0.62288,0.270597,0.8174399999999999,-0.62056,-0.0867749999999999,0.00139,-0.004,0.0867749999999999,-0.00139,0.004,-0.210313,-0.05396,-0.35779,0.201347,-0.0562599999999999,-0.35416,-0.155593,-0.39279,-0.148032,0.135397,-0.39308,-0.125638,1
85,0.020105,0.63581,-0.2779749999999999,-0.1226679999999999,0.448405,-0.253737,-0.2227779999999999,0.62231,-0.474195,0.1858119999999999,0.450696,-0.243533,0.300222,0.59083,-0.450225,-0.179578,0.84003,-0.623075,0.269462,0.81688,-0.620535,-0.086933,0.00128,-0.0039949999999999,0.086933,-0.00128,0.0039949999999999,-0.2100179999999999,-0.0572199999999999,-0.357095,0.200892,-0.0593299999999999,-0.353085,-0.155418,-0.39599,-0.148198,0.1355819999999999,-0.39619,-0.125772,1
86,0.0192449999999999,0.636685,-0.27725,-0.123634,0.449604,-0.253519,-0.224024,0.622625,-0.47407,0.1850159999999999,0.451181,-0.242722,0.2997559999999999,0.590365,-0.45007,-0.180834,0.840085,-0.6233,0.268796,0.816005,-0.62059,-0.087042,0.0013349999999999,-0.00398,0.087042,-0.0013349999999999,0.0039799999999999,-0.209424,-0.061855,-0.3560999999999999,0.2003059999999999,-0.063935,-0.35169,-0.155294,-0.400765,-0.148331,0.135756,-0.4008449999999999,-0.125904,1
87,0.018397,0.6377,-0.276385,-0.12483,0.451371,-0.253068,-0.2254,0.6231599999999999,-0.473765,0.18407,0.451905,-0.241681,0.29938,0.5901000000000001,-0.449365,-0.18239,0.8391,-0.623335,0.2682,0.81541,-0.620265,-0.087134,0.00141,-0.0039849999999999,0.087134,-0.00141,0.0039849999999999,-0.20849,-0.0675,-0.354595,0.19954,-0.06984,-0.349925,-0.15529,-0.40693,-0.148331,0.13582,-0.40684,-0.125824,1
88,0.0177389999999999,0.63838,-0.27618,-0.12623,0.452057,-0.252602,-0.22694,0.6230100000000001,-0.47345,0.18318,0.451527,-0.240522,0.29923,0.59072,-0.44863,-0.18438,0.8383700000000001,-0.6234,0.26806,0.8140499999999999,-0.6199399999999999,-0.087186,0.00136,-0.00398,0.087186,-0.0013599999999999,0.0039799999999999,-0.20732,-0.0757099999999999,-0.35286,0.1984,-0.0784899999999999,-0.34779,-0.1553999999999999,-0.41591,-0.148343,0.1357999999999999,-0.41564,-0.125752,1
89,0.0175865,0.6402300000000001,-0.276185,-0.1274005,0.452311,-0.252098,-0.2283105,0.6236,-0.473085,0.1825395,0.450791,-0.239352,0.2992495,0.59133,-0.4479149999999999,-0.1863004999999999,0.83829,-0.623665,0.2680895,0.81412,-0.619575,-0.0871615,0.00136,-0.0039849999999999,0.0871615,-0.0013599999999999,0.0039849999999999,-0.2057505,-0.08399,-0.351125,0.1973995,-0.08736,-0.345705,-0.1553405,-0.4252399999999999,-0.148336,0.1360495,-0.42467,-0.125704,1
90,0.017528,0.6415000000000001,-0.275775,-0.128574,0.454557,-0.250992,-0.229764,0.62422,-0.472175,0.181956,0.452891,-0.237791,0.2992059999999999,0.59075,-0.446685,-0.188384,0.8373900000000001,-0.6235850000000001,0.268076,0.8135000000000001,-0.619165,-0.087167,0.00131,-0.0038549999999999,0.087167,-0.0013099999999999,0.0038549999999999,-0.203874,-0.0940099999999999,-0.348765,0.196286,-0.0979599999999999,-0.343165,-0.155334,-0.4365799999999999,-0.147917,0.136266,-0.43592,-0.125268,1
91,0.0174415,0.6434099999999999,-0.27479,-0.1297505,0.457997,-0.2491399999999999,-0.2313605,0.62619,-0.4705499999999999,0.1817995,0.4542619999999999,-0.236219,0.2995295,0.59172,-0.44467,-0.1906305,0.83805,-0.62302,0.2682495,0.81359,-0.61818,-0.0872265,0.0013799999999999,-0.0037399999999999,0.0872265,-0.00138,0.0037399999999999,-0.2014905,-0.1056,-0.34564,0.1949195,-0.11053,-0.3397099999999999,-0.1554005,-0.45028,-0.1469309999999999,0.1364294999999999,-0.44959,-0.124277,1
92,0.0171965,0.645325,-0.273625,-0.1310395,0.461154,-0.246851,-0.2329095,0.628495,-0.468465,0.1814605,0.455847,-0.234408,0.3000204999999999,0.5926750000000001,-0.442505,-0.1927195,0.839575,-0.622035,0.2687505,0.813705,-0.6168549999999999,-0.0872435,0.001495,-0.003705,0.0872435,-0.0014949999999999,0.0037049999999999,-0.1990395,-0.1180649999999999,-0.342065,0.1932605,-0.1236849999999999,-0.335755,-0.1556195,-0.465035,-0.145635,0.1363605,-0.4643649999999999,-0.122958,1
93,0.0168669999999999,0.647705,-0.272685,-0.131654,0.462765,-0.244696,-0.233514,0.631085,-0.466105,0.181116,0.45578,-0.232958,0.300776,0.5946250000000001,-0.440745,-0.194674,0.841445,-0.620745,0.269656,0.814895,-0.615515,-0.087269,0.001575,-0.003645,0.087269,-0.0015749999999999,0.003645,-0.196334,-0.1301049999999999,-0.338365,0.191376,-0.1364649999999999,-0.331595,-0.155974,-0.480795,-0.144239,0.136206,-0.4801249999999999,-0.121557,1
94,0.016659,0.649965,-0.2717,-0.1322479999999999,0.465715,-0.242215,-0.234078,0.633705,-0.46309,0.180582,0.458955,-0.231033,0.3014819999999999,0.596395,-0.4381899999999999,-0.1962979999999999,0.844045,-0.61886,0.270662,0.8165850000000001,-0.61387,-0.087187,0.001715,-0.00358,0.087187,-0.0017149999999999,0.00358,-0.1934679999999999,-0.1422149999999999,-0.33375,0.189102,-0.1494249999999999,-0.32669,-0.156518,-0.4973349999999999,-0.142373,0.136092,-0.4966649999999999,-0.11969,1
95,0.0164254999999999,0.65187,-0.27081,-0.1332285,0.46811,-0.239691,-0.2350785,0.63558,-0.46002,0.1796115,0.46084,-0.228923,0.3019115,0.59882,-0.4357,-0.1978585,0.84511,-0.61697,0.2716115,0.8179799999999999,-0.61193,-0.0870104999999999,0.00168,-0.0034599999999999,0.0870104999999999,-0.00168,0.00346,-0.1907985,-0.15408,-0.3286099999999999,0.1862115,-0.16227,-0.3212899999999999,-0.1574984999999999,-0.51427,-0.140264,0.1355915,-0.51362,-0.1175659999999999,1
96,0.016651,0.65434,-0.26958,-0.134216,0.47005,-0.237381,-0.236006,0.63802,-0.4571,0.178904,0.46206,-0.226734,0.302484,0.6008800000000001,-0.43334,-0.199106,0.8466,-0.61511,0.2729439999999999,0.8200500000000001,-0.60982,-0.086838,0.00174,-0.00329,0.086838,-0.0017399999999999,0.0032899999999999,-0.188046,-0.16623,-0.32299,0.183234,-0.17517,-0.31538,-0.159206,-0.53153,-0.140066,0.136414,-0.53206,-0.119283,1
97,0.0170535,0.657005,-0.268415,-0.1351995,0.4732849999999999,-0.234931,-0.2369994999999999,0.640905,-0.454185,0.1789605,0.4644649999999999,-0.224791,0.3032305,0.601615,-0.431245,-0.2000695,0.848405,-0.613235,0.2745805,0.822035,-0.607425,-0.0865755,0.0018849999999999,-0.003275,0.0865755,-0.001885,0.003275,-0.1851495,-0.177355,-0.316875,0.1803705,-0.186555,-0.309095,-0.1608895,-0.5477150000000001,-0.139847,0.1373205,-0.549355,-0.120993,1
98,0.0174425,0.65926,-0.266905,-0.1360575,0.4771499999999999,-0.232264,-0.2378575,0.64324,-0.451245,0.1791025,0.4673799999999999,-0.2226469999999999,0.3043524999999999,0.60286,-0.428875,-0.2011375,0.85014,-0.611065,0.2759925,0.8232499999999999,-0.604825,-0.0861925,0.0020299999999999,-0.0032049999999999,0.0861925,-0.00203,0.003205,-0.1821374999999999,-0.1896,-0.309735,0.1774125,-0.19892,-0.301895,-0.1627275,-0.5652400000000001,-0.139418,0.1380925,-0.5674100000000001,-0.122331,1
99,0.017992,0.6628350000000001,-0.265075,-0.136604,0.479645,-0.229635,-0.238404,0.647025,-0.448445,0.179626,0.4686249999999999,-0.220831,0.305916,0.606575,-0.426685,-0.2022439999999999,0.852625,-0.608895,0.277376,0.825585,-0.602105,-0.085864,0.0022449999999999,-0.003175,0.085864,-0.0022449999999999,0.0031749999999999,-0.1792039999999999,-0.201425,-0.301845,0.174426,-0.211005,-0.293955,-0.1646639999999999,-0.582565,-0.138772,0.138836,-0.5848249999999999,-0.123509,1
100,0.0183879999999999,0.6663049999999999,-0.26266,-0.1369,0.481345,-0.227223,-0.23887,0.6496649999999999,-0.44571,0.1800999999999999,0.470305,-0.219378,0.30687,0.6083149999999999,-0.42436,-0.20302,0.856595,-0.60652,0.27807,0.828475,-0.59968,-0.085521,0.002555,-0.00311,0.085521,-0.002555,0.0031099999999999,-0.17659,-0.212365,-0.29359,0.17174,-0.221825,-0.28604,-0.16664,-0.598745,-0.138664,0.13965,-0.601115,-0.124871,1
101,0.0186785,0.66989,-0.26003,-0.1372475,0.48403,-0.224487,-0.2393374999999999,0.65306,-0.4425099999999999,0.1808525,0.47292,-0.217869,0.3075624999999999,0.61053,-0.42162,-0.2035975,0.8590599999999999,-0.60387,0.2789625,0.8325499999999999,-0.59684,-0.0852125,0.00264,-0.00278,0.0852125,-0.00264,0.00278,-0.1739575,-0.22335,-0.28426,0.1690525,-0.23307,-0.27715,-0.1686975,-0.61527,-0.137944,0.1404024999999999,-0.61795,-0.124935,1
102,0.018215,0.6731,-0.256515,-0.1381379999999999,0.48687,-0.221247,-0.2409079999999999,0.65584,-0.4383749999999999,0.181272,0.4763,-0.215455,0.3077519999999999,0.61348,-0.418215,-0.204508,0.86195,-0.600275,0.279182,0.83545,-0.593235,-0.084879,0.00262,-0.002445,0.084879,-0.0026199999999999,0.002445,-0.1720479999999999,-0.2350299999999999,-0.273215,0.166102,-0.2449299999999999,-0.266685,-0.1707779999999999,-0.63207,-0.13511,0.140132,-0.63536,-0.1228559999999999,1
103,0.0173965,0.67545,-0.251795,-0.1390355,0.4891,-0.2178749999999999,-0.2426855,0.65886,-0.434065,0.1814144999999999,0.47701,-0.211634,0.3060945,0.61812,-0.414425,-0.2054155,0.86554,-0.596005,0.2792445,0.8387899999999999,-0.588785,-0.0846115,0.0028099999999999,-0.0022049999999999,0.0846115,-0.00281,0.002205,-0.1706055,-0.24635,-0.261345,0.1632644999999999,-0.25633,-0.2556049999999999,-0.1727155,-0.6483399999999999,-0.131297,0.1394244999999999,-0.6520900000000001,-0.1199739999999999,1
104,0.0173049999999999,0.675035,-0.2456249999999999,-0.139003,0.492225,-0.2135119999999999,-0.243483,0.663085,-0.428585,0.182437,0.476985,-0.207481,0.306527,0.624015,-0.409425,-0.205563,0.869375,-0.589075,0.280047,0.846085,-0.5816749999999999,-0.0839179999999999,0.003165,-0.0020449999999999,0.0839179999999999,-0.003165,0.0020449999999999,-0.167873,-0.258185,-0.247105,0.161467,-0.268355,-0.2419049999999999,-0.173563,-0.6646449999999999,-0.126377,0.139587,-0.6696549999999999,-0.115073,1
105,0.0165469999999999,0.672705,-0.2357099999999999,-0.139316,0.496085,-0.2090169999999999,-0.243196,0.666945,-0.4232399999999999,0.183204,0.477425,-0.203341,0.306794,0.629875,-0.4040399999999999,-0.205936,0.873265,-0.58129,0.2800939999999999,0.8540249999999999,-0.57314,-0.08369,0.0031049999999999,-0.0020099999999999,0.08369,-0.0031049999999999,0.00201,-0.165296,-0.2701449999999999,-0.2324399999999999,0.158794,-0.280525,-0.2268279999999999,-0.174556,-0.680705,-0.1213739999999999,0.138594,-0.687065,-0.1101379999999999,1
106,0.0154025,0.6733750000000001,-0.226245,-0.1406085,0.5006649999999999,-0.204302,-0.2436585,0.672655,-0.417425,0.1825915,0.481875,-0.199353,0.3063415,0.6369750000000001,-0.398645,-0.2069985,0.8805350000000001,-0.5725750000000001,0.2795815,0.863065,-0.562945,-0.0836585,0.003195,-0.001755,0.0836585,-0.003195,0.0017549999999999,-0.1628885,-0.287045,-0.216786,0.1556114999999999,-0.296745,-0.211533,-0.1758185,-0.6949350000000001,-0.11658,0.1373015,-0.702475,-0.105403,1
107,0.0140749999999999,0.67133,-0.213102,-0.14177,0.50387,-0.196577,-0.24441,0.6778,-0.40874,0.18184,0.48529,-0.192207,0.30567,0.6455299999999999,-0.3899399999999999,-0.2082999999999999,0.88671,-0.56024,0.27893,0.87287,-0.54977,-0.083705,0.0035,-0.0012399999999999,0.083705,-0.0034999999999999,0.00124,-0.16032,-0.3040699999999999,-0.197475,0.1523399999999999,-0.3135599999999999,-0.192319,-0.17663,-0.7097100000000001,-0.107914,0.1361299999999999,-0.7181500000000001,-0.097259,1
108,0.0127525,0.6693245,-0.195923,-0.1429135,0.5061145,-0.185277,-0.2452835,0.6836245,-0.39461,0.1807065,0.4866845,-0.181346,0.3044565,0.6526945,-0.37635,-0.2096135,0.8935744999999999,-0.54348,0.2778565,0.8827345,-0.53192,-0.0836925,0.0038055,-0.0011199999999999,0.0836925,-0.0038055,0.00112,-0.1575035,-0.3201454999999999,-0.174346,0.1484764999999999,-0.3293155,-0.168845,-0.1764035,-0.7230755000000001,-0.092902,0.1339765,-0.7291855,-0.080661,1
109,0.0116115,0.6724110000000001,-0.1760499999999999,-0.1442014999999999,0.510301,-0.17117,-0.2463115,0.687351,-0.377498,0.1797485,0.490541,-0.167434,0.3034285,0.659381,-0.360128,-0.2107715,0.896061,-0.5231979999999999,0.2768085,0.889301,-0.510378,-0.0836345,0.003081,-0.000265,0.0836345,-0.003081,0.000265,-0.1539215,-0.337579,-0.146546,0.1434285,-0.346349,-0.140664,-0.1760914999999999,-0.7378589999999999,-0.0753139999999999,0.1320485,-0.741759,-0.061474,1
110,0.0104985,0.6755665,-0.1564295,-0.1456045,0.5137765000000001,-0.1568925,-0.2475645,0.6914365,-0.3598225,0.1789455,0.4933165,-0.1534685,0.3023754999999999,0.6663765,-0.3431825,-0.2118145,0.9001365,-0.5013025,0.2758155,0.8953565,-0.4874925,-0.0836125,0.0026764999999999,0.0001495,0.0836125,-0.0026764999999999,-0.0001494999999999,-0.1505345,-0.3539635,-0.1195634999999999,0.1385155,-0.3615835,-0.1132405,-0.1755945,-0.7514635,-0.0576135,0.1301555,-0.7531435,-0.0423334999999999,1
111,0.0090835,0.6797059999999999,-0.1369505,-0.1467275,0.517566,-0.1425685,-0.2489075,0.6966659999999999,-0.3413615,0.1783625,0.496096,-0.1398935,0.3007625,0.673136,-0.3254815,-0.2127875,0.905406,-0.4780315,0.2750625,0.903096,-0.4637515,-0.0835964999999999,0.002478,0.0005035,0.0835964999999999,-0.002478,-0.0005034999999999,-0.1471575,-0.369264,-0.0932395,0.1337725,-0.374994,-0.0862675,-0.1748375,-0.7635240000000001,-0.0403865,0.1285525,-0.7632140000000001,-0.0237865,1
112,0.0074674999999999,0.6847829999999999,-0.118518,-0.1482855,0.520743,-0.1280609999999999,-0.2503655,0.7018530000000001,-0.322214,0.1776845,0.498473,-0.1259009999999999,0.2991645,0.679343,-0.307324,-0.2141355,0.910443,-0.453364,0.2745445,0.910373,-0.439094,-0.0836125,0.0021239999999999,0.001041,0.0836125,-0.002124,-0.001041,-0.1437955,-0.384477,-0.067634,0.1291044999999999,-0.388187,-0.059164,-0.1738755,-0.774497,-0.023203,0.1268045,-0.772457,-0.0052159999999999,1
113,0.0056275,0.6928974999999999,-0.1000995,-0.1498485,0.5232175,-0.1143115,-0.2521285,0.7073174999999999,-0.3031545,0.1765614999999999,0.5031875,-0.1122755,0.2976215,0.6846774999999999,-0.2889645,-0.2157184999999999,0.9160475,-0.4292745,0.2739315,0.9152875,-0.4153145,-0.0836285,0.0016405,0.0015584999999999,0.0836285,-0.0016405,-0.0015585,-0.1412185,-0.3973525,-0.0448685,0.1246915,-0.3991125,-0.0344595,-0.1729585,-0.7832625000000001,-0.0068585,0.1251215,-0.7794825000000001,0.0115914999999999,1
114,0.00448,0.702308,-0.0835465,-0.151189,0.525088,-0.0999365,-0.253549,0.712538,-0.2832485,0.175761,0.507998,-0.0980205,0.296391,0.690308,-0.2695485,-0.217029,0.922468,-0.4044585,0.273771,0.919518,-0.3908585,-0.083498,0.001428,0.0022264999999999,0.083498,-0.0014279999999999,-0.0022264999999999,-0.138589,-0.409422,-0.0232635,0.121671,-0.409222,-0.0111945,-0.1719989999999999,-0.790332,0.0085645,0.124421,-0.785002,0.0273525,1
115,0.0031554999999999,0.7089354999999999,-0.0667555,-0.1528495,0.5260454999999999,-0.0848735,-0.2549395,0.7163754999999999,-0.2628265,0.1745705,0.5088855,-0.0831005,0.2955805,0.6949655,-0.2500865,-0.2186895,0.9255755,-0.3792465,0.2734505,0.9237955,-0.3666765,-0.0833115,0.0011424999999999,0.0026705,0.0833115,-0.0011425,-0.0026705,-0.1367195,-0.4220145,-0.0035234999999999,0.1188905,-0.4196845,0.0110835,-0.1714395,-0.7973845,0.0235275,0.1236905,-0.7911045,0.0429035,1
116,0.0019439999999999,0.7152955,-0.052375,-0.154415,0.5281855,-0.072492,-0.256295,0.7207454999999999,-0.24457,0.173705,0.5110155,-0.070793,0.295055,0.6976154999999999,-0.23308,-0.220385,0.9295555,-0.35679,0.273315,0.9267755,-0.34455,-0.083056,0.0006375,0.002753,0.083056,-0.0006375,-0.002753,-0.1351649999999999,-0.4343045,0.011582,0.116575,-0.4296045,0.028679,-0.171155,-0.8028845,0.034487,0.123245,-0.7953945,0.054085,1
117,0.0007885,0.725029,-0.0417625,-0.1558445,0.530709,-0.0638435,-0.2573244999999999,0.723279,-0.2312705,0.1730155,0.5142289999999999,-0.0622225,0.2948855,0.700219,-0.2202305,-0.2221245,0.933589,-0.3380805,0.2733455,0.929669,-0.3265205,-0.0827745,0.0001429999999999,0.0030825,0.0827745,-0.000143,-0.0030825,-0.1340644999999999,-0.445991,0.0214955,0.1149955,-0.438881,0.0408375,-0.1708545,-0.807551,0.0413455,0.1234555,-0.799461,0.0609055,1
118,-0.0003464999999999,0.7271000000000001,-0.0334235,-0.1565315,0.53136,-0.0576725,-0.2581715,0.7277600000000001,-0.2205425,0.1732785,0.51576,-0.0578655,0.2952984999999999,0.7037100000000001,-0.2102525,-0.2238514999999999,0.9397,-0.3220825,0.2734485,0.93485,-0.3116525,-0.0824995,0.0004279999999999,0.0027264999999999,0.0824995,-0.0004279999999999,-0.0027264999999999,-0.1337215,-0.44815,0.0254895,0.1148385,-0.44043,0.0473875,-0.1705114999999999,-0.80934,0.0455545,0.1237385,-0.8006599999999999,0.0650275,1
119,-0.0016429999999999,0.728904,-0.0250335,-0.157663,0.532094,-0.0517195,-0.259623,0.730924,-0.2105705,0.173117,0.517404,-0.0517684999999999,0.2949569999999999,0.706314,-0.1997505,-0.225903,0.944724,-0.3076105,0.273317,0.939264,-0.2980905,-0.082596,0.0005419999999999,0.0026635,0.082596,-0.000542,-0.0026635,-0.133733,-0.449916,0.0290815,0.114407,-0.441646,0.0530765,-0.170533,-0.810586,0.0493245,0.123667,-0.801646,0.0687495,1
120,-0.0025899999999999,0.7301035,-0.0173089999999999,-0.158611,0.5326735,-0.0462709999999999,-0.261721,0.7332235,-0.201351,0.172989,0.5189435,-0.0459919999999999,0.294839,0.7079035,-0.190191,-0.227881,0.9483135,-0.294961,0.273629,0.9425635,-0.285871,-0.082425,0.0006145,0.00266,0.082425,-0.0006145,-0.0026599999999999,-0.133651,-0.4509465,0.032221,0.114259,-0.4426565,0.057315,-0.170561,-0.8114865,0.052612,0.123789,-0.8030465,0.072001,1
121,-0.003196,0.7311315,-0.0097825,-0.159274,0.5332315000000001,-0.0415134999999999,-0.263484,0.7346315,-0.1932225,0.173106,0.5202915,-0.0409655,0.294946,0.7087915,-0.1816424999999999,-0.229584,0.9508315,-0.2841025,0.274096,0.9449915,-0.2753025,-0.08223,0.0006715,0.0025575,0.08223,-0.0006715,-0.0025575,-0.133554,-0.4516185,0.0347835,0.114436,-0.4432185,0.0600674999999999,-0.170374,-0.8120685,0.0553525,0.124036,-0.8040784999999999,0.0746825,1
122,-0.0037105,0.7318005,-0.0033019999999999,-0.1602215,0.5338005,-0.036579,-0.2650315,0.7350504999999999,-0.186367,0.1731985,0.5213805,-0.036197,0.2950785,0.7090405,-0.174287,-0.2309615,0.9528205,-0.275427,0.2746085,0.9465305,-0.266337,-0.0820615,0.0007125,0.0025239999999999,0.0820615,-0.0007124999999999,-0.0025239999999999,-0.1334615,-0.4522095,0.036643,0.1145785,-0.4438695,0.062277,-0.1701915,-0.8125895,0.057601,0.1242784999999999,-0.8050195,0.076903,1
123,-0.0041509999999999,0.7323355,0.0023404999999999,-0.1610059999999999,0.5339955,-0.0323845,-0.266436,0.7352455,-0.1807185,0.173284,0.5222654999999999,-0.0319685,0.295234,0.7091755,-0.1682585,-0.232186,0.9545355,-0.2685384999999999,0.275314,0.9473555,-0.2590285,-0.081933,0.0007625,0.0024075,0.081933,-0.0007624999999999,-0.0024075,-0.133376,-0.4526745,0.0369575,0.114674,-0.4444845,0.0638985,-0.170066,-0.8130345,0.0592604999999999,0.124484,-0.8056345,0.0785445,1
124,-0.0045955,0.7328405,0.0072795,-0.1618015,0.5341805,-0.0288215,-0.2678014999999999,0.7352504999999999,-0.1759105,0.1733084999999999,0.5230505,-0.0283355,0.2955585,0.7092404999999999,-0.1630305,-0.2331915,0.9555105,-0.2634005,0.2757485,0.9477805,-0.2533205,-0.0818325,0.0007795,0.0023824999999999,0.0818325,-0.0007794999999999,-0.0023824999999999,-0.1333615,-0.4529995,0.0365425,0.1147185,-0.4449995,0.0650075,-0.1700114999999999,-0.8133595,0.0603765,0.1246385,-0.8061295,0.0796785,1
125,-0.0049505,0.7332565,0.0112375,-0.1624905,0.5342764999999999,-0.0257504999999999,-0.2688205,0.7350464999999999,-0.1723345,0.1733695,0.5234765,-0.0252335,0.2957094999999999,0.7090365,-0.1587745,-0.2339105,0.9560665,-0.2595645,0.2759195,0.9478665,-0.2487745,-0.0817605,0.0007755,0.0024365,0.0817605,-0.0007755,-0.0024364999999999,-0.1334005,-0.4532335,0.0358745,0.1147495,-0.4455935,0.0654405,-0.1699405,-0.8136335,0.0612035,0.1247595,-0.8066335,0.0805215,1
126,-0.0052154999999999,0.733506,0.0143539999999999,-0.1631905,0.534446,-0.022667,-0.2696505,0.7348859999999999,-0.169748,0.1734595,0.523766,-0.022651,0.2957795,0.7089059999999999,-0.155488,-0.2344405,0.956006,-0.257028,0.2760095,0.947706,-0.245168,-0.0817215,0.000755,0.002523,0.0817215,-0.0007549999999999,-0.002523,-0.1334505,-0.453444,0.035069,0.1147795,-0.446194,0.065298,-0.1698704999999999,-0.813884,0.061601,0.1248995,-0.8070740000000001,0.080936,1
127,-0.0054455,0.7336750000000001,0.0168824999999999,-0.1637135,0.5344450000000001,-0.0202765,-0.2703335,0.7348750000000001,-0.1677044999999999,0.1735565,0.523895,-0.0204625,0.2958665,0.7088650000000001,-0.1530045,-0.2348235,0.955915,-0.2555845,0.2760964999999999,0.947615,-0.2424945,-0.0817055,0.000746,0.0025414999999999,0.0817055,-0.000746,-0.0025415,-0.1334635,-0.453545,0.0342805,0.1148665,-0.446735,0.0649885,-0.1697835,-0.814105,0.0617265,0.1250664999999999,-0.807425,0.0810805,1
128,-0.0056295,0.7336550000000001,0.0189804999999999,-0.1641845,0.534505,-0.0179555,-0.2708245,0.734885,-0.1658785,0.1736654999999999,0.523965,-0.0184785,0.2960055,0.7089150000000001,-0.1510385,-0.2351045,0.955865,-0.2543185,0.2762255,0.947565,-0.2401485,-0.0816845,0.0007479999999999,0.0025414999999999,0.0816845,-0.000748,-0.0025415,-0.1334245,-0.453495,0.0335535,0.1149355,-0.447315,0.0646684999999999,-0.1696945,-0.814275,0.0617335,0.1252555,-0.8077249999999999,0.0811244999999999,1
129,-0.0057784999999999,0.733618,0.0208885,-0.1646455,0.534558,-0.0155064999999999,-0.2711455,0.734688,-0.1642815,0.1736745,0.523968,-0.0164994999999999,0.2961945,0.708868,-0.1492415,-0.2352255,0.955818,-0.2531215,0.2763945,0.947348,-0.2380015,-0.0816605,0.0007569999999999,0.0025424999999999,0.0816605,-0.000757,-0.0025424999999999,-0.1333655,-0.453482,0.0329895,0.1150245,-0.447882,0.0644565,-0.1695655,-0.814452,0.0617475,0.1254945,-0.808002,0.0811695,1
130,-0.0058804999999999,0.7335725,0.0225445,-0.1651035,0.5345624999999999,-0.0129485,-0.2713735,0.7345125,-0.1627725,0.1736665,0.5239824999999999,-0.0145884999999999,0.2963765,0.7088025,-0.1475925,-0.2352535,0.9552925,-0.2517925,0.2765364999999999,0.9468525,-0.2359925,-0.0816425,0.0007584999999999,0.0025435,0.0816425,-0.0007585,-0.0025435,-0.1332535,-0.4535975,0.0326165,0.1151565,-0.4485174999999999,0.0642785,-0.1694034999999999,-0.8146475000000001,0.0617715,0.1257465,-0.8082975,0.0812145,1
131,-0.0059755,0.733537,0.024056,-0.1652805,0.534577,-0.010999,-0.2715505,0.734347,-0.161283,0.1735695,0.523977,-0.013011,0.2964995,0.708747,-0.146163,-0.2352305,0.954747,-0.250473,0.2765795,0.946367,-0.234273,-0.0816385,0.000753,0.00253,0.0816385,-0.000753,-0.00253,-0.1331204999999999,-0.453653,0.032323,0.1153295,-0.449213,0.0641849999999999,-0.1692305,-0.814863,0.061688,0.1259894999999999,-0.808623,0.081208,1
132,-0.006056,0.7334645,0.025303,-0.165374,0.5346345,-0.009287,-0.2716139999999999,0.7341845,-0.16002,0.173516,0.5239644999999999,-0.011693,0.296616,0.7086945,-0.14499,-0.235094,0.9542845,-0.24934,0.276596,0.9459245,-0.23294,-0.081634,0.0007394999999999,0.002537,0.081634,-0.0007395,-0.002537,-0.1329739999999999,-0.4537055,0.031984,0.115516,-0.4498155,0.063904,-0.1690539999999999,-0.8150755000000001,0.061418,0.1262459999999999,-0.8089455,0.081043,1
133,-0.0060664999999999,0.733338,0.026308,-0.1654564999999999,0.534698,-0.0076619999999999,-0.2715765,0.7340679999999999,-0.159165,0.1734835,0.523938,-0.0104859999999999,0.2967335,0.708688,-0.144175,-0.2348765,0.953878,-0.248275,0.2766135,0.945578,-0.231785,-0.0816295,0.000732,0.002538,0.0816295,-0.000732,-0.0025379999999999,-0.1327865,-0.453772,0.031514,0.1157135,-0.450372,0.0634639999999999,-0.1688464999999999,-0.815312,0.06098,0.1265135,-0.8092820000000001,0.080729,1
134,-0.0059399999999999,0.732945,0.0270325,-0.1658089999999999,0.5347149999999999,-0.0059555,-0.271399,0.733885,-0.1589765,0.173401,0.524035,-0.0095244999999999,0.297011,0.708025,-0.1432365,-0.234449,0.952965,-0.2466964999999999,0.276681,0.944695,-0.2304465,-0.081583,0.0006919999999999,0.0023654999999999,0.081583,-0.0006919999999999,-0.0023654999999999,-0.132419,-0.453985,0.0307665,0.116011,-0.450745,0.0627564999999999,-0.168479,-0.815365,0.0604085,0.127051,-0.809505,0.0798865,1
135,-0.0061019999999999,0.73285,0.0281944999999999,-0.165459,0.53467,-0.0054545,-0.271679,0.7341099999999999,-0.1567925,0.173211,0.52352,-0.0086324999999999,0.2968409999999999,0.70873,-0.1420225,-0.234229,0.95218,-0.2452724999999999,0.2765309999999999,0.94484,-0.2292625,-0.081659,0.000665,0.0023285,0.081659,-0.0006649999999999,-0.0023285,-0.1322189999999999,-0.4538,0.0302134999999999,0.116221,-0.4516199999999999,0.0627845,-0.168329,-0.81562,0.0601344999999999,0.126941,-0.8102,0.0801185,1
136,-0.0062329999999999,0.7329800000000001,0.029384,-0.165201,0.53473,-0.0051459999999999,-0.271391,0.73448,-0.156137,0.173249,0.52363,-0.0074489999999999,0.296929,0.7091000000000001,-0.141867,-0.233771,0.95258,-0.244467,0.276819,0.94471,-0.229047,-0.081638,0.000693,0.002664,0.081638,-0.000693,-0.0026639999999999,-0.131931,-0.45404,0.029526,0.116239,-0.45157,0.061944,-0.168231,-0.8162499999999999,0.059702,0.1274989999999999,-0.8100499999999999,0.07957,1
137,-0.0059314999999999,0.7327724999999999,0.030075,-0.1661495,0.5347124999999999,-0.0025589999999999,-0.2713095,0.7344425,-0.1556799999999999,0.1732604999999999,0.5236525,-0.0060409999999999,0.2969305,0.7090825,-0.1417,-0.2339095,0.9519825,-0.2431999999999999,0.2772205,0.9441525,-0.22825,-0.0816125,0.0006755,0.002696,0.0816125,-0.0006754999999999,-0.0026959999999999,-0.1319195,-0.4545375,0.028929,0.1166005,-0.4520174999999999,0.06139,-0.1680195,-0.8163775000000001,0.059036,0.1277205,-0.8102975,0.079041,1
138,-0.0057524999999999,0.732925,0.030954,-0.1657585,0.534725,-0.0026279999999999,-0.2711685,0.734375,-0.1546529999999999,0.1734115,0.523645,-0.0059619999999999,0.2969615,0.709685,-0.140923,-0.2336385,0.952015,-0.242363,0.2773015,0.944235,-0.227623,-0.0817315,0.0007219999999999,0.002735,0.0817315,-0.000722,-0.002735,-0.1318985,-0.454935,0.028837,0.1167615,-0.453305,0.061534,-0.1680785,-0.816385,0.058406,0.1278115,-0.810935,0.078686,1
139,-0.0056309999999999,0.732683,0.032233,-0.166207,0.5345329999999999,-0.000372,-0.271237,0.733883,-0.153218,0.173423,0.523913,-0.004934,0.296953,0.710143,-0.140238,-0.233647,0.951893,-0.2411179999999999,0.277463,0.944303,-0.225918,-0.081877,0.000733,0.0028639999999999,0.081877,-0.000733,-0.002864,-0.131877,-0.455237,0.0288,0.117093,-0.453717,0.061229,-0.167897,-0.816497,0.058186,0.128043,-0.810637,0.078848,1
140,-0.0055795,0.732398,0.0335375,-0.1660945,0.534408,-0.0005774999999999,-0.2715845,0.7337779999999999,-0.1524845,0.1733055,0.524038,-0.0038855,0.2969655,0.710638,-0.1399345,-0.2337344999999999,0.952018,-0.2398745,0.2774855,0.944848,-0.2249645,-0.0818535,0.000674,0.0027065,0.0818535,-0.000674,-0.0027064999999999,-0.1319245,-0.455612,0.0285885,0.1171355,-0.453632,0.0608825,-0.1679545,-0.816662,0.0578005,0.1281855,-0.810832,0.0783335,1
