sb224sc-HT22-VT27/4dt907/src/data/labeled_files/A13_kinect.csv
FrameNo,nose_3d_x,nose_3d_y,nose_3d_z,left_shoulder_3d_x,left_shoulder_3d_y,left_shoulder_3d_z,left_elbow_3d_x,left_elbow_3d_y,left_elbow_3d_z,right_shoulder_3d_x,right_shoulder_3d_y,right_shoulder_3d_z,right_elbow_3d_x,right_elbow_3d_y,right_elbow_3d_z,left_wrist_3d_x,left_wrist_3d_y,left_wrist_3d_z,right_wrist_3d_x,right_wrist_3d_y,right_wrist_3d_z,left_hip_3d_x,left_hip_3d_y,left_hip_3d_z,right_hip_3d_x,right_hip_3d_y,right_hip_3d_z,left_knee_3d_x,left_knee_3d_y,left_knee_3d_z,right_knee_3d_x,right_knee_3d_y,right_knee_3d_z,left_ankle_3d_x,left_ankle_3d_y,left_ankle_3d_z,right_ankle_3d_x,right_ankle_3d_y,right_ankle_3d_z,activity_label
0,-0.0035324999999999,0.712734,0.038467,-0.1743664999999999,0.486474,0.0715379999999999,-0.3613265,0.629724,0.094203,0.1539734999999999,0.502764,0.068521,0.3161535,0.685144,0.081747,-0.4008164999999999,0.829364,0.035414,0.3313235,0.904704,0.056825,-0.0713685,0.001127,0.0011229999999999,0.0713685,-0.0011269999999999,-0.0011229999999999,-0.1240165,-0.399286,-0.011512,0.1147835,-0.448076,0.0153629999999999,-0.1237264999999999,-0.7839160000000001,-0.002427,0.1287335,-0.793416,-0.010936,0
1,-0.00344,0.712889,0.038551,-0.174227,0.486359,0.069647,-0.3610069999999999,0.630029,0.09404,0.154163,0.502899,0.068586,0.316403,0.685179,0.081549,-0.4001869999999999,0.829599,0.034695,0.329043,0.922529,0.05368,-0.071336,0.001101,0.0010889999999999,0.071336,-0.001101,-0.0010889999999999,-0.123927,-0.399311,-0.0114739999999999,0.114883,-0.448141,0.01532,-0.123687,-0.785431,-0.0039809999999999,0.128873,-0.793411,-0.0109179999999999,0
2,-0.003431,0.7133109999999999,0.0389425,-0.173875,0.486151,0.0677595,-0.361035,0.631111,0.0929095,0.154345,0.502971,0.0685855,0.316675,0.685261,0.0810775,-0.398835,0.830951,0.0335955,0.330075,0.908441,0.0542265,-0.071339,0.001089,0.0011004999999999,0.071339,-0.0010889999999999,-0.0011004999999999,-0.123955,-0.399209,-0.0112845,0.115045,-0.448069,0.0152515,-0.123395,-0.785269,-0.0036455,0.1288249999999999,-0.7936190000000001,-0.0105595,0
3,-0.0034385,0.7136165,0.039149,-0.1731605,0.4862964999999999,0.067856,-0.3601204999999999,0.6319065,0.091648,0.1544595,0.5030065,0.068557,0.3165894999999999,0.6851565000000001,0.0806429999999999,-0.3984405,0.8318265,0.033084,0.3304494999999999,0.9051065,0.054347,-0.0713115,0.0011155,0.0010609999999999,0.0713115,-0.0011154999999999,-0.0010609999999999,-0.1239205,-0.3991535,-0.0111669999999999,0.1150095,-0.4476235,0.015017,-0.1234605,-0.7849535,-0.0035989999999999,0.1284995,-0.7941035,-0.0101319999999999,0
4,-0.0034584999999999,0.7137960000000001,0.0393144999999999,-0.1730435,0.486016,0.0663145,-0.3599935,0.634036,0.0901225,0.1546465,0.5031760000000001,0.0685834999999999,0.3164365,0.685536,0.0801415,-0.3972635,0.834276,0.0321134999999999,0.3287164999999999,0.921326,0.0505775,-0.0712955,0.001122,0.0010784999999999,0.0712955,-0.0011219999999999,-0.0010785,-0.1240135,-0.398934,-0.0111425,0.1150565,-0.447324,0.0150564999999999,-0.1233535,-0.7849339999999999,-0.0035765,0.1288165,-0.794144,-0.0095695,0
5,-0.0031214999999999,0.7137155,0.0402745,-0.1732014999999999,0.4872055,0.0690575,-0.3593215,0.6348055,0.0896965,0.1550585,0.5030155000000001,0.0692744999999999,0.3166184999999999,0.6850755,0.0804584999999999,-0.3961115,0.8352855,0.0322805,0.3286985,0.9235955,0.0511704999999999,-0.0712754999999999,0.0010514999999999,0.0012664999999999,0.0712754999999999,-0.0010515,-0.0012665,-0.1236315,-0.3991345,-0.0115085,0.1153385,-0.4466945,0.0145594999999999,-0.1227315,-0.7857545,-0.0052285,0.1292385,-0.7937845,-0.0104965,0
6,-0.0030875,0.714062,0.040323,-0.1717825,0.486902,0.068508,-0.3589124999999999,0.635212,0.089529,0.1551275,0.503112,0.069246,0.3165175,0.685342,0.08014,-0.3921825,0.836192,0.031505,0.3299375,0.906542,0.0505199999999999,-0.0712675,0.001084,0.001228,0.0712675,-0.001084,-0.001228,-0.1236525,-0.399068,-0.011538,0.1153375,-0.446678,0.014485,-0.1227024999999999,-0.785438,-0.004879,0.1295075,-0.793468,-0.0105429999999999,0
7,-0.0032264999999999,0.7152465,0.0412775,-0.1724045,0.4877065,0.0677685,-0.3585445,0.6355865,0.0892565,0.1552355,0.5032565,0.0688585,0.3162655,0.6858765,0.0791325,-0.3926944999999999,0.8364865,0.0313345,0.3286854999999999,0.9142065,0.0492385,-0.0712815,0.0010854999999999,0.0012985,0.0712815,-0.0010854999999999,-0.0012985,-0.1236945,-0.3992835,-0.0111725,0.1154655,-0.4467735,0.0145935,-0.1229944999999999,-0.7841235,-0.0043404999999999,0.1294355,-0.7930735,-0.0102514999999999,0
8,-0.0032074999999999,0.7157255,0.041792,-0.1722584999999999,0.4879755,0.067717,-0.3579885,0.6363155,0.088707,0.1554215,0.5033355,0.06885,0.3160515,0.6858455,0.07849,-0.3915985,0.8389555,0.030883,0.3285715,0.9163755,0.048373,-0.0712775,0.0010775,0.001347,0.0712775,-0.0010774999999999,-0.0013469999999999,-0.1236384999999999,-0.3993645,-0.0110699999999999,0.1156015,-0.4466045,0.014502,-0.1228485,-0.7840845,-0.0043929999999999,0.1294215,-0.7928645,-0.0102249999999999,0
9,-0.0032209999999999,0.7162635,0.04243,-0.172091,0.4882735,0.067667,-0.357461,0.6370635,0.088308,0.155589,0.5034035,0.068837,0.315739,0.6857135,0.077738,-0.390671,0.8401135000000001,0.030802,0.328199,0.9148035,0.047582,-0.071277,0.0010685,0.001396,0.071277,-0.0010685,-0.001396,-0.123581,-0.3994364999999999,-0.0109459999999999,0.115739,-0.4464665,0.014447,-0.122701,-0.7838265,-0.0043979999999999,0.129469,-0.7927565,-0.010261,0
10,-0.0032954999999999,0.7165545000000001,0.0430385,-0.1720025,0.4883945,0.0678405,-0.3569925,0.6375545,0.0879385,0.1557375,0.5034045,0.0688034999999999,0.3153475,0.6853645,0.0769644999999999,-0.3898525,0.8409445000000001,0.0307715,0.3278375,0.9159545,0.0468284999999999,-0.0712775,0.0010674999999999,0.0014274999999999,0.0712775,-0.0010674999999999,-0.0014274999999999,-0.1235425,-0.3995255,-0.0108045,0.1158375,-0.4465355,0.0144105,-0.1226025,-0.7837955,-0.0044244999999999,0.1294975,-0.7928755,-0.0103014999999999,0
11,-0.0034554999999999,0.7169745000000001,0.043813,-0.1719345,0.4885744999999999,0.068034,-0.3565844999999999,0.6382245000000001,0.087516,0.1558955,0.5034045,0.0687649999999999,0.3149555,0.6850745,0.0761449999999999,-0.3894444999999999,0.8417145,0.0307339999999999,0.3274955,0.9178345,0.045784,-0.0712724999999999,0.0010674999999999,0.001465,0.0712724999999999,-0.0010674999999999,-0.001465,-0.1235145,-0.3996255,-0.0106629999999999,0.1159455,-0.4465955,0.014369,-0.1223345,-0.7837955,-0.004413,0.1296355,-0.7929955,-0.010349,0
12,-0.0036765,0.7174545,0.0445594999999999,-0.1719014999999999,0.4888045,0.0684055,-0.3562015,0.6388245,0.0871125,0.1560484999999999,0.5034045,0.0687255,0.3145785,0.6848845,0.0752555,-0.3892715,0.8424645000000001,0.0306894999999999,0.3271985,0.9179345,0.0448984999999999,-0.0712645,0.0010674999999999,0.0014994999999999,0.0712645,-0.0010674999999999,-0.0014995,-0.1234715,-0.3998855,-0.0104735,0.1160585,-0.4467255,0.0143264999999999,-0.1220515,-0.7837955,-0.0041705,0.1297384999999999,-0.7931054999999999,-0.0104725,0
13,-0.0039104999999999,0.7176155,0.0453239999999999,-0.1717044999999999,0.4886855,0.068377,-0.3558044999999999,0.6390155,0.0869699999999999,0.1561955,0.5034255,0.068688,0.3143755,0.6847255,0.074609,-0.3889745,0.8427155,0.030662,0.3271355,0.9179155,0.044287,-0.0712595,0.0010745,0.0015309999999999,0.0712595,-0.0010745,-0.001531,-0.1234444999999999,-0.4001345,-0.010275,0.1161555,-0.4467745,0.0142869999999999,-0.1220145,-0.7837745,-0.003915,0.1296455,-0.7930845,-0.01053,0
14,-0.0041934999999999,0.7177165000000001,0.046125,-0.1716524999999999,0.4885865,0.068173,-0.3554125,0.6390865,0.0868579999999999,0.1563175,0.5034465,0.068651,0.3141974999999999,0.6845365,0.074007,-0.3887525,0.8428665000000001,0.030662,0.3270975,0.9198365,0.043713,-0.0712484999999999,0.0010745,0.001565,0.0712484999999999,-0.0010745,-0.0015649999999999,-0.1234125,-0.4003435,-0.010111,0.1162375,-0.4468435,0.014254,-0.1219925,-0.7837535,-0.0037169999999999,0.1295175,-0.7930634999999999,-0.0106129999999999,1
15,-0.0045069999999999,0.717822,0.047046,-0.171697,0.488602,0.0684,-0.355097,0.639102,0.08681,0.156433,0.503462,0.06859,0.314073,0.684232,0.07345,-0.388527,0.8429019999999999,0.030649,0.327193,0.918312,0.0434,-0.071243,0.0010679999999999,0.001596,0.071243,-0.001068,-0.001596,-0.123387,-0.400548,-0.010022,0.116303,-0.446908,0.0141909999999999,-0.121947,-0.7839280000000001,-0.0036409999999999,0.1293429999999999,-0.793058,-0.010758,1
16,-0.004823,0.7184185000000001,0.0481619999999999,-0.171723,0.4889685,0.068588,-0.354913,0.6396185000000001,0.086684,0.156617,0.5034085,0.068583,0.314087,0.6839885,0.072992,-0.388363,0.8434485,0.0308829999999999,0.327337,0.9177585,0.0431509999999999,-0.0712339999999999,0.0010674999999999,0.0016209999999999,0.0712339999999999,-0.0010674999999999,-0.001621,-0.123483,-0.4006715,-0.010017,0.116297,-0.4470315,0.0140749999999999,-0.121873,-0.7838115,-0.003625,0.129167,-0.7929315,-0.010996,1
17,-0.005166,0.7190135000000001,0.0493185,-0.171708,0.4893035,0.0685025,-0.354808,0.6401035,0.0865485,0.156792,0.5033335,0.0685725,0.314152,0.6837435000000001,0.0726604999999999,-0.388248,0.8439735,0.0312054999999999,0.327412,0.9190635,0.0429234999999999,-0.071221,0.0010725,0.0016424999999999,0.071221,-0.0010725,-0.0016425,-0.123578,-0.4008565,-0.0100445,0.116282,-0.4471965,0.0139544999999999,-0.121838,-0.7837164999999999,-0.0036475,0.129032,-0.7926865,-0.0111925,1
18,-0.0055014999999999,0.7196675,0.0503649999999999,-0.1717645,0.4894575,0.068634,-0.3547645,0.6407275,0.086444,0.1569654999999999,0.5032675,0.0685389999999999,0.3141355,0.6836074999999999,0.072496,-0.3881345,0.8456575,0.03156,0.3277255,0.9194575,0.042782,-0.0712045,0.0010745,0.001666,0.0712045,-0.0010744999999999,-0.001666,-0.1236545,-0.4010324999999999,-0.01011,0.1162855,-0.4473525,0.0138279999999999,-0.1217845,-0.7837525000000001,-0.003807,0.1289155,-0.7926325000000001,-0.011541,1
19,-0.0058444999999999,0.7203584999999999,0.051317,-0.1718095,0.4895585,0.068689,-0.3547395,0.6413485000000001,0.086377,0.1570905,0.5032085,0.068477,0.3141005,0.6834785000000001,0.072298,-0.3880495,0.8458785,0.032022,0.3280505,0.9207385,0.042607,-0.0711924999999999,0.0010755,0.001677,0.0711924999999999,-0.0010755,-0.0016769999999999,-0.1237494999999999,-0.4011915,-0.0102219999999999,0.1162805,-0.4475015,0.013677,-0.1217495,-0.7838615,-0.0040009999999999,0.1287905,-0.7925115,-0.0119199999999999,1
20,-0.0061139999999999,0.721046,0.052109,-0.171826,0.489546,0.068602,-0.3547659999999999,0.641956,0.086367,0.157194,0.503166,0.068417,0.314104,0.683356,0.072096,-0.388036,0.846616,0.032374,0.328394,0.922146,0.042428,-0.071193,0.00108,0.0016829999999999,0.071193,-0.0010799999999999,-0.001683,-0.1238259999999999,-0.4013339999999999,-0.010361,0.116254,-0.447614,0.0135229999999999,-0.121736,-0.783904,-0.0041969999999999,0.128844,-0.792394,-0.012318,1
21,-0.0063369999999999,0.7216835,0.0527335,-0.171786,0.4894435,0.0681955,-0.354866,0.6425335,0.0864225,0.157304,0.5031235,0.0682615,0.314224,0.6833135,0.0718265,-0.387966,0.8464135,0.0325665,0.329184,0.9208435,0.0425325,-0.071198,0.0010845,0.0017565,0.071198,-0.0010844999999999,-0.0017564999999999,-0.123876,-0.4012965,-0.0106654999999999,0.116234,-0.4476265,0.0132495,-0.121726,-0.7838965,-0.0045144999999999,0.128874,-0.7922365,-0.0127694999999999,1
22,-0.006528,0.7223035000000001,0.0533444999999999,-0.171765,0.4894035,0.0681384999999999,-0.354985,0.6431535,0.0865364999999999,0.1574249999999999,0.5030735000000001,0.0681094999999999,0.3144349999999999,0.6833835,0.0716195,-0.387905,0.8467435000000001,0.0327615,0.329795,0.9202635,0.0426944999999999,-0.071202,0.0010915,0.0018204999999999,0.071202,-0.0010915,-0.0018205,-0.123875,-0.4012965,-0.0109795,0.1162349999999999,-0.4476365,0.0129634999999999,-0.121775,-0.7839664999999999,-0.0048405,0.128955,-0.7920564999999999,-0.0132185,1
23,-0.0067385,0.7228295,0.0539245,-0.1717175,0.4892795,0.0679895,-0.3549675,0.6434394999999999,0.0867435,0.1575125,0.5030195000000001,0.0679704999999999,0.3146525,0.6836194999999999,0.0714964999999999,-0.3878775,0.8472895,0.0334005,0.3304825,0.9179695,0.0432515,-0.0711985,0.0010924999999999,0.0018674999999999,0.0711985,-0.0010924999999999,-0.0018675,-0.1238775,-0.4013105,-0.0112905,0.1162125,-0.4476805,0.0126514999999999,-0.1219875,-0.7837205,-0.0053535,0.1289124999999999,-0.7919505,-0.0136475,1
24,-0.0069415,0.7231765,0.0543665,-0.1716855,0.4889564999999999,0.0676535,-0.3549555,0.6436865,0.0869915,0.1575645,0.5030465000000001,0.0677345,0.3148545,0.6838965,0.0714565,-0.3879155,0.8476665,0.0340705,0.3307545,0.9200065,0.0439235,-0.0711914999999999,0.0010794999999999,0.0019265,0.0711914999999999,-0.0010795,-0.0019264999999999,-0.1238954999999999,-0.4014135,-0.0116235,0.1162044999999999,-0.4476835,0.0123395,-0.1221155,-0.7837934999999999,-0.0060805,0.1289345,-0.7917934999999999,-0.0141104999999999,1
25,-0.0071604999999999,0.7232195,0.0545925,-0.1716575,0.4888695,0.0672295,-0.3549575,0.6436995,0.0872445,0.1575325,0.5030595,0.0674464999999999,0.3149225,0.6839095,0.0713085,-0.3879775,0.8477795,0.0345705,0.3308425,0.9203195,0.0445865,-0.0711775,0.0010784999999999,0.0019985,0.0711775,-0.0010784999999999,-0.0019985,-0.1239275,-0.4014005,-0.0119915,0.1161625,-0.4476704999999999,0.0120434999999999,-0.1221474999999999,-0.7837805,-0.0065474999999999,0.1289024999999999,-0.7918205,-0.0145744999999999,1
26,-0.0073894999999999,0.72322,0.054755,-0.1716205,0.48876,0.066791,-0.3549805,0.64371,0.087665,0.1574595,0.50307,0.067115,0.3149795,0.68392,0.071153,-0.3880504999999999,0.8485,0.035252,0.3308395,0.92033,0.045302,-0.0711665,0.0010729999999999,0.002087,0.0711665,-0.001073,-0.002087,-0.1239905,-0.40143,-0.012431,0.1160895,-0.44766,0.011687,-0.1222004999999999,-0.78377,-0.0071329999999999,0.1286295,-0.79181,-0.0149239999999999,1
27,-0.0076699999999999,0.72322,0.054897,-0.171574,0.48876,0.066534,-0.355124,0.64371,0.088094,0.157326,0.50307,0.066795,0.315006,0.68392,0.071007,-0.388194,0.84927,0.036341,0.331096,0.91735,0.045835,-0.071161,0.0010729999999999,0.002182,0.071161,-0.001073,-0.0021819999999999,-0.123984,-0.40143,-0.0128749999999999,0.116016,-0.44766,0.01132,-0.122324,-0.78377,-0.0076909999999999,0.128416,-0.79181,-0.01526,1
28,-0.0079995,0.7234700000000001,0.0550455,-0.1716785,0.4886,0.0665115,-0.3553885,0.64393,0.0885765,0.1571215,0.50318,0.0663805,0.3149615,0.68436,0.0708625,-0.3884085,0.8497600000000001,0.0374295,0.3308415,0.91723,0.0462974999999999,-0.0711604999999999,0.001045,0.0022974999999999,0.0711604999999999,-0.001045,-0.0022975,-0.1238885,-0.40153,-0.0133275,0.1159915,-0.44759,0.0110014999999999,-0.1223084999999999,-0.78354,-0.0082235,0.1282215,-0.79174,-0.0154685,1
29,-0.0082799999999999,0.723738,0.055281,-0.171711,0.488548,0.066723,-0.355661,0.6441680000000001,0.0891039999999999,0.156909,0.503308,0.065977,0.314889,0.684728,0.0707589999999999,-0.388551,0.850908,0.0385849999999999,0.331029,0.913718,0.046901,-0.07116,0.0010159999999999,0.0024139999999999,0.07116,-0.001016,-0.0024139999999999,-0.123791,-0.401682,-0.013816,0.115969,-0.447522,0.0106899999999999,-0.122291,-0.7832619999999999,-0.0087609999999999,0.128039,-0.791662,-0.015725,1
30,-0.008548,0.723981,0.0556805,-0.171665,0.488361,0.0669785,-0.355925,0.644241,0.0896575,0.156685,0.503441,0.0656715,0.314855,0.6850609999999999,0.0706605,-0.388725,0.851081,0.0397365,0.330835,0.913431,0.0477855,-0.071158,0.0009789999999999,0.0024525,0.071158,-0.000979,-0.0024525,-0.123705,-0.4018089999999999,-0.0142425,0.115935,-0.447459,0.0104465,-0.122285,-0.783119,-0.0092074999999999,0.127875,-0.7916690000000001,-0.0159854999999999,1
31,-0.0088325,0.7242839999999999,0.0561745,-0.1715995,0.488134,0.0673034999999999,-0.3561495,0.644304,0.0902445,0.1564605,0.5036039999999999,0.0653795,0.3147804999999999,0.685324,0.0705885,-0.3886595,0.851804,0.0412815,0.3307405,0.910814,0.0486584999999999,-0.0711525,0.000958,0.0024974999999999,0.0711525,-0.0009579999999999,-0.0024974999999999,-0.1236095,-0.401956,-0.0146985,0.1158704999999999,-0.447436,0.0101734999999999,-0.1222595,-0.782826,-0.0096365,0.1277005,-0.791676,-0.0163145,1
32,-0.0091129999999999,0.7245,0.056702,-0.171477,0.488,0.067763,-0.356367,0.64435,0.0909119999999999,0.156233,0.50377,0.065093,0.314703,0.68555,0.070566,-0.388517,0.85182,0.042411,0.330713,0.90788,0.049807,-0.071139,0.00093,0.002561,0.071139,-0.00093,-0.002561,-0.1235169999999999,-0.4022,-0.0151779999999999,0.115823,-0.44741,0.009891,-0.122247,-0.78256,-0.0100589999999999,0.127513,-0.79182,-0.0166419999999999,1
33,-0.0093835,0.7247494999999999,0.057269,-0.1712495,0.4877695,0.06768,-0.3565195,0.6443694999999999,0.091663,0.1559905,0.5039595,0.064828,0.3146705,0.6858795,0.070626,-0.3884094999999999,0.8521595,0.043775,0.3304805,0.9071095,0.050775,-0.0711275,0.0008924999999999,0.002622,0.0711275,-0.0008925,-0.0026219999999999,-0.1234494999999999,-0.4024405,-0.015634,0.1157505,-0.4473904999999999,0.00963,-0.1221895,-0.7821305000000001,-0.010229,0.1273105,-0.7918605000000001,-0.0169189999999999,1
34,-0.0096495,0.7250264999999999,0.057894,-0.1709255,0.4875065,0.067352,-0.3566755,0.6443365,0.092303,0.1557445,0.5041665,0.064574,0.3145845,0.6860965,0.070775,-0.3882855,0.8512865,0.045097,0.3299944999999999,0.9084465,0.051665,-0.0711285,0.0008505,0.0026389999999999,0.0711285,-0.0008505,-0.0026389999999999,-0.1234155,-0.4027435,-0.016057,0.1156645,-0.4473634999999999,0.0093789999999999,-0.1221855,-0.7816635000000001,-0.0103389999999999,0.1271745,-0.7918935,-0.017175,1
35,-0.009843,0.7253055,0.058584,-0.170589,0.4873155,0.067605,-0.356869,0.6442355000000001,0.0928249999999999,0.155521,0.5043755,0.06435,0.314501,0.6862155000000001,0.070976,-0.388149,0.8511855,0.046353,0.3295909999999999,0.9094555,0.052477,-0.071133,0.0008104999999999,0.002663,0.071133,-0.0008105,-0.0026629999999999,-0.123299,-0.4029045,-0.0164409999999999,0.115601,-0.4473645,0.009149,-0.122149,-0.7812144999999999,-0.010511,0.127031,-0.7918945,-0.0173899999999999,1
36,-0.0099784999999999,0.7255355,0.0592585,-0.1702995,0.4871455,0.0676374999999999,-0.3570695,0.6442355000000001,0.0933235,0.1553205,0.5043855,0.0640925,0.3144405,0.6862655000000001,0.0712275,-0.3880295,0.8511255000000001,0.0471385,0.3294905,0.9091055,0.0533084999999999,-0.0711374999999999,0.0008104999999999,0.0027174999999999,0.0711374999999999,-0.0008105,-0.0027175,-0.1232495,-0.4029745,-0.0168705,0.1155005,-0.4473645,0.0088674999999999,-0.1222195,-0.7802945,-0.0105395,0.1269305,-0.7918345,-0.0176335,1
37,-0.010066,0.7257345000000001,0.060002,-0.169999,0.4868245,0.067438,-0.357259,0.6441545000000001,0.093944,0.1551409999999999,0.5044045,0.063873,0.314391,0.6862645,0.071574,-0.387909,0.8506845000000001,0.0482299999999999,0.329611,0.9067445,0.054399,-0.071137,0.0008094999999999,0.002776,0.071137,-0.0008094999999999,-0.002776,-0.123199,-0.4029755,-0.017255,0.115401,-0.4473654999999999,0.008608,-0.122409,-0.7802955,-0.0108499999999999,0.1268409999999999,-0.7918255,-0.017888,1
38,-0.0101074999999999,0.7259245,0.0606945,-0.1697145,0.4864045,0.0667965,-0.3574645,0.6441545000000001,0.0946915,0.1549655,0.5044244999999999,0.0636905,0.3143455,0.6863345000000001,0.0719575,-0.3879145,0.8497545,0.0492805,0.3295055,0.9069445,0.0553415,-0.0711385,0.0008094999999999,0.0028304999999999,0.0711385,-0.0008094999999999,-0.0028304999999999,-0.1231645,-0.4028055,-0.0176535,0.1152955,-0.4473654999999999,0.0083415,-0.1225945,-0.7802955,-0.0111504999999999,0.1267255,-0.7918255,-0.0181155,1
39,-0.0101065,0.7260645,0.0613074999999999,-0.1698215,0.4862745,0.0671765,-0.3576815,0.6440345000000001,0.0954334999999999,0.1547985,0.5045345,0.0636045,0.3142785,0.6863245,0.0724205,-0.3880515,0.8497245,0.0503165,0.3298985,0.9034245,0.0563095,-0.0711415,0.0007845,0.0028944999999999,0.0711415,-0.0007844999999999,-0.0028945,-0.1231615,-0.4029355,-0.0180665,0.1151585,-0.4473555,0.0080404999999999,-0.1228015,-0.7801755,-0.0115665,0.1265085,-0.7918255,-0.0183925,1
40,-0.010123,0.726235,0.0618905,-0.169711,0.486125,0.0675605,-0.357941,0.643895,0.0960995,0.154659,0.5046350000000001,0.0635685,0.3142189999999999,0.686245,0.0729595,-0.388321,0.849675,0.0510475,0.329959,0.903885,0.0572805,-0.0711489999999999,0.0007589999999999,0.0029635,0.0711489999999999,-0.000759,-0.0029634999999999,-0.123121,-0.403065,-0.0184804999999999,0.115059,-0.447355,0.0076974999999999,-0.122951,-0.780245,-0.0121194999999999,0.126309,-0.791795,-0.0186595,1
41,-0.0102065,0.726512,0.062403,-0.1696715,0.486002,0.067814,-0.3582715,0.6437620000000001,0.096735,0.1544785,0.504752,0.063482,0.3141085,0.686192,0.0734799999999999,-0.3886415,0.848962,0.051729,0.3299685,0.904362,0.057862,-0.0711715,0.000719,0.003018,0.0711715,-0.0007189999999999,-0.003018,-0.1231115,-0.403188,-0.018949,0.1149185,-0.447378,0.007282,-0.1231815,-0.780508,-0.0128139999999999,0.1261785,-0.7918379999999999,-0.019034,1
42,-0.0103209999999999,0.726976,0.062953,-0.1696559999999999,0.486006,0.068424,-0.358576,0.6437459999999999,0.097348,0.1544539999999999,0.5046959999999999,0.063744,0.313984,0.6863459999999999,0.074043,-0.3889559999999999,0.8478659999999999,0.05225,0.329674,0.908796,0.058565,-0.071188,0.0006739999999999,0.0030349999999999,0.071188,-0.000674,-0.0030349999999999,-0.122996,-0.403154,-0.0195459999999999,0.114914,-0.447314,0.006623,-0.1233959999999999,-0.780734,-0.0137329999999999,0.126194,-0.7918040000000001,-0.0194899999999999,1
43,-0.010486,0.7274525000000001,0.0634485,-0.169737,0.4860525,0.0688565,-0.358907,0.6437225000000001,0.0979505,0.154503,0.5044125,0.0641595,0.313853,0.6865725,0.0747095,-0.389407,0.8477025,0.0526555,0.329273,0.9093125,0.0595205,-0.071213,0.0006235,0.0030415,0.071213,-0.0006234999999999,-0.0030414999999999,-0.122787,-0.4033275,-0.0203555,0.1149429999999999,-0.4471775,0.0052985,-0.123667,-0.7811075,-0.0146454999999999,0.1262029999999999,-0.7918474999999999,-0.0203375,1
44,-0.010697,0.7278749999999999,0.0638725,-0.169903,0.486155,0.0692895,-0.359293,0.6437149999999999,0.0985405,0.154557,0.504065,0.0646144999999999,0.3137069999999999,0.686865,0.0753775,-0.389933,0.8475149999999999,0.0529015,0.328777,0.913905,0.0604414999999999,-0.071247,0.0005769999999999,0.0029994999999999,0.071247,-0.0005769999999999,-0.0029995,-0.122633,-0.403475,-0.0212725,0.115007,-0.447005,0.0037254999999999,-0.123953,-0.781475,-0.0155785,0.1262069999999999,-0.7919050000000001,-0.0212225,1
45,-0.010899,0.7281925,0.064366,-0.170098,0.4863225,0.069806,-0.359638,0.6437025,0.099219,0.1546519999999999,0.5036225,0.065189,0.313542,0.6871325,0.076065,-0.390468,0.8473525,0.053123,0.328282,0.9185425,0.061295,-0.071281,0.0005395,0.0029099999999999,0.071281,-0.0005395,-0.0029099999999999,-0.122438,-0.4035575,-0.022279,0.115062,-0.4468275,0.00176,-0.124258,-0.7816675,-0.016535,0.126172,-0.7919975,-0.022219,1
46,-0.0111174999999999,0.7284715,0.0647835,-0.1702785,0.4865215,0.0703145,-0.3599685,0.6437115,0.0997065,0.1547915,0.5031215,0.0657915,0.3133815,0.6873415,0.0767305,-0.3909785,0.8472215,0.0529915,0.3277515,0.9232315,0.0618215,-0.0713105,0.0005015,0.0028744999999999,0.0713105,-0.0005014999999999,-0.0028745,-0.1221985,-0.4036085,-0.0234725,0.1151415,-0.4466785,-0.0004575,-0.1245685,-0.7819585,-0.0176485,0.1258615,-0.7921085,-0.0233515,1
47,-0.0113949999999999,0.728819,0.06513,-0.1704689999999999,0.486749,0.070789,-0.360289,0.643659,0.1000109999999999,0.154941,0.5025689999999999,0.066342,0.313191,0.687549,0.077308,-0.391399,0.847379,0.052787,0.3272009999999999,0.927749,0.062179,-0.071334,0.000469,0.002836,0.071334,-0.0004689999999999,-0.0028359999999999,-0.121859,-0.404041,-0.0250309999999999,0.115201,-0.446571,-0.0030419999999999,-0.124969,-0.7824610000000001,-0.0191439999999999,0.125611,-0.7922210000000001,-0.0246969999999999,1
48,-0.011681,0.72919,0.06541,-0.1706609999999999,0.48702,0.071755,-0.360461,0.64366,0.100251,0.155129,0.50199,0.066984,0.312999,0.68775,0.077778,-0.391941,0.84741,0.052601,0.326649,0.93227,0.062032,-0.071353,0.000426,0.0028259999999999,0.071353,-0.0004259999999999,-0.0028259999999999,-0.1215209999999999,-0.40451,-0.026711,0.1152789999999999,-0.44643,-0.0058719999999999,-0.125311,-0.78383,-0.021241,0.125379,-0.79237,-0.026124,1
49,-0.011961,0.7295165,0.065506,-0.170887,0.4873765,0.07273,-0.3606169999999999,0.6436664999999999,0.1003589999999999,0.1553429999999999,0.5014265,0.0675299999999999,0.312803,0.6879965,0.078103,-0.392437,0.8473565,0.052358,0.326223,0.9327065,0.061749,-0.071376,0.0004015,0.002776,0.071376,-0.0004014999999999,-0.002776,-0.121237,-0.4055034999999999,-0.028799,0.115353,-0.4464134999999999,-0.008943,-0.125697,-0.7847235,-0.023322,0.125153,-0.7927335,-0.027744,1
50,-0.0121575,0.7299405,0.0653825,-0.1709864999999999,0.4878004999999999,0.0734365,-0.3604765,0.6436405,0.1002195,0.1556735,0.5009405,0.0679454999999999,0.3127535,0.6884105,0.0781574999999999,-0.3929265,0.8474905,0.0520365,0.3261435,0.9292005,0.0612185,-0.0713915,0.0004035,0.0027305,0.0713915,-0.0004034999999999,-0.0027305,-0.1209165,-0.4071695,-0.0317545,0.1155935,-0.4462095,-0.0127714999999999,-0.1260065,-0.7856595,-0.0261254999999999,0.1251534999999999,-0.7929895,-0.0297684999999999,1
51,-0.012269,0.730175,0.065104,-0.170921,0.4880649999999999,0.073203,-0.360271,0.643495,0.099962,0.1559189999999999,0.500665,0.068095,0.312749,0.688625,0.078005,-0.393361,0.847215,0.051866,0.3259289999999999,0.929515,0.060311,-0.071427,0.0003999999999999,0.002703,0.071427,-0.0003999999999999,-0.0027029999999999,-0.120801,-0.409015,-0.034924,0.1157089999999999,-0.446275,-0.0167949999999999,-0.126301,-0.786665,-0.02926,0.125209,-0.7928949999999999,-0.032195,1
52,-0.0122624999999999,0.730418,0.0646635,-0.1706875,0.488388,0.0728625,-0.3599475,0.643428,0.0995805,0.1561725,0.5006079999999999,0.0679965,0.3128125,0.689008,0.0775215,-0.3936875,0.8470979999999999,0.0516525,0.3258525,0.929788,0.0588505,-0.0714605,0.0003929999999999,0.0026975,0.0714605,-0.000393,-0.0026974999999999,-0.1207675,-0.4111619999999999,-0.0383924999999999,0.1158925,-0.446202,-0.0205374999999999,-0.1263475,-0.787462,-0.0328554999999999,0.1253325,-0.792682,-0.0347645,1
53,-0.0120789999999999,0.7304485000000001,0.0639195,-0.170363,0.4887685,0.0723735,-0.359203,0.6423485,0.0990435,0.156477,0.5003285,0.0677315,0.313067,0.6892485,0.0766655,-0.393873,0.8458085000000001,0.0511805,0.326507,0.9296685,0.0571215,-0.071487,0.0003954999999999,0.0026775,0.071487,-0.0003955,-0.0026774999999999,-0.1206629999999999,-0.4134314999999999,-0.0425335,0.116147,-0.4460015,-0.0248085,-0.126243,-0.7881715,-0.0369724999999999,0.125647,-0.7923515,-0.0379864999999999,1
54,-0.011708,0.730539,0.063174,-0.169914,0.488959,0.071777,-0.358154,0.641329,0.098381,0.156876,0.5000990000000001,0.0673479999999999,0.3133959999999999,0.689699,0.0756749999999999,-0.393844,0.844589,0.050609,0.327376,0.930079,0.055313,-0.071529,0.000375,0.0026999999999999,0.071529,-0.000375,-0.0027,-0.120414,-0.414581,-0.046945,0.116536,-0.444901,-0.028919,-0.126274,-0.788561,-0.04117,0.125746,-0.791971,-0.04129,1
55,-0.0112699999999999,0.7304879999999999,0.0623445,-0.169435,0.489208,0.0710755,-0.357085,0.640138,0.0977495,0.157055,0.499898,0.0668145,0.313785,0.6899379999999999,0.0745695,-0.3937049999999999,0.8431679999999999,0.0499335,0.328605,0.925838,0.0534645,-0.071529,0.000405,0.0027065,0.071529,-0.0004049999999999,-0.0027065,-0.120095,-0.415202,-0.0516555,0.116945,-0.443782,-0.0331075,-0.126405,-0.7883920000000001,-0.0455365,0.1258149999999999,-0.791532,-0.0446025,1
56,-0.0107675,0.7300625000000001,0.0614735,-0.1689705,0.4894125,0.0703205,-0.3560305,0.6386625,0.0969905,0.1572895,0.4994225,0.0662885,0.3141595,0.6901325,0.0734785,-0.3935705,0.8414625,0.0491444999999999,0.3298495,0.9216025,0.0516915,-0.0715305,0.0003935,0.0027294999999999,0.0715305,-0.0003935,-0.0027295,-0.1198505,-0.4153375,-0.0565765,0.1174195,-0.4426775,-0.0373855,-0.1265505,-0.7876974999999999,-0.0496505,0.1259195,-0.7910775,-0.0478335,1
57,-0.010228,0.7292609999999999,0.060583,-0.168564,0.489141,0.069371,-0.355114,0.6373709999999999,0.095952,0.157566,0.498751,0.065472,0.314626,0.6883509999999999,0.072114,-0.393324,0.8398209999999999,0.04795,0.331256,0.915251,0.04978,-0.0715659999999999,0.000388,0.00278,0.0715659999999999,-0.0003879999999999,-0.00278,-0.1197139999999999,-0.414639,-0.062802,0.118146,-0.4411589999999999,-0.042473,-0.126694,-0.7861490000000001,-0.053683,0.126026,-0.790219,-0.051187,1
58,-0.0095754999999999,0.7285649999999999,0.0596985,-0.1680835,0.488475,0.0685345,-0.3542635,0.636315,0.0950115,0.1579465,0.497705,0.0647175,0.3152065,0.6868249999999999,0.0707255,-0.3929435,0.8385849999999999,0.0464295,0.3326365,0.909015,0.0478375,-0.0716975,0.000356,0.0029345,0.0716975,-0.0003559999999999,-0.0029344999999999,-0.1196135,-0.413555,-0.0692465,0.1189865,-0.4391049999999999,-0.0477945,-0.1268034999999999,-0.7841450000000001,-0.0575715,0.1261965,-0.788405,-0.0544555,1
59,-0.0088729999999999,0.7277795,0.0589675,-0.1677439999999999,0.4877495,0.0678385,-0.353584,0.6353095,0.0941775,0.158376,0.4964495,0.0641255,0.315816,0.6850495000000001,0.0695445,-0.392314,0.8372094999999999,0.0449015,0.334056,0.9024295,0.0460755,-0.071832,0.0003455,0.0030595,0.071832,-0.0003454999999999,-0.0030594999999999,-0.1196339999999999,-0.4120005,-0.0750305,0.119926,-0.4369605,-0.0528425,-0.126864,-0.7820005000000001,-0.0606105,0.126396,-0.7862605,-0.0573315,1
60,-0.0080659999999999,0.7262744999999999,0.0581785,-0.167319,0.4868745,0.0672075,-0.353059,0.6342945,0.0931335,0.158851,0.4950445,0.0632705,0.316461,0.6832644999999999,0.0681005,-0.3915389999999999,0.8362345,0.0433125,0.335871,0.8957345,0.0440325,-0.072007,0.0003125,0.0031585,0.072007,-0.0003125,-0.0031585,-0.119679,-0.4093755,-0.0818484999999999,0.121071,-0.4340254999999999,-0.0590454999999999,-0.126769,-0.7792355000000001,-0.0633555,0.126621,-0.7833255,-0.0600394999999999,1
61,-0.0071695,0.7245885,0.057307,-0.1668445,0.4857085,0.06659,-0.3524045,0.6334885,0.091923,0.1594955,0.4936684999999999,0.062486,0.3170254999999999,0.6814385,0.066705,-0.3906545,0.8359685,0.041715,0.3378855,0.8890785,0.041768,-0.0721565,0.0002855,0.003248,0.0721565,-0.0002855,-0.003248,-0.1197345,-0.4060215,-0.0891029999999999,0.1224555,-0.4295015,-0.0669569999999999,-0.1266145,-0.7750815,-0.0657529999999999,0.1271455,-0.7794615,-0.062677,1
62,-0.0063169999999999,0.7232685,0.05665,-0.166158,0.4846385,0.066076,-0.351838,0.6338385,0.090654,0.1602319999999999,0.4924785,0.061824,0.317622,0.6796884999999999,0.065441,-0.390038,0.8372685,0.040203,0.338972,0.8880785,0.039434,-0.072294,0.0002295,0.003394,0.072294,-0.0002295,-0.003394,-0.1199379999999999,-0.4021415,-0.09647,0.1238819999999999,-0.4240915,-0.074704,-0.1263179999999999,-0.7698615000000001,-0.067813,0.127502,-0.7749015,-0.064861,1
63,-0.0055324999999999,0.721668,0.0558545,-0.1654425,0.483608,0.0655295,-0.3512525,0.6342679999999999,0.0893335,0.1609475,0.491038,0.0610695,0.3183975,0.675978,0.0642125,-0.3890525,0.8390179999999999,0.0382884999999999,0.3399975,0.8845379999999999,0.0372525,-0.0724155,0.0001889999999999,0.0035395,0.0724155,-0.000189,-0.0035394999999999,-0.1201125,-0.398482,-0.1039264999999999,0.1252375,-0.419402,-0.0827764999999999,-0.1258725,-0.7650720000000001,-0.0700185,0.1277975,-0.7703420000000001,-0.0670505,1
64,-0.0047854999999999,0.720018,0.0550765,-0.1647325,0.4825979999999999,0.0651545,-0.3503925,0.634758,0.0880125,0.1615475,0.489458,0.0603475,0.3191575,0.672108,0.0629725,-0.3880825,0.841118,0.0362375,0.3409275,0.880538,0.0349905,-0.0725485,9.899999999999493e-05,0.0036184999999999,0.0725485,-9.900000000000186e-05,-0.0036185,-0.1203625,-0.393562,-0.1112805,0.1267775,-0.414232,-0.0911825,-0.1253725,-0.759812,-0.0725215,0.1279475,-0.765242,-0.0692765,1
65,-0.004119,0.7188159999999999,0.0543479999999999,-0.164034,0.481126,0.064855,-0.349714,0.635886,0.086774,0.162246,0.488226,0.059607,0.319926,0.6686860000000001,0.061696,-0.387044,0.8436060000000001,0.034161,0.3417759999999999,0.876976,0.0327439999999999,-0.072707,1.8000000000004124e-05,0.003723,0.072707,-1.7999999999997185e-05,-0.0037229999999999,-0.120734,-0.387614,-0.118628,0.128236,-0.408284,-0.099683,-0.124944,-0.7538640000000001,-0.075477,0.127776,-0.7594339999999999,-0.071474,1
66,-0.0036035,0.717455,0.0541475,-0.1635905,0.479935,0.0650755,-0.3493505,0.637025,0.0858755,0.1627394999999999,0.487155,0.0594825,0.3204194999999999,0.667285,0.0606635,-0.3862205,0.8461650000000001,0.0321124999999999,0.3424295,0.875535,0.0305104999999999,-0.0728495,2.000000000002e-06,0.0037525,0.0728495,-2.000000000002e-06,-0.0037524999999999,-0.1211505,-0.381085,-0.1255875,0.1293995,-0.401665,-0.1080774999999999,-0.1246805,-0.746345,-0.0787134999999999,0.1276095,-0.752855,-0.0740385,1
67,-0.0032575,0.7158690000000001,0.053887,-0.1632615,0.479249,0.065236,-0.3490915,0.636839,0.084986,0.1631385,0.486299,0.0591969999999999,0.3207685,0.6657190000000001,0.0594319999999999,-0.3855615,0.849039,0.029968,0.3428985,0.8739490000000001,0.028185,-0.0729905,-4.099999999999937e-05,0.003731,0.0729905,4.099999999999937e-05,-0.003731,-0.1215115,-0.374301,-0.132898,0.1304885,-0.394151,-0.1174679999999999,-0.1244915,-0.737881,-0.0821539999999999,0.1273484999999999,-0.745331,-0.0769649999999999,1
68,-0.002984,0.7144015,0.053566,-0.162984,0.4783815,0.06537,-0.348854,0.6368015,0.084133,0.163526,0.4853715,0.0587569999999999,0.321096,0.6648215,0.057973,-0.384924,0.8522215,0.027645,0.343246,0.8732915,0.025765,-0.073128,-5.6500000000000994e-05,0.0037389999999999,0.073128,5.6500000000000994e-05,-0.003739,-0.121774,-0.3671185,-0.140824,0.131656,-0.3858085,-0.127144,-0.124454,-0.7284285,-0.08583,0.1270659999999999,-0.7368285,-0.080169,1
69,-0.002757,0.7132435,0.0532804999999999,-0.162905,0.4776335,0.0654685,-0.348675,0.6366235,0.0834314999999999,0.163835,0.4844334999999999,0.0584355,0.321575,0.6639435,0.0563965,-0.384535,0.8553434999999999,0.0257665,0.343425,0.8729534999999999,0.0236325,-0.07322,-5.849999999998912e-05,0.0037405,0.07322,5.8500000000002994e-05,-0.0037404999999999,-0.121955,-0.3612265,-0.1478064999999999,0.132765,-0.3780365,-0.1357065,-0.1245149999999999,-0.7192665,-0.0894155,0.126715,-0.7281365000000001,-0.0832385,1
70,-0.00245,0.712032,0.0530995,-0.1626979999999999,0.477272,0.0656545,-0.348468,0.635842,0.0828925,0.164212,0.483502,0.0580744999999999,0.322162,0.662662,0.0548254999999999,-0.384258,0.8581920000000001,0.0243315,0.343462,0.872972,0.0217155,-0.073223,-0.000112,0.0038375,0.073223,0.0001119999999999,-0.0038375,-0.121968,-0.355968,-0.1542315,0.133842,-0.370788,-0.1425615,-0.124508,-0.710758,-0.0928835,0.126602,-0.719688,-0.0860045,1
71,-0.0022364999999999,0.71083,0.0528769999999999,-0.1625395,0.47681,0.0657809999999999,-0.3482195,0.6349499999999999,0.082254,0.1644805,0.4825,0.057631,0.3225905,0.66162,0.053339,-0.3840595,0.86081,0.022631,0.3433205,0.87301,0.019804,-0.0733105,-0.0001099999999999,0.003851,0.0733105,0.0001099999999999,-0.0038509999999999,-0.1219595,-0.35145,-0.16033,0.1348405,-0.36374,-0.14938,-0.1245894999999999,-0.70218,-0.096277,0.1264605,-0.71099,-0.088851,1
72,-0.0018885,0.709665,0.051901,-0.1623015,0.476035,0.065334,-0.3479315,0.634105,0.080882,0.1647885,0.482285,0.057092,0.3231584999999999,0.662305,0.0519339999999999,-0.3836615,0.858445,0.0209409999999999,0.3436984999999999,0.875845,0.017801,-0.0732915,-0.000125,0.003813,0.0732915,0.000125,-0.0038129999999999,-0.1217715,-0.346975,-0.166204,0.1357785,-0.356745,-0.156444,-0.1246615,-0.693045,-0.099495,0.1264285,-0.701795,-0.091667,1
73,-0.001567,0.707885,0.0501149999999999,-0.162129,0.477065,0.06404,-0.347669,0.632235,0.0790889999999999,0.165161,0.480855,0.055922,0.323621,0.661495,0.0499919999999999,-0.383259,0.856075,0.0187419999999999,0.344461,0.878615,0.014616,-0.073356,6.50000000000095e-05,0.0037289999999999,0.073356,-6.499999999998174e-05,-0.0037289999999999,-0.121529,-0.341385,-0.172545,0.136591,-0.350105,-0.164285,-0.124759,-0.682535,-0.102856,0.126491,-0.6915749999999999,-0.094936,1
74,-0.0012539999999999,0.706305,0.0478409999999999,-0.161766,0.476395,0.061833,-0.347536,0.630775,0.076803,0.165474,0.4799449999999999,0.053732,0.323794,0.661055,0.047489,-0.382926,0.852845,0.016069,0.345324,0.880155,0.010669,-0.073441,-5.000000000005e-06,0.003698,0.073441,5.000000000005e-06,-0.003698,-0.121146,-0.330705,-0.179409,0.137434,-0.338445,-0.172689,-0.124526,-0.6700050000000001,-0.10636,0.126654,-0.678875,-0.098954,1
75,-0.0005215,0.70499,0.0450804999999999,-0.1610335,0.47611,0.0590725,-0.3468135,0.62944,0.0729265,0.1661765,0.47906,0.0509744999999999,0.3245365,0.66015,0.0436945,-0.3822735,0.8507899999999999,0.0110224999999999,0.3465264999999999,0.8791599999999999,0.0052234999999999,-0.0738085,-9.9999999999989e-05,0.0034415,0.0738085,0.0001,-0.0034415,-0.1205235,-0.3163499999999999,-0.1875395,0.1386565,-0.3237899999999999,-0.1815495,-0.1237935,-0.6556599999999999,-0.1101685,0.1272964999999999,-0.6641999999999999,-0.1032635,1
76,0.0004655,0.70633,0.0376115,-0.1600515,0.4775399999999999,0.0516675,-0.3458414999999999,0.63136,0.0642325,0.1670585,0.48055,0.0435615,0.3256185,0.66042,0.0347655,-0.3816515,0.85138,0.0002405,0.3477985,0.8793099999999999,-0.0052134999999999,-0.0740885,-6.0000000000004494e-05,0.0029234999999999,0.0740885,6.0000000000004494e-05,-0.0029234999999999,-0.1197115,-0.29998,-0.1995545,0.1401285,-0.3073899999999999,-0.1938845,-0.1227615,-0.63941,-0.1185475,0.1280985,-0.64759,-0.1118855,1
77,0.0013564999999999,0.7062599999999999,0.03003,-0.1591855,0.47834,0.0444239999999999,-0.3451055,0.6324799999999999,0.055282,0.1673945,0.48064,0.0362829999999999,0.3267144999999999,0.6592199999999999,0.0256059999999999,-0.3811255,0.8488199999999999,-0.01049,0.3489345,0.8792500000000001,-0.015918,-0.0743705,-0.00013,0.0023129999999999,0.0743705,0.0001299999999999,-0.002313,-0.1197155,-0.28389,-0.214742,0.1417845,-0.29125,-0.208662,-0.1217555,-0.6231,-0.126613,0.1288845,-0.6310899999999999,-0.120188,1
78,0.0022294999999999,0.705635,0.0214834999999999,-0.1583265,0.479445,0.0365215,-0.3443265,0.6334949999999999,0.0457305,0.1678335,0.481185,0.0283485,0.3277035,0.657505,0.0157964999999999,-0.3804565,0.845985,-0.0216035,0.3498935,0.879165,-0.0270545,-0.0747095,-0.000205,0.0017095,0.0747095,0.0002049999999999,-0.0017095,-0.1195465,-0.268725,-0.2296325,0.1435934999999999,-0.274515,-0.2231225,-0.1206565,-0.6069150000000001,-0.1346705,0.1296935,-0.613955,-0.1284665,1
79,0.003106,0.7052499999999999,0.0127315,-0.1576099999999999,0.47988,0.0282965,-0.34391,0.63496,0.0356564999999999,0.16849,0.48237,0.0203775,0.32875,0.65628,0.0058835,-0.37967,0.84288,-0.0327294999999999,0.35098,0.87897,-0.0383435,-0.075031,-0.0003599999999999,0.0011245,0.075031,0.0003599999999999,-0.0011245,-0.11929,-0.25402,-0.2443814999999999,0.14547,-0.25887,-0.2374015,-0.1194799999999999,-0.59111,-0.1428465,0.1305299999999999,-0.59721,-0.1366355,1
80,0.003959,0.7048449999999999,0.0034949999999999,-0.156957,0.480685,0.0197419999999999,-0.343527,0.6369750000000001,0.0251959999999999,0.168433,0.482175,0.011424,0.329663,0.655265,-0.004372,-0.378777,0.840145,-0.044059,0.352143,0.879075,-0.049898,-0.075362,-0.0004249999999999,0.000593,0.075362,0.000425,-0.0005929999999999,-0.1188169999999999,-0.2392749999999999,-0.25892,0.147273,-0.2438949999999999,-0.25159,-0.1180669999999999,-0.575145,-0.150901,0.131373,-0.580405,-0.144527,1
81,0.0049054999999999,0.7046950000000001,-0.0066585,-0.1560965,0.481515,0.0103334999999999,-0.3426865,0.639355,0.0138625,0.1683935,0.480915,0.0018045,0.3305635,0.654825,-0.0153575,-0.3779365,0.842535,-0.0559015,0.3534535,0.880545,-0.0621365,-0.0755685,-0.0003349999999999,0.0001115,0.0755685,0.000335,-0.0001115,-0.1176265,-0.224115,-0.2739005,0.1491235,-0.228615,-0.2657405,-0.1164365,-0.557805,-0.1593155,0.1323734999999999,-0.563095,-0.1526205,1
82,0.005737,0.7052700000000001,-0.016741,-0.155237,0.48038,0.000947,-0.342147,0.64279,0.002388,0.168093,0.48104,-0.007509,0.331403,0.6564300000000001,-0.025987,-0.3768869999999999,0.84473,-0.0675,0.354613,0.88328,-0.073481,-0.075846,-0.0004299999999999,-0.000341,0.075846,0.0004299999999999,0.0003409999999999,-0.1164169999999999,-0.21066,-0.288253,0.150733,-0.21458,-0.278773,-0.115037,-0.54182,-0.167287,0.133153,-0.5468999999999999,-0.160038,1
83,0.00666,0.705495,-0.0278655,-0.154383,0.481485,-0.0093985,-0.341753,0.647635,-0.0098335,0.167447,0.480975,-0.0178655,0.332137,0.6582950000000001,-0.0382735,-0.375693,0.849905,-0.0800035,0.355497,0.883185,-0.0858165,-0.076307,-0.0002449999999999,-0.0007565,0.076307,0.000245,0.0007564999999999,-0.115163,-0.1958649999999999,-0.3028765,0.152177,-0.1998349999999999,-0.2922465,-0.1135129999999999,-0.524975,-0.1753185,0.133737,-0.5296949999999999,-0.1678325,1
84,0.0072959999999999,0.7046650000000001,-0.0397075,-0.153648,0.482325,-0.0199965,-0.341548,0.650625,-0.0212595,0.166692,0.480025,-0.0296405,0.332072,0.6589750000000001,-0.0510975,-0.374698,0.851855,-0.0915175,0.356232,0.887515,-0.0980365,-0.076516,-5.499999999997174e-05,-0.0011584999999999,0.076516,5.500000000002725e-05,0.0011585,-0.114008,-0.1804449999999999,-0.3164345,0.153302,-0.1843849999999999,-0.3053945,-0.111978,-0.508045,-0.1835005,0.133902,-0.5120049999999999,-0.1760225,1
85,0.0076945,0.7006650000000001,-0.0476329999999999,-0.1531374999999999,0.480425,-0.0270119999999999,-0.3415575,0.650685,-0.0284809999999999,0.1656525,0.476785,-0.0374179999999999,0.3316325,0.6576150000000001,-0.0596899999999999,-0.3739475,0.850155,-0.097948,0.3569024999999999,0.891845,-0.1057699999999999,-0.0767205,5.000000000032756e-06,-0.0012569999999999,0.0767205,-4.999999999977245e-06,0.001257,-0.1131675,-0.1647949999999999,-0.32584,0.1541125,-0.168095,-0.3143399999999999,-0.1103275,-0.492105,-0.187427,0.1334225,-0.4950949999999999,-0.180001,1
86,0.0079894999999999,0.697635,-0.0552755,-0.1526725,0.4792349999999999,-0.0338175,-0.3412624999999999,0.650675,-0.0356465,0.1651375,0.475045,-0.0447135,0.3314175,0.656615,-0.0679355,-0.3730525,0.8506549999999999,-0.1042765,0.3571775,0.890675,-0.1131275,-0.0767205,0.0001049999999999,-0.0012564999999999,0.0767205,-0.000105,0.0012564999999999,-0.1127825,-0.148275,-0.3314775,0.1545075,-0.150525,-0.3201175,-0.1091024999999999,-0.4767949999999999,-0.1914505,0.1326575,-0.478385,-0.1834195,1
87,0.008287,0.69522,-0.062829,-0.1523749999999999,0.47764,-0.040669,-0.341055,0.65089,-0.04271,0.164555,0.47268,-0.052007,0.331105,0.65558,-0.07574,-0.372735,0.85097,-0.111301,0.356695,0.8888,-0.12017,-0.076848,0.0002599999999999,-0.001255,0.076848,-0.0002599999999999,0.0012549999999999,-0.112355,-0.12971,-0.337115,0.154915,-0.13145,-0.325875,-0.107825,-0.46169,-0.195119,0.131605,-0.46198,-0.186513,1
88,0.0084569999999999,0.6927,-0.070421,-0.152165,0.4763799999999999,-0.047694,-0.340955,0.6508700000000001,-0.049938,0.163815,0.469789,-0.059461,0.330745,0.6544300000000001,-0.083619,-0.372575,0.85118,-0.118597,0.3559549999999999,0.88568,-0.127164,-0.076832,0.00056,-0.001375,0.076832,-0.00056,0.001375,-0.112115,-0.1108,-0.3427449999999999,0.1551949999999999,-0.11199,-0.331655,-0.106365,-0.44621,-0.198795,0.1303949999999999,-0.44521,-0.189759,1
89,0.0084974999999999,0.6898150000000001,-0.078042,-0.1521265,0.47467,-0.054917,-0.3410364999999999,0.6501250000000001,-0.057335,0.1636635,0.468739,-0.066191,0.3302735,0.6531450000000001,-0.091392,-0.3722565,0.850655,-0.125696,0.3556035,0.881715,-0.134075,-0.0770605,0.000585,-0.00152,0.0770605,-0.000585,0.0015199999999999,-0.1106365,-0.0967249999999999,-0.34817,0.1554134999999999,-0.0964049999999999,-0.33706,-0.1041364999999999,-0.431705,-0.201603,0.1290635,-0.429655,-0.192744,1
90,0.0084199999999999,0.68666,-0.084301,-0.151949,0.472893,-0.06117,-0.341109,0.6474,-0.063735,0.1635609999999999,0.46795,-0.0720389999999999,0.330211,0.65124,-0.097893,-0.371979,0.84822,-0.131718,0.355311,0.87828,-0.139699,-0.077496,0.0005,-0.0018149999999999,0.077496,-0.0005,0.0018149999999999,-0.1089789999999999,-0.0815299999999999,-0.3524549999999999,0.155501,-0.0797,-0.3413549999999999,-0.103619,-0.41634,-0.204673,0.127611,-0.4131999999999999,-0.194771,1
91,0.0085095,0.6832199999999999,-0.090169,-0.1513545,0.471091,-0.066994,-0.3410245,0.64474,-0.069547,0.1636254999999999,0.467074,-0.077531,0.3303055,0.6493099999999999,-0.103837,-0.3714945,0.84585,-0.137191,0.3551955,0.87522,-0.144898,-0.0781005,0.0003799999999999,-0.00217,0.0781005,-0.00038,0.0021699999999999,-0.1069145,-0.06569,-0.35639,0.1557655,-0.06245,-0.34516,-0.1037345,-0.40024,-0.207505,0.1264455,-0.39688,-0.197253,1
92,0.0084465,0.67959,-0.09412,-0.1510025,0.468885,-0.071208,-0.3412625,0.6402100000000001,-0.073804,0.1633275,0.464635,-0.08093,0.3300075,0.64563,-0.107124,-0.3714625,0.8415,-0.141111,0.3548375,0.87165,-0.147858,-0.0786205,0.0004,-0.0027,0.0786205,-0.0003999999999999,0.0026999999999999,-0.1050525,-0.0506499999999999,-0.35853,0.1556374999999999,-0.0459199999999999,-0.3469,-0.1041624999999999,-0.38517,-0.208878,0.1260075,-0.3814799999999999,-0.198473,1
93,0.0082175,0.677025,-0.096173,-0.1510245,0.466748,-0.074041,-0.3418645,0.636885,-0.076575,0.1627954999999999,0.463628,-0.082234,0.3293055,0.6432249999999999,-0.108391,-0.3720545,0.839175,-0.143745,0.3540255,0.866555,-0.149267,-0.0790995,0.0002349999999999,-0.00284,0.0790995,-0.0002349999999999,0.0028399999999999,-0.1040944999999999,-0.0361949999999999,-0.36001,0.1551854999999999,-0.031675,-0.3479,-0.1049345,-0.371515,-0.209321,0.1252255,-0.367955,-0.198633,1
94,0.0080145,0.6750200000000001,-0.097436,-0.1511495,0.465639,-0.075926,-0.3423994999999999,0.63431,-0.079133,0.1622905,0.46274,-0.083147,0.3288405,0.64164,-0.109277,-0.3726195,0.83758,-0.146257,0.3530905,0.86099,-0.150497,-0.0795135,0.0002,-0.0028699999999999,0.0795135,-0.0001999999999999,0.0028699999999999,-0.1033395,-0.0237399999999999,-0.36156,0.1547905,-0.0194499999999999,-0.34879,-0.1058595,-0.36007,-0.2099659999999999,0.1245005,-0.3560799999999999,-0.198683,1
95,0.0076244999999999,0.6732149999999999,-0.098654,-0.1514474999999999,0.4644949999999999,-0.077591,-0.3430575,0.632315,-0.081466,0.1620325,0.46235,-0.083977,0.3283124999999999,0.640755,-0.110201,-0.3733175,0.837185,-0.148447,0.3522625,0.861435,-0.151808,-0.0798125,0.0001749999999999,-0.00289,0.0798125,-0.000175,0.00289,-0.1027875,-0.010145,-0.3634,0.1543625,-0.006045,-0.34991,-0.1075174999999999,-0.347435,-0.211079,0.1240425,-0.343005,-0.199695,1
96,0.0073825,0.671485,-0.0990979999999999,-0.1516635,0.463266,-0.078823,-0.3436935,0.629785,-0.083539,0.1618565,0.46286,-0.084391,0.3278565,0.640325,-0.110526,-0.3739435,0.834955,-0.149117,0.3516165,0.862445,-0.152365,-0.0800505,2.4999999999997247e-05,-0.00311,0.0800505,-2.4999999999997247e-05,0.00311,-0.1021935,0.002615,-0.36496,0.1541865,0.0069549999999999,-0.35071,-0.1094335,-0.3349949999999999,-0.211812,0.1238065,-0.330265,-0.2006609999999999,1
97,0.0071404999999999,0.66998,-0.097977,-0.1518955,0.46247,-0.078653,-0.3443755,0.62704,-0.08401,0.1616844999999999,0.462831,-0.083541,0.3273844999999999,0.6397200000000001,-0.109615,-0.3747155,0.8323200000000001,-0.148331,0.3510145,0.86523,-0.151495,-0.0802025,-3.999999999992898e-05,-0.003405,0.0802025,4.000000000004e-05,0.003405,-0.1015655,0.01662,-0.365135,0.1542045,0.02142,-0.350075,-0.1134554999999999,-0.3218299999999999,-0.2124599999999999,0.1245745,-0.3185199999999999,-0.202436,1
98,0.0070935,0.66882,-0.0963359999999999,-0.1521964999999999,0.461723,-0.07774,-0.3449065,0.624349,-0.0836109999999999,0.1616835,0.462195,-0.08212,0.3269535,0.63901,-0.108,-0.3754965,0.8298399999999999,-0.147069,0.3503935,0.86851,-0.149893,-0.0802205,-9.99999999995449e-06,-0.00372,0.0802205,9.99999999995449e-06,0.00372,-0.1010364999999999,0.03103,-0.36454,0.1542835,0.0358999999999999,-0.34883,-0.1175065,-0.3082,-0.213056,0.1259835,-0.30706,-0.2056819999999999,1
99,0.0072229999999999,0.667705,-0.093984,-0.152397,0.462134,-0.075492,-0.345257,0.623461,-0.081617,0.161833,0.461963,-0.079766,0.3267529999999999,0.6373850000000001,-0.10567,-0.375937,0.829115,-0.144755,0.349833,0.8665750000000001,-0.147587,-0.080246,0.000245,-0.0039899999999999,0.080246,-0.0002449999999999,0.00399,-0.100947,0.046085,-0.3630099999999999,0.1547029999999999,0.051055,-0.3465399999999999,-0.121987,-0.2952749999999999,-0.21392,0.129163,-0.2948449999999999,-0.2087669999999999,1
100,0.007174,0.667055,-0.0911299999999999,-0.1526529999999999,0.462217,-0.072652,-0.345703,0.622386,-0.0787889999999999,0.161787,0.4622279999999999,-0.0769119999999999,0.326497,0.6364879999999999,-0.1028299999999999,-0.376503,0.828245,-0.1419359999999999,0.348957,0.8642449999999999,-0.144789,-0.080299,0.000375,-0.0041699999999999,0.080299,-0.000375,0.00417,-0.101173,0.061535,-0.3606399999999999,0.155267,0.066655,-0.34365,-0.127333,-0.281995,-0.2145699999999999,0.132447,-0.2821249999999999,-0.2122099999999999,1
101,0.0070639999999999,0.666604,-0.087931,-0.152834,0.462635,-0.069772,-0.3461039999999999,0.6212840000000001,-0.0759249999999999,0.161626,0.463795,-0.0740309999999999,0.326246,0.635842,-0.099717,-0.377004,0.827385,-0.139013,0.348196,0.864445,-0.1416079999999999,-0.080384,0.0003349999999999,-0.0042799999999999,0.080384,-0.0003349999999999,0.00428,-0.1013439999999999,0.074585,-0.35799,0.155886,0.080305,-0.3407099999999999,-0.133664,-0.2709049999999999,-0.21608,0.135686,-0.271235,-0.21588,1
102,0.006996,0.666669,-0.084733,-0.153096,0.4631099999999999,-0.067119,-0.346366,0.620439,-0.073271,0.1615539999999999,0.46475,-0.070904,0.3260639999999999,0.635234,-0.09627,-0.377386,0.82651,-0.136347,0.347574,0.86487,-0.138193,-0.080635,0.0004899999999999,-0.004249,0.080635,-0.0004899999999999,0.004249,-0.101376,0.0862199999999999,-0.355321,0.156584,0.09236,-0.338001,-0.1392959999999999,-0.2611799999999999,-0.216551,0.139264,-0.26168,-0.2198709999999999,1
103,0.0068704999999999,0.667382,-0.081346,-0.1535375,0.4633,-0.064336,-0.3467475,0.6192960000000001,-0.070456,0.1614324999999999,0.46556,-0.067526,0.3256925,0.634034,-0.092465,-0.3782375,0.8246600000000001,-0.132713,0.3470125,0.86239,-0.133988,-0.0808655,0.00053,-0.004076,0.0808655,-0.0005299999999999,0.0040759999999999,-0.1015675,0.09751,-0.352734,0.1571824999999999,0.10401,-0.335314,-0.1431275,-0.2518699999999999,-0.216504,0.1427725,-0.25251,-0.223104,1
104,0.0067914999999999,0.668208,-0.078291,-0.1539775,0.46359,-0.061645,-0.3471675,0.617946,-0.067579,0.1613725,0.46594,-0.064783,0.3253625,0.632383,-0.088892,-0.3792175,0.82192,-0.129191,0.3462325,0.85876,-0.130072,-0.0810704999999999,0.00053,-0.0038569999999999,0.0810704999999999,-0.00053,0.0038569999999999,-0.1020375,0.1069,-0.350753,0.1577225,0.11363,-0.333103,-0.1463175,-0.2447599999999999,-0.216613,0.1452025,-0.2452799999999999,-0.225683,1
105,0.0066909999999999,0.6693990000000001,-0.0751485,-0.154379,0.464265,-0.0590315,-0.3476789999999999,0.6171740000000001,-0.0645735,0.161331,0.4656350000000001,-0.0621375,0.324641,0.630855,-0.0854765,-0.380179,0.8213750000000001,-0.1254745,0.345531,0.8549650000000001,-0.1263475,-0.081157,0.000605,-0.0035965,0.081157,-0.0006049999999999,0.0035965,-0.102589,0.115905,-0.3485735,0.158021,0.123045,-0.3306135,-0.150449,-0.2383449999999999,-0.2169935,0.147261,-0.2384249999999999,-0.2282535,1
106,0.0064165,0.6706380000000001,-0.072527,-0.1548565,0.464705,-0.0568819999999999,-0.3483165,0.6167790000000001,-0.0620839999999999,0.1608835,0.465605,-0.0597249999999999,0.3236435,0.629448,-0.0824029999999999,-0.3812965,0.821185,-0.12211,0.3449635,0.850415,-0.1229199999999999,-0.0812045,0.0006249999999999,-0.0033919999999999,0.0812045,-0.0006249999999999,0.003392,-0.1032865,0.123455,-0.346568,0.1580035,0.131005,-0.328578,-0.1529464999999999,-0.2331349999999999,-0.217528,0.1488335,-0.2302149999999999,-0.229598,1
107,0.0063104999999999,0.6718479999999999,-0.070001,-0.1550615,0.4652649999999999,-0.0549229999999999,-0.3487415,0.6165269999999999,-0.0598789999999999,0.1605885,0.4658349999999999,-0.0572479999999999,0.3229485,0.6279309999999999,-0.0794459999999999,-0.3821015,0.821105,-0.119199,0.3447285,0.845505,-0.1193549999999999,-0.0812815,0.0007249999999999,-0.0031589999999999,0.0812815,-0.000725,0.003159,-0.1037115,0.1303749999999999,-0.344322,0.1581685,0.1383349999999999,-0.326292,-0.1549715,-0.228345,-0.218032,0.1488584999999999,-0.223675,-0.229592,1
108,0.006052,0.6734060000000001,-0.0684545,-0.155511,0.46477,-0.0533605,-0.349301,0.615897,-0.0580985,0.160269,0.46607,-0.0554655,0.322849,0.627552,-0.0771745,-0.383061,0.8204400000000001,-0.1174125,0.344609,0.84378,-0.1168345,-0.081469,0.00053,-0.0029475,0.081469,-0.00053,0.0029474999999999,-0.104211,0.13487,-0.3424815,0.158339,0.14284,-0.3245015,-0.156571,-0.2251799999999999,-0.2186415,0.150519,-0.21919,-0.2294215,1
109,0.0057314999999999,0.6743529999999999,-0.0672835,-0.1559595,0.4648949999999999,-0.0521165,-0.3499095,0.6153289999999999,-0.0568025,0.1598905,0.4660249999999999,-0.0539875,0.3227505,0.6264139999999999,-0.0750425,-0.3838995,0.8197949999999999,-0.1164955,0.3445005,0.8418149999999999,-0.1146795,-0.0816215,0.0004649999999999,-0.0027844999999999,0.0816215,-0.000465,0.0027844999999999,-0.1047795,0.1380549999999999,-0.3409595,0.1585105,0.1460249999999999,-0.3231395,-0.1579995,-0.222825,-0.2196894999999999,0.1507505,-0.2160550000000001,-0.2290395,1
110,0.0052844999999999,0.675267,-0.066091,-0.1564495,0.46533,-0.051084,-0.3505594999999999,0.614597,-0.055969,0.1593004999999999,0.46604,-0.052432,0.3226405,0.625866,-0.073151,-0.3849295,0.81896,-0.116013,0.3442705,0.8417,-0.113024,-0.0816554999999999,0.0004699999999999,-0.002627,0.0816554999999999,-0.0004699999999999,0.0026269999999999,-0.1055095,0.14083,-0.339574,0.1585504999999999,0.1488499999999999,-0.321844,-0.1588595,-0.2208999999999999,-0.219584,0.1508805,-0.2132899999999999,-0.228654,1
111,0.0047429999999999,0.675905,-0.065061,-0.1568959999999999,0.4659149999999999,-0.0504769999999999,-0.351236,0.6140199999999999,-0.0557999999999999,0.1586639999999999,0.4662249999999999,-0.0512519999999999,0.322544,0.625652,-0.071658,-0.386096,0.8179949999999999,-0.115877,0.343904,0.8404849999999999,-0.1119319999999999,-0.081624,0.0004349999999999,-0.0025249999999999,0.081624,-0.000435,0.0025249999999999,-0.106006,0.1429949999999999,-0.3384749999999999,0.158384,0.1514249999999999,-0.320835,-0.159696,-0.218925,-0.219565,0.150944,-0.2111750000000001,-0.228435,1
112,0.0041739999999999,0.6759010000000001,-0.0641245,-0.157233,0.4666600000000001,-0.0502065,-0.351873,0.6136190000000001,-0.0556945,0.1580569999999999,0.46654,-0.0502765,0.322447,0.6261380000000001,-0.0705835,-0.387103,0.8174100000000001,-0.1157955,0.343537,0.84145,-0.1117875,-0.081603,0.00035,-0.0024925,0.081603,-0.0003499999999999,0.0024924999999999,-0.106483,0.1445700000000001,-0.3375435,0.1579469999999999,0.1534700000000001,-0.3199935,-0.160343,-0.2173999999999999,-0.2195635,0.150837,-0.2095499999999999,-0.2278535,1
113,0.0035915,0.6755920000000001,-0.06301,-0.1577275,0.46729,-0.049895,-0.3524375,0.6139190000000001,-0.055495,0.1573525,0.4675600000000001,-0.049174,0.3223425,0.6275580000000001,-0.06954,-0.3881775,0.81742,-0.11563,0.3432425,0.84294,-0.111571,-0.0815855,0.00014,-0.002516,0.0815855,-0.0001399999999999,0.0025159999999999,-0.1069475,0.1468100000000001,-0.336284,0.1574325,0.15617,-0.318834,-0.1603075,-0.2151299999999999,-0.219424,0.1506025,-0.2072499999999999,-0.227074,1
114,0.0029789999999999,0.675184,-0.0620685,-0.158211,0.4677949999999999,-0.0496655,-0.352931,0.614201,-0.0553265,0.156629,0.468535,-0.0481025,0.322279,0.628885,-0.0686295,-0.389351,0.817385,-0.1158735,0.342929,0.844295,-0.1113695,-0.0815859999999999,-4.499999999996174e-05,-0.0025395,0.0815859999999999,4.499999999996174e-05,0.0025395,-0.107401,0.1489249999999999,-0.3351515,0.156959,0.1586849999999999,-0.3177515,-0.160111,-0.213105,-0.2191715,0.150189,-0.205125,-0.2262115,1
115,0.0023915,0.674582,-0.061405,-0.1585964999999999,0.4684049999999999,-0.04951,-0.3532465,0.6141139999999999,-0.055892,0.1561235,0.469555,-0.04734,0.3221835,0.630078,-0.068067,-0.3903065,0.816925,-0.117488,0.3425235,0.845255,-0.111215,-0.0815345,-0.000225,-0.002582,0.0815345,0.000225,0.002582,-0.1078665,0.1507049999999999,-0.334278,0.1565435,0.160785,-0.316808,-0.1593865,-0.211245,-0.219378,0.1498135,-0.203385,-0.225358,1
116,0.0019159999999999,0.6738279999999999,-0.0611964999999999,-0.158968,0.4689099999999999,-0.0494474999999999,-0.3534279999999999,0.613833,-0.0569174999999999,0.1556719999999999,0.4703299999999999,-0.0469194999999999,0.322182,0.6311629999999999,-0.0679805,-0.3912279999999999,0.8161599999999999,-0.1194534999999999,0.342202,0.8456599999999999,-0.1113405,-0.081492,-0.00035,-0.0026054999999999,0.081492,0.0003499999999999,0.0026055,-0.108168,0.1520099999999998,-0.3336065,0.156202,0.1622099999999999,-0.3160765,-0.158518,-0.2099900000000001,-0.2201364999999999,0.1437419999999999,-0.20447,-0.2203665,1
117,0.001547,0.673003,-0.061161,-0.159154,0.4695249999999999,-0.0494,-0.353524,0.61422,-0.058137,0.155226,0.471015,-0.046653,0.3221259999999999,0.632058,-0.067925,-0.391804,0.816115,-0.121717,0.3418859999999999,0.846025,-0.111678,-0.081461,-0.000445,-0.0026469999999999,0.081461,0.000445,0.0026469999999999,-0.108314,0.153085,-0.333105,0.155986,0.1632549999999999,-0.3154949999999999,-0.157264,-0.2089649999999999,-0.221095,0.137846,-0.2057649999999999,-0.2155949999999999,1
118,0.001108,0.6723910000000001,-0.0611535,-0.159351,0.469835,-0.0494725,-0.353611,0.61453,-0.0594925,0.154799,0.471325,-0.0466445,0.322029,0.632368,-0.0678935,-0.392401,0.815995,-0.1241735,0.3417389999999999,0.846775,-0.1124135,-0.0813889999999999,-0.0005049999999999,-0.0026795,0.0813889999999999,0.000505,0.0026794999999999,-0.108381,0.153565,-0.3329395,0.155749,0.163665,-0.3151795,-0.1570909999999999,-0.208565,-0.2218195,0.131939,-0.207615,-0.2110295,1
119,0.0007035,0.672363,-0.0611809999999999,-0.1594555,0.469835,-0.0497329999999999,-0.3536355,0.61453,-0.0611919999999999,0.1544645,0.4714050000000001,-0.0466699999999999,0.3220444999999999,0.632368,-0.068044,-0.3929355,0.815995,-0.126921,0.3417645,0.847415,-0.1134459999999999,-0.0813705,-0.0005049999999999,-0.002678,0.0813705,0.000505,0.002678,-0.1083755,0.153655,-0.332939,0.1555945,0.163875,-0.315189,-0.1565255,-0.208225,-0.222579,0.1260745,-0.2097749999999999,-0.206579,1
120,0.0003684999999999,0.672363,-0.0613039999999999,-0.1595935,0.469845,-0.0504259999999999,-0.3535335,0.61453,-0.0632819999999999,0.1543264999999999,0.471425,-0.0466789999999999,0.3220665,0.632637,-0.0684989999999999,-0.3933035,0.815995,-0.1301439999999999,0.3418265,0.8482350000000001,-0.114767,-0.0813585,-0.0005049999999999,-0.0026769999999999,0.0813585,0.000505,0.002677,-0.1083635,0.153725,-0.3329379999999999,0.1556064999999999,0.164005,-0.315188,-0.1554134999999999,-0.2078149999999999,-0.222968,0.1260865,-0.2097749999999999,-0.2065779999999999,1
121,0.0001504999999999,0.672363,-0.061861,-0.1597374999999999,0.469895,-0.051162,-0.3533575,0.614556,-0.065441,0.1542425,0.471775,-0.046709,0.3221525,0.633316,-0.069317,-0.3933574999999999,0.815995,-0.133219,0.3419925,0.848685,-0.116823,-0.0813475,-0.0005049999999999,-0.002693,0.0813475,0.000505,0.0026929999999999,-0.1083375,0.153745,-0.332953,0.1556325,0.164005,-0.315203,-0.1541874999999999,-0.2075049999999999,-0.223113,0.1260425,-0.212295,-0.205583,1
122,4.8999999999996095e-05,0.671548,-0.062997,-0.159763,0.46964,-0.052101,-0.353233,0.614715,-0.067987,0.154187,0.47209,-0.047392,0.322307,0.634067,-0.070715,-0.393153,0.8156800000000001,-0.136655,0.342087,0.84872,-0.119343,-0.0812799999999999,-0.0005799999999999,-0.002805,0.0812799999999999,0.00058,0.002805,-0.108163,0.15294,-0.333379,0.155637,0.16319,-0.3154289999999999,-0.153793,-0.2079999999999999,-0.223309,0.1237069999999999,-0.21311,-0.203849,1
123,0.000169,0.670567,-0.0648775,-0.159667,0.4695,-0.0537375,-0.352897,0.614803,-0.0710645,0.154293,0.47169,-0.0485335,0.322623,0.6352450000000001,-0.0730575,-0.392667,0.81618,-0.1410455,0.3423429999999999,0.85029,-0.1229685,-0.081188,-0.0004899999999999,-0.0029585,0.081188,0.0004899999999999,0.0029585,-0.107727,0.15028,-0.3346945,0.155743,0.16065,-0.3163045,-0.153287,-0.2100799999999999,-0.2231945,0.123913,-0.21565,-0.2041545,1
124,0.0004305,0.669816,-0.0673195,-0.1594815,0.46868,-0.0554775,-0.3524015,0.615327,-0.0744455,0.1544485,0.47073,-0.0499584999999999,0.3230485,0.636974,-0.0761175,-0.3921314999999999,0.81631,-0.1453295,0.3427985,0.85095,-0.1265715,-0.0811014999999999,-0.0003999999999999,-0.0031754999999999,0.0811014999999999,0.0004,0.0031754999999999,-0.1070515,0.14673,-0.3363875,0.1559785,0.15722,-0.3175375,-0.1523815,-0.21297,-0.2234175,0.1226285,-0.2191799999999999,-0.2044975,1
125,0.0008835,0.669099,-0.0705269999999999,-0.1590045,0.46856,-0.0579389999999999,-0.3517445,0.615729,-0.078564,0.1547755,0.4698799999999999,-0.0525259999999999,0.3236255,0.637747,-0.0799879999999999,-0.3913845,0.81705,-0.1508519999999999,0.3431754999999999,0.85564,-0.131755,-0.0810915,-0.0002499999999999,-0.0034019999999999,0.0810915,0.0002499999999999,0.003402,-0.1061545,0.1413799999999999,-0.3388569999999999,0.1564255,0.15176,-0.319617,-0.1509444999999999,-0.21748,-0.225417,0.1214555,-0.22458,-0.205477,1
126,0.001328,0.668225,-0.074393,-0.158654,0.467685,-0.0612309999999999,-0.351184,0.615718,-0.083661,0.155286,0.468275,-0.055954,0.324186,0.638242,-0.084981,-0.390414,0.816705,-0.156938,0.343506,0.859385,-0.1373349999999999,-0.081144,-6.499999999998174e-05,-0.0036439999999999,0.081144,6.499999999998174e-05,0.003644,-0.1052539999999999,0.1340249999999999,-0.341982,0.1568159999999999,0.143845,-0.322462,-0.148994,-0.223785,-0.226652,0.120036,-0.232025,-0.2069619999999999,1
127,0.0017714999999999,0.667435,-0.0784335,-0.1583585,0.4666099999999999,-0.0649245,-0.3505985,0.615853,-0.0889855,0.1557515,0.4670499999999999,-0.0598235,0.3247115,0.6386839999999999,-0.0902465,-0.3891885,0.81968,-0.1644435,0.3438815,0.86227,-0.1429355,-0.0811455,9.9999999999989e-05,-0.0039215,0.0811455,-9.9999999999989e-05,0.0039214999999999,-0.1043284999999999,0.12578,-0.3453385,0.1571314999999999,0.1348099999999999,-0.3255885,-0.1469385,-0.23094,-0.2280585,0.1161815,-0.2396,-0.2039985,1
128,0.0020889999999999,0.666933,-0.0825275,-0.158225,0.4653499999999999,-0.0686475,-0.350065,0.6164689999999999,-0.0943165,0.156145,0.4659099999999999,-0.0638475,0.325145,0.639732,-0.0955835,-0.388165,0.8223699999999999,-0.1716115,0.344355,0.86525,-0.1485915,-0.0811,9.9999999999989e-05,-0.0042174999999999,0.0811,-9.9999999999989e-05,0.0042174999999999,-0.103445,0.1170999999999999,-0.3487625,0.157175,0.12532,-0.3288625,-0.144935,-0.23868,-0.2294725,0.117945,-0.24463,-0.2054225,1
129,0.0023789999999999,0.6664789999999999,-0.0867735,-0.157992,0.464105,-0.0728315,-0.349562,0.61657,-0.0998204999999999,0.156598,0.4648049999999999,-0.0680105,0.325658,0.639575,-0.1010015,-0.387502,0.822855,-0.1784625,0.344918,0.866325,-0.1542585,-0.081024,-4.500000000007276e-05,-0.0044754999999999,0.081024,4.499999999996174e-05,0.0044755,-0.102632,0.1055549999999999,-0.3523745,0.157078,0.1129349999999999,-0.3325045,-0.1385819999999999,-0.246605,-0.2261545,0.119768,-0.252115,-0.2070145,1
130,0.0026104999999999,0.666427,-0.0911044999999999,-0.1577535,0.462955,-0.0771674999999999,-0.3491335,0.616607,-0.1053344999999999,0.1570264999999999,0.463345,-0.0722584999999999,0.3261265,0.639764,-0.1063074999999999,-0.3870635,0.823045,-0.1850235,0.3454165,0.8662350000000001,-0.1595535,-0.0810035,-0.0001349999999999,-0.0047804999999999,0.0810035,0.0001349999999999,0.0047805,-0.1018735,0.093085,-0.3559894999999999,0.1570464999999999,0.099525,-0.3362595,-0.1323635,-0.255645,-0.2226595,0.1217665,-0.2594649999999999,-0.2065294999999999,1
131,0.002868,0.666765,-0.095196,-0.157544,0.462265,-0.081433,-0.348744,0.616309,-0.110077,0.157476,0.462205,-0.076337,0.326586,0.640023,-0.110965,-0.386664,0.822875,-0.190723,0.345826,0.8660650000000001,-0.163879,-0.080977,-0.0002149999999999,-0.004942,0.080977,0.000215,0.004942,-0.101144,0.079575,-0.358788,0.157076,0.085265,-0.339668,-0.127024,-0.2655349999999999,-0.219098,0.123756,-0.267485,-0.2060779999999999,1
132,0.003057,0.667815,-0.098441,-0.157336,0.461705,-0.085049,-0.3484859999999999,0.616955,-0.114321,0.157934,0.461595,-0.079987,0.326914,0.640448,-0.114369,-0.386416,0.822225,-0.194795,0.346214,0.864785,-0.167028,-0.08094,-0.0004149999999999,-0.005065,0.08094,0.000415,0.005065,-0.100516,0.066325,-0.360565,0.157244,0.071475,-0.342155,-0.122226,-0.2750849999999999,-0.215995,0.124324,-0.274995,-0.205925,1
133,0.003133,0.668855,-0.101209,-0.157238,0.461507,-0.088391,-0.3483779999999999,0.616912,-0.117843,0.158162,0.4620849999999999,-0.083334,0.327102,0.640156,-0.117273,-0.386318,0.821905,-0.198524,0.346192,0.863955,-0.170539,-0.080771,-0.000685,-0.0051199999999999,0.080771,0.0006849999999999,0.0051199999999999,-0.100028,0.0519149999999999,-0.36213,0.157252,0.056975,-0.34404,-0.118028,-0.285315,-0.2130699999999999,0.125062,-0.285145,-0.206095,1
134,0.003016,0.67163,-0.103249,-0.157375,0.4613359999999999,-0.09067,-0.348505,0.6156259999999999,-0.120174,0.1582049999999999,0.4618589999999999,-0.085264,0.327005,0.6405429999999999,-0.119161,-0.386075,0.8214599999999999,-0.200552,0.345865,0.85971,-0.172262,-0.0804199999999999,-0.00077,-0.005085,0.0804199999999999,0.0007699999999999,0.0050849999999999,-0.0998149999999999,0.0349499999999999,-0.363255,0.157055,0.0403199999999999,-0.345195,-0.1141349999999999,-0.29812,-0.209655,0.125715,-0.2976700000000001,-0.20591,1
135,0.0026705,0.6742600000000001,-0.103554,-0.1575125,0.461687,-0.090961,-0.3491225,0.616617,-0.1204969999999999,0.1579175,0.462598,-0.085565,0.3267575,0.6407700000000001,-0.119459,-0.3861025,0.82267,-0.2008349999999999,0.3455975,0.8583000000000001,-0.172562,-0.0799775,-0.0009299999999999,-0.0049949999999999,0.0799775,0.0009299999999999,0.0049949999999999,-0.1000425,0.01831,-0.3635549999999999,0.1565175,0.02368,-0.345515,-0.1094125,-0.31218,-0.204896,0.1239875,-0.3113899999999999,-0.200315,1
136,0.0022689999999999,0.6769350000000001,-0.103614,-0.157756,0.4622920000000001,-0.09101,-0.349926,0.6189150000000001,-0.120584,0.1575539999999999,0.463215,-0.0856219999999999,0.326444,0.6424050000000001,-0.119513,-0.386186,0.821755,-0.200873,0.345314,0.862145,-0.172614,-0.079486,-0.0010749999999999,-0.0049299999999999,0.079486,0.001075,0.00493,-0.100426,0.001015,-0.36324,0.155874,0.006385,-0.3455899999999999,-0.104686,-0.326935,-0.200116,0.122474,-0.325105,-0.1952269999999999,1
137,0.0019555,0.6797150000000001,-0.1036339999999999,-0.1579585,0.463593,-0.0910229999999999,-0.3504885,0.620415,-0.1206209999999999,0.1575315,0.464211,-0.0856229999999999,0.3259114999999999,0.6430750000000001,-0.1195479999999999,-0.3862085,0.8223750000000001,-0.200874,0.3454115,0.864665,-0.172553,-0.0790184999999999,-0.0011649999999999,-0.0048999999999999,0.0790184999999999,0.001165,0.0049,-0.1009485,-0.0173249999999999,-0.36245,0.1552915,-0.0119549999999999,-0.34543,-0.1005085,-0.3427249999999999,-0.1948929999999999,0.1219115,-0.341175,-0.190681,1
138,0.0016164999999999,0.683275,-0.103395,-0.1581314999999999,0.465174,-0.090838,-0.3509915,0.622625,-0.120491,0.1575685,0.4652989999999999,-0.08558,0.3253284999999999,0.645365,-0.11891,-0.3863215,0.8239449999999999,-0.200753,0.3452885,0.865415,-0.171822,-0.0785135,-0.001045,-0.004865,0.0785135,0.0010449999999999,0.0048649999999999,-0.1015915,-0.039085,-0.359905,0.1545885,-0.033835,-0.343395,-0.1010514999999999,-0.364395,-0.193867,0.1208285,-0.3612850000000001,-0.18437,1
139,0.0013005,0.68658,-0.102839,-0.1583495,0.467318,-0.090181,-0.3516395,0.62507,-0.119705,0.1575705,0.467118,-0.085135,0.3247805,0.6476,-0.117865,-0.3867595,0.8261799999999999,-0.1984739999999999,0.3449905,0.86697,-0.170696,-0.0780515,-0.0010499999999999,-0.00478,0.0780515,0.0010499999999999,0.0047799999999999,-0.1022595,-0.0606499999999999,-0.35673,0.1539805,-0.0553799999999999,-0.34074,-0.1016095,-0.3862799999999999,-0.192732,0.1202905,-0.38305,-0.183489,1
140,0.000994,0.6902900000000001,-0.100826,-0.158603,0.469045,-0.088673,-0.352363,0.6285400000000001,-0.117583,0.1576769999999999,0.469085,-0.083478,0.324097,0.65008,-0.114921,-0.3868729999999999,0.83216,-0.194842,0.344347,0.8705400000000001,-0.167853,-0.077607,-0.0011399999999999,-0.00461,0.077607,0.00114,0.0046099999999999,-0.103103,-0.0832199999999999,-0.35187,0.1534269999999999,-0.0782499999999999,-0.33628,-0.102163,-0.41111,-0.191232,0.119727,-0.40766,-0.181959,1
141,0.000803,0.69387,-0.0983589999999999,-0.158801,0.470548,-0.0863829999999999,-0.353091,0.63103,-0.114658,0.157889,0.471426,-0.0814139999999999,0.323529,0.6517999999999999,-0.1113729999999999,-0.3869709999999999,0.83679,-0.1909,0.343759,0.8730100000000001,-0.164066,-0.0771179999999999,-0.0012599999999999,-0.0044299999999999,0.0771179999999999,0.0012599999999999,0.00443,-0.103941,-0.10513,-0.3461999999999999,0.153089,-0.1004399999999999,-0.3308,-0.1035109999999999,-0.43643,-0.1906489999999999,0.119259,-0.43227,-0.1800669999999999,1
142,0.00072,0.6972100000000001,-0.095298,-0.158928,0.47228,-0.083683,-0.353618,0.63398,-0.111399,0.158182,0.47276,-0.078787,0.322912,0.65344,-0.107243,-0.386938,0.84113,-0.186574,0.343252,0.87512,-0.15953,-0.07677,-0.0012499999999999,-0.00425,0.07677,0.00125,0.00425,-0.1047279999999999,-0.1256199999999999,-0.34003,0.1527619999999999,-0.1213099999999999,-0.32473,-0.104768,-0.4608399999999999,-0.18971,0.120422,-0.45711,-0.1788,1
143,0.000819,0.699805,-0.0916799999999999,-0.158818,0.473545,-0.0804979999999999,-0.354008,0.6383650000000001,-0.107637,0.158682,0.4741849999999999,-0.0755459999999999,0.322452,0.654385,-0.1027989999999999,-0.386628,0.844165,-0.1818699999999999,0.342902,0.878635,-0.15397,-0.076564,-0.001305,-0.0040999999999999,0.076564,0.001305,0.0041,-0.1053379999999999,-0.143055,-0.33374,0.152582,-0.139305,-0.31806,-0.105788,-0.482675,-0.188085,0.121802,-0.479335,-0.177014,1
144,0.0008264999999999,0.702715,-0.0879305,-0.1587955,0.4748449999999999,-0.0768635,-0.3544755,0.640765,-0.1036745,0.1590645,0.475195,-0.0720954999999999,0.3218445,0.657545,-0.0982524999999999,-0.3863955,0.846525,-0.1771575,0.3421345,0.880835,-0.1482255,-0.0762865,-0.0013949999999999,-0.0039054999999999,0.0762865,0.0013949999999999,0.0039055,-0.1059855,-0.157765,-0.3273345,0.1523244999999999,-0.154855,-0.3112844999999999,-0.1068855,-0.502255,-0.1862545,0.1229444999999999,-0.499495,-0.1750324999999999,1
145,0.0009389999999999,0.706305,-0.083995,-0.158723,0.475695,-0.073262,-0.354673,0.642415,-0.099499,0.159497,0.475885,-0.068518,0.321507,0.659465,-0.093631,-0.385643,0.848435,-0.171995,0.341557,0.8840650000000001,-0.142788,-0.075987,-0.0015149999999999,-0.003692,0.075987,0.0015149999999999,0.003692,-0.106563,-0.1708549999999999,-0.321158,0.152057,-0.169215,-0.304728,-0.107613,-0.520505,-0.184323,0.123797,-0.5174350000000001,-0.17293,1
146,0.0009605,0.7090099999999999,-0.0798045,-0.1585695,0.4765,-0.0696415,-0.3549295,0.6444300000000001,-0.0952155,0.1598905,0.47772,-0.0650415,0.3210205,0.66076,-0.0886595,-0.3853295,0.8493599999999999,-0.1663595,0.3411105,0.88741,-0.1371485,-0.0756854999999999,-0.00163,-0.0034695,0.0756854999999999,0.00163,0.0034695,-0.1071695,-0.1830899999999999,-0.3147705,0.1516205,-0.1829899999999999,-0.2976904999999999,-0.1084395,-0.53844,-0.1818555,0.1241905,-0.53548,-0.1704565,1
147,0.000898,0.7107049999999999,-0.076016,-0.158355,0.476935,-0.066772,-0.355195,0.646095,-0.091043,0.160235,0.479225,-0.0616349999999999,0.320645,0.661385,-0.083938,-0.385255,0.851355,-0.160678,0.340705,0.892705,-0.131848,-0.075399,-0.001725,-0.0032319999999999,0.075399,0.0017249999999999,0.003232,-0.1076149999999999,-0.192045,-0.308964,0.151045,-0.192705,-0.291474,-0.109235,-0.552075,-0.178496,0.1242149999999999,-0.5494450000000001,-0.1673919999999999,1
148,0.000902,0.7133050000000001,-0.071863,-0.15823,0.477195,-0.063396,-0.35539,0.6471549999999999,-0.086481,0.1606,0.479985,-0.057859,0.32,0.662505,-0.078592,-0.3853,0.854425,-0.154691,0.3406,0.897065,-0.1259569999999999,-0.075121,-0.001755,-0.003044,0.075121,0.001755,0.003044,-0.10811,-0.200955,-0.302846,0.1504,-0.2022749999999999,-0.284866,-0.10999,-0.565915,-0.174764,0.12414,-0.5635950000000001,-0.163388,1
149,0.0009019999999999,0.715355,-0.068545,-0.158045,0.478115,-0.060706,-0.355815,0.6477649999999999,-0.082334,0.160685,0.480965,-0.054808,0.319555,0.6626650000000001,-0.074187,-0.385605,0.8534949999999999,-0.14942,0.3405749999999999,0.8992249999999999,-0.120893,-0.074878,-0.001785,-0.002892,0.074878,0.001785,0.0028919999999999,-0.108585,-0.208405,-0.297898,0.149685,-0.209635,-0.279078,-0.110355,-0.5767150000000001,-0.17153,0.124095,-0.574595,-0.160361,1
150,0.0009925,0.71689,-0.065034,-0.1577925,0.47872,-0.057953,-0.3560824999999999,0.6482600000000001,-0.077873,0.1608175,0.48197,-0.051627,0.3191575,0.66292,-0.069694,-0.3860825,0.8536699999999999,-0.143849,0.3401575,0.90148,-0.115939,-0.0747345,-0.0017999999999999,-0.002851,0.0747345,0.0017999999999999,0.0028509999999999,-0.1089525,-0.2152099999999999,-0.292724,0.1491175,-0.21672,-0.273154,-0.1106725,-0.58712,-0.168214,0.1239375,-0.5854400000000001,-0.156962,1
151,0.0010695,0.7185900000000001,-0.0614375,-0.1575335,0.4797099999999999,-0.0551275,-0.3565135,0.64854,-0.0732465,0.1609165,0.48311,-0.0484145,0.3187365,0.66322,-0.0652695,-0.3865935,0.8541300000000001,-0.1381115,0.3396965,0.90361,-0.1110195,-0.0746285,-0.0017699999999999,-0.0027855,0.0746285,0.0017699999999999,0.0027854999999999,-0.1093835,-0.22228,-0.2874255,0.1485565,-0.22372,-0.2671354999999999,-0.1110235,-0.59755,-0.1647865,0.1238165,-0.59616,-0.1535505,1
152,0.0011049999999999,0.719815,-0.057816,-0.157252,0.480555,-0.052302,-0.357012,0.648405,-0.068661,0.1610579999999999,0.485025,-0.045171,0.318648,0.665015,-0.060862,-0.387352,0.8546950000000001,-0.132477,0.339638,0.902515,-0.106548,-0.074422,-0.001835,-0.0027169999999999,0.074422,0.001835,0.0027169999999999,-0.109602,-0.229395,-0.281929,0.1479579999999999,-0.2304249999999999,-0.261039,-0.111362,-0.607745,-0.16136,0.123668,-0.606845,-0.15068,1
153,0.0011245,0.7212350000000001,-0.0542865,-0.1570295,0.481655,-0.0495245,-0.3576395,0.648315,-0.0641695,0.1612105,0.4870649999999999,-0.0420265,0.3188404999999999,0.665395,-0.0565295,-0.3881895,0.8554550000000001,-0.1270315,0.3396805,0.901525,-0.1018875,-0.0740744999999999,-0.001835,-0.0027145,0.0740744999999999,0.0018349999999999,0.0027144999999999,-0.1097895,-0.236495,-0.2761895,0.1473104999999999,-0.2370249999999999,-0.2548095,-0.1116794999999999,-0.617515,-0.1579545,0.1235705,-0.6171550000000001,-0.1477745,1
154,0.0010949999999999,0.7211449999999999,-0.0507055,-0.156822,0.483175,-0.0466135,-0.358232,0.648175,-0.0597245,0.161378,0.4897249999999999,-0.0388215,0.319158,0.665505,-0.0521325,-0.389072,0.855505,-0.1216815,0.3398179999999999,0.894865,-0.0968365,-0.0737,-0.001835,-0.0026885,0.0737,0.001835,0.0026884999999999,-0.110062,-0.244035,-0.2700305,0.146528,-0.243955,-0.2481805,-0.111892,-0.627695,-0.1543945,0.1233679999999999,-0.6277550000000001,-0.1447955,1
155,0.001132,0.72241,-0.0473615,-0.156687,0.48394,-0.0439005,-0.358597,0.64853,-0.0554775,0.161633,0.49076,-0.0358105,0.319283,0.66692,-0.0478935,-0.389847,0.85592,-0.1169335,0.3400829999999999,0.89013,-0.0917165,-0.073364,-0.00182,-0.0026194999999999,0.073364,0.0018199999999999,0.0026194999999999,-0.110237,-0.2506,-0.2638865,0.145773,-0.25001,-0.2421665,-0.1120269999999999,-0.63664,-0.1511525,0.123503,-0.63708,-0.1420825,1
156,0.001232,0.723485,-0.0445315,-0.1565069999999999,0.485125,-0.0415885,-0.358717,0.647975,-0.0518445,0.161613,0.491955,-0.0333175,0.319323,0.668565,-0.0441475,-0.390487,0.8554350000000001,-0.1129585,0.340463,0.8871950000000001,-0.0869625,-0.073051,-0.0018049999999999,-0.0025645,0.073051,0.001805,0.0025644999999999,-0.110377,-0.256495,-0.2582685,0.145013,-0.255225,-0.2364385,-0.112237,-0.644345,-0.1483855,0.123693,-0.645465,-0.1394675,1
157,0.0012919999999999,0.7245550000000001,-0.042151,-0.1566239999999999,0.486145,-0.039384,-0.358844,0.647675,-0.048496,0.161686,0.493915,-0.030842,0.319706,0.6694850000000001,-0.040631,-0.3909539999999999,0.8533250000000001,-0.10926,0.340996,0.8892249999999999,-0.082372,-0.072658,-0.0017649999999999,-0.0024279999999999,0.072658,0.001765,0.0024279999999999,-0.110424,-0.2655349999999999,-0.252041,0.144386,-0.2642649999999999,-0.230331,-0.112264,-0.652965,-0.145496,0.1241159999999999,-0.6544449999999999,-0.136606,1
158,0.001313,0.726225,-0.0395339999999999,-0.156725,0.486745,-0.0370189999999999,-0.3587349999999999,0.647525,-0.0451139999999999,0.161745,0.494625,-0.0281809999999999,0.320075,0.671355,-0.0367749999999999,-0.3914849999999999,0.852155,-0.1053059999999999,0.341365,0.891625,-0.0775989999999999,-0.07228,-0.0016049999999999,-0.0023499999999999,0.07228,0.0016049999999999,0.00235,-0.110545,-0.274305,-0.2447649999999999,0.143815,-0.273035,-0.2235649999999999,-0.112215,-0.661505,-0.142564,0.1244349999999999,-0.663345,-0.133558,1
159,0.0008214999999999,0.72658,-0.0318824999999999,-0.1573004999999999,0.48662,-0.0297624999999999,-0.3586505,0.64613,-0.0368164999999999,0.1613295,0.49543,-0.0205544999999999,0.3199695,0.67205,-0.0279624999999999,-0.3921105,0.84945,-0.0960145,0.3412695,0.8921600000000001,-0.0680125,-0.0718834999999999,-0.00168,-0.0013144999999999,0.0718834999999999,0.00168,0.0013145,-0.1112305,-0.28461,-0.2317725,0.1426295,-0.28334,-0.2107325,-0.1127005,-0.67181,-0.1346335,0.1242794999999999,-0.67388,-0.1251245,1
160,0.0003564999999999,0.728765,-0.023835,-0.1577394999999999,0.487135,-0.022477,-0.3582495,0.643745,-0.028374,0.1613704999999999,0.496575,-0.012698,0.3199605,0.673805,-0.0190699999999999,-0.3927895,0.846645,-0.086431,0.3412205,0.892415,-0.058243,-0.0714885,-0.001505,-0.000654,0.0714885,0.0015049999999999,0.000654,-0.1114095,-0.297715,-0.215216,0.1404305,-0.298815,-0.193816,-0.1132995,-0.682575,-0.126156,0.1239705,-0.684955,-0.1168289999999999,1
161,2.349999999999851e-05,0.730665,-0.0161224999999999,-0.1581525,0.487715,-0.0151805,-0.3574125,0.641465,-0.0201475,0.1615575,0.497315,-0.0050534999999999,0.3202275,0.675445,-0.0103474999999999,-0.3933325,0.845015,-0.0770444999999999,0.3413675,0.893395,-0.0487355,-0.0712305,-0.0012549999999999,-6.499999999999562e-06,0.0712305,0.001255,6.499999999999562e-06,-0.1116725,-0.3100549999999999,-0.1991135,0.1383475,-0.313965,-0.1772034999999999,-0.1137924999999999,-0.692385,-0.1177604999999999,0.1236174999999999,-0.695025,-0.1091915,1
162,-0.00025,0.731796,-0.0084844999999999,-0.158472,0.488556,-0.0078875,-0.356492,0.639796,-0.0117415,0.161798,0.498096,0.0025494999999999,0.320578,0.676976,-0.0015555,-0.393832,0.844506,-0.0675915,0.341678,0.894946,-0.0392705,-0.071018,-0.0008849999999999,0.0006064999999999,0.071018,0.0008849999999999,-0.0006065,-0.111992,-0.323054,-0.1828105,0.136268,-0.329794,-0.1601705,-0.114252,-0.702254,-0.1093925,0.123288,-0.704904,-0.1010415,1
163,-0.0003004999999999,0.7337330000000001,-0.0009094999999999,-0.1587675,0.489143,-0.0006385,-0.3555775,0.6383530000000001,-0.0033714999999999,0.1621524999999999,0.4984429999999999,0.0100205,0.3211025,0.678983,0.0073935,-0.3943275,0.844323,-0.0580534999999999,0.3422624999999999,0.896943,-0.0297004999999999,-0.0708715,-0.0005809999999999,0.0011584999999999,0.0708715,0.0005809999999999,-0.0011584999999999,-0.1123175,-0.3354169999999999,-0.1666545,0.1340325,-0.345927,-0.1431245,-0.1147475,-0.711927,-0.1011065,0.1230525,-0.715027,-0.0926985,1
164,-0.0002979999999999,0.734635,0.006946,-0.159105,0.490135,0.006584,-0.354435,0.636655,0.004999,0.1626149999999999,0.499175,0.017517,0.321615,0.680415,0.016137,-0.394785,0.843435,-0.048388,0.342995,0.898355,-0.02037,-0.070628,-0.0001789999999999,0.001589,0.070628,0.0001789999999999,-0.001589,-0.112855,-0.348595,-0.150696,0.131805,-0.3619449999999999,-0.125826,-0.115535,-0.722065,-0.092811,0.123045,-0.725695,-0.084074,1
165,-0.0003655,0.7359245,0.0146104999999999,-0.1594945,0.4908344999999999,0.0137194999999999,-0.3534345,0.6359645,0.0132084999999999,0.1630355,0.4999245,0.0248675,0.3219755,0.6817245000000001,0.0246445,-0.3952545,0.8429445,-0.0389054999999999,0.3437155,0.8996945000000001,-0.0111565,-0.0704875,0.0001725,0.0019514999999999,0.0704875,-0.0001724999999999,-0.0019515,-0.1134345,-0.3608455,-0.1350205,0.1295055,-0.3771354999999999,-0.1088735,-0.1163245,-0.7315754999999999,-0.0847585,0.1229955,-0.7359355,-0.0759205,1
166,-0.0004929999999999,0.736559,0.0218175,-0.159994,0.4913389999999999,0.0205615,-0.352334,0.635319,0.0209374999999999,0.1633959999999999,0.500039,0.0319495,0.322346,0.682769,0.0326325,-0.395724,0.842719,-0.0300684999999999,0.344386,0.896529,-0.0025094999999999,-0.0704579999999999,0.000476,0.0022775,0.0704579999999999,-0.0004759999999999,-0.0022774999999999,-0.1140539999999999,-0.372071,-0.1202075,0.127156,-0.391091,-0.0927055,-0.117124,-0.738801,-0.0767335,0.122866,-0.745191,-0.0679655,1
167,-0.0006284999999999,0.7366325,0.029048,-0.1604364999999999,0.4914725,0.027325,-0.3514965,0.6341424999999999,0.0286769999999999,0.1637835,0.5010125,0.038969,0.3229734999999999,0.6836325,0.0404809999999999,-0.3960965,0.8416025,-0.021124,0.3452435,0.8937525,0.006375,-0.0704984999999999,0.0007405,0.00262,0.0704984999999999,-0.0007404999999999,-0.00262,-0.1147265,-0.3836775,-0.104699,0.1245035,-0.4053375,-0.076013,-0.1179865,-0.7468775,-0.068481,0.1226935,-0.7546575,-0.059841,1
168,-0.0005029999999999,0.7379410000000001,0.031278,-0.160733,0.4925009999999999,0.029004,-0.3506829999999999,0.634301,0.031162,0.164507,0.501701,0.0408609999999999,0.323877,0.685521,0.043042,-0.395793,0.841851,-0.017825,0.346247,0.8930410000000001,0.010187,-0.07047,0.001233,0.002044,0.07047,-0.0012329999999999,-0.002044,-0.115073,-0.3930089999999999,-0.09521,0.122257,-0.4172289999999999,-0.065531,-0.1185229999999999,-0.7529089999999999,-0.065152,0.122837,-0.7615489999999999,-0.056818,1
169,-0.0003134999999999,0.7372580000000001,0.0330605,-0.1607305,0.4925179999999999,0.0303615,-0.3502105,0.635568,0.0332875,0.1649095,0.502018,0.0423855,0.3247695,0.6865680000000001,0.0452295,-0.3954304999999999,0.8424980000000001,-0.0150654999999999,0.3472895,0.893368,0.0135265,-0.0704984999999999,0.0014589999999999,0.0018165,0.0704984999999999,-0.001459,-0.0018165,-0.1152505,-0.396862,-0.0894765,0.1211695,-0.421082,-0.0593895,-0.1189905,-0.7574019999999999,-0.0619395,0.1229494999999999,-0.766482,-0.0549985,1
170,-0.0002544999999999,0.7366535000000001,0.034684,-0.1608164999999999,0.4924935,0.031692,-0.3501065,0.6366035,0.035377,0.1651135,0.5021435,0.0438449999999999,0.3253335,0.6865235000000001,0.047291,-0.3953164999999999,0.8422535,-0.0123309999999999,0.3481235,0.8934035,0.017003,-0.0705895,0.0016924999999999,0.001572,0.0705895,-0.0016925,-0.001572,-0.1155564999999999,-0.4005665,-0.083717,0.1199535,-0.4247865,-0.053265,-0.1194765,-0.7612365,-0.058787,0.1229135,-0.7707864999999999,-0.053171,1
171,0.0001405,0.736611,0.0361105,-0.1605885,0.492011,0.0329825,-0.3497285,0.636921,0.0372505,0.1655215,0.501831,0.0452455,0.3259815,0.685831,0.0492035,-0.3950085,0.840761,-0.0093825,0.3492215,0.8927809999999999,0.0209115,-0.0708874999999999,0.001742,0.0013815,0.0708874999999999,-0.001742,-0.0013815,-0.1156385,-0.403389,-0.0778635,0.1189415,-0.428109,-0.0473945,-0.1197685,-0.764539,-0.0557644999999999,0.1229715,-0.774389,-0.0510945,1
172,0.0004104999999999,0.736384,0.03771,-0.1602815,0.491544,0.034136,-0.3493615,0.6366040000000001,0.039034,0.1658285,0.501574,0.046598,0.3264785,0.684874,0.050814,-0.3945815,0.839244,-0.0066789999999999,0.3500385,0.891884,0.024423,-0.0711525,0.0018599999999999,0.001193,0.0711525,-0.00186,-0.0011929999999999,-0.1163115,-0.4051059999999999,-0.0721479999999999,0.1181785,-0.430116,-0.041844,-0.1198015,-0.767336,-0.052808,0.1229785,-0.777456,-0.049214,1
173,0.0006749999999999,0.7364465,0.0393645,-0.159988,0.4910565,0.0353165,-0.348988,0.6361665000000001,0.0408745,0.1661019999999999,0.5006165,0.0479985,0.3269519999999999,0.6842665,0.0524625,-0.394178,0.8380765,-0.0039905,0.350852,0.8913565,0.0279265,-0.071376,0.0018974999999999,0.0011235,0.071376,-0.0018974999999999,-0.0011235,-0.116988,-0.4064135,-0.0664975,0.117442,-0.4318135,-0.0365874999999999,-0.119838,-0.7696035,-0.0496804999999999,0.123112,-0.7800334999999999,-0.0472944999999999,1
174,0.0009775,0.7365455000000001,0.041069,-0.1596395,0.4905955,0.03652,-0.3487395,0.6353155,0.042757,0.1664405,0.4991355,0.049387,0.3275305,0.6837655,0.054346,-0.3937295,0.8366855000000001,-0.0011369999999999,0.3517605,0.8909255,0.031644,-0.0715385,0.0019335,0.001068,0.0715385,-0.0019335,-0.0010679999999999,-0.1176495,-0.4073545,-0.061156,0.1169005,-0.4327645,-0.0316189999999999,-0.1198994999999999,-0.7716845,-0.0465859999999999,0.1233105,-0.7824445,-0.045262,1
175,0.0011304999999999,0.7365315,0.0427525,-0.1593515,0.4901315,0.0376645,-0.3485115,0.6345815,0.0446385,0.1667485,0.4975515,0.0508405,0.3280785,0.6833915,0.0563435,-0.3936015,0.8360715000000001,0.0018395,0.3526384999999999,0.8906115,0.0354695,-0.0716745,0.0019775,0.0009914999999999,0.0716745,-0.0019775,-0.0009914999999999,-0.1184315,-0.4079385,-0.0557104999999999,0.1164085,-0.4327885,-0.0268545,-0.1201115,-0.7729885,-0.0430915,0.1235185,-0.7844285,-0.0430055,1
176,0.0011754999999999,0.7364925,0.0441025,-0.1590695,0.4900525,0.0386245,-0.3482995,0.6341525,0.0461334999999999,0.1670005,0.4971224999999999,0.0520935,0.3283905,0.6829625,0.0580455,-0.3937395,0.8356425000000001,0.0042485,0.3532705,0.8901825,0.0385575,-0.0717865,0.0019804999999999,0.0008355,0.0717865,-0.0019804999999999,-0.0008354999999999,-0.1189794999999999,-0.4072675,-0.0518595,0.1162405,-0.4324175,-0.0234895,-0.1204195,-0.7731175,-0.0400834999999999,0.1235304999999999,-0.7852175,-0.0411085,1
177,0.0011249999999999,0.7366325,0.0455914999999999,-0.158971,0.4898625,0.0397924999999999,-0.347971,0.6338825,0.0478155,0.167159,0.4974525,0.0534685,0.328619,0.6826925,0.0601415,-0.394121,0.8353725000000001,0.0069275,0.353789,0.8899125,0.0418245,-0.07178,0.0019304999999999,0.0007375,0.07178,-0.0019305,-0.0007375,-0.119621,-0.4065975,-0.0479435,0.1159989999999999,-0.4322675,-0.0198245,-0.120771,-0.7732175,-0.0370864999999999,0.123459,-0.7856274999999999,-0.0389515,1
178,0.001105,0.7368965,0.0471925,-0.158926,0.4897565,0.0411625,-0.347626,0.6337765,0.0496355,0.167324,0.4974965,0.0550205,0.328834,0.6825865,0.0624745,-0.394496,0.8352665,0.0097185,0.3542639999999999,0.8898065,0.0452915,-0.071772,0.0018574999999999,0.0006184999999999,0.071772,-0.0018575,-0.0006184999999999,-0.120226,-0.4058835,-0.0440495,0.115754,-0.4323435,-0.0162105,-0.121156,-0.7733235,-0.0345355,0.123304,-0.7858935,-0.0366265,1
179,0.0011744999999999,0.7370555,0.0490875,-0.1587525,0.4896554999999999,0.0426605,-0.3472524999999999,0.6335855,0.0515505,0.1674874999999999,0.4969154999999999,0.0568915,0.3291075,0.6823255,0.0652385,-0.3946425,0.8351355,0.0128215,0.3547375,0.8895855,0.0491065,-0.0717625,0.0018065,0.0004735,0.0717625,-0.0018064999999999,-0.0004734999999999,-0.1207725,-0.4051745,-0.0400885,0.1155074999999999,-0.4324445,-0.0124885,-0.1215325,-0.7734245000000001,-0.0318375,0.1230675,-0.7860845000000001,-0.0340305,0
180,0.0012694999999999,0.7371559999999999,0.051147,-0.1585615,0.489556,0.0441639999999999,-0.3469115,0.633176,0.053663,0.1677185,0.496236,0.058776,0.3293485,0.6819759999999999,0.067952,-0.3948715,0.834726,0.015096,0.3549085,0.889276,0.052383,-0.0718485,0.0017579999999999,0.0003189999999999,0.0718485,-0.001758,-0.0003189999999999,-0.1212515,-0.4043339999999999,-0.036892,0.1151885,-0.432544,-0.009236,-0.1219415,-0.7735240000000001,-0.029049,0.1227385,-0.786294,-0.031625,0
181,0.0013105,0.7371635000000001,0.053256,-0.1584964999999999,0.4896335,0.045754,-0.3466965,0.6324335,0.055862,0.1678635,0.4962034999999999,0.060785,0.3294835,0.6811935,0.070145,-0.3951365,0.8339535,0.017262,0.3550035,0.8885235,0.054574,-0.0719185,0.0017544999999999,0.000165,0.0719185,-0.0017545,-0.0001649999999999,-0.1216565,-0.4036565,-0.034735,0.1148735,-0.4323365,-0.0065379999999999,-0.1224565,-0.7738165,-0.0263059999999999,0.1222335,-0.7864964999999999,-0.0290399999999999,0
182,0.0013049999999999,0.7370829999999999,0.055289,-0.158383,0.489533,0.04706,-0.346873,0.631333,0.058031,0.1678869999999999,0.4958829999999999,0.062689,0.329497,0.680183,0.072434,-0.395663,0.832813,0.0195139999999999,0.354917,0.887543,0.0568549999999999,-0.0719559999999999,0.001739,-8.900000000000227e-05,0.0719559999999999,-0.0017389999999999,8.89999999999988e-05,-0.122183,-0.403177,-0.032483,0.1144969999999999,-0.432167,-0.004276,-0.1231029999999999,-0.7741870000000001,-0.023687,0.121567,-0.7867770000000001,-0.026411,0
183,0.0016669999999999,0.7370815000000001,0.056952,-0.157924,0.4893915,0.048096,-0.347074,0.6310215,0.060025,0.167686,0.4947615,0.064501,0.329796,0.6801215,0.074956,-0.3960639999999999,0.8323115,0.02199,0.354956,0.8875215,0.05936,-0.072062,0.0017394999999999,-0.00033,0.072062,-0.0017395,0.00033,-0.122484,-0.4020085,-0.030001,0.1141959999999999,-0.4318585,-0.001794,-0.123404,-0.7738785,-0.0208959999999999,0.121236,-0.7863785,-0.023862,0
184,0.0024389999999999,0.737181,0.0574275,-0.157285,0.489331,0.0485935,-0.347075,0.630111,0.0606624999999999,0.167625,0.493651,0.0661135,0.330735,0.679301,0.0776335,-0.396155,0.831151,0.0227314999999999,0.355305,0.886741,0.0612985,-0.072086,0.001733,-0.0006104999999999,0.072086,-0.0017329999999999,0.0006104999999999,-0.122805,-0.401609,-0.0268585,0.113915,-0.431659,0.0015534999999999,-0.123765,-0.773769,-0.0175545,0.1209949999999999,-0.786319,-0.0205125,0
185,0.003302,0.7370495,0.0572889999999999,-0.156667,0.4893395,0.048753,-0.346987,0.6281495,0.060351,0.167593,0.4924595,0.067628,0.331983,0.6767695,0.079628,-0.396247,0.8289495,0.0222419999999999,0.356033,0.8842595,0.0628529999999999,-0.072102,0.0017625,-0.000843,0.072102,-0.0017625,0.0008429999999999,-0.123167,-0.4017205,-0.02437,0.113683,-0.4319305,0.0049759999999999,-0.124107,-0.7741905,-0.014096,0.120763,-0.7866305,-0.017073,0
186,0.0042104999999999,0.7370125,0.055737,-0.1560065,0.4884025,0.047913,-0.3492865,0.6183425,0.058048,0.1672135,0.4914525,0.06833,0.3346535,0.6635125,0.081437,-0.3966665,0.8188124999999999,0.016392,0.3581335,0.8710525,0.061688,-0.0721055,0.0017625,-0.0014489999999999,0.0721055,-0.0017625,0.001449,-0.1235165,-0.4014175,-0.0214339999999999,0.1135635,-0.4312275,0.007437,-0.1245665,-0.7740175,-0.0091909999999999,0.1204035,-0.7863275000000001,-0.0121609999999999,0
187,0.0052694999999999,0.7371184999999999,0.053396,-0.1552255,0.4875685,0.04694,-0.3516455,0.6072285,0.055325,0.1667445,0.4912085,0.068901,0.3382745,0.6486885,0.083901,-0.3965255,0.8071585,0.009234,0.3603845,0.8562485,0.060146,-0.0721565,0.0018024999999999,-0.0019479999999999,0.0721565,-0.0018025,0.001948,-0.1236155,-0.4002914999999999,-0.019628,0.1138645,-0.4300115,0.0085879999999999,-0.1247855,-0.7738115000000001,-0.0045209999999999,0.1203144999999999,-0.7850215,-0.0077809999999999,0
188,0.00674,0.7374719999999999,0.0504404999999999,-0.1539319999999999,0.486502,0.0451875,-0.353522,0.5915220000000001,0.0515744999999999,0.165908,0.491082,0.0688625,0.342098,0.629092,0.0874375,-0.395272,0.790022,-0.0008425,0.363858,0.8360620000000001,0.0567224999999999,-0.072249,0.00178,-0.0025415,0.072249,-0.00178,0.0025414999999999,-0.1232419999999999,-0.399188,-0.0179705,0.114818,-0.428078,0.0077594999999999,-0.1246519999999999,-0.7731779999999999,0.0002334999999999,0.120618,-0.783118,-0.0033005,0
189,0.008917,0.737749,0.046506,-0.151855,0.484879,0.0427479999999999,-0.351755,0.5691189999999999,0.0468079999999999,0.165065,0.490959,0.069093,0.345775,0.6034689999999999,0.091721,-0.392935,0.764079,-0.01627,0.370245,0.807639,0.050297,-0.072375,0.0017029999999999,-0.00311,0.072375,-0.0017029999999999,0.00311,-0.122375,-0.397791,-0.016599,0.1169149999999999,-0.424351,4.9999999999980616e-06,-0.123845,-0.7717010000000001,0.0059789999999999,0.1216049999999999,-0.780521,0.0012549999999999,0
190,0.0110139999999999,0.737691,0.0414765,-0.150013,0.482301,0.0398464999999999,-0.350123,0.537731,0.0433145,0.164317,0.4904409999999999,0.0699485,0.348267,0.572581,0.0961075,-0.390483,0.727511,-0.0375515,0.3772069999999999,0.771051,0.0405404999999999,-0.072512,0.001451,-0.0041395,0.072512,-0.001451,0.0041394999999999,-0.122253,-0.396169,-0.0159264999999999,0.119087,-0.417159,-0.0133064999999999,-0.123403,-0.770199,0.0125224999999999,0.123167,-0.7771790000000001,0.0031094999999999,0
191,0.012752,0.7373865,0.036136,-0.148642,0.4794065,0.037108,-0.3488219999999999,0.5031365,0.03645,0.163578,0.4896365,0.071201,0.349398,0.5376565,0.10048,-0.3877819999999999,0.6848465,-0.0608129999999999,0.383948,0.7288465,0.030571,-0.0726,0.0012085,-0.0049489999999999,0.0726,-0.0012085,0.0049489999999999,-0.122322,-0.3949135,-0.0148599999999999,0.121918,-0.4090935,-0.0289279999999999,-0.1233119999999999,-0.7690735,0.019028,0.127528,-0.7737635,-0.00042,0
192,0.014296,0.7370329999999999,0.0309345,-0.147861,0.476163,0.0343125,-0.348261,0.465283,0.0311854999999999,0.162839,0.4877329999999999,0.0727675,0.349529,0.5012030000000001,0.1057775,-0.384451,0.6356229999999999,-0.0846445,0.390929,0.681713,0.0191954999999999,-0.072702,0.0009319999999999,-0.0062104999999999,0.072702,-0.000932,0.0062104999999999,-0.1228109999999999,-0.393907,-0.0129235,0.125569,-0.400377,-0.0457144999999999,-0.124001,-0.767657,0.0263455,0.133399,-0.769777,-0.0071505,0
193,0.0161084999999999,0.736406,0.026411,-0.1473935,0.473036,0.033161,-0.3435135,0.423606,0.028037,0.1624965,0.485656,0.074767,0.3507065,0.462866,0.112317,-0.3785635,0.579796,-0.1058979999999999,0.3976165,0.630686,0.008699,-0.0726115,0.000688,-0.0074629999999999,0.0726115,-0.000688,0.007463,-0.1231235,-0.392794,-0.0100309999999999,0.1305565,-0.391974,-0.063338,-0.1247235,-0.766154,0.033931,0.1434565,-0.7654839999999999,-0.0193479999999999,0
194,0.018529,0.735908,0.0224525,-0.144916,0.468798,0.0299635,-0.335796,0.382938,0.0266445,0.162184,0.482828,0.0767325,0.352784,0.424408,0.1207455,-0.370706,0.519548,-0.1263415,0.403914,0.5775480000000001,-0.0013915,-0.072496,0.0004729999999999,-0.0089515,0.072496,-0.000473,0.0089515,-0.123496,-0.390222,-0.0063914999999999,0.137604,-0.3832419999999999,-0.0810315,-0.125556,-0.762892,0.0424645,0.158814,-0.758592,-0.0340915,0
195,0.0221134999999999,0.735532,0.019058,-0.1420945,0.465552,0.028032,-0.3247244999999999,0.350092,0.028201,0.1619455,0.479542,0.078849,0.3548555,0.395232,0.128753,-0.3593345,0.461932,-0.14114,0.4091055,0.531262,-0.0096699999999999,-0.0724065,0.0003649999999999,-0.0100699999999999,0.0724065,-0.000365,0.0100699999999999,-0.1237445,-0.387298,-0.00307,0.1462955,-0.375158,-0.09777,-0.1263045,-0.759468,0.05078,0.1787355,-0.749928,-0.0552,0
196,0.027573,0.7354489999999999,0.0156099999999999,-0.138586,0.462799,0.0255839999999999,-0.309996,0.319229,0.031901,0.162354,0.475959,0.080466,0.355164,0.366169,0.133769,-0.346026,0.394559,-0.15059,0.415314,0.482639,-0.0202399999999999,-0.0724559999999999,0.0004439999999999,-0.01076,0.0724559999999999,-0.0004439999999999,0.01076,-0.125656,-0.381801,0.00253,0.157204,-0.366681,-0.1117099999999999,-0.1296759999999999,-0.754101,0.06304,0.201764,-0.738701,-0.0778499999999999,0
197,0.0346284999999999,0.7346929999999999,0.0111899999999999,-0.1341935,0.4605829999999999,0.0228199999999999,-0.2933235,0.291593,0.0350199999999999,0.1640465,0.472483,0.081146,0.3534365,0.342643,0.139735,-0.3294835,0.329503,-0.15561,0.4205565,0.436293,-0.0277,-0.0724385,0.000586,-0.0115699999999999,0.0724385,-0.0005859999999999,0.0115699999999999,-0.1283435,-0.376167,0.0080399999999999,0.1676965,-0.357527,-0.12328,-0.1354335,-0.748467,0.077248,0.2269965,-0.727187,-0.10159,0
198,0.0419765,0.7325545,0.00626,-0.1308555,0.4599245,0.0204199999999999,-0.2732055,0.2702545,0.03915,0.1669244999999999,0.4679645,0.080872,0.3507345,0.3238145,0.141555,-0.3104854999999999,0.2709145,-0.15455,0.4259245,0.3955345,-0.0383199999999999,-0.0723385,0.0013165,-0.0122799999999999,0.0723385,-0.0013164999999999,0.01228,-0.1325955,-0.3722955,0.0138999999999999,0.1777845,-0.3500054999999999,-0.12871,-0.1437655,-0.7445955,0.091829,0.2505345,-0.7167155,-0.12522,0
199,0.050642,0.7294425,-0.0004349999999999,-0.126514,0.4603125,0.0156649999999999,-0.252389,0.2580025,0.0403649999999999,0.170541,0.4626625,0.0764109999999999,0.347011,0.3087125,0.135987,-0.293329,0.2191425,-0.144525,0.430991,0.3583625,-0.0482249999999999,-0.072111,0.0025194999999999,-0.012325,0.072111,-0.0025195,0.012325,-0.138909,-0.3689575,0.020625,0.185201,-0.3450175,-0.128855,-0.157949,-0.7423575,0.106918,0.269861,-0.7085375,-0.145775,0
200,0.0607154999999999,0.725196,-0.00939,-0.1219035,0.461246,0.0094799999999999,-0.2315145,0.254676,0.0434299999999999,0.1761754999999999,0.456466,0.06923,0.3449455,0.2962559999999999,0.125218,-0.2771145,0.1749959999999999,-0.13251,0.4372555,0.324486,-0.0621,-0.0718655,0.0034529999999999,-0.0124499999999999,0.0718655,-0.0034529999999999,0.0124499999999999,-0.1461335,-0.366344,0.02693,0.1899055,-0.342074,-0.1267799999999999,-0.1739945,-0.740464,0.122194,0.2840355,-0.700994,-0.1605899999999999,0
201,0.0734465,0.721101,-0.0232449999999999,-0.1146675,0.4620809999999999,-0.0009249999999999,-0.2137035,0.254481,0.044975,0.1835965,0.450791,0.057535,0.3452865,0.285401,0.105585,-0.2651135,0.13823,-0.1159949999999999,0.4425565,0.294061,-0.0826549999999999,-0.0718165,0.004288,-0.0122649999999999,0.0718164999999999,-0.004288,0.012265,-0.1549424999999999,-0.361129,0.032325,0.1902965,-0.339259,-0.122705,-0.1975235,-0.734189,0.136974,0.2883865,-0.693909,-0.168325,0
202,0.08789,0.716958,-0.04024,-0.1053839999999999,0.462798,-0.01472,-0.199934,0.255198,0.04452,0.19226,0.445468,0.0417899999999999,0.34432,0.277598,0.08021,-0.25482,0.1138619999999999,-0.09889,0.44893,0.266658,-0.10651,-0.07175,0.0050049999999999,-0.01206,0.07175,-0.005005,0.0120599999999999,-0.163493,-0.356342,0.0365599999999999,0.18792,-0.337182,-0.11765,-0.2220099999999999,-0.728012,0.1491309999999999,0.28503,-0.687312,-0.16969,0
203,0.1060354999999999,0.7126465000000001,-0.062355,-0.0965844999999999,0.4626365,-0.027445,-0.1844845,0.2545565,0.0413749999999999,0.2030555,0.4404265,0.0211349999999999,0.3481955,0.2706564999999999,0.0475649999999999,-0.2453345,0.0946165,-0.079885,0.4577955,0.2442965,-0.134995,-0.0718454999999999,0.0057125,-0.011225,0.0718455,-0.0057124999999999,0.0112249999999999,-0.1717095,-0.3514035,0.0406849999999999,0.1815455,-0.3373735,-0.110065,-0.2431665,-0.7228835,0.1583349999999999,0.2717355,-0.6836435,-0.164645,0
204,0.1245749999999999,0.708455,-0.0849999999999999,-0.083433,0.463535,-0.04364,-0.172624,0.253615,0.03723,0.213995,0.435695,-0.0001999999999999,0.353095,0.265035,0.01483,-0.238936,0.080773,-0.0615799999999999,0.465895,0.2263949999999999,-0.1617099999999999,-0.071905,0.0066539999999999,-0.0102099999999999,0.071905,-0.006654,0.0102099999999999,-0.179226,-0.346565,0.04426,0.1736749999999999,-0.338495,-0.1022799999999999,-0.262903,-0.717915,0.16506,0.253755,-0.681965,-0.1538399999999999,0
205,0.14354,0.7047925,-0.10875,-0.0699,0.4642125,-0.0598199999999999,-0.162921,0.2573825,0.03015,0.22463,0.4317725,-0.0229099999999999,0.36271,0.2620925,-0.01966,-0.232051,0.0795525,-0.0473799999999999,0.4719699999999999,0.2140425,-0.1846499999999999,-0.07211,0.0078765,-0.0093099999999999,0.07211,-0.0078764999999999,0.0093099999999999,-0.185171,-0.3418875,0.0463899999999999,0.1629499999999999,-0.3399275,-0.0954499999999999,-0.278461,-0.7127175,0.16897,0.23173,-0.6823874999999999,-0.13981,0
206,0.161385,0.7012364999999999,-0.1319249999999999,-0.056855,0.4667165,-0.0754749999999999,-0.155048,0.2620965,0.024485,0.234095,0.4277364999999999,-0.044985,0.373345,0.2584065,-0.0550049999999999,-0.228984,0.0775464999999999,-0.0346249999999999,0.4773349999999999,0.2049765,-0.2085449999999999,-0.072325,0.0098824999999999,-0.0080349999999999,0.0723249999999999,-0.0098825,0.008035,-0.190569,-0.3376835,0.048555,0.151905,-0.3422535,-0.0891349999999999,-0.291615,-0.7085335,0.170635,0.2067649999999999,-0.6836035,-0.1246649999999999,0
207,0.178415,0.6970995,-0.154275,-0.0431549999999999,0.4691094999999999,-0.091385,-0.148775,0.2675095,0.018795,0.242665,0.4235394999999999,-0.066925,0.381115,0.2542695,-0.086615,-0.2295219999999999,0.0749595,-0.0228149999999999,0.478745,0.1968295,-0.2258349999999999,-0.0724749999999999,0.0118575,-0.006765,0.072475,-0.0118575,0.006765,-0.1953049999999999,-0.3341805,0.050555,0.139885,-0.3449505,-0.082195,-0.301442,-0.7048305,0.171095,0.181935,-0.6858705,-0.1094149999999999,0
