sb224sc-HT22-VT27/4dt907/src/data/labeled_files/A146_kinect.csv
FrameNo,nose_3d_x,nose_3d_y,nose_3d_z,left_shoulder_3d_x,left_shoulder_3d_y,left_shoulder_3d_z,left_elbow_3d_x,left_elbow_3d_y,left_elbow_3d_z,right_shoulder_3d_x,right_shoulder_3d_y,right_shoulder_3d_z,right_elbow_3d_x,right_elbow_3d_y,right_elbow_3d_z,left_wrist_3d_x,left_wrist_3d_y,left_wrist_3d_z,right_wrist_3d_x,right_wrist_3d_y,right_wrist_3d_z,left_hip_3d_x,left_hip_3d_y,left_hip_3d_z,right_hip_3d_x,right_hip_3d_y,right_hip_3d_z,left_knee_3d_x,left_knee_3d_y,left_knee_3d_z,right_knee_3d_x,right_knee_3d_y,right_knee_3d_z,left_ankle_3d_x,left_ankle_3d_y,left_ankle_3d_z,right_ankle_3d_x,right_ankle_3d_y,right_ankle_3d_z,activity_label
0,0.000785,0.744172,0.0284929999999999,-0.156415,0.450392,0.0605259999999999,-0.178345,0.213752,0.0484109999999999,0.162645,0.455782,0.050779,0.188225,0.214332,0.054389,-0.189475,-0.004988,-0.028641,0.199355,0.018333,-0.015197,-0.072867,5.000000000000013e-05,0.0010039999999999,0.072867,-5.000000000000013e-05,-0.0010039999999999,-0.123945,-0.3274579999999999,-0.022935,0.117885,-0.353458,0.004357,-0.140945,-0.678618,0.0079699999999999,0.127965,-0.659788,0.0112699999999999,0
1,0.00082,0.7441490000000001,0.0285175,-0.156469,0.450319,0.0608415,-0.1782689999999999,0.213909,0.0485325,0.164231,0.455669,0.0495645,0.188291,0.214349,0.0545295,-0.1896189999999999,-0.008079,-0.0299424999999999,0.199331,0.018301,-0.0150924999999999,-0.0728659999999999,5.100000000000026e-05,0.0010695,0.0728659999999999,-5.099999999999983e-05,-0.0010694999999999,-0.123949,-0.327341,-0.0227264999999999,0.1178309999999999,-0.353921,0.0046915,-0.140989,-0.6786409999999999,0.0080265,0.127911,-0.660211,0.0114105,0
2,0.000872,0.7440315,0.0285179999999999,-0.1565359999999999,0.4503115,0.0611639999999999,-0.178246,0.2135815,0.048429,0.164934,0.4555215,0.048745,0.188274,0.2142814999999999,0.054508,-0.189346,-0.0092264999999999,-0.030724,0.199384,0.0184685,-0.014625,-0.072856,5.749999999999983e-05,0.0010939999999999,0.072856,-5.750000000000026e-05,-0.001094,-0.123866,-0.3269085,-0.022638,0.1179139999999999,-0.3544085,0.004864,-0.141036,-0.6784885,0.0080899999999999,0.127904,-0.6601585,0.0114429999999999,0
3,0.0009425,0.743981,0.0284839999999999,-0.1566215,0.4503609999999999,0.0614389999999999,-0.1783015,0.214071,0.048509,0.1644084999999999,0.455341,0.049045,0.1879984999999999,0.213971,0.0548729999999999,-0.1902015,-0.007342,-0.029369,0.1987885,0.01707,-0.014697,-0.0728554999999999,8.399999999999987e-05,0.0010729999999999,0.0728554999999999,-8.400000000000031e-05,-0.001073,-0.1239315,-0.326939,-0.022645,0.1179585,-0.354349,0.0048909999999999,-0.1412115,-0.6783790000000001,0.0084169999999999,0.1278284999999999,-0.660329,0.0115259999999999,0
4,0.000969,0.7440215,0.028394,-0.156649,0.4503915,0.061596,-0.178289,0.2138215,0.048507,0.165281,0.4550915,0.048243,0.187841,0.2135915,0.054875,-0.190229,-0.0089885,-0.030218,0.198661,0.0167194999999999,-0.0146219999999999,-0.0728429999999999,9.250000000000012e-05,0.001049,0.0728429999999999,-9.24999999999997e-05,-0.001049,-0.123969,-0.3270685,-0.022597,0.117911,-0.3545684999999999,0.004927,-0.141169,-0.6783885,0.008401,0.1277609999999999,-0.6605185,0.011456,0
5,0.0011069999999999,0.743963,0.028243,-0.156632,0.4503729999999999,0.061675,-0.178312,0.2138229999999999,0.04851,0.164128,0.454913,0.049317,0.187838,0.213583,0.054883,-0.189232,-0.003441,-0.0281029999999999,0.198728,0.016879,-0.0146079999999999,-0.072843,9.099999999999994e-05,0.001054,0.072843,-9.099999999999994e-05,-0.0010539999999999,-0.123982,-0.327107,-0.0225649999999999,0.117938,-0.354617,0.004954,-0.141112,-0.678347,0.008252,0.127848,-0.660567,0.011505,0
6,0.0011319999999999,0.7438975,0.028182,-0.1566489999999999,0.4503975,0.0617189999999999,-0.178589,0.2137175,0.048613,0.165101,0.4549175,0.048397,0.187801,0.2136375,0.054855,-0.189269,-0.0038155,-0.028101,0.198711,0.0169565,-0.014613,-0.072835,8.65000000000002e-05,0.001037,0.072835,-8.649999999999977e-05,-0.0010369999999999,-0.124009,-0.3271125,-0.0225609999999999,0.118011,-0.3548225,0.0053549999999999,-0.1411589999999999,-0.6783425000000001,0.008294,0.127941,-0.6605525000000001,0.011522,0
7,0.0014999999999999,0.743946,0.0284455,-0.156564,0.450256,0.0609694999999999,-0.178744,0.214416,0.0484475,0.1642259999999999,0.455016,0.0497485,0.1875659999999999,0.214176,0.0550014999999999,-0.189794,-0.0020029999999999,-0.0283425,0.1986359999999999,0.017135,-0.0143615,-0.072833,0.000132,0.0008304999999999,0.072833,-0.000132,-0.0008304999999999,-0.124304,-0.326904,-0.0228855,0.117816,-0.3544239999999999,0.0050735,-0.141754,-0.678364,0.0077445,0.127826,-0.660544,0.0113044999999999,0
8,0.0016349999999999,0.7439655,0.0284755,-0.156537,0.4500854999999999,0.0607355,-0.178807,0.2146355,0.0484394999999999,0.1643929999999999,0.4549654999999999,0.0495894999999999,0.1874229999999999,0.2141755,0.0550844999999999,-0.189787,-0.0011834999999999,-0.0284045,0.1985829999999999,0.0171285,-0.0142745,-0.072831,0.0001464999999999,0.0007724999999999,0.072831,-0.0001464999999999,-0.0007725,-0.124357,-0.3268345,-0.0228425,0.117813,-0.3542745,0.0051625,-0.141857,-0.6783445,0.0077564999999999,0.127853,-0.6605045,0.0113694999999999,0
9,0.0017564999999999,0.743979,0.0284835,-0.1565115,0.449909,0.0604515,-0.1789215,0.214889,0.0483585,0.1645185,0.454939,0.0495405,0.1872385,0.214219,0.0551775,-0.1897915,-2.500000000000072e-05,-0.0283125,0.1985185,0.017126,-0.0141765,-0.0728275,0.0001579999999999,0.0006895,0.0728275,-0.000158,-0.0006894999999999,-0.1244215,-0.326791,-0.0228355,0.1178085,-0.354111,0.0052625,-0.1419715,-0.678311,0.0077915,0.1278685,-0.6604410000000001,0.0114435,0
10,0.001856,0.7439815000000001,0.0285115,-0.156486,0.4497415,0.0601525,-0.179086,0.2151915,0.0482465,0.164494,0.4549215,0.0496045,0.186974,0.2142415,0.0552955,-0.189856,0.0010125,-0.0281864999999999,0.198404,0.0169785,-0.0140824999999999,-0.072823,0.0001724999999999,0.0005655,0.072823,-0.0001724999999999,-0.0005654999999999,-0.124506,-0.3267785,-0.0228224999999999,0.1177739999999999,-0.3540185,0.0052885,-0.1420759999999999,-0.6782984999999999,0.0078715,0.127884,-0.6603985,0.0115325,0
11,0.0019434999999999,0.7440125000000001,0.0285404999999999,-0.1564605,0.4495625,0.0596395,-0.1792505,0.2154425,0.0480714999999999,0.1645994999999999,0.4549225,0.0496615,0.1866094999999999,0.2142625,0.0554075,-0.1898605,0.0016695,-0.0281095,0.1982795,0.0168015,-0.0139775,-0.0728185,0.0001875,0.0004324999999999,0.0728185,-0.0001875,-0.0004325,-0.1246305,-0.3267475,-0.0227655,0.1176895,-0.3539375,0.0053005,-0.1421805,-0.6782775,0.0079924999999999,0.1278794999999999,-0.6603275,0.0116684999999999,0
12,0.0019724999999999,0.7440625,0.0285699999999999,-0.1564195,0.4494225,0.059182,-0.1794395,0.2153024999999999,0.0478129999999999,0.1644605,0.4549324999999999,0.049851,0.1862105,0.2141525,0.055546,-0.1898294999999999,0.0020645,-0.02792,0.1981405,0.0165315,-0.013908,-0.0728075,0.0001875,0.0003149999999999,0.0728075,-0.0001875,-0.000315,-0.1247595,-0.3268175,-0.022627,0.1176205,-0.3539775,0.0053349999999999,-0.1422095,-0.6782675,0.0082139999999999,0.1279104999999999,-0.6602875,0.0118619999999999,0
13,0.0020564999999999,0.7440625,0.0286595,-0.1563034999999999,0.4494225,0.0586715,-0.1796434999999999,0.2153024999999999,0.0475075,0.1644865,0.4549324999999999,0.0499985,0.1858265,0.2141525,0.0557265,-0.1899035,0.0024844999999999,-0.0279744999999999,0.1977665,0.0165315,-0.0141074999999999,-0.0728024999999999,0.0001875,0.0001675,0.0728024999999999,-0.0001875,-0.0001675,-0.1248835,-0.3268175,-0.0223244999999999,0.1175265,-0.3539775,0.0055475,-0.1421335,-0.6782675,0.0085295,0.1280265,-0.6602875,0.0121795,0
14,0.002161,0.7440625,0.0287624999999999,-0.156199,0.4494225,0.0580585,-0.179829,0.2153024999999999,0.0471744999999999,0.164531,0.4549324999999999,0.0502614999999999,0.185921,0.2141525,0.0559464999999999,-0.189979,0.0028144999999999,-0.0282345,0.197891,0.0165315,-0.0143445,-0.072801,0.0001875,3.499999999996561e-06,0.072801,-0.0001875,-3.5000000000035003e-06,-0.125019,-0.3268175,-0.0219735,0.117441,-0.3539775,0.0057604999999999,-0.142039,-0.6782675,0.0088904999999999,0.128171,-0.6602875,0.0125424999999999,0
15,0.0022795,0.744058,0.0288995,-0.1561185,0.449408,0.0574625,-0.1801785,0.2154879999999999,0.0463365,0.1646615,0.454918,0.0503495,0.1860915,0.214308,0.0551245,-0.1901885,0.003083,-0.0287875,0.1981115,0.016542,-0.0152175,-0.0728065,0.000199,-0.0001735,0.0728065,-0.0001989999999999,0.0001735,-0.1251384999999999,-0.326832,-0.0215115,0.1173815,-0.353892,0.0060264999999999,-0.1419085,-0.678282,0.0093815,0.1283415,-0.660242,0.0130435,0
16,0.0023644999999999,0.744229,0.0286104999999999,-0.1560475,0.449369,0.0566384999999999,-0.1807975,0.215349,0.0448805,0.1646824999999999,0.454949,0.0499924999999999,0.1863324999999999,0.214349,0.0530224999999999,-0.1915675,0.004508,-0.0311245,0.1984125,0.016814,-0.0175825,-0.0728155,0.000212,-0.0003495,0.0728155,-0.0002119999999999,0.0003494999999999,-0.1252675,-0.326991,-0.0208525,0.1172824999999999,-0.353701,0.0064734999999999,-0.1417475,-0.678311,0.0104404999999999,0.1285325,-0.660021,0.0140624999999999,0
17,0.0024409999999999,0.7444015,0.02864,-0.1558379999999999,0.4493815,0.056095,-0.182358,0.2164714999999999,0.042345,0.164862,0.4550515,0.0496,0.186692,0.2162414999999999,0.049314,-0.194538,0.0070745,-0.0370839999999999,0.199722,0.0183115,-0.024119,-0.072821,0.0002264999999999,-0.0004809999999999,0.072821,-0.0002265,0.000481,-0.125358,-0.3271085,-0.0202129999999999,0.117182,-0.3534685,0.006953,-0.141568,-0.6783785,0.011496,0.128732,-0.6597685,0.015067,0
18,0.0025835,0.7445775,0.029113,-0.1556135,0.4494475,0.055389,-0.1848535,0.2189475,0.038496,0.1647265,0.4551875,0.04911,0.1879765,0.2195075,0.043766,-0.2001335,0.0145624999999999,-0.0451059999999999,0.2029865,0.0245935,-0.034542,-0.0728675,0.0002265,-0.0005169999999999,0.0728675,-0.0002264999999999,0.000517,-0.1254535,-0.3272125,-0.0196299999999999,0.1170465,-0.3529425,0.0074579999999999,-0.1413835,-0.6785725,0.012458,0.1289265,-0.6595225,0.015984,0
19,0.002696,0.7447375,0.0293044999999999,-0.155421,0.4496175,0.0543355,-0.189311,0.2243875,0.0319035,0.164199,0.4553675,0.0483225,0.191309,0.2254475,0.0346725,-0.208131,0.0255765,-0.0565355,0.207709,0.0339845,-0.0492735,-0.072964,0.0002275,-0.0003335,0.072964,-0.0002275,0.0003335,-0.125611,-0.3272925,-0.0193355,0.116859,-0.3522325,0.0076374999999999,-0.141231,-0.6788225,0.0130594999999999,0.129169,-0.6591025,0.0165865,0
20,0.002774,0.744866,0.0294559999999999,-0.155203,0.450216,0.053265,-0.197363,0.233606,0.020998,0.163587,0.455656,0.047446,0.197267,0.235056,0.0202569999999999,-0.220703,0.0454469999999999,-0.077276,0.217477,0.05416,-0.075296,-0.073053,0.000234,-0.000189,0.073053,-0.000234,0.000189,-0.125793,-0.327324,-0.019021,0.1166369999999999,-0.351424,0.007778,-0.141103,-0.679114,0.0136359999999999,0.129407,-0.658524,0.017238,0
21,0.0028319999999999,0.7449795,0.0295639999999999,-0.154875,0.4511595,0.0520809999999999,-0.206755,0.2456295,0.0080909999999999,0.162765,0.4561894999999999,0.0464689999999999,0.205065,0.2463195,0.0053919999999999,-0.235195,0.0715995,-0.1019979999999999,0.227745,0.0821265,-0.104598,-0.07312,0.0002325,-8.500000000000174e-05,0.07312,-0.0002324999999999,8.49999999999948e-05,-0.125935,-0.3273505,-0.018633,0.116395,-0.3504205,0.0078739999999999,-0.140975,-0.6794905,0.0141849999999999,0.129775,-0.6578505,0.0180379999999999,0
22,0.002894,0.7449035,0.0304279999999999,-0.1546409999999999,0.4526435,0.050834,-0.221121,0.2699435,-0.01079,0.161429,0.4576135,0.0451199999999999,0.217169,0.2729435,-0.015355,-0.255311,0.1266435,-0.136707,0.241279,0.1403935,-0.141377,-0.073139,0.0002065,1.5999999999995185e-05,0.073139,-0.0002065,-1.6000000000002124e-05,-0.126101,-0.3273764999999999,-0.018114,0.116139,-0.3492364999999999,0.0081049999999999,-0.140891,-0.6800965,0.0146649999999999,0.1301689999999999,-0.6573665,0.0187539999999999,0
23,0.0029759999999999,0.7440055,0.0313525,-0.154333,0.4540555,0.0492665,-0.235053,0.3015855,-0.0270685,0.1604769999999999,0.4593155,0.0435155,0.2294469999999999,0.3049855,-0.0347175,-0.274733,0.1891355,-0.1661895,0.253677,0.2068255,-0.1722894999999999,-0.07314,0.0001815,0.0001314999999999,0.07314,-0.0001814999999999,-0.0001314999999999,-0.126173,-0.3279645,-0.0176544999999999,0.115977,-0.3487045,0.0081685,-0.140703,-0.6816845,0.0148045,0.130657,-0.6576245,0.0191375,0
24,0.0029825,0.7429395,0.0323804999999999,-0.1539035,0.4557495,0.0475694999999999,-0.2478435,0.3337695,-0.0409625,0.1596965,0.4613895,0.0418134999999999,0.2403765,0.3400095,-0.0500485,-0.2928435,0.2597295,-0.1906325,0.2654565,0.2803995,-0.1954325,-0.0731344999999999,0.0001255,0.0002584999999999,0.0731344999999999,-0.0001254999999999,-0.0002585,-0.1262434999999999,-0.3287405,-0.0171935,0.1158265,-0.3479305,0.0080304999999999,-0.1404735,-0.6835605,0.0149304999999999,0.1311665,-0.6581905,0.0194494999999999,0
25,0.0029154999999999,0.7424554999999999,0.0335115,-0.1535885,0.4575555,0.0459925,-0.2601885,0.3708955,-0.0535225,0.1589615,0.4639454999999999,0.0408935,0.2505915,0.3807055,-0.0627205,-0.3091785,0.3338954999999999,-0.2106605,0.2770015,0.3597355,-0.2135004999999999,-0.0731354999999999,8.94999999999993e-05,0.0003994999999999,0.0731354999999999,-8.94999999999993e-05,-0.0003995,-0.1263085,-0.3293345,-0.0168195,0.1156714999999999,-0.3471045,0.0078824999999999,-0.1403184999999999,-0.6841545,0.0147984999999999,0.1316315,-0.6587545,0.0194124999999999,0
26,0.0028415,0.741722,0.035004,-0.1531735,0.459192,0.044451,-0.2708735,0.411702,-0.063484,0.1583165,0.466252,0.040198,0.2598165,0.425172,-0.0725939999999999,-0.3230735,0.415682,-0.2236739999999999,0.2871165,0.446702,-0.224794,-0.0731525,3.799999999999984e-05,0.000626,0.0731525,-3.799999999999984e-05,-0.0006259999999999,-0.1264035,-0.330138,-0.016415,0.1155365,-0.346538,0.007747,-0.1401635,-0.684998,0.014731,0.1320865,-0.659598,0.019427,0
27,0.0028719999999999,0.740694,0.036396,-0.152812,0.461304,0.042927,-0.279642,0.458504,-0.069943,0.157828,0.4692039999999999,0.0396329999999999,0.267098,0.472784,-0.078063,-0.333002,0.5027539999999999,-0.228423,0.295008,0.534214,-0.228493,-0.073171,-2.199999999999945e-05,0.000861,0.073171,2.2000000000001185e-05,-0.000861,-0.126392,-0.331276,-0.016038,0.115548,-0.346496,0.0076519999999999,-0.139902,-0.686176,0.0146809999999999,0.132648,-0.660776,0.019429,0
28,0.0029904999999999,0.7387870000000001,0.038276,-0.1523914999999999,0.4636369999999999,0.04131,-0.2862815,0.503317,-0.073309,0.1574385,0.472827,0.039215,0.2719384999999999,0.520857,-0.079409,-0.3403815,0.588917,-0.228979,0.3007185,0.6203770000000001,-0.228489,-0.0731655,-9.799999999999912e-05,0.0010939999999999,0.0731655,9.800000000000086e-05,-0.0010939999999999,-0.1263314999999999,-0.3329229999999999,-0.0158449999999999,0.1155984999999999,-0.346963,0.0072349999999999,-0.1396015,-0.6890029999999999,0.0143779999999999,0.1331485,-0.6623129999999999,0.019283,0
29,0.0030705,0.736611,0.0398305,-0.1521455,0.465721,0.0402034999999999,-0.2889655,0.545891,-0.0735325,0.1571345,0.4766809999999999,0.0390825,0.2740045,0.5664009999999999,-0.0794525,-0.3423155,0.6697409999999999,-0.2291825,0.3017945,0.697041,-0.2285725,-0.0731305,-0.000217,0.0012495,0.0731305,0.000217,-0.0012495,-0.1262555,-0.334899,-0.0156105,0.1156645,-0.347909,0.0068924999999999,-0.1393054999999999,-0.6921590000000001,0.0141964999999999,0.1336145,-0.664149,0.0191835,0
30,0.0030879999999999,0.734093,0.040881,-0.151864,0.468603,0.039392,-0.289674,0.588103,-0.073597,0.156916,0.480123,0.039039,0.274256,0.611503,-0.079477,-0.342064,0.745663,-0.229207,0.3025759999999999,0.770263,-0.228567,-0.073078,-0.0003119999999999,0.001285,0.073078,0.0003119999999999,-0.001285,-0.126134,-0.337287,-0.0153779999999999,0.115756,-0.349217,0.006629,-0.138964,-0.695587,0.014126,0.133986,-0.666357,0.019163,0
31,0.00302,0.731529,0.041002,-0.1515439999999999,0.471149,0.038807,-0.289394,0.618519,-0.073586,0.156716,0.482809,0.039032,0.274536,0.641489,-0.079466,-0.341784,0.793119,-0.229196,0.3027459999999999,0.813659,-0.224306,-0.073004,-0.0004009999999999,0.0012879999999999,0.073004,0.000401,-0.001288,-0.1259839999999999,-0.339801,-0.015301,0.115846,-0.3505209999999999,0.006336,-0.138604,-0.699041,0.0140929999999999,0.134366,-0.668871,0.0191779999999999,0
32,0.0028844999999999,0.7288435,0.04103,-0.1512885,0.4742135,0.038848,-0.2891384999999999,0.6420535,-0.07138,0.1565615,0.4851135,0.039069,0.2746714999999999,0.6664135,-0.0744399999999999,-0.3418985,0.8344834999999999,-0.21757,0.3025215,0.8522135,-0.20781,-0.0728935,-0.0005014999999999,0.0013249999999999,0.0728935,0.0005015,-0.0013249999999999,-0.1257685,-0.3425665,-0.0152589999999999,0.1159414999999999,-0.3522865,0.005903,-0.1381985,-0.7026965000000001,0.014118,0.1348015,-0.6718165,0.019152,0
33,0.0025995,0.726278,0.0411175,-0.1508995,0.4771479999999999,0.0389614999999999,-0.2889595,0.6655279999999999,-0.0659265,0.1562705,0.4869779999999999,0.0390185,0.2744305,0.688838,-0.0679265,-0.3418495,0.868408,-0.2001565,0.3025805,0.883458,-0.1864465,-0.0727595,-0.00059,0.0014284999999999,0.0727595,0.00059,-0.0014284999999999,-0.1255195,-0.345252,-0.0151515,0.1160705,-0.353872,0.0053444999999999,-0.1377795,-0.7062620000000001,0.0141654999999999,0.1352205,-0.6750120000000001,0.0190034999999999,0
34,0.0022364999999999,0.7231650000000001,0.0415735,-0.1504214999999999,0.4798849999999999,0.0394505,-0.2843315,0.684875,-0.0533665,0.1561485,0.488385,0.0398515,0.2696584999999999,0.7057450000000001,-0.0545494999999999,-0.3356515,0.900255,-0.1698775,0.2998785,0.908625,-0.1546674999999999,-0.0725514999999999,-0.0007179999999999,0.0013784999999999,0.0725514999999999,0.0007179999999999,-0.0013784999999999,-0.1252115,-0.348475,-0.0146685,0.1162685,-0.356065,0.0049745,-0.1372915,-0.709985,0.0144725,0.1357185,-0.6784349999999999,0.0192195,0
35,0.0018799999999999,0.7201815,0.0419905,-0.149914,0.4837015,0.0400035,-0.279714,0.6997614999999999,-0.0427984999999999,0.155776,0.4899814999999999,0.0407374999999999,0.264626,0.7171115,-0.0420575,-0.3297839999999999,0.9238815,-0.1432145,0.297996,0.9255115,-0.1285445,-0.072354,-0.0008324999999999,0.0013685,0.072354,0.0008324999999999,-0.0013685,-0.1248239999999999,-0.3513985,-0.0141545,0.116436,-0.3581385,0.0046374999999999,-0.136784,-0.7128385,0.0149205,0.1362259999999999,-0.6814085,0.0196865,0
36,0.001369,0.7177645,0.0423315,-0.149243,0.4877144999999999,0.0410985,-0.2744129999999999,0.7099445,-0.0313295,0.154727,0.4910945,0.0415645,0.259727,0.7246144999999999,-0.0302934999999999,-0.324183,0.9380245,-0.1149125,0.296627,0.9378445,-0.1044725,-0.0721499999999999,-0.0009264999999999,0.0014414999999999,0.0721499999999999,0.0009265,-0.0014414999999999,-0.1244329999999999,-0.3539055,-0.0136454999999999,0.116627,-0.3598255,0.0045525,-0.136213,-0.7153455000000001,0.0154294999999999,0.136797,-0.6840755000000001,0.0201945,0
37,0.0009199999999999,0.7154725000000001,0.04238,-0.148305,0.4914425,0.042685,-0.268375,0.7192125,-0.019221,0.153505,0.4915325,0.042184,0.255205,0.7290625000000001,-0.018877,-0.3188649999999999,0.9494325,-0.087409,0.295455,0.9491425,-0.082329,-0.071975,-0.0009894999999999,0.001597,0.071975,0.0009895,-0.001597,-0.124095,-0.3565675,-0.013168,0.116795,-0.3613675,0.0044929999999999,-0.135735,-0.7184775,0.015871,0.137265,-0.6873175,0.0205099999999999,0
38,0.0004209999999999,0.7138115,0.0420295,-0.147137,0.4953215,0.0443375,-0.262067,0.7269615,-0.0075334999999999,0.151743,0.4915615,0.0427145,0.250633,0.7322614999999999,-0.0082105,-0.3134969999999999,0.9572915,-0.0607205,0.294353,0.9597815,-0.0595905,-0.071826,-0.0009964999999999,0.0017645,0.071826,0.0009965,-0.0017645,-0.123787,-0.3589485,-0.0126895,0.1169429999999999,-0.3626685,0.0044545,-0.135327,-0.7214285,0.0163945,0.137693,-0.6902284999999999,0.0208425,0
39,-0.0001074999999999,0.712546,0.041657,-0.1458735,0.497996,0.045966,-0.2564435,0.732486,0.002054,0.1496665,0.491776,0.043079,0.2468665,0.7342759999999999,-3.100000000000325e-05,-0.3091635,0.964126,-0.039757,0.2933065,0.966126,-0.040786,-0.0717035,-0.001014,0.0019869999999999,0.0717035,0.0010139999999999,-0.001987,-0.1235435,-0.360934,-0.01232,0.1170565,-0.363684,0.0043609999999999,-0.1349735,-0.724004,0.016803,0.1380964999999999,-0.692724,0.021063,0
40,-0.0005989999999999,0.711507,0.0411404999999999,-0.144569,0.5004270000000001,0.0475094999999999,-0.250749,0.737567,0.0110164999999999,0.147691,0.491827,0.0433685,0.243391,0.735997,0.0071624999999999,-0.304639,0.970557,-0.0193575,0.292411,0.971957,-0.0260205,-0.071597,-0.00102,0.0022474999999999,0.071597,0.00102,-0.0022474999999999,-0.123309,-0.362653,-0.0120235,0.117171,-0.3645629999999999,0.0042234999999999,-0.1346689999999999,-0.726313,0.0171255,0.138421,-0.6950529999999999,0.0211775,0
41,-0.0010134999999999,0.7107275,0.0405294999999999,-0.1433805,0.5023875,0.0487435,-0.2451704999999999,0.7421675,0.0192145,0.1458694999999999,0.4919774999999999,0.0435645,0.2401795,0.7374975,0.0134735,-0.3002804999999999,0.9758575,-0.0011795,0.2914295,0.9743575,-0.0120175,-0.0715125,-0.0010145,0.0025075,0.0715125,0.0010145,-0.0025075,-0.1231105,-0.3641425,-0.0118354999999999,0.1173095,-0.3651825,0.0040554999999999,-0.1343905,-0.7283825,0.0173075,0.1387094999999999,-0.6971925,0.0211315,0
42,-0.0013654999999999,0.7100755,0.0401715,-0.1420295,0.5041255,0.0498545,-0.2399295,0.7462255,0.0265055,0.1442605,0.4921655,0.0437355,0.2373305,0.7385155,0.0189355,-0.2958795,0.9805155,0.0154105,0.2906405,0.9765155,0.0005805,-0.0714365,-0.0009855,0.0027194999999999,0.0714365,0.0009855,-0.0027194999999999,-0.1229095,-0.3654245,-0.0116604999999999,0.1174505,-0.3657145,0.0039475,-0.1341495,-0.7302845,0.0174795,0.1389605,-0.6991845,0.0210675,0
43,-0.0017009999999999,0.709546,0.0399655,-0.1407319999999999,0.505756,0.0508805,-0.234972,0.749786,0.0331545,0.142878,0.4922559999999999,0.0436155,0.234728,0.739316,0.0238275,-0.291432,0.983116,0.0298225,0.289858,0.979216,0.0108725,-0.071366,-0.000958,0.0028675,0.071366,0.000958,-0.0028675,-0.122762,-0.366544,-0.0115144999999999,0.117548,-0.366064,0.0038275,-0.1339619999999999,-0.732054,0.0175895,0.139108,-0.701204,0.0209315,0
44,-0.0019995,0.7093235,0.039882,-0.1394915,0.5063635,0.051595,-0.2303315,0.7527934999999999,0.03917,0.1417185,0.4923034999999999,0.043381,0.2323385,0.7399735000000001,0.028175,-0.2869315,0.9853835,0.042959,0.2888885,0.9806835,0.020912,-0.0713024999999999,-0.0009495,0.003052,0.0713024999999999,0.0009494999999999,-0.0030519999999999,-0.1226515,-0.3674765,-0.0114019999999999,0.1176784999999999,-0.3663965,0.003745,-0.1338315,-0.7336465000000001,0.017671,0.1391885,-0.7031365,0.02078,0
45,-0.0022035,0.7090855,0.0398245,-0.1387325,0.5062155,0.0518955,-0.2273725,0.7531155,0.0426094999999999,0.1412074999999999,0.4921855,0.0430435,0.2310375,0.7400555000000001,0.0303675,-0.2831924999999999,0.9865455,0.0498614999999999,0.2878575,0.9802455,0.0258074999999999,-0.0712875,-0.0009344999999999,0.0032265,0.0712875,0.0009344999999999,-0.0032265,-0.1226724999999999,-0.3684545,-0.0114385,0.1176175,-0.3665245,0.0035584999999999,-0.1338725,-0.7352445,0.0176124999999999,0.1391375,-0.7049445,0.0205195,0
46,-0.0024364999999999,0.709017,0.0396575,-0.1383145,0.5060669999999999,0.0518865,-0.2255245,0.753377,0.0449455,0.1407955,0.492047,0.0427745,0.2299955,0.7400169999999999,0.0314735,-0.2798245,0.988447,0.0544985,0.2868155,0.981747,0.0286435,-0.0712805,-0.000933,0.0033875,0.0712805,0.0009329999999999,-0.0033875,-0.1226344999999999,-0.368953,-0.0114625,0.1176555,-0.366473,0.0034865,-0.1338345,-0.735743,0.0175885,0.1391755,-0.705443,0.0204955,0
47,-0.0025705,0.709083,0.0396189999999999,-0.1381625,0.505723,0.0518579999999999,-0.2247225,0.7535430000000001,0.046242,0.1405475,0.4919229999999999,0.0425539999999999,0.2294375,0.739963,0.0322419999999999,-0.2774125,0.990283,0.0565249999999999,0.2859575,0.981983,0.0285759999999999,-0.0712845,-0.0009479999999999,0.0034859999999999,0.0712845,0.000948,-0.003486,-0.1226324999999999,-0.369317,-0.011438,0.1176575,-0.366527,0.0034399999999999,-0.1338325,-0.736107,0.0175549999999999,0.1391775,-0.705807,0.0204619999999999,0
48,-0.002616,0.7091350000000001,0.0398289999999999,-0.138166,0.505695,0.0517879999999999,-0.224156,0.7537550000000001,0.0473339999999999,0.140474,0.4918949999999999,0.0423809999999999,0.2292239999999999,0.740155,0.0327589999999999,-0.2752759999999999,0.991955,0.0578599999999999,0.285214,0.982455,0.0284779999999999,-0.071281,-0.0009199999999999,0.0035539999999999,0.071281,0.00092,-0.003554,-0.122636,-0.369345,-0.011385,0.117654,-0.366315,0.0033699999999999,-0.133836,-0.736135,0.0174849999999999,0.139174,-0.705835,0.0203919999999999,0
49,-0.0026265,0.7092360000000001,0.0397675,-0.1381665,0.505326,0.0516105,-0.2238765,0.7534660000000001,0.0482315,0.1403635,0.491786,0.0420765,0.2291435,0.740006,0.0331705,-0.2735565,0.992786,0.0584245,0.2847035,0.981886,0.0283965,-0.0712705,-0.0009389999999999,0.0036185,0.0712705,0.000939,-0.0036184999999999,-0.1226464999999999,-0.369584,-0.0112654999999999,0.1176435,-0.366184,0.0033165,-0.1337965,-0.7364839999999999,0.0177295,0.1392235,-0.7064739999999999,0.0203475,0
50,-0.002631,0.709343,0.039882,-0.138164,0.504973,0.051438,-0.223764,0.753123,0.048964,0.1402959999999999,0.491683,0.041793,0.229136,0.739843,0.033526,-0.2721739999999999,0.993133,0.058528,0.284496,0.981133,0.02795,-0.071273,-0.0009619999999999,0.0036789999999999,0.071273,0.0009619999999999,-0.003679,-0.122634,-0.369857,-0.011134,0.117676,-0.366117,0.0032589999999999,-0.133724,-0.736847,0.0179919999999999,0.139316,-0.707007,0.020301,0
51,-0.0026834999999999,0.7094655,0.040218,-0.1383005,0.5045855,0.05131,-0.2238105,0.7527555,0.049234,0.1402095,0.4915855,0.041559,0.2290895,0.7396254999999999,0.033717,-0.2712704999999999,0.9935155,0.058496,0.2844795,0.9802155,0.027407,-0.0712825,-0.0009865,0.0037449999999999,0.0712825,0.0009865,-0.0037449999999999,-0.1226505,-0.3700945,-0.01097,0.1176895,-0.3660545,0.003214,-0.1337105,-0.7371345,0.0182249999999999,0.1393595,-0.7074545,0.020245,0
52,-0.0026849999999999,0.7096015,0.0407925,-0.138434,0.5042614999999999,0.0512415,-0.223874,0.7524115,0.0493555,0.140106,0.4915115,0.0413445,0.229026,0.7394115,0.0337994999999999,-0.270934,0.9933415,0.0584425,0.284456,0.9794415,0.0267075,-0.071297,-0.0010194999999999,0.0038115,0.071297,0.0010194999999999,-0.0038115,-0.122674,-0.3703285,-0.0108014999999999,0.117726,-0.3660684999999999,0.0032075,-0.133714,-0.7373485000000001,0.0184615,0.139446,-0.7077785000000001,0.0202215,0
53,-0.002653,0.7097454999999999,0.0414649999999999,-0.138508,0.5040355000000001,0.0511919999999999,-0.2239479999999999,0.7521454999999999,0.0493039999999999,0.140032,0.4914555,0.0412049999999999,0.229012,0.7392555000000001,0.0337919999999999,-0.270908,0.9932255,0.0583149999999999,0.284412,0.9787255,0.0257429999999999,-0.071311,-0.0010225,0.0038819999999999,0.071311,0.0010224999999999,-0.003882,-0.122688,-0.3704945,-0.010655,0.117752,-0.3662045,0.0032139999999999,-0.133738,-0.7374944999999999,0.0186389999999999,0.139552,-0.7078344999999999,0.0202069999999999,0
54,-0.0026089999999999,0.709854,0.0419449999999999,-0.1386239999999999,0.503924,0.051148,-0.224074,0.751974,0.049149,0.139926,0.4914439999999999,0.0410429999999999,0.229116,0.739104,0.0336459999999999,-0.270984,0.992804,0.057912,0.284416,0.978204,0.024436,-0.071327,-0.001016,0.003957,0.071327,0.001016,-0.003957,-0.122734,-0.370596,-0.010549,0.117786,-0.366486,0.003236,-0.133784,-0.7375459999999999,0.018763,0.139566,-0.7080759999999999,0.020058,0
55,-0.0025849999999999,0.709921,0.042264,-0.138781,0.503791,0.050988,-0.224321,0.751791,0.048894,0.139769,0.491401,0.040866,0.229249,0.738961,0.033406,-0.271091,0.991861,0.056893,0.284569,0.977761,0.022874,-0.071354,-0.0010109999999999,0.004006,0.071354,0.0010109999999999,-0.0040059999999999,-0.122811,-0.3707189999999999,-0.0104999999999999,0.117869,-0.366939,0.003221,-0.133871,-0.737609,0.018778,0.139499,-0.708449,0.019809,0
56,-0.00264,0.709953,0.042395,-0.138808,0.5037929999999999,0.050792,-0.224748,0.751653,0.048486,0.139542,0.491363,0.040535,0.229412,0.7388129999999999,0.033021,-0.2711679999999999,0.990883,0.055314,0.284892,0.976983,0.021069,-0.071407,-0.001006,0.0039529999999999,0.071407,0.001006,-0.0039529999999999,-0.1229479999999999,-0.3708869999999999,-0.010712,0.118002,-0.367527,0.0029189999999999,-0.134058,-0.737807,0.018519,0.139332,-0.709047,0.019412,0
57,-0.0027129999999999,0.7099605,0.0424495,-0.138845,0.5038505000000001,0.0505365,-0.225265,0.7515305,0.0478065,0.1393049999999999,0.4913105,0.0401015,0.229655,0.7386705,0.0323765,-0.271295,0.9899105,0.0532545,0.285285,0.9766105,0.0191625,-0.071459,-0.0010005,0.0039255,0.071459,0.0010005,-0.0039254999999999,-0.123085,-0.3710295,-0.0110674999999999,0.118195,-0.3682495,0.0024755,-0.134235,-0.7380895,0.0180845,0.139145,-0.7097595,0.0188735,0
58,-0.0027519999999999,0.7099825000000001,0.042365,-0.138859,0.5039725,0.050239,-0.225619,0.7515525000000001,0.046816,0.139131,0.4912825,0.039597,0.229971,0.7385725000000001,0.031703,-0.271449,0.9895525,0.051286,0.285691,0.9770525,0.017699,-0.071499,-0.0009865,0.0039,0.071499,0.0009865,-0.0039,-0.123219,-0.3711175,-0.0115919999999999,0.118331,-0.3684075,0.0019619999999999,-0.134489,-0.7382475,0.017556,0.138931,-0.7099175,0.018246,0
59,-0.0028115,0.7100799999999999,0.042075,-0.1389385,0.50409,0.049756,-0.2259785,0.75163,0.045448,0.1389715,0.4912999999999999,0.038969,0.2303215,0.73844,0.030781,-0.2716185,0.98899,0.048302,0.2862715,0.97699,0.015782,-0.0715465,-0.000958,0.003889,0.0715465,0.000958,-0.0038889999999999,-0.1232785,-0.37128,-0.012261,0.1185515,-0.36857,0.0013039999999999,-0.1347785,-0.73841,0.016878,0.1386815,-0.71008,0.017336,0
60,-0.0028574999999999,0.7100799999999999,0.0417219999999999,-0.1390175,0.50409,0.0492399999999999,-0.2262775,0.75163,0.0439059999999999,0.1388025,0.4912999999999999,0.0382809999999999,0.2306725,0.73844,0.0297279999999999,-0.2718475,0.98899,0.0448429999999999,0.2874825,0.97699,0.0126389999999999,-0.0715895,-0.000958,0.0039139999999999,0.0715895,0.000958,-0.003914,-0.1232975,-0.37128,-0.012976,0.1188425,-0.36857,0.0005129999999999,-0.1350875,-0.73841,0.0161519999999999,0.1383625,-0.71008,0.0163079999999999,0
61,-0.002913,0.7100799999999999,0.0411334999999999,-0.1391089999999999,0.5040399999999999,0.0488925,-0.226579,0.75158,0.0420785,0.1386609999999999,0.4912999999999999,0.0377775,0.2310209999999999,0.73837,0.0285694999999999,-0.272009,0.98839,0.0409545,0.288641,0.97699,0.0093414999999999,-0.071646,-0.000958,0.0039184999999999,0.071646,0.000958,-0.0039184999999999,-0.123209,-0.37135,-0.0139755,0.119201,-0.36917,-0.0007745,-0.135429,-0.7386900000000001,0.0150564999999999,0.137961,-0.71074,0.0149984999999999,0
62,-0.002989,0.710075,0.040286,-0.139269,0.503985,0.048431,-0.226949,0.751515,0.0399329999999999,0.138491,0.491305,0.03721,0.231411,0.738305,0.027056,-0.272089,0.987495,0.036751,0.289741,0.976495,0.005844,-0.071718,-0.0009569999999999,0.0039,0.071718,0.000957,-0.0039,-0.123059,-0.3715449999999999,-0.015278,0.119661,-0.3699349999999999,-0.0025249999999999,-0.135769,-0.739105,0.0137499999999999,0.137551,-0.7114349999999999,0.013446,0
63,-0.0030189999999999,0.7102765,0.0392195,-0.139498,0.5040865,0.0476825,-0.227368,0.7516465,0.0375155,0.138322,0.4913465,0.0364805,0.2319419999999999,0.7380965,0.0251985,-0.271818,0.9863565,0.0316555,0.290802,0.9748565,0.0016695,-0.071801,-0.0009175,0.0038634999999999,0.071801,0.0009175,-0.0038634999999999,-0.122798,-0.3724035,-0.0178084999999999,0.120222,-0.3711335,-0.0052094999999999,-0.136098,-0.7398635,0.0118655,0.136992,-0.7127635,0.0110355,0
64,-0.0030834999999999,0.71049,0.0381215,-0.1397695,0.5042099999999999,0.0467415,-0.2277495,0.75181,0.0346925,0.1381705,0.49144,0.0356635,0.2325705,0.7379,0.0230135,-0.2714094999999999,0.98487,0.0263255,0.2918105,0.97297,-0.0027364999999999,-0.0718715,-0.0008849999999999,0.0038385,0.0718715,0.0008849999999999,-0.0038385,-0.1226295,-0.37345,-0.0208155,0.1207304999999999,-0.37273,-0.0083714999999999,-0.1363895,-0.7406400000000001,0.0098715,0.1365105,-0.71403,0.0084235,0
65,-0.003047,0.7104769999999999,0.036856,-0.140072,0.504347,0.0456339999999999,-0.228042,0.7519669999999999,0.03112,0.138048,0.491617,0.0345629999999999,0.233398,0.737717,0.020266,-0.270732,0.982807,0.0202249999999999,0.292818,0.971107,-0.007252,-0.071954,-0.0008729999999999,0.0038809999999999,0.071954,0.0008729999999999,-0.003881,-0.122762,-0.3747029999999999,-0.024318,0.121278,-0.374283,-0.012441,-0.136612,-0.741403,0.0077649999999999,0.136178,-0.7154830000000001,0.0055259999999999,0
66,-0.002951,0.710232,0.035251,-0.140063,0.504602,0.044483,-0.228263,0.752232,0.02728,0.137977,0.491872,0.033409,0.234327,0.737552,0.017172,-0.270283,0.980672,0.01372,0.2938769999999999,0.968672,-0.012745,-0.072058,-0.000849,0.003865,0.072058,0.000849,-0.003865,-0.122903,-0.375848,-0.0283999999999999,0.121857,-0.375888,-0.017222,-0.136803,-0.742208,0.005459,0.135767,-0.716748,0.0024069999999999,1
67,-0.0028489999999999,0.7097319999999999,0.0332245,-0.140065,0.504872,0.0433035,-0.2284149999999999,0.7524719999999999,0.0229575,0.137875,0.492202,0.0322265,0.235205,0.737382,0.0136425,-0.269755,0.978402,0.0069935,0.2950049999999999,0.965902,-0.0188715,-0.0721509999999999,-0.000826,0.0038765,0.0721509999999999,0.000826,-0.0038764999999999,-0.1229649999999999,-0.377978,-0.0335375,0.122455,-0.3775679999999999,-0.0226835,-0.1369449999999999,-0.742878,0.0029765,0.135355,-0.7178680000000001,-0.0009385,1
68,-0.0026885,0.7082955,0.031,-0.1401025,0.5048155,0.042206,-0.2283825,0.7519055,0.018186,0.1377875,0.4923655,0.0313569999999999,0.2362275,0.7369055,0.0097529999999999,-0.2692025,0.9769955,6.400000000000156e-05,0.2960875,0.9630955,-0.026021,-0.0722325,-0.0008205,0.0036859999999999,0.0722325,0.0008205,-0.003686,-0.1229125,-0.3798545,-0.039553,0.1232475,-0.3792045,-0.029602,-0.1369725,-0.7430645,0.0005309999999999,0.1350375,-0.7192745,-0.0045159999999999,1
69,-0.0024529999999999,0.7065605,0.028394,-0.140002,0.5047105,0.04082,-0.228152,0.7513005,0.012684,0.137958,0.4903404999999999,0.029998,0.237288,0.7344105,0.005423,-0.268692,0.9760405,-0.0074439999999999,0.296658,0.9584405,-0.0322759999999999,-0.072342,-0.0007705,0.003588,0.072342,0.0007705,-0.003588,-0.123282,-0.3817695,-0.047567,0.124128,-0.3798895,-0.038519,-0.136922,-0.7419795,-0.0019799999999999,0.134818,-0.7194995,-0.0086499999999999,1
70,-0.0022239999999999,0.7042575,0.025797,-0.140041,0.5045875,0.039643,-0.227911,0.7503175,0.007376,0.138149,0.4883674999999999,0.028857,0.2383289999999999,0.7283875,0.001549,-0.268121,0.9743375,-0.015811,0.297249,0.9532875,-0.0385939999999999,-0.072431,-0.0007744999999999,0.003533,0.072431,0.0007745,-0.003533,-0.123791,-0.3836124999999999,-0.0556339999999999,0.125089,-0.3801925,-0.0474289999999999,-0.136881,-0.7405225,-0.004365,0.134459,-0.7201425,-0.012495,1
71,-0.001911,0.7022655000000001,0.0227134999999999,-0.139505,0.5022355000000001,0.0371475,-0.2274749999999999,0.7479355000000001,0.0020225,0.138535,0.4862654999999999,0.0269425,0.239385,0.7241555000000001,-0.0022664999999999,-0.267395,0.9744855,-0.0241255,0.298005,0.9500055,-0.0450945,-0.072495,-0.0008335,0.0035304999999999,0.072495,0.0008335,-0.0035304999999999,-0.124575,-0.3841745,-0.0647855,0.126115,-0.3792145,-0.0571525,-0.1368349999999999,-0.7370844999999999,-0.0069205,0.134095,-0.7188844999999999,-0.0165295,1
72,-0.0015595,0.7003484999999999,0.0194295,-0.1386925,0.5006285,0.0345525,-0.2270425,0.7459785,-0.0040014999999999,0.1390075,0.4843284999999999,0.0247315,0.2403975,0.7207685,-0.0063544999999999,-0.2668025,0.9759785,-0.0318634999999999,0.2988175,0.9485085,-0.0514815,-0.0725794999999999,-0.0007274999999999,0.0035274999999999,0.0725794999999999,0.0007274999999999,-0.0035275,-0.1254325,-0.3833615,-0.0741044999999999,0.1271975,-0.3770015,-0.0670725,-0.1366625,-0.7322215,-0.0093255,0.1338275,-0.7157715,-0.0202895,1
73,-0.0012215,0.698275,0.0158575,-0.1377865,0.498795,0.0316725,-0.2267765,0.7439049999999999,-0.0097705,0.1395235,0.482515,0.0223955,0.2414234999999999,0.717595,-0.0106064999999999,-0.2663864999999999,0.977475,-0.0401594999999999,0.2996735,0.947935,-0.0578824999999999,-0.0727134999999999,-0.000613,0.0034655,0.0727134999999999,0.0006129999999999,-0.0034654999999999,-0.1265465,-0.381915,-0.0841075,0.1284335,-0.373925,-0.0777175,-0.1365065,-0.7266250000000001,-0.0119304999999999,0.1336335,-0.711835,-0.0240454999999999,1
74,-0.000904,0.6961875,0.01252,-0.136813,0.4982375,0.029234,-0.226163,0.7430875,-0.015196,0.140177,0.4813674999999999,0.0202359999999999,0.2423469999999999,0.7163275,-0.0147219999999999,-0.266063,0.9800075,-0.0480359999999999,0.300527,0.9497075,-0.063904,-0.072893,-0.0005835,0.0032629999999999,0.072893,0.0005835,-0.003263,-0.127923,-0.3781325,-0.095339,0.129907,-0.3692824999999999,-0.089469,-0.136353,-0.7177325,-0.014211,0.133367,-0.7044625,-0.026839,1
75,-0.000529,0.69426,0.00946,-0.135785,0.4964,0.026428,-0.225565,0.7408,-0.0206999999999999,0.1407649999999999,0.48006,0.018079,0.243205,0.7149599999999999,-0.0186729999999999,-0.265845,0.98151,-0.055702,0.301625,0.94412,-0.0702069999999999,-0.073104,-0.000484,0.003056,0.073104,0.000484,-0.0030559999999999,-0.129425,-0.3746899999999999,-0.1060369999999999,0.131455,-0.3646899999999999,-0.1004869999999999,-0.136145,-0.70874,-0.0157189999999999,0.133485,-0.69701,-0.0287829999999999,1
76,-3.350000000000271e-05,0.692151,0.0069775,-0.1346155,0.495161,0.0242965,-0.2245155,0.739091,-0.0254224999999999,0.1415745,0.478801,0.0163125,0.2444645,0.711601,-0.0225585,-0.2655455,0.984541,-0.0624505,0.3027845,0.941961,-0.0752104999999999,-0.0733284999999999,-0.0003759999999999,0.0028935,0.0733284999999999,0.000376,-0.0028935,-0.1310055,-0.368269,-0.1167304999999999,0.1332745,-0.3586189999999999,-0.1116305,-0.1359355,-0.697109,-0.0159214999999999,0.1337945,-0.6862389999999999,-0.0298285,1
77,0.0004649999999999,0.6919055,0.005392,-0.133451,0.4928255,0.022295,-0.2235309999999999,0.7351355,-0.0284449999999999,0.142409,0.4774355,0.0148469999999999,0.2455689999999999,0.7102555,-0.0249059999999999,-0.265401,0.9832955,-0.068893,0.304039,0.9419355,-0.078153,-0.073546,-0.0003245,0.00273,0.073546,0.0003244999999999,-0.0027299999999999,-0.132371,-0.3601945,-0.126063,0.1349489999999999,-0.3512045,-0.121093,-0.135791,-0.6842045,-0.015,0.1341089999999999,-0.6726445,-0.0293979999999999,1
78,0.0009255,0.6917435000000001,0.0046874999999999,-0.1327654999999999,0.4906635,0.0212095,-0.2225955,0.7321535,-0.0296935,0.1430745,0.4784635,0.0144245,0.2466545,0.7111535,-0.0263065,-0.2652955,0.9831235,-0.0734145,0.3053545,0.9451435,-0.0803744999999999,-0.0737525,-0.0002875,0.0026315,0.0737525,0.0002875,-0.0026315,-0.1333755,-0.3511065,-0.1331445,0.1365445,-0.3435065,-0.1281245,-0.1357155,-0.6710065,-0.0136575,0.1343545,-0.6589364999999999,-0.0295724999999999,1
79,0.0014024999999999,0.6915319999999999,0.0043119999999999,-0.1321115,0.488642,0.0203989999999999,-0.2217215,0.729622,-0.0305169999999999,0.1437685,0.479102,0.0140249999999999,0.2476684999999999,0.715352,-0.027636,-0.2652315,0.983872,-0.075877,0.3066885,0.949612,-0.082297,-0.0740015,-0.000161,0.002581,0.0740015,0.000161,-0.002581,-0.1344615,-0.341448,-0.139927,0.1381185,-0.3356179999999999,-0.134987,-0.1355915,-0.656718,-0.011928,0.1343285,-0.6434380000000001,-0.029833,1
80,0.0018594999999999,0.690636,0.0042429999999999,-0.1316845,0.489106,0.0207089999999999,-0.2208145,0.728936,-0.031486,0.1444355,0.4800359999999999,0.014371,0.2483655,0.717936,-0.0292,-0.2650545,0.983666,-0.078276,0.3078855,0.953326,-0.084046,-0.0742865,4.300000000000137e-05,0.002743,0.0742865,-4.300000000000137e-05,-0.002743,-0.1355845,-0.332054,-0.146046,0.1398555,-0.328714,-0.141666,-0.1354945,-0.6428539999999999,-0.0100159999999999,0.1341555,-0.6286039999999999,-0.029602,1
81,0.0023749999999999,0.689167,0.003816,-0.131239,0.4891669999999999,0.020935,-0.220049,0.727717,-0.03228,0.145121,0.4807869999999999,0.014676,0.249551,0.719737,-0.031083,-0.2647089999999999,0.982307,-0.0807179999999999,0.309181,0.956247,-0.0856579999999999,-0.0745629999999999,2.5999999999998247e-05,0.002652,0.0745629999999999,-2.5999999999998247e-05,-0.002652,-0.136709,-0.322403,-0.151568,0.1417709999999999,-0.322173,-0.148358,-0.135649,-0.628823,-0.0088899999999999,0.134071,-0.614263,-0.029016,1
82,0.0030114999999999,0.6876585000000001,0.0002339999999999,-0.1307935,0.4891985,0.0177709999999999,-0.2194634999999999,0.7268185,-0.036754,0.1460265,0.4803785,0.0113349999999999,0.2506965,0.7203885,-0.036158,-0.2644735,0.9813785,-0.085984,0.3102965,0.9576185,-0.090484,-0.0750765,4.049999999999887e-05,0.0027479999999999,0.0750765,-4.049999999999887e-05,-0.002748,-0.1379834999999999,-0.3124415,-0.160074,0.1437965,-0.3151015,-0.157744,-0.1360135,-0.6141715,-0.011022,0.1343265,-0.5996214999999999,-0.031264,1
83,0.0039914999999999,0.6864549999999999,-0.004579,-0.1299305,0.486885,0.012625,-0.2186205,0.724645,-0.042645,0.1468295,0.479115,0.006803,0.2515495,0.719105,-0.0421949999999999,-0.2643205,0.979805,-0.093245,0.3116395,0.956425,-0.097115,-0.0754335,0.000125,0.002569,0.0754335,-0.000125,-0.002569,-0.1391105,-0.299575,-0.168895,0.1464295,-0.3038249999999999,-0.167925,-0.1364405,-0.599395,-0.0142699999999999,0.1349594999999999,-0.5850350000000001,-0.0345849999999999,1
84,0.0049364999999999,0.68514,-0.0095074999999999,-0.1290365,0.48628,0.0079715,-0.2173465,0.72436,-0.0483064999999999,0.1476035,0.4783199999999999,0.0022315,0.2529835,0.7180599999999999,-0.0485364999999999,-0.2635465,0.98,-0.1000665,0.3126934999999999,0.96294,-0.1050664999999999,-0.0758615,3.0000000000002247e-05,0.0023515,0.0758615,-3.0000000000002247e-05,-0.0023514999999999,-0.1403464999999999,-0.28557,-0.1777465,0.1490735,-0.29116,-0.1783565,-0.1369965,-0.5834400000000001,-0.0181215,0.1355235,-0.5693400000000001,-0.0381964999999999,1
85,0.0056315,0.6850849999999999,-0.0140229999999999,-0.1283325,0.486935,0.003679,-0.2164525,0.7251749999999999,-0.0535969999999999,0.1481075,0.479365,-0.00168,0.2541075,0.7207349999999999,-0.054037,-0.2632625,0.980525,-0.1070569999999999,0.3133375,0.962365,-0.112787,-0.0763795,-9.500000000001174e-05,0.002241,0.0763795,9.500000000001174e-05,-0.0022409999999999,-0.1416325,-0.272475,-0.184887,0.1513175,-0.278585,-0.1873369999999999,-0.1378025,-0.567715,-0.0220729999999999,0.1358275,-0.553885,-0.041367,1
86,0.006289,0.686315,-0.018423,-0.127114,0.487795,-0.000766,-0.215244,0.725965,-0.058934,0.148426,0.4796749999999999,-0.005797,0.255166,0.720695,-0.059524,-0.263184,0.981535,-0.113694,0.313986,0.963395,-0.120044,-0.076788,0.000365,0.0021959999999999,0.076788,-0.000365,-0.002196,-0.142704,-0.257575,-0.195664,0.154426,-0.263715,-0.198244,-0.138534,-0.5497150000000001,-0.025915,0.1361659999999999,-0.536645,-0.044494,1
87,0.0069995,0.686755,-0.0228494999999999,-0.1261005,0.488495,-0.0050515,-0.2139904999999999,0.725995,-0.0643234999999999,0.1487494999999999,0.479595,-0.0096694999999999,0.2559194999999999,0.720675,-0.0652235,-0.2628805,0.973885,-0.1206034999999999,0.3151295,0.962805,-0.1271435,-0.0771785,0.0006249999999999,0.0021805,0.0771785,-0.000625,-0.0021805,-0.1441005,-0.243615,-0.2059435,0.1576095,-0.251045,-0.2086234999999999,-0.1392904999999999,-0.532905,-0.0292285,0.1362795,-0.521105,-0.0456334999999999,1
88,0.007771,0.688005,-0.0278765,-0.125351,0.488795,-0.0103504999999999,-0.213151,0.7276450000000001,-0.0709275,0.149139,0.479985,-0.0140295,0.256869,0.7198450000000001,-0.0718574999999999,-0.262671,0.970525,-0.1287875,0.316009,0.962565,-0.1348975,-0.07749,0.0007149999999999,0.0019245,0.07749,-0.0007149999999999,-0.0019244999999999,-0.145731,-0.226015,-0.2175375,0.161009,-0.234885,-0.2199375,-0.140191,-0.513525,-0.0332164999999999,0.136499,-0.502875,-0.0470275,1
89,0.0086089999999999,0.689315,-0.033512,-0.1247549999999999,0.4882849999999999,-0.016131,-0.211925,0.728245,-0.078369,0.149605,0.480365,-0.019046,0.2576549999999999,0.718855,-0.078789,-0.262325,0.967435,-0.137699,0.316735,0.961505,-0.143709,-0.077777,0.0007349999999999,0.0016829999999999,0.077777,-0.000735,-0.0016829999999999,-0.147115,-0.208065,-0.229349,0.164325,-0.218535,-0.231279,-0.141005,-0.494425,-0.037675,0.137195,-0.4838349999999999,-0.049179,1
90,0.0092139999999999,0.69067,-0.039789,-0.124503,0.4885,-0.0226489999999999,-0.211313,0.7299599999999999,-0.086651,0.149857,0.4802499999999999,-0.024852,0.258127,0.71855,-0.0857209999999999,-0.261603,0.96784,-0.147291,0.317077,0.96033,-0.154811,-0.077955,0.00084,0.0013359999999999,0.077955,-0.00084,-0.0013359999999999,-0.148583,-0.18884,-0.242271,0.167367,-0.19977,-0.243061,-0.141423,-0.47319,-0.0423109999999999,0.1369669999999999,-0.46335,-0.051951,1
91,0.0098254999999999,0.6908700000000001,-0.0468205,-0.1241084999999999,0.48935,-0.0295965,-0.2108985,0.72957,-0.0947705,0.1498815,0.48072,-0.0309614999999999,0.2592415,0.71834,-0.0943705,-0.2609885,0.9672,-0.1598005,0.3170915,0.95979,-0.1663405,-0.0780355,0.00109,0.0008885,0.0780355,-0.0010899999999999,-0.0008885,-0.1496684999999999,-0.1684199999999999,-0.2554504999999999,0.1702415,-0.1783099999999999,-0.2552704999999999,-0.1414485,-0.45016,-0.0473605,0.1368715,-0.4407299999999999,-0.0556005,1
92,0.0103224999999999,0.69155,-0.0531154999999999,-0.1238055,0.49016,-0.0355365,-0.2105255,0.72559,-0.1024654999999999,0.1495844999999999,0.48154,-0.0370235,0.2599444999999999,0.71853,-0.1023854999999999,-0.2606055,0.96197,-0.1705855,0.3170044999999999,0.95998,-0.1772355,-0.0780855,0.00128,0.0003644999999999,0.0780855,-0.00128,-0.0003644999999999,-0.1506155,-0.14849,-0.2679555,0.1726145,-0.1562799999999999,-0.2659955,-0.1409755,-0.4268899999999999,-0.0522855,0.1371445,-0.41736,-0.0596654999999999,1
93,0.0106795,0.691865,-0.0592734999999999,-0.1233544999999999,0.4912849999999999,-0.0416865,-0.2102445,0.724695,-0.1103235,0.1491555,0.481855,-0.0433135,0.2604855,0.718275,-0.1099335,-0.2602545,0.952305,-0.1814735,0.3167755,0.957835,-0.1866235,-0.0782015,0.0015449999999999,-0.0001034999999999,0.0782015,-0.001545,0.0001034999999999,-0.1515844999999999,-0.126555,-0.2810634999999999,0.1753255,-0.132855,-0.2766935,-0.1405644999999999,-0.400745,-0.0573835,0.1375255,-0.390875,-0.0639535,1
94,0.0108809999999999,0.691035,-0.0620079999999999,-0.123024,0.491085,-0.044826,-0.210064,0.722955,-0.1148279999999999,0.148616,0.480745,-0.046614,0.261266,0.715135,-0.114428,-0.260134,0.941955,-0.188618,0.316836,0.960485,-0.193018,-0.078383,0.0018449999999999,-0.0007069999999999,0.078383,-0.001845,0.0007069999999999,-0.152784,-0.106055,-0.291308,0.178076,-0.111515,-0.284228,-0.140464,-0.376185,-0.059618,0.137796,-0.366785,-0.065588,1
95,0.011123,0.6886950000000001,-0.063736,-0.122814,0.490485,-0.046414,-0.209864,0.724445,-0.118736,0.148386,0.480456,-0.048402,0.262466,0.7124550000000001,-0.1169759999999999,-0.259644,0.936695,-0.1935859999999999,0.317296,0.958945,-0.198116,-0.078511,0.0015749999999999,-0.0009039999999999,0.078511,-0.0015749999999999,0.000904,-0.153884,-0.087895,-0.297046,0.180216,-0.090785,-0.288246,-0.140054,-0.354335,-0.0615459999999999,0.138186,-0.3451849999999999,-0.0667659999999999,1
96,0.0114635,0.68743,-0.0650115,-0.1225925,0.490546,-0.0478995,-0.2095625,0.72638,-0.1225815,0.1481475,0.480327,-0.0498175,0.2633275,0.7103999999999999,-0.1188414999999999,-0.2591825,0.93965,-0.1982815,0.3178675,0.95868,-0.2027015,-0.0785365,0.0015,-0.0010655,0.0785365,-0.0015,0.0010654999999999,-0.1544225,-0.0694799999999999,-0.3032215,0.1824375,-0.06908,-0.2921715,-0.1395325,-0.33191,-0.0634315,0.1388875,-0.3238,-0.0679315,1
97,0.011733,0.68606,-0.0659314999999999,-0.1224079999999999,0.491129,-0.0488045,-0.209098,0.7269000000000001,-0.1255115,0.147962,0.480134,-0.0508604999999999,0.263812,0.71023,-0.1200315,-0.258578,0.93912,-0.2023815,0.3184519999999999,0.95792,-0.2063515,-0.078463,0.00158,-0.0012734999999999,0.078463,-0.0015799999999999,0.0012735,-0.154438,-0.0547799999999999,-0.3082115,0.184512,-0.0507799999999999,-0.2949115,-0.138768,-0.3127,-0.0653614999999999,0.139792,-0.30552,-0.0688015,1
98,0.011699,0.684505,-0.066561,-0.123198,0.492241,-0.0496309999999999,-0.209798,0.727895,-0.127791,0.147482,0.480238,-0.051751,0.264692,0.709195,-0.121241,-0.2585079999999999,0.937965,-0.206111,0.3187919999999999,0.956445,-0.209231,-0.078309,0.001595,-0.0015389999999999,0.078309,-0.001595,0.0015389999999999,-0.154688,-0.041715,-0.313051,0.186392,-0.036915,-0.297131,-0.138308,-0.294425,-0.067381,0.140782,-0.2883949999999999,-0.069751,1
99,0.0118935,0.683445,-0.066457,-0.1236985,0.492484,-0.049942,-0.2106485,0.728025,-0.129087,0.1471915,0.480502,-0.051937,0.2656015,0.708155,-0.122127,-0.2587184999999999,0.933765,-0.209357,0.3194415,0.955475,-0.209617,-0.0782644999999999,0.001645,-0.0016889999999999,0.0782644999999999,-0.001645,0.001689,-0.1548185,-0.0307249999999999,-0.317097,0.1882714999999999,-0.025245,-0.298387,-0.1376585,-0.279495,-0.0686669999999999,0.1420315,-0.274805,-0.070727,1
100,0.0122895,0.683805,-0.0664465,-0.1237405,0.492486,-0.0499555,-0.2114204999999999,0.730015,-0.1304564999999999,0.1471995,0.481065,-0.0519465,0.2662495,0.7078949999999999,-0.1221064999999999,-0.2588705,0.930645,-0.2097164999999999,0.3206894999999999,0.954855,-0.2095865,-0.0782075,0.001555,-0.0017855,0.0782075,-0.0015549999999999,0.0017854999999999,-0.1547105,-0.0217849999999999,-0.3207764999999999,0.1903495,-0.0159449999999999,-0.2989265,-0.1369805,-0.2674149999999999,-0.0696465,0.1436795,-0.263385,-0.0714265,1
101,0.0125599999999999,0.68367,-0.0664735,-0.1239,0.493535,-0.0499965,-0.21202,0.73548,-0.1311135,0.1471299999999999,0.481475,-0.0519835,0.26703,0.70722,-0.1221135,-0.25916,0.93242,-0.2101635,0.32234,0.9536,-0.2095535,-0.0781709999999999,0.0015399999999999,-0.0019115,0.0781709999999999,-0.0015399999999999,0.0019114999999999,-0.15458,-0.0160099999999999,-0.3241334999999999,0.19216,-0.0100199999999999,-0.2988935,-0.13577,-0.25895,-0.0703035,0.14523,-0.2560599999999999,-0.0721035,1
102,0.0127805,0.683995,-0.0661495,-0.1239404999999999,0.49376,-0.0498725,-0.2124104999999999,0.7374050000000001,-0.1313195,0.1471795,0.481988,-0.0518595,0.2677795,0.7066250000000001,-0.1219595,-0.2596205,0.938135,-0.2105195,0.3234495,0.954965,-0.2093895,-0.0781185,0.001535,-0.0021884999999999,0.0781185,-0.0015349999999999,0.0021885,-0.1543705,-0.0128849999999999,-0.3267895,0.1934695,-0.0068349999999999,-0.2987095,-0.1346705,-0.2546649999999999,-0.0710495,0.1468595,-0.2530549999999999,-0.0725795,1
103,0.0129785,0.68472,-0.065068,-0.1240735,0.4934479999999999,-0.0494759999999999,-0.2122335,0.73847,-0.130988,0.1471365,0.4817549999999999,-0.0511299999999999,0.2683365,0.70724,-0.1207979999999999,-0.2598935,0.94299,-0.2109079999999999,0.3248465,0.95567,-0.208858,-0.0780345,0.0015399999999999,-0.0024269999999999,0.0780345,-0.00154,0.0024269999999999,-0.1540435,-0.01004,-0.328818,0.1945665,-0.0036599999999999,-0.298508,-0.1335935,-0.25127,-0.071718,0.1484764999999999,-0.25019,-0.072908,1
104,0.0129245,0.68481,-0.0640155,-0.1242445,0.494348,-0.0490795,-0.2128545,0.7391000000000001,-0.1307955,0.1470755,0.481705,-0.0499165,0.2687055,0.70867,-0.1189254999999999,-0.2603745,0.94624,-0.2106654999999999,0.3261555,0.95702,-0.2081555,-0.0779545,0.0015899999999999,-0.0026105,0.0779545,-0.0015899999999999,0.0026105,-0.1539645,-0.00834,-0.3302855,0.1954555,-0.0017499999999999,-0.2980855,-0.1326945,-0.2488899999999999,-0.0721355,0.1498654999999999,-0.2486999999999999,-0.0732155,1
105,0.012738,0.68498,-0.063054,-0.124486,0.494621,-0.048629,-0.213586,0.7391300000000001,-0.130594,0.146944,0.48151,-0.048438,0.268874,0.7094,-0.117164,-0.2614559999999999,0.94838,-0.210904,0.327094,0.95753,-0.205724,-0.077907,0.0016,-0.002721,0.077907,-0.0016,0.002721,-0.153976,-0.00685,-0.331034,0.1963039999999999,-0.0003499999999999,-0.297734,-0.131886,-0.247,-0.072544,0.150824,-0.2470299999999999,-0.073494,1
106,0.0124754999999999,0.684995,-0.0621435,-0.1247484999999999,0.494622,-0.0481534999999999,-0.2143885,0.7388250000000001,-0.1305235,0.1468015,0.481219,-0.0468855,0.2684315,0.7093750000000001,-0.1153434999999999,-0.2625985,0.949765,-0.2111735,0.3275915,0.957475,-0.2033635,-0.0778425,0.001595,-0.0027895,0.0778425,-0.0015949999999999,0.0027895,-0.1541285,-0.0057249999999999,-0.3317835,0.1971115,0.0004250000000001,-0.2975135,-0.1312185,-0.2457149999999999,-0.0724134999999999,0.1516515,-0.2460649999999999,-0.0738335,1
107,0.0121655,0.685395,-0.061314,-0.1251135,0.4945779999999999,-0.047664,-0.2153535,0.7384649999999999,-0.130454,0.1465865,0.480492,-0.04543,0.2685165,0.710135,-0.114114,-0.2637935,0.951075,-0.211344,0.3276664999999999,0.958495,-0.201614,-0.0778085,0.0016749999999999,-0.002808,0.0778085,-0.0016749999999999,0.0028079999999999,-0.1543835,-0.004515,-0.332554,0.1976565,0.001375,-0.2971439999999999,-0.1307735,-0.244265,-0.072514,0.1523965,-0.245465,-0.074064,1
108,0.0118215,0.6857,-0.060476,-0.1254975,0.494322,-0.0471029999999999,-0.2162275,0.73793,-0.1302559999999999,0.1463625,0.480202,-0.044124,0.2685125,0.71127,-0.1130959999999999,-0.2649574999999999,0.9522,-0.2113459999999999,0.3277025,0.95922,-0.1999059999999999,-0.0777585,0.0016899999999999,-0.0028159999999999,0.0777585,-0.0016899999999999,0.002816,-0.1546575,-0.00365,-0.332846,0.1982525,0.0019599999999999,-0.296766,-0.1308175,-0.24306,-0.072906,0.1530425,-0.24507,-0.074156,1
109,0.011342,0.68576,-0.0596275,-0.125947,0.494023,-0.0465545,-0.216997,0.73739,-0.1299175,0.146113,0.4802620000000001,-0.0431094999999999,0.2682029999999999,0.71133,-0.1121275,-0.266137,0.95226,-0.2114774999999999,0.3276429999999999,0.95928,-0.1984174999999999,-0.077758,0.00163,-0.0028274999999999,0.077758,-0.0016299999999999,0.0028275,-0.1549569999999999,-0.0035899999999999,-0.3329074999999999,0.198873,0.00202,-0.2963375,-0.1308069999999999,-0.243,-0.0733274999999999,0.153563,-0.2450099999999999,-0.0741474999999999,1
110,0.010882,0.68576,-0.058793,-0.1263149999999999,0.494023,-0.046073,-0.217745,0.73726,-0.1296629999999999,0.145965,0.4802620000000001,-0.042299,0.267615,0.7120000000000001,-0.1110729999999999,-0.267285,0.95227,-0.211573,0.3275949999999999,0.95982,-0.196983,-0.0777559999999999,0.00163,-0.002873,0.0777559999999999,-0.0016299999999999,0.002873,-0.1552549999999999,-0.0035899999999999,-0.332983,0.199645,0.00202,-0.295883,-0.1309749999999999,-0.243,-0.074043,0.154085,-0.2450099999999999,-0.074173,1
111,0.0104789999999999,0.68576,-0.0580964999999999,-0.126652,0.494023,-0.0456265,-0.218462,0.73726,-0.1293965,0.145858,0.4802620000000001,-0.0415834999999999,0.266618,0.71274,-0.1099765,-0.268442,0.95234,-0.2116964999999999,0.327218,0.96041,-0.1955865,-0.077756,0.00163,-0.0028725,0.077756,-0.0016299999999999,0.0028725,-0.155532,-0.0035799999999999,-0.3330864999999999,0.200598,0.00202,-0.2954565,-0.131322,-0.2428099999999999,-0.0748765,0.154598,-0.2450099999999999,-0.0741965,1
112,0.0099775,0.6858200000000001,-0.057374,-0.1269595,0.493993,-0.04522,-0.2192595,0.73723,-0.128934,0.1457304999999999,0.4807450000000001,-0.041211,0.2654404999999999,0.7135600000000001,-0.108834,-0.2697295,0.95303,-0.211744,0.3262105,0.96095,-0.194374,-0.0777414999999999,0.0016,-0.0028499999999999,0.0777414999999999,-0.0015999999999999,0.0028499999999999,-0.1558995,-0.0032599999999999,-0.332984,0.2016405,0.00208,-0.295054,-0.1319295,-0.2416899999999999,-0.075734,0.1549704999999999,-0.2449699999999999,-0.074134,1
113,0.0096634999999999,0.68595,-0.056747,-0.1271115,0.4937039999999999,-0.04486,-0.2198915,0.7368699999999999,-0.128447,0.1456885,0.4815609999999999,-0.040702,0.2643285,0.71536,-0.107907,-0.2708415,0.95359,-0.2114569999999999,0.3247885,0.9611,-0.1933669999999999,-0.0777325,0.0014599999999999,-0.0028159999999999,0.0777325,-0.00146,0.0028159999999999,-0.1560215,-0.00328,-0.332687,0.2023385,0.0020099999999999,-0.294737,-0.1325415,-0.24076,-0.0765569999999999,0.1550284999999999,-0.2452200000000001,-0.074057,1
114,0.0092915,0.6865450000000001,-0.056029,-0.1272935,0.493256,-0.044575,-0.2203735,0.7362150000000001,-0.128049,0.1455465,0.482226,-0.0403559999999999,0.2631365,0.7168150000000001,-0.107279,-0.2719635,0.953895,-0.2108789999999999,0.3230265,0.963245,-0.192079,-0.0777285,0.001305,-0.0027529999999999,0.0777285,-0.001305,0.0027529999999999,-0.1559934999999999,-0.0037649999999999,-0.332429,0.2027265,0.0015750000000001,-0.294519,-0.1330535,-0.2403449999999999,-0.077339,0.1550565,-0.245915,-0.073919,1
115,0.0088484999999999,0.6877800000000001,-0.0554289999999999,-0.1275865,0.4925130000000001,-0.044494,-0.2204965,0.73538,-0.127499,0.1453135,0.4830400000000001,-0.0400289999999999,0.2622535,0.7184400000000001,-0.106889,-0.2726065,0.95739,-0.2095089999999999,0.3212534999999999,0.96542,-0.190869,-0.0778475,0.0011000000000001,-0.0026559999999999,0.0778475,-0.0010999999999999,0.0026559999999999,-0.1561065,-0.0047899999999999,-0.3322889999999999,0.2026235,0.00045,-0.2943289999999999,-0.1331865,-0.2408899999999999,-0.077329,0.1549435,-0.2472299999999999,-0.073589,1
116,0.008424,0.6895249999999999,-0.0543955,-0.12797,0.492983,-0.0438724999999999,-0.22074,0.733095,-0.1264255,0.1451599999999999,0.484355,-0.0393754999999999,0.26144,0.715845,-0.1060854999999999,-0.27406,0.959065,-0.2077655,0.31946,0.963085,-0.1888055,-0.077927,0.0012349999999999,-0.0024834999999999,0.077927,-0.0012349999999999,0.0024835,-0.15619,-0.0097949999999999,-0.3313455,0.20253,-0.004365,-0.2932855,-0.13402,-0.2469449999999999,-0.0776855,0.1548199999999999,-0.252685,-0.0728755,1
117,0.007933,0.6912200000000001,-0.053333,-0.128433,0.493446,-0.043185,-0.221203,0.7303700000000001,-0.1245729999999999,0.145007,0.48548,-0.0386379999999999,0.260137,0.71789,-0.1052029999999999,-0.275763,0.9602,-0.2054929999999999,0.317697,0.96338,-0.186593,-0.078042,0.00126,-0.002401,0.078042,-0.0012599999999999,0.002401,-0.156303,-0.01466,-0.329663,0.202347,-0.0095799999999999,-0.292143,-0.1351429999999999,-0.2542,-0.0777829999999999,0.154157,-0.25859,-0.072023,1
118,0.0073635,0.692145,-0.0521595,-0.1290214999999999,0.493179,-0.0421985,-0.2215815,0.7254050000000001,-0.1213195,0.1446585,0.487118,-0.0375435,0.2586385,0.719595,-0.1041695,-0.2761814999999999,0.958735,-0.2029694999999999,0.3159085,0.962655,-0.1843695,-0.0780484999999999,0.001055,-0.0024015,0.0780484999999999,-0.0010549999999999,0.0024014999999999,-0.1563215,-0.0246649999999999,-0.3273995,0.2017685,-0.0196349999999999,-0.2906795,-0.1364115,-0.268015,-0.0776695,0.1530685,-0.269235,-0.0710295,1
119,0.0068644999999999,0.69308,-0.050542,-0.1295015,0.492102,-0.0410079999999999,-0.2222415,0.7219599999999999,-0.1181369999999999,0.1445584999999999,0.48713,-0.036476,0.2571585,0.71977,-0.102387,-0.2778115,0.95799,-0.2004969999999999,0.3141385,0.96339,-0.181867,-0.0779074999999999,0.0008299999999999,-0.002325,0.0779074999999999,-0.0008299999999999,0.002325,-0.1560915,-0.0372199999999999,-0.3249869999999999,0.2011985,-0.0311999999999999,-0.289267,-0.1375615,-0.2854,-0.0784169999999999,0.1517285,-0.28275,-0.0697869999999999,1
120,0.0062679999999999,0.695505,-0.0487105,-0.130128,0.490067,-0.0396445,-0.223028,0.719155,-0.1147415,0.144392,0.486168,-0.0353655,0.255932,0.719025,-0.1005315,-0.279948,0.957685,-0.1963915,0.3121119999999999,0.963515,-0.1787515,-0.077776,0.0005649999999999,-0.0021855,0.077776,-0.0005649999999999,0.0021855,-0.155658,-0.048955,-0.3214415,0.200312,-0.042825,-0.2876515,-0.138188,-0.3036049999999999,-0.0787415,0.150232,-0.297365,-0.0683614999999999,1
121,0.0055444999999999,0.697125,-0.0467395,-0.1306995,0.490065,-0.0381114999999999,-0.2233494999999999,0.7149749999999999,-0.1108815,0.1441405,0.4867169999999999,-0.0340635,0.2549505,0.717725,-0.0983515,-0.2804695,0.953285,-0.1922015,0.3100605,0.962745,-0.1756214999999999,-0.0776955,0.0003349999999999,-0.0020275,0.0776955,-0.000335,0.0020275,-0.1551294999999999,-0.063375,-0.3172815,0.1990104999999999,-0.057085,-0.2856615,-0.1385495,-0.325225,-0.0785915,0.1490305,-0.315535,-0.0682415,1
122,0.0048615,0.70258,-0.0438545,-0.1314165,0.492728,-0.0356574999999999,-0.2242564999999999,0.71538,-0.1066184999999999,0.1439835,0.490045,-0.0319215,0.2534735,0.71654,-0.0957785,-0.2828865,0.95656,-0.1874485,0.3080835,0.96148,-0.1714685,-0.0771125,0.0002599999999999,-0.0017765,0.0771125,-0.0002599999999999,0.0017765,-0.1540365,-0.0765899999999999,-0.3118285,0.1975135,-0.07106,-0.2824385,-0.1388865,-0.34811,-0.0777784999999999,0.1473535,-0.33587,-0.0666685,1
123,0.0043885,0.7056100000000001,-0.0405485,-0.1321635,0.49254,-0.0327185,-0.2250835,0.71312,-0.1015135,0.1440064999999999,0.49048,-0.0293195,0.2525865,0.71303,-0.0916035,-0.2852234999999999,0.95727,-0.1818835,0.3061665,0.9579,-0.1669535,-0.0763625,-9.9999999999989e-05,-0.0014804999999999,0.0763625,9.9999999999989e-05,0.0014805,-0.1527035,-0.09249,-0.3055234999999999,0.1959265,-0.08706,-0.2784535,-0.1391135,-0.37337,-0.0753234999999999,0.1456265,-0.35851,-0.0643335,1
124,0.0037255,0.709095,-0.0369219999999999,-0.1329435,0.484185,-0.0295759999999999,-0.2258135,0.705695,-0.095381,0.1440365,0.493255,-0.0256769999999999,0.2518265,0.715535,-0.0879209999999999,-0.2877035,0.948375,-0.176761,0.3046965,0.959665,-0.162651,-0.0755155,-0.0006749999999999,-0.0012859999999999,0.0755155,0.000675,0.001286,-0.1506735,-0.1127449999999999,-0.2957809999999999,0.1931765,-0.1075049999999999,-0.271931,-0.1388935,-0.4043049999999999,-0.072811,0.1439165,-0.389085,-0.062041,1
125,0.0033404999999999,0.709495,-0.0337355,-0.1335985,0.483445,-0.0266814999999999,-0.2265385,0.703025,-0.0900644999999999,0.1442314999999999,0.493085,-0.0227544999999999,0.2517815,0.716075,-0.0845345,-0.2903585,0.944655,-0.1718145,0.3034914999999999,0.960155,-0.1591445,-0.0745115,-0.0008849999999999,-0.0011355,0.0745115,0.000885,0.0011354999999999,-0.1481185,-0.1334849999999999,-0.2855345,0.1897714999999999,-0.1277149999999999,-0.2643045,-0.1381385,-0.4346949999999999,-0.0700245,0.1424514999999999,-0.419215,-0.0602045,1
126,0.0028569999999999,0.71151,-0.0308195,-0.134274,0.4827599999999999,-0.0239315,-0.228434,0.70496,-0.0856915,0.144466,0.49449,-0.0198535,0.251696,0.71241,-0.0819315,-0.293094,0.94641,-0.1676115,0.303186,0.95828,-0.1570015,-0.073381,-0.00114,-0.0010685,0.073381,0.0011399999999999,0.0010685,-0.145744,-0.1542,-0.2752415,0.186056,-0.14717,-0.2561915,-0.137124,-0.46407,-0.0672815,0.142296,-0.44902,-0.0589315,1
127,0.002422,0.7159949999999999,-0.02785,-0.1348659999999999,0.4824449999999999,-0.021406,-0.230306,0.708885,-0.0826349999999999,0.144824,0.4955549999999999,-0.0173479999999999,0.251734,0.714015,-0.079325,-0.295326,0.950175,-0.163555,0.303104,0.958185,-0.1550949999999999,-0.072217,-0.001235,-0.001014,0.072217,0.0012349999999999,0.001014,-0.143276,-0.169905,-0.264275,0.182714,-0.162215,-0.2475149999999999,-0.135876,-0.487635,-0.0641249999999999,0.141724,-0.474865,-0.057705,1
128,0.0012974999999999,0.7201649999999999,-0.0244459999999999,-0.1362485,0.485475,-0.017802,-0.2322485,0.711165,-0.078454,0.1445115,0.498975,-0.0140079999999999,0.2519115,0.7173849999999999,-0.076694,-0.2980784999999999,0.952805,-0.158534,0.3023915,0.954365,-0.152474,-0.0712305,-0.001195,-0.0009849999999999,0.0712305,0.001195,0.0009849999999999,-0.1413184999999999,-0.1841249999999999,-0.251084,0.1781415,-0.177445,-0.236764,-0.1352485,-0.5097149999999999,-0.059964,0.1398915,-0.499535,-0.055754,1
129,0.0003085,0.72181,-0.021092,-0.1375104999999999,0.4874,-0.0142929999999999,-0.2349905,0.71098,-0.074268,0.1443694999999999,0.50221,-0.0107439999999999,0.2524795,0.71992,-0.0740079999999999,-0.3008105,0.95284,-0.1548179999999999,0.3017694999999999,0.95669,-0.150008,-0.0700225,-0.00103,-0.0009419999999999,0.0700225,0.00103,0.0009419999999999,-0.1393205,-0.2038499999999999,-0.237528,0.1733595,-0.1984099999999999,-0.224228,-0.1341704999999999,-0.53614,-0.0557579999999999,0.1383095,-0.5279200000000001,-0.053588,1
130,-0.0001484999999999,0.7249300000000001,-0.0170815,-0.1381255,0.48801,-0.0099345,-0.2375654999999999,0.71157,-0.0697305,0.1450044999999999,0.50387,-0.0069815,0.2522245,0.72437,-0.0706705,-0.3024955,0.95634,-0.1502505,0.3017745,0.95968,-0.1469005,-0.0683985,-0.00082,-0.0005305,0.0683985,0.0008199999999999,0.0005304999999999,-0.1366855,-0.22198,-0.2219304999999999,0.1688345,-0.21785,-0.2106405,-0.1321755,-0.56057,-0.0505905,0.1373045,-0.5540499999999999,-0.0484405,1
131,-9.10000000000008e-05,0.72146,-0.0112395,-0.13822,0.48348,-0.0037555,-0.23958,0.70457,-0.0629295,0.14573,0.4997,-0.0013105,0.2528,0.72417,-0.0650594999999999,-0.3035,0.94907,-0.1435795,0.30231,0.95918,-0.1421395,-0.067616,-0.0009699999999999,-0.0002505,0.067616,0.0009699999999999,0.0002504999999999,-0.1336999999999999,-0.24452,-0.2033695,0.16362,-0.2410599999999999,-0.1936895,-0.12951,-0.58773,-0.0433895,0.13632,-0.58172,-0.0403295,1
132,-0.0001094999999999,0.7208330000000001,-0.0053155,-0.1386905,0.485453,0.0028734999999999,-0.2412905,0.706933,-0.0566085,0.1463595,0.499653,0.0042914999999999,0.2539495,0.7276130000000001,-0.0602385,-0.3044305,0.946433,-0.1376685,0.3036894999999999,0.962393,-0.1375585,-0.0669525,-0.000791,2.1499999999993743e-05,0.0669525,0.000791,-2.1500000000007624e-05,-0.1300405,-0.264247,-0.1812585,0.1573695,-0.261977,-0.1738985,-0.1269105,-0.612697,-0.0349885,0.1352094999999999,-0.6071869999999999,-0.0315375,1
133,-0.0001504999999999,0.719944,0.0001355,-0.1394075,0.495954,0.0091855,-0.2430675,0.714374,-0.0518324999999999,0.1467625,0.497114,0.0089225,0.2549025,0.724964,-0.0555225,-0.3052375,0.950144,-0.1322225,0.3051025,0.959994,-0.1332525,-0.0665045,-0.0003229999999999,0.0001685,0.0665045,0.000323,-0.0001685,-0.1272175,-0.279296,-0.1626125,0.1519025,-0.2773359999999999,-0.1567425,-0.1250875,-0.631836,-0.0267794999999999,0.1340625,-0.624406,-0.0231434999999999,1
134,-0.00021,0.7208220000000001,0.005113,-0.139883,0.497662,0.014559,-0.244353,0.717642,-0.047302,0.147197,0.4976819999999999,0.013215,0.256177,0.728852,-0.0518919999999999,-0.305333,0.954342,-0.1267619999999999,0.307417,0.963592,-0.130382,-0.066382,-0.0004559999999999,0.000467,0.066382,0.000456,-0.0004669999999999,-0.124723,-0.290138,-0.145112,0.147467,-0.288898,-0.141472,-0.124023,-0.645678,-0.0189579999999999,0.132877,-0.637728,-0.0153249999999999,1
135,5.849999999999779e-05,0.72026,0.0093719999999999,-0.1400185,0.49938,0.0189789999999999,-0.2443884999999999,0.7171099999999999,-0.043657,0.1479714999999999,0.4969,0.0163279999999999,0.2575415,0.7323799999999999,-0.049277,-0.3048885,0.95388,-0.122237,0.3098815,0.96685,-0.128407,-0.0666525,-0.000512,0.000876,0.0666525,0.0005119999999999,-0.000876,-0.1219385,-0.3016999999999999,-0.128747,0.1437415,-0.30016,-0.127037,-0.1228785,-0.65958,-0.012142,0.1320615,-0.65083,-0.008406,1
136,7.899999999999921e-05,0.7180325,0.0132114999999999,-0.140405,0.5014225,0.0230214999999999,-0.244275,0.7168224999999999,-0.0404855,0.1485149999999999,0.4960825,0.0191124999999999,0.258275,0.7310924999999999,-0.0461055,-0.304595,0.9537025,-0.1194955,0.311765,0.9694525,-0.1255855,-0.0669459999999999,-0.0005524999999999,0.0005874999999999,0.0669459999999999,0.0005525,-0.0005875,-0.1195649999999999,-0.3132675,-0.1130155,0.139905,-0.3112074999999999,-0.1124055,-0.122265,-0.6731975,-0.0059765,0.131315,-0.6635375,-0.0019105,1
137,-0.000192,0.716302,0.0174395,-0.14103,0.500942,0.0269015,-0.24438,0.716782,-0.0371354999999999,0.1487599999999999,0.494412,0.0222545,0.25841,0.729552,-0.0434755,-0.30468,0.953972,-0.1144055,0.31389,0.974282,-0.1225554999999999,-0.067077,-0.000656,0.0009715,0.067077,0.0006559999999999,-0.0009715,-0.11783,-0.324058,-0.0970455,0.1361099999999999,-0.321608,-0.0965754999999999,-0.1220899999999999,-0.687128,0.0008695,0.13042,-0.675988,0.0053785,1
138,-0.0004664999999999,0.7152535,0.021368,-0.1416315,0.5024335,0.030785,-0.2443615,0.7184235000000001,-0.033959,0.1488785,0.4938535,0.025388,0.2585185,0.7292335000000001,-0.041049,-0.3047515,0.9559635,-0.1096389999999999,0.3150985,0.9736335,-0.119139,-0.0672015,-0.0008395,0.0012339999999999,0.0672015,0.0008395,-0.0012339999999999,-0.1162915,-0.3326965,-0.082039,0.1326885,-0.3309665,-0.081729,-0.1221415,-0.6992265,0.007182,0.1296485,-0.6867965,0.012063,1
139,-0.0005535,0.713646,0.025187,-0.1420625,0.5031359999999999,0.034356,-0.2442925,0.720706,-0.030957,0.1490575,0.492676,0.028495,0.2586275,0.728316,-0.037317,-0.3047125,0.958746,-0.1050769999999999,0.3163075,0.973816,-0.115117,-0.0674035,-0.0010109999999999,0.0016,0.0674035,0.001011,-0.0016,-0.1150625,-0.3399939999999999,-0.068647,0.1297175,-0.339684,-0.067077,-0.1221825,-0.710384,0.013047,0.1291975,-0.696454,0.016409,1
140,-0.0002924999999999,0.7147315,0.0283184999999999,-0.1421675,0.5062515,0.0370364999999999,-0.2434575,0.7260215,-0.0285605,0.1495325,0.4942415,0.0308574999999999,0.2588725,0.7302015,-0.0337905,-0.3039875,0.9647315,-0.1012405,0.3176825,0.9777715,-0.1115505,-0.0679795,-0.0008935,0.0015774999999999,0.0679795,0.0008934999999999,-0.0015775,-0.1139975,-0.3446285,-0.0570605,0.1282425,-0.3454485,-0.0541405,-0.1219474999999999,-0.7180685,0.0179494999999999,0.1295025,-0.7025785,0.0194374999999999,1
141,-0.0003009999999999,0.7149495,0.0312584999999999,-0.1421029999999999,0.5058495000000001,0.0393214999999999,-0.2431029999999999,0.7247695000000001,-0.0259744999999999,0.149657,0.4945595,0.0333114999999999,0.258617,0.7308595,-0.0300445,-0.303443,0.9687995,-0.0971645,0.318307,0.9783995,-0.1067144999999999,-0.068667,-0.0008314999999999,0.0015504999999999,0.068667,0.0008314999999999,-0.0015504999999999,-0.114153,-0.3496205,-0.0490245,0.127487,-0.3514405,-0.0439345,-0.1219329999999999,-0.7240405,0.0216204999999999,0.129577,-0.7085505,0.0214595,1
142,-0.000239,0.714276,0.0341845,-0.142018,0.505336,0.0417675,-0.243048,0.723776,-0.0230574999999999,0.149672,0.495036,0.0360395,0.258432,0.731526,-0.0263274999999999,-0.302888,0.972906,-0.0930574999999999,0.318872,0.979306,-0.1015975,-0.069395,-0.0008009999999999,0.0015225,0.069395,0.000801,-0.0015224999999999,-0.114298,-0.355374,-0.0407575,0.1267619999999999,-0.357134,-0.0334675,-0.122028,-0.729734,0.0252365,0.1296719999999999,-0.714244,0.0237235,1
143,-0.0003199999999999,0.7141905000000001,0.0345635,-0.142087,0.5048205,0.0417365,-0.243127,0.7237605,-0.0226895,0.149523,0.4946905,0.0362645,0.258243,0.7316505,-0.0248154999999999,-0.302487,0.9729805,-0.0918354999999999,0.318973,0.9797805,-0.0987955,-0.069771,-0.0008644999999999,0.0016475,0.069771,0.0008644999999999,-0.0016474999999999,-0.114587,-0.3597094999999999,-0.0352055,0.126023,-0.3614595,-0.0258255,-0.122427,-0.7340595,0.0259125,0.129773,-0.7185695,0.0237805,1
144,-0.0003984999999999,0.713711,0.0351599999999999,-0.1419915,0.504151,0.0417839999999999,-0.2424515,0.723291,-0.021817,0.1494085,0.4943309999999999,0.0365929999999999,0.2581085,0.731651,-0.023239,-0.3018315,0.972771,-0.090053,0.3190385,0.980171,-0.095463,-0.0700185,-0.00084,0.0017269999999999,0.0700185,0.00084,-0.001727,-0.1149715,-0.360699,-0.029413,0.1253185,-0.362269,-0.017818,-0.1230314999999999,-0.736589,0.0267359999999999,0.1304685,-0.719929,0.0242349999999999,1
145,-0.000447,0.7131895,0.0358564999999999,-0.141913,0.5035594999999999,0.0419484999999999,-0.241913,0.7229495,-0.0209165,0.149217,0.4938795,0.0370854999999999,0.257987,0.7315095,-0.0217445,-0.301533,0.9727295,-0.0881095,0.318997,0.9804295,-0.0923395,-0.070187,-0.0007554999999999,0.0018824999999999,0.070187,0.0007554999999999,-0.0018825,-0.115463,-0.3613505,-0.0241285,0.124847,-0.3632905,-0.0109305,-0.123573,-0.7384005,0.0276974999999999,0.131267,-0.7207105,0.0246614999999999,1
146,-0.0004849999999999,0.7124505000000001,0.0364315,-0.1418859999999999,0.5030705,0.0422405,-0.241666,0.7225705,-0.0200664999999999,0.149134,0.4934504999999999,0.0376835,0.257804,0.7313004999999999,-0.0203764999999999,-0.301446,0.9725105,-0.0865205,0.3189039999999999,0.9806105,-0.0893904999999999,-0.070298,-0.0007015,0.0019935,0.070298,0.0007015,-0.0019934999999999,-0.115986,-0.3615895,-0.0203404999999999,0.124534,-0.3641595,-0.0061254999999999,-0.123916,-0.7388695000000001,0.0280845,0.132094,-0.7209795000000001,0.0246055,1
147,-0.000486,0.7118935,0.037022,-0.1417979999999999,0.5023734999999999,0.0421929999999999,-0.241508,0.7221635,-0.019355,0.149162,0.4930534999999999,0.038105,0.257682,0.7309534999999999,-0.018961,-0.3013079999999999,0.9722535,-0.084794,0.318902,0.9805535,-0.0868039999999999,-0.070368,-0.0006535,0.0021399999999999,0.070368,0.0006534999999999,-0.00214,-0.1165079999999999,-0.3615565,-0.0172459999999999,0.124332,-0.3648065,-0.0025509999999999,-0.124178,-0.7388065,0.0282759999999999,0.132972,-0.7208465000000001,0.024435,1
148,-0.000467,0.7112995,0.037469,-0.1417,0.5016795000000001,0.041544,-0.24142,0.7216294999999999,-0.018622,0.14919,0.4926095,0.038358,0.25761,0.7305695000000001,-0.017609,-0.30113,0.9718995,-0.083037,0.31888,0.9803995,-0.0842469999999999,-0.070451,-0.0006584999999999,0.0021359999999999,0.070451,0.0006585,-0.0021359999999999,-0.11705,-0.3615405,-0.014768,0.12415,-0.3654205,3.700000000000231e-05,-0.12442,-0.7385305,0.027852,0.13415,-0.7204505000000001,0.0236989999999999,1
149,-0.0004669999999999,0.7107384999999999,0.0378475,-0.141619,0.5010884999999999,0.0408455,-0.241389,0.7211185,-0.0178744999999999,0.149161,0.4921685,0.0384175,0.257511,0.7301485,-0.0163725,-0.3009489999999999,0.9715485,-0.0815594999999999,0.318691,0.9797485,-0.0821895,-0.070509,-0.0006884999999999,0.0020454999999999,0.070509,0.0006885,-0.0020454999999999,-0.117529,-0.3615915,-0.0128784999999999,0.123971,-0.3658715,0.0015584999999999,-0.124649,-0.7380715,0.0271985,0.135431,-0.7197215,0.0227955,1
150,-0.000414,0.710476,0.0378775,-0.1414369999999999,0.500826,0.0405275,-0.241317,0.720856,-0.0177114999999999,0.149143,0.492106,0.0388395,0.257373,0.729886,-0.0152574999999999,-0.300807,0.971286,-0.0821155,0.318453,0.979486,-0.0806455,-0.070587,-0.0005779999999999,0.0020405,0.070587,0.000578,-0.0020405,-0.117757,-0.361714,-0.0115664999999999,0.123793,-0.366134,0.0020825,-0.124887,-0.737404,0.0263715,0.136583,-0.718754,0.0214515,1
151,-0.0003219999999999,0.710476,0.0369995,-0.141275,0.500826,0.0400185,-0.2414649999999999,0.720856,-0.0199835,0.149105,0.4923059999999999,0.0393494999999999,0.257265,0.729886,-0.0141125,-0.300685,0.971286,-0.0847065,0.318345,0.979486,-0.0791164999999999,-0.0706519999999999,-0.0005779999999999,0.0020204999999999,0.0706519999999999,0.000578,-0.0020205,-0.1180249999999999,-0.361714,-0.0105005,0.123675,-0.366134,0.0014844999999999,-0.125125,-0.736564,0.0255324999999999,0.137655,-0.7176539999999999,0.0197585,1
152,-0.0002045,0.710476,0.0353345,-0.1411214999999999,0.500826,0.0387465,-0.2416914999999999,0.720856,-0.0220744999999999,0.1491185,0.4923059999999999,0.0401355,0.2572385,0.729886,-0.0127865,-0.3007015,0.971286,-0.0867975,0.3196785,0.977586,-0.0770575,-0.0707075,-0.0005779999999999,0.0016904999999999,0.0707075,0.000578,-0.0016904999999999,-0.1183714999999999,-0.361714,-0.0096704999999999,0.1236085,-0.366134,-6.0499999999998055e-05,-0.1254114999999999,-0.7359939999999999,0.0247665,0.1385485,-0.716784,0.0178494999999999,1
153,0.0003219999999999,0.7102860000000001,0.035154,-0.141364,0.5004860000000001,0.038536,-0.2429839999999999,0.720246,-0.022326,0.149696,0.492106,0.0425539999999999,0.259386,0.728906,-0.009396,-0.299834,0.970786,-0.086959,0.320866,0.974586,-0.074099,-0.070839,-0.0005779999999999,0.0014839999999999,0.070839,0.000578,-0.0014839999999999,-0.119644,-0.361714,-0.009921,0.123076,-0.366224,-0.0002829999999999,-0.1267039999999999,-0.7359939999999999,0.024515,0.138026,-0.716784,0.0176279999999999,1
154,0.001183,0.7097300000000001,0.0351875,-0.1419349999999999,0.49972,0.0385145,-0.245185,0.7176100000000001,-0.0224105,0.151265,0.49206,0.0445825,0.265775,0.7235400000000001,-0.0059454999999999,-0.298115,0.96484,-0.0887855,0.3219849999999999,0.96904,-0.0711455,-0.070929,-0.0004339999999999,0.0014805,0.070929,0.000434,-0.0014805,-0.1216749999999999,-0.3617399999999999,-0.0099995,0.122255,-0.3664199999999999,-0.0003145,-0.1291949999999999,-0.7358399999999999,0.0244185,0.136335,-0.71663,0.0175625,1
155,0.002078,0.7097175,0.0352225,-0.143156,0.4986575,0.0384674999999999,-0.250746,0.7095975,-0.0245085,0.152914,0.4926675,0.0460174999999999,0.274764,0.7143674999999999,-0.0038665,-0.296376,0.9523975,-0.0937445,0.3235639999999999,0.9551975,-0.0698445,-0.07101,-0.0002634999999999,0.0014774999999999,0.07101,0.0002634999999999,-0.0014774999999999,-0.124636,-0.3614725,-0.0101145,0.120934,-0.3666224999999999,-0.0003655,-0.133486,-0.7346825,0.0242515,0.132854,-0.7154725000000001,0.0174275,1
156,0.0039059999999999,0.7111325000000001,0.032744,-0.145949,0.4962625,0.037343,-0.259699,0.6819125,-0.026919,0.155031,0.4929125,0.047426,0.286011,0.6936825000000001,-0.0004549999999999,-0.295789,0.9152025,-0.1047129999999999,0.325861,0.9272425,-0.0693729999999999,-0.071053,-0.0001605,0.001093,0.071053,0.0001605,-0.0010929999999999,-0.128169,-0.3635375,-0.0120499999999999,0.1174909999999999,-0.3659175,-0.0029019999999999,-0.142119,-0.7305174999999999,0.023896,0.124441,-0.7117175,0.016388,0
157,0.0056075,0.713215,0.02986,-0.1467264999999999,0.492535,0.035301,-0.2701365,0.648835,-0.027589,0.1569935,0.4933350000000001,0.048739,0.2979035,0.6686150000000001,0.003255,-0.2945465,0.8715550000000001,-0.117086,0.3276735,0.8950750000000001,-0.0680559999999999,-0.0711175,4.699999999999843e-05,0.000467,0.0711175,-4.700000000000537e-05,-0.0004669999999999,-0.1309265,-0.3658249999999999,-0.0162839999999999,0.1129935,-0.364915,-0.0053309999999999,-0.1513264999999999,-0.725125,0.023038,0.1141934999999999,-0.707175,0.015946,0
158,0.0076239999999999,0.715604,0.026615,-0.148257,0.489214,0.033525,-0.2814669999999999,0.6070439999999999,-0.028096,0.158843,0.4933639999999999,0.050981,0.309913,0.641334,0.0077269999999999,-0.293537,0.819624,-0.1300879999999999,0.328223,0.8610939999999999,-0.065868,-0.071101,0.0002699999999999,-0.0002629999999999,0.071101,-0.0002699999999999,0.0002629999999999,-0.132287,-0.364496,-0.022949,0.1082329999999999,-0.363996,-0.007223,-0.159737,-0.719076,0.021072,0.102563,-0.7022360000000001,0.016297,0
159,0.0099595,0.718323,0.0231359999999999,-0.1497445,0.486203,0.032001,-0.2926245,0.560523,-0.0259859999999999,0.1601555,0.493123,0.054169,0.3205455,0.6096830000000001,0.0132759999999999,-0.2917745,0.7606430000000001,-0.14438,0.3290855,0.820323,-0.06381,-0.0711155,0.0005789999999999,-0.001138,0.0711155,-0.000579,0.001138,-0.1317385,-0.363797,-0.032429,0.1031355,-0.363187,-0.008498,-0.1653645,-0.7124469999999999,0.018184,0.0900155,-0.696967,0.017487,0
160,0.0124245,0.721206,0.0192605,-0.1513245,0.4833159999999999,0.0307385,-0.2996735,0.511246,-0.0227814999999999,0.1612765,0.4923959999999999,0.0585895,0.3290165,0.572726,0.0204805,-0.2894635,0.693166,-0.1587635,0.3291265,0.7739659999999999,-0.0629935,-0.0710264999999999,0.000934,-0.0020734999999999,0.0710264999999999,-0.0009339999999999,0.0020735,-0.1300855,-0.359334,-0.0441035,0.0974365,-0.363394,-0.0091494999999999,-0.1688335,-0.7051540000000001,0.0128715,0.0761765,-0.691064,0.0197675,0
161,0.0149735,0.7240815,0.015054,-0.1521834999999999,0.4798015,0.028928,-0.3034765,0.4598315,-0.020328,0.1615835,0.4915115,0.063862,0.3328135,0.5320615,0.028552,-0.2869064999999999,0.6182515000000001,-0.160477,0.3274635,0.7237815,-0.0636569999999999,-0.0709735,0.0013894999999999,-0.0030209999999999,0.0709735,-0.0013895,0.003021,-0.1256215,-0.3537585,-0.0602869999999999,0.0910835,-0.3646685,-0.0089419999999999,-0.1692874999999999,-0.6985185,0.004845,0.0605735,-0.6856385,0.022939,0
162,0.0166454999999999,0.7266555,0.0105134999999999,-0.1537335,0.4756255,0.0262815,-0.3023645,0.4071655,-0.0157805,0.1596955,0.4895955,0.0693655,0.3298055,0.4824354999999999,0.0395494999999999,-0.2851445,0.5263455,-0.1565785,0.3229455,0.6627955000000001,-0.0662784999999999,-0.0707655,0.0016764999999999,-0.0043895,0.0707655,-0.0016765,0.0043894999999999,-0.1163685,-0.3467345,-0.0801585,0.0845455,-0.3649845,-0.0078644999999999,-0.1616385,-0.6897344999999999,-0.0091395,0.0433854999999999,-0.6805144999999999,0.0268635,0
163,0.017861,0.729217,0.006703,-0.155323,0.471557,0.023856,-0.298589,0.3558469999999999,-0.0100349999999999,0.1566409999999999,0.486747,0.074354,0.321081,0.4363869999999999,0.049661,-0.285259,0.433247,-0.147594,0.317541,0.599137,-0.0685339999999999,-0.070681,0.0019509999999999,-0.0059759999999999,0.070681,-0.001951,0.005976,-0.104111,-0.339883,-0.1022539999999999,0.079261,-0.364423,-0.005939,-0.149073,-0.6805329999999999,-0.027544,0.026511,-0.6758029999999999,0.020283,0
164,0.0202284999999999,0.730893,0.003431,-0.1555785,0.467373,0.021805,-0.2918815,0.3089929999999999,-0.0021119999999999,0.1540085,0.4825629999999999,0.078974,0.3102085,0.3912429999999999,0.060837,-0.2806415,0.3431929999999999,-0.135816,0.3107285,0.5359630000000001,-0.0708559999999999,-0.0707685,0.002374,-0.0074079999999999,0.0707685,-0.002374,0.0074079999999999,-0.0898055,-0.337847,-0.123926,0.0735085,-0.362837,-0.0124859999999999,-0.1257635,-0.675117,-0.054216,0.0113184999999999,-0.671847,0.012013,0
165,0.0221034999999999,0.7310795,0.0005769999999999,-0.1544285,0.4648295,0.0199,-0.2805364999999999,0.2818895,0.0058369999999999,0.1509435,0.4786195,0.0815579999999999,0.2985235,0.3579095,0.071642,-0.2742265,0.2769195,-0.124303,0.3024035,0.4840295,-0.074653,-0.0708535,0.0030385,-0.0085729999999999,0.0708535,-0.0030385,0.0085729999999999,-0.0735055,-0.3382805,-0.143113,0.0692035,-0.3616505,-0.017893,-0.0984444999999999,-0.6693705000000001,-0.083783,0.0047234999999999,-0.6683805,-0.007883,0
166,0.0243334999999999,0.7301839999999999,-0.002755,-0.1563015,0.463534,0.019789,-0.2657765,0.260164,0.0142559999999999,0.1476635,0.474214,0.083628,0.2929035,0.328354,0.082456,-0.2678965,0.2152939999999999,-0.115795,0.2933334999999999,0.432474,-0.082325,-0.0709635,0.003593,-0.009745,0.0709634999999999,-0.003593,0.0097449999999999,-0.0584875,-0.337466,-0.159765,0.0658634999999999,-0.358906,-0.023245,-0.0712455,-0.663506,-0.112415,0.0143134999999999,-0.665636,-0.040695,0
167,0.0245544999999999,0.729055,-0.005445,-0.1571935,0.461285,0.0168149999999999,-0.2532025,0.250235,0.0248549999999999,0.1429144999999999,0.4703549999999999,0.0858979999999999,0.2850445,0.300865,0.08961,-0.2641435,0.163315,-0.107255,0.2826645,0.383285,-0.088965,-0.0705045,0.0037669999999999,-0.011595,0.0705045,-0.003767,0.0115949999999999,-0.0407555,-0.336275,-0.176805,0.0608344999999999,-0.356115,-0.028545,-0.0407955,-0.658195,-0.142725,0.0251644999999999,-0.662845,-0.073985,0
168,0.02532,0.7264295,-0.008775,-0.158038,0.4599094999999999,0.013615,-0.241272,0.2467695,0.039405,0.1391799999999999,0.4667295,0.087052,0.27802,0.2778295,0.09592,-0.26113,0.1226395,-0.098835,0.27124,0.3388095,-0.093395,-0.07039,0.0043095,-0.0129249999999999,0.07039,-0.0043095,0.0129249999999999,-0.0249,-0.3302405,-0.1901649999999999,0.05695,-0.3586705,-0.0349549999999999,-0.00073,-0.6526805,-0.185965,0.0403099999999999,-0.6642705,-0.1095049999999999,0
169,0.02651,0.723842,-0.01432,-0.1576659999999999,0.458482,0.00703,-0.236363,0.246242,0.05055,0.13592,0.463812,0.087417,0.26245,0.260302,0.101409,-0.2638439999999999,0.090895,-0.0807799999999999,0.26158,0.297002,-0.0958999999999999,-0.0708299999999999,0.0048619999999999,-0.0141999999999999,0.07083,-0.004862,0.0142,-0.0153299999999999,-0.320838,-0.20009,0.05319,-0.361238,-0.0382299999999999,0.03132,-0.6442880000000001,-0.22464,0.05386,-0.669008,-0.1407999999999999,0
170,0.028005,0.721593,-0.019965,-0.158799,0.458213,0.0021649999999999,-0.23425,0.246333,0.0568349999999999,0.134065,0.461043,0.0860039999999999,0.2428449999999999,0.246483,0.1083539999999999,-0.268207,0.067585,-0.059895,0.253835,0.259833,-0.0997649999999999,-0.070895,0.004953,-0.015755,0.0708949999999999,-0.004953,0.0157549999999999,-0.010175,-0.313237,-0.205495,0.0513549999999999,-0.363857,-0.043925,0.0547149999999999,-0.636607,-0.249465,0.0688749999999999,-0.674237,-0.173125,0
171,0.0292899999999999,0.7206465,-0.024865,-0.16018,0.4584565,-0.001635,-0.238477,0.2465765,0.0588549999999999,0.13326,0.4599065,0.0839649999999999,0.22818,0.2454565,0.1105149999999999,-0.274553,0.0658045,-0.038245,0.24934,0.2339264999999999,-0.102385,-0.07091,0.0051964999999999,-0.016135,0.0709099999999999,-0.0051965,0.0161349999999999,-0.01396,-0.3069234999999999,-0.198695,0.0441599999999999,-0.3679535,-0.063765,0.0650699999999999,-0.6292335,-0.260605,0.0831099999999999,-0.6795135,-0.201585,0
172,0.0305449999999999,0.719797,-0.029105,-0.160935,0.458477,-0.0052449999999999,-0.244422,0.246597,0.0578549999999999,0.1328849999999999,0.459267,0.082035,0.212505,0.243997,0.111125,-0.280147,0.065825,-0.0200349999999999,0.2466449999999999,0.213097,-0.1069449999999999,-0.070755,0.0053429999999999,-0.016445,0.070755,-0.005343,0.016445,-0.0196749999999999,-0.301173,-0.187455,0.034285,-0.371523,-0.081705,0.070595,-0.6232329999999999,-0.2661449999999999,0.096735,-0.6860329999999999,-0.216995,0
173,0.0307149999999999,0.7195395,-0.0328649999999999,-0.162655,0.4582195,-0.007585,-0.251252,0.2485795,0.054025,0.1319349999999999,0.4590094999999999,0.080365,0.196645,0.2423895,0.109775,-0.29041,0.0655675,-0.0064649999999999,0.2435149999999999,0.2002495,-0.109215,-0.070505,0.0056005,-0.0166749999999999,0.0705049999999999,-0.0056005,0.0166749999999999,-0.025375,-0.2959905,-0.178155,0.0252749999999999,-0.3717005,-0.0883849999999999,0.0697349999999999,-0.6138905,-0.264195,0.108925,-0.6925405,-0.2275949999999999,0
174,0.0314899999999999,0.7189615,-0.035405,-0.1641,0.4598415,-0.008845,-0.257548,0.2552215,0.0496049999999999,0.1311,0.4584715,0.0790149999999999,0.18676,0.2389715,0.1007549999999999,-0.298806,0.0650295,-0.001395,0.2425899999999999,0.1893515,-0.111985,-0.07011,0.0060234999999999,-0.017445,0.07011,-0.0060234999999999,0.0174449999999999,-0.0370699999999999,-0.2965285,-0.164495,0.0196999999999999,-0.3698085,-0.090335,0.06605,-0.6145785,-0.246635,0.1132099999999999,-0.6974285,-0.221025,0
175,0.0322649999999999,0.7181285000000001,-0.03753,-0.1648649999999999,0.4616984999999999,-0.01078,-0.263855,0.2626885,0.0445999999999999,0.130365,0.4578784999999999,0.0779999999999999,0.1788349999999999,0.2359385,0.0916499999999999,-0.305919,0.0712325,0.0012899999999999,0.243125,0.1827685,-0.11236,-0.0696649999999999,0.0066164999999999,-0.01819,0.069665,-0.0066164999999999,0.0181899999999999,-0.048545,-0.2990615,-0.15142,0.016765,-0.3675315,-0.09262,0.063805,-0.6204715,-0.22942,0.102575,-0.7031215,-0.2017999999999999,0
176,0.0358799999999999,0.7165965,-0.04088,-0.16474,0.4647065,-0.01114,-0.26771,0.2711265,0.0385299999999999,0.1324799999999999,0.4577365,0.0745099999999999,0.17694,0.2359365,0.0883199999999999,-0.309192,0.0812514999999999,-0.01099,0.24712,0.1758265,-0.1174,-0.0698,0.0066955,-0.01818,0.0697999999999999,-0.0066955,0.0181799999999999,-0.0643,-0.3027835,-0.13548,0.0215599999999999,-0.3660635,-0.09596,0.0583999999999999,-0.6213335,-0.20855,0.0920899999999999,-0.7009235,-0.18215,0
177,0.038825,0.7146754999999999,-0.0431199999999999,-0.1651149999999999,0.4676255,-0.0104599999999999,-0.2719049999999999,0.2794955,0.03327,0.133715,0.4576455,0.07213,0.177965,0.2360554999999999,0.08067,-0.3118849999999999,0.0928655,-0.0264699999999999,0.251935,0.1692755,-0.1223199999999999,-0.0697149999999999,0.0064495,-0.01826,0.069715,-0.0064495,0.01826,-0.0730249999999999,-0.3149145,-0.1232099999999999,0.029685,-0.3651545,-0.09998,0.040785,-0.6323845,-0.17387,0.090405,-0.6986645,-0.1594399999999999,0
178,0.04191,0.712969,-0.04306,-0.1665499999999999,0.470859,-0.00589,-0.2728699999999999,0.287929,0.0305799999999999,0.13473,0.457689,0.0694799999999999,0.17781,0.236379,0.0742999999999999,-0.30899,0.106459,-0.04573,0.25524,0.164889,-0.12695,-0.06916,0.0062459999999999,-0.01812,0.06916,-0.006246,0.0181199999999999,-0.07732,-0.326771,-0.11066,0.0382,-0.365231,-0.1080000000000001,0.02911,-0.6441110000000001,-0.1462,0.0937799999999999,-0.7009310000000001,-0.14339,0
179,0.04614,0.7107085,-0.04325,-0.1654799999999999,0.4750785,-0.00184,-0.2731099999999999,0.2940385,0.03204,0.1359199999999999,0.4571185,0.0665,0.1778799999999999,0.2366385,0.06961,-0.3064599999999999,0.1170285,-0.05771,0.25896,0.1603085,-0.1303699999999999,-0.0689799999999999,0.0065365,-0.0173499999999999,0.0689799999999999,-0.0065365,0.0173499999999999,-0.0813699999999999,-0.3325315,-0.09552,0.04666,-0.3668315,-0.1153699999999999,0.01708,-0.6476615,-0.11821,0.09722,-0.7054915,-0.1262999999999999,0
180,0.0511199999999999,0.709568,-0.043285,-0.16294,0.478338,0.0019549999999999,-0.27041,0.298558,0.0350849999999999,0.13812,0.456528,0.063635,0.18108,0.237318,0.065695,-0.30233,0.1229079999999999,-0.062365,0.2619399999999999,0.156778,-0.132155,-0.06895,0.006359,-0.017255,0.0689499999999999,-0.006359,0.017255,-0.08043,-0.336852,-0.088225,0.0607799999999999,-0.367302,-0.1081649999999999,0.0115299999999999,-0.6537120000000001,-0.095925,0.1044399999999999,-0.706902,-0.1140149999999999,0
181,0.0567699999999999,0.708461,-0.043985,-0.16031,0.481751,0.0061149999999999,-0.26716,0.302931,0.039885,0.1406899999999999,0.455681,0.0608249999999999,0.1869499999999999,0.238461,0.058365,-0.29795,0.128091,-0.061435,0.26495,0.153761,-0.1339449999999999,-0.06905,0.006079,-0.016805,0.0690499999999999,-0.006079,0.0168049999999999,-0.0802399999999999,-0.342259,-0.082255,0.07662,-0.368409,-0.102195,0.0025999999999999,-0.660309,-0.067745,0.11241,-0.708009,-0.102395,0
182,0.0639499999999999,0.707452,-0.046165,-0.15555,0.4851519999999999,0.009465,-0.26261,0.3064619999999999,0.0478049999999999,0.1449,0.4547319999999999,0.0565149999999999,0.19387,0.239732,0.051555,-0.29373,0.131872,-0.054095,0.2690599999999999,0.149912,-0.1362149999999999,-0.06918,0.00584,-0.015965,0.06918,-0.00584,0.015965,-0.0829,-0.347128,-0.0735249999999999,0.0914,-0.369418,-0.0964049999999999,-0.00829,-0.666718,-0.0419049999999999,0.1204199999999999,-0.709018,-0.0895449999999999,0
183,0.070315,0.706552,-0.0495149999999999,-0.150295,0.487182,0.011245,-0.258335,0.306862,0.055675,0.149305,0.453962,0.051465,0.199385,0.240672,0.048715,-0.291985,0.131632,-0.038725,0.2715149999999999,0.146752,-0.1390549999999999,-0.069435,0.005725,-0.0145349999999999,0.069435,-0.005725,0.014535,-0.081755,-0.356118,-0.0691549999999999,0.1031649999999999,-0.367328,-0.0960949999999999,-0.0172849999999999,-0.677478,-0.025795,0.131955,-0.707478,-0.083365,0
184,0.0766799999999999,0.705527,-0.05298,-0.14447,0.489437,0.01261,-0.25356,0.307127,0.0639499999999999,0.1542199999999999,0.453377,0.04581,0.2049099999999999,0.241667,0.04596,-0.29179,0.130847,-0.0231,0.2732599999999999,0.143967,-0.1407199999999999,-0.06967,0.005646,-0.01305,0.06967,-0.005646,0.01305,-0.08036,-0.364923,-0.06423,0.1118799999999999,-0.364933,-0.0954899999999999,-0.01928,-0.688673,-0.0102499999999999,0.1429399999999999,-0.7053929999999999,-0.07686,0
185,0.0823249999999999,0.7040675,-0.05604,-0.139455,0.4914075,0.0147999999999999,-0.248985,0.3074175,0.0731499999999999,0.157865,0.4527675,0.0419999999999999,0.210275,0.2420275,0.0429999999999999,-0.291715,0.1301875,-0.00786,0.2741249999999999,0.1412475,-0.1379,-0.069925,0.0056995,-0.01155,0.069925,-0.0056995,0.0115499999999999,-0.078705,-0.3731725,-0.0588,0.1146549999999999,-0.3622425,-0.09406,-0.026675,-0.7040125,0.0036999999999999,0.1532649999999999,-0.7025325,-0.07081,0
186,0.0881649999999999,0.7019015,-0.0598299999999999,-0.133735,0.4934415,0.01582,-0.244015,0.3075715,0.082,0.162215,0.4517115,0.03688,0.2133349999999999,0.2414515,0.04359,-0.291695,0.1296115,0.00614,0.274405,0.1405915,-0.1357399999999999,-0.070025,0.0060095,-0.0103099999999999,0.070025,-0.0060095,0.01031,-0.084955,-0.3737485,-0.0499299999999999,0.1131949999999999,-0.3591685,-0.0910499999999999,-0.034585,-0.7055885000000001,0.01716,0.1505449999999999,-0.7001785,-0.06562,0
187,0.0935249999999999,0.6996755,-0.063415,-0.127905,0.4953054999999999,0.0165049999999999,-0.2388549999999999,0.3075255,0.0904049999999999,0.1667149999999999,0.4505755,0.0323149999999999,0.217415,0.2413055,0.0427349999999999,-0.291895,0.1274755,0.0213249999999999,0.275055,0.1375155,-0.134565,-0.070145,0.0063675,-0.0091849999999999,0.070145,-0.0063675,0.0091849999999999,-0.090735,-0.3743145,-0.041865,0.111705,-0.3565745,-0.087065,-0.042255,-0.7061545,0.029945,0.145175,-0.6980645,-0.0580749999999999,0
188,0.097725,0.6980305,-0.0668400000000001,-0.1234449999999999,0.4969505,0.0164699999999998,-0.234485,0.3072005,0.0969599999999999,0.170715,0.4494404999999999,0.0287499999999999,0.221435,0.2414205,0.0402199999999999,-0.290935,0.1249505,0.0359099999999998,0.273735,0.1345605,-0.13172,-0.0702249999999999,0.0065995,-0.00831,0.0702249999999999,-0.0065995,0.0083099999999999,-0.0952549999999999,-0.3747195,-0.0359,0.108975,-0.3556895,-0.08176,-0.048455,-0.7067694999999999,0.0395999999999998,0.139015,-0.6968295,-0.0509600000000001,0
189,0.10246,0.6962364999999999,-0.0707649999999999,-0.1183199999999999,0.4985865,0.0156849999999999,-0.2301799999999999,0.3068065,0.1026749999999999,0.17468,0.4481865,0.0248049999999999,0.22483,0.2418065,0.038135,-0.2901199999999999,0.1216464999999999,0.051645,0.27283,0.1319265,-0.129395,-0.0702999999999999,0.0068245,-0.007525,0.0703,-0.0068245,0.007525,-0.1012799999999999,-0.3725035,-0.030115,0.10624,-0.3546435,-0.076705,-0.0549599999999999,-0.7074535000000001,0.0474949999999999,0.13251,-0.6962035000000001,-0.043065,0
190,0.1069399999999999,0.6945095,-0.0747399999999999,-0.11317,0.5001795,0.01423,-0.2259000000000001,0.3065394999999999,0.10709,0.1778099999999999,0.4470095,0.0212500000000001,0.2259899999999999,0.2420795,0.0405,-0.2891600000000001,0.1180395,0.0656500000000001,0.2712599999999999,0.1296295,-0.1254699999999999,-0.07034,0.0070755,-0.0069499999999999,0.0703399999999999,-0.0070755,0.00695,-0.10641,-0.3703405,-0.0248299999999999,0.1033699999999999,-0.3534705,-0.0720299999999999,-0.06103,-0.7079405,0.05438,0.1264199999999999,-0.6958004999999999,-0.0360299999999998,0
191,0.1101349999999999,0.6929464999999999,-0.0778549999999999,-0.1096749999999999,0.5013765,0.012695,-0.2226349999999999,0.3064365,0.1087650000000001,0.180655,0.4460165,0.017995,0.228515,0.2417564999999999,0.0369450000000001,-0.2872349999999999,0.1165265,0.071265,0.270685,0.1236965,-0.1244649999999999,-0.070355,0.0072385,-0.0065449999999999,0.070355,-0.0072385,0.006545,-0.1091449999999999,-0.3691035,-0.0204949999999999,0.101265,-0.3520135,-0.0687749999999999,-0.0657449999999999,-0.7084435,0.059185,0.121695,-0.6953235000000001,-0.0316549999999999,0
192,0.113515,0.6913385,-0.081065,-0.1064449999999999,0.5024784999999999,0.011275,-0.2194349999999999,0.3061285,0.109665,0.1833450000000001,0.4449185,0.014985,0.2302250000000001,0.2411684999999999,0.0360749999999999,-0.2846649999999999,0.1161985,0.076415,0.269855,0.1186385,-0.1218749999999999,-0.0703549999999999,0.0073875,-0.006175,0.070355,-0.0073875,0.006175,-0.1116149999999999,-0.3680815,-0.0164849999999999,0.099075,-0.3505514999999999,-0.0656149999999999,-0.0699149999999999,-0.7087715,0.0636449999999999,0.117215,-0.6949915,-0.027475,0
193,0.116935,0.689743,-0.0842,-0.103045,0.503513,0.0096899999999999,-0.216165,0.305753,0.1100599999999999,0.185965,0.443783,0.0120999999999998,0.2319949999999999,0.240943,0.0351199999999999,-0.281575,0.115823,0.0809899999999999,0.2689249999999999,0.113403,-0.11867,-0.070335,0.0075379999999999,-0.0059,0.070335,-0.0075379999999999,0.0058999999999999,-0.113615,-0.367097,-0.0130500000000001,0.097075,-0.349167,-0.06276,-0.0734049999999999,-0.709187,0.0675099999999999,0.1130449999999999,-0.694747,-0.02373,0
194,0.1211049999999999,0.688764,-0.086775,-0.097875,0.504794,0.006715,-0.213605,0.303744,0.111125,0.1833949999999999,0.443984,0.014405,0.232035,0.250204,0.0443249999999999,-0.281265,0.112534,0.104055,0.2688149999999999,0.122424,-0.114005,-0.070415,0.0076469999999999,-0.005885,0.070415,-0.0076469999999999,0.005885,-0.115785,-0.365246,-0.009525,0.0966449999999999,-0.346366,-0.0600749999999999,-0.078155,-0.705506,0.071485,0.1094349999999999,-0.692636,-0.0207549999999999,0
195,0.12429,0.685994,-0.0900949999999999,-0.0956299999999999,0.505754,0.006595,-0.2087599999999999,0.304334,0.110095,0.19515,0.441384,0.004295,0.24524,0.243364,0.004785,-0.2756599999999999,0.1129339999999999,0.107545,0.2748,0.088335,-0.127985,-0.0707899999999999,0.00788,-0.0047649999999999,0.07079,-0.00788,0.004765,-0.1177699999999999,-0.364096,-0.0054049999999999,0.09322,-0.344086,-0.056485,-0.0813399999999999,-0.7079059999999999,0.076105,0.10145,-0.694006,-0.0151449999999999,0
196,0.1277,0.683802,-0.093175,-0.0926199999999999,0.506412,0.0054449999999999,-0.2062299999999999,0.3034619999999999,0.1091649999999999,0.1960699999999999,0.4397319999999999,0.0025349999999999,0.2417399999999999,0.240992,0.0086949999999998,-0.27179,0.111572,0.1066849999999999,0.27422,0.086347,-0.123725,-0.0703399999999999,0.008187,-0.004975,0.0703399999999999,-0.008187,0.0049749999999999,-0.1193799999999999,-0.363348,-0.003295,0.08965,-0.343958,-0.053905,-0.08501,-0.709278,0.0794449999999999,0.09572,-0.695468,-0.011465,0
197,0.1302199999999999,0.6829215000000001,-0.0948499999999999,-0.08916,0.5070015,0.0039699999999999,-0.20253,0.3042915,0.1084399999999999,0.1975199999999999,0.4392215,0.0012099999999999,0.2398999999999999,0.2401714999999999,0.0119099999999999,-0.26702,0.1118715,0.09921,0.2712299999999999,0.0856575,-0.121,-0.0702,0.0082785,-0.0049799999999999,0.0701999999999999,-0.0082785,0.0049799999999999,-0.11992,-0.3628984999999999,-0.00167,0.0877799999999999,-0.3444585,-0.0517699999999999,-0.08699,-0.7107785,0.0820499999999999,0.0929599999999999,-0.6957985,-0.0089799999999999,0
198,0.13097,0.6819445,-0.094715,-0.0874099999999999,0.5062745,0.003545,-0.1968399999999999,0.3071844999999999,0.1087449999999999,0.20452,0.4358944999999999,0.000935,0.24419,0.1890744999999999,-0.000295,-0.2568699999999999,0.1151845,0.0723949999999999,0.27536,0.0607614999999999,-0.159345,-0.0697499999999999,0.0084665,-0.005525,0.06975,-0.0084665,0.005525,-0.1215499999999999,-0.3626855,0.0011149999999999,0.08445,-0.3451355,-0.048655,-0.0906399999999999,-0.7131855,0.0866549999999999,0.0881900000000001,-0.6946355,-0.006045,0
199,0.13149,0.6817300000000001,-0.094615,-0.08723,0.50649,0.0041949999999999,-0.19181,0.3113,0.1082949999999999,0.20804,0.43401,0.0015149999999999,0.2377099999999999,0.2362399999999999,0.033625,-0.24982,0.12292,0.0509649999999999,0.26054,0.086993,-0.107295,-0.06942,0.008584,-0.006085,0.06942,-0.008584,0.006085,-0.12233,-0.36305,0.0023449999999999,0.08374,-0.3453,-0.047615,-0.09208,-0.71367,0.088175,0.08814,-0.69072,-0.005095,0
200,0.131155,0.6816209999999999,-0.0935850000000001,-0.0880449999999999,0.506311,0.0053849999999998,-0.1866249999999999,0.316751,0.1075349999999999,0.209395,0.432281,0.0027749999999998,0.234835,0.234151,0.0363749999999999,-0.2436149999999999,0.136941,0.0241849999999999,0.255835,0.078042,-0.0969550000000001,-0.069145,0.008628,-0.006515,0.069145,-0.008628,0.0065149999999999,-0.1234249999999999,-0.3630489999999999,0.0040049999999999,0.0828349999999999,-0.346049,-0.0461150000000001,-0.0931849999999999,-0.7140890000000001,0.0891849999999999,0.086385,-0.6905290000000001,-0.003635,0
