sb224sc-HT22-VT27/4dt907/src/data/labeled_files/A150_kinect_mirrored.csv
FrameNo,nose_3d_x,nose_3d_y,nose_3d_z,left_shoulder_3d_x,left_shoulder_3d_y,left_shoulder_3d_z,left_elbow_3d_x,left_elbow_3d_y,left_elbow_3d_z,right_shoulder_3d_x,right_shoulder_3d_y,right_shoulder_3d_z,right_elbow_3d_x,right_elbow_3d_y,right_elbow_3d_z,left_wrist_3d_x,left_wrist_3d_y,left_wrist_3d_z,right_wrist_3d_x,right_wrist_3d_y,right_wrist_3d_z,left_hip_3d_x,left_hip_3d_y,left_hip_3d_z,right_hip_3d_x,right_hip_3d_y,right_hip_3d_z,left_knee_3d_x,left_knee_3d_y,left_knee_3d_z,right_knee_3d_x,right_knee_3d_y,right_knee_3d_z,left_ankle_3d_x,left_ankle_3d_y,left_ankle_3d_z,right_ankle_3d_x,right_ankle_3d_y,right_ankle_3d_z,activity_label
0,1.046028,0.7227085,-0.0241325,0.8426130000000001,0.5074884999999999,-0.0218244999999999,0.6376930000000001,0.6246185,-0.1247895,1.212563,0.5045084999999999,-0.0048735,1.443653,0.6138484999999999,-0.0626684999999999,0.546983,0.8339785,-0.2395295,1.529933,0.8553084999999999,-0.1569095,0.922279,0.0034895,-0.0009745,1.077721,-0.0034895,0.0009745,0.8255930000000001,-0.4475814999999999,0.0403845,1.152993,-0.4449615,0.0328905,0.733673,-0.8513615,0.0848065,1.231573,-0.8513315,0.0731425,0
1,1.042903,0.7213745,-0.0234875,0.8409340000000001,0.5108644999999999,-0.0199565,0.634764,0.6515345,-0.1185125,1.212434,0.5052745,-0.0077025,1.440294,0.6513245,-0.0748425,0.5592240000000002,0.8516144999999999,-0.2179025,1.502334,0.9166345,-0.1421525,0.922418,0.0034505,7.500000000000562e-06,1.077582,-0.0034505,-7.500000000000562e-06,0.826314,-0.4490155,0.0416394999999999,1.152964,-0.4478655,0.0327055,0.733454,-0.8537055,0.0844475,1.231694,-0.8545455000000001,0.0730995,0
2,1.0412555,0.7202784999999999,-0.0230524999999999,0.8397205,0.5116785,-0.0187434999999999,0.6373305,0.6567185,-0.1122124999999999,1.2112204999999998,0.5064784999999999,-0.0114744999999999,1.4330905,0.6507585,-0.0749124999999999,0.5721805000000001,0.8907085,-0.1952525,1.4922105,0.9213185,-0.1374625,0.9224085,0.0027835,0.0009475,1.0775915,-0.0027834999999999,-0.0009474999999999,0.8261404999999999,-0.4506115,0.0428015,1.1530005,-0.4485015,0.0333175,0.7332205,-0.8553415,0.0848395,1.2313905,-0.8561515000000001,0.0738655,0
3,1.038717,0.720345,-0.0223609999999999,0.838939,0.511895,-0.0170319999999999,0.639829,0.666425,-0.1018579999999999,1.210589,0.5076050000000001,-0.0121539999999999,1.427529,0.653605,-0.074238,0.579509,0.898155,-0.180218,1.465259,0.937845,-0.124568,0.922537,0.002488,0.001827,1.077463,-0.0024879999999999,-0.0018269999999999,0.826179,-0.452565,0.044339,1.153459,-0.450835,0.034419,0.733409,-0.8570949999999999,0.08624,1.231169,-0.858445,0.075126,0
4,1.0365255,0.719673,-0.021788,0.8375605,0.512663,-0.0149709999999999,0.6432505,0.673233,-0.092186,1.2091205,0.510053,-0.012527,1.4207105,0.6609229999999999,-0.074556,0.5881005,0.918273,-0.157156,1.4608505,0.936833,-0.121196,0.9227165,0.0023419999999999,0.002194,1.0772835,-0.002342,-0.002194,0.8260605,-0.4534269999999999,0.045637,1.1536005,-0.453267,0.035496,0.7338605,-0.857947,0.087871,1.2308805,-0.860267,0.076133,0
5,1.0337745,0.717231,-0.0183495,0.8347935000000001,0.5145609999999999,-0.0090685,0.6480935,0.683191,-0.0743525,1.2063535,0.5098309999999999,-0.0122515,1.4134735,0.662551,-0.0730825,0.5940035,0.924381,-0.1355025,1.4512335,0.935621,-0.1191924999999999,0.9229205,0.0018519999999999,0.0034294999999999,1.0770795,-0.001852,-0.0034295,0.8257035,-0.4550789999999999,0.0478564999999999,1.1531435,-0.456069,0.0371025,0.7339935,-0.859589,0.0908605,1.2303835,-0.8637090000000001,0.0785714999999999,0
6,1.033405,0.7160915,-0.016277,0.834205,0.5145415,-0.0062009999999999,0.6499550000000001,0.6848215,-0.068615,1.205705,0.5096415,-0.0108289999999999,1.407345,0.6644915,-0.073375,0.595865,0.9296515,-0.127305,1.446065,0.9324915,-0.119005,0.923048,0.0017925,0.003976,1.076952,-0.0017925,-0.003976,0.826235,-0.4558485,0.048931,1.153315,-0.4566385,0.037397,0.734345,-0.8587684999999999,0.092183,1.229895,-0.8644085,0.080641,0
7,1.0338315,0.7174455,-0.01371,0.8345545,0.5151855,-0.0043619999999999,0.6508145000000001,0.6838755,-0.067778,1.2062545,0.5096755,-0.0099329999999999,1.4090945,0.6636654999999999,-0.0733379999999999,0.5940845,0.9270855,-0.128308,1.4470745,0.9300555,-0.1244579999999999,0.9233005,0.0019625,0.003992,1.0766995,-0.0019625,-0.003992,0.8267845,-0.4558645,0.048785,1.1537745,-0.4563245,0.037539,0.7349045000000001,-0.8599145,0.092973,1.2306545,-0.8636245,0.081195,0
8,1.032992,0.7170865,-0.0116949999999999,0.833549,0.5161764999999999,-0.001242,0.652739,0.6865865,-0.061664,1.205529,0.5098864999999999,-0.009312,1.405919,0.6651265,-0.073214,0.5959890000000001,0.9313065,-0.119434,1.443949,0.9290265,-0.122974,0.923395,0.0018775,0.004498,1.076605,-0.0018774999999999,-0.004498,0.826939,-0.4565935,0.049932,1.153839,-0.4572135,0.037961,0.735209,-0.8604835000000001,0.094264,1.230629,-0.8647335,0.082385,0
9,1.032366,0.7168300000000001,-0.0097575,0.8327,0.51708,0.0018064999999999,0.65428,0.6886,-0.0563545,1.20491,0.50981,-0.0085405,1.4033799999999998,0.6658000000000001,-0.0730245,0.59658,0.93327,-0.1128445,1.44127,0.92816,-0.1215245,0.923427,0.001822,0.0048864999999999,1.076573,-0.0018219999999999,-0.0048865,0.82708,-0.45722,0.0508475,1.15386,-0.4579,0.0383094999999999,0.7354499999999999,-0.8609899999999999,0.0955475,1.23067,-0.86564,0.0835455,0
10,1.031937,0.716894,-0.0078955,0.832069,0.517764,0.0043155,0.655189,0.689504,-0.0528554999999999,1.204499,0.509764,-0.0077354999999999,1.401519,0.666294,-0.0729674999999999,0.5968089999999999,0.934514,-0.1084475,1.439529,0.927644,-0.1205175,0.923481,0.00183,0.0051614999999999,1.076519,-0.00183,-0.0051614999999999,0.827189,-0.4576759999999999,0.0514585,1.153909,-0.4583359999999999,0.0384095,0.735609,-0.861316,0.0965865,1.2307389999999998,-0.866196,0.0844655,0
11,1.0315285,0.7171050000000001,-0.0060764999999999,0.8314815,0.518445,0.0065705,0.6558615,0.690235,-0.0497695,1.2041515,0.509745,-0.0070334999999999,1.4003015,0.6665650000000001,-0.0728525,0.5970215,0.934995,-0.1048225,1.4382715,0.926955,-0.1208025,0.9235445,0.001849,0.0053734999999999,1.0764555,-0.001849,-0.0053735,0.8272815,-0.458045,0.0519695,1.1539615,-0.458555,0.0384695,0.7357015,-0.861625,0.0974265,1.2308015,-0.866575,0.0851875,0
12,1.03121,0.717418,-0.0041285,0.830986,0.519038,0.0088364999999999,0.6563060000000001,0.6906880000000001,-0.0470255,1.203846,0.5096780000000001,-0.0063555,1.399406,0.666748,-0.0727345,0.5972459999999999,0.935078,-0.1015845,1.437376,0.926508,-0.1209345,0.923644,0.0018539999999999,0.0055655,1.076356,-0.001854,-0.0055655,0.827386,-0.458382,0.0524494999999999,1.154056,-0.458712,0.0384155,0.735816,-0.861922,0.0981065,1.230866,-0.8669119999999999,0.0857785,0
13,1.0310395,0.7177579999999999,-0.0023579999999999,0.8306675,0.519558,0.010893,0.6566675,0.690958,-0.0447899999999999,1.2036775,0.5096179999999999,-0.005711,1.3987475,0.6668480000000001,-0.072619,0.5970475,0.934908,-0.098959,1.4367875,0.926188,-0.1211189999999999,0.9237225,0.001862,0.005703,1.0762775,-0.0018619999999999,-0.005703,0.8275875,-0.458692,0.052846,1.1541875,-0.458982,0.038307,0.7360275000000001,-0.8622320000000001,0.098675,1.2309975,-0.867232,0.086241,0
14,1.0309555,0.718094,-0.0008159999999999,0.8304235,0.519984,0.0126749999999999,0.6569435,0.691144,-0.0428779999999999,1.2035635,0.5095740000000001,-0.0051539999999999,1.3982635,0.6669240000000001,-0.072411,0.5964235,0.934664,-0.0968409999999999,1.4363534999999998,0.925944,-0.121361,0.9237835,0.001884,0.0058,1.0762165,-0.001884,-0.0058,0.8277734999999999,-0.458936,0.053153,1.1543035,-0.459166,0.038152,0.7361335,-0.862476,0.099076,1.2311435,-0.8674759999999999,0.086589,0
15,1.030932,0.7184045,0.000571,0.830319,0.5203045000000001,0.014134,0.657189,0.6912145000000001,-0.041367,1.203449,0.5095145,-0.004719,1.397949,0.6669345,-0.07213,0.595609,0.9344645,-0.09532,1.436019,0.9257445,-0.12169,0.923819,0.0019045,0.0058759999999999,1.076181,-0.0019045,-0.0058759999999999,0.827919,-0.4591355,0.053394,1.154399,-0.4592954999999999,0.038007,0.736239,-0.8627655,0.099521,1.231279,-0.8676754999999999,0.086838,0
16,1.0308805,0.718735,0.0016559999999999,0.8303855,0.5202749999999999,0.015022,0.6573655,0.691225,-0.040138,1.2032655,0.509505,-0.004408,1.3977255,0.666945,-0.071822,0.5945555,0.934365,-0.094222,1.4357655,0.925675,-0.121972,0.9238175,0.0019319999999999,0.005892,1.0761825,-0.0019319999999999,-0.005892,0.8279955,-0.459275,0.053575,1.1544655,-0.459365,0.0378219999999999,0.7362355,-0.862935,0.099825,1.2313555,-0.8678250000000001,0.086989,0
17,1.030815,0.719104,0.0026015,0.8305020000000001,0.5202439999999999,0.0155975,0.6574720000000001,0.691244,-0.0391414999999999,1.203102,0.509554,-0.0042424999999999,1.397572,0.667034,-0.0716615,0.5933820000000001,0.934174,-0.0935215,1.435612,0.925784,-0.1222014999999999,0.923804,0.0019629999999999,0.0058845,1.076196,-0.0019629999999999,-0.0058844999999999,0.828032,-0.459336,0.0536295,1.154522,-0.459396,0.0376395,0.736192,-0.863066,0.0999805,1.231402,-0.867976,0.0870505,0
18,1.0307135,0.7194200000000001,0.003509,0.8305685,0.52023,0.016074,0.6574185,0.69123,-0.038367,1.2029185,0.50965,-0.0040979999999999,1.3974685,0.6670900000000001,-0.071619,0.5920885,0.93367,-0.093119,1.4354885,0.92591,-0.122479,0.9237915,0.0019769999999999,0.005902,1.0762085,-0.0019769999999999,-0.0059019999999999,0.8280485000000001,-0.45942,0.053622,1.1545385,-0.45941,0.037455,0.7360985,-0.86322,0.100051,1.2313985,-0.86815,0.087062,0
19,1.0306285,0.71967,0.004281,0.8306035,0.52023,0.016466,0.6572835,0.69123,-0.037688,1.2027635,0.50975,-0.0039259999999999,1.3973935,0.66716,-0.07161,0.5907635,0.93309,-0.0930199999999999,1.4354335,0.92606,-0.12264,0.9237765,0.0019769999999999,0.005903,1.0762235,-0.0019769999999999,-0.0059029999999999,0.8280435000000002,-0.45953,0.053622,1.1545435,-0.4593899999999999,0.037391,0.7360235000000002,-0.86347,0.1001,1.2313935,-0.86829,0.08705,0
20,1.0305425,0.719926,0.005054,0.8306365,0.520116,0.016844,0.6570965000000001,0.691236,-0.0371949999999999,1.2026165,0.5098659999999999,-0.0036779999999999,1.3973565,0.667246,-0.0715099999999999,0.5894565,0.932366,-0.0929599999999999,1.4354065,0.926276,-0.1227099999999999,0.9237735,0.0019829999999999,0.005903,1.0762265,-0.001983,-0.0059029999999999,0.8280365000000001,-0.459614,0.053622,1.1545465,-0.459474,0.037391,0.7359065,-0.863514,0.100024,1.2313965,-0.868374,0.087043,0
21,1.0304835,0.7200385,0.005595,0.8306965,0.5199784999999999,0.017053,0.6568965,0.6912285,-0.0369889999999999,1.2025765,0.5100085000000001,-0.0033039999999999,1.3973665,0.6673685,-0.07124,0.5884265,0.9316185,-0.09292,1.4354065,0.9265385,-0.1227099999999999,0.9237735,0.0019955,0.005903,1.0762265,-0.0019954999999999,-0.0059029999999999,0.8280365000000001,-0.4596915,0.053622,1.1545365,-0.4594015,0.037392,0.7357765,-0.8635515,0.099931,1.2313965,-0.8684215,0.087043,0
22,1.0304205,0.720083,0.006022,0.8307855,0.519833,0.017158,0.6567155,0.691203,-0.0368989999999999,1.2025755,0.510213,-0.002896,1.3973655,0.667523,-0.070947,0.5874655000000001,0.930883,-0.0929869999999999,1.4353955,0.926903,-0.1228169999999999,0.9237655,0.002014,0.0058759999999999,1.0762345,-0.002014,-0.0058759999999999,0.8280255,-0.459747,0.053562,1.1545255,-0.459467,0.037285,0.7357155,-0.863647,0.099942,1.2313855,-0.868487,0.086944,0
23,1.030349,0.720161,0.0063145,0.830902,0.519711,0.0172065,0.656532,0.691261,-0.0369414999999999,1.202562,0.510441,-0.0025365,1.397362,0.667741,-0.0707005,0.5866820000000001,0.930331,-0.0933005,1.435372,0.927291,-0.1230405,0.92375,0.0020319999999999,0.0058334999999999,1.07625,-0.002032,-0.0058334999999999,0.8280120000000001,-0.459769,0.0533934999999999,1.154502,-0.459499,0.0370645,0.7356520000000001,-0.863879,0.0997265,1.231362,-0.868489,0.0867205,0
24,1.030217,0.720241,0.0064195,0.831006,0.519641,0.0171825,0.6563060000000001,0.691341,-0.0371685,1.202526,0.510721,-0.0021675,1.397326,0.668021,-0.0704974999999999,0.585926,0.929861,-0.0940875,1.435346,0.927731,-0.1234175,0.923722,0.0020419999999999,0.0058015,1.076278,-0.002042,-0.0058015,0.827946,-0.4598089999999999,0.0531395,1.154456,-0.4595189999999999,0.0368945,0.7355160000000001,-0.8640990000000001,0.0993715,1.231306,-0.868479,0.0864095,0
25,1.0300955,0.7203625,0.006408,0.8310825,0.5196525,0.017033,0.6561025,0.6914925,-0.037575,1.2024625,0.5110625,-0.001846,1.3973325,0.6684525,-0.070331,0.5852725,0.9295225,-0.095051,1.4353625,0.9282725,-0.1237909999999999,0.9236865,0.0020654999999999,0.005718,1.0763135,-0.0020654999999999,-0.005718,0.8278825000000001,-0.4598175,0.052798,1.1544725,-0.4595575,0.036819,0.7353825,-0.8642475000000001,0.098851,1.2313325,-0.8683775,0.085976,0
26,1.0299885,0.720524,0.0063199999999999,0.8311565,0.519704,0.016821,0.6558265,0.691684,-0.03806,1.2024165,0.511434,-0.0015659999999999,1.3973465,0.668884,-0.07021,0.5847365,0.929304,-0.09611,1.4353865,0.928744,-0.12415,0.9236455,0.002096,0.005607,1.0763545,-0.0020959999999999,-0.005607,0.8278065,-0.4597759999999999,0.052383,1.1544865,-0.459566,0.036702,0.7352765,-0.864336,0.0983489999999999,1.2313665,-0.868246,0.0854709999999999,0
27,1.029886,0.7206629999999999,0.0061374999999999,0.831205,0.519773,0.0165784999999999,0.655605,0.691873,-0.0385724999999999,1.2023849999999998,0.511763,-0.0013505,1.397375,0.669343,-0.0701665,0.584345,0.929263,-0.0971265,1.435445,0.929243,-0.1244665,0.923607,0.002123,0.0055105,1.076393,-0.002123,-0.0055105,0.827765,-0.459687,0.0519255,1.154495,-0.459577,0.0365985,0.735215,-0.864407,0.0978105,1.231395,-0.868157,0.0849435,0
28,1.029801,0.720764,0.0059435,0.831262,0.519884,0.0163035,0.6553720000000001,0.692124,-0.0392054999999999,1.202392,0.512114,-0.0011414999999999,1.397422,0.669824,-0.0701815,0.584052,0.929284,-0.0981814999999999,1.435502,0.929804,-0.1247914999999999,0.92357,0.002154,0.0054115,1.07643,-0.0021539999999999,-0.0054115,0.8277220000000001,-0.459586,0.0514515,1.154502,-0.459496,0.0364345,0.7351719999999999,-0.864456,0.0972155,1.231452,-0.868036,0.0843905,0
29,1.0297385,0.7208439999999999,0.00569,0.8313065,0.520004,0.015988,0.6551465000000001,0.6923739999999999,-0.039858,1.2024265,0.5124839999999999,-0.000952,1.3974765,0.670264,-0.070229,0.5838565,0.929334,-0.099229,1.4355665,0.930364,-0.125139,0.9235285,0.002177,0.005308,1.0764715,-0.0021769999999999,-0.005308,0.8276765,-0.459516,0.050953,1.1544965,-0.459476,0.036234,0.7351065,-0.864546,0.0965719999999999,1.2315165,-0.867986,0.083825,0
30,1.0296845,0.7209690000000001,0.0053479999999999,0.8313565,0.520159,0.0155869999999999,0.6549365,0.692679,-0.040579,1.2024665,0.5128590000000001,-0.000844,1.3975265,0.670709,-0.070362,0.5837764999999999,0.929469,-0.100282,1.4356065,0.930919,-0.125532,0.9234975,0.002202,0.0052289999999999,1.0765025,-0.0022019999999999,-0.005229,0.8276365,-0.459411,0.0503999999999999,1.1544865,-0.459411,0.0359899999999999,0.7350965,-0.864491,0.095747,1.2315865,-0.8679209999999999,0.083159,0
31,1.0296375,0.7210995,0.0049915,0.8313885,0.5203395000000001,0.0151795,0.6547485,0.6930095000000001,-0.0412964999999999,1.2024885,0.5131895000000001,-0.0008424999999999,1.3975685,0.6711495000000001,-0.0705145,0.5837085,0.9296095,-0.1012345,1.4356285,0.9313895,-0.1259845,0.9234665,0.0022275,0.0051474999999999,1.0765335,-0.0022275,-0.0051474999999999,0.8275985,-0.4592604999999999,0.0498805,1.1544985,-0.4593804999999999,0.0357975,0.7350885,-0.8644204999999999,0.0949224999999999,1.2316785,-0.8678604999999999,0.0825585,0
32,1.0295915,0.721261,0.0045894999999999,0.8314064999999999,0.520541,0.0146364999999999,0.6546665,0.6933509999999999,-0.0420204999999999,1.2024765,0.513481,-0.0009815,1.3975965,0.671571,-0.0707795,0.5836465,0.929791,-0.1021795,1.4356365,0.931851,-0.1264495,0.9234395,0.002256,0.0050595,1.0765605,-0.0022559999999999,-0.0050595,0.8275565,-0.459059,0.0494034999999999,1.1545065,-0.459309,0.0356095,0.7350865,-0.8642690000000001,0.0941525,1.2317765,-0.867669,0.0819515,0
33,1.02958,0.721409,0.0041129999999999,0.831427,0.520749,0.0139689999999999,0.654647,0.693719,-0.0426859999999999,1.202497,0.513749,-0.0012969999999999,1.397667,0.671959,-0.0711749999999999,0.583617,0.929999,-0.103085,1.435627,0.932199,-0.126935,0.923419,0.002292,0.004941,1.076581,-0.0022919999999999,-0.004941,0.827547,-0.458881,0.048957,1.154537,-0.459271,0.035324,0.735107,-0.864121,0.093483,1.231867,-0.867531,0.081394,1
34,1.02957,0.7215455,0.0034934999999999,0.831457,0.5209255,0.0133484999999999,0.654637,0.6940155,-0.0433355,1.202487,0.5139255,-0.0019015,1.397657,0.6722255,-0.0717845,0.5836870000000001,0.9302155,-0.1039845,1.435617,0.9323755,-0.1275545,0.923398,0.0023155,0.0048594999999999,1.076602,-0.0023155,-0.0048595,0.8275370000000001,-0.4587045,0.0483375,1.154567,-0.4591545,0.0349984999999999,0.735107,-0.8641045,0.0927955,1.231897,-0.8675045,0.0808335,1
35,1.029581,0.7217395,0.002724,0.831498,0.5211395,0.012577,0.654648,0.6942495,-0.044213,1.202498,0.5141595,-0.0026709999999999,1.397668,0.6724694999999999,-0.072554,0.583828,0.9304595,-0.105054,1.435628,0.9326095,-0.128324,0.923341,0.0023384999999999,0.00479,1.076659,-0.0023385,-0.0047899999999999,0.827538,-0.4585005,0.047568,1.154608,-0.4589205,0.034227,0.735158,-0.8640305,0.092016,1.231968,-0.8674305,0.080061,1
36,1.029626,0.7219765,0.001737,0.831572,0.5214165000000001,0.01155,0.654562,0.6945265,-0.0454129999999999,1.202512,0.5144265,-0.0036569999999999,1.397682,0.6727465,-0.07354,0.584102,0.9308765,-0.10635,1.435642,0.9328865,-0.12931,0.923271,0.0023665,0.004695,1.076729,-0.0023665,-0.0046949999999999,0.8275319999999999,-0.4582235,0.046583,1.154652,-0.4586435,0.03324,0.7352719999999999,-0.8638435,0.091026,1.232032,-0.8673135,0.079073,1
37,1.0296625,0.7222705,0.0004415,0.8316255,0.5217505,0.0100065,0.6544255,0.6948605,-0.0471174999999999,1.2024955,0.5147505,-0.0048804999999999,1.3976755,0.6730805,-0.0747635,0.5845355000000001,0.9313905,-0.1080235,1.4355055,0.9331405,-0.1306135,0.9232145,0.0024054999999999,0.0046345,1.0767855,-0.0024054999999999,-0.0046345,0.8274255,-0.4578595,0.0451635,1.1546555,-0.4582895,0.0320165,0.7352955000000001,-0.8635995,0.0897324999999999,1.2320855,-0.8671095,0.0778455,1
38,1.0295875,0.722567,-0.0016089999999999,0.8315845,0.522017,0.007559,0.6542245,0.695257,-0.0497099999999999,1.2023145,0.5150469999999999,-0.0068749999999999,1.3974945,0.673557,-0.076594,0.5849845,0.931907,-0.110314,1.4351144999999998,0.933367,-0.132594,0.9231595,0.002439,0.004562,1.0768405,-0.0024389999999999,-0.0045619999999999,0.8270445000000001,-0.4572929999999999,0.042186,1.1547145,-0.457693,0.030244,0.7352445000000001,-0.863213,0.08796,1.2320545,-0.8668130000000001,0.076128,1
39,1.02948,0.722734,-0.0045774999999999,0.831564,0.522244,0.0040784999999999,0.653934,0.695614,-0.0533955,1.201954,0.5148739999999999,-0.0101095,1.397134,0.673904,-0.0794035,0.585604,0.932614,-0.1133035,1.4344039999999998,0.933284,-0.1355035,0.922963,0.002495,0.0044454999999999,1.077037,-0.002495,-0.0044454999999999,0.826164,-0.456456,0.0373395,1.155204,-0.456696,0.0271375,0.735204,-0.862676,0.0856975,1.232024,-0.866146,0.0737885,1
40,1.0294695,0.7227705,-0.009139,0.8315855,0.5223605,-0.000856,0.6536255,0.6961105,-0.058575,1.2015455,0.5144005,-0.014624,1.3967955,0.6744405,-0.083487,0.5863955000000001,0.9338805,-0.1172769999999999,1.4334555,0.9331205,-0.139757,0.9228475,0.0026134999999999,0.0041859999999999,1.0771525,-0.0026135,-0.004186,0.8247655,-0.4551795,0.0295049999999999,1.1566855,-0.4550095,0.0215589999999999,0.7351055,-0.8615895,0.0823049999999999,1.2320855,-0.8649995,0.070528,1
41,1.029458,0.722937,-0.0156024999999999,0.831577,0.5219870000000001,-0.0077884999999999,0.653017,0.696567,-0.0657525,1.201037,0.513587,-0.0207955,1.395867,0.674027,-0.0891945,0.587397,0.936107,-0.1225245,1.432257,0.933177,-0.1455145,0.922767,0.002741,0.0038424999999999,1.077233,-0.002741,-0.0038424999999999,0.822877,-0.452933,0.0197955,1.158967,-0.452823,0.0141025,0.734977,-0.8595929999999999,0.0776245,1.232357,-0.8630629999999999,0.0661595,1
42,1.029321,0.721133,-0.0251109999999999,0.831538,0.520793,-0.0181929999999999,0.651878,0.695103,-0.077108,1.200308,0.512143,-0.0300579999999999,1.394938,0.672443,-0.098448,0.5886979999999999,0.939973,-0.131488,1.429838,0.932603,-0.155258,0.922688,0.0027159999999999,0.003424,1.0773119999999998,-0.0027159999999999,-0.003424,0.819608,-0.447737,0.005954,1.162638,-0.447647,0.002582,0.734748,-0.854737,0.070624,1.232708,-0.858047,0.059313,1
43,1.029064,0.7179865,-0.037,0.8315319999999999,0.5192764999999999,-0.030134,0.650732,0.6917565,-0.0904939999999999,1.199432,0.5095265,-0.040994,1.393852,0.6698565,-0.109674,0.590792,0.9385265,-0.143114,1.427172,0.9272965,-0.167164,0.922596,0.0027405,0.002824,1.077404,-0.0027405,-0.002824,0.815592,-0.4407335,-0.0099379999999999,1.167142,-0.4403335,-0.0105829999999999,0.734452,-0.8481335000000001,0.062373,1.233262,-0.8509435000000001,0.051285,1
44,1.028794,0.715212,-0.0500365,0.831605,0.516782,-0.0434665,0.649525,0.688442,-0.1053455,1.198545,0.506892,-0.0527115,1.392665,0.666072,-0.1221455,0.593065,0.933252,-0.1562754999999999,1.424295,0.921402,-0.1801855,0.92247,0.00262,0.0025135,1.07753,-0.00262,-0.0025135,0.810905,-0.431998,-0.0275764999999999,1.173165,-0.431238,-0.0254874999999999,0.7340949999999999,-0.839548,0.0533085,1.234095,-0.841668,0.0424295,1
45,1.028246,0.710249,-0.0648575,0.8316939999999999,0.513799,-0.0578334999999999,0.6481140000000001,0.6828489999999999,-0.1220604999999999,1.197454,0.502859,-0.0657295,1.391324,0.661779,-0.1358005,0.595254,0.930339,-0.1704605,1.420634,0.914969,-0.1948205,0.922527,0.0025569999999999,0.0020314999999999,1.077473,-0.002557,-0.0020315,0.805214,-0.421321,-0.0466805,1.180664,-0.421261,-0.0421644999999999,0.733314,-0.8284710000000001,0.0429245,1.2356539999999998,-0.829801,0.0319965,1
46,1.0278535,0.7042465,-0.0807605,0.8319585,0.5089565,-0.0729235,0.6472285,0.6770465,-0.1396935,1.1965585,0.4990565,-0.0791715,1.3900085,0.6563065,-0.1510035,0.5978685,0.9242365,-0.1870335,1.4168185,0.9064065,-0.2109035,0.9225235,0.0024415,0.0014624999999999,1.0774765,-0.0024414999999999,-0.0014624999999999,0.7987085,-0.4084535,-0.0668595,1.1896385,-0.4087935,-0.0602895,0.7326685,-0.8150135000000001,0.0318815,1.2375385,-0.8155435,0.0208115,1
47,1.027411,0.6983285,-0.1019154999999999,0.832263,0.5047285,-0.0926724999999999,0.645923,0.6708785,-0.1622605,1.195563,0.4940885,-0.0975765,1.388573,0.6498485,-0.1722405,0.600473,0.9206285,-0.2085605,1.412553,0.9012285,-0.2320704999999999,0.922666,0.0024134999999999,0.0009905,1.077334,-0.0024134999999999,-0.0009905,0.791353,-0.3928315,-0.0913885,1.199283,-0.3934615,-0.0839014999999999,0.731483,-0.7980714999999999,0.0156825,1.239493,-0.7981115,0.0044095,1
48,1.026805,0.6947019999999999,-0.1255405,0.8328860000000001,0.501072,-0.1147835,0.644666,0.6709719999999999,-0.1877295,1.193656,0.490252,-0.1179445,1.386866,0.644352,-0.1955995,0.603256,0.923012,-0.2326195,1.408196,0.893432,-0.2578495,0.922889,0.002171,0.0003305,1.077111,-0.0021709999999999,-0.0003304999999999,0.779586,-0.3718079999999999,-0.1219494999999999,1.212426,-0.372588,-0.1144824999999999,0.7292959999999999,-0.774748,-0.0050715,1.241936,-0.774518,-0.0157935,1
49,1.026343,0.68945,-0.148583,0.833703,0.49717,-0.136065,0.643643,0.6632899999999999,-0.212683,1.191943,0.48633,-0.137708,1.385533,0.63878,-0.2187529999999999,0.606363,0.91712,-0.258763,1.403873,0.88668,-0.283413,0.923242,0.00211,-9.800000000000086e-05,1.076758,-0.00211,9.800000000000086e-05,0.768133,-0.34994,-0.150373,1.225413,-0.35085,-0.143504,0.727303,-0.75039,-0.025219,1.243843,-0.74973,-0.034612,1
50,1.026343,0.6825300000000001,-0.1717815,0.835243,0.4939699999999999,-0.1572235,0.6434930000000001,0.65574,-0.2375415,1.190293,0.4823099999999999,-0.1577315,1.384723,0.6341699999999999,-0.2436915,0.609943,0.91346,-0.2863015,1.399393,0.87995,-0.3132614999999999,0.92374,0.0020499999999999,-0.0004585,1.07626,-0.00205,0.0004585,0.756723,-0.32336,-0.1796215,1.238663,-0.32455,-0.1730715,0.7259230000000001,-0.7205300000000001,-0.0448625,1.245933,-0.7204600000000001,-0.0532404999999999,1
51,1.0265725,0.676925,-0.1924425,0.8370055000000001,0.488915,-0.1753725,0.6436955,0.649455,-0.2586825,1.1888355,0.477425,-0.1753125,1.3842455,0.629465,-0.2665825,0.6133855000000001,0.902895,-0.3109225,1.3962555,0.8687549999999999,-0.3391625,0.9242645,0.002005,-0.0007054999999999,1.0757355,-0.002005,0.0007054999999999,0.7465055,-0.298235,-0.2057025,1.2508955,-0.299025,-0.1997225,0.7249655000000002,-0.6907150000000001,-0.0622065,1.2480355,-0.6912550000000001,-0.0693445,1
52,1.0268305,0.6718299999999999,-0.2107089999999999,0.8387405,0.48521,-0.192309,0.6442505000000001,0.64375,-0.278549,1.1874805,0.4729,-0.191569,1.3838205,0.62527,-0.288449,0.6161605,0.89562,-0.333939,1.3931805,0.8620099999999999,-0.363189,0.9246915,0.00203,-0.000764,1.0753085,-0.00203,0.000764,0.7368505000000001,-0.27349,-0.230439,1.2623405,-0.27449,-0.225779,0.7243904999999999,-0.66033,-0.078081,1.2497904999999998,-0.66196,-0.084173,1
53,1.027057,0.66324,-0.2286015,0.840377,0.48174,-0.2086515,0.644637,0.6375299999999999,-0.2981115,1.186157,0.4684399999999999,-0.2076215,1.384187,0.6194,-0.3101515,0.618757,0.89322,-0.3561915,1.390287,0.85706,-0.3874714999999999,0.925058,0.00214,-0.0010634999999999,1.074942,-0.00214,0.0010634999999999,0.727757,-0.2484,-0.2546115,1.272367,-0.24868,-0.2512615,0.724037,-0.62903,-0.0933405,1.251177,-0.63159,-0.0983715,1
54,1.0273995,0.658415,-0.244669,0.8419765000000001,0.480055,-0.223759,0.6453065,0.632485,-0.316279,1.1849065,0.466435,-0.222369,1.3844665,0.609915,-0.330509,0.6212565,0.8905050000000001,-0.377519,1.3879865,0.845235,-0.4109089999999999,0.9255385,0.002305,-0.001251,1.0744615,-0.002305,0.0012509999999999,0.7194965000000001,-0.223765,-0.277659,1.2807165,-0.2224649999999999,-0.275549,0.7241165,-0.598635,-0.107011,1.2519665,-0.602115,-0.110779,1
55,1.028131,0.6517999999999999,-0.26052,0.843911,0.47767,-0.23842,0.646061,0.62712,-0.3340499999999999,1.183921,0.46231,-0.23689,1.384711,0.60346,-0.34996,0.623491,0.8857299999999999,-0.3988899999999999,1.386821,0.83846,-0.4331399999999999,0.925946,0.0025299999999999,-0.00121,1.074054,-0.0025299999999999,0.00121,0.712291,-0.19863,-0.29996,1.287721,-0.19539,-0.29883,0.7247510000000001,-0.56768,-0.119748,1.253031,-0.57178,-0.122368,1
56,1.029082,0.6479349999999999,-0.2712799999999999,0.845809,0.4754649999999999,-0.24821,0.647089,0.622015,-0.34718,1.183049,0.4598949999999999,-0.24625,1.384859,0.597595,-0.36433,0.625529,0.8802449999999999,-0.41566,1.386499,0.828335,-0.45208,0.926199,0.0025349999999999,-0.0013399999999999,1.073801,-0.002535,0.00134,0.705769,-0.174065,-0.3169499999999999,1.293699,-0.168905,-0.31632,0.725849,-0.537525,-0.126985,1.254179,-0.5420550000000001,-0.128461,1
57,1.0300395,0.6396550000000001,-0.27921,0.8476085,0.471725,-0.25542,0.6481185,0.6097750000000001,-0.3575399999999999,1.1831585,0.456048,-0.25334,1.3856385,0.5894750000000001,-0.3764699999999999,0.6272385,0.868735,-0.43068,1.3871585,0.8210250000000001,-0.46718,0.9263885,0.002765,-0.00136,1.0736115,-0.0027649999999999,0.00136,0.7040584999999999,-0.1526649999999999,-0.32658,1.2949585,-0.1459549999999999,-0.32542,0.7270285000000001,-0.5114749999999999,-0.129665,1.2550885,-0.5158649999999999,-0.131129,1
58,1.0310405,0.63226,-0.286845,0.8494794999999999,0.467865,-0.262565,0.6492595,0.6035,-0.367745,1.1832395,0.451733,-0.260245,1.3864695,0.577,-0.388185,0.6285695,0.8592,-0.444385,1.3878595,0.8042,-0.481615,0.9264465,0.0028699999999999,-0.0012749999999999,1.0735535,-0.0028699999999999,0.0012749999999999,0.7027995,-0.13123,-0.335335,1.2959395,-0.12294,-0.333625,0.7282395000000002,-0.48532,-0.13232,1.2557095,-0.48954,-0.13376,1
59,1.032171,0.627435,-0.29386,0.851173,0.4663119999999999,-0.2679899999999999,0.6504030000000001,0.596205,-0.37683,1.183643,0.44931,-0.26563,1.386963,0.565915,-0.3969,0.629633,0.845175,-0.45679,1.388673,0.7883749999999999,-0.49133,0.926552,0.0033149999999999,-0.0011599999999999,1.073448,-0.003315,0.00116,0.702603,-0.113125,-0.34108,1.296913,-0.103675,-0.33938,0.7295230000000001,-0.462875,-0.134341,1.256003,-0.4658650000000001,-0.135739,1
60,1.0341005,0.621405,-0.301675,0.8537135000000001,0.462073,-0.274865,0.6520235,0.588715,-0.387135,1.1840635,0.443012,-0.271745,1.3887435,0.557205,-0.405385,0.6311335,0.835415,-0.469935,1.3898335,0.777425,-0.504815,0.9262055,0.003835,-0.0009149999999999,1.0737945,-0.0038349999999999,0.0009149999999999,0.7032935,-0.095465,-0.346655,1.2984135,-0.0854049999999999,-0.344695,0.7322835,-0.442095,-0.136643,1.2559635,-0.443895,-0.137936,1
61,1.0358675,0.61417,-0.310505,0.8561605,0.457313,-0.281695,0.6533805000000001,0.57965,-0.397745,1.1844905,0.437192,-0.278035,1.3905005,0.548676,-0.4136149999999999,0.6323305,0.82389,-0.483495,1.3912405,0.7671600000000001,-0.519905,0.9257255,0.0043799999999999,-0.0006849999999999,1.0742745,-0.0043799999999999,0.0006849999999999,0.7042005,-0.0784899999999999,-0.351635,1.2992705,-0.0678299999999999,-0.3490149999999999,0.7351805,-0.42276,-0.138793,1.2563105,-0.4231399999999999,-0.1409,1
62,1.0375345,0.60835,-0.31907,0.8584615000000001,0.448843,-0.28821,0.6554615000000001,0.5683199999999999,-0.40744,1.1847715,0.432336,-0.28397,1.3921515,0.533408,-0.42084,0.6331815000000001,0.80779,-0.49792,1.3940015,0.74855,-0.53415,0.9250915,0.0044799999999999,-0.00041,1.0749085,-0.00448,0.0004099999999999,0.7052015,-0.0631399999999999,-0.35553,1.2994215,-0.05261,-0.35232,0.7379215,-0.40593,-0.14108,1.2564615,-0.40456,-0.143814,1
63,1.0393635,0.5996190000000001,-0.328435,0.8608435,0.439722,-0.295085,0.6579335,0.5571450000000001,-0.417045,1.1852435,0.4216060000000001,-0.290665,1.3936935,0.5224920000000001,-0.427975,0.6342734999999999,0.7899850000000002,-0.513035,1.3968235,0.7362250000000001,-0.5481750000000001,0.9244495,0.004805,-0.000145,1.0755505,-0.0048049999999999,0.0001449999999999,0.7066435000000001,-0.0487949999999999,-0.359225,1.2991935,-0.0382749999999999,-0.355935,0.7407435,-0.3895649999999999,-0.14357,1.2567135,-0.3870449999999998,-0.147103,1
64,1.0408265,0.5926440000000001,-0.337055,0.8627285,0.432184,-0.301685,0.6601785,0.544791,-0.426055,1.1853385,0.413095,-0.2969549999999999,1.3946285,0.5076430000000001,-0.434415,0.6355185,0.777485,-0.526095,1.4001285,0.7173050000000001,-0.561835,0.9236365,0.005145,-4.999999999977245e-06,1.0763635,-0.0051449999999999,5.000000000005e-06,0.7076685,-0.0367449999999999,-0.363035,1.2985285,-0.0276849999999999,-0.3596749999999999,0.7430185,-0.3757049999999999,-0.146253,1.2566085,-0.3723949999999999,-0.1503749999999999,1
65,1.0424275,0.5817300000000001,-0.34529,0.8645745,0.42362,-0.3079699999999999,0.6623844999999999,0.5316150000000001,-0.4344,1.1854145,0.40451,-0.303,1.3960845,0.4922290000000001,-0.4396,0.6372745,0.7625600000000001,-0.5391699999999999,1.4034345,0.6983,-0.57351,0.9227565,0.00547,0.00018,1.0772434999999998,-0.0054699999999999,-0.0001799999999999,0.7086345000000001,-0.0268699999999999,-0.3669,1.2978645,-0.0192499999999999,-0.3633699999999999,0.7452345,-0.3639599999999999,-0.149395,1.2565345,-0.36017,-0.15359,1
66,1.0440485,0.572597,-0.353385,0.8660885,0.415955,-0.313795,0.6645685,0.518516,-0.442145,1.1855485,0.397045,-0.308475,1.3976285,0.477292,-0.444775,0.6394885,0.746435,-0.552065,1.4065884999999998,0.679025,-0.584005,0.9218535,0.0056549999999999,0.0002949999999999,1.0781465,-0.0056549999999999,-0.000295,0.7095785,-0.019015,-0.370715,1.2974584999999998,-0.0123449999999999,-0.365905,0.7473185,-0.354205,-0.152593,1.2565985,-0.350055,-0.156718,1
67,1.0454949999999998,0.564052,-0.361,0.8674109999999999,0.40915,-0.31919,0.666551,0.506596,-0.4497,1.185631,0.3904999999999999,-0.31361,1.399061,0.466479,-0.44901,0.6418710000000001,0.73573,-0.56362,1.409621,0.66771,-0.59434,0.920986,0.0057099999999999,0.00023,1.079014,-0.0057099999999999,-0.00023,0.7109110000000001,-0.0126899999999999,-0.37368,1.297481,-0.00653,-0.3678099999999999,0.749441,-0.34591,-0.155862,1.256631,-0.34164,-0.15971,1
68,1.0465345,0.554489,-0.367295,0.8685555,0.399955,-0.324565,0.6683655,0.495163,-0.456925,1.1857355,0.382265,-0.318465,1.4005655,0.453665,-0.452905,0.6443555000000001,0.725805,-0.574155,1.4122755,0.655501,-0.603685,0.9202295,0.005585,0.0001249999999999,1.0797705,-0.0055849999999999,-0.000125,0.7126755,-0.0090049999999999,-0.376255,1.2978955,-0.0028749999999999,-0.369235,0.7515755,-0.3406249999999999,-0.159116,1.2565955,-0.3362649999999999,-0.162668,1
69,1.0470335,0.54789,-0.37216,0.8687275,0.396765,-0.32809,0.6696175000000001,0.485476,-0.46253,1.1857175,0.379205,-0.32194,1.4034575,0.439685,-0.4558,0.6463875,0.717075,-0.58338,1.4138975,0.645887,-0.60929,0.9201055,0.0056749999999999,-0.0001299999999999,1.0798945,-0.0056749999999999,0.00013,0.7140275,-0.0070449999999999,-0.3777,1.2979975,-0.000545,-0.36985,0.7530275000000001,-0.3368749999999999,-0.161792,1.2562975,-0.332615,-0.1646919999999999,1
70,1.0474195,0.544246,-0.376035,0.8688565,0.393345,-0.331295,0.6707665,0.479938,-0.467025,1.1856265,0.377685,-0.324525,1.4070065,0.426455,-0.458395,0.6492165000000001,0.711515,-0.591485,1.4153465,0.63773,-0.612525,0.9201205,0.005495,-0.000315,1.0798795,-0.005495,0.0003149999999999,0.7154065000000001,-0.0063949999999999,-0.3789949999999999,1.2980165,0.000485,-0.370045,0.7541165000000001,-0.334875,-0.164268,1.2561165,-0.330635,-0.166305,1
71,1.047665,0.544641,-0.378985,0.868886,0.3938800000000001,-0.333975,0.671416,0.47869,-0.470785,1.185326,0.3761700000000001,-0.326585,1.410616,0.4269900000000001,-0.460615,0.651946,0.7098200000000001,-0.5972850000000001,1.415856,0.6382650000000001,-0.614625,0.919899,0.00592,-0.000485,1.080101,-0.0059199999999999,0.0004849999999999,0.7165360000000001,-0.0063199999999998,-0.380165,1.297816,0.0010200000000001,-0.369755,0.7548160000000002,-0.3344399999999999,-0.166345,1.255846,-0.3305699999999999,-0.167589,1
72,1.0481745,0.544641,-0.38086,0.8689095,0.3938800000000001,-0.33619,0.6721695000000001,0.47869,-0.47415,1.1852395,0.3761700000000001,-0.32827,1.4140995,0.4269900000000001,-0.46162,0.6542795,0.7098200000000001,-0.60215,1.4163295,0.6382650000000001,-0.61612,0.9196305,0.00592,-0.00056,1.0803695,-0.0059199999999999,0.00056,0.7174595000000001,-0.0063199999999998,-0.38097,1.2983195,0.0010200000000001,-0.36917,0.7553695000000001,-0.3344399999999999,-0.168036,1.2555495,-0.3307499999999999,-0.168313,1
73,1.0487245,0.544641,-0.38227,0.8692005,0.3938800000000001,-0.33796,0.6731105,0.47869,-0.4759299999999999,1.1854805,0.3761700000000001,-0.32967,1.4171805,0.4269900000000001,-0.46225,0.6567205,0.7098200000000001,-0.60373,1.4163405,0.6382650000000001,-0.61563,0.9195145,0.00592,-0.0006699999999999,1.0804855,-0.0059199999999999,0.00067,0.7181705,-0.0063199999999998,-0.3814999999999999,1.2994205,0.0010200000000001,-0.36828,0.7557505,-0.3344399999999999,-0.1696879999999999,1.2552705,-0.3307499999999999,-0.168908,1
74,1.049252,0.544641,-0.38326,0.869821,0.3957300000000001,-0.33895,0.673941,0.47869,-0.47692,1.185671,0.3761700000000001,-0.33058,1.422301,0.4286000000000001,-0.46295,0.658451,0.7098200000000001,-0.60477,1.416271,0.6383610000000001,-0.61659,0.919726,0.00592,-0.0007599999999999,1.080274,-0.0059199999999999,0.00076,0.7185410000000001,-0.0063199999999998,-0.3813,1.300641,0.0011200000000001,-0.36697,0.755831,-0.3344399999999999,-0.1711819999999999,1.254831,-0.3307499999999999,-0.1691599999999999,1
75,1.0493325,0.5465700000000001,-0.38348,0.8702004999999999,0.3973950000000001,-0.33918,0.6744005,0.4804880000000001,-0.47716,1.1856205,0.3799950000000001,-0.33002,1.4233305,0.4293150000000001,-0.46237,0.6593305,0.7082350000000002,-0.60502,1.4158105,0.6397870000000001,-0.6150800000000001,0.9203225,0.005805,-0.0006799999999999,1.0796775,-0.0058049999999999,0.00068,0.7184305,-0.0082049999999999,-0.37985,1.3017505,-0.0006549999999998,-0.36509,0.7554505,-0.3374949999999999,-0.171752,1.2541705,-0.3338649999999998,-0.168694,1
76,1.04957,0.551194,-0.382985,0.870504,0.40079,-0.339455,0.674694,0.4841439999999999,-0.477425,1.185924,0.38449,-0.329365,1.428004,0.4341699999999999,-0.462185,0.660544,0.713,-0.605335,1.415384,0.647339,-0.610645,0.921138,0.0055899999999999,-0.000875,1.078862,-0.0055899999999999,0.0008749999999999,0.718164,-0.01414,-0.377835,1.302264,-0.00501,-0.363015,0.754404,-0.34551,-0.172227,1.253464,-0.3422700000000001,-0.16835,1
77,1.0496485,0.55681,-0.381175,0.8707335,0.404375,-0.339425,0.6748935,0.4903970000000001,-0.477095,1.1861535,0.387785,-0.328265,1.4282335,0.440955,-0.4613549999999999,0.6611035000000001,0.7163250000000001,-0.604185,1.4145735,0.6564350000000001,-0.606125,0.9220355,0.005545,-0.0009149999999999,1.0779645,-0.0055449999999999,0.0009149999999999,0.7172035,-0.0226149999999999,-0.375175,1.3030635,-0.0124949999999999,-0.360875,0.7532035000000001,-0.3571449999999999,-0.1723039999999999,1.2528235,-0.353915,-0.167857,1
78,1.0492485,0.562692,-0.3778,0.8707795,0.40871,-0.3392199999999999,0.6748095000000001,0.4976399999999999,-0.47581,1.1865295,0.3927,-0.32709,1.4268595,0.451299,-0.45947,0.6609295,0.72544,-0.6015999999999999,1.4132495,0.66551,-0.60146,0.9229575,0.00543,-0.0009499999999999,1.0770425,-0.00543,0.00095,0.7158095,-0.03359,-0.3721299999999999,1.3025695,-0.0230399999999999,-0.35902,0.7516895,-0.37173,-0.172372,1.2518195,-0.3686399999999999,-0.167489,1
79,1.04863,0.569798,-0.37397,0.870571,0.413145,-0.33871,0.673421,0.506549,-0.47351,1.186801,0.396625,-0.32575,1.425371,0.460287,-0.45716,0.660031,0.733875,-0.59788,1.411811,0.676485,-0.5952500000000001,0.923811,0.005035,-0.00098,1.076189,-0.005035,0.0009799999999999,0.714171,-0.046555,-0.3684199999999999,1.301491,-0.0361549999999999,-0.35733,0.749831,-0.388965,-0.172408,1.250551,-0.3860249999999999,-0.167421,1
80,1.0483555,0.5806560000000001,-0.369455,0.8708645,0.418805,-0.337365,0.6725145,0.5178710000000001,-0.469505,1.1876844999999998,0.404808,-0.323775,1.4246045,0.474324,-0.453115,0.6592945,0.743725,-0.5922350000000001,1.4110045,0.691935,-0.587445,0.9246245,0.004525,-0.0011549999999999,1.0753755,-0.004525,0.001155,0.7132345,-0.0594249999999999,-0.364155,1.3002045,-0.0496449999999999,-0.355085,0.7479145,-0.4071749999999999,-0.171879,1.2498445,-0.4054449999999999,-0.166793,1
81,1.0482079999999998,0.585455,-0.3621,0.871169,0.42316,-0.33468,0.6717490000000002,0.526145,-0.4636,1.188759,0.408859,-0.32038,1.423279,0.484392,-0.44801,0.659189,0.753225,-0.58334,1.410309,0.700325,-0.57791,0.925431,0.0041149999999999,-0.0013,1.074569,-0.004115,0.0012999999999999,0.712539,-0.076415,-0.35848,1.299139,-0.068265,-0.3513,0.7459490000000001,-0.430575,-0.170492,1.249309,-0.429805,-0.164924,1
82,1.0481875,0.59234,-0.354305,0.8714945000000001,0.429058,-0.331405,0.6713145,0.5381670000000001,-0.457365,1.1897945,0.412789,-0.316955,1.4216145,0.498874,-0.442415,0.6592945,0.76656,-0.5735049999999999,1.4095845,0.70936,-0.568315,0.9261045,0.004,-0.0014349999999999,1.0738955,-0.004,0.0014349999999999,0.7120845,-0.09289,-0.3526749999999999,1.2984145,-0.08652,-0.347425,0.7442745,-0.45325,-0.169016,1.2493145,-0.4534399999999999,-0.1629519999999999,1
83,1.0484795,0.596175,-0.3456249999999999,0.8715575,0.433114,-0.326835,0.6712475,0.546495,-0.449825,1.1913574999999998,0.417716,-0.312465,1.4202375,0.506949,-0.435685,0.6595475,0.7803249999999999,-0.562365,1.4092475,0.716935,-0.558505,0.9264355,0.0037949999999999,-0.0014049999999999,1.0735645,-0.0037949999999999,0.0014049999999999,0.7121675000000001,-0.1116749999999999,-0.346195,1.2980475,-0.1076449999999999,-0.342395,0.7413775,-0.4787749999999999,-0.169206,1.2524275,-0.479785,-0.163566,1
84,1.049076,0.60449,-0.33629,0.871663,0.4398269999999999,-0.32143,0.6713629999999999,0.5552,-0.44105,1.193083,0.423367,-0.3070199999999999,1.418523,0.5174799999999999,-0.42782,0.659913,0.79846,-0.54977,1.409043,0.72561,-0.5482899999999999,0.926474,0.0037699999999999,-0.00139,1.073526,-0.0037699999999999,0.00139,0.7124630000000001,-0.1304599999999999,-0.33947,1.297213,-0.12866,-0.33647,0.738543,-0.50414,-0.168992,1.255993,-0.5062,-0.164153,1
85,1.0495275,0.6121300000000001,-0.326935,0.8717325,0.445117,-0.315585,0.6714325000000001,0.56364,-0.432305,1.1945325,0.427484,-0.3013749999999999,1.4165025,0.52874,-0.419925,0.6602025,0.80894,-0.538855,1.4083625,0.74167,-0.5381849999999999,0.9266005,0.0039,-0.0013249999999999,1.0733995,-0.0039,0.001325,0.7130525000000001,-0.1468499999999999,-0.3327949999999999,1.2955125,-0.14804,-0.330195,0.7352425,-0.52702,-0.169534,1.2595325,-0.52983,-0.164729,1
86,1.04957,0.62085,-0.317745,0.871666,0.45157,-0.308945,0.6707160000000001,0.57285,-0.423005,1.195686,0.432367,-0.295175,1.412946,0.53812,-0.410685,0.6601760000000001,0.82075,-0.527175,1.408266,0.7539199999999999,-0.5274350000000001,0.926954,0.0041999999999999,-0.001125,1.073046,-0.0041999999999999,0.0011249999999999,0.7134860000000001,-0.16245,-0.325285,1.293206,-0.1662699999999999,-0.322755,0.731376,-0.54891,-0.170495,1.263026,-0.55341,-0.165856,1
87,1.049565,0.6301399999999999,-0.3089849999999999,0.8715750000000001,0.45754,-0.301745,0.6702049999999999,0.58046,-0.413805,1.196455,0.43625,-0.2879649999999999,1.409255,0.54503,-0.401095,0.660325,0.82725,-0.514205,1.407455,0.76642,-0.5146649999999999,0.927381,0.0045,-0.0008449999999999,1.072619,-0.0045,0.000845,0.714235,-0.17784,-0.3172149999999999,1.290125,-0.1842399999999999,-0.314365,0.727435,-0.57057,-0.1712479999999999,1.266295,-0.5767,-0.165873,1
88,1.04967,0.6410750000000001,-0.299735,0.871641,0.462275,-0.294665,0.670201,0.589575,-0.404695,1.197301,0.441045,-0.280755,1.409111,0.555475,-0.391235,0.6595409999999999,0.8362850000000001,-0.501085,1.407441,0.778055,-0.502605,0.927293,0.004925,-0.0006849999999999,1.072707,-0.0049249999999999,0.0006849999999999,0.7155009999999999,-0.1913749999999999,-0.309705,1.287171,-0.1997049999999999,-0.305805,0.725731,-0.5900449999999999,-0.170405,1.268061,-0.597735,-0.163942,1
89,1.050134,0.646645,-0.2889049999999999,0.871734,0.466205,-0.287455,0.670374,0.6035250000000001,-0.395205,1.198214,0.440735,-0.273445,1.408944,0.562045,-0.3820449999999999,0.659204,0.8491150000000001,-0.4873149999999999,1.406754,0.784325,-0.489985,0.927211,0.005285,-0.000445,1.072789,-0.0052849999999999,0.000445,0.717244,-0.206075,-0.3015649999999999,1.284264,-0.2166349999999999,-0.296525,0.724994,-0.610055,-0.168783,1.269364,-0.619375,-0.160806,1
90,1.050836,0.65786,-0.27995,0.871838,0.4748,-0.27947,0.6710780000000001,0.61522,-0.38629,1.199298,0.4486,-0.26558,1.409798,0.56995,-0.3727,0.6592280000000001,0.8590099999999999,-0.47491,1.406608,0.7996599999999999,-0.47699,0.927098,0.0053399999999999,-0.0001,1.072902,-0.00534,9.9999999999989e-05,0.720738,-0.21924,-0.29198,1.280638,-0.23117,-0.28624,0.7255480000000001,-0.62771,-0.165759,1.270498,-0.63832,-0.157214,1
91,1.0516029999999998,0.661555,-0.26783,0.871585,0.478655,-0.26995,0.671765,0.619705,-0.37382,1.200695,0.452565,-0.25627,1.410135,0.575445,-0.36163,0.659275,0.869465,-0.45954,1.406445,0.8072050000000001,-0.46179,0.926985,0.005535,0.0002899999999999,1.073015,-0.0055349999999999,-0.0002899999999999,0.7272550000000001,-0.237415,-0.27818,1.274445,-0.250735,-0.27134,0.7257750000000001,-0.650365,-0.161162,1.271305,-0.661815,-0.151134,1
92,1.0520124999999998,0.66705,-0.25603,0.8706265000000001,0.48713,-0.26039,0.6721265000000001,0.62736,-0.36145,1.2016965,0.45569,-0.24745,1.4111265,0.5833200000000001,-0.35105,0.6591564999999999,0.8797600000000001,-0.44488,1.4059365,0.8232299999999999,-0.44818,0.9266895,0.00575,0.00049,1.0733105,-0.0057499999999999,-0.00049,0.7340765,-0.25392,-0.26438,1.2677865,-0.26822,-0.2564,0.7249765,-0.67021,-0.156854,1.2718465,-0.6827700000000001,-0.145494,1
93,1.052283,0.669855,-0.244115,0.869509,0.492025,-0.2508249999999999,0.672219,0.633665,-0.3490149999999999,1.202389,0.458165,-0.238865,1.411579,0.5910949999999999,-0.340445,0.658459,0.885455,-0.430245,1.405169,0.837055,-0.434525,0.926699,0.006145,0.0007149999999999,1.073301,-0.0061449999999999,-0.000715,0.741269,-0.270135,-0.249305,1.260519,-0.285315,-0.240555,0.7250989999999999,-0.689095,-0.151094,1.272089,-0.703105,-0.139739,1
94,1.052372,0.677435,-0.231825,0.868452,0.497875,-0.240435,0.672802,0.640945,-0.336415,1.203112,0.462795,-0.229545,1.411972,0.596365,-0.328465,0.6574420000000001,0.891835,-0.415125,1.404682,0.842465,-0.419735,0.926704,0.006375,0.000835,1.073296,-0.0063749999999999,-0.000835,0.748792,-0.293105,-0.231875,1.252812,-0.306595,-0.222995,0.725352,-0.711415,-0.145094,1.271802,-0.725295,-0.133382,1
95,1.052218,0.68378,-0.219601,0.867367,0.50366,-0.229951,0.6729069999999999,0.64674,-0.3236409999999999,1.203537,0.46794,-0.220161,1.411497,0.60442,-0.316821,0.6559269999999999,0.89908,-0.399891,1.404097,0.8509300000000001,-0.404731,0.926814,0.00642,0.000909,1.073186,-0.0064199999999999,-0.0009089999999999,0.756177,-0.31549,-0.214841,1.243887,-0.32733,-0.2039409999999999,0.726637,-0.73276,-0.137981,1.268217,-0.74558,-0.122642,1
96,1.0513104999999998,0.6915035,-0.2008985,0.8658545,0.5099435,-0.2127585,0.6727245,0.6551735000000001,-0.3038985,1.2033545,0.4724135,-0.2050385,1.4102945,0.6134035,-0.2992085,0.6541345000000001,0.9072335,-0.3786285,1.4035045,0.8608835,-0.3841185,0.9264785,0.0065575,0.0011864999999999,1.0735215,-0.0065574999999999,-0.0011865,0.7640045,-0.3370265,-0.1870595,1.2335845,-0.3473265,-0.1754615,0.7284645000000001,-0.7529564999999999,-0.1203235,1.2629245,-0.7649064999999999,-0.1025155,1
97,1.050025,0.6954715,-0.1817085,0.863467,0.5163815,-0.1939985,0.671937,0.6601115,-0.2831085,1.203537,0.4781915,-0.1877984999999999,1.408697,0.6192115,-0.2813685,0.652137,0.9128515,-0.3569385,1.403077,0.8691815,-0.3629485,0.926037,0.0064924999999999,0.0015155,1.073963,-0.0064924999999999,-0.0015154999999999,0.776707,-0.3596685,-0.1547445,1.220177,-0.3691785,-0.1434495,0.7325269999999999,-0.7745085,-0.0984464999999999,1.257107,-0.7857985000000001,-0.0806765,1
98,1.0482175,0.701086,-0.1638555,0.8606755,0.5219360000000001,-0.1753355,0.6710054999999999,0.658086,-0.2632355,1.2034055,0.485116,-0.1709055,1.4071755,0.624596,-0.2639255,0.6496655,0.914126,-0.3365755,1.4019755,0.878566,-0.3424055,0.9257225,0.0064519999999999,0.0019524999999999,1.0742775,-0.0064519999999999,-0.0019525,0.7888555000000002,-0.380024,-0.1232645,1.2071555,-0.389094,-0.1126535,0.7363355,-0.7942940000000001,-0.0758515,1.2505755,-0.804834,-0.0581825,1
99,1.046343,0.7061915000000001,-0.1456589999999999,0.857799,0.5230915,-0.1578379999999999,0.669849,0.6601215,-0.243898,1.203279,0.4881514999999999,-0.154828,1.405669,0.6326915000000001,-0.247248,0.646969,0.9189415,-0.3167879999999999,1.400359,0.8836215000000001,-0.323068,0.925344,0.0064444999999999,0.002246,1.074656,-0.0064444999999999,-0.0022459999999999,0.7993390000000001,-0.3958285,-0.0941859999999999,1.195519,-0.4050085,-0.084323,0.739879,-0.8101585,-0.0533,1.244239,-0.8208685,-0.0369079999999999,1
100,1.044327,0.7158565,-0.1303274999999999,0.85504,0.5269665,-0.1417755,0.66833,0.6640265000000001,-0.2277755,1.20317,0.4941565,-0.1398065,1.40459,0.6384365000000001,-0.2323454999999999,0.64415,0.9201765,-0.2997755,1.39892,0.8941065,-0.3052255,0.924753,0.0060924999999999,0.0024635,1.075247,-0.0060925,-0.0024635,0.80643,-0.4040235,-0.0691705,1.18666,-0.4130935,-0.0609425,0.74143,-0.8180634999999999,-0.0336655,1.23964,-0.8291535,-0.0190315,1
101,1.042436,0.7244185000000001,-0.1150974999999999,0.8525469999999999,0.5266085,-0.1258725,0.667177,0.6667485000000001,-0.2121475,1.203257,0.4989685,-0.1249375,1.403587,0.6426585,-0.2173574999999999,0.641267,0.9209585,-0.2826875,1.397717,0.8961385000000001,-0.2869275,0.923915,0.0056775,0.0027005,1.076085,-0.0056774999999999,-0.0027004999999999,0.8129770000000001,-0.4118815,-0.0449414999999999,1.178557,-0.4199115,-0.0388035,0.742507,-0.8249015,-0.0142825,1.235757,-0.8360314999999999,-0.0022674999999999,1
102,1.0406885,0.7309450000000001,-0.100115,0.8502655,0.5271250000000001,-0.1101019999999999,0.6661455000000001,0.668255,-0.197295,1.2033955,0.503165,-0.1104359999999999,1.4030255,0.645795,-0.202745,0.6387754999999999,0.921495,-0.266495,1.3969255,0.900105,-0.268465,0.9227395,0.005101,0.002956,1.0772605,-0.005101,-0.002956,0.8187854999999999,-0.419335,-0.0225049999999999,1.1714455,-0.426145,-0.0184779999999999,0.7432455,-0.830715,0.004938,1.2325355,-0.841305,0.013345,1
103,1.0384345,0.7317429999999999,-0.0853994999999999,0.8474625,0.5272929999999999,-0.0949055,0.6640325,0.668843,-0.1827855,1.2030625,0.5057429999999999,-0.0964495,1.4016425,0.6487229999999999,-0.1890254999999999,0.6359325,0.922703,-0.2505755,1.3956525,0.903093,-0.2518855,0.9222205,0.00458,0.0033075,1.0777795,-0.00458,-0.0033074999999999,0.8233825,-0.427547,-0.0025845,1.1647425,-0.433127,-0.0002154999999999,0.7432125,-0.8371270000000001,0.0229025,1.2294225,-0.8470070000000001,0.0278185,1
104,1.0361515,0.732871,-0.070953,0.8447344999999999,0.5264810000000001,-0.080622,0.6617745000000002,0.6684110000000001,-0.1689369999999999,1.2026445,0.507831,-0.082832,1.4004145,0.649811,-0.1753269999999999,0.6331945,0.923781,-0.2351269999999999,1.3943545,0.905631,-0.2354069999999999,0.9217355,0.004056,0.003609,1.0782645,-0.004056,-0.003609,0.8278345,-0.435319,0.016866,1.1591645,-0.439479,0.0155979999999999,0.7429845000000002,-0.843019,0.04065,1.2267945,-0.852039,0.0409179999999999,1
105,1.0344885,0.732275,-0.064006,0.8424765,0.5250450000000001,-0.07361,0.6598065,0.666995,-0.1623119999999999,1.2025565,0.509575,-0.075944,1.3994765,0.6497550000000001,-0.168702,0.6308365,0.924595,-0.226572,1.3934565,0.906805,-0.226162,0.9214725,0.003604,0.003725,1.0785275,-0.003604,-0.003725,0.8317165,-0.442665,0.024548,1.1556565,-0.445045,0.020835,0.7425565000000001,-0.848235,0.047738,1.2256165,-0.855895,0.044398,1
106,1.033047,0.7327685,-0.0583315,0.840952,0.5250385000000001,-0.0682345,0.657942,0.6670585,-0.1567605,1.202082,0.5099785,-0.0712295,1.399132,0.6507585,-0.1627704999999999,0.628652,0.9264385,-0.2188804999999999,1.393132,0.9091285,-0.2172305,0.921283,0.0035975,0.0038085,1.078717,-0.0035975,-0.0038085,0.830882,-0.4428015,0.0272495,1.154662,-0.4453215,0.0228524999999999,0.741842,-0.8482815,0.0515265,1.224722,-0.8561814999999999,0.0464885,1
107,1.031774,0.7331185,-0.05313,0.839736,0.5250385000000001,-0.063441,0.6562060000000001,0.6671285,-0.151537,1.201736,0.5101385,-0.0666669999999999,1.398526,0.6515085,-0.157027,0.626706,0.9282285,-0.211237,1.393026,0.9108885,-0.208787,0.921093,0.0035975,0.003932,1.078907,-0.0035975,-0.003932,0.8302860000000001,-0.4429315,0.0296169999999999,1.153746,-0.4455815,0.024749,0.741296,-0.8483415,0.05507,1.224086,-0.8563514999999999,0.0483959999999999,1
108,1.030735,0.7332185,-0.049095,0.838877,0.5250685,-0.059347,0.6546270000000001,0.6670685000000001,-0.1466579999999999,1.201497,0.5102885,-0.063091,1.398907,0.6521685,-0.1517079999999999,0.6250370000000001,0.9296985,-0.204068,1.393267,0.9125885,-0.2005279999999999,0.920916,0.0035975,0.004029,1.079084,-0.0035975,-0.004029,0.829987,-0.4431315,0.031516,1.153097,-0.4457715,0.026331,0.741037,-0.8483715,0.058134,1.223777,-0.8563715,0.049999,1
109,1.0300105,0.7333525,-0.045625,0.8384015,0.5244025,-0.05579,0.6533315,0.6664525,-0.1420249999999999,1.2015015,0.5103925,-0.059981,1.3994415,0.6527925,-0.1464349999999999,0.6237415000000002,0.9312025,-0.196965,1.3936015,0.9142725,-0.1931149999999999,0.9207905,0.0034865,0.004096,1.0792095,-0.0034865,-0.004096,0.8295115,-0.4430575,0.033193,1.1532315,-0.4459075,0.027103,0.7395715,-0.8482175000000001,0.0613159999999999,1.2238815,-0.8563375,0.051334,1
110,1.029407,0.7335499999999999,-0.042514,0.838031,0.52405,-0.052851,0.652181,0.6660499999999999,-0.137875,1.201621,0.51061,-0.057115,1.399701,0.6532399999999999,-0.141625,0.6227410000000001,0.93262,-0.190365,1.394121,0.91585,-0.186265,0.92079,0.003339,0.004083,1.07921,-0.003339,-0.004083,0.829101,-0.44289,0.034739,1.153261,-0.44594,0.02767,0.738491,-0.8478600000000001,0.064138,1.224111,-0.85621,0.052576,1
111,1.0288225,0.7337465,-0.0397105,0.8375405000000001,0.5240864999999999,-0.0502665,0.6511505,0.6660465,-0.1340585,1.2015705,0.5108465,-0.0544095,1.3998905,0.6536065,-0.1373185,0.6219405,0.9341565,-0.1839785,1.3945605,0.9170465,-0.1802685,0.9207865,0.0031935,0.0039955,1.0792134999999998,-0.0031934999999999,-0.0039955,0.8286505,-0.4427034999999999,0.0361574999999999,1.1532905,-0.4457835,0.0282885,0.7376005,-0.8474635,0.0666235,1.2242105,-0.8559835,0.0539025,1
112,1.0282505,0.7338975,-0.0373229999999999,0.8369485,0.5242275,-0.047982,0.6502185,0.6661875,-0.130521,1.2014185,0.5110175,-0.051945,1.4000485,0.6537875,-0.133431,0.6213185,0.9356075,-0.178091,1.3947885,0.9179475,-0.175071,0.9207785,0.0030825,0.0038609999999999,1.0792215,-0.0030825,-0.003861,0.8281585000000001,-0.4425624999999999,0.037508,1.1533085,-0.4455525,0.028852,0.7370085,-0.8471125,0.068874,1.2243085,-0.8557625,0.05516,1
113,1.0277965,0.7340125,-0.0351174999999999,0.8364405,0.5243024999999999,-0.0458465,0.6495505000000001,0.6662625,-0.1271555,1.2012405,0.5111325,-0.0496765,1.4003105,0.6539124999999999,-0.1299255,0.6210905,0.9369325,-0.1728955,1.3950705,0.9186025,-0.1707555,0.9206905,0.0030074999999999,0.0037394999999999,1.0793095,-0.0030075,-0.0037394999999999,0.8278605,-0.4425075,0.0388335,1.1534105,-0.4456275,0.0293895,0.7368405,-0.8468375,0.0709854999999999,1.2245605,-0.8556575000000001,0.0563825,1
114,1.027606,0.7341325000000001,-0.0330845,0.836166,0.5243525,-0.0439245,0.649196,0.6663125000000001,-0.1240315,1.201206,0.5112625000000001,-0.0476375,1.400616,0.6540025,-0.1270015,0.6213660000000001,0.9380725,-0.1685115,1.395526,0.9192325,-0.1671715,0.92066,0.0029575,0.0036294999999999,1.07934,-0.0029575,-0.0036295,0.827816,-0.4425875,0.0401565,1.153536,-0.4455775,0.0297675,0.737036,-0.8465575,0.0728724999999999,1.2250359999999998,-0.8555474999999999,0.0574304999999999,1
115,1.0276355,0.734208,-0.0312975,0.8359775,0.524558,-0.0420274999999999,0.6491775,0.666408,-0.1211805,1.2012475,0.511368,-0.0460185,1.4007575,0.654098,-0.1246705,0.6219775000000001,0.939178,-0.1645705,1.3960375,0.919768,-0.1647305,0.9206765,0.002936,0.0035235,1.0793235,-0.002936,-0.0035234999999999,0.8279575,-0.442762,0.0413295,1.1537175,-0.445662,0.0299625,0.7374175000000001,-0.846332,0.0744684999999999,1.2256475,-0.855482,0.0584685,1
116,1.0278815,0.734302,-0.0298,0.8359095,0.524922,-0.040108,0.6493995,0.666822,-0.118432,1.2013595,0.511482,-0.044591,1.4010295,0.6541520000000001,-0.122682,0.6226995,0.940182,-0.161042,1.3963495,0.920202,-0.162932,0.9207125,0.00293,0.003454,1.0792875,-0.00293,-0.0034539999999999,0.8282895,-0.442828,0.042219,1.1539895,-0.445668,0.030033,0.7380395,-0.845888,0.075747,1.2263995,-0.8554379999999999,0.059472,1
117,1.028218,0.7343649999999999,-0.0284145,0.835909,0.525335,-0.0382275,0.649849,0.667405,-0.1157554999999999,1.201559,0.511605,-0.0432845,1.401319,0.654205,-0.1211654999999999,0.6234390000000001,0.941175,-0.1576855,1.396479,0.920575,-0.1616255,0.920731,0.0028929999999999,0.0034605,1.079269,-0.0028929999999999,-0.0034605,0.828819,-0.442865,0.0429465,1.154409,-0.445705,0.0300655,0.738699,-0.845515,0.0770335,1.227159,-0.855415,0.0604945,1
118,1.0284875,0.7344480000000001,-0.02715,0.8358915,0.5257580000000001,-0.036423,0.6503215,0.668008,-0.113233,1.2016615,0.5117980000000001,-0.0420119999999999,1.4014215,0.654228,-0.119893,0.6241115000000002,0.942118,-0.154623,1.3961615,0.920938,-0.160333,0.9207505,0.0028259999999999,0.003521,1.0792495,-0.0028259999999999,-0.003521,0.8293715,-0.442932,0.043718,1.1548415,-0.445772,0.030062,0.7392915,-0.845362,0.078285,1.2279315,-0.855462,0.0613989999999999,1
119,1.0286675,0.734678,-0.0259965,0.8358125000000001,0.526178,-0.0347595,0.6507825,0.668738,-0.1106714999999999,1.2017325,0.512008,-0.0408545,1.4013825,0.654238,-0.1187315,0.6247725,0.943078,-0.1518614999999999,1.3956425,0.921298,-0.1591515,0.9207895,0.0027489999999999,0.0036055,1.0792105,-0.0027489999999999,-0.0036055,0.8297925000000002,-0.443042,0.0442395,1.1552325,-0.445842,0.0298885,0.7398525,-0.845292,0.0794025,1.2285925,-0.855572,0.0621945,1
120,1.0288285,0.734817,-0.0249859999999999,0.8357785,0.526707,-0.033223,0.6511885,0.669617,-0.1080889999999999,1.2017985,0.512267,-0.039879,1.4012185,0.654267,-0.117709,0.6255085,0.944107,-0.149009,1.3948385,0.921467,-0.158429,0.9208385,0.002692,0.003747,1.0791615,-0.002692,-0.003747,0.8301085,-0.443173,0.044436,1.1554885,-0.445993,0.029616,0.7408685000000002,-0.845183,0.0799909999999999,1.2291885,-0.855693,0.062718,1
121,1.0288965,0.7349835,-0.024245,0.8357095,0.5271435,-0.032001,0.6514495,0.6704534999999999,-0.10586,1.2017495,0.5125234999999999,-0.039229,1.4009895,0.6542835,-0.11703,0.6261395000000001,0.9450735,-0.14649,1.3937995,0.9215535,-0.1585,0.9208625,0.0026674999999999,0.003904,1.0791375,-0.0026675,-0.003904,0.8302795000000001,-0.4433264999999999,0.044431,1.1556395,-0.4462664999999999,0.029362,0.7416695000000001,-0.8451465,0.0800309999999999,1.2296595,-0.8558965000000001,0.062968,1
122,1.02891,0.7351095,-0.023764,0.835592,0.5276195,-0.030902,0.651602,0.6712995,-0.103822,1.201652,0.5127495,-0.03887,1.400702,0.6542195,-0.116822,0.6267020000000001,0.9459695,-0.1440719999999999,1.392572,0.9215395,-0.159092,0.920887,0.0026615,0.004083,1.079113,-0.0026615,-0.004083,0.8304320000000001,-0.4434605,0.044256,1.155752,-0.4464905,0.029049,0.742472,-0.8450705,0.0798919999999999,1.229942,-0.8561405,0.063079,1
123,1.0289255,0.7351435000000001,-0.023569,0.8354835,0.5281935000000001,-0.029888,0.6517535,0.6721235000000001,-0.10205,1.2015435,0.5129535000000001,-0.03877,1.4003935,0.6541435000000001,-0.11706,0.6272635,0.9467535,-0.14193,1.3913635,0.9214235,-0.16016,0.9209085,0.0026545,0.0042959999999999,1.0790915,-0.0026545,-0.004296,0.8306135,-0.4435065,0.044004,1.1558635,-0.4466165,0.0287769999999999,0.7432535,-0.8450464999999999,0.079541,1.2301435,-0.8563565,0.063194,1
124,1.0289609999999998,0.7351695,-0.0235145,0.835528,0.5286995,-0.0290255,0.651958,0.6729195,-0.1004485,1.201488,0.5131595,-0.0388095,1.400108,0.6541595,-0.1174785,0.627838,0.9474395,-0.1399285,1.390328,0.9212595,-0.1613685,0.920927,0.0026595,0.0045245,1.079073,-0.0026595,-0.0045245,0.830908,-0.4434505,0.0437235,1.156018,-0.4466005,0.0285825,0.744038,-0.8451005,0.0790855,1.230218,-0.8564705,0.0632455,1
125,1.02898,0.735224,-0.0236045,0.835577,0.5292739999999999,-0.0282245,0.652157,0.6735939999999999,-0.0989625,1.201457,0.5133939999999999,-0.0389855,1.399847,0.654254,-0.1181025,0.628367,0.948044,-0.1381525,1.389597,0.921184,-0.1625425,0.920932,0.00267,0.0046714999999999,1.079068,-0.00267,-0.0046715,0.831297,-0.443566,0.0436465,1.156167,-0.446596,0.0283945,0.744827,-0.845136,0.0785085,1.230247,-0.8565060000000001,0.0631915,1
126,1.0290104999999998,0.7351475000000001,-0.023772,0.8356565,0.5299975,-0.027369,0.6523865,0.6742775,-0.097451,1.2014565,0.5136275,-0.0391339999999999,1.3996665,0.6543475,-0.118731,0.6288465,0.9485875,-0.136631,1.3891165,0.9211075,-0.163631,0.9209315,0.0027065,0.004735,1.0790685,-0.0027065,-0.004735,0.8316865,-0.4436325,0.043653,1.1562965,-0.4465725,0.028262,0.7456065000000001,-0.8451525,0.078056,1.2303065,-0.8565225,0.063054,1
127,1.0290745,0.7351095000000001,-0.02397,0.8357465,0.5308295000000001,-0.026486,0.6526265,0.6749695,-0.0960029999999999,1.2015065,0.5138095,-0.039143,1.3996265,0.6544595000000001,-0.119273,0.6293265,0.9491995,-0.135083,1.3889465,0.9211495,-0.164453,0.9209255,0.0027405,0.004735,1.0790745,-0.0027405,-0.004735,0.8320665,-0.4436705,0.0436369999999999,1.1563765,-0.4465405,0.028179,0.7463765,-0.8451905,0.077627,1.2303665,-0.8564404999999999,0.062912,1
128,1.0292305,0.7350840000000001,-0.024206,0.8359165,0.5317040000000001,-0.0256189999999999,0.6528565,0.6755840000000001,-0.0946439999999999,1.2015765,0.5139440000000001,-0.039214,1.3996865,0.6545540000000001,-0.1196039999999999,0.6298165,0.949744,-0.1336439999999999,1.3889965,0.921344,-0.164904,0.9209165,0.002766,0.004804,1.0790835,-0.002766,-0.0048039999999999,0.8323564999999999,-0.443696,0.043557,1.1564465,-0.446496,0.028108,0.7469465,-0.845236,0.07738,1.2304665,-0.8563259999999999,0.062773,1
129,1.029412,0.7350599999999999,-0.02443,0.8360920000000001,0.5324099999999999,-0.0247849999999999,0.652992,0.6760499999999999,-0.0935749999999999,1.201622,0.5139499999999999,-0.039325,1.399732,0.65462,-0.1197149999999999,0.630262,0.9501,-0.132565,1.389042,0.92153,-0.165015,0.920899,0.002775,0.004914,1.079101,-0.002775,-0.0049139999999999,0.8324720000000001,-0.44371,0.043443,1.156532,-0.44643,0.027996,0.746992,-0.84523,0.077269,1.230572,-0.85623,0.0626589999999999,1
130,1.02964,0.7349455,-0.0246085,0.8362780000000001,0.5331455,-0.0239555,0.653118,0.6765255,-0.0924955,1.2016779999999998,0.5139555,-0.0394965,1.399758,0.6546955000000001,-0.1198854999999999,0.630748,0.9505155,-0.1313754999999999,1.389068,0.9216755,-0.1651854999999999,0.920876,0.0027815,0.0050545,1.079124,-0.0027815,-0.0050545,0.8324980000000001,-0.4437045,0.0433325,1.156638,-0.4462745,0.0278215,0.747018,-0.8452445,0.0770985,1.230638,-0.8560844999999999,0.0624865,1
131,1.029894,0.7346545,-0.0248575,0.836475,0.5339045,-0.0231855,0.6531750000000001,0.6770145,-0.0913235,1.201735,0.5139845000000001,-0.0395115,1.399755,0.6548545,-0.1201235,0.6311650000000001,0.9511045,-0.1301835,1.389065,0.9217845,-0.1654235,0.920863,0.0027974999999999,0.0051895,1.079137,-0.0027974999999999,-0.0051895,0.832505,-0.4437855,0.0433155,1.156735,-0.4462755,0.0277415,0.747015,-0.8452455,0.0768605,1.230725,-0.8559355,0.0622454999999999,1
132,1.030137,0.7344955,-0.0251944999999999,0.836659,0.5345155,-0.0224195,0.6532290000000001,0.6773155000000001,-0.0899595,1.2018589999999998,0.5141555,-0.0392764999999999,1.399869,0.6551455,-0.1199295,0.631259,0.9517155,-0.1288294999999999,1.389339,0.9219255,-0.1651395,0.920867,0.0028255,0.0053215,1.079133,-0.0028255,-0.0053215,0.8325089999999999,-0.4438944999999999,0.0433805,1.156749,-0.4462345,0.0276035,0.746769,-0.8452445,0.0768155,1.230719,-0.8557245,0.0621194999999999,1
133,1.0303635,0.734453,-0.025481,0.8368255,0.5350330000000001,-0.0216759999999999,0.6532955,0.677533,-0.088515,1.2020155,0.514393,-0.038955,1.4000755,0.6555230000000001,-0.119405,0.6313255,0.952443,-0.127125,1.3897955,0.922253,-0.164275,0.9208705,0.0028539999999999,0.005413,1.0791295,-0.0028539999999999,-0.005413,0.8324755,-0.443857,0.043344,1.1567355,-0.446027,0.027382,0.7464355,-0.845117,0.076798,1.2307255,-0.855467,0.062026,1
134,1.0305719999999998,0.7344185,-0.0256994999999999,0.8369660000000001,0.5353985,-0.0209865,0.653276,0.6776185,-0.0870565,1.202186,0.5146685,-0.0385325,1.400296,0.6559385,-0.1185064999999999,0.6313960000000001,0.9531385,-0.1252165,1.390456,0.9228385,-0.1627865,0.920867,0.0028855,0.0054855,1.079133,-0.0028855,-0.0054855,0.832396,-0.4438215,0.0432945,1.156786,-0.4457815,0.0272045,0.7460260000000001,-0.8449915,0.0767955,1.230706,-0.8551315,0.0619635,1
135,1.0307175,0.7344609999999999,-0.025521,0.8371275,0.535651,-0.0202019999999999,0.6530075,0.677661,-0.08532,1.2023975,0.515011,-0.037599,1.4006875,0.6566209999999999,-0.1167499999999999,0.6314375,0.953861,-0.12248,1.3912575,0.923631,-0.16036,0.9208295,0.002924,0.005525,1.0791705,-0.002924,-0.0055249999999999,0.8322575,-0.443829,0.043242,1.1568775,-0.445539,0.027161,0.7454974999999999,-0.8448990000000001,0.076859,1.2307374999999998,-0.854819,0.062021,1
136,1.030744,0.734468,-0.025199,0.837222,0.535798,-0.019399,0.652622,0.677708,-0.0835489999999999,1.202562,0.515428,-0.0363999999999999,1.401052,0.657368,-0.114719,0.631212,0.954498,-0.119769,1.391912,0.924638,-0.157479,0.920796,0.0029639999999999,0.005535,1.079204,-0.0029639999999999,-0.0055349999999999,0.832032,-0.443822,0.043201,1.156892,-0.445222,0.027199,0.744912,-0.844762,0.076976,1.230632,-0.854562,0.062128,1
137,1.030698,0.734529,-0.0247305,0.837292,0.535889,-0.0185844999999999,0.652142,0.677769,-0.0818895,1.202722,0.515859,-0.0350155,1.401512,0.658169,-0.1124495,0.630762,0.955069,-0.1169695,1.392432,0.925689,-0.1544495,0.920764,0.002994,0.0055295,1.079236,-0.002994,-0.0055295,0.831782,-0.443811,0.0429945,1.156892,-0.445161,0.0273175,0.744302,-0.8446710000000001,0.0771355,1.230542,-0.8543510000000001,0.0622735,1
138,1.030576,0.7346285,-0.0241665,0.8373120000000001,0.5359585,-0.0178445,0.6516120000000001,0.6777285,-0.0802375,1.202892,0.5163085000000001,-0.0335755,1.401992,0.6590085,-0.1100075,0.630152,0.9555885,-0.1141575,1.392912,0.9268685,-0.1512075,0.920745,0.0030004999999999,0.0055144999999999,1.079255,-0.0030004999999999,-0.0055145,0.831492,-0.4438015,0.0428085,1.156852,-0.4450915,0.0274255,0.743672,-0.8445615,0.0772144999999999,1.230422,-0.8541715,0.0623995,1
139,1.0303675,0.734783,-0.02345,0.8372625000000001,0.536033,-0.017096,0.6510225000000001,0.677593,-0.078622,1.2030325,0.516803,-0.0320509999999999,1.4024725,0.659883,-0.107292,0.6293625,0.956063,-0.1114319999999999,1.3933425,0.928233,-0.147642,0.9207255,0.0030039999999999,0.005493,1.0792745,-0.0030039999999999,-0.0054929999999999,0.8311725,-0.443727,0.042647,1.1568225,-0.445077,0.027562,0.7430025,-0.844487,0.077309,1.2303725,-0.854077,0.062549,1
140,1.0301195,0.734961,-0.022548,0.8371495,0.536111,-0.0163929999999999,0.6503695,0.677391,-0.077212,1.2030795,0.517301,-0.030508,1.4028695,0.660801,-0.104517,0.6283495,0.956451,-0.108817,1.3937195,0.929491,-0.144237,0.9207095,0.003011,0.0054699999999999,1.0792905,-0.003011,-0.00547,0.8308195,-0.443559,0.042487,1.1567495,-0.445039,0.027794,0.7423095,-0.844409,0.077415,1.2302895,-0.853999,0.062647,1
141,1.0298865,0.735205,-0.021424,0.8369655000000001,0.536185,-0.01583,0.6496955,0.677085,-0.076081,1.2030055,0.517715,-0.029122,1.4032155,0.6616150000000001,-0.101987,0.6272755,0.956825,-0.106487,1.3939955,0.930665,-0.1409969999999999,0.9206995,0.0030239999999999,0.005433,1.0793005,-0.0030239999999999,-0.005433,0.8304955,-0.443405,0.0423329999999999,1.1566355,-0.445015,0.028083,0.7417855,-0.8443649999999999,0.077492,1.2301255,-0.8539249999999999,0.062707,1
142,1.029694,0.7355079999999999,-0.020272,0.83679,0.5362279999999999,-0.015315,0.6490400000000001,0.676688,-0.075071,1.20291,0.518118,-0.0276469999999999,1.40356,0.6623479999999999,-0.099394,0.6261,0.957058,-0.1045539999999999,1.39437,0.931958,-0.137514,0.920705,0.0030419999999999,0.0054009999999999,1.079295,-0.0030419999999999,-0.0054009999999999,0.83021,-0.443282,0.042129,1.15646,-0.445032,0.028422,0.7413799999999999,-0.8443820000000001,0.077566,1.22994,-0.853862,0.062772,1
143,1.0295135,0.7359195000000001,-0.019116,0.8366175000000001,0.5362895000000001,-0.014863,0.6484775,0.6762495000000001,-0.074222,1.2028275,0.5184995,-0.026157,1.4039075,0.6630695000000001,-0.096593,0.6248875,0.9572895,-0.102693,1.3948375,0.9332295,-0.133943,0.9207205,0.0030605,0.0053419999999999,1.0792795,-0.0030605,-0.005342,0.8299675000000001,-0.4432305,0.0419579999999999,1.1562775,-0.4450505,0.028717,0.7410375,-0.8444005,0.077605,1.2297475,-0.8538104999999999,0.0627929999999999,1
144,1.0293725,0.7362835,-0.018255,0.8365225000000001,0.5363235000000001,-0.014558,0.6481625000000001,0.6760335000000001,-0.073811,1.2027725,0.5187935,-0.02511,1.4041325,0.6635735,-0.09427,0.6239925,0.9574635,-0.10175,1.3952925,0.9343535,-0.13095,0.9207495,0.0030775,0.0052649999999999,1.0792505,-0.0030775,-0.005265,0.8298325000000001,-0.4431965,0.041843,1.1561825,-0.4452664999999999,0.0289289999999999,0.7408625000000001,-0.8444765,0.077628,1.2296425,-0.8538264999999999,0.062778,1
145,1.02925,0.7365744999999999,-0.017492,0.8365,0.5363445,-0.0143329999999999,0.64795,0.6759145,-0.073502,1.20277,0.5190345,-0.024277,1.40435,0.6640145,-0.092052,0.62331,0.9576245,-0.100962,1.39585,0.9352945,-0.128192,0.920768,0.0030885,0.005184,1.079232,-0.0030885,-0.005184,0.82975,-0.4431755,0.041743,1.1561499999999998,-0.4455854999999999,0.02908,0.7407600000000001,-0.8444555,0.077626,1.22961,-0.8538855000000001,0.062774,1
146,1.028864,0.7368305,-0.0155169999999999,0.836504,0.5357605,-0.0139269999999999,0.6474040000000001,0.6753005,-0.072628,1.203184,0.5198305,-0.0227879999999999,1.404714,0.6646005,-0.089431,0.622044,0.9571805,-0.100721,1.396054,0.9375105,-0.1241109999999999,0.920686,0.0030755,0.005223,1.079314,-0.0030755,-0.0052229999999999,0.8295440000000001,-0.4427295,0.041468,1.156294,-0.4464995,0.029769,0.7405440000000001,-0.8443795,0.077763,1.229614,-0.8540295,0.062541,1
147,1.028787,0.7378779999999999,-0.01499,0.8364650000000001,0.535808,-0.0139119999999999,0.647255,0.675508,-0.072703,1.202715,0.519988,-0.021844,1.404365,0.6653279999999999,-0.086205,0.6214550000000001,0.958218,-0.098565,1.397145,0.939308,-0.1198349999999999,0.92071,0.003169,0.004964,1.07929,-0.003169,-0.004964,0.829325,-0.442862,0.041327,1.155875,-0.446752,0.029653,0.7401850000000001,-0.844712,0.077562,1.229775,-0.8546020000000001,0.062124,1
148,1.028833,0.73792,-0.014959,0.83614,0.53649,-0.013655,0.6474000000000001,0.67547,-0.072555,1.20258,0.51999,-0.02179,1.40465,0.66515,-0.084538,0.62147,0.95828,-0.098648,1.39762,0.93926,-0.118488,0.920756,0.0031929999999999,0.004802,1.079244,-0.003193,-0.004802,0.8294500000000001,-0.4429,0.041179,1.1558,-0.4466,0.0295339999999999,0.74022,-0.84463,0.077299,1.22943,-0.85419,0.062721,1
149,1.0287084999999998,0.73802,-0.015111,0.8360935,0.5366799999999999,-0.0136949999999999,0.6475635,0.67536,-0.0727609999999999,1.2023935,0.52,-0.0216279999999999,1.4047335,0.66539,-0.083619,0.6215135,0.95833,-0.098379,1.3982234999999998,0.93911,-0.117689,0.9207855,0.003113,0.004706,1.0792145,-0.003113,-0.0047059999999999,0.8296034999999999,-0.44316,0.040931,1.1555035,-0.44647,0.029309,0.7402635,-0.84479,0.077402,1.2292435,-0.8542500000000001,0.062949,1
150,1.0286255,0.737862,-0.0149235,0.8358385,0.5373519999999999,-0.0132375,0.6474485,0.675682,-0.0727765,1.2024685,0.520312,-0.0205715,1.4047085,0.665592,-0.0829155,0.6215984999999999,0.958462,-0.0976555,1.3984585,0.939212,-0.1165655,0.9208175,0.00313,0.0046435,1.0791825,-0.00313,-0.0046434999999999,0.8295785,-0.443968,0.0411435,1.1555085,-0.447388,0.0295475,0.7402885,-0.8449880000000001,0.0772645,1.2292885,-0.854318,0.0627435,1
151,1.0285845,0.7378305000000001,-0.0146194999999999,0.8358275,0.5376405,-0.0129185,0.6475275,0.6759805,-0.0725365,1.2025275,0.5202705,-0.0204764999999999,1.4049475,0.6656905,-0.0823715,0.6219775000000001,0.9589405,-0.0969915,1.3989975,0.9389405,-0.1157115,0.9208535,0.0031865,0.0045924999999999,1.0791465,-0.0031865,-0.0045924999999999,0.8296574999999999,-0.4441195,0.0411954999999999,1.1556275,-0.4477495,0.0296454999999999,0.7404475000000001,-0.8452395,0.0773105,1.2294475,-0.8545795,0.0623675,1
152,1.0283825,0.7377404999999999,-0.014513,0.8355885000000001,0.5375504999999999,-0.012843,0.6473085000000001,0.6762705,-0.07217,1.2022585,0.5202304999999999,-0.020508,1.4046785,0.6657304999999999,-0.082051,0.6219085,0.9591605,-0.096671,1.3992285,0.9397405,-0.113971,0.9208105,0.0031585,0.0045279999999999,1.0791895,-0.0031585,-0.004528,0.8295385,-0.4441495,0.040997,1.1552485,-0.4472795,0.0294279999999999,0.7405585,-0.8441495000000001,0.077648,1.2293685,-0.8545195000000001,0.0621909999999999,1
