sb224sc-HT22-VT27/4dt907/src/data/labeled_files/A155_kinect.csv
FrameNo,nose_3d_x,nose_3d_y,nose_3d_z,left_shoulder_3d_x,left_shoulder_3d_y,left_shoulder_3d_z,left_elbow_3d_x,left_elbow_3d_y,left_elbow_3d_z,right_shoulder_3d_x,right_shoulder_3d_y,right_shoulder_3d_z,right_elbow_3d_x,right_elbow_3d_y,right_elbow_3d_z,left_wrist_3d_x,left_wrist_3d_y,left_wrist_3d_z,right_wrist_3d_x,right_wrist_3d_y,right_wrist_3d_z,left_hip_3d_x,left_hip_3d_y,left_hip_3d_z,right_hip_3d_x,right_hip_3d_y,right_hip_3d_z,left_knee_3d_x,left_knee_3d_y,left_knee_3d_z,right_knee_3d_x,right_knee_3d_y,right_knee_3d_z,left_ankle_3d_x,left_ankle_3d_y,left_ankle_3d_z,right_ankle_3d_x,right_ankle_3d_y,right_ankle_3d_z,activity_label
0,-0.0193325,0.7487784999999999,-0.013981,-0.1851545,0.4930185,-0.021497,-0.2363645,0.2272885,-0.016903,0.1587355,0.4893785,-0.041243,0.2135355,0.2324585,-0.049714,-0.1787645,-0.0007545,-0.070217,0.1584555,-0.0222625,-0.1313969999999999,-0.0805495,-0.0004374999999999,-0.000514,0.0805495,0.0004374999999999,0.000514,-0.0880595,-0.4631815,0.044209,0.1208655,-0.4606314999999999,0.045127,-0.1022445,-0.8334115000000001,0.074664,0.1394155,-0.8352715000000001,0.063828,0
1,-0.019108,0.7489800000000001,-0.013227,-0.184844,0.49318,-0.020861,-0.235094,0.22707,-0.015012,0.1588159999999999,0.48949,-0.040281,0.213026,0.23509,-0.047515,-0.178304,0.001738,-0.066291,0.158266,-0.023194,-0.126231,-0.080585,-0.0002789999999999,-0.000259,0.080585,0.000279,0.0002589999999999,-0.087921,-0.46294,0.045215,0.121096,-0.46033,0.0461419999999999,-0.102084,-0.83273,0.075827,0.139686,-0.835,0.064829,0
2,-0.0191894999999999,0.749237,-0.0126134999999999,-0.1849955,0.493027,-0.0204654999999999,-0.2338455,0.226707,-0.0130444999999999,0.1588845,0.489367,-0.0399434999999999,0.2130545,0.234917,-0.0467495,-0.1786055,0.002801,-0.0636414999999999,0.1600545,-0.0231679999999999,-0.1228445,-0.0805995,-0.0002979999999999,-0.0001494999999999,0.0805995,0.000298,0.0001495,-0.0878845,-0.462953,0.0456675,0.1210345,-0.4601329999999999,0.0464395,-0.1019555,-0.832853,0.0762665,0.1399345,-0.835233,0.0652655,0
3,-0.019652,0.7491840000000001,-0.0127405,-0.18491,0.492884,-0.0205455,-0.2345,0.227064,-0.0104585,0.1587799999999999,0.489324,-0.0399114999999999,0.2130699999999999,0.234984,-0.0464685,-0.17833,-0.003438,-0.0630135,0.1621,-0.0234769999999999,-0.1216035,-0.080612,-0.0002639999999999,-6.450000000000206e-05,0.080612,0.0002639999999999,6.450000000000206e-05,-0.087929,-0.462936,0.0459035,0.12091,-0.460666,0.0468875,-0.102,-0.8324659999999999,0.0763045,0.13981,-0.834986,0.0655905,0
4,-0.0199214999999999,0.7492415,-0.012852,-0.1852305,0.4927514999999999,-0.020606,-0.2349105,0.2261515,-0.008731,0.1579094999999999,0.4889415,-0.040974,0.2125695,0.2334415,-0.046322,-0.1799005,-0.0088615,-0.063922,0.1662294999999999,-0.0262314999999999,-0.120332,-0.0806195,-0.0002654999999999,-3.500000000000031e-05,0.0806195,0.0002655,3.500000000000031e-05,-0.0880335,-0.4630585,0.045771,0.1207595,-0.4605285,0.046727,-0.1017805,-0.8325785,0.076332,0.1398694999999999,-0.8346985,0.06553,0
5,-0.0205974999999999,0.749588,-0.0135884999999999,-0.1861104999999999,0.492558,-0.0205375,-0.2362604999999999,0.225458,-0.0076354999999999,0.1572595,0.488958,-0.0416125,0.2123795,0.231658,-0.0461074999999999,-0.1852005,-0.017588,-0.0705235,0.1759595,-0.029351,-0.1204835,-0.0805535,-0.000419,0.0001715,0.0805535,0.000419,-0.0001714999999999,-0.0883264999999999,-0.463152,0.0456045,0.1204395,-0.460582,0.0465515,-0.1019804999999999,-0.832412,0.0760494999999999,0.1395695,-0.834302,0.0654815,0
6,-0.0212039999999999,0.7500114999999999,-0.0142194999999999,-0.1868059999999999,0.4923215,-0.0209924999999999,-0.237796,0.2269915,-0.0066555,0.156634,0.4889415,-0.0427105,0.212534,0.2288215,-0.0455664999999999,-0.194596,-0.0229065,-0.0780344999999999,0.189064,-0.0279925,-0.1223445,-0.080432,-0.0005785,0.0002995,0.080432,0.0005785,-0.0002995,-0.088874,-0.4630185,0.0450695,0.119934,-0.4603285,0.0460265,-0.102386,-0.8322685000000001,0.0755335,0.139044,-0.8340285000000001,0.0649204999999999,0
7,-0.0229215,0.7492004999999999,-0.017064,-0.1888145,0.4933205,-0.022091,-0.2549645,0.2307905,-0.016093,0.1552855,0.4889405,-0.044816,0.2226355,0.2341005,-0.052547,-0.2395545,0.0048445,-0.092015,0.2196255,-0.0177675,-0.146075,-0.0799074999999999,-0.0010915,0.000591,0.0799074999999999,0.0010915,-0.000591,-0.0901734999999999,-0.4629795,0.043559,0.1187554999999999,-0.4603695,0.044038,-0.1037545,-0.8321095000000001,0.0738159999999999,0.1380055,-0.8345595,0.063089,0
8,-0.023522,0.749229,-0.017798,-0.189622,0.493449,-0.022294,-0.260612,0.232189,-0.017123,0.154718,0.488889,-0.045564,0.225788,0.234769,-0.0541339999999999,-0.255052,0.0070999999999999,-0.097219,0.2336379999999999,-0.0155249999999999,-0.151479,-0.079769,-0.0012469999999999,0.0007699999999999,0.079769,0.0012469999999999,-0.0007699999999999,-0.090568,-0.462961,0.043287,0.118398,-0.460331,0.043626,-0.1040619999999999,-0.831961,0.0734259999999999,0.137708,-0.834511,0.062709,0
9,-0.024117,0.7492485,-0.018674,-0.190419,0.4935685,-0.022592,-0.2665389999999999,0.2336585,-0.018548,0.154241,0.4888585,-0.04635,0.229091,0.2349985,-0.056101,-0.2703489999999999,0.0092325,-0.103223,0.246681,-0.0129745,-0.157503,-0.079623,-0.0014265,0.0009269999999999,0.079623,0.0014265,-0.000927,-0.090965,-0.4629715,0.0428739999999999,0.118041,-0.4603315,0.043063,-0.104359,-0.8318415,0.072845,0.1373909999999999,-0.8345115,0.0622139999999999,0
10,-0.0246645,0.7492075,-0.0195405,-0.1911505,0.4936875,-0.0229335,-0.2718305,0.2345875,-0.0202485,0.1538195,0.4888275,-0.0471375,0.2321095,0.2349975,-0.0580585,-0.2834105,0.0112185,-0.1081205,0.2569795,-0.0108895,-0.1632905,-0.0794805,-0.0016034999999999,0.0010544999999999,0.0794805,0.0016034999999999,-0.0010544999999999,-0.0913495,-0.4629824999999999,0.0424094999999999,0.1177095,-0.4603425,0.0424514999999999,-0.1046304999999999,-0.8317424999999999,0.0722225,0.1370695,-0.8345225,0.0616754999999999,0
11,-0.0251595,0.7491405,-0.0203964999999999,-0.1917944999999999,0.4938005,-0.0232355,-0.2764945,0.2353205,-0.0220855,0.1534654999999999,0.4887805,-0.0478304999999999,0.2345455,0.2343805,-0.0596864999999999,-0.2935045,0.0132235,-0.1119735,0.2640254999999999,-0.0089925,-0.1679335,-0.0793425,-0.0017575,0.0011435,0.0793425,0.0017575,-0.0011434999999999,-0.0916515,-0.4630295,0.0419765,0.1174455,-0.4603895,0.0418975,-0.1048345,-0.8316795,0.0716425,0.1368255,-0.8345895,0.0611585,0
12,-0.025384,0.749047,-0.0208755,-0.192159,0.493897,-0.0233505,-0.278779,0.2354969999999999,-0.0239045,0.153361,0.488707,-0.0481915,0.235901,0.233757,-0.0610015,-0.295979,0.013963,-0.1134184999999999,0.265321,-0.0075509999999999,-0.1698985,-0.079301,-0.001852,0.0011274999999999,0.079301,0.001852,-0.0011275,-0.0917719999999999,-0.463103,0.0417574999999999,0.117371,-0.460483,0.0415505,-0.1048689999999999,-0.8316429999999999,0.0712724999999999,0.136761,-0.834723,0.0608465,0
13,-0.0255335,0.748992,-0.0212824999999999,-0.1924285,0.493962,-0.0234745,-0.2788285,0.2354419999999999,-0.0250425,0.1533215,0.488652,-0.0484905,0.2358715,0.233072,-0.0615234999999999,-0.2959985,0.013908,-0.1137825,0.2653015,-0.007561,-0.1701725,-0.0792915,-0.001926,0.0010994999999999,0.0792915,0.001926,-0.0010994999999999,-0.0918175,-0.463078,0.0416175,0.1173314999999999,-0.4605379999999999,0.0412745,-0.1048985,-0.8316279999999999,0.0710205,0.1367315,-0.834878,0.0605935,0
14,-0.0256655,0.7489635,-0.0216145,-0.1926305,0.4939535,-0.0236575,-0.2788505,0.2354135,-0.0253925,0.1532695,0.4886335,-0.0487865,0.2358595,0.2326835,-0.0617864999999999,-0.2960105,0.0138795,-0.1140455,0.2652895,-0.0075894999999999,-0.1704355,-0.0792885,-0.0019665,0.0010854999999999,0.0792885,0.0019665,-0.0010854999999999,-0.0918395,-0.4629965,0.0415025,0.1173095,-0.4605665,0.0409944999999999,-0.1049305,-0.8316564999999999,0.0707845,0.1367195,-0.8349265,0.0603365,0
15,-0.0257855,0.7489635,-0.0216925,-0.1927735,0.4939635,-0.0236525,-0.2788435,0.2354234999999999,-0.0253925,0.1532365,0.4886435,-0.0488185,0.2358665,0.2326935,-0.0617864999999999,-0.2960035,0.0138895,-0.1140455,0.2652965,-0.0075794999999999,-0.1704355,-0.0792815,-0.0019765,0.0010854999999999,0.0792815,0.0019765,-0.0010854999999999,-0.0918404999999999,-0.4628965,0.0416125,0.1172965,-0.4605665,0.0409845,-0.1049535,-0.8316465,0.0708055,0.1367065,-0.8349365,0.0603405,0
16,-0.025896,0.748974,-0.0217875,-0.192845,0.493974,-0.0236504999999999,-0.2784549999999999,0.2350239999999999,-0.0254054999999999,0.1532049999999999,0.488654,-0.0488605,0.235645,0.232704,-0.0617795,-0.2931749999999999,0.013027,-0.1141365,0.262125,-0.0075689999999999,-0.1691965,-0.079256,-0.001987,0.0010845,0.079256,0.001987,-0.0010845,-0.09182,-0.462786,0.0416605,0.117295,-0.460566,0.0409735,-0.104965,-0.8315859999999999,0.0708304999999999,0.136715,-0.834916,0.0603285,0
17,-0.0259985,0.749006,-0.021939,-0.1928335,0.493976,-0.023651,-0.2758635,0.2341059999999999,-0.0254889999999999,0.1531664999999999,0.488656,-0.048903,0.2339365,0.232186,-0.061461,-0.2839135,0.010389,-0.113188,0.2552264999999999,-0.008541,-0.1663279999999999,-0.0792374999999999,-0.001989,0.0010839999999999,0.0792374999999999,0.001989,-0.001084,-0.0917775,-0.4626639999999999,0.041703,0.1172965,-0.460564,0.040964,-0.1049335,-0.831524,0.070889,0.1367265,-0.8348840000000001,0.060335,0
18,-0.0260579999999999,0.749071,-0.0220825,-0.192802,0.493811,-0.0237405,-0.272092,0.2327209999999999,-0.0256015,0.153118,0.488661,-0.0489585,0.231168,0.230931,-0.0606734999999999,-0.271922,0.009568,-0.1112944999999999,0.245638,-0.0104009999999999,-0.1621545,-0.079249,-0.001985,0.0010854999999999,0.079249,0.001985,-0.0010854999999999,-0.091695,-0.462539,0.0417345,0.117348,-0.460569,0.0409304999999999,-0.1048419999999999,-0.831479,0.0709585,0.136778,-0.8348990000000001,0.0603395,0
19,-0.02603,0.749124,-0.0220264999999999,-0.1926189999999999,0.493614,-0.0236245,-0.267109,0.231244,-0.0252685,0.153161,0.4886939999999999,-0.0487774999999999,0.228081,0.229354,-0.0596615,-0.257829,0.006188,-0.1089245,0.233701,-0.013298,-0.1569145,-0.079313,-0.001971,0.0010284999999999,0.079313,0.001971,-0.0010285,-0.091502,-0.462406,0.0419985,0.117501,-0.460546,0.0411235,-0.1046489999999999,-0.8312959999999999,0.0712135,0.136931,-0.834896,0.0605674999999999,0
20,-0.0259249999999999,0.749195,-0.021761,-0.1923579999999999,0.493395,-0.023357,-0.261588,0.229725,-0.025191,0.153262,0.488745,-0.048386,0.224662,0.228245,-0.058946,-0.244398,0.002128,-0.1088619999999999,0.222772,-0.016508,-0.153852,-0.079397,-0.001962,0.0009599999999999,0.079397,0.001962,-0.00096,-0.09125,-0.462325,0.042467,0.117712,-0.460505,0.041477,-0.104398,-0.8310949999999999,0.071671,0.137162,-0.834935,0.060979,0
21,-0.025799,0.7492995,-0.0213809999999999,-0.192089,0.4931295,-0.023103,-0.258499,0.2297995,-0.0249099999999999,0.1533709999999999,0.4887995,-0.0479929999999999,0.2223909999999999,0.2282795,-0.058448,-0.237919,0.0013505,-0.10862,0.217101,-0.0183795,-0.15328,-0.079481,-0.0019575,0.001037,0.079481,0.0019575,-0.0010369999999999,-0.090989,-0.4622305,0.042941,0.117931,-0.4604605,0.04179,-0.104129,-0.8309005,0.072105,0.137381,-0.8350405000000001,0.061361,0
22,-0.0256775,0.749379,-0.0212084999999999,-0.1917855,0.492749,-0.0230265,-0.2582155,0.229819,-0.0248394999999999,0.1534245,0.488829,-0.0478215,0.2226645,0.2282789999999999,-0.0584244999999999,-0.2376355,0.0013499999999999,-0.1085624999999999,0.2173845,-0.01838,-0.1531925,-0.0795775,-0.001958,0.0011095,0.0795775,0.0019579999999999,-0.0011094999999999,-0.0907155,-0.462221,0.0431375,0.1181145,-0.460451,0.0417945,-0.1038755,-0.830741,0.0722605,0.1376045,-0.835181,0.0614655,0
23,-0.025601,0.74943,-0.0212475,-0.191449,0.49239,-0.0230595,-0.257939,0.2298,-0.0248854999999999,0.1534009999999999,0.4888499999999999,-0.0478155,0.222941,0.22826,-0.0584704999999999,-0.237359,0.001336,-0.1086085,0.217661,-0.018399,-0.1532385,-0.079684,-0.001957,0.0011654999999999,0.079684,0.001957,-0.0011654999999999,-0.0904399999999999,-0.46224,0.0431445,0.118281,-0.46045,0.0415605,-0.103639,-0.8305899999999999,0.0722765,0.137841,-0.83532,0.0613925,0
24,-0.0255995,0.7494875000000001,-0.0213239999999999,-0.1912025,0.4923575,-0.0231269999999999,-0.2578525,0.2304375,-0.0293049999999999,0.1532675,0.4888875,-0.047857,0.2230774999999999,0.2295775,-0.0615029999999999,-0.2373025,0.0013035,-0.113979,0.2177374999999999,-0.0184315,-0.157949,-0.0797465,-0.0019705,0.00115,0.0797465,0.0019705,-0.0011499999999999,-0.0902235,-0.4622125,0.043098,0.1184375,-0.4604425,0.041368,-0.1034325,-0.8307125,0.072215,0.1380374999999999,-0.8354324999999999,0.06122,0
25,-0.0256445,0.7495715,-0.021162,-0.1910375,0.4923215,-0.0231499999999999,-0.2582475,0.2331915,-0.0364529999999999,0.1530025,0.4890415,-0.0479149999999999,0.2231525,0.2338615,-0.068488,-0.2389575,0.0034015,-0.1252579999999999,0.2188125,-0.0158635,-0.171228,-0.0797725,-0.0019805,0.001128,0.0797725,0.0019805,-0.0011279999999999,-0.0900735,-0.4622085,0.043056,0.1185924999999999,-0.4604385,0.041226,-0.1032474999999999,-0.8308085,0.072126,0.1382125,-0.8354885,0.061055,0
26,-0.0257135,0.7496375,-0.020618,-0.1908385,0.4922675,-0.023077,-0.2624585,0.2409775,-0.046029,0.1526515,0.4894575,-0.047623,0.2259915,0.2432075,-0.079221,-0.2496185,0.0155985,-0.1404409999999999,0.2269015,-0.0051285,-0.1918909999999999,-0.0797765,-0.0019855,0.001145,0.0797765,0.0019855,-0.001145,-0.0899415,-0.4622525,0.0431039999999999,0.1187815,-0.4604025,0.041166,-0.1030885,-0.8308025,0.072104,0.1383915,-0.8355625,0.060977,0
27,-0.0259879999999999,0.7494695,-0.0197514999999999,-0.19071,0.4919595,-0.0227515,-0.27334,0.2579295,-0.0576415,0.15228,0.4903495,-0.0470234999999999,0.23366,0.2605495,-0.0941934999999999,-0.27507,0.0480665,-0.1623735,0.24433,0.0297535,-0.2183235,-0.079744,-0.0020155,0.0012675,0.079744,0.0020155,-0.0012674999999999,-0.089881,-0.4625505,0.0429645,0.11891,-0.4605405,0.0408635,-0.10299,-0.8310605,0.0718025,0.13852,-0.8358005,0.0606225,0
28,-0.0263759999999999,0.749112,-0.0188604999999999,-0.190821,0.4918019999999999,-0.0222034999999999,-0.287901,0.2802719999999999,-0.0701485,0.151939,0.491442,-0.0466124999999999,0.243509,0.283282,-0.1106085,-0.306481,0.0912709999999999,-0.1856985,0.266699,0.074546,-0.2478884999999999,-0.079677,-0.002056,0.0014425,0.079677,0.0020559999999999,-0.0014424999999999,-0.089914,-0.463088,0.0428825,0.118959,-0.460918,0.0404285,-0.1029509999999999,-0.8315779999999999,0.0713625,0.138559,-0.8362879999999999,0.0601335,0
29,-0.0267265,0.7484855,-0.0180225,-0.1910695,0.4918055,-0.0219475,-0.3037995,0.3083154999999999,-0.0829854999999999,0.1516005,0.4926855,-0.0462814999999999,0.2544705,0.3120655,-0.1285555,-0.3425995,0.1453055,-0.2081555,0.2917705,0.1294955,-0.2776655,-0.0796685,-0.0020895,0.0016175,0.0796685,0.0020895,-0.0016175,-0.0899225,-0.4637445,0.0428475,0.1190305,-0.4615845,0.0400215,-0.1028995,-0.8323944999999999,0.0709414999999999,0.1386405,-0.8370945,0.0596705,0
30,-0.027104,0.7475980000000001,-0.017532,-0.1914779999999999,0.491938,-0.021831,-0.321178,0.340588,-0.09515,0.151522,0.494668,-0.046168,0.266872,0.3458779999999999,-0.1463499999999999,-0.382138,0.2087679999999999,-0.22953,0.318032,0.1958379999999999,-0.30632,-0.0796679999999999,-0.002159,0.0017419999999999,0.0796679999999999,0.002159,-0.001742,-0.089944,-0.464632,0.0427349999999999,0.119102,-0.462652,0.039568,-0.102878,-0.8334619999999999,0.070442,0.138762,-0.838202,0.059155,0
31,-0.027542,0.746575,-0.0173224999999999,-0.1920589999999999,0.492495,-0.0219065,-0.340129,0.378975,-0.1057105,0.1515909999999999,0.496925,-0.0463575,0.280121,0.383875,-0.1635205,-0.421109,0.282725,-0.2461505,0.344621,0.272765,-0.3316705,-0.079667,-0.002245,0.0018005,0.079667,0.002245,-0.0018004999999999,-0.089962,-0.465715,0.0427005,0.119181,-0.463985,0.0391945,-0.102829,-0.834785,0.0700135,0.1388809999999999,-0.8395549999999999,0.0587095,0
32,-0.0280389999999999,0.7455265000000001,-0.017621,-0.192802,0.4938065,-0.022154,-0.359902,0.4222265,-0.114885,0.151658,0.4992665,-0.046736,0.294338,0.4254465,-0.178345,-0.455982,0.3636465,-0.2563249999999999,0.3681979999999999,0.3577465,-0.349695,-0.079589,-0.0023114999999999,0.0018279999999999,0.079589,0.0023115,-0.0018279999999999,-0.0899659999999999,-0.4670635,0.0426319999999999,0.119258,-0.4656535,0.03888,-0.102782,-0.8364434999999999,0.069587,0.139018,-0.8412035,0.058265,0
33,-0.028582,0.74427,-0.017793,-0.193716,0.49537,-0.0222779999999999,-0.374806,0.46465,-0.1171769999999999,0.151714,0.5021800000000001,-0.04694,0.307314,0.46827,-0.187777,-0.481646,0.45355,-0.257587,0.385614,0.44911,-0.357817,-0.079465,-0.002373,0.001794,0.079465,0.002373,-0.001794,-0.089981,-0.46869,0.042757,0.119324,-0.4677,0.038801,-0.102736,-0.83857,0.069374,0.139204,-0.8431200000000001,0.058041,0
34,-0.0290579999999999,0.742737,-0.0177775,-0.194625,0.497197,-0.0222484999999999,-0.386335,0.507727,-0.1168115,0.151915,0.5053570000000001,-0.0469584999999999,0.3159949999999999,0.509657,-0.1913715,-0.499055,0.544077,-0.2570314999999999,0.396445,0.5410470000000001,-0.3581614999999999,-0.079324,-0.002367,0.0017894999999999,0.079324,0.0023669999999999,-0.0017894999999999,-0.089902,-0.470593,0.0430615,0.119475,-0.4701929999999999,0.0389245,-0.102605,-0.841123,0.0693575,0.139465,-0.845443,0.0580004999999999,0
35,-0.0295299999999999,0.741062,-0.017762,-0.1955549999999999,0.499192,-0.0222189999999999,-0.394685,0.546782,-0.116537,0.152495,0.5085419999999999,-0.047017,0.322515,0.5484319999999999,-0.191577,-0.508455,0.628652,-0.256727,0.400105,0.627432,-0.3582769999999999,-0.0791439999999999,-0.002351,0.001784,0.0791439999999999,0.0023509999999999,-0.0017839999999999,-0.089806,-0.472628,0.043214,0.119655,-0.472948,0.039026,-0.102445,-0.843878,0.069352,0.139725,-0.848028,0.057943,0
36,-0.0298505,0.7392529999999999,-0.018458,-0.1964145,0.501263,-0.022191,-0.3973745,0.580383,-0.116455,0.1533355,0.511463,-0.0471529999999999,0.3244255,0.581303,-0.191645,-0.5082144999999999,0.695213,-0.256735,0.4003454999999999,0.695313,-0.3582849999999999,-0.0789335,-0.002417,0.001777,0.0789335,0.0024169999999999,-0.001777,-0.0896605,-0.474747,0.043236,0.1198955,-0.475827,0.039018,-0.1022245,-0.846857,0.069339,0.1400255,-0.850767,0.057883,0
37,-0.0302085,0.737258,-0.0198734999999999,-0.1970645,0.5034479999999999,-0.0220124999999999,-0.3975545,0.609108,-0.1153645,0.1544155,0.514558,-0.0473355,0.3248055,0.6126879999999999,-0.1913445,-0.5076944999999999,0.752848,-0.2496244999999999,0.4007855,0.7545879999999999,-0.3533945,-0.0786595,-0.0024619999999999,0.0018105,0.0786595,0.0024619999999999,-0.0018104999999999,-0.0894605,-0.476902,0.0435395,0.1201955,-0.478802,0.0393185,-0.1019445,-0.849812,0.0696335,0.1403555,-0.8536720000000001,0.0581325,0
38,-0.0305775,0.7353759999999999,-0.021756,-0.1976294999999999,0.505786,-0.021822,-0.3970995,0.634166,-0.110684,0.1557805,0.5176459999999999,-0.047568,0.3251405,0.638606,-0.190284,-0.5069395,0.801986,-0.235834,0.4015105,0.810346,-0.340434,-0.0783814999999999,-0.002462,0.0018229999999999,0.0783814999999999,0.0024619999999999,-0.0018229999999999,-0.0893015,-0.478884,0.0441649999999999,0.1205205,-0.4816939999999999,0.039939,-0.1016495,-0.852684,0.070252,0.1407105,-0.8565440000000001,0.058698,0
39,-0.0308695,0.7336130000000001,-0.024279,-0.1980955,0.508363,-0.021724,-0.3964855,0.654903,-0.1033289999999999,0.1572345,0.519903,-0.047969,0.3257045,0.6601130000000001,-0.184509,-0.5031355,0.841743,-0.213779,0.3981145,0.8551030000000001,-0.321049,-0.0781285,-0.0024309999999999,0.0017849999999999,0.0781285,0.002431,-0.0017849999999999,-0.0890935,-0.480717,0.045217,0.1208745,-0.484527,0.040985,-0.1013055,-0.855347,0.071293,0.1411345,-0.859267,0.05968,0
40,-0.0308619999999999,0.7317945,-0.0268845,-0.19829,0.5107245,-0.0215005,-0.3956,0.6693745,-0.0941625,0.15895,0.5220645,-0.0479195,0.32655,0.6778245,-0.1765725,-0.4941899999999999,0.8714445000000001,-0.1887225,0.39117,0.8907645000000001,-0.2967725,-0.077909,-0.0023815,0.0016614999999999,0.077909,0.0023814999999999,-0.0016615,-0.088832,-0.4822155,0.0463275,0.12133,-0.4873855,0.0423345,-0.1006999999999999,-0.8579555,0.0727425,0.14177,-0.8619255,0.0610835,0
41,-0.0306685,0.7298785,-0.029378,-0.1982944999999999,0.5123885,-0.020748,-0.3942445,0.6788084999999999,-0.084522,0.1607355,0.5239984999999999,-0.047598,0.3268255,0.6916285,-0.166762,-0.4830045,0.8923185,-0.164752,0.3823355,0.9183885,-0.271382,-0.0776885,-0.0023434999999999,0.00161,0.0776885,0.0023435,-0.00161,-0.0885604999999999,-0.4835914999999999,0.047497,0.1217655,-0.4900015,0.043691,-0.1000345,-0.8602815,0.074354,0.1424655,-0.8643715000000001,0.06259,0
42,-0.0303485,0.727955,-0.031692,-0.1981055,0.513835,-0.019833,-0.3919455,0.686675,-0.0754799999999999,0.1622845,0.525415,-0.0471129999999999,0.3259045,0.701745,-0.15694,-0.4699855,0.903695,-0.14251,0.3735044999999999,0.938035,-0.24697,-0.0774885,-0.002276,0.0015109999999999,0.0774885,0.002276,-0.0015109999999999,-0.0884345,-0.484555,0.048541,0.1221245,-0.492275,0.044925,-0.0993755,-0.8622650000000001,0.0759519999999999,0.1431245,-0.8666550000000001,0.064094,0
43,-0.029898,0.7263625,-0.0337804999999999,-0.197824,0.5151525,-0.0188034999999999,-0.387854,0.6924425,-0.0680165,0.1637559999999999,0.5264425,-0.0464134999999999,0.324376,0.7105525,-0.1475765,-0.458464,0.9114825,-0.1255065,0.365516,0.9530625,-0.2257064999999999,-0.077323,-0.0022224999999999,0.0015295,0.077323,0.0022224999999999,-0.0015294999999999,-0.088336,-0.4850675,0.0493595,0.122396,-0.4940675,0.0459405,-0.098694,-0.8637175,0.0773755,0.143816,-0.8684975,0.0654415,0
44,-0.0293349999999999,0.724933,-0.0354555,-0.197514,0.516463,-0.0176475,-0.384314,0.6976030000000001,-0.0614705,0.1649459999999999,0.527323,-0.0455925,0.321986,0.717523,-0.1399205,-0.449464,0.915843,-0.1125705,0.358826,0.965723,-0.2092405,-0.077181,-0.002148,0.0016404999999999,0.077181,0.0021479999999999,-0.0016405,-0.088265,-0.485357,0.0500444999999999,0.122636,-0.495527,0.0467844999999999,-0.0979739999999999,-0.864807,0.0787185,0.144436,-0.870077,0.0666954999999999,0
45,-0.0286505,0.7238644999999999,-0.0365194999999999,-0.1971155,0.5176445000000001,-0.0164845,-0.3822355,0.6994045,-0.0574735,0.1660645,0.5279745,-0.0445455,0.3195544999999999,0.7229345,-0.1338565,-0.4422955,0.9197845,-0.1032665,0.3536845,0.9737045,-0.1953565,-0.0771035,-0.0019615,0.0016035,0.0771035,0.0019614999999999,-0.0016035,-0.0881695,-0.4853255,0.0506165,0.1229145,-0.4965755,0.0475265,-0.0972455,-0.8654154999999999,0.0799785,0.1450445,-0.8713555,0.0678725,0
46,-0.0280199999999999,0.7230515000000001,-0.0369865,-0.1967229999999999,0.5185915,-0.0154165,-0.380553,0.7014515,-0.0544465,0.166997,0.5282115000000001,-0.0434235,0.319017,0.7246315,-0.1297665,-0.437203,0.9228015,-0.0979365,0.349537,0.9807815,-0.1858365,-0.077058,-0.0018095,0.0015324999999999,0.077058,0.0018094999999999,-0.0015324999999999,-0.08814,-0.4850985,0.0510565,0.123107,-0.4974185,0.0480005,-0.096603,-0.8657684999999999,0.0811365,0.145577,-0.8724084999999999,0.0689305,0
47,-0.027379,0.722416,-0.0370675,-0.196206,0.5192859999999999,-0.0144315,-0.378916,0.701676,-0.0524774999999999,0.167774,0.528356,-0.0423795,0.318404,0.725876,-0.1260195,-0.433026,0.924306,-0.0953295,0.346894,0.981516,-0.1781195,-0.077017,-0.001707,0.0014674999999999,0.077017,0.0017069999999999,-0.0014675,-0.088046,-0.484924,0.0514545,0.123334,-0.498104,0.0484555,-0.095946,-0.865934,0.0822535,0.146164,-0.8733139999999999,0.0699545,0
48,-0.0267045,0.721753,-0.036659,-0.1956355,0.5196930000000001,-0.013515,-0.3772855,0.702153,-0.051144,0.1685245,0.528653,-0.041392,0.3178045,0.726553,-0.122829,-0.4293455,0.925143,-0.094149,0.3445245,0.982413,-0.171759,-0.0769785,-0.0016189999999999,0.0014219999999999,0.0769785,0.001619,-0.0014219999999999,-0.0879485,-0.484697,0.0518459999999999,0.1235345,-0.498807,0.048905,-0.0953455,-0.866037,0.083291,0.1467045,-0.874147,0.070919,0
49,-0.0260579999999999,0.721303,-0.0361525,-0.1951879999999999,0.519933,-0.0128665,-0.376178,0.7029030000000001,-0.0504385,0.168982,0.528803,-0.0405955,0.317232,0.7268830000000001,-0.1209025,-0.426958,0.925003,-0.0934825,0.342902,0.982623,-0.1689225,-0.076959,-0.0015449999999999,0.0013784999999999,0.076959,0.001545,-0.0013785,-0.087857,-0.4845969999999999,0.0521665,0.123612,-0.4992769999999999,0.0491304999999999,-0.094958,-0.865857,0.0840625,0.1470719999999999,-0.874767,0.0716125,0
50,-0.0255499999999999,0.720988,-0.035648,-0.1948889999999999,0.520148,-0.012343,-0.375129,0.703958,-0.0499,0.169291,0.529138,-0.0399049999999999,0.3163809999999999,0.727258,-0.11923,-0.424689,0.924918,-0.0929899999999999,0.341421,0.982648,-0.16706,-0.076957,-0.001485,0.001247,0.076957,0.001485,-0.0012469999999999,-0.0878799999999999,-0.484382,0.052386,0.1236009999999999,-0.499682,0.049304,-0.094719,-0.865642,0.084624,0.147261,-0.875292,0.072131,0
51,-0.0250605,0.72073,-0.0351979999999999,-0.1946044999999999,0.52037,-0.011887,-0.3741145,0.7050799999999999,-0.049468,0.1695755,0.52945,-0.039256,0.3155155,0.72778,-0.117894,-0.4223645,0.92522,-0.092594,0.3402155,0.98285,-0.166014,-0.0769495,-0.0014669999999999,0.001174,0.0769495,0.001467,-0.001174,-0.0877765,-0.48431,0.052622,0.1236255,-0.49997,0.049449,-0.0944845,-0.8654200000000001,0.085129,0.1474455,-0.8757400000000001,0.072591,0
52,-0.024713,0.720555,-0.0348165,-0.194375,0.5205949999999999,-0.0115564999999999,-0.373165,0.7066749999999999,-0.0497895,0.169715,0.529875,-0.0386575,0.314465,0.728445,-0.1166965,-0.420255,0.925665,-0.0940165,0.339435,0.982695,-0.1655365,-0.076936,-0.0014619999999999,0.0011115,0.076936,0.0014619999999999,-0.0011115,-0.0877189999999999,-0.484355,0.0528655,0.123645,-0.500185,0.0495715,-0.094365,-0.865195,0.0855705,0.147505,-0.876155,0.0729815,0
53,-0.0244495,0.7203825,-0.0345489999999999,-0.1941895,0.5207025000000001,-0.011314,-0.3721895,0.7083425000000001,-0.050505,0.1698005,0.5303625000000001,-0.038162,0.3133505,0.7292225,-0.1156539999999999,-0.4182995,0.9261725,-0.095904,0.3386105,0.9829725,-0.165154,-0.0769384999999999,-0.0014694999999999,0.0009849999999999,0.0769384999999999,0.0014694999999999,-0.0009849999999999,-0.0876855,-0.4844075,0.0530649999999999,0.1236305,-0.5003575,0.0496529999999999,-0.0942895,-0.8649775,0.08591,0.1475405,-0.8765775,0.073328,0
54,-0.0243094999999999,0.7202505,-0.034336,-0.1940765,0.5207905,-0.011209,-0.3712165,0.7097905,-0.05156,0.1697634999999999,0.5308805000000001,-0.037776,0.3122535,0.7299105,-0.114911,-0.4151565,0.9333405,-0.099741,0.3376135,0.9832605,-0.164831,-0.0769354999999999,-0.0014844999999999,0.0009189999999999,0.0769354999999999,0.0014844999999999,-0.000919,-0.0877014999999999,-0.4844795,0.0532489999999999,0.1235535,-0.5005395,0.049696,-0.0942865,-0.8648395,0.0861889999999999,0.1474835,-0.8769895,0.073609,0
55,-0.0241944999999999,0.7201915,-0.034236,-0.1939825,0.5209515,-0.011246,-0.3702625,0.7111015,-0.052826,0.1697074999999999,0.5312415,-0.037623,0.3112275,0.7304915,-0.1143299999999999,-0.4122225,0.9398115,-0.10338,0.3365975,0.9832015,-0.16485,-0.0769395,-0.0014865,0.000798,0.0769395,0.0014864999999999,-0.000798,-0.0877415,-0.4844585,0.053304,0.1235074999999999,-0.5005985000000001,0.0497549999999999,-0.0943425,-0.8647684999999999,0.086312,0.1474275,-0.8773585,0.073784,0
56,-0.0241015,0.720117,-0.0341775,-0.1938905,0.521127,-0.0114605,-0.3692105,0.712317,-0.0543205,0.1696595,0.5316569999999999,-0.0375515,0.3102495,0.7310869999999999,-0.1139804999999999,-0.4094505,0.946417,-0.1069104999999999,0.3356595,0.983567,-0.1649005,-0.0769415,-0.001499,0.0007285,0.0769415,0.001499,-0.0007285,-0.0877825,-0.484413,0.0532915,0.1234595,-0.500633,0.0497865,-0.0943805,-0.864803,0.0863625,0.1473695,-0.8777130000000001,0.0739035,0
57,-0.0240804999999999,0.720117,-0.034188,-0.1938274999999999,0.521327,-0.0118149999999999,-0.3681275,0.7134269999999999,-0.05594,0.1695825,0.531747,-0.037549,0.3092825,0.7314569999999999,-0.11395,-0.4069175,0.953097,-0.11016,0.3346725,0.983667,-0.16499,-0.0769245,-0.001499,0.0007279999999999,0.0769245,0.001499,-0.0007279999999999,-0.0878615,-0.484353,0.0531699999999999,0.1233825,-0.500673,0.049683,-0.0944474999999999,-0.864803,0.086363,0.1472725,-0.8780330000000001,0.073934,1
58,-0.0240714999999999,0.7200985,-0.0342665,-0.1938165,0.5213385,-0.0123295,-0.3670564999999999,0.7145385,-0.0576505,0.1694535,0.5317685,-0.0375575,0.3082735,0.7316885,-0.1139305,-0.4042965,0.9597585,-0.1133205,0.3335235,0.9836785,-0.1650505,-0.0769205,-0.0015104999999999,0.0007155,0.0769205,0.0015105,-0.0007155,-0.0880215,-0.4843415,0.0528115,0.1232235,-0.5008615,0.0493905,-0.0945465,-0.8647914999999999,0.0863515,0.1471335,-0.8785715,0.0739255,1
59,-0.024103,0.7200935,-0.0345459999999999,-0.193874,0.5213535,-0.0129779999999999,-0.366064,0.7152835,-0.059479,0.169266,0.5317835,-0.037741,0.307286,0.7317035,-0.1139589999999999,-0.401904,0.9662935,-0.116299,0.332376,0.9835935,-0.165179,-0.076908,-0.0015254999999999,0.000662,0.076908,0.0015255,-0.0006619999999999,-0.088253,-0.4843265,0.052252,0.1229059999999999,-0.5011265,0.048689,-0.0947139999999999,-0.8649865,0.086188,0.146896,-0.8790465,0.073881,1
60,-0.0241594999999999,0.720039,-0.0350679999999999,-0.1939484999999999,0.521449,-0.013973,-0.3651784999999999,0.715399,-0.061409,0.1689915,0.531799,-0.038305,0.3063015,0.731799,-0.1142789999999999,-0.3997584999999999,0.972389,-0.119259,0.3311115,0.983589,-0.165629,-0.0769165,-0.001576,0.000633,0.0769165,0.001576,-0.000633,-0.0885405,-0.4842309999999999,0.051218,0.1225015,-0.501111,0.04746,-0.0949084999999999,-0.865421,0.085763,0.1466215,-0.879421,0.073606,1
61,-0.0243849999999999,0.7199605,-0.0362675,-0.1941919999999999,0.5216405,-0.0156305,-0.364522,0.7156005,-0.0639735,0.168518,0.5319705,-0.0396905,0.305218,0.7320004999999999,-0.1153135,-0.397852,0.9784905,-0.1228035,0.329548,0.9836905,-0.1667635,-0.076935,-0.0016475,0.0007394999999999,0.076935,0.0016474999999999,-0.0007395,-0.089065,-0.4840595,0.0494314999999999,0.121968,-0.5008795,0.0449544999999999,-0.095342,-0.8656795,0.0848065,0.146208,-0.8797395,0.0727875,1
62,-0.0246555,0.7196475,-0.038204,-0.1944305,0.5216875,-0.0180509999999999,-0.3639105,0.7159875,-0.067138,0.1679695,0.5321175,-0.04192,0.3041795,0.7321175,-0.117288,-0.3959105,0.9788775,-0.126848,0.3278995,0.9836775,-0.168518,-0.0769725,-0.0017334999999999,0.000939,0.0769725,0.0017334999999999,-0.0009389999999999,-0.0897235,-0.4837324999999999,0.046912,0.1214695,-0.5004825,0.040707,-0.0958805,-0.8662825,0.083386,0.1457095,-0.8797725,0.07149,1
63,-0.0249444999999999,0.7192345,-0.040983,-0.1946554999999999,0.5215945,-0.0208429999999999,-0.3634055,0.7166545,-0.070799,0.1673445,0.5318945,-0.044638,0.3031445,0.7320245,-0.1200789999999999,-0.3952555,0.9795445,-0.1296689999999999,0.3261445,0.9833445,-0.1711589999999999,-0.0770204999999999,-0.0018345,0.0012539999999999,0.0770204999999999,0.0018344999999999,-0.0012539999999999,-0.0905874999999999,-0.4831555,0.043416,0.1208745,-0.4996855,0.034459,-0.0964754999999999,-0.8666655,0.08144,0.1451645,-0.8794555000000001,0.069715,1
64,-0.0252605,0.7183315,-0.0448749999999999,-0.1948495,0.5214015,-0.02411,-0.3628695,0.7169015,-0.075439,0.1666905,0.5313715,-0.0485979999999999,0.3021304999999999,0.7314815,-0.1240689999999999,-0.3943195,0.9805515,-0.1332789999999999,0.3243105,0.9828515,-0.174789,-0.0770705,-0.0019544999999999,0.001687,0.0770705,0.0019545,-0.001687,-0.0917305,-0.4825184999999999,0.038685,0.1202405,-0.4984685,0.02625,-0.0970995,-0.8668885000000001,0.078921,0.1445904999999999,-0.8787885,0.067309,1
65,-0.0255894999999999,0.7164545,-0.0504245,-0.1948005,0.5195445,-0.0290575,-0.3620705,0.7150344999999999,-0.0815075,0.1659495,0.5287345,-0.0551485,0.3008595,0.7286944999999999,-0.1300675,-0.3926705,0.9797245,-0.1392175,0.3220495,0.9810245,-0.1809974999999999,-0.0772195,-0.0020175,0.0022124999999999,0.0772195,0.0020174999999999,-0.0022124999999999,-0.0939105,-0.4808854999999999,0.0310674999999999,0.1193895,-0.4960954999999999,0.0151514999999999,-0.0980605,-0.8660955,0.0751805,0.1438495,-0.8770455,0.0636144999999999,1
66,-0.025953,0.7141595000000001,-0.056606,-0.194832,0.5175095000000001,-0.03478,-0.361562,0.7121795000000001,-0.088207,0.165038,0.5257395,-0.062667,0.299628,0.7250795000000001,-0.137257,-0.391192,0.9727195,-0.145767,0.319608,0.9762195,-0.188827,-0.077387,-0.0020825,0.0028499999999999,0.077387,0.0020824999999999,-0.0028499999999999,-0.096692,-0.4785805,0.02214,0.118338,-0.4931705,0.002846,-0.099292,-0.8647005,0.070749,0.142948,-0.8745704999999999,0.059101,1
67,-0.026514,0.7122535,-0.0639235,-0.1948079999999999,0.5149535000000001,-0.0410885,-0.361378,0.7090135,-0.0952794999999999,0.1639419999999999,0.5228635,-0.0706595,0.298232,0.7213235,-0.1452795,-0.3901179999999999,0.9669535,-0.1527095,0.317002,0.9716835,-0.1974395,-0.077588,-0.0020924999999999,0.0034725,0.077588,0.0020925,-0.0034725,-0.099888,-0.4755565,0.0124235,0.117082,-0.4897665,-0.0106475,-0.100788,-0.8626365,0.0659095,0.141922,-0.8710465,0.0540675,1
68,-0.02715,0.7089545,-0.0713185,-0.194915,0.5123545,-0.0475035,-0.361365,0.7055145,-0.1027265,0.162635,0.5197645,-0.0790065,0.296735,0.7170245,-0.1541165,-0.3891449999999999,0.9612045,-0.1603264999999999,0.314035,0.9675045,-0.2066865,-0.077795,-0.0020795,0.0041774999999999,0.077795,0.0020795,-0.0041775,-0.1037549999999999,-0.4718155,0.0017764999999999,0.115745,-0.4856555,-0.0250195,-0.102515,-0.8597855,0.0608315,0.140645,-0.8670455,0.0484635,1
69,-0.0277594999999999,0.7048709999999999,-0.0789629999999999,-0.1949014999999999,0.509671,-0.053921,-0.3613615,0.701861,-0.110363,0.1612285,0.516191,-0.087473,0.2953885,0.712561,-0.163223,-0.3880915,0.955481,-0.168263,0.3108785,0.963661,-0.216373,-0.0780085,-0.0019819999999999,0.004794,0.0780085,0.001982,-0.004794,-0.1080214999999999,-0.467479,-0.0093689999999999,0.1144485,-0.4808989999999999,-0.0396219999999999,-0.1043214999999999,-0.855889,0.055625,0.1393785,-0.862499,0.042797,1
70,-0.028313,0.700406,-0.0873275,-0.1948619999999999,0.506156,-0.0611014999999999,-0.361322,0.697586,-0.1188374999999999,0.159658,0.512316,-0.0963475,0.2939279999999999,0.707736,-0.1735475,-0.386862,0.950846,-0.1776575,0.306868,0.960636,-0.2276875,-0.078061,-0.001873,0.0054654999999999,0.078061,0.0018729999999999,-0.0054655,-0.112942,-0.460584,-0.0225155,0.113388,-0.473494,-0.0556344999999999,-0.106502,-0.849214,0.0494995,0.138048,-0.855334,0.0363075,1
71,-0.0287024999999999,0.6955275000000001,-0.095125,-0.1948515,0.5035775,-0.0675429999999999,-0.3612714999999999,0.6924675,-0.127065,0.1581084999999999,0.5074375000000001,-0.104745,0.2924685,0.7023775000000001,-0.183735,-0.3855415,0.9455675,-0.186995,0.3027785,0.9576575,-0.238725,-0.0781045,-0.0016555,0.00608,0.0781045,0.0016554999999999,-0.00608,-0.1178714999999999,-0.4534625,-0.0358239999999999,0.1126485,-0.4656525,-0.0707209999999999,-0.1086415,-0.8415324999999999,0.043573,0.1366284999999999,-0.8477825,0.0299,1
72,-0.0290234999999999,0.6899609999999999,-0.1026364999999999,-0.1948165,0.502111,-0.0735655,-0.3609165,0.687341,-0.1350365,0.1566335,0.502321,-0.1129965,0.2910635,0.6969609999999999,-0.1937165,-0.3838164999999999,0.935811,-0.1962565,0.2986535,0.955031,-0.2495465,-0.0781465,-0.0014289999999999,0.0064464999999999,0.0781465,0.0014289999999999,-0.0064465,-0.1231464999999999,-0.446289,-0.0497265,0.1122635,-0.456689,-0.0847395,-0.1107664999999999,-0.832809,0.0373195,0.1352635,-0.839099,0.0237095,1
73,-0.0294515,0.6845454999999999,-0.109566,-0.1948155,0.5012055,-0.079341,-0.3606955,0.6820255,-0.1427659999999999,0.1552045,0.4970855,-0.120526,0.2896845,0.6914754999999999,-0.203236,-0.3821854999999999,0.9261955,-0.2050459999999999,0.2946245,0.9525655,-0.259946,-0.0782114999999999,-0.0011954999999999,0.0066929999999999,0.0782114999999999,0.0011954999999999,-0.006693,-0.1284555,-0.4382844999999999,-0.063704,0.1120545,-0.4470645,-0.097826,-0.1129455,-0.8230145000000001,0.0308999999999999,0.1338945,-0.8294845000000001,0.017809,1
74,-0.029941,0.6806765,-0.1146865,-0.1951129999999999,0.4974265,-0.0841995,-0.360973,0.6795865,-0.1490564999999999,0.1539869999999999,0.4941065,-0.1254265,0.288507,0.6883665,-0.2109665,-0.381003,0.9251665,-0.2116365,0.290987,0.9467965,-0.2678465,-0.078126,-0.0010954999999999,0.0069335,0.078126,0.0010954999999999,-0.0069334999999999,-0.133013,-0.4294234999999999,-0.0750875,0.112217,-0.4369035,-0.1083565,-0.114823,-0.8120935,0.0255855,0.1326569999999999,-0.8188835,0.0130565,1
75,-0.0303034999999999,0.6768445,-0.1195529999999999,-0.1953615,0.4948545,-0.088398,-0.3610615,0.6781845,-0.155093,0.1530685,0.4915345,-0.129563,0.2876385,0.6855545,-0.217863,-0.3792915,0.9227645,-0.218183,0.2876885,0.9452345,-0.274213,-0.0780515,-0.0010264999999999,0.007051,0.0780515,0.0010264999999999,-0.007051,-0.1372815,-0.4207055,-0.085898,0.1129185,-0.4267955,-0.118503,-0.1164415,-0.8003555,0.0206949999999999,0.1315785,-0.8074755,0.008868,1
76,-0.0306705,0.6723005,-0.1236065,-0.1956965,0.4918805,-0.0927605,-0.3609965,0.6766605,-0.1616365,0.1521635,0.4886505,-0.1338265,0.2869334999999999,0.6824405,-0.2244765,-0.3772065,0.9205505,-0.2250665,0.2852935,0.9440905,-0.2802665,-0.0779354999999999,-0.0009954999999999,0.0072015,0.0779354999999999,0.0009955,-0.0072015,-0.1416665,-0.4123195,-0.0969665,0.1139534999999999,-0.4173595,-0.1284265,-0.1179265,-0.7882495,0.0156515,0.1306135,-0.7955395000000001,0.0045095,1
77,-0.0310284999999999,0.6686165,-0.1278425,-0.1956895,0.4901465,-0.0969415,-0.3608295,0.6747164999999999,-0.1685225,0.1514705,0.4856764999999999,-0.1377925,0.2867205,0.6794965,-0.2305725,-0.3746895,0.9182265,-0.2322625,0.2834605,0.9426065,-0.2862025,-0.0778175,-0.0008594999999999,0.0073145,0.0778175,0.0008594999999999,-0.0073145,-0.1458295,-0.4034135,-0.1078325,0.1149705,-0.4079035,-0.1379925,-0.1191695,-0.7756435,0.0109095,0.1298305,-0.7830735,0.0005955,1
78,-0.0313875,0.6661995000000001,-0.131953,-0.1958565,0.4871895,-0.1013329999999999,-0.3606765,0.6726795000000001,-0.175553,0.1507435,0.4837395,-0.141393,0.2865035,0.6770894999999999,-0.236413,-0.3720465,0.9127295,-0.239773,0.2819635,0.9368595,-0.291663,-0.0776805,-0.0007715,0.007504,0.0776805,0.0007714999999999,-0.007504,-0.1501365,-0.3933805,-0.1185929999999999,0.1158635,-0.3973605,-0.147813,-0.1203465,-0.7618905,0.006351,0.1290135,-0.7695304999999999,-0.003302,1
79,-0.0320935,0.668215,-0.141789,-0.1961445,0.487095,-0.112579,-0.3608445,0.675205,-0.189429,0.1491954999999999,0.481765,-0.151369,0.2865355,0.6782050000000001,-0.248079,-0.3694445,0.912745,-0.253629,0.2811055,0.932715,-0.302919,-0.0776365,-0.000765,0.007151,0.0776365,0.000765,-0.007151,-0.1569645,-0.3789249999999999,-0.141479,0.1159055,-0.381895,-0.169979,-0.1236045,-0.7468049999999999,-0.009078,0.1278455,-0.753705,-0.019155,1
80,-0.0324275,0.66676,-0.1520765,-0.1958405,0.48525,-0.1240965,-0.3607905,0.67727,-0.2036565,0.1478695,0.48118,-0.1609765,0.2870195,0.6769700000000001,-0.2590665,-0.3664605,0.90895,-0.2690665,0.2806095,0.92705,-0.3138165,-0.0775744999999999,-0.0009099999999999,0.0068485,0.0775744999999999,0.0009099999999999,-0.0068484999999999,-0.1633705,-0.36462,-0.1637765,0.1162095,-0.36664,-0.1914365,-0.1262705,-0.73227,-0.0245784999999999,0.1271495,-0.7383900000000001,-0.0349535,1
81,-0.0329965,0.66683,-0.16172,-0.1957785,0.48185,-0.13573,-0.3614385,0.67864,-0.21784,0.1462615,0.48067,-0.1704,0.2874315,0.6759000000000001,-0.26924,-0.3643085,0.90902,-0.28388,0.2799515,0.92142,-0.32409,-0.0774605,-0.0011299999999999,0.0066769999999999,0.0774605,0.0011299999999999,-0.006677,-0.1694685,-0.34984,-0.18506,0.1162615,-0.35238,-0.2122,-0.1290985,-0.7180799999999999,-0.039356,0.1263315,-0.72378,-0.050361,1
82,-0.0334249999999999,0.66837,-0.1717555,-0.1955319999999999,0.47766,-0.1474755,-0.361992,0.67886,-0.2317555,0.144828,0.4806,-0.1797655,0.288178,0.6751699999999999,-0.2793155,-0.361882,0.90894,-0.2989455,0.279548,0.9169,-0.3342455,-0.077364,-0.00125,0.0063145,0.077364,0.00125,-0.0063145,-0.175142,-0.33511,-0.2059554999999999,0.116418,-0.33833,-0.2327855,-0.131842,-0.70415,-0.0538435,0.1255879999999999,-0.70603,-0.0619735,1
83,-0.0340505,0.6690050000000001,-0.181946,-0.1954725,0.478335,-0.157996,-0.3625224999999999,0.678815,-0.245086,0.1432375,0.478795,-0.189076,0.2888075,0.673705,-0.289276,-0.3596025,0.908185,-0.314166,0.2791875,0.917365,-0.344346,-0.0772625,-0.0011149999999999,0.0060139999999999,0.0772625,0.001115,-0.006014,-0.1806625,-0.321495,-0.226666,0.1162575,-0.324665,-0.253336,-0.1344624999999999,-0.6910149999999999,-0.067758,0.1246175,-0.6891050000000001,-0.072953,1
84,-0.034749,0.67013,-0.1917615,-0.195524,0.4777099999999999,-0.1686115,-0.362964,0.67923,-0.2583315,0.141676,0.4780999999999999,-0.1980515,0.289296,0.67209,-0.2992114999999999,-0.3574739999999999,0.9084,-0.3292314999999999,0.279466,0.91667,-0.3549515,-0.077219,-0.00113,0.0057154999999999,0.077219,0.0011299999999999,-0.0057154999999999,-0.185914,-0.30711,-0.2471115,0.115876,-0.31107,-0.2735815,-0.135074,-0.67539,-0.0770905,0.1237659999999999,-0.67252,-0.0836985,1
85,-0.0353835,0.67168,-0.2017735,-0.1956255,0.47769,-0.1784735,-0.3633055,0.68133,-0.2711135,0.1399345,0.47713,-0.2067935,0.2898644999999999,0.67117,-0.3090935,-0.3556355,0.90837,-0.3442935,0.2797845,0.91652,-0.3657135,-0.0772375,-0.00109,0.0054784999999999,0.0772375,0.0010899999999999,-0.0054785,-0.1908055,-0.2917599999999999,-0.2673335,0.1155844999999999,-0.29623,-0.2939835,-0.1354855,-0.65893,-0.0859585,0.1231144999999999,-0.6553800000000001,-0.0940285,1
86,-0.0362694999999999,0.67347,-0.211596,-0.1962664999999999,0.47595,-0.188376,-0.3638465,0.6823,-0.283186,0.1379835,0.47671,-0.215456,0.2901634999999999,0.67031,-0.3188959999999999,-0.3543565,0.90842,-0.358646,0.2797435,0.91539,-0.376506,-0.0772165,-0.0013299999999999,0.0053399999999999,0.0772165,0.0013299999999999,-0.00534,-0.1954965,-0.2771999999999999,-0.287356,0.1151835,-0.28136,-0.314076,-0.1361865,-0.64263,-0.095069,0.1223635,-0.63828,-0.104347,1
87,-0.0371285,0.67407,-0.2208055,-0.1967574999999999,0.47545,-0.1974955,-0.3644675,0.68336,-0.2943555,0.1361625,0.4749299999999999,-0.2240455,0.2902225,0.66796,-0.3282755,-0.3530475,0.91153,-0.3721355,0.2796625,0.91308,-0.3867855,-0.0771475,-0.0014,0.0053514999999999,0.0771475,0.0014,-0.0053515,-0.1996675,-0.26363,-0.3067554999999999,0.1148625,-0.2675099999999999,-0.3336855,-0.1369375,-0.6270500000000001,-0.1042025,0.1217225,-0.6216999999999999,-0.1141415,1
88,-0.037877,0.67087,-0.224134,-0.197158,0.47311,-0.199274,-0.364938,0.68057,-0.298304,0.135072,0.47374,-0.226174,0.289832,0.66309,-0.331164,-0.352058,0.90873,-0.377954,0.279222,0.91019,-0.389774,-0.077039,-0.0014399999999999,0.0053479999999999,0.077039,0.0014399999999999,-0.0053479999999999,-0.200748,-0.25599,-0.313234,0.1150819999999999,-0.25954,-0.340184,-0.137398,-0.61559,-0.104953,0.1214119999999999,-0.61073,-0.114694,1
89,-0.038381,0.67167,-0.226862,-0.1972109999999999,0.47144,-0.200722,-0.365081,0.6790400000000001,-0.301462,0.134259,0.47324,-0.228302,0.289649,0.6613800000000001,-0.334302,-0.3509609999999999,0.90708,-0.381652,0.279039,0.90945,-0.392942,-0.076973,-0.0015999999999999,0.005346,0.076973,0.0016,-0.0053459999999999,-0.201561,-0.24761,-0.319872,0.115729,-0.25078,-0.347142,-0.137671,-0.60298,-0.106154,0.121649,-0.59864,-0.115456,1
90,-0.039161,0.6722250000000001,-0.2294525,-0.197553,0.471185,-0.2019725,-0.365493,0.6795150000000001,-0.3040025,0.133387,0.471335,-0.2302625,0.289257,0.6605650000000001,-0.3376425,-0.350023,0.907255,-0.3847025,0.278647,0.908975,-0.3961725,-0.076991,-0.0014949999999999,0.0053464999999999,0.076991,0.001495,-0.0053464999999999,-0.202823,-0.236935,-0.3268925,0.116567,-0.2397249999999999,-0.3551425,-0.138063,-0.5894349999999999,-0.1069944999999999,0.121687,-0.585235,-0.1165735,1
91,-0.039555,0.67161,-0.230285,-0.1977499999999999,0.47045,-0.202015,-0.36584,0.6810499999999999,-0.305135,0.1327499999999999,0.47008,-0.2309049999999999,0.28919,0.6591899999999999,-0.339705,-0.34881,0.90677,-0.386365,0.2785,0.90551,-0.398035,-0.076985,-0.0015699999999999,0.005538,0.076985,0.00157,-0.0055379999999999,-0.2039699999999999,-0.22792,-0.332725,0.11824,-0.22982,-0.362075,-0.136,-0.5745899999999999,-0.1039239999999999,0.12201,-0.56987,-0.1138029999999999,1
92,-0.0398865,0.6714500000000001,-0.230254,-0.1982125,0.46925,-0.201804,-0.3661425,0.68201,-0.306014,0.1322775,0.47084,-0.231134,0.2889875,0.65886,-0.3411039999999999,-0.3477725,0.90712,-0.387204,0.2782374999999999,0.90285,-0.399174,-0.0770425,-0.0018499999999999,0.005659,0.0770425,0.00185,-0.005659,-0.2053424999999999,-0.21855,-0.3386539999999999,0.1204875,-0.2191499999999999,-0.368734,-0.1338425,-0.55909,-0.1005699999999999,0.1225774999999999,-0.5534899999999999,-0.1108659999999999,1
93,-0.040495,0.6709700000000001,-0.2298165,-0.198759,0.46888,-0.2009365,-0.366479,0.68194,-0.3060765,0.1317209999999999,0.47025,-0.2311465,0.288551,0.65985,-0.3418865,-0.347059,0.90655,-0.3868565,0.277061,0.90184,-0.3993865,-0.077038,-0.0019399999999999,0.0058025,0.077038,0.0019399999999999,-0.0058024999999999,-0.207189,-0.20728,-0.3449164999999999,0.1229209999999999,-0.20691,-0.3758565,-0.131889,-0.54096,-0.0966325,0.123231,-0.53455,-0.1076355,1
94,-0.0412265,0.669855,-0.2289844999999999,-0.1994284999999999,0.468435,-0.1998845,-0.3669785,0.6804250000000001,-0.3055445,0.1312315,0.471485,-0.2307145,0.2876915,0.6597649999999999,-0.3424145,-0.3465285,0.906715,-0.3860245,0.2754915,0.900815,-0.3990345,-0.0770915,-0.002415,0.0059235,0.0770915,0.002415,-0.0059234999999999,-0.2093485,-0.196665,-0.3506745,0.1248515,-0.195585,-0.3820545,-0.1300685,-0.523395,-0.0921265,0.1236315,-0.518125,-0.1061405,1
95,-0.0423534999999999,0.6700699999999999,-0.2273875,-0.2002815,0.468903,-0.1985375,-0.3678415,0.6815,-0.3047875,0.1302285,0.4703549999999999,-0.2297875,0.2864985,0.6589700000000001,-0.3426075,-0.3467115,0.90529,-0.3850475,0.2735185,0.90357,-0.3980475,-0.0772105,-0.0022599999999999,0.0060214999999999,0.0772105,0.0022599999999999,-0.0060214999999999,-0.2120015,-0.18381,-0.3563375,0.1265184999999999,-0.18254,-0.3888675,-0.1286515,-0.50403,-0.0877545,0.1236284999999999,-0.49981,-0.1045295,1
96,-0.0434504999999999,0.670795,-0.2257195,-0.2008975,0.469023,-0.1970295,-0.3687375,0.681285,-0.3040495,0.1294325,0.471385,-0.2284095,0.2852025,0.6600250000000001,-0.3424795,-0.3470075,0.903425,-0.3839194999999999,0.2715525,0.903995,-0.3969695,-0.0774305,-0.0024949999999999,0.0061804999999999,0.0774305,0.002495,-0.0061804999999999,-0.2147175,-0.170335,-0.3619695,0.1281725,-0.1693949999999999,-0.3952295,-0.1290375,-0.4855349999999999,-0.0860985,0.1235624999999999,-0.4813349999999999,-0.1028835,1
97,-0.0447895,0.67144,-0.2241635,-0.2015885,0.469369,-0.1954935,-0.3696785,0.67967,-0.3031735,0.1284415,0.47249,-0.2268635,0.2837615,0.66169,-0.3422334999999999,-0.3474385,0.90159,-0.3830235,0.2692615,0.9045,-0.3961235,-0.0775984999999999,-0.0026899999999999,0.0061835,0.0775984999999999,0.00269,-0.0061835,-0.2178085,-0.15644,-0.3670735,0.1293115,-0.1557999999999999,-0.4011735,-0.1297185,-0.4668599999999999,-0.0843265,0.1236415,-0.4635199999999999,-0.1028505,1
98,-0.045913,0.6716200000000001,-0.222686,-0.202196,0.469179,-0.1940259999999999,-0.370866,0.6789200000000001,-0.302046,0.127664,0.471745,-0.2253859999999999,0.282394,0.66371,-0.341676,-0.347876,0.90253,-0.382256,0.267124,0.90523,-0.3951159999999999,-0.077586,-0.0026799999999999,0.006249,0.077586,0.00268,-0.0062489999999999,-0.220936,-0.1422399999999999,-0.3718559999999999,0.1305639999999999,-0.1421599999999999,-0.407006,-0.130326,-0.4481299999999999,-0.082676,0.123674,-0.4455699999999999,-0.102808,1
99,-0.046717,0.67148,-0.2214809999999999,-0.202598,0.4690689999999999,-0.1928409999999999,-0.372328,0.67789,-0.301131,0.127222,0.473242,-0.2242009999999999,0.281232,0.66454,-0.341181,-0.348118,0.90352,-0.3816509999999999,0.2646219999999999,0.90693,-0.3941409999999999,-0.077475,-0.00295,0.0062279999999999,0.077475,0.00295,-0.006228,-0.2240079999999999,-0.12807,-0.375751,0.1320319999999999,-0.1285199999999999,-0.4116809999999999,-0.130848,-0.43093,-0.081833,0.123902,-0.42801,-0.103047,1
100,-0.047471,0.671265,-0.2199549999999999,-0.20299,0.469331,-0.191575,-0.37385,0.678175,-0.3001049999999999,0.1267599999999999,0.474672,-0.223095,0.28034,0.665865,-0.340515,-0.34851,0.905045,-0.381355,0.262,0.911345,-0.3930749999999999,-0.077371,-0.0031549999999999,0.006183,0.077371,0.003155,-0.0061829999999999,-0.22764,-0.114175,-0.379065,0.1339099999999999,-0.1148949999999999,-0.415895,-0.13156,-0.4139049999999999,-0.080894,0.12432,-0.410455,-0.103328,1
101,-0.0480714999999999,0.67104,-0.2183355,-0.2031935,0.470362,-0.1902855,-0.3752235,0.67619,-0.2990555,0.1263565,0.474697,-0.2218855,0.2799165,0.6666799999999999,-0.3398655,-0.3489135,0.9058,-0.3802955,0.2591164999999999,0.91564,-0.3919755,-0.0772685,-0.00309,0.0062204999999999,0.0772685,0.0030899999999999,-0.0062205,-0.2316835,-0.1003399999999999,-0.3816155,0.1361665,-0.10135,-0.4195755,-0.1326534999999999,-0.39727,-0.0798525,0.1248765,-0.3936,-0.1033495,1
102,-0.0484324999999999,0.6709099999999999,-0.2166055,-0.2033864999999999,0.4706419999999999,-0.1889055,-0.3765165,0.6751099999999999,-0.2981155,0.1261335,0.4749409999999999,-0.2205154999999999,0.2795634999999999,0.66687,-0.3392955,-0.3493065,0.90701,-0.3794955,0.2581434999999999,0.91852,-0.3909755,-0.0772485,-0.00308,0.0061145,0.0772485,0.0030799999999999,-0.0061144999999999,-0.2358564999999999,-0.08849,-0.3831055,0.1388835,-0.08956,-0.4220855,-0.1338665,-0.3828600000000001,-0.0789845,0.1253435,-0.37928,-0.1033605,1
103,-0.048594,0.670995,-0.2146395,-0.203177,0.471173,-0.1873195,-0.377697,0.674295,-0.2971895,0.126083,0.473856,-0.2190395,0.279363,0.6679550000000001,-0.3385395,-0.349897,0.907465,-0.3787595,0.257543,0.920685,-0.3898795,-0.077242,-0.0028249999999999,0.0059644999999999,0.077242,0.0028249999999999,-0.0059645,-0.239407,-0.076755,-0.3842195,0.142033,-0.077775,-0.4243495,-0.134937,-0.3686349999999999,-0.0782005,0.126053,-0.365525,-0.1033925,1
104,-0.0486879999999999,0.669925,-0.212468,-0.203008,0.470967,-0.185428,-0.378838,0.672315,-0.2961979999999999,0.126022,0.475383,-0.217318,0.279312,0.6694450000000001,-0.337818,-0.350738,0.905945,-0.377888,0.257062,0.920205,-0.388708,-0.077176,-0.0031349999999999,0.00572,0.077176,0.0031349999999999,-0.00572,-0.242588,-0.067265,-0.384798,0.145012,-0.0681849999999999,-0.4254779999999999,-0.135838,-0.356755,-0.077057,0.126952,-0.354245,-0.103319,1
105,-0.0487164999999999,0.669205,-0.210417,-0.2025085,0.471254,-0.183477,-0.3797085,0.671745,-0.295437,0.1263215,0.475525,-0.215387,0.2795915,0.670355,-0.336907,-0.3514084999999999,0.905255,-0.377257,0.2568115,0.920925,-0.387667,-0.0771355,-0.0031149999999999,0.005442,0.0771355,0.0031149999999999,-0.0054419999999999,-0.2454585,-0.058975,-0.385067,0.1480215,-0.0591349999999999,-0.426337,-0.1366785,-0.3459249999999999,-0.076075,0.1284815,-0.3443849999999999,-0.104976,1
106,-0.0486065,0.66822,-0.2084135,-0.2019575,0.4711840000000001,-0.1816134999999999,-0.3804674999999999,0.67222,-0.2946235,0.1267225,0.4753860000000001,-0.2135135,0.2802525,0.6696600000000001,-0.3358835,-0.3519974999999999,0.90389,-0.3765735,0.2568425,0.91996,-0.3867035,-0.0771425,-0.0030599999999999,0.0052615,0.0771425,0.00306,-0.0052614999999999,-0.2478975,-0.0523099999999999,-0.3851635,0.1511025,-0.0517999999999999,-0.4267935,-0.1375775,-0.3371599999999999,-0.0754874999999999,0.1299925,-0.3364499999999999,-0.1066614999999999,1
107,-0.048388,0.66799,-0.2065965,-0.2014149999999999,0.472032,-0.1797665,-0.381075,0.6718500000000001,-0.2934865,0.127305,0.476413,-0.2118565,0.281235,0.66839,-0.3351865,-0.352545,0.90269,-0.3758265,0.257045,0.91837,-0.3858165,-0.0771399999999999,-0.0030599999999999,0.0050434999999999,0.0771399999999999,0.0030599999999999,-0.0050435,-0.250125,-0.0469199999999999,-0.3852765,0.153915,-0.0455799999999999,-0.4268765,-0.138465,-0.3297099999999999,-0.0746405,0.131525,-0.3298999999999999,-0.1082905,1
108,-0.0480235,0.6676850000000001,-0.2047765,-0.2008895,0.472013,-0.1779565,-0.3811995,0.6704950000000001,-0.2922065,0.1278205,0.477012,-0.2102865,0.2823604999999999,0.6674150000000001,-0.3343065,-0.3526795,0.901345,-0.3753465,0.2571505,0.915675,-0.3847865,-0.0770754999999999,-0.002985,0.0048155,0.0770754999999999,0.002985,-0.0048155,-0.2516695,-0.043265,-0.3854565,0.1563305,-0.0412649999999999,-0.4268465,-0.1390995,-0.324275,-0.0735455,0.1325205,-0.3251449999999999,-0.1075895,1
109,-0.0474294999999999,0.667732,-0.2030035,-0.2003484999999999,0.4724219999999999,-0.1764534999999999,-0.3810585,0.6685019999999999,-0.2909235,0.1284515,0.4772849999999999,-0.2088235,0.2835515,0.6667259999999999,-0.3330435,-0.3525685,0.9000699999999999,-0.3747235,0.2574815,0.91259,-0.3836935,-0.0769605,-0.0028799999999999,0.0046194999999999,0.0769605,0.0028799999999999,-0.0046194999999999,-0.2519885,-0.04029,-0.3857935,0.1580615,-0.03797,-0.4268335,-0.1392885,-0.32012,-0.0724305,0.1331915,-0.32156,-0.1069505,1
110,-0.0469824999999999,0.6678470000000001,-0.2014205,-0.1998994999999999,0.47218,-0.1750804999999999,-0.3809295,0.668779,-0.2898604999999999,0.1289305,0.47827,-0.2074805,0.2845505,0.666156,-0.3317905,-0.3523395,0.89812,-0.3736505,0.2581205,0.90859,-0.3825004999999999,-0.0770425,-0.00302,0.0044035,0.0770425,0.00302,-0.0044034999999999,-0.2518495,-0.0383999999999999,-0.3862605,0.1589705,-0.0361,-0.4267904999999999,-0.1394495,-0.3173,-0.0718264999999999,0.1335305,-0.31926,-0.1063635,1
111,-0.046581,0.668147,-0.200131,-0.199418,0.47215,-0.173881,-0.3807279999999999,0.6686440000000001,-0.288921,0.129432,0.4793160000000001,-0.206311,0.285832,0.6656330000000001,-0.330451,-0.352078,0.8968100000000001,-0.372361,0.259432,0.90418,-0.3811009999999999,-0.0771709999999999,-0.0030899999999999,0.0043079999999999,0.0771709999999999,0.00309,-0.0043079999999999,-0.251668,-0.0370799999999998,-0.386861,0.159322,-0.0348799999999999,-0.426791,-0.139588,-0.3153599999999998,-0.071305,0.1339219999999999,-0.3178399999999999,-0.105628,1
112,-0.0462925,0.6686909999999999,-0.199062,-0.1990755,0.47217,-0.172952,-0.3804355,0.668388,-0.288142,0.1299145,0.4804719999999999,-0.205112,0.2870845,0.664984,-0.328882,-0.3519454999999999,0.8949,-0.370692,0.2592045,0.90447,-0.379752,-0.0772935,-0.00312,0.004269,0.0772935,0.00312,-0.0042689999999999,-0.2515055,-0.0363499999999999,-0.3877319999999999,0.1595245,-0.03441,-0.426832,-0.1396355,-0.31432,-0.070808,0.1341445,-0.3171,-0.1045099999999999,1
113,-0.046104,0.6691610000000001,-0.1981585,-0.198786,0.472455,-0.1724885,-0.380286,0.668452,-0.2876285,0.130274,0.481047,-0.2040385,0.287914,0.664961,-0.3272885,-0.352006,0.8948150000000001,-0.3698985,0.260994,0.8988150000000001,-0.3785185,-0.0774499999999999,-0.0030549999999999,0.0042535,0.0774499999999999,0.003055,-0.0042535,-0.251086,-0.0361349999999999,-0.3886685,0.159784,-0.0343049999999999,-0.4268885,-0.139736,-0.3138149999999999,-0.0713275,0.134334,-0.3166849999999999,-0.1038315,1
114,-0.046,0.669066,-0.197267,-0.198701,0.472475,-0.172107,-0.380231,0.668393,-0.287187,0.130449,0.481207,-0.2029969999999999,0.288409,0.66477,-0.325477,-0.3523509999999999,0.893465,-0.369197,0.262859,0.893295,-0.377237,-0.0775879999999999,-0.003085,0.0041949999999999,0.0775879999999999,0.003085,-0.004195,-0.250031,-0.0361949999999999,-0.389487,0.160019,-0.0344649999999999,-0.426837,-0.139871,-0.313745,-0.071827,0.134449,-0.316555,-0.103245,1
115,-0.045925,0.6687350000000001,-0.1963285,-0.198647,0.47243,-0.1717085,-0.380257,0.668382,-0.2867785,0.130583,0.481295,-0.2019885,0.288613,0.6646880000000001,-0.3236785,-0.352707,0.89214,-0.3684785,0.263573,0.89285,-0.3750585,-0.077687,-0.00312,0.0040994999999999,0.077687,0.00312,-0.0040995,-0.249267,-0.0362399999999999,-0.3901485,0.160163,-0.0346299999999999,-0.4267285,-0.139717,-0.3138799999999999,-0.0713265,0.134593,-0.3165,-0.1029785,1
116,-0.045894,0.668438,-0.1952205,-0.198606,0.472415,-0.1712105,-0.380276,0.668422,-0.2862805,0.130674,0.4815419999999999,-0.2008805,0.288694,0.6644869999999999,-0.3217605,-0.352676,0.8918649999999999,-0.3676005,0.264224,0.8923949999999999,-0.3732205,-0.077719,-0.0031849999999999,0.0039505,0.077719,0.0031849999999999,-0.0039504999999999,-0.248756,-0.036255,-0.3907005,0.160184,-0.034735,-0.4265605,-0.139736,-0.3141050000000001,-0.0710925,0.134644,-0.316485,-0.1027005,1
117,-0.0459295,0.668445,-0.193948,-0.1986055,0.472345,-0.170578,-0.3802955,0.668377,-0.285698,0.1307345,0.482333,-0.199738,0.2887544999999999,0.664329,-0.319748,-0.3530655,0.891265,-0.366388,0.2648345,0.892925,-0.370848,-0.0777435,-0.0032849999999999,0.0038129999999999,0.0777435,0.0032849999999999,-0.003813,-0.2483655,-0.036255,-0.391188,0.1602145,-0.034795,-0.4263679999999999,-0.1398055,-0.314245,-0.070849,0.1340745,-0.316185,-0.100165,1
118,-0.0460375,0.6687280000000001,-0.1924865,-0.1986015,0.4724050000000001,-0.1698465,-0.3803215,0.6682580000000001,-0.2849365,0.1307985,0.483211,-0.1985265,0.2888285,0.6643460000000001,-0.3176365,-0.3536415,0.8904150000000001,-0.3649664999999999,0.2653985,0.8935850000000001,-0.3684665,-0.0777635,-0.0033849999999999,0.0037034999999999,0.0777635,0.003385,-0.0037035,-0.2481115,-0.0360849999999999,-0.3915364999999999,0.1604385,-0.0347749999999998,-0.4261865,-0.1400215,-0.3141949999999999,-0.0708575,0.1335885,-0.3157049999999999,-0.0975055,1
119,-0.046272,0.6690349999999999,-0.1908805,-0.198701,0.4725,-0.1690305,-0.380471,0.6677599999999999,-0.2839005,0.130799,0.4839349999999999,-0.1973105,0.288789,0.664612,-0.3154705,-0.354311,0.88978,-0.3633504999999999,0.265729,0.8940899999999999,-0.3661304999999999,-0.077806,-0.00352,0.0035965,0.077806,0.0035199999999999,-0.0035965,-0.247971,-0.03578,-0.3917805,0.160749,-0.0347399999999999,-0.4260204999999999,-0.140321,-0.31417,-0.0709835,0.1330289999999999,-0.31516,-0.0948364999999999,1
120,-0.0465855,0.6691729999999999,-0.1892285,-0.1988125,0.4725899999999999,-0.1681885,-0.3807425,0.6671469999999999,-0.2827885,0.1307875,0.4845659999999999,-0.1961184999999999,0.2886575,0.6649689999999999,-0.3134385,-0.3554625,0.8887499999999999,-0.3613485,0.2660174999999999,0.8946799999999999,-0.3640185,-0.0778505,-0.00365,0.0035154999999999,0.0778505,0.0036499999999999,-0.0035154999999999,-0.2479624999999999,-0.0354200000000001,-0.3918985,0.1611475,-0.03461,-0.4258685,-0.1406525,-0.3139,-0.0710965,0.1329775,-0.3147500000000001,-0.0942035,1
121,-0.0470075,0.669188,-0.1876325,-0.1989385,0.472705,-0.1673224999999999,-0.3812284999999999,0.666464,-0.2815925,0.1307815,0.485001,-0.1951825,0.2884415,0.665537,-0.3117125,-0.3567885,0.889305,-0.3592425,0.2663115,0.895705,-0.3624425,-0.0778985,-0.0037949999999999,0.0034605,0.0778985,0.0037949999999999,-0.0034604999999999,-0.2479985,-0.0350249999999999,-0.3917925,0.1616015,-0.0344349999999999,-0.4257125,-0.1408085,-0.313755,-0.0706255,0.1329515,-0.314165,-0.0935775,1
122,-0.0474919999999999,0.669262,-0.1864434999999999,-0.199149,0.472725,-0.1666035,-0.381989,0.666011,-0.2804435,0.130671,0.485421,-0.1945434999999999,0.288101,0.666284,-0.3103735,-0.358519,0.890625,-0.3573635,0.266521,0.8966350000000001,-0.3619735,-0.077946,-0.0039949999999999,0.0033875,0.077946,0.0039949999999999,-0.0033874999999999,-0.248089,-0.034745,-0.3915535,0.162071,-0.034305,-0.4255235,-0.140909,-0.3136949999999999,-0.0700705,0.132871,-0.313635,-0.0931184999999999,1
123,-0.048075,0.6696139999999999,-0.185578,-0.199434,0.47275,-0.166178,-0.382914,0.665546,-0.279508,0.130476,0.4854769999999999,-0.194338,0.287606,0.666623,-0.309628,-0.360974,0.89074,-0.355578,0.266536,0.89714,-0.361808,-0.077992,-0.004,0.003414,0.077992,0.004,-0.003414,-0.248104,-0.03483,-0.391378,0.162546,-0.03438,-0.425438,-0.141044,-0.31376,-0.069904,0.132756,-0.31345,-0.093357,1
124,-0.048886,0.6697759999999999,-0.18516,-0.1999429999999999,0.47275,-0.16582,-0.384173,0.665546,-0.27854,0.130077,0.485537,-0.19428,0.286937,0.666812,-0.30925,-0.364673,0.89074,-0.35335,0.266287,0.90254,-0.3618,-0.078025,-0.004,0.003415,0.078025,0.004,-0.003415,-0.248323,-0.03478,-0.39137,0.163057,-0.03438,-0.42546,-0.141293,-0.3137,-0.069896,0.132677,-0.3132400000000001,-0.094072,1
125,-0.0498535,0.6697759999999999,-0.1848995,-0.2006065,0.47275,-0.1653695,-0.3856965,0.665546,-0.2773395,0.1295235,0.485598,-0.1942694999999999,0.2861135,0.6670309999999999,-0.3092195,-0.3683665,0.89107,-0.3509595,0.2659835,0.90777,-0.3617895,-0.0780145,-0.004,0.0034145,0.0780145,0.004,-0.0034144999999999,-0.2486364999999999,-0.03478,-0.3913594999999999,0.1632635,-0.03438,-0.4254695,-0.1414065,-0.31417,-0.0689605,0.1325535,-0.313,-0.0946235,1
126,-0.0512139999999999,0.669606,-0.1848525,-0.201664,0.4729900000000001,-0.1648425,-0.387544,0.6653760000000001,-0.2762825,0.128576,0.485684,-0.1942424999999999,0.285056,0.6675390000000001,-0.3091925,-0.371854,0.8913300000000001,-0.3487024999999999,0.265526,0.91285,-0.3618825,-0.077929,-0.0041299999999999,0.0034114999999999,0.077929,0.00413,-0.0034115,-0.249154,-0.0349499999999999,-0.3910625,0.162876,-0.0344799999999999,-0.4254525,-0.141714,-0.3146899999999999,-0.0679545,0.132306,-0.3129099999999999,-0.0952925,1
127,-0.0528864999999999,0.6699830000000001,-0.1851385,-0.2029515,0.473195,-0.1645785,-0.3894915,0.664814,-0.2755384999999999,0.1276185,0.485369,-0.1945485,0.2840685,0.6682170000000001,-0.3094885,-0.3753215,0.8913150000000001,-0.3470184999999999,0.2654485,0.912025,-0.3633285,-0.0778445,-0.0042349999999999,0.0034835,0.0778445,0.0042350000000001,-0.0034834999999999,-0.2496515,-0.0360649999999999,-0.3904585,0.1623585,-0.0351149999999998,-0.4253685,-0.1420115,-0.3158449999999999,-0.0676345,0.1320085,-0.3132149999999999,-0.0964194999999999,1
128,-0.0548014999999999,0.669405,-0.185948,-0.2043925,0.4724750000000001,-0.164818,-0.3915524999999999,0.6624920000000001,-0.275488,0.1260875,0.484859,-0.195488,0.2830675,0.667659,-0.310378,-0.3792425,0.8908550000000001,-0.346508,0.2654375,0.914835,-0.365448,-0.0778365,-0.0045249999999998,0.0037009999999999,0.0778365,0.004525,-0.003701,-0.2497725,-0.0396849999999999,-0.389638,0.1618575,-0.0383849999999998,-0.425108,-0.1423625,-0.3198449999999999,-0.068103,0.1315175,-0.316465,-0.097732,1
129,-0.0570185,0.669072,-0.1872774999999999,-0.2060775,0.472344,-0.1653975,-0.3949975,0.663748,-0.2757675,0.1240325,0.484734,-0.1970174999999999,0.2818425,0.668399,-0.3126675,-0.3831475,0.89229,-0.3467175,0.2654125,0.91705,-0.3681375,-0.0777595,-0.0046899999999999,0.0039415,0.0777595,0.0046899999999999,-0.0039415,-0.2496775,-0.04418,-0.3888275,0.1612225,-0.04271,-0.4247475,-0.1428475,-0.3255,-0.0690575,0.1308225,-0.32126,-0.0991735,1
130,-0.059373,0.6693399999999999,-0.1894885,-0.207933,0.4718969999999999,-0.1664085,-0.398073,0.66316,-0.2764385,0.1217669999999999,0.4842419999999999,-0.1991585,0.280617,0.6677299999999999,-0.3156985,-0.387333,0.8934199999999999,-0.3474585,0.265637,0.91838,-0.3716785,-0.07769,-0.00489,0.0042574999999999,0.07769,0.0048899999999999,-0.0042575,-0.249013,-0.05034,-0.3877785,0.160437,-0.04851,-0.4242384999999999,-0.143613,-0.3333900000000001,-0.0708015,0.130097,-0.3283100000000001,-0.1009345,1
131,-0.0617599999999999,0.669865,-0.192356,-0.2099579999999999,0.471983,-0.167816,-0.400918,0.663455,-0.277486,0.119522,0.482257,-0.201736,0.279242,0.666845,-0.319316,-0.391558,0.894145,-0.348956,0.265962,0.918945,-0.375926,-0.077537,-0.0046749999999999,0.004697,0.077537,0.0046749999999999,-0.004697,-0.247868,-0.0576849999999999,-0.386546,0.159292,-0.0555649999999999,-0.423676,-0.144238,-0.343155,-0.072822,0.129392,-0.337075,-0.102992,1
132,-0.063868,0.6695199999999999,-0.195979,-0.21172,0.4714999999999999,-0.169799,-0.40318,0.66304,-0.279069,0.11747,0.4820229999999999,-0.204949,0.27785,0.6666099999999999,-0.323659,-0.39535,0.8937999999999999,-0.350229,0.26576,0.91762,-0.380959,-0.077287,-0.00499,0.0049309999999999,0.077287,0.0049899999999999,-0.0049309999999999,-0.24613,-0.06701,-0.385099,0.158,-0.0645000000000001,-0.422399,-0.14445,-0.35548,-0.075325,0.12887,-0.3483200000000001,-0.1056199999999999,1
133,-0.065979,0.6697000000000001,-0.1998559999999999,-0.213498,0.471009,-0.172226,-0.405558,0.66234,-0.281196,0.1154019999999999,0.481749,-0.208556,0.276342,0.6652800000000001,-0.328426,-0.398038,0.89174,-0.3520959999999999,0.265192,0.91461,-0.386416,-0.077054,-0.0051499999999999,0.0051799999999999,0.077054,0.00515,-0.00518,-0.244288,-0.0779899999999998,-0.3831259999999999,0.156492,-0.0745799999999999,-0.420836,-0.1447879999999999,-0.3698999999999999,-0.07799,0.1282019999999999,-0.3621399999999999,-0.108612,1
134,-0.0677685,0.669735,-0.2040215,-0.2150975,0.470645,-0.1747815,-0.4075275,0.661805,-0.2835315,0.1135325,0.4819549999999999,-0.2124115,0.2751125,0.664215,-0.3335015,-0.4001375,0.888855,-0.3542515,0.2647724999999999,0.906955,-0.3917215,-0.0770035,-0.0053349999999999,0.0054835,0.0770035,0.0053349999999999,-0.0054835,-0.2422575,-0.0900849999999999,-0.3807615,0.1550625,-0.0856949999999999,-0.4188515,-0.1451075,-0.3859749999999999,-0.0810625,0.1280225,-0.3788249999999999,-0.1126015,1
135,-0.06929,0.66971,-0.2075885,-0.2164,0.470152,-0.1772585,-0.4090499999999999,0.66143,-0.2856885,0.1119,0.481324,-0.2160385,0.27401,0.66288,-0.3383085,-0.4018899999999999,0.8877200000000001,-0.3561885,0.26451,0.90268,-0.3967785,-0.07709,-0.0053,0.0056884999999999,0.07709,0.0052999999999999,-0.0056885,-0.23994,-0.1035399999999999,-0.3777684999999999,0.1536499999999999,-0.0978599999999999,-0.4160785,-0.14526,-0.4039899999999999,-0.0835905,0.128,-0.3973299999999999,-0.1165095,1
136,-0.0701255,0.669505,-0.210791,-0.2173505,0.470046,-0.179391,-0.4102004999999999,0.662375,-0.287331,0.1104695,0.481066,-0.218881,0.2730095,0.662325,-0.342671,-0.4024104999999999,0.8864350000000001,-0.357931,0.2640695,0.899445,-0.401101,-0.0770764999999999,-0.0054049999999999,0.0059279999999999,0.0770764999999999,0.005405,-0.005928,-0.2375905,-0.1179549999999999,-0.374261,0.1521195,-0.1114849999999999,-0.412691,-0.1452805,-0.4229849999999999,-0.085621,0.1279394999999999,-0.4170349999999999,-0.119547,1
137,-0.0705405,0.6691199999999999,-0.2131559999999999,-0.2181275,0.470107,-0.181116,-0.4114075,0.66385,-0.288716,0.1099725,0.4802869999999999,-0.221236,0.2720525,0.66211,-0.346056,-0.4024575,0.88558,-0.359566,0.2638525,0.89627,-0.404856,-0.0770715,-0.0052099999999999,0.006093,0.0770715,0.0052099999999999,-0.006093,-0.2355075,-0.13194,-0.370236,0.1505525,-0.12495,-0.408606,-0.1453675,-0.4427,-0.088005,0.1279425,-0.43761,-0.124204,1
138,-0.070543,0.6703,-0.215258,-0.21878,0.468892,-0.182588,-0.41137,0.66332,-0.289578,0.10968,0.478257,-0.2233279999999999,0.27143,0.6613,-0.348138,-0.40263,0.88541,-0.361058,0.26372,0.89435,-0.407138,-0.077033,-0.0051399999999999,0.006207,0.077033,0.00514,-0.0062069999999999,-0.2336,-0.145,-0.366028,0.1490899999999999,-0.1375699999999999,-0.404438,-0.14538,-0.4616599999999999,-0.090136,0.1278099999999999,-0.45652,-0.129353,1
139,-0.070349,0.67033,-0.2170295,-0.2190659999999999,0.470659,-0.1834895,-0.411136,0.66477,-0.2898995,0.109674,0.478914,-0.2250994999999999,0.270854,0.6613,-0.3498895,-0.402566,0.88923,-0.3617495,0.263754,0.89801,-0.4088994999999999,-0.077008,-0.00496,0.0062185,0.077008,0.00496,-0.0062184999999999,-0.231626,-0.1588799999999999,-0.3608095,0.147574,-0.1512399999999999,-0.3990995,-0.145256,-0.48138,-0.0920584999999999,0.127544,-0.4764799999999999,-0.1333675,1
140,-0.0698285,0.67031,-0.2185075,-0.2188585,0.470815,-0.1838175,-0.4105685,0.66613,-0.2901375,0.1101915,0.482103,-0.2266574999999999,0.2707015,0.66045,-0.3514275,-0.4020085,0.8909199999999999,-0.3618775,0.2640715,0.89852,-0.4104575,-0.0768635,-0.00545,0.0060835,0.0768635,0.00545,-0.0060834999999999,-0.2292785,-0.17458,-0.3540075,0.1463015,-0.1664899999999999,-0.3915175,-0.1463785,-0.5033799999999999,-0.0963115,0.1276614999999999,-0.49891,-0.1358605,1
141,-0.0692494999999999,0.67327,-0.218888,-0.2185295,0.47297,-0.182908,-0.4089395,0.6694100000000001,-0.288138,0.1107404999999999,0.4817599999999999,-0.227108,0.2710805,0.6603399999999999,-0.351778,-0.4010395,0.8940899999999999,-0.360418,0.2643205,0.89944,-0.411598,-0.0767455,-0.00473,0.0062429999999999,0.0767455,0.0047299999999999,-0.0062429999999999,-0.2265395,-0.1909699999999999,-0.3453279999999999,0.1450604999999999,-0.1826999999999999,-0.383308,-0.1475195,-0.5273,-0.099794,0.1276105,-0.52342,-0.138216,1
142,-0.068307,0.675655,-0.2185435,-0.217918,0.475155,-0.1817535,-0.407268,0.673065,-0.2858935,0.111672,0.480565,-0.2270935,0.271692,0.660915,-0.3514835,-0.399208,0.8974650000000001,-0.3581135,0.264582,0.901315,-0.4119135,-0.076762,-0.0040549999999999,0.0063645,0.076762,0.004055,-0.0063644999999999,-0.223628,-0.2061649999999999,-0.3366335,0.144052,-0.198335,-0.3750335,-0.1482379999999999,-0.549845,-0.1023435,0.127832,-0.546675,-0.1397785,1
143,-0.067339,0.677775,-0.2172515,-0.217409,0.477425,-0.1800915,-0.405679,0.675665,-0.2829715,0.1126809999999999,0.4822249999999999,-0.2259914999999999,0.2722509999999999,0.6605049999999999,-0.3505015,-0.397029,0.903205,-0.3539415,0.264521,0.902605,-0.4109015,-0.076649,-0.003735,0.0064295,0.076649,0.0037349999999999,-0.0064294999999999,-0.220299,-0.222055,-0.3271315,0.142381,-0.214635,-0.3652915,-0.1491489999999999,-0.573625,-0.1046795,0.127921,-0.570655,-0.1417904999999999,1
144,-0.06612,0.680855,-0.2157295,-0.2166719999999999,0.478905,-0.1781395,-0.404072,0.678995,-0.2792695,0.113788,0.484025,-0.2244895,0.272848,0.661815,-0.3489494999999999,-0.394402,0.907575,-0.3500395,0.264918,0.900865,-0.4091495,-0.076687,-0.0037249999999999,0.0063065,0.076687,0.003725,-0.0063065,-0.2166519999999999,-0.2374549999999999,-0.3170894999999999,0.140708,-0.2305049999999999,-0.3548294999999999,-0.150002,-0.597015,-0.1058025,0.128318,-0.594055,-0.1417745,1
145,-0.0647115,0.68397,-0.2135949999999999,-0.2159155,0.47966,-0.175975,-0.4022455,0.68221,-0.275055,0.1151145,0.48427,-0.222845,0.2735245,0.6622300000000001,-0.346855,-0.3918255,0.91242,-0.345615,0.2653845,0.90005,-0.406175,-0.0767565,-0.00322,0.0062299999999999,0.0767565,0.00322,-0.00623,-0.2123855,-0.25198,-0.306495,0.1390445,-0.24548,-0.343925,-0.1502455,-0.61964,-0.105947,0.1287445,-0.6165499999999999,-0.141473,1
146,-0.063342,0.68793,-0.2110075,-0.215012,0.4807599999999999,-0.1738075,-0.400962,0.68676,-0.2702475,0.116708,0.48406,-0.2209975,0.274458,0.66526,-0.3444975,-0.389492,0.91703,-0.3408775,0.265308,0.9018,-0.4026075,-0.076833,-0.00284,0.0062325,0.076833,0.00284,-0.0062324999999999,-0.207562,-0.26558,-0.2955975,0.137638,-0.25886,-0.3329875,-0.150022,-0.64134,-0.1057095,0.129298,-0.63761,-0.1409895,1
147,-0.0618965,0.6866099999999999,-0.206987,-0.2140235,0.48379,-0.170917,-0.3995634999999999,0.69001,-0.265157,0.1184464999999999,0.48732,-0.218567,0.2756565,0.66701,-0.340947,-0.3874235,0.91958,-0.335337,0.2653765,0.90331,-0.397797,-0.0770345,-0.0027699999999999,0.0062019999999999,0.0770345,0.0027699999999999,-0.006202,-0.2011235,-0.28234,-0.281687,0.1356465,-0.27461,-0.318997,-0.1494435,-0.66617,-0.105375,0.1299064999999999,-0.66073,-0.140663,1
148,-0.0600385,0.6820649999999999,-0.2019955,-0.2123975,0.4844449999999999,-0.1682955,-0.3971575,0.690455,-0.2602755,0.1204225,0.488535,-0.2159855,0.2771125,0.668215,-0.3369855,-0.3857475,0.917925,-0.3303055,0.2661024999999999,0.903215,-0.3924955,-0.0769475,-0.002465,0.0058715,0.0769475,0.0024649999999999,-0.0058714999999999,-0.1935474999999999,-0.298395,-0.2669755,0.1338325,-0.289725,-0.3039855,-0.1480874999999999,-0.6901349999999999,-0.1051385,0.1307324999999999,-0.6836249999999999,-0.1391775,1
149,-0.0585345,0.6790999999999999,-0.197515,-0.2111265,0.48389,-0.166245,-0.3951165,0.6938599999999999,-0.255575,0.1217034999999999,0.48758,-0.213825,0.2782435,0.6707099999999999,-0.333315,-0.3843865,0.92005,-0.325625,0.2666235,0.90547,-0.3872649999999999,-0.0769115,-0.0020799999999999,0.0055869999999999,0.0769115,0.0020799999999999,-0.005587,-0.1862165,-0.3135099999999999,-0.252955,0.1316135,-0.30422,-0.289655,-0.1468665,-0.71267,-0.105117,0.1308735,-0.70274,-0.132991,1
150,-0.0572635,0.6734849999999999,-0.192517,-0.2099775,0.481045,-0.1650869999999999,-0.3931774999999999,0.695535,-0.252167,0.1228625,0.487845,-0.212177,0.2791825,0.6733149999999999,-0.330047,-0.3831475,0.922685,-0.321647,0.2669424999999999,0.909735,-0.3825969999999999,-0.0767885,-0.002295,0.005273,0.0767885,0.0022949999999999,-0.005273,-0.1789975,-0.326845,-0.239527,0.1287925,-0.316735,-0.275027,-0.1457575,-0.7319549999999999,-0.104908,0.1311925,-0.719455,-0.126871,1
151,-0.0560275,0.6679299999999999,-0.186892,-0.2088995,0.47804,-0.164222,-0.3910694999999999,0.6973999999999999,-0.248522,0.1239605,0.48881,-0.210892,0.2800605,0.67813,-0.326582,-0.3822195,0.92732,-0.317752,0.2681405,0.91543,-0.378012,-0.0766355,-0.0026599999999999,0.0049329999999999,0.0766355,0.0026599999999999,-0.004933,-0.1715195,-0.34018,-0.225872,0.1253004999999999,-0.32876,-0.259642,-0.1446795,-0.7510800000000001,-0.104367,0.1314604999999999,-0.7358600000000001,-0.121233,1
152,-0.0547175,0.663291,-0.180032,-0.2077405,0.474711,-0.162953,-0.3877805,0.700541,-0.243702,0.1226094999999999,0.487021,-0.2095219999999999,0.2802695,0.684971,-0.321492,-0.3816605,0.930391,-0.313592,0.2697595,0.921951,-0.372392,-0.0765245,-0.0026889999999999,0.0045759999999999,0.0765245,0.002689,-0.004576,-0.1639005,-0.351499,-0.210212,0.1220995,-0.3396089999999999,-0.243362,-0.1419105,-0.766619,-0.099122,0.1319995,-0.7484190000000001,-0.114368,1
153,-0.053158,0.657099,-0.1728115,-0.2062169999999999,0.4717989999999999,-0.1613815,-0.383807,0.7024889999999999,-0.2390614999999999,0.121903,0.485689,-0.2077315,0.280103,0.690429,-0.3157815,-0.380427,0.932309,-0.3096015,0.271093,0.928719,-0.3663215,-0.076522,-0.002639,0.0042925,0.076522,0.0026389999999999,-0.0042924999999999,-0.155327,-0.3638409999999999,-0.1932015,0.119613,-0.3543309999999999,-0.2257215,-0.138157,-0.7792410000000001,-0.0932345,0.133053,-0.762331,-0.1068455,1
154,-0.0517715,0.6499429999999999,-0.1682385,-0.2050475,0.471493,-0.1595675,-0.3820575,0.7028829999999999,-0.2344284999999999,0.1232025,0.486453,-0.2057585,0.2799225,0.696153,-0.3091885,-0.3792775,0.934433,-0.3051585,0.2723125,0.936683,-0.3589485,-0.0764625,-0.003041,0.0039135,0.0764625,0.003041,-0.0039135,-0.1465675,-0.375797,-0.1733985,0.1172725,-0.368677,-0.2066684999999999,-0.1340075,-0.790717,-0.0855905,0.1340825,-0.7754070000000001,-0.0982965,1
155,-0.050118,0.6425235,-0.1607045,-0.203599,0.4709035,-0.1549944999999999,-0.380039,0.7027635,-0.2272445,0.124391,0.4883535,-0.2005045,0.279851,0.6999535,-0.2992844999999999,-0.378269,0.9370435,-0.2975744999999999,0.273191,0.9451235,-0.3484545,-0.0768379999999999,-0.0031684999999999,0.0028135,0.0768379999999999,0.0031685,-0.0028134999999999,-0.137119,-0.3872265,-0.1489774999999999,0.1153609999999999,-0.3828465,-0.1827444999999999,-0.128889,-0.8010465,-0.0735115,0.135201,-0.7874765,-0.0847835,1
156,-0.0484804999999999,0.6379250000000001,-0.1509815,-0.2017804999999999,0.464605,-0.1470095,-0.3775905,0.700555,-0.2171545,0.1261094999999999,0.487035,-0.1915144999999999,0.2800995,0.704025,-0.2868445,-0.3767605,0.940815,-0.2859245,0.2746795,0.949025,-0.3356045,-0.0768665,-0.003336,0.0029054999999999,0.0768665,0.0033359999999999,-0.0029055,-0.1279104999999999,-0.400485,-0.1203875,0.1147795,-0.397175,-0.1544645,-0.1232905,-0.8116749999999999,-0.0585975,0.1370195,-0.8009649999999999,-0.0691565,1
157,-0.0473525,0.6478705,-0.1416195,-0.2021234999999999,0.4681505,-0.1369845,-0.3752335,0.7025705,-0.2067615,0.1274365,0.4909805,-0.1804215,0.2800065,0.7075404999999999,-0.2738415,-0.3754235,0.9462805,-0.2731815,0.2757565,0.9501305,-0.3224915,-0.0770595,-0.0035564999999999,0.0028535,0.0770595,0.0035565,-0.0028535,-0.1200835,-0.4128295,-0.0930925,0.1145964999999999,-0.4098395,-0.1273965,-0.1181735,-0.8208495,-0.0435865,0.1387465,-0.8129394999999999,-0.0547035,1
158,-0.046306,0.65588,-0.131991,-0.2023599999999999,0.47346,-0.127596,-0.3731,0.70026,-0.19699,0.12863,0.4958,-0.16999,0.2798899999999999,0.71114,-0.2612299999999999,-0.37419,0.95032,-0.26133,0.27685,0.95392,-0.30829,-0.077233,-0.0036099999999999,0.0026549999999999,0.077233,0.00361,-0.0026549999999999,-0.11285,-0.42309,-0.067792,0.11498,-0.42065,-0.100747,-0.1135299999999999,-0.82831,-0.029313,0.1406,-0.82298,-0.041249,1
159,-0.0453505,0.664532,-0.123039,-0.2025345,0.479442,-0.118451,-0.3710245,0.698112,-0.187514,0.1299654999999999,0.501272,-0.159884,0.2798255,0.713262,-0.248904,-0.3726745,0.954312,-0.249414,0.2779955,0.956582,-0.294534,-0.0774215,-0.003771,0.0025059999999999,0.0774215,0.003771,-0.002506,-0.1062745,-0.432808,-0.044267,0.1162755,-0.433258,-0.075256,-0.1091545,-0.835418,-0.015707,0.1424855,-0.8324480000000001,-0.027873,1
160,-0.0444405,0.673185,-0.1145279999999999,-0.2024555,0.484855,-0.109792,-0.3692955,0.6957450000000001,-0.178804,0.1311645,0.506815,-0.150104,0.2797345,0.713555,-0.237414,-0.3712455,0.956475,-0.238004,0.2796745,0.958075,-0.281614,-0.0775444999999999,-0.003894,0.002367,0.0775444999999999,0.003894,-0.0023669999999999,-0.1001654999999999,-0.443905,-0.022341,0.1182545,-0.4481549999999999,-0.051356,-0.1052555,-0.843235,-0.003102,0.1444045,-0.843785,-0.015279,1
161,-0.043762,0.6807074999999999,-0.1064954999999999,-0.202929,0.4874175,-0.1007325,-0.367019,0.6922174999999999,-0.1704494999999999,0.132941,0.5103975,-0.1395595,0.2803609999999999,0.7119675,-0.2265295,-0.369559,0.9578875,-0.2270495,0.281321,0.9585875,-0.2695295,-0.077731,-0.0039314999999999,0.0020055,0.077731,0.0039315,-0.0020055,-0.094729,-0.4552025,-0.0031754999999999,0.120611,-0.4629425,-0.0296555,-0.101419,-0.8517525,0.0088675,0.146501,-0.8544325,-0.0038494999999999,1
162,-0.0437209999999999,0.6891345000000001,-0.0985025,-0.203989,0.4904745,-0.0913805,-0.365309,0.6888945000000001,-0.1621215,0.134151,0.5139045000000001,-0.1284215,0.281071,0.7103145000000001,-0.2159315,-0.368389,0.9594845,-0.2163415,0.282331,0.9589245,-0.2578215,-0.077799,-0.0040115,0.0015855,0.077799,0.0040115,-0.0015855,-0.090789,-0.4657855,0.0136024999999999,0.122401,-0.4770255,-0.0104165,-0.098629,-0.8596355,0.0199825,0.148001,-0.8638655,0.0069074999999999,1
163,-0.0438254999999999,0.6978335,-0.090749,-0.2055895,0.4969834999999999,-0.08133,-0.3646095,0.6857534999999999,-0.153974,0.1352405,0.5199535,-0.117484,0.2816205,0.7083335,-0.205894,-0.3675695,0.9609235,-0.2062939999999999,0.2831705,0.9569635,-0.248054,-0.0778254999999999,-0.0040155,0.001128,0.0778254999999999,0.0040154999999999,-0.0011279999999999,-0.0878595,-0.4758865,0.026582,0.1241205,-0.4906165,0.006582,-0.0963395,-0.8666365,0.029267,0.1493505,-0.8728065,0.01673,1
164,-0.0445394999999999,0.7070540000000001,-0.086729,-0.2078185,0.5042540000000001,-0.074109,-0.3660885,0.682984,-0.1489079999999999,0.1377915,0.526634,-0.108598,0.2818515,0.706624,-0.1990579999999999,-0.3675485,0.962594,-0.1998579999999999,0.2833215,0.954054,-0.2416779999999999,-0.0774375,-0.0042569999999999,0.001388,0.0774375,0.004257,-0.0013879999999999,-0.0863685,-0.485006,0.0336189999999999,0.1252915,-0.503166,0.017415,-0.0951885,-0.871536,0.033678,0.1503515,-0.880976,0.020928,1
165,-0.045623,0.717166,-0.085548,-0.210681,0.512766,-0.0701779999999999,-0.368681,0.681826,-0.146374,0.139679,0.532026,-0.1036459999999999,0.281529,0.705326,-0.194574,-0.368391,0.959296,-0.197374,0.282749,0.955106,-0.237754,-0.077306,-0.004124,0.0013839999999999,0.077306,0.0041239999999999,-0.0013839999999999,-0.086141,-0.488384,0.034182,0.125629,-0.506554,0.021508,-0.094791,-0.874084,0.035233,0.1505889999999999,-0.883724,0.021928,1
166,-0.0466415,0.7166220000000001,-0.084341,-0.2112315,0.5120020000000001,-0.06768,-0.3693515,0.6810620000000001,-0.144057,0.1399785,0.531872,-0.09999,0.2817885,0.706092,-0.190137,-0.3692515,0.958532,-0.195447,0.2836085,0.953572,-0.233767,-0.0772265,-0.00427,0.001381,0.0772265,0.0042699999999999,-0.0013809999999999,-0.0860515,-0.489248,0.034429,0.1258285,-0.507368,0.024957,-0.0945215,-0.874138,0.036313,0.1506984999999999,-0.8839079999999999,0.0229,1
167,-0.047778,0.7163325,-0.0834365,-0.211939,0.5115425,-0.0651035,-0.370219,0.6808625,-0.1416635,0.140121,0.5319325,-0.0961455,0.281891,0.7066725,-0.1860635,-0.370229,0.9580425,-0.1934135,0.283011,0.9558425,-0.2313835,-0.0772,-0.0043904999999999,0.0013805,0.0772,0.0043904999999999,-0.0013804999999999,-0.086169,-0.4898375,0.0346405,0.125751,-0.5078975,0.0263175,-0.094579,-0.8740375,0.0372135,0.150721,-0.8843975,0.0234395,1
168,-0.0486474999999999,0.716108,-0.0832625,-0.2124595,0.5111279999999999,-0.0631005,-0.3709695,0.680438,-0.1397475,0.1404004999999999,0.531948,-0.0928785,0.2817205,0.707298,-0.1830675,-0.3724595,0.955638,-0.1919675,0.2831005,0.958618,-0.2297175,-0.0771885,-0.004477,0.0007664999999999,0.0771885,0.0044769999999999,-0.0007665,-0.0864695,-0.489952,0.0338565,0.1259505,-0.508322,0.0260254999999999,-0.0945595,-0.874452,0.0370475,0.1508505,-0.884432,0.0228385,1
169,-0.0493134999999999,0.7159325,-0.0810265,-0.2128015,0.5100025,-0.0615475,-0.3716715,0.6783825,-0.1382644999999999,0.1404385,0.5319725,-0.0903105,0.2817985,0.7077025,-0.1805445,-0.3752015,0.9498325,-0.1912444999999999,0.2831085,0.9582125,-0.2292345,-0.0771995,-0.0045515,0.0004285,0.0771995,0.0045515,-0.0004284999999999,-0.0867214999999999,-0.4901075,0.0327245,0.1261785,-0.5086575,0.0252265,-0.0946815,-0.8742475,0.0365255,0.1508985,-0.8844675,0.0218975,1
170,-0.0497065,0.7158055,-0.0792385,-0.2127814999999999,0.5091455,-0.0603815,-0.3721115,0.6771155,-0.1371735,0.1404885,0.5322855000000001,-0.0882365,0.2818485,0.7077855000000001,-0.1783635,-0.3778315,0.9440255,-0.1911535,0.2833185,0.9548355,-0.2295235,-0.0771874999999999,-0.0046295,0.0002304999999999,0.0771874999999999,0.0046295,-0.0002304999999999,-0.0868115,-0.4902845,0.0318995,0.1264585,-0.5088345,0.0246244999999999,-0.0947215,-0.8743445,0.0360275,0.1509285,-0.8844345,0.0211255,1
171,-0.049971,0.7158835,-0.0775545,-0.212783,0.5083735,-0.0592575,-0.372473,0.6762135,-0.1360885,0.140497,0.5326035,-0.0865795,0.281867,0.7076835,-0.1764685,-0.380143,0.9377735,-0.1919785,0.283977,0.9533535,-0.2304485,-0.07715,-0.0046975,8.050000000000071e-05,0.07715,0.0046975,-8.049999999999898e-05,-0.086893,-0.4903865,0.0311045,0.126717,-0.5087365,0.0240104999999999,-0.0947829999999999,-0.8741265,0.0354715,0.150957,-0.8842965,0.0204425,1
172,-0.050066,0.71629,-0.0755895,-0.2128229999999999,0.50786,-0.0581594999999999,-0.372743,0.67536,-0.1349255,0.140467,0.5327799999999999,-0.0850555,0.281887,0.70761,-0.1751455,-0.3822629999999999,0.93134,-0.1926255,0.285727,0.95176,-0.2312155,-0.077085,-0.0047309999999999,2.4500000000000216e-05,0.077085,0.0047309999999999,-2.4500000000000216e-05,-0.087013,-0.4904199999999999,0.0305165,0.126937,-0.5085500000000001,0.0235575,-0.094873,-0.8741,0.0348265,0.150937,-0.88407,0.0199325,1
173,-0.0501734999999999,0.71671,-0.0737395,-0.2127764999999999,0.50739,-0.0570305,-0.3730664999999999,0.67482,-0.1346845,0.1405435,0.5327799999999999,-0.0837015,0.2822835,0.70761,-0.1745845,-0.3845365,0.92436,-0.1930945,0.2879035,0.94952,-0.2318145,-0.0770235,-0.0047309999999999,1.2499999999998623e-05,0.0770235,0.0047309999999999,-1.2500000000000358e-05,-0.0872264999999999,-0.49056,0.0300615,0.1270435,-0.50838,0.0231674999999999,-0.0948564999999999,-0.87438,0.0343374999999999,0.1508235,-0.88383,0.0196305,1
174,-0.050302,0.71698,-0.0717325,-0.2125929999999999,0.50705,-0.0557914999999999,-0.373683,0.67374,-0.1348335,0.140557,0.5327799999999999,-0.0823355,0.284067,0.70587,-0.1747935,-0.387523,0.91621,-0.1943234999999999,0.291867,0.94337,-0.2342034999999999,-0.076964,-0.0047309999999999,0.0001124999999999,0.076964,0.0047309999999999,-0.0001124999999999,-0.087443,-0.49073,0.0296535,0.127127,-0.50824,0.0227705,-0.094833,-0.87463,0.0340474999999999,0.150667,-0.8836,0.0194535,0
175,-0.0504294999999999,0.717184,-0.0695995,-0.2122945,0.5067940000000001,-0.0539484999999999,-0.3750145,0.671234,-0.1335575,0.1406355,0.532794,-0.0807995,0.2871355,0.702134,-0.1750375,-0.3914245,0.906184,-0.1979175,0.2961955,0.936854,-0.2373775,-0.0769165,-0.0047449999999999,0.0002715,0.0769165,0.0047449999999999,-0.0002714999999999,-0.0876545,-0.490886,0.0294995,0.1271555,-0.508126,0.0226095,-0.0948745,-0.874806,0.0339425,0.1505055,-0.8833759999999999,0.0194925,0
176,-0.0504874999999999,0.7174389999999999,-0.0672155,-0.2118865,0.506599,-0.0516144999999999,-0.3775265,0.666999,-0.1325764999999999,0.1408235,0.5327189999999999,-0.0792435,0.2918435,0.6961189999999999,-0.1746665,-0.3963965,0.893879,-0.2041765,0.3020535,0.927739,-0.2446965,-0.0769045,-0.004777,0.0003864999999999,0.0769045,0.0047769999999999,-0.0003864999999999,-0.0878365,-0.490991,0.0293905,0.1271035,-0.5079009999999999,0.0224965,-0.0949064999999999,-0.874961,0.0338325,0.1503335,-0.883231,0.0195744999999999,0
177,-0.0501779999999999,0.717756,-0.064786,-0.211178,0.5065959999999999,-0.049044,-0.381278,0.658416,-0.131076,0.141222,0.532096,-0.077608,0.2989719999999999,0.686916,-0.174206,-0.401528,0.880736,-0.2130359999999999,0.309162,0.915076,-0.256316,-0.076916,-0.004753,0.000387,0.076916,0.004753,-0.0003869999999999,-0.0878579999999999,-0.490924,0.0293569999999999,0.127142,-0.507464,0.0224949999999999,-0.094788,-0.874824,0.033829,0.150332,-0.882924,0.01971,0
178,-0.049671,0.718376,-0.062173,-0.210314,0.5065360000000001,-0.0461349999999999,-0.384364,0.642436,-0.129877,0.141606,0.531046,-0.0756609999999999,0.3070859999999999,0.671826,-0.173747,-0.407864,0.8606060000000001,-0.224257,0.3183459999999999,0.892816,-0.269837,-0.076912,-0.0046519999999999,0.000516,0.076912,0.004652,-0.0005159999999999,-0.087864,-0.490614,0.029232,0.127136,-0.506694,0.022449,-0.094674,-0.8742439999999999,0.033859,0.150336,-0.8822939999999999,0.019964,0
179,-0.0490269999999999,0.7193835,-0.0589955,-0.209145,0.5059535,-0.0427845,-0.3861949999999999,0.6235335,-0.1286425,0.1419649999999999,0.5297235,-0.0732985,0.313735,0.6527035,-0.1730324999999999,-0.415365,0.8339635,-0.2388825,0.328355,0.8642835,-0.2845925,-0.076903,-0.0045095,0.0007904999999999,0.076903,0.0045095,-0.0007904999999999,-0.087875,-0.4900365,0.0290925,0.127135,-0.5055265,0.0223555,-0.0945749999999999,-0.8735365,0.0340395,0.1503449999999999,-0.8812665000000001,0.0203874999999999,0
180,-0.0482289999999999,0.7207915,-0.0550919999999999,-0.207906,0.5054215,-0.038897,-0.386206,0.5985415000000001,-0.127106,0.142314,0.5274215,-0.070472,0.319414,0.6278815,-0.1714159999999999,-0.423176,0.7991714999999999,-0.252776,0.3398839999999999,0.8261514999999999,-0.297876,-0.076915,-0.0043384999999999,0.0012049999999999,0.076915,0.0043385,-0.0012049999999999,-0.0878559999999999,-0.4890685,0.028957,0.127154,-0.5039485,0.022165,-0.094466,-0.8724685000000001,0.034417,0.150354,-0.8799185,0.020839,0
181,-0.0473895,0.7223959999999999,-0.050882,-0.2066105,0.504526,-0.034903,-0.3860205,0.571736,-0.124539,0.1426095,0.524786,-0.0674599999999999,0.3225295,0.600656,-0.169549,-0.4293105,0.7537159999999999,-0.263949,0.3496595,0.778816,-0.307609,-0.0769675,-0.0041409999999999,0.0016629999999999,0.0769675,0.0041409999999999,-0.001663,-0.0878205,-0.487884,0.0287629999999999,0.1271995,-0.501884,0.0218029999999999,-0.0942705,-0.8710140000000001,0.034959,0.1504194999999999,-0.878174,0.021427,0
182,-0.0464655,0.7242679999999999,-0.0462739999999999,-0.2053134999999999,0.503188,-0.031042,-0.3857735,0.540688,-0.12143,0.1429665,0.5213979999999999,-0.064572,0.3238264999999999,0.567878,-0.16474,-0.4326435,0.698178,-0.2692,0.3582265,0.7196579999999999,-0.31125,-0.0770665,-0.0039229999999999,0.002196,0.0770665,0.003923,-0.0021959999999999,-0.0878035,-0.486602,0.028553,0.1272165,-0.4995119999999999,0.02138,-0.0940135,-0.869282,0.035658,0.1505265,-0.8761420000000001,0.022168,0
183,-0.045532,0.7264075000000001,-0.041642,-0.20408,0.5016775,-0.027753,-0.38546,0.5063675000000001,-0.117064,0.1432,0.5177775,-0.062137,0.32417,0.5347075,-0.159064,-0.43245,0.6343175000000001,-0.268204,0.36283,0.6555575,-0.3103939999999999,-0.077211,-0.0037594999999999,0.00273,0.077211,0.0037594999999999,-0.00273,-0.08777,-0.4852825,0.028454,0.12715,-0.4966825,0.021082,-0.09374,-0.8671325,0.036602,0.15063,-0.8738125,0.023167,0
184,-0.0436975,0.7285505,-0.0348819999999999,-0.2016685,0.5016605,-0.019429,-0.4213685,0.4482405,-0.1036229999999999,0.1447215,0.5124704999999999,-0.05507,0.3583314999999999,0.4883204999999999,-0.158771,-0.4631685,0.5914705,-0.335561,0.3915415,0.6045305,-0.383411,-0.0773215,-0.0032324999999999,0.0033959999999999,0.0773215,0.0032324999999999,-0.0033959999999999,-0.0872285,-0.4821595,0.02885,0.1273815,-0.4941295,0.021438,-0.0934485,-0.8651295,0.037139,0.1506515,-0.8716995,0.024599,0
185,-0.0424719999999999,0.7303995,-0.0286799999999999,-0.1995289999999999,0.4981995,-0.013724,-0.399489,0.4315595,-0.116172,0.144661,0.5096795,-0.052523,0.354701,0.4653595,-0.158792,-0.4712389999999999,0.4955895,-0.330062,0.405731,0.5093495,-0.383912,-0.077322,-0.0030684999999999,0.0040409999999999,0.077322,0.0030684999999999,-0.004041,-0.086969,-0.4800805,0.028151,0.127711,-0.4898105,0.0205129999999999,-0.092689,-0.8615405,0.038236,0.151501,-0.8680105,0.025714,0
186,-0.0415065,0.733642,-0.0246505,-0.1985984999999999,0.494522,-0.0122575,-0.3880885,0.394222,-0.1070585,0.1452915,0.503412,-0.0502015,0.3431715,0.410552,-0.1306185,-0.4713885,0.400852,-0.3269085,0.4117115,0.409752,-0.3557484999999999,-0.0774375,-0.0029369999999999,0.0049594999999999,0.0774375,0.0029369999999999,-0.0049595,-0.0871085,-0.479918,0.0276775,0.1278415,-0.486568,0.0195825,-0.0918485,-0.859748,0.0396865,0.1516015,-0.865248,0.0271285,0
187,-0.040687,0.736552,-0.021744,-0.1980489999999999,0.492912,-0.010681,-0.3714389999999999,0.357372,-0.090349,0.145451,0.5012420000000001,-0.04896,0.335631,0.388922,-0.122619,-0.4576389999999999,0.316022,-0.305469,0.405331,0.320512,-0.336899,-0.077711,-0.0033919999999999,0.005084,0.077711,0.003392,-0.005084,-0.087079,-0.479908,0.027738,0.127311,-0.481728,0.019795,-0.091479,-0.856548,0.042024,0.152171,-0.8619979999999999,0.028075,0
188,-0.0400014999999999,0.7402920000000001,-0.0179785,-0.1974025,0.4896219999999999,-0.0112225,-0.3566325,0.334132,-0.0831745,0.1452775,0.5011420000000001,-0.0466494999999999,0.3145075,0.353242,-0.1066245,-0.4435025,0.238732,-0.2797745,0.3879074999999999,0.260392,-0.3099745,-0.0780455,-0.003424,0.0056454999999999,0.0780455,0.003424,-0.0056454999999999,-0.0876125,-0.476568,0.0292665,0.1267174999999999,-0.477778,0.0210095,-0.0914924999999999,-0.852688,0.0446015,0.1519975,-0.8586579999999999,0.0303545,0
189,-0.0396495,0.743255,-0.015611,-0.1975005,0.4889349999999999,-0.010726,-0.3337405,0.308565,-0.069174,0.1454495,0.499315,-0.046884,0.3010195,0.335725,-0.103351,-0.4213605,0.164455,-0.231781,0.3809694999999999,0.183465,-0.2622009999999999,-0.0781025,-0.003228,0.006264,0.0781025,0.0032279999999999,-0.006264,-0.0877805,-0.474695,0.029681,0.1262895,-0.476065,0.021736,-0.0915005,-0.8498650000000001,0.0464809999999999,0.1518495,-0.855955,0.031858,0
190,-0.0390224999999999,0.7462975000000001,-0.0136134999999999,-0.1962745,0.4870374999999999,-0.0146034999999999,-0.3138545,0.2761375,-0.0545145,0.1438855,0.4979375,-0.0499695,0.2876355,0.2896174999999999,-0.0958775,-0.3849445,0.0954675,-0.1838325,0.3621555,0.1040275,-0.2149925,-0.0783195,-0.0033775,0.0063545,0.0783195,0.0033775,-0.0063545,-0.0878245,-0.4719025,0.0303925,0.1259954999999999,-0.4728025,0.0221095,-0.0912545,-0.8464324999999999,0.0484205,0.1517155,-0.8528625,0.0337985,0
