sb224sc-HT22-VT27/4dt907/src/data/labeled_files/A156_kinect.csv
FrameNo,nose_3d_x,nose_3d_y,nose_3d_z,left_shoulder_3d_x,left_shoulder_3d_y,left_shoulder_3d_z,left_elbow_3d_x,left_elbow_3d_y,left_elbow_3d_z,right_shoulder_3d_x,right_shoulder_3d_y,right_shoulder_3d_z,right_elbow_3d_x,right_elbow_3d_y,right_elbow_3d_z,left_wrist_3d_x,left_wrist_3d_y,left_wrist_3d_z,right_wrist_3d_x,right_wrist_3d_y,right_wrist_3d_z,left_hip_3d_x,left_hip_3d_y,left_hip_3d_z,right_hip_3d_x,right_hip_3d_y,right_hip_3d_z,left_knee_3d_x,left_knee_3d_y,left_knee_3d_z,right_knee_3d_x,right_knee_3d_y,right_knee_3d_z,left_ankle_3d_x,left_ankle_3d_y,left_ankle_3d_z,right_ankle_3d_x,right_ankle_3d_y,right_ankle_3d_z,activity_label
0,-0.0471555,0.7565695,-0.0015919999999999,-0.2097855,0.4864795,-0.0091449999999999,-0.2438855,0.2210194999999999,-0.0014839999999999,0.1383745,0.4952395,-0.028154,0.2189045,0.2326994999999999,-0.0187519999999999,-0.2003655,-0.0220415,-0.0802779999999999,0.2247145,-0.0119785,-0.0980279999999999,-0.0787305,-0.0054135,-8.59999999999958e-05,0.0787305,0.0054135,8.600000000000274e-05,-0.0947965,-0.4588805,0.036604,0.1216845,-0.4681805,0.033711,-0.1057855,-0.8323605,0.074061,0.1506545,-0.8400605,0.059016,0
1,-0.0460355,0.7559795,-0.001744,-0.2094905,0.4865595,-0.008051,-0.2415805,0.2206895,-0.000614,0.1392094999999999,0.4947494999999999,-0.027881,0.2187494999999999,0.2323695,-0.019247,-0.1910105,-0.0228325,-0.079358,0.2230494999999999,-0.0124415,-0.098218,-0.0788305,-0.0054725,-2.000000000002e-06,0.0788305,0.0054725,2.000000000002e-06,-0.0951984999999999,-0.4605205,0.038361,0.1214494999999999,-0.4683005,0.034251,-0.1074505,-0.8328105,0.073931,0.1491595,-0.8402405000000001,0.05923,0
2,-0.0448294999999999,0.75572,-0.0011349999999999,-0.2087224999999999,0.48684,-0.0073989999999999,-0.2403624999999999,0.22048,-0.0002699999999999,0.1393875,0.49465,-0.027881,0.2180375,0.23234,-0.019691,-0.1879624999999999,-0.0236329999999999,-0.0785479999999999,0.2211575,-0.012251,-0.099398,-0.0789885,-0.005463,0.000404,0.0789885,0.005463,-0.0004039999999999,-0.0950765,-0.4626,0.039701,0.1213375,-0.46852,0.034495,-0.1085025,-0.8319000000000001,0.074491,0.1482075,-0.83955,0.059443,0
3,-0.04535,0.755705,-0.0014315,-0.208567,0.486935,-0.0081185,-0.240757,0.220525,-0.0008834999999999,0.139063,0.494185,-0.0286514999999999,0.2162929999999999,0.232455,-0.0205565,-0.186287,-0.021876,-0.0771855,0.218903,-0.011916,-0.1010755,-0.079047,-0.00539,0.0007915,0.079047,0.00539,-0.0007915,-0.096391,-0.463225,0.0394975,0.120613,-0.469185,0.0332625,-0.110267,-0.831825,0.0736555,0.146563,-0.8392850000000001,0.0587785,0
4,-0.044223,0.7559165,-0.0016005,-0.207425,0.4873865,-0.0083105,-0.2402949999999999,0.2203365,-0.0010125,0.140115,0.4939265,-0.0288855,0.215575,0.2323165,-0.0213935,-0.1849849999999999,-0.0229065,-0.0759735,0.217435,-0.0121175,-0.1024135,-0.079165,-0.0052645,0.0006604999999999,0.079165,0.0052645,-0.0006605,-0.096639,-0.4640935,0.0393925,0.119985,-0.4686234999999999,0.0325714999999999,-0.110875,-0.8323135,0.0728155,0.145935,-0.8392535,0.0582945,0
5,-0.0422445,0.75576,-0.0031375,-0.2068635,0.4886999999999999,-0.0092744999999999,-0.2396735,0.22174,-0.0020384999999999,0.1410064999999999,0.49409,-0.0300845,0.2147665,0.23176,-0.0234835,-0.1851635,-0.0228729999999999,-0.0759195,0.2133064999999999,-0.0125379999999999,-0.1052095,-0.0793005,-0.004978,0.0005424999999999,0.0793005,0.004978,-0.0005425,-0.0973475,-0.46449,0.0385925,0.1188565,-0.46792,0.0318774999999999,-0.1122035,-0.83181,0.0714065,0.1449065,-0.8381500000000001,0.0571674999999999,0
6,-0.041153,0.7558710000000001,-0.0034485,-0.205716,0.489041,-0.0088465,-0.239096,0.221851,-0.0022755,0.1421639999999999,0.494301,-0.0300245,0.214754,0.231981,-0.0239295,-0.185046,-0.023434,-0.0757665,0.2117339999999999,-0.012261,-0.1065865,-0.079325,-0.004834,0.0006114999999999,0.079325,0.004834,-0.0006115,-0.097131,-0.464489,0.0383144999999999,0.1197739999999999,-0.467459,0.0326275,-0.1123059999999999,-0.831519,0.0709545,0.1452939999999999,-0.837429,0.0568515,0
7,-0.0396525,0.756508,-0.0040894999999999,-0.2040365,0.488608,-0.0102025,-0.2392965,0.221938,-0.0028845,0.1433835,0.493628,-0.0298675,0.2148335,0.232198,-0.0239654999999999,-0.1947565,-0.022834,-0.0751085,0.2109535,-0.011738,-0.1059785,-0.0793275,-0.004489,0.0006505,0.0793275,0.004489,-0.0006505,-0.0965415,-0.4630019999999999,0.0378785,0.1209135,-0.467452,0.0333185,-0.1117165,-0.830762,0.0705925,0.1457735,-0.837372,0.0564034999999999,0
8,-0.0382679999999999,0.7565915,-0.0047805,-0.202884,0.4889415,-0.0107324999999999,-0.239124,0.2221715,-0.0033504999999999,0.1444059999999999,0.4935015,-0.0300265,0.214596,0.2322215,-0.0246185,-0.1951339999999999,-0.0230105,-0.0751785,0.209246,-0.0117505,-0.1066385,-0.079374,-0.0042495,0.0006264999999999,0.079374,0.0042495,-0.0006265,-0.096427,-0.4627785,0.0374715,0.121196,-0.4672885,0.0333715,-0.1118339999999999,-0.8302485000000001,0.0699765,0.145746,-0.8369585,0.0559105,0
9,-0.0369835,0.7567,-0.0054325,-0.2018235,0.48924,-0.0113645,-0.2390835,0.22248,-0.0038374999999999,0.1453864999999999,0.49339,-0.0301385,0.2144864999999999,0.2323,-0.0252205,-0.1969435,-0.023134,-0.0757175,0.2075965,-0.011746,-0.1071874999999999,-0.0794145,-0.003986,0.0006005,0.0794145,0.003986,-0.0006005,-0.0962835,-0.46251,0.0370075,0.1215665,-0.46713,0.0334285,-0.1118635,-0.82966,0.0693905,0.1457665,-0.83648,0.0553914999999999,0
10,-0.035858,0.756719,-0.0059234999999999,-0.200779,0.489469,-0.0118515,-0.239129,0.222749,-0.0042125,0.146311,0.493249,-0.0301155,0.214501,0.232519,-0.0256715,-0.199349,-0.0229769999999999,-0.0759255,0.206711,-0.011708,-0.1075955,-0.079423,-0.003747,0.0005795,0.079423,0.003747,-0.0005795,-0.0960699999999999,-0.462281,0.0366434999999999,0.1220509999999999,-0.466981,0.0335945,-0.111759,-0.8292109999999999,0.0689434999999999,0.145891,-0.836151,0.0550345,0
11,-0.034767,0.756656,-0.006492,-0.199823,0.489706,-0.012285,-0.239183,0.223016,-0.004559,0.147127,0.493096,-0.03009,0.2145169999999999,0.232746,-0.02607,-0.202283,-0.02275,-0.075932,0.206657,-0.0114989999999999,-0.107992,-0.079426,-0.00351,0.0005519999999999,0.079426,0.00351,-0.000552,-0.095872,-0.462024,0.0363029999999999,0.1224669999999999,-0.4667239999999999,0.033649,-0.111643,-0.828784,0.068548,0.1459669999999999,-0.835904,0.054742,0
12,-0.0337735,0.7563205,-0.007341,-0.1989115,0.4899205,-0.0126429999999999,-0.2392415,0.2232105,-0.00483,0.1478085,0.4930205,-0.030102,0.2145585,0.2328905,-0.026297,-0.2056714999999999,-0.0226035,-0.075584,0.2065985,-0.0116165,-0.108264,-0.0794314999999999,-0.0033485,0.000517,0.0794314999999999,0.0033484999999999,-0.000517,-0.0956934999999999,-0.4617595,0.0359769999999999,0.1227585,-0.4664895,0.033553,-0.1115115,-0.8283295,0.0682509999999999,0.1460085,-0.8357595,0.054532,0
13,-0.0328975,0.756006,-0.008176,-0.1981675,0.4900359999999999,-0.013014,-0.2397275,0.223826,-0.0046199999999999,0.1484224999999999,0.493016,-0.030196,0.2148125,0.233016,-0.025899,-0.2088675,-0.022441,-0.07521,0.2065525,-0.01149,-0.10798,-0.0794605,-0.003208,0.0004879999999999,0.0794605,0.003208,-0.000488,-0.0955195,-0.461414,0.0356719999999999,0.1229524999999999,-0.466294,0.033248,-0.1113775,-0.827904,0.06802,0.1460325,-0.835644,0.0543069999999999,0
14,-0.0323115,0.7556425,-0.0091834999999999,-0.1978514999999999,0.4900925,-0.0134735,-0.2410215,0.2246825,-0.0037364999999999,0.1488485,0.4930725,-0.0305114999999999,0.2155885,0.2331925,-0.0250615,-0.2122615,-0.0221575,-0.0749035,0.2069685,-0.0116385,-0.1067735,-0.0794574999999999,-0.0031235,0.0005024999999999,0.0794574999999999,0.0031235,-0.0005024999999999,-0.0954704999999999,-0.4611075,0.0353395,0.1229685,-0.4661375,0.0329175,-0.1113815,-0.8275875,0.0677465,0.1458985,-0.8355775,0.0540275,0
15,-0.0320875,0.7550305,-0.0107705,-0.1979935,0.4900505,-0.0138875,-0.2439635,0.2262305,-0.0014345,0.1491664999999999,0.4930305,-0.0307915,0.2180765,0.2334905,-0.0232385,-0.2166735,-0.0217765,-0.0717385,0.2113765,-0.0116695,-0.1017124999999999,-0.0793985,-0.0030815,0.0005244999999999,0.0793985,0.0030814999999999,-0.0005245,-0.0955705,-0.4610095,0.0350744999999999,0.1227365,-0.4661295,0.0326565,-0.1115235,-0.8275995,0.0675365,0.1456465,-0.8356695,0.0538105,0
16,-0.0319745,0.7544235,-0.012475,-0.1982685,0.4901435,-0.014308,-0.2476185,0.2278135,0.0020349999999999,0.1494815,0.4929835,-0.030986,0.2218115,0.2342034999999999,-0.020744,-0.2209285,-0.0214924999999999,-0.066726,0.2183515,-0.0118255,-0.093356,-0.0793295,-0.0030345,0.0005439999999999,0.0793295,0.0030345,-0.000544,-0.0956985,-0.4609465,0.03487,0.1224715,-0.4660665,0.0324319999999999,-0.1116585,-0.8276365,0.067383,0.1453915,-0.8357665,0.0537099999999999,0
17,-0.031938,0.7538485,-0.014608,-0.198458,0.4903585,-0.014778,-0.251588,0.2295185,0.0063569999999999,0.149862,0.4929685,-0.031188,0.226402,0.2350585,-0.017192,-0.223248,-0.0209665,-0.057485,0.224332,-0.0118905,-0.082517,-0.079273,-0.0029695,0.0005769999999999,0.079273,0.0029695,-0.000577,-0.095752,-0.4609315,0.034633,0.122292,-0.4659415,0.0321059999999999,-0.111718,-0.8277015,0.067242,0.145212,-0.8358715,0.0535709999999999,0
18,-0.032002,0.7531884999999999,-0.0169915,-0.1986629999999999,0.4905684999999999,-0.0150935,-0.253823,0.2313285,0.0126525,0.150247,0.4930985,-0.0313404999999999,0.230177,0.2361485,-0.0113915,-0.2245329999999999,-0.0197465,-0.0431255,0.226807,-0.0119255,-0.0658195,-0.079241,-0.0028925,0.0005754999999999,0.079241,0.0028924999999999,-0.0005754999999999,-0.095834,-0.4609415,0.0345455,0.122097,-0.4655415,0.0317675,-0.111813,-0.8277915,0.0672515,0.145047,-0.8359615,0.0536135,0
19,-0.0323615,0.7524445,-0.0196555,-0.1989645,0.4907345,-0.0154925,-0.2552845,0.2331145,0.0203345,0.1506655,0.4933145,-0.0316855,0.2332155,0.2371345,-0.0040205,-0.2240945,-0.0174425,-0.0238045,0.2295755,-0.0119445,-0.0455664999999999,-0.0792135,-0.0028545,0.0005744999999999,0.0792135,0.0028545,-0.0005744999999999,-0.0960145,-0.4610355,0.0344595,0.1218055,-0.4651955,0.0313275,-0.1119945,-0.8280155,0.0672585,0.1447955,-0.8361355,0.0536585,0
20,-0.032734,0.751634,-0.0224755,-0.199473,0.490794,-0.0159555,-0.255583,0.234864,0.0294775,0.151167,0.493534,-0.0323065,0.234797,0.239044,0.0061314999999999,-0.223513,-0.011779,-0.0004504999999999,0.231677,-0.0102399999999999,-0.0208595,-0.079183,-0.0028209999999999,0.0005735,0.079183,0.002821,-0.0005735,-0.0962059999999999,-0.4611659999999999,0.0343145,0.121497,-0.464896,0.0308445,-0.112183,-0.828356,0.0672655,0.144537,-0.836416,0.0536645,0
21,-0.0331525,0.7506765,-0.025705,-0.2001795,0.4906165,-0.0163999999999999,-0.2554495,0.2370465,0.041372,0.1515205,0.4939065,-0.03324,0.2358305,0.2422065,0.017216,-0.2228495,-0.0055675,0.025996,0.2333404999999999,-0.0031465,0.007155,-0.0791315,-0.0028275,0.000623,0.0791315,0.0028275,-0.0006229999999999,-0.0964575,-0.4614534999999999,0.034236,0.1211204999999999,-0.4646635,0.030279,-0.1124095,-0.8289934999999999,0.067381,0.1442804999999999,-0.8368435,0.0537679999999999,0
22,-0.033559,0.7495335000000001,-0.02926,-0.200955,0.4903635,-0.016814,-0.255325,0.2395435,0.052361,0.151785,0.4942535,-0.034303,0.235925,0.2457435,0.02736,-0.221505,0.0014864999999999,0.0519349999999999,0.234065,0.0041845,0.034391,-0.079086,-0.0028645,0.0006549999999999,0.079086,0.0028645,-0.000655,-0.096709,-0.4618265,0.034303,0.120765,-0.4644864999999999,0.0298039999999999,-0.112625,-0.8297365,0.067661,0.1440449999999999,-0.8374165,0.054084,0
23,-0.033999,0.7483075,-0.0329125,-0.201649,0.4900474999999999,-0.0172785,-0.255169,0.2424875,0.0613735,0.152041,0.4945775,-0.0354005,0.236081,0.2507575,0.0361625,-0.219609,0.0087395,0.0764255,0.234821,0.0130204999999999,0.0599115,-0.079099,-0.0029335,0.0007414999999999,0.079099,0.0029335,-0.0007415,-0.096863,-0.4622325,0.0344654999999999,0.1204909999999999,-0.4642225,0.0293424999999999,-0.112729,-0.8305024999999999,0.0680485,0.143941,-0.8380225,0.0545185,0
24,-0.0344205,0.747101,-0.036434,-0.2024035,0.4896609999999999,-0.017703,-0.2547235,0.245171,0.067378,0.1522465,0.494861,-0.036513,0.2362265,0.256191,0.043553,-0.2170435,0.0162439999999999,0.096002,0.2354765,0.022435,0.081159,-0.0791375,-0.002978,0.0008349999999999,0.0791375,0.0029779999999999,-0.000835,-0.0969785,-0.462519,0.034693,0.1203164999999999,-0.464039,0.02915,-0.1127634999999999,-0.831169,0.068552,0.1438664999999999,-0.838539,0.055039,0
25,-0.034771,0.745818,-0.0399575,-0.2031,0.4892479999999999,-0.0180985,-0.25327,0.2484579999999999,0.0719925,0.15244,0.495098,-0.0376225,0.23629,0.261078,0.0502175,-0.21381,0.024204,0.1131275,0.23582,0.031625,0.0989875,-0.079186,-0.003022,0.0009394999999999,0.079186,0.0030219999999999,-0.0009394999999999,-0.097075,-0.462772,0.0349595,0.12016,-0.463952,0.0290855,-0.1128,-0.831802,0.0690195,0.1439,-0.838992,0.0554525,0
26,-0.0349919999999999,0.7446005,-0.0430935,-0.203639,0.4889004999999999,-0.0184804999999999,-0.250839,0.2513805,0.0755565,0.152591,0.4952304999999999,-0.0387005,0.235451,0.2656805,0.0557995,-0.210139,0.0316825,0.1256965,0.234601,0.0405165,0.1143164999999999,-0.079243,-0.0030635,0.0009974999999999,0.079243,0.0030635,-0.0009974999999999,-0.097134,-0.4629595,0.0353345,0.120061,-0.4637895,0.0291605,-0.112789,-0.8323594999999999,0.0695935,0.144001,-0.8393594999999999,0.0559295,0
27,-0.0350745,0.743465,-0.0458669999999999,-0.2039955,0.4886149999999999,-0.01901,-0.2469855,0.254015,0.077156,0.1527645,0.495285,-0.0397899999999999,0.2329145,0.270005,0.059384,-0.2049455,0.03845,0.133145,0.2295444999999999,0.0494449999999999,0.124147,-0.0792675,-0.003102,0.001034,0.0792675,0.0031019999999999,-0.001034,-0.0971125,-0.462995,0.035809,0.1200744999999999,-0.463755,0.029373,-0.1126855,-0.832895,0.070264,0.1441945,-0.839615,0.056431,0
28,-0.0351559999999999,0.7425109999999999,-0.0483245,-0.204272,0.488261,-0.0196155,-0.242432,0.256591,0.0776745,0.152808,0.495221,-0.0407424999999999,0.229148,0.274321,0.0614495,-0.199522,0.044128,0.1353785,0.222098,0.058274,0.1304555,-0.079304,-0.00315,0.0010834999999999,0.079304,0.00315,-0.0010835,-0.097106,-0.462929,0.0362645,0.120098,-0.463699,0.0296465,-0.112582,-0.8333590000000001,0.0709175,0.144388,-0.839839,0.0569255,0
29,-0.035253,0.741697,-0.050572,-0.204422,0.487727,-0.020436,-0.237502,0.259067,0.078182,0.1528379999999999,0.495157,-0.041536,0.2245879999999999,0.277767,0.062303,-0.195352,0.046501,0.1359159999999999,0.215748,0.065496,0.132136,-0.079367,-0.0032119999999999,0.0011439999999999,0.079367,0.0032119999999999,-0.0011439999999999,-0.09713,-0.462833,0.036784,0.1200879999999999,-0.463613,0.029935,-0.112502,-0.833713,0.071572,0.144528,-0.839953,0.057426,0
30,-0.0353055,0.741078,-0.0522435,-0.2045135,0.487188,-0.0213335,-0.2342635,0.260988,0.0785365,0.1528165,0.495138,-0.0421865,0.2209065,0.279898,0.0629105,-0.1918235,0.048205,0.1362595,0.2132165,0.067319,0.1326995,-0.0794475,-0.003231,0.0011855,0.0794475,0.003231,-0.0011854999999999,-0.0972145,-0.4626519999999999,0.0371385,0.1200564999999999,-0.463512,0.0301795,-0.1124735,-0.833872,0.0720345,0.1446265,-0.839932,0.0576765,0
31,-0.0352595,0.740568,-0.0535924999999999,-0.2045884999999999,0.486578,-0.0223935,-0.2318385,0.262028,0.0781355,0.1528015,0.495138,-0.0427105,0.2179615,0.281438,0.0633685,-0.1903685,0.048732,0.1365615,0.2108115,0.06879,0.1331415,-0.0795154999999999,-0.003231,0.0011955,0.0795154999999999,0.003231,-0.0011955,-0.0972845,-0.462452,0.0374074999999999,0.1200515,-0.4634419999999999,0.0303955,-0.1124284999999999,-0.8339719999999999,0.0723525,0.1447215,-0.839882,0.0577695,0
32,-0.035132,0.740148,-0.054698,-0.204668,0.485948,-0.0234179999999999,-0.230578,0.262308,0.076122,0.152662,0.495138,-0.0431329999999999,0.216572,0.281438,0.062193,-0.189368,0.0487929999999999,0.134523,0.209262,0.06879,0.133523,-0.079549,-0.003231,0.001141,0.079549,0.003231,-0.0011409999999999,-0.097366,-0.462242,0.037691,0.1200519999999999,-0.463422,0.030645,-0.112388,-0.834102,0.072638,0.144752,-0.8398019999999999,0.057844,0
33,-0.034956,0.7399089999999999,-0.055358,-0.2047159999999999,0.485419,-0.024444,-0.230046,0.262349,0.0713989999999999,0.152574,0.494959,-0.043504,0.215674,0.281479,0.059985,-0.189026,0.0488339999999999,0.129487,0.208274,0.068831,0.131296,-0.0795599999999999,-0.003272,0.0010569999999999,0.0795599999999999,0.003272,-0.001057,-0.0974289999999999,-0.462051,0.0379099999999999,0.120084,-0.463341,0.0308219999999999,-0.112346,-0.834151,0.072836,0.144814,-0.839761,0.057851,0
34,-0.034674,0.7398725,-0.0556375,-0.204743,0.4849624999999999,-0.0253255,-0.230093,0.2624725,0.0673115,0.152547,0.4947924999999999,-0.0437225,0.215587,0.2816025,0.0583324999999999,-0.189183,0.0489575,0.1252835,0.208147,0.0689545,0.1296425,-0.079575,-0.0033095,0.0009734999999999,0.079575,0.0033095,-0.0009735,-0.097494,-0.4617475,0.0382354999999999,0.120117,-0.4631775,0.0311214999999999,-0.112303,-0.8341175,0.0731844999999999,0.144837,-0.8395475,0.0580865,0
35,-0.0344145,0.739886,-0.055678,-0.2047565,0.484536,-0.026015,-0.2301765,0.262616,0.0647109999999999,0.1525035,0.494666,-0.043711,0.2155635,0.281596,0.057689,-0.1892665,0.049101,0.122665,0.2081335,0.068944,0.128999,-0.0795895,-0.00332,0.0009079999999999,0.0795895,0.00332,-0.0009079999999999,-0.0975455,-0.461424,0.038621,0.1201635,-0.462954,0.0315309999999999,-0.1122465,-0.834074,0.073627,0.1448835,-0.839284,0.058413,0
36,-0.0342635,0.7399915,-0.0554475,-0.2047585,0.4842214999999999,-0.0263834999999999,-0.2301885,0.2625615,0.0640775,0.1524815,0.4946014999999999,-0.0435185,0.2155814999999999,0.2809815,0.0576435,-0.1892785,0.0489115,0.1220285,0.2081515,0.0683195,0.1289535,-0.0796265,-0.0033265,0.0009065,0.0796265,0.0033265,-0.0009064999999999,-0.0975835,-0.4611685,0.0391495,0.1202315,-0.4627185,0.0320735,-0.1121885,-0.8339785000000001,0.0741985,0.1449415,-0.8390085,0.0589115,0
37,-0.034231,0.7401135,-0.0551364999999999,-0.2047479999999999,0.4840035,-0.0265374999999999,-0.230188,0.2618635,0.0637785,0.1524519999999999,0.4945135,-0.0433294999999999,0.215592,0.2805035,0.0576825,-0.189328,0.0482155,0.1217315,0.208172,0.0678485,0.1289935,-0.079661,-0.0033365,0.0009205,0.079661,0.0033365,-0.0009204999999999,-0.097619,-0.4608265,0.0396725,0.120302,-0.4624165,0.0326365,-0.112138,-0.8338865,0.0748135,0.145002,-0.8387465,0.0594745,0
38,-0.0341934999999999,0.7402200000000001,-0.05466,-0.2047494999999999,0.48392,-0.0263219999999999,-0.2304095,0.26145,0.063835,0.1524805,0.4944699999999999,-0.0431499999999999,0.2159005,0.28023,0.057651,-0.1895895,0.0477929999999999,0.12179,0.2084605,0.067573,0.128962,-0.0796935,-0.00335,0.000991,0.0796935,0.00335,-0.0009909999999999,-0.0976384999999999,-0.46051,0.040271,0.1203705,-0.46212,0.03328,-0.1120594999999999,-0.8337699999999999,0.075538,0.1450705,-0.8384699999999999,0.060128,0
39,-0.0341475,0.7403190000000001,-0.054095,-0.2047435,0.483819,-0.025975,-0.2304835,0.261169,0.064051,0.1525065,0.494389,-0.043001,0.2161664999999999,0.279919,0.0576519999999999,-0.1896635,0.04752,0.122008,0.2087264999999999,0.067266,0.128964,-0.0797175,-0.003375,0.001098,0.0797175,0.003375,-0.001098,-0.0976285,-0.460221,0.040898,0.1204464999999999,-0.461821,0.033894,-0.1119735,-0.833651,0.076263,0.1451365,-0.838231,0.060862,0
40,-0.0341045,0.7403695,-0.0534864999999999,-0.2047554999999999,0.4837595,-0.0254724999999999,-0.2305555,0.2609195,0.0645175,0.1524344999999999,0.4942595,-0.0430325,0.2163945,0.2795095,0.0574615,-0.1897455,0.0472665,0.1224765,0.2089444999999999,0.0668585,0.1287745,-0.0797315,-0.0033924999999999,0.0012655,0.0797315,0.0033924999999999,-0.0012654999999999,-0.0976165,-0.4599705,0.0414615,0.1205244999999999,-0.4615605,0.0344475,-0.1118855,-0.8335905,0.0769435,0.1451845,-0.8380505,0.0615545,0
41,-0.034196,0.7404050000000001,-0.0528504999999999,-0.20481,0.4837349999999999,-0.0249165,-0.23063,0.260745,0.0649875,0.15233,0.494145,-0.0431595,0.21661,0.2790749999999999,0.0571085,-0.18983,0.047089,0.1229475,0.20916,0.066424,0.1284215,-0.079745,-0.00341,0.0014664999999999,0.079745,0.00341,-0.0014665,-0.097607,-0.459735,0.0419275,0.1206199999999999,-0.461295,0.0349024999999999,-0.1118,-0.833545,0.0775435,0.1451899999999999,-0.837765,0.0621705,0
42,-0.034509,0.740485,-0.0521435,-0.204917,0.483725,-0.0243084999999999,-0.230707,0.260575,0.0654835,0.152163,0.494035,-0.0433685,0.216813,0.278575,0.0566784999999999,-0.189907,0.046921,0.1234445,0.209353,0.065917,0.1279914999999999,-0.0797529999999999,-0.00343,0.0017214999999999,0.0797529999999999,0.00343,-0.0017215,-0.097588,-0.459525,0.0423915,0.120703,-0.461065,0.0353244999999999,-0.1116969999999999,-0.833565,0.0781455,0.145193,-0.8374750000000001,0.0628195,0
43,-0.0349355,0.7405655,-0.05154,-0.2050575,0.4836955,-0.0237649999999999,-0.2307875,0.2603955,0.065999,0.1519825,0.4939555,-0.043659,0.2169925,0.2781555,0.056241,-0.1899875,0.0467384999999999,0.123959,0.2095324999999999,0.0655034999999999,0.127554,-0.0797565,-0.0034405,0.0019829999999999,0.0797565,0.0034405,-0.0019829999999999,-0.0975655,-0.4593244999999999,0.042789,0.1207725,-0.4608445,0.035653,-0.1116075,-0.8335745,0.0786709999999999,0.1451825,-0.8372245,0.063343,0
44,-0.035419,0.7406524999999999,-0.051018,-0.2051859999999999,0.4836725,-0.0233009999999999,-0.230876,0.2602025,0.066439,0.151784,0.4938725,-0.044031,0.217144,0.2778525,0.055637,-0.190076,0.0465475,0.124399,0.209684,0.0652005,0.126949,-0.0797549999999999,-0.0034475,0.002249,0.0797549999999999,0.0034475,-0.002249,-0.0975409999999999,-0.4591275,0.04308,0.120864,-0.4606975,0.0358729999999999,-0.111516,-0.8335675,0.079125,0.145194,-0.8369875,0.063816,0
45,-0.0359235,0.740749,-0.0506895,-0.2053475,0.483659,-0.0230345,-0.2309775,0.260059,0.0666045,0.1515925,0.493799,-0.0444755,0.2172724999999999,0.277669,0.0549225,-0.1901875,0.046411,0.1245655,0.2098125,0.065009,0.1262345,-0.0797435,-0.0034519999999999,0.0024524999999999,0.0797435,0.0034519999999999,-0.0024525,-0.0975285,-0.4589709999999999,0.0432414999999999,0.1209425,-0.460601,0.0359544999999999,-0.1114375,-0.833531,0.0794314999999999,0.1451925,-0.8367709999999999,0.0641245,0
46,-0.0364705,0.740875,-0.05037,-0.2055085,0.483635,-0.022842,-0.2310785,0.259925,0.066661,0.1513914999999999,0.493745,-0.044945,0.2173915,0.277515,0.0540939999999999,-0.1902885,0.046273,0.124622,0.2099214999999999,0.064856,0.125406,-0.0797365,-0.003466,0.0026329999999999,0.0797365,0.0034659999999999,-0.002633,-0.0975015,-0.4589249999999999,0.043405,0.1210314999999999,-0.460565,0.0359639999999999,-0.1113785,-0.8335450000000001,0.079682,0.1452014999999999,-0.836565,0.0643769999999999,0
47,-0.0369535,0.7409945,-0.0501974999999999,-0.2056565,0.4836045,-0.0228064999999999,-0.2311765,0.2597845,0.0665845,0.1512135,0.4937045,-0.0454514999999999,0.2174735,0.2774645,0.0533915,-0.1903865,0.0461295,0.1245465,0.2100135,0.0648115,0.1247035,-0.0797355,-0.0034935,0.0027355,0.0797355,0.0034935,-0.0027354999999999,-0.0974745,-0.4588954999999999,0.0434505,0.1211134999999999,-0.4605554999999999,0.0358365,-0.1113465,-0.8335255,0.0797825,0.1452034999999999,-0.8363655,0.0644935,0
48,-0.037412,0.741097,-0.050025,-0.205809,0.483557,-0.02273,-0.231279,0.259647,0.066398,0.151051,0.493657,-0.0459659999999999,0.217541,0.277427,0.052716,-0.190489,0.045992,0.124361,0.210071,0.064774,0.124029,-0.079738,-0.003531,0.002807,0.079738,0.003531,-0.0028069999999999,-0.097459,-0.458883,0.043454,0.121191,-0.460563,0.035669,-0.111339,-0.833503,0.07992,0.145191,-0.8361829999999999,0.064577,0
49,-0.0378555,0.7412194999999999,-0.0498525,-0.2059585,0.4835095,-0.0226815,-0.2313685,0.2594895,0.0661974999999999,0.1509615,0.4936095,-0.0463334999999999,0.2175915,0.2773795,0.0522025,-0.1905685,0.0458385,0.1241615,0.2101215,0.0647265,0.1235155,-0.0797384999999999,-0.0035735,0.0028494999999999,0.0797384999999999,0.0035735,-0.0028494999999999,-0.0974575,-0.4589105,0.0434275,0.1212615,-0.4606004999999999,0.0354865,-0.1113285,-0.8334705,0.0800285,0.1451915,-0.8360105,0.0647075,0
50,-0.0383035,0.7413660000000001,-0.0497485,-0.2061155,0.483446,-0.0227175,-0.2315054999999999,0.2593359999999999,0.0658864999999999,0.1509145,0.493556,-0.0466525,0.2176345,0.2773259999999999,0.0519014999999999,-0.1907154999999999,0.045684,0.1238504999999999,0.2101644999999999,0.064673,0.1232164999999999,-0.0797375,-0.003621,0.0028494999999999,0.0797375,0.003621,-0.0028495,-0.0974665,-0.458964,0.0433904999999999,0.1213045,-0.460654,0.0353514999999999,-0.1113555,-0.833434,0.0800884999999999,0.1451744999999999,-0.836004,0.0648455,0
51,-0.0386255,0.741502,-0.0496885,-0.2062095,0.483372,-0.0228624999999999,-0.2316794999999999,0.259222,0.0655395,0.1508805,0.493522,-0.0468404999999999,0.2176905,0.277472,0.0518325,-0.1908895,0.045568,0.1235035,0.2102204999999999,0.064811,0.1231475,-0.0797315,-0.003655,0.0028574999999999,0.0797315,0.003655,-0.0028574999999999,-0.0974575,-0.458998,0.0433575,0.1213605,-0.460688,0.0353345,-0.1113794999999999,-0.8333780000000001,0.0801245,0.1451704999999999,-0.835978,0.0649705,0
52,-0.038942,0.741654,-0.049638,-0.206307,0.4832639999999999,-0.023134,-0.231857,0.2590639999999999,0.065179,0.150853,0.493554,-0.0470049999999999,0.217733,0.277854,0.051818,-0.191067,0.045413,0.123143,0.210263,0.065194,0.123133,-0.079726,-0.003683,0.00287,0.079726,0.003683,-0.0028699999999999,-0.097455,-0.458996,0.043345,0.121423,-0.460726,0.03532,-0.1114069999999999,-0.833356,0.080168,0.145143,-0.8359559999999999,0.065084,0
53,-0.0392385,0.7417785,-0.049654,-0.2064475,0.4831085,-0.023546,-0.2320475,0.2588585,0.0646849999999999,0.1508125,0.4935985,-0.0471389999999999,0.2176925,0.2783885,0.051793,-0.1912575,0.0452035,0.12265,0.2102225,0.0657315,0.123108,-0.0797265,-0.0037085,0.0028769999999999,0.0797265,0.0037085,-0.0028769999999999,-0.0974665,-0.4589915,0.043308,0.1214625,-0.4608015,0.035292,-0.1114475,-0.8333415,0.080234,0.1450925,-0.8359415,0.06517,0
54,-0.0395185,0.7419089999999999,-0.049805,-0.2065884999999999,0.482949,-0.024175,-0.2322485,0.258539,0.064065,0.1507915,0.493649,-0.047344,0.2176415,0.279089,0.051633,-0.1914585,0.044891,0.12203,0.2101715,0.066429,0.122948,-0.0797325,-0.003728,0.0027999999999999,0.0797325,0.003728,-0.0028,-0.0974905,-0.458981,0.043147,0.1214815,-0.4608609999999999,0.035129,-0.1115184999999999,-0.833341,0.080151,0.1450415,-0.8359610000000001,0.065123,0
55,-0.039735,0.7419815000000001,-0.0499794999999999,-0.20673,0.4827815,-0.0248344999999999,-0.23247,0.2581615,0.0634325,0.15076,0.4936915,-0.0475255,0.21758,0.2797615,0.0514815,-0.19168,0.0445105,0.1213975,0.21011,0.0670895,0.1227975,-0.079746,-0.0037435,0.0027024999999999,0.079746,0.0037435,-0.0027025,-0.097542,-0.4589585,0.0429665,0.1215,-0.4608985,0.0349875,-0.1116,-0.8332685,0.0800555,0.145,-0.8359685,0.0650055,0
56,-0.0399615,0.742074,-0.0502384999999999,-0.2069505,0.482504,-0.0257794999999999,-0.2327805,0.257414,0.0625915,0.1507095,0.493724,-0.0477594999999999,0.2174895,0.2805539999999999,0.0515225,-0.1919905,0.043761,0.1205555,0.2100195,0.067879,0.1228385,-0.0797695,-0.003764,0.0025384999999999,0.0797695,0.003764,-0.0025384999999999,-0.0976114999999999,-0.458876,0.0427555,0.1214895,-0.460936,0.0348515,-0.1116905,-0.833276,0.0799065,0.1449695,-0.8359759999999999,0.0648475,0
57,-0.040198,0.742173,-0.0505389999999999,-0.207177,0.482183,-0.026871,-0.233107,0.256583,0.061724,0.150643,0.493763,-0.048006,0.217333,0.281443,0.051707,-0.192317,0.042939,0.1196879999999999,0.209863,0.068767,0.123025,-0.079797,-0.003786,0.0023579999999999,0.079797,0.003786,-0.0023579999999999,-0.0976839999999999,-0.458777,0.042547,0.1214629999999999,-0.460957,0.034742,-0.111807,-0.833217,0.079744,0.144953,-0.8359770000000001,0.064682,0
58,-0.040439,0.7422485,-0.0509755,-0.207421,0.4817884999999999,-0.0281394999999999,-0.233451,0.2556684999999999,0.0604274999999999,0.150559,0.4938185,-0.0482105,0.2170389999999999,0.2825485,0.0521925,-0.192661,0.0420275,0.1183905,0.2095689999999999,0.0698735,0.1235115,-0.079825,-0.0038165,0.0020994999999999,0.079825,0.0038165,-0.0020994999999999,-0.097756,-0.4586615,0.0423295,0.1214389999999999,-0.4609715,0.0347475,-0.1119209999999999,-0.8331715000000001,0.0795714999999999,0.1449289999999999,-0.8360215,0.0644235,0
59,-0.040669,0.7423080000000001,-0.0514704999999999,-0.207737,0.481278,-0.0295785,-0.233737,0.254698,0.0589885,0.150493,0.493868,-0.0482784999999999,0.216523,0.283778,0.0527215,-0.192947,0.041061,0.1169505,0.209053,0.071099,0.1240405,-0.079849,-0.003865,0.0018164999999999,0.079849,0.003865,-0.0018164999999999,-0.0978209999999999,-0.458552,0.0420885,0.121413,-0.461002,0.0347425,-0.112047,-0.8331219999999999,0.0794275,0.144923,-0.836092,0.0641715,0
60,-0.040896,0.7423230000000001,-0.0520039999999999,-0.208048,0.480853,-0.0311349999999999,-0.233968,0.253763,0.057447,0.150422,0.493913,-0.048319,0.2159319999999999,0.284913,0.053266,-0.193178,0.04012,0.115409,0.208462,0.072236,0.124586,-0.079878,-0.003909,0.001514,0.079878,0.003909,-0.001514,-0.097892,-0.458397,0.041835,0.121392,-0.461037,0.034738,-0.112178,-0.833077,0.07927,0.1449119999999999,-0.836197,0.063895,0
61,-0.041152,0.7423265,-0.0526294999999999,-0.208367,0.4805165,-0.0328795,-0.234187,0.2528165,0.0569314999999999,0.150333,0.4939665,-0.0483455,0.215123,0.2861765,0.0538615,-0.193407,0.0391735,0.1144945,0.207663,0.0734865,0.1251825,-0.079899,-0.0039415,0.0012225,0.079899,0.0039415,-0.0012225,-0.097955,-0.4582235,0.0415475,0.121363,-0.4610835,0.0347805,-0.112297,-0.8330535,0.0790665,0.144883,-0.8364035000000001,0.0635665,0
62,-0.0414005,0.7423204999999999,-0.0532565,-0.2086325,0.4802405,-0.0345655,-0.2343625,0.2519305,0.0566145,0.1501975,0.4940505,-0.0483655,0.2151175,0.2861805,0.0545385,-0.1936125,0.0382915,0.1134545,0.2072075,0.0734905,0.1258274999999999,-0.0799175,-0.0039645,0.0009634999999999,0.0799175,0.0039645,-0.0009634999999999,-0.0979705,-0.4580295,0.0412574999999999,0.1213674999999999,-0.4611294999999999,0.0348505,-0.1123725,-0.8330395,0.0788285,0.1448775,-0.8366595,0.0632085,0
63,-0.041729,0.742329,-0.0539515,-0.208898,0.480119,-0.0358585,-0.234608,0.251149,0.0552585,0.149992,0.494159,-0.0483305,0.215082,0.286169,0.0544945,-0.193848,0.037517,0.1121805,0.207152,0.073479,0.1255575,-0.0799219999999999,-0.004016,0.0007535,0.0799219999999999,0.004016,-0.0007534999999999,-0.098014,-0.457831,0.0410195,0.121352,-0.461181,0.0349495,-0.112478,-0.833041,0.0785595,0.144862,-0.836931,0.0629115,0
64,-0.0420855,0.742339,-0.0543194999999999,-0.2091595,0.480099,-0.0367394999999999,-0.2354595,0.249589,0.0539295,0.1494505,0.494359,-0.0482255,0.2150405,0.286149,0.0542265,-0.1942094999999999,0.035918,0.1108835,0.2071005,0.073459,0.1252895,-0.0799205,-0.004083,0.0005505,0.0799205,0.004083,-0.0005504999999999,-0.0980504999999999,-0.457701,0.0407865,0.1213305,-0.461281,0.0351035,-0.1125795,-0.833061,0.0782945,0.1448505,-0.837241,0.0626275,0
65,-0.0424605,0.7423344999999999,-0.0546264999999999,-0.2093675,0.4800645,-0.0370545,-0.2371875,0.2483945,0.0525255,0.1488925,0.4945645,-0.0481844999999999,0.2150925,0.2853345,0.0539045,-0.1982075,0.0333945,0.1097715,0.2070725,0.0724245,0.1249705,-0.0798995,-0.0041465,0.0003865,0.0798995,0.0041465,-0.0003864999999999,-0.0980575,-0.4576255,0.0405075,0.1213025,-0.4613255,0.0352035,-0.1126575,-0.8330855,0.0779635,0.1448525,-0.8375355000000001,0.0622685,0
66,-0.042874,0.7423245,-0.0549859999999999,-0.209581,0.4800245,-0.0374209999999999,-0.244171,0.2483545,0.048806,0.148359,0.4947645,-0.048178,0.218149,0.2857245,0.053418,-0.209981,0.0333545,0.101162,0.214849,0.0705465,0.120558,-0.079905,-0.0042125,0.000238,0.079905,0.0042125,-0.0002379999999999,-0.098051,-0.4576655,0.040169,0.121309,-0.4613555,0.035243,-0.112711,-0.8331054999999999,0.077544,0.144889,-0.8378654999999999,0.061875,0
67,-0.0434045,0.7423185,-0.055301,-0.2097735,0.4801685,-0.037749,-0.2531835,0.2482985,0.042676,0.1478365,0.4949585,-0.048183,0.2261565,0.2869885,0.048765,-0.2282435,0.0332985,0.086844,0.2294765,0.0718055,0.110536,-0.0799085,-0.0042685,0.000149,0.0799085,0.0042685,-0.0001489999999999,-0.0980584999999999,-0.4576415,0.039894,0.1213065,-0.4614115,0.035232,-0.1127535,-0.8330715000000001,0.077183,0.1449065,-0.8381715000000001,0.06152,0
68,-0.0439505,0.742487,-0.0549474999999999,-0.2098965,0.480637,-0.0381165,-0.2648465,0.248237,0.0335335,0.1472635,0.495217,-0.0483025,0.2356135,0.288187,0.0415065,-0.2515564999999999,0.033237,0.0648925,0.2511535,0.073001,0.0925875,-0.0798975,-0.00433,0.0001405,0.0798975,0.00433,-0.0001404999999999,-0.0980625,-0.4576429999999999,0.0396245,0.1213134999999999,-0.4614729999999999,0.0352095,-0.1127765,-0.833043,0.0768005,0.1449335,-0.838363,0.0611185,0
69,-0.0442729999999999,0.742706,-0.0538369999999999,-0.2098789999999999,0.481326,-0.0381239999999999,-0.277719,0.250956,0.021886,0.146721,0.495596,-0.0484,0.247211,0.289356,0.029933,-0.279589,0.035198,0.035631,0.2771309999999999,0.074173,0.065844,-0.079854,-0.004399,0.00017,0.079854,0.004399,-0.0001699999999999,-0.0980439999999999,-0.457684,0.039368,0.121321,-0.461464,0.035169,-0.112759,-0.833024,0.076385,0.144981,-0.838474,0.060663,0
70,-0.0443439999999999,0.743387,-0.0514965,-0.209748,0.482257,-0.0376245,-0.291478,0.256137,0.0086955,0.146362,0.496127,-0.0481994999999999,0.259192,0.292547,0.0162975,-0.311008,0.045577,0.0015795,0.305542,0.080032,0.0311345,-0.079804,-0.00447,0.0002295,0.079804,0.00447,-0.0002295,-0.0979459999999999,-0.457803,0.0390965,0.121372,-0.461403,0.0350135,-0.1126679999999999,-0.833093,0.0759155,0.1450719999999999,-0.838603,0.0601875,0
71,-0.0441744999999999,0.7440964999999999,-0.048632,-0.2095174999999999,0.4834765,-0.036742,-0.3067175,0.2655165,-0.0064719999999999,0.1463425,0.4967565,-0.04776,0.2717225,0.2982165,0.0009149999999999,-0.3449974999999999,0.0645305,-0.0364569999999999,0.3343425,0.0961895,-0.0085309999999999,-0.0797355,-0.0045325,0.000266,0.0797355,0.0045325,-0.000266,-0.0977644999999999,-0.4579435,0.038738,0.1215125,-0.4613135,0.034723,-0.1124874999999999,-0.8331835000000001,0.075256,0.1452625,-0.8388235,0.059554,0
72,-0.0436895,0.7448305000000001,-0.0444324999999999,-0.2091075,0.4849205,-0.0352535,-0.3249275,0.2820105,-0.0252354999999999,0.1467125,0.4976505,-0.0467735,0.2863624999999999,0.3113605,-0.0184454999999999,-0.3834175,0.0991385,-0.0816484999999999,0.3647924999999999,0.1275804999999999,-0.0563384999999999,-0.0796615,-0.0045495,0.0003125,0.0796615,0.0045495,-0.0003125,-0.0975765,-0.4582595,0.0382955,0.1217124999999999,-0.4612795,0.0342565,-0.1121875,-0.8333695,0.0743695,0.1455524999999999,-0.8391995,0.0586725,0
73,-0.043123,0.7456550000000001,-0.0397234999999999,-0.208626,0.486375,-0.0333045,-0.343256,0.301875,-0.0440094999999999,0.147144,0.4986549999999999,-0.0455194999999999,0.302014,0.328385,-0.0399615,-0.422786,0.141345,-0.1278854999999999,0.392714,0.166735,-0.1070954999999999,-0.079593,-0.004523,0.0003845,0.079593,0.004523,-0.0003844999999999,-0.0974,-0.458665,0.0378645,0.121904,-0.461305,0.0337305,-0.111836,-0.833635,0.0734315,0.145914,-0.8396349999999999,0.0577585,0
74,-0.0424395,0.746509,-0.0344775,-0.2079415,0.488089,-0.0310085,-0.3611615,0.324119,-0.0628095,0.1476985,0.499729,-0.0439975,0.3177485,0.349579,-0.0645895,-0.4580615,0.1925089999999999,-0.1740065,0.4190985,0.215039,-0.1609965,-0.0795345,-0.0044469999999999,0.0004014999999999,0.0795345,0.0044469999999999,-0.0004015,-0.0971644999999999,-0.459231,0.0376064999999999,0.1221385,-0.4614209999999999,0.0334065,-0.1113915,-0.8340110000000001,0.0726405,0.1463785,-0.840111,0.0569635,0
75,-0.0413689999999999,0.747459,-0.0283625,-0.206811,0.490129,-0.0287575,-0.3756609999999999,0.353109,-0.0790845,0.148929,0.501699,-0.0421355,0.331249,0.374549,-0.0886744999999999,-0.484021,0.258709,-0.2082645,0.434479,0.279499,-0.2064045,-0.079482,-0.004246,0.0003685,0.079482,0.004246,-0.0003685,-0.0967939999999999,-0.460011,0.0375875,0.122529,-0.4622509999999999,0.0333355,-0.110731,-0.8346210000000001,0.0720135,0.146999,-0.8409810000000001,0.0563375,0
76,-0.0401365,0.7481975000000001,-0.022472,-0.2055195,0.4922075,-0.0269949999999999,-0.3875294999999999,0.3884075,-0.0924599999999999,0.1506405,0.5037675,-0.04026,0.3388305,0.4053775,-0.1084,-0.5022495,0.3331875,-0.23432,0.4417805,0.3496175,-0.24383,-0.0794225,-0.0040195,0.000345,0.0794225,0.0040195,-0.0003449999999999,-0.0964085,-0.4609625,0.037617,0.1229205,-0.4633625,0.033362,-0.1100295,-0.8354825,0.071419,0.1476405,-0.8420124999999999,0.055752,0
77,-0.038765,0.7485769999999999,-0.0171704999999999,-0.20409,0.494507,-0.0255764999999999,-0.39649,0.425037,-0.1022835,0.1524599999999999,0.5058269999999999,-0.0382375,0.3445499999999999,0.440907,-0.1251235,-0.51426,0.413737,-0.2503835,0.4416,0.429337,-0.2706334999999999,-0.079358,-0.00376,0.0003135,0.079358,0.0037599999999999,-0.0003135,-0.096002,-0.462063,0.0377465,0.12336,-0.464783,0.0334485,-0.10927,-0.836613,0.0709065,0.14831,-0.843323,0.0552155,0
78,-0.0371479999999999,0.748695,-0.0124625,-0.2026279999999999,0.497035,-0.0243094999999999,-0.401158,0.462535,-0.1074395,0.154552,0.508495,-0.0362685,0.345062,0.480605,-0.1347895,-0.5204080000000001,0.4990449999999999,-0.2572595,0.441862,0.519635,-0.2872895,-0.0792829999999999,-0.0034779999999999,0.0002944999999999,0.0792829999999999,0.0034779999999999,-0.0002944999999999,-0.0955459999999999,-0.463555,0.0379525,0.123762,-0.466655,0.0338005,-0.1084479999999999,-0.838195,0.0706405,0.149002,-0.845055,0.0548575,0
79,-0.0354455,0.7482715,-0.0089525,-0.2012435,0.4995115,-0.0233125,-0.4047334999999999,0.4996015,-0.1105675,0.1566765,0.5111614999999999,-0.0346755,0.3456365,0.5190115,-0.1423175,-0.5222235,0.5781315,-0.2574775,0.4424665,0.6024615,-0.2939975,-0.0791905,-0.0031795,0.0002724999999999,0.0791905,0.0031795,-0.0002725,-0.0951055,-0.4650785,0.0382234999999999,0.1241464999999999,-0.4686185,0.0342424999999999,-0.1076835,-0.8398685,0.0704485,0.1496665,-0.8468985,0.0545625,0
80,-0.0337355,0.7477130000000001,-0.0060335,-0.1999885,0.501823,-0.0224525,-0.4062785,0.533493,-0.1107824999999999,0.1589114999999999,0.5140330000000001,-0.0334094999999999,0.3462215,0.555803,-0.1477025,-0.5214385,0.650323,-0.2575725,0.4421815,0.6761830000000001,-0.2940525,-0.0790955,-0.0029069999999999,0.0003125,0.0790955,0.002907,-0.0003125,-0.0947055,-0.466667,0.0386735,0.1244715,-0.470697,0.0348415,-0.1069585,-0.841567,0.0703555,0.1502715,-0.848907,0.0544915,0
81,-0.0323455,0.7470530000000001,-0.0046039999999999,-0.1989905,0.504023,-0.022113,-0.4056005,0.563473,-0.1108079999999999,0.1611294999999999,0.516923,-0.032878,0.3467895,0.586983,-0.148968,-0.5207605,0.708933,-0.257598,0.4360995,0.735483,-0.293838,-0.0789894999999999,-0.002675,0.00031,0.0789894999999999,0.002675,-0.0003099999999999,-0.0943155,-0.468047,0.039061,0.1247194999999999,-0.472807,0.03544,-0.1063405,-0.8433069999999999,0.070332,0.1507494999999999,-0.850837,0.054465,0
82,-0.0311959999999999,0.7462154999999999,-0.0037599999999999,-0.198164,0.5062455,-0.021968,-0.404974,0.5902855,-0.1108309999999999,0.163196,0.5198554999999999,-0.0327229999999999,0.3468859999999999,0.6148055,-0.148971,-0.520134,0.7605155,-0.257621,0.425796,0.7879855,-0.2934609999999999,-0.078885,-0.0024704999999999,0.0003059999999999,0.078885,0.0024705,-0.000306,-0.093938,-0.4694045,0.039401,0.124976,-0.4749845,0.0359639999999999,-0.105794,-0.8450245000000001,0.070312,0.151166,-0.8527645,0.0544189999999999,0
83,-0.030257,0.745349,-0.003327,-0.197525,0.508259,-0.021816,-0.4044149999999999,0.615209,-0.1108509999999999,0.165035,0.522889,-0.032684,0.346005,0.640849,-0.1489309999999999,-0.517325,0.803749,-0.250741,0.414065,0.836489,-0.292911,-0.078754,-0.0023099999999999,0.0003009999999999,0.078754,0.0023099999999999,-0.0003009999999999,-0.093618,-0.470751,0.039703,0.125205,-0.477301,0.036426,-0.105375,-0.8467509999999999,0.070313,0.151525,-0.854721,0.054402,0
84,-0.0298385,0.744416,-0.0031614999999999,-0.1971455,0.509846,-0.0214374999999999,-0.4030655,0.6338159999999999,-0.1069644999999999,0.1659945,0.5250859999999999,-0.0325165,0.3424945,0.663706,-0.1486245,-0.5092955,0.832476,-0.2352445,0.4000245,0.869566,-0.2828245,-0.0786125,-0.002283,0.0003414999999999,0.0786125,0.002283,-0.0003415,-0.0934155,-0.471934,0.0401055,0.1253044999999999,-0.479374,0.0369625,-0.1051655,-0.848284,0.0704735,0.1517445,-0.856374,0.0545365,0
85,-0.0295195,0.743784,-0.0029124999999999,-0.1968265,0.511124,-0.0209645,-0.4007465,0.647514,-0.1021054999999999,0.1667235,0.527254,-0.0321575,0.3375535,0.681854,-0.1465655,-0.4992165,0.854704,-0.2175155,0.3879735,0.898064,-0.2679855,-0.0784695,-0.002298,0.0003864999999999,0.0784695,0.002298,-0.0003865,-0.0932355,-0.472886,0.0405424999999999,0.1254035,-0.481406,0.0375114999999999,-0.1049765,-0.849616,0.0707235,0.1519235,-0.857846,0.0547545,0
86,-0.0292645,0.7433329999999999,-0.002598,-0.1965635,0.511953,-0.020492,-0.3978135,0.6609729999999999,-0.097199,0.1672265,0.5293629999999999,-0.031713,0.3314665,0.6979329999999999,-0.141249,-0.4891435,0.872483,-0.199709,0.3764865,0.922233,-0.2489189999999999,-0.0783195,-0.0023619999999999,0.0005019999999999,0.0783195,0.0023619999999999,-0.000502,-0.0931055,-0.4736869999999999,0.040923,0.1254365,-0.483297,0.038048,-0.1048235,-0.8507370000000001,0.07097,0.1520665,-0.858977,0.054995,0
87,-0.0291015,0.7430015,-0.0024885,-0.1966395,0.5124815,-0.0203265,-0.3927795,0.6695814999999999,-0.0923925,0.1673905,0.5307215,-0.0315484999999999,0.3246505,0.7089615,-0.1354025,-0.4801694999999999,0.8813215,-0.1858125,0.3678205,0.9377815,-0.2332824999999999,-0.0782015,-0.0024395,0.0006295,0.0782015,0.0024395,-0.0006295,-0.0930334999999999,-0.4741085,0.0411865,0.1255105,-0.4844185,0.0382995,-0.1046795,-0.8513985000000001,0.0711495,0.1521405,-0.8597685,0.0551404999999999,0
88,-0.0290285,0.7427075000000001,-0.0024385,-0.1968725,0.5129075000000001,-0.0202575,-0.3882325,0.6761975,-0.0876565,0.1675275,0.5320775000000001,-0.0314895,0.3186975,0.7179875,-0.1292665,-0.4722625,0.8880875,-0.1743065,0.3602975,0.9515075,-0.2198765,-0.0781075,-0.0025325,0.0006874999999999,0.0781075,0.0025325,-0.0006875,-0.0929784999999999,-0.4744325,0.0413464999999999,0.1255675,-0.4853525,0.0384505,-0.1045625,-0.8520025,0.0712385,0.1521975,-0.8604725,0.0552344999999999,0
89,-0.0291464999999999,0.7425345000000001,-0.0024155,-0.1972585,0.5133544999999999,-0.0199934999999999,-0.3836985,0.6818445,-0.0832304999999999,0.1676515,0.5332645,-0.0314375,0.3131015,0.7260745,-0.1234005,-0.4650185,0.8934044999999999,-0.1649805,0.3538315,0.9636745,-0.2085405,-0.0780265,-0.0025974999999999,0.0007345,0.0780265,0.0025975,-0.0007344999999999,-0.0929245,-0.4746255,0.0415075,0.1256315,-0.4861355,0.0385845,-0.1044485,-0.8524955000000001,0.0713205,0.1522215,-0.8610755000000001,0.0553015,0
90,-0.0294164999999999,0.7424284999999999,-0.0025415,-0.1976224999999999,0.5136784999999999,-0.0197364999999999,-0.3820425,0.6845585,-0.0807644999999999,0.1677475,0.5342285,-0.0313014999999999,0.3106575,0.7323385,-0.1203245,-0.4585825,0.8968085,-0.1575045,0.3481675,0.9749185,-0.1988545,-0.0779685,-0.0026494999999999,0.0007425,0.0779685,0.0026495,-0.0007425,-0.0928835,-0.4747615,0.0416155,0.1256875,-0.4868115,0.0386445,-0.1043425,-0.8527415,0.0713295,0.1522575,-0.8615615000000001,0.0552895,0
91,-0.0297635,0.742328,-0.0026045,-0.1979225,0.513888,-0.0193525,-0.3804725,0.687068,-0.0785935,0.1676675,0.534868,-0.0311285,0.3083075,0.737828,-0.1173635,-0.4527125,0.8997080000000001,-0.1517335,0.3435575,0.984918,-0.1913935,-0.0779055,-0.0027089999999999,0.0008155,0.0779055,0.0027089999999999,-0.0008155,-0.0928285,-0.474902,0.0417425,0.1257375,-0.487492,0.0387145,-0.1042525,-0.852892,0.0713365,0.1522775,-0.862072,0.0552135,0
92,-0.0301654999999999,0.742244,-0.002665,-0.1982394999999999,0.514034,-0.018914,-0.3794495,0.689144,-0.077491,0.1674305,0.535374,-0.030976,0.3063805,0.740634,-0.1147209999999999,-0.4488995,0.902044,-0.149071,0.3403805,0.989384,-0.185781,-0.0778655,-0.0027609999999999,0.0008899999999999,0.0778655,0.0027609999999999,-0.00089,-0.0928074999999999,-0.474956,0.0419029999999999,0.1257505,-0.488056,0.038828,-0.1041995,-0.853046,0.071338,0.1522605,-0.862396,0.0551949999999999,0
93,-0.0305795,0.7421234999999999,-0.0028115,-0.1985175,0.5141334999999999,-0.0185665,-0.3785875,0.6912735,-0.0770744999999999,0.1670725,0.5356635,-0.0308164999999999,0.3047424999999999,0.7425735,-0.1125845,-0.4457375,0.9040435,-0.1481245,0.3374425,0.9927535,-0.1817245,-0.0778335,-0.0027945,0.0009984999999999,0.0778335,0.0027944999999999,-0.0009984999999999,-0.0927875,-0.4750165,0.0420445,0.1257324999999999,-0.4886365,0.0389035,-0.1041575,-0.8532465,0.0712695,0.1522224999999999,-0.8627265000000001,0.0550635,0
94,-0.030926,0.7419035,-0.0031879999999999,-0.1987229999999999,0.5143035,-0.018463,-0.3778829999999999,0.6931735,-0.077497,0.1667469999999999,0.5359235,-0.030786,0.303607,0.7432535,-0.111547,-0.443283,0.9052035,-0.148617,0.335217,0.9949735,-0.179787,-0.077818,-0.0028245,0.0011329999999999,0.077818,0.0028245,-0.001133,-0.092734,-0.4752065,0.042116,0.125747,-0.4891264999999999,0.038762,-0.104113,-0.8534364999999999,0.071018,0.1522069999999999,-0.8630365,0.054728,0
95,-0.0312805,0.7416815000000001,-0.0036365,-0.1989825,0.5145915000000001,-0.0186155,-0.3772625,0.6945515,-0.0780875,0.1663174999999999,0.5361615,-0.0308275,0.3025974999999999,0.7432615,-0.1109775,-0.4408725,0.9063315,-0.1492775,0.3333975,0.9946815,-0.1791075,-0.0778105,-0.0028414999999999,0.0012464999999999,0.0778105,0.0028415,-0.0012465,-0.0927305,-0.4754985,0.0420015,0.1256874999999999,-0.4895485,0.0381935,-0.1040825,-0.8537284999999999,0.0706914999999999,0.1521074999999999,-0.8633685,0.0542215,0
96,-0.03152,0.741411,-0.0042075,-0.199165,0.514771,-0.0189165,-0.376725,0.696091,-0.0787315,0.165875,0.536451,-0.0309865,0.301665,0.742991,-0.1107914999999999,-0.4386649999999999,0.907361,-0.1499815,0.331525,0.994411,-0.1786714999999999,-0.0778079999999999,-0.0028719999999999,0.0013454999999999,0.0778079999999999,0.002872,-0.0013454999999999,-0.092764,-0.475769,0.0416775,0.125585,-0.489949,0.0375734999999999,-0.104045,-0.853929,0.0702585,0.1519849999999999,-0.863659,0.0536765,0
97,-0.0316745,0.7412105,-0.0050954999999999,-0.1992765,0.5149104999999999,-0.0196145,-0.3761665,0.6978205,-0.0798784999999999,0.1655335,0.5363505,-0.0316775,0.3008735,0.7428104999999999,-0.1113185,-0.4363464999999999,0.9085805,-0.1509985,0.3295935,0.9942305,-0.1788085,-0.0778145,-0.0029184999999999,0.0015215,0.0778145,0.0029185,-0.0015214999999999,-0.0928375,-0.4759494999999999,0.0407525,0.1254135,-0.4902995,0.0366515,-0.1040665,-0.8541095000000001,0.0694045,0.1518534999999999,-0.8638695000000001,0.0528435,0
98,-0.031696,0.7410825,-0.0061619999999999,-0.199298,0.5149425,-0.020681,-0.375678,0.6993024999999999,-0.081415,0.165302,0.5362625,-0.032737,0.300362,0.7427225,-0.1123649999999999,-0.434238,0.9098125,-0.152565,0.328202,0.9925425,-0.179825,-0.077825,-0.0029525,0.0016889999999999,0.077825,0.0029525,-0.0016889999999999,-0.0929079999999999,-0.4760475,0.039688,0.125162,-0.4905875,0.035364,-0.104088,-0.8541975,0.068382,0.151722,-0.8639975,0.051847,0
99,-0.031743,0.7410625,-0.0074544999999999,-0.199345,0.5149425,-0.0219735,-0.375275,0.7006125,-0.0834375,0.165145,0.5362625,-0.0340255,0.3000649999999999,0.7422425,-0.1136475,-0.432155,0.9107425,-0.1548475,0.326995,0.9917425,-0.1810775,-0.07782,-0.0029525,0.0018355,0.07782,0.0029525,-0.0018354999999999,-0.093005,-0.4761375,0.0383955,0.124665,-0.4905875,0.0329565,-0.104135,-0.8541975,0.0670895,0.1515349999999999,-0.8641075,0.0505595,0
100,-0.0317985,0.7408925,-0.0087254999999999,-0.1994005,0.5149425,-0.0232445,-0.3749005,0.7004025,-0.0856485,0.1650295,0.5362625,-0.0352945,0.3000095,0.7412025,-0.1149185,-0.4301605,0.9107725,-0.1572885,0.3259495,0.9907425,-0.1823085,-0.0778245,-0.0029525,0.0019645,0.0778245,0.0029525,-0.0019645,-0.0931815,-0.4764175,0.0366735,0.1242295,-0.4905775,0.0290965,-0.1041505,-0.8542975,0.0658165,0.1512795,-0.8642675,0.0492965,0
101,-0.0318409999999999,0.7405225,-0.010205,-0.1993079999999999,0.5149425,-0.0246529999999999,-0.374438,0.7002925,-0.08824,0.164862,0.5359825,-0.036687,0.299932,0.7397125,-0.11631,-0.428058,0.9107725,-0.1598399999999999,0.324922,0.9896425,-0.1838199999999999,-0.077846,-0.0029525,0.002107,0.077846,0.0029525,-0.002107,-0.0938099999999999,-0.4769875,0.033125,0.123902,-0.4905775,0.02398,-0.104198,-0.8544475,0.064424,0.1510119999999999,-0.8644675,0.04791,0
102,-0.0318235,0.739904,-0.0117395,-0.1991005,0.5147740000000001,-0.0262495,-0.3737905,0.700304,-0.0907695,0.1646595,0.535464,-0.0383234999999999,0.2997694999999999,0.736484,-0.1180394999999999,-0.4256905,0.910834,-0.1626594999999999,0.3238695,0.988004,-0.1855495,-0.0779115,-0.002984,0.0022644999999999,0.0779115,0.002984,-0.0022644999999999,-0.0948205,-0.477416,0.0280515,0.1235695,-0.490396,0.0176935,-0.1044205,-0.855306,0.0626115,0.1507595,-0.864606,0.0465035,1
103,-0.031715,0.738811,-0.014116,-0.198741,0.5144610000000001,-0.02847,-0.372641,0.701011,-0.094019,0.164299,0.534041,-0.041144,0.299409,0.732591,-0.120959,-0.423051,0.911621,-0.165979,0.322519,0.982491,-0.188599,-0.078021,-0.003013,0.0025279999999999,0.078021,0.0030129999999999,-0.002528,-0.09629,-0.476929,0.020932,0.122999,-0.489369,0.0090149999999999,-0.104811,-0.855649,0.0600389999999999,0.1503989999999999,-0.8640289999999999,0.0445259999999999,1
104,-0.0315735,0.737533,-0.0169094999999999,-0.1984515,0.513943,-0.0309845,-0.3713515,0.701613,-0.0974055,0.1638285,0.532043,-0.0446275,0.2991785,0.7286630000000001,-0.1245055,-0.4203115,0.912933,-0.1696055,0.3212885,0.977623,-0.1920255,-0.0781685,-0.003023,0.0027875,0.0781685,0.003023,-0.0027874999999999,-0.0979795,-0.475917,0.0126325,0.1223084999999999,-0.487877,-0.0010424999999999,-0.1053014999999999,-0.8553069999999999,0.0569705,0.1499685,-0.862807,0.0420615,1
105,-0.0314069999999999,0.7358355,-0.019936,-0.198239,0.5131755,-0.033729,-0.370089,0.7006455,-0.101224,0.163271,0.5301155000000001,-0.0483129999999999,0.299031,0.7241255,-0.128554,-0.4174589999999999,0.9144755,-0.173464,0.319991,0.9731955,-0.195664,-0.0783389999999999,-0.0030575,0.0030639999999999,0.0783389999999999,0.0030574999999999,-0.003064,-0.100025,-0.4745645,0.0030289999999999,0.121491,-0.4860945,-0.012609,-0.1059189999999999,-0.8544845,0.053508,0.149441,-0.8611345,0.039313,1
106,-0.0312745,0.7339154999999999,-0.0230735,-0.1979875,0.5117754999999999,-0.0365925,-0.3689275,0.6997855,-0.1051064999999999,0.1625925,0.5279754999999999,-0.0520365,0.2989325,0.7198355,-0.1328765,-0.4144875,0.9166355,-0.1775065,0.3186425,0.9695955,-0.1994965,-0.0785474999999999,-0.0030825,0.0032945,0.0785474999999999,0.0030824999999999,-0.0032944999999999,-0.1024045,-0.4723945,-0.0076945,0.1206925,-0.4834745,-0.0251425,-0.1066675,-0.8528345,0.0496805,0.1487325,-0.8587545,0.0363115,1
107,-0.0311814999999999,0.7319104999999999,-0.0263615,-0.1976305,0.5105605,-0.0395925,-0.3678605,0.6985505,-0.1091585,0.1618995,0.5257805,-0.0558635,0.2988395,0.7158104999999999,-0.1373985,-0.4115105,0.9190805,-0.1818085,0.3171695,0.9666905,-0.2035485,-0.0787895,-0.0030445,0.0034764999999999,0.0787895,0.0030445,-0.0034765,-0.1052005,-0.4694095,-0.0194095,0.1199295,-0.4800595,-0.0379455,-0.1075405,-0.8503895,0.0455254999999999,0.1478995,-0.8555495000000001,0.0330825,1
108,-0.0310995,0.7298005,-0.029343,-0.1971305,0.5092405,-0.0426249999999999,-0.3667205,0.6967405,-0.11329,0.1612395,0.5233905,-0.0596069999999999,0.2988095,0.7123204999999999,-0.14176,-0.4085804999999999,0.9220205,-0.18608,0.3156495,0.9647205,-0.20753,-0.0790525,-0.0029855,0.003718,0.0790525,0.0029855,-0.0037179999999999,-0.1083204999999999,-0.4655795,-0.031828,0.1192795,-0.4758695,-0.050471,-0.1084904999999999,-0.8471295000000001,0.041024,0.1470195,-0.8513895,0.029778,1
109,-0.0311449999999999,0.727296,-0.032161,-0.196757,0.507916,-0.045711,-0.3655469999999999,0.694216,-0.11744,0.160513,0.521076,-0.063238,0.298743,0.708276,-0.14589,-0.405557,0.924626,-0.19049,0.313883,0.963236,-0.2113,-0.0793099999999999,-0.002915,0.003915,0.0793099999999999,0.002915,-0.003915,-0.1117769999999999,-0.461374,-0.044415,0.118713,-0.471144,-0.0622,-0.109627,-0.8433539999999999,0.036255,0.146013,-0.846814,0.026225,1
110,-0.0311819999999999,0.7247669999999999,-0.0347185,-0.1965269999999999,0.5066769999999999,-0.0486165,-0.364317,0.691727,-0.1214685,0.159803,0.519057,-0.0666155,0.2986229999999999,0.704757,-0.1496684999999999,-0.402377,0.927557,-0.1948585,0.311963,0.962407,-0.2146085,-0.079575,-0.002877,0.0041355,0.079575,0.002877,-0.0041355,-0.114937,-0.456323,-0.0558815,0.118333,-0.465503,-0.0732275,-0.110857,-0.8386830000000001,0.0314195,0.145003,-0.8414330000000001,0.0227064999999999,1
111,-0.0312505,0.7222675,-0.0372479999999999,-0.1963794999999999,0.5051775000000001,-0.0514699999999999,-0.3633195,0.6896675,-0.125604,0.1590905,0.5171375,-0.069777,0.2984305,0.7028274999999999,-0.153174,-0.3992495,0.9305775,-0.199354,0.3099805,0.9620375,-0.217464,-0.0798115,-0.0028244999999999,0.0043879999999999,0.0798115,0.0028245,-0.0043879999999999,-0.1179395,-0.4506125,-0.066532,0.1183905,-0.4592125,-0.083768,-0.1122394999999999,-0.8327825,0.0265639999999999,0.1440205,-0.8355525,0.019107,1
112,-0.0314955,0.720372,-0.039535,-0.1964815,0.503742,-0.053874,-0.3629015,0.688052,-0.129184,0.1584185,0.516242,-0.072104,0.2981885,0.701182,-0.155504,-0.3963915,0.933822,-0.203544,0.3080185,0.965762,-0.219504,-0.0799445,-0.0028059999999999,0.004506,0.0799445,0.002806,-0.004506,-0.1208515,-0.4446679999999999,-0.075956,0.1185585,-0.4528279999999999,-0.092546,-0.1136515,-0.8264980000000001,0.021959,0.1430885,-0.829518,0.015848,1
113,-0.03188,0.7182270000000001,-0.041707,-0.196643,0.502177,-0.056051,-0.362433,0.685997,-0.1325049999999999,0.157687,0.516007,-0.07428,0.297857,0.6993670000000001,-0.157375,-0.393863,0.936817,-0.2072949999999999,0.305977,0.969177,-0.221275,-0.079991,-0.0028509999999999,0.004659,0.079991,0.0028509999999999,-0.004659,-0.123893,-0.438633,-0.084766,0.1186869999999999,-0.4466029999999999,-0.100452,-0.1153329999999999,-0.820063,0.017576,0.142117,-0.8235629999999999,0.0128649999999999,1
114,-0.0322795,0.7163664999999999,-0.0436775,-0.1967505,0.5009365,-0.0581445,-0.3620205,0.6850765,-0.1354445,0.1569995,0.5153464999999999,-0.0762965,0.2974595,0.6984064999999999,-0.1592444999999999,-0.3911705,0.9395365,-0.2108045,0.3040795,0.9724365,-0.2229145,-0.0800095,-0.0028484999999999,0.0047135,0.0800095,0.0028485,-0.0047135,-0.1268105,-0.4320635,-0.0928855,0.1188695,-0.4402435,-0.1071945,-0.1172105,-0.8135435000000001,0.0133645,0.1411895,-0.8171035000000001,0.0099965,1
115,-0.0326385,0.7149045,-0.045404,-0.1968605,0.4998345,-0.0601639999999999,-0.3614305,0.6833845000000001,-0.13833,0.1564595,0.5143245,-0.078118,0.2971494999999999,0.6958345,-0.16121,-0.3879304999999999,0.9368045,-0.21385,0.3025095,0.9749145,-0.22352,-0.0799945,-0.0028744999999999,0.004683,0.0799945,0.0028745,-0.004683,-0.1297005,-0.4252154999999999,-0.100571,0.1191194999999999,-0.4335354999999999,-0.11373,-0.1187905,-0.8065654999999999,0.009483,0.1402795,-0.8101355,0.007117,1
116,-0.032891,0.7133750000000001,-0.0469035,-0.196936,0.498245,-0.0621825,-0.360516,0.680235,-0.1410715,0.156044,0.512785,-0.0796274999999999,0.297124,0.693465,-0.1629614999999999,-0.384846,0.934135,-0.2164414999999999,0.301144,0.976945,-0.2237815,-0.079968,-0.0028859999999999,0.0046914999999999,0.079968,0.0028859999999999,-0.0046914999999999,-0.132226,-0.418845,-0.1075314999999999,0.119444,-0.426655,-0.1199715,-0.120296,-0.7995249999999999,0.0058355,0.139464,-0.803175,0.0044255,1
117,-0.0331404999999999,0.711673,-0.0482159999999999,-0.1971775,0.496503,-0.064095,-0.3596975,0.6777329999999999,-0.14354,0.1555725,0.511513,-0.0809069999999999,0.2971425,0.6910029999999999,-0.16439,-0.3817675,0.930963,-0.21872,0.3005825,0.978353,-0.2249,-0.0799025,-0.002902,0.004713,0.0799025,0.002902,-0.004713,-0.1346574999999999,-0.412857,-0.11376,0.1197625,-0.420047,-0.12601,-0.1217075,-0.7925270000000001,0.002755,0.1385825,-0.796647,0.001846,1
118,-0.0332994999999999,0.71033,-0.04922,-0.1973675,0.49486,-0.065793,-0.3589374999999999,0.67594,-0.146053,0.1552125,0.51006,-0.082173,0.2973525,0.6891299999999999,-0.165473,-0.3788775,0.92804,-0.220603,0.3001025,0.9793,-0.225773,-0.0798214999999999,-0.002895,0.00475,0.0798214999999999,0.002895,-0.00475,-0.1368575,-0.40668,-0.119263,0.1201424999999999,-0.4135,-0.131583,-0.1229275,-0.78637,5.400000000000023e-05,0.1377825,-0.79005,-0.0005389999999999,1
119,-0.033421,0.709283,-0.0500879999999999,-0.197508,0.493203,-0.067428,-0.358348,0.674103,-0.148605,0.1548919999999999,0.5083030000000001,-0.083597,0.297562,0.686633,-0.166215,-0.376288,0.923853,-0.222395,0.299622,0.979503,-0.226335,-0.07972,-0.0027219999999999,0.00471,0.07972,0.002722,-0.00471,-0.139038,-0.401097,-0.124275,0.120632,-0.407157,-0.136805,-0.124048,-0.7802169999999999,-0.0025199999999999,0.1370219999999999,-0.783507,-0.0028779999999999,1
120,-0.033377,0.7077005,-0.050999,-0.197577,0.4918205,-0.0687369999999999,-0.357697,0.6717305,-0.150786,0.154703,0.5064005,-0.08492,0.297913,0.6841005,-0.1668059999999999,-0.374027,0.9192405,-0.2236759999999999,0.299813,0.9724805,-0.226466,-0.079631,-0.0026014999999999,0.004591,0.079631,0.0026015,-0.004591,-0.141167,-0.3960694999999999,-0.128646,0.121133,-0.4012295,-0.141426,-0.1250969999999999,-0.7743295,-0.004274,0.136453,-0.7769995000000001,-0.004922,1
121,-0.033085,0.7058245,-0.0521335,-0.197453,0.4903845,-0.0701975,-0.357033,0.6703545,-0.1529655,0.154797,0.5042345,-0.0864014999999999,0.298477,0.6818745,-0.1678955,-0.371893,0.9148845,-0.2247655,0.300517,0.9652945,-0.2264855,-0.079612,-0.0024445,0.0045905,0.079612,0.0024445,-0.0045905,-0.143063,-0.3917354999999999,-0.1327355,0.121837,-0.3961155,-0.1460354999999999,-0.125943,-0.7686054999999999,-0.0057185,0.135917,-0.7706054999999999,-0.0068745,1
122,-0.0325865,0.7043815,-0.0537075,-0.1970775,0.4891315,-0.0719415,-0.3565975,0.6697115,-0.1554384999999999,0.1550125,0.5020415,-0.0883205,0.2993125,0.6797615,-0.1697584999999999,-0.3697175,0.9102115,-0.2260384999999999,0.3015124999999999,0.9587815,-0.2269884999999999,-0.0796205,-0.0022765,0.0045905,0.0796205,0.0022765,-0.0045905,-0.1448175,-0.3879485,-0.1368085,0.1226325,-0.3910885,-0.1506285,-0.1264974999999999,-0.7628285,-0.0070884999999999,0.1356425,-0.7639485,-0.0088335,1
123,-0.032091,0.7030850000000001,-0.0562234999999999,-0.196771,0.4876049999999999,-0.0740845,-0.3562309999999999,0.668245,-0.1586135,0.155219,0.4996549999999999,-0.0911525,0.300099,0.677135,-0.1728035,-0.3677709999999999,0.904655,-0.2278535,0.302419,0.951365,-0.2287335,-0.07965,-0.0021449999999999,0.0045725,0.07965,0.002145,-0.0045724999999999,-0.146891,-0.384625,-0.1412135,0.1235489999999999,-0.386695,-0.1558635,-0.127141,-0.7557849999999999,-0.0087125,0.135039,-0.7570549999999999,-0.0112384999999999,1
124,-0.0314129999999999,0.7011400000000001,-0.058912,-0.196286,0.48629,-0.076168,-0.355956,0.66673,-0.161747,0.155414,0.49788,-0.094121,0.301044,0.67546,-0.176607,-0.3666459999999999,0.90408,-0.229747,0.303434,0.94403,-0.230807,-0.079666,-0.00196,0.004428,0.079666,0.0019599999999999,-0.004428,-0.148836,-0.38228,-0.145197,0.124564,-0.38338,-0.160537,-0.127766,-0.74936,-0.0103,0.134374,-0.7507299999999999,-0.01334,1
125,-0.0307654999999999,0.699445,-0.061368,-0.1957625,0.4852349999999999,-0.078109,-0.3560525,0.666545,-0.16504,0.1556874999999999,0.4968749999999999,-0.096991,0.3017175,0.673825,-0.18092,-0.3655225,0.902745,-0.23194,0.3043475,0.937025,-0.23332,-0.0797225,-0.001695,0.004316,0.0797225,0.001695,-0.0043159999999999,-0.1510425,-0.379995,-0.1491299999999999,0.1257275,-0.380705,-0.1650599999999999,-0.1284325,-0.742825,-0.0116099999999999,0.1336175,-0.744085,-0.015286,1
126,-0.0301685,0.697835,-0.064214,-0.1952755,0.4843949999999999,-0.080121,-0.3562855,0.666275,-0.168628,0.1556944999999999,0.4958249999999999,-0.0999449999999999,0.3021445,0.671905,-0.185788,-0.3646255,0.901605,-0.234458,0.3050645,0.929465,-0.236598,-0.0796985,-0.001605,0.0043879999999999,0.0796985,0.0016049999999999,-0.0043879999999999,-0.1535555,-0.3778249999999999,-0.153358,0.1267444999999999,-0.378055,-0.169398,-0.1291355,-0.736005,-0.012673,0.1326244999999999,-0.736845,-0.017085,1
127,-0.0296045,0.696445,-0.068083,-0.1948785,0.483275,-0.083143,-0.3567185,0.6658649999999999,-0.173062,0.1556715,0.494945,-0.103758,0.3023814999999999,0.6703049999999999,-0.191722,-0.3639785,0.900625,-0.238432,0.3054914999999999,0.922345,-0.241612,-0.0796365,-0.0016049999999999,0.004417,0.0796365,0.0016049999999999,-0.004417,-0.1563085,-0.375775,-0.158422,0.1274314999999999,-0.375535,-0.174572,-0.1299985,-0.728075,-0.0144439999999999,0.1314615,-0.7293050000000001,-0.019506,1
128,-0.029154,0.69453,-0.071704,-0.194522,0.48208,-0.086233,-0.357192,0.6650900000000001,-0.1774669999999999,0.154868,0.49434,-0.1074099999999999,0.302588,0.66735,-0.197807,-0.363162,0.90069,-0.242347,0.305788,0.91125,-0.247797,-0.079578,-0.0016299999999999,0.00448,0.079578,0.00163,-0.00448,-0.159112,-0.37092,-0.163387,0.127798,-0.3714999999999999,-0.179647,-0.131152,-0.7207899999999999,-0.015892,0.130298,-0.7219,-0.021842,1
129,-0.028741,0.6928350000000001,-0.0759545,-0.19417,0.4811149999999999,-0.0896535,-0.35777,0.664655,-0.1826275,0.1539299999999999,0.492965,-0.1117575,0.30272,0.6650449999999999,-0.2042775,-0.36246,0.8981049999999999,-0.2477975,0.30462,0.908865,-0.2532075,-0.079514,-0.001515,0.0045095,0.079514,0.0015149999999999,-0.0045095,-0.16183,-0.364255,-0.1690375,0.12791,-0.365725,-0.1854075,-0.13234,-0.7121250000000001,-0.0176195,0.12922,-0.7132449999999999,-0.0245065,1
130,-0.028505,0.69205,-0.0823115,-0.193967,0.48039,-0.0954855,-0.358317,0.66407,-0.1902045,0.1527929999999999,0.49191,-0.1184345,0.3026729999999999,0.6628000000000001,-0.2130645,-0.361877,0.89556,-0.2554645,0.303233,0.90746,-0.2609945,-0.079402,-0.0014099999999999,0.0050715,0.079402,0.00141,-0.0050715,-0.164787,-0.3566699999999999,-0.1767745,0.127633,-0.35883,-0.1932144999999999,-0.133787,-0.70253,-0.0215035,0.127853,-0.70374,-0.0294065,1
131,-0.0291439999999999,0.694765,-0.0916275,-0.193718,0.481035,-0.1050125,-0.359638,0.667385,-0.2008115,0.150712,0.493095,-0.1282515,0.301682,0.6636949999999999,-0.2245715,-0.362008,0.897195,-0.2662115,0.301072,0.908725,-0.2718115,-0.079362,-0.0013849999999999,0.0050044999999999,0.079362,0.0013849999999999,-0.0050045,-0.170398,-0.345105,-0.1929915,0.126082,-0.348425,-0.2100915,-0.137758,-0.693015,-0.0334955,0.125542,-0.6907449999999999,-0.0384245,1
132,-0.0296439999999999,0.696625,-0.100632,-0.193349,0.481465,-0.114261,-0.3607289999999999,0.670465,-0.211188,0.149011,0.494955,-0.137228,0.300931,0.664405,-0.235308,-0.361989,0.899325,-0.276678,0.299171,0.910145,-0.281668,-0.079231,-0.0014149999999999,0.0049359999999999,0.079231,0.0014149999999999,-0.0049359999999999,-0.175389,-0.334025,-0.2085479999999999,0.1242809999999999,-0.3385849999999999,-0.2261379999999999,-0.141309,-0.685215,-0.0451229999999999,0.123471,-0.6788649999999999,-0.0469399999999999,1
133,-0.0304325,0.69675,-0.1095874999999999,-0.1929795,0.48083,-0.1238575,-0.3618895,0.67186,-0.2222505,0.1473405,0.4973,-0.1461005,0.2998905,0.6652100000000001,-0.2462705,-0.3614495,0.9003000000000001,-0.2879305,0.2970605,0.91118,-0.2919705,-0.0791304999999999,-0.0016799999999999,0.0048865,0.0791304999999999,0.00168,-0.0048864999999999,-0.1803195,-0.3231099999999999,-0.2243405,0.1223505,-0.32859,-0.2419905,-0.1448395,-0.6775100000000001,-0.0567214999999999,0.1212405,-0.66702,-0.0553904999999999,1
134,-0.0313195,0.69643,-0.119285,-0.1926185,0.48037,-0.133449,-0.3630285,0.6733800000000001,-0.233239,0.1458915,0.49911,-0.155169,0.2989414999999999,0.66484,-0.257149,-0.3606885,0.90138,-0.299079,0.2950715,0.91178,-0.302379,-0.0789715,-0.00211,0.0048889999999999,0.0789715,0.00211,-0.004889,-0.1847085,-0.3129999999999999,-0.2401589999999999,0.1206614999999999,-0.3186099999999999,-0.257749,-0.1462085,-0.6668999999999999,-0.06411,0.1192315,-0.65574,-0.064016,1
135,-0.0322869999999999,0.6967,-0.128991,-0.192429,0.47984,-0.143454,-0.363979,0.67518,-0.244464,0.144151,0.49871,-0.164904,0.298211,0.6648,-0.267974,-0.359859,0.90157,-0.310494,0.292961,0.91322,-0.312764,-0.0788909999999999,-0.00226,0.004857,0.0788909999999999,0.00226,-0.004857,-0.188549,-0.30296,-0.255964,0.119201,-0.30883,-0.273764,-0.147239,-0.65619,-0.07198,0.1173009999999999,-0.64444,-0.072823,1
136,-0.033337,0.69738,-0.1386609999999999,-0.192239,0.47973,-0.1533209999999999,-0.364829,0.67688,-0.255941,0.142451,0.49867,-0.174431,0.2975509999999999,0.66452,-0.278521,-0.358819,0.90125,-0.322061,0.290801,0.91462,-0.323071,-0.078861,-0.0022999999999999,0.004856,0.078861,0.0022999999999999,-0.0048559999999999,-0.191829,-0.29316,-0.271611,0.117661,-0.2994399999999999,-0.2897409999999999,-0.148029,-0.6455299999999999,-0.0799469999999999,0.1157009999999999,-0.63335,-0.081626,1
137,-0.0341175,0.698045,-0.1486185,-0.1922315,0.479835,-0.1632585,-0.3656615,0.678895,-0.2676085,0.1407985,0.498605,-0.1840885,0.2968785,0.665795,-0.2889285,-0.3578814999999999,0.9005050000000001,-0.3338385,0.2887585,0.919925,-0.3326785,-0.0788885,-0.0024549999999999,0.0048095,0.0788885,0.002455,-0.0048094999999999,-0.1938015,-0.283425,-0.2874885,0.1158085,-0.290135,-0.3058385,-0.1485415,-0.6345449999999999,-0.0881575,0.1143085,-0.6222650000000001,-0.0905485,1
138,-0.0348635,0.6996,-0.1579895,-0.1923935,0.47892,-0.1729575,-0.3664635,0.67986,-0.2786575,0.1391965,0.4998,-0.1932175,0.2961065,0.66637,-0.2990575,-0.3572735,0.90323,-0.3441575,0.2864465,0.92391,-0.3421775,-0.0789665,-0.0028199999999999,0.0047285,0.0789665,0.0028199999999999,-0.0047285,-0.1953835,-0.2743199999999999,-0.3028175,0.1137165,-0.2818099999999999,-0.3212975,-0.1490335,-0.6247199999999999,-0.0963765,0.1129665,-0.6125,-0.0991905,1
139,-0.0354905,0.699975,-0.1642445,-0.1925365,0.477815,-0.1791345,-0.3671365,0.680315,-0.2862345,0.1373735,0.498135,-0.1990445,0.2954635,0.6669149999999999,-0.3060144999999999,-0.3566065,0.905605,-0.3515344999999999,0.2842535,0.926945,-0.3483245,-0.0790635,-0.0030649999999999,0.0041235,0.0790635,0.0030649999999999,-0.0041235,-0.1963265,-0.265145,-0.3149145,0.1113635,-0.2735249999999999,-0.3335645,-0.1494165,-0.6152949999999999,-0.1014715,0.1118935,-0.603275,-0.1046525,1
140,-0.036127,0.696295,-0.1678639999999999,-0.192718,0.475375,-0.181854,-0.367398,0.676185,-0.291224,0.136492,0.4951149999999999,-0.2020539999999999,0.295212,0.6630849999999999,-0.310524,-0.355958,0.904225,-0.356534,0.282392,0.921355,-0.352144,-0.079092,-0.003205,0.00428,0.079092,0.0032049999999999,-0.0042799999999999,-0.196548,-0.258375,-0.318954,0.108512,-0.267375,-0.337244,-0.149388,-0.608735,-0.103044,0.1107519999999999,-0.5965550000000001,-0.1065199999999999,1
141,-0.037056,0.6935,-0.1712874999999999,-0.192882,0.47275,-0.1844675,-0.367802,0.67239,-0.2959175,0.135638,0.49228,-0.2052075,0.294948,0.65958,-0.3150475,-0.355552,0.89986,-0.3617375,0.280678,0.91647,-0.3558675,-0.079098,-0.0033399999999999,0.0044254999999999,0.079098,0.00334,-0.0044254999999999,-0.196762,-0.2512,-0.3228075,0.105268,-0.2602,-0.3408274999999999,-0.149252,-0.60183,-0.1046914999999999,0.109538,-0.58946,-0.1086034999999999,1
142,-0.03807,0.692615,-0.174792,-0.193026,0.4712550000000001,-0.186612,-0.368406,0.670455,-0.2998119999999999,0.134744,0.488955,-0.208472,0.294534,0.6561950000000001,-0.318922,-0.355706,0.897675,-0.366052,0.279354,0.911465,-0.359282,-0.079094,-0.0032749999999999,0.0046059999999999,0.079094,0.003275,-0.004606,-0.196936,-0.2444849999999999,-0.325912,0.1018439999999999,-0.2533949999999999,-0.3439419999999999,-0.149126,-0.5953149999999999,-0.106335,0.1083539999999999,-0.5827249999999999,-0.110666,1
143,-0.03894,0.691505,-0.1780005,-0.193598,0.469475,-0.1889005,-0.369018,0.667905,-0.3035905,0.133932,0.4858249999999999,-0.2118005,0.294232,0.653065,-0.3230005,-0.355688,0.895365,-0.3703705,0.278512,0.905735,-0.3629805,-0.079102,-0.0031849999999999,0.0047844999999999,0.079102,0.0031849999999999,-0.0047845,-0.194808,-0.240695,-0.3287204999999999,0.0982519999999999,-0.249705,-0.3467405,-0.146778,-0.5862449999999999,-0.1039245,0.107112,-0.576565,-0.1123765,1
144,-0.0398555,0.68962,-0.1810874999999999,-0.1941895,0.46746,-0.1907875,-0.3697195,0.66437,-0.3068575,0.1334005,0.48516,-0.2142474999999999,0.2937805,0.64923,-0.3270275,-0.3556795,0.8934900000000001,-0.3742775,0.2778204999999999,0.90433,-0.3666775,-0.0791405,-0.00328,0.0050165,0.0791405,0.00328,-0.0050164999999999,-0.1926495,-0.23806,-0.3306875,0.0947004999999999,-0.24684,-0.3484975,-0.1444495,-0.57893,-0.1017085,0.1058805,-0.5723400000000001,-0.1138255,1
145,-0.040736,0.68705,-0.184068,-0.194953,0.46504,-0.192848,-0.3706129999999999,0.66296,-0.309878,0.132827,0.48395,-0.216808,0.293317,0.6456,-0.331048,-0.355663,0.8917900000000001,-0.3779079999999999,0.277287,0.90239,-0.3703079999999999,-0.079177,-0.0033799999999999,0.005202,0.079177,0.00338,-0.0052019999999999,-0.190463,-0.2359799999999999,-0.3328379999999999,0.091077,-0.24456,-0.3504379999999999,-0.142173,-0.5729099999999999,-0.0996789999999999,0.104637,-0.5695899999999999,-0.1158479999999999,1
146,-0.0414255,0.68483,-0.1870804999999999,-0.1956275,0.46245,-0.1949604999999999,-0.3714775,0.6612100000000001,-0.3127405,0.1322325,0.4825899999999999,-0.2192505,0.2929225,0.64201,-0.3350904999999999,-0.3557875,0.8901000000000001,-0.3813404999999999,0.2768725,0.8972800000000001,-0.3740104999999999,-0.0792325,-0.0034899999999999,0.0054084999999999,0.0792325,0.0034899999999999,-0.0054084999999999,-0.1881875,-0.2345299999999999,-0.3350605,0.0876025,-0.24281,-0.3524505,-0.1417375,-0.5711599999999999,-0.1016005,0.1034225,-0.56803,-0.1179425,1
147,-0.0421055,0.682275,-0.190165,-0.1961815,0.4608649999999999,-0.197365,-0.3724515,0.660495,-0.315835,0.1316285,0.480925,-0.2217549999999999,0.2924084999999999,0.638755,-0.339235,-0.3560115,0.8878550000000001,-0.384835,0.2763685,0.894215,-0.378365,-0.0792785,-0.0035049999999999,0.005523,0.0792785,0.0035049999999999,-0.005523,-0.1859115,-0.2339549999999999,-0.337385,0.0841585,-0.242235,-0.354635,-0.1413315,-0.5705849999999999,-0.103873,0.1022285,-0.5675650000000001,-0.12033,1
148,-0.0427059999999999,0.681145,-0.192927,-0.196684,0.4608649999999999,-0.1999469999999999,-0.374494,0.660495,-0.319217,0.131186,0.480925,-0.2243969999999999,0.291876,0.636555,-0.342787,-0.356404,0.886325,-0.387997,0.275466,0.8919950000000001,-0.3828769999999999,-0.079316,-0.0035049999999999,0.005625,0.079316,0.0035049999999999,-0.0056249999999999,-0.183744,-0.2339549999999999,-0.339277,0.081696,-0.242235,-0.356297,-0.140974,-0.5705849999999999,-0.106343,0.101196,-0.567615,-0.1228919999999999,1
149,-0.043037,0.681145,-0.1954545,-0.1971159999999999,0.4608649999999999,-0.2020045,-0.376516,0.660495,-0.3221645,0.130544,0.480925,-0.2269045,0.291384,0.636555,-0.3457645,-0.356876,0.886155,-0.3906645,0.2744839999999999,0.8919950000000001,-0.3867245,-0.079284,-0.0035049999999999,0.0056105,0.079284,0.0035049999999999,-0.0056105,-0.182466,-0.2339549999999999,-0.3403045,0.0805039999999999,-0.2422249999999999,-0.3571245,-0.140826,-0.5706850000000001,-0.1086905,0.100954,-0.5677749999999999,-0.1252835,1
150,-0.0433259999999999,0.681145,-0.1981155,-0.197591,0.4608649999999999,-0.2038855,-0.378221,0.660495,-0.3247755,0.1298389999999999,0.480925,-0.2295555,0.290879,0.636555,-0.3485355,-0.357101,0.8860349999999999,-0.3933355,0.273489,0.8919950000000001,-0.3905355,-0.079239,-0.0035049999999999,0.0056184999999999,0.079239,0.0035049999999999,-0.0056184999999999,-0.181461,-0.233755,-0.3408055,0.079849,-0.2418849999999999,-0.3574355,-0.140631,-0.5706850000000001,-0.1110495,0.1009789999999999,-0.567925,-0.1275995,1
151,-0.043694,0.6798,-0.2014595,-0.19822,0.45993,-0.2057195,-0.37985,0.65964,-0.3280695,0.1291,0.48147,-0.2323195,0.29049,0.63521,-0.3518795,-0.35744,0.88469,-0.3966794999999999,0.27266,0.89065,-0.3946995,-0.07915,-0.0035499999999999,0.0056464999999999,0.07915,0.0035499999999999,-0.0056464999999999,-0.1804899999999999,-0.23416,-0.3404395,0.0798799999999999,-0.2418399999999999,-0.3569295,-0.14049,-0.57203,-0.1134465,0.1010199999999999,-0.56941,-0.1302125,1
152,-0.044098,0.6779,-0.204791,-0.198891,0.45913,-0.207491,-0.3813109999999999,0.65901,-0.331411,0.128419,0.48089,-0.235221,0.289979,0.63279,-0.355241,-0.3578409999999999,0.88133,-0.400051,0.271499,0.89205,-0.398541,-0.079079,-0.00352,0.0056949999999999,0.079079,0.0035199999999999,-0.005695,-0.179921,-0.23557,-0.339291,0.0798589999999999,-0.24289,-0.355821,-0.140541,-0.57536,-0.115862,0.100879,-0.57275,-0.132343,1
153,-0.044417,0.676115,-0.207926,-0.199476,0.458915,-0.209136,-0.382636,0.658315,-0.334636,0.127914,0.480035,-0.237806,0.289534,0.630585,-0.358546,-0.358156,0.880605,-0.403076,0.270424,0.893215,-0.402096,-0.079014,-0.0034549999999999,0.005784,0.079014,0.003455,-0.0057839999999999,-0.179376,-0.237345,-0.337936,0.079874,-0.2444649999999999,-0.354496,-0.140566,-0.579405,-0.118171,0.100784,-0.5767749999999999,-0.134207,1
154,-0.044686,0.674545,-0.2107955,-0.199949,0.4587249999999999,-0.2106155,-0.383829,0.657875,-0.3375855,0.127591,0.479025,-0.2401655,0.289081,0.628915,-0.3617255,-0.3585089999999999,0.8786349999999999,-0.4059954999999999,0.269321,0.8946649999999999,-0.4054655,-0.078971,-0.003405,0.0058645,0.078971,0.0034049999999999,-0.0058644999999999,-0.178999,-0.239425,-0.3364755,0.079821,-0.246295,-0.3531655,-0.140709,-0.5841350000000001,-0.1204394999999999,0.1007609999999999,-0.581385,-0.1359095,1
155,-0.044865,0.673765,-0.2132804999999999,-0.200357,0.458405,-0.2120504999999999,-0.384867,0.657755,-0.3401404999999999,0.127433,0.478325,-0.2420805,0.2886829999999999,0.628085,-0.3644505,-0.358747,0.8765750000000001,-0.4087705,0.2683129999999999,0.8968050000000001,-0.4087105,-0.078923,-0.003375,0.0059295,0.078923,0.003375,-0.0059294999999999,-0.178647,-0.241575,-0.3349204999999999,0.080483,-0.248145,-0.3517805,-0.140777,-0.5886549999999999,-0.1226905,0.101243,-0.5861749999999999,-0.1375434999999999,1
156,-0.045042,0.673555,-0.215296,-0.2006959999999999,0.458335,-0.2130159999999999,-0.385756,0.6583650000000001,-0.342286,0.127274,0.477235,-0.2436859999999999,0.288424,0.6278250000000001,-0.366686,-0.3589259999999999,0.875035,-0.411026,0.267684,0.896935,-0.411586,-0.078844,-0.0032649999999999,0.006054,0.078844,0.003265,-0.0060539999999999,-0.178346,-0.2433849999999999,-0.333446,0.081704,-0.2498049999999999,-0.3506559999999999,-0.140826,-0.592665,-0.124526,0.101794,-0.590505,-0.139127,1
157,-0.045271,0.67345,-0.216885,-0.200896,0.45792,-0.213965,-0.385986,0.6571,-0.344055,0.127064,0.47624,-0.244805,0.288184,0.62778,-0.368575,-0.359156,0.87344,-0.412725,0.2673439999999999,0.89476,-0.414305,-0.078714,-0.00317,0.006175,0.078714,0.00317,-0.006175,-0.1781559999999999,-0.24527,-0.331855,0.083654,-0.25138,-0.349555,-0.140926,-0.5965499999999999,-0.126102,0.102344,-0.5947199999999999,-0.140578,1
158,-0.0453925,0.67353,-0.2179749999999999,-0.2010265,0.45766,-0.214555,-0.3861465,0.6554800000000001,-0.345315,0.1269634999999999,0.47525,-0.245565,0.2880135,0.62791,-0.369935,-0.3592865,0.87216,-0.413935,0.2670935,0.89306,-0.416615,-0.0786035,-0.0030799999999999,0.006295,0.0786035,0.00308,-0.0062949999999999,-0.1779865,-0.24697,-0.330325,0.0859835,-0.25275,-0.348605,-0.1409465,-0.59984,-0.12747,0.1029834999999999,-0.59828,-0.14181,1
159,-0.045519,0.6736249999999999,-0.218635,-0.201294,0.4571349999999999,-0.215555,-0.386414,0.6538349999999999,-0.346325,0.126796,0.474275,-0.246285,0.2877459999999999,0.628025,-0.370935,-0.359514,0.8712949999999999,-0.4147849999999999,0.2668959999999999,0.891905,-0.418185,-0.078546,-0.003035,0.006375,0.078546,0.0030349999999999,-0.006375,-0.178054,-0.248415,-0.329005,0.088336,-0.253675,-0.347835,-0.141114,-0.602595,-0.128618,0.1035059999999999,-0.601015,-0.142992,1
160,-0.045558,0.674235,-0.218605,-0.201503,0.456055,-0.216495,-0.386123,0.652935,-0.346055,0.126767,0.473965,-0.2464249999999999,0.2875169999999999,0.628625,-0.371325,-0.359663,0.871205,-0.415065,0.266727,0.891955,-0.418695,-0.078507,-0.0030649999999999,0.006415,0.078507,0.003065,-0.0064149999999999,-0.178273,-0.2490549999999999,-0.328155,0.090287,-0.253865,-0.347365,-0.141283,-0.6040749999999999,-0.129484,0.103887,-0.602305,-0.1437419999999999,1
161,-0.045589,0.67479,-0.21837,-0.201518,0.45518,-0.21716,-0.385408,0.65181,-0.34495,0.1268419999999999,0.47397,-0.24635,0.287232,0.62941,-0.3714699999999999,-0.359738,0.87163,-0.41484,0.266352,0.89223,-0.4188699999999999,-0.078492,-0.0031599999999999,0.0064099999999999,0.078492,0.0031599999999999,-0.0064099999999999,-0.178628,-0.24943,-0.32755,0.0920719999999999,-0.25377,-0.34704,-0.141548,-0.60488,-0.130082,0.1040619999999999,-0.60295,-0.144719,1
162,-0.045583,0.6751100000000001,-0.218,-0.201366,0.455,-0.21749,-0.384856,0.65163,-0.34402,0.126994,0.47434,-0.2463199999999999,0.286984,0.63005,-0.3715299999999999,-0.359686,0.8725700000000001,-0.4144299999999999,0.265944,0.89286,-0.419,-0.078454,-0.0033399999999999,0.00637,0.078454,0.00334,-0.00637,-0.1790159999999999,-0.24922,-0.32745,0.093834,-0.2530099999999999,-0.34715,-0.141896,-0.60478,-0.130586,0.104124,-0.6027,-0.145587,1
163,-0.045424,0.6751100000000001,-0.217475,-0.200949,0.455,-0.217695,-0.384249,0.65163,-0.343115,0.1271709999999999,0.47434,-0.246255,0.286801,0.63005,-0.371355,-0.359519,0.8731800000000001,-0.413495,0.265681,0.89347,-0.418845,-0.078391,-0.0033399999999999,0.006295,0.078391,0.00334,-0.0062949999999999,-0.179579,-0.2490799999999999,-0.327685,0.095291,-0.25256,-0.347605,-0.142169,-0.60458,-0.130983,0.1041309999999999,-0.60232,-0.146357,1
164,-0.0452789999999999,0.6751100000000001,-0.2168,-0.200525,0.455,-0.21769,-0.3837049999999999,0.65144,-0.34209,0.127385,0.47434,-0.24606,0.2867349999999999,0.63005,-0.37104,-0.359275,0.8737,-0.41234,0.265445,0.8937,-0.41834,-0.078375,-0.0033399999999999,0.00619,0.078375,0.00334,-0.00619,-0.1801849999999999,-0.2490799999999999,-0.3281,0.096605,-0.25234,-0.34818,-0.142395,-0.60458,-0.131191,0.104035,-0.60181,-0.146893,1
165,-0.0451485,0.675115,-0.216035,-0.2002195,0.454175,-0.217705,-0.3831995,0.650945,-0.340915,0.1274705,0.474345,-0.2457349999999999,0.2866105,0.630055,-0.370505,-0.3592395,0.873705,-0.411145,0.2652305,0.893705,-0.417545,-0.0782905,-0.0033449999999999,0.006065,0.0782905,0.0033449999999999,-0.006065,-0.1810995,-0.249075,-0.328475,0.0975105,-0.252335,-0.348625,-0.1427395,-0.6045750000000001,-0.131273,0.1037505,-0.6013949999999999,-0.147413,1
166,-0.04486,0.67543,-0.2153729999999999,-0.1999119999999999,0.45339,-0.217465,-0.382622,0.6501399999999999,-0.339865,0.127598,0.47472,-0.245575,0.286608,0.63043,-0.370095,-0.359092,0.8742300000000001,-0.410075,0.2652279999999999,0.8942300000000001,-0.416805,-0.0781979999999999,-0.00345,0.005925,0.0781979999999999,0.00345,-0.005925,-0.1819319999999999,-0.24855,-0.328725,0.098008,-0.25181,-0.348925,-0.142992,-0.60405,-0.131319,0.103538,-0.6006100000000001,-0.147894,1
167,-0.0445765,0.675435,-0.214806,-0.1996095,0.452675,-0.21723,-0.3820894999999999,0.649445,-0.33884,0.1276605,0.475135,-0.24543,0.2867205,0.630605,-0.3698,-0.3589095,0.875235,-0.40908,0.2653005,0.895235,-0.4162099999999999,-0.0780905,-0.0035749999999999,0.0057799999999999,0.0780905,0.0035749999999999,-0.00578,-0.1828095,-0.2477249999999999,-0.3288999999999999,0.0983304999999999,-0.250805,-0.34925,-0.1432594999999999,-0.603085,-0.131391,0.1032905,-0.599405,-0.148428,1
168,-0.044305,0.6753500000000001,-0.214419,-0.199348,0.4519500000000001,-0.216951,-0.381578,0.6484700000000001,-0.337765,0.127712,0.47562,-0.245255,0.286852,0.63077,-0.369675,-0.358838,0.87643,-0.4082249999999999,0.265492,0.89666,-0.415815,-0.077982,-0.0036899999999999,0.005655,0.077982,0.00369,-0.0056549999999999,-0.183838,-0.2466199999999999,-0.329225,0.098672,-0.24944,-0.3497949999999999,-0.143548,-0.6017399999999999,-0.13151,0.103032,-0.59778,-0.148958,1
169,-0.044027,0.67534,-0.214214,-0.199349,0.4517799999999999,-0.2170139999999999,-0.381019,0.64726,-0.3368,0.127881,0.4754899999999999,-0.24493,0.286921,0.63043,-0.3698099999999999,-0.358869,0.87747,-0.40756,0.2656909999999999,0.89838,-0.41593,-0.077901,-0.00375,0.0055699999999999,0.077901,0.0037499999999999,-0.00557,-0.185259,-0.24477,-0.33004,0.0991309999999999,-0.24766,-0.35077,-0.143889,-0.59957,-0.131815,0.1026909999999999,-0.5953200000000001,-0.149818,1
170,-0.0437525,0.675205,-0.214179,-0.1993645,0.451785,-0.217136,-0.3808145,0.646495,-0.336535,0.1280955,0.475295,-0.244725,0.2869855,0.629965,-0.370265,-0.3589945,0.878565,-0.407355,0.2658955,0.9001349999999999,-0.416465,-0.0778254999999999,-0.0037949999999999,0.0054749999999999,0.0778255,0.0037949999999999,-0.005475,-0.1868044999999999,-0.2427149999999999,-0.331085,0.0996055,-0.2457349999999999,-0.352025,-0.1441845,-0.597175,-0.132461,0.1022855,-0.592705,-0.150781,1
171,-0.0433815,0.67498,-0.2142369999999999,-0.1993885,0.45191,-0.217221,-0.3804685,0.6456500000000001,-0.336335,0.1283615,0.47497,-0.244415,0.2871415,0.62927,-0.370815,-0.3590885,0.87942,-0.4072949999999999,0.2661715,0.90161,-0.4171049999999999,-0.0777915,-0.00378,0.005405,0.0777915,0.00378,-0.0054049999999999,-0.1882485,-0.2406399999999999,-0.331825,0.1001315,-0.2439299999999999,-0.353105,-0.1444285,-0.59484,-0.133101,0.1019815,-0.59019,-0.1518229999999999,1
172,-0.043064,0.674635,-0.214402,-0.199405,0.452015,-0.216663,-0.380105,0.644765,-0.336095,0.128625,0.474595,-0.244225,0.287305,0.628425,-0.371465,-0.359095,0.880155,-0.407675,0.266495,0.902565,-0.417775,-0.077765,-0.0037849999999999,0.0054349999999999,0.077765,0.0037849999999999,-0.005435,-0.189645,-0.2386149999999999,-0.332465,0.100725,-0.2422249999999999,-0.353965,-0.144675,-0.592635,-0.133718,0.101695,-0.587845,-0.152833,1
173,-0.0427414999999999,0.6742900000000001,-0.214661,-0.1993895,0.45267,-0.216392,-0.3796895,0.6448,-0.336015,0.1289105,0.47435,-0.244105,0.2874204999999999,0.6274500000000001,-0.371985,-0.3589894999999999,0.88027,-0.4081249999999999,0.2668905,0.90272,-0.4184449999999999,-0.0777005,-0.00374,0.0054649999999999,0.0777005,0.00374,-0.0054649999999999,-0.1908294999999999,-0.2370999999999999,-0.3330849999999999,0.1012705,-0.24089,-0.354645,-0.1449095,-0.5911,-0.134288,0.1014605,-0.58627,-0.153808,1
174,-0.042368,0.674255,-0.2152,-0.199233,0.453235,-0.216301,-0.379183,0.644565,-0.336245,0.129287,0.473815,-0.244365,0.287647,0.626995,-0.372655,-0.358703,0.880035,-0.408895,0.267287,0.902465,-0.419225,-0.077717,-0.0035449999999999,0.005535,0.077717,0.003545,-0.0055349999999999,-0.191613,-0.2365349999999999,-0.3339649999999999,0.101977,-0.240325,-0.355585,-0.144973,-0.5905349999999999,-0.135127,0.1014269999999999,-0.585635,-0.1549789999999999,1
175,-0.0420685,0.674255,-0.215745,-0.1990695,0.453235,-0.216171,-0.3789095,0.644565,-0.33643,0.1296005,0.473685,-0.2445999999999999,0.2878705,0.626995,-0.37347,-0.3583495,0.8799250000000001,-0.40972,0.2676505,0.902455,-0.41989,-0.0777405,-0.0035449999999999,0.0055699999999999,0.0777405,0.003545,-0.0055699999999999,-0.1923095,-0.2365349999999999,-0.33493,0.1027204999999999,-0.240325,-0.3566,-0.1450595,-0.590495,-0.136053,0.1014104999999999,-0.585565,-0.15621,1
176,-0.0415655,0.674255,-0.216072,-0.1986645,0.453235,-0.215911,-0.3785645,0.644565,-0.33642,0.1300355,0.473685,-0.2448699999999999,0.2882555,0.626995,-0.3742999999999999,-0.3580445,0.8799250000000001,-0.4104099999999999,0.2681255,0.902455,-0.42064,-0.0777855,-0.0035449999999999,0.00564,0.0777855,0.003545,-0.0056399999999999,-0.1927945,-0.2365349999999999,-0.33541,0.1037855,-0.240325,-0.35741,-0.1451145,-0.590465,-0.1370269999999999,0.1015155,-0.5854349999999999,-0.157333,1
177,-0.0410709999999999,0.674255,-0.216312,-0.198324,0.453655,-0.21565,-0.378314,0.644565,-0.3363,0.130376,0.473685,-0.24516,0.288716,0.626995,-0.37512,-0.357904,0.8799250000000001,-0.41089,0.268646,0.902455,-0.42161,-0.077796,-0.0035449999999999,0.0057,0.077796,0.003545,-0.0056999999999999,-0.193164,-0.236255,-0.33541,0.104786,-0.2401149999999999,-0.35792,-0.145274,-0.590465,-0.137896,0.101546,-0.585235,-0.1583999999999999,1
178,-0.0406099999999999,0.67442,-0.2159599999999999,-0.197932,0.45471,-0.21481,-0.378012,0.64607,-0.335655,0.130538,0.47341,-0.245255,0.289418,0.6269899999999999,-0.375505,-0.357372,0.87965,-0.410755,0.269568,0.90218,-0.422185,-0.0777779999999999,-0.0034,0.005785,0.077778,0.0034,-0.0057849999999999,-0.1932419999999999,-0.23614,-0.334655,0.105748,-0.23987,-0.3577249999999999,-0.1454019999999999,-0.59066,-0.138364,0.101618,-0.58527,-0.159012,1
179,-0.0400305,0.675035,-0.214889,-0.1975355,0.455875,-0.213473,-0.3778255,0.647485,-0.3343549999999999,0.1307145,0.473075,-0.244775,0.2901344999999999,0.627085,-0.374955,-0.3569455,0.8794550000000001,-0.409495,0.2708045,0.901975,-0.422105,-0.0777845,-0.003145,0.005895,0.0777845,0.003145,-0.0058949999999999,-0.1933455,-0.2366649999999999,-0.332925,0.1067145,-0.240065,-0.356655,-0.1455255,-0.5917349999999999,-0.138312,0.1016845,-0.586325,-0.15913,1
180,-0.0394765,0.67544,-0.2136259999999999,-0.1970715,0.4573899999999999,-0.212079,-0.3776215,0.64947,-0.332715,0.1309285,0.47282,-0.2439449999999999,0.2908185,0.62721,-0.3739949999999999,-0.3567815,0.8791599999999999,-0.4077949999999999,0.2723584999999999,0.90167,-0.4218449999999999,-0.0777785,-0.00297,0.005895,0.0777785,0.0029699999999999,-0.0058949999999999,-0.1933915,-0.23787,-0.330765,0.1076584999999999,-0.24084,-0.3551149999999999,-0.1456715,-0.59382,-0.1380749999999999,0.1017484999999999,-0.58839,-0.159126,1
181,-0.038728,0.6766350000000001,-0.2121509999999999,-0.196504,0.458955,-0.2106839999999999,-0.377294,0.651425,-0.330655,0.131186,0.473435,-0.243025,0.2915459999999999,0.628135,-0.372715,-0.356774,0.880545,-0.405275,0.2741559999999999,0.901395,-0.421145,-0.077786,-0.0027949999999999,0.005895,0.077786,0.002795,-0.0058949999999999,-0.193324,-0.2402349999999999,-0.328275,0.108596,-0.2425149999999999,-0.353395,-0.145834,-0.597285,-0.137819,0.101866,-0.591635,-0.1590229999999999,1
182,-0.0380245,0.678625,-0.210251,-0.1959185,0.460955,-0.209065,-0.3770085,0.6534249999999999,-0.328195,0.1314215,0.474175,-0.242065,0.2922915,0.630055,-0.371295,-0.3568185,0.881855,-0.4024149999999999,0.2760815,0.900895,-0.420075,-0.0778015,-0.0026249999999999,0.0059049999999999,0.0778015,0.0026249999999999,-0.005905,-0.1931385,-0.2433449999999999,-0.325525,0.1094815,-0.245015,-0.351475,-0.1461485,-0.6020749999999999,-0.137941,0.1020215,-0.595745,-0.158777,1
183,-0.0371775,0.68082,-0.208007,-0.1951004999999999,0.46275,-0.207268,-0.3765605,0.65683,-0.325055,0.1318295,0.47504,-0.240905,0.2931895,0.6318900000000001,-0.369285,-0.3567005,0.8825400000000001,-0.399035,0.2783795,0.89998,-0.418425,-0.0778395,-0.0024299999999999,0.0060449999999999,0.0778395,0.0024299999999999,-0.006045,-0.1927105,-0.2476,-0.322205,0.1105995,-0.2485299999999999,-0.349025,-0.1463505,-0.60826,-0.137756,0.1024395,-0.6019300000000001,-0.158613,1
184,-0.0362065,0.68295,-0.205207,-0.1942935,0.4653199999999999,-0.205062,-0.3759535,0.65974,-0.32127,0.1326765,0.4769,-0.23887,0.2941465,0.63396,-0.36654,-0.3566034999999999,0.8828699999999999,-0.39474,0.2809764999999999,0.89825,-0.41615,-0.0778565,-0.00225,0.00608,0.0778565,0.0022499999999999,-0.0060799999999999,-0.1920735,-0.25287,-0.31811,0.1117765,-0.25295,-0.3458299999999999,-0.1465334999999999,-0.61575,-0.1371359999999999,0.1031364999999999,-0.6094200000000001,-0.158018,1
185,-0.0353295,0.68579,-0.201442,-0.1936724999999999,0.46712,-0.2023599999999999,-0.3751525,0.66293,-0.316005,0.1337275,0.47872,-0.235765,0.2949675,0.6373,-0.3624549999999999,-0.3567825,0.88428,-0.389185,0.2843575,0.8966299999999999,-0.412035,-0.0778675,-0.0021299999999999,0.006005,0.0778675,0.0021299999999999,-0.0060049999999999,-0.1913925,-0.25949,-0.312785,0.1127875,-0.25881,-0.341225,-0.1482224999999999,-0.62668,-0.13827,0.1040675,-0.6187900000000001,-0.156532,1
186,-0.034587,0.68889,-0.196924,-0.193108,0.4693699999999999,-0.1989619999999999,-0.374188,0.6664399999999999,-0.3097149999999999,0.134612,0.48072,-0.232045,0.2956519999999999,0.6402300000000001,-0.3575549999999999,-0.357038,0.8907799999999999,-0.381965,0.287852,0.89696,-0.406915,-0.077872,-0.0019699999999999,0.005915,0.077872,0.0019699999999999,-0.0059149999999999,-0.190638,-0.26654,-0.306655,0.113852,-0.2650499999999999,-0.3358449999999999,-0.149948,-0.63801,-0.138617,0.105712,-0.62991,-0.157075,1
187,-0.0336449999999999,0.692315,-0.1920879999999999,-0.192623,0.471455,-0.195303,-0.373063,0.668775,-0.30305,0.135907,0.482815,-0.22799,0.296367,0.643475,-0.35206,-0.357193,0.895915,-0.37436,0.290927,0.897375,-0.40118,-0.0779469999999999,-0.0016549999999999,0.00589,0.077947,0.001655,-0.00589,-0.189633,-0.273775,-0.29981,0.115047,-0.271835,-0.3297,-0.151343,-0.6495949999999999,-0.137826,0.107667,-0.641425,-0.156648,1
188,-0.032777,0.69575,-0.1871479999999999,-0.1919239999999999,0.47415,-0.191674,-0.371684,0.67207,-0.295995,0.137266,0.48386,-0.223785,0.297176,0.6481,-0.3465249999999999,-0.357274,0.9013,-0.366685,0.293906,0.89928,-0.394905,-0.078046,-0.0012199999999999,0.005845,0.078046,0.0012199999999999,-0.005845,-0.1884239999999999,-0.2809,-0.292755,0.116306,-0.27883,-0.323355,-0.152534,-0.66089,-0.136574,0.109876,-0.65264,-0.155744,1
189,-0.031818,0.69853,-0.181418,-0.191234,0.4755199999999999,-0.187488,-0.3702439999999999,0.67543,-0.28856,0.138666,0.48609,-0.21948,0.297956,0.65289,-0.34072,-0.357194,0.90647,-0.35844,0.296866,0.90194,-0.38803,-0.078216,-0.0011099999999999,0.00586,0.078216,0.0011099999999999,-0.0058599999999999,-0.187074,-0.28833,-0.2854299999999999,0.117666,-0.28583,-0.3164599999999999,-0.153704,-0.67229,-0.135733,0.1122659999999999,-0.66352,-0.154464,1
190,-0.0308364999999999,0.6989400000000001,-0.175081,-0.1902515,0.47823,-0.183012,-0.3683915,0.67875,-0.2806,0.1403485,0.48821,-0.21478,0.2988885,0.6568,-0.33421,-0.3569715,0.90937,-0.34986,0.2989084999999999,0.9057,-0.3803499999999999,-0.0783185,-0.00078,0.0056699999999999,0.0783185,0.00078,-0.00567,-0.1852815,-0.29627,-0.27702,0.1190585,-0.29351,-0.30839,-0.1546415,-0.6843299999999999,-0.133869,0.1148485,-0.6750099999999999,-0.151924,1
191,-0.0299285,0.69824,-0.1688385,-0.1893515,0.48022,-0.1783045,-0.3667915,0.68224,-0.2726695,0.1419385,0.49044,-0.2100995,0.2998185,0.66014,-0.3270895,-0.3568615,0.91273,-0.3408195,0.3007185,0.90889,-0.3726295,-0.0784285,-0.0005099999999999,0.0054104999999999,0.0784285,0.00051,-0.0054104999999999,-0.1835315,-0.30432,-0.2683495,0.1201685,-0.30112,-0.2998794999999999,-0.1556515,-0.69659,-0.1314605,0.1173885,-0.6864399999999999,-0.1488475,1
192,-0.0288359999999999,0.6965749999999999,-0.1621659999999999,-0.1883079999999999,0.482855,-0.173232,-0.365268,0.684895,-0.264437,0.143772,0.492465,-0.205057,0.300922,0.665275,-0.319827,-0.356688,0.916165,-0.331377,0.302362,0.912985,-0.364487,-0.0785019999999999,-0.000345,0.005143,0.078502,0.0003449999999999,-0.0051429999999999,-0.181348,-0.312285,-0.259357,0.1213419999999999,-0.308545,-0.290997,-0.156498,-0.709085,-0.128575,0.119892,-0.6981850000000001,-0.145067,1
193,-0.0277139999999999,0.6937,-0.155522,-0.1872559999999999,0.48512,-0.167901,-0.364096,0.6879200000000001,-0.256447,0.145194,0.49446,-0.199537,0.302024,0.6696500000000001,-0.312307,-0.356366,0.92199,-0.321547,0.303734,0.9234,-0.355747,-0.078594,-0.00012,0.004817,0.078594,0.00012,-0.004817,-0.178946,-0.32029,-0.249587,0.122574,-0.31605,-0.281527,-0.1569959999999999,-0.7218500000000001,-0.1245209999999999,0.1220639999999999,-0.71,-0.140091,1
194,-0.0268214999999999,0.689265,-0.149451,-0.1865675,0.487685,-0.163229,-0.3631475,0.690185,-0.24949,0.1461825,0.496575,-0.19411,0.3027525,0.672545,-0.30545,-0.3560474999999999,0.928595,-0.31245,0.3047225,0.933115,-0.34797,-0.0785925,7.50000000000195e-05,0.0045829999999999,0.0785925,-7.499999999999174e-05,-0.004583,-0.1767474999999999,-0.327355,-0.24011,0.1236024999999999,-0.3226549999999999,-0.27246,-0.1563774999999999,-0.733155,-0.119264,0.1237725,-0.720815,-0.134918,1
195,-0.02602,0.683435,-0.143565,-0.1859859999999999,0.489325,-0.15872,-0.362236,0.692495,-0.243053,0.147054,0.498285,-0.1888429999999999,0.3033639999999999,0.676155,-0.298883,-0.355856,0.929245,-0.304323,0.305664,0.940515,-0.340493,-0.078504,0.0001349999999999,0.004222,0.078504,-0.0001349999999999,-0.004222,-0.174566,-0.334315,-0.230303,0.1243339999999999,-0.329175,-0.262943,-0.155516,-0.7441150000000001,-0.113816,0.1246439999999999,-0.731305,-0.129471,1
196,-0.0257834999999999,0.679555,-0.1375115,-0.1858905,0.490905,-0.1540925,-0.3623405,0.695135,-0.2362745,0.1474495,0.499535,-0.1839245,0.3031995,0.678655,-0.2920945,-0.3561105,0.930285,-0.2959445,0.3061595,0.946365,-0.3330745,-0.0783195,-5.000000000005e-06,0.0038995,0.0783195,5.000000000005e-06,-0.0038995,-0.1725505,-0.341405,-0.2197045,0.1241095,-0.335775,-0.2524145,-0.1550805,-0.754675,-0.1080075,0.1250795,-0.7417050000000001,-0.1236625,1
197,-0.0254964999999999,0.6748350000000001,-0.130839,-0.1856505,0.4921449999999999,-0.149365,-0.3625005,0.696285,-0.229064,0.1478395,0.501915,-0.179114,0.3028895,0.6803750000000001,-0.284974,-0.3564505,0.930965,-0.287464,0.3058794999999999,0.950995,-0.3256639999999999,-0.0781895,-0.000385,0.0036229999999999,0.0781895,0.0003849999999999,-0.003623,-0.1702505,-0.3485749999999999,-0.208494,0.1235695,-0.342495,-0.241014,-0.1544404999999999,-0.763015,-0.10026,0.1256595,-0.752535,-0.117462,1
198,-0.025358,0.670019,-0.12462,-0.1854519999999999,0.494979,-0.14498,-0.3629719999999999,0.696789,-0.222041,0.148108,0.504999,-0.174591,0.302678,0.682849,-0.277931,-0.356912,0.931659,-0.279351,0.305258,0.954689,-0.318541,-0.078188,-0.000375,0.0032369999999999,0.078188,0.000375,-0.0032369999999999,-0.1676119999999999,-0.358151,-0.1969709999999999,0.122498,-0.352971,-0.229271,-0.153742,-0.770961,-0.092407,0.126278,-0.760291,-0.107925,1
199,-0.0253124999999999,0.6668244999999999,-0.118812,-0.1854164999999999,0.4964645,-0.141027,-0.3635764999999999,0.6976645,-0.21559,0.1483235,0.5080345,-0.1706099999999999,0.3021535,0.6857145,-0.2714,-0.3576264999999999,0.9330745,-0.27168,0.3045935,0.9571745,-0.3119699999999999,-0.0782235,-0.0006864999999999,0.0030439999999999,0.0782235,0.0006865,-0.003044,-0.1651165,-0.3674054999999999,-0.18601,0.1210335,-0.3629354999999999,-0.21761,-0.1528365,-0.7783255,-0.084536,0.1266835,-0.7676555,-0.098871,1
200,-0.0251945,0.662435,-0.1074405,-0.1852065,0.498645,-0.1317404999999999,-0.3640865,0.698415,-0.2036974999999999,0.1485635,0.510145,-0.1611675,0.3014635,0.688295,-0.2596875,-0.3586565,0.933935,-0.2584675,0.3044235,0.959165,-0.2998375,-0.0782735,-0.001047,0.0027335,0.0782735,0.001047,-0.0027335,-0.1617465,-0.377955,-0.1674875,0.1194134999999999,-0.374475,-0.1991575,-0.1513265,-0.786655,-0.0695625,0.1271135,-0.776255,-0.0830755,1
201,-0.0255895,0.669074,-0.0959375,-0.1859925,0.500244,-0.1207615,-0.3646425,0.695764,-0.1901675,0.1491374999999999,0.513524,-0.1502375,0.3008475,0.687814,-0.2463775,-0.3598325,0.932984,-0.2437275,0.3046474999999999,0.958264,-0.2862475,-0.0783075,-0.001639,0.0031004999999999,0.0783075,0.001639,-0.0031005,-0.1567225,-0.391136,-0.1454675,0.1173975,-0.388246,-0.1758175,-0.1485024999999999,-0.796776,-0.0514705,0.1274775,-0.787386,-0.0637095,1
202,-0.0261309999999999,0.6768155,-0.084793,-0.186821,0.5013555000000001,-0.1098359999999999,-0.365311,0.6932354999999999,-0.176989,0.149469,0.5157754999999999,-0.139359,0.300019,0.6883655,-0.233329,-0.361371,0.9302555,-0.229699,0.305429,0.9517155,-0.2731989999999999,-0.078329,-0.0020685,0.0034609999999999,0.078329,0.0020685,-0.003461,-0.1519009999999999,-0.4037145,-0.124499,0.1154589999999999,-0.4008245,-0.153419,-0.145951,-0.8061545000000001,-0.033789,0.127819,-0.7980645,-0.045169,1
203,-0.0268985,0.6853265,-0.0740094999999999,-0.1879405,0.5023365000000001,-0.0987805,-0.3661305,0.6917865,-0.1640085,0.1497095,0.5181665,-0.1282885,0.2991594999999999,0.6916165,-0.2202585,-0.3632305,0.9257265,-0.2157785,0.3058794999999999,0.9471265,-0.2602985,-0.0782995,-0.0023514999999999,0.0036144999999999,0.0782995,0.0023514999999999,-0.0036145,-0.1470705,-0.4155535,-0.1038355,0.1136695,-0.4125735,-0.1309785,-0.1435205,-0.8152335,-0.0164484999999999,0.1279995,-0.8087835,-0.0272415,1
204,-0.027457,0.6946625000000001,-0.063682,-0.18897,0.5037525,-0.087733,-0.36662,0.6897625000000001,-0.151337,0.15016,0.5210625000000001,-0.116907,0.2984699999999999,0.6940825,-0.207057,-0.36531,0.9220625,-0.201567,0.3065799999999999,0.9429025,-0.247117,-0.07822,-0.0025785,0.003766,0.07822,0.0025785,-0.0037659999999999,-0.14195,-0.4270975,-0.083287,0.11231,-0.4243975,-0.108377,-0.14063,-0.8243474999999999,0.0009909999999999,0.12842,-0.8197774999999999,-0.009609,1
205,-0.027873,0.7019075,-0.0531835,-0.189886,0.5053075,-0.0768055,-0.366016,0.6864874999999999,-0.1387475,0.150784,0.5241175,-0.1053375,0.2982039999999999,0.6973975,-0.1937475,-0.367466,0.9192575,-0.1871975,0.307504,0.9402575,-0.2339774999999999,-0.078044,-0.0027384999999999,0.0040325,0.078044,0.0027384999999999,-0.0040325,-0.136556,-0.4372525,-0.0632325,0.111694,-0.4356025,-0.0862375,-0.137496,-0.8332025000000001,0.0177725,0.129314,-0.8301325,0.0071625,1
206,-0.0282009999999999,0.7095870000000001,-0.042221,-0.190776,0.5071270000000001,-0.065219,-0.365436,0.685717,-0.125693,0.151684,0.5268970000000001,-0.093023,0.298104,0.7007070000000001,-0.179193,-0.369736,0.916807,-0.172243,0.3089039999999999,0.943027,-0.218463,-0.077736,-0.002794,0.0042269999999999,0.077736,0.002794,-0.004227,-0.130536,-0.448303,-0.041915,0.111834,-0.447783,-0.0619549999999999,-0.134146,-0.842513,0.034973,0.130604,-0.840853,0.0242439999999999,1
207,-0.028433,0.717874,-0.0310695,-0.191534,0.5083740000000001,-0.0533064999999999,-0.364664,0.685054,-0.1126435,0.1527659999999999,0.527494,-0.0806235,0.2980959999999999,0.7032940000000001,-0.1645435,-0.371854,0.914544,-0.1574435,0.310496,0.946204,-0.2028335,-0.077522,-0.002828,0.0044515,0.077522,0.002828,-0.0044514999999999,-0.1246839999999999,-0.458856,-0.0205825,0.112486,-0.459596,-0.0375314999999999,-0.130714,-0.8514459999999999,0.0521405,0.1321459999999999,-0.850706,0.0409655,1
208,-0.0288299999999999,0.7256135,-0.0201139999999999,-0.192152,0.5096135,-0.0416359999999999,-0.363722,0.6843435,-0.0995929999999999,0.153808,0.5283735,-0.068463,0.298128,0.7061835,-0.149903,-0.373882,0.9126035,-0.143403,0.312098,0.9492935,-0.1875129999999999,-0.077307,-0.0028025,0.004604,0.077307,0.0028024999999999,-0.0046039999999999,-0.119032,-0.4696464999999999,0.0005189999999999,0.113388,-0.4713465,-0.0136089999999999,-0.127452,-0.8597865,0.068627,0.133718,-0.8597465,0.057095,1
209,-0.0290684999999999,0.7348954999999999,-0.0149019999999999,-0.1926755,0.5103955,-0.0355149999999999,-0.3626655,0.6838055,-0.0927579999999999,0.1550345,0.5302954999999999,-0.0621179999999999,0.2984644999999999,0.7089854999999999,-0.141118,-0.3753855,0.9107355,-0.135828,0.3139945,0.9536555,-0.1781879999999999,-0.0771465,-0.0026885,0.004855,0.0771465,0.0026885,-0.0048549999999999,-0.1140265,-0.4788544999999999,0.013883,0.1146545,-0.4813945,0.003009,-0.1245455,-0.8664545,0.077729,0.1354045,-0.8670345,0.066227,1
210,-0.0286799999999999,0.733945,-0.0105689999999999,-0.19209,0.511385,-0.03129,-0.3615699999999999,0.686195,-0.088049,0.15632,0.531095,-0.0574589999999999,0.29896,0.713155,-0.134429,-0.37653,0.911085,-0.130959,0.31608,0.958925,-0.171789,-0.076899,-0.00225,0.0044239999999999,0.076899,0.00225,-0.0044239999999999,-0.11086,-0.482635,0.023016,0.11641,-0.485215,0.0138309999999999,-0.1226199999999999,-0.869805,0.083123,0.13714,-0.871215,0.071376,1
211,-0.0281614999999999,0.7336929999999999,-0.0065965,-0.1914165,0.512423,-0.0271275,-0.3605765,0.688453,-0.0836845,0.1575335,0.532063,-0.0528344999999999,0.2997335,0.716793,-0.1282045,-0.3774565,0.911043,-0.1267344999999999,0.3181535,0.964093,-0.1659045,-0.0765895,-0.0020099999999999,0.0042004999999999,0.0765895,0.00201,-0.0042004999999999,-0.1077634999999999,-0.4860369999999999,0.0318755,0.1180934999999999,-0.488637,0.0243155,-0.1206065,-0.872667,0.0887535,0.1388535,-0.874877,0.0763135,1
212,-0.027602,0.733404,-0.0030309999999999,-0.19069,0.513304,-0.0233939999999999,-0.35958,0.689844,-0.079836,0.15877,0.5321239999999999,-0.0483259999999999,0.30051,0.7182339999999999,-0.1226959999999999,-0.37822,0.911494,-0.122966,0.32022,0.968584,-0.160816,-0.076237,-0.001846,0.004165,0.076237,0.001846,-0.004165,-0.104955,-0.488666,0.039787,0.11969,-0.491276,0.033482,-0.11873,-0.8748360000000001,0.093973,0.14055,-0.877596,0.080859,1
