sb224sc-HT22-VT27/4dt907/src/data/labeled_files/A157_kinect_mirrored.csv
FrameNo,nose_3d_x,nose_3d_y,nose_3d_z,left_shoulder_3d_x,left_shoulder_3d_y,left_shoulder_3d_z,left_elbow_3d_x,left_elbow_3d_y,left_elbow_3d_z,right_shoulder_3d_x,right_shoulder_3d_y,right_shoulder_3d_z,right_elbow_3d_x,right_elbow_3d_y,right_elbow_3d_z,left_wrist_3d_x,left_wrist_3d_y,left_wrist_3d_z,right_wrist_3d_x,right_wrist_3d_y,right_wrist_3d_z,left_hip_3d_x,left_hip_3d_y,left_hip_3d_z,right_hip_3d_x,right_hip_3d_y,right_hip_3d_z,left_knee_3d_x,left_knee_3d_y,left_knee_3d_z,right_knee_3d_x,right_knee_3d_y,right_knee_3d_z,left_ankle_3d_x,left_ankle_3d_y,left_ankle_3d_z,right_ankle_3d_x,right_ankle_3d_y,right_ankle_3d_z,activity_label
0,1.044498,0.733798,-0.0549095,0.857156,0.491218,-0.0460985,0.6924160000000001,0.276578,-0.0551934999999999,1.206306,0.480748,-0.0345604999999999,1.326586,0.259418,-0.0494054999999999,0.575806,0.091323,-0.1622255,1.415516,0.086028,-0.1771555,0.920947,0.005136,-0.0001735,1.079053,-0.005136,0.0001735,0.864926,-0.4734319999999999,0.0272125,1.103296,-0.465802,0.0300255,0.832506,-0.840782,0.0380515,1.118196,-0.8359620000000001,0.0524015,0
1,1.044394,0.7346875,-0.051308,0.856021,0.4917475,-0.045074,0.689631,0.2809575,-0.059448,1.206831,0.4805275,-0.031536,1.330771,0.2660175,-0.050772,0.5744010000000002,0.1115874999999999,-0.168459,1.420771,0.0976795,-0.184799,0.920901,0.0050875,-0.001023,1.079099,-0.0050875,0.0010229999999999,0.865071,-0.4723825,0.0282769999999999,1.103521,-0.4654824999999999,0.031452,0.834201,-0.8409225,0.040372,1.120261,-0.8366425,0.0544039999999999,0
2,1.044018,0.735383,-0.044964,0.855905,0.492133,-0.043891,0.686395,0.283803,-0.062634,1.208035,0.479663,-0.0284989999999999,1.341605,0.285033,-0.0560849999999999,0.571735,0.117533,-0.177334,1.426655,0.115323,-0.1918039999999999,0.920786,0.0050279999999999,-0.0018519999999999,1.079214,-0.0050279999999999,0.0018519999999999,0.866635,-0.472497,0.02971,1.104945,-0.4656869999999999,0.032606,0.836455,-0.841487,0.042321,1.122355,-0.838587,0.056388,0
3,1.0438185,0.7355765,-0.0404179999999999,0.8554275,0.4922964999999999,-0.042771,0.6856975000000001,0.2850065,-0.064343,1.2083675,0.4794265,-0.025076,1.3471375,0.2896165,-0.0570959999999999,0.5743575000000001,0.1205165,-0.1852329999999999,1.4294175,0.1198165,-0.1945529999999999,0.9208905,0.0049965,-0.0023199999999999,1.0791095,-0.0049965,0.00232,0.8671975000000001,-0.4715235,0.03069,1.1055175,-0.4656035,0.033913,0.8375875,-0.8415635,0.044311,1.1238075,-0.8391835,0.058075,0
4,1.043678,0.735568,-0.0366019999999999,0.8549790000000002,0.492658,-0.041554,0.685929,0.284988,-0.065705,1.208349,0.479588,-0.021999,1.350509,0.291098,-0.056796,0.5772390000000001,0.119968,-0.188445,1.431059,0.123788,-0.198515,0.920841,0.005149,-0.003546,1.079159,-0.005149,0.003546,0.867479,-0.467902,0.0307549999999999,1.1057579999999998,-0.465642,0.034885,0.839129,-0.841612,0.0462809999999999,1.125249,-0.840252,0.0597739999999999,0
5,1.0418355,0.7384430000000001,-0.028161,0.8539825,0.492693,-0.041674,0.6866625,0.283653,-0.070087,1.2055325,0.480173,-0.0189789999999999,1.3578225,0.290663,-0.060597,0.5921925,0.111663,-0.195427,1.4236225,0.1197029999999999,-0.205887,0.9210425,0.00492,-0.00433,1.0789575,-0.00492,0.00433,0.8681725,-0.468127,0.0312169999999999,1.1063565,-0.467907,0.03661,0.8404525,-0.8434269999999999,0.048204,1.1266925,-0.8415069999999999,0.06282,0
6,1.039783,0.7402415,-0.0215684999999999,0.853323,0.4924215,-0.0424045,0.697943,0.2722815,-0.0685855,1.202473,0.4809315,-0.0174425,1.347483,0.2894515,-0.0530554999999999,0.636483,0.0818595,-0.1877155,1.3886429999999998,0.0965085,-0.1775354999999999,0.921041,0.0044405,-0.0045144999999999,1.078959,-0.0044405,0.0045145,0.8693029999999999,-0.4675985,0.0332235,1.107221,-0.4690385,0.0383575,0.841303,-0.8426285,0.0508695,1.128053,-0.8414685,0.0652445,0
7,1.0393015,0.741533,-0.0229104999999999,0.8537224999999999,0.4915929999999999,-0.0420014999999999,0.7126325,0.2601929999999999,-0.0495745,1.2034325,0.4798829999999999,-0.0189785,1.3265525,0.2628729999999999,-0.0370514999999999,0.6575625,0.051447,-0.1513054999999999,1.3606825,0.067355,-0.1487554999999999,0.9211415,0.004441,-0.0038575,1.0788585,-0.004441,0.0038575,0.8696725000000001,-0.470317,0.0339145,1.1066115,-0.468287,0.0391665,0.8405825,-0.842357,0.0520995,1.1272525,-0.840947,0.0657895,0
8,1.0383245,0.7426940000000001,-0.0197825,0.8535315,0.4915239999999999,-0.0419265,0.7197614999999999,0.254534,-0.0458464999999999,1.2024615,0.4798139999999999,-0.0178145,1.3187415,0.258214,-0.0311035,0.6776515000000001,0.04006,-0.1419895,1.3408915,0.056256,-0.1349495,0.9211705,0.004378,-0.0039464999999999,1.0788295,-0.004378,0.0039464999999999,0.8700515,-0.470336,0.0348135,1.1067055,-0.468326,0.0403475,0.8409215,-0.842426,0.0539085,1.1277015,-0.8412459999999999,0.0675075,0
9,1.03737,0.7438205,-0.0169765,0.853389,0.4914905,-0.0418965,0.728119,0.2483705,-0.0408665,1.201309,0.4795805,-0.0175494999999999,1.309839,0.2524105,-0.0245775,0.699079,0.0261695,-0.1300355,1.319499,0.0433864999999999,-0.1189955,0.921208,0.0043485,-0.0038745,1.078792,-0.0043485,0.0038744999999999,0.8703290000000001,-0.4703695,0.0359015,1.106731,-0.4683794999999999,0.0415134999999999,0.8410790000000001,-0.8424495,0.0557535,1.127969,-0.8414595,0.0692395,0
10,1.0366715,0.7445495,-0.014932,0.8534125,0.4912495,-0.0416939999999999,0.7375025,0.2417795,-0.0350569999999999,1.2005125,0.4793895,-0.017498,1.2992625,0.2440995,-0.017137,0.7197225,0.0114215,-0.115227,1.2968325,0.0282245,-0.0998169999999999,0.9212215,0.0043105,-0.0036959999999999,1.0787785,-0.0043105,0.003696,0.8704225000000001,-0.4704105,0.037125,1.1066745,-0.4685005,0.042717,0.8410625,-0.8425005000000001,0.057577,1.1280625,-0.8416305000000001,0.070976,0
11,1.036382,0.7451315,-0.0132169999999999,0.853404,0.4908814999999999,-0.041409,0.746514,0.2362314999999999,-0.0289019999999999,1.200284,0.4792015,-0.017931,1.287944,0.2348115,-0.0094969999999999,0.734674,3.499999999999631e-06,-0.100828,1.279154,0.0149105,-0.0825779999999999,0.921219,0.0042474999999999,-0.0034879999999999,1.078781,-0.0042474999999999,0.003488,0.870394,-0.4705885,0.038224,1.106525,-0.4685285,0.043794,0.841004,-0.8425485,0.059216,1.128034,-0.8417585,0.07253,0
12,1.0362509999999998,0.745668,-0.0115875,0.8534079999999999,0.490478,-0.0411375,0.7547280000000001,0.231508,-0.0224655,1.200178,0.479008,-0.0185665,1.278098,0.226718,-0.0025885,0.745798,-0.007903,-0.0871965,1.265868,0.002349,-0.0670865,0.921218,0.004163,-0.0033055,1.078782,-0.004163,0.0033054999999999,0.870378,-0.471192,0.0392114999999999,1.10643,-0.468472,0.0447085,0.840978,-0.842532,0.0607655,1.127998,-0.841722,0.0739954999999999,0
13,1.0362235,0.7460495,-0.0100114999999999,0.8534005,0.4901594999999999,-0.0407405,0.7616705,0.2278795,-0.0158654999999999,1.2001905,0.4787194999999999,-0.0192514999999999,1.2698005,0.2203595,0.0034705,0.7534305,-0.0136745,-0.0765805,1.2560805,-0.0075705,-0.0552604999999999,0.9212155,0.0041215,-0.0031464999999999,1.0787845,-0.0041215,0.0031465,0.8705005,-0.4719205,0.0401525,1.1063794999999998,-0.4683905,0.0455885,0.8409305,-0.8424505,0.0622815,1.1279805,-0.8416705,0.0754115,0
14,1.0361714999999998,0.7463575,-0.0090289999999999,0.8535205,0.4899275,-0.040357,0.7668705,0.2253775,-0.0107789999999999,1.2001705,0.4784275,-0.019913,1.2636405,0.2153975,0.008241,0.7575005000000001,-0.0155655,-0.068837,1.2500705,-0.0160705,-0.048237,0.9212375,0.0040945,-0.003,1.0787625,-0.0040945,0.003,0.8705505,-0.4724824999999999,0.04121,1.1063284999999998,-0.4683025,0.046372,0.8408505,-0.8424024999999999,0.063671,1.1278805,-0.8416325,0.076696,0
15,1.036115,0.7465135,-0.0084105,0.853723,0.4897835,-0.0400065,0.7704130000000001,0.2239934999999999,-0.0070795,1.200133,0.4781835,-0.0205605,1.259953,0.2127635,0.0112374999999999,0.7586530000000001,-0.0166494999999999,-0.0642565,1.246763,-0.0214054999999999,-0.0441965,0.921254,0.0040785,-0.0028605,1.078746,-0.0040785,0.0028604999999999,0.870563,-0.4731765,0.0421204999999999,1.106274,-0.4682565,0.0468814999999999,0.840763,-0.8423864999999999,0.0648595,1.127773,-0.8416165,0.0778025,0
16,1.0360845,0.746617,-0.0079575,0.8539145000000001,0.489667,-0.0395775,0.7722045000000001,0.223667,-0.0050125,1.2000445,0.478047,-0.0210095,1.2579345,0.210847,0.0123834999999999,0.7585145000000001,-0.016626,-0.0630775,1.2466245,-0.022751,-0.0430175,0.9212665,0.004082,-0.0027734999999999,1.0787335,-0.004082,0.0027734999999999,0.8704945,-0.473743,0.0429784999999999,1.1061475,-0.468163,0.0473534999999999,0.8406045,-0.842403,0.0659575,1.1276245,-0.841573,0.0788285,0
17,1.036121,0.7466915,-0.007572,0.854101,0.4897215,-0.039183,0.772011,0.2237215,-0.004068,1.200031,0.4781015,-0.021317,1.257741,0.2109015,0.013328,0.7583210000000001,-0.0166565,-0.062133,1.246431,-0.0226965,-0.042073,0.921275,0.0040715,-0.002693,1.078725,-0.0040715,0.0026929999999999,0.870381,-0.4740284999999999,0.043571,1.10597,-0.4681085,0.0477109999999999,0.840401,-0.8423985,0.066842,1.127421,-0.8415485,0.079638,0
18,1.0361855,0.746783,-0.0071999999999999,0.8542585,0.489783,-0.0387929999999999,0.7717385,0.223783,-0.0033379999999999,1.2000785,0.478163,-0.020981,1.2574685,0.210963,0.014058,0.7580485000000001,-0.016595,-0.061403,1.2461585,-0.022635,-0.0413429999999999,0.9212815,0.004068,-0.0026209999999999,1.0787185,-0.004068,0.0026209999999999,0.8701885,-0.474277,0.043965,1.1057355,-0.468047,0.047953,0.8401185,-0.842407,0.067516,1.1271585,-0.841547,0.080242,0
19,1.0363915,0.7468485,-0.0068939999999999,0.8544935000000001,0.4898385,-0.0385449999999999,0.7715335,0.2238385,-0.00297,1.2002535,0.4782185,-0.0208669999999999,1.2572635,0.2110185,0.0144229999999999,0.7557235000000001,-0.0150005,-0.061775,1.2470435,-0.0225795,-0.0432349999999999,0.9213245,0.0040555,-0.002544,1.0786755,-0.0040555,0.002544,0.8701135,-0.4745415,0.044185,1.1056165,-0.4679915,0.0479089999999999,0.8399135,-0.8424215,0.067884,1.1269535,-0.8414915000000001,0.080491,0
20,1.036753,0.7469359999999999,-0.0067085,0.854792,0.489906,-0.0383595,0.7705420000000001,0.224496,-0.0045935,1.200452,0.478336,-0.0207535,1.259692,0.211256,0.0106504999999999,0.749532,-0.012953,-0.0671895,1.252922,-0.018788,-0.0505395,0.921376,0.00404,-0.0024685,1.078624,-0.00404,0.0024684999999999,0.870012,-0.4744939999999999,0.0441864999999999,1.105488,-0.467954,0.0476714999999999,0.839672,-0.842334,0.0680595,1.126612,-0.8414240000000001,0.0806374999999999,0
21,1.037146,0.746976,-0.00668,0.855141,0.490056,-0.038332,0.767861,0.2264459999999999,-0.008618,1.200871,0.478676,-0.020725,1.263581,0.213166,0.0050059999999999,0.739051,-0.010852,-0.076882,1.262291,-0.013793,-0.062502,0.92143,0.00404,-0.002446,1.07857,-0.00404,0.0024459999999999,0.869941,-0.4744939999999999,0.0441199999999999,1.10541,-0.467974,0.047379,0.839431,-0.842264,0.068077,1.126311,-0.841384,0.080618,0
22,1.0375135,0.7469865,-0.006673,0.8553824999999999,0.4903165,-0.038327,0.7637925,0.2296065,-0.014665,1.2011825,0.4789664999999999,-0.020719,1.2701325,0.2169765,-0.004331,0.7244524999999999,-0.0070745,-0.091957,1.2759725,-0.0090005,-0.080467,0.9214885,0.0040405,-0.002445,1.0785115,-0.0040405,0.0024449999999999,0.8698525,-0.4744935,0.0441179999999999,1.1053205,-0.4680235,0.0471139999999999,0.8391425,-0.8422535,0.0680679999999999,1.1259525,-0.8414134999999999,0.080606,0
23,1.037753,0.7470765,-0.0060599999999999,0.8554520000000001,0.4906565,-0.038023,0.757652,0.2353865,-0.023576,1.201262,0.4791865,-0.020718,1.277722,0.2241965,-0.0145389999999999,0.708432,0.0036455,-0.109673,1.292632,0.0002645,-0.1015529999999999,0.921539,0.0040695,-0.002444,1.078461,-0.0040695,0.002444,0.869782,-0.4745335,0.044117,1.105224,-0.4681635,0.046935,0.838812,-0.8422735,0.068058,1.125552,-0.8414735,0.080599,0
24,1.037913,0.747236,-0.004876,0.855332,0.490976,-0.037448,0.7502620000000001,0.244726,-0.034054,1.201242,0.479386,-0.020738,1.286832,0.234226,-0.025918,0.6915020000000001,0.02223,-0.130498,1.311432,0.017764,-0.124488,0.921566,0.004093,-0.002405,1.078434,-0.004093,0.0024049999999999,0.8696920000000001,-0.474514,0.0440769999999999,1.1050799999999998,-0.468334,0.0468939999999999,0.838422,-0.842314,0.068018,1.125082,-0.841614,0.080569,0
25,1.03805,0.7475205,-0.0033105,0.855085,0.4913205,-0.0367495,0.741725,0.2571105,-0.0458195,1.201135,0.4795605,-0.0208065,1.297135,0.2459405,-0.0387095,0.673365,0.0480855,-0.1532995,1.334465,0.0432505,-0.1502995,0.921573,0.0041085,-0.0023595,1.078427,-0.0041085,0.0023594999999999,0.869565,-0.4742195,0.0438824999999999,1.1049509999999998,-0.4684895,0.0466864999999999,0.838055,-0.8422694999999999,0.0678314999999999,1.124625,-0.8416294999999999,0.0803654999999999,0
26,1.0381475,0.7479565,-0.0011499999999999,0.8547215,0.4918865,-0.035741,0.7315415000000001,0.2729165,-0.058311,1.2010415,0.4797965,-0.0208529999999999,1.3100315,0.2624565,-0.053211,0.6536315000000001,0.0818315,-0.178981,1.3583015,0.0750845,-0.1767909999999999,0.9215805,0.0041125,-0.0022739999999999,1.0784195,-0.0041125,0.0022739999999999,0.8694315,-0.4737335,0.04355,1.1048355,-0.4686035,0.046279,0.8377215,-0.8422634999999999,0.067478,1.1242515,-0.8416735,0.079985,0
27,1.0382055,0.7482835,0.001155,0.8543825,0.4927635,-0.0344229999999999,0.7202824999999999,0.2935935,-0.0730659999999999,1.2008725,0.4799435,-0.0209419999999999,1.3234925,0.2816135,-0.068266,0.6328024999999999,0.1236434999999999,-0.207096,1.3853925,0.1158535,-0.2046359999999999,0.9215995,0.0041305,-0.0021189999999999,1.0784005,-0.0041305,0.002119,0.8693025,-0.4733365,0.043036,1.1046925,-0.4688665,0.045864,0.8373825000000001,-0.8423665,0.066897,1.1238825,-0.8418465,0.079393,0
28,1.0381735,0.7484795,0.0037559999999999,0.8540485,0.4938295,-0.032834,0.7084885000000001,0.3186195,-0.088782,1.2005685,0.4803194999999999,-0.020835,1.3377585,0.3064495,-0.083892,0.6120985,0.1750595,-0.236712,1.4130085,0.1630295,-0.232962,0.9216175,0.0041425,-0.001934,1.0783825,-0.0041425,0.0019339999999999,0.8691185,-0.4726605,0.0424569999999999,1.1045055,-0.4692205,0.0453949999999999,0.8370785000000001,-0.8425805000000001,0.066315,1.1235285,-0.8421505,0.0787369999999999,0
29,1.0380205,0.748668,0.0063654999999999,0.8537835,0.494998,-0.0311575,0.6966935000000001,0.3484379999999999,-0.1059845,1.2004035,0.481018,-0.0207685,1.3509035,0.334478,-0.0975145,0.5942434999999999,0.237548,-0.2636745,1.4404435,0.2190679999999999,-0.2576644999999999,0.9216525,0.004129,-0.0017545,1.0783475,-0.004129,0.0017544999999999,0.8690335000000001,-0.472282,0.0419045,1.1044065,-0.469672,0.0448834999999999,0.8369135,-0.842922,0.0656775,1.1233535,-0.842622,0.0780134999999999,0
30,1.0378505,0.748671,0.0089025,0.8532215000000001,0.496711,-0.0295005,0.6855215,0.382341,-0.1199945,1.2002715,0.481691,-0.0207474999999999,1.3647014999999998,0.367021,-0.1085944999999999,0.5813215,0.308611,-0.2832445,1.4647515,0.283541,-0.2732745,0.9217265,0.004121,-0.0015405,1.0782735,-0.004121,0.0015405,0.8689815000000001,-0.471889,0.0413185,1.1043155,-0.4702989999999999,0.0443385,0.8367815000000001,-0.8434090000000001,0.0649645,1.1232215,-0.843379,0.0771655,0
31,1.037737,0.748421,0.0112879999999999,0.852424,0.4986409999999999,-0.028079,0.6753739999999999,0.4192309999999999,-0.131473,1.200134,0.4829009999999999,-0.020777,1.376524,0.403061,-0.115243,0.573674,0.3829909999999999,-0.297023,1.485324,0.355471,-0.283023,0.921795,0.004085,-0.001277,1.078205,-0.004085,0.0012769999999999,0.868984,-0.471649,0.0406899999999999,1.104253,-0.471269,0.043779,0.8367439999999999,-0.844159,0.064177,1.123164,-0.8444889999999999,0.076292,0
32,1.0376525,0.7480384999999999,0.013022,0.8514035,0.5011884999999999,-0.0269939999999999,0.6674534999999999,0.4545385,-0.139484,1.1998235,0.4845085,-0.0207929999999999,1.3877035,0.4402385,-0.1197539999999999,0.5694935,0.4594385,-0.303044,1.4989535,0.4304485,-0.284404,0.9218445,0.0040205,-0.0010219999999999,1.0781555,-0.0040205,0.001022,0.8690035,-0.4720815,0.040115,1.1042065,-0.4725715,0.043341,0.8367235,-0.8451915000000001,0.063456,1.1231334999999998,-0.8458015000000001,0.075511,0
33,1.0375155,0.747563,0.014246,0.8498025,0.504653,-0.026233,0.6627525000000001,0.493133,-0.143814,1.1994125,0.486863,-0.020723,1.3934025,0.477693,-0.120344,0.5682425,0.539503,-0.303754,1.5087125,0.508243,-0.284924,0.9218825,0.003923,-0.0007549999999999,1.0781175,-0.003923,0.0007549999999999,0.8690025,-0.473477,0.039751,1.1041695,-0.474487,0.04301,0.8367225,-0.846847,0.06281,1.1231225,-0.847777,0.074779,0
34,1.037313,0.7468205,0.0149595,0.848053,0.5085305,-0.0257725,0.6599630000000001,0.5313105,-0.1462085,1.198983,0.4891905,-0.0206745,1.397403,0.5148405,-0.1208785,0.568253,0.6162105,-0.3043585,1.511993,0.5804505,-0.2854685,0.921943,0.0038495,-0.0004725,1.078057,-0.0038494999999999,0.0004725,0.869043,-0.4752495,0.0394495,1.104144,-0.4765595,0.0427695,0.836763,-0.8487695,0.0622155,1.123143,-0.8499595,0.0741435,0
35,1.0370095,0.745836,0.015141,0.8462665,0.512376,-0.0256789999999999,0.6596565,0.5695560000000001,-0.1467709999999999,1.1985565,0.491686,-0.0206259999999999,1.3979765,0.548496,-0.121351,0.5682965,0.685166,-0.304841,1.5120365,0.650066,-0.285951,0.9220375,0.003744,-0.0002209999999999,1.0779625,-0.0037439999999999,0.000221,0.8690465,-0.477444,0.039265,1.1041295,-0.4788039999999999,0.042619,0.8368265,-0.850904,0.061736,1.1232165,-0.852474,0.073504,0
36,1.0366829999999998,0.7449640000000001,0.015029,0.844562,0.516024,-0.0258969999999999,0.659732,0.603874,-0.147044,1.198192,0.494484,-0.0204429999999999,1.398052,0.582214,-0.121484,0.568352,0.745704,-0.304004,1.512052,0.710654,-0.282784,0.922165,0.003595,-7.900000000000268e-05,1.077835,-0.0035949999999999,7.900000000000268e-05,0.8690519999999999,-0.479796,0.039357,1.104137,-0.4810859999999999,0.042391,0.836942,-0.8531759999999999,0.061488,1.123312,-0.855076,0.073075,0
37,1.036347,0.7441295,0.0147955,0.84304,0.5193395000000001,-0.0259394999999999,0.65981,0.6343995,-0.1472705,1.19796,0.4970495,-0.0204484999999999,1.3981,0.6103995000000001,-0.1199305,0.5703600000000001,0.7972295,-0.2985905,1.51196,0.7626695,-0.2731005,0.922315,0.0034454999999999,5.250000000000393e-05,1.077685,-0.0034454999999999,-5.2499999999996994e-05,0.86907,-0.4823005,0.0394895,1.10413,-0.4833905,0.0422105,0.8370299999999999,-0.8556005,0.0613055,1.1233799999999998,-0.8577604999999999,0.0726865,0
38,1.0360055,0.7432225,0.0146185,0.8417115,0.5221025,-0.0258754999999999,0.6598714999999999,0.6608525,-0.1474405,1.1978015,0.4993324999999999,-0.0203715,1.3980815,0.6353525,-0.1158204999999999,0.5753815,0.8394225,-0.2877205,1.5110515,0.8050325,-0.2583205,0.9224605,0.0033375,0.0001465,1.0775395,-0.0033375,-0.0001465,0.8690915000000001,-0.4848775,0.0397645,1.1041035,-0.4857175,0.0420785,0.8371115,-0.8580975,0.0611795,1.1234215,-0.8605175,0.0723715,0
39,1.0356495,0.742422,0.014491,0.8406345,0.524042,-0.0257169999999999,0.6613445,0.682362,-0.144881,1.1976745,0.501592,-0.0202559999999999,1.3972645,0.654972,-0.110321,0.5828645,0.8728520000000001,-0.2727509999999999,1.5060245,0.838712,-0.240251,0.9226215,0.0032189999999999,0.00019,1.0773785,-0.0032189999999999,-0.0001899999999999,0.8690945,-0.487318,0.040065,1.1040625,-0.487728,0.042005,0.8371445,-0.8604379999999999,0.061123,1.1234545,-0.862918,0.072111,0
40,1.0353615,0.7419155,0.0141209999999999,0.8396375,0.5262155,-0.025687,0.6640375000000001,0.7005454999999999,-0.140174,1.1976975,0.5035955,-0.019886,1.3949175,0.6704055,-0.102884,0.5917075,0.9008555,-0.253874,1.4983275,0.8643655,-0.219194,0.9227795,0.0031255,0.0001689999999999,1.0772205,-0.0031255,-0.000169,0.8690875,-0.4896945,0.040447,1.1040185,-0.4893045,0.042044,0.8371775,-0.8624445000000001,0.0610599999999999,1.1234775,-0.8650145,0.071936,0
41,1.035072,0.7413265,0.0135265,0.838721,0.5273565,-0.0256735,0.668361,0.7180365,-0.1319155,1.197651,0.5052865,-0.0194244999999999,1.392111,0.6818865,-0.0952555,0.600511,0.9215765,-0.2331955,1.488401,0.8834865,-0.1979754999999999,0.922891,0.0030585,0.0001355,1.077109,-0.0030584999999999,-0.0001354999999999,0.869031,-0.4918335,0.0408265,1.103908,-0.4906235,0.0421225,0.837131,-0.8641735,0.0610075,1.123441,-0.8668935000000001,0.0717145,0
42,1.0348075,0.740777,0.012726,0.8382925,0.527417,-0.0257499999999999,0.6725625,0.728977,-0.124886,1.1975625,0.506287,-0.01886,1.3876925,0.690187,-0.0884259999999999,0.6076625,0.931417,-0.216956,1.4788825,0.8920170000000001,-0.181886,0.9229715,0.0030289999999999,8.600000000000274e-05,1.0770285,-0.003029,-8.600000000000274e-05,0.8689325,-0.493573,0.041095,1.1037465,-0.4912729999999999,0.042247,0.8370625,-0.865343,0.06095,1.1233925,-0.8681329999999999,0.071557,0
43,1.0345855,0.740378,0.0118315,0.8379765,0.527638,-0.0257825,0.6767065,0.737468,-0.1182935,1.1975365,0.507338,-0.0182625,1.3830865,0.6969380000000001,-0.0823435,0.6133065,0.938048,-0.2025735,1.4702165,0.898238,-0.1677235,0.9230575,0.002973,3.249999999999781e-05,1.0769425,-0.002973,-3.249999999999781e-05,0.8688565,-0.495072,0.0414245,1.1036165,-0.491742,0.0424045,0.8370065000000001,-0.866292,0.0608955,1.1233365,-0.869092,0.0714525,0
44,1.034432,0.740068,0.010999,0.83771,0.527958,-0.025862,0.68047,0.7425579999999999,-0.1121389999999999,1.19765,0.508218,-0.0175269999999999,1.37878,0.702188,-0.077379,0.6181100000000002,0.944608,-0.190639,1.46424,0.901928,-0.157389,0.923139,0.002942,-4.099999999999937e-05,1.076861,-0.002942,4.099999999999937e-05,0.8688000000000001,-0.496372,0.041692,1.103501,-0.492072,0.042571,0.83697,-0.867072,0.060818,1.12331,-0.870002,0.071366,0
45,1.0343405,0.7397020000000001,0.0102725,0.8374675,0.528632,-0.0259264999999999,0.6822475,0.7466919999999999,-0.1078404999999999,1.1978575,0.5088619999999999,-0.0167945,1.3778075,0.704612,-0.0746204999999999,0.6217675,0.951152,-0.1809704999999999,1.4587875,0.905132,-0.1482905,0.9232145,0.0029439999999999,-0.0001004999999999,1.0767855,-0.002944,0.0001005,0.8687375000000002,-0.497188,0.0419375,1.1033965,-0.492268,0.0427675,0.8369375,-0.867588,0.0607845,1.1233075,-0.8706179999999999,0.0713005,0
46,1.034241,0.7393955,0.0096994999999999,0.837211,0.5290554999999999,-0.0256485,0.6835910000000001,0.7502154999999999,-0.1041475,1.198111,0.5094854999999999,-0.0160645,1.376931,0.7068654999999999,-0.0720475,0.624691,0.9567455,-0.1726175,1.454461,0.9080155,-0.1411775,0.923248,0.0029474999999999,-0.0001765,1.076752,-0.0029474999999999,0.0001764999999999,0.868641,-0.4978145,0.0421675,1.103278,-0.4923145,0.0429475,0.836861,-0.8679245000000001,0.0607724999999999,1.123261,-0.8709745000000001,0.0712025,0
47,1.034134,0.7392685,0.0091085,0.837024,0.5292684999999999,-0.0251035,0.6846540000000001,0.7525485,-0.1009895,1.198344,0.5100885,-0.0152225,1.376224,0.7086985,-0.0697395,0.626884,0.9605185,-0.1660995,1.451714,0.9109185,-0.1363095,0.923268,0.0029405,-0.0002855,1.076732,-0.0029404999999999,0.0002855,0.868534,-0.4981414999999999,0.0422705,1.103153,-0.4922014999999999,0.0431335,0.836794,-0.8680715,0.0607265,1.123294,-0.8711615,0.0710615,0
48,1.034003,0.739222,0.008676,0.836963,0.529222,-0.0244019999999999,0.685433,0.7543920000000001,-0.0982299999999999,1.198613,0.510732,-0.0143389999999999,1.375703,0.710012,-0.06788,0.628693,0.963562,-0.16066,1.449433,0.913182,-0.13269,0.923254,0.0029369999999999,-0.0003929999999999,1.076746,-0.0029369999999999,0.000393,0.868453,-0.4984079999999999,0.04238,1.103042,-0.4920879999999999,0.043305,0.836733,-0.8681679999999999,0.060651,1.123363,-0.871258,0.07089,0
49,1.033873,0.7392035,0.0083859999999999,0.83684,0.5293435,-0.023763,0.68577,0.7554335,-0.096341,1.1987199999999998,0.5110735,-0.0136029999999999,1.37544,0.7104035,-0.066801,0.62958,0.9652235,-0.157261,1.44818,0.9142135,-0.130701,0.923245,0.0029444999999999,-0.000495,1.076755,-0.0029444999999999,0.000495,0.86838,-0.4986865,0.042469,1.10296,-0.4921065,0.0434149999999999,0.83668,-0.8682465,0.060533,1.12343,-0.8713065,0.070745,0
50,1.033732,0.7390925,0.0081294999999999,0.836678,0.5293625,-0.0231615,0.685998,0.7560725,-0.0947384999999999,1.198728,0.5112825,-0.0129724999999999,1.375198,0.7105825,-0.0658685,0.630218,0.9661325,-0.1552285,1.447278,0.9146525,-0.1296884999999999,0.923245,0.0029484999999999,-0.0006144999999999,1.076755,-0.0029484999999999,0.0006145,0.868318,-0.4988075,0.0425885,1.102878,-0.4921575,0.0434845,0.836638,-0.8682975,0.0604315,1.123488,-0.8713475,0.0706185,0
51,1.033599,0.7389439999999999,0.007905,0.8364929999999999,0.529314,-0.02256,0.686153,0.756494,-0.093424,1.198723,0.511474,-0.012361,1.375033,0.710704,-0.0651239999999999,0.6307229999999999,0.966884,-0.153794,1.446613,0.914904,-0.129204,0.92325,0.002947,-0.000701,1.07675,-0.0029469999999999,0.000701,0.868293,-0.498896,0.042693,1.102817,-0.492206,0.043514,0.836603,-0.868326,0.060313,1.123563,-0.871326,0.070502,0
52,1.0334465,0.738771,0.0076675,0.8361295,0.530211,-0.0218474999999999,0.6863195,0.756981,-0.0924195,1.1987195,0.511641,-0.0117764999999999,1.3748395,0.710851,-0.0645095,0.6311694999999999,0.967431,-0.1527394999999999,1.4460695,0.915101,-0.1289095,0.9232525,0.0029329999999999,-0.0007864999999999,1.0767475,-0.002933,0.0007865,0.8682295000000001,-0.499119,0.0427115,1.1027585,-0.492259,0.0435095,0.8365795,-0.868329,0.0601905,1.1236495,-0.871399,0.0703945,0
53,1.0332825,0.7385284999999999,0.0073995,0.8358175,0.5313184999999999,-0.0211684999999999,0.6864775000000001,0.7574285,-0.0916594999999999,1.1987275,0.5118885,-0.0111384999999999,1.3746375,0.7110885,-0.0640095,0.6313575,0.9677785,-0.1528995,1.4456275,0.9153285,-0.1288294999999999,0.9232455,0.0029264999999999,-0.0008434999999999,1.0767545,-0.0029264999999999,0.0008435,0.8681875,-0.4993714999999999,0.0427175,1.1027305,-0.4923015,0.0435215,0.8365675,-0.8682915,0.0600715,1.1237375,-0.8714415,0.0702535,0
54,1.033123,0.7382485,0.0071349999999999,0.835562,0.5324385,-0.020491,0.6867020000000001,0.7579785,-0.091187,1.198772,0.5121485,-0.010466,1.374332,0.7113885,-0.063677,0.6315220000000001,0.9680485,-0.153057,1.445202,0.9155785,-0.128877,0.923246,0.0029175,-0.000889,1.076754,-0.0029175,0.0008889999999999,0.868162,-0.4996515,0.0426999999999999,1.102723,-0.4924315,0.043501,0.836572,-0.8684014999999999,0.0599199999999999,1.123802,-0.8716315,0.070126,0
55,1.032951,0.7379735000000001,0.0068799999999999,0.8353090000000001,0.5334334999999999,-0.019985,0.6869689999999999,0.7585735,-0.090829,1.198799,0.5123935,-0.009787,1.373879,0.7117335,-0.063339,0.631779,0.9683435,-0.153209,1.444709,0.9158035,-0.128939,0.923248,0.0029095,-0.0009289999999999,1.076752,-0.0029094999999999,0.0009289999999999,0.8681490000000001,-0.4999765,0.042702,1.102707,-0.4925865,0.043475,0.836569,-0.8685164999999999,0.0597619999999999,1.123869,-0.8718064999999999,0.069975,0
56,1.0327864999999998,0.7376845,0.006728,0.8351175,0.5345044999999999,-0.0196689999999999,0.6873075,0.7590745,-0.0907289999999999,1.1988175,0.5125445,-0.009255,1.3733775,0.7122244999999999,-0.0631589999999999,0.6317675,0.9681545,-0.1534189999999999,1.4440975,0.9162645,-0.128989,0.9232565,0.0028924999999999,-0.0009459999999999,1.0767435,-0.0028924999999999,0.000946,0.8681375,-0.5002755,0.042711,1.1026995,-0.4927755,0.043411,0.8365775,-0.8686955000000001,0.059637,1.1238575,-0.8719955,0.069912,0
57,1.0326475,0.73744,0.0066174999999999,0.8349855000000002,0.53546,-0.0193785,0.6876855,0.75961,-0.0907764999999999,1.1988555,0.51266,-0.0087734999999999,1.3727855,0.71279,-0.0630265,0.6319954999999999,0.96847,-0.1537865,1.4430855,0.91692,-0.1290065,0.9232705,0.002877,-0.0009585,1.0767295,-0.002877,0.0009585,0.8681255,-0.50057,0.0427055,1.1026945,-0.49296,0.0433165,0.8365955,-0.86886,0.0595055,1.1238455,-0.87218,0.0698595,0
58,1.0324799999999998,0.7372335,0.0065134999999999,0.834843,0.5363135,-0.0190905,0.688083,0.7600535,-0.0908845,1.198853,0.5127135,-0.0083315,1.372083,0.7133535,-0.0629445,0.6323030000000001,0.9688635,-0.1541845,1.4418129999999998,0.9176235,-0.1290045,0.923293,0.0028535,-0.0009535,1.076707,-0.0028535,0.0009534999999999,0.868093,-0.5008365,0.0426764999999999,1.102652,-0.4931065,0.0432214999999999,0.836583,-0.8690165,0.0593914999999999,1.123803,-0.8723565,0.0698014999999999,0
59,1.03225,0.737024,0.006419,0.834757,0.536704,-0.018807,0.688547,0.7604339999999999,-0.090967,1.198797,0.512764,-0.007909,1.371287,0.7138639999999999,-0.062897,0.634387,0.974054,-0.154527,1.440187,0.918404,-0.128977,0.923315,0.002831,-0.0009219999999999,1.076685,-0.0028309999999999,0.0009219999999999,0.868047,-0.501046,0.0426109999999999,1.102608,-0.493106,0.043133,0.836537,-0.869166,0.059252,1.123677,-0.872356,0.069774,0
60,1.032021,0.7368365,0.0063425,0.834673,0.5370465,-0.0185494999999999,0.689053,0.7607765,-0.0910425,1.198753,0.5127765,-0.0075015,1.370523,0.7143565,-0.0628825,0.636613,0.9791865,-0.1548525,1.438403,0.9192365,-0.1288625,0.923337,0.0028005,-0.0008895,1.076663,-0.0028005,0.0008894999999999,0.868003,-0.5011535,0.0425285,1.102587,-0.4930735,0.0430515,0.836483,-0.8693135000000001,0.0590894999999999,1.123543,-0.8723635000000001,0.0697354999999999,0
61,1.0318035,0.7366360000000001,0.0062989999999999,0.8345565,0.537616,-0.0184399999999999,0.6896264999999999,0.760946,-0.0911329999999999,1.1987065,0.5127860000000001,-0.007099,1.3697465,0.714816,-0.062863,0.6389065,0.984336,-0.155083,1.4365265,0.920096,-0.128713,0.9233605,0.002797,-0.000853,1.0766395,-0.002797,0.0008529999999999,0.8679565000000001,-0.501264,0.042475,1.1025615,-0.493084,0.043004,0.8364265000000001,-0.869464,0.058945,1.1234065,-0.872504,0.0697079999999999,0
62,1.0316155,0.7364545,0.006327,0.8344765000000001,0.5379445,-0.0183789999999999,0.6902565,0.7611345,-0.0912759999999999,1.1986665,0.5127044999999999,-0.0068669999999999,1.3689965,0.7151745,-0.0628359999999999,0.6412765,0.9895345,-0.155366,1.4346965,0.9208645,-0.128496,0.9233745,0.0027794999999999,-0.0008209999999999,1.0766255,-0.0027795,0.000821,0.8679165,-0.5012755,0.04246,1.1025515,-0.4930455,0.042999,0.8363465,-0.8695655,0.058917,1.1232665,-0.8726054999999999,0.069704,0
63,1.031403,0.7361965,0.0063599999999999,0.834376,0.5380965,-0.0184049999999999,0.6908660000000001,0.7611365,-0.09146,1.198596,0.5125965,-0.006759,1.368286,0.7153865,-0.0628199999999999,0.643616,0.9945865,-0.15564,1.432856,0.9215165,-0.12824,0.923401,0.0027814999999999,-0.0007689999999999,1.076599,-0.0027815,0.0007689999999999,0.867876,-0.5012735,0.042404,1.102546,-0.4930535,0.042956,0.836246,-0.8696935,0.058883,1.123106,-0.8727535,0.069649,0
64,1.031195,0.735922,0.0064629999999999,0.834271,0.5382319999999999,-0.0184369999999999,0.6915009999999999,0.761102,-0.09172,1.198511,0.5125419999999999,-0.006635,1.367711,0.715552,-0.0628,0.645851,0.999552,-0.1559,1.431091,0.922162,-0.12793,0.923424,0.002783,-0.0007199999999999,1.076576,-0.0027829999999999,0.0007199999999999,0.867831,-0.501258,0.042336,1.1025619999999998,-0.493048,0.042912,0.836141,-0.869828,0.0588669999999999,1.122921,-0.872928,0.069598,0
65,1.030987,0.7356115,0.0066205,0.834161,0.5382915,-0.0184634999999999,0.692241,0.7611215,-0.0919975,1.198441,0.5124915,-0.0064875,1.367121,0.7156215,-0.0626675,0.648111,1.0047115,-0.1561875,1.429381,0.9226415,-0.1275975,0.923447,0.0027765,-0.0006724999999999,1.076553,-0.0027765,0.0006724999999999,0.867801,-0.5013985,0.0423025,1.102567,-0.4931485,0.0428235,0.836031,-0.8700885,0.0588065,1.122741,-0.8731385,0.0695535,0
66,1.03079,0.7352650000000001,0.0068114999999999,0.834077,0.5383249999999999,-0.0184704999999999,0.692987,0.7611650000000001,-0.0922715,1.198347,0.5123850000000001,-0.0063194999999999,1.3665569999999998,0.715705,-0.0625314999999999,0.650327,1.009765,-0.1565415,1.428037,0.922995,-0.1272615,0.92347,0.0027659999999999,-0.0006294999999999,1.07653,-0.002766,0.0006294999999999,0.867737,-0.501565,0.0422805,1.10256,-0.493265,0.0427735,0.835907,-0.870295,0.0587774999999999,1.122547,-0.8733550000000001,0.0695305,0
67,1.030619,0.7348675,0.0070379999999999,0.8340080000000001,0.5383775000000001,-0.018456,0.693748,0.7612775,-0.0925589999999999,1.198278,0.5122675,-0.006071,1.366048,0.7157775000000001,-0.062409,0.652528,1.0147075,-0.1568689999999999,1.426848,0.9233575,-0.126809,0.923487,0.0027534999999999,-0.000612,1.076513,-0.0027534999999999,0.000612,0.867678,-0.5016425,0.042239,1.102549,-0.4934024999999999,0.042738,0.8357780000000001,-0.8705025,0.0587699999999999,1.122348,-0.8736725,0.069549,0
68,1.0305015,0.734475,0.0072254999999999,0.8339565000000001,0.538445,-0.0184174999999999,0.6945165,0.761355,-0.0928135,1.1982265,0.512115,-0.0058165,1.3655665,0.7159049999999999,-0.0621935,0.6530865,1.014845,-0.1572435,1.4259065,0.923675,-0.1263335,0.9235035,0.002741,-0.0006034999999999,1.0764965,-0.002741,0.0006034999999999,0.8676365,-0.501715,0.0422115,1.1025425,-0.493535,0.0427165,0.8356465000000001,-0.870695,0.0587585,1.1222065,-0.873735,0.0695534999999999,0
69,1.030382,0.7340745,0.0073934999999999,0.83392,0.5385144999999999,-0.0183704999999999,0.69527,0.7614344999999999,-0.0930635,1.1982,0.5119644999999999,-0.0055115,1.3651,0.7160945,-0.0619235,0.65367,1.0149845,-0.1576535,1.42511,0.9240045,-0.1258935,0.923524,0.0027284999999999,-0.0005915,1.076476,-0.0027284999999999,0.0005915,0.8676,-0.5017555,0.0421825,1.102521,-0.4936955,0.0427015,0.8355000000000001,-0.8708555,0.0587905,1.12206,-0.8738155000000001,0.0695705,0
70,1.0302464999999998,0.733635,0.0075655,0.8338575,0.538605,-0.0183254999999999,0.6960474999999999,0.761485,-0.0933384999999999,1.1981775,0.5118550000000001,-0.0050984999999999,1.3646475,0.716315,-0.0616484999999999,0.6543475000000001,1.014915,-0.1581084999999999,1.4243575,0.924355,-0.1253785,0.9235445,0.002715,-0.0005734999999999,1.0764555,-0.0027149999999999,0.0005735,0.8675675,-0.501775,0.0421655,1.1025055,-0.493865,0.0426955,0.8353775,-0.8710249999999999,0.0588415,1.1219275,-0.873895,0.0696005,0
71,1.03011,0.7332155,0.007703,0.833803,0.5386755,-0.0182829999999999,0.696793,0.7615554999999999,-0.093645,1.198173,0.5118155,-0.0046889999999999,1.364213,0.7165555,-0.0613549999999999,0.655033,1.0148455,-0.1585949999999999,1.423603,0.9247455,-0.124855,0.923567,0.0027054999999999,-0.000557,1.076433,-0.0027054999999999,0.000557,0.867553,-0.5017845,0.042135,1.1025,-0.4941044999999999,0.042682,0.835243,-0.8711945,0.058934,1.121793,-0.8740345,0.069654,0
72,1.029979,0.7328960000000001,0.0078439999999999,0.8337600000000001,0.538796,-0.018235,0.6974899999999999,0.761676,-0.093943,1.19817,0.511876,-0.004277,1.36381,0.716956,-0.061043,0.65576,1.014846,-0.159103,1.42291,0.925256,-0.1243729999999999,0.923577,0.0026799999999999,-0.0005479999999999,1.076423,-0.0026799999999999,0.0005479999999999,0.86754,-0.5017039999999999,0.0420559999999999,1.102521,-0.494324,0.042672,0.8351,-0.871254,0.059053,1.12165,-0.874104,0.069714,0
73,1.029857,0.7325855,0.0079569999999999,0.833701,0.5388755000000001,-0.018177,0.698141,0.7618155000000001,-0.094252,1.198161,0.5120055,-0.003898,1.363461,0.7174355,-0.060762,0.6565310000000001,1.0149355,-0.159632,1.422261,0.9258655,-0.123942,0.92359,0.0026524999999999,-0.000549,1.07641,-0.0026524999999999,0.000549,0.867541,-0.5016345,0.0419649999999999,1.102533,-0.4945045,0.0426369999999999,0.834951,-0.8713445,0.059129,1.121501,-0.8741945,0.069783,0
74,1.0297405,0.732358,0.0080709999999999,0.8336445,0.538988,-0.018104,0.6986445,0.761958,-0.094572,1.1981445,0.512208,-0.003519,1.3631645,0.717868,-0.060562,0.6572344999999999,1.014958,-0.160042,1.4217345,0.926408,-0.123552,0.9235995,0.002631,-0.000552,1.0764005,-0.0026309999999999,0.0005519999999999,0.8675345000000001,-0.501602,0.0418929999999999,1.1025355,-0.494652,0.0426199999999999,0.8347945,-0.871392,0.0591889999999999,1.1213545,-0.874422,0.069865,0
75,1.029617,0.732169,0.0082165,0.833588,0.5389889999999999,-0.0180065,0.699138,0.762059,-0.0948265,1.198118,0.512409,-0.0031144999999999,1.362898,0.718239,-0.0603265,0.657918,1.014989,-0.1603765,1.421208,0.926899,-0.1231365,0.923606,0.0026179999999999,-0.0005744999999999,1.076394,-0.0026179999999999,0.0005744999999999,0.867488,-0.501671,0.0419245,1.10254,-0.494791,0.0426345,0.834638,-0.8714810000000001,0.0592845,1.121218,-0.874581,0.0700265,0
76,1.029512,0.732026,0.008367,0.833534,0.538966,-0.0178959999999999,0.699604,0.7620859999999999,-0.0950379999999999,1.198074,0.512566,-0.0027719999999999,1.362654,0.718606,-0.060098,0.6585540000000001,1.015026,-0.160698,1.420764,0.927346,-0.1228279999999999,0.923604,0.002602,-0.0005859999999999,1.076396,-0.0026019999999999,0.000586,0.8674040000000001,-0.501734,0.041949,1.102551,-0.494924,0.042648,0.8345040000000001,-0.8715240000000001,0.059393,1.121064,-0.8745940000000001,0.07023,0
77,1.0294415,0.7319104999999999,0.0085195,0.8334715,0.5389004999999999,-0.0177635,0.7000014999999999,0.7621104999999999,-0.0952165,1.1980515,0.5126904999999999,-0.0024064999999999,1.3624815,0.7189205,-0.0598965,0.6591115000000001,1.0149505,-0.1609065,1.4203915,0.9277305,-0.1225065,0.9236025,0.0025785,-0.0005635,1.0763975,-0.0025785,0.0005634999999999,0.8673215000000001,-0.5018495000000001,0.0419794999999999,1.1025545,-0.4950495,0.0426794999999999,0.8344015000000001,-0.8715395,0.0594785,1.1209215,-0.8745495000000001,0.0704265,0
78,1.029371,0.731747,0.0086825,0.833543,0.538867,-0.0176614999999999,0.700373,0.762117,-0.0953625,1.197983,0.512747,-0.0020864999999999,1.362313,0.719187,-0.0596924999999999,0.6596029999999999,1.014977,-0.1610525,1.420053,0.928077,-0.1222025,0.923599,0.002554,-0.0005284999999999,1.076401,-0.002554,0.0005285,0.867223,-0.5021329999999999,0.0420215,1.102545,-0.495123,0.0427145,0.834283,-0.871543,0.0595655,1.120793,-0.874353,0.0706725,0
79,1.029289,0.7315895,0.0088945,0.8336250000000001,0.5388094999999999,-0.0175295,0.7006650000000001,0.7620395,-0.0953624999999999,1.197905,0.5127094999999999,-0.0018484999999999,1.362155,0.7194294999999999,-0.0594424999999999,0.6600550000000001,1.0148895,-0.1610825,1.419795,0.9283595,-0.1219125,0.923602,0.0025345,-0.0004424999999999,1.076398,-0.0025344999999999,0.0004425,0.867095,-0.5024405,0.0420755,1.102524,-0.4952105,0.0427865,0.834185,-0.8715405,0.0596905,1.120645,-0.8741305,0.0708865,0
80,1.0292075,0.731456,0.0090944999999999,0.8337114999999999,0.538766,-0.0174124999999999,0.7009215000000001,0.7619659999999999,-0.0953455,1.1978515,0.512636,-0.0016185,1.3620115,0.719646,-0.0591855,0.6605015000000001,1.014906,-0.1609955,1.4195515,0.928606,-0.1216555,0.9236045,0.0025179999999999,-0.0003565,1.0763955,-0.0025179999999999,0.0003564999999999,0.8669815000000001,-0.502564,0.0421555,1.1024825,-0.495264,0.0428744999999999,0.8340915,-0.871534,0.0598125,1.1205015,-0.874174,0.0710865,0
81,1.0291709999999998,0.7313225,0.009298,0.833807,0.5387225,-0.017282,0.701217,0.7618925,-0.095287,1.1978069999999998,0.5125525,-0.0013779999999999,1.361887,0.7197724999999999,-0.0589069999999999,0.660947,1.0149225,-0.160857,1.419327,0.9287725,-0.121387,0.923603,0.0025005,-0.0002399999999999,1.0763969999999998,-0.0025004999999999,0.0002399999999999,0.866897,-0.5026275,0.042289,1.102419,-0.4953275,0.0429859999999999,0.834017,-0.8715075000000001,0.059942,1.120387,-0.8742175000000001,0.071306,0
82,1.0291645,0.7312325,0.009492,0.8339145,0.5386825,-0.0171429999999999,0.7015445,0.7618625,-0.095207,1.1977545,0.5124925,-0.0011359999999999,1.3617944999999998,0.7198125,-0.0586469999999999,0.6613645,1.0150625,-0.160677,1.4191145,0.9288525,-0.121107,0.9236005,0.0024894999999999,-0.0001169999999999,1.0763995,-0.0024895,0.000117,0.8668545,-0.5026875000000001,0.042413,1.1023475,-0.4953675,0.043131,0.8339345000000001,-0.8714775,0.060065,1.1202845,-0.8742275,0.071524,0
83,1.0291795,0.731177,0.0096834999999999,0.8340195,0.538647,-0.0169995,0.7018694999999999,0.761837,-0.0950895,1.1977095,0.512447,-0.0009425,1.3617195,0.7198669999999999,-0.0583795,0.6617295000000001,1.015117,-0.1604795,1.4189295,0.928947,-0.1208495,0.9235995,0.002486,8.499999999994623e-06,1.0764005,-0.0024859999999999,-8.500000000001562e-06,0.8668395,-0.502673,0.0424465,1.1022915,-0.495413,0.0432665,0.8338695,-0.871523,0.0602015,1.1201895,-0.8742730000000001,0.0717115,0
84,1.029216,0.731115,0.009908,0.834123,0.538635,-0.0168079999999999,0.7021729999999999,0.761805,-0.094893,1.197683,0.512385,-0.000719,1.361653,0.719925,-0.058113,0.6620630000000001,1.015175,-0.160263,1.418773,0.929025,-0.1205429999999999,0.923602,0.002479,9.800000000000086e-05,1.076398,-0.002479,-9.800000000000086e-05,0.866823,-0.502775,0.042503,1.102241,-0.495385,0.043434,0.8338130000000001,-0.871615,0.060364,1.120103,-0.874285,0.0719279999999999,0
85,1.0292599999999998,0.731058,0.0101204999999999,0.8342200000000001,0.538628,-0.0166155,0.70243,0.761778,-0.0946895,1.19765,0.512288,-0.0004945,1.36158,0.719988,-0.0578095,0.6623399999999999,1.015248,-0.1600395,1.41864,0.929108,-0.1202595,0.923608,0.002478,0.0001724999999999,1.0763919999999998,-0.002478,-0.0001725,0.8668000000000001,-0.502852,0.0425725,1.1021999999999998,-0.495292,0.0435644999999999,0.83377,-0.871752,0.0605705,1.11998,-0.874312,0.0721995,0
86,1.0292775,0.7310095,0.0102995,0.8343125,0.5386395,-0.0164364999999999,0.7026725,0.7617295000000001,-0.0944905,1.1976125,0.5120895,-0.0002954999999999,1.3615125,0.7200595000000001,-0.0575404999999999,0.6626225,1.0153394999999998,-0.1597905,1.4185025,0.9291995,-0.1200004999999999,0.9236195,0.0024865,0.0002025,1.0763805,-0.0024864999999999,-0.0002024999999999,0.8667625000000001,-0.5029105,0.0426155,1.1021635,-0.4951204999999999,0.0436615,0.8337125,-0.8718005,0.0607595,1.1198625,-0.8742905,0.0724385,0
87,1.0292795,0.730942,0.0104874999999999,0.8342395,0.538642,-0.0162495,0.7028895,0.7616919999999999,-0.0943035,1.1975495,0.511892,-0.0001065,1.3614295,0.720112,-0.0572635,0.6628495,1.015432,-0.1594835,1.4183495,0.929262,-0.1197435,0.9236295,0.0024939999999999,0.0002234999999999,1.0763705,-0.002494,-0.0002235,0.8667295,-0.502918,0.0426524999999999,1.1021215,-0.494948,0.0437665,0.8336595,-0.871838,0.0609465,1.1197395,-0.874348,0.0726675,0
88,1.0292869999999998,0.73089,0.0106435,0.83417,0.5386500000000001,-0.0160955,0.70309,0.76164,-0.0941294999999999,1.19749,0.5116700000000001,4.749999999999893e-05,1.36136,0.72014,-0.0570795,0.663,1.0154299999999998,-0.1591794999999999,1.41823,0.9293,-0.1195895,0.923631,0.0024959999999999,0.0002025,1.076369,-0.002496,-0.0002025,0.8667,-0.50292,0.0426514999999999,1.102094,-0.49476,0.0438225,0.8336,-0.87186,0.0611055,1.11961,-0.87437,0.0728475,0
89,1.029289,0.730834,0.01082,0.834108,0.5386540000000001,-0.0159389999999999,0.7032580000000002,0.761594,-0.093933,1.197418,0.511484,0.000193,1.361288,0.720164,-0.056923,0.663088,1.015434,-0.158933,1.418118,0.929324,-0.119433,0.923633,0.0025,0.000168,1.076367,-0.0024999999999999,-0.0001679999999999,0.866658,-0.503246,0.042675,1.10207,-0.494716,0.04387,0.833548,-0.8718859999999999,0.061293,1.119488,-0.874286,0.073019,0
90,1.0292625,0.730807,0.0109815,0.8340385,0.538747,-0.0157614999999999,0.7034085,0.761537,-0.0937374999999999,1.1973585,0.511307,0.0003125,1.3612185,0.720187,-0.0567975,0.6631485000000001,1.015437,-0.1587175,1.4179985,0.929367,-0.1193075,0.9236375,0.002503,0.0001195,1.0763625,-0.0025029999999999,-0.0001194999999999,0.8666785,-0.503223,0.0426155,1.1020405,-0.494653,0.0438975,0.8335085,-0.871883,0.0614975,1.1193685,-0.874213,0.0731475,0
91,1.0291899999999998,0.73079,0.0111724999999999,0.83396,0.53882,-0.0155605,0.7035,0.76153,-0.0935314999999999,1.19728,0.51117,0.0004694999999999,1.36113,0.72025,-0.0566515,0.66318,1.0153599999999998,-0.1584715,1.41781,0.92945,-0.1191815,0.923643,0.0025169999999999,5.3499999999998e-05,1.076357,-0.002517,-5.350000000000493e-05,0.8667199999999999,-0.5032,0.0426185,1.102,-0.49457,0.0439484999999999,0.83346,-0.8719,0.0617184999999999,1.11928,-0.87407,0.0733135,0
92,1.0291045,0.7307794999999999,0.0113395,0.8339145,0.5389195,-0.0153544999999999,0.7035644999999999,0.7615295,-0.0933525,1.1971845,0.5110795,0.0005975,1.3610245,0.7203195,-0.0565424999999999,0.6631644999999999,1.0152995,-0.1582625,1.4175645,0.9295395,-0.1191224999999999,0.9236475,0.0025284999999999,-1.1499999999997623e-05,1.0763524999999998,-0.0025285,1.1500000000004562e-05,0.8667445,-0.5031705,0.0427035,1.1019644999999998,-0.4944805,0.0439765,0.8334145,-0.8719905,0.0618725,1.1191945,-0.8738905,0.0734505,0
93,1.0290195,0.730791,0.011483,0.8338705000000001,0.5389809999999999,-0.0151919999999999,0.7036205,0.761551,-0.093211,1.1971005,0.511061,0.000683,1.3609205,0.7204309999999999,-0.0565109999999999,0.6631605,1.015251,-0.158101,1.4173205,0.929671,-0.119131,0.9236525,0.002541,-4.099999999999937e-05,1.0763475,-0.002541,4.099999999999937e-05,0.8667205,-0.503189,0.042786,1.1019205,-0.494369,0.043968,0.8333605,-0.8720190000000001,0.062025,1.1191005,-0.873859,0.073504,0
94,1.028947,0.73078,0.011575,0.833919,0.5390400000000001,-0.0150359999999999,0.703689,0.76161,-0.0931509999999999,1.197029,0.5111,0.000754,1.360829,0.72053,-0.0565109999999999,0.663159,1.0152,-0.157931,1.417029,0.92979,-0.119291,0.923655,0.002548,-6.499999999999562e-05,1.076345,-0.002548,6.500000000000256e-05,0.866709,-0.503,0.042829,1.101879,-0.4942499999999999,0.043984,0.833319,-0.8721099999999999,0.062185,1.119039,-0.8737199999999999,0.073581,0
95,1.0288815,0.7307605,0.0116705,0.8339985,0.5391005,-0.0148865,0.7037285,0.7616505,-0.0930615,1.1969685,0.5111405,0.0008275,1.3607385,0.7206205,-0.0565214999999999,0.6631484999999999,1.0151405,-0.1578415,1.4167485,0.9299005,-0.1194615,0.9236515,0.0025504999999999,-8.249999999999924e-05,1.0763485,-0.0025505,8.249999999999924e-05,0.8666885,-0.5028795,0.0428285,1.1018285,-0.4941595,0.0440035,0.8332984999999999,-0.8720694999999999,0.0623515,1.1189785,-0.8735995,0.0736515,0
96,1.028829,0.730746,0.011774,0.8340860000000001,0.539166,-0.0147329999999999,0.703776,0.761656,-0.0929619999999999,1.196936,0.511176,0.000941,1.360666,0.720706,-0.056562,0.6631560000000001,1.015076,-0.157792,1.4164759999999998,0.929976,-0.1196619999999999,0.923649,0.0025509999999999,-9.800000000000086e-05,1.076351,-0.002551,9.800000000000086e-05,0.8666860000000001,-0.5027739999999999,0.042812,1.101806,-0.494074,0.044015,0.833296,-0.872104,0.062481,1.118936,-0.873564,0.073733,0
97,1.0287705,0.7306985,0.0118769999999999,0.8341725,0.5392184999999999,-0.01458,0.7038225,0.7616585,-0.0928809999999999,1.1968925,0.5112085,0.001048,1.3605625,0.7208185,-0.056681,0.6631625,1.0150085,-0.157741,1.4161825,0.9300585,-0.120031,0.9236525,0.0025514999999999,-0.000124,1.0763475,-0.0025515,0.0001239999999999,0.8666725,-0.5026415,0.0427769999999999,1.1017724999999998,-0.4939915,0.0440239999999999,0.8333025000000001,-0.8721315000000001,0.062609,1.1188925,-0.8735315,0.073818,0
98,1.0287099999999998,0.730639,0.0119719999999999,0.834264,0.539269,-0.014439,0.703884,0.7616390000000001,-0.092808,1.196874,0.511339,0.0011819999999999,1.360464,0.720879,-0.056808,0.663184,1.014939,-0.157698,1.415864,0.930109,-0.120488,0.923654,0.0025509999999999,-0.000142,1.076346,-0.002551,0.0001419999999999,0.8666739999999999,-0.502561,0.042729,1.101744,-0.494031,0.044038,0.8333340000000001,-0.8721409999999999,0.062665,1.118874,-0.873601,0.0738419999999999,0
99,1.028647,0.7305775,0.012026,0.834367,0.5392975,-0.014308,0.703937,0.7616075,-0.092735,1.196837,0.5114675,0.0013229999999999,1.360367,0.7209475,-0.056955,0.663197,1.0148675,-0.157655,1.415587,0.9301575,-0.120975,0.923654,0.0025505,-0.0001589999999999,1.076346,-0.0025505,0.0001589999999999,0.866667,-0.5025225,0.042695,1.101717,-0.4940525,0.044043,0.8333570000000001,-0.8721725,0.062709,1.118857,-0.8736524999999999,0.073886,0
100,1.0285935,0.7305130000000001,0.012046,0.8344695,0.5393330000000001,-0.0142029999999999,0.7039795,0.7615930000000001,-0.092705,1.1968095,0.511623,0.001435,1.3602694999999998,0.7210030000000001,-0.057115,0.6632095,1.014793,-0.157655,1.4153795,0.930203,-0.1214449999999999,0.9236525,0.0025439999999999,-0.0001779999999999,1.0763475,-0.002544,0.000178,0.8666795,-0.502647,0.042638,1.1016995,-0.494117,0.044016,0.8333794999999999,-0.872217,0.06273,1.1188695,-0.873697,0.073917,0
101,1.028541,0.7303634999999999,0.012069,0.834522,0.5393535,-0.014127,0.7040120000000001,0.7615635000000001,-0.0926719999999999,1.196782,0.5117535,0.001557,1.360162,0.7210135,-0.057312,0.663232,1.0147035,-0.157692,1.415162,0.9302135,-0.121912,0.92365,0.0025374999999999,-0.0001969999999999,1.07635,-0.0025375,0.000197,0.8666920000000001,-0.5027865,0.0425829999999999,1.101692,-0.4941965,0.043978,0.833402,-0.8722764999999999,0.062755,1.118882,-0.8737865,0.073945,0
102,1.02847,0.7302465,0.0120909999999999,0.834577,0.5393665,-0.01405,0.704047,0.7615365,-0.092659,1.196767,0.5119265,0.0017099999999999,1.360037,0.7210265,-0.057519,0.663267,1.0147165,-0.157719,1.414937,0.9302265,-0.1223689999999999,0.923647,0.0025285,-0.000216,1.076353,-0.0025284999999999,0.0002159999999999,0.866707,-0.5029534999999999,0.042577,1.101677,-0.4942835,0.0439399999999999,0.833447,-0.8723035,0.0627119999999999,1.118927,-0.8738135,0.073946,0
103,1.02841,0.7301135,0.01211,0.834562,0.5393735,-0.0139829999999999,0.704062,0.7615135,-0.0926589999999999,1.196742,0.5121235,0.001849,1.359892,0.7210335,-0.0577489999999999,0.663292,1.0146235,-0.157769,1.414722,0.9302335,-0.1227089999999999,0.923645,0.0025215,-0.000236,1.076355,-0.0025214999999999,0.000236,0.866702,-0.5030965000000001,0.042604,1.101682,-0.4943765,0.043893,0.8334820000000001,-0.8723265,0.062681,1.118952,-0.8738565,0.073953,0
104,1.0283485,0.7299574999999999,0.0121434999999999,0.8345495,0.5393775,-0.0139195,0.7040895,0.7615175,-0.0926575,1.1967295,0.5123274999999999,0.0019914999999999,1.3596895,0.7210175,-0.0580175,0.6633095,1.0146275,-0.1578075,1.4144495,0.9302475,-0.1230975,0.9236435,0.0025154999999999,-0.0002585,1.0763565,-0.0025155,0.0002584999999999,0.8667695,-0.5029725,0.0425834999999999,1.1016695,-0.4943725,0.0438454999999999,0.8335095000000001,-0.8723625,0.0626714999999999,1.1189395,-0.8739125,0.0739605,0
105,1.0282779999999998,0.72982,0.0121609999999999,0.834541,0.53938,-0.0138849999999999,0.7041110000000002,0.76152,-0.09264,1.196711,0.51247,0.002077,1.359471,0.72098,-0.05831,0.663341,1.01463,-0.15786,1.414091,0.93025,-0.1234799999999999,0.923644,0.002513,-0.0002829999999999,1.076356,-0.0025129999999999,0.0002829999999999,0.866831,-0.50283,0.042548,1.101681,-0.49443,0.043787,0.833531,-0.87237,0.062661,1.118941,-0.874,0.073965,0
106,1.0281865,0.729681,0.0121539999999999,0.8344885,0.539431,-0.013867,0.7041385,0.761531,-0.092639,1.1966885,0.512641,0.002208,1.3592785,0.720941,-0.058559,0.6633585,1.014631,-0.1579289999999999,1.4136385,0.930261,-0.123759,0.9236425,0.0025019999999999,-0.0002959999999999,1.0763575,-0.002502,0.0002959999999999,0.8668985,-0.502689,0.0424999999999999,1.1016885,-0.494509,0.043723,0.8335684999999999,-0.872339,0.062612,1.1189485,-0.874139,0.073935,0
107,1.028071,0.729571,0.0121265,0.834478,0.539451,-0.0138594999999999,0.704148,0.761541,-0.0926375,1.196658,0.512761,0.0023245,1.359078,0.720901,-0.0588174999999999,0.6633979999999999,1.014631,-0.1579775,1.413178,0.930271,-0.1239774999999999,0.923643,0.002491,-0.0003084999999999,1.076357,-0.0024909999999999,0.0003085,0.8669680000000001,-0.502469,0.0424505,1.101708,-0.494579,0.0436575,0.833568,-0.872269,0.0625625,1.118958,-0.8742989999999999,0.0738855,0
108,1.027941,0.729441,0.0120849999999999,0.834428,0.539491,-0.0138589999999999,0.704148,0.761561,-0.092643,1.196608,0.512921,0.0024659999999999,1.358838,0.720841,-0.059113,0.663448,1.014631,-0.158013,1.412578,0.930291,-0.124183,0.923643,0.002479,-0.000325,1.076357,-0.0024789999999999,0.0003249999999999,0.8670580000000001,-0.502269,0.0423949999999999,1.101728,-0.494659,0.0435929999999999,0.833568,-0.872269,0.0624669999999999,1.118998,-0.874439,0.073852,0
109,1.0277925,0.7292995,0.0120484999999999,0.8343815,0.5395295,-0.0138474999999999,0.7041615,0.7615795000000001,-0.0926225,1.1965415,0.5130895,0.0026144999999999,1.3586015,0.7207895,-0.0593625,0.6635015,1.0147295,-0.1580125,1.4119115,0.9302995,-0.1244224999999999,0.9236415,0.0024684999999999,-0.0003385,1.0763585,-0.0024684999999999,0.0003384999999999,0.8671215,-0.5020705,0.0423574999999999,1.1017415,-0.4947705,0.0435394999999999,0.8335715,-0.8722905,0.0623735,1.1190315,-0.8745805,0.0738255,0
110,1.027612,0.7292485,0.0120265,0.834341,0.5395785,-0.0138384999999999,0.704171,0.7616185,-0.0926175,1.196461,0.5132585,0.0027534999999999,1.358351,0.7207685,-0.0596175,0.663581,1.0147285,-0.1580175,1.411241,0.9303385,-0.1247075,0.923641,0.0024585,-0.0003514999999999,1.076359,-0.0024585,0.0003514999999999,0.867191,-0.5020215,0.0423125,1.101751,-0.4948215,0.0434945,0.833591,-0.8723615,0.0623235,1.119061,-0.8746915,0.0737765,0
111,1.027439,0.7292125,0.0119994999999999,0.834299,0.5396325,-0.0138205,0.704179,0.7616825,-0.0926135,1.196369,0.5134225,0.0028874999999999,1.358109,0.7207625,-0.0598535,0.663659,1.0147325,-0.1580135,1.410569,0.9303925,-0.1249735,0.923638,0.0024534999999999,-0.0003555,1.076362,-0.0024535,0.0003554999999999,0.8672489999999999,-0.5019775,0.0422675,1.101759,-0.4948475,0.0434544999999999,0.833589,-0.8724075,0.0622604999999999,1.119059,-0.8748175,0.0736825,0
112,1.0272405,0.7291995,0.0119669999999999,0.8342395,0.5396795,-0.013796,0.7041795,0.7617295000000001,-0.092603,1.1962795,0.5135395,0.0030409999999999,1.3578895,0.7207595,-0.060083,0.6637394999999999,1.0148295,-0.158013,1.4099195,0.9304795,-0.1252329999999999,0.9236365,0.0024435,-0.000355,1.0763635,-0.0024435,0.0003549999999999,0.8672695,-0.5019605,0.0422319999999999,1.1017695,-0.4948805,0.043418,0.8335695,-0.8724704999999999,0.0621889999999999,1.1190695,-0.8749605,0.073567,0
113,1.027043,0.7292255,0.0119384999999999,0.8341890000000001,0.5397355,-0.0137575,0.704179,0.7617855,-0.0925624999999999,1.196169,0.5136755000000001,0.0031964999999999,1.357699,0.7207555,-0.0602925,0.6638189999999999,1.0149255,-0.1579625,1.409299,0.9305755,-0.1254625,0.923637,0.0024335,-0.0003545,1.076363,-0.0024334999999999,0.0003545,0.867279,-0.5020045,0.0421895,1.101769,-0.4948944999999999,0.0433854999999999,0.833549,-0.8725445,0.0621064999999999,1.119079,-0.8750844999999999,0.0735015,0
114,1.02686,0.7292085,0.0119359999999999,0.834144,0.5397785,-0.0137209999999999,0.704194,0.7618385000000001,-0.092512,1.196054,0.5137985,0.003358,1.357524,0.7207485,-0.060502,0.663904,1.0150185,-0.157902,1.408764,0.9306785,-0.125692,0.923635,0.0024225,-0.000355,1.076365,-0.0024224999999999,0.000355,0.867294,-0.5020315,0.042117,1.101774,-0.4949215,0.043365,0.8335040000000001,-0.8726815,0.061992,1.119074,-0.8752215,0.0734539999999999,0
115,1.026684,0.7291885,0.011943,0.834089,0.5398585,-0.0136729999999999,0.704189,0.7619385,-0.092477,1.195959,0.5139085,0.0034529999999999,1.357339,0.7207385,-0.060717,0.663979,1.0152085,-0.1577869999999999,1.408299,0.9307885,-0.1258969999999999,0.923634,0.0024075,-0.0003449999999999,1.076366,-0.0024075,0.0003449999999999,0.867309,-0.5019015,0.042046,1.101759,-0.4949515,0.043352,0.833449,-0.8728515,0.061893,1.119049,-0.8753415,0.073406,0
116,1.026531,0.7291664999999999,0.011944,0.8340460000000001,0.5399265,-0.0136379999999999,0.704176,0.7620064999999999,-0.0924429999999999,1.195866,0.5140165,0.003553,1.357156,0.7207965,-0.0609629999999999,0.664046,1.0152965,-0.157663,1.407866,0.9309065,-0.126103,0.923634,0.0023924999999999,-0.0003379999999999,1.076366,-0.0023924999999999,0.000338,0.867316,-0.5019135,0.041981,1.101756,-0.4949635,0.043321,0.833406,-0.8729935000000001,0.0618,1.119046,-0.8754435,0.073347,0
117,1.026391,0.7291505,0.0119519999999999,0.834005,0.5399905,-0.013607,0.7041550000000001,0.7620705000000001,-0.092406,1.195785,0.5140905,0.0036169999999999,1.357005,0.7208505000000001,-0.061196,0.664095,1.0153805,-0.157556,1.407555,0.9310005,-0.126306,0.923635,0.0023784999999999,-0.000336,1.076365,-0.0023784999999999,0.0003359999999999,0.8673050000000001,-0.5019294999999999,0.0419229999999999,1.101745,-0.4949695,0.0432989999999999,0.8333650000000001,-0.8731694999999999,0.0617029999999999,1.119035,-0.8754595000000001,0.0733299999999999,0
118,1.026275,0.729154,0.0119799999999999,0.833961,0.5400539999999999,-0.013579,0.704141,0.7621439999999999,-0.09237,1.195731,0.514154,0.003685,1.356881,0.7208939999999999,-0.0613999999999999,0.664141,1.015464,-0.15743,1.4072909999999998,0.931094,-0.12647,0.923636,0.0023629999999999,-0.0003319999999999,1.076364,-0.002363,0.0003319999999999,0.8673010000000001,-0.501936,0.041894,1.101741,-0.494986,0.04328,0.833311,-0.873286,0.061633,1.1190209999999998,-0.875556,0.073324,0
119,1.0262145,0.729126,0.0119674999999999,0.8339265,0.540116,-0.0135544999999999,0.7041165,0.762226,-0.0923375,1.1956965,0.514236,0.0037504999999999,1.3567865,0.720966,-0.0615875,0.6641865,1.0155459999999998,-0.1573275,1.4070965,0.931196,-0.1266074999999999,0.9236355,0.0023499999999999,-0.0003275,1.0763645,-0.00235,0.0003275,0.8673065,-0.501884,0.0418635,1.1017365,-0.494994,0.0432535,0.8332865,-0.873364,0.0615715,1.1190565,-0.875654,0.0732955,0
120,1.0261714999999998,0.7290555,0.0119189999999999,0.8339045,0.5401355,-0.013537,0.7040945000000001,0.7623154999999999,-0.092311,1.1956745,0.5143154999999999,0.003785,1.3567145,0.7210455,-0.061761,0.6642345000000001,1.0157155,-0.157201,1.4069144999999998,0.9313055,-0.126741,0.9236355,0.0023304999999999,-0.0002979999999999,1.0763645,-0.0023305,0.0002979999999999,0.8672945000000001,-0.5018545,0.041829,1.1017245,-0.4949544999999999,0.043219,0.8332645000000001,-0.8735245,0.061505,1.1190845,-0.8757745,0.073228,0
121,1.026165,0.7289865,0.0118455,0.833882,0.5401765,-0.0135605,0.704072,0.7624264999999999,-0.0923345,1.195662,0.5143865,0.0037605,1.356662,0.7211565,-0.0619345,0.664302,1.0157765,-0.1570745,1.406782,0.9314365,-0.1269245,0.92364,0.0023125,-0.0002855,1.07636,-0.0023124999999999,0.0002855,0.867292,-0.5018935,0.0417644999999999,1.101702,-0.4949135,0.0431945,0.833262,-0.8736035000000001,0.0614005,1.119112,-0.8758935000000001,0.0731585,0
122,1.026166,0.728939,0.0117695,0.8338650000000001,0.540219,-0.0136224999999999,0.7040649999999999,0.762529,-0.0924285,1.195665,0.5144489999999999,0.0037164999999999,1.356625,0.721279,-0.0621484999999999,0.664385,1.015929,-0.1569885,1.406665,0.931589,-0.1271585,0.923646,0.0022879999999999,-0.0002875,1.076354,-0.0022879999999999,0.0002874999999999,0.867305,-0.502021,0.0417335,1.101697,-0.494861,0.0431545,0.833265,-0.873671,0.0612835,1.119145,-0.876031,0.0730735,0
123,1.02617,0.728908,0.0116725,0.833848,0.5402579999999999,-0.0136995,0.704048,0.7626379999999999,-0.0925245,1.195668,0.5144979999999999,0.0036565,1.356598,0.7214879999999999,-0.0624244999999999,0.664458,1.016178,-0.1569344999999999,1.406538,0.931818,-0.1274644999999999,0.923653,0.0022669999999999,-0.0002845,1.076347,-0.002267,0.0002845,0.867298,-0.5020720000000001,0.0416925,1.101689,-0.494812,0.0431215,0.833288,-0.873722,0.0611875,1.119168,-0.876052,0.0730415,0
124,1.0261985,0.728903,0.0115645,0.8338415,0.540273,-0.0138075,0.7040615,0.762723,-0.0926314999999999,1.1956715,0.514543,0.0035785,1.3566015,0.7217129999999999,-0.0627114999999999,0.6645515,1.0163330000000002,-0.1569315,1.4064515,0.932073,-0.1277614999999999,0.9236625,0.0022539999999999,-0.0003014999999999,1.0763375,-0.0022539999999999,0.0003015,0.8673215,-0.502117,0.0416425,1.1016985,-0.494767,0.0430785,0.8333415,-0.873767,0.0610415,1.1191915,-0.876097,0.0730235,0
125,1.0262285,0.728877,0.0114415,0.8338635,0.540257,-0.0139215,0.7040635,0.762807,-0.0927644999999999,1.1956835,0.514557,0.0034695,1.3566235,0.721927,-0.0630145,0.6646434999999999,1.016487,-0.1569545,1.4063635,0.932307,-0.1280744999999999,0.9236705,0.0022429999999999,-0.0003144999999999,1.0763295,-0.002243,0.0003145,0.8673535,-0.502163,0.0415885,1.1017035,-0.494713,0.0430315,0.8333835,-0.873873,0.0609005,1.1192235,-0.876143,0.0729665,0
126,1.0262795,0.7288665000000001,0.011297,0.8338975,0.5402365,-0.014047,0.7040775,0.7629165,-0.0929199999999999,1.1956875,0.5145765,0.0033429999999999,1.3566475,0.7221465,-0.06334,0.6647275,1.0166365,-0.15698,1.4062775,0.9325365,-0.12845,0.9236795,0.0022355,-0.000335,1.0763205,-0.0022354999999999,0.000335,0.8673875,-0.5022234999999999,0.041532,1.1017125,-0.4946635,0.042984,0.8334275,-0.8739034999999999,0.060785,1.1192175,-0.8761135,0.072902,0
127,1.0263335,0.7287755,0.0111374999999999,0.8339655,0.5401455,-0.0141804999999999,0.7041155,0.7629555,-0.0931005,1.1957055,0.5145455,0.0032114999999999,1.3566755,0.7223554999999999,-0.0636905,0.6648355,1.0167455,-0.1570405,1.4062255,0.9327355,-0.1288605,0.9236825,0.0022345,-0.0003505,1.0763175,-0.0022344999999999,0.0003504999999999,0.8674255000000001,-0.5023245,0.0414694999999999,1.1017195,-0.4946245,0.0429284999999999,0.8334955,-0.8739645,0.0606675,1.1192555,-0.8761345,0.0728004999999999,0
128,1.0263829999999998,0.7287105,0.010915,0.83402,0.5400205,-0.01439,0.7041299999999999,0.7629705,-0.093348,1.19572,0.5144905000000001,0.003025,1.3567,0.7226005000000001,-0.064118,0.66494,1.0167205,-0.157138,1.40611,0.9330205,-0.129328,0.923685,0.0022345,-0.00032,1.076315,-0.0022344999999999,0.00032,0.86746,-0.5023695,0.041382,1.101708,-0.4946195,0.042839,0.83354,-0.8739895,0.060504,1.11927,-0.8761595,0.072667,0
129,1.0264225,0.7286635,0.0106764999999999,0.8340725,0.5399134999999999,-0.0145995,0.7041525,0.7629735,-0.0935925,1.1957325,0.5144335,0.0028324999999999,1.3567225,0.7228435,-0.0645324999999999,0.6650425,1.0168135,-0.1572925,1.4060125,0.9332935,-0.1297925,0.9236885,0.0022334999999999,-0.0003044999999999,1.0763115,-0.0022334999999999,0.0003044999999999,0.8674824999999999,-0.5024465,0.0413165,1.1016915,-0.4946264999999999,0.0427525,0.8335825,-0.8739465000000001,0.0603275,1.1192825,-0.8761665000000001,0.0725335,0
130,1.026463,0.7286429999999999,0.0104059999999999,0.834147,0.539793,-0.0148139999999999,0.704167,0.762953,-0.093836,1.195737,0.5143629999999999,0.002666,1.356717,0.723043,-0.064926,0.665127,1.016803,-0.157436,1.405887,0.933503,-0.130116,0.923688,0.002234,-0.000271,1.076312,-0.002234,0.000271,0.8674970000000001,-0.5025270000000001,0.041271,1.101678,-0.494637,0.0426519999999999,0.8336070000000001,-0.8738870000000001,0.060178,1.119297,-0.876137,0.072421,0
131,1.026501,0.7286255,0.010132,0.83423,0.5396755000000001,-0.015029,0.70418,0.7629855,-0.094103,1.19575,0.5143055000000001,0.002502,1.35671,0.7232255000000001,-0.065313,0.6652100000000001,1.0167955,-0.1575829999999999,1.40577,0.9336955,-0.1304929999999999,0.923685,0.0022415,-0.0002319999999999,1.076315,-0.0022414999999999,0.000232,0.86754,-0.5025645,0.041225,1.101666,-0.4946545,0.042548,0.83363,-0.8736444999999999,0.06002,1.11932,-0.8760045,0.072301,0
132,1.026547,0.728711,0.0098305,0.8343070000000001,0.539551,-0.0152564999999999,0.704187,0.763061,-0.0944305,1.195767,0.5142410000000001,0.0023175,1.356707,0.7233310000000001,-0.0656004999999999,0.6653169999999999,1.016781,-0.1577204999999999,1.405707,0.933831,-0.1308005,0.923686,0.002243,-0.0001974999999999,1.076314,-0.002243,0.0001975,0.8675570000000001,-0.502679,0.0411945,1.10166,-0.4946589999999999,0.0424505,0.833657,-0.873429,0.0598775,1.119357,-0.875969,0.0721855,0
133,1.0265895,0.7287745,0.0095249999999999,0.8344055,0.5394345,-0.015498,0.7041955,0.7631345,-0.094754,1.1957955,0.5141545000000001,0.0021199999999999,1.3567055,0.7234645000000001,-0.065884,0.6654755,1.0170445,-0.157934,1.4056255,0.9339945,-0.131104,0.9236895,0.0022415,-0.0001589999999999,1.0763105,-0.0022414999999999,0.0001589999999999,0.8675755,-0.5028155,0.041146,1.1016565,-0.4947355,0.042365,0.8336955,-0.8733854999999999,0.059723,1.1193955,-0.8757555,0.072032,0
134,1.026636,0.7288604999999999,0.009229,0.834506,0.5393304999999999,-0.015742,0.704196,0.7632705,-0.095065,1.195826,0.5140804999999999,0.001912,1.356686,0.7236104999999999,-0.066185,0.665666,1.0172105,-0.158155,1.405246,0.9409505,-0.131425,0.923692,0.0022394999999999,-0.0001239999999999,1.076308,-0.0022395,0.0001239999999999,0.867576,-0.5029495,0.041125,1.101654,-0.4948194999999999,0.042284,0.833766,-0.8732895,0.059573,1.119456,-0.8756095,0.071881,0
135,1.02669,0.7289475,0.008903,0.834619,0.5392175,-0.0160339999999999,0.704189,0.7634075,-0.095464,1.195859,0.5140175,0.0016439999999999,1.356649,0.7237675,-0.066524,0.665879,1.0175775,-0.158464,1.404879,0.9479175,-0.131764,0.923697,0.0022324999999999,-9.699999999999986e-05,1.076303,-0.0022325,9.699999999999986e-05,0.8675390000000001,-0.5030825,0.041096,1.101657,-0.4949225,0.042205,0.833819,-0.8731825,0.059374,1.119509,-0.8755625,0.071723,0
136,1.026741,0.7290544999999999,0.0085259999999999,0.834727,0.5391144999999999,-0.0163859999999999,0.704177,0.7636045,-0.095917,1.195877,0.5139845,0.0013189999999999,1.356597,0.7239445,-0.066897,0.6660969999999999,1.0179645,-0.158847,1.404487,0.9549045,-0.132117,0.923705,0.0022345,-4.400000000000237e-05,1.076295,-0.0022344999999999,4.399999999999543e-05,0.867477,-0.5032755,0.0410519999999999,1.101662,-0.4950255,0.042155,0.833877,-0.8731055,0.059167,1.119577,-0.8755455,0.071505,0
137,1.0268,0.729082,0.0081254999999999,0.834814,0.539002,-0.0167184999999999,0.7041740000000001,0.7637919999999999,-0.0963865,1.195904,0.513922,0.0009794999999999,1.356554,0.724012,-0.0672465,0.666324,1.0184419999999998,-0.1592365,1.404134,0.961772,-0.1323765,0.923717,0.0022599999999999,2.3499999999995747e-05,1.076283,-0.00226,-2.3500000000002685e-05,0.8674040000000001,-0.503488,0.0409664999999999,1.10168,-0.495148,0.0421224999999999,0.833944,-0.873028,0.0589954999999999,1.119624,-0.875568,0.0713034999999999,0
138,1.0268625,0.729126,0.007727,0.8349085,0.538896,-0.017054,0.7041985,0.763966,-0.096867,1.1959285,0.513856,0.00064,1.3564885,0.724106,-0.067617,0.6665885,1.018916,-0.159737,1.4037985,0.968316,-0.132707,0.9237195,0.0022939999999999,0.000128,1.0762805,-0.002294,-0.0001279999999999,0.8673285,-0.503834,0.040867,1.1017225,-0.495244,0.042068,0.8340385,-0.873004,0.058692,1.1197385,-0.875604,0.071055,1
139,1.0269375,0.7291475000000001,0.0073649999999999,0.8349805000000001,0.5387875,-0.017365,0.7042005,0.7641875,-0.0974,1.1959505,0.5137975,0.0002619999999999,1.3564305,0.7241975,-0.06798,0.6668405,1.0195875,-0.16029,1.4034605,0.9751875,-0.13296,0.9237205,0.0023265,0.00023,1.0762795,-0.0023264999999999,-0.00023,0.8672605,-0.5041725,0.04076,1.1017685,-0.4953225,0.04202,0.8341205,-0.8729724999999999,0.058449,1.1198405,-0.8756525,0.070831,1
140,1.026989,0.7291584999999999,0.0070129999999999,0.835046,0.5387084999999999,-0.0176699999999999,0.704206,0.7643685,-0.09789,1.195966,0.5137484999999999,-9.40000000000038e-05,1.356366,0.7242685,-0.06834,0.6670659999999999,1.0202585000000002,-0.16085,1.403086,0.9820585,-0.13318,0.92372,0.0023565,0.0003329999999999,1.07628,-0.0023564999999999,-0.0003329999999999,0.867196,-0.5045215,0.040672,1.101807,-0.4954115,0.041994,0.8341959999999999,-0.8730115,0.0581919999999999,1.119946,-0.8757815,0.070615,1
141,1.0269985,0.7290610000000001,0.0066345,0.8351025,0.538651,-0.0179685,0.7042325,0.764471,-0.0983764999999999,1.1959725,0.5137010000000001,-0.0004525,1.3563025,0.7243310000000001,-0.0686965,0.6672425,1.020831,-0.1614264999999999,1.4024425,0.989231,-0.1333265,0.9237165,0.002384,0.0004334999999999,1.0762835,-0.0023839999999999,-0.0004335,0.8671425,-0.504919,0.0405855,1.1018405,-0.495519,0.0419765,0.8342225,-0.8730589999999999,0.0579934999999999,1.1200325,-0.8759089999999999,0.0703795,1
142,1.0269905,0.7289734999999999,0.0062924999999999,0.8351105,0.5386434999999999,-0.0182415,0.7042305,0.7645635,-0.0988355,1.1959705,0.5136634999999999,-0.0007845,1.3562205,0.7243735,-0.0690155,0.6673605,1.0213235,-0.1619555,1.4021205,0.9940235,-0.1333855,0.9237025,0.0024155,0.0005384999999999,1.0762975,-0.0024155,-0.0005385,0.8670505,-0.5053065,0.0405384999999999,1.1018555,-0.4956165,0.0419684999999999,0.8342404999999999,-0.8730565,0.0578174999999999,1.1201005,-0.8760165,0.0701804999999999,1
143,1.026978,0.728896,0.0059499999999999,0.835105,0.5386259999999999,-0.018507,0.7042349999999999,0.7645959999999999,-0.099274,1.195955,0.5136259999999999,-0.001104,1.3561649999999998,0.724416,-0.069304,0.6674250000000002,1.0217159999999998,-0.162464,1.402155,0.993916,-0.133644,0.923688,0.0024469999999999,0.000646,1.076312,-0.002447,-0.000646,0.866965,-0.505684,0.0404669999999999,1.101868,-0.495704,0.041941,0.834275,-0.873174,0.0576,1.120145,-0.876194,0.069978,1
144,1.0269655,0.728831,0.0056439999999999,0.8350865000000001,0.538611,-0.018737,0.7042364999999999,0.764591,-0.099645,1.1959365,0.513591,-0.001373,1.3561165,0.7244309999999999,-0.069545,0.6674665,1.0220010000000002,-0.162905,1.4021865,0.995401,-0.133865,0.9236715,0.002472,0.0007549999999999,1.0763285,-0.0024719999999999,-0.000755,0.8669165,-0.506029,0.0404239999999999,1.1018745,-0.4958089999999999,0.0419019999999999,0.8343365,-0.873389,0.057411,1.1201765,-0.876389,0.069814,1
145,1.026948,0.7287845000000001,0.0053524999999999,0.835075,0.5385845,-0.0189534999999999,0.7042349999999999,0.7645745,-0.0999795,1.195925,0.5135645,-0.0016325,1.356095,0.7244545,-0.0697895,0.667505,1.0222045,-0.1633195,1.402225,0.9954045,-0.1342694999999999,0.92366,0.0024805,0.0007855,1.07634,-0.0024804999999999,-0.0007855,0.866895,-0.5063055,0.0403605,1.10188,-0.4958955,0.0417865,0.8344050000000001,-0.8735655,0.0572494999999999,1.120215,-0.8765955,0.0696495,1
146,1.026925,0.7287905,0.0050855,0.835054,0.5385905000000001,-0.0191105,0.704244,0.7646005,-0.1002685,1.195924,0.5135805,-0.0018485,1.356064,0.7245205,-0.0699885,0.6675340000000001,1.0224505,-0.1636985,1.401564,0.9981505,-0.1340585,0.923659,0.0024614999999999,0.0007544999999999,1.076341,-0.0024614999999999,-0.0007544999999999,0.866864,-0.5065095,0.0403575,1.101881,-0.4958895,0.0417225,0.834464,-0.8737094999999999,0.0571595,1.120264,-0.8767195,0.0695295,1
147,1.026885,0.728783,0.004788,0.835009,0.538583,-0.0192609999999999,0.704229,0.764653,-0.100547,1.195909,0.513603,-0.0020529999999999,1.356059,0.724553,-0.070137,0.667549,1.022603,-0.163937,1.401659,0.998103,-0.134267,0.923669,0.002437,0.000702,1.076331,-0.002437,-0.000702,0.866859,-0.506707,0.040377,1.101866,-0.495877,0.041669,0.834509,-0.8738570000000001,0.057073,1.120309,-0.8768469999999999,0.069411,1
148,1.0268615,0.7288060000000001,0.0044739999999999,0.8349755,0.5386059999999999,-0.019443,0.7042155,0.764686,-0.100795,1.1959054999999998,0.5136259999999999,-0.002243,1.3560555,0.7246060000000001,-0.070305,0.6675555,1.022676,-0.1641449999999999,1.4017855,0.997976,-0.134465,0.9236755,0.0024209999999999,0.0006619999999999,1.0763245,-0.0024209999999999,-0.000662,0.8668755,-0.5068239999999999,0.0403679999999999,1.1018495,-0.495784,0.0416059999999999,0.8345255,-0.8738840000000001,0.0569419999999999,1.1203255,-0.876944,0.069265,1
149,1.0268775,0.7288414999999999,0.004138,0.8349605,0.5386314999999999,-0.019621,0.7042205,0.7647115,-0.1010449999999999,1.1959205,0.5136014999999999,-0.0024729999999999,1.3560805,0.7246615,-0.070475,0.6675605,1.0227515,-0.164345,1.4020805,0.9978515,-0.134695,0.9236765,0.0024055,0.000629,1.0763235,-0.0024054999999999,-0.0006289999999999,0.8669105,-0.5070785,0.040293,1.1018395,-0.4956885,0.04156,0.8345505,-0.8739585000000001,0.056758,1.1203505,-0.8770485,0.069123,1
150,1.026929,0.7288239999999999,0.003821,0.8349700000000001,0.5386639999999999,-0.0197989999999999,0.70427,0.764694,-0.101287,1.19595,0.5135839999999999,-0.0027039999999999,1.35611,0.724684,-0.0706769999999999,0.66757,1.022734,-0.164487,1.40237,0.997834,-0.1349369999999999,0.923676,0.0023999999999999,0.000589,1.076324,-0.0023999999999999,-0.0005889999999999,0.86696,-0.507366,0.040181,1.101845,-0.4956359999999999,0.041428,0.8345800000000001,-0.8740260000000001,0.056622,1.1204,-0.877136,0.068942,1
151,1.0269965,0.7289239999999999,0.0034939999999999,0.8349845000000001,0.5386639999999999,-0.01999,0.7043345000000001,0.764674,-0.101546,1.1960245,0.5135839999999999,-0.002975,1.3561645,0.724684,-0.0709159999999999,0.6675845,1.022734,-0.164656,1.4026645,0.997734,-0.135236,0.9236685,0.0023999999999999,0.0005429999999999,1.0763315,-0.0023999999999999,-0.000543,0.8670645000000001,-0.507506,0.040062,1.1018645,-0.4956359999999999,0.0412719999999999,0.8346445,-0.874156,0.0564719999999999,1.1204545,-0.8772460000000001,0.068754,1
152,1.02703,0.7289239999999999,0.0031274999999999,0.8350140000000001,0.5386639999999999,-0.0202264999999999,0.7043640000000001,0.764664,-0.1018645,1.196024,0.513574,-0.0033515,1.356184,0.724684,-0.0712044999999999,0.667594,1.022734,-0.1648545,1.402854,0.994634,-0.1360144999999999,0.923623,0.0023999999999999,0.0005114999999999,1.076377,-0.0023999999999999,-0.0005114999999999,0.8671440000000001,-0.507506,0.0398955,1.101895,-0.4956359999999999,0.0410704999999999,0.834694,-0.874326,0.0562665,1.120484,-0.8773460000000001,0.0685345,1
153,1.0270685,0.7289275,0.0027275,0.8350445000000001,0.5386675,-0.0205165,0.7044045,0.7646475,-0.1022435,1.1960345,0.5135675,-0.0038205,1.3562145,0.7246875,-0.0716035,0.6676245000000001,1.0226375,-0.1650935,1.4025645,0.9945375,-0.1362035,0.9235725,0.0023965,0.0004844999999999,1.0764275,-0.0023964999999999,-0.0004844999999999,0.8672745,-0.5075025,0.0395175,1.1019255,-0.4956325,0.0408815,0.8347545000000001,-0.8745825,0.0560774999999999,1.1205245,-0.8777625,0.0682065,1
154,1.027162,0.7289545,0.002202,0.83513,0.5386945,-0.020931,0.7045,0.7645245,-0.102751,1.1961,0.5134345,-0.0045779999999999,1.35625,0.7246645,-0.0722009999999999,0.6677,1.0223645,-0.165361,1.40265,0.9921645,-0.137031,0.923561,0.0024145,0.0004629999999999,1.076439,-0.0024145,-0.0004629999999999,0.8676699999999999,-0.5074655,0.0378,1.102008,-0.4954955,0.040223,0.8348599999999999,-0.8748155,0.055851,1.12061,-0.8781755,0.067837,1
155,1.0273295,0.7286760000000001,0.0008099999999999,0.8354395,0.538466,-0.022594,0.7047195000000002,0.763966,-0.104262,1.1961895,0.512436,-0.006906,1.3561895,0.7242660000000001,-0.073942,0.6678395000000001,1.022066,-0.166242,1.4021295,0.985966,-0.138332,0.9235215,0.0025089999999999,0.00034,1.0764785,-0.002509,-0.00034,0.8682295000000001,-0.507134,0.032493,1.1023625,-0.494904,0.036247,0.8351395,-0.874844,0.055062,1.1208195,-0.878134,0.066717,1
156,1.0276575,0.7282105,-0.0015065,0.8361985000000001,0.5367405,-0.0260694999999999,0.7050385,0.7632005,-0.1067795,1.1963685,0.5111005,-0.0101665,1.3560885,0.7237505,-0.0768995,0.6681085,1.0224005,-0.1677595,1.4023785,0.9790005,-0.1408995,0.9233785,0.0025854999999999,0.0001304999999999,1.0766215,-0.0025855,-0.0001304999999999,0.8686785000000001,-0.5056795000000001,0.0249434999999999,1.1031125,-0.4936095,0.0303174999999999,0.8355985000000001,-0.8741095000000001,0.0535695,1.1211585,-0.8774195,0.0647625,1
157,1.028095,0.726779,-0.0046115,0.8367990000000001,0.535329,-0.0298225,0.705409,0.760539,-0.1100425,1.196599,0.509719,-0.0138835,1.355969,0.722509,-0.0806825,0.668649,1.0228989999999998,-0.1695924999999999,1.401699,0.973499,-0.1438025,0.923182,0.0026699999999999,-8.450000000000124e-05,1.076818,-0.0026699999999999,8.44999999999943e-05,0.869149,-0.503851,0.0154154999999999,1.104869,-0.491971,0.0219914999999999,0.8360790000000001,-0.873121,0.0516074999999999,1.1215989999999998,-0.876511,0.0622864999999999,1
158,1.028711,0.7237395,-0.0089949999999999,0.8376330000000001,0.5320395,-0.0356569999999999,0.706033,0.7581294999999999,-0.114826,1.196943,0.5071794999999999,-0.0190209999999999,1.356013,0.7213695,-0.0857159999999999,0.669783,1.0246695,-0.172256,1.400733,0.9734695,-0.147536,0.922934,0.0028364999999999,-0.0003229999999999,1.077066,-0.0028365,0.000323,0.8698930000000001,-0.5003005,0.003462,1.107403,-0.4887905,0.011803,0.836763,-0.8706105,0.048713,1.122303,-0.8740105,0.058962,1
159,1.029572,0.7203245,-0.014346,0.83882,0.5289845,-0.042108,0.7069,0.7540145,-0.120686,1.19738,0.5046245,-0.024818,1.35623,0.7190045,-0.091936,0.67172,1.0252045,-0.175276,1.39991,0.9682345,-0.151606,0.922653,0.0029974999999999,-0.000656,1.077347,-0.0029975,0.0006559999999999,0.87086,-0.4957155,-0.010264,1.11061,-0.4843355,0.0002819999999999,0.83757,-0.8669755,0.045297,1.1234,-0.8702555,0.0550419999999999,1
160,1.030509,0.7163395,-0.020711,0.839982,0.5253495,-0.0495449999999999,0.707802,0.7487295,-0.127745,1.197832,0.5021095,-0.0316199999999999,1.356272,0.7158495,-0.099415,0.6743319999999999,1.0247095,-0.179225,1.398832,0.9642295,-0.156895,0.922346,0.0030945,-0.0011019999999999,1.077654,-0.0030945,0.0011019999999999,0.871502,-0.4896205,-0.0257219999999999,1.114362,-0.4782405,-0.012648,0.838512,-0.8621005,0.040916,1.124652,-0.8647905,0.050437,1
161,1.031582,0.7125055,-0.0284265,0.841398,0.5207355,-0.0586675,0.7088480000000001,0.7439455,-0.1364834999999999,1.198328,0.4991855,-0.0396465,1.356468,0.7135755,-0.1083035,0.677338,1.0220055,-0.1866034999999999,1.398088,0.9611955,-0.1645535,0.922094,0.0031415,-0.0017085,1.077906,-0.0031415,0.0017084999999999,0.871998,-0.4809845,-0.0429115,1.118628,-0.4696645,-0.0272585,0.839648,-0.8549145,0.0353235,1.126128,-0.8570745,0.0444755,1
162,1.032668,0.7078685,-0.0385209999999999,0.842979,0.5148385,-0.0697019999999999,0.710299,0.7368385,-0.147862,1.198829,0.4953185,-0.0489279999999999,1.356489,0.7096585,-0.1191519999999999,0.680949,1.0197385,-0.1954719999999999,1.395509,0.9594485,-0.175182,0.921924,0.0031464999999999,-0.0024319999999999,1.078076,-0.0031465,0.002432,0.872019,-0.4681015,-0.062492,1.124099,-0.4579215,-0.0442959999999999,0.840839,-0.8442515,0.027903,1.128389,-0.8455415000000001,0.03688,1
163,1.033673,0.7007869999999999,-0.0494065,0.84468,0.509187,-0.0812165,0.71187,0.729267,-0.1603265,1.19923,0.491087,-0.0583965,1.35653,0.705407,-0.1308365,0.6850400000000001,1.017097,-0.2056265,1.39251,0.957867,-0.1872365,0.92178,0.003182,-0.0030775,1.07822,-0.0031819999999999,0.0030775,0.87166,-0.4536429999999999,-0.0823065,1.13006,-0.445793,-0.0623355,0.84212,-0.831893,0.0198215,1.1306999999999998,-0.832543,0.0285235,1
164,1.0347345,0.6948000000000001,-0.060475,0.8464135,0.50348,-0.092278,0.7132635,0.72092,-0.173178,1.1996235,0.48744,-0.066764,1.3562935,0.69994,-0.142368,0.6894635,1.01351,-0.215918,1.3896935,0.95112,-0.200068,0.9217475,0.0029859999999999,-0.0036139999999999,1.0782525,-0.002986,0.0036139999999999,0.8706435,-0.43942,-0.099998,1.1367835,-0.43324,-0.078678,0.8434435,-0.81694,0.011734,1.1330735,-0.81723,0.020654,1
165,1.035645,0.6880955000000001,-0.0726285,0.84823,0.4986555,-0.1035095,0.7145900000000001,0.7126655000000001,-0.1875994999999999,1.1998,0.4836654999999999,-0.0761145,1.35583,0.6951555,-0.1556894999999999,0.69413,1.0080355,-0.2298695,1.3865,0.9512855,-0.2141595,0.921806,0.0028965,-0.0039425,1.078194,-0.0028964999999999,0.0039424999999999,0.86842,-0.4204345,-0.1196594999999999,1.14454,-0.4159745,-0.0976895,0.8448,-0.7961944999999999,0.0026715,1.13552,-0.7963545,0.0122875,1
166,1.0366974999999998,0.6816695,-0.086729,0.8501325,0.4928095,-0.1175989999999999,0.7160525,0.7058995,-0.204519,1.2001325,0.4797195,-0.087979,1.3555125,0.6908395,-0.171409,0.6987825,0.9982695,-0.2470889999999999,1.3833525,0.9507795,-0.231459,0.9220625,0.0029035,-0.004643,1.0779375,-0.0029035,0.0046429999999999,0.8660525,-0.4012905,-0.140569,1.1517125,-0.3979505,-0.117789,0.8462025,-0.7743605,-0.009189,1.1380825,-0.7744705,0.001208,1
167,1.03833,0.6797150000000001,-0.1034149999999999,0.853152,0.488855,-0.133475,0.717962,0.698675,-0.223905,1.200072,0.4765549999999999,-0.103105,1.355022,0.6861550000000001,-0.189685,0.703592,0.986095,-0.267515,1.379952,0.948585,-0.252675,0.922255,0.0029949999999999,-0.00501,1.077745,-0.002995,0.00501,0.863522,-0.3788749999999999,-0.170035,1.160632,-0.376765,-0.146285,0.847782,-0.749175,-0.024647,1.141102,-0.749335,-0.0133829999999999,1
168,1.0400535,0.67636,-0.1198355,0.8558295,0.48466,-0.1488855,0.7197795,0.69328,-0.2425054999999999,1.1999594999999998,0.47336,-0.1177155,1.3545895,0.6821,-0.2072554999999999,0.7078694999999999,0.97562,-0.2879355,1.3764495,0.94547,-0.2738555,0.9223505,0.0031299999999999,-0.0052595,1.0776495,-0.00313,0.0052595,0.8611795,-0.35786,-0.1979755,1.1691795,-0.35642,-0.1740054999999999,0.8492095,-0.72451,-0.0397485,1.1440895,-0.72457,-0.0276825,1
169,1.041926,0.674945,-0.1363495,0.858967,0.480025,-0.1646095,0.721357,0.689945,-0.2619695,1.199867,0.470645,-0.1325895,1.354527,0.680275,-0.2253595,0.7120569999999999,0.969935,-0.3089695,1.372837,0.944375,-0.2958695,0.922478,0.003015,-0.0053564999999999,1.077522,-0.0030149999999999,0.0053565,0.858457,-0.3342549999999999,-0.2268895,1.177847,-0.3334749999999999,-0.2027295,0.850557,-0.696655,-0.0549714999999999,1.147227,-0.697065,-0.0423535,1
170,1.043755,0.669755,-0.1517775,0.861955,0.476295,-0.1790475,0.723175,0.686125,-0.2803975,1.199705,0.468005,-0.1466675,1.354405,0.676365,-0.2433675,0.716545,0.965955,-0.3276575,1.369135,0.941485,-0.3171075,0.922964,0.003175,-0.0054494999999999,1.077036,-0.003175,0.0054494999999999,0.855715,-0.311675,-0.2543375,1.186145,-0.312115,-0.2301375,0.851395,-0.669825,-0.0694795,1.150215,-0.670605,-0.0557384999999999,1
171,1.0456635,0.667535,-0.1658805,0.8652225,0.473775,-0.1920105,0.7251225,0.684195,-0.2969605,1.2000325,0.464905,-0.1602605,1.3546925,0.674275,-0.2600705,0.7209924999999999,0.962075,-0.3454205,1.3666425,0.938285,-0.3365305,0.9231925,0.003365,-0.0054284999999999,1.0768075,-0.003365,0.0054285,0.8531225,-0.290975,-0.2803205,1.1940225,-0.291405,-0.2560705,0.8523324999999999,-0.6439349999999999,-0.0822565,1.1527325,-0.6453749999999999,-0.0675475,1
172,1.0475735,0.667255,-0.1794455,0.8686865,0.470935,-0.2046655,0.7273765,0.683635,-0.3127555,1.2005365,0.462715,-0.1734055,1.3551764999999998,0.672235,-0.2763355,0.7252865,0.957135,-0.3622355,1.3647565,0.934765,-0.3555455,0.9234165,0.003605,-0.0054074999999999,1.0765835,-0.0036049999999999,0.0054075,0.8500665000000001,-0.268775,-0.3057455,1.2022565,-0.2686349999999999,-0.2813155,0.8532565,-0.616935,-0.0943335,1.1552565,-0.6189049999999999,-0.0787025,1
173,1.049425,0.66655,-0.192379,0.872111,0.46926,-0.216659,0.729781,0.68394,-0.327389,1.2011109999999998,0.46125,-0.186639,1.355991,0.67125,-0.292409,0.7299810000000001,0.95294,-0.378599,1.363391,0.93144,-0.374259,0.923641,0.00379,-0.0053959999999999,1.076359,-0.00379,0.0053959999999999,0.846971,-0.24451,-0.330689,1.210081,-0.24402,-0.305769,0.854161,-0.58999,-0.1060369999999999,1.157681,-0.59253,-0.089827,1
174,1.051458,0.665825,-0.2034065,0.8753320000000001,0.467515,-0.2265565,0.732002,0.683855,-0.3399665,1.201542,0.460225,-0.1978765,1.357312,0.669065,-0.3059465,0.7345619999999999,0.949485,-0.3910565,1.362772,0.929365,-0.3908565,0.923942,0.003975,-0.0053065,1.076058,-0.003975,0.0053064999999999,0.8440719999999999,-0.221955,-0.3523865,1.217532,-0.220975,-0.3261565,0.8550920000000001,-0.564875,-0.1160155,1.160022,-0.567685,-0.0995015,1
175,1.0536545,0.66631,-0.2118765,0.8785125000000001,0.46693,-0.2330465,0.7341424999999999,0.68424,-0.3496765,1.2019224999999998,0.45916,-0.2062864999999999,1.3586325,0.66749,-0.3168765,0.7389924999999999,0.95143,-0.4001665,1.3625025,0.92869,-0.4046865,0.9241525,0.00413,-0.0049984999999999,1.0758475,-0.00413,0.0049984999999999,0.8407425,-0.1988799999999999,-0.3713565,1.2249625,-0.19709,-0.3437765,0.8558425000000001,-0.5387,-0.1229135,1.1625125,-0.54155,-0.1063655,1
176,1.055071,0.6638900000000001,-0.2161699999999999,0.8800340000000001,0.467352,-0.23575,0.735614,0.68142,-0.3555,1.202484,0.459698,-0.2099599999999999,1.359564,0.6623300000000001,-0.32415,0.742684,0.95435,-0.40542,1.362544,0.92525,-0.41432,0.924464,0.00398,-0.0049039999999999,1.0755359999999998,-0.0039799999999999,0.004904,0.8369139999999999,-0.18015,-0.3798,1.230034,-0.17745,-0.3513,0.8559140000000001,-0.51618,-0.125362,1.164184,-0.51924,-0.10874,1
177,1.056345,0.662165,-0.219289,0.8811510000000001,0.470668,-0.238139,0.736081,0.6811050000000001,-0.361269,1.202681,0.456879,-0.213169,1.360101,0.6603749999999999,-0.331229,0.7459910000000001,0.952305,-0.411589,1.363021,0.923035,-0.423629,0.924741,0.005145,-0.004853,1.075259,-0.005145,0.0048529999999999,0.832541,-0.1581149999999999,-0.388229,1.235221,-0.1543349999999999,-0.3589489999999999,0.8555910000000001,-0.4912749999999999,-0.127645,1.165341,-0.4949149999999999,-0.110758,1
178,1.0573469999999998,0.66057,-0.2209375,0.881838,0.470693,-0.2387975,0.736108,0.68022,-0.3649675,1.202678,0.456351,-0.2146974999999999,1.360418,0.6579699999999999,-0.3365575,0.7485280000000001,0.95017,-0.4161875,1.363378,0.92004,-0.4315575,0.924968,0.00483,-0.0047584999999999,1.075032,-0.00483,0.0047584999999999,0.8285279999999999,-0.1371699999999999,-0.3944375,1.239698,-0.1328999999999999,-0.3641574999999999,0.855208,-0.46684,-0.1286985,1.1661979999999998,-0.47112,-0.1113955,1
179,1.057773,0.662305,-0.222053,0.88208,0.471432,-0.239273,0.73603,0.679845,-0.368363,1.20256,0.456037,-0.215673,1.36074,0.656575,-0.340533,0.74897,0.949715,-0.419813,1.36329,0.917785,-0.438533,0.92518,0.004835,-0.004506,1.07482,-0.0048349999999999,0.0045059999999999,0.8240600000000001,-0.1174649999999999,-0.400213,1.24414,-0.1131149999999999,-0.369053,0.855,-0.4413049999999999,-0.129087,1.16598,-0.445585,-0.111302,1
180,1.058107,0.66162,-0.2224525,0.882332,0.471861,-0.2396725,0.735942,0.67901,-0.3711425,1.202332,0.457034,-0.2160825,1.361182,0.65474,-0.3436825,0.749612,0.94802,-0.4231725,1.363152,0.91181,-0.4444525,0.925412,0.0048199999999999,-0.0043484999999999,1.074588,-0.0048199999999999,0.0043485,0.819732,-0.0984899999999999,-0.4048025,1.248482,-0.09416,-0.3728125,0.854772,-0.41657,-0.1294374999999999,1.165742,-0.42085,-0.1112315,1
181,1.058562,0.660875,-0.2227965,0.882904,0.472216,-0.2400165,0.736144,0.676845,-0.3736265,1.202214,0.457276,-0.2164365,1.361834,0.652505,-0.3461065,0.750204,0.948565,-0.4261465,1.363594,0.907355,-0.4491365,0.925414,0.004725,-0.0042125,1.074586,-0.0047249999999999,0.0042124999999999,0.815974,-0.0812249999999999,-0.4082365,1.252864,-0.0763849999999999,-0.3755865,0.854774,-0.3932449999999999,-0.1295805,1.165734,-0.397525,-0.1110355,1
182,1.0587705,0.65976,-0.2230935,0.8832515000000001,0.4716,-0.2399035,0.7361715,0.67455,-0.3759435,1.2017215,0.457141,-0.2167535,1.3621915,0.65068,-0.3476635,0.7505014999999999,0.94741,-0.4295035,1.3640915,0.90875,-0.4524835,0.9254815,0.00482,-0.0041245,1.0745185,-0.0048199999999999,0.0041244999999999,0.8122715,-0.0658199999999999,-0.4105535,1.2566415,-0.0600699999999999,-0.3773935,0.8542215000000001,-0.3719699999999999,-0.1298925,1.1660915,-0.37693,-0.1113315,1
183,1.058725,0.6593,-0.2229685,0.883409,0.472039,-0.2393385,0.7361690000000001,0.67304,-0.3772885,1.201429,0.456839,-0.2166885,1.362369,0.65039,-0.3479985,0.750149,0.94744,-0.4325685,1.364769,0.90924,-0.4537685,0.925539,0.0049699999999999,-0.0040955,1.074461,-0.00497,0.0040955,0.809859,-0.05724,-0.4109385,1.259009,-0.05048,-0.3776885,0.8534790000000001,-0.35889,-0.1302424999999999,1.166269,-0.36427,-0.1113995,1
184,1.058414,0.658905,-0.2224935,0.8834120000000001,0.47257,-0.2385235,0.735942,0.672875,-0.3784035,1.201042,0.458018,-0.2166934999999999,1.362362,0.651935,-0.3484035,0.7495419999999999,0.945155,-0.4357335,1.365202,0.908905,-0.4541735,0.925482,0.004955,-0.0040504999999999,1.074518,-0.004955,0.0040504999999999,0.8080320000000001,-0.0516449999999999,-0.4113735,1.260612,-0.0442949999999999,-0.3780635,0.852612,-0.3511649999999999,-0.1306605,1.1662819999999998,-0.3566749999999999,-0.1112945,1
185,1.0582895,0.65873,-0.221557,0.8836335,0.4713610000000001,-0.237637,0.7359534999999999,0.6746900000000001,-0.378867,1.2008535,0.455577,-0.216167,1.3626235,0.6553900000000001,-0.348737,0.7486235,0.94118,-0.438477,1.3657935,0.91142,-0.454497,0.9252935,0.00518,-0.0040789999999999,1.0747065,-0.0051799999999999,0.0040789999999999,0.8072635,-0.0483999999999998,-0.411717,1.2617935,-0.0404899999999999,-0.378377,0.8520835,-0.3476599999999999,-0.1308409999999999,1.1669935,-0.3528999999999999,-0.111442,1
186,1.058189,0.65873,-0.221391,0.883941,0.4696010000000001,-0.237921,0.735651,0.6746900000000001,-0.3804909999999999,1.200481,0.455577,-0.216401,1.362871,0.6553900000000001,-0.349871,0.747391,0.94118,-0.4401609999999999,1.366141,0.91142,-0.456111,0.925301,0.00518,-0.003991,1.074699,-0.0051799999999999,0.0039909999999999,0.806211,-0.0483999999999998,-0.412661,1.261341,-0.0404899999999999,-0.379691,0.851001,-0.3483799999999999,-0.132299,1.167211,-0.3532499999999999,-0.112825,1
187,1.0584335,0.65873,-0.2213979999999999,0.8843385,0.4696010000000001,-0.239088,0.7351785,0.6746900000000001,-0.382678,1.2005385,0.455577,-0.2168479999999999,1.3636685,0.6553900000000001,-0.350778,0.7460085000000001,0.94118,-0.442358,1.3670585,0.91142,-0.458248,0.9253485,0.00518,-0.0040079999999999,1.0746515,-0.0051799999999999,0.004008,0.8050885,-0.0483999999999998,-0.413348,1.2602585,-0.0404899999999999,-0.380328,0.8499085,-0.3488999999999999,-0.1342249999999999,1.1673285,-0.3532499999999999,-0.114796,1
188,1.05864,0.65873,-0.222316,0.8845930000000001,0.4696010000000001,-0.240916,0.734853,0.6746900000000001,-0.385686,1.200483,0.455577,-0.218106,1.364173,0.6553900000000001,-0.351936,0.744373,0.94118,-0.445386,1.3683729999999998,0.91142,-0.459266,0.925333,0.00518,-0.0041479999999999,1.074667,-0.0051799999999999,0.0041479999999999,0.803783,-0.0483999999999998,-0.413536,1.258963,-0.0404899999999999,-0.381006,0.848633,-0.3493299999999999,-0.136566,1.167283,-0.3532499999999999,-0.117368,1
189,1.0593195,0.65911,-0.2238035,0.8852965,0.467041,-0.2431535,0.7350965,0.67506,-0.3884634999999999,1.2010565,0.4578949999999999,-0.2194535,1.3648265,0.6578299999999999,-0.3525034999999999,0.7433565,0.94665,-0.4491334999999999,1.3703265,0.91549,-0.4591134999999999,0.9253365,0.0040499999999999,-0.0043274999999999,1.0746635,-0.0040499999999999,0.0043274999999999,0.8033465,-0.04941,-0.4133035,1.2579165,-0.04174,-0.3807035,0.8476465,-0.35194,-0.1396365,1.1671465,-0.35581,-0.1203145,1
190,1.0602275,0.65808,-0.2253525,0.8860215,0.467119,-0.2457625,0.7354515000000001,0.67441,-0.3908825,1.2021015,0.457208,-0.2210625,1.3655015,0.65879,-0.3522025,0.7423315000000001,0.94774,-0.4526225,1.3723215,0.91587,-0.4579525,0.9253855,0.00458,-0.0047435,1.0746145,-0.00458,0.0047434999999999,0.8039415000000001,-0.05586,-0.4121325,1.2569515,-0.0479399999999999,-0.3798825,0.8465914999999999,-0.36146,-0.1435285,1.1668015,-0.3644499999999999,-0.1236865,1
191,1.0613575,0.657665,-0.226821,0.8868575,0.466012,-0.248881,0.7362275,0.672975,-0.392661,1.2034875,0.45613,-0.222491,1.3664175,0.660495,-0.351271,0.7414075,0.944075,-0.4559809999999999,1.3743975,0.916955,-0.455321,0.9255165,0.004525,-0.005207,1.0744835,-0.004525,0.005207,0.8058275,-0.065975,-0.409931,1.2545775,-0.0582449999999999,-0.378011,0.8455775,-0.376815,-0.147829,1.1661375,-0.378775,-0.12751,1
192,1.06223,0.661085,-0.2274205,0.8875990000000001,0.468126,-0.2512005,0.736909,0.6757350000000001,-0.3930405,1.204789,0.4576970000000001,-0.2227205,1.367549,0.6649750000000001,-0.3481205,0.739749,0.948355,-0.4562305,1.376049,0.926085,-0.4501805,0.926094,0.004455,-0.0056654999999999,1.073906,-0.0044549999999999,0.0056655,0.8082190000000001,-0.0800549999999999,-0.4072905,1.251189,-0.0724349999999999,-0.3757705,0.844509,-0.3976149999999999,-0.1520655,1.164879,-0.3983249999999999,-0.1312404999999999,1
193,1.0629835,0.66528,-0.2279455,0.8883355,0.4708699999999999,-0.2535455,0.7378055,0.6792499999999999,-0.3935355,1.2062455,0.461236,-0.2228955,1.3687055,0.67114,-0.3446755,0.7381154999999999,0.95075,-0.4567455,1.3778755,0.93183,-0.4454255,0.9266905,0.0041399999999999,-0.0059405,1.0733095,-0.00414,0.0059405,0.8111455000000001,-0.09509,-0.4054455,1.2468755,-0.08937,-0.3735855,0.8435055000000001,-0.42178,-0.1582095,1.1636255,-0.42107,-0.1353745,1
194,1.0635085,0.6665650000000001,-0.2293135,0.8888295000000002,0.467416,-0.2576334999999999,0.7384595,0.680955,-0.3945335,1.2076095,0.460365,-0.2242635,1.3698695,0.6761250000000001,-0.3421335,0.7367295,0.952775,-0.4569235,1.3801695,0.934535,-0.4406035,0.9268985,0.003655,-0.0064665,1.0731015,-0.0036549999999999,0.0064665,0.8156395000000001,-0.1155849999999999,-0.4011234999999999,1.2401095,-0.1118549999999999,-0.3689734999999999,0.8426195000000001,-0.453835,-0.1659185,1.1621695,-0.4512849999999999,-0.1409365,1
195,1.0631955,0.66842,-0.2293835,0.8886635,0.4682789999999999,-0.2594235,0.7387835,0.6810099999999999,-0.3945735,1.2081535,0.4614229999999999,-0.2237735,1.3704035,0.6779299999999999,-0.3389434999999999,0.7352434999999999,0.951,-0.4554635,1.3821935,0.9348,-0.4352835,0.9267535,0.0034699999999999,-0.0069464999999999,1.0732465,-0.00347,0.0069465,0.8201735,-0.13552,-0.3952135,1.2331135,-0.13397,-0.3630735,0.8419135,-0.4858300000000001,-0.1721404999999999,1.1605234999999998,-0.4811500000000001,-0.1450685,1
196,1.0621885,0.671485,-0.22868,0.8881585,0.46806,-0.2607399999999999,0.7389985,0.680195,-0.39304,1.2081385,0.4614169999999999,-0.22315,1.3702685,0.677655,-0.33413,0.7335385,0.949345,-0.4533399999999999,1.3835685,0.934435,-0.42843,0.9266635,0.003085,-0.00731,1.0733365,-0.003085,0.0073099999999999,0.8246785,-0.1553149999999999,-0.38837,1.2256485,-0.156255,-0.3561499999999999,0.8416185,-0.517275,-0.177401,1.1590785,-0.510385,-0.15094,1
197,1.061283,0.672725,-0.22779,0.887824,0.468585,-0.26134,0.739124,0.681465,-0.39108,1.208194,0.463935,-0.22182,1.370424,0.681285,-0.32902,0.7323240000000001,0.955175,-0.44955,1.384494,0.933475,-0.42232,0.926593,0.002755,-0.0074499999999999,1.073407,-0.002755,0.00745,0.829484,-0.1755949999999999,-0.38003,1.217794,-0.1792749999999999,-0.34768,0.8414340000000001,-0.548455,-0.182556,1.157294,-0.540425,-0.1555869999999999,1
198,1.059982,0.674215,-0.225945,0.8873530000000001,0.4685749999999999,-0.261665,0.738993,0.682805,-0.388995,1.208373,0.464045,-0.220794,1.370293,0.683235,-0.324045,0.731133,0.954435,-0.446175,1.384983,0.937825,-0.416345,0.926674,0.0024549999999999,-0.0075549999999999,1.073326,-0.0024549999999999,0.007555,0.833863,-0.194965,-0.371035,1.210173,-0.2008549999999999,-0.338485,0.840963,-0.577115,-0.18714,1.155903,-0.5685849999999999,-0.159626,1
199,1.0585669999999998,0.6726099999999999,-0.222406,0.886668,0.47036,-0.26013,0.738678,0.68348,-0.38543,1.2080179999999998,0.46631,-0.217918,1.370468,0.68606,-0.3180199999999999,0.729668,0.9543,-0.4413499999999999,1.385298,0.93894,-0.40947,0.926688,0.00201,-0.0068799999999999,1.073312,-0.00201,0.0068799999999999,0.8375779999999999,-0.21516,-0.35887,1.202098,-0.22327,-0.32603,0.840238,-0.6063099999999999,-0.190734,1.154198,-0.5994900000000001,-0.1621389999999999,1
200,1.0573275,0.67403,-0.219704,0.8859995,0.47272,-0.258175,0.7381595000000001,0.68521,-0.3817549999999999,1.2074495,0.46829,-0.215562,1.3705395,0.68918,-0.312975,0.7283895,0.96118,-0.436235,1.3857295,0.93812,-0.403225,0.9266575,0.0019399999999999,-0.006465,1.0733425,-0.0019399999999999,0.0064649999999999,0.8404995,-0.23397,-0.3465249999999999,1.1948595,-0.24411,-0.313615,0.8395295,-0.63307,-0.194541,1.1522795,-0.6289,-0.164324,1
201,1.056179,0.671615,-0.216442,0.885177,0.474415,-0.2567,0.737797,0.6863049999999999,-0.37834,1.206677,0.467145,-0.214487,1.370167,0.691335,-0.30929,0.7268669999999999,0.961725,-0.43376,1.386297,0.932155,-0.39824,0.926359,0.001945,-0.00604,1.073641,-0.001945,0.0060399999999999,0.843137,-0.250795,-0.33403,1.187907,-0.263495,-0.30037,0.8391370000000001,-0.6569349999999999,-0.198192,1.150777,-0.6547649999999999,-0.166427,1
202,1.054473,0.6677299999999999,-0.212918,0.8840270000000001,0.4716599999999999,-0.25439,0.737087,0.6868099999999999,-0.37383,1.2054969999999998,0.4671,-0.21225,1.369577,0.69124,-0.30533,0.724757,0.96198,-0.43035,1.386447,0.93491,-0.39218,0.926297,0.0016999999999999,-0.0056799999999999,1.073703,-0.0017,0.0056799999999999,0.845367,-0.26985,-0.31793,1.1805169999999998,-0.28346,-0.28413,0.838577,-0.68142,-0.199683,1.1484869999999998,-0.68264,-0.167428,1
203,1.0523794999999998,0.66693,-0.2070179999999999,0.8828515,0.47377,-0.2489949999999999,0.7368515,0.68899,-0.3671449999999999,1.2041815,0.47157,-0.2076879999999999,1.3688715,0.69388,-0.298855,0.7231415,0.96494,-0.4251649999999999,1.3861415,0.93884,-0.385325,0.9263825,0.00113,-0.0049549999999999,1.0736175,-0.0011299999999999,0.004955,0.8463215,-0.28524,-0.302625,1.1745315,-0.29904,-0.2681449999999999,0.8378215,-0.7006600000000001,-0.1985529999999999,1.1462215,-0.7044900000000001,-0.165424,1
204,1.0499525,0.66549,-0.2001049999999999,0.8812935000000001,0.47045,-0.244035,0.7369535,0.69213,-0.358085,1.2026235,0.4751999999999999,-0.203174,1.3676635,0.6998,-0.291765,0.7209335,0.9705,-0.4189049999999999,1.3855735,0.94569,-0.3770449999999999,0.9264305,0.0003499999999999,-0.0044749999999999,1.0735695,-0.00035,0.004475,0.8468635,-0.29888,-0.287215,1.1684135,-0.31317,-0.251475,0.8368635,-0.7176,-0.195765,1.1437635,-0.72438,-0.1629769999999999,1
205,1.0474135,0.66161,-0.193178,0.8794855,0.46728,-0.238705,0.7371155,0.69418,-0.349465,1.2008055,0.48069,-0.198218,1.3662155,0.70548,-0.285595,0.7184155,0.97647,-0.412175,1.3847954999999998,0.95274,-0.369445,0.9263325,-0.0003,-0.004475,1.0736675,0.0002999999999999,0.0044749999999999,0.8473555,-0.31311,-0.270805,1.1623355,-0.32744,-0.234965,0.8354555000000001,-0.73468,-0.189728,1.1411855,-0.7443,-0.158664,1
206,1.0450595,0.6613595,-0.186658,0.8772115,0.4633795,-0.232482,0.7356615,0.6966595,-0.34022,1.1987715,0.4869995,-0.193373,1.3641715,0.7116095,-0.27944,0.7156715,0.9794995,-0.40386,1.3839115,0.9606095,-0.36158,0.9263715,-0.0011034999999999,-0.00448,1.0736285,0.0011034999999999,0.0044799999999999,0.8471415,-0.3335705,-0.25455,1.1560415,-0.3451905,-0.218853,0.8336515000000001,-0.7502305,-0.183094,1.1381315,-0.7604305,-0.153847,1
207,1.0425464999999998,0.6669235,-0.18056,0.8744115,0.4604735,-0.225203,0.7343115,0.6983435,-0.329955,1.1964115,0.4948435,-0.187891,1.3619515,0.7170435,-0.272355,0.7127715,0.9843235,-0.395355,1.3829715,0.9594835,-0.352675,0.9262435,-0.0019104999999999,-0.004225,1.0737565,0.0019104999999999,0.004225,0.8471715000000001,-0.3529965,-0.237378,1.1492915,-0.3627765,-0.20199,0.8317114999999999,-0.7656665,-0.175676,1.1350315,-0.7755965,-0.148201,1
208,1.039917,0.6760965,-0.169844,0.8713790000000001,0.4557965,-0.2126279999999999,0.733039,0.7017565,-0.31426,1.193799,0.5006065,-0.177793,1.359839,0.7237465000000001,-0.25977,0.7105790000000001,0.9895065,-0.38147,1.381869,0.9633265,-0.33762,0.92607,-0.0021465,-0.00314,1.07393,0.0021465,0.00314,0.847379,-0.3681435,-0.215745,1.142719,-0.3779235,-0.180288,0.829249,-0.7788335,-0.16332,1.131949,-0.7866335,-0.136041,1
209,1.0371995,0.6812145,-0.154619,0.8676605,0.4615845,-0.195577,0.7316905,0.7060445,-0.294825,1.1926605,0.5051945,-0.161293,1.3576005,0.7238945,-0.242605,0.7077905,0.9935945,-0.362205,1.3805705,0.9715145,-0.316905,0.9260065,-0.0021134999999999,-0.0024549999999999,1.0739935,0.0021134999999999,0.0024549999999999,0.8485805,-0.3883455,-0.187766,1.1351805,-0.3978855,-0.153083,0.8269105,-0.7977755,-0.145903,1.1286505,-0.8024055,-0.119192,1
210,1.0345285,0.686811,-0.140141,0.8640035,0.465221,-0.1786269999999999,0.7306235,0.708521,-0.27578,1.1913835,0.5103610000000001,-0.144546,1.3550935,0.722891,-0.2259,0.7049135,0.996751,-0.34257,1.3790635,0.979691,-0.29697,0.9258645,-0.002086,-0.00186,1.0741355,0.0020859999999999,0.00186,0.8497635,-0.408559,-0.159924,1.1276635,-0.416689,-0.127218,0.8246135,-0.815869,-0.128236,1.1253735,-0.818079,-0.102548,1
211,1.0326015,0.6938004999999999,-0.1256425,0.8608395,0.4727705,-0.1621044999999999,0.7301095,0.7118804999999999,-0.2562744999999999,1.1907595,0.5127505,-0.1286265,1.3530395,0.7236205,-0.2088045,0.7026895,1.0018405,-0.3218945,1.3779495,0.9811105,-0.2770145,0.9253195,-0.0016635,-0.0014055,1.0746805,0.0016635,0.0014055,0.8516295,-0.4267495,-0.1341515,1.1211795,-0.4320195,-0.1044105,0.8226895000000001,-0.8307095,-0.1115785,1.1218995,-0.8300295000000001,-0.0862035,1
212,1.0308335,0.700804,-0.1116815,0.8581955,0.481854,-0.1457665,0.7294155,0.715974,-0.2371125,1.1904855,0.515004,-0.1127944999999999,1.3511355,0.7229340000000001,-0.1923325,0.7004455,1.006834,-0.3012025,1.3769955,0.983564,-0.2569225,0.9249685,-0.0007649999999999,-0.0007344999999999,1.0750315,0.000765,0.0007344999999999,0.8536055000000001,-0.444426,-0.1092195,1.1156855,-0.4463359999999999,-0.0836515,0.8212155,-0.8438359999999999,-0.0948165,1.1186455,-0.841546,-0.0707105,1
213,1.029798,0.708368,-0.0980315,0.855626,0.492098,-0.1280015,0.728656,0.720498,-0.2189975,1.190386,0.516448,-0.0974745,1.349576,0.721288,-0.1762785,0.698366,1.012328,-0.2799275,1.376106,0.978228,-0.2375275,0.924804,-9.599999999999886e-05,-0.0002265,1.075196,9.600000000000232e-05,0.0002265,0.855396,-0.460752,-0.0859855,1.110906,-0.458772,-0.0645565,0.820286,-0.855242,-0.0792425,1.115636,-0.851372,-0.0556245,1
