sb224sc-HT22-VT27/4dt907/src/data/labeled_files/A159_kinect.csv
FrameNo,nose_3d_x,nose_3d_y,nose_3d_z,left_shoulder_3d_x,left_shoulder_3d_y,left_shoulder_3d_z,left_elbow_3d_x,left_elbow_3d_y,left_elbow_3d_z,right_shoulder_3d_x,right_shoulder_3d_y,right_shoulder_3d_z,right_elbow_3d_x,right_elbow_3d_y,right_elbow_3d_z,left_wrist_3d_x,left_wrist_3d_y,left_wrist_3d_z,right_wrist_3d_x,right_wrist_3d_y,right_wrist_3d_z,left_hip_3d_x,left_hip_3d_y,left_hip_3d_z,right_hip_3d_x,right_hip_3d_y,right_hip_3d_z,left_knee_3d_x,left_knee_3d_y,left_knee_3d_z,right_knee_3d_x,right_knee_3d_y,right_knee_3d_z,left_ankle_3d_x,left_ankle_3d_y,left_ankle_3d_z,right_ankle_3d_x,right_ankle_3d_y,right_ankle_3d_z,activity_label
0,-0.0270115,0.7520815,-0.0319029999999999,-0.1987674999999999,0.4883415,-0.0312519999999999,-0.2462375,0.2141915,-0.00025,0.1535524999999999,0.4907415,-0.0449,0.2211325,0.2208815,-0.0029309999999999,-0.2389875,-0.0259814999999999,-0.071611,0.2371225,-0.0205865,-0.0805309999999999,-0.0791815,-0.0026625,0.000167,0.0791815,0.0026625,-0.000167,-0.1224475,-0.4489185,0.040154,0.1361525,-0.4578284999999999,0.047698,-0.1612075,-0.8309685,0.081426,0.1836525,-0.8374585,0.083531,0
1,-0.0270355,0.7521065,-0.0318155,-0.1988415,0.4885865,-0.0313914999999999,-0.2463815,0.2143065,-0.0002634999999999,0.1534685,0.4908464999999999,-0.0449125,0.2210885,0.2209965,-0.0029445,-0.2391315,-0.0262815,-0.0721025,0.2371685,-0.0204174999999999,-0.0804425,-0.0791815,-0.0026655,0.0001675,0.0791815,0.0026655,-0.0001675,-0.1226915,-0.4493435,0.0401855,0.1361684999999999,-0.4578635,0.0477164999999999,-0.1613215,-0.8316035,0.0814324999999999,0.1836585,-0.8374935,0.0835235,0
2,-0.0270475,0.752034,-0.0316989999999999,-0.1985665,0.488514,-0.0316429999999999,-0.2465365,0.213884,-0.0006159999999999,0.1535735,0.490874,-0.044852,0.2210534999999999,0.220964,-0.0027949999999999,-0.2393165,-0.0262449999999999,-0.072056,0.2372635,-0.0202579999999999,-0.080806,-0.0791895,-0.002667,0.0001729999999999,0.0791895,0.002667,-0.0001729999999999,-0.1226565,-0.448806,0.040023,0.1361935,-0.4578959999999999,0.047808,-0.1615765,-0.831776,0.081099,0.1833935,-0.8381759999999999,0.08359,0
3,-0.026955,0.7518085,-0.031802,-0.198195,0.4882385,-0.032227,-0.246645,0.2137085,-0.0006839999999999,0.153595,0.4908485,-0.044912,0.220985,0.2210085,-0.0028709999999999,-0.239465,-0.0261055,-0.072804,0.237385,-0.0197425,-0.0808039999999999,-0.079188,-0.0026875,0.000139,0.079188,0.0026875,-0.000139,-0.122665,-0.4488215,0.039993,0.136285,-0.4578915,0.047774,-0.162005,-0.8319315,0.080732,0.183645,-0.8385015,0.083172,0
4,-0.0270115,0.75216,-0.0314305,-0.1979855,0.48835,-0.0325345,-0.2467355,0.21363,-0.0007214999999999,0.1535645,0.49092,-0.0452985,0.2210145,0.22106,-0.0029575,-0.2400655,-0.025948,-0.0729085,0.2375145,-0.019529,-0.0809285,-0.0792055,-0.002672,0.0001444999999999,0.0792055,0.002672,-0.0001444999999999,-0.1225355,-0.4486,0.0401415,0.1364545,-0.45719,0.0478694999999999,-0.1623055,-0.83083,0.0810245,0.1836545,-0.83965,0.0828835,0
5,-0.0270319999999999,0.7520739999999999,-0.03149,-0.197969,0.488604,-0.032432,-0.246739,0.2135739999999999,-0.000787,0.153541,0.490904,-0.04536,0.2210109999999999,0.221054,-0.0029689999999999,-0.240469,-0.025561,-0.073651,0.2375509999999999,-0.0194909999999999,-0.080941,-0.079201,-0.0026739999999999,0.000174,0.079201,0.002674,-0.000174,-0.122579,-0.448596,0.040133,0.136341,-0.456216,0.047604,-0.162419,-0.831126,0.080682,0.183311,-0.840076,0.083455,0
6,-0.0271464999999999,0.7524,-0.0312235,-0.1981745,0.48861,-0.0323875,-0.2469744999999999,0.21358,-0.0010814999999999,0.1532855,0.49091,-0.0454374999999999,0.2208555,0.22154,-0.0031074999999999,-0.2409645,-0.025421,-0.0734315,0.2375755,-0.019505,-0.0813515,-0.0791655,-0.002744,0.0001325,0.0791655,0.002744,-0.0001324999999999,-0.1227444999999999,-0.44859,0.0402155,0.1360555,-0.45737,0.0480455,-0.1626145,-0.83097,0.0811535,0.1833455,-0.8395600000000001,0.0834125,0
7,-0.027281,0.75212,-0.0313684999999999,-0.198299,0.48863,-0.0323345,-0.246899,0.2137899999999999,-0.0008894999999999,0.153271,0.49093,-0.0453605,0.220911,0.2213999999999999,-0.0032024999999999,-0.240889,-0.02537,-0.0730615,0.237671,-0.019723,-0.0820215,-0.079171,-0.002749,0.0002015,0.079171,0.002749,-0.0002014999999999,-0.122579,-0.44868,0.0402365,0.136131,-0.4564,0.0477525,-0.162229,-0.83113,0.0812755,0.183491,-0.83958,0.0837495,0
8,-0.0273724999999999,0.7521405,-0.0313144999999999,-0.1983125,0.4886405,-0.0323384999999999,-0.2469425,0.2137505,-0.0009314999999999,0.1532175,0.4909205,-0.0454285,0.2208975,0.2213805,-0.0032884999999999,-0.2411525,-0.0252335,-0.0731815,0.2377475,-0.0197425,-0.0823515,-0.0791735,-0.0027654999999999,0.0002045,0.0791735,0.0027655,-0.0002044999999999,-0.1225524999999999,-0.4486695,0.0402625,0.1361475,-0.4563495,0.0477615,-0.1622625,-0.8311295,0.0812675,0.1834775,-0.8397095,0.0837275,0
9,-0.0274894999999999,0.752154,-0.0312755,-0.1983125,0.488654,-0.0323474999999999,-0.2469525,0.213724,-0.0009804999999999,0.1531675,0.490894,-0.0454734999999999,0.2208975,0.221394,-0.0033844999999999,-0.2413225,-0.025075,-0.0732805,0.2378375,-0.019769,-0.0827005,-0.0791735,-0.002788,0.0002134999999999,0.0791735,0.002788,-0.0002134999999999,-0.1225024999999999,-0.448696,0.0402845,0.1361775,-0.456376,0.0477685,-0.1622825,-0.831156,0.0812295,0.1834875,-0.839876,0.0836685,0
10,-0.027651,0.7521620000000001,-0.031213,-0.19833,0.488642,-0.0323819999999999,-0.24697,0.213702,-0.0010509999999999,0.15311,0.490842,-0.0455379999999999,0.22091,0.221442,-0.0036169999999999,-0.2415,-0.024949,-0.073395,0.238,-0.019988,-0.083375,-0.079174,-0.002808,0.000245,0.079174,0.002808,-0.0002449999999999,-0.12247,-0.448748,0.040304,0.13624,-0.456428,0.047759,-0.16231,-0.831208,0.081217,0.1835099999999999,-0.839958,0.083565,0
11,-0.0278485,0.752179,-0.031066,-0.1983655,0.488639,-0.032382,-0.2470755,0.213719,-0.001302,0.1529645,0.490799,-0.045716,0.2212945,0.221489,-0.004622,-0.2416755,-0.0248299999999999,-0.073602,0.2384645,-0.01999,-0.084412,-0.0791755,-0.002825,0.0002709999999999,0.0791755,0.002825,-0.000271,-0.1224455,-0.448791,0.040302,0.1362845,-0.456471,0.047746,-0.1623455,-0.831251,0.081199,0.1835245,-0.840051,0.083505,0
12,-0.028078,0.7522,-0.030862,-0.198351,0.4886799999999999,-0.0322679999999999,-0.247411,0.21382,-0.0021609999999999,0.152799,0.4907899999999999,-0.045946,0.222499,0.22151,-0.0073629999999999,-0.243141,-0.0245589999999999,-0.0756169999999999,0.2399089999999999,-0.0200149999999999,-0.086827,-0.0791719999999999,-0.002838,0.000304,0.0791719999999999,0.002838,-0.0003039999999999,-0.122401,-0.44883,0.040273,0.136349,-0.45652,0.047695,-0.162341,-0.83133,0.081127,0.183559,-0.8400799999999999,0.083437,0
13,-0.028429,0.7522089999999999,-0.030403,-0.198291,0.488709,-0.032151,-0.248631,0.2145089999999999,-0.004616,0.1525989999999999,0.490789,-0.046083,0.224409,0.222049,-0.011962,-0.246021,-0.0240659999999999,-0.080091,0.2437089999999999,-0.020038,-0.0924209999999999,-0.079174,-0.002848,0.0003569999999999,0.079174,0.002848,-0.000357,-0.122331,-0.448911,0.040233,0.136459,-0.456551,0.047642,-0.162291,-0.831531,0.081023,0.183619,-0.840121,0.083298,0
14,-0.0288065,0.7522085,-0.0296005,-0.1982064999999999,0.4887485,-0.0319975,-0.2518365,0.2165985,-0.0100585,0.1522935,0.4907985,-0.0462225,0.2272235,0.2244084999999999,-0.0192955,-0.2522165,-0.0195605,-0.0886305,0.2498135,-0.0198245,-0.1041405,-0.0791834999999999,-0.0028564999999999,0.0004044999999999,0.0791834999999999,0.0028565,-0.0004045,-0.1222465,-0.4490115,0.0401664999999999,0.1366135,-0.4564715,0.0475055,-0.1622465,-0.8317815000000001,0.0808835,0.1837335,-0.8402415000000001,0.0832644999999999,0
15,-0.0292065,0.7522760000000001,-0.0282405,-0.1980894999999999,0.488816,-0.0317844999999999,-0.2562095,0.220106,-0.0175755,0.1518804999999999,0.490786,-0.0463945,0.2310904999999999,0.229156,-0.0286944999999999,-0.2608495,-0.013621,-0.1025204999999999,0.2582505,-0.015975,-0.1214705,-0.0792035,-0.00287,0.0004555,0.0792035,0.00287,-0.0004554999999999,-0.1221295,-0.449094,0.0401105,0.1368105,-0.456414,0.0473455,-0.1621895,-0.832044,0.0806825,0.1838805,-0.8403539999999999,0.0831295,0
16,-0.029713,0.752382,-0.0261815,-0.197905,0.488862,-0.0315434999999999,-0.262665,0.227662,-0.0281785,0.151385,0.490852,-0.0466495,0.235675,0.236722,-0.0408465,-0.271905,-0.001196,-0.1201575,0.2687549999999999,-0.006346,-0.1441975,-0.079238,-0.002901,0.0005215,0.079238,0.002901,-0.0005215,-0.121985,-0.449228,0.0399585,0.137065,-0.456648,0.0471085,-0.1621449999999999,-0.832388,0.0803774999999999,0.184025,-0.840538,0.0828425,0
17,-0.030315,0.752703,-0.0228125,-0.197635,0.488923,-0.0307985,-0.2725349999999999,0.2415729999999999,-0.0437484999999999,0.1507549999999999,0.491323,-0.0464985,0.242425,0.249383,-0.0577255,-0.289815,0.023105,-0.1470135,0.281575,0.020147,-0.1743635,-0.079294,-0.002936,0.0006224999999999,0.079294,0.002936,-0.0006225,-0.121845,-0.449437,0.0397374999999999,0.137375,-0.456877,0.0467295,-0.162055,-0.8328169999999999,0.0798905,0.184245,-0.840877,0.0824145,0
18,-0.030836,0.753021,-0.0189785,-0.197248,0.489151,-0.0297365,-0.283278,0.256791,-0.0595965,0.150132,0.491961,-0.0460255,0.2496219999999999,0.263871,-0.0760275,-0.310498,0.057283,-0.1778375,0.296512,0.057148,-0.2076775,-0.07935,-0.002974,0.0007204999999999,0.07935,0.002974,-0.0007204999999999,-0.1216579999999999,-0.449739,0.0394715,0.137712,-0.457129,0.0462785,-0.161928,-0.833349,0.0793445,0.184532,-0.841079,0.0818484999999999,0
19,-0.0312774999999999,0.7532565,-0.0146454999999999,-0.1968095,0.4894564999999999,-0.0285414999999999,-0.2951995,0.2747564999999999,-0.0763145,0.1494805,0.4928265,-0.0452915,0.2584305,0.2838865,-0.0969444999999999,-0.3330795,0.0992005,-0.2104645,0.3118105,0.0983145,-0.2436145,-0.0793955,-0.0030275,0.0007965,0.0793955,0.0030275,-0.0007964999999999,-0.1215094999999999,-0.4501635,0.0391745,0.1380805,-0.4574035,0.0457925,-0.1617695,-0.8340435,0.0786575,0.1848005,-0.8414135,0.0812515,0
20,-0.0317035,0.7532209999999999,-0.0098514999999999,-0.1963405,0.490031,-0.0268054999999999,-0.3082405,0.297541,-0.0940005,0.1489895,0.493851,-0.0443274999999999,0.2671195,0.308331,-0.1181705,-0.3582105,0.145971,-0.2434905,0.3266795,0.147941,-0.2806005,-0.0794315,-0.003107,0.0009405,0.0794315,0.003107,-0.0009404999999999,-0.1213605,-0.4508689999999999,0.0389355,0.1384595,-0.458039,0.0453085,-0.1616004999999999,-0.835009,0.0779775,0.1850994999999999,-0.842059,0.0806555,0
21,-0.03205,0.7530290000000001,-0.004805,-0.195828,0.490689,-0.024861,-0.321808,0.324239,-0.11127,0.148802,0.494989,-0.043037,0.275152,0.334119,-0.13809,-0.381828,0.201179,-0.27399,0.339752,0.2047189999999999,-0.3161899999999999,-0.07946,-0.003179,0.0011289999999999,0.07946,0.003179,-0.0011289999999999,-0.121228,-0.451791,0.038824,0.138862,-0.458891,0.04489,-0.161408,-0.8361409999999999,0.077376,0.185432,-0.8429009999999999,0.08022,0
22,-0.0321725,0.7523465,0.0001644999999999,-0.1952114999999999,0.4915764999999999,-0.0226304999999999,-0.3366015,0.3593765,-0.1259645,0.1488284999999999,0.4966465,-0.0412854999999999,0.2828185,0.3699464999999999,-0.1553345,-0.4037115,0.2738465,-0.2988145,0.3495385,0.2815264999999999,-0.3460245,-0.0794715,-0.0031704999999999,0.0013195,0.0794715,0.0031704999999999,-0.0013195,-0.1211015,-0.4531735,0.0387944999999999,0.1392985,-0.4599435,0.0445365,-0.1611415,-0.8376835,0.0768125,0.1857585,-0.8442635000000001,0.0798805,0
23,-0.0322205,0.7512515,0.0046855,-0.1945865,0.4926015,-0.0204795,-0.3471765,0.3959315,-0.1343485,0.1490835,0.4993714999999999,-0.0391615,0.2898435,0.4079115,-0.1704385,-0.4209065,0.3499415,-0.3146185,0.3557835,0.3648215,-0.3667085,-0.0794525,-0.0031794999999999,0.0015375,0.0794525,0.0031795,-0.0015375,-0.1209465,-0.4549885,0.0387585,0.1397535,-0.4613285,0.0441785,-0.1608065,-0.8396285,0.0762225,0.1861335,-0.8460785000000001,0.0795735,0
24,-0.03207,0.7496619999999999,0.008493,-0.194009,0.493712,-0.01842,-0.356109,0.434702,-0.139914,0.149651,0.502482,-0.037113,0.2959009999999999,0.448702,-0.183094,-0.434369,0.431152,-0.3219539999999999,0.358761,0.451482,-0.378164,-0.0794209999999999,-0.0032039999999999,0.001778,0.0794209999999999,0.003204,-0.001778,-0.120699,-0.457238,0.038761,0.140321,-0.4630479999999999,0.043901,-0.160379,-0.8419880000000001,0.075685,0.186681,-0.848288,0.079376,0
25,-0.031744,0.748023,0.0113955,-0.19341,0.494983,-0.0163464999999999,-0.36347,0.473433,-0.1416685,0.15025,0.505493,-0.0353204999999999,0.30161,0.488463,-0.1914285,-0.44463,0.512643,-0.3232285,0.3595399999999999,0.537143,-0.3825485,-0.079382,-0.0032,0.0020085,0.079382,0.0031999999999999,-0.0020085,-0.12042,-0.459667,0.0388765,0.14092,-0.465017,0.0437015,-0.15992,-0.844537,0.0752275,0.18725,-0.850717,0.0792625,0
26,-0.0312999999999999,0.7460205,0.0124789999999999,-0.192794,0.4967705,-0.015113,-0.367314,0.5082004999999999,-0.141849,0.150866,0.5083205,-0.034182,0.305276,0.5264504999999999,-0.192899,-0.447244,0.5858905,-0.323409,0.360156,0.6118905,-0.382729,-0.0793099999999999,-0.0031905,0.0020939999999999,0.0793099999999999,0.0031904999999999,-0.002094,-0.1201339999999999,-0.4622195,0.0390569999999999,0.141536,-0.4671195,0.043587,-0.159444,-0.8472095000000001,0.074874,0.1878159999999999,-0.8532595000000001,0.0791979999999999,0
27,-0.030854,0.744075,0.0127564999999999,-0.192093,0.498715,-0.0141505,-0.3696129999999999,0.542285,-0.1420354999999999,0.1517069999999999,0.511365,-0.0335475,0.306677,0.565995,-0.1930954999999999,-0.446533,0.650445,-0.3235955,0.360867,0.680375,-0.3829155,-0.079211,-0.0031779999999999,0.0020864999999999,0.079211,0.003178,-0.0020865,-0.119823,-0.464905,0.0392355,0.142237,-0.469465,0.0434595,-0.158883,-0.850125,0.0745165,0.188497,-0.856115,0.0791014999999999,0
28,-0.0304105,0.742093,0.0125759999999999,-0.1916795,0.501233,-0.013422,-0.3699495,0.578693,-0.142216,0.1527204999999999,0.514823,-0.033344,0.3074405,0.601253,-0.193276,-0.4457695,0.713263,-0.323776,0.3616304999999999,0.747503,-0.383096,-0.0791005,-0.003126,0.0020279999999999,0.0791005,0.003126,-0.002028,-0.1194995,-0.467637,0.039434,0.1429605,-0.471927,0.0433049999999999,-0.1582595,-0.853157,0.074208,0.1892904999999999,-0.858997,0.078943,0
29,-0.029968,0.740186,0.012455,-0.19133,0.503806,-0.013196,-0.36914,0.611166,-0.138467,0.15397,0.518116,-0.033371,0.30825,0.634286,-0.1933969999999999,-0.44495,0.7723260000000001,-0.313477,0.35973,0.810166,-0.375347,-0.0789769999999999,-0.003053,0.001917,0.0789769999999999,0.003053,-0.0019169999999999,-0.11915,-0.470234,0.039685,0.1437,-0.474394,0.043221,-0.1576,-0.856164,0.074004,0.1901,-0.861694,0.078868,0
30,-0.0295685,0.7382125,0.012368,-0.1912575,0.5066825,-0.013123,-0.3682675,0.6405725,-0.134005,0.1553525,0.5212625000000001,-0.033459,0.3091125,0.6673225,-0.191485,-0.4435375,0.8240825,-0.294585,0.3555325,0.8659525,-0.362125,-0.0788285,-0.0029875,0.001829,0.0788285,0.0029875,-0.001829,-0.1187975,-0.4728875,0.039995,0.1444725,-0.4770575,0.04317,-0.1568775,-0.8592675,0.073869,0.1909624999999999,-0.8645775,0.07878,0
31,-0.0291965,0.73643,0.0114825,-0.1912835,0.5094500000000001,-0.0130475,-0.3673235,0.6621,-0.1268065,0.1568965,0.52384,-0.0335415,0.3086565,0.69028,-0.1859365,-0.4394635,0.8579800000000001,-0.2710965,0.3504865,0.90331,-0.3408765,-0.0786425,-0.0029889999999999,0.0017714999999999,0.0786425,0.002989,-0.0017715,-0.1184235,-0.47524,0.0404174999999999,0.1452665,-0.47974,0.0432135,-0.1560835,-0.86231,0.0737875,0.1919664999999999,-0.8672799999999999,0.0787414999999999,0
32,-0.0288775,0.7350525,0.0096484999999999,-0.1913794999999999,0.5121724999999999,-0.0129925,-0.3658995,0.6813224999999999,-0.1179235,0.1584205,0.5254424999999999,-0.0335985,0.3077105,0.7098224999999999,-0.1780534999999999,-0.4327094999999999,0.8850325,-0.2458635,0.3453105,0.9357425,-0.3158835,-0.0784725,-0.0029645,0.0017424999999999,0.0784725,0.0029644999999999,-0.0017425,-0.1180494999999999,-0.4771375,0.0408945,0.1460205,-0.4821775,0.0433044999999999,-0.1552795,-0.8649975000000001,0.0737305,0.1929104999999999,-0.8699675,0.0787465,0
33,-0.02865,0.7340615,0.0074214999999999,-0.191667,0.5148215,-0.0128715,-0.363607,0.6973715,-0.1082175,0.1595929999999999,0.5266115,-0.0338575,0.305803,0.7244815,-0.1701475,-0.425867,0.9061515,-0.2202575,0.340743,0.9613315,-0.2897175,-0.078303,-0.0028845,0.0016994999999999,0.078303,0.0028844999999999,-0.0016995,-0.117797,-0.4786585,0.0414325,0.1466329999999999,-0.4843285,0.0434175,-0.154517,-0.8673785,0.0736965,0.193773,-0.8720785,0.0787715,0
34,-0.0284714999999999,0.732984,0.004684,-0.1919575,0.517264,-0.0129619999999999,-0.3590275,0.709654,-0.099109,0.1606725,0.5278039999999999,-0.034603,0.3041824999999999,0.7375039999999999,-0.161629,-0.4187675,0.920884,-0.1970789999999999,0.3371725,0.981974,-0.265119,-0.0781175,-0.0028119999999999,0.0015849999999999,0.0781175,0.002812,-0.0015849999999999,-0.1175875,-0.479966,0.041893,0.1472325,-0.4864259999999999,0.043494,-0.1537575,-0.8696360000000001,0.073605,0.1947225,-0.8740260000000001,0.078681,0
35,-0.0282325,0.7319865,0.0018454999999999,-0.1922965,0.5192365,-0.0131265,-0.3563364999999999,0.7196865,-0.0930645,0.1616635,0.5287265,-0.0356845,0.3016434999999999,0.7471065,-0.1530145,-0.4128865,0.9327465,-0.1765545,0.3346135,0.9966565,-0.2425044999999999,-0.0779415,-0.0027264999999999,0.0014204999999999,0.0779415,0.0027264999999999,-0.0014205,-0.1173565,-0.4811134999999999,0.0422434999999999,0.1478235,-0.4883935,0.0436045,-0.1530065,-0.8716835,0.0734715,0.1956335,-0.8758435,0.0786014999999999,0
36,-0.0279919999999999,0.7308749999999999,-0.0009354999999999,-0.192612,0.520895,-0.0134075,-0.353662,0.729155,-0.0874465,0.162398,0.5292049999999999,-0.0366935,0.298918,0.7532249999999999,-0.1441865,-0.407522,0.943245,-0.1591465,0.332958,1.007005,-0.2228065,-0.077783,-0.002624,0.0012034999999999,0.077783,0.002624,-0.0012034999999999,-0.117172,-0.4820149999999999,0.0424845,0.148268,-0.490085,0.0436435,-0.152362,-0.8735050000000001,0.0732875,0.196428,-0.877525,0.0784145,0
37,-0.0278019999999999,0.729847,-0.0036545,-0.1926949999999999,0.521957,-0.0136375,-0.3512349999999999,0.733537,-0.0824255,0.163045,0.529077,-0.0374545,0.296405,0.758127,-0.1364655,-0.402905,0.947737,-0.1440755,0.331255,1.014557,-0.2041355,-0.077633,-0.00254,0.0009674999999999,0.077633,0.00254,-0.0009674999999999,-0.1170249999999999,-0.482723,0.0426685,0.148635,-0.491563,0.0437344999999999,-0.151825,-0.875023,0.0731325,0.197135,-0.878903,0.0782095,0
38,-0.0275975,0.728986,-0.0059284999999999,-0.1927465,0.5227160000000001,-0.0139164999999999,-0.3490765,0.737046,-0.0775144999999999,0.1636235,0.5289360000000001,-0.0380735,0.2935935,0.7607860000000001,-0.1306645,-0.3990365,0.951116,-0.1312045,0.3299235,1.018126,-0.1895045,-0.0775065,-0.002454,0.0006885,0.0775065,0.0024539999999999,-0.0006884999999999,-0.1168965,-0.483294,0.0428575,0.1488835,-0.492804,0.0439345,-0.1513465,-0.876334,0.0730025,0.1977835,-0.880034,0.0780435,0
39,-0.027384,0.7282909999999999,-0.0080154999999999,-0.192627,0.5230309999999999,-0.0141274999999999,-0.346937,0.7395609999999999,-0.0733195,0.164053,0.5289109999999999,-0.0386285,0.292223,0.7621209999999999,-0.1265095,-0.396067,0.960181,-0.1229395,0.328613,1.021381,-0.1768695,-0.0774,-0.0023919999999999,0.0003944999999999,0.0774,0.002392,-0.0003944999999999,-0.116827,-0.483629,0.0429955,0.149083,-0.4938289999999999,0.0441575,-0.150987,-0.877379,0.0728125,0.198333,-0.880969,0.0778575,0
40,-0.02726,0.7279055000000001,-0.0094125,-0.192526,0.5232755,-0.0142855,-0.345616,0.7409455,-0.0706094999999999,0.164254,0.5289055,-0.0389945,0.291104,0.7629155000000001,-0.1229885,-0.3938359999999999,0.9691755,-0.1168984999999999,0.327494,1.0232755,-0.1688985,-0.077352,-0.0023294999999999,0.0002034999999999,0.077352,0.0023295,-0.0002035,-0.116816,-0.4836945,0.0431374999999999,0.149144,-0.4944345,0.0444165,-0.150806,-0.8780745,0.0726405,0.198624,-0.8815645,0.0777065,0
41,-0.0271455,0.7275105000000001,-0.010426,-0.1923905,0.5234305,-0.0143219999999999,-0.3446805,0.7418405,-0.06842,0.1643495,0.5288705,-0.039287,0.2901195,0.7631705000000001,-0.120041,-0.3914105,0.9769805,-0.112521,0.3264594999999999,1.0231804999999998,-0.162921,-0.0773325,-0.0022785,4.60000000000009e-05,0.0773325,0.0022785,-4.60000000000009e-05,-0.1168205,-0.4838095,0.043231,0.1491895,-0.4948995,0.044635,-0.1507305,-0.8786695,0.072395,0.1988595,-0.8821595,0.077438,0
42,-0.027142,0.72713,-0.0113494999999999,-0.19231,0.52353,-0.0144385,-0.34402,0.74224,-0.0668785,0.1643099999999999,0.52888,-0.0396385,0.28927,0.76304,-0.1175425,-0.3893999999999999,0.98378,-0.1096225,0.32533,1.02308,-0.1581325,-0.0773129999999999,-0.0022719999999999,-0.0001034999999999,0.0773129999999999,0.002272,0.0001034999999999,-0.11685,-0.48389,0.0432445,0.14914,-0.49534,0.0447474999999999,-0.15078,-0.87917,0.0720435,0.19898,-0.88266,0.0770585,0
43,-0.02719,0.726881,-0.01196,-0.19231,0.5236810000000001,-0.014536,-0.34348,0.7424010000000001,-0.065828,0.1641999999999999,0.528861,-0.039945,0.28848,0.7627710000000001,-0.115359,-0.3878399999999999,0.989991,-0.107669,0.32399,1.023091,-0.154069,-0.0773129999999999,-0.002276,-0.000221,0.0773129999999999,0.002276,0.0002209999999999,-0.11685,-0.483999,0.043259,0.14909,-0.495629,0.044682,-0.1509,-0.879559,0.071737,0.19902,-0.8831589999999999,0.076752,0
44,-0.0272549999999999,0.7267225,-0.0125875,-0.192311,0.5237325,-0.0147564999999999,-0.342941,0.7422925,-0.0654355,0.1640589999999999,0.5289425000000001,-0.0403054999999999,0.287759,0.7625225000000001,-0.1134945,-0.386131,0.9953725,-0.1080145,0.322659,1.0229725,-0.1511745,-0.0773129999999999,-0.0022985,-0.0003005,0.0773129999999999,0.0022985,0.0003004999999999,-0.116851,-0.4840475,0.0430285,0.149089,-0.4959475,0.0443365,-0.151001,-0.8798775,0.0713915,0.1990489999999999,-0.8836875,0.0763865,0
45,-0.027329,0.726657,-0.013308,-0.192291,0.523767,-0.015168,-0.342471,0.742127,-0.06586,0.163909,0.529167,-0.040736,0.2871789999999999,0.7623570000000001,-0.112348,-0.384981,1.000807,-0.108438,0.321309,1.022507,-0.149188,-0.0773129999999999,-0.0023639999999999,-0.0003359999999999,0.0773129999999999,0.0023639999999999,0.0003359999999999,-0.116851,-0.484033,0.042605,0.149089,-0.496013,0.0439129999999999,-0.151101,-0.880053,0.070968,0.199089,-0.884083,0.075963,0
46,-0.0274915,0.726657,-0.014133,-0.1923555,0.523767,-0.0157679999999999,-0.3421355,0.742127,-0.0664599999999999,0.1636645,0.529167,-0.0413619999999999,0.2865945,0.762327,-0.112128,-0.3839755,1.004707,-0.109048,0.3199344999999999,1.022207,-0.148638,-0.0773295,-0.0023639999999999,-0.0003339999999999,0.0773295,0.0023639999999999,0.000334,-0.1171055,-0.483893,0.042005,0.1489745,-0.495903,0.043313,-0.1512955,-0.880073,0.070337,0.1990145,-0.884453,0.075319,0
47,-0.027872,0.726657,-0.0151674999999999,-0.19255,0.523767,-0.0165645,-0.34198,0.742127,-0.0672565,0.1632,0.529167,-0.0422165,0.28587,0.762207,-0.1129245,-0.3831199999999999,1.001507,-0.1105245,0.31844,1.022007,-0.1492445,-0.077363,-0.0023639999999999,-0.0002804999999999,0.077363,0.0023639999999999,0.0002804999999999,-0.11756,-0.483763,0.0412085,0.1486799999999999,-0.495743,0.0421765,-0.15171,-0.880123,0.0694875,0.1987499999999999,-0.884663,0.0741615,1
48,-0.0284275,0.726657,-0.0167219999999999,-0.1928455,0.523767,-0.0176549999999999,-0.3420054999999999,0.742027,-0.06842,0.1625945,0.529167,-0.043376,0.2850645,0.762087,-0.114015,-0.3824955,1.005007,-0.1129449999999999,0.3168445,1.022007,-0.150335,-0.0774515,-0.0023639999999999,-0.0001579999999999,0.0774515,0.0023639999999999,0.000158,-0.1181555,-0.483603,0.039865,0.1482945,-0.495543,0.039353,-0.1522955,-0.880273,0.068292,0.1983345,-0.885733,0.072717,1
49,-0.029322,0.725743,-0.0202725,-0.193479,0.523663,-0.0200414999999999,-0.342159,0.740883,-0.0718405,0.161531,0.529043,-0.0459315,0.284091,0.760773,-0.1162105,-0.381909,1.005273,-0.1179704999999999,0.3148109999999999,1.0216729999999998,-0.1525305,-0.077572,-0.002524,0.0002174999999999,0.077572,0.0025239999999999,-0.0002174999999999,-0.119149,-0.483167,0.0351724999999999,0.148071,-0.494987,0.0318155,-0.153289,-0.880277,0.0657145,0.197631,-0.886697,0.0695955,1
50,-0.030566,0.724388,-0.025431,-0.194371,0.522438,-0.023702,-0.342571,0.739658,-0.076958,0.160149,0.528788,-0.049797,0.282849,0.7587079999999999,-0.119421,-0.3817709999999999,1.006458,-0.124451,0.312409,1.0218580000000002,-0.155671,-0.077708,-0.002713,0.000767,0.077708,0.002713,-0.000767,-0.120831,-0.481542,0.028441,0.147809,-0.493632,0.022011,-0.154711,-0.879182,0.061888,0.196729,-0.886792,0.065304,1
51,-0.0320789999999999,0.7222895,-0.0311884999999999,-0.195405,0.5209695,-0.0280545,-0.343085,0.7381295,-0.0833945,0.158225,0.5265195,-0.0551495,0.281335,0.7564195,-0.1239545,-0.381785,1.0087695,-0.1320645,0.3096649999999999,1.0227695,-0.1599845,-0.077917,-0.0027985,0.0012975,0.077917,0.0027984999999999,-0.0012975,-0.1231349999999999,-0.4785304999999999,0.0199895,0.147865,-0.4907605,0.0100985,-0.156435,-0.8768705,0.0572214999999999,0.195645,-0.8856105,0.0601565,1
52,-0.0336205,0.718542,-0.038312,-0.1965135,0.5201020000000001,-0.03305,-0.3436935,0.736012,-0.091207,0.1562665,0.524112,-0.061384,0.2797365,0.753522,-0.130107,-0.3817635,1.008392,-0.141087,0.3067365,1.024392,-0.165847,-0.0780845,-0.002819,0.0019539999999999,0.0780845,0.0028189999999999,-0.001954,-0.1261735,-0.474848,0.0098769999999999,0.1481065,-0.486408,-0.003198,-0.1583435,-0.873748,0.051806,0.1944465,-0.8835679999999999,0.054039,1
53,-0.0355065,0.71423,-0.04632,-0.1979945,0.51719,-0.038943,-0.3448145,0.73279,-0.100421,0.1541855,0.5212800000000001,-0.069102,0.2777555,0.7495700000000001,-0.138011,-0.3816845,1.00815,-0.151241,0.3032055,1.02515,-0.173011,-0.0782425,-0.003001,0.002876,0.0782425,0.003001,-0.002876,-0.1302845,-0.4695999999999999,-0.001982,0.1480855,-0.47974,-0.0179509999999999,-0.1608645,-0.86857,0.0452959999999999,0.1927955,-0.87954,0.047042,1
54,-0.037412,0.7093965,-0.0555245,-0.199434,0.5147365,-0.0455985,-0.3459839999999999,0.7299665000000001,-0.1105815,0.152076,0.5177865,-0.0776304999999999,0.275806,0.7438065,-0.1472915,-0.381304,1.0087665,-0.1623115,0.299586,1.0241665,-0.1810315,-0.078418,-0.0031664999999999,0.0037605,0.078418,0.0031665,-0.0037605,-0.134744,-0.4628835,-0.0150845,0.1483259999999999,-0.4730235,-0.0338915,-0.163474,-0.8621435,0.0380944999999999,0.191156,-0.8739935,0.0394415,1
55,-0.039235,0.703996,-0.0655835,-0.2008019999999999,0.5112059999999999,-0.0538155,-0.347042,0.725656,-0.1220265,0.149868,0.5142559999999999,-0.0873725,0.273978,0.7387159999999999,-0.1579265,-0.380572,1.003616,-0.1765965,0.2959279999999999,1.019916,-0.1927965,-0.0785059999999999,-0.0032949999999999,0.0046535,0.0785059999999999,0.0032949999999999,-0.0046535,-0.1396919999999999,-0.453944,-0.0294895,0.148628,-0.464074,-0.0508795,-0.1662819999999999,-0.853534,0.0297184999999999,0.189488,-0.866274,0.0307765,1
56,-0.0408435,0.6974935,-0.0769785,-0.2020845,0.5070235000000001,-0.0626915,-0.3480145,0.7208335,-0.1338375,0.1478354999999999,0.5100335,-0.0975465,0.2726755,0.7316235,-0.1697275,-0.3795945,1.0000034999999998,-0.1908575,0.2923855,1.0168035,-0.2049875,-0.0783965,-0.0033615,0.0053864999999999,0.0783965,0.0033615,-0.0053865,-0.1453645,-0.4431665,-0.0448345,0.1494454999999999,-0.4532265,-0.0683755,-0.1693045,-0.8430265,0.0207774999999999,0.1878755,-0.8563164999999999,0.0219105,1
57,-0.042398,0.6900625,-0.088795,-0.203144,0.5020325,-0.072023,-0.348904,0.7159225,-0.146353,0.1453259999999999,0.5050224999999999,-0.108276,0.271536,0.7245325,-0.182493,-0.378294,0.9972125,-0.205733,0.289006,1.0143225,-0.217863,-0.078348,-0.0033524999999999,0.0060589999999999,0.078348,0.0033525,-0.006059,-0.151924,-0.4318575,-0.061036,0.150936,-0.4402775,-0.085861,-0.172584,-0.8301975,0.0107529999999999,0.186226,-0.8439274999999999,0.0117479999999999,1
58,-0.043495,0.683191,-0.099787,-0.203731,0.497081,-0.080657,-0.349531,0.710851,-0.1578979999999999,0.143199,0.499431,-0.118226,0.270789,0.716251,-0.194688,-0.376371,0.995721,-0.219238,0.286139,1.009781,-0.229728,-0.078241,-0.003248,0.0065409999999999,0.078241,0.0032479999999999,-0.006541,-0.158671,-0.419109,-0.07501,0.153019,-0.426119,-0.100688,-0.175681,-0.815909,0.001062,0.184969,-0.829879,0.002789,1
59,-0.0443554999999999,0.6760280000000001,-0.1139365,-0.2040574999999999,0.492838,-0.0929825,-0.3499175,0.704808,-0.1730305,0.1412725,0.494568,-0.1314585,0.2705725,0.709508,-0.2104805,-0.3738375,0.988688,-0.2374805,0.2834325,1.002268,-0.2459505,-0.0782275,-0.00297,0.0068184999999999,0.0782275,0.00297,-0.0068185,-0.1652775,-0.405412,-0.0928355,0.1552025,-0.4110419999999999,-0.1182095,-0.1785274999999999,-0.800152,-0.0120215,0.1840925,-0.815292,-0.0096305,1
60,-0.0447255,0.672387,-0.132503,-0.2034465,0.488517,-0.110188,-0.3500165,0.702947,-0.1923409999999999,0.1396135,0.488717,-0.148523,0.2709235,0.703197,-0.230231,-0.3711565,0.984437,-0.259661,0.2817335,0.994607,-0.266511,-0.0781185,-0.002515,0.0073189999999999,0.0781185,0.002515,-0.0073189999999999,-0.1732365,-0.388493,-0.117657,0.1585234999999999,-0.392343,-0.144151,-0.1810865,-0.780223,-0.028858,0.1845135,-0.796713,-0.032084,1
61,-0.045092,0.6688305000000001,-0.1502885,-0.202905,0.4846805,-0.1269964999999999,-0.3493949999999999,0.6987205000000001,-0.2119875,0.1379449999999999,0.4842605,-0.1648675,0.271095,0.6979705,-0.2490775,-0.3680049999999999,0.9785905,-0.2826675,0.280045,0.9867905,-0.2865074999999999,-0.078053,-0.0019315,0.0077055,0.078053,0.0019315,-0.0077054999999999,-0.181005,-0.3708495,-0.1419085,0.161965,-0.3734495,-0.1695775,-0.183555,-0.7593295,-0.0453024999999999,0.185105,-0.7777594999999999,-0.0540185,1
62,-0.045471,0.664235,-0.1693075,-0.202392,0.481095,-0.1440095,-0.3487619999999999,0.695125,-0.2328095,0.136388,0.479745,-0.1806295,0.271308,0.696595,-0.2692195,-0.364162,0.969365,-0.3073295,0.277968,0.980605,-0.3063395,-0.077813,-0.0017149999999999,0.0076154999999999,0.077813,0.0017149999999999,-0.0076154999999999,-0.189042,-0.352195,-0.1670355,0.1660879999999999,-0.353445,-0.1950195,-0.185882,-0.736865,-0.0611694999999999,0.185968,-0.7580250000000001,-0.0754595,1
63,-0.0470139999999999,0.66227,-0.187422,-0.2026589999999999,0.47646,-0.1616179999999999,-0.349099,0.69051,-0.254102,0.134041,0.47444,-0.196502,0.270371,0.6933,-0.288952,-0.361829,0.95901,-0.332372,0.274841,0.97075,-0.328802,-0.076842,-0.0016599999999999,0.0074639999999999,0.076842,0.0016599999999999,-0.0074639999999999,-0.1991589999999999,-0.3307099999999999,-0.192862,0.169801,-0.33128,-0.221742,-0.1894189999999999,-0.71084,-0.076608,0.185951,-0.73549,-0.097271,1
64,-0.048584,0.65839,-0.204922,-0.202878,0.47189,-0.1779939999999999,-0.349348,0.68574,-0.274672,0.131872,0.46906,-0.211432,0.269522,0.68825,-0.307852,-0.359618,0.95453,-0.354772,0.271532,0.96444,-0.348152,-0.075992,-0.00167,0.007258,0.075992,0.00167,-0.007258,-0.208828,-0.31091,-0.217762,0.173852,-0.31132,-0.247502,-0.192728,-0.6868299999999999,-0.090989,0.185742,-0.7144499999999999,-0.11635,1
65,-0.0501834999999999,0.652655,-0.221065,-0.2029185,0.467225,-0.193874,-0.3496785,0.681465,-0.295825,0.1298915,0.464815,-0.2263049999999999,0.2683815,0.6851849999999999,-0.326655,-0.3575485,0.948325,-0.3794649999999999,0.2682215,0.956895,-0.3683649999999999,-0.0753375,-0.001875,0.007055,0.0753375,0.0018749999999999,-0.0070549999999999,-0.2183885,-0.290465,-0.242375,0.1784214999999999,-0.291715,-0.273275,-0.1957685,-0.6625350000000001,-0.1048259999999999,0.1858715,-0.6926749999999999,-0.1351379999999999,1
66,-0.0522,0.648575,-0.23743,-0.203449,0.464075,-0.209467,-0.350389,0.6772849999999999,-0.3166299999999999,0.1274809999999999,0.460635,-0.24084,0.266711,0.681435,-0.3449,-0.356139,0.941725,-0.40358,0.264661,0.947725,-0.38911,-0.074625,-0.002045,0.0069799999999999,0.074625,0.0020449999999999,-0.00698,-0.227939,-0.268705,-0.2657899999999999,0.1825409999999999,-0.271305,-0.2981,-0.199039,-0.638355,-0.117318,0.183811,-0.669135,-0.147486,1
67,-0.0543375,0.64576,-0.2538249999999999,-0.2040745,0.46007,-0.225321,-0.3512945,0.6733800000000001,-0.337485,0.1250455,0.45744,-0.2551449999999999,0.2649955,0.6798200000000001,-0.363195,-0.3555645,0.93599,-0.428165,0.2593855,0.94078,-0.4093949999999999,-0.0738885,-0.0022399999999999,0.0067649999999999,0.0738885,0.00224,-0.0067649999999999,-0.2373644999999999,-0.24655,-0.2886149999999999,0.1861455,-0.25056,-0.321455,-0.2021945,-0.61375,-0.1288389999999999,0.1815655,-0.6449400000000001,-0.1594819999999999,1
68,-0.056415,0.642815,-0.266685,-0.2041589999999999,0.455295,-0.237075,-0.352499,0.669645,-0.355415,0.122331,0.456285,-0.265185,0.2633209999999999,0.676695,-0.378255,-0.355469,0.930845,-0.449435,0.255901,0.939515,-0.425265,-0.073056,-0.0032549999999999,0.0067649999999999,0.073056,0.003255,-0.0067649999999999,-0.247469,-0.2232849999999999,-0.306875,0.190561,-0.2283649999999999,-0.341375,-0.205309,-0.5878249999999999,-0.135702,0.179181,-0.6179049999999999,-0.167136,1
69,-0.0588215,0.637655,-0.27481,-0.2050035,0.451325,-0.24345,-0.3543135,0.661055,-0.36801,0.1195165,0.4540349999999999,-0.27091,0.2612365,0.6725749999999999,-0.38945,-0.3555235,0.919325,-0.46648,0.2519465,0.938045,-0.43695,-0.0723564999999999,-0.003605,0.0065699999999999,0.0723564999999999,0.003605,-0.0065699999999999,-0.2556835,-0.2021649999999999,-0.31692,0.1939765,-0.2092049999999999,-0.3517099999999999,-0.2085634999999999,-0.564615,-0.137935,0.1763165,-0.593315,-0.168174,1
70,-0.0612044999999999,0.63259,-0.28196,-0.2056085,0.4470700000000001,-0.24934,-0.3569585,0.65567,-0.37907,0.1168115,0.45202,-0.27629,0.2592815,0.66757,-0.40047,-0.3561085,0.90527,-0.48194,0.2482315,0.92989,-0.44999,-0.0716415,-0.0043599999999999,0.0064899999999999,0.0716415,0.00436,-0.0064899999999999,-0.2633985,-0.1802999999999999,-0.3258,0.1972115,-0.18921,-0.36124,-0.2117085,-0.5404899999999999,-0.139478,0.1736515,-0.56746,-0.168663,1
71,-0.06308,0.630725,-0.287935,-0.205738,0.445578,-0.254245,-0.358438,0.6511149999999999,-0.388305,0.114482,0.4491549999999999,-0.281145,0.2577819999999999,0.658555,-0.4093249999999999,-0.357618,0.8972049999999999,-0.4943149999999999,0.2455119999999999,0.916085,-0.4643349999999999,-0.071142,-0.004165,0.006495,0.071142,0.0041649999999999,-0.006495,-0.269698,-0.160075,-0.332495,0.200062,-0.171215,-0.369955,-0.214438,-0.517615,-0.1408569999999999,0.171572,-0.542525,-0.168875,1
72,-0.0636205,0.625435,-0.2938199999999999,-0.2047455,0.441415,-0.2577,-0.3588355,0.645275,-0.39615,0.1142845,0.448297,-0.28496,0.2574745,0.653805,-0.4178,-0.3578055,0.890735,-0.50532,0.2418645,0.909285,-0.47523,-0.0714645,-0.004305,0.00627,0.0714645,0.004305,-0.0062699999999999,-0.2735055,-0.1429249999999999,-0.3377099999999999,0.2032645,-0.155525,-0.37638,-0.2158655,-0.497835,-0.141614,0.1702345,-0.520855,-0.164905,1
73,-0.064127,0.62304,-0.29982,-0.20381,0.440382,-0.26119,-0.35934,0.64255,-0.40391,0.11416,0.447817,-0.2890899999999999,0.25703,0.65097,-0.42715,-0.3581499999999999,0.88513,-0.51636,0.23912,0.90473,-0.4861,-0.07178,-0.00406,0.0062,0.07178,0.00406,-0.0062,-0.27736,-0.1240299999999999,-0.3433,0.20618,-0.1386199999999999,-0.38363,-0.21738,-0.47572,-0.142269,0.16849,-0.49743,-0.160563,1
74,-0.0643939999999999,0.6236900000000001,-0.30595,-0.2027729999999999,0.440045,-0.26429,-0.359633,0.6376200000000001,-0.41025,0.114427,0.446789,-0.29237,0.257007,0.64595,-0.4356299999999999,-0.3581229999999999,0.88133,-0.5258,0.237927,0.89808,-0.49794,-0.0720669999999999,-0.0037599999999999,0.00611,0.072067,0.00376,-0.00611,-0.280243,-0.1033499999999999,-0.34851,0.208147,-0.1204699999999999,-0.39014,-0.218563,-0.4521699999999999,-0.142534,0.1666369999999999,-0.4726599999999999,-0.155617,1
75,-0.0639585,0.6234299999999999,-0.310525,-0.2011775,0.4384849999999999,-0.266465,-0.3593174999999999,0.63274,-0.415115,0.1153125,0.446463,-0.294585,0.2576925,0.64161,-0.443195,-0.3572975,0.8772,-0.5345850000000001,0.2368725,0.89144,-0.508025,-0.0721525,-0.00364,0.006245,0.0721525,0.0036399999999999,-0.006245,-0.2820675,-0.0829699999999999,-0.352975,0.2099825,-0.10219,-0.395455,-0.2190175,-0.42877,-0.142062,0.1649225,-0.447,-0.148916,1
76,-0.0633405,0.62142,-0.31388,-0.1993774999999999,0.437679,-0.26765,-0.3588075,0.6276999999999999,-0.4189,0.1162725,0.4471699999999999,-0.29603,0.2585325,0.63659,-0.44973,-0.3564775,0.87161,-0.54252,0.2360725,0.88327,-0.51786,-0.0721624999999999,-0.00395,0.00615,0.0721625,0.00395,-0.0061499999999999,-0.2833475,-0.06419,-0.35719,0.2114425,-0.08558,-0.40027,-0.2193675,-0.40673,-0.141293,0.1633125,-0.42309,-0.14323,1
77,-0.062587,0.62079,-0.316175,-0.197487,0.435895,-0.2684649999999999,-0.358287,0.62358,-0.420865,0.1170829999999999,0.443221,-0.2973949999999999,0.259293,0.63234,-0.454515,-0.355827,0.86581,-0.548055,0.236063,0.87034,-0.526825,-0.072163,-0.0032,0.005995,0.072163,0.0031999999999999,-0.005995,-0.283457,-0.04639,-0.3603849999999999,0.211993,-0.07013,-0.403895,-0.2196469999999999,-0.38603,-0.1406639999999999,0.161943,-0.40082,-0.137957,1
78,-0.061238,0.618725,-0.31799,-0.1953889999999999,0.4344929999999999,-0.26883,-0.357509,0.6197349999999999,-0.42309,0.118021,0.4437479999999999,-0.29753,0.260511,0.6288649999999999,-0.45797,-0.354539,0.8615949999999999,-0.55339,0.2364609999999999,0.8581549999999999,-0.5344,-0.072561,-0.003345,0.00569,0.072561,0.0033449999999999,-0.00569,-0.283189,-0.0295250000000001,-0.36339,0.212381,-0.054955,-0.40645,-0.219519,-0.366095,-0.139809,0.161951,-0.3789150000000001,-0.135874,1
79,-0.0596175,0.6176809999999999,-0.32015,-0.1932365,0.4320399999999999,-0.26948,-0.3569365,0.615335,-0.42549,0.1190435,0.4427719999999999,-0.29779,0.2620635,0.6256729999999999,-0.46115,-0.3537565,0.8592799999999999,-0.55933,0.2390535,0.8526399999999998,-0.5402,-0.0731235,-0.00328,0.0053699999999999,0.0731235,0.0032799999999999,-0.00537,-0.2827564999999999,-0.0145400000000001,-0.36622,0.2129635,-0.04117,-0.40835,-0.2190965,-0.3480900000000001,-0.139209,0.1622735,-0.3595800000000001,-0.134137,1
80,-0.05781,0.615012,-0.321665,-0.191032,0.42803,-0.270515,-0.356072,0.611426,-0.428035,0.1199379999999999,0.44269,-0.298155,0.263648,0.6221150000000001,-0.464185,-0.352492,0.85453,-0.566895,0.2415179999999999,0.85395,-0.544575,-0.073638,-0.0035599999999998,0.0053349999999999,0.073638,0.00356,-0.005335,-0.282062,-0.0020999999999999,-0.368835,0.213728,-0.0286599999999999,-0.409545,-0.218422,-0.3329599999999999,-0.139174,0.162928,-0.34231,-0.133207,1
81,-0.056207,0.613759,-0.322745,-0.189228,0.427135,-0.271625,-0.355368,0.609402,-0.430585,0.1206519999999999,0.442375,-0.2986649999999999,0.264822,0.617311,-0.466575,-0.351328,0.849735,-0.573955,0.2436219999999999,0.852195,-0.5495650000000001,-0.074222,-0.003665,0.0054349999999999,0.074222,0.003665,-0.0054349999999999,-0.281378,0.007305,-0.370635,0.214272,-0.0192249999999999,-0.409755,-0.217728,-0.3214749999999999,-0.139274,0.163882,-0.330515,-0.132734,1
82,-0.054368,0.612454,-0.323105,-0.187191,0.42328,-0.2723649999999999,-0.354121,0.606919,-0.432255,0.1218589999999999,0.44153,-0.298775,0.2660289999999999,0.613198,-0.467375,-0.350031,0.84536,-0.580675,0.2458789999999999,0.84773,-0.554385,-0.074679,-0.00424,0.0054349999999999,0.074679,0.00424,-0.0054349999999999,-0.280311,0.01341,-0.371455,0.215129,-0.0126399999999999,-0.409755,-0.216561,-0.3138999999999999,-0.139176,0.165429,-0.3221699999999999,-0.132485,1
83,-0.052759,0.611785,-0.323195,-0.18582,0.422915,-0.272725,-0.35275,0.606934,-0.432535,0.1232299999999999,0.4415449999999999,-0.298895,0.2673999999999999,0.611768,-0.467465,-0.34809,0.844955,-0.582675,0.2473699999999999,0.843755,-0.555555,-0.075,-0.004255,0.0053449999999999,0.075,0.004255,-0.005345,-0.2791099999999999,0.011885,-0.371545,0.21613,-0.0132349999999999,-0.409845,-0.21522,-0.315075,-0.138845,0.16702,-0.3230349999999999,-0.131778,1
84,-0.0512865,0.611785,-0.323735,-0.1843475,0.422915,-0.273265,-0.3512775,0.606934,-0.433075,0.1245725,0.4415449999999999,-0.299435,0.2688625,0.611768,-0.468005,-0.3465275,0.844955,-0.583795,0.2482725,0.843755,-0.556095,-0.0751324999999999,-0.004255,0.004885,0.0751324999999999,0.004255,-0.004885,-0.2778275,0.0115849999999999,-0.372085,0.2168525,-0.0132349999999999,-0.410385,-0.2137474999999999,-0.315605,-0.1392189999999999,0.1687025,-0.323625,-0.131759,1
85,-0.049845,0.611785,-0.3248,-0.182906,0.422915,-0.2743299999999999,-0.349836,0.606934,-0.43414,0.1255939999999999,0.4415449999999999,-0.3004,0.269964,0.611768,-0.46907,-0.345086,0.844955,-0.5848599999999999,0.249424,0.843755,-0.55716,-0.074934,-0.004255,0.0045399999999999,0.074934,0.004255,-0.0045399999999999,-0.2765559999999999,0.0115849999999999,-0.37315,0.2173739999999999,-0.0132349999999999,-0.41003,-0.212306,-0.315755,-0.140194,0.170264,-0.324015,-0.132084,1
86,-0.048427,0.6117300000000001,-0.32506,-0.181799,0.42286,-0.27552,-0.348749,0.607369,-0.43535,0.125641,0.4415500000000001,-0.3015,0.271041,0.6117130000000001,-0.4696,-0.3437389999999999,0.8449000000000001,-0.58607,0.250631,0.8471300000000002,-0.55787,-0.074631,-0.0043099999999999,0.00443,0.074631,0.00431,-0.0044299999999999,-0.275319,0.01153,-0.3733499999999999,0.218161,-0.0132899999999999,-0.40904,-0.210909,-0.3158299999999999,-0.141313,0.1715809999999999,-0.3240699999999999,-0.13296,1
87,-0.04747,0.6133890000000001,-0.324905,-0.181326,0.42439,-0.277145,-0.3489859999999999,0.608642,-0.436685,0.125444,0.4420900000000001,-0.302915,0.271584,0.612754,-0.4695749999999999,-0.343176,0.8434300000000001,-0.587695,0.252104,0.8490900000000001,-0.5586450000000001,-0.074364,-0.0041699999999998,0.004205,0.074364,0.00417,-0.0042049999999999,-0.274186,0.00807,-0.373735,0.218584,-0.0157499999999999,-0.408315,-0.209926,-0.3192899999999999,-0.1429379999999999,0.1726039999999999,-0.32753,-0.134534,1
88,-0.0471025,0.6168039999999999,-0.324625,-0.1816375,0.4265949999999999,-0.278765,-0.3495675,0.614413,-0.437145,0.1249125,0.4432649999999999,-0.304525,0.2715725,0.617181,-0.469625,-0.3430175,0.8446849999999999,-0.5871649999999999,0.2530325,0.854505,-0.559195,-0.0739165,-0.0036250000000001,0.0041749999999999,0.0739165,0.0036249999999999,-0.004175,-0.2732375,0.0028149999999999,-0.373955,0.2188025,-0.019195,-0.407845,-0.2091575,-0.3255450000000001,-0.145049,0.1734425,-0.3337850000000001,-0.136674,1
89,-0.04722,0.6210230000000001,-0.3238,-0.183418,0.4331400000000001,-0.27952,-0.350528,0.6215790000000001,-0.4368499999999999,0.124092,0.44692,-0.30587,0.270872,0.620816,-0.4688099999999999,-0.343118,0.8496900000000001,-0.58519,0.2532419999999999,0.85989,-0.55888,-0.073506,-0.0032699999999999,0.00429,0.073506,0.0032699999999999,-0.0042899999999999,-0.272458,-0.0061199999999999,-0.374,0.2189019999999999,-0.02598,-0.40725,-0.208388,-0.33629,-0.147135,0.174182,-0.3443499999999999,-0.1388889999999999,1
90,-0.048175,0.620521,-0.322835,-0.185764,0.43343,-0.280445,-0.351834,0.624195,-0.435685,0.122956,0.445455,-0.307315,0.269636,0.623266,-0.467545,-0.343594,0.8561300000000001,-0.580625,0.2536759999999999,0.8622000000000001,-0.556425,-0.072969,-0.00307,0.004535,0.072969,0.00307,-0.0045349999999999,-0.271694,-0.0233799999999999,-0.3717749999999999,0.218906,-0.0414099999999999,-0.404635,-0.207854,-0.35609,-0.149588,0.175016,-0.3647699999999999,-0.141814,1
91,-0.04951,0.6228950000000001,-0.3205599999999999,-0.188221,0.4351590000000001,-0.2804299999999999,-0.353431,0.629955,-0.43273,0.121749,0.44539,-0.30782,0.268079,0.628355,-0.46537,-0.344311,0.8650150000000001,-0.57384,0.253459,0.8675550000000001,-0.55225,-0.072465,-0.0029849999999999,0.00459,0.072465,0.002985,-0.0045899999999999,-0.270731,-0.0412949999999999,-0.36904,0.219329,-0.0575149999999999,-0.40182,-0.207351,-0.3773449999999999,-0.151445,0.175819,-0.3861849999999999,-0.144242,1
92,-0.0518635,0.62552,-0.317965,-0.1911725,0.4374639999999999,-0.279635,-0.3549325,0.63461,-0.4282749999999999,0.1201375,0.446001,-0.307555,0.2660775,0.63195,-0.462095,-0.3458325,0.87364,-0.563995,0.2517975,0.86808,-0.547005,-0.0724645,-0.00309,0.004885,0.0724645,0.0030899999999999,-0.004885,-0.2697925,-0.06123,-0.365645,0.2184875,-0.0761899999999999,-0.3983649999999999,-0.2073225,-0.40132,-0.15303,0.1760874999999999,-0.41039,-0.146519,1
93,-0.0540429999999999,0.6313599999999999,-0.31359,-0.191361,0.4418669999999999,-0.27905,-0.3551209999999999,0.64182,-0.42158,0.1184389999999999,0.4487389999999999,-0.30618,0.263669,0.6396499999999999,-0.45674,-0.348661,0.8798299999999999,-0.55013,0.250379,0.8731599999999999,-0.53842,-0.072267,-0.00291,0.00508,0.072267,0.0029099999999999,-0.00508,-0.2689809999999999,-0.08127,-0.36134,0.2180689999999999,-0.0938,-0.39465,-0.207421,-0.426,-0.154288,0.177719,-0.4356300000000001,-0.15255,1
94,-0.0556954999999999,0.637405,-0.308395,-0.1938355,0.4455699999999999,-0.277005,-0.3566755,0.649215,-0.413995,0.1174845,0.4510809999999999,-0.304415,0.2620545,0.6486449999999999,-0.450505,-0.3509755,0.886195,-0.534965,0.2498144999999999,0.8855649999999999,-0.5293950000000001,-0.0720385,-0.002955,0.0052849999999999,0.0720385,0.0029549999999999,-0.005285,-0.2674855,-0.101195,-0.356835,0.2185744999999999,-0.1110149999999999,-0.390325,-0.2070555,-0.4505949999999999,-0.155433,0.1804545,-0.461235,-0.159459,1
95,-0.0579715,0.63839,-0.301885,-0.1969135,0.4411949999999999,-0.274305,-0.3590735,0.65221,-0.405005,0.1165065,0.447858,-0.301715,0.2601865,0.6549499999999999,-0.443405,-0.3540135,0.8919999999999999,-0.520545,0.2485865,0.89521,-0.520135,-0.0718105,-0.00363,0.005525,0.0718105,0.0036299999999999,-0.005525,-0.2659335,-0.1201499999999999,-0.350345,0.2178764999999999,-0.12754,-0.382775,-0.2074135,-0.47469,-0.155673,0.1826765,-0.48652,-0.164302,1
96,-0.0594735,0.638055,-0.295355,-0.1985315,0.43581,-0.271225,-0.3612515,0.654195,-0.395355,0.1158385,0.443848,-0.297385,0.2586485,0.658865,-0.435285,-0.3568115,0.898425,-0.505865,0.2487585,0.8978349999999999,-0.511675,-0.0716485,-0.004155,0.0055949999999999,0.0716485,0.0041549999999999,-0.005595,-0.2638715,-0.138525,-0.343365,0.2175485,-0.143505,-0.374945,-0.2074615,-0.498285,-0.155857,0.1852985,-0.510945,-0.169087,1
97,-0.0611105,0.64207,-0.288015,-0.2002975,0.438203,-0.266285,-0.3627475,0.6587000000000001,-0.3860949999999999,0.1150725,0.434949,-0.292505,0.2570325,0.6577999999999999,-0.425905,-0.3597775,0.90094,-0.4919449999999999,0.2486025,0.89957,-0.501975,-0.0716354999999999,-0.00256,0.006025,0.0716354999999999,0.00256,-0.006025,-0.2609075,-0.1585099999999999,-0.334225,0.2166625,-0.1615,-0.365875,-0.2078175,-0.5231999999999999,-0.155609,0.1874225,-0.5371999999999999,-0.172375,1
98,-0.0624455,0.64335,-0.280715,-0.2015955,0.43572,-0.261505,-0.3634854999999999,0.66018,-0.3761949999999999,0.1145344999999999,0.4345799999999999,-0.287455,0.2560745,0.6620699999999999,-0.416595,-0.3623555,0.90892,-0.476145,0.2486745,0.90526,-0.4893849999999999,-0.0715305,-0.00306,0.006205,0.0715305,0.00306,-0.0062049999999999,-0.2573255,-0.18166,-0.3237449999999999,0.2159744999999999,-0.18345,-0.353855,-0.2078455,-0.55221,-0.1548599999999999,0.1900244999999999,-0.56698,-0.1752599999999999,1
99,-0.0628935,0.6487350000000001,-0.27366,-0.2024115,0.440415,-0.25645,-0.3631315,0.667125,-0.36643,0.1142284999999999,0.439505,-0.28236,0.2553485,0.668185,-0.40811,-0.3645515,0.915085,-0.46221,0.2496384999999999,0.912165,-0.47937,-0.0715015,-0.003105,0.0063799999999999,0.0715015,0.0031049999999999,-0.00638,-0.2533815,-0.1993349999999999,-0.31464,0.2153584999999999,-0.199525,-0.3434,-0.2088215,-0.576285,-0.155675,0.1924084999999999,-0.590575,-0.177105,1
100,-0.0626325,0.65501,-0.26681,-0.2026095,0.4429099999999999,-0.25163,-0.3636395,0.67161,-0.3567,0.1143404999999999,0.4437599999999999,-0.27745,0.2547705,0.67442,-0.39895,-0.3661995,0.92088,-0.44788,0.2507405,0.9158,-0.46942,-0.0715055,-0.00329,0.0065099999999999,0.0715055,0.0032899999999999,-0.00651,-0.2487995,-0.21814,-0.30456,0.2144405,-0.21702,-0.33169,-0.2093995,-0.6013700000000001,-0.155844,0.1951505,-0.61495,-0.178735,1
101,-0.062032,0.66177,-0.259895,-0.202607,0.4448499999999999,-0.246885,-0.363467,0.6781200000000001,-0.347445,0.114683,0.44796,-0.2730749999999999,0.254143,0.68214,-0.389865,-0.367437,0.92628,-0.434535,0.251703,0.92629,-0.458175,-0.0720399999999999,-0.00334,0.0065449999999999,0.0720399999999999,0.00334,-0.0065449999999999,-0.244467,-0.2346599999999999,-0.295145,0.213483,-0.23245,-0.320625,-0.209777,-0.6234599999999999,-0.155509,0.198453,-0.6368799999999999,-0.182842,1
102,-0.061068,0.66341,-0.25118,-0.202067,0.44802,-0.239897,-0.362597,0.68144,-0.33731,0.115473,0.45053,-0.26687,0.254373,0.68563,-0.37912,-0.3672769999999999,0.9371,-0.4212,0.253213,0.93599,-0.4464,-0.071819,-0.0024599999999999,0.0063999999999999,0.071819,0.00246,-0.0064,-0.238647,-0.2518999999999999,-0.28243,0.2130729999999999,-0.2499099999999999,-0.30671,-0.209857,-0.6468099999999999,-0.152484,0.2001629999999999,-0.65859,-0.18113,1
103,-0.059782,0.662945,-0.241365,-0.201306,0.452765,-0.232903,-0.361806,0.6846749999999999,-0.3268649999999999,0.116754,0.453735,-0.260145,0.254704,0.688665,-0.367925,-0.366436,0.946215,-0.408335,0.255664,0.938295,-0.433915,-0.071546,-0.001605,0.0060449999999999,0.071546,0.0016049999999999,-0.0060449999999999,-0.232436,-0.269245,-0.268685,0.212344,-0.267235,-0.292815,-0.208286,-0.670415,-0.148379,0.2014439999999999,-0.6793250000000001,-0.177265,1
104,-0.058223,0.6661300000000001,-0.231959,-0.200258,0.46153,-0.225663,-0.3610379999999999,0.6942299999999999,-0.3172899999999999,0.118142,0.46084,-0.25317,0.255492,0.6972,-0.3562499999999999,-0.365668,0.95213,-0.3953299999999999,0.258042,0.94552,-0.42038,-0.071209,-0.0004499999999999,0.0056599999999999,0.071209,0.00045,-0.0056599999999999,-0.2268379999999999,-0.2839399999999999,-0.25632,0.211882,-0.28079,-0.28068,-0.206728,-0.68988,-0.143928,0.202842,-0.69547,-0.17315,1
105,-0.056268,0.667375,-0.221689,-0.1988619999999999,0.4690149999999999,-0.218117,-0.359372,0.703065,-0.307385,0.1201179999999999,0.467395,-0.2470049999999999,0.2567279999999999,0.7047950000000001,-0.344785,-0.363982,0.959125,-0.381235,0.260858,0.951505,-0.406255,-0.071197,0.0006549999999999,0.005065,0.071197,-0.000655,-0.0050649999999999,-0.220472,-0.299565,-0.242855,0.210528,-0.295545,-0.2677549999999999,-0.2046619999999999,-0.7100250000000001,-0.138566,0.204388,-0.7123250000000001,-0.165277,1
106,-0.0544075,0.66428,-0.210922,-0.1972815,0.47419,-0.209891,-0.3574715,0.70557,-0.294165,0.1222085,0.47218,-0.238105,0.2576685,0.7114499999999999,-0.329565,-0.3620815,0.97091,-0.363405,0.2638385,0.96248,-0.387705,-0.0714205,-0.00032,0.0049949999999999,0.0714205,0.00032,-0.0049949999999999,-0.2125915,-0.32014,-0.225655,0.2065085,-0.31747,-0.249305,-0.2021315,-0.73132,-0.129378,0.2048385,-0.7341,-0.15303,1
107,-0.052719,0.662277,-0.1980299999999999,-0.195472,0.4802769999999999,-0.20021,-0.355392,0.7121770000000001,-0.279895,0.124648,0.4792869999999999,-0.227775,0.259088,0.7179770000000001,-0.313295,-0.359952,0.976157,-0.346655,0.266948,0.970797,-0.3703349999999999,-0.071286,-0.0001799999999999,0.0042149999999999,0.071286,0.0001799999999999,-0.0042149999999999,-0.203462,-0.339793,-0.2058289999999999,0.200738,-0.338053,-0.228775,-0.198492,-0.7510129999999999,-0.117576,0.204788,-0.7538929999999999,-0.137675,1
108,-0.0513665,0.6652255,-0.179151,-0.1935195,0.4855055,-0.185079,-0.3530095,0.7182554999999999,-0.260392,0.1270405,0.4860655,-0.211562,0.2614705,0.7250854999999999,-0.291032,-0.3576995,0.9842555,-0.323202,0.2696305,0.9796455,-0.3463819999999999,-0.0712315,-8.450000000000124e-05,0.003318,0.0712315,8.450000000000124e-05,-0.003318,-0.1940595,-0.3585845,-0.179699,0.1943705,-0.3583845,-0.2010219999999999,-0.1945195,-0.7692145,-0.099061,0.2039105,-0.7729045,-0.114905,1
109,-0.050253,0.6698814999999999,-0.1572845,-0.192995,0.4907715,-0.1666635,-0.350695,0.7211314999999999,-0.2385644999999999,0.128515,0.4916615,-0.1918245,0.263055,0.7289815,-0.2661245,-0.356085,0.9885115,-0.2969545,0.271345,0.9859615,-0.3187645,-0.0712049999999999,-0.0001905,0.0033935,0.0712049999999999,0.0001904999999999,-0.0033934999999999,-0.183825,-0.3800584999999999,-0.1489885,0.185665,-0.3805084999999999,-0.1681435,-0.191045,-0.7894385,-0.0771475,0.201645,-0.7939685000000001,-0.0878534999999999,1
110,-0.048628,0.6741634999999999,-0.135688,-0.1916,0.4965335,-0.148217,-0.34756,0.7229835,-0.2170929999999999,0.13097,0.4972635,-0.1720229999999999,0.2639,0.7331534999999999,-0.241813,-0.35363,0.9939435,-0.270743,0.2738,0.9888835,-0.292183,-0.0711199999999999,-0.0003185,0.003445,0.0711199999999999,0.0003184999999999,-0.0034449999999999,-0.17268,-0.4013164999999999,-0.118343,0.17803,-0.4017664999999999,-0.135395,-0.18644,-0.8101765000000001,-0.05493,0.20023,-0.8144765,-0.060951,1
111,-0.0479085,0.6804725,-0.115286,-0.1907444999999999,0.4992025,-0.130388,-0.3449345,0.7259225,-0.1960049999999999,0.1328355,0.5021625,-0.152775,0.2640355,0.7390025,-0.218535,-0.3517145,0.9958225,-0.244975,0.2756754999999999,0.9903425,-0.265575,-0.0717515,-0.0012014999999999,0.0032,0.0717515,0.0012015,-0.0031999999999999,-0.1633744999999999,-0.4185875,-0.0897989999999999,0.1703954999999999,-0.4189775,-0.103726,-0.1812345,-0.8263975,-0.0311409999999999,0.1982654999999999,-0.8311375,-0.0347709999999999,1
112,-0.046534,0.6885985,-0.0960244999999999,-0.18979,0.5027785,-0.1123675,-0.34217,0.7281685,-0.1751375,0.1348,0.5073685,-0.1333575,0.26452,0.7437585,-0.1956375,-0.34878,0.9992785,-0.2171575,0.27753,0.9922885,-0.2392375,-0.0724839999999999,-0.0016625,0.0033225,0.0724839999999999,0.0016625,-0.0033224999999999,-0.15408,-0.4342415,-0.0615775,0.1634199999999999,-0.4349815,-0.0723554999999999,-0.17586,-0.8413715,-0.0076844999999999,0.1965599999999999,-0.8459815,-0.0084225,1
113,-0.0453075,0.6975725,-0.076583,-0.1886865,0.5070025,-0.094226,-0.3394965,0.7281925,-0.154588,0.1369235,0.5134525000000001,-0.113728,0.2653335,0.7453825000000001,-0.173708,-0.3457365,1.0007625,-0.190328,0.2794435,0.9935625,-0.213588,-0.0732375,-0.0022035,0.003414,0.0732375,0.0022035,-0.0034139999999999,-0.1447965,-0.4490975,-0.033494,0.1566535,-0.4506875,-0.041541,-0.1703665,-0.8559975,0.015573,0.1951834999999999,-0.8599775,0.0169059999999999,1
114,-0.04448,0.707519,-0.0577965,-0.1876239999999999,0.512109,-0.0764055,-0.336794,0.729419,-0.1344294999999999,0.138996,0.520249,-0.0940895,0.266136,0.747489,-0.1523795,-0.343284,1.001279,-0.1649294999999999,0.281706,0.994879,-0.1887095,-0.074078,-0.002908,0.0036755,0.074078,0.002908,-0.0036755,-0.136024,-0.464651,-0.0066234999999999,0.150296,-0.467201,-0.0112925,-0.1650039999999999,-0.869751,0.0385195,0.193696,-0.874161,0.0419174999999999,1
115,-0.0442965,0.7165175,-0.04159,-0.1870405,0.5113175,-0.060909,-0.3345505,0.7308075,-0.117699,0.1405594999999999,0.5318875000000001,-0.077397,0.2666795,0.7529475,-0.135449,-0.3407805,0.9991675,-0.144099,0.2833895,0.9936675,-0.168919,-0.0746095,-0.0035975,0.0036489999999999,0.0746095,0.0035974999999999,-0.003649,-0.1301705,-0.4756725,0.0143949999999999,0.1463195,-0.4798025,0.0125509999999999,-0.1619105,-0.8785824999999999,0.056873,0.1932994999999999,-0.8842725,0.062216,1
116,-0.043938,0.725793,-0.0272475,-0.186166,0.512283,-0.0473084999999999,-0.332516,0.729673,-0.1032464999999999,0.142384,0.532213,-0.0626694999999999,0.267494,0.753853,-0.1203164999999999,-0.338876,0.997923,-0.1265265,0.284854,0.992623,-0.1512765,-0.0751,-0.003484,0.0038224999999999,0.0751,0.003484,-0.0038224999999999,-0.125606,-0.483427,0.0312474999999999,0.144614,-0.4899869999999999,0.0312145,-0.159476,-0.883687,0.0721005,0.194454,-0.891547,0.0785095,1
117,-0.042913,0.7316115,-0.0186954999999999,-0.185493,0.5130914999999999,-0.0387784999999999,-0.330483,0.7288815,-0.0944714999999999,0.144407,0.5321714999999999,-0.0540024999999999,0.2689769999999999,0.7541315,-0.1109914999999999,-0.336763,0.9954515,-0.1158114999999999,0.286697,0.9917515,-0.1402715,-0.0755869999999999,-0.0036855,0.0042815,0.0755869999999999,0.0036855,-0.0042814999999999,-0.1216529999999999,-0.4907785,0.0410925,0.143467,-0.4993485,0.0418525,-0.157083,-0.8881185,0.0809065,0.195967,-0.8978385000000001,0.0880155,1
118,-0.040916,0.7322915000000001,-0.0141869999999999,-0.18405,0.5146314999999999,-0.0337319999999999,-0.32803,0.7307215,-0.088948,0.1465,0.5325614999999999,-0.048933,0.2712299999999999,0.7552215,-0.1053679999999999,-0.33388,0.9977915,-0.1092779999999999,0.28917,0.9930915,-0.1342479999999999,-0.076075,-0.0035545,0.0037459999999999,0.076075,0.0035544999999999,-0.0037459999999999,-0.11956,-0.4918285,0.045136,0.1447,-0.5001285,0.045947,-0.1547,-0.8892884999999999,0.0859159999999999,0.1978299999999999,-0.8985585,0.092742,1
119,-0.0389585,0.732634,-0.0097319999999999,-0.1832035,0.516784,-0.0284139999999999,-0.3255734999999999,0.7317440000000001,-0.0837349999999999,0.1484565,0.5327540000000001,-0.04392,0.2729565,0.755124,-0.100075,-0.3307735,1.002014,-0.1036049999999999,0.2911265,0.993714,-0.130035,-0.0764644999999999,-0.0034359999999999,0.003333,0.0764644999999999,0.003436,-0.003333,-0.1176035,-0.492876,0.048999,0.1458364999999999,-0.500896,0.049838,-0.1527335,-0.889856,0.090249,0.1997265,-0.899036,0.096983,1
120,-0.03746,0.7328185,-0.0057275,-0.182816,0.5189585,-0.0238265,-0.323946,0.7322285,-0.0798175,0.149954,0.5328185,-0.0396855,0.274454,0.7546885,-0.0960575,-0.329126,1.0033785,-0.1004875,0.292624,0.9935785,-0.1269175,-0.0764249999999999,-0.0033485,0.0033684999999999,0.0764249999999999,0.0033484999999999,-0.0033685,-0.1161059999999999,-0.4938715,0.0521164999999999,0.146684,-0.5015215,0.0530014999999999,-0.151236,-0.8903615,0.0937824999999999,0.201224,-0.8994715,0.1003465,1
121,-0.036354,0.7328545,-0.0025215,-0.182568,0.5206145,-0.0201364999999999,-0.322838,0.7324145,-0.0771525,0.151072,0.5328845,-0.0361914999999999,0.275562,0.7543145,-0.0932225,-0.328018,1.0036045,-0.0981725,0.293882,0.9935045,-0.1246025,-0.07638,-0.0031494999999999,0.0032594999999999,0.07638,0.0031494999999999,-0.0032594999999999,-0.115288,-0.4947455,0.0544265,0.147262,-0.5020555,0.0553895,-0.150128,-0.8907955,0.0964735,0.202332,-0.8991655,0.1028565,1
122,-0.035414,0.7329075,-1.0500000000003562e-05,-0.1824579999999999,0.5219075000000001,-0.0169705,-0.321998,0.7321375,-0.0752455,0.151922,0.5329775,-0.0332045,0.276402,0.7540375,-0.0912954999999999,-0.3271779999999999,1.0033275,-0.0962654999999999,0.295342,0.9932275000000002,-0.1226955,-0.076336,-0.0029394999999999,0.0031375,0.076336,0.0029394999999999,-0.0031375,-0.114808,-0.4954025,0.0562584999999999,0.147652,-0.5025125,0.0571985,-0.149278,-0.8911224999999999,0.0985385,0.203162,-0.8987624999999999,0.1049825,1
123,-0.034827,0.7330460000000001,0.0017325,-0.182769,0.5232060000000001,-0.0142724999999999,-0.321489,0.732236,-0.0738825,0.152521,0.533286,-0.0310624999999999,0.277161,0.7534160000000001,-0.0899324999999999,-0.326699,1.0034260000000002,-0.0967624999999999,0.2973409999999999,0.9933260000000002,-0.1230925,-0.076251,-0.0028139999999999,0.0031555,0.076251,0.002814,-0.0031554999999999,-0.114579,-0.495624,0.0574045,0.1478509999999999,-0.502474,0.0580495,-0.148759,-0.8910239999999999,0.0999875,0.203651,-0.897864,0.1065215,0
124,-0.034623,0.7334785,0.0029264999999999,-0.1832579999999999,0.5240885,-0.0119425,-0.321548,0.7326685,-0.0730155,0.152802,0.5338885,-0.0295355,0.2781619999999999,0.7525385,-0.0890654999999999,-0.327868,0.9999585,-0.1008455,0.299282,0.9937585,-0.1251855,-0.076192,-0.0028924999999999,0.0030164999999999,0.076192,0.0028925,-0.0030165,-0.114618,-0.4954515,0.0579614999999999,0.1479019999999999,-0.5022415,0.0587044999999999,-0.1486279999999999,-0.8906215000000001,0.1009475,0.203702,-0.8971115000000001,0.1074884999999999,0
125,-0.034492,0.7338880000000001,0.0035054999999999,-0.183408,0.5244979999999999,-0.0100135,-0.322098,0.732308,-0.0733175,0.153042,0.534338,-0.0284065,0.279842,0.751028,-0.0886074999999999,-0.329908,0.998168,-0.1074875,0.3025919999999999,0.9921680000000002,-0.1300075,-0.076192,-0.002891,0.0028204999999999,0.076192,0.0028909999999999,-0.0028205,-0.114698,-0.495302,0.0579714999999999,0.1479019999999999,-0.502032,0.0591624999999999,-0.148688,-0.890212,0.1014615,0.203642,-0.8963920000000001,0.1080505,0
126,-0.034281,0.733935,0.0037274999999999,-0.183408,0.524585,-0.0092395,-0.323268,0.730345,-0.0750875,0.154092,0.534425,-0.0271365,0.282572,0.748205,-0.0891375,-0.333828,0.992755,-0.1179974999999999,0.3063619999999999,0.989455,-0.1369075,-0.076192,-0.002833,0.0028204999999999,0.076192,0.002833,-0.0028205,-0.114698,-0.495395,0.0577035,0.1479019999999999,-0.502195,0.0591624999999999,-0.148748,-0.890135,0.1014875,0.2035719999999999,-0.896235,0.1081534999999999,0
127,-0.033994,0.7334345,0.0041284999999999,-0.183408,0.5246645,-0.0082465,-0.325328,0.7256345,-0.0782475,0.155132,0.5345045,-0.0260355,0.286682,0.7430945,-0.0904975,-0.339098,0.9853345,-0.1314175,0.3112919999999999,0.9841345,-0.1478175,-0.076192,-0.0027535,0.0028204999999999,0.076192,0.0027534999999999,-0.0028205,-0.114698,-0.4954355,0.0576704999999999,0.1479019999999999,-0.5023455,0.0591624999999999,-0.148778,-0.8900755,0.1015035,0.203492,-0.8959955,0.1083325,0
128,-0.0337665,0.7327275,0.0049364999999999,-0.1836485,0.5249674999999999,-0.0074015,-0.3284285,0.7187975,-0.0827575,0.1559215,0.5348075,-0.0250695,0.2918015,0.7353175,-0.0925075,-0.3460585,0.9740375,-0.1483875,0.3165315,0.9757375,-0.1623474999999999,-0.0761604999999999,-0.0026395,0.0028204999999999,0.0761604999999999,0.0026394999999999,-0.0028205,-0.1149385,-0.4953125,0.0576704999999999,0.1477715,-0.5022825,0.0593324999999999,-0.1490185,-0.8898125,0.1015185,0.2031515,-0.8955025000000001,0.1084835,0
129,-0.0336785,0.7324204999999999,0.005981,-0.1835495,0.5239705,-0.0063339999999999,-0.3326695,0.7072305,-0.088333,0.1563405,0.5347805,-0.0235589999999999,0.2986005,0.7238705,-0.095613,-0.3548495,0.9570105,-0.1695829999999999,0.3216805,0.9634105,-0.1819629999999999,-0.0761805,-0.0025425,0.002676,0.0761805,0.0025424999999999,-0.0026759999999999,-0.1155194999999999,-0.4945495,0.057405,0.1474204999999999,-0.5014995,0.059371,-0.1496695,-0.8889795,0.10129,0.2023704999999999,-0.8942795,0.10844,0
130,-0.0335685,0.7324280000000001,0.0077679999999999,-0.1835195,0.5224380000000001,-0.004924,-0.3378595,0.693488,-0.093931,0.1566005,0.534568,-0.022065,0.3064605,0.7102780000000001,-0.098881,-0.3650995,0.931118,-0.193861,0.3282705,0.942198,-0.204881,-0.0761975,-0.0024939999999999,0.002602,0.0761975,0.002494,-0.002602,-0.1160895,-0.4932419999999999,0.0567759999999999,0.1470005,-0.499932,0.059118,-0.1504695,-0.8875719999999999,0.100727,0.2013905,-0.892542,0.108026,0
131,-0.0335335,0.732683,0.0100664999999999,-0.1831165,0.520053,-0.0035355,-0.3424365,0.673833,-0.0987745,0.1566635,0.5336230000000001,-0.0201285,0.3151535,0.690343,-0.1018345,-0.3749265,0.899323,-0.2213245,0.3350535,0.912603,-0.2281445,-0.0762695,-0.0025,0.0025894999999999,0.0762695,0.0025,-0.0025895,-0.1167564999999999,-0.491637,0.0561205,0.1464035,-0.497847,0.0587465,-0.1514565,-0.885647,0.1000105,0.2002135,-0.890407,0.1074634999999999,0
132,-0.034763,0.7292955,0.008483,-0.183095,0.5194455,-0.004319,-0.351355,0.6740455,-0.114545,0.157245,0.5380555,-0.023022,0.320295,0.6869554999999999,-0.1091849999999999,-0.389585,0.8994055,-0.251685,0.340365,0.9206955,-0.249215,-0.07641,-0.0024215,0.001202,0.07641,0.0024215,-0.0012019999999999,-0.1182149999999999,-0.4922445,0.055526,0.145685,-0.4995045,0.059424,-0.153175,-0.8857145000000001,0.099482,0.198455,-0.8903145,0.107254,0
133,-0.0331299999999999,0.730877,0.0121959999999999,-0.1802,0.514637,-0.001543,-0.3589,0.630677,-0.122415,0.15702,0.533787,-0.0163409999999999,0.3384399999999999,0.652587,-0.115965,-0.40578,0.845217,-0.288925,0.34302,0.884637,-0.293805,-0.0766179999999999,-0.002118,0.001431,0.0766179999999999,0.0021179999999999,-0.001431,-0.1186499999999999,-0.487503,0.053941,0.14512,-0.494863,0.058078,-0.1540399999999999,-0.8819929999999999,0.097586,0.19726,-0.8871629999999999,0.106502,0
134,-0.032271,0.7339325000000001,0.0199724999999999,-0.179331,0.5094025,0.0031284999999999,-0.366961,0.6105425,-0.1362485,0.1564789999999999,0.5326124999999999,-0.0140834999999999,0.349339,0.6303125,-0.1274885,-0.421701,0.7734825000000001,-0.3159185,0.359739,0.8033425000000001,-0.3239685,-0.0766,-0.0024325,0.0023824999999999,0.0766,0.0024324999999999,-0.0023825,-0.1187609999999999,-0.4834775,0.0524774999999999,0.144389,-0.4894075,0.0563735,-0.1548109999999999,-0.8770575,0.0957075,0.195739,-0.8812675000000001,0.1047144999999999,0
135,-0.0324755,0.7362755,0.0249155,-0.1811385,0.5064255,0.0070545,-0.3697885,0.5566355,-0.1396865,0.1553815,0.5258455,-0.0091305,0.3933615,0.5710455,-0.1427665,-0.4355785,0.7084254999999999,-0.3442465,0.3651915,0.7274155,-0.3358565,-0.0767055,-0.0027384999999999,0.0029035,0.0767055,0.0027384999999999,-0.0029034999999999,-0.1194585,-0.4812945,0.0528115,0.1432015,-0.4851045,0.0559395,-0.1559684999999999,-0.8726845000000001,0.0951345,0.1941915,-0.8768145,0.1040245,0
136,-0.0315999999999999,0.73427,0.0292889999999999,-0.1819889999999999,0.51,0.0030389999999999,-0.373119,0.5090300000000001,-0.13426,0.157341,0.51325,-0.004337,0.403001,0.5295399999999999,-0.14927,-0.443959,0.62039,-0.35912,0.3673909999999999,0.65751,-0.34912,-0.0767529999999999,-0.002663,0.0034049999999999,0.0767529999999999,0.0026629999999999,-0.003405,-0.119119,-0.47973,0.0521229999999999,0.143121,-0.48195,0.0548079999999999,-0.1561789999999999,-0.8702000000000001,0.094059,0.194071,-0.87344,0.102825,0
137,-0.0314469999999999,0.7381030000000001,0.0312505,-0.180035,0.5013730000000001,0.0097755,-0.369775,0.460373,-0.1240015,0.157575,0.510843,-0.0027695,0.359905,0.4880229999999999,-0.1190315,-0.444425,0.5416230000000001,-0.3732014999999999,0.373745,0.572813,-0.3598915,-0.077127,-0.002911,0.0033574999999999,0.077127,0.002911,-0.0033574999999999,-0.119435,-0.480567,0.0520865,0.142585,-0.476167,0.0534825,-0.1564749999999999,-0.865397,0.0930805,0.193625,-0.8681169999999999,0.1016215,0
138,-0.0320355,0.7412740000000001,0.032372,-0.1802355,0.501954,0.009937,-0.3630555,0.425544,-0.118217,0.1556944999999999,0.506194,-0.004898,0.3563145,0.458334,-0.116697,-0.4207555,0.452754,-0.353567,0.4011445,0.460944,-0.348147,-0.0776465,-0.002751,0.0025109999999999,0.0776465,0.002751,-0.0025109999999999,-0.1198655,-0.477166,0.050868,0.1417445,-0.471506,0.051468,-0.1572155,-0.860216,0.09097,0.1920744999999999,-0.863996,0.099028,0
