sb224sc-HT22-VT27/4dt907/src/data/labeled_files/A16_kinect.csv
FrameNo,nose_3d_x,nose_3d_y,nose_3d_z,left_shoulder_3d_x,left_shoulder_3d_y,left_shoulder_3d_z,left_elbow_3d_x,left_elbow_3d_y,left_elbow_3d_z,right_shoulder_3d_x,right_shoulder_3d_y,right_shoulder_3d_z,right_elbow_3d_x,right_elbow_3d_y,right_elbow_3d_z,left_wrist_3d_x,left_wrist_3d_y,left_wrist_3d_z,right_wrist_3d_x,right_wrist_3d_y,right_wrist_3d_z,left_hip_3d_x,left_hip_3d_y,left_hip_3d_z,right_hip_3d_x,right_hip_3d_y,right_hip_3d_z,left_knee_3d_x,left_knee_3d_y,left_knee_3d_z,right_knee_3d_x,right_knee_3d_y,right_knee_3d_z,left_ankle_3d_x,left_ankle_3d_y,left_ankle_3d_z,right_ankle_3d_x,right_ankle_3d_y,right_ankle_3d_z,activity_label
0,0.013236,0.7641990000000001,0.069222,-0.1526259999999999,0.476179,0.056691,-0.1762159999999999,0.2410489999999999,0.0555849999999999,0.164814,0.478429,0.063332,0.187724,0.242949,0.03451,-0.200836,0.049414,-0.015261,0.188064,0.023772,-0.055291,-0.07333,0.00348,0.000529,0.07333,-0.00348,-0.000529,-0.124926,-0.354601,-0.008841,0.1176639999999999,-0.403761,0.0071329999999999,-0.1318359999999999,-0.657731,-0.0101559999999999,0.120434,-0.7066809999999999,-0.01869,0
1,0.0157125,0.7654660000000001,0.07236,-0.1483855,0.4784259999999999,0.060003,-0.2122755,0.288916,-0.0056819999999999,0.1656845,0.479386,0.0555579999999999,0.2335445,0.300506,-0.01783,-0.2450355,0.1523959999999999,-0.11608,0.2464644999999999,0.1586959999999999,-0.12606,-0.0734865,0.003366,0.0010609999999999,0.0734865,-0.003366,-0.0010609999999999,-0.1249955,-0.351954,-0.0058899999999999,0.1169845,-0.394024,0.0091179999999999,-0.1296155,-0.6550739999999999,-0.005582,0.1196045,-0.6970139999999999,-0.016328,0
2,0.0157315,0.765346,0.0730145,-0.1474165,0.479956,0.0599745,-0.2152765,0.297386,-0.0119134999999999,0.1647134999999999,0.480146,0.0569525,0.2342135,0.306446,-0.0219154999999999,-0.2526965,0.1781559999999999,-0.1590784999999999,0.2542335,0.177316,-0.1703385,-0.0736445,0.003283,0.0012815,0.0736445,-0.003283,-0.0012814999999999,-0.1254465,-0.351134,-0.0055124999999999,0.1166635,-0.393654,0.0092145,-0.1295565,-0.654284,-0.0055264999999999,0.1199935,-0.696654,-0.0162344999999999,0
3,0.0158665,0.764772,0.073637,-0.1449025,0.4823619999999999,0.059711,-0.2251925,0.332682,-0.026534,0.1640075,0.480602,0.0579379999999999,0.2378975,0.3386019999999999,-0.02908,-0.2631625,0.220662,-0.161702,0.2631975,0.222482,-0.175252,-0.0737675,0.003363,0.0013269999999999,0.0737675,-0.003363,-0.001327,-0.1260225,-0.349118,-0.004951,0.1162575,-0.393308,0.0093989999999999,-0.1299525,-0.652238,-0.004031,0.1204975,-0.696308,-0.015713,0
4,0.0155734999999999,0.764018,0.075408,-0.1436515,0.483548,0.05902,-0.2314015,0.353518,-0.038249,0.1629385,0.481138,0.0586799999999999,0.2432185,0.349638,-0.0445669999999999,-0.2785315,0.266698,-0.188718,0.2859285,0.272288,-0.201948,-0.0739355,0.003226,0.001562,0.0739355,-0.0032259999999999,-0.001562,-0.1261615,-0.3485419999999999,-0.0043349999999999,0.1156285,-0.392542,0.0095249999999999,-0.1297515,-0.6516620000000001,-0.0031699999999999,0.1182585,-0.695732,-0.009938,0
5,0.011785,0.7613305,0.076122,-0.141551,0.4863805,0.054104,-0.264321,0.4692404999999999,-0.079217,0.153739,0.4885704999999999,0.047566,0.273709,0.4510805,-0.085927,-0.3220309999999999,0.4501205,-0.264137,0.311379,0.4389504999999999,-0.311127,-0.074677,0.0028795,0.004289,0.074677,-0.0028795,-0.004289,-0.124561,-0.3462195,-0.0053959999999999,0.115429,-0.3958695,0.008775,-0.125881,-0.6492395,-0.0013689999999999,0.121799,-0.6988395,-0.016118,0
6,0.011227,0.760207,0.076521,-0.14142,0.488987,0.052343,-0.2830499999999999,0.527427,-0.112243,0.1522899999999999,0.493037,0.045349,0.2812,0.5118069999999999,-0.104753,-0.3367699999999999,0.5715669999999999,-0.319763,0.31192,0.559067,-0.337633,-0.07475,0.002457,0.0043409999999999,0.07475,-0.002457,-0.004341,-0.1244,-0.3459129999999999,-0.005816,0.1142799999999999,-0.394673,0.0088559999999999,-0.12549,-0.6489130000000001,-0.001231,0.1219399999999999,-0.697643,-0.015571,0
7,0.0118265,0.7557285,0.0736215,-0.1474355,0.4932585,0.0512685,-0.2591155,0.5363085,-0.0565194999999999,0.1556345,0.4929185,0.0477635,0.2617945,0.5231385,-0.0650735,-0.2974055,0.5950084999999999,-0.2021835,0.2836045,0.5847985,-0.2194535,-0.0741215,0.0024954999999999,0.0018255,0.0741215,-0.0024955,-0.0018255,-0.1237155,-0.3540815,-0.0055084999999999,0.1156045,-0.4001814999999999,0.0091935,-0.1256055,-0.6570715,-0.0012374999999999,0.1215644999999999,-0.7032315,-0.0138135,0
8,0.0111744999999999,0.7532375,0.073604,-0.1476505,0.4966975,0.050325,-0.2628505,0.5765475,-0.0566649999999999,0.1546495,0.4949975,0.046837,0.2629494999999999,0.5610275,-0.065883,-0.3001205,0.6689675,-0.202253,0.2849395,0.6570475,-0.2194229999999999,-0.0740075,0.0023604999999999,0.001781,0.0740075,-0.0023604999999999,-0.0017809999999999,-0.1232805,-0.3565625,-0.0052129999999999,0.1157895,-0.4026324999999999,0.009626,-0.1247405,-0.6595424999999999,-0.0002689999999999,0.1219595,-0.7057025,-0.0130889999999999,0
9,0.010355,0.750635,0.0734015,-0.148221,0.5001450000000001,0.0493065,-0.265561,0.6149950000000001,-0.0569154999999999,0.153679,0.497195,0.0458135,0.2633689999999999,0.598515,-0.0660535,-0.300711,0.7393850000000001,-0.2024435,0.285359,0.724805,-0.2195935,-0.073904,0.002236,0.0016154999999999,0.073904,-0.002236,-0.0016154999999999,-0.122801,-0.359645,-0.0052024999999999,0.116019,-0.405495,0.0098465,-0.1238409999999999,-0.6625949999999999,0.0004185,0.122479,-0.708585,-0.0128165,0
10,0.009937,0.748267,0.073225,-0.148841,0.503237,0.048664,-0.2651509999999999,0.640887,-0.0570009999999999,0.153719,0.498747,0.045346,0.263779,0.625357,-0.066139,-0.300581,0.789727,-0.200879,0.285719,0.775377,-0.217969,-0.073751,0.002155,0.0015229999999999,0.073751,-0.002155,-0.001523,-0.122311,-0.363123,-0.0052859999999999,0.1162489999999999,-0.408403,0.009897,-0.123301,-0.666063,0.0006829999999999,0.122959,-0.711473,-0.012739,0
11,0.00964,0.746076,0.0728505,-0.149582,0.506136,0.0482335,-0.264692,0.660736,-0.0570334999999999,0.153938,0.499946,0.0450795,0.264238,0.646196,-0.0661715,-0.300212,0.8273860000000001,-0.1974614999999999,0.286088,0.813586,-0.2145014999999999,-0.073568,0.00215,0.0014834999999999,0.073568,-0.0021499999999999,-0.0014834999999999,-0.121752,-0.3667439999999999,-0.0053155,0.116628,-0.411474,0.0099215,-0.122712,-0.669684,0.0009484999999999,0.123388,-0.714564,-0.0126744999999999,0
12,0.0094575,0.744064,0.0721665,-0.1503215,0.5092439999999999,0.0480295,-0.2642414999999999,0.6793239999999999,-0.0546645,0.1541384999999999,0.500854,0.0448655,0.2645985,0.6650539999999999,-0.0641185,-0.2999414999999999,0.859904,-0.1881185,0.2842885,0.8470639999999999,-0.2046185,-0.0733655,0.002189,0.0014884999999999,0.0733655,-0.002189,-0.0014884999999999,-0.1211715,-0.370286,-0.0053005,0.1170785,-0.4144759999999999,0.0099325,-0.1220715,-0.673216,0.0012254999999999,0.1238985,-0.7175860000000001,-0.0125665,0
13,0.0094205,0.742023,0.071279,-0.1506805,0.511543,0.048349,-0.2622605,0.691283,-0.046937,0.1542995,0.501053,0.04497,0.2610795,0.678503,-0.056863,-0.2961105,0.882513,-0.169281,0.2805295,0.870593,-0.182021,-0.0731245,0.0022589999999999,0.00116,0.0731245,-0.002259,-0.00116,-0.1206505,-0.373537,-0.0050639999999999,0.1175195,-0.417537,0.010279,-0.1214505,-0.6764370000000001,0.001784,0.1241994999999999,-0.720647,-0.0120709999999999,0
14,0.0093769999999999,0.7404689999999999,0.070293,-0.150739,0.513679,0.048699,-0.258679,0.699719,-0.037958,0.154311,0.500779,0.0451159999999999,0.256401,0.687839,-0.047364,-0.292699,0.897929,-0.1493419999999999,0.277551,0.886319,-0.161752,-0.072949,0.0023419999999999,0.0007959999999999,0.072949,-0.002342,-0.000796,-0.120249,-0.376051,-0.004769,0.117861,-0.420051,0.0106559999999999,-0.120999,-0.6789310000000001,0.0023679999999999,0.1245209999999999,-0.723171,-0.011694,0
15,0.0094535,0.7392435,0.0693159999999999,-0.1503805,0.5148635,0.04902,-0.2558905,0.7052335000000001,-0.030609,0.1543195,0.5008635,0.045203,0.2524495,0.6934335,-0.039376,-0.2903105,0.9078335,-0.1332249999999999,0.2752795,0.8966435,-0.144295,-0.0728025,0.0024235,0.000578,0.0728025,-0.0024234999999999,-0.000578,-0.1198505,-0.3780065,-0.0045509999999999,0.1182495,-0.4217665,0.010955,-0.1205505,-0.6808664999999999,0.002888,0.1249295,-0.7248964999999999,-0.01117,0
16,0.0095224999999999,0.738173,0.0684444999999999,-0.1500195,0.515663,0.0495305,-0.2531295,0.709783,-0.0237205,0.1542805,0.500943,0.0452754999999999,0.2486105,0.698163,-0.0318395,-0.2883195,0.916113,-0.1178505,0.2735705,0.905253,-0.1280005,-0.0726715,0.00247,0.0004744999999999,0.0726715,-0.00247,-0.0004745,-0.1194795,-0.379737,-0.0042435,0.1186305,-0.423207,0.0112754999999999,-0.1200995,-0.682577,0.0034094999999999,0.1253604999999999,-0.726347,-0.0106425,0
17,0.0095375,0.737457,0.0678265,-0.1497205,0.516187,0.0499385,-0.2506205,0.712517,-0.0184685,0.1541295,0.501087,0.0453235,0.2454595,0.701127,-0.0257835,-0.2870005,0.921547,-0.1050825,0.2722894999999999,0.911117,-0.1140325,-0.0726175,0.0025239999999999,0.0005075,0.0726175,-0.0025239999999999,-0.0005075,-0.1192004999999999,-0.380833,-0.0038364999999999,0.1189095,-0.424253,0.0116825,-0.1198104999999999,-0.683643,0.0039545,0.1257194999999999,-0.727383,-0.0101385,0
18,0.0096524999999999,0.736811,0.067454,-0.1494315,0.5164810000000001,0.050283,-0.2481915,0.7146910000000001,-0.013394,0.1538985,0.501071,0.045361,0.2428884999999999,0.703531,-0.0204029999999999,-0.2865215,0.925411,-0.094028,0.2713385,0.916291,-0.100488,-0.0725685,0.002574,0.0005879999999999,0.0725685,-0.002574,-0.0005879999999999,-0.1189215,-0.381389,-0.003491,0.1191984999999999,-0.424909,0.0120369999999999,-0.1195215,-0.6841689999999999,0.0042989999999999,0.1260885,-0.728049,-0.009631,0
19,0.0096995,0.7362029999999999,0.0670979999999999,-0.1491605,0.5169929999999999,0.050588,-0.2459205,0.716583,-0.0088309999999999,0.1536695,0.500883,0.0453859999999999,0.2406195,0.705353,-0.015546,-0.2861605,0.929003,-0.083293,0.2707695,0.920153,-0.088513,-0.0725345,0.0026219999999999,0.0006689999999999,0.0725345,-0.0026219999999999,-0.000669,-0.1186504999999999,-0.381817,-0.003165,0.1194695,-0.425407,0.01236,-0.1192504999999999,-0.684577,0.0046999999999999,0.1264695,-0.728557,-0.009239,0
20,0.0097154999999999,0.735347,0.0664445,-0.1486675,0.516957,0.0508505,-0.2437575,0.718077,-0.0049104999999999,0.1534525,0.500237,0.0450715,0.2391525,0.706207,-0.0112834999999999,-0.2860074999999999,0.931767,-0.0740485,0.2703125,0.922867,-0.0773985,-0.0725335,0.0026569999999999,0.0007935,0.0725335,-0.0026569999999999,-0.0007934999999999,-0.1184675,-0.382173,-0.0027564999999999,0.1196825,-0.425793,0.0127385,-0.1190875,-0.684953,0.0051595,0.1267125,-0.728953,-0.0087674999999999,0
21,0.009649,0.7346659999999999,0.065775,-0.148113,0.516546,0.05104,-0.241903,0.7188559999999999,-0.002227,0.153207,0.4998559999999999,0.044711,0.237917,0.7066859999999999,-0.0082689999999999,-0.2859929999999999,0.933076,-0.067747,0.270157,0.924206,-0.069967,-0.072545,0.002674,0.0009419999999999,0.072545,-0.002674,-0.0009419999999999,-0.1184429999999999,-0.3823339999999999,-0.0024949999999999,0.119757,-0.425954,0.0129519999999999,-0.119113,-0.685134,0.005363,0.126817,-0.729124,-0.008598,0
22,0.009487,0.734318,0.0651005,-0.1476579999999999,0.516208,0.0510825,-0.241088,0.719028,-0.0004674999999999,0.152982,0.4996279999999999,0.0442525,0.237112,0.707018,-0.0058555,-0.286008,0.933928,-0.0626465,0.270042,0.925378,-0.0635165,-0.0725649999999999,0.00268,0.0009895,0.0725649999999999,-0.00268,-0.0009894999999999,-0.118448,-0.382312,-0.0023214999999999,0.119782,-0.425772,0.0130555,-0.1192079999999999,-0.685142,0.0054075,0.126832,-0.728952,-0.0082845,0
23,0.0092965,0.7340705000000001,0.0643885,-0.1473205,0.5159205,0.0510495,-0.2402905,0.7191305,0.0013045,0.1527895,0.4994905,0.0437755,0.2365195,0.7072405,-0.0038034999999999,-0.2860405,0.9344805,-0.0581104999999999,0.2699895,0.9263105,-0.0584095,-0.0725935,0.0026964999999999,0.0009885,0.0725935,-0.0026964999999999,-0.0009884999999999,-0.1184804999999999,-0.3821894999999999,-0.0021214999999999,0.1197995,-0.4255494999999999,0.0131175,-0.1193305,-0.6850395,0.0054045,0.1267995,-0.7287494999999999,-0.0081734999999999,0
24,0.008919,0.7339205,0.0635585,-0.147118,0.5156504999999999,0.0508955,-0.239498,0.7191605,0.0031165,0.152522,0.4993305,0.0433305,0.236082,0.7074705,-0.0021994999999999,-0.286218,0.9346705,-0.0546305,0.270022,0.9270505,-0.0547265,-0.072616,0.0026964999999999,0.0009875,0.072616,-0.0026965,-0.0009874999999999,-0.118558,-0.3820294999999999,-0.0018984999999999,0.119782,-0.4254894999999999,0.0131935,-0.119498,-0.6849095000000001,0.0052995,0.126682,-0.7286795,-0.0081614999999999,0
25,0.008512,0.7336465,0.062721,-0.146971,0.5154465,0.050822,-0.238981,0.7192065,0.004301,0.152259,0.4993364999999999,0.042881,0.235829,0.7078465,-0.0013639999999999,-0.286271,0.9349665,-0.052783,0.270229,0.9278065,-0.052649,-0.072623,0.0026954999999999,0.001029,0.072623,-0.0026955,-0.0010289999999999,-0.118561,-0.3822535,-0.0016179999999999,0.119789,-0.4255735,0.013247,-0.1196609999999999,-0.6851835000000001,0.005173,0.126629,-0.7287635,-0.0081129999999999,0
26,0.0081169999999999,0.7334965,0.062395,-0.146858,0.5153165,0.050725,-0.238568,0.7192065,0.005107,0.151942,0.4995564999999999,0.042772,0.2357419999999999,0.7083665,-0.000952,-0.286388,0.9349665,-0.052387,0.270592,0.9278765,-0.0527399999999999,-0.072625,0.0026954999999999,0.0011089999999999,0.072625,-0.0026955,-0.0011089999999999,-0.118558,-0.3822535,-0.001591,0.119792,-0.4255735,0.013129,-0.119668,-0.6851835000000001,0.004965,0.126652,-0.7287635,-0.0082129999999999,0
27,0.0076784999999999,0.7333565,0.0617604999999999,-0.1467835,0.5149665,0.0502745,-0.2382635,0.7192065,0.0051355,0.1516664999999999,0.4999765,0.0423135,0.2356265,0.7085865,-0.0010174999999999,-0.2864735,0.9349665,-0.0528405,0.2709165,0.9278865,-0.0531835,-0.0726705,0.0026954999999999,0.0010814999999999,0.0726705,-0.0026955,-0.0010814999999999,-0.1185935,-0.3822535,-0.0019705,0.1197565,-0.4255735,0.0126765,-0.1197334999999999,-0.6851835000000001,0.0043295,0.1267265,-0.7287635,-0.0087665,0
28,0.0072054999999999,0.7332165,0.060309,-0.1466275,0.5147765,0.048986,-0.2380175,0.7192065,0.0039889999999999,0.1512425,0.5003665,0.041009,0.2355425,0.7087865,-0.002082,-0.2864975,0.9349665,-0.054135,0.2711425,0.9278865,-0.0544709999999999,-0.0727505,0.0026954999999999,0.001147,0.0727505,-0.0026955,-0.0011469999999999,-0.1186075,-0.3822535,-0.0032639999999999,0.1197125,-0.4256335,0.011382,-0.1197975,-0.6851835000000001,0.002834,0.1267925,-0.7288235,-0.0103539999999999,0
29,0.0065375,0.7330415,0.058061,-0.1467075,0.5146615,0.047239,-0.2380575,0.7192715,0.00191,0.1506025,0.5008414999999999,0.039151,0.2353625,0.7091615,-0.004165,-0.2867275,0.9348015,-0.056218,0.2718825,0.9281715,-0.056816,-0.0728975,0.0027025,0.001142,0.0728975,-0.0027024999999999,-0.0011419999999999,-0.1186675,-0.3830785,-0.005344,0.1196525,-0.4261184999999999,0.009303,-0.1200074999999999,-0.6860385,0.000236,0.1266324999999999,-0.7293085,-0.0124359999999999,0
30,0.0058075,0.7329695,0.0553414999999999,-0.1468455,0.5149795,0.0450755,-0.2381855,0.7195695,-0.0006035,0.1499145,0.5013595000000001,0.0369155,0.2350845,0.7095595,-0.0066825,-0.2871055,0.9345495,-0.0591575,0.2726345,0.9280995,-0.0605315,-0.0730375,0.0026974999999999,0.0011764999999999,0.0730375,-0.0026974999999999,-0.0011765,-0.1187655,-0.3839305,-0.0078565,0.1195645,-0.4265905,0.0067904999999999,-0.1202854999999999,-0.6869405,-0.0029625,0.1263645,-0.7297804999999999,-0.0152265,1
31,0.005004,0.732916,0.0522205,-0.147123,0.5155259999999999,0.0425215,-0.238563,0.719816,-0.0035745,0.149097,0.5017959999999999,0.0343155,0.234737,0.709876,-0.0096785,-0.287563,0.934206,-0.0633455,0.2732569999999999,0.928046,-0.0654245,-0.073193,0.002678,0.0012395,0.073193,-0.002678,-0.0012394999999999,-0.118903,-0.3847939999999999,-0.0107864999999999,0.119437,-0.427454,0.0038265,-0.120683,-0.687844,-0.0065375,0.126027,-0.730624,-0.0185125,1
32,0.0040819999999999,0.7327825,0.0488985,-0.147542,0.5154825,0.0398914999999999,-0.239042,0.7197325,-0.0068925,0.148328,0.5027425,0.0317035,0.234288,0.7105325,-0.0131534999999999,-0.288002,0.9338125,-0.0682795,0.273798,0.9280325,-0.0713485,-0.073332,0.0026655,0.0013004999999999,0.073332,-0.0026655,-0.0013004999999999,-0.119012,-0.3856675,-0.0142554999999999,0.119318,-0.4282575,0.0003594999999999,-0.121002,-0.6887375,-0.0104865,0.1256779999999999,-0.7314075,-0.0223375,1
33,0.0032565,0.7326509999999999,0.045142,-0.1480214999999999,0.515481,0.037194,-0.2395215,0.719611,-0.010805,0.1477184999999999,0.503451,0.028823,0.2338084999999999,0.711021,-0.017089,-0.2884215,0.933321,-0.074307,0.2742485,0.927881,-0.077729,-0.0734825,0.002659,0.001298,0.0734825,-0.002659,-0.001298,-0.1190715,-0.386739,-0.018014,0.1191985,-0.427999,-0.003502,-0.1213415,-0.689829,-0.01469,0.1253185,-0.731149,-0.026448,1
34,0.0023585,0.7325524999999999,0.040353,-0.1485155,0.5154924999999999,0.033481,-0.2400854999999999,0.7195225000000001,-0.016002,0.1470945,0.5043225,0.024988,0.2333945,0.7116925000000001,-0.022386,-0.2888855,0.9328525,-0.081916,0.2746745,0.9277425,-0.085776,-0.0736324999999999,0.0026334999999999,0.0012959999999999,0.0736324999999999,-0.0026335,-0.0012959999999999,-0.1191655,-0.3877875,-0.0227409999999999,0.1190344999999999,-0.4276475,-0.008354,-0.1217454999999999,-0.6909075,-0.020154,0.1248944999999999,-0.7308075,-0.031446,1
35,0.001379,0.7326005,0.034404,-0.148982,0.5156505,0.028678,-0.240682,0.7194105000000001,-0.022677,0.146528,0.5050305,0.020048,0.233028,0.7119205000000001,-0.02932,-0.289282,0.9320305,-0.091676,0.275228,0.9270405,-0.095466,-0.073795,0.0025844999999999,0.001379,0.073795,-0.0025845,-0.001379,-0.119312,-0.3888095,-0.028582,0.118918,-0.4269294999999999,-0.014496,-0.122232,-0.6919595,-0.026774,0.124508,-0.7300895,-0.037677,1
36,0.0004715,0.7324895,0.0280419999999999,-0.1493585,0.5159195,0.023397,-0.2411085,0.7192795000000001,-0.03016,0.1460415,0.5054895,0.014588,0.2327815,0.7118695,-0.037015,-0.2894785,0.9311195,-0.102185,0.2758915,0.9261695,-0.105585,-0.0739215,0.0025874999999999,0.001518,0.0739215,-0.0025874999999999,-0.001518,-0.1194985,-0.3896905,-0.0350689999999999,0.1189514999999999,-0.4260604999999999,-0.02147,-0.1226785,-0.6928605,-0.033835,0.1242814999999999,-0.7292105,-0.0444279999999999,1
37,-0.0003554999999999,0.7322485,0.021263,-0.1497255,0.5161985,0.017814,-0.2414055,0.7190785,-0.038333,0.1455945,0.5059285,0.008725,0.2333345,0.7113585,-0.045589,-0.2895054999999999,0.9300185,-0.113326,0.2764945,0.9248985,-0.116296,-0.0740375,0.0026074999999999,0.001461,0.0740375,-0.0026075,-0.001461,-0.1197655,-0.3895215,-0.0418599999999999,0.1190245,-0.4244715,-0.028699,-0.1229655,-0.6927215,-0.0412569999999999,0.1241145,-0.7276315,-0.05153,1
38,-0.001011,0.7316545,0.0134274999999999,-0.149958,0.5158145000000001,0.0110955,-0.241518,0.7184345,-0.0478144999999999,0.145352,0.5053245000000001,0.0014955,0.234142,0.7100945000000001,-0.0550584999999999,-0.289328,0.9287045,-0.1262635,0.277002,0.9222345,-0.1295535,-0.074084,0.0025664999999999,0.0014125,0.074084,-0.0025664999999999,-0.0014124999999999,-0.119988,-0.3886954999999999,-0.0493065,0.119222,-0.4232255,-0.0366535,-0.123118,-0.6919155,-0.0492365,0.124122,-0.7263955,-0.0594745,1
39,-0.0017424999999999,0.7302584999999999,0.004291,-0.1500715,0.5153485,0.0034889999999999,-0.2416815,0.7172084999999999,-0.058716,0.1451085,0.5049184999999999,-0.006706,0.2351085,0.7085585,-0.0663499999999999,-0.2890215,0.9265985,-0.1410779999999999,0.2774385,0.9184485,-0.144198,-0.0741545,0.0024655,0.0012959999999999,0.0741545,-0.0024654999999999,-0.001296,-0.1203615,-0.3874015,-0.057649,0.1194185,-0.4215815,-0.045721,-0.1233414999999999,-0.6906315000000001,-0.057995,0.1240985,-0.7247515,-0.068499,1
40,-0.002264,0.728815,-0.0066314999999999,-0.1501239999999999,0.514985,-0.0050644999999999,-0.241574,0.715755,-0.0715825,0.145146,0.504265,-0.0158915,0.236256,0.706535,-0.0793875,-0.288474,0.923885,-0.1578815,0.2779959999999999,0.914005,-0.1609014999999999,-0.074296,0.002286,0.0011555,0.074296,-0.0022859999999999,-0.0011555,-0.120604,-0.385235,-0.0671615,0.120046,-0.418895,-0.0562605,-0.123564,-0.688455,-0.0679955,0.124316,-0.722075,-0.0784965,1
41,-0.0026165,0.7270045,-0.018369,-0.1499755,0.5147645000000001,-0.0138949999999999,-0.2414155,0.7142545,-0.085135,0.1453545,0.5035345,-0.025395,0.2374845,0.7042545,-0.0931599999999999,-0.2876255,0.9211545,-0.1752129999999999,0.2787545,0.9094445,-0.178143,-0.0744865,0.0020784999999999,0.0011709999999999,0.0744865,-0.0020785,-0.0011709999999999,-0.1206955,-0.3822755,-0.077248,0.1208844999999999,-0.4143954999999999,-0.067367,-0.1237955,-0.6855255,-0.078637,0.1246645,-0.7175954999999999,-0.089009,1
42,-0.002908,0.72518,-0.0303175,-0.149707,0.51451,-0.0232145,-0.241147,0.71269,-0.0990315,0.145653,0.50263,-0.0351454999999999,0.238653,0.70177,-0.1074185,-0.2866769999999999,0.91831,-0.1926885,0.279543,0.90555,-0.1965385,-0.074693,0.001832,0.0012384999999999,0.074693,-0.001832,-0.0012385,-0.120847,-0.37847,-0.0880455,0.121833,-0.40884,-0.0793075,-0.123897,-0.68169,-0.0895615,0.125043,-0.71205,-0.0997595,1
43,-0.0031455,0.722278,-0.0423679999999999,-0.1492205,0.513988,-0.0324739999999999,-0.2406805,0.710558,-0.1133089999999999,0.1460095,0.501298,-0.044919,0.2399395,0.698548,-0.122206,-0.2852605,0.914808,-0.210622,0.2803795,0.899428,-0.215222,-0.0748945,0.0016469999999999,0.001173,0.0748945,-0.001647,-0.0011729999999999,-0.1210305,-0.373902,-0.099758,0.1230294999999999,-0.401272,-0.091923,-0.1238805,-0.677122,-0.10049,0.1254195,-0.704502,-0.110686,1
44,-0.003225,0.719149,-0.0537625,-0.148574,0.5130189999999999,-0.0410534999999999,-0.240054,0.7081489999999999,-0.1266515,0.146206,0.500159,-0.0540134999999999,0.241156,0.695589,-0.1360775,-0.283644,0.911299,-0.2270995,0.281076,0.894639,-0.2324695,-0.0750649999999999,0.001425,0.0010365,0.0750649999999999,-0.0014249999999999,-0.0010364999999999,-0.121534,-0.369571,-0.1114894999999999,0.124306,-0.392901,-0.1040685,-0.1238539999999999,-0.6726909999999999,-0.1106814999999999,0.125756,-0.696151,-0.1209045,1
45,-0.0031824999999999,0.7156155,-0.0646725,-0.1478755,0.5117055,-0.0491925,-0.2390655,0.7054255,-0.1397145,0.1462845,0.4989154999999999,-0.0628415,0.2422745,0.6925155,-0.1494695,-0.2818454999999999,0.9075955,-0.2430155,0.2816345,0.8903055,-0.2494255,-0.0752135,0.0011375,0.0009544999999999,0.0752135,-0.0011374999999999,-0.0009544999999999,-0.1221255,-0.3642445,-0.1231825,0.1256344999999999,-0.3850945,-0.1158985,-0.1237554999999999,-0.6672745,-0.1202835,0.1260244999999999,-0.6883445,-0.1307395,1
46,-0.0029295,0.7120814999999999,-0.074364,-0.1469845,0.5099315,-0.056756,-0.2376545,0.7022014999999999,-0.151261,0.1464955,0.4976915,-0.070865,0.2425955,0.6897215,-0.16174,-0.2800145,0.9032315,-0.257465,0.2820355,0.8861215,-0.265195,-0.0752174999999999,0.0008565,0.0009789999999999,0.0752174999999999,-0.0008565,-0.000979,-0.1227444999999999,-0.3555885,-0.134737,0.1271255,-0.3763984999999999,-0.127282,-0.1236245,-0.6586285000000001,-0.129398,0.1263855,-0.6796085000000001,-0.13964,1
47,-0.0026939999999999,0.708368,-0.0826595,-0.146086,0.508028,-0.0631065,-0.236136,0.699118,-0.1612485,0.146694,0.495938,-0.0777085,0.243124,0.686548,-0.1725955,-0.2781059999999999,0.899288,-0.2699275,0.282474,0.882768,-0.2775875,-0.075242,0.0006239999999999,0.0010965,0.075242,-0.0006239999999999,-0.0010965,-0.1233659999999999,-0.3464819999999999,-0.1455705,0.128554,-0.366902,-0.1380795,-0.1235559999999999,-0.649532,-0.1374015,0.126674,-0.670122,-0.1474385,1
48,-0.002331,0.706475,-0.0950965,-0.1452719999999999,0.507045,-0.0740075,-0.2344119999999999,0.697355,-0.1753385,0.146998,0.494705,-0.0890105,0.243538,0.684345,-0.1870175,-0.276182,0.896285,-0.2858215,0.282938,0.881235,-0.2938715,-0.0752819999999999,0.0005129999999999,0.0010334999999999,0.0752819999999999,-0.0005129999999999,-0.0010335,-0.1237919999999999,-0.335505,-0.1612705,0.130078,-0.355385,-0.1540085,-0.1233219999999999,-0.638565,-0.1502685,0.127038,-0.6585650000000001,-0.1596645,1
49,-0.0013975,0.7034835,-0.106183,-0.1430545,0.5045235,-0.084364,-0.2325345,0.6941134999999999,-0.188132,0.1474255,0.4926135,-0.099627,0.2441855,0.6816035,-0.199929,-0.2738845,0.8893035,-0.29982,0.2838655,0.8793635,-0.3083,-0.0754085,0.0004235,0.0009699999999999,0.0754085,-0.0004235,-0.0009699999999999,-0.1244145,-0.3212765,-0.1794649999999999,0.1316355,-0.3386165,-0.171751,-0.1228345,-0.6235865,-0.162976,0.1276554999999999,-0.6411565,-0.171393,1
50,-0.0002729999999999,0.7007455,-0.116777,-0.140741,0.5021455,-0.094256,-0.230451,0.6911455,-0.199968,0.147829,0.4909255,-0.109719,0.245019,0.6788455,-0.212642,-0.271441,0.8836255000000001,-0.3134949999999999,0.284309,0.8771755,-0.322695,-0.075569,0.0002995,0.0006449999999999,0.075569,-0.0002995,-0.000645,-0.124971,-0.3066345,-0.197044,0.133169,-0.3219444999999999,-0.189172,-0.1221809999999999,-0.6081745,-0.175093,0.128349,-0.6237845,-0.182519,1
51,0.0012499999999999,0.697944,-0.127468,-0.137795,0.499644,-0.104616,-0.227885,0.687994,-0.211746,0.148635,0.488334,-0.119892,0.245815,0.675604,-0.225068,-0.268685,0.8794040000000001,-0.327365,0.285385,0.873434,-0.336195,-0.075778,0.000366,0.0003849999999999,0.075778,-0.0003659999999999,-0.0003849999999999,-0.125085,-0.2915259999999999,-0.214812,0.1348349999999999,-0.305386,-0.20662,-0.121155,-0.592156,-0.187377,0.129435,-0.606306,-0.193739,1
52,0.0032575,0.6956669999999999,-0.1374719999999999,-0.1345984999999999,0.497287,-0.1141209999999999,-0.2255885,0.684867,-0.222526,0.1496115,0.485997,-0.129356,0.2467415,0.672777,-0.2359149999999999,-0.2660484999999999,0.875737,-0.339565,0.2866615,0.871867,-0.347955,-0.0758955,0.000487,0.000245,0.0758955,-0.000487,-0.0002449999999999,-0.1251785,-0.2761929999999999,-0.231369,0.1365415,-0.288383,-0.223125,-0.1203984999999999,-0.575863,-0.199073,0.1300815,-0.588333,-0.2043309999999999,1
53,0.005238,0.693651,-0.147295,-0.131574,0.495471,-0.123556,-0.223094,0.682461,-0.233321,0.1505459999999999,0.483371,-0.138975,0.2475659999999999,0.669491,-0.246745,-0.263574,0.8725809999999999,-0.351815,0.287986,0.869011,-0.359685,-0.075982,0.0007309999999999,6.499999999998174e-05,0.075982,-0.0007309999999999,-6.50000000000095e-05,-0.125024,-0.260409,-0.247435,0.1381059999999999,-0.270699,-0.239614,-0.119644,-0.559059,-0.210916,0.130686,-0.569669,-0.214937,1
54,0.0073185,0.6911349999999999,-0.157869,-0.1287075,0.493135,-0.134059,-0.2206775,0.679705,-0.245222,0.1512825,0.480345,-0.149347,0.2484625,0.6658149999999999,-0.258335,-0.2606774999999999,0.8689749999999999,-0.365175,0.2892625,0.864545,-0.372885,-0.0760685,0.001005,-0.000235,0.0760685,-0.0010049999999999,0.000235,-0.1248975,-0.2398749999999999,-0.264805,0.1397324999999999,-0.248575,-0.257395,-0.1188675,-0.537465,-0.223942,0.1313325,-0.546525,-0.226264,1
55,0.0093514999999999,0.68792,-0.168285,-0.1260185,0.49101,-0.14468,-0.2185385,0.67655,-0.256947,0.1519414999999999,0.47691,-0.159619,0.2493115,0.66207,-0.26959,-0.2583085,0.86573,-0.37824,0.2904415,0.86014,-0.38562,-0.0761314999999999,0.00129,-0.00049,0.0761314999999999,-0.0012899999999999,0.0004899999999999,-0.1246785,-0.21826,-0.28156,0.1412915,-0.22624,-0.2748,-0.1179185,-0.5148199999999999,-0.235904,0.1319615,-0.52316,-0.237452,1
56,0.011327,0.68524,-0.178459,-0.12333,0.4880799999999999,-0.155165,-0.21636,0.67218,-0.268857,0.15263,0.47407,-0.169701,0.25018,0.65872,-0.280755,-0.25611,0.8609899999999999,-0.390915,0.2918,0.85614,-0.398105,-0.076209,0.0015199999999999,-0.000805,0.076209,-0.0015199999999999,0.000805,-0.1244199999999999,-0.19605,-0.297965,0.14284,-0.20403,-0.291395,-0.11706,-0.4916400000000001,-0.248322,0.13268,-0.49996,-0.248014,1
57,0.0129739999999999,0.68062,-0.183209,-0.120968,0.4849,-0.160392,-0.214558,0.66834,-0.275163,0.153082,0.47056,-0.174397,0.250892,0.65451,-0.287,-0.2544679999999999,0.85668,-0.39901,0.292882,0.8511599999999999,-0.40585,-0.076269,0.0016899999999999,-0.00106,0.076269,-0.0016899999999999,0.0010599999999999,-0.124378,-0.17334,-0.30917,0.144172,-0.18122,-0.30211,-0.116588,-0.4680000000000001,-0.255661,0.133292,-0.47655,-0.253288,1
58,0.013811,0.677175,-0.187345,-0.120318,0.483535,-0.165036,-0.213288,0.666445,-0.280707,0.153012,0.468145,-0.178511,0.251162,0.651345,-0.292645,-0.253548,0.853685,-0.406545,0.293582,0.8470650000000001,-0.413205,-0.076365,0.001865,-0.001275,0.076365,-0.001865,0.0012749999999999,-0.124388,-0.152435,-0.316475,0.144892,-0.160365,-0.309465,-0.116588,-0.447095,-0.26138,0.133382,-0.4556449999999999,-0.257873,1
59,0.0146155,0.67405,-0.191441,-0.1196055,0.48157,-0.1697209999999999,-0.2125455,0.66412,-0.286305,0.1529945,0.46538,-0.182449,0.2513245,0.64805,-0.297805,-0.2527255,0.85083,-0.413585,0.2939045,0.84276,-0.420025,-0.0764405,0.0021499999999999,-0.0013849999999999,0.0764405,-0.00215,0.001385,-0.1243955,-0.13151,-0.3235749999999999,0.1456245,-0.13988,-0.316515,-0.1165255,-0.42617,-0.266741,0.1335245,-0.43472,-0.262406,1
60,0.01514,0.671,-0.1948879999999999,-0.1190719999999999,0.47961,-0.173562,-0.211672,0.66197,-0.291275,0.152748,0.4637,-0.186016,0.2513579999999999,0.64559,-0.302385,-0.251812,0.8481000000000001,-0.419695,0.294188,0.8395999999999999,-0.425965,-0.076467,0.00223,-0.0015249999999999,0.076467,-0.00223,0.0015249999999999,-0.1246219999999999,-0.11186,-0.329555,0.146088,-0.12023,-0.322455,-0.116642,-0.40652,-0.2714379999999999,0.133468,-0.41507,-0.266333,1
61,0.0154239999999999,0.66832,-0.198259,-0.118794,0.4774,-0.177398,-0.211004,0.65987,-0.29619,0.1523459999999999,0.46276,-0.189398,0.251396,0.64383,-0.30668,-0.2510739999999999,0.84525,-0.42577,0.294536,0.83689,-0.43162,-0.076492,0.0019399999999999,-0.00162,0.076492,-0.0019399999999999,0.0016199999999999,-0.124864,-0.09847,-0.33508,0.146206,-0.10632,-0.32783,-0.116574,-0.3928,-0.275749,0.133586,-0.40068,-0.269785,1
62,0.0156965,0.6655,-0.201184,-0.1187465,0.47565,-0.180864,-0.2105165,0.65751,-0.30085,0.1518135,0.46057,-0.192374,0.2512435,0.64175,-0.31072,-0.2505064999999999,0.8428,-0.43128,0.2948435,0.83389,-0.43719,-0.0765305,0.00194,-0.00171,0.0765305,-0.0019399999999999,0.0017099999999999,-0.1251465,-0.0845499999999999,-0.3399,0.1463135,-0.0917399999999999,-0.33233,-0.1164465,-0.3785699999999999,-0.279316,0.1336435,-0.38566,-0.272066,1
63,0.0160165,0.6634800000000001,-0.202948,-0.1190875,0.47445,-0.183276,-0.2100775,0.65621,-0.304045,0.1515825,0.4599,-0.194313,0.2512125,0.64097,-0.313415,-0.2497275,0.8412999999999999,-0.435035,0.2953125,0.83273,-0.440675,-0.0766005,0.0018199999999999,-0.001725,0.0766005,-0.0018199999999999,0.001725,-0.1251074999999999,-0.07257,-0.342825,0.1466925,-0.07885,-0.334665,-0.1160274999999999,-0.36646,-0.281199,0.1337225,-0.37254,-0.273103,1
64,0.016105,0.661955,-0.20487,-0.1196779999999999,0.4730449999999999,-0.185608,-0.209558,0.655675,-0.30711,0.151272,0.460225,-0.1963909999999999,0.251362,0.640315,-0.3163499999999999,-0.249148,0.840235,-0.43855,0.2957019999999999,0.832175,-0.44393,-0.076647,0.0016449999999999,-0.0018099999999999,0.076647,-0.001645,0.00181,-0.124858,-0.059195,-0.34538,0.147172,-0.064325,-0.33689,-0.115488,-0.352895,-0.2820939999999999,0.133842,-0.357745,-0.274369,1
65,0.0159555,0.6604,-0.2068399999999999,-0.1203235,0.47275,-0.1879259999999999,-0.2090235,0.65654,-0.30993,0.1506865,0.46002,-0.1984649999999999,0.2512665,0.6395299999999999,-0.3189499999999999,-0.2485534999999999,0.8402400000000001,-0.4428799999999999,0.2959465,0.83135,-0.4472,-0.0766195,0.0015499999999999,-0.0019799999999999,0.0766195,-0.0015499999999999,0.00198,-0.1245935,-0.04568,-0.34753,0.1474665,-0.0497799999999999,-0.3388899999999999,-0.1149935,-0.3391599999999999,-0.283034,0.1338765,-0.34295,-0.2754999999999999,1
66,0.0157185,0.65946,-0.2083069999999999,-0.1206385,0.47229,-0.1898089999999999,-0.2083884999999999,0.6561600000000001,-0.312685,0.1502615,0.45984,-0.200144,0.2515115,0.63899,-0.3207649999999999,-0.2484585,0.83999,-0.445855,0.2960215,0.8305400000000001,-0.4496549999999999,-0.0766435,0.00149,-0.0020649999999999,0.0766435,-0.0014899999999999,0.002065,-0.1241885,-0.0341299999999999,-0.3486049999999999,0.1477915,-0.0370699999999999,-0.3400649999999999,-0.1143785,-0.32721,-0.283558,0.1341315,-0.3299799999999999,-0.276034,1
67,0.0153755,0.658445,-0.209267,-0.1208985,0.471645,-0.191191,-0.2074984999999999,0.655115,-0.315615,0.1498614999999999,0.459493,-0.201188,0.2519215,0.638205,-0.322055,-0.2482085,0.8423149999999999,-0.449125,0.2960415,0.829375,-0.451505,-0.0765875,0.001545,-0.0022149999999999,0.0765875,-0.001545,0.0022149999999999,-0.1238685,-0.022565,-0.349435,0.1479615,-0.024175,-0.340565,-0.1135284999999999,-0.315095,-0.283572,0.1342915,-0.3169149999999999,-0.276881,1
68,0.015077,0.657245,-0.210076,-0.1211129999999999,0.4709339999999999,-0.192371,-0.207123,0.6542349999999999,-0.318425,0.1494869999999999,0.45938,-0.202162,0.252457,0.638235,-0.323115,-0.247923,0.843035,-0.452055,0.296127,0.829225,-0.452775,-0.076566,0.0014849999999999,-0.002255,0.076566,-0.001485,0.002255,-0.123483,-0.0090649999999999,-0.350025,0.148037,-0.009165,-0.340645,-0.112663,-0.300935,-0.283464,0.1343369999999999,-0.301805,-0.277504,1
69,0.014912,0.6558299999999999,-0.2108209999999999,-0.121071,0.470503,-0.193459,-0.206691,0.6535899999999999,-0.32099,0.1492589999999999,0.4593219999999999,-0.202929,0.252599,0.63776,-0.3241699999999999,-0.247631,0.8426,-0.45463,0.296219,0.82873,-0.4542799999999999,-0.076558,0.0014599999999999,-0.0022499999999999,0.076558,-0.00146,0.00225,-0.122941,0.0043799999999999,-0.3501599999999999,0.148129,0.0055999999999999,-0.34064,-0.111621,-0.28679,-0.283043,0.134359,-0.2870400000000001,-0.27793,1
70,0.014759,0.654775,-0.211682,-0.120911,0.4704609999999999,-0.194722,-0.206471,0.652605,-0.323675,0.149009,0.4589879999999999,-0.204064,0.253129,0.637295,-0.325615,-0.2473009999999999,0.842125,-0.4574549999999999,0.296199,0.828255,-0.456295,-0.076535,0.0014949999999999,-0.0023249999999999,0.076535,-0.001495,0.0023249999999999,-0.122361,0.0179149999999999,-0.3505049999999999,0.148219,0.0204949999999999,-0.340995,-0.110671,-0.272785,-0.282613,0.134329,-0.272185,-0.278674,1
71,0.0145755,0.653725,-0.212272,-0.1206045,0.469865,-0.19572,-0.2067345,0.6506649999999999,-0.3259149999999999,0.1488355,0.460871,-0.204681,0.2534455,0.638095,-0.326485,-0.2478645,0.838065,-0.460045,0.2964055,0.828775,-0.457675,-0.0765245,0.0012449999999999,-0.0023749999999999,0.0765245,-0.0012449999999999,0.002375,-0.1218245,0.0303149999999999,-0.350585,0.1482055,0.0344249999999999,-0.341095,-0.1099145,-0.259995,-0.28209,0.1341955,-0.2580950000000001,-0.278281,1
72,0.0143384999999999,0.65285,-0.2126179999999999,-0.1202955,0.469394,-0.197034,-0.2071955,0.6492100000000001,-0.32833,0.1486645,0.460665,-0.205724,0.2537345,0.63776,-0.32763,-0.2483554999999999,0.83504,-0.46291,0.2966845,0.82822,-0.4592799999999999,-0.0764635,0.0012699999999999,-0.0024499999999999,0.0764635,-0.0012699999999999,0.00245,-0.1214755,0.04167,-0.35083,0.1479845,0.04743,-0.34121,-0.1093355,-0.2483,-0.281738,0.1341445,-0.2449999999999999,-0.2778549999999999,1
73,0.0139994999999999,0.65193,-0.2133439999999999,-0.1202285,0.469141,-0.1984939999999999,-0.2072985,0.64786,-0.3308799999999999,0.1486315,0.459671,-0.2067899999999999,0.2536215,0.63698,-0.32881,-0.2489085,0.8325199999999999,-0.4661999999999999,0.2964715,0.82687,-0.4610999999999999,-0.0764285,0.00134,-0.00247,0.0764285,-0.00134,0.00247,-0.1213185,0.0518,-0.35087,0.1475715,0.05851,-0.34136,-0.1087784999999999,-0.2379899999999999,-0.280593,0.1338315,-0.2339199999999999,-0.2775689999999999,1
74,0.013783,0.65107,-0.2140409999999999,-0.1201889999999999,0.468587,-0.199766,-0.2070489999999999,0.64623,-0.33343,0.148441,0.459091,-0.207702,0.253781,0.63629,-0.32987,-0.249439,0.83046,-0.46882,0.296211,0.82565,-0.46305,-0.076426,0.0013799999999999,-0.0025499999999999,0.076426,-0.0013799999999999,0.0025499999999999,-0.1211489999999999,0.06168,-0.35074,0.147341,0.06913,-0.3414,-0.108319,-0.22799,-0.279352,0.133361,-0.2232999999999999,-0.276899,1
75,0.013668,0.64978,-0.214755,-0.120159,0.468026,-0.201183,-0.207009,0.64482,-0.3358799999999999,0.148371,0.458415,-0.208608,0.253811,0.63548,-0.33097,-0.250089,0.82858,-0.47161,0.296051,0.82443,-0.46495,-0.0764249999999999,0.0014199999999999,-0.00262,0.0764249999999999,-0.00142,0.00262,-0.120919,0.0719699999999999,-0.35042,0.1472409999999999,0.07982,-0.34137,-0.108309,-0.2182699999999999,-0.279742,0.132851,-0.21257,-0.2762259999999999,1
76,0.013523,0.64821,-0.215689,-0.1199649999999999,0.466895,-0.2028609999999999,-0.207155,0.64254,-0.33898,0.148195,0.457478,-0.209782,0.253415,0.63453,-0.33211,-0.250905,0.8266199999999999,-0.47414,0.295735,0.82343,-0.46693,-0.076305,0.0013799999999999,-0.00264,0.076305,-0.0013799999999999,0.00264,-0.120645,0.08132,-0.35001,0.147125,0.08987,-0.34119,-0.108405,-0.20966,-0.280352,0.131665,-0.20239,-0.275491,1
77,0.0132645,0.6459,-0.216728,-0.1197805,0.465583,-0.2048269999999999,-0.2072505,0.6398,-0.3421349999999999,0.1479695,0.456221,-0.211313,0.2531595,0.63272,-0.334005,-0.2515905,0.82409,-0.477175,0.2953495,0.82152,-0.469495,-0.0761275,0.00136,-0.0026249999999999,0.0761275,-0.0013599999999999,0.002625,-0.1204905,0.08823,-0.349775,0.1469195,0.09752,-0.341005,-0.1085905,-0.2033699999999999,-0.281097,0.1304595,-0.1944399999999999,-0.275468,1
78,0.0130934999999999,0.64381,-0.217911,-0.1195975,0.463833,-0.2070239999999999,-0.2078875,0.63685,-0.3456,0.1478124999999999,0.454469,-0.213001,0.2527325,0.63107,-0.33612,-0.2522775,0.82107,-0.4805,0.2947225,0.81938,-0.47213,-0.0759265,0.0013599999999999,-0.0026099999999999,0.0759265,-0.00136,0.00261,-0.1203275,0.09464,-0.34974,0.1467125,0.1046999999999999,-0.34087,-0.1093775,-0.1975799999999999,-0.282147,0.1292125,-0.1878499999999999,-0.2771139999999999,1
79,0.0130354999999999,0.6412899999999999,-0.219115,-0.1193735,0.462165,-0.209415,-0.2083435,0.63467,-0.349055,0.1476464999999999,0.451881,-0.214921,0.2526565,0.62856,-0.338385,-0.2529635,0.8182,-0.484215,0.2941964999999999,0.81646,-0.475025,-0.0756825,0.0015899999999999,-0.0027149999999999,0.0756825,-0.0015899999999999,0.0027149999999999,-0.1200634999999999,0.1004399999999999,-0.349835,0.1467065,0.1114,-0.340635,-0.1105434999999999,-0.1918499999999999,-0.283674,0.1280865,-0.1813,-0.27679,1
80,0.0129345,0.638065,-0.221128,-0.1192775,0.459777,-0.212613,-0.2086275,0.632705,-0.35336,0.1475425,0.448279,-0.217645,0.2525624999999999,0.625285,-0.34156,-0.2533175,0.817785,-0.48884,0.2937424999999999,0.812695,-0.4790299999999999,-0.0754545,0.0018049999999999,-0.0027099999999999,0.0754545,-0.001805,0.0027099999999999,-0.1198974999999999,0.1067449999999999,-0.3504,0.1469625,0.1183349999999999,-0.34095,-0.1119775,-0.185775,-0.285729,0.1269025,-0.174525,-0.276713,1
81,0.0126879999999999,0.632955,-0.223792,-0.119444,0.45708,-0.216338,-0.208964,0.6294150000000001,-0.358295,0.147416,0.445383,-0.220694,0.252036,0.621735,-0.345265,-0.253694,0.815315,-0.4945549999999999,0.293166,0.808935,-0.483515,-0.075316,0.001905,-0.002665,0.075316,-0.001905,0.002665,-0.1198139999999999,0.112655,-0.351325,0.147496,0.124715,-0.341645,-0.113564,-0.180215,-0.288229,0.125326,-0.168385,-0.276332,1
82,0.012649,0.6276849999999999,-0.227091,-0.119419,0.4544789999999999,-0.22067,-0.209419,0.625845,-0.3635,0.147601,0.4431059999999999,-0.2242559999999999,0.251561,0.6185539999999999,-0.34964,-0.253829,0.811765,-0.5014799999999999,0.292721,0.8053349999999999,-0.48843,-0.075181,0.0019449999999999,-0.0026899999999999,0.075181,-0.001945,0.0026899999999999,-0.119639,0.1131849999999999,-0.3513199999999999,0.149801,0.1261849999999999,-0.3415,-0.115039,-0.180395,-0.291043,0.123881,-0.165835,-0.274227,1
83,0.0125914999999999,0.620945,-0.231279,-0.1194675,0.450368,-0.226178,-0.2094174999999999,0.6208899999999999,-0.370865,0.1477925,0.4369889999999999,-0.228969,0.2511025,0.612516,-0.355305,-0.2538175,0.806615,-0.509285,0.2920525,0.798875,-0.494885,-0.0749195,0.002125,-0.002565,0.0749195,-0.002125,0.0025649999999999,-0.1195375,0.1143949999999999,-0.352275,0.1521225,0.128125,-0.342245,-0.1165975,-0.179985,-0.294636,0.1226024999999999,-0.162825,-0.272948,1
84,0.012338,0.614864,-0.236095,-0.119698,0.445627,-0.2320559999999999,-0.209498,0.614684,-0.379105,0.147882,0.4310049999999999,-0.234223,0.250792,0.606679,-0.361485,-0.253898,0.800135,-0.518015,0.2913219999999999,0.792805,-0.501625,-0.074568,0.0022849999999999,-0.002475,0.074568,-0.0022849999999999,0.002475,-0.119448,0.115005,-0.353765,0.154652,0.129265,-0.343395,-0.118168,-0.180085,-0.29868,0.121312,-0.160595,-0.272857,1
85,0.012172,0.608595,-0.240717,-0.12,0.441762,-0.237615,-0.20954,0.609793,-0.38573,0.1481,0.42583,-0.23918,0.25042,0.6013010000000001,-0.36734,-0.25392,0.7941800000000001,-0.52623,0.2907,0.78693,-0.5082599999999999,-0.074379,0.0024399999999999,-0.0024099999999999,0.074379,-0.0024399999999999,0.0024099999999999,-0.11949,0.11612,-0.35533,0.15728,0.13068,-0.34471,-0.1195099999999999,-0.1796099999999999,-0.302587,0.12069,-0.1580199999999999,-0.272583,1
86,0.011855,0.603202,-0.241683,-0.120472,0.438555,-0.2393819999999999,-0.209792,0.605569,-0.388825,0.148268,0.420945,-0.2403549999999999,0.249868,0.596379,-0.369415,-0.254032,0.788805,-0.531105,0.290008,0.781465,-0.511145,-0.074243,0.002665,-0.003115,0.074243,-0.002665,0.003115,-0.119682,0.116255,-0.353385,0.159738,0.131195,-0.342715,-0.120942,-0.1800549999999999,-0.30281,0.119618,-0.156665,-0.272642,1
87,0.0114595,0.5976710000000001,-0.243206,-0.1209815,0.43568,-0.2416019999999999,-0.2102514999999999,0.6012010000000001,-0.392355,0.1482085,0.41641,-0.242011,0.2494985,0.5916070000000001,-0.371915,-0.2543815,0.78334,-0.536705,0.2894785,0.7762600000000001,-0.514505,-0.0741355,0.00289,-0.0039549999999999,0.0741355,-0.0028899999999999,0.003955,-0.1200315,0.1208800000000001,-0.352025,0.1620585,0.13112,-0.341505,-0.1218415,-0.1759699999999999,-0.303222,0.1185345,-0.1558799999999999,-0.273316,1
88,0.0110915,0.592285,-0.244421,-0.1214935,0.4324849999999999,-0.243492,-0.2113635,0.5968419999999999,-0.395545,0.1480565,0.4124049999999999,-0.243308,0.2492465,0.5872769999999999,-0.374105,-0.2550535,0.7777649999999999,-0.541895,0.2890864999999999,0.771555,-0.517385,-0.0739295,0.0030749999999999,-0.004755,0.0739295,-0.003075,0.0047549999999999,-0.1202835,0.1241249999999999,-0.350485,0.1644064999999999,0.1298849999999999,-0.340445,-0.1226135,-0.173035,-0.304025,0.1176485,-0.156525,-0.275245,1
89,0.0097074999999999,0.5901689999999999,-0.2451749999999999,-0.1232045,0.4328499999999999,-0.244743,-0.2134345,0.595894,-0.397935,0.1470455,0.41207,-0.2440459999999999,0.2480055,0.586506,-0.375545,-0.2570645,0.7754,-0.546135,0.2876355,0.77051,-0.519345,-0.0736755,0.0025399999999999,-0.005165,0.0736755,-0.0025399999999999,0.005165,-0.1215544999999999,0.12945,-0.348635,0.1653355,0.13056,-0.339145,-0.1241944999999999,-0.16783,-0.304474,0.1155725,-0.1556999999999999,-0.275712,1
90,0.0082944999999999,0.5901700000000001,-0.245596,-0.1248524999999999,0.433925,-0.245485,-0.2157525,0.5957770000000001,-0.39981,0.1460375,0.412495,-0.244419,0.2467174999999999,0.586824,-0.37656,-0.2592425,0.7741450000000001,-0.54944,0.2862475,0.7703550000000001,-0.52095,-0.0734585,0.002045,-0.00526,0.0734585,-0.0020449999999999,0.0052599999999999,-0.1226525,0.128635,-0.34793,0.1658374999999999,0.130245,-0.33801,-0.1254425,-0.1686849999999999,-0.304321,0.1137345,-0.1552249999999999,-0.277656,1
91,0.0077505,0.591427,-0.24562,-0.1255485,0.43531,-0.245746,-0.2170885,0.596314,-0.40096,0.1458415,0.4132099999999999,-0.244486,0.2463215,0.588079,-0.37704,-0.2605485,0.774,-0.5512600000000001,0.2857515,0.77138,-0.5219199999999999,-0.0732775,0.00151,-0.00544,0.0732775,-0.00151,0.00544,-0.1231485,0.1293099999999999,-0.34777,0.1655515,0.1351299999999999,-0.33784,-0.1261285,-0.168,-0.304161,0.1127135,-0.15034,-0.279872,1
92,0.0073979999999999,0.5947399999999999,-0.245256,-0.126041,0.4388149999999999,-0.245398,-0.218031,0.5989519999999999,-0.4011949999999999,0.145749,0.4169549999999999,-0.24397,0.246229,0.591824,-0.376555,-0.261771,0.776065,-0.552145,0.285459,0.775125,-0.5217849999999999,-0.073172,0.0008749999999999,-0.005975,0.073172,-0.000875,0.005975,-0.123621,0.1288949999999999,-0.347245,0.165459,0.1388749999999999,-0.337305,-0.126821,-0.168385,-0.303641,0.112549,-0.146595,-0.283461,1
93,0.006353,0.5978799999999999,-0.243719,-0.126931,0.4419549999999999,-0.243947,-0.219051,0.6020919999999998,-0.399615,0.145069,0.4200949999999999,-0.242396,0.245369,0.5949639999999999,-0.374965,-0.263721,0.7792049999999999,-0.5505850000000001,0.284419,0.7782649999999999,-0.520205,-0.07317,0.0004149999999999,-0.007395,0.07317,-0.000415,0.0073949999999999,-0.1241909999999999,0.1319949999999999,-0.345655,0.1647789999999999,0.1420149999999999,-0.335715,-0.127501,-0.165295,-0.302051,0.111847,-0.1434550000000001,-0.281009,1
94,0.0050805,0.5982299999999999,-0.237812,-0.1279555,0.4423049999999999,-0.238096,-0.2205055,0.6024419999999999,-0.393665,0.1440445,0.4204449999999999,-0.236453,0.2440245,0.595314,-0.368975,-0.2660155,0.779555,-0.544825,0.2831545,0.778615,-0.5149349999999999,-0.0731635,6.499999999998174e-05,-0.007355,0.0731635,-6.499999999998174e-05,0.007355,-0.1250754999999999,0.1374349999999999,-0.3417949999999999,0.1632945,0.1477049999999999,-0.332005,-0.1283455,-0.159885,-0.298145,0.1113934999999999,-0.139475,-0.279134,1
95,0.00477,0.5982299999999999,-0.230786,-0.12819,0.4423049999999999,-0.231043,-0.22082,0.6024419999999999,-0.386505,0.14341,0.421855,-0.229314,0.24384,0.596202,-0.361815,-0.26739,0.779555,-0.537695,0.2829899999999999,0.779295,-0.507925,-0.073162,6.499999999998174e-05,-0.007425,0.073162,-6.499999999998174e-05,0.0074249999999999,-0.1250099999999999,0.1424949999999999,-0.3373049999999999,0.16233,0.1531949999999999,-0.327225,-0.1283399999999999,-0.154855,-0.293621,0.1118049999999999,-0.135075,-0.277757,1
96,0.0045795,0.599846,-0.2231479999999999,-0.1284285,0.443955,-0.223406,-0.2212985,0.604314,-0.3788249999999999,0.1428614999999999,0.4244449999999999,-0.221734,0.2435115,0.599127,-0.3541849999999999,-0.2685285,0.780905,-0.530145,0.2826315,0.781955,-0.500295,-0.0731325,6.499999999998174e-05,-0.0074349999999999,0.0731325,-6.499999999998174e-05,0.0074349999999999,-0.1249985,0.147675,-0.3324249999999999,0.1611015,0.1586949999999999,-0.322295,-0.1282685,-0.149715,-0.288734,0.1121925,-0.130785,-0.276205,1
97,0.00446,0.60812,-0.215246,-0.1285529999999999,0.449685,-0.21528,-0.221873,0.610067,-0.3706,0.1423869999999999,0.431965,-0.213999,0.243077,0.606623,-0.34595,-0.269273,0.786065,-0.52206,0.282107,0.789095,-0.4921999999999999,-0.073117,-0.0001349999999999,-0.0074899999999999,0.073117,0.0001349999999999,0.0074899999999999,-0.125303,0.153305,-0.32731,0.159447,0.164035,-0.31717,-0.1281129999999999,-0.1441249999999999,-0.283313,0.112604,-0.1265049999999999,-0.274206,1
98,0.0044649999999999,0.6153730000000001,-0.209971,-0.1285589999999999,0.45239,-0.209583,-0.222269,0.613546,-0.364425,0.142091,0.4371,-0.208706,0.242551,0.612067,-0.339835,-0.269969,0.78971,-0.515595,0.281581,0.7943600000000001,-0.486265,-0.073211,-0.0006499999999999,-0.006505,0.073211,0.00065,0.0065049999999999,-0.125569,0.15662,-0.325585,0.1578609999999999,0.16638,-0.314825,-0.127819,-0.1408699999999999,-0.280628,0.113782,-0.1252599999999999,-0.27299,1
99,0.003861,0.622453,-0.205001,-0.1291429999999999,0.459585,-0.2040979999999999,-0.2232529999999999,0.6208940000000001,-0.3581299999999999,0.141447,0.442395,-0.203563,0.241347,0.617955,-0.33386,-0.270913,0.7971050000000001,-0.50825,0.280367,0.8000750000000001,-0.48025,-0.073789,-0.000815,-0.0058599999999999,0.073789,0.000815,0.00586,-0.126513,0.159345,-0.32419,0.155597,0.168015,-0.31267,-0.128023,-0.1380049999999999,-0.278351,0.114507,-0.1246649999999999,-0.271984,1
100,0.0032079999999999,0.6290959999999999,-0.200276,-0.129766,0.4663119999999999,-0.198788,-0.224366,0.6292399999999999,-0.3507599999999999,0.140704,0.4481349999999999,-0.198607,0.240014,0.6244399999999999,-0.32803,-0.271606,0.8052649999999999,-0.50055,0.279014,0.8072149999999999,-0.47338,-0.074295,-0.001195,-0.0054599999999999,0.074295,0.0011949999999999,0.0054599999999999,-0.127446,0.1580749999999999,-0.32467,0.153304,0.1667549999999998,-0.3126,-0.127766,-0.138465,-0.276305,0.115714,-0.126945,-0.269683,1
101,0.003148,0.635297,-0.1965589999999999,-0.1298679999999999,0.470508,-0.194245,-0.224768,0.634553,-0.344075,0.140292,0.45034,-0.1941459999999999,0.239322,0.62812,-0.322825,-0.272338,0.8109200000000001,-0.493525,0.278592,0.81124,-0.467435,-0.074353,-0.0008799999999999,-0.004395,0.074353,0.0008799999999999,0.004395,-0.1282879999999999,0.15233,-0.326785,0.151982,0.16107,-0.313915,-0.1271179999999999,-0.1433299999999999,-0.275615,0.118552,-0.1326699999999999,-0.268021,1
102,0.0039805,0.64204,-0.195376,-0.1291245,0.472267,-0.192189,-0.2242345,0.6371300000000001,-0.340025,0.1407355,0.4508770000000001,-0.192239,0.2392955,0.629723,-0.320055,-0.2719945,0.8123100000000001,-0.488095,0.2789455,0.8133600000000001,-0.463725,-0.0748265,-0.0003699999999999,-0.0036049999999999,0.0748265,0.00037,0.0036049999999999,-0.1264845,0.13859,-0.328185,0.1513255,0.15122,-0.315835,-0.1247445,-0.15613,-0.273645,0.1216855,-0.1425699999999999,-0.266029,1
103,0.0047814999999999,0.64873,-0.196154,-0.1283395,0.474903,-0.191845,-0.2236895,0.64068,-0.33692,0.1412705,0.451598,-0.192061,0.2398005,0.63199,-0.31913,-0.2712595,0.81357,-0.48465,0.2796505,0.8162,-0.46178,-0.0752855,0.0002199999999999,-0.0036299999999999,0.0752855,-0.0002199999999999,0.0036299999999999,-0.1251495,0.12486,-0.33032,0.1513305,0.13581,-0.31747,-0.1224895,-0.1691,-0.27364,0.1246405,-0.1574799999999999,-0.265369,1
104,0.0056364999999999,0.657125,-0.1956439999999999,-0.1275695,0.4786289999999999,-0.190299,-0.2232395,0.6457849999999999,-0.332975,0.1418605,0.4566199999999999,-0.1911339999999999,0.2400105,0.637405,-0.3171549999999999,-0.2704594999999999,0.818645,-0.480595,0.2800305,0.821755,-0.459335,-0.0755364999999999,0.0003949999999999,-0.0035949999999999,0.0755364999999999,-0.000395,0.003595,-0.1240595,0.1042349999999999,-0.330775,0.1515304999999999,0.1140449999999999,-0.317795,-0.1204195,-0.1889549999999999,-0.272795,0.1279605,-0.179275,-0.263731,1
105,0.0064375,0.659385,-0.195898,-0.1268895,0.476529,-0.189349,-0.2223495,0.644715,-0.32969,0.1424705,0.455488,-0.190865,0.2401704999999999,0.636615,-0.31584,-0.2693695,0.817315,-0.47629,0.2803205,0.821195,-0.45743,-0.0757434999999999,0.0004549999999999,-0.00356,0.0757434999999999,-0.0004549999999999,0.0035599999999999,-0.1235795,0.078865,-0.33166,0.1518505,0.087295,-0.31852,-0.1184595,-0.2135049999999999,-0.27249,0.1305105,-0.206055,-0.262636,1
106,0.0067209999999999,0.6600900000000001,-0.197747,-0.127003,0.475437,-0.189778,-0.221773,0.64371,-0.32754,0.142537,0.454214,-0.191946,0.239787,0.6352599999999999,-0.31603,-0.2687029999999999,0.81705,-0.47364,0.280117,0.82053,-0.45647,-0.0760889999999999,0.00057,-0.0035199999999999,0.0760889999999999,-0.00057,0.0035199999999999,-0.123223,0.05474,-0.33375,0.151837,0.06213,-0.32047,-0.117153,-0.23672,-0.27239,0.132367,-0.2310299999999999,-0.261128,1
107,0.006949,0.66312,-0.199154,-0.127109,0.477723,-0.1895949999999999,-0.221559,0.64503,-0.324565,0.142761,0.45523,-0.192825,0.239401,0.63666,-0.316245,-0.268499,0.8148500000000001,-0.470275,0.279961,0.8226100000000001,-0.455405,-0.076335,0.00071,-0.0034049999999999,0.076335,-0.0007099999999999,0.003405,-0.1227289999999999,0.02692,-0.334985,0.1519609999999999,0.0327999999999999,-0.321715,-0.1159489999999999,-0.26413,-0.271815,0.133521,-0.26015,-0.259393,1
108,0.0075355,0.667065,-0.199651,-0.1268524999999999,0.4756249999999999,-0.188772,-0.2215825,0.642075,-0.32124,0.1435274999999999,0.457012,-0.192904,0.2397274999999999,0.638765,-0.31553,-0.2672624999999999,0.8126549999999999,-0.46587,0.2801975,0.825145,-0.45345,-0.0762805,0.0005049999999999,-0.00332,0.0762805,-0.000505,0.0033199999999999,-0.1222625,-0.002275,-0.33548,0.1524875,0.0023149999999999,-0.32221,-0.1144124999999999,-0.292895,-0.271199,0.1350275,-0.290575,-0.259815,1
109,0.007899,0.672185,-0.199263,-0.126863,0.474585,-0.187239,-0.2215229999999999,0.6379250000000001,-0.31838,0.1441069999999999,0.458135,-0.191906,0.239937,0.639895,-0.31397,-0.266773,0.8090649999999999,-0.46126,0.2800269999999999,0.826595,-0.4513,-0.07624,0.0005749999999999,-0.00353,0.07624,-0.0005749999999999,0.0035299999999999,-0.121693,-0.0298749999999999,-0.33526,0.152897,-0.0264849999999999,-0.322,-0.113273,-0.320525,-0.269081,0.136067,-0.319565,-0.259583,1
110,0.0075319999999999,0.67534,-0.197974,-0.127503,0.4730499999999999,-0.185106,-0.222103,0.6376,-0.31438,0.144127,0.45999,-0.190364,0.239377,0.64162,-0.31177,-0.2665229999999999,0.80802,-0.45587,0.2792369999999999,0.82868,-0.4485,-0.076236,0.0006299999999999,-0.00367,0.076236,-0.00063,0.00367,-0.121723,-0.05788,-0.33413,0.152687,-0.05554,-0.32123,-0.112923,-0.34874,-0.265475,0.136467,-0.34846,-0.257767,1
111,0.007189,0.6780550000000001,-0.1966409999999999,-0.127907,0.473725,-0.182633,-0.222767,0.639325,-0.3096799999999999,0.1441329999999999,0.4633550000000001,-0.1884429999999999,0.238793,0.645065,-0.30916,-0.266257,0.812575,-0.4510699999999999,0.278593,0.832495,-0.44514,-0.07629,0.000455,-0.0036999999999999,0.07629,-0.0004549999999999,0.0037,-0.1217169999999999,-0.0828849999999999,-0.3321999999999999,0.152643,-0.0816749999999999,-0.31977,-0.112647,-0.3741249999999999,-0.2618939999999999,0.136903,-0.374645,-0.255546,1
112,0.0068629999999999,0.6821349999999999,-0.1950239999999999,-0.128495,0.4745049999999999,-0.180058,-0.223215,0.641385,-0.30547,0.1442049999999999,0.468635,-0.186087,0.238925,0.649825,-0.30595,-0.266435,0.817255,-0.44604,0.278235,0.837885,-0.4402399999999999,-0.076456,8.500000000000174e-05,-0.0039999999999999,0.076456,-8.500000000000174e-05,0.004,-0.1213149999999999,-0.112015,-0.32814,0.152455,-0.111315,-0.31504,-0.112235,-0.403595,-0.258882,0.1373849999999999,-0.404445,-0.25128,1
113,0.0065194999999999,0.684935,-0.192002,-0.1290795,0.474255,-0.176875,-0.2232495,0.642125,-0.300285,0.1442905,0.469545,-0.183281,0.2392504999999999,0.651685,-0.301665,-0.2659895,0.819715,-0.438455,0.2776605,0.8413849999999999,-0.433105,-0.0767215,1.4999999999987246e-05,-0.003785,0.0767215,-1.4999999999987246e-05,0.0037849999999999,-0.1206395,-0.1361349999999999,-0.321825,0.1522704999999999,-0.136275,-0.308035,-0.1117295,-0.4282750000000001,-0.254367,0.1377705,-0.429675,-0.246073,1
114,0.0066939999999999,0.692505,-0.1868739999999999,-0.1292309999999999,0.479205,-0.172429,-0.222641,0.648375,-0.2934949999999999,0.144959,0.475145,-0.1791549999999999,0.239729,0.6580250000000001,-0.296155,-0.265381,0.8276049999999999,-0.430905,0.277579,0.8496049999999999,-0.424105,-0.076511,-4.499999999998949e-05,-0.0029949999999999,0.076511,4.500000000001725e-05,0.0029949999999999,-0.119341,-0.1563649999999999,-0.3158649999999999,0.152659,-0.1566849999999999,-0.300975,-0.1106609999999999,-0.4491449999999999,-0.250467,0.138859,-0.4507849999999999,-0.241597,1
115,0.0071224999999999,0.6986249999999999,-0.181468,-0.1290715,0.482375,-0.167736,-0.2226015,0.653545,-0.286795,0.1456585,0.479715,-0.1747999999999999,0.2405485,0.663755,-0.290145,-0.2654515,0.833495,-0.422705,0.2778885,0.857165,-0.415315,-0.0762545,-0.000145,-0.0021049999999999,0.0762545,0.0001449999999999,0.002105,-0.1180015,-0.1773549999999999,-0.309185,0.1529885,-0.177645,-0.292995,-0.1095215,-0.470925,-0.246037,0.1400085,-0.472535,-0.23685,1
116,0.007592,0.70428,-0.174347,-0.129245,0.48575,-0.16226,-0.222435,0.66038,-0.27898,0.146235,0.48413,-0.169321,0.240835,0.66933,-0.28195,-0.264775,0.84545,-0.41242,0.277725,0.86416,-0.40443,-0.075798,-0.00012,-0.0008199999999999,0.075798,0.00012,0.0008199999999999,-0.116695,-0.1945199999999999,-0.29862,0.152395,-0.19445,-0.28167,-0.108605,-0.4890799999999999,-0.239736,0.140725,-0.49041,-0.230524,1
117,0.0080495,0.71023,-0.164307,-0.1294745,0.4892999999999999,-0.153919,-0.2226745,0.66809,-0.26822,0.1467755,0.48768,-0.160991,0.2411955,0.6739499999999999,-0.27078,-0.2643245,0.85413,-0.39995,0.2775555,0.8705499999999999,-0.39069,-0.0751745,-9.999999999996125e-06,-0.0005,0.0751745,9.999999999996125e-06,0.0005,-0.1157844999999999,-0.21035,-0.28468,0.1517355,-0.2102699999999999,-0.26686,-0.1081044999999999,-0.5059,-0.230601,0.1416355,-0.50737,-0.221368,1
118,0.0085889999999999,0.716419,-0.1535049999999999,-0.129653,0.493139,-0.1451539999999999,-0.222273,0.6771090000000001,-0.25666,0.147417,0.491959,-0.152248,0.241447,0.679779,-0.25875,-0.264233,0.864819,-0.38682,0.277387,0.877819,-0.37539,-0.074408,0.0001469999999999,-0.0002299999999999,0.074408,-0.0001469999999999,0.00023,-0.114753,-0.225741,-0.2692299999999999,0.150817,-0.226291,-0.25077,-0.107433,-0.522431,-0.220403,0.142577,-0.5246109999999999,-0.2117839999999999,1
119,0.009048,0.722809,-0.1427439999999999,-0.1298659999999999,0.497199,-0.1366359999999999,-0.221846,0.682539,-0.24545,0.148044,0.495779,-0.1436869999999999,0.241554,0.6847890000000001,-0.2468199999999999,-0.264176,0.8730089999999999,-0.37375,0.277074,0.8846689999999999,-0.35997,-0.073693,0.0002719999999999,-5.999999999997674e-05,0.073693,-0.000272,6.0000000000004494e-05,-0.1135759999999999,-0.239531,-0.25359,0.149604,-0.241231,-0.234491,-0.106636,-0.537461,-0.210497,0.143224,-0.540721,-0.202009,1
120,0.0094969999999999,0.728662,-0.132168,-0.1299219999999999,0.501852,-0.127969,-0.221722,0.688902,-0.234465,0.148588,0.499892,-0.135121,0.241918,0.690392,-0.234835,-0.264012,0.880212,-0.359975,0.276698,0.891972,-0.3445749999999999,-0.073035,0.000474,0.000175,0.073035,-0.0004739999999999,-0.000175,-0.112432,-0.252828,-0.238605,0.148088,-0.255528,-0.217808,-0.106172,-0.551868,-0.202818,0.143738,-0.556138,-0.192081,1
121,0.00978,0.7328075,-0.1235059999999999,-0.129979,0.5055175000000001,-0.1212579999999999,-0.221489,0.6941375,-0.225215,0.149011,0.5015875000000001,-0.128802,0.241651,0.6938275,-0.224575,-0.263869,0.8875975,-0.347245,0.276301,0.8964975,-0.331845,-0.072568,0.0008294999999999,0.000265,0.072568,-0.0008295,-0.0002649999999999,-0.1120589999999999,-0.2628025,-0.225075,0.146471,-0.2674025,-0.2036359999999999,-0.105939,-0.5629225,-0.196067,0.144141,-0.5688425,-0.184076,1
122,0.0095735,0.7360015,-0.116279,-0.1307255,0.5084815,-0.116169,-0.2218755,0.6986315,-0.217315,0.1488145,0.5031215,-0.123751,0.2415545,0.6969015000000001,-0.21616,-0.2639154999999999,0.8928515,-0.337505,0.2757545,0.9004015,-0.321335,-0.0723905,0.0011854999999999,0.0003949999999999,0.0723905,-0.0011854999999999,-0.000395,-0.1120355,-0.2748285,-0.213684,0.1442645,-0.2794284999999999,-0.191127,-0.1058555,-0.5749485,-0.189323,0.1438045,-0.5808685,-0.177906,1
123,0.0094139999999999,0.738979,-0.10969,-0.13144,0.511789,-0.111238,-0.22232,0.703029,-0.209761,0.14844,0.504529,-0.119009,0.24117,0.699769,-0.207928,-0.26441,0.898159,-0.327895,0.2749899999999999,0.903889,-0.311425,-0.072139,0.001615,0.000515,0.072139,-0.001615,-0.000515,-0.11204,-0.285931,-0.202562,0.14201,-0.290531,-0.179001,-0.1058399999999999,-0.586051,-0.182772,0.14339,-0.591971,-0.171849,1
124,0.00919,0.7412625,-0.09821,-0.132491,0.5142725,-0.10161,-0.2227309999999999,0.7071925,-0.197027,0.147879,0.5044725,-0.109498,0.240419,0.7020025000000001,-0.195242,-0.2649309999999999,0.9032025,-0.312975,0.273919,0.9061625,-0.296885,-0.071661,0.0021014999999999,0.000445,0.071661,-0.0021015,-0.000445,-0.112311,-0.2959275,-0.186776,0.139429,-0.3005275,-0.161951,-0.106281,-0.5960475,-0.171402,0.142619,-0.6019675,-0.160467,1
125,0.009163,0.7415985,-0.085924,-0.133668,0.5156685,-0.090212,-0.223068,0.7093585,-0.183365,0.147822,0.5058685,-0.098413,0.239862,0.7042085,-0.182087,-0.265488,0.9063185,-0.297764,0.273042,0.9092585,-0.281514,-0.071261,0.0024265,0.0003569999999999,0.071261,-0.0024265,-0.000357,-0.1120279999999999,-0.3057715,-0.168791,0.137492,-0.3148915,-0.143414,-0.106908,-0.6067914999999999,-0.157004,0.141452,-0.6169715,-0.148053,1
126,0.009151,0.7411225,-0.073347,-0.1349129999999999,0.5168825,-0.078415,-0.223573,0.7116425,-0.169185,0.147717,0.5070525,-0.086927,0.239227,0.7063225,-0.168601,-0.266163,0.9102125,-0.279842,0.271927,0.9125925,-0.265122,-0.070946,0.0027085,0.0002619999999999,0.070946,-0.0027084999999999,-0.0002619999999999,-0.112043,-0.3148975,-0.151158,0.135487,-0.3287075,-0.124955,-0.107763,-0.6167475,-0.14243,0.140027,-0.6312975,-0.135234,1
127,0.0091164999999999,0.7394885,-0.060583,-0.1360365,0.5172585000000001,-0.066304,-0.2240965,0.7131085,-0.15459,0.1475935,0.5075185,-0.075183,0.2381735,0.7076385000000001,-0.155057,-0.2667365,0.9127285,-0.261587,0.2709935,0.9148285,-0.249217,-0.0707225,0.0028974999999999,0.000227,0.0707225,-0.0028975,-0.000227,-0.1121965,-0.3229015,-0.134467,0.1336135,-0.3418215,-0.107188,-0.1087265,-0.6255115,-0.12753,0.1385735,-0.6448115,-0.12216,1
128,0.008747,0.73704,-0.0476505,-0.137476,0.51759,-0.0538245,-0.224996,0.71445,-0.1399975,0.147184,0.5079300000000001,-0.0631075,0.236954,0.7088300000000001,-0.1412705,-0.267856,0.91488,-0.2434755,0.269554,0.91691,-0.2331754999999999,-0.070764,0.003084,0.0002265,0.070764,-0.003084,-0.0002264999999999,-0.112786,-0.33352,-0.1175064999999999,0.131544,-0.35691,-0.0896555,-0.1101159999999999,-0.6364799999999999,-0.1125835,0.136964,-0.6599499999999999,-0.1091795,1
129,0.0082794999999999,0.734641,-0.0347354999999999,-0.1389215,0.517141,-0.0415124999999999,-0.2262515,0.715061,-0.1254695,0.1467685,0.5079509999999999,-0.0509844999999999,0.2357885,0.709441,-0.1274735,-0.2688415,0.916181,-0.2253155,0.2680585,0.918401,-0.2170455,-0.0710015,0.0032049999999999,0.0002185,0.0710015,-0.003205,-0.0002184999999999,-0.1134614999999999,-0.344089,-0.1005975,0.1296885,-0.371379,-0.0727275,-0.1115615,-0.647329,-0.0979675,0.1352684999999999,-0.674399,-0.0962755,1
130,0.007667,0.7323225,-0.0219795,-0.140453,0.5167525000000001,-0.0289555,-0.227683,0.7156025,-0.1106125,0.146197,0.5078425000000001,-0.0386465,0.234477,0.7098525,-0.1139295,-0.269633,0.9172525,-0.2071724999999999,0.2664269999999999,0.9198425,-0.2008625,-0.071464,0.0032665,0.0002945,0.071464,-0.0032664999999999,-0.0002944999999999,-0.1143529999999999,-0.3552775,-0.0837565,0.127787,-0.3855975,-0.0561165,-0.113143,-0.6586274999999999,-0.0830355,0.133397,-0.6884675,-0.0832205,1
131,0.0070589999999999,0.7302109999999999,-0.0093055,-0.141917,0.516621,-0.0163475,-0.229057,0.7162109999999999,-0.0959875,0.145653,0.5077309999999999,-0.0263205,0.233433,0.710081,-0.1002395,-0.270487,0.919221,-0.1891305,0.265043,0.920891,-0.1849605,-0.071996,0.0033569999999999,0.0002004999999999,0.071996,-0.003357,-0.0002004999999999,-0.115227,-0.365979,-0.0667524999999999,0.126013,-0.3993589999999999,-0.0399535,-0.1146669999999999,-0.6694490000000001,-0.0682905,0.131593,-0.7020590000000001,-0.0703725,1
132,0.0065169999999999,0.728183,0.0034014999999999,-0.143346,0.5156930000000001,-0.0038515,-0.230526,0.716093,-0.0805005,0.145184,0.5078630000000001,-0.0140025,0.232384,0.710493,-0.0862764999999999,-0.271376,0.920263,-0.1709405,0.263814,0.922103,-0.1689705,-0.072578,0.003379,0.0001504999999999,0.072578,-0.003379,-0.0001505,-0.116146,-0.376507,-0.0500155,0.124334,-0.412807,-0.0241495,-0.116136,-0.680017,-0.0536435,0.129884,-0.715357,-0.0576295,1
133,0.0063614999999999,0.72643,0.011083,-0.1442935,0.5152800000000001,0.003636,-0.2315335,0.71628,-0.070486,0.1452365,0.50839,-0.0064349999999999,0.2324365,0.71079,-0.077027,-0.2720135,0.92155,-0.158405,0.2634465,0.92365,-0.157545,-0.0732985,0.0034169999999999,0.000225,0.0732985,-0.003417,-0.0002249999999999,-0.1166835,-0.38549,-0.038629,0.1232664999999999,-0.4246,-0.0141249999999999,-0.1171035,-0.6889799999999999,-0.0440669999999999,0.1288865,-0.7270099999999999,-0.0504489999999999,1
134,0.006714,0.7258105,0.0158024999999999,-0.14448,0.5152705,0.0077305,-0.2319099999999999,0.7170505,-0.0635775,0.14545,0.5079605,-0.0015214999999999,0.23273,0.7109705000000001,-0.0701535,-0.27237,0.9227605,-0.1491835,0.26396,0.9246005,-0.1484734999999999,-0.073496,0.0034254999999999,0.0003525,0.073496,-0.0034254999999999,-0.0003524999999999,-0.1169999999999999,-0.3863695,-0.0339825,0.1229,-0.4254795,-0.0098515,-0.11742,-0.6898595,-0.0391785,0.12859,-0.7278895,-0.0463425,1
135,0.0070284999999999,0.7251245000000001,0.020271,-0.1447455,0.5151845,0.011392,-0.2322355,0.7175045,-0.057218,0.1456945,0.5075945000000001,0.003082,0.2333245,0.7110345,-0.063345,-0.2726355,0.9232045,-0.142572,0.2648245,0.9250745,-0.140112,-0.0736624999999999,0.0034205,0.000478,0.0736624999999999,-0.0034205,-0.0004779999999999,-0.1172655,-0.3870555,-0.0298149999999999,0.1226345,-0.4261655,-0.0063859999999999,-0.1176454999999999,-0.6905454999999999,-0.034904,0.1283345,-0.7285754999999999,-0.042799,1
136,0.0073,0.725106,0.0240044999999999,-0.144947,0.515136,0.0146885,-0.232817,0.717706,-0.0516234999999999,0.145933,0.5073259999999999,0.0069125,0.234003,0.711076,-0.0574244999999999,-0.272817,0.923916,-0.1366115,0.265813,0.925586,-0.1324715,-0.073825,0.0034019999999999,0.0004865,0.073825,-0.003402,-0.0004864999999999,-0.1174669999999999,-0.387474,-0.0265145,0.122433,-0.426584,-0.0037855,-0.1178269999999999,-0.6909639999999999,-0.0316805,0.128143,-0.7289939999999999,-0.0400385,1
137,0.0076075,0.7252974999999999,0.0275115,-0.1449134999999999,0.5151275,0.0176395,-0.2330735,0.7179074999999999,-0.0464145,0.1462365,0.5071175,0.0104835,0.2346365,0.7111675,-0.0518995,-0.2731834999999999,0.9247775,-0.1310135,0.2667665,0.9260975,-0.1252135,-0.0739475,0.0033885,0.0004714999999999,0.0739475,-0.0033884999999999,-0.0004715,-0.1178834999999999,-0.3867825,-0.0237595,0.1222965,-0.4258424999999999,-0.0015675,-0.1181235,-0.6902725000000001,-0.0287725,0.1282265,-0.7282525000000001,-0.0376235,1
138,0.0079659999999999,0.7252875,0.0306909999999999,-0.144813,0.5151875,0.020238,-0.233353,0.7182075,-0.041505,0.146557,0.5069675,0.013581,0.235377,0.7112475,-0.046738,-0.273103,0.9257575,-0.125818,0.268057,0.9264875,-0.118438,-0.074007,0.0033984999999999,0.0004099999999999,0.074007,-0.0033984999999999,-0.00041,-0.118173,-0.3860825,-0.021419,0.122297,-0.4251325,0.0003499999999999,-0.118263,-0.6895725,-0.026226,0.128457,-0.7275525,-0.035701,1
139,0.008408,0.7255415,0.0335665,-0.1446879999999999,0.5152715,0.0226134999999999,-0.2337179999999999,0.7184515,-0.0371904999999999,0.146922,0.5068515,0.0165005,0.236172,0.7112615,-0.0419294999999999,-0.272948,0.9266715,-0.1211204999999999,0.2697819999999999,0.9267315,-0.1118405,-0.0740379999999999,0.0034415,0.0002585,0.0740379999999999,-0.0034415,-0.0002585,-0.1183579999999999,-0.3855984999999999,-0.0195885,0.122462,-0.4244084999999999,0.0020415,-0.1183579999999999,-0.6890885,-0.0240635,0.128742,-0.7268385,-0.0340054999999999,1
140,0.0088299999999999,0.7260455,0.036194,-0.144626,0.5153355,0.024774,-0.234136,0.7186755,-0.033043,0.1473539999999999,0.5067355,0.019263,0.236954,0.7111955,-0.03736,-0.272866,0.9268455,-0.116773,0.271544,0.9268555,-0.105633,-0.074021,0.0034924999999999,0.0002419999999999,0.074021,-0.0034925,-0.000242,-0.118516,-0.3852445,-0.018123,0.122524,-0.4238045,0.0034939999999999,-0.118516,-0.6887145,-0.022179,0.128934,-0.7262545,-0.032531,1
141,0.0092129999999999,0.7267985,0.0387335,-0.144569,0.5153785000000001,0.0269145,-0.234249,0.7188485,-0.0298875,0.147781,0.5065585,0.0219745,0.237741,0.7110785000000001,-0.0330565,-0.272759,0.9269385,-0.1125825,0.273401,0.9268885,-0.0998725,-0.074021,0.0035415,0.0002885,0.074021,-0.0035414999999999,-0.0002885,-0.118629,-0.3849415,-0.0166835,0.122551,-0.4233115,0.0047885,-0.118639,-0.6884015,-0.0203545,0.1291709999999999,-0.7257515,-0.0313424999999999,1
142,0.009614,0.727612,0.0410325,-0.144491,0.515432,0.0289304999999999,-0.234351,0.719032,-0.0268065,0.148119,0.5063420000000001,0.0242005,0.238439,0.710972,-0.0291295,-0.272611,0.927012,-0.1085915,0.2751789999999999,0.926892,-0.0946015,-0.074033,0.0035889999999999,0.0003354999999999,0.074033,-0.003589,-0.0003355,-0.1186909999999999,-0.384618,-0.0153625,0.122589,-0.422948,0.0059204999999999,-0.118721,-0.688068,-0.0187015,0.129409,-0.7253879999999999,-0.0302915,1
143,0.0099905,0.7283245,0.04307,-0.1444125,0.5154945,0.0308,-0.2344325,0.7192245,-0.023941,0.1482975,0.5060945,0.025723,0.2388975,0.7108645,-0.026022,-0.2727124999999999,0.9268645,-0.104924,0.2768275,0.9267845,-0.090314,-0.0740435,0.0036134999999999,0.000472,0.0740435,-0.0036134999999999,-0.0004719999999999,-0.1187324999999999,-0.3844055,-0.0142209999999999,0.1226675,-0.4227155,0.006739,-0.1187425,-0.6878355,-0.017324,0.1296375,-0.7251855,-0.0293689999999999,1
144,0.010347,0.7287845,0.0447059999999999,-0.1443299999999999,0.5155445,0.032467,-0.23443,0.7194045,-0.021397,0.14846,0.5058745,0.0269459999999999,0.23913,0.7107644999999999,-0.023629,-0.2728,0.9267745,-0.101736,0.2782199999999999,0.9266945,-0.086966,-0.0740359999999999,0.0036245,0.0006119999999999,0.0740359999999999,-0.0036245,-0.0006119999999999,-0.1187699999999999,-0.3842055,-0.0132939999999999,0.12273,-0.4224755,0.007327,-0.11875,-0.6876455,-0.016221,0.12986,-0.7249755,-0.028591,1
145,0.0107135,0.72961,0.045612,-0.1443795,0.5155000000000001,0.033353,-0.2343994999999999,0.71958,-0.01977,0.1485905,0.50583,0.027795,0.2393705,0.71077,-0.021659,-0.2728495,0.92672,-0.099571,0.2795705,0.92679,-0.084529,-0.0740085,0.0036339999999999,0.000824,0.0740085,-0.0036339999999999,-0.000824,-0.1188295,-0.38416,-0.012602,0.1226704999999999,-0.42224,0.00769,-0.1188195,-0.6875899999999999,-0.015352,0.1298005,-0.7247399999999999,-0.027977,1
146,0.0110645,0.7301124999999999,0.046403,-0.1444435,0.5154624999999999,0.03416,-0.2343535,0.7197525,-0.0189859999999999,0.1486664999999999,0.5057625,0.0287639999999999,0.2396065,0.7107224999999999,-0.0199869999999999,-0.2728035,0.9267125,-0.098111,0.2808365,0.9268925,-0.082588,-0.0739715,0.0036425,0.001039,0.0739715,-0.0036425,-0.001039,-0.1189035,-0.3841575,-0.011986,0.1225865,-0.4220575,0.007953,-0.1189235,-0.6875775000000001,-0.014493,0.1297265,-0.7245575000000001,-0.027412,1
147,0.011395,0.7309315000000001,0.047194,-0.144589,0.5154315,0.034938,-0.234349,0.7198815000000001,-0.0182039999999999,0.148701,0.5057015,0.02969,0.240001,0.7107115,-0.0186389999999999,-0.272749,0.9266415,-0.097334,0.281951,0.9269915,-0.081298,-0.073943,0.0036584999999999,0.00128,0.073943,-0.0036585,-0.0012799999999999,-0.119029,-0.3841585,-0.0113829999999999,0.122471,-0.4218485,0.008153,-0.119119,-0.6875785,-0.013737,0.129631,-0.7243585,-0.026845,1
148,0.011769,0.7315035,0.0480115,-0.144726,0.5154535,0.0357435,-0.234216,0.7199235,-0.0173924999999999,0.148704,0.5054435,0.0304984999999999,0.240444,0.7104535000000001,-0.0178185,-0.272486,0.9262935,-0.0965115,0.282734,0.9267035,-0.0804695,-0.073904,0.0036904999999999,0.0014834999999999,0.073904,-0.0036904999999999,-0.0014835,-0.119196,-0.3841164999999999,-0.0107905,0.122294,-0.4220064999999999,0.0083624999999999,-0.119406,-0.6875264999999999,-0.0129355,0.129484,-0.7245865,-0.0263335,1
149,0.0120574999999999,0.731857,0.048657,-0.1450425,0.515487,0.03669,-0.2336725,0.7198370000000001,-0.016922,0.1489275,0.505297,0.0313979999999999,0.2409675,0.710067,-0.016851,-0.2723125,0.926127,-0.095559,0.2834475,0.926217,-0.079497,-0.0738395,0.0037319999999999,0.0015659999999999,0.0738395,-0.0037319999999999,-0.001566,-0.1195524999999999,-0.384073,-0.010143,0.1218975,-0.4223329999999999,0.0085019999999999,-0.1199225,-0.687473,-0.011994,0.1290775,-0.724913,-0.025704,1
150,0.0124524999999999,0.7319875,0.0486865,-0.1451465,0.5156575,0.0374755,-0.2332865,0.7195875,-0.0170225,0.1494235,0.5053975,0.0322975,0.2416134999999999,0.7097175,-0.0159185,-0.2721065,0.9261175,-0.0948914999999999,0.2840735,0.9257775,-0.0785655,-0.0737595,0.0037885,0.0015504999999999,0.0737595,-0.0037885,-0.0015504999999999,-0.1200764999999999,-0.3840125,-0.0095694999999999,0.1213335,-0.4225824999999999,0.0083415,-0.1206165,-0.6873925,-0.0111355,0.1284635,-0.7251625,-0.0249555,1
151,0.0130899999999999,0.7321075,0.047903,-0.145014,0.5156575,0.0380029999999999,-0.234514,0.7195875,-0.017917,0.150216,0.5058875,0.033565,0.242756,0.7095975,-0.0146249999999999,-0.272054,0.9261175,-0.095121,0.285006,0.9255375,-0.078305,-0.073609,0.0037885,0.0014689999999999,0.073609,-0.0037885,-0.001469,-0.120974,-0.3840425,-0.008817,0.120446,-0.4225824999999999,0.0079179999999999,-0.121894,-0.6874225,-0.010245,0.127326,-0.7251625,-0.024133,0
152,0.0135375,0.7321075,0.0468745,-0.1450755,0.5156575,0.0384425,-0.2361855,0.7195875,-0.0190175,0.1510044999999999,0.5064775,0.0347255,0.2449144999999999,0.7094375,-0.0134685,-0.2716455,0.9260075,-0.0967675,0.2858945,0.9253075,-0.0781325,-0.0735145,0.0037885,0.0013584999999999,0.0735145,-0.0037885,-0.0013585,-0.1221755,-0.3840625,-0.0080685,0.1193144999999999,-0.4227325,0.0074194999999999,-0.1235855,-0.6874425,-0.0092925,0.1259445,-0.7253725,-0.0235505,0
153,0.0140079999999999,0.7321095,0.0455425,-0.145031,0.5156594999999999,0.0386715,-0.238231,0.7192795000000001,-0.0202625,0.152249,0.5069794999999999,0.0358654999999999,0.2488189999999999,0.7087695,-0.0122204999999999,-0.271451,0.9254995,-0.0985795,0.287149,0.9247595,-0.0779295,-0.0734549999999999,0.0037905,0.0013325,0.0734549999999999,-0.0037904999999999,-0.0013325,-0.123631,-0.3840604999999999,-0.0071925,0.117949,-0.4229505,0.0069224999999999,-0.125691,-0.6874404999999999,-0.0082405,0.124199,-0.7256905,-0.0226995,0
154,0.0146375,0.7322040000000001,0.0435964999999999,-0.1451624999999999,0.515614,0.0382545,-0.2419825,0.7168540000000001,-0.0221885,0.1543775,0.5070539999999999,0.0368195,0.2570375,0.705864,-0.0105735,-0.2718225,0.923924,-0.1008804999999999,0.2916775,0.921214,-0.0778205,-0.0732955,0.003827,0.0013824999999999,0.0732955,-0.0038269999999999,-0.0013825,-0.1256924999999999,-0.384016,-0.0063155,0.1163575,-0.424346,0.0060024999999999,-0.1285724999999999,-0.687376,-0.0072525,0.1215475,-0.7271859999999999,-0.0218815,0
155,0.015503,0.7324695,0.0410755,-0.145841,0.5158195,0.0380314999999999,-0.247361,0.7135895,-0.0248535,0.156489,0.5074795,0.0378735,0.265989,0.7026695000000001,-0.0085034999999999,-0.272341,0.9208695,-0.1057525,0.295569,0.9180195,-0.0775425,-0.073045,0.0038444999999999,0.0014205,0.073045,-0.0038445,-0.0014205,-0.128171,-0.3838905,-0.0053855,0.114499,-0.4259205,0.0047385,-0.132091,-0.6872305,-0.0065285,0.118299,-0.7288505,-0.0208305,0
156,0.0162609999999999,0.73283,0.0383695,-0.146446,0.51588,0.0372595,-0.254416,0.70801,-0.0283685,0.1593339999999999,0.50833,0.0389805,0.277564,0.69684,-0.0061825,-0.273446,0.91584,-0.1104875,0.2999239999999999,0.91203,-0.0772075,-0.072744,0.0038699999999999,0.0013674999999999,0.072744,-0.0038699999999999,-0.0013675,-0.131196,-0.38369,-0.0043885,0.112134,-0.42709,0.0034864999999999,-0.136456,-0.68701,-0.0058235,0.114274,-0.7301,-0.0197185,0
157,0.017379,0.7331995,0.0355095,-0.146536,0.5156795000000001,0.0361835,-0.259376,0.7005195,-0.0324485,0.162474,0.5095194999999999,0.0400615,0.289664,0.6894895000000001,-0.0035225,-0.2749959999999999,0.9055895,-0.1157195,0.306114,0.8997895,-0.0763495,-0.07245,0.0039545,0.0013045,0.07245,-0.0039545,-0.0013045,-0.1343059999999999,-0.3836005,-0.0036125,0.109544,-0.4278705,0.0021025,-0.141386,-0.6868405,-0.0049205,0.109704,-0.7309505000000001,-0.0185475,0
158,0.0182725,0.7342585,0.03288,-0.1454465,0.5143685,0.034657,-0.2659265,0.6829385,-0.033938,0.1649435,0.5106585,0.041705,0.3030935,0.6761485,0.0008,-0.2787064999999999,0.8855885,-0.120543,0.3114935,0.8830485,-0.073943,-0.0721065,0.0040304999999999,0.0013109999999999,0.0721065,-0.0040304999999999,-0.0013109999999999,-0.1377265,-0.3838415,-0.0035509999999999,0.1061735,-0.4274415,0.0009429999999999,-0.1478165,-0.6868315,-0.0036479999999999,0.1033535,-0.7305015,-0.016173,0
159,0.0191474999999999,0.735751,0.0303864999999999,-0.1438915,0.512151,0.0324774999999999,-0.2753315,0.659231,-0.0311705,0.1667584999999999,0.5117510000000001,0.0444824999999999,0.3164685,0.656381,0.0067044999999999,-0.2839115,0.8537910000000001,-0.1251475,0.3142485,0.8597410000000001,-0.0716875,-0.0717785,0.0041,0.0014284999999999,0.0717785,-0.0040999999999999,-0.0014285,-0.1408915,-0.384929,-0.0068355,0.1011285,-0.425869,0.0008414999999999,-0.1562615,-0.6867789999999999,-0.0025275,0.0935885,-0.7287089999999999,-0.0122425,0
160,0.0197095,0.737459,0.0285475,-0.1434315,0.510219,0.0307745,-0.2852985,0.630359,-0.0272675,0.1680315,0.5127390000000001,0.0471265,0.3297715,0.6343690000000001,0.0122885,-0.2888985,0.815319,-0.1297405,0.3171715,0.830999,-0.0702505,-0.0714215,0.004102,0.0014144999999999,0.0714215,-0.0041019999999999,-0.0014144999999999,-0.1431565,-0.3857509999999999,-0.0119035,0.0963615,-0.424791,0.0008524999999999,-0.1643385,-0.6864709999999999,-0.0024915,0.0831015,-0.727191,-0.0078515,0
161,0.020464,0.739371,0.026335,-0.143771,0.508551,0.029412,-0.2965669999999999,0.598681,-0.0220549999999999,0.168783,0.513291,0.049771,0.340583,0.6093310000000001,0.018109,-0.2933469999999999,0.772301,-0.134869,0.319153,0.7971710000000001,-0.068719,-0.071073,0.004064,0.001271,0.071073,-0.0040639999999999,-0.0012709999999999,-0.14349,-0.386089,-0.0201459999999999,0.090783,-0.423439,0.001533,-0.1700569999999999,-0.685819,-0.0064479999999999,0.0711729999999999,-0.7253189999999999,-0.0027409999999999,0
162,0.0215355,0.7414255000000001,0.0240804999999999,-0.1434745,0.5062855,0.0274815,-0.3043275,0.5622955000000001,-0.0166385,0.1690425,0.5133655,0.0529155,0.3465025,0.5814955,0.0243274999999999,-0.2984974999999999,0.7204155,-0.1401355,0.3202525,0.7583655,-0.0685554999999999,-0.0706325,0.0039785,0.0008254999999999,0.0706324999999999,-0.0039784999999999,-0.0008255,-0.1422915,-0.3825745,-0.0304075,0.0850325,-0.4231445,0.0028704999999999,-0.1734175,-0.6817044999999999,-0.0113505,0.0594725,-0.7231645,0.0025464999999999,0
163,0.0227369999999999,0.743317,0.0220935,-0.142303,0.5035270000000001,0.0256125,-0.310273,0.525477,-0.0125954999999999,0.167887,0.5125770000000001,0.0563405,0.346307,0.551207,0.0307525,-0.302043,0.662857,-0.1399895,0.317987,0.7174470000000001,-0.0700994999999999,-0.070437,0.003855,0.0003945,0.070437,-0.003855,-0.0003944999999999,-0.137527,-0.377183,-0.0421794999999999,0.078257,-0.417753,0.0053595,-0.172736,-0.6763129999999999,-0.0198204999999999,0.0474769999999999,-0.717773,0.0066745,0
164,0.0240299999999999,0.7450165,0.019966,-0.140521,0.5003465,0.02317,-0.31316,0.4861865000000001,-0.007493,0.16652,0.5111165,0.059552,0.34446,0.5185765,0.037387,-0.30456,0.5997865,-0.135243,0.31531,0.6705265,-0.0723729999999999,-0.07036,0.0037965,-1.2999999999999123e-05,0.0703599999999999,-0.0037964999999999,1.3000000000013e-05,-0.130741,-0.3718835,-0.059063,0.07075,-0.4124535,0.008681,-0.167171,-0.6710134999999999,-0.0313529999999999,0.03512,-0.7124735,0.01114,0
165,0.025417,0.745768,0.017284,-0.1395549999999999,0.4964379999999999,0.020485,-0.311343,0.447328,-0.0011069999999999,0.163887,0.507868,0.062674,0.337657,0.482128,0.045895,-0.301733,0.534968,-0.128945,0.309297,0.625508,-0.075245,-0.070297,0.0037289999999999,-0.0009259999999999,0.070297,-0.003729,0.000926,-0.1187719999999999,-0.366802,-0.081315,0.065707,-0.407372,0.010303,-0.1548149999999999,-0.665932,-0.0436749999999999,0.022407,-0.707392,0.0124739999999999,0
166,0.027039,0.7462920000000001,0.0141499999999999,-0.138659,0.4924719999999999,0.01747,-0.303941,0.4041119999999999,0.0065109999999999,0.161159,0.504112,0.065172,0.331099,0.445532,0.0543279999999999,-0.299631,0.455302,-0.1234099999999999,0.303419,0.5706420000000001,-0.08229,-0.070389,0.0036419999999999,-0.00173,0.070389,-0.003642,0.0017299999999999,-0.103525,-0.356538,-0.10632,0.0609089999999999,-0.397918,0.0006999999999999,-0.137839,-0.6548379999999999,-0.05452,0.009909,-0.692318,0.015306,0
167,0.0289949999999999,0.745628,0.009945,-0.139446,0.489598,0.013805,-0.292245,0.371498,0.014555,0.158385,0.499668,0.066393,0.321275,0.413978,0.059928,-0.292055,0.3851279999999999,-0.117035,0.298255,0.515578,-0.0938149999999999,-0.070605,0.003817,-0.0029049999999999,0.070605,-0.003817,0.002905,-0.088559,-0.346822,-0.1295349999999999,0.056235,-0.388212,-0.0082549999999999,-0.118948,-0.639082,-0.0671749999999999,-0.0017349999999999,-0.677472,0.018884,0
168,0.0306155,0.744071,0.005275,-0.1415745,0.4877309999999999,0.010435,-0.2766145,0.345031,0.022015,0.1556455,0.495041,0.065659,0.3110455,0.388331,0.06322,-0.2829844999999999,0.324841,-0.1118649999999999,0.2956155,0.464511,-0.105435,-0.0707654999999999,0.003904,-0.0043949999999999,0.0707655,-0.003904,0.004395,-0.0733374999999999,-0.338109,-0.149345,0.0533655,-0.380219,-0.0179349999999999,-0.0973334999999999,-0.624749,-0.078705,-0.0115944999999999,-0.6638890000000001,0.017855,0
169,0.03307,0.7425514999999999,-0.00087,-0.1426359999999999,0.4859615,0.00522,-0.2617939999999999,0.3251715,0.0289399999999999,0.15382,0.4905315,0.063495,0.29791,0.3633915,0.0665559999999999,-0.273641,0.2675915,-0.09898,0.29441,0.4151815,-0.10987,-0.0712,0.0044085,-0.0056,0.0712,-0.0044085,0.0055999999999999,-0.0572999999999999,-0.3298784999999999,-0.16672,0.05182,-0.3750084999999999,-0.02691,-0.080249,-0.6093085,-0.0864,-0.02201,-0.6492085000000001,0.0211399999999999,0
170,0.0352949999999999,0.7404955,-0.0077949999999999,-0.142617,0.4844955,-0.0011349999999999,-0.247396,0.3084855,0.034895,0.152305,0.4856955,0.060145,0.290435,0.3400455,0.0609649999999999,-0.266388,0.2175455,-0.083805,0.2954949999999999,0.3705055,-0.121835,-0.071555,0.0051725,-0.0066249999999999,0.071555,-0.0051725,0.0066249999999999,-0.0435649999999999,-0.3209045,-0.180265,0.048995,-0.3705245,-0.036555,-0.067645,-0.5928145,-0.0873249999999999,-0.033035,-0.6334344999999999,0.026895,0
171,0.0380449999999999,0.738346,-0.01526,-0.143115,0.484816,-0.0069099999999999,-0.235821,0.299126,0.0417599999999999,0.151565,0.481356,0.0549399999999999,0.283625,0.320226,0.0546299999999999,-0.257938,0.178326,-0.06739,0.300505,0.330566,-0.13867,-0.072185,0.0059629999999999,-0.0071299999999999,0.072185,-0.0059629999999999,0.0071299999999999,-0.0306849999999999,-0.3101939999999999,-0.19189,0.045845,-0.366054,-0.04682,-0.058285,-0.573804,-0.08577,-0.043855,-0.616654,0.0327299999999999,0
172,0.0413399999999999,0.7359115,-0.02447,-0.14336,0.4855915,-0.01365,-0.225746,0.2928615,0.0460499999999999,0.15198,0.4772415,0.0477199999999999,0.2762699999999999,0.3068415,0.0437199999999999,-0.252015,0.1458815,-0.05051,0.30455,0.2955115,-0.15099,-0.0725099999999999,0.0067385,-0.00757,0.07251,-0.0067385,0.0075699999999999,-0.0221099999999999,-0.2999385,-0.20106,0.04104,-0.3591685,-0.06905,-0.0544,-0.5524785,-0.0763099999999999,-0.0558599999999999,-0.5972485,0.0348099999999999,0
173,0.046715,0.7335565,-0.03539,-0.143455,0.4862265,-0.0202099999999999,-0.217684,0.2909965,0.04877,0.1539749999999999,0.4730265,0.0380999999999999,0.271155,0.2968965,0.02785,-0.247234,0.1216265,-0.0319399999999999,0.3126949999999999,0.2650065,-0.16551,-0.072775,0.0074815,-0.00808,0.0727749999999999,-0.0074815,0.00808,-0.015795,-0.2917135,-0.2037,0.034945,-0.3520235,-0.0887499999999999,-0.055555,-0.5448935,-0.0614999999999999,-0.067065,-0.5795035000000001,0.03965,0
174,0.055445,0.7328635,-0.04715,-0.139485,0.4874335,-0.0282999999999999,-0.211134,0.2915135,0.0445,0.158425,0.4708935,0.02682,0.271595,0.2920935,0.0062599999999999,-0.246392,0.1015534999999999,-0.0179799999999999,0.327045,0.2353635,-0.18116,-0.0731449999999999,0.0074804999999999,-0.00824,0.073145,-0.0074804999999999,0.00824,-0.0142649999999999,-0.2894664999999999,-0.19805,0.025915,-0.3440665,-0.1035599999999999,-0.0628149999999999,-0.5429765000000001,-0.04292,-0.075485,-0.5606065,0.0502199999999999,0
175,0.064575,0.7321989999999999,-0.0589649999999999,-0.134795,0.488949,-0.0365749999999999,-0.207155,0.292689,0.042055,0.1630349999999999,0.469449,0.015495,0.274455,0.289879,-0.0143949999999999,-0.244588,0.102729,-0.0037949999999999,0.3390149999999999,0.221819,-0.1922349999999999,-0.073405,0.007341,-0.0084249999999999,0.073405,-0.007341,0.008425,-0.0162149999999999,-0.2882909999999999,-0.1881649999999999,0.019575,-0.342891,-0.1058849999999999,-0.0746149999999999,-0.5418010000000001,-0.0246149999999999,-0.0818049999999999,-0.5532410000000001,0.060205,0
176,0.074825,0.7317475,-0.07106,-0.1290249999999999,0.4911075,-0.0444,-0.2046949999999999,0.2937975,0.0372399999999999,0.1682449999999999,0.4682075,0.0034599999999999,0.278665,0.2891975,-0.03444,-0.2471009999999999,0.1038375,0.0091899999999999,0.3512350000000001,0.2125575,-0.20161,-0.0735649999999999,0.0074565,-0.00817,0.073565,-0.0074565,0.0081699999999999,-0.0170249999999999,-0.2871825,-0.17837,0.015925,-0.3410025,-0.1072,-0.0718649999999999,-0.5406925,-0.0248,-0.0833749999999999,-0.5521325,0.0699799999999999,0
177,0.0869849999999999,0.7290329999999999,-0.0823349999999999,-0.121265,0.4941029999999999,-0.0519449999999999,-0.201775,0.294593,0.032145,0.174365,0.464673,-0.008085,0.2858449999999999,0.2887429999999999,-0.053875,-0.250005,0.104633,0.017035,0.362185,0.204883,-0.2091049999999999,-0.073745,0.007974,-0.0076649999999999,0.073745,-0.0079739999999999,0.007665,-0.0187849999999999,-0.286387,-0.1676449999999999,0.0126149999999999,-0.338177,-0.1067249999999999,-0.070915,-0.539787,-0.0240749999999999,-0.0835449999999999,-0.5513370000000001,0.086535,0
178,0.09933,0.7262155,-0.092775,-0.11406,0.4976655,-0.0570749999999999,-0.2005599999999999,0.3016055,0.0291949999999999,0.1797,0.4611955,-0.0190049999999999,0.29289,0.2880455,-0.072255,-0.2542799999999999,0.1052355,0.0176749999999999,0.37007,0.1999255,-0.220275,-0.0736899999999999,0.0087095,-0.0071249999999999,0.07369,-0.0087095,0.0071249999999999,-0.0241599999999999,-0.2940545,-0.155455,0.01326,-0.3384145,-0.107195,-0.0666099999999999,-0.5459545,-0.021565,-0.07854,-0.5508645000000001,0.094385,0
179,0.1120499999999999,0.723164,-0.1020649999999999,-0.10634,0.501654,-0.061915,-0.19853,0.308794,0.0264449999999999,0.1851199999999999,0.457444,-0.028855,0.29554,0.287644,-0.082405,-0.25711,0.107344,0.0166049999999999,0.37668,0.195184,-0.224215,-0.07366,0.009438,-0.006705,0.0736599999999999,-0.009438,0.006705,-0.02943,-0.302066,-0.1434849999999999,0.0193799999999999,-0.338856,-0.107515,-0.06018,-0.557796,-0.0253349999999999,-0.06181,-0.555296,0.081855,0
180,0.124305,0.720115,-0.11085,-0.098685,0.505095,-0.06687,-0.197055,0.316155,0.02387,0.190025,0.453545,-0.0376199999999999,0.2975449999999999,0.286905,-0.0923799999999999,-0.260575,0.111765,0.0165099999999999,0.379475,0.190775,-0.22183,-0.073445,0.010331,-0.0065399999999999,0.0734449999999999,-0.010331,0.0065399999999999,-0.036495,-0.310485,-0.13049,0.028895,-0.339285,-0.10847,-0.053905,-0.569975,-0.02781,-0.0389249999999999,-0.560855,0.0659799999999999,0
181,0.135905,0.717411,-0.11803,-0.0914849999999999,0.507731,-0.07063,-0.1952149999999999,0.322081,0.0214999999999999,0.1944449999999999,0.450301,-0.04469,0.298815,0.285601,-0.09848,-0.263005,0.119881,0.0167699999999999,0.382895,0.186221,-0.2221,-0.0733949999999999,0.011028,-0.0064899999999999,0.0733949999999999,-0.011028,0.0064899999999999,-0.042995,-0.318749,-0.11757,0.041355,-0.340179,-0.09734,-0.046665,-0.584179,-0.03332,-0.011795,-0.5685589999999999,0.0536599999999999,0
182,0.1452149999999999,0.7148715,-0.123015,-0.084195,0.5101114999999999,-0.074455,-0.193475,0.3279515,0.019795,0.197585,0.4468815,-0.049375,0.2981049999999999,0.2857015,-0.100135,-0.265225,0.1262615,0.018015,0.3831249999999999,0.1831215,-0.2193449999999999,-0.073335,0.0121145,-0.0063449999999999,0.073335,-0.0121145,0.0063449999999999,-0.049385,-0.3266385,-0.1059349999999999,0.0562349999999999,-0.3408385,-0.088525,-0.039115,-0.5979485,-0.0401849999999999,0.0160849999999999,-0.5772785,0.0375949999999999,0
183,0.1513499999999999,0.7128715,-0.12661,-0.08014,0.5108415,-0.0761,-0.19346,0.3313815,0.0195799999999999,0.19901,0.4454214999999999,-0.0525499999999999,0.2955799999999999,0.2861515,-0.09844,-0.26802,0.1305515,0.0199899999999999,0.38003,0.1800115,-0.2141,-0.07318,0.0128445,-0.00593,0.07318,-0.0128445,0.0059299999999999,-0.05516,-0.3332085,-0.0971199999999999,0.0720999999999999,-0.3415685,-0.08247,-0.03184,-0.6125685,-0.04947,0.0422199999999999,-0.5860685,0.0188199999999999,0
184,0.15611,0.7117065,-0.129,-0.07773,0.5119365,-0.0762,-0.194,0.3345565,0.0204499999999999,0.1996699999999999,0.4447465,-0.0543299999999999,0.29322,0.2865065,-0.09584,-0.27058,0.1349965,0.0229599999999999,0.3749499999999999,0.1795965,-0.20555,-0.0727599999999999,0.0132595,-0.00547,0.0727599999999999,-0.0132595,0.0054699999999999,-0.06245,-0.3388135,-0.08847,0.0837699999999999,-0.3408935,-0.0757499999999999,-0.02611,-0.6294635,-0.05835,0.0647199999999999,-0.5962234999999999,0.0009399999999999,0
185,0.159735,0.7114280000000001,-0.130235,-0.0758849999999999,0.5130480000000001,-0.0756149999999999,-0.1934249999999999,0.337268,0.021905,0.200575,0.444508,-0.054655,0.291875,0.286818,-0.090885,-0.2715649999999999,0.138968,0.026405,0.369485,0.175928,-0.1954249999999999,-0.0723849999999999,0.013498,-0.005035,0.072385,-0.013498,0.005035,-0.0708849999999999,-0.342292,-0.081045,0.093175,-0.339672,-0.0701049999999999,-0.0359449999999999,-0.632342,-0.0467349999999999,0.083385,-0.605762,-0.0180249999999999,0
186,0.160835,0.711079,-0.13172,-0.076065,0.515289,-0.07446,-0.193245,0.339509,0.0238099999999999,0.200725,0.444159,-0.05452,0.289025,0.287139,-0.08353,-0.271445,0.142499,0.0294199999999999,0.364455,0.172159,-0.18859,-0.072075,0.01347,-0.00464,0.072075,-0.01347,0.0046399999999999,-0.079285,-0.342641,-0.07406,0.101755,-0.3380809999999999,-0.06562,-0.0448349999999999,-0.632691,-0.03628,0.101445,-0.614481,-0.0378,0
187,0.160665,0.7105465000000001,-0.132085,-0.0757549999999999,0.5173465,-0.074075,-0.192125,0.3412165,0.0248549999999999,0.2010549999999999,0.4436265,-0.053035,0.285995,0.2864565,-0.074515,-0.270165,0.1440665,0.0315149999999999,0.3564550000000001,0.1685365,-0.179705,-0.0718049999999999,0.0134485,-0.004435,0.071805,-0.0134485,0.0044349999999999,-0.0860149999999999,-0.3431735,-0.068995,0.104665,-0.3371035,-0.060195,-0.0529949999999999,-0.6332234999999999,-0.027685,0.115375,-0.6231234999999999,-0.057485,0
188,0.1600399999999999,0.7094995000000001,-0.1320800000000001,-0.07622,0.5187895,-0.07289,-0.1913,0.3413895,0.0263199999999999,0.2018799999999999,0.4430095,-0.05107,0.28184,0.2850595,-0.0658,-0.26908,0.1438795,0.0337699999999999,0.34679,0.1639195,-0.17113,-0.07152,0.0134865,-0.00418,0.07152,-0.0134865,0.0041799999999999,-0.09269,-0.3442205,-0.06395,0.1040999999999999,-0.3364505,-0.05439,-0.06128,-0.6342705,-0.01915,0.11846,-0.6244705,-0.0571100000000001,0
189,0.1586849999999999,0.709669,-0.13155,-0.077065,0.518859,-0.07105,-0.190255,0.339089,0.0279599999999999,0.202615,0.443729,-0.0484000000000001,0.277005,0.282709,-0.0582800000000001,-0.267225,0.141529,0.0352199999999999,0.337965,0.156969,-0.16371,-0.0711649999999999,0.013672,-0.00401,0.071165,-0.013672,0.0040099999999999,-0.0989149999999999,-0.346481,-0.0595500000000001,0.100825,-0.336911,-0.0477400000000001,-0.068795,-0.635841,-0.01169,0.115645,-0.626911,-0.0534000000000001,0
190,0.15678,0.7100025,-0.1299749999999999,-0.0789199999999999,0.5185225,-0.0682449999999998,-0.1889699999999999,0.3365125,0.030075,0.2035,0.4442325,-0.0440249999999999,0.27113,0.2795225,-0.0511549999999999,-0.26432,0.1389525,0.035895,0.32965,0.1492725,-0.1546649999999999,-0.0707999999999999,0.0136815,-0.0040149999999999,0.0707999999999999,-0.0136815,0.0040150000000001,-0.10576,-0.3472475,-0.0553849999999999,0.09774,-0.3371675,-0.0417949999999999,-0.0757899999999999,-0.6374475000000001,-0.0048949999999999,0.11038,-0.6294875,-0.0476849999999999,0
191,0.154065,0.7108295,-0.1300549999999999,-0.080545,0.5198795,-0.0665449999999999,-0.186245,0.3366595,0.032155,0.2027449999999999,0.4466295,-0.0448049999999999,0.274215,0.2731895,-0.0548849999999999,-0.260695,0.1442494999999999,0.035865,0.3249149999999999,0.1865695,-0.1340249999999999,-0.070535,0.0143355,-0.0037549999999999,0.070535,-0.0143355,0.003755,-0.111745,-0.3472805,-0.0518449999999999,0.0901849999999999,-0.3404905,-0.0303649999999999,-0.083485,-0.6414405,0.005425,0.1033149999999999,-0.6281705,-0.0386849999999999,0
192,0.151425,0.7110195,-0.1270099999999999,-0.082465,0.5193295,-0.0632499999999999,-0.186325,0.3345194999999999,0.0347,0.206315,0.4473695,-0.0399499999999999,0.266575,0.2712295,-0.0405999999999999,-0.259915,0.1389995,0.03698,0.326105,0.1325495,-0.1330699999999999,-0.070205,0.0141114999999999,-0.0036899999999999,0.0702049999999999,-0.0141115,0.00369,-0.116085,-0.3479805,-0.0477999999999999,0.0869449999999999,-0.3419105,-0.0267499999999999,-0.089665,-0.6423805,0.00974,0.0975549999999999,-0.6306605,-0.0339699999999999,0
193,0.14862,0.7116414999999999,-0.1250299999999999,-0.0845899999999999,0.5185915,-0.06037,-0.1855899999999999,0.3316115,0.0367199999999999,0.20666,0.4468115,-0.03556,0.2581000000000001,0.2707315,-0.0251,-0.2561399999999999,0.1347815,0.03702,0.3275100000000001,0.1156015,-0.167,-0.0697399999999999,0.0139135,-0.0041299999999999,0.06974,-0.0139135,0.0041299999999999,-0.1198899999999999,-0.3480184999999999,-0.04415,0.08647,-0.3410185,-0.0250799999999999,-0.0951699999999999,-0.6426485000000001,0.01321,0.09242,-0.6323685,-0.03017,0
194,0.14551,0.7123560000000001,-0.119635,-0.0856899999999999,0.516236,-0.055225,-0.18362,0.326646,0.0404149999999999,0.20938,0.446396,-0.025845,0.24685,0.269136,0.0018349999999999,-0.24983,0.121836,0.0360149999999999,0.2857699999999999,0.1184059999999999,-0.0941050000000001,-0.06961,0.0132509999999999,-0.005145,0.06961,-0.0132509999999999,0.0051449999999999,-0.1243799999999999,-0.348944,-0.0367750000000001,0.0884399999999999,-0.339284,-0.022915,-0.1019999999999999,-0.644034,0.0196649999999999,0.0864099999999999,-0.6380239999999999,-0.022645,0
195,0.1454749999999999,0.713367,-0.116875,-0.090215,0.5151469999999999,-0.050985,-0.183245,0.322167,0.0430349999999999,0.2070749999999999,0.445757,-0.0229949999999999,0.2413449999999999,0.266377,0.014135,-0.245775,0.1198169999999999,0.0362749999999999,0.272235,0.086747,-0.085165,-0.069765,0.01286,-0.006005,0.0697649999999999,-0.01286,0.006005,-0.124995,-0.348313,-0.033625,0.089175,-0.338823,-0.0212449999999999,-0.103735,-0.643613,0.0224149999999999,0.0847249999999999,-0.638363,-0.019845,0
196,0.14475,0.7136285,-0.11324,-0.09372,0.5139785,-0.04624,-0.18127,0.3177985,0.0466399999999999,0.20474,0.4449685,-0.0189799999999999,0.23594,0.2609985,0.0235499999999999,-0.2414,0.1156784999999999,0.0368899999999999,0.2571599999999999,0.0741115,-0.0690400000000001,-0.06946,0.0126665,-0.00794,0.0694599999999999,-0.0126664999999999,0.0079399999999999,-0.12605,-0.3482915,-0.0298,0.09023,-0.3384915,-0.01869,-0.10601,-0.6435215,0.0269599999999999,0.0831199999999999,-0.6374314999999999,-0.01575,0
197,0.143335,0.7133015,-0.1089,-0.0920349999999999,0.5126415,-0.04298,-0.178565,0.3156115,0.04922,0.2145049999999999,0.4463715,-0.00794,0.229315,0.2529815,0.03312,-0.238455,0.1119215,0.0378199999999999,0.2333549999999999,0.0732945,-0.0345999999999999,-0.0692849999999999,0.0128064999999999,-0.0090999999999999,0.069285,-0.0128065,0.0090999999999999,-0.127535,-0.3489885,-0.0264299999999999,0.089415,-0.3386385,-0.0153699999999999,-0.108425,-0.6442285,0.03061,0.081365,-0.6380184999999999,-0.01226,0
