sb224sc-HT22-VT27/4dt907/src/data/labeled_files/A17_kinect.csv
FrameNo,nose_3d_x,nose_3d_y,nose_3d_z,left_shoulder_3d_x,left_shoulder_3d_y,left_shoulder_3d_z,left_elbow_3d_x,left_elbow_3d_y,left_elbow_3d_z,right_shoulder_3d_x,right_shoulder_3d_y,right_shoulder_3d_z,right_elbow_3d_x,right_elbow_3d_y,right_elbow_3d_z,left_wrist_3d_x,left_wrist_3d_y,left_wrist_3d_z,right_wrist_3d_x,right_wrist_3d_y,right_wrist_3d_z,left_hip_3d_x,left_hip_3d_y,left_hip_3d_z,right_hip_3d_x,right_hip_3d_y,right_hip_3d_z,left_knee_3d_x,left_knee_3d_y,left_knee_3d_z,right_knee_3d_x,right_knee_3d_y,right_knee_3d_z,left_ankle_3d_x,left_ankle_3d_y,left_ankle_3d_z,right_ankle_3d_x,right_ankle_3d_y,right_ankle_3d_z,activity_label
0,0.0064564999999999,0.744936,0.078295,-0.1543915,0.469416,0.055262,-0.2593915,0.384746,-0.073198,0.1471985,0.466756,0.051361,0.2755185,0.383906,-0.048846,-0.3206015,0.340066,-0.241618,0.3278685,0.332926,-0.2791579999999999,-0.0728685,0.0019069999999999,0.000676,0.0728685,-0.0019069999999999,-0.0006759999999999,-0.1379415,-0.363894,-0.0192809999999999,0.1131384999999999,-0.400694,0.0084,-0.1494615,-0.667204,-0.0355409999999999,0.1212885,-0.703094,-0.027491,0
1,0.0062065,0.7449184999999999,0.0787974999999999,-0.1541015,0.4692185,0.0535955,-0.2685615,0.4224585,-0.0823354999999999,0.1484385,0.4679685,0.0500545,0.2823485,0.4122485,-0.0614025,-0.3350715,0.3807985,-0.2552554999999999,0.3398285,0.3797385,-0.2435354999999999,-0.0730075,0.0018915,0.0008795,0.0730075,-0.0018915,-0.0008794999999999,-0.1380515,-0.3635215,-0.0201794999999999,0.1126985,-0.4012214999999999,0.0072965,-0.1494714999999999,-0.6668315,-0.0367045,0.1210585,-0.7036015,-0.0286455,0
2,0.0093194999999999,0.743889,0.0799469999999999,-0.1517695,0.470959,0.0521929999999999,-0.2769695,0.4413289999999999,-0.099711,0.1513605,0.467889,0.048956,0.2939605,0.435099,-0.059504,-0.3423595,0.437009,-0.267821,0.3486905,0.434179,-0.253341,-0.0730025,0.0023109999999999,0.0012239999999999,0.0730025,-0.002311,-0.001224,-0.1398595,-0.363521,-0.021291,0.1105805,-0.403161,0.0057569999999999,-0.1524195,-0.6667909999999999,-0.037339,0.1177405,-0.7055809999999999,-0.0300679999999999,0
3,0.009414,0.7431085,0.079851,-0.149334,0.4733385,0.050703,-0.281354,0.4681585,-0.100044,0.152806,0.4693285,0.04857,0.298936,0.4614685,-0.058698,-0.352534,0.4864985,-0.301384,0.357136,0.4973385,-0.289664,-0.073109,0.0023985,0.001589,0.073109,-0.0023985,-0.001589,-0.139754,-0.3646915,-0.022024,0.110456,-0.4037015,0.0050779999999999,-0.152444,-0.6679515,-0.0384599999999999,0.117436,-0.7062015,-0.029779,0
4,0.0093089999999999,0.7416565,0.079067,-0.149602,0.4737765,0.048927,-0.299802,0.5036365,-0.128984,0.154588,0.4726365,0.047622,0.306498,0.5024065,-0.106434,-0.360012,0.5510265,-0.342494,0.367148,0.5602265,-0.322124,-0.073141,0.0025085,0.0020559999999999,0.073141,-0.0025085,-0.0020559999999999,-0.139682,-0.3663935,-0.023335,0.110328,-0.4070435,0.0039499999999999,-0.152412,-0.6696535,-0.040284,0.117418,-0.7094935,-0.0314959999999999,0
5,0.0091515,0.7393975,0.079122,-0.1501124999999999,0.4756575,0.046817,-0.2938325,0.5583675,-0.114992,0.1560475,0.4761775,0.0464259999999999,0.2994875,0.5444775,-0.089462,-0.3474425,0.6499575,-0.329502,0.3616075,0.6460975,-0.296352,-0.0731145,0.0023385,0.0020189999999999,0.0731145,-0.0023385,-0.002019,-0.1396124999999999,-0.3682425,-0.023844,0.1101375,-0.4119825,0.0027719999999999,-0.1525125,-0.6715125,-0.040167,0.1173075,-0.7144625,-0.032012,0
6,0.0091615,0.7356765000000001,0.0791445,-0.1486135,0.4771265,0.0451774999999999,-0.2774835,0.6066765000000001,-0.1043355,0.1574265,0.4812865,0.0488124999999999,0.2948965,0.6019065,-0.0830755,-0.3318135,0.7208765,-0.2967455,0.3547265,0.6732065,-0.3042154999999999,-0.0729735,0.0027204999999999,0.0018904999999999,0.0729735,-0.0027205,-0.0018904999999999,-0.1394335,-0.3718135,-0.0241154999999999,0.1106765,-0.4083335,0.0010714999999999,-0.1513135,-0.6751435,-0.0376715,0.1175465,-0.7110635,-0.0308285,0
7,0.008772,0.734159,0.0783355,-0.151378,0.4792289999999999,0.0473685,-0.266838,0.593399,-0.0902185,0.1558919999999999,0.479209,0.0492065,0.286392,0.5874790000000001,-0.0657095,-0.318358,0.712439,-0.2603185,0.337202,0.7100690000000001,-0.2445285,-0.07268,0.002604,0.0012434999999999,0.07268,-0.002604,-0.0012434999999999,-0.1388479999999999,-0.374401,-0.0234705,0.111362,-0.412251,0.0022485,-0.150868,-0.677711,-0.0389525,0.118092,-0.714951,-0.0297695,0
8,0.009054,0.7319695,0.078179,-0.151,0.4815095,0.046924,-0.26586,0.6173395,-0.0868319999999999,0.15619,0.4805895,0.04966,0.28521,0.6110295,-0.0627699999999999,-0.31319,0.7565195,-0.251422,0.33426,0.7520995,-0.228292,-0.072544,0.0026604999999999,0.001098,0.072544,-0.0026604999999999,-0.0010979999999999,-0.13854,-0.3770405,-0.023446,0.11169,-0.4146605,0.002237,-0.15056,-0.6803505,-0.0386959999999999,0.1184,-0.7174005,-0.0294279999999999,0
9,0.0090259999999999,0.7300614999999999,0.078018,-0.150609,0.4838515,0.04657,-0.2635889999999999,0.6380015,-0.081838,0.156491,0.4821114999999999,0.050157,0.282761,0.6308515,-0.058001,-0.306029,0.7946715,-0.239228,0.329641,0.7885915,-0.213918,-0.072419,0.0026685,0.001093,0.072419,-0.0026685,-0.001093,-0.138239,-0.3798284999999999,-0.023412,0.112011,-0.4172185,0.002345,-0.150249,-0.6831485,-0.038397,0.118681,-0.7200285000000001,-0.028738,0
10,0.0087594999999999,0.7286075000000001,0.077281,-0.1502355,0.4863574999999999,0.046288,-0.2595254999999999,0.6537774999999999,-0.0732,0.1569144999999999,0.4828975,0.050697,0.2781045,0.6467175000000001,-0.051342,-0.2973455,0.8240075,-0.22138,0.3232845,0.8170275,-0.19403,-0.0723085,0.0027574999999999,0.001145,0.0723085,-0.0027575,-0.001145,-0.1377055,-0.3823225,-0.0233899999999999,0.1126544999999999,-0.4196325,0.002548,-0.1495555,-0.6856724999999999,-0.0380709999999999,0.1192145,-0.7224925,-0.028029,0
11,0.0085339999999999,0.727572,0.0763925,-0.14999,0.4888419999999999,0.0461095,-0.25522,0.6644420000000001,-0.0641414999999999,0.1573699999999999,0.483042,0.0509975,0.27337,0.656242,-0.0444445,-0.28968,0.8458220000000001,-0.1999445,0.31618,0.8426220000000001,-0.1694045,-0.072219,0.0028389999999999,0.0011444999999999,0.072219,-0.002839,-0.0011444999999999,-0.13714,-0.384468,-0.0233855,0.1133599999999999,-0.422038,0.0027534999999999,-0.14879,-0.687838,-0.0377185,0.11984,-0.7249279999999999,-0.0274805,0
12,0.0083225,0.7265564999999999,0.0753485,-0.1496625,0.4913065,0.0459995,-0.2510025,0.6744064999999999,-0.0550155,0.1574475,0.4831865,0.0512745,0.2680675,0.6658065,-0.0349885,-0.2829625,0.8640565,-0.1791615,0.3102575,0.8590565,-0.1483815,-0.0721305,0.0029344999999999,0.0010844999999999,0.0721305,-0.0029344999999999,-0.0010845,-0.1366225,-0.3864835,-0.0233295,0.1140675,-0.4245135,0.0029695,-0.1480325,-0.6898635000000001,-0.0373895,0.1204675,-0.7274035000000001,-0.0269785,0
13,0.0080364999999999,0.725805,0.07407,-0.1493285,0.4936349999999999,0.046034,-0.2474585,0.682805,-0.045933,0.1571315,0.483205,0.051537,0.2628015,0.673465,-0.025311,-0.2774185,0.8804649999999999,-0.158941,0.3037915,0.873835,-0.126421,-0.0720475,0.003007,0.0009839999999999,0.0720475,-0.003007,-0.000984,-0.1361285,-0.388235,-0.0232,0.1147914999999999,-0.426705,0.0033069999999999,-0.1472885,-0.691635,-0.036992,0.1210815,-0.729615,-0.026434,0
14,0.0077294999999999,0.7250955,0.072727,-0.1490295,0.4959555,0.046166,-0.2447795,0.6901455,-0.037982,0.1565605,0.4831755,0.051656,0.2580805,0.6789655,-0.016364,-0.2740194999999999,0.8936955,-0.140708,0.2980105,0.8860855,-0.107298,-0.0719715,0.0031055,0.0008589999999999,0.0719715,-0.0031054999999999,-0.0008589999999999,-0.1355495,-0.3899545,-0.022973,0.1154905,-0.4288245,0.0038599999999999,-0.1465595,-0.6933845000000001,-0.036522,0.1217105,-0.7317545,-0.025839,0
15,0.007327,0.72458,0.071255,-0.148813,0.49814,0.046207,-0.2426829999999999,0.69647,-0.030268,0.155877,0.48321,0.051869,0.253647,0.68379,-0.008021,-0.271163,0.90545,-0.1232979999999999,0.292737,0.8951,-0.089708,-0.0719249999999999,0.003182,0.0008079999999999,0.0719249999999999,-0.0031819999999999,-0.0008079999999999,-0.134983,-0.39141,-0.022637,0.1161669999999999,-0.43075,0.0045629999999999,-0.1458829999999999,-0.69485,-0.035701,0.122347,-0.73369,-0.025152,0
16,0.0068795,0.7243695,0.069648,-0.1486444999999999,0.4999495,0.046262,-0.2411545,0.7010194999999999,-0.024529,0.1550655,0.4835295,0.052018,0.2500255,0.6873994999999999,-0.001501,-0.2696745,0.9139295,-0.109608,0.2884655,0.9018295,-0.075508,-0.0718745,0.0032545,0.000786,0.0718745,-0.0032545,-0.000786,-0.1344645,-0.3924505,-0.022363,0.1167655,-0.4323504999999999,0.005201,-0.1452844999999999,-0.6959005,-0.0347539999999999,0.1229455,-0.7353005,-0.0245239999999999,0
17,0.006182,0.724408,0.0677035,-0.148332,0.501158,0.0463035,-0.240152,0.7037380000000001,-0.0209595,0.154218,0.483718,0.0521335,0.246938,0.689578,0.0021534999999999,-0.269862,0.918478,-0.1010105,0.285608,0.905818,-0.0662155,-0.071864,0.0032799999999999,0.0007574999999999,0.071864,-0.0032799999999999,-0.0007575,-0.133932,-0.393582,-0.0221455,0.117538,-0.433402,0.0058214999999999,-0.144252,-0.6970719999999999,-0.0338715,0.123798,-0.7363719999999999,-0.0238015,0
18,0.005693,0.7242875,0.066383,-0.148026,0.5023575,0.046228,-0.239496,0.7058274999999999,-0.018152,0.153514,0.4835175,0.05212,0.244304,0.6909775,0.0051169999999999,-0.2699459999999999,0.9217675,-0.094385,0.283054,0.9084075,-0.059334,-0.07186,0.0033515,0.0007309999999999,0.07186,-0.0033515,-0.0007309999999999,-0.133456,-0.3943825,-0.022065,0.118084,-0.4341425,0.0061579999999999,-0.1433859999999999,-0.6978925,-0.0331719999999999,0.124444,-0.7371225,-0.023512,0
19,0.005081,0.7239835,0.065282,-0.147917,0.5031535,0.046128,-0.239377,0.7067135,-0.017136,0.152673,0.4839035,0.051994,0.242623,0.6918235,0.0056979999999999,-0.269907,0.9228835,-0.092094,0.281363,0.9096735,-0.057572,-0.0718449999999999,0.0033465,0.000732,0.0718449999999999,-0.0033464999999999,-0.000732,-0.133127,-0.3952865,-0.022019,0.118483,-0.4346865,0.0062919999999999,-0.142707,-0.6988165000000001,-0.032608,0.124963,-0.7376565,-0.023356,0
20,0.0043839999999999,0.723687,0.064209,-0.147892,0.503827,0.046096,-0.239272,0.707337,-0.016585,0.151678,0.484487,0.051774,0.241108,0.692717,0.0058709999999999,-0.269962,0.923607,-0.090666,0.279868,0.910807,-0.056838,-0.071825,0.0032999999999999,0.000733,0.071825,-0.0032999999999999,-0.0007329999999999,-0.132862,-0.396623,-0.021938,0.1188279999999999,-0.435133,0.006315,-0.142132,-0.700153,-0.032311,0.125408,-0.738113,-0.023243,0
21,0.003601,0.7236064999999999,0.063181,-0.147818,0.5042065,0.046209,-0.239188,0.7076764999999999,-0.016106,0.150772,0.4850365,0.0516019999999999,0.240102,0.6933064999999999,0.005804,-0.270568,0.9239565,-0.089766,0.278572,0.9116565,-0.056779,-0.0718439999999999,0.0032314999999999,0.0007349999999999,0.0718439999999999,-0.0032314999999999,-0.0007349999999999,-0.132708,-0.3977535,-0.0219359999999999,0.119172,-0.4353035,0.0063289999999999,-0.141638,-0.7012835000000001,-0.031629,0.125812,-0.7382835000000001,-0.023168,1
22,0.002744,0.723527,0.0621135,-0.1477369999999999,0.504637,0.0461565,-0.2393769999999999,0.7079169999999999,-0.0159524999999999,0.149913,0.4854869999999999,0.0512975,0.239193,0.6936770000000001,0.0055995,-0.271897,0.923987,-0.0899985,0.277593,0.911987,-0.0569874999999999,-0.071865,0.0031559999999999,0.0007275,0.071865,-0.003156,-0.0007274999999999,-0.132527,-0.398833,-0.0220435,0.1195229999999999,-0.435513,0.0062005,-0.1412169999999999,-0.7023630000000001,-0.0316194999999999,0.126243,-0.7385029999999999,-0.0233424999999999,1
23,0.001767,0.7233395,0.0608775,-0.147785,0.5052695,0.0458915,-0.2397449999999999,0.7083695,-0.0160055,0.149115,0.4860495,0.0509445,0.238465,0.6939195,0.0052045,-0.272985,0.9241295,-0.0904105,0.276895,0.9119195,-0.0573794999999999,-0.071886,0.0031015,0.0007804999999999,0.071886,-0.0031015,-0.0007804999999999,-0.132435,-0.3993804999999999,-0.0223815,0.119705,-0.4358305,0.0058605,-0.1410749999999999,-0.7029105,-0.0319615,0.126385,-0.7388405,-0.0237445,1
24,0.0008405,0.72314,0.059612,-0.1479045,0.5056999999999999,0.045406,-0.2400445,0.7086399999999999,-0.016256,0.1483755,0.4866,0.050355,0.2378955,0.6941499999999999,0.0044119999999999,-0.2739144999999999,0.92413,-0.091016,0.2763955,0.91183,-0.057956,-0.0719005,0.003042,0.0008099999999999,0.0719005,-0.003042,-0.00081,-0.1323045,-0.39991,-0.022891,0.1199155,-0.4361199999999999,0.005274,-0.1409045,-0.7034400000000001,-0.032497,0.1265555,-0.7391300000000001,-0.024281,1
25,-7.750000000000118e-05,0.7229500000000001,0.0579875,-0.1480225,0.5061300000000001,0.0446115,-0.2404224999999999,0.7089000000000001,-0.0170645,0.1476974999999999,0.4872199999999999,0.0494175,0.2373974999999999,0.6944400000000001,0.0025395,-0.2742624999999999,0.92397,-0.0923925,0.2761475,0.91179,-0.0606245,-0.0719135,0.0029799999999999,0.0008094999999999,0.0719135,-0.00298,-0.0008095,-0.1320724999999999,-0.40059,-0.0238095,0.1202175,-0.43644,0.0041495,-0.1406525,-0.7041299999999999,-0.0334145,0.1268075,-0.73947,-0.0252225,1
26,-0.0005694999999999,0.7229500000000001,0.056239,-0.1479025,0.50629,0.04357,-0.2404025,0.7089500000000001,-0.0185189999999999,0.1472775,0.4876999999999999,0.048038,0.2376174999999999,0.6945,0.000549,-0.2738225,0.92397,-0.094148,0.2765074999999999,0.91179,-0.063842,-0.0719355,0.0029799999999999,0.000788,0.0719355,-0.00298,-0.000788,-0.1317125,-0.40137,-0.02517,0.1206575,-0.43644,0.002336,-0.1402224999999999,-0.7049099999999999,-0.034997,0.1271375,-0.73947,-0.026813,1
27,-0.0010665,0.7229500000000001,0.0542145,-0.1477115,0.5063000000000001,0.0422625,-0.2401315,0.7089500000000001,-0.0204245,0.1470185,0.48808,0.0465075,0.2378685,0.69455,-0.0017534999999999,-0.2733615,0.92397,-0.0962145,0.2769585,0.91179,-0.0673275,-0.0719845,0.0029799999999999,0.0007414999999999,0.0719845,-0.00298,-0.0007414999999999,-0.1313115,-0.40278,-0.0268094999999999,0.1211285,-0.43644,0.0001465,-0.1398415,-0.70633,-0.0376504999999999,0.1275185,-0.73947,-0.0288245,1
28,-0.0014409999999999,0.7229500000000001,0.051624,-0.147496,0.5063000000000001,0.040422,-0.239776,0.7089500000000001,-0.022907,0.146734,0.4882599999999999,0.044504,0.238184,0.69455,-0.004546,-0.272846,0.92397,-0.099353,0.277484,0.91179,-0.07145,-0.0720379999999999,0.0029799999999999,0.0006519999999999,0.0720379999999999,-0.00298,-0.0006519999999999,-0.130856,-0.40423,-0.029054,0.1216339999999999,-0.43644,-0.002778,-0.139446,-0.70777,-0.0407149999999999,0.127924,-0.73947,-0.031502,1
29,-0.0018049999999999,0.722741,0.048843,-0.147304,0.506561,0.038498,-0.239414,0.709211,-0.025352,0.146506,0.488631,0.042436,0.238466,0.694731,-0.0074579999999999,-0.272194,0.923951,-0.102874,0.277856,0.911641,-0.075804,-0.072103,0.0029379999999999,0.000576,0.072103,-0.002938,-0.000576,-0.130614,-0.405719,-0.031622,0.121906,-0.436749,-0.006099,-0.1395239999999999,-0.709229,-0.0446829999999999,0.127936,-0.739789,-0.034606,1
30,-0.0021374999999999,0.7225975,0.045923,-0.1471515,0.5069075,0.036398,-0.2390415,0.7095175,-0.027971,0.1462485,0.4889875,0.040229,0.2388084999999999,0.6949275,-0.01055,-0.2713715,0.9239375,-0.106743,0.2783485,0.9114875,-0.080353,-0.0721855,0.0028725,0.0005369999999999,0.0721855,-0.0028725,-0.0005369999999999,-0.1303714999999999,-0.4074825,-0.034515,0.1221885,-0.4370325,-0.009711,-0.1396414999999999,-0.7109625,-0.048746,0.1279885,-0.7401025,-0.037912,1
31,-0.0023304999999999,0.7225374999999999,0.0428865,-0.1470205,0.5073875,0.0341285,-0.2386905,0.7099175,-0.0308505,0.1461095,0.4894775,0.0378615,0.2391695,0.6950474999999999,-0.0137695,-0.2703905,0.9240175,-0.1110255,0.2787895,0.9111675,-0.0847555,-0.0722795,0.0028134999999999,0.0005044999999999,0.0722795,-0.0028135,-0.0005044999999999,-0.1301305,-0.4090924999999999,-0.0376515,0.1224695,-0.4373025,-0.0134344999999999,-0.1396805,-0.7125525,-0.0529505,0.1280195,-0.7403825,-0.0414025,1
32,-0.00241,0.7224170000000001,0.039698,-0.146877,0.5078670000000001,0.031686,-0.238357,0.710267,-0.034185,0.146023,0.4898769999999999,0.035342,0.2395229999999999,0.6950970000000001,-0.01739,-0.269237,0.924007,-0.115923,0.279223,0.910687,-0.0897729999999999,-0.072386,0.0027459999999999,0.0004569999999999,0.072386,-0.0027459999999999,-0.000457,-0.129887,-0.410133,-0.041002,0.122783,-0.437583,-0.017246,-0.139677,-0.713563,-0.057397,0.128033,-0.740663,-0.045132,1
33,-0.0024275,0.722291,0.0361645,-0.1467275,0.508411,0.0290435,-0.2379975,0.710621,-0.0380905,0.1459725,0.490421,0.0326245,0.2399125,0.695141,-0.0213935,-0.2681375,0.923911,-0.1215454999999999,0.2796825,0.910161,-0.0953654999999999,-0.0724915,0.0026769999999999,0.0004084999999999,0.0724915,-0.002677,-0.0004085,-0.1296275,-0.410889,-0.0447184999999999,0.1231425,-0.437739,-0.0212685,-0.1396275,-0.714319,-0.0619335,0.1280724999999999,-0.740839,-0.0492365,1
34,-0.0021319999999999,0.721999,0.0331585,-0.146462,0.508999,0.0264975,-0.237542,0.710999,-0.0420405,0.146028,0.490969,0.0300954999999999,0.240428,0.695149,-0.0253315,-0.266802,0.923859,-0.1269914999999999,0.280458,0.909609,-0.1005315,-0.07257,0.002609,0.0004604999999999,0.07257,-0.002609,-0.0004604999999999,-0.129492,-0.411631,-0.0483395,0.123418,-0.437901,-0.0250934999999999,-0.1397219999999999,-0.715031,-0.0663455,0.128008,-0.741001,-0.0530915,1
35,-0.0019265,0.7217235,0.030379,-0.1462695,0.5092435,0.024012,-0.2371195,0.7110235,-0.045741,0.1462105,0.4912235,0.0276569999999999,0.2408705,0.6950935,-0.029093,-0.2658195,0.9234435,-0.132424,0.2810705,0.9092235,-0.105504,-0.0726025,0.0025625,0.000497,0.0726025,-0.0025624999999999,-0.000497,-0.1293595,-0.4122365,-0.0517969999999999,0.1236805,-0.4378865,-0.028542,-0.1396495,-0.7156264999999999,-0.070275,0.1281505,-0.7409865,-0.056475,1
36,-0.001714,0.721309,0.0274495,-0.146087,0.5094289999999999,0.0215405,-0.236657,0.710969,-0.0495065,0.1464029999999999,0.491439,0.0251585,0.2414629999999999,0.694889,-0.0327715,-0.264817,0.922719,-0.1380735,0.281713,0.908689,-0.1105635,-0.072638,0.002512,0.0004885,0.072638,-0.002512,-0.0004885,-0.129227,-0.412361,-0.0553545,0.123943,-0.437881,-0.0320685,-0.139577,-0.715731,-0.0738835,0.128273,-0.7409910000000001,-0.0597845,1
37,-0.001418,0.7206969999999999,0.0246305,-0.145859,0.509527,0.0192205,-0.235939,0.7108669999999999,-0.0531945,0.146631,0.491377,0.0226295,0.242361,0.694247,-0.0364105,-0.263749,0.922197,-0.1431275,0.282751,0.907627,-0.1154175,-0.072726,0.0024749999999999,0.0005565,0.072726,-0.002475,-0.0005564999999999,-0.129129,-0.411493,-0.0589265,0.124151,-0.4367729999999999,-0.0356155,-0.139559,-0.714863,-0.0774495,0.128241,-0.739913,-0.0631995,1
38,-0.0012369999999999,0.720063,0.021585,-0.14575,0.509043,0.0167399999999999,-0.23507,0.710343,-0.0570909999999999,0.14704,0.4907829999999999,0.019943,0.24306,0.693213,-0.040164,-0.26263,0.921263,-0.148451,0.28376,0.906073,-0.120601,-0.072887,0.002454,0.000602,0.072887,-0.0024539999999999,-0.0006019999999999,-0.12898,-0.410337,-0.062846,0.12455,-0.435387,-0.0394679999999999,-0.13962,-0.713717,-0.080689,0.12824,-0.7385470000000001,-0.066759,1
39,-0.0009814999999999,0.718968,0.0180845,-0.1456205,0.508468,0.0137375,-0.2341405,0.7096480000000001,-0.0616305,0.1478295,0.489998,0.0167805,0.2439494999999999,0.692028,-0.0446545,-0.2614405,0.920188,-0.1541855,0.2851995,0.903628,-0.1271855,-0.0730275,0.002493,0.0005574999999999,0.0730275,-0.002493,-0.0005574999999999,-0.1288305,-0.408582,-0.0673665,0.1252095,-0.4336419999999999,-0.0441375,-0.1396205,-0.711942,-0.0844864999999999,0.1282595,-0.736842,-0.0709014999999999,1
40,-0.0006615,0.7178865,0.0145554999999999,-0.1454615,0.5077165,0.0106354999999999,-0.2332115,0.7087765,-0.0663894999999999,0.1485385,0.4890164999999999,0.0135454999999999,0.2449985,0.6906965,-0.0493445,-0.2602915,0.9189465,-0.1600385,0.2865485,0.9008665,-0.1338585,-0.0731695,0.0025275,0.0005114999999999,0.0731695,-0.0025275,-0.0005114999999999,-0.1287114999999999,-0.4066635,-0.0719765,0.1259485,-0.4313935,-0.0490015,-0.1396215,-0.7100235,-0.0883345,0.1282685,-0.7345935,-0.0750715,1
41,-0.0002875,0.7165815,0.010831,-0.1453075,0.5070414999999999,0.007285,-0.2322675,0.7079715,-0.071309,0.1491825,0.4880415,0.010126,0.2461025,0.6893914999999999,-0.054255,-0.2590875,0.9177915,-0.166013,0.2877825,0.8981115,-0.140193,-0.0732495,0.0025484999999999,0.0004399999999999,0.0732495,-0.0025485,-0.0004399999999999,-0.1286075,-0.4044284999999999,-0.0767509999999999,0.1267725,-0.4288585,-0.054145,-0.1395675,-0.7077885,-0.092219,0.1282825,-0.7320585000000001,-0.0793329999999999,1
42,0.0001295,0.715121,0.007072,-0.1451295,0.5063709999999999,0.00393,-0.2312894999999999,0.707241,-0.07612,0.1496405,0.487071,0.00671,0.2471605,0.688091,-0.059072,-0.2579094999999999,0.916711,-0.171802,0.2889605,0.895311,-0.146292,-0.0733045,0.002589,0.000272,0.0733045,-0.002589,-0.0002719999999999,-0.1285195,-0.402269,-0.0813909999999999,0.1276505,-0.426189,-0.059452,-0.1395095,-0.705639,-0.0960929999999999,0.1283205,-0.7293890000000001,-0.083449,1
43,0.0005809999999999,0.7136975000000001,0.0030175,-0.144925,0.5058875,0.0002595,-0.230325,0.7065775000000001,-0.0814125,0.1499849999999999,0.4862375,0.0030365,0.248105,0.6868375000000001,-0.0642855,-0.256765,0.9156675,-0.1781495,0.289975,0.8924275,-0.1528495,-0.0733689999999999,0.0026014999999999,-2.849999999999728e-05,0.0733689999999999,-0.0026014999999999,2.8500000000000747e-05,-0.128445,-0.4000025,-0.0864055,0.128595,-0.4229125,-0.0653145,-0.139455,-0.7033725,-0.1001825,0.128305,-0.7261525,-0.0878654999999999,1
44,0.001097,0.7122885,-0.0013405,-0.144705,0.5052785000000001,-0.0036134999999999,-0.229285,0.7057685,-0.0871715,0.150265,0.4855785,-0.0008885,0.249055,0.6855785,-0.0700695,-0.2555349999999999,0.9144685,-0.1848705,0.290865,0.8893585,-0.1596805,-0.073441,0.0025364999999999,-0.0003454999999999,0.073441,-0.0025365,0.0003454999999999,-0.128365,-0.3975515,-0.0916425,0.129445,-0.4198615,-0.0715085,-0.139475,-0.7009115,-0.1044445,0.128275,-0.7231415,-0.0925205,1
45,0.0014389999999999,0.7107825,-0.0059234999999999,-0.144454,0.5047325,-0.0075634999999999,-0.2282539999999999,0.7049125,-0.0933324999999999,0.150656,0.4846425,-0.0049684999999999,0.249946,0.6840525,-0.0760754999999999,-0.254224,0.9134125,-0.1919405,0.291496,0.8862925,-0.1669905,-0.073522,0.0024075,-0.0005964999999999,0.073522,-0.0024075,0.0005965,-0.1283439999999999,-0.3945675,-0.0972695,0.130316,-0.4163175,-0.0780275,-0.1395539999999999,-0.6979275,-0.1087875,0.128176,-0.7196275,-0.0974325,1
46,0.0015619999999999,0.70907,-0.0105205,-0.144357,0.5036700000000001,-0.0115405,-0.227817,0.7034900000000001,-0.0996325,0.151053,0.48401,-0.0090715,0.250483,0.68286,-0.0822765,-0.253147,0.91163,-0.1993925,0.2917929999999999,0.88321,-0.1744825,-0.073595,0.002193,-0.0007965,0.073595,-0.002193,0.0007964999999999,-0.128377,-0.39257,-0.1030205,0.131123,-0.41356,-0.0844875,-0.139547,-0.6959,-0.1133205,0.1282829999999999,-0.7169099999999999,-0.1021335,1
47,0.0019125,0.7075615,-0.0156625,-0.1440614999999999,0.5031715,-0.0156355,-0.2273815,0.7024015,-0.1062615,0.1515385,0.4840314999999999,-0.0133545,0.2513185,0.6819615,-0.0887795,-0.2520815,0.9101115,-0.2070505,0.2922985,0.8804315,-0.1822305,-0.0736225,0.0019195,-0.0010305,0.0736225,-0.0019194999999999,0.0010304999999999,-0.1282414999999999,-0.3902985,-0.1089905,0.1320085,-0.4105185,-0.0911545,-0.1393315,-0.6936085,-0.1178655,0.1285185,-0.7138785,-0.1069695,1
48,0.00225,0.7060535,-0.021106,-0.143813,0.5026835000000001,-0.019695,-0.2266429999999999,0.7010135,-0.113453,0.151807,0.4843035,-0.017626,0.251737,0.6810135,-0.095646,-0.250893,0.9080235,-0.216057,0.292757,0.8776635,-0.1896769999999999,-0.073676,0.0016115,-0.0012179999999999,0.073676,-0.0016114999999999,0.0012179999999999,-0.128193,-0.3881664999999999,-0.115423,0.132627,-0.4073565,-0.0978479999999999,-0.1392229999999999,-0.6914065,-0.122382,0.128707,-0.7107165,-0.111713,1
49,0.0023864999999999,0.7036565,-0.026546,-0.1436454999999999,0.5026265,-0.023839,-0.2257855,0.6998065,-0.120597,0.1520645,0.4849464999999999,-0.021937,0.2521645,0.6802465,-0.102676,-0.2500855,0.9059465,-0.225406,0.2928945,0.8748265,-0.1971959999999999,-0.0736655,0.0013104999999999,-0.001414,0.0736655,-0.0013105,0.0014139999999999,-0.1282355,-0.3866334999999999,-0.122799,0.1331445,-0.4029735,-0.104649,-0.1391455,-0.6897335,-0.127048,0.1289945,-0.7063335000000001,-0.11655,1
50,0.0024249999999999,0.7011649999999999,-0.0321785,-0.1434679999999999,0.503085,-0.0279295,-0.224968,0.6986549999999999,-0.1280494999999999,0.151882,0.485495,-0.0261055,0.252562,0.679155,-0.1094634999999999,-0.249018,0.904095,-0.2348005,0.292862,0.871525,-0.2051105,-0.07366,0.001133,-0.0016614999999999,0.07366,-0.0011329999999999,0.0016615,-0.128378,-0.385565,-0.1305365,0.133582,-0.398815,-0.1114275,-0.139098,-0.6884950000000001,-0.1317265,0.1290919999999999,-0.702165,-0.1212855,1
51,0.0023894999999999,0.699315,-0.0382119999999999,-0.1434835,0.501635,-0.03269,-0.2241835,0.696435,-0.13574,0.1505265,0.484685,-0.030973,0.2525365,0.677145,-0.116619,-0.2483235,0.901195,-0.244093,0.2924665,0.869065,-0.213593,-0.0736755,0.0008539999999999,-0.0017479999999999,0.0736755,-0.0008539999999999,0.0017479999999999,-0.1285135,-0.383685,-0.138725,0.1340465,-0.393965,-0.118459,-0.1391435,-0.6864049999999999,-0.136625,0.1292165,-0.6972849999999999,-0.1262579999999999,1
52,0.002383,0.6975185,-0.044373,-0.143476,0.5001185,-0.037546,-0.223586,0.6941685000000001,-0.143375,0.149384,0.4837185,-0.035842,0.252634,0.6751385,-0.123607,-0.247436,0.8974885,-0.254674,0.292074,0.8668285,-0.222324,-0.073696,0.0005935,-0.00183,0.073696,-0.0005934999999999,0.0018299999999999,-0.128596,-0.3818015,-0.147018,0.134634,-0.3883915,-0.125148,-0.139206,-0.6842515,-0.141432,0.129224,-0.6916515,-0.131116,1
53,0.0022825,0.6955865,-0.050517,-0.1434415,0.4985465,-0.042537,-0.2227215,0.6918464999999999,-0.1510429999999999,0.1482685,0.4826665,-0.040865,0.2525885,0.6730965,-0.130605,-0.2463614999999999,0.8940265,-0.264806,0.2917484999999999,0.8648264999999999,-0.231416,-0.0736945,0.0004395,-0.00187,0.0736945,-0.0004395,0.0018699999999999,-0.1286614999999999,-0.3794135,-0.1553729999999999,0.1352685,-0.3822534999999999,-0.13166,-0.1392314999999999,-0.6815735,-0.146163,0.1292185,-0.6854535,-0.135867,1
54,0.0021944999999999,0.6934895,-0.0565264999999999,-0.1432615,0.4970895,-0.0476254999999999,-0.2219215,0.6894795,-0.1589285,0.1474184999999999,0.4822795,-0.0457825,0.2525085,0.6714795,-0.1378355,-0.2451615,0.8902895000000001,-0.2754065,0.2915385,0.8625495,-0.2405965,-0.0736505,0.0003645,-0.0019144999999999,0.0736505,-0.0003645,0.0019144999999999,-0.1286115,-0.3763005,-0.1635565,0.1359884999999999,-0.3758605,-0.1380144999999999,-0.1392215,-0.6781505,-0.1509575,0.1292885,-0.6789805,-0.1405195,1
55,0.00241,0.691609,-0.0624365,-0.1424949999999999,0.496519,-0.0527134999999999,-0.220735,0.687689,-0.1667225,0.146755,0.482229,-0.0507524999999999,0.252475,0.6700590000000001,-0.1451735,-0.243825,0.887559,-0.2854325,0.291575,0.8608790000000001,-0.2500925,-0.073679,0.00037,-0.0019124999999999,0.073679,-0.0003699999999999,0.0019124999999999,-0.128305,-0.367781,-0.1716025,0.136835,-0.367221,-0.1444295,-0.139085,-0.669631,-0.1557075,0.129555,-0.670341,-0.1450834999999999,1
56,0.0029289999999999,0.6893975000000001,-0.0680979999999999,-0.1414959999999999,0.4947375,-0.058087,-0.219476,0.6852374999999999,-0.1744899999999999,0.146254,0.4800475,-0.056297,0.252534,0.6672175,-0.152337,-0.242426,0.8840574999999999,-0.29532,0.2916539999999999,0.8586674999999999,-0.2592,-0.073785,0.0003534999999999,-0.0019279999999999,0.073785,-0.0003534999999999,0.0019279999999999,-0.127826,-0.3582225,-0.17968,0.137994,-0.3575125,-0.151217,-0.138686,-0.6600725000000001,-0.160551,0.130024,-0.6606325,-0.149615,1
57,0.0041019999999999,0.6888074999999999,-0.0782015,-0.140039,0.4940175,-0.0682985,-0.217919,0.6837774999999999,-0.1861885,0.1462909999999999,0.4793375,-0.0666445,0.252831,0.6659575,-0.1638865,-0.240989,0.8820175,-0.3083685,0.292331,0.8586075,-0.2728785,-0.073884,0.0003374999999999,-0.0018795,0.073884,-0.0003374999999999,0.0018794999999999,-0.126939,-0.3470525,-0.1920085,0.139551,-0.3463225,-0.1626475,-0.137799,-0.6489025,-0.1704625,0.130921,-0.6494425,-0.1588225,1
58,0.0057014999999999,0.6873779999999999,-0.0882805,-0.1381285,0.490828,-0.0787035,-0.2160685,0.680648,-0.1974595,0.1465515,0.478448,-0.0769155,0.2534515,0.664598,-0.1753805,-0.2394885,0.878378,-0.3210395,0.2934015,0.859008,-0.2865595,-0.0740085,0.0002479999999999,-0.0018665,0.0740085,-0.000248,0.0018664999999999,-0.1256985,-0.333052,-0.2063095,0.1419115,-0.331722,-0.1767875,-0.1365385,-0.634312,-0.1814065,0.1320415,-0.634152,-0.1680415,1
59,0.006966,0.6869025,-0.0977575,-0.136265,0.4873625,-0.0887135,-0.214315,0.6774825,-0.2079555,0.146795,0.4777325,-0.0868835,0.254135,0.6633125,-0.1866905,-0.238125,0.8738724999999999,-0.3335855,0.294655,0.8597724999999999,-0.2996855,-0.0741209999999999,0.0001124999999999,-0.0018945,0.0741209999999999,-0.0001125,0.0018944999999999,-0.1244649999999999,-0.3187975,-0.2197855,0.144325,-0.3164875,-0.1904075,-0.134955,-0.6194475,-0.1914725,0.133415,-0.6178375,-0.1766695,1
60,0.0082739999999999,0.686167,-0.10685,-0.134434,0.4855969999999999,-0.098031,-0.212494,0.675077,-0.218055,0.147996,0.4765169999999999,-0.096228,0.255156,0.661737,-0.197539,-0.2365939999999999,0.869747,-0.346125,0.295796,0.8585470000000001,-0.312005,-0.074245,8.999999999999286e-05,-0.0019949999999999,0.074245,-9.000000000000674e-05,0.0019949999999999,-0.1232339999999999,-0.304203,-0.232725,0.146746,-0.3012129999999999,-0.203595,-0.133384,-0.603953,-0.2012169999999999,0.134746,-0.601413,-0.184885,1
61,0.009365,0.6850455,-0.115738,-0.1329749999999999,0.4837755,-0.1072409999999999,-0.210865,0.6727455,-0.22782,0.149145,0.4753455,-0.105489,0.256205,0.6600655,-0.2082149999999999,-0.234975,0.8669155,-0.35675,0.296885,0.8570654999999999,-0.32395,-0.074347,0.0001395,-0.00204,0.074347,-0.0001395,0.00204,-0.1221749999999999,-0.2877845,-0.24539,0.149105,-0.2853445,-0.21687,-0.1318349999999999,-0.5866345000000001,-0.21097,0.136105,-0.5843145000000001,-0.193153,1
62,0.0106355,0.6832550000000001,-0.126484,-0.1316715,0.4812649999999999,-0.118034,-0.2091714999999999,0.669525,-0.239625,0.1504585,0.4741849999999999,-0.116213,0.2572885,0.6580050000000001,-0.220895,-0.2333415,0.862965,-0.369845,0.2981085,0.854405,-0.338785,-0.0744545,7.499999999999174e-05,-0.002105,0.0744545,-7.500000000000562e-05,0.0021049999999999,-0.1212715,-0.268655,-0.259495,0.1517285,-0.267285,-0.232255,-0.1302414999999999,-0.566495,-0.221425,0.1376285,-0.564945,-0.202317,1
63,0.011848,0.6813849999999999,-0.137184,-0.130049,0.478515,-0.128593,-0.207749,0.6659649999999999,-0.251425,0.151551,0.472095,-0.127023,0.258341,0.6555150000000001,-0.233035,-0.2321389999999999,0.8590150000000001,-0.382605,0.299221,0.8518650000000001,-0.352965,-0.07461,-2.4999999999997247e-05,-0.002165,0.07461,2.4999999999997247e-05,0.002165,-0.1205689999999999,-0.2499449999999999,-0.273475,0.154331,-0.249025,-0.247595,-0.128629,-0.546805,-0.231815,0.139081,-0.5452950000000001,-0.211343,1
64,0.0131205,0.678895,-0.148251,-0.1282705,0.475525,-0.139827,-0.2063805,0.6624650000000001,-0.26415,0.1525795,0.468955,-0.138298,0.2594995,0.651715,-0.24595,-0.2306205,0.854225,-0.39721,0.3004095,0.8482050000000001,-0.36739,-0.0746205,-5.499999999999949e-05,-0.00241,0.0746205,5.499999999999949e-05,0.0024099999999999,-0.1199005,-0.229035,-0.2878,0.1568995,-0.2293449999999999,-0.26319,-0.1269105,-0.525015,-0.24228,0.1405595,-0.5243249999999999,-0.220517,1
65,0.0142825,0.673635,-0.1599189999999999,-0.1266805,0.477585,-0.1518,-0.2052405,0.660675,-0.277765,0.1532995,0.4660249999999999,-0.149415,0.2605195,0.647815,-0.259225,-0.2295305,0.851715,-0.413395,0.3015595,0.8430150000000001,-0.383075,-0.0746305,0.0010949999999999,-0.0025249999999999,0.0746305,-0.001095,0.0025249999999999,-0.1193305,-0.205755,-0.301975,0.1591695,-0.207815,-0.278835,-0.1253405,-0.5008650000000001,-0.252495,0.1417395,-0.501555,-0.2296699999999999,1
66,0.0152924999999999,0.668425,-0.166901,-0.1255615,0.4720149999999999,-0.159104,-0.2045615,0.654385,-0.287155,0.1536385,0.463395,-0.156113,0.2612184999999999,0.643995,-0.268045,-0.2279815,0.8431949999999999,-0.425955,0.3024585,0.8380049999999999,-0.394175,-0.0746515,0.0009249999999999,-0.002625,0.0746515,-0.000925,0.0026249999999999,-0.1190215,-0.181675,-0.311765,0.1610185,-0.185805,-0.289415,-0.1240915,-0.475975,-0.257885,0.1426085,-0.478265,-0.234301,1
67,0.0160279999999999,0.66485,-0.174331,-0.124445,0.4691499999999999,-0.166209,-0.203585,0.64999,-0.297255,0.153605,0.45986,-0.162926,0.261775,0.63945,-0.276575,-0.226475,0.8367899999999999,-0.439045,0.303065,0.83209,-0.4051949999999999,-0.074605,0.0009399999999999,-0.0027649999999999,0.074605,-0.0009399999999999,0.0027649999999999,-0.118875,-0.16145,-0.318505,0.162095,-0.1655799999999999,-0.296835,-0.123025,-0.45575,-0.262575,0.143425,-0.45804,-0.238906,1
68,0.016859,0.66077,-0.181836,-0.123489,0.46687,-0.17343,-0.202999,0.64603,-0.30779,0.153611,0.45602,-0.169818,0.262331,0.6349400000000001,-0.28503,-0.225099,0.83145,-0.45199,0.303831,0.82617,-0.41604,-0.074609,0.00106,-0.0028199999999999,0.074609,-0.00106,0.0028199999999999,-0.118729,-0.14045,-0.32524,0.163051,-0.14458,-0.30434,-0.122239,-0.4347499999999999,-0.26724,0.144071,-0.43704,-0.243391,1
69,0.0177475,0.6560349999999999,-0.189454,-0.1224815,0.464435,-0.180953,-0.2018415,0.642065,-0.3196,0.1535485,0.453755,-0.176931,0.2628585,0.630815,-0.29454,-0.2235315,0.826435,-0.46484,0.3047685,0.820775,-0.42788,-0.0746115,0.0011549999999999,-0.00288,0.0746115,-0.001155,0.0028799999999999,-0.1185715,-0.118335,-0.33203,0.1639985,-0.1224649999999999,-0.31172,-0.1214415,-0.412635,-0.27203,0.1450685,-0.414925,-0.247921,1
70,0.018695,0.6508499999999999,-0.1973,-0.12196,0.4615,-0.189053,-0.20061,0.63707,-0.331695,0.15358,0.4513399999999999,-0.184851,0.26368,0.6271100000000001,-0.304605,-0.22167,0.82006,-0.479105,0.30615,0.81481,-0.441395,-0.07435,0.0011499999999999,-0.003165,0.07435,-0.0011499999999999,0.003165,-0.1181199999999999,-0.0959599999999999,-0.3385249999999999,0.16509,-0.10069,-0.318725,-0.1204199999999999,-0.3897799999999999,-0.276505,0.14604,-0.39275,-0.251883,1
71,0.0197289999999999,0.6461300000000001,-0.2027729999999999,-0.121378,0.45967,-0.195076,-0.199128,0.63336,-0.34092,0.1536819999999999,0.44896,-0.1907049999999999,0.264912,0.62323,-0.31235,-0.219098,0.81454,-0.49127,0.307702,0.8094600000000001,-0.45156,-0.074288,0.00123,-0.0034799999999999,0.0742879999999999,-0.0012299999999999,0.00348,-0.1176479999999999,-0.0756999999999999,-0.34301,0.1660019999999999,-0.0804899999999999,-0.3230699999999999,-0.119278,-0.3690099999999999,-0.2798899999999999,0.147052,-0.3719899999999999,-0.2551259999999999,1
72,0.02066,0.641845,-0.207288,-0.120819,0.457585,-0.200221,-0.197739,0.629855,-0.34861,0.154091,0.446575,-0.195374,0.265961,0.6191450000000001,-0.31927,-0.216419,0.809115,-0.50197,0.3093309999999999,0.803705,-0.46087,-0.074179,0.001325,-0.0039099999999999,0.074179,-0.001325,0.0039099999999999,-0.117149,-0.0552849999999999,-0.34632,0.166791,-0.0600049999999999,-0.3263,-0.118239,-0.3484449999999999,-0.2824,0.148091,-0.351405,-0.257671,1
73,0.0215545,0.6378950000000001,-0.210856,-0.1200595,0.455075,-0.203847,-0.1967395,0.6257250000000001,-0.35492,0.1546205,0.444704,-0.199116,0.2669705,0.6159650000000001,-0.3249999999999999,-0.2139295,0.803435,-0.51061,0.3108205,0.798575,-0.4694399999999999,-0.0741395,0.001305,-0.0042699999999999,0.0741395,-0.001305,0.0042699999999999,-0.1168594999999999,-0.0354249999999999,-0.3484,0.1674505,-0.0397049999999999,-0.32828,-0.1176294999999999,-0.3285949999999999,-0.2842,0.1490205,-0.331075,-0.2594619999999999,1
74,0.0224575,0.63713,-0.2134019999999999,-0.1192455,0.448368,-0.20587,-0.1957755,0.62032,-0.359535,0.1550945,0.445316,-0.20177,0.2681945,0.61435,-0.330185,-0.2116155,0.7960400000000001,-0.5170349999999999,0.3121345,0.7956,-0.476625,-0.0740955,3.999999999998449e-05,-0.0046249999999999,0.0740955,-3.999999999998449e-05,0.004625,-0.1165755,-0.0185699999999999,-0.349545,0.1679245,-0.0220299999999999,-0.328775,-0.1173855,-0.3118599999999999,-0.285885,0.1493845,-0.31339,-0.260398,1
75,0.0233769999999999,0.63489,-0.215641,-0.118394,0.448924,-0.20793,-0.194744,0.61933,-0.36389,0.1555659999999999,0.443811,-0.204053,0.269326,0.61138,-0.33457,-0.209264,0.79312,-0.52379,0.313476,0.79077,-0.48319,-0.074044,0.00029,-0.00462,0.074044,-0.00029,0.0046199999999999,-0.116474,-0.0019299999999999,-0.35018,0.168466,-0.0051399999999999,-0.32895,-0.117294,-0.2953599999999999,-0.2872,0.149616,-0.29666,-0.261189,1
76,0.0240515,0.63264,-0.21746,-0.1175704999999999,0.449123,-0.21,-0.1938105,0.61808,-0.3678099999999999,0.1559095,0.443259,-0.206194,0.2702895,0.6093500000000001,-0.33894,-0.2071305,0.79023,-0.5291699999999999,0.3145295,0.78704,-0.48961,-0.0741005,0.0004899999999999,-0.0047,0.0741005,-0.0004899999999999,0.0047,-0.1165004999999999,0.01466,-0.35046,0.1686695,0.0120199999999999,-0.32901,-0.1174604999999999,-0.2789,-0.28827,0.1495795,-0.27956,-0.261675,1
77,0.023775,0.630405,-0.219201,-0.117589,0.448885,-0.211997,-0.193759,0.616685,-0.3693,0.155281,0.442868,-0.208246,0.270541,0.607125,-0.34294,-0.205699,0.787405,-0.5344800000000001,0.314751,0.7835350000000001,-0.49574,-0.074469,0.0005749999999999,-0.00482,0.074469,-0.0005749999999999,0.0048199999999999,-0.117169,0.031755,-0.35048,0.1681109999999999,0.030535,-0.32894,-0.118299,-0.262055,-0.28922,0.148391,-0.259875,-0.261556,1
78,0.023661,0.62863,-0.220382,-0.1174819999999999,0.4487299999999999,-0.213279,-0.192992,0.61544,-0.3723849999999999,0.1548479999999999,0.4427569999999999,-0.2096819999999999,0.270388,0.6059599999999999,-0.345425,-0.2041819999999999,0.78491,-0.539145,0.3149679999999999,0.7809299999999999,-0.500375,-0.074442,0.0006899999999999,-0.005275,0.074442,-0.00069,0.005275,-0.117332,0.0479699999999999,-0.350045,0.167638,0.0478699999999999,-0.3284249999999999,-0.118692,-0.24604,-0.288835,0.147438,-0.24291,-0.261167,1
79,0.023374,0.627255,-0.221294,-0.117366,0.447275,-0.214081,-0.192466,0.613705,-0.373975,0.154414,0.443851,-0.210108,0.270344,0.6050249999999999,-0.347375,-0.203386,0.781965,-0.542335,0.315144,0.779485,-0.503025,-0.074396,0.0005649999999999,-0.005695,0.0743959999999999,-0.0005649999999999,0.005695,-0.117476,0.060085,-0.3494549999999999,0.167284,0.061255,-0.327565,-0.119056,-0.234095,-0.288305,0.146304,-0.2294049999999999,-0.260436,1
80,0.0229905,0.62608,-0.222238,-0.1171955,0.444974,-0.215013,-0.1918955,0.61159,-0.37557,0.1539945,0.444338,-0.210788,0.2703345,0.6043,-0.34903,-0.2026755,0.77935,-0.5448999999999999,0.3152645,0.77827,-0.50537,-0.0743455,0.0003799999999999,-0.00612,0.0743455,-0.00038,0.0061199999999999,-0.1175255,0.0707599999999999,-0.34901,0.1672045,0.07177,-0.32672,-0.1192054999999999,-0.22352,-0.28802,0.1447245,-0.2189499999999999,-0.259681,1
81,0.0223954999999999,0.62415,-0.223162,-0.1169545,0.443888,-0.215813,-0.1913544999999999,0.61015,-0.3768749999999999,0.1535955,0.4445489999999999,-0.211581,0.2699555,0.60398,-0.350675,-0.2020745,0.7768999999999999,-0.547185,0.3148955,0.7775,-0.507585,-0.0742845,0.00045,-0.006535,0.0742845,-0.00045,0.006535,-0.1176445,0.08181,-0.347955,0.1670755,0.08282,-0.3251549999999999,-0.1193945,-0.21247,-0.287745,0.1432855,-0.20871,-0.259571,1
82,0.0218649999999999,0.6224449999999999,-0.223683,-0.116993,0.4432709999999999,-0.216438,-0.190943,0.6090249999999999,-0.37778,0.153127,0.4448239999999999,-0.2118249999999999,0.269867,0.603985,-0.3514,-0.201573,0.7750549999999999,-0.54889,0.314567,0.7772349999999999,-0.50879,-0.074223,0.0005549999999999,-0.00672,0.074223,-0.000555,0.00672,-0.1178429999999999,0.0908549999999999,-0.34679,0.166847,0.0918649999999999,-0.3235099999999999,-0.119623,-0.203425,-0.28733,0.141857,-0.200415,-0.259359,1
83,0.0205319999999999,0.62005,-0.2240359999999999,-0.1173,0.4427999999999999,-0.2171529999999999,-0.19115,0.60819,-0.378865,0.1522899999999999,0.443988,-0.2121829999999999,0.26891,0.603371,-0.351825,-0.20177,0.7736000000000001,-0.550805,0.31339,0.77641,-0.509575,-0.0742,0.00092,-0.006855,0.0741999999999999,-0.00092,0.006855,-0.11844,0.0993399999999999,-0.345875,0.1663,0.10214,-0.321875,-0.12063,-0.19493,-0.2871249999999999,0.14037,-0.19054,-0.259623,1
84,0.0189459999999999,0.61764,-0.224133,-0.117937,0.440518,-0.217745,-0.191567,0.606065,-0.379085,0.151363,0.443163,-0.212456,0.2677029999999999,0.602527,-0.352295,-0.2024369999999999,0.77206,-0.551065,0.311743,0.7759400000000001,-0.510015,-0.074157,0.0010299999999999,-0.006855,0.074157,-0.0010299999999999,0.006855,-0.118947,0.10632,-0.345075,0.1656829999999999,0.1099999999999999,-0.320475,-0.121457,-0.1880199999999999,-0.287035,0.139533,-0.18301,-0.259146,1
85,0.0174125,0.6146780000000001,-0.224275,-0.1184224999999999,0.438197,-0.218248,-0.1921225,0.603929,-0.3794349999999999,0.1503175,0.442098,-0.212732,0.2665875,0.60117,-0.3528449999999999,-0.2031925,0.770105,-0.551525,0.3099375,0.7749550000000001,-0.510555,-0.0741225,0.001095,-0.006855,0.0741225,-0.0010949999999999,0.006855,-0.1192525,0.113095,-0.344365,0.1652275,0.117275,-0.3189849999999999,-0.1220825,-0.181335,-0.286745,0.1387675,-0.1762049999999999,-0.258827,1
86,0.0158139999999999,0.611647,-0.224372,-0.119072,0.435413,-0.218723,-0.192832,0.601283,-0.37948,0.149058,0.440822,-0.2128519999999999,0.264968,0.600102,-0.3531999999999999,-0.204192,0.76734,-0.55159,0.307768,0.77392,-0.51084,-0.074042,0.00112,-0.0068499999999999,0.074042,-0.00112,0.0068499999999999,-0.119612,0.11433,-0.3435,0.164758,0.12353,-0.31743,-0.122732,-0.1801699999999999,-0.28632,0.137838,-0.1700999999999999,-0.257665,1
87,0.0143195,0.606507,-0.223909,-0.1196765,0.431115,-0.218552,-0.1937165,0.59752,-0.37902,0.1480935,0.438591,-0.212286,0.2632435,0.598368,-0.35275,-0.2049464999999999,0.7637550000000001,-0.55077,0.3051135,0.772335,-0.51025,-0.0736665,0.001125,-0.0068999999999999,0.0736665,-0.0011249999999999,0.0068999999999999,-0.1204265,0.115465,-0.34237,0.1652535,0.126405,-0.31556,-0.1230565,-0.1790749999999999,-0.28575,0.1373435,-0.167145,-0.25707,1
88,0.0131764999999999,0.601705,-0.223392,-0.1204205,0.428585,-0.218074,-0.1944605,0.595055,-0.378495,0.1471095,0.435335,-0.211695,0.2614095,0.596076,-0.352295,-0.2056905,0.761225,-0.550235,0.3023595,0.7703150000000001,-0.509645,-0.0732705,0.0013849999999999,-0.006855,0.0732705,-0.0013849999999999,0.006855,-0.1212205,0.115395,-0.341725,0.1657595,0.128465,-0.3142749999999999,-0.1233605,-0.1791549999999999,-0.285115,0.1367895,-0.1649849999999999,-0.256454,1
89,0.012157,0.5970219999999999,-0.223099,-0.121003,0.4259349999999999,-0.217844,-0.195053,0.59246,-0.37815,0.146177,0.4322049999999999,-0.21138,0.259407,0.5939949999999999,-0.35212,-0.206283,0.758385,-0.54991,0.299757,0.768475,-0.50953,-0.072983,0.0016549999999999,-0.00681,0.072983,-0.001655,0.00681,-0.121863,0.1156749999999999,-0.3414,0.166437,0.1311649999999999,-0.31343,-0.123583,-0.1789550000000001,-0.28476,0.136477,-0.162765,-0.256348,1
90,0.0109725,0.59885,-0.2185079999999999,-0.1217384999999999,0.42891,-0.2133549999999999,-0.1958384999999999,0.595162,-0.3736649999999999,0.1449615,0.43578,-0.2067639999999999,0.2576615,0.597673,-0.347735,-0.2072184999999999,0.7613099999999999,-0.545755,0.2975815,0.77243,-0.505215,-0.0726985,0.0010799999999999,-0.0065649999999999,0.0726985,-0.0010799999999999,0.006565,-0.1235685,0.12207,-0.336875,0.1678815,0.1397999999999999,-0.3087249999999999,-0.1195685,-0.1727999999999999,-0.292095,0.1367915,-0.15453,-0.252471,1
91,0.0098845,0.600862,-0.213381,-0.1224885,0.43176,-0.208439,-0.1971185,0.598082,-0.369185,0.1438115,0.4394,-0.201851,0.2561015,0.601256,-0.3429149999999999,-0.2085485,0.76427,-0.541615,0.2954515,0.77623,-0.500345,-0.0724185,0.0005199999999999,-0.006205,0.0724185,-0.0005199999999999,0.0062049999999999,-0.1254285,0.12823,-0.3320849999999999,0.1693715,0.1482299999999999,-0.303735,-0.1155984999999999,-0.16678,-0.299385,0.1382715,-0.1465199999999999,-0.248728,1
92,0.0090155,0.603146,-0.208677,-0.1232355,0.4347999999999999,-0.2039129999999999,-0.1984255,0.600872,-0.3648,0.1427645,0.4435999999999999,-0.197205,0.2547045,0.605444,-0.33845,-0.2097955,0.76705,-0.5375300000000001,0.2936145,0.78055,-0.49588,-0.0720555,-0.00017,-0.0058399999999999,0.0720555,0.00017,0.00584,-0.1274655,0.1324299999999999,-0.32779,0.1709844999999999,0.1545699999999999,-0.29912,-0.1115255,-0.16268,-0.3071,0.1394845,-0.14044,-0.246434,1
93,0.008118,0.605551,-0.203699,-0.123923,0.4390199999999999,-0.1991069999999999,-0.199833,0.604341,-0.36014,0.141837,0.4480099999999999,-0.19214,0.253467,0.609617,-0.33386,-0.211723,0.77025,-0.53296,0.291937,0.7848499999999999,-0.49146,-0.071777,-0.00082,-0.0055,0.071777,0.0008199999999999,0.0055,-0.129853,0.1354599999999999,-0.32406,0.172587,0.1599699999999999,-0.29473,-0.107503,-0.15977,-0.31543,0.140987,-0.13524,-0.2435169999999999,1
94,0.0072919999999999,0.6082270000000001,-0.198756,-0.1245489999999999,0.4428,-0.194287,-0.201039,0.607554,-0.35522,0.140931,0.4522900000000001,-0.187101,0.252231,0.613939,-0.32931,-0.213629,0.77336,-0.52804,0.290471,0.7891900000000001,-0.4868599999999999,-0.071546,-0.0014399999999999,-0.00519,0.071546,0.0014399999999999,0.00519,-0.131559,0.1384,-0.32037,0.174151,0.16477,-0.2904299999999999,-0.103379,-0.1569699999999999,-0.3238499999999999,0.142521,-0.1305999999999999,-0.24107,1
95,0.0067695,0.6099270000000001,-0.1976759999999999,-0.1249714999999999,0.445565,-0.1932839999999999,-0.2021815,0.6104120000000001,-0.353935,0.1402585,0.455845,-0.1860359999999999,0.2513285,0.617545,-0.328605,-0.2153215,0.776355,-0.526535,0.2893285,0.7929350000000001,-0.486135,-0.0712754999999999,-0.0019449999999999,-0.0041549999999999,0.0712754999999999,0.001945,0.004155,-0.1317815,0.145635,-0.318755,0.1740285,0.171675,-0.289525,-0.0989914999999999,-0.149895,-0.334515,0.1422685,-0.1225649999999999,-0.2401649999999999,1
96,0.0064009999999999,0.6140769999999999,-0.19614,-0.125242,0.4503249999999999,-0.191908,-0.203242,0.6149379999999999,-0.35242,0.139768,0.4603049999999999,-0.184585,0.250848,0.6218899999999999,-0.3274,-0.216842,0.7807849999999998,-0.52505,0.288858,0.7973549999999999,-0.48487,-0.071001,-0.002535,-0.00322,0.071001,0.0025349999999999,0.00322,-0.131852,0.1512849999999999,-0.31674,0.173918,0.1778449999999999,-0.28832,-0.094422,-0.1443250000000001,-0.34478,0.142088,-0.116385,-0.237795,1
97,0.0061349999999999,0.6186569999999999,-0.194762,-0.1254489999999999,0.4549049999999999,-0.190527,-0.204319,0.6195179999999999,-0.3507,0.139351,0.4648849999999999,-0.183184,0.250441,0.62647,-0.32594,-0.218159,0.7853649999999999,-0.52315,0.288501,0.801935,-0.48324,-0.070729,-0.003115,-0.00243,0.070729,0.0031149999999999,0.0024299999999999,-0.131959,0.1558649999999999,-0.31614,0.1739109999999999,0.1824249999999999,-0.2877,-0.094369,-0.1397450000000001,-0.34519,0.141971,-0.111785,-0.235423,1
98,0.005517,0.620517,-0.190913,-0.126134,0.456765,-0.18669,-0.2057439999999999,0.621378,-0.346415,0.138636,0.466745,-0.17934,0.249616,0.62833,-0.321755,-0.219964,0.7872250000000001,-0.518405,0.287396,0.803795,-0.478895,-0.07011,-0.003665,-0.002015,0.07011,0.003665,0.0020149999999999,-0.1323039999999999,0.157725,-0.312985,0.173446,0.184285,-0.284895,-0.094794,-0.137885,-0.342995,0.140326,-0.1095849999999999,-0.228375,1
99,0.0056989999999999,0.620517,-0.190874,-0.126122,0.456875,-0.186415,-0.206372,0.621378,-0.3464399999999999,0.138768,0.466845,-0.179138,0.249478,0.62833,-0.3214599999999999,-0.220752,0.7872250000000001,-0.5181,0.286918,0.803795,-0.47853,-0.0699299999999999,-0.003665,-0.00195,0.0699299999999999,0.003665,0.00195,-0.132182,0.157825,-0.3143,0.172898,0.187475,-0.2855499999999999,-0.094652,-0.137885,-0.34279,0.138608,-0.1047749999999999,-0.22612,1
100,0.0059215,0.623802,-0.190862,-0.1260995,0.458185,-0.186299,-0.2069195,0.622691,-0.346125,0.1389605,0.466995,-0.179125,0.2493605,0.62873,-0.321125,-0.2216695,0.788805,-0.5174350000000001,0.2864704999999999,0.804455,-0.478015,-0.0697075,-0.003665,-0.001935,0.0697075,0.003665,0.0019349999999999,-0.1320395,0.163245,-0.315925,0.1721705,0.189865,-0.286465,-0.0950495,-0.1326549999999999,-0.342815,0.1368605,-0.100735,-0.223883,1
101,0.0062825,0.629499,-0.191187,-0.1260295,0.463285,-0.186108,-0.2072594999999999,0.62715,-0.346085,0.1393005,0.469855,-0.17917,0.2493604999999999,0.631744,-0.321385,-0.2228295,0.793405,-0.516955,0.2864204999999999,0.807735,-0.478045,-0.0693985,-0.003665,-0.001915,0.0693985,0.003665,0.001915,-0.1317795,0.168745,-0.316245,0.1712705,0.191365,-0.287305,-0.0948495,-0.1271949999999999,-0.342805,0.1350405,-0.097445,-0.221545,1
102,0.0069884999999999,0.628438,-0.195996,-0.1258605,0.46211,-0.19052,-0.2072905,0.625915,-0.350385,0.1400695,0.46631,-0.184017,0.2498495,0.629176,-0.325975,-0.2231505,0.79305,-0.520575,0.2866795,0.80586,-0.482565,-0.0696035,-0.00241,-0.0013549999999999,0.0696035,0.00241,0.0013549999999999,-0.1294305,0.1641099999999999,-0.321075,0.1695895,0.18324,-0.292805,-0.0984405,-0.13139,-0.336045,0.1338895,-0.10423,-0.222816,1
103,0.0079775,0.625521,-0.201918,-0.1253685,0.460105,-0.195527,-0.2070685,0.624109,-0.35515,0.1410515,0.460535,-0.189538,0.2502115,0.625411,-0.33121,-0.2233585,0.791885,-0.52466,0.2871515,0.8023750000000001,-0.48697,-0.0698915,-0.000905,-0.00066,0.0698915,0.000905,0.0006599999999999,-0.1267785,0.1570349999999999,-0.32648,0.1678015,0.172945,-0.299,-0.1016884999999999,-0.137915,-0.32959,0.1337315,-0.113425,-0.225722,1
104,0.009242,0.62797,-0.2074509999999999,-0.124746,0.45963,-0.2002209999999999,-0.206586,0.624018,-0.3594549999999999,0.1423039999999999,0.45969,-0.194814,0.250674,0.625119,-0.3359149999999999,-0.223086,0.79217,-0.528305,0.287584,0.80239,-0.490925,-0.070216,0.00034,-0.0004049999999999,0.070216,-0.00034,0.000405,-0.123866,0.14964,-0.331615,0.166284,0.16235,-0.305065,-0.1048959999999999,-0.1447199999999999,-0.3220849999999999,0.133964,-0.1228799999999999,-0.2288819999999999,1
105,0.0104585,0.62577,-0.2125379999999999,-0.1241114999999999,0.45491,-0.204277,-0.2060314999999999,0.620038,-0.36267,0.1436485,0.45365,-0.199615,0.2509885,0.6203810000000001,-0.33995,-0.2233014999999999,0.78895,-0.53047,0.2878685,0.79827,-0.49412,-0.0706115,0.00146,-0.0002099999999999,0.0706115,-0.00146,0.00021,-0.1209915,0.13674,-0.33633,0.1648585,0.14583,-0.3105799999999999,-0.1080515,-0.15698,-0.3137299999999999,0.1348685,-0.1384099999999999,-0.2321039999999999,1
106,0.0118654999999999,0.626707,-0.217303,-0.1234774999999999,0.453514,-0.208142,-0.2054675,0.6191679999999999,-0.365625,0.1449425,0.4499269999999999,-0.203966,0.2512525,0.617946,-0.343595,-0.2234874999999999,0.78746,-0.532415,0.2880825,0.79596,-0.496715,-0.0711475,0.00231,0.0001349999999999,0.0711475,-0.00231,-0.0001349999999999,-0.1188575,0.12439,-0.340965,0.1633525,0.13022,-0.316605,-0.1112175,-0.16927,-0.3050049999999999,0.1351425,-0.153,-0.234369,1
107,0.0129415,0.629288,-0.2198409999999999,-0.1230675,0.45374,-0.2099929999999999,-0.2052175,0.619844,-0.36665,0.1459925,0.447616,-0.2063789999999999,0.2514325,0.617046,-0.3451999999999999,-0.2241774999999999,0.78939,-0.53213,0.2883025,0.79619,-0.49717,-0.0717675,0.00282,0.0003599999999999,0.0717675,-0.00282,-0.0003599999999999,-0.1178374999999999,0.11124,-0.34399,0.1635025,0.11319,-0.3210199999999999,-0.1144474999999999,-0.18238,-0.29605,0.1353525,-0.16996,-0.235947,1
108,0.0140029999999999,0.6324799999999999,-0.2204819999999999,-0.122942,0.453341,-0.20915,-0.205072,0.62022,-0.3645049999999999,0.147058,0.445777,-0.2064309999999999,0.251608,0.61642,-0.3438949999999999,-0.225192,0.79017,-0.5295650000000001,0.288568,0.79627,-0.494785,-0.072382,0.00326,0.000325,0.072382,-0.00326,-0.0003249999999999,-0.116932,0.0924499999999999,-0.3451349999999999,0.163508,0.0909599999999999,-0.322895,-0.1178319999999999,-0.20111,-0.284725,0.136108,-0.19177,-0.23585,1
109,0.013916,0.63215,-0.220704,-0.123752,0.451936,-0.208409,-0.2050219999999999,0.61948,-0.362295,0.147228,0.443117,-0.206424,0.250768,0.61412,-0.342545,-0.225462,0.78974,-0.5266850000000001,0.287778,0.7945800000000001,-0.491685,-0.072282,0.00378,0.000335,0.072282,-0.00378,-0.000335,-0.117002,0.06384,-0.345665,0.162728,0.06312,-0.324225,-0.118282,-0.22973,-0.283295,0.135948,-0.21923,-0.235757,1
110,0.0144604999999999,0.632225,-0.219964,-0.1237875,0.450019,-0.206885,-0.2046175,0.618845,-0.3592349999999999,0.1480425,0.440654,-0.205668,0.2504825,0.613885,-0.339385,-0.2260074999999999,0.789675,-0.522605,0.2878625,0.794815,-0.4875049999999999,-0.0728375,0.0042749999999999,-0.000225,0.0728375,-0.0042749999999999,0.000225,-0.1168975,0.0372649999999999,-0.345505,0.1627725,0.0350949999999999,-0.324305,-0.1179974999999999,-0.256165,-0.281045,0.1387924999999999,-0.2473949999999999,-0.237662,1
111,0.0156129999999999,0.6359,-0.21834,-0.123099,0.450057,-0.2040529999999999,-0.204059,0.61971,-0.355175,0.1493809999999999,0.4420199999999999,-0.204032,0.250741,0.61581,-0.335445,-0.225949,0.78818,-0.516665,0.2886809999999999,0.79738,-0.482585,-0.0732589999999999,0.0034,-0.000835,0.0732589999999999,-0.0034,0.000835,-0.116389,0.0108099999999999,-0.343925,0.163441,0.0075899999999999,-0.322715,-0.117109,-0.28235,-0.277845,0.141851,-0.27557,-0.2380519999999999,1
112,0.016359,0.6437999999999999,-0.21563,-0.1226049999999999,0.453225,-0.200684,-0.203615,0.62101,-0.34972,0.150435,0.4467129999999999,-0.201762,0.251165,0.6209,-0.33083,-0.2260849999999999,0.7897,-0.50985,0.289285,0.8036,-0.4765899999999999,-0.073665,0.0022099999999999,-0.00126,0.073665,-0.00221,0.00126,-0.116525,-0.01913,-0.34195,0.163805,-0.02386,-0.32071,-0.115545,-0.31165,-0.27441,0.144445,-0.30783,-0.237932,1
113,0.0174235,0.64747,-0.214752,-0.1216564999999999,0.4550499999999999,-0.199035,-0.2028165,0.62467,-0.3457249999999999,0.1517935,0.447225,-0.2011069999999999,0.2520435,0.62332,-0.328065,-0.2254665,0.79444,-0.504195,0.2901335,0.80697,-0.472615,-0.0739865,0.0013499999999999,-0.0012749999999999,0.0739865,-0.00135,0.0012749999999999,-0.1162865,-0.0491,-0.341935,0.1645535,-0.05507,-0.320665,-0.1141364999999999,-0.3410000000000001,-0.273405,0.1474235,-0.33989,-0.239607,1
114,0.0170315,0.654185,-0.211241,-0.1222135,0.459925,-0.194462,-0.2032935,0.630425,-0.33858,0.1515465,0.4516450000000001,-0.197076,0.2513364999999999,0.6291150000000001,-0.32197,-0.2263534999999999,0.801035,-0.49513,0.2896365,0.8133950000000001,-0.46523,-0.0736235,0.001005,-0.00166,0.0736235,-0.0010049999999999,0.0016599999999999,-0.1171734999999999,-0.0763749999999999,-0.33899,0.1636765,-0.0830749999999999,-0.31752,-0.1145634999999999,-0.3677849999999999,-0.26947,0.1479265,-0.368815,-0.237805,1
115,0.0167485,0.659505,-0.205239,-0.1226395,0.462825,-0.187148,-0.2033795,0.634595,-0.329025,0.1516405,0.455455,-0.190245,0.2512904999999999,0.634115,-0.3138849999999999,-0.2268895,0.805825,-0.483565,0.2895805,0.8197749999999999,-0.455245,-0.0734195,0.0007449999999999,-0.001925,0.0734195,-0.0007449999999999,0.001925,-0.1177095,-0.1060249999999999,-0.333155,0.1628505,-0.1114649999999999,-0.311195,-0.1149294999999999,-0.397215,-0.263515,0.1478505,-0.3985749999999999,-0.232863,1
116,0.016172,0.6653100000000001,-0.198042,-0.123239,0.46551,-0.179421,-0.202949,0.63791,-0.31935,0.151611,0.4588,-0.182757,0.250461,0.6385700000000001,-0.30457,-0.226999,0.80651,-0.47119,0.288651,0.82479,-0.44425,-0.073639,0.00065,-0.0019699999999999,0.073639,-0.00065,0.0019699999999999,-0.1184489999999999,-0.13507,-0.3261199999999999,0.162001,-0.1383599999999999,-0.3038499999999999,-0.1155689999999999,-0.4264,-0.25734,0.147631,-0.42716,-0.2276159999999999,1
117,0.015721,0.6714450000000001,-0.189167,-0.12367,0.470685,-0.171671,-0.20242,0.641005,-0.308075,0.15176,0.463955,-0.174478,0.25009,0.645105,-0.293745,-0.22672,0.8111349999999999,-0.4575249999999999,0.28808,0.831955,-0.4325449999999999,-0.0731199999999999,0.000615,-0.001865,0.0731199999999999,-0.000615,0.001865,-0.11938,-0.1606349999999999,-0.3170349999999999,0.1609199999999999,-0.1618549999999999,-0.294625,-0.11645,-0.4527549999999999,-0.250665,0.14729,-0.4521949999999999,-0.22196,1
118,0.015365,0.679515,-0.179421,-0.124189,0.475425,-0.163082,-0.201289,0.644105,-0.29635,0.151991,0.469655,-0.165741,0.249661,0.652935,-0.2824,-0.226369,0.8162050000000001,-0.44337,0.287271,0.8411350000000001,-0.41963,-0.072329,0.0005449999999999,-0.00165,0.072329,-0.0005449999999999,0.0016499999999999,-0.120569,-0.179735,-0.30463,0.1594209999999999,-0.1812649999999999,-0.2828,-0.117449,-0.4731449999999999,-0.24391,0.147201,-0.473085,-0.215561,1
119,0.0149755,0.6873,-0.167722,-0.1243335,0.47972,-0.152925,-0.2004135,0.6496500000000001,-0.28244,0.1523565,0.47511,-0.155159,0.2494465,0.6589700000000001,-0.26981,-0.2272334999999999,0.82324,-0.42707,0.2869665,0.8486199999999999,-0.40466,-0.0715035,0.00059,-0.00138,0.0715035,-0.00059,0.0013799999999999,-0.1220835,-0.20027,-0.29034,0.1573864999999999,-0.20368,-0.26736,-0.1189934999999999,-0.49521,-0.23537,0.1464865,-0.49737,-0.206843,1
120,0.0146674999999999,0.69649,-0.156111,-0.1244665,0.4835899999999999,-0.1435469999999999,-0.2002865,0.65625,-0.268785,0.1523735,0.4789,-0.144887,0.2489235,0.6649700000000001,-0.256055,-0.2278064999999999,0.8340500000000001,-0.411525,0.2862935,0.85573,-0.387945,-0.0707565,0.0007899999999999,-0.0009249999999999,0.0707565,-0.00079,0.000925,-0.1238865,-0.22608,-0.275145,0.1549535,-0.2332499999999999,-0.250635,-0.1203865,-0.52255,-0.2268649999999999,0.1449835,-0.52754,-0.198339,1
121,0.0143525,0.703302,-0.144896,-0.1246635,0.484892,-0.13502,-0.2003235,0.663312,-0.255955,0.1525365,0.481842,-0.135406,0.2484865,0.669452,-0.243135,-0.2273335,0.842962,-0.396005,0.2857065,0.861502,-0.372585,-0.0700635,0.0010389999999999,-0.0002749999999999,0.0700635,-0.0010389999999999,0.0002749999999999,-0.1254435,-0.2476879999999999,-0.260255,0.1524265,-0.256358,-0.234295,-0.1217435,-0.545558,-0.218885,0.1441065,-0.550918,-0.19021,1
122,0.014121,0.7081615,-0.132601,-0.125115,0.4885515,-0.125026,-0.200485,0.6662515,-0.2427,0.152565,0.4830915,-0.1252349999999999,0.2483449999999999,0.6723414999999999,-0.22949,-0.227085,0.8470114999999999,-0.38022,0.284915,0.8660315,-0.35579,-0.069488,0.0011344999999999,0.00067,0.069488,-0.0011344999999999,-0.00067,-0.126805,-0.2702684999999999,-0.24384,0.149505,-0.2796785,-0.21681,-0.123305,-0.5693685,-0.20987,0.143195,-0.5748285000000001,-0.180806,1
123,0.013491,0.7129955,-0.115038,-0.125963,0.4928455,-0.109277,-0.2009129999999999,0.6724055,-0.224615,0.152667,0.4877355,-0.109279,0.247797,0.6778755,-0.2109349999999999,-0.227313,0.8555155,-0.359265,0.283987,0.8733155,-0.334245,-0.068948,0.0011755,0.00117,0.068948,-0.0011754999999999,-0.00117,-0.1273429999999999,-0.2925445,-0.216155,0.145857,-0.3025945,-0.190555,-0.124943,-0.5919544999999999,-0.192015,0.141767,-0.5980645,-0.165189,1
124,0.014124,0.7162085,-0.0983695,-0.125721,0.4963885,-0.0945345,-0.202021,0.6774685,-0.2072725,0.153749,0.4906685,-0.0944235,0.248369,0.6820785,-0.1932125,-0.228111,0.8644185000000001,-0.3394825,0.284069,0.8791085000000001,-0.3136425,-0.068913,0.0013695,0.0015064999999999,0.068913,-0.0013694999999999,-0.0015065,-0.126391,-0.3118615,-0.1895825,0.143339,-0.3221215,-0.1656545,-0.125371,-0.6113514999999999,-0.1747095,0.141469,-0.6191715,-0.1499505,1
125,0.0142814999999999,0.7182485,-0.0818035,-0.1261605,0.4988185,-0.0800525,-0.2020805,0.6824684999999999,-0.1899345,0.1540995,0.4930685,-0.0799185,0.2481695,0.6861885,-0.1755045,-0.2272405,0.8745885,-0.3204645,0.2835895,0.8848785,-0.2927345,-0.0689565,0.0016655,0.0017004999999999,0.0689565,-0.0016655,-0.0017005,-0.1259805,-0.3294415,-0.1635235,0.1403495,-0.3408414999999999,-0.1407725,-0.1263605,-0.6290215,-0.1576155,0.1407195,-0.6393415,-0.1349605,1
126,0.0131229999999999,0.7190850000000001,-0.067204,-0.127801,0.498945,-0.065951,-0.203481,0.6876850000000001,-0.174499,0.1531789999999999,0.493145,-0.066189,0.246619,0.687635,-0.158519,-0.227831,0.8817550000000001,-0.302119,0.281699,0.8884150000000001,-0.2716389999999999,-0.069038,0.002068,0.001913,0.069038,-0.002068,-0.0019129999999999,-0.126861,-0.343275,-0.138838,0.136449,-0.357395,-0.117062,-0.128361,-0.6436949999999999,-0.140793,0.138849,-0.6572349999999999,-0.120457,1
127,0.0119525,0.7182385,-0.0527949999999999,-0.1292495,0.4989184999999999,-0.052502,-0.2047695,0.6927285,-0.1592279999999999,0.1522905,0.4929384999999999,-0.052731,0.2450805,0.6892984999999999,-0.142178,-0.2280995,0.8888785,-0.284028,0.2800404999999999,0.8917984999999999,-0.252088,-0.0694715,0.0024034999999999,0.0018799999999999,0.0694715,-0.0024034999999999,-0.0018799999999999,-0.1274595,-0.3542014999999999,-0.116923,0.1330705,-0.3726115,-0.094729,-0.1298795,-0.6556915,-0.1240759999999999,0.1372705,-0.6734615,-0.10634,1
128,0.010899,0.717854,-0.039928,-0.130688,0.499404,-0.040242,-0.205978,0.6951940000000001,-0.145544,0.1514619999999999,0.493214,-0.0407849999999999,0.243692,0.691214,-0.1276499999999999,-0.228018,0.893644,-0.267604,0.278602,0.895444,-0.234064,-0.070072,0.0026399999999999,0.001877,0.070072,-0.00264,-0.0018769999999999,-0.127748,-0.362196,-0.096313,0.130152,-0.384786,-0.074968,-0.131078,-0.664646,-0.108376,0.135762,-0.686496,-0.0932679999999999,1
129,0.0097135,0.715576,-0.0273349999999999,-0.1321115,0.499976,-0.0279079999999999,-0.2072415,0.697066,-0.131825,0.1506384999999999,0.493596,-0.0288189999999999,0.2423884999999999,0.692866,-0.1141949999999999,-0.2281615,0.897396,-0.2513249999999999,0.2773585,0.898636,-0.217375,-0.0707125,0.0028359999999999,0.001767,0.0707125,-0.002836,-0.0017669999999999,-0.1279515,-0.370794,-0.0766979999999999,0.1275385,-0.397914,-0.056989,-0.1323115,-0.673944,-0.092842,0.1342385,-0.700174,-0.08027,1
130,0.0083105,0.7133835000000001,-0.01427,-0.1336844999999999,0.5007835,-0.0152389999999999,-0.2091645,0.6986835,-0.117806,0.1495255,0.4937434999999999,-0.016489,0.2409655,0.6941335000000001,-0.09965,-0.2305045,0.9010435,-0.2342459999999999,0.2758755,0.9013935,-0.199576,-0.0714394999999999,0.0030344999999999,0.001667,0.0714394999999999,-0.0030345,-0.001667,-0.1282645,-0.3818865,-0.057962,0.1250955,-0.4114065,-0.039585,-0.1335444999999999,-0.6852765,-0.077491,0.1328655,-0.7139865,-0.067333,1
131,0.006964,0.7119795,-0.001834,-0.135048,0.4990495,-0.003848,-0.210638,0.7004595,-0.103416,0.148532,0.4948095,-0.004729,0.239302,0.6962795,-0.084719,-0.230978,0.9050895,-0.216186,0.274412,0.9051595,-0.180746,-0.072108,0.0033124999999999,0.001157,0.072108,-0.0033125,-0.0011569999999999,-0.1285079999999999,-0.3939105,-0.0408489999999999,0.1231719999999999,-0.4241804999999999,-0.023552,-0.134228,-0.6973104999999999,-0.063059,0.131622,-0.7267005,-0.055372,1
132,0.0060555,0.7124900000000001,0.0049615,-0.1358695,0.49836,0.0012434999999999,-0.2119195,0.70086,-0.0941635,0.1476105,0.49412,0.0005824999999999,0.2381705,0.69693,-0.0749674999999999,-0.2319895,0.90699,-0.2035755,0.2732105,0.90731,-0.1667155,-0.0725335,0.003243,0.0009965,0.0725335,-0.0032429999999999,-0.0009965,-0.1292695,-0.3946199999999999,-0.0362185,0.1221905,-0.4248699999999999,-0.0175915,-0.1349695,-0.69804,-0.0582305,0.1310405,-0.72739,-0.0506285,1
133,0.0052319999999999,0.7132375,0.0112699999999999,-0.136623,0.4982375,0.005887,-0.213343,0.7010275,-0.0852919999999999,0.146817,0.4939975,0.0055509999999999,0.2370769999999999,0.6975475,-0.065488,-0.233143,0.9086375,-0.190817,0.272077,0.9094075,-0.153057,-0.072902,0.0031605,0.0008939999999999,0.072902,-0.0031604999999999,-0.0008939999999999,-0.129883,-0.3947425,-0.0321609999999999,0.1213269999999999,-0.4249925,-0.012104,-0.135603,-0.6981625,-0.053696,0.130677,-0.7275125,-0.0462049999999999,1
134,0.0044575,0.7136025,0.017228,-0.1373144999999999,0.4981925,0.0099929999999999,-0.2146144999999999,0.7009825000000001,-0.076416,0.1461255,0.4939525,0.010114,0.2361155,0.6976425,-0.05681,-0.2343144999999999,0.9096625,-0.178723,0.2710855,0.9106025,-0.140923,-0.0731765,0.0031155,0.0009199999999999,0.0731765,-0.0031155,-0.00092,-0.1303945,-0.3947874999999999,-0.028477,0.1206255,-0.4250374999999999,-0.007689,-0.1361844999999999,-0.6982075,-0.049605,0.1304255,-0.7275575,-0.042154,1
135,0.0036904999999999,0.7136819999999999,0.022882,-0.1378285,0.497612,0.013898,-0.2155585,0.700982,-0.068287,0.1454415,0.493482,0.014502,0.2350315,0.697792,-0.048724,-0.2354284999999999,0.910222,-0.1673359999999999,0.2699215,0.911712,-0.129986,-0.0734404999999999,0.0031149999999999,0.000951,0.0734404999999999,-0.0031149999999999,-0.0009509999999999,-0.1308585,-0.394418,-0.0249299999999999,0.1201414999999999,-0.424658,-0.004142,-0.1368385,-0.6978380000000001,-0.046033,0.1301915,-0.727218,-0.038372,1
136,0.0028484999999999,0.7136795,0.0283125,-0.1384195,0.4961595,0.0176485,-0.2165495,0.7009795000000001,-0.0604085,0.1446005,0.4925894999999999,0.0186385,0.2339305,0.6979295000000001,-0.0409664999999999,-0.2365995,0.9105295,-0.1565085,0.2687805,0.9124495,-0.1196285,-0.0736225,0.0031124999999999,0.0009585,0.0736225,-0.0031125,-0.0009584999999999,-0.1313295,-0.3939305,-0.0214974999999999,0.1196605,-0.4246305,-0.0007094999999999,-0.1375495,-0.6973805,-0.0425285,0.1299005,-0.7271605000000001,-0.0348085,1
137,0.002029,0.7140555,0.0334745,-0.139058,0.4950654999999999,0.0211205,-0.217478,0.7009655,-0.0532254999999999,0.143792,0.4919955,0.0225685,0.232852,0.6983755,-0.0336825,-0.237898,0.9111255,-0.1468655,0.267632,0.9134155,-0.1100355,-0.073736,0.0030055,0.0008475,0.073736,-0.0030055,-0.0008474999999999,-0.131738,-0.3930845,-0.0187924999999999,0.119232,-0.4240945,0.0024995,-0.138188,-0.6965545,-0.0393325,0.129652,-0.7266445,-0.0314925,1
138,0.0011174999999999,0.714544,0.0381545,-0.1398145,0.4942539999999999,0.0242975,-0.2188145,0.700784,-0.0467025,0.1429355,0.4916439999999999,0.0262575,0.2317455,0.698964,-0.0269024999999999,-0.2396645,0.911704,-0.1380445,0.2665355,0.914494,-0.1012945,-0.0737434999999999,0.00286,0.0007575,0.0737434999999999,-0.00286,-0.0007574999999999,-0.1322144999999999,-0.392096,-0.0169565,0.1188454999999999,-0.423376,0.0054825,-0.1388245,-0.695586,-0.0363645,0.1293455,-0.725966,-0.0284975,1
139,0.0003919999999999,0.714574,0.0413415,-0.140459,0.4942539999999999,0.0268095,-0.220049,0.700784,-0.0420454999999999,0.142251,0.4916439999999999,0.0289625,0.230871,0.698964,-0.0215964999999999,-0.241399,0.912074,-0.1318625,0.265671,0.914924,-0.0943324999999999,-0.07364,0.00286,0.0006034999999999,0.07364,-0.00286,-0.0006034999999999,-0.132539,-0.391696,-0.0159165,0.1185109999999999,-0.422906,0.0076375,-0.139399,-0.695216,-0.0337504999999999,0.128901,-0.725536,-0.0258445,1
140,-0.0001464999999999,0.714574,0.043588,-0.1409265,0.4942539999999999,0.028843,-0.2212265,0.700784,-0.0393629999999999,0.1417435,0.4916439999999999,0.031126,0.2302235,0.698964,-0.0177989999999999,-0.2431265,0.912454,-0.127859,0.2651635,0.915064,-0.090019,-0.0735005,0.00286,0.000488,0.0735005,-0.00286,-0.0004879999999999,-0.1326765,-0.3913459999999999,-0.0154129999999999,0.1182635,-0.4225359999999999,0.009039,-0.1397565,-0.6948759999999999,-0.0320009999999999,0.1286135,-0.725176,-0.0239209999999999,1
141,-0.0004465,0.714764,0.0451065,-0.1411695,0.4942539999999999,0.0303655,-0.2220895,0.700634,-0.0378784999999999,0.1415205,0.4916439999999999,0.0326495,0.2298905,0.698964,-0.0153794999999999,-0.2443695,0.912744,-0.1261935,0.2649005,0.915204,-0.0877334999999999,-0.0733975,0.00286,0.0002944999999999,0.0733975,-0.00286,-0.0002944999999999,-0.1327594999999999,-0.391076,-0.0153335,0.1181905,-0.422046,0.0099995,-0.1398395,-0.694636,-0.0305435,0.1285305,-0.724736,-0.0225765,1
142,-0.0007235,0.7150015000000001,0.0467225,-0.1412575,0.4934614999999999,0.0317875,-0.2229075,0.6996215,-0.0362954999999999,0.1413725,0.4912914999999999,0.0342725,0.2298725,0.6982315,-0.0136424999999999,-0.2454875,0.9119515,-0.1246275,0.2647825,0.9147315,-0.0857375,-0.0733825,0.0028004999999999,4.450000000000287e-05,0.0733825,-0.0028004999999999,-4.449999999999593e-05,-0.1327775,-0.3914485,-0.0150004999999999,0.1181225,-0.4221285,0.0111155,-0.1398675,-0.6950084999999999,-0.0291694999999999,0.1284624999999999,-0.7248585,-0.0211335,1
143,-0.0011999999999999,0.714943,0.048478,-0.1414349999999999,0.492763,0.033239,-0.2238049999999999,0.6984929999999999,-0.034565,0.141185,0.490983,0.036047,0.229775,0.697403,-0.0118629999999999,-0.246705,0.911133,-0.1229189999999999,0.264875,0.913943,-0.083949,-0.073368,0.002686,-0.0001979999999999,0.073368,-0.002686,0.000198,-0.132805,-0.391957,-0.0146469999999999,0.118055,-0.422087,0.012279,-0.1399349999999999,-0.6955070000000001,-0.0276119999999999,0.128365,-0.7248370000000001,-0.0195309999999999,0
144,-0.0018905,0.715041,0.049541,-0.1417385,0.4919409999999999,0.034634,-0.2249085,0.697421,-0.0330139999999999,0.1410015,0.491081,0.037994,0.2298015,0.696781,-0.009833,-0.2481985,0.910191,-0.120982,0.2649515,0.913331,-0.081732,-0.0732475,0.0025369999999999,-0.000385,0.0732475,-0.0025369999999999,0.000385,-0.1327185,-0.392569,-0.0143119999999999,0.1181015,-0.4220089999999999,0.013298,-0.1399185,-0.696089,-0.0257939999999999,0.1283615,-0.724839,-0.017678,0
145,-0.0027149999999999,0.7155,0.0499595,-0.142106,0.4917,0.0360034999999999,-0.227856,0.69638,-0.0318795,0.140904,0.49136,0.0400795,0.231184,0.69682,-0.0073725,-0.250456,0.90918,-0.1198915,0.2652339999999999,0.91334,-0.0793415,-0.073029,0.002499,-0.0004505,0.073029,-0.002499,0.0004504999999999,-0.132606,-0.3922199999999999,-0.0136975,0.118334,-0.42182,0.0144384999999999,-0.1396659999999999,-0.69574,-0.0238285,0.1285939999999999,-0.7247,-0.0154665,0
146,-0.0034964999999999,0.7157865,0.0500015,-0.1424755,0.4914864999999999,0.0371745,-0.2327955,0.6939265,-0.0319375,0.1409345,0.4913565,0.0420525,0.2339745,0.6962365,-0.0054395,-0.2529455,0.9070265,-0.1194365,0.2658645,0.9131365,-0.0768665,-0.0728385,0.0024685,-0.0005254999999999,0.0728385,-0.0024684999999999,0.0005254999999999,-0.1324355,-0.3917535,-0.0130115,0.1185845,-0.4215935,0.0155084999999999,-0.1392355,-0.6952535,-0.0217615,0.1289745,-0.7245135,-0.0132325,0
147,-0.0042164999999999,0.7157135,0.049259,-0.1442425,0.4912935,0.036881,-0.2425425,0.6879935,-0.0345029999999999,0.1415374999999999,0.4913935,0.044189,0.2415874999999999,0.6908235,-0.0039079999999999,-0.2567925,0.8995935,-0.12079,0.2684575,0.9063735,-0.07411,-0.0726904999999999,0.0024635,-0.0006169999999999,0.0726904999999999,-0.0024635,0.000617,-0.1319225,-0.3910265,-0.0121819999999999,0.1190775,-0.4211365,0.016771,-0.1382225,-0.6944365,-0.0191409999999999,0.1298075,-0.7240665,-0.0105589999999999,0
148,-0.0044725,0.71579,0.0482735,-0.1460985,0.4899799999999999,0.0362495,-0.2553985,0.6728999999999999,-0.0377065,0.1425015,0.49166,0.0465375,0.2509315,0.67437,0.0001304999999999,-0.2600785,0.8786,-0.1221074999999999,0.2720715,0.88636,-0.0708874999999999,-0.0726385,0.0022359999999999,-0.0009274999999999,0.0726385,-0.002236,0.0009274999999999,-0.1310585,-0.39028,-0.0112615,0.1198015,-0.42061,0.0180005,-0.1365185,-0.69357,-0.0162794999999999,0.1311515,-0.72357,-0.0071075,0
149,-0.0043329999999999,0.7163735,0.0470555,-0.147558,0.4886235,0.0353465,-0.266468,0.6525235,-0.0381185,0.143562,0.4920035,0.0487784999999999,0.257762,0.6553935,0.0055694999999999,-0.264208,0.8531135,-0.1246575,0.276972,0.8636335,-0.0683175,-0.072568,0.0020094999999999,-0.0012614999999999,0.072568,-0.0020094999999999,0.0012614999999999,-0.129908,-0.3887965,-0.0107804999999999,0.120652,-0.4202464999999999,0.0190955,-0.134378,-0.6919365,-0.0134274999999999,0.132832,-0.7231965,-0.0033125,0
150,-0.003171,0.7177070000000001,0.0453579999999999,-0.148666,0.487157,0.0343189999999999,-0.2717759999999999,0.627677,-0.039313,0.1447139999999999,0.4920469999999999,0.0511439999999999,0.261834,0.630207,0.0111679999999999,-0.2679959999999999,0.822727,-0.129167,0.283554,0.830927,-0.066767,-0.072529,0.001767,-0.001641,0.072529,-0.0017669999999999,0.0016409999999999,-0.128366,-0.387493,-0.010134,0.121654,-0.4189029999999999,0.0197659999999999,-0.131796,-0.690633,-0.010216,0.134784,-0.7218629999999999,0.0007399999999999,0
151,-0.0008855,0.7195695000000001,0.0435875,-0.1495515,0.4855894999999999,0.0330865,-0.2743615,0.5977995,-0.0396324999999999,0.1457785,0.4915795,0.0537735,0.2649384999999999,0.5999195,0.0166425,-0.2712715,0.7826395,-0.1337124999999999,0.2909185,0.7919895,-0.0678725,-0.0725075,0.0014945,-0.0020724999999999,0.0725075,-0.0014945,0.0020725,-0.1263915,-0.3856505,-0.0099684999999999,0.1227685,-0.4170405,0.0193345,-0.1287915,-0.6888004999999999,-0.0072234999999999,0.1364285,-0.7200004999999999,0.0039455,0
152,0.0034234999999999,0.721566,0.0405985,-0.1494055,0.483436,0.0297765,-0.2733454999999999,0.556626,-0.0387444999999999,0.1468145,0.491006,0.0567365,0.2688445,0.561126,0.0264255,-0.2726854999999999,0.726696,-0.1395644999999999,0.2977445,0.734726,-0.0666344999999999,-0.0725435,0.0011709999999999,-0.0030464999999999,0.0725435,-0.0011709999999999,0.0030465,-0.1240855,-0.383834,-0.0099034999999999,0.1239225,-0.415554,0.0160695,-0.1251155,-0.686934,-0.0038204999999999,0.1391445,-0.718044,0.0072245,0
153,0.0085264999999999,0.7236024999999999,0.036416,-0.1485605,0.4806925,0.02511,-0.2707205,0.5079325,-0.037122,0.1482495,0.4897525,0.060117,0.2728095,0.5155325,0.036454,-0.2712004999999999,0.6568925,-0.140802,0.3029595,0.6643825,-0.0594319999999999,-0.0722605,0.0009315,-0.004443,0.0722605,-0.0009315,0.004443,-0.1223005,-0.3839875,-0.0097179999999999,0.1268574999999999,-0.4123374999999999,0.008567,-0.1215405,-0.6866975000000001,-0.000376,0.1439895,-0.7145175,0.007358,0
154,0.0129045,0.7254269999999999,0.0317005,-0.1472204999999999,0.4780369999999999,0.0196625,-0.2667505,0.459667,-0.0351875,0.1496295,0.4883069999999999,0.0631615,0.2760395,0.469087,0.0467035,-0.2687305,0.582477,-0.1408775,0.3066195,0.588987,-0.0522274999999999,-0.0719805,0.00069,-0.0060464999999999,0.0719805,-0.0006899999999999,0.0060465,-0.1209005,-0.383783,-0.0093304999999999,0.1311884999999999,-0.408493,-0.0014155,-0.1187505,-0.686213,0.0032635,0.1482895,-0.710673,0.0039345,0
155,0.016499,0.7272115,0.026298,-0.144994,0.4754615,0.014045,-0.263684,0.4120915,-0.0317529999999999,0.151146,0.4865615,0.066144,0.276376,0.4223814999999999,0.058446,-0.265574,0.5034015,-0.138933,0.309266,0.5090315,-0.0440629999999999,-0.071624,0.0005175,-0.0076689999999999,0.071624,-0.0005175,0.007669,-0.119694,-0.3821585,-0.0085429999999999,0.135148,-0.4043085,-0.012863,-0.1167139999999999,-0.6840485000000001,0.007406,0.151866,-0.7065085,-0.0012439999999999,0
156,0.019139,0.729004,0.0212635,-0.1428499999999999,0.473084,0.0093655,-0.26216,0.367924,-0.0260124999999999,0.15247,0.4841339999999999,0.0686095,0.27391,0.379254,0.0705055,-0.26399,0.421804,-0.1342225,0.31061,0.429354,-0.0353324999999999,-0.07129,0.000542,-0.0093624999999999,0.0712899999999999,-0.000542,0.0093625,-0.11931,-0.380006,-0.0070124999999999,0.13783,-0.399776,-0.0263525,-0.116,-0.681096,0.0121285,0.15517,-0.701996,-0.0108124999999999,0
157,0.021569,0.7296929999999999,0.0160944999999999,-0.1423769999999999,0.471333,0.0047274999999999,-0.261197,0.332283,-0.0196025,0.152523,0.4810630000000001,0.0707114999999999,0.268093,0.346583,0.0819124999999999,-0.264107,0.352603,-0.1291725,0.310063,0.360923,-0.0253525,-0.071017,0.000726,-0.0108725,0.071017,-0.000726,0.0108724999999999,-0.1196969999999999,-0.378007,-0.0045925,0.138933,-0.3944669999999999,-0.0415025,-0.116637,-0.678017,0.0179844999999999,0.159533,-0.6963170000000001,-0.0232625,0
158,0.0250729999999999,0.730038,0.0111949999999999,-0.142073,0.469208,-0.000285,-0.256633,0.302188,-0.011395,0.152427,0.477878,0.072301,0.262937,0.316598,0.092478,-0.264273,0.287988,-0.122745,0.308347,0.294678,-0.0139649999999999,-0.070913,0.0008759999999999,-0.0125849999999999,0.070913,-0.000876,0.0125849999999999,-0.1198529999999999,-0.376062,-0.001935,0.141317,-0.389182,-0.056895,-0.1174129999999999,-0.674852,0.0247909999999999,0.167977,-0.690342,-0.039615,0
159,0.0304685,0.7297779999999999,0.0064599999999999,-0.1403285,0.467508,-0.0047099999999999,-0.2458584999999999,0.277038,-0.0017399999999999,0.1523715,0.474378,0.073185,0.2559815,0.293208,0.103103,-0.2601084999999999,0.228178,-0.11516,0.3085515,0.2381579999999999,-0.00436,-0.0708085,0.0010539999999999,-0.0143,0.0708085,-0.001054,0.0142999999999999,-0.1200484999999999,-0.374052,0.0013299999999999,0.1468815,-0.383382,-0.07329,-0.1180685,-0.6714920000000001,0.0326429999999999,0.1805215,-0.6835720000000001,-0.05893,0
160,0.0378294999999999,0.7288859999999999,0.001975,-0.1370495,0.466126,-0.008625,-0.2301094999999999,0.257206,0.008525,0.1532105,0.471356,0.074348,0.2505905,0.2752059999999999,0.115176,-0.2530894999999999,0.176986,-0.107105,0.3091505,0.187796,0.0036749999999999,-0.0705895,0.00132,-0.0158149999999999,0.0705895,-0.00132,0.0158149999999999,-0.1204095,-0.372584,0.0052049999999999,0.1542805,-0.376374,-0.088505,-0.1187495,-0.668354,0.0418649999999999,0.1956704999999999,-0.675234,-0.078465,0
161,0.0455385,0.727753,-0.00168,-0.1331155,0.465143,-0.0112599999999999,-0.2156855,0.249383,0.0174199999999999,0.1550745,0.468273,0.07427,0.2483345,0.266253,0.127891,-0.2463455,0.139983,-0.10083,0.3099745,0.156773,0.0117299999999999,-0.0702855,0.0016799999999999,-0.0165099999999999,0.0702855,-0.0016799999999999,0.0165099999999999,-0.1219655,-0.370687,0.01005,0.1623345,-0.3683369999999999,-0.101,-0.1208455,-0.665387,0.0518899999999999,0.2129945,-0.665217,-0.09991,0
162,0.0536475,0.7267290000000001,-0.0050149999999999,-0.1290905,0.464919,-0.0129449999999999,-0.2069305,0.249599,0.0252249999999999,0.1578695,0.465719,0.073291,0.2443594999999999,0.264349,0.140546,-0.2420005,0.116489,-0.0941949999999999,0.3080295,0.138479,0.020825,-0.0697385,0.001981,-0.0172549999999999,0.0697385,-0.0019809999999999,0.017255,-0.1247505,-0.368031,0.015915,0.1702294999999999,-0.360991,-0.108835,-0.1247305,-0.662731,0.062985,0.2305795,-0.655531,-0.119255,0
163,0.0615285,0.725473,-0.0081249999999999,-0.1248204999999999,0.465063,-0.014295,-0.2004705,0.251393,0.032315,0.1617695,0.463423,0.071275,0.2385795,0.264433,0.149964,-0.2368805,0.100323,-0.0859949999999999,0.3041795,0.125953,0.032865,-0.0694545,0.002333,-0.0173349999999999,0.0694545,-0.002333,0.017335,-0.1285204999999999,-0.365317,0.022095,0.1777895,-0.355187,-0.113755,-0.1305405,-0.659797,0.075145,0.2494394999999999,-0.6479969999999999,-0.1368749999999999,0
164,0.0685699999999999,0.724224,-0.011685,-0.1204339999999999,0.465584,-0.016075,-0.196984,0.254014,0.037055,0.166516,0.461644,0.0682549999999999,0.232316,0.265634,0.151484,-0.2324139999999999,0.0887189999999999,-0.0751649999999999,0.3003159999999999,0.1186339999999999,0.0457849999999999,-0.068933,0.002739,-0.017515,0.068933,-0.002739,0.017515,-0.1333339999999999,-0.362696,0.028365,0.185606,-0.347816,-0.117335,-0.138624,-0.656546,0.087805,0.266426,-0.639966,-0.152445,0
165,0.075633,0.722098,-0.016215,-0.116169,0.466628,-0.018015,-0.194379,0.255708,0.040495,0.171611,0.459488,0.0639249999999999,0.230841,0.266928,0.150026,-0.231069,0.089654,-0.060655,0.300161,0.116878,0.0523349999999999,-0.069071,0.003662,-0.017095,0.069071,-0.003662,0.017095,-0.138619,-0.3579819999999999,0.0343949999999999,0.190491,-0.3417119999999999,-0.118675,-0.148849,-0.649852,0.100395,0.278451,-0.633642,-0.163355,0
166,0.084701,0.7185050000000001,-0.023085,-0.1104219999999999,0.467765,-0.021955,-0.1907789999999999,0.256845,0.041665,0.179151,0.456245,0.0561849999999999,0.2345709999999999,0.267315,0.142478,-0.229059,0.090474,-0.048315,0.306811,0.1171649999999999,0.0501149999999999,-0.069062,0.004725,-0.016665,0.069062,-0.004725,0.0166649999999999,-0.1451589999999999,-0.353915,0.039335,0.191541,-0.338605,-0.118895,-0.162879,-0.642865,0.112715,0.2844109999999999,-0.6305649999999999,-0.1719649999999999,0
167,0.0937365,0.7150765,-0.031115,-0.1047535,0.4686665,-0.026575,-0.1878235,0.2589165,0.0411449999999999,0.1868765,0.4531065,0.048015,0.2434665,0.2668765,0.131135,-0.2275635,0.0913755,-0.040125,0.3155564999999999,0.1180664999999999,0.043085,-0.0691965,0.0056264999999999,-0.0159949999999999,0.0691965,-0.0056264999999999,0.015995,-0.1519535,-0.3501935,0.044215,0.1909965,-0.3358934999999999,-0.118775,-0.1781235,-0.6358035,0.124485,0.2847865,-0.6283434999999999,-0.175885,0
168,0.1050935,0.7120355,-0.0417299999999999,-0.0968505,0.4691955,-0.0335599999999999,-0.1826865,0.2623455,0.0374799999999999,0.1956534999999999,0.4505055,0.03733,0.2582735,0.2637055,0.11207,-0.2272465,0.0919045,-0.0386799999999999,0.3334535,0.1185954999999999,0.0180299999999999,-0.0693135,0.0061554999999999,-0.01527,0.0693135,-0.0061554999999999,0.01527,-0.1585465,-0.3459545,0.04852,0.1869735,-0.3343445,-0.11584,-0.1938865,-0.6285045,0.13532,0.2785735,-0.6277444999999999,-0.17441,0
169,0.1169129999999999,0.7091185000000001,-0.0533649999999999,-0.087177,0.4694985,-0.0420149999999999,-0.176946,0.2667585,0.032525,0.205453,0.4477385,0.024505,0.274543,0.2627485,0.091345,-0.225537,0.0922765,-0.0403549999999999,0.353503,0.1188085,-0.0109249999999999,-0.069543,0.0063685,-0.0146149999999999,0.069543,-0.0063685,0.014615,-0.164653,-0.3422215,0.052405,0.1818129999999999,-0.3333115,-0.112755,-0.208917,-0.6218815,0.143645,0.269193,-0.6275314999999999,-0.1709349999999999,0
170,0.129797,0.7062434999999999,-0.0662399999999999,-0.078066,0.4703535,-0.05018,-0.171087,0.2713235,0.02814,0.214947,0.4447135,0.01116,0.291317,0.2620635,0.06647,-0.223753,0.0923715,-0.0426499999999999,0.3777069999999999,0.1190435,-0.0461099999999999,-0.069627,0.0067034999999999,-0.0143099999999999,0.069627,-0.0067034999999999,0.0143099999999999,-0.169749,-0.3388565,0.05508,0.175587,-0.3335964999999999,-0.1093899999999999,-0.2225929999999999,-0.6159665000000001,0.15001,0.256387,-0.6278665,-0.1649899999999999,0
171,0.1421319999999999,0.7029875,-0.07893,-0.067848,0.4711475,-0.0591999999999999,-0.164488,0.2763075,0.02311,0.224192,0.4416675,-0.0033699999999999,0.310052,0.2611374999999999,0.0374499999999999,-0.221804,0.0931505,-0.04536,0.4007719999999999,0.1195575,-0.0825199999999999,-0.070152,0.0075195,-0.0134199999999999,0.0701519999999999,-0.0075195,0.0134199999999999,-0.173746,-0.3357725,0.0563,0.168632,-0.3344125,-0.1060499999999999,-0.233488,-0.6105925,0.15387,0.241732,-0.6286824999999999,-0.15742,0
172,0.154884,0.6997829999999999,-0.0921749999999999,-0.0576449999999999,0.4720729999999999,-0.0680949999999999,-0.1577879999999999,0.281533,0.018385,0.233144,0.438413,-0.0177849999999999,0.326774,0.2599329999999999,0.009335,-0.2196969999999999,0.095099,-0.0482949999999999,0.424434,0.120263,-0.1210649999999999,-0.0703839999999999,0.0087239999999999,-0.0129349999999999,0.070384,-0.0087239999999999,0.012935,-0.1766869999999999,-0.332717,0.056255,0.161264,-0.336067,-0.1028649999999999,-0.2426589999999999,-0.605737,0.155435,0.2251139999999999,-0.631277,-0.1475249999999999,0
173,0.168805,0.69555,-0.106525,-0.0464449999999999,0.47337,-0.077435,-0.150111,0.28714,0.0128149999999999,0.242505,0.43398,-0.033525,0.342295,0.25762,-0.0194449999999999,-0.218333,0.09827,-0.049295,0.443855,0.12131,-0.157085,-0.070975,0.010334,-0.011655,0.070975,-0.010334,0.0116549999999999,-0.17934,-0.33058,0.0559149999999999,0.1519049999999999,-0.3397199999999999,-0.0977649999999999,-0.2490629999999999,-0.60283,0.1555649999999999,0.2065149999999999,-0.6369400000000001,-0.135545,0
174,0.181535,0.690854,-0.1198549999999999,-0.035505,0.474624,-0.0865149999999999,-0.143059,0.292534,0.007725,0.250645,0.429004,-0.0480549999999999,0.355795,0.254914,-0.0465649999999999,-0.216907,0.102484,-0.0505349999999999,0.459625,0.122744,-0.1859149999999999,-0.071165,0.011963,-0.0108849999999999,0.0711649999999999,-0.011963,0.010885,-0.181015,-0.329316,0.054645,0.143465,-0.3437759999999999,-0.0931249999999999,-0.253356,-0.601246,0.154195,0.1891749999999999,-0.643396,-0.1241849999999999,0
175,0.192325,0.686761,-0.13121,-0.025955,0.475591,-0.09373,-0.1374179999999999,0.297911,0.0037199999999999,0.256345,0.424341,-0.06006,0.366695,0.252211,-0.06971,-0.216573,0.105951,-0.04916,0.469685,0.124421,-0.20801,-0.071495,0.01371,-0.00991,0.071495,-0.01371,0.0099099999999999,-0.1744119999999999,-0.327489,0.0498999999999999,0.136775,-0.347859,-0.0876,-0.250969,-0.598629,0.1500499999999999,0.174865,-0.647859,-0.11237,0
176,0.20324,0.6823305,-0.1421949999999999,-0.01696,0.4761305,-0.100075,-0.13187,0.3023805,0.000145,0.26158,0.4193605,-0.0718649999999999,0.3752999999999999,0.2493005,-0.0907549999999999,-0.216351,0.1082505,-0.045655,0.47963,0.1254205,-0.229155,-0.07174,0.0154174999999999,-0.0087549999999999,0.07174,-0.0154175,0.008755,-0.168323,-0.3267595,0.046025,0.1300499999999999,-0.3522895,-0.0816849999999999,-0.247184,-0.5978495,0.145605,0.1617499999999999,-0.6526195,-0.1011449999999999,0
177,0.211615,0.6784425000000001,-0.1505899999999999,-0.0096049999999999,0.4761025,-0.10476,-0.1278749999999999,0.3064325,-0.0019,0.2655949999999999,0.4150125,-0.0812399999999999,0.380365,0.2470925,-0.1057999999999999,-0.2154279999999999,0.1076525,-0.04457,0.483045,0.1278325,-0.23866,-0.0719549999999999,0.0164834999999999,-0.00739,0.0719549999999999,-0.0164834999999999,0.00739,-0.1623959999999999,-0.3265275,0.04248,0.124445,-0.3560875,-0.07683,-0.242028,-0.5972175,0.14065,0.151395,-0.6568274999999999,-0.0919199999999999,0
178,0.219675,0.6746110000000001,-0.1585949999999999,-0.002165,0.4759609999999999,-0.1088549999999999,-0.123575,0.3101009999999999,-0.0032549999999999,0.2694049999999999,0.411201,-0.0900149999999999,0.385275,0.245591,-0.120375,-0.21458,0.106901,-0.041215,0.486685,0.129151,-0.246965,-0.071935,0.017425,-0.0059049999999999,0.0719349999999999,-0.017425,0.005905,-0.156615,-0.325959,0.039035,0.118475,-0.358479,-0.071685,-0.237516,-0.5958589999999999,0.137715,0.1412749999999999,-0.660879,-0.082925,0
179,0.2265849999999999,0.67106,-0.16563,0.0047949999999999,0.4756999999999999,-0.11269,-0.119575,0.3131799999999999,-0.00483,0.2730049999999999,0.40807,-0.09793,0.3887349999999999,0.24737,-0.13017,-0.213389,0.10699,-0.03766,0.4878749999999999,0.12996,-0.2509100000000001,-0.071925,0.01822,-0.00427,0.0719249999999999,-0.01822,0.0042699999999999,-0.151445,-0.32526,0.0360999999999999,0.1120549999999999,-0.36106,-0.06649,-0.23348,-0.59412,0.1368399999999999,0.131235,-0.66467,-0.0741,0
180,0.2326249999999999,0.6677685,-0.17198,0.0101249999999999,0.4756685,-0.11552,-0.116285,0.3154885,-0.00571,0.275935,0.4054385,-0.10464,0.389065,0.2470585,-0.13533,-0.21275,0.1057885,-0.03434,0.488245,0.1308685,-0.25268,-0.071725,0.0188575,-0.00273,0.0717249999999999,-0.0188575,0.0027299999999999,-0.146635,-0.3243215,0.0334799999999999,0.105765,-0.3639415,-0.0615,-0.231476,-0.5918115,0.1367199999999999,0.1217849999999999,-0.6677115,-0.06598,0
181,0.2370599999999999,0.6648905,-0.17703,0.0145199999999999,0.4756605,-0.11779,-0.11386,0.3181405,-0.00625,0.27752,0.4031805,-0.10989,0.3899699999999999,0.2468405,-0.14006,-0.21035,0.1052305,-0.03344,0.48597,0.1319905,-0.25018,-0.07152,0.0193705,-0.00124,0.0715199999999999,-0.0193705,0.0012399999999999,-0.14217,-0.3236095,0.0314199999999999,0.0993699999999999,-0.3664195,-0.0565999999999999,-0.230232,-0.5885695,0.1378299999999999,0.1122399999999999,-0.6702995,-0.0581599999999999,0
182,0.23896,0.6629095,-0.17973,0.0165299999999999,0.4756395,-0.1188099999999999,-0.1131,0.3197695,-0.00618,0.27746,0.4015695,-0.1126,0.39007,0.2464895,-0.1418399999999999,-0.207409,0.1052495,-0.03335,0.48489,0.1322695,-0.24813,-0.07105,0.0195925,-0.0004399999999999,0.07105,-0.0195925,0.0004399999999999,-0.13713,-0.3227005,0.0289499999999999,0.0943699999999999,-0.3678905,-0.05337,-0.23039,-0.5842505,0.13938,0.1048199999999999,-0.6717405,-0.0526499999999999,0
183,0.2413149999999999,0.6610765,-0.182975,0.0179749999999999,0.4755865,-0.119595,-0.112455,0.3211265,-0.0061749999999999,0.277995,0.4001865,-0.1153149999999999,0.390355,0.2461765,-0.143035,-0.204495,0.1052865,-0.0352849999999999,0.4840249999999999,0.1319565,-0.245835,-0.070655,0.0198085,0.0003549999999999,0.0706549999999999,-0.0198085,-0.0003549999999999,-0.132305,-0.3221235,0.026895,0.0892549999999999,-0.3693835,-0.0501949999999999,-0.230256,-0.5803535,0.141325,0.0973849999999999,-0.6732235,-0.0472749999999999,0
184,0.2430149999999999,0.6596719999999999,-0.1856799999999999,0.019465,0.4756519999999999,-0.12058,-0.1117549999999999,0.3220719999999999,-0.0066599999999999,0.278675,0.399192,-0.11709,0.390105,0.245942,-0.14222,-0.2015449999999999,0.105302,-0.0377999999999999,0.483425,0.131722,-0.24326,-0.0702749999999999,0.01995,0.0009399999999999,0.070275,-0.01995,-0.0009399999999999,-0.1338749999999999,-0.322358,0.0282499999999999,0.084425,-0.370918,-0.0473799999999999,-0.2328059999999999,-0.5802080000000001,0.14517,0.090275,-0.674708,-0.0422799999999999,0
185,0.2441249999999999,0.6585610000000001,-0.1876949999999999,0.020795,0.4758409999999999,-0.1213649999999999,-0.1111549999999999,0.3227109999999999,-0.007355,0.279875,0.398721,-0.118085,0.389625,0.2452609999999999,-0.139735,-0.198645,0.105301,-0.0407049999999999,0.4825649999999999,0.131581,-0.239865,-0.069855,0.020047,0.001305,0.069855,-0.020047,-0.001305,-0.134875,-0.322499,0.029075,0.079995,-0.372439,-0.0448049999999999,-0.234653,-0.5795589999999999,0.1489349999999999,0.083585,-0.6761389999999999,-0.0375149999999999,0
186,0.2448749999999999,0.6579769999999999,-0.189275,0.0214949999999999,0.476077,-0.1217849999999999,-0.110965,0.322827,-0.007935,0.280975,0.398557,-0.118065,0.386895,0.244137,-0.134625,-0.196175,0.105157,-0.043825,0.478575,0.130737,-0.235015,-0.069455,0.02011,0.0014649999999999,0.0694549999999999,-0.02011,-0.0014649999999999,-0.135585,-0.322663,0.0296349999999999,0.0758149999999999,-0.373883,-0.0424049999999999,-0.236505,-0.579723,0.1522449999999999,0.0773749999999999,-0.677453,-0.0331549999999999,0
187,0.2446499999999999,0.6577569999999999,-0.1899199999999999,0.0205499999999999,0.476367,-0.12139,-0.11178,0.3227669999999999,-0.00819,0.2811899999999999,0.398337,-0.1166399999999999,0.3832099999999999,0.242217,-0.1305899999999999,-0.19459,0.104937,-0.0478399999999999,0.4730499999999999,0.128577,-0.23109,-0.06919,0.020148,0.00141,0.0691899999999999,-0.020148,-0.00141,-0.13621,-0.323133,0.0301899999999999,0.0727099999999999,-0.374823,-0.04059,-0.236825,-0.580783,0.1536199999999999,0.0725099999999999,-0.678233,-0.0296499999999999,0
188,0.24544,0.6573255,-0.19191,0.02088,0.4771455,-0.12206,-0.11255,0.3241555,-0.0098599999999999,0.28018,0.3956655,-0.11723,0.3890099999999999,0.2427055,-0.13902,-0.18997,0.1045055,-0.0603099999999999,0.4829099999999999,0.1290155,-0.23746,-0.06878,0.0199185,0.0013799999999999,0.06878,-0.0199185,-0.0013799999999999,-0.13326,-0.3212445,0.02888,0.0684699999999999,-0.3749645,-0.03949,-0.23979,-0.5673545,0.15892,0.0664,-0.6783144999999999,-0.0262499999999999,0
189,0.245,0.6562105,-0.19184,0.02155,0.4776704999999999,-0.12256,-0.1125099999999999,0.3232905,-0.01243,0.28453,0.3965005,-0.11586,0.38867,0.2384905,-0.13402,-0.19149,0.1038605,-0.0612099999999999,0.48225,0.1248905,-0.23285,-0.0684199999999999,0.0198965,0.0009899999999999,0.06842,-0.0198964999999999,-0.00099,-0.1359,-0.3221795,0.0301199999999999,0.06671,-0.3766995,-0.03732,-0.2380699999999999,-0.5702195,0.1599799999999999,0.06243,-0.6798694999999999,-0.02224,0
190,0.2434949999999999,0.65589,-0.190725,0.019905,0.47787,-0.121565,-0.113765,0.3227,-0.0118749999999999,0.2849449999999999,0.39692,-0.1137949999999999,0.386835,0.2358,-0.129145,-0.192935,0.1035,-0.061545,0.479575,0.12072,-0.227005,-0.068415,0.019793,0.0005449999999999,0.068415,-0.019793,-0.000545,-0.137635,-0.32408,0.0314749999999999,0.0656649999999999,-0.37783,-0.0356849999999999,-0.238585,-0.57354,0.1597549999999999,0.0600549999999999,-0.68094,-0.020185,0
191,0.24209,0.655458,-0.1896449999999999,0.01869,0.478228,-0.1205049999999999,-0.1145299999999999,0.322248,-0.011275,0.2832800000000001,0.397098,-0.112205,0.3838100000000001,0.231708,-0.122345,-0.1939499999999999,0.103098,-0.060775,0.47546,0.117348,-0.2222549999999999,-0.0686399999999999,0.0198,0.000325,0.06864,-0.0197999999999999,-0.000325,-0.1386299999999999,-0.3253919999999999,0.0321049999999999,0.06519,-0.378892,-0.0346349999999999,-0.2313699999999999,-0.588192,0.141025,0.05893,-0.6819820000000001,-0.0190949999999999,0
192,0.24148,0.656082,-0.188665,0.0183499999999999,0.4788519999999999,-0.1196849999999999,-0.11438,0.322012,-0.0109149999999999,0.2823599999999999,0.397852,-0.1104249999999999,0.3795999999999999,0.225692,-0.113555,-0.19465,0.1030119999999999,-0.0595849999999999,0.4675199999999999,0.108482,-0.2137349999999999,-0.06854,0.019868,-8.500000000000174e-05,0.0685399999999999,-0.0198679999999999,8.500000000000174e-05,-0.1384,-0.326518,0.0321549999999999,0.0650999999999999,-0.379548,-0.033585,-0.23176,-0.584558,0.150115,0.0578699999999999,-0.682558,-0.017365,0
193,0.2376799999999999,0.6581245,-0.1862499999999999,0.0145,0.4797045,-0.1168799999999999,-0.11582,0.3202744999999999,-0.0087099999999999,0.28323,0.4020545,-0.10475,0.35674,0.1887945,-0.0740299999999999,-0.1959,0.1008545,-0.0554599999999999,0.43846,0.0913845,-0.1994699999999999,-0.0688099999999999,0.0195195,-0.0003299999999999,0.0688099999999999,-0.0195195,0.00033,-0.14019,-0.3321355,0.03292,0.06584,-0.3799155,-0.03193,-0.2243699999999999,-0.5985155,0.14015,0.05764,-0.6827255,-0.0139199999999999,0
194,0.2371249999999999,0.6592509999999999,-0.18476,0.0136449999999999,0.479791,-0.11557,-0.115215,0.319321,-0.00718,0.284515,0.403601,-0.10143,0.348635,0.177311,-0.07617,-0.195435,0.099681,-0.05225,0.425175,0.060588,-0.19711,-0.0686249999999999,0.019457,-0.00052,0.0686249999999999,-0.019457,0.0005199999999999,-0.141485,-0.333659,0.0327999999999999,0.0663449999999999,-0.3790489999999999,-0.0317399999999999,-0.223415,-0.6033390000000001,0.1342399999999999,0.0565149999999999,-0.681729,-0.01274,0
