sb224sc-HT22-VT27/4dt907/src/data/labeled_files/A22_kinect_mirrored.csv
FrameNo,nose_3d_x,nose_3d_y,nose_3d_z,left_shoulder_3d_x,left_shoulder_3d_y,left_shoulder_3d_z,left_elbow_3d_x,left_elbow_3d_y,left_elbow_3d_z,right_shoulder_3d_x,right_shoulder_3d_y,right_shoulder_3d_z,right_elbow_3d_x,right_elbow_3d_y,right_elbow_3d_z,left_wrist_3d_x,left_wrist_3d_y,left_wrist_3d_z,right_wrist_3d_x,right_wrist_3d_y,right_wrist_3d_z,left_hip_3d_x,left_hip_3d_y,left_hip_3d_z,right_hip_3d_x,right_hip_3d_y,right_hip_3d_z,left_knee_3d_x,left_knee_3d_y,left_knee_3d_z,right_knee_3d_x,right_knee_3d_y,right_knee_3d_z,left_ankle_3d_x,left_ankle_3d_y,left_ankle_3d_z,right_ankle_3d_x,right_ankle_3d_y,right_ankle_3d_z,activity_label
0,0.991213,0.756427,0.0486375,0.8385190000000001,0.458917,0.0624165,0.817849,0.206617,0.0767515,1.161789,0.456607,0.0446745,1.1778989999999998,0.210727,0.0521245,0.803289,0.005367,-0.0011465,1.1969489999999998,0.0067659999999999,-0.0158034999999999,0.92727,-0.0015409999999999,-0.0005415,1.07273,0.0015409999999999,0.0005415,0.889409,-0.422683,0.0040945,1.126599,-0.383223,-0.0222915,0.882849,-0.743883,-0.0354405,1.127829,-0.732793,-0.0305755,0
1,0.991288,0.7562645,0.048236,0.837498,0.4587245,0.0654889999999999,0.818368,0.2067244999999999,0.077001,1.161668,0.4565545,0.048,1.177988,0.2104744999999999,0.051595,0.804628,0.0055045,-0.00116,1.196898,0.0067414999999999,-0.019762,0.927311,-0.0015495,-0.0006169999999999,1.072689,0.0015494999999999,0.0006169999999999,0.889398,-0.4234354999999999,0.003903,1.126678,-0.3839255,-0.022786,0.883378,-0.7440455,-0.035789,1.127598,-0.7327355,-0.030875,0
2,0.9914985,0.756289,0.0480204999999999,0.8375275,0.458839,0.0646365,0.8185575,0.206139,0.0770965,1.1619775,0.456439,0.0466725,1.1782275,0.210439,0.0512674999999999,0.8049075,0.005128,-0.0016585,1.1971775,0.007037,-0.0185875,0.9273145,-0.0015589999999999,-0.0004525,1.0726855,0.001559,0.0004524999999999,0.8894075,-0.423481,0.0037644999999999,1.1268775,-0.383961,-0.0231435,0.8831275000000001,-0.743461,-0.0363565,1.1278275,-0.733171,-0.0313225,0
3,0.991513,0.756337,0.047819,0.837496,0.458947,0.0641279999999999,0.818516,0.206057,0.077309,1.161996,0.456507,0.045658,1.178286,0.210667,0.051355,0.8050660000000001,0.005109,-0.0016489999999999,1.197576,0.00705,-0.017632,0.927276,-0.0015869999999999,-0.000292,1.072724,0.001587,0.000292,0.889346,-0.422943,0.0039049999999999,1.126726,-0.381023,-0.023589,0.883276,-0.743273,-0.036528,1.127876,-0.7332529999999999,-0.031554,0
4,0.991562,0.7562695,0.0477915,0.838651,0.4587394999999999,0.0661215,0.818551,0.2057495,0.0776274999999999,1.161991,0.4565194999999999,0.0449124999999999,1.178331,0.2106495,0.0511864999999999,0.805321,0.0048715,-0.0015835,1.197851,0.0067095,-0.0166125,0.927289,-0.0015435,-0.0002665,1.072711,0.0015435,0.0002664999999999,0.889231,-0.4232405,0.0039474999999999,1.126791,-0.3829005,-0.0236585,0.882231,-0.7411505,-0.0368165,1.128161,-0.7306605,-0.0325725,0
5,0.9918435,0.7562025,0.047725,0.8384465,0.4579025,0.068192,0.8191865,0.2058525,0.077946,1.1620865,0.4562325,0.048496,1.1786665,0.2104925,0.050899,0.8057865000000001,0.0051245,-0.0016379999999999,1.1969865,0.0062994999999999,-0.0164309999999999,0.9272375,-0.0015094999999999,-0.0002049999999999,1.0727625,0.0015095,0.000205,0.8894065,-0.4236175,0.003857,1.1270765,-0.3836675,-0.0236979999999999,0.8825665,-0.7403375000000001,-0.0360019999999999,1.1285765,-0.7311375,-0.032747,0
6,0.9918695,0.756102,0.047611,0.8402485,0.457902,0.068492,0.8191685,0.205982,0.0778669999999999,1.1631485,0.455972,0.053315,1.1787785,0.210462,0.0506169999999999,0.8060485,0.005224,-0.001691,1.1988685,0.00581,-0.014425,0.9272615,-0.0014949999999999,-0.00021,1.0727385,0.001495,0.0002099999999999,0.8894285000000001,-0.423578,0.0035399999999999,1.1269985,-0.381298,-0.024579,0.8825485,-0.741228,-0.037446,1.1288185,-0.731248,-0.032815,0
7,0.991905,0.7558085,0.0488129999999999,0.839701,0.4587485,0.064987,0.814821,0.2108884999999999,0.070301,1.162851,0.4573685,0.051529,1.181911,0.2142385,0.045486,0.799231,0.0112575,-0.011479,1.205411,0.0133125,-0.0299,0.927194,-0.0015374999999999,-0.000349,1.072806,0.0015375,0.000349,0.889271,-0.4235315,0.003189,1.127091,-0.3821915,-0.0247399999999999,0.882561,-0.7431815,-0.038245,1.127921,-0.7314515,-0.0329939999999999,0
8,0.9919975,0.755581,0.0494965,0.8400725,0.458951,0.0645945,0.8109925,0.215801,0.0651195,1.1628425,0.457701,0.0526345,1.1858425,0.218251,0.0399525,0.7931625,0.018844,-0.0215625,1.2123425,0.0206869999999999,-0.0415475,0.9271335,-0.001548,-0.0003804999999999,1.0728665,0.001548,0.0003804999999999,0.8893225,-0.423349,0.0029775,1.1271325,-0.381779,-0.0249915,0.8826025,-0.743349,-0.0385105,1.1276425,-0.731009,-0.0331565,0
9,0.9920955,0.75522,0.050376,0.8409584999999999,0.45897,0.064077,0.8053085,0.22175,0.05713,1.1627985,0.45797,0.053702,1.1922685,0.2247499999999999,0.0311089999999999,0.7838985,0.029803,-0.037099,1.2217985,0.031588,-0.057594,0.9270765,-0.001547,-0.000418,1.0729235,0.001547,0.0004179999999999,0.8893685,-0.42329,0.0028379999999999,1.1271785,-0.38146,-0.025175,0.8826485,-0.74374,-0.038814,1.1274185,-0.72936,-0.032186,0
10,0.9921815,0.7548400000000001,0.051426,0.8421915,0.45925,0.063255,0.7963015000000001,0.23168,0.044824,1.1622815,0.4588,0.054165,1.2021015,0.23718,0.016902,0.7699615000000001,0.0537249999999999,-0.062697,1.2376315,0.052001,-0.0816609999999999,0.9270335,-0.001547,-0.0005599999999999,1.0729665,0.001547,0.00056,0.8893915,-0.4232,0.002552,1.1272115,-0.38075,-0.0251529999999999,0.8827815,-0.74451,-0.0391189999999999,1.1270215,-0.7274299999999999,-0.0310989999999999,0
11,0.9922575,0.7544955,0.0526429999999999,0.8431595000000001,0.4598355,0.062282,0.7824995000000001,0.2512255,0.027578,1.1615295,0.4598155,0.054081,1.2163495,0.2573155,0.001114,0.7513295,0.0910065,-0.094308,1.2562495,0.0895915,-0.112698,0.9269605,-0.0015425,-0.000779,1.0730395,0.0015425,0.0007789999999999,0.8894895,-0.4230744999999999,0.0022159999999999,1.1272395,-0.3803244999999999,-0.025173,0.8829095,-0.7452145,-0.039493,1.1265795,-0.7251045,-0.030074,0
12,0.9923515,0.753972,0.054082,0.8438755,0.460952,0.060825,0.7681255,0.278492,0.010075,1.1607855,0.461272,0.0535039999999999,1.2309555,0.285072,-0.014368,0.7311955,0.144682,-0.123731,1.2782255,0.142512,-0.144001,0.9268405,-0.0015739999999999,-0.001131,1.0731595,0.0015739999999999,0.001131,0.8896255,-0.4230379999999999,0.001576,1.1272055,-0.379098,-0.025308,0.8830955,-0.746338,-0.0401519999999999,1.1259955,-0.724368,-0.029832,0
13,0.9924355,0.753227,0.0555205,0.8443465,0.462657,0.0591695,0.7535765,0.308817,-0.0067515,1.1603665,0.462897,0.0525965,1.2456565,0.318067,-0.0294354999999999,0.7110965,0.206007,-0.1524665,1.3005165,0.202917,-0.1734465,0.9267205,-0.0015979999999999,-0.0014454999999999,1.0732795,0.001598,0.0014455,0.8897765,-0.423133,0.0009364999999999,1.1271365,-0.3781629999999999,-0.0255014999999999,0.8832465,-0.747533,-0.0408525,1.1253465,-0.723133,-0.0291675,0
14,0.992549,0.7524959999999999,0.056694,0.8446140000000001,0.464756,0.057349,0.739154,0.343756,-0.0233449999999999,1.159954,0.464606,0.051442,1.260984,0.352506,-0.0444959999999999,0.692634,0.274646,-0.178422,1.322204,0.270706,-0.2009119999999999,0.926591,-0.001608,-0.0017249999999999,1.073409,0.001608,0.001725,0.889964,-0.423454,0.000279,1.1270939999999998,-0.377684,-0.025673,0.883504,-0.7486740000000001,-0.040909,1.124874,-0.7219140000000001,-0.028487,0
15,0.992667,0.7516214999999999,0.0577175,0.844778,0.4669715,0.0555535,0.726178,0.3814015,-0.0358215,1.159548,0.4666315,0.0501145,1.274448,0.3899714999999999,-0.0564085,0.675798,0.3467215,-0.1983425,1.340108,0.3430515,-0.2200125,0.926456,-0.0016115,-0.0019004999999999,1.073544,0.0016114999999999,0.0019005,0.890218,-0.4235585,-0.0004624999999999,1.127048,-0.3771685,-0.0259415,0.883818,-0.7496685,-0.0408724999999999,1.124488,-0.7205485,-0.0277805,0
16,0.9927775,0.7504125,0.058581,0.8448884999999999,0.4695225,0.054147,0.7150785,0.4190725,-0.0460659999999999,1.1593085,0.4691425,0.048431,1.2864885,0.4289425,-0.066213,0.6633184999999999,0.4216625,-0.211156,1.3556885,0.4182825,-0.233546,0.9263195,-0.0016045,-0.001981,1.0736805,0.0016045,0.001981,0.8904885,-0.4239575,-0.0012379999999999,1.1270185,-0.3770175,-0.026159,0.8840885,-0.7509675,-0.041089,1.1240884999999998,-0.7196775,-0.027007,0
17,0.9928325,0.7485615,0.05918,0.8446465000000001,0.4720915,0.052933,0.7067965,0.4574515,-0.054117,1.1590465,0.4713015,0.046619,1.2958965,0.4694014999999999,-0.072242,0.6536465,0.4970715,-0.218101,1.3675065,0.4959915,-0.240711,0.9262265,-0.0016294999999999,-0.001964,1.0737735,0.0016294999999999,0.001964,0.8907565,-0.4249985,-0.0019139999999999,1.1269064999999998,-0.3774885,-0.0263149999999999,0.8842365,-0.7527785,-0.0413259999999999,1.1236765,-0.7194485,-0.0263619999999999,0
18,0.992899,0.7460494999999999,0.0593584999999999,0.844363,0.4751695,0.0519095,0.700753,0.4992494999999999,-0.0588455,1.158633,0.4736295,0.0453895,1.301953,0.5107594999999999,-0.0746525,0.6476930000000001,0.5770595,-0.2188125,1.376123,0.5769894999999999,-0.2421225,0.926201,-0.0016935,-0.0018745,1.073799,0.0016934999999999,0.0018745,0.890853,-0.4269705,-0.0025824999999999,1.126663,-0.3789805,-0.0264675,0.884273,-0.7553205000000001,-0.0414795,1.123193,-0.7213105000000001,-0.0264855,0
19,0.9930565,0.7434225,0.0590065,0.8450265,0.4777325,0.0515324999999999,0.7005965000000001,0.5390325,-0.0591825,1.1577164999999998,0.4760625,0.0450895,1.3027265,0.5473625,-0.0750345,0.6475365,0.6459625,-0.2191495,1.3759665,0.6502125,-0.2424595,0.9262985,-0.0017714999999999,-0.0015685,1.0737015,0.0017714999999999,0.0015685,0.8909365,-0.4292674999999999,-0.0028304999999999,1.1265065,-0.3816575,-0.0267244999999999,0.8841765,-0.7582575,-0.0417525,1.1230465,-0.7239875,-0.0264585,0
20,0.9932555,0.7404555,0.058844,0.8458985,0.4800755,0.0512529999999999,0.7004985,0.5725655,-0.059331,1.1568385,0.4786255,0.044472,1.3026285,0.5775755,-0.075183,0.6474385,0.7034355,-0.219298,1.3758685,0.7082455,-0.242608,0.9263965,-0.0018555,-0.00142,1.0736035,0.0018554999999999,0.0014199999999999,0.8908385,-0.4318745,-0.002918,1.1264085,-0.3838545,-0.026855,0.8840885,-0.7612545000000001,-0.04166,1.1228285,-0.7266945,-0.026174,0
21,0.99341,0.7376155,0.0588125,0.846495,0.4823455,0.0511155,0.700395,0.5992455,-0.0593495,1.1559849999999998,0.4811555,0.0437245,1.302525,0.6057555,-0.0752015,0.647405,0.7463255,-0.2178765,1.375815,0.7546155,-0.2414965,0.9265,-0.0019234999999999,-0.0014015,1.0735,0.0019234999999999,0.0014015,0.890735,-0.4343145,-0.0029234999999999,1.126295,-0.3858945,-0.0268735,0.883995,-0.7640945,-0.0415465,1.122585,-0.7291245,-0.0257655,0
22,0.9936125,0.7349815,0.0585365,0.8463845,0.4846614999999999,0.0512674999999999,0.7008245,0.6277715,-0.0537615,1.1554945,0.4844615,0.0428265,1.3027245,0.6324615,-0.0687295,0.6488245,0.7884915,-0.1975005,1.3746145,0.7981415,-0.2237705,0.9266205,-0.0020075,-0.0014075,1.0733795,0.0020074999999999,0.0014074999999999,0.8906145,-0.4374985,-0.0029175,1.1259745,-0.3893785,-0.0268435,0.8838445,-0.7673885,-0.0415415,1.1225845,-0.7329285,-0.0261455,0
23,0.993977,0.7325985,0.0575549999999999,0.84636,0.4866184999999999,0.051562,0.70614,0.6510785,-0.0432069999999999,1.15521,0.4879485,0.0422609999999999,1.29901,0.6579085,-0.06019,0.65534,0.8239685,-0.1698069999999999,1.37012,0.8346685,-0.197797,0.92676,-0.0020475,-0.001224,1.07324,0.0020475,0.0012239999999999,0.89051,-0.4406615,-0.002723,1.12551,-0.3939114999999999,-0.026618,0.88346,-0.7709615,-0.041333,1.12255,-0.7375715,-0.026024,0
24,0.994398,0.7300945000000001,0.0561645,0.846488,0.4883445,0.0521045,0.712288,0.6707845,-0.0322085,1.155058,0.4911445,0.0420025,1.294778,0.6795145,-0.0516685,0.663378,0.8552945000000001,-0.1436855,1.361988,0.8649845,-0.1710155,0.926966,-0.0021025,-0.0007624999999999,1.073034,0.0021025,0.0007624999999999,0.890378,-0.4438355,-0.0022825,1.125078,-0.3984655,-0.0263034999999999,0.883058,-0.7747255,-0.0408314999999999,1.122468,-0.7422455,-0.0253194999999999,0
25,0.9948935,0.7278800000000001,0.0546775,0.8468135,0.48926,0.0527975,0.7187935,0.6891400000000001,-0.0211994999999999,1.1550735,0.49389,0.0420835,1.2901135,0.6983600000000001,-0.0426985,0.6714135,0.8808199999999999,-0.1170385,1.3530635,0.89012,-0.1448384999999999,0.9271465,-0.002145,-0.0003314999999999,1.0728535,0.002145,0.0003315,0.8902435,-0.44688,-0.0017234999999999,1.1246735,-0.403,-0.0258084999999999,0.8827935,-0.77841,-0.0399804999999999,1.1224035,-0.74688,-0.0242685,0
26,0.9954245,0.7260595,0.0531985,0.8473585000000001,0.4897095,0.0535315,0.7251985000000001,0.7048995,-0.0102164999999999,1.1550885,0.4966895,0.0424275,1.2846485,0.7135294999999999,-0.0332914999999999,0.6787885,0.9027195,-0.0925624999999999,1.3442585,0.9096395,-0.1196425,0.9273195,-0.0021595,6.550000000000306e-05,1.0726805,0.0021595,-6.549999999999959e-05,0.8901285,-0.4495004999999999,-0.0011164999999999,1.1242885,-0.4071605,-0.0252495,0.8825085,-0.7817605000000001,-0.0397864999999999,1.1223385,-0.7514205,-0.0234715,0
27,0.996024,0.7251615,0.0516095,0.848055,0.4894815,0.0543715,0.7316549999999999,0.7156115000000001,-0.0006884999999999,1.154925,0.4991615,0.0431585,1.279905,0.7251415,-0.0252154999999999,0.684775,0.9167015,-0.0715235,1.337255,0.9225615,-0.0989755,0.927454,-0.0021384999999999,0.0003635,1.072546,0.0021385,-0.0003634999999999,0.890035,-0.4514384999999999,-0.0004114999999999,1.123945,-0.4104584999999999,-0.0245815,0.882295,-0.7844085,-0.0394154999999999,1.122385,-0.7548585,-0.0225635,0
28,0.9966565,0.7243689999999999,0.0505775,0.8489635,0.489249,0.0552415,0.7377435,0.724139,0.0084044999999999,1.1543535,0.501069,0.0439665,1.2752835,0.7355889999999999,-0.0175705,0.6896635,0.929349,-0.0530495,1.3304935,0.934059,-0.0798825,0.9275845,-0.002106,0.0005574999999999,1.0724155,0.0021059999999999,-0.0005575,0.8899235,-0.453021,0.0001864999999999,1.1235535,-0.4125209999999999,-0.0240855,0.8820135,-0.786471,-0.0393025,1.1224234999999998,-0.7569410000000001,-0.0214995,0
29,0.9973165,0.72391,0.0496114999999999,0.8499975000000001,0.48893,0.0560485,0.7422275,0.7291300000000001,0.0168504999999999,1.1536575,0.50302,0.0446595,1.2712575,0.74472,-0.0111305,0.6936875,0.94012,-0.0367835,1.3245375,0.9437,-0.0629585,0.9277005,-0.0020599999999999,0.0006324999999999,1.0722995,0.0020599999999999,-0.0006325,0.8897875,-0.45427,0.0006664999999999,1.1231475,-0.41442,-0.0237105,0.8817675,-0.78817,-0.0389625,1.1222875,-0.7590300000000001,-0.0205285,0
30,0.997967,0.7236355000000001,0.0489145,0.8511200000000001,0.4883355,0.0568305,0.74632,0.7333654999999999,0.0247835,1.15289,0.5047655,0.0452655,1.2679399999999998,0.7484554999999999,-0.0048444999999999,0.69695,0.9493455,-0.0227504999999999,1.31897,0.9499755,-0.0479474999999999,0.927816,-0.0020114999999999,0.0006455,1.072184,0.0020114999999999,-0.0006455,0.88968,-0.4553445,0.0010625,1.12276,-0.4164445,-0.0234275,0.88165,-0.7896844999999999,-0.0384485,1.12215,-0.7614345,-0.0198895,0
31,0.9986235,0.7234729999999999,0.0488485,0.8514655000000001,0.4879329999999999,0.0573535,0.7475655,0.7329629999999999,0.0277465,1.1527555,0.505583,0.0457864999999999,1.2661955,0.748423,-0.0009914999999999,0.6978854999999999,0.951663,-0.0171205,1.3168655,0.951753,-0.0418775,0.9278535,-0.001973,0.0005725,1.0721465,0.0019729999999999,-0.0005725,0.8894455,-0.455497,0.0010334999999999,1.1224055,-0.417597,-0.0233174999999999,0.8814755000000001,-0.790567,-0.0383495,1.1219555,-0.762787,-0.0197155,0
32,0.999099,0.7235929999999999,0.0488255,0.851548,0.4879329999999999,0.0577054999999999,0.748658,0.7329629999999999,0.0306395,1.152588,0.505833,0.0465934999999999,1.264778,0.748423,0.0023415,0.6983280000000001,0.952683,-0.0128255,1.315118,0.952443,-0.0372175,0.927879,-0.001973,0.0005714999999999,1.072121,0.0019729999999999,-0.0005714999999999,0.8893280000000001,-0.4554169999999999,0.0008365,1.122218,-0.418377,-0.0234034999999999,0.881358,-0.791277,-0.0386065,1.121718,-0.763637,-0.0198285,0
33,0.9995665,0.723734,0.048803,0.8516365000000001,0.4879239999999999,0.058026,0.7494965,0.732954,0.033307,1.1524465,0.506154,0.047498,1.2634765,0.748414,0.005391,0.6985764999999999,0.953314,-0.0091359999999999,1.3135365,0.952864,-0.033175,0.9279005,-0.001964,0.00057,1.0720995,0.001964,-0.00057,0.8892065000000001,-0.455326,0.000649,1.1220165,-0.418966,-0.023481,0.8814165,-0.792136,-0.038886,1.1217965,-0.764496,-0.020259,0
34,0.9999925,0.723904,0.0487815,0.8517295,0.487164,0.0581505,0.7499195000000001,0.732624,0.0355135,1.1523695,0.506444,0.0484685,1.2624695,0.748414,0.0078475,0.6987995,0.953444,-0.0063574999999999,1.3121995,0.953164,-0.0301494999999999,0.9278955,-0.001964,0.0005705,1.0721045,0.001964,-0.0005704999999999,0.8890995,-0.455206,0.0004885,1.1218395,-0.418966,-0.0235775,0.8814895000000001,-0.792686,-0.0389954999999999,1.1218695,-0.764586,-0.0204055,0
35,1.0004965,0.7238925,0.049086,0.8517395,0.4859524999999999,0.058528,0.7503295000000001,0.7323725000000001,0.0376979999999999,1.1523295,0.5072924999999999,0.049171,1.2611595,0.7474025,0.0104499999999999,0.6989995,0.9544225,-0.003888,1.3107995,0.9541925,-0.027719,0.9278885,-0.0019734999999999,0.0005109999999999,1.0721115,0.0019735,-0.000511,0.8890095,-0.4550675,0.0001539999999999,1.1216695,-0.4192675,-0.023842,0.8816895,-0.7933675,-0.0395369999999999,1.1218795,-0.7652275,-0.021209,0
36,1.0010425,0.7239835,0.0494465,0.8517525,0.4848535,0.0585915,0.7505725,0.7320635,0.0394645,1.1522425,0.5080435,0.0499094999999999,1.2598525,0.7468735,0.0124485,0.6991425,0.9555635,-0.0017985,1.3094225,0.9553435,-0.0261545,0.9278785,-0.0019775,0.0004655,1.0721215,0.0019775,-0.0004655,0.8889825000000001,-0.4548565,-0.0005935,1.1214925,-0.4197765,-0.0246324999999999,0.8821125,-0.7942065,-0.0406235,1.1219725,-0.7669064999999999,-0.0224845,0
37,1.001555,0.724077,0.0498765,0.851911,0.485487,0.0583495,0.7508710000000001,0.730507,0.0409195,1.1522009999999998,0.508637,0.0504225,1.258671,0.745817,0.0140175,0.699201,0.956697,-0.0001244999999999,1.308171,0.956547,-0.0250224999999999,0.92787,-0.0019399999999999,0.0004115,1.07213,0.00194,-0.0004114999999999,0.888941,-0.4546329999999999,-0.0015984999999999,1.121291,-0.4200429999999999,-0.0256445,0.882541,-0.7948930000000001,-0.0416985,1.121971,-0.768153,-0.0236545,0
38,1.001826,0.7241879999999999,0.0501775,0.852016,0.486148,0.0580145,0.751196,0.729108,0.0421804999999999,1.152206,0.509378,0.0508025,1.257536,0.745838,0.0144825,0.699176,0.956978,0.0013144999999999,1.307056,0.957528,-0.0247205,0.927862,-0.001941,0.0003884999999999,1.072138,0.0019409999999999,-0.0003884999999999,0.8891360000000001,-0.454822,-0.0028504999999999,1.121306,-0.420682,-0.0269004999999999,0.883016,-0.795872,-0.0430305,1.122136,-0.770002,-0.0255045,1
39,1.0021235,0.7243379999999999,0.0504375,0.8521315,0.486888,0.0577175,0.7515315,0.7278479999999999,0.0433215,1.1522615,0.510228,0.0510565,1.2564915,0.7447579999999999,0.0146665,0.6990715000000001,0.957028,0.0026475,1.3059815,0.958008,-0.0250325,0.9278545,-0.0019249999999999,0.0003735,1.0721455,0.001925,-0.0003734999999999,0.8893415000000001,-0.4550119999999999,-0.0044054999999999,1.1213515,-0.421572,-0.0283594999999999,0.8835215,-0.7967920000000001,-0.0445865,1.1223515,-0.771772,-0.0279294999999999,1
40,1.0024965,0.7243525,0.049833,0.8523695,0.4869625,0.057886,0.7516495,0.7273825,0.043514,1.1523195,0.5103025000000001,0.050683,1.2553195,0.7434225000000001,0.013857,0.6988795,0.9568125,0.002918,1.3049295,0.9579325,-0.026295,0.9278555,-0.0019115,0.0003949999999999,1.0721445,0.0019114999999999,-0.0003949999999999,0.8896495,-0.4550775,-0.006391,1.1215895,-0.4226775,-0.030194,0.8839995,-0.7972174999999999,-0.0466039999999999,1.1227495,-0.7742074999999999,-0.031027,1
41,1.0025605,0.724384,0.0486734999999999,0.8524965000000001,0.487464,0.0578145,0.7509465000000001,0.727024,0.0432285,1.1519565,0.5103840000000001,0.0495675,1.2536965,0.742484,0.0123514999999999,0.6975765,0.956604,0.0025854999999999,1.3028365,0.957884,-0.0279945,0.9278325,-0.0018919999999999,0.0003894999999999,1.0721675,0.001892,-0.0003895,0.8899065,-0.455116,-0.0093615,1.1218265,-0.4240359999999999,-0.0326295,0.8853965,-0.797856,-0.0491515,1.1235564999999998,-0.776646,-0.0344645,1
42,1.002581,0.724224,0.047211,0.852621,0.4880339999999999,0.057657,0.750051,0.727004,0.042712,1.151541,0.510694,0.048351,1.251671,0.741754,0.010437,0.6960109999999999,0.956674,0.001817,1.300521,0.957834,-0.029894,0.927875,-0.001891,0.0003769999999999,1.072125,0.0018909999999999,-0.0003769999999999,0.8900510000000001,-0.454906,-0.012712,1.122041,-0.425686,-0.0353119999999999,0.886841,-0.798156,-0.0517539999999999,1.124511,-0.7793059999999999,-0.038231,1
43,1.0024695,0.724236,0.0454735,0.8527135,0.489356,0.0572555,0.7488135,0.7267060000000001,0.0418565,1.1511135,0.511486,0.0469255,1.2494935,0.740626,0.0082935,0.6940835000000001,0.956546,0.0005695,1.2981634999999998,0.957846,-0.0324944999999999,0.9279195,-0.001866,0.0003685,1.0720805,0.0018659999999999,-0.0003684999999999,0.8902035000000001,-0.454894,-0.0164245,1.1222635,-0.4279739999999999,-0.0382825,0.8884335,-0.7988839999999999,-0.0545625,1.1255135,-0.782234,-0.0425605,1
44,1.0021485,0.7242864999999999,0.0433815,0.8526994999999999,0.4895165,0.0562885,0.7473995,0.7264465,0.0405574999999999,1.1505595,0.5119865,0.0453685,1.2476795,0.7395465,0.0059615,0.6918195,0.9562365,-0.0012735,1.2956695,0.9578965,-0.0356855,0.9279335,-0.0018614999999999,0.0003695,1.0720665,0.0018615,-0.0003695,0.8902395,-0.4549134999999999,-0.0204395,1.1224095,-0.4304535,-0.0415055,0.8898595,-0.7997135000000001,-0.0575834999999999,1.1264095,-0.7848535,-0.0465765,1
45,1.0015025,0.724339,0.0407094999999999,0.8525045,0.489459,0.0547745,0.7455545,0.725999,0.0383805,1.1499945,0.512039,0.0431285,1.2459945,0.738689,0.0031815,0.6891845000000001,0.955159,-0.0038624999999999,1.2929345,0.957949,-0.0398695,0.9278765,-0.0018519999999999,0.0003995,1.0721235,0.0018519999999999,-0.0003995,0.8901345,-0.455181,-0.0249525,1.1224145,-0.432081,-0.0452475,0.8909145,-0.800401,-0.0607625,1.1270745,-0.786661,-0.0510585,1
46,1.0006765,0.7239184999999999,0.037857,0.8521675,0.4894285,0.052826,0.7434875000000001,0.7251084999999999,0.035788,1.1492975,0.5120785,0.040501,1.2443475,0.7378585,7.500000000000041e-05,0.6862975,0.9535785,-0.0066149999999999,1.2900775,0.9577785,-0.044677,0.9277595,-0.0018244999999999,0.0005279999999999,1.0722405,0.0018244999999999,-0.0005279999999999,0.8898975000000001,-0.4553715,-0.0298529999999999,1.1223375,-0.4333015,-0.049325,0.8918175,-0.8011815,-0.064039,1.1277375,-0.7883915,-0.056015,1
47,0.999709,0.7232915,0.034813,0.851647,0.4895914999999999,0.051255,0.7412270000000001,0.7241814999999999,0.032938,1.148507,0.5122915,0.037707,1.242617,0.7371215,-0.00404,0.683207,0.9486015,-0.009545,1.287077,0.9576115,-0.050171,0.927657,-0.0018125,0.000678,1.0723429999999998,0.0018125,-0.0006779999999999,0.889597,-0.4552485,-0.035191,1.122287,-0.4335885,-0.053717,0.892787,-0.8017685,-0.067513,1.128357,-0.7899085,-0.061172,1
48,0.9986555,0.722327,0.031549,0.8511575,0.489987,0.049585,0.7388775000000001,0.723427,0.029777,1.1476275,0.5121570000000001,0.034809,1.2408475,0.7362070000000001,-0.008609,0.6801075,0.943707,-0.01273,1.2840675,0.957527,-0.0562349999999999,0.9275665,-0.001833,0.000853,1.0724335,0.001833,-0.000853,0.8892575,-0.454933,-0.0407789999999999,1.1223375,-0.433613,-0.058863,0.8936575000000001,-0.802133,-0.071424,1.1290375,-0.7911929999999999,-0.06659,1
49,0.997292,0.7207210000000001,0.0280585,0.850571,0.490231,0.0470775,0.736261,0.722321,0.0266215,1.146691,0.511931,0.0317405,1.239141,0.7353010000000001,-0.0136095,0.677011,0.938501,-0.0160145,1.280921,0.957521,-0.0628845,0.927499,-0.0018709999999999,0.0010985,1.072501,0.0018709999999999,-0.0010984999999999,0.8884410000000001,-0.454219,-0.0472924999999999,1.122391,-0.432999,-0.0650365,0.894421,-0.8021389999999999,-0.0756945,1.129631,-0.791569,-0.0723314999999999,1
50,0.996331,0.719069,0.0247115,0.85013,0.490239,0.0446195,0.73437,0.721039,0.0236275,1.14609,0.511319,0.0287865,1.23783,0.7344890000000001,-0.0179105,0.67491,0.933289,-0.0192285,1.27873,0.957659,-0.0692455,0.927423,-0.0019129999999999,0.0014685,1.072577,0.0019129999999999,-0.0014685,0.88759,-0.452901,-0.0533615,1.12226,-0.432361,-0.0716715,0.89433,-0.801431,-0.0797394999999999,1.12984,-0.791481,-0.0779634999999999,1
51,0.9958125,0.7171985000000001,0.021137,0.8500715,0.4903184999999999,0.041616,0.7328615,0.7194785,0.02035,1.1456815,0.5107885,0.025503,1.2369715,0.7332685,-0.022538,0.6730315,0.9281985,-0.022821,1.2767815,0.9577985,-0.0757859999999999,0.9274095,-0.0019485,0.0019419999999999,1.0725905,0.0019484999999999,-0.001942,0.8867315,-0.4509715,-0.060073,1.1221015,-0.4304315,-0.078836,0.8943315000000001,-0.7995015,-0.083698,1.1297915,-0.7895515,-0.0830569999999999,1
52,0.9951745,0.7154005,0.0174355,0.8498075,0.4894504999999999,0.0384165,0.7312974999999999,0.7179805,0.0167935,1.1450975,0.5094405000000001,0.0221234999999999,1.2361875,0.7325105000000001,-0.0274425,0.6711075,0.9229205,-0.0266305,1.2746775,0.9585405,-0.0824445,0.9272725,-0.0019195,0.0022305,1.0727275,0.0019195,-0.0022305,0.8856775,-0.4481995,-0.0673255,1.1217975,-0.4282295,-0.0866005,0.8941775,-0.7967295,-0.0877755,1.1295675,-0.7867795,-0.0885995,1
53,0.9945725,0.7130354999999999,0.013787,0.8494895,0.4882055,0.035158,0.7297095,0.7163255,0.013044,1.1445795,0.5076855,0.0187989999999999,1.2353195,0.7318655000000001,-0.032517,0.6692695,0.9180255,-0.030459,1.2725995,0.9596955,-0.089058,0.9271035,-0.0017605,0.002685,1.0728965,0.0017604999999999,-0.002685,0.8842895,-0.4448745,-0.0750069999999999,1.1214895,-0.4253645,-0.094914,0.8939495000000001,-0.7934045000000001,-0.091797,1.1293695,-0.7836945,-0.093864,1
54,0.9940965,0.710965,0.009654,0.8492315,0.486525,0.031791,0.7285915000000001,0.7148049999999999,0.0086579999999999,1.1440914999999998,0.505655,0.015194,1.2344415,0.731135,-0.03771,0.6679515,0.913345,-0.034764,1.2708915,0.960765,-0.0961009999999999,0.9268005,-0.0017679999999999,0.0031799999999999,1.0731995,0.0017679999999999,-0.00318,0.8825615,-0.440755,-0.083134,1.1213315,-0.422465,-0.103382,0.8932315,-0.789235,-0.095496,1.1290315,-0.7806150000000001,-0.09838,1
55,0.9936735,0.7089845,0.0055734999999999,0.8488585,0.4853044999999999,0.0286985,0.7275185,0.7137844999999999,0.0042234999999999,1.1435185,0.5032645,0.0115854999999999,1.2334285,0.7302744999999999,-0.0430325,0.6667185,0.9091145,-0.0390395,1.2689985,0.9624045,-0.1030685,0.9264855,-0.0015685,0.0036255,1.0735145,0.0015684999999999,-0.0036255,0.8808385,-0.4367855,-0.0912485,1.1210685,-0.4191355,-0.1125724999999999,0.8924985,-0.7847955,-0.0991885,1.1284985,-0.7768655,-0.1024394999999999,1
56,0.9934095,0.706858,0.0016544999999999,0.8484255,0.485298,0.0255385,0.7265855,0.712658,-0.0002234999999999,1.1429655,0.5009279999999999,0.0080195,1.2324255,0.729498,-0.0481645,0.6656854999999999,0.907958,-0.0433785,1.2670255,0.964248,-0.1097705,0.9262715,-0.001352,0.0040595,1.0737285,0.0013519999999999,-0.0040595,0.8790955,-0.433052,-0.0995855,1.1207555,-0.415112,-0.1216085,0.8918955000000001,-0.779902,-0.1028075,1.1280355,-0.772632,-0.1066345,1
57,0.9931075,0.7049605,-0.002444,0.8480385,0.4856005,0.022224,0.7256985,0.7106405,-0.004708,1.1424485,0.4994505000000001,0.004503,1.2313685,0.7286604999999999,-0.053406,0.6645785,0.9059405,-0.047623,1.2648485,0.9661405,-0.116499,0.9260735,-0.0010544999999999,0.004408,1.0739265,0.0010545,-0.004408,0.8773085,-0.4288395,-0.108108,1.1204685,-0.4109095,-0.1305049999999999,0.8913385,-0.7746695,-0.106112,1.1277085,-0.7681095,-0.110453,1
58,0.9927545,0.7029685,-0.0064444999999999,0.8477175,0.4854385,0.0189705,0.7249775,0.7090685,-0.0092984999999999,1.1419475,0.4971385,0.0005825,1.2302475,0.7287385000000001,-0.0585575,0.6633975,0.9042585,-0.0520695,1.2622775,0.9691985,-0.1236124999999999,0.9259305,-0.0008875,0.0047244999999999,1.0740695,0.0008875,-0.0047244999999999,0.8759975000000001,-0.4227315,-0.1163615,1.1203075,-0.4047415,-0.1389685,0.8909075,-0.7675814999999999,-0.1094125,1.1276375,-0.7611315,-0.1142455,1
59,0.9924255,0.7008304999999999,-0.010237,0.8475895,0.4850705,0.01622,0.7240495,0.7069605,-0.013941,1.1415095,0.4958205,-0.0031389999999999,1.2292295,0.7288404999999999,-0.063939,0.6617895,0.9022805,-0.056742,1.2594095,0.9723105,-0.131287,0.9257475,-0.0008445,0.004976,1.0742525,0.0008445,-0.004976,0.8747095,-0.4152095,-0.125689,1.1202395,-0.3977895,-0.147671,0.8904595,-0.7592595000000001,-0.112956,1.1276595,-0.7526695000000001,-0.1178859999999999,1
60,0.9921555,0.6983275,-0.013742,0.8474305,0.4847775,0.013823,0.7226105,0.7024975,-0.018505,1.1410905,0.4931475,-0.006716,1.2282705,0.7295775,-0.069415,0.6594605,0.8995875,-0.061504,1.2564505,0.9758975,-0.139325,0.9255045,-0.0007085,0.0051249999999999,1.0744954999999998,0.0007084999999999,-0.005125,0.8734905,-0.4062825,-0.135155,1.1201605,-0.3900625,-0.156675,0.8899905000000001,-0.7492325000000001,-0.1161949999999999,1.1274605,-0.7427825,-0.121123,1
61,0.992061,0.6961425,-0.0172109999999999,0.847153,0.4831224999999999,0.01184,0.7210030000000001,0.6989624999999999,-0.0227709999999999,1.140523,0.4923725,-0.0099769999999999,1.227163,0.7306325,-0.0747539999999999,0.6567430000000001,0.8976324999999999,-0.0661689999999999,1.253423,0.9794925,-0.146667,0.925262,-0.0007664999999999,0.005466,1.074738,0.0007664999999999,-0.0054659999999999,0.872293,-0.3979275,-0.144707,1.119903,-0.3825975,-0.165287,0.8895230000000001,-0.7387875,-0.119033,1.126993,-0.7318775000000001,-0.123098,1
62,0.9920875,0.6946785000000001,-0.0205679999999999,0.8469095,0.4817685,0.009449,0.7196195000000001,0.6941685000000001,-0.0261569999999999,1.1398995,0.4919785,-0.0131179999999999,1.2262295,0.7314785,-0.07891,0.6537295000000001,0.8939785,-0.07071,1.2506695,0.9825485,-0.15239,0.9250725,-0.0009065,0.005693,1.0749275,0.0009064999999999,-0.0056929999999999,0.8714695,-0.3873815,-0.15374,1.1197395,-0.3731515,-0.17335,0.8890095000000001,-0.7293415,-0.121804,1.1264995,-0.7218914999999999,-0.125533,1
63,0.9917825,0.692779,-0.0230184999999999,0.8463835,0.480639,0.0071804999999999,0.7180234999999999,0.6893790000000001,-0.0285805,1.1389935,0.4908089999999999,-0.0156595,1.2250435,0.733629,-0.0821985,0.6502935000000001,0.891879,-0.0741735,1.2474035,0.980159,-0.1567565,0.9247965,-0.000962,0.0057014999999999,1.0752035,0.0009619999999999,-0.0057014999999999,0.8704135,-0.3747009999999999,-0.1620665,1.1195035,-0.361811,-0.1813865,0.8882135000000001,-0.717471,-0.1247275,1.1257735,-0.710301,-0.1278505,1
64,0.990974,0.6913885,-0.0257744999999999,0.8454570000000001,0.4796585,0.0046965,0.7160070000000001,0.6839485,-0.0312965,1.137737,0.4899885,-0.0186364999999999,1.223317,0.7361185,-0.0854824999999999,0.6458970000000002,0.8858485,-0.0777565,1.243667,0.9776485,-0.1614125,0.924479,-0.0012654999999999,0.0058805,1.075521,0.0012655,-0.0058804999999999,0.8688670000000001,-0.3602615,-0.1704625,1.118797,-0.3484315,-0.1890124999999999,0.886947,-0.7044115,-0.1277835,1.124727,-0.6972415,-0.1309374999999999,1
65,0.9891395,0.691445,-0.033274,0.8443765,0.478965,-0.002484,0.7128865,0.675985,-0.03869,1.1354165,0.489495,-0.026327,1.2192265,0.733165,-0.093586,0.6397065,0.881035,-0.085765,1.2384265,0.971805,-0.170968,0.9240605,-0.001379,0.005886,1.0759395,0.0013789999999999,-0.005886,0.8668165,-0.339435,-0.186348,1.1180165,-0.330205,-0.204278,0.8851465000000001,-0.686235,-0.135392,1.1229365,-0.679225,-0.138619,1
66,0.9870105,0.691438,-0.040475,0.8429705000000001,0.478258,-0.0099449999999999,0.7092605000000001,0.6700079999999999,-0.0458989999999999,1.1324705,0.488908,-0.034231,1.2147605,0.731528,-0.101801,0.6329805,0.877518,-0.093786,1.2329505,0.967018,-0.180441,0.9237865,-0.00161,0.005916,1.0762135,0.0016099999999999,-0.0059159999999999,0.8647905000000001,-0.319512,-0.202201,1.1167405,-0.312292,-0.218941,0.8836305000000001,-0.668202,-0.143086,1.1213605,-0.6611819999999999,-0.146588,1
67,0.984982,0.691165,-0.0473185,0.841636,0.478425,-0.0170034999999999,0.705566,0.663375,-0.0527115,1.129646,0.489505,-0.0413835,1.210386,0.7289950000000001,-0.1094515,0.6259760000000001,0.8727550000000001,-0.1014365,1.227836,0.961085,-0.1886864999999999,0.923561,-0.0017149999999999,0.0058485,1.076439,0.001715,-0.0058484999999999,0.862796,-0.302605,-0.2169765,1.115386,-0.296525,-0.2327865,0.8819760000000001,-0.651765,-0.1499845,1.119636,-0.645205,-0.1541555,1
68,0.9828885,0.691585,-0.054584,0.8411405000000001,0.478445,-0.024661,0.7021705,0.658605,-0.059581,1.1267605,0.488705,-0.049131,1.2060004999999998,0.728005,-0.116911,0.6191305,0.8690650000000001,-0.10889,1.2230005,0.956665,-0.196456,0.9233415,-0.0016349999999999,0.0057149999999999,1.0766585,0.001635,-0.005715,0.8609305,-0.2853949999999999,-0.231036,1.1140804999999998,-0.280875,-0.246096,0.8802705,-0.6351049999999999,-0.156456,1.1176905,-0.628525,-0.1616,1
69,0.980791,0.692525,-0.0621885,0.840652,0.478475,-0.0327415,0.6991620000000001,0.6559349999999999,-0.0667555,1.123782,0.489405,-0.0570015,1.201462,0.7268249999999999,-0.1248785,0.612832,0.866015,-0.1162525,1.218202,0.952665,-0.2045275,0.923171,-0.001685,0.0055375,1.076829,0.0016849999999999,-0.0055375,0.858962,-0.269435,-0.2444275,1.112752,-0.266215,-0.2588175,0.878542,-0.619115,-0.1629255,1.115512,-0.612615,-0.1690205,1
70,0.978735,0.692175,-0.0699675,0.8400110000000001,0.479815,-0.0411155,0.695901,0.652425,-0.0743345,1.120731,0.4893349999999999,-0.0651275,1.196701,0.725645,-0.1329245,0.6067009999999999,0.8623850000000001,-0.1242085,1.212891,0.949735,-0.2124134999999999,0.923125,-0.0017149999999999,0.0052315,1.076875,0.0017149999999999,-0.0052315,0.856711,-0.252035,-0.2576135,1.1114309999999998,-0.250275,-0.2718135,0.876721,-0.6020449999999999,-0.1693025,1.112841,-0.595865,-0.1759815,1
71,0.976624,0.691485,-0.0779914999999999,0.839225,0.481205,-0.0495764999999999,0.692455,0.650805,-0.0822104999999999,1.117555,0.489305,-0.0733755,1.191875,0.724975,-0.1412715,0.601085,0.860335,-0.1321405,1.207225,0.947435,-0.2205464999999999,0.923092,-0.001765,0.0049364999999999,1.076908,0.0017649999999999,-0.0049364999999999,0.854255,-0.233595,-0.2708264999999999,1.110005,-0.233395,-0.2848365,0.874825,-0.584495,-0.1759855,1.109865,-0.578965,-0.1825255,1
72,0.974596,0.69146,-0.0861509999999999,0.838637,0.48127,-0.0581179999999999,0.689577,0.64895,-0.0901729999999999,1.114557,0.4895,-0.0816819999999999,1.187147,0.72405,-0.1497139999999999,0.595907,0.85526,-0.140152,1.201767,0.95172,-0.2286089999999999,0.923097,-0.0017699999999999,0.004915,1.076903,0.0017699999999999,-0.0049149999999999,0.851877,-0.2158199999999999,-0.284029,1.108517,-0.21716,-0.297519,0.873097,-0.56726,-0.182694,1.107047,-0.56254,-0.189245,1
73,0.9730935,0.69046,-0.0943865,0.8384665,0.48105,-0.0665115,0.6873065,0.64815,-0.0980055,1.1120065,0.48956,-0.0897355,1.1830165,0.7227,-0.1581945,0.5921265,0.85443,-0.1479045,1.1968565,0.95599,-0.2364284999999999,0.9230535,-0.00175,0.0048015,1.0769465,0.00175,-0.0048015,0.8498265,-0.19884,-0.2968685,1.1073465,-0.20178,-0.3098585,0.8718165,-0.55126,-0.1892335,1.1047165,-0.54772,-0.1956895,1
74,0.9726775,0.688365,-0.0980125,0.8386075,0.480415,-0.0704365,0.6861575000000001,0.650885,-0.1013395,1.1105775,0.4876549999999999,-0.0935815,1.1811775,0.7273649999999999,-0.1622765,0.5905175,0.853325,-0.1511055,1.1934375,0.963775,-0.2400485,0.9230625,-0.001755,0.0047414999999999,1.0769375,0.001755,-0.0047415,0.8484475,-0.186725,-0.3018785,1.1060275,-0.190515,-0.3147085,0.8710475,-0.539115,-0.1911405,1.1034875,-0.536285,-0.1975725,1
75,0.9724975,0.68633,-0.1020499999999999,0.8389415,0.47945,-0.074483,0.6854914999999999,0.64976,-0.1051159999999999,1.1094415,0.48599,-0.0975259999999999,1.1794715,0.73142,-0.166555,0.5893115,0.8526800000000001,-0.1544869999999999,1.1901015,0.97131,-0.2446799999999999,0.9229185,-0.0017199999999999,0.00464,1.0770815,0.0017199999999999,-0.0046399999999999,0.8473714999999999,-0.1740499999999999,-0.30699,1.1049515,-0.1784799999999999,-0.31998,0.8704415,-0.5264500000000001,-0.192905,1.1024715,-0.52434,-0.1995739999999999,1
76,0.972331,0.6852050000000001,-0.1066555,0.839561,0.478125,-0.0791635,0.685091,0.650795,-0.1096285,1.108371,0.4826049999999999,-0.1020805,1.177401,0.734205,-0.1713144999999999,0.588131,0.853045,-0.1583165,1.186311,0.979465,-0.2514305,0.922789,-0.001535,0.0045594999999999,1.077211,0.0015349999999999,-0.0045595,0.8462910000000001,-0.158445,-0.3127904999999999,1.103871,-0.162925,-0.3260105,0.869991,-0.5109349999999999,-0.1946835,1.101261,-0.509355,-0.2011955,1
77,0.972274,0.6820700000000001,-0.111728,0.839681,0.47666,-0.083767,0.684591,0.65007,-0.114801,1.107551,0.4805900000000001,-0.106513,1.175401,0.73583,-0.178944,0.587061,0.8525400000000001,-0.162765,1.1825409999999998,0.98261,-0.259182,0.922559,-0.0015199999999999,0.004468,1.077441,0.00152,-0.004468,0.844861,-0.1460599999999999,-0.318282,1.103011,-0.1507999999999999,-0.331892,0.869711,-0.4950399999999999,-0.196374,1.099451,-0.4939,-0.202406,1
78,0.9721295,0.678435,-0.116697,0.8398545,0.475635,-0.087786,0.6842245,0.649205,-0.11941,1.1068145,0.4789949999999999,-0.110639,1.1735445,0.737475,-0.18657,0.5859645,0.851515,-0.167074,1.1787145,0.984245,-0.26686,0.9223855,-0.001485,0.00443,1.0776145,0.001485,-0.00443,0.8435345000000001,-0.133875,-0.32353,1.1022545,-0.138625,-0.33759,0.8694545,-0.479355,-0.1983639999999999,1.0977745,-0.4788449999999999,-0.2035549999999999,1
79,0.9717275,0.67586,-0.121623,0.8404585,0.47269,-0.092253,0.6838885,0.64748,-0.123847,1.1060485,0.4754,-0.115477,1.1717785,0.7371800000000001,-0.193795,0.5846884999999999,0.84973,-0.170774,1.1747485,0.98677,-0.27477,0.9222715,-0.0014299999999999,0.0045199999999999,1.0777285,0.00143,-0.00452,0.8421784999999999,-0.1189499999999999,-0.32825,1.1013885,-0.1237999999999999,-0.34279,0.8690685,-0.4617399999999999,-0.200278,1.0952885,-0.46268,-0.204681,1
80,0.9711095,0.673745,-0.126465,0.8413735,0.470765,-0.09648,0.6836435000000001,0.645015,-0.127992,1.1052635,0.472335,-0.120127,1.1700535,0.736455,-0.200691,0.5837135,0.8475349999999999,-0.174543,1.1711035,0.982795,-0.28219,0.9221665,-0.0012249999999999,0.0047499999999999,1.0778335,0.0012249999999999,-0.00475,0.8410835,-0.102995,-0.33283,1.1003035,-0.1080749999999999,-0.34796,0.8685134999999999,-0.4430449999999999,-0.202127,1.0925635,-0.445695,-0.205114,1
81,0.9707725,0.66893,-0.13085,0.8422825,0.47111,-0.100133,0.6825625,0.64246,-0.131624,1.1045125,0.47066,-0.124249,1.1682825,0.73506,-0.206834,0.5826925000000001,0.8464900000000001,-0.177927,1.1677625,0.97903,-0.28873,0.9220275,-0.0010299999999999,0.00489,1.0779725,0.00103,-0.00489,0.8404525,-0.0873099999999999,-0.33626,1.0990825,-0.0923799999999999,-0.35223,0.8681425,-0.42557,-0.203626,1.0899225,-0.4292199999999999,-0.204705,1
82,0.9702185,0.66547,-0.134903,0.8435435,0.46692,-0.10417,0.6818235,0.6376999999999999,-0.135212,1.1038335,0.4690999999999999,-0.128227,1.1664635,0.73411,-0.2126299999999999,0.5818535,0.84372,-0.181442,1.1643235,0.97621,-0.2952599999999999,0.9217265,-0.00113,0.0049099999999999,1.0782735,0.0011299999999999,-0.0049099999999999,0.8398635,-0.07076,-0.33877,1.0976935,-0.07566,-0.35586,0.8675435,-0.4082100000000001,-0.206212,1.0881435,-0.41035,-0.20426,1
83,0.9693875,0.661505,-0.13903,0.8445365,0.4632779999999999,-0.107999,0.6810765000000001,0.631815,-0.138533,1.1029465,0.4694709999999999,-0.132103,1.1644565,0.732155,-0.21845,0.5805365,0.840795,-0.1848199999999999,1.1600965,0.973455,-0.30172,0.9212335,-0.001435,0.0049799999999999,1.0787665,0.001435,-0.0049799999999999,0.8390765,-0.052875,-0.34073,1.0959765,-0.057595,-0.35884,0.8666765000000001,-0.390785,-0.209371,1.0863065,-0.390435,-0.203346,1
84,0.968357,0.657465,-0.143172,0.8447169999999999,0.461171,-0.1119209999999999,0.679927,0.630635,-0.141722,1.101947,0.467721,-0.13598,1.162317,0.730375,-0.2242,0.5775669999999999,0.838765,-0.187993,1.155877,0.967505,-0.30744,0.920743,-0.001325,0.00499,1.079257,0.0013249999999999,-0.0049899999999999,0.838227,-0.031375,-0.34151,1.094267,-0.035995,-0.35958,0.865667,-0.367485,-0.210143,1.084487,-0.367135,-0.202225,1
85,0.9671105,0.653205,-0.146735,0.8443065000000001,0.458618,-0.115225,0.6786965,0.624235,-0.14445,1.1007365,0.468908,-0.139233,1.1602865,0.730585,-0.22898,0.5741565,0.837415,-0.190178,1.1520365,0.960215,-0.31152,0.9203335,-0.0016349999999999,0.0049,1.0796665,0.0016349999999999,-0.0049,0.8373365,-0.009915,-0.34212,1.0925365,-0.014355,-0.3601499999999999,0.8640365,-0.344645,-0.210718,1.0827865,-0.3423949999999999,-0.2008039999999999,1
86,0.965886,0.6502749999999999,-0.149463,0.843373,0.456545,-0.118115,0.677513,0.618505,-0.146434,1.099503,0.4696749999999999,-0.142188,1.1583629999999998,0.729635,-0.232315,0.570443,0.835855,-0.191506,1.148503,0.955365,-0.314815,0.919977,-0.001865,0.0046649999999999,1.080023,0.001865,-0.004665,0.8365830000000001,0.0095549999999999,-0.342775,1.0912229999999998,0.0052249999999999,-0.360775,0.863003,-0.323975,-0.211358,1.081733,-0.320085,-0.199162,1
87,0.9644465,0.647,-0.152276,0.8423265,0.453307,-0.121501,0.6752565000000001,0.61557,-0.148754,1.0987764999999998,0.469818,-0.145768,1.1560565,0.72505,-0.235625,0.5662065000000001,0.82979,-0.192832,1.1450064999999998,0.94896,-0.318695,0.9197435,-0.0021599999999999,0.0048049999999999,1.0802565,0.0021599999999999,-0.004805,0.8362565,0.0326199999999999,-0.342115,1.0898165,0.0285,-0.361585,0.8620365,-0.29973,-0.209167,1.0805565,-0.294,-0.197478,1
88,0.962934,0.643685,-0.154521,0.841078,0.451882,-0.12392,0.672698,0.613205,-0.150629,1.098258,0.471642,-0.148264,1.154148,0.722355,-0.238395,0.561088,0.823725,-0.193896,1.142188,0.940445,-0.321675,0.919692,-0.0024049999999999,0.004985,1.0803079999999998,0.0024049999999999,-0.004985,0.836068,0.0517749999999999,-0.340705,1.088588,0.0479949999999999,-0.361475,0.861118,-0.280565,-0.206877,1.079508,-0.271495,-0.195782,1
89,0.961359,0.6398900000000001,-0.156153,0.839781,0.4490740000000001,-0.12617,0.669931,0.61072,-0.15223,1.097571,0.4725990000000001,-0.150534,1.151921,0.72018,-0.2409049999999999,0.555931,0.8177300000000001,-0.19498,1.139151,0.93876,-0.324505,0.919749,-0.0028699999999999,0.0053549999999999,1.080251,0.00287,-0.0053549999999999,0.835991,0.06999,-0.338485,1.087321,0.06716,-0.360645,0.860431,-0.26352,-0.2069409999999999,1.0782509999999998,-0.2503799999999999,-0.194359,1
90,0.9598395,0.6383499999999999,-0.157547,0.8385425,0.4455399999999999,-0.128061,0.6668525000000001,0.6078629999999999,-0.153715,1.0965925,0.4727839999999998,-0.152561,1.1496325,0.7174399999999999,-0.243605,0.5506525,0.8112999999999999,-0.196157,1.1361625,0.9358,-0.327505,0.9198375,-0.00328,0.0056749999999999,1.0801625,0.0032799999999999,-0.0056749999999999,0.8360225,0.0870399999999999,-0.336025,1.0859725,0.0852999999999998,-0.359495,0.8599235000000001,-0.2479000000000001,-0.205741,1.0769525,-0.2302200000000001,-0.193053,1
91,0.958416,0.636085,-0.15829,0.837315,0.446451,-0.1289259999999999,0.6635250000000001,0.606335,-0.1546809999999999,1.095495,0.4731269999999999,-0.1538649999999999,1.147665,0.71465,-0.24589,0.545455,0.8059799999999999,-0.1970199999999999,1.1335849999999998,0.93154,-0.33021,0.919925,-0.00338,0.00611,1.080075,0.0033799999999999,-0.0061099999999999,0.836155,0.10258,-0.33276,1.084845,0.1018199999999999,-0.3575399999999999,0.859767,-0.23506,-0.204264,1.076465,-0.21059,-0.191471,1
92,0.956964,0.634051,-0.159161,0.836057,0.44684,-0.129942,0.6597569999999999,0.604831,-0.155784,1.094757,0.473324,-0.154918,1.146067,0.71197,-0.247975,0.540377,0.79989,-0.198068,1.132037,0.9267,-0.333665,0.920163,-0.00346,0.0064349999999999,1.079837,0.00346,-0.006435,0.835877,0.11606,-0.329145,1.084027,0.1160399999999999,-0.355145,0.860036,-0.22467,-0.20321,1.076737,-0.1926799999999999,-0.189906,1
93,0.955431,0.632107,-0.160247,0.834534,0.446155,-0.130981,0.656154,0.60146,-0.156987,1.094104,0.473455,-0.156026,1.144654,0.708005,-0.2499849999999999,0.535934,0.7925150000000001,-0.1995029999999999,1.130724,0.924065,-0.337945,0.920466,-0.0039449999999999,0.0068249999999999,1.079534,0.003945,-0.0068249999999999,0.835434,0.124725,-0.325505,1.083244,0.124475,-0.353635,0.861755,-0.219125,-0.201561,1.076834,-0.1840149999999999,-0.188315,1
94,0.95411,0.630163,-0.161312,0.832708,0.446105,-0.132066,0.652968,0.6017089999999999,-0.158242,1.0936279999999998,0.472025,-0.157178,1.143528,0.703395,-0.252085,0.531668,0.784625,-0.200921,1.1298979999999998,0.921875,-0.342515,0.920652,-0.0041149999999999,0.007175,1.079348,0.0041149999999999,-0.007175,0.835238,0.1307149999999999,-0.322395,1.0827779999999998,0.1310049999999999,-0.351155,0.864328,-0.215925,-0.199366,1.076708,-0.174225,-0.186757,1
95,0.9526785,0.62816,-0.162333,0.8308985,0.44635,-0.133241,0.6499285,0.601964,-0.159679,1.0932084999999998,0.4702199999999999,-0.158436,1.1423685,0.69969,-0.25439,0.5275385,0.77721,-0.202503,1.1291885,0.92048,-0.34733,0.9208215,-0.00424,0.0073,1.0791785,0.00424,-0.0073,0.8350385,0.13662,-0.3192,1.0824185,0.13766,-0.34872,0.8676235,-0.2126,-0.196319,1.0764385,-0.1675999999999999,-0.185232,1
96,0.9513145,0.6272989999999999,-0.16242,0.8295885000000001,0.44721,-0.133378,0.6475885,0.600119,-0.160141,1.0928785,0.4683999999999999,-0.158941,1.1416485,0.69924,-0.25601,0.5239885,0.77496,-0.202906,1.1291685,0.92122,-0.3506,0.9209615,-0.00429,0.0073899999999999,1.0790385,0.0042899999999999,-0.0073899999999999,0.8347585000000001,0.1384299999999999,-0.31763,1.0820485,0.1393199999999999,-0.3476,0.8704345,-0.21225,-0.195946,1.0762284999999998,-0.16564,-0.183285,1
97,0.9493705,0.62673,-0.162538,0.8283785,0.44793,-0.133626,0.6448185,0.598773,-0.1608429999999999,1.0924685,0.4666,-0.159449,1.1410684999999998,0.6984400000000001,-0.256865,0.5213085,0.77374,-0.2033249999999999,1.1291485,0.92162,-0.3547749999999999,0.9210615,-0.0043299999999999,0.007475,1.0789385,0.00433,-0.0074749999999999,0.8341085,0.14013,-0.315995,1.0817185,0.14182,-0.346365,0.8717965,-0.20906,-0.1965609999999999,1.0760385,-0.1641099999999999,-0.180452,1
98,0.947404,0.6266499999999999,-0.162737,0.827758,0.4480499999999999,-0.133763,0.642718,0.5982839999999999,-0.161394,1.092138,0.4647799999999999,-0.159859,1.140748,0.6975799999999999,-0.257475,0.519568,0.77321,-0.203679,1.129278,0.92135,-0.358835,0.921102,-0.00426,0.0075349999999999,1.078898,0.0042599999999999,-0.007535,0.833438,0.1409999999999999,-0.314665,1.081448,0.1435999999999999,-0.3451349999999999,0.872501,-0.2078400000000001,-0.197034,1.0758379999999998,-0.1632300000000001,-0.178268,1
99,0.9453275,0.626665,-0.163038,0.8271395,0.448065,-0.133823,0.6412195,0.598299,-0.161917,1.0911495,0.463125,-0.160029,1.1404695,0.696775,-0.25894,0.5177595000000002,0.773225,-0.204697,1.1289195,0.921155,-0.36285,0.9210905,-0.0042449999999999,0.0075999999999999,1.0789095,0.004245,-0.0075999999999999,0.8322195,0.142305,-0.3134599999999999,1.0811795,0.145565,-0.34425,0.8728365000000001,-0.208875,-0.199635,1.0754295,-0.1623649999999999,-0.176945,1
100,0.943551,0.626665,-0.16321,0.826633,0.448065,-0.133882,0.640663,0.598299,-0.162438,1.090273,0.462065,-0.160145,1.140343,0.696605,-0.26008,0.517333,0.773225,-0.206164,1.128863,0.921155,-0.36598,0.921027,-0.0042449999999999,0.00773,1.078973,0.004245,-0.00773,0.831213,0.143785,-0.31272,1.080753,0.147505,-0.3438,0.872972,-0.208875,-0.202185,1.074863,-0.1612249999999999,-0.176442,1
101,0.942242,0.62666,-0.163376,0.826218,0.44882,-0.133941,0.6405080000000001,0.598294,-0.163065,1.089508,0.46151,-0.160167,1.140278,0.6966,-0.26072,0.5166380000000002,0.77322,-0.207617,1.129298,0.92115,-0.36753,0.921002,-0.00424,0.00791,1.078998,0.00424,-0.00791,0.8303380000000001,0.1452899999999999,-0.31248,1.080178,0.14941,-0.3437,0.872857,-0.20888,-0.203838,1.074818,-0.1613,-0.176672,1
102,0.9414280000000002,0.6267189999999999,-0.163319,0.826218,0.4495599999999999,-0.133931,0.639958,0.598742,-0.163369,1.089098,0.4613699999999999,-0.160137,1.140278,0.69646,-0.26071,0.5165780000000001,0.77382,-0.208699,1.130248,0.92117,-0.36757,0.921002,-0.00425,0.0079199999999999,1.078998,0.0042499999999999,-0.0079199999999999,0.8295180000000001,0.1467199999999999,-0.31243,1.079758,0.1508499999999999,-0.34366,0.8727940000000001,-0.2090200000000001,-0.205131,1.074818,-0.16144,-0.1766619999999999,1
103,0.940972,0.6272580000000001,-0.163286,0.826121,0.4500700000000001,-0.133915,0.639761,0.600319,-0.163727,1.088971,0.46052,-0.1601199999999999,1.140471,0.6956100000000001,-0.26071,0.515761,0.7750300000000001,-0.2096839999999999,1.131881,0.92292,-0.3676399999999999,0.920989,-0.0040999999999999,0.0079299999999999,1.079011,0.0040999999999999,-0.00793,0.8289610000000001,0.14745,-0.3124,1.079341,0.15053,-0.34363,0.872418,-0.2093899999999999,-0.206421,1.074341,-0.1636799999999999,-0.176628,1
104,0.940791,0.6281370000000001,-0.163358,0.8261350000000001,0.450415,-0.133917,0.639825,0.603164,-0.164245,1.088905,0.458945,-0.160118,1.140935,0.694975,-0.260735,0.515675,0.781425,-0.210654,1.133925,0.923775,-0.367735,0.920905,-0.0038649999999998,0.0079349999999999,1.079095,0.003865,-0.007935,0.828825,0.147135,-0.312385,1.078955,0.148955,-0.344505,0.8721860000000001,-0.210225,-0.206892,1.073955,-0.1668549999999999,-0.178634,1
105,0.9406525,0.63066,-0.163317,0.8263515,0.4498049999999999,-0.133868,0.6406515000000002,0.6103069999999999,-0.164448,1.0890115,0.457665,-0.159934,1.1421715,0.697075,-0.26048,0.5166715,0.787905,-0.210764,1.1366715,0.923935,-0.36751,0.9207985,-0.0035549999999999,0.0079799999999999,1.0792015,0.0035549999999999,-0.00798,0.8285715,0.143835,-0.31338,1.0787715,0.1456549999999999,-0.34563,0.8688325,-0.2099349999999999,-0.209191,1.0737115,-0.173225,-0.180879,1
106,0.94182,0.635461,-0.163038,0.8274859999999999,0.44879,-0.133626,0.642476,0.616296,-0.164045,1.0899359999999998,0.45681,-0.159814,1.144456,0.69617,-0.259685,0.5186660000000001,0.79652,-0.210488,1.1408859999999998,0.92768,-0.3663949999999999,0.920824,-0.00326,0.007895,1.079176,0.00326,-0.007895,0.829166,0.1363,-0.316315,1.0793659999999998,0.13768,-0.348275,0.866596,-0.2133399999999999,-0.211341,1.073046,-0.1843399999999999,-0.183028,1
107,0.942983,0.640164,-0.162178,0.828399,0.4493399999999999,-0.1327539999999999,0.644379,0.621823,-0.163221,1.090709,0.455783,-0.15925,1.146769,0.69407,-0.257985,0.5209090000000001,0.8046,-0.2096799999999999,1.145229,0.93013,-0.364555,0.920941,-0.0029099999999999,0.0075049999999999,1.079059,0.0029099999999999,-0.0075049999999999,0.829829,0.12694,-0.320365,1.079779,0.1271299999999999,-0.351195,0.8645880000000001,-0.21928,-0.212891,1.072899,-0.19688,-0.184969,1
108,0.944192,0.643625,-0.160084,0.829075,0.451617,-0.1306979999999999,0.6463650000000001,0.625842,-0.1612289999999999,1.091495,0.456399,-0.157447,1.149535,0.696575,-0.254745,0.523265,0.809715,-0.207706,1.149975,0.932665,-0.360505,0.921175,-0.0026749999999999,0.0069749999999999,1.078825,0.0026749999999999,-0.0069749999999999,0.830485,0.112285,-0.325065,1.080345,0.113105,-0.352445,0.8626739999999999,-0.2300449999999999,-0.212854,1.073105,-0.210245,-0.18785,1
109,0.946018,0.6488700000000001,-0.158912,0.82991,0.456411,-0.129521,0.64903,0.6330100000000001,-0.160105,1.09246,0.458227,-0.1562859999999999,1.15255,0.69781,-0.251795,0.52508,0.8200000000000001,-0.206577,1.15517,0.93478,-0.356915,0.92124,-0.0021499999999999,0.006855,1.07876,0.0021499999999999,-0.006855,0.83161,0.09456,-0.327885,1.08115,0.0936,-0.353635,0.862518,-0.247,-0.213051,1.07343,-0.2318399999999999,-0.191712,1
110,0.948184,0.654925,-0.157154,0.830912,0.460709,-0.127697,0.650782,0.639675,-0.158216,1.093842,0.4606519999999999,-0.154489,1.155632,0.698755,-0.248215,0.527632,0.829405,-0.204512,1.160282,0.936105,-0.352835,0.921328,-0.001825,0.0067149999999999,1.078672,0.0018249999999999,-0.0067149999999999,0.8329219999999999,0.0752449999999999,-0.329405,1.082202,0.0738949999999999,-0.3535149999999999,0.8624620000000001,-0.2654850000000001,-0.212351,1.074342,-0.253795,-0.194863,1
111,0.9507305,0.66235,-0.155046,0.8321395,0.463883,-0.125649,0.6528895,0.64773,-0.155994,1.0953595,0.462621,-0.152534,1.1588195,0.70031,-0.244245,0.5301895000000001,0.83875,-0.201973,1.1653195,0.93704,-0.348515,0.9213805,-0.00161,0.006485,1.0786195,0.00161,-0.006485,0.8346295,0.0547199999999999,-0.330525,1.0833895,0.05314,-0.353085,0.8624594999999999,-0.28514,-0.211356,1.0755395,-0.27667,-0.197653,1
112,0.9541995,0.66483,-0.152282,0.8341955,0.4662470000000001,-0.1224249999999999,0.6564755,0.6499900000000001,-0.153303,1.0979655,0.462216,-0.1502,1.1628755,0.69709,-0.23998,0.5337155,0.8479300000000001,-0.198766,1.1707055,0.92888,-0.3437099999999999,0.9215445,-0.0011899999999999,0.0058399999999999,1.0784555,0.00119,-0.0058399999999999,0.8373355,0.02746,-0.33049,1.0856555,0.02557,-0.3511999999999999,0.8633655,-0.3113999999999999,-0.2093539999999999,1.0779255,-0.3063399999999999,-0.199395,1
113,0.957587,0.6701900000000001,-0.149196,0.836096,0.468687,-0.11914,0.660006,0.65618,-0.150388,1.100516,0.463673,-0.147359,1.167406,0.69945,-0.235405,0.5371859999999999,0.8504700000000001,-0.195044,1.176736,0.93344,-0.338775,0.921804,-0.0008599999999999,0.0049949999999999,1.078196,0.00086,-0.0049949999999999,0.840016,-0.0027999999999999,-0.328955,1.087916,-0.00628,-0.348815,0.864786,-0.3414,-0.206937,1.080476,-0.33819,-0.198645,1
114,0.9607345,0.6744,-0.1461289999999999,0.8374604999999999,0.47296,-0.1158899999999999,0.6633804999999999,0.6571400000000001,-0.14767,1.1029505,0.464926,-0.1447649999999999,1.1713805,0.6989000000000001,-0.2312449999999999,0.5406105,0.8518300000000001,-0.191408,1.1822405,0.93809,-0.334005,0.9220195,-0.0004599999999999,0.004215,1.0779805,0.00046,-0.0042149999999999,0.8427205,-0.0318999999999999,-0.3268649999999999,1.0901405,-0.0371499999999999,-0.346705,0.8666205,-0.37097,-0.204801,1.0829405,-0.36959,-0.197944,1
115,0.9632265,0.675765,-0.142831,0.8382725,0.477505,-0.112088,0.6658925,0.658435,-0.144371,1.1048425,0.469025,-0.141599,1.1748725,0.6999150000000001,-0.22658,0.5433725,0.849825,-0.18782,1.1868025,0.936365,-0.32938,0.9218975,-0.000425,0.0036999999999999,1.0781025,0.000425,-0.0037,0.8447425,-0.059485,-0.3246,1.0917024999999998,-0.066375,-0.34441,0.8677825,-0.399655,-0.202489,1.0848825,-0.400175,-0.196875,1
116,0.9656295,0.678885,-0.138817,0.8392915,0.4803449999999999,-0.107557,0.6698815,0.6602049999999999,-0.14044,1.1067815,0.472615,-0.137871,1.1787215,0.702405,-0.221735,0.5479615,0.852935,-0.183992,1.1914915,0.938725,-0.324495,0.9219885,-0.000445,0.0037849999999999,1.0780115,0.0004449999999999,-0.0037849999999999,0.8467715,-0.088345,-0.322105,1.0933015,-0.096765,-0.341435,0.8690015,-0.4314450000000001,-0.199201,1.0865715,-0.432325,-0.193909,1
117,0.9678665,0.683595,-0.1343794999999999,0.8402615000000001,0.481615,-0.1023945,0.6738415,0.6646650000000001,-0.1358234999999999,1.1086715,0.4754049999999999,-0.1332215,1.1820215,0.699955,-0.2160765,0.5521815,0.8631449999999999,-0.1802975,1.1961815,0.940165,-0.3193165,0.9221485,-0.000275,0.0039135,1.0778515,0.0002749999999999,-0.0039135,0.8486115000000001,-0.114235,-0.3182965,1.0947515,-0.123335,-0.3367465,0.8702415,-0.460385,-0.1942114999999999,1.0881215,-0.462175,-0.1902545,1
118,0.970088,0.68678,-0.129011,0.841555,0.4806699999999999,-0.095986,0.678195,0.6697299999999999,-0.130786,1.110805,0.47685,-0.127553,1.1855049999999998,0.69768,-0.209306,0.5588150000000001,0.8664,-0.176061,1.202535,0.94084,-0.313406,0.922412,-0.00036,0.0038939999999999,1.077588,0.0003599999999999,-0.003894,0.8502950000000001,-0.13993,-0.310606,1.096445,-0.14863,-0.328436,0.871385,-0.4905,-0.188447,1.0912449999999998,-0.49178,-0.187726,1
119,0.972171,0.689935,-0.122743,0.8429480000000001,0.480705,-0.089479,0.682518,0.673735,-0.12525,1.113048,0.477735,-0.121318,1.188968,0.6942550000000001,-0.201876,0.567008,0.869635,-0.172361,1.208728,0.941355,-0.305946,0.92282,-0.0003249999999999,0.0038079999999999,1.07718,0.0003249999999999,-0.003808,0.852168,-0.164455,-0.300516,1.098048,-0.172445,-0.318616,0.8727480000000001,-0.520275,-0.182425,1.093878,-0.521065,-0.183766,1
120,0.9742045,0.691775,-0.1154475,0.8445495000000001,0.482705,-0.0826364999999999,0.6875795,0.676405,-0.1193924999999999,1.1155395,0.479635,-0.1142695,1.1932195,0.690645,-0.1932054999999999,0.5772695,0.876935,-0.1673704999999999,1.2159895,0.942285,-0.2972855,0.9234065,-0.0002949999999999,0.0039075,1.0765935,0.000295,-0.0039074999999999,0.8546995,-0.190125,-0.2861755,1.0998395,-0.1976049999999999,-0.3048355,0.8740195,-0.5525450000000001,-0.1761585,1.0963495,-0.553085,-0.1797125,1
121,0.9756285,0.698835,-0.1081075,0.8455405,0.485545,-0.0764605,0.6927105,0.685195,-0.1138695,1.1175605,0.484085,-0.1073275,1.1968705,0.6970149999999999,-0.1844845,0.5873605,0.8831049999999999,-0.1624405,1.2235405,0.952695,-0.2888145,0.9237125,-0.000695,0.0042714999999999,1.0762875,0.000695,-0.0042714999999999,0.8564705,-0.210135,-0.2732345,1.1008304999999998,-0.215895,-0.2918945,0.8740905,-0.5790850000000001,-0.1694415,1.0982204999999998,-0.578275,-0.1747475,1
122,0.9769115,0.703485,-0.100852,0.8466385000000001,0.488275,-0.070264,0.6984785,0.6903050000000001,-0.10841,1.1192985,0.488885,-0.100715,1.2001485,0.696345,-0.176859,0.5987385000000001,0.896235,-0.157294,1.2303985,0.949795,-0.280477,0.9240055,-0.0012449999999999,0.0046569999999999,1.0759945,0.0012449999999999,-0.0046569999999999,0.8582985,-0.235235,-0.259807,1.1016585,-0.2374949999999999,-0.2784069999999999,0.8742185,-0.605215,-0.162769,1.0996485,-0.604215,-0.169706,1
123,0.97856,0.710425,-0.0930425,0.847732,0.493155,-0.0636954999999999,0.705832,0.700155,-0.1024775,1.121452,0.494145,-0.0934474999999999,1.2039419999999998,0.695315,-0.1685535,0.612382,0.909325,-0.1517204999999999,1.237692,0.947995,-0.2709135,0.924637,-0.0019049999999999,0.0048435,1.075363,0.001905,-0.0048435,0.860652,-0.261675,-0.2429735,1.102782,-0.2608749999999999,-0.2617135,0.874542,-0.632165,-0.1556374999999999,1.101402,-0.631375,-0.1635835,1
124,0.9803385,0.715847,-0.0825515,0.8494975,0.4961069999999999,-0.0547545,0.7133475,0.7113670000000001,-0.0939565,1.1238674999999998,0.495027,-0.0837165,1.2078175,0.694157,-0.1576725,0.6269575000000001,0.923207,-0.1433935,1.2450175,0.949097,-0.2582405,0.9256415,-0.0025519999999999,0.0045385,1.0743585,0.0025519999999999,-0.0045385,0.8633575,-0.287273,-0.2229205,1.1040375,-0.283823,-0.2418004999999999,0.8749575,-0.6582929999999999,-0.1461205,1.1030975,-0.657453,-0.1545234999999999,1
125,0.982925,0.71776,-0.0689885,0.851136,0.49684,-0.0428915,0.720696,0.7205199999999999,-0.0822094999999999,1.1267859999999998,0.4970199999999999,-0.0709845,1.212616,0.69982,-0.1435615,0.642336,0.93077,-0.1320265,1.252306,0.9479,-0.2404495,0.92625,-0.002425,0.0042794999999999,1.07375,0.0024249999999999,-0.0042794999999999,0.866856,-0.31286,-0.1962695,1.105486,-0.30744,-0.2152495,0.875826,-0.68391,-0.1334515,1.1054259999999998,-0.68287,-0.1402225,1
126,0.985517,0.719237,-0.0558915,0.8526,0.498777,-0.0315924999999999,0.72812,0.729027,-0.0708415,1.12959,0.497887,-0.0590954999999999,1.21723,0.705617,-0.1300454999999999,0.6590199999999999,0.935137,-0.1210445,1.25906,0.947087,-0.2225435,0.926978,-0.002489,0.0041445,1.073022,0.0024889999999999,-0.0041444999999999,0.87026,-0.336463,-0.1702735,1.10687,-0.3304829999999999,-0.1889535,0.87669,-0.707723,-0.1210705,1.1076,-0.705543,-0.1266485,1
127,0.988082,0.7198709999999999,-0.044005,0.8545659999999999,0.500231,-0.020967,0.7356860000000001,0.7320709999999999,-0.060064,1.132116,0.499051,-0.048156,1.220806,0.7116709999999999,-0.118177,0.674626,0.940831,-0.110899,1.263056,0.946321,-0.2055249999999999,0.927588,-0.0026049999999999,0.004075,1.072412,0.0026049999999999,-0.0040749999999999,0.873636,-0.355449,-0.145805,1.108706,-0.349339,-0.164745,0.877926,-0.726709,-0.10989,1.109876,-0.7245290000000001,-0.113809,1
128,0.9906245,0.7193025,-0.033033,0.8565495,0.5009425,-0.0106679999999999,0.7434695,0.7367524999999999,-0.049858,1.1343495,0.4997225,-0.03757,1.2239195,0.7189125,-0.106575,0.6889895000000001,0.9470925,-0.100769,1.2668895,0.9463925,-0.18836,0.9280365,-0.0028294999999999,0.00421,1.0719635,0.0028295,-0.0042099999999999,0.8769395,-0.3723875,-0.12207,1.1108495,-0.3657275,-0.14106,0.8793095000000001,-0.7443475,-0.0986679999999999,1.1121695,-0.7421675000000001,-0.101242,1
129,0.9929745,0.718356,-0.0229345,0.8583575,0.500636,-0.0011654999999999,0.7503075,0.7403460000000001,-0.0403665,1.1362875,0.4996860000000001,-0.0276135,1.2261075,0.725576,-0.0952565,0.7015275000000001,0.948986,-0.0907974999999999,1.2694375,0.946276,-0.1720355,0.9283335,-0.002943,0.0043365,1.0716665,0.0029429999999999,-0.0043365,0.8798875000000002,-0.3856839999999999,-0.1003675,1.1129675,-0.3770639999999999,-0.1197255,0.8806675000000002,-0.757274,-0.0881015,1.1143875,-0.755074,-0.0892014999999999,1
130,0.995226,0.716747,-0.0119985,0.8599750000000002,0.5004770000000001,0.0083585,0.7566750000000001,0.742607,-0.0297115,1.138045,0.4994869999999999,-0.0167075,1.228115,0.7270570000000001,-0.0827465,0.7147950000000001,0.955907,-0.0796765,1.271585,0.944787,-0.1530455,0.928601,-0.002885,0.0044515,1.071399,0.0028849999999999,-0.0044515,0.8826350000000001,-0.398963,-0.0786424999999999,1.115175,-0.387803,-0.0984724999999999,0.882095,-0.7696529999999999,-0.0772215,1.116715,-0.766543,-0.0764445,1
131,0.997539,0.7139979999999999,-0.0005704999999999,0.8616960000000001,0.5002179999999999,0.0184855,0.762706,0.7433379999999999,-0.0188365,1.139916,0.497088,-0.0053115,1.230066,0.7298479999999999,-0.0696375,0.726726,0.957708,-0.0684575,1.273886,0.943268,-0.1329955,0.928785,-0.002737,0.0044635,1.071215,0.0027369999999999,-0.0044635,0.885566,-0.411542,-0.0560824999999999,1.117516,-0.397462,-0.0772885,0.883656,-0.7808620000000001,-0.0656385,1.119156,-0.776312,-0.0631375,1
132,0.999362,0.7089295,0.010098,0.863178,0.4963694999999999,0.028473,0.767068,0.7399494999999999,-0.008507,1.141498,0.4952995,0.0056029999999999,1.231698,0.7336495,-0.057622,0.735568,0.9601295,-0.056913,1.275768,0.9431495,-0.115619,0.928606,-0.0026655,0.0046239999999999,1.071394,0.0026655,-0.004624,0.887768,-0.4240605,-0.036956,1.119438,-0.4064505,-0.059319,0.885008,-0.7914105,-0.054421,1.121358,-0.7853305,-0.050287,1
133,1.000471,0.7057485,0.0179755,0.863981,0.4946485,0.0359815,0.770721,0.7358985,-0.0008765,1.142561,0.4949985,0.0139094999999999,1.232301,0.7390485,-0.0472445,0.7421409999999999,0.9628885,-0.0478765,1.276171,0.9429785,-0.1017795,0.928299,-0.0022135,0.0047414999999999,1.071701,0.0022135,-0.0047415,0.889211,-0.4354615,-0.0211425,1.120781,-0.4154315,-0.0449225,0.885971,-0.8003515,-0.0456925,1.123181,-0.7940015,-0.0397555,1
134,1.0010385,0.704468,0.021607,0.8640685000000001,0.4953979999999999,0.039474,0.7720184999999999,0.7357680000000001,0.0024309999999999,1.1426685,0.4940079999999999,0.0174479999999999,1.2324385,0.737788,-0.0414019999999999,0.7448285,0.962628,-0.0429579999999999,1.2756885,0.943408,-0.093968,0.9282435,-0.002552,0.004676,1.0717565,0.0025519999999999,-0.004676,0.8899485,-0.437882,-0.0139769999999999,1.1214385,-0.416962,-0.038509,0.8864285,-0.8033619999999999,-0.04142,1.1244485,-0.796082,-0.0348669999999999,1
135,1.001627,0.7035115,0.0251775,0.864267,0.4949814999999999,0.0429395,0.772597,0.7359915,0.0057455,1.143117,0.4929814999999999,0.0210255,1.232737,0.7371515,-0.0368874999999999,0.7456770000000001,0.9644515,-0.0385824999999999,1.274927,0.9442615,-0.0869175,0.928095,-0.0027275,0.0045405,1.071905,0.0027275,-0.0045404999999999,0.890687,-0.4397785,-0.0072624999999999,1.122207,-0.4181885,-0.0325614999999999,0.886917,-0.8057385,-0.0374594999999999,1.125577,-0.7977685,-0.0301805,1
136,1.0021055,0.7029725,0.0286065,0.8643155,0.4950624999999999,0.0462505,0.7730755,0.7365524999999999,0.0091744999999999,1.1435354999999998,0.4923025,0.0244575,1.2332255,0.7370125,-0.0333025,0.7461755,0.9660525,-0.0348155,1.2737755,0.9458525,-0.0811985,0.9278845,-0.0029035,0.0044244999999999,1.0721155,0.0029034999999999,-0.0044244999999999,0.8912555,-0.4412675,-0.0015435,1.1229955,-0.4191575,-0.0271024999999999,0.8874055,-0.8077775,-0.0337224999999999,1.1267155,-0.7992675,-0.0259895,0
137,1.002247,0.7024775,0.0312505,0.864297,0.4955874999999999,0.0491255,0.773927,0.7370275,0.0124625,1.143277,0.4918975,0.0277615,1.232357,0.7368175,-0.0287884999999999,0.747027,0.9676275,-0.0315135,1.272987,0.9463275,-0.0777104999999999,0.927729,-0.0029675,0.0042295,1.072271,0.0029674999999999,-0.0042294999999999,0.891787,-0.4417925,0.0034545,1.124487,-0.4189025,-0.0220874999999999,0.887957,-0.8096125,-0.0306405,1.128127,-0.8005825,-0.0216664999999999,0
138,1.0020935,0.7022795000000001,0.0332099999999999,0.8639345,0.4962895,0.05166,0.7743245000000001,0.7384695,0.0149529999999999,1.1429445,0.4919495,0.030674,1.2315745,0.7366695,-0.025812,0.7479745000000001,0.9693495,-0.028621,1.2722745,0.9472495,-0.074738,0.9275765,-0.0030075,0.0040089999999999,1.0724235,0.0030074999999999,-0.004009,0.8922845000000001,-0.4421204999999999,0.0073389999999999,1.1260345,-0.4179605,-0.017799,0.8887945,-0.8107105,-0.0277069999999999,1.1297245,-0.8011705,-0.017973,0
139,1.001718,0.701949,0.0338095,0.86372,0.497009,0.0531205,0.77363,0.739879,0.0162555,1.14272,0.491859,0.0323315,1.23154,0.736519,-0.0238855,0.74814,0.970819,-0.0267045,1.27186,0.947419,-0.0727915,0.927467,-0.003058,0.0038585,1.072533,0.0030579999999999,-0.0038585,0.89274,-0.442541,0.0092425,1.12704,-0.417031,-0.0157734999999999,0.8897,-0.811121,-0.0258265,1.13101,-0.802261,-0.0161105,0
140,1.001163,0.7017715,0.0336125,0.863108,0.4973815,0.0539385,0.772528,0.7399415,0.0168165,1.142628,0.4916115,0.0330855,1.231918,0.7359015,-0.0225974999999999,0.747248,0.9706415,-0.0253545,1.271078,0.9471415,-0.0714425,0.927369,-0.0029995,0.0038825,1.072631,0.0029995,-0.0038824999999999,0.893158,-0.4429085,0.0105275,1.128218,-0.4172085,-0.0145244999999999,0.890698,-0.8113984999999999,-0.0247185,1.1324679999999998,-0.8032684999999999,-0.0148755,0
141,1.000341,0.7014375,0.0323974999999999,0.862328,0.4966475,0.0543814999999999,0.770798,0.7390275000000001,0.0172914999999999,1.142538,0.4911375,0.0332795,1.232338,0.7354875,-0.0215325,0.7455579999999999,0.9708175,-0.0248045,1.270268,0.9463175,-0.0710695,0.927347,-0.0030594999999999,0.0039364999999999,1.072653,0.0030594999999999,-0.0039365,0.893878,-0.4431925,0.0116274999999999,1.129698,-0.4170325,-0.0134615,0.8920480000000001,-0.8117624999999999,-0.0237695,1.133938,-0.8037825,-0.0141145,0
142,0.999476,0.7012575,0.0305435,0.861336,0.4967074999999999,0.0544935,0.768316,0.7388375,0.0169725,1.142476,0.4909475,0.0328065,1.232776,0.7354875,-0.0226195,0.741866,0.9664175,-0.0247184999999999,1.269496,0.9463175,-0.0735825,0.927417,-0.0030594999999999,0.0038755,1.072583,0.0030594999999999,-0.0038754999999999,0.894676,-0.4431925,0.0123135,1.131466,-0.4170325,-0.0124214999999999,0.893546,-0.8117624999999999,-0.0227165,1.135766,-0.8039025,-0.0130774999999999,0
143,0.998686,0.7009475000000001,0.0284724999999999,0.860046,0.4967074999999999,0.0547714999999999,0.763816,0.7380275000000001,0.0172265,1.142726,0.4909475,0.0321434999999999,1.235106,0.7354875,-0.0250905,0.737106,0.9621175,-0.0248084999999999,1.268406,0.9463175,-0.0782165,0.927661,-0.0030594999999999,0.0039224999999999,1.072339,0.0030594999999999,-0.0039225,0.895626,-0.4445825,0.0105634999999999,1.133566,-0.4173425,-0.0114955,0.896106,-0.8114325,-0.0213545,1.138636,-0.8048225,-0.0123225,0
144,0.99773,0.7021465,0.0258255,0.858016,0.4986865,0.0556815,0.754576,0.7347564999999999,0.0193945,1.144096,0.4923165,0.0310195,1.241426,0.7302664999999999,-0.0305805,0.728986,0.9527965,-0.0245005,1.267966,0.9434465,-0.0880955,0.927922,-0.0029835,0.0036315,1.072078,0.0029835,-0.0036315,0.898176,-0.4446235,0.0079435,1.136536,-0.4170034999999999,-0.0107265,0.902186,-0.8094535,-0.0186305,1.1451859999999998,-0.8049235,-0.0104415,0
145,0.997199,0.7035695,0.023457,0.855452,0.5013095,0.057155,0.743912,0.7296295,0.0220739999999999,1.145922,0.4936195,0.029815,1.248862,0.7229395,-0.036614,0.721892,0.9415695,-0.023861,1.267942,0.9374295,-0.0999489999999999,0.928358,-0.0028214999999999,0.0035079999999999,1.071642,0.0028215,-0.0035079999999999,0.901382,-0.4443605,0.005386,1.139342,-0.4174105,-0.010886,0.909762,-0.8071305,-0.015672,1.152792,-0.8039605,-0.008725,0
146,0.99596,0.705557,0.0211359999999999,0.852546,0.5041370000000001,0.05943,0.731946,0.720367,0.0263749999999999,1.147486,0.494317,0.028474,1.256706,0.711507,-0.044931,0.713356,0.927587,-0.023722,1.268086,0.925637,-0.114771,0.928846,-0.002746,0.0033689999999999,1.071154,0.0027459999999999,-0.0033689999999999,0.904676,-0.444853,0.003436,1.140266,-0.416483,-0.01417,0.918916,-0.802653,-0.0121369999999999,1.161346,-0.799723,-0.007515,0
147,0.994258,0.7078504999999999,0.0188505,0.849858,0.5064405,0.0616725,0.719588,0.7075505,0.0318505,1.149198,0.4947905,0.0272414999999999,1.264928,0.6969704999999999,-0.0517205,0.704898,0.9106005,-0.0228745,1.268588,0.9073905,-0.1303605,0.929438,-0.0026334999999999,0.0033595,1.070562,0.0026335,-0.0033595,0.908708,-0.4457894999999999,0.0021774999999999,1.13873,-0.4135495,-0.0204794999999999,0.928938,-0.7976395000000001,-0.0091964999999999,1.167038,-0.7963095,-0.0091725,0
148,0.9915185,0.7104245,0.0150884999999999,0.8475885,0.5081445,0.0643495,0.7060485000000001,0.6887745,0.0384124999999999,1.1495195,0.4930145,0.0246974999999999,1.2762285,0.6716945,-0.0551535,0.6962585,0.8867845,-0.0237205,1.2719685,0.8768144999999999,-0.1469035,0.9299885,-0.0026104999999999,0.0033345,1.0700115,0.0026105,-0.0033345,0.9156185,-0.4471755,0.0027645,1.1350885,-0.4079855,-0.0312935,0.9429885,-0.7923755,-0.0019394999999999,1.1676085,-0.7903455,-0.0164875,0
149,0.9890685,0.713035,0.0105959999999999,0.8466625,0.507965,0.06666,0.6926025,0.661115,0.0446509999999999,1.1505565,0.4912849999999999,0.021557,1.2877625,0.632125,-0.055261,0.6867624999999999,0.854865,-0.0289009999999999,1.2790725,0.823835,-0.164601,0.9303025,-0.0024939999999999,0.0037569999999999,1.0696975,0.002494,-0.0037569999999999,0.9261925,-0.448505,-0.002084,1.1242555,-0.402265,-0.049651,0.9609725,-0.786335,0.007803,1.1568385,-0.784625,-0.035351,0
150,0.9863645,0.7153475,0.0058389999999999,0.8460345000000001,0.5062775,0.0687329999999999,0.6779645000000001,0.6271975,0.0501939999999999,1.1520325,0.4894175,0.0185509999999999,1.2979445,0.5891375,-0.055966,0.6771045,0.8156175,-0.035416,1.2873445,0.7629775,-0.178696,0.9305145,-0.0022744999999999,0.0042959999999999,1.0694855,0.0022745,-0.004296,0.9368045,-0.4495524999999999,-0.006706,1.1126315,-0.3980025,-0.072496,0.9798945,-0.7796725,0.0185439999999999,1.1416105,-0.7759325,-0.061566,0
151,0.983441,0.717383,0.001265,0.845621,0.5037630000000001,0.070987,0.664451,0.590443,0.056574,1.153163,0.4865829999999999,0.01524,1.305641,0.5425730000000001,-0.0553449999999999,0.666981,0.772063,-0.042585,1.296701,0.6948230000000001,-0.189195,0.930671,-0.002136,0.005065,1.069329,0.0021359999999999,-0.005065,0.947711,-0.449467,-0.011205,1.100761,-0.391797,-0.0959749999999999,1.0002609999999998,-0.7726069999999999,0.03082,1.122463,-0.759447,-0.088975,0
152,0.9801485,0.719696,-0.00334,0.8457885,0.5001559999999999,0.0734519999999999,0.6542785,0.550916,0.0624589999999999,1.1536565,0.482776,0.01124,1.3089385,0.489306,-0.05093,0.6576085,0.7230059999999999,-0.05177,1.3049785,0.616186,-0.1955299999999999,0.9305885,-0.002106,0.0059099999999999,1.0694115,0.002106,-0.0059099999999999,0.9586685,-0.443684,-0.0083999999999999,1.0882485,-0.384364,-0.11871,1.0211885,-0.7652840000000001,0.043111,1.0935085,-0.7414540000000001,-0.12494,0
153,0.977084,0.720987,-0.0068249999999999,0.847154,0.493707,0.075952,0.6515040000000001,0.508757,0.068461,1.153004,0.476257,0.007405,1.305104,0.439697,-0.039295,0.6521239999999999,0.669797,-0.0600649999999999,1.311044,0.529247,-0.193985,0.930704,-0.002293,0.007595,1.069296,0.002293,-0.0075949999999999,0.970774,-0.440153,-0.0064449999999999,1.075271,-0.379683,-0.1417549999999999,1.040744,-0.760523,0.057763,1.061103,-0.727353,-0.158395,0
154,0.97374,0.722434,-0.0106249999999999,0.8490500000000001,0.4867539999999999,0.078462,0.65145,0.4681039999999999,0.073327,1.152798,0.470014,0.004025,1.29836,0.391654,-0.0255849999999999,0.6461600000000001,0.616294,-0.0698149999999999,1.31575,0.439704,-0.188415,0.93044,-0.002526,0.009005,1.06956,0.0025259999999999,-0.0090049999999999,0.98009,-0.436816,-0.0037449999999999,1.05947,-0.375456,-0.163925,1.05957,-0.755356,0.071715,1.02859,-0.718166,-0.191515,0
155,0.97228,0.7238165000000001,-0.013715,0.85217,0.4798465,0.079945,0.65705,0.4278165,0.080105,1.153539,0.4645265,0.000735,1.2897729999999998,0.3479165,-0.009385,0.6447499999999999,0.5622065,-0.079325,1.31904,0.3539965,-0.1735449999999999,0.93033,-0.0028255,0.0107049999999999,1.06967,0.0028255,-0.0107049999999999,0.99343,-0.4356735,0.002095,1.04605,-0.3726035,-0.182335,1.0786399999999998,-0.7518634999999999,0.086821,0.9964,-0.7024435,-0.219465,0
156,0.971715,0.724365,-0.0158349999999999,0.8558450000000001,0.473055,0.081635,0.6676050000000001,0.389635,0.087785,1.15404,0.459305,-0.0021349999999999,1.28081,0.307315,0.006975,0.646425,0.504605,-0.085765,1.320031,0.271955,-0.151265,0.929825,-0.002862,0.0117049999999999,1.070175,0.002862,-0.0117049999999999,1.009425,-0.435125,0.013885,1.034595,-0.363985,-0.195225,1.099195,-0.748235,0.108035,0.970805,-0.689505,-0.237575,0
157,0.97175,0.724365,-0.0161549999999999,0.8586,0.469215,0.082655,0.68031,0.357605,0.094415,1.1557389999999998,0.458695,-0.003275,1.267852,0.280585,0.022215,0.6479999999999999,0.453145,-0.090295,1.31751,0.205515,-0.1283849999999999,0.92926,-0.002862,0.012215,1.0707399999999998,0.002862,-0.0122149999999999,1.02254,-0.435125,0.023375,1.0240399999999998,-0.359935,-0.202845,1.1168699999999998,-0.7449749999999999,0.128325,0.95069,-0.676805,-0.2491149999999999,0
158,0.971,0.724625,-0.0154799999999999,0.86026,0.467335,0.08435,0.69409,0.332935,0.10221,1.15645,0.458695,-0.00402,1.254373,0.269165,0.03461,0.65115,0.409985,-0.0902,1.311475,0.162205,-0.10737,0.92912,-0.002862,0.0122999999999999,1.07088,0.002862,-0.0122999999999999,1.03192,-0.4331149999999999,0.04083,1.02093,-0.358075,-0.20199,1.12756,-0.741505,0.1443,0.94227,-0.666785,-0.24627,0
159,0.971235,0.725215,-0.01367,0.8625849999999999,0.466435,0.08618,0.709255,0.312575,0.10579,1.157545,0.458695,-0.0043799999999999,1.243562,0.261745,0.0472199999999999,0.654335,0.370575,-0.09203,1.305039,0.128045,-0.0877999999999999,0.929155,-0.002862,0.01299,1.0708449999999998,0.002862,-0.01299,1.041105,-0.429465,0.05865,1.0190849999999998,-0.357075,-0.19441,1.134445,-0.737005,0.15754,0.940165,-0.659925,-0.2337699999999999,0
160,0.970155,0.726583,-0.013015,0.864255,0.4646829999999999,0.0867749999999999,0.7253750000000001,0.2943929999999999,0.1105749999999999,1.158785,0.457833,-0.004425,1.235505,0.257953,0.0558649999999999,0.6595949999999999,0.332653,-0.092305,1.297063,0.102233,-0.074095,0.929205,-0.002929,0.0138849999999999,1.070795,0.0029289999999999,-0.013885,1.049485,-0.424697,0.0745749999999999,1.020625,-0.355187,-0.181625,1.117145,-0.731407,0.1535549999999999,0.945115,-0.655497,-0.214655,0
161,0.96779,0.727823,-0.0134099999999999,0.8647199999999999,0.462803,0.08567,0.73926,0.281163,0.11359,1.15805,0.457663,-0.0053799999999999,1.23059,0.256933,0.0561599999999999,0.66279,0.300673,-0.09437,1.289917,0.088867,-0.0644,0.92955,-0.003283,0.0148099999999999,1.07045,0.003283,-0.0148099999999999,1.05544,-0.419787,0.08695,1.02288,-0.353357,-0.17075,1.10236,-0.7252770000000001,0.15089,0.95946,-0.6545270000000001,-0.18582,0
162,0.964745,0.7282655,-0.0145799999999999,0.8643149999999999,0.4596355,0.08335,0.750355,0.2735855,0.11384,1.157725,0.4578955,-0.0052999999999999,1.229675,0.2556055,0.05175,0.666515,0.2759655,-0.0965599999999999,1.284448,0.0856305,-0.0590099999999999,0.929535,-0.0038805,0.01482,1.070465,0.0038805,-0.01482,1.039875,-0.4066944999999999,0.07473,1.025275,-0.3523745,-0.1579899999999999,1.0832449999999998,-0.7152845,0.13806,0.974365,-0.6548745,-0.15893,0
163,0.95929,0.7286645,-0.0170649999999999,0.8625600000000001,0.4562445,0.078105,0.7589800000000001,0.2657845,0.112055,1.15481,0.4597845,-0.0065949999999999,1.23057,0.2541145,0.045735,0.67066,0.2515145,-0.0977549999999999,1.27933,0.0832355,-0.0576749999999999,0.92979,-0.0042905,0.014985,1.07021,0.0042905,-0.0149849999999999,1.02593,-0.3944055,0.061585,1.03227,-0.3525955,-0.1430849999999999,1.04935,-0.7034255,0.105985,0.99035,-0.6560955,-0.1297649999999999,0
164,0.952615,0.728548,-0.0196549999999999,0.860125,0.453248,0.073715,0.763765,0.260188,0.106395,1.151855,0.462528,-0.0067849999999999,1.231825,0.256498,0.039675,0.673095,0.230298,-0.0992949999999999,1.275745,0.078773,-0.061005,0.929755,-0.004586,0.014585,1.070245,0.004586,-0.014585,1.007085,-0.387352,0.044845,1.037915,-0.353702,-0.128025,1.011175,-0.693172,0.072195,1.0053949999999998,-0.661442,-0.1045949999999999,0
165,0.943895,0.72761,-0.0230549999999999,0.8560050000000001,0.45215,0.068595,0.765455,0.25655,0.098705,1.148005,0.46646,-0.0066649999999999,1.231655,0.26069,0.033985,0.6729849999999999,0.21442,-0.103955,1.271885,0.074746,-0.0672349999999999,0.929945,-0.0047359999999999,0.014425,1.070055,0.004736,-0.0144249999999999,0.984455,-0.37997,0.022815,1.045655,-0.35369,-0.112495,0.970025,-0.6828500000000001,0.035665,1.018145,-0.6641600000000001,-0.0827149999999999,0
166,0.934815,0.726959,-0.02706,0.8518950000000001,0.451499,0.06305,0.766605,0.253889,0.0908299999999999,1.143635,0.471129,-0.00663,1.231485,0.263899,0.0293299999999999,0.673225,0.199829,-0.10868,1.2692949999999998,0.072091,-0.07039,0.930095,-0.005137,0.0144799999999999,1.069905,0.005137,-0.01448,0.962165,-0.373051,0.0020399999999999,1.0545049999999998,-0.353931,-0.09677,0.931185,-0.672621,0.0022199999999999,1.0311549999999998,-0.665881,-0.06059,0
167,0.925245,0.726708,-0.0321799999999999,0.847005,0.451248,0.0554399999999999,0.7649750000000001,0.251728,0.0782999999999999,1.138045,0.475778,-0.0068799999999999,1.230115,0.267108,0.0277699999999999,0.671625,0.183438,-0.11457,1.264385,0.072704,-0.07051,0.930105,-0.0053879999999999,0.0144499999999999,1.0698949999999998,0.005388,-0.01445,0.941255,-0.365872,-0.0194499999999999,1.064555,-0.353952,-0.08093,0.899885,-0.662782,-0.02536,1.045315,-0.668062,-0.0387199999999999,0
168,0.9143,0.7264275,-0.0386149999999999,0.84093,0.4509674999999999,0.0479249999999999,0.7632899999999999,0.2497175,0.069905,1.1313,0.4800975,-0.0070449999999999,1.22602,0.2699574999999999,0.0279249999999999,0.6719599999999999,0.1683875,-0.118195,1.25886,0.0740185,-0.066705,0.92999,-0.0056684999999999,0.013565,1.07001,0.0056685,-0.013565,0.92102,-0.3587725,-0.0409049999999999,1.07509,-0.3595125,-0.0664749999999999,0.8725099999999999,-0.6541225,-0.048265,1.05875,-0.6700925,-0.017475,0
169,0.90444,0.7255050000000001,-0.0436599999999999,0.8359100000000002,0.450215,0.04193,0.7596500000000002,0.246965,0.05902,1.12507,0.482695,-0.00661,1.22092,0.270215,0.03178,0.67194,0.153515,-0.12217,1.2539,0.074091,-0.0572199999999999,0.92981,-0.0056809999999999,0.0121999999999999,1.07019,0.005681,-0.0121999999999999,0.90153,-0.352025,-0.0609499999999999,1.08217,-0.360755,-0.05652,0.8684500000000002,-0.6480049999999999,-0.05445,1.06958,-0.670105,-0.0001599999999999,0
170,0.8956300000000001,0.723474,-0.0482099999999999,0.8301500000000002,0.4488439999999999,0.0361,0.7567200000000001,0.2440739999999999,0.04974,1.11988,0.484444,-0.00533,1.21557,0.270264,0.0370899999999999,0.67466,0.140564,-0.12316,1.24964,0.07414,-0.0445299999999999,0.92945,-0.00573,0.0106399999999999,1.07055,0.0057299999999999,-0.0106399999999999,0.8844700000000001,-0.345726,-0.07898,1.08904,-0.361626,-0.04568,0.8657400000000001,-0.642786,-0.0582599999999999,1.07991,-0.6721860000000001,0.01671,0
171,0.887195,0.7214619999999999,-0.0530049999999999,0.824945,0.447782,0.030455,0.753945,0.241552,0.0407649999999999,1.114035,0.486212,-0.005055,1.209665,0.270622,0.042725,0.6770449999999999,0.127952,-0.1250649999999999,1.2447849999999998,0.074498,-0.030595,0.929245,-0.006088,0.0093849999999999,1.070755,0.006088,-0.0093849999999999,0.886125,-0.345368,-0.073245,1.095505,-0.361778,-0.0364349999999999,0.864905,-0.6414880000000001,-0.055695,1.0900249999999998,-0.673228,0.0316149999999999,0
172,0.881015,0.7184765000000001,-0.0565849999999999,0.821155,0.4458765,0.026965,0.7524649999999999,0.2399164999999999,0.034345,1.1096149999999998,0.4876965,-0.0041149999999999,1.203395,0.2714864999999999,0.0495649999999999,0.679385,0.1188365,-0.126965,1.240455,0.0736075,-0.017015,0.928975,-0.0065655,0.0080649999999999,1.071025,0.0065654999999999,-0.0080649999999999,0.888415,-0.3445635,-0.067265,1.105475,-0.3612235,-0.029525,0.8703450000000001,-0.6406835,-0.0461049999999999,1.098495,-0.6745635,0.043345,0
173,0.875,0.7154805,-0.060605,0.81733,0.4439205,0.0229149999999999,0.75139,0.2384204999999999,0.0285249999999999,1.10471,0.4891105,-0.003985,1.19697,0.2716504999999999,0.0562249999999999,0.6821200000000001,0.1102105,-0.128765,1.23569,0.0713315,-0.004125,0.92884,-0.0070114999999999,0.0070049999999999,1.07116,0.0070115,-0.007005,0.89169,-0.3437895,-0.061175,1.11482,-0.3604495,-0.0233350000000001,0.8772400000000001,-0.6399095,-0.036155,1.10693,-0.6740695,0.0543349999999999,0
174,0.8708200000000001,0.713425,-0.064845,0.81471,0.442955,0.0191749999999999,0.7499900000000002,0.237055,0.0234849999999999,1.1009,0.490715,-0.004655,1.19243,0.271585,0.0622549999999999,0.685,0.103915,-0.131135,1.23342,0.068427,0.0050149999999999,0.92879,-0.007342,0.0062649999999999,1.07121,0.007342,-0.006265,0.89569,-0.344995,-0.056085,1.11972,-0.359495,-0.0199949999999999,0.88544,-0.638955,-0.027095,1.11428,-0.6742750000000001,0.0620149999999999,0
175,0.8674700000000001,0.711562,-0.0688099999999999,0.81248,0.442252,0.01597,0.74872,0.235952,0.0186,1.09765,0.492442,-0.0057499999999999,1.18846,0.270932,0.06759,0.6859300000000002,0.097292,-0.1323599999999999,1.23115,0.065906,0.01436,0.9289,-0.007568,0.0058099999999999,1.0711,0.007568,-0.0058099999999999,0.8995600000000001,-0.346168,-0.0514799999999999,1.12243,-0.3586379999999999,-0.0175299999999999,0.89352,-0.639968,-0.01932,1.12131,-0.675158,0.0682,0
176,0.865075,0.7097495,-0.072035,0.810865,0.4415894999999999,0.0143349999999999,0.7490749999999999,0.2348295,0.018355,1.095805,0.4939495,-0.006475,1.186035,0.2705495,0.0715449999999999,0.6887749999999999,0.0949594999999999,-0.131125,1.231475,0.0650085,0.0203749999999999,0.928975,-0.0077905,0.0054449999999999,1.071025,0.0077905,-0.005445,0.902295,-0.3470505,-0.048345,1.124585,-0.3583705,-0.016125,0.900105,-0.6407205,-0.013735,1.126895,-0.6758205,0.0723549999999999,0
177,0.86356,0.7080295,-0.074315,0.8094700000000001,0.4408595,0.0127749999999999,0.74964,0.2335095,0.0193549999999999,1.0942,0.4953095,-0.007555,1.18482,0.2707995,0.0739149999999999,0.6913400000000001,0.0927455,-0.126885,1.23207,0.0651964999999999,0.0247149999999999,0.92902,-0.0079955,0.0051749999999999,1.07098,0.0079955,-0.005175,0.90442,-0.3480705,-0.046205,1.12626,-0.3582105,-0.015645,0.90511,-0.6415605000000001,-0.010325,1.13129,-0.6763905,0.0750449999999999,0
178,0.8624800000000001,0.7067745,-0.0769899999999998,0.8075600000000001,0.4404145,0.01073,0.7504100000000001,0.2325345,0.02161,1.09225,0.4959145,-0.0089499999999999,1.18397,0.2710945,0.07557,0.6944600000000001,0.0903375,-0.1232099999999999,1.23308,0.0654915,0.02849,0.92911,-0.0080445,0.00502,1.07089,0.0080445,-0.0050199999999999,0.90638,-0.3484155,-0.0443599999999999,1.12781,-0.3586155,-0.0151999999999999,0.90971,-0.6416755,-0.0075499999999999,1.1354,-0.6760955,0.0775800000000001,0
179,0.86183,0.7056104999999999,-0.0792149999999999,0.80731,0.4398705,0.010055,0.7511900000000001,0.2318805,0.024435,1.09203,0.4963005,-0.0091749999999999,1.1833399999999998,0.2713205,0.076485,0.69848,0.0869545,-0.1199149999999998,1.23419,0.0657175,0.031925,0.92922,-0.0080935,0.004935,1.0707799999999998,0.0080935,-0.0049349999999999,0.90858,-0.3487395,-0.0426749999999999,1.1294,-0.3589795,-0.0148349999999999,0.91415,-0.6417695000000001,-0.0048749999999999,1.1392399999999998,-0.6758695,0.079675,0
180,0.86134,0.7045604999999999,-0.081065,0.8068000000000001,0.4392005,0.0096049999999999,0.7523500000000001,0.2311905,0.0273949999999999,1.09209,0.4963005,-0.0093849999999999,1.18272,0.2713205,0.0767649999999999,0.7029000000000001,0.0822385,-0.117055,1.23555,0.0657175,0.0345649999999999,0.92934,-0.0080935,0.004915,1.07066,0.0080935,-0.004915,0.91075,-0.3489295,-0.041185,1.13104,-0.3591495,-0.0144549999999999,0.91804,-0.6417695000000001,-0.0025549999999999,1.14246,-0.6758695,0.0811849999999999,0
181,0.8607949999999999,0.703955,-0.0826549999999999,0.805015,0.4394349999999999,0.0080149999999999,0.753125,0.230485,0.021205,1.089635,0.497555,-0.0111049999999999,1.1843849999999998,0.2721849999999999,0.078995,0.6886950000000001,0.100855,-0.142065,1.238875,0.065422,0.0459249999999999,0.929225,-0.008126,0.0044049999999999,1.0707749999999998,0.008126,-0.0044049999999999,0.913075,-0.349305,-0.0384949999999999,1.133195,-0.359635,-0.0135349999999999,0.928195,-0.7439549999999999,0.025915,1.147185,-0.6747449999999999,0.083685,0
182,0.8606850000000001,0.7035020000000001,-0.0839299999999999,0.804305,0.438662,0.0074699999999999,0.7531550000000002,0.230012,0.0241299999999999,1.089615,0.4982319999999999,-0.0111499999999999,1.183265,0.274092,0.0776299999999999,0.6886950000000001,0.078646,-0.11846,1.2400950000000002,0.068045,0.04366,0.9293550000000002,-0.008142,0.0044699999999999,1.070645,0.008142,-0.0044699999999999,0.915095,-0.349488,-0.0376199999999999,1.1347850000000002,-0.360608,-0.01331,0.931635,-0.7439779999999999,0.02739,1.149885,-0.6747879999999999,0.0847599999999999,0
183,0.859665,0.7017935,-0.086735,0.8045050000000001,0.4374134999999999,0.008855,0.752725,0.2298635,0.030905,1.092625,0.4988435,-0.0094549999999999,1.181835,0.2763035,0.075205,0.699405,0.0693875,-0.1063349999999999,1.240055,0.0716245,0.0340949999999999,0.929735,-0.0081185,0.004925,1.070265,0.0081185,-0.0049249999999999,0.917975,-0.3496565,-0.036825,1.136065,-0.3605865,-0.013525,0.935415,-0.7439465000000001,0.029065,1.151605,-0.6751865,0.0844449999999999,0
184,0.859235,0.7009584999999999,-0.0874100000000001,0.8043149999999999,0.4365684999999999,0.0097999999999999,0.752825,0.2295185,0.0349099999999998,1.0946049999999998,0.4983185,-0.00833,1.1796449999999998,0.2786785,0.0735799999999999,0.7087749999999999,0.0579215,-0.09155,1.238905,0.0752105,0.0271499999999998,0.929895,-0.0081605,0.0053499999999999,1.070105,0.0081605,-0.00535,0.918695,-0.3497415,-0.03675,1.136235,-0.3609615,-0.0136600000000001,0.930125,-0.6421315000000001,0.0042699999999998,1.150445,-0.6750015,0.0834299999999999,0
185,0.8581749999999999,0.699824,-0.0874249999999999,0.803045,0.435014,0.0115549999999999,0.7542949999999999,0.228474,0.0425849999999999,1.097275,0.4980839999999999,-0.0063649999999999,1.1767949999999998,0.280664,0.072165,0.719665,0.052055,-0.0802249999999999,1.235925,0.078917,0.017345,0.930225,-0.008254,0.006025,1.069775,0.008254,-0.0060249999999999,0.919165,-0.349826,-0.0368749999999999,1.133935,-0.360476,-0.0143449999999999,0.931825,-0.641956,0.005415,1.144955,-0.673846,0.0839649999999999,0
186,0.8581399999999999,0.6996795,-0.0871049999999999,0.8029099999999999,0.4346595,0.012245,0.75809,0.2275394999999999,0.045245,1.09856,0.4980095,-0.0054049999999999,1.1760199999999998,0.2811595,0.071935,0.7283200000000001,0.0425324999999999,-0.0651249999999999,1.23393,0.0802475,0.012315,0.93032,-0.0082765,0.006255,1.06968,0.0082765,-0.0062549999999998,0.91959,-0.3498705,-0.0368149999999999,1.1334,-0.3601505,-0.0143749999999999,0.93226,-0.6419505000000001,0.005695,1.13915,-0.6739005,0.0840550000000001,0
187,0.8573200000000001,0.6993015,-0.08853,0.8017600000000001,0.4340615,0.01221,0.76154,0.2266615,0.0487499999999999,1.0989,0.4979915,-0.00578,1.17504,0.2811615,0.07099,0.73534,0.0373875,-0.0548299999999999,1.23227,0.0806085,0.00924,0.93043,-0.0083755,0.0065199999999999,1.06957,0.0083755,-0.0065199999999999,0.92037,-0.3501085,-0.03578,1.13289,-0.3601085,-0.0127699999999999,0.9335,-0.6420085,0.00773,1.13648,-0.6730685000000001,0.08554,0
