sb224sc-HT22-VT27/4dt907/src/data/labeled_files/A24_kinect_mirrored.csv
FrameNo,nose_3d_x,nose_3d_y,nose_3d_z,left_shoulder_3d_x,left_shoulder_3d_y,left_shoulder_3d_z,left_elbow_3d_x,left_elbow_3d_y,left_elbow_3d_z,right_shoulder_3d_x,right_shoulder_3d_y,right_shoulder_3d_z,right_elbow_3d_x,right_elbow_3d_y,right_elbow_3d_z,left_wrist_3d_x,left_wrist_3d_y,left_wrist_3d_z,right_wrist_3d_x,right_wrist_3d_y,right_wrist_3d_z,left_hip_3d_x,left_hip_3d_y,left_hip_3d_z,right_hip_3d_x,right_hip_3d_y,right_hip_3d_z,left_knee_3d_x,left_knee_3d_y,left_knee_3d_z,right_knee_3d_x,right_knee_3d_y,right_knee_3d_z,left_ankle_3d_x,left_ankle_3d_y,left_ankle_3d_z,right_ankle_3d_x,right_ankle_3d_y,right_ankle_3d_z,activity_label
0,0.991528,0.751965,0.0470725,0.836035,0.457075,0.0614315,0.817875,0.203975,0.0694205,1.151075,0.461015,0.0663695,1.179375,0.204135,0.0677185,0.8006949999999999,0.000278,-7.650000000000018e-05,1.204505,0.002991,-0.0069874999999999,0.928161,-0.003186,-8.84999999999983e-05,1.071839,0.003186,8.850000000000524e-05,0.8915150000000001,-0.4193849999999999,-0.0002424999999999,1.126035,-0.3844749999999999,-0.0191264999999999,0.886615,-0.7411150000000001,-0.0348735,1.130745,-0.740255,-0.0231924999999999,0
1,0.9910415,0.7521875,0.0471209999999999,0.8363505,0.4571275,0.0616489999999999,0.8175605000000001,0.2035975,0.067602,1.1510405,0.4609375,0.066061,1.1792005,0.2042574999999999,0.066897,0.8003205,-0.0004504999999999,-0.000698,1.2027905,0.0026915,-0.007142,0.9281055,-0.0031834999999999,-0.0001379999999999,1.0718945,0.0031835,0.0001379999999999,0.8911405,-0.4184325,-0.000219,1.1259705,-0.3859125,-0.018616,0.8862505,-0.7407125,-0.035415,1.1311505,-0.7385325,-0.022986,0
2,0.990784,0.7522085,0.047345,0.836386,0.4569385,0.062034,0.8175060000000001,0.2040985,0.065705,1.151936,0.4601085,0.066032,1.179496,0.2047284999999999,0.06624,0.799666,0.0004595,-0.003817,1.201816,0.0049475,-0.013512,0.928116,-0.0032105,-0.00016,1.071884,0.0032105,0.00016,0.8910760000000001,-0.4187915,-3.600000000000131e-05,1.125836,-0.3857715,-0.018563,0.886036,-0.7409515000000001,-0.035311,1.130796,-0.7385115,-0.023271,0
3,0.990248,0.7521874999999999,0.0477359999999999,0.836407,0.4567275,0.0623009999999999,0.814337,0.2074975,0.0577299999999999,1.152847,0.4596075,0.066219,1.185857,0.2079575,0.0580769999999999,0.795337,0.0063965,-0.019478,1.2220369999999998,0.0074825,-0.052432,0.9281,-0.0032435,-0.000176,1.0719,0.0032435,0.0001759999999999,0.8908570000000001,-0.4186625,7.299999999999668e-05,1.1256469999999998,-0.3856525,-0.018484,0.886267,-0.7416325,-0.035109,1.130477,-0.7385025000000001,-0.023306,0
4,0.989989,0.7523005,0.048823,0.8369420000000001,0.4569105,0.062731,0.809442,0.2182205,0.045613,1.151592,0.4603405,0.0665,1.194762,0.2217805,0.044967,0.777252,0.0254924999999999,-0.048568,1.237232,0.0363795,-0.059853,0.92812,-0.0032884999999999,-9.000000000002062e-06,1.07188,0.0032885,9.000000000002062e-06,0.890872,-0.4184695,0.000118,1.125762,-0.3850895,-0.018209,0.888852,-0.7436294999999999,-0.034446,1.129802,-0.7365295,-0.023209,0
5,0.990072,0.752601,0.0494725,0.837099,0.457151,0.0628644999999999,0.8005990000000001,0.234711,0.0354545,1.152089,0.460581,0.0661605,1.203509,0.235571,0.0324195,0.773249,0.041769,-0.0600995,1.244599,0.049738,-0.0722795,0.928042,-0.003377,0.0002915,1.071958,0.003377,-0.0002915,0.891329,-0.417219,0.0004324999999999,1.126409,-0.383329,-0.0175915,0.888809,-0.743459,-0.0345845,1.129579,-0.7361489999999999,-0.0235705,0
6,0.9872445,0.7510140000000001,0.0560795,0.8368915,0.458344,0.0573295,0.7572115,0.275934,-0.0395385,1.1490915,0.463574,0.0660685,1.2547815,0.298444,-0.0360855,0.7104115,0.1373839999999999,-0.2028174999999999,1.3150715,0.173534,-0.2057675,0.9274335,-0.00375,0.0001574999999999,1.0725665,0.00375,-0.0001575,0.8924515000000001,-0.414696,0.0018434999999999,1.1279715,-0.366006,-0.0143055,0.8922315000000001,-0.7472359999999999,-0.0326965,1.1309115,-0.737026,-0.0205555,0
7,0.9881795,0.75089,0.0572345,0.8398325,0.46128,0.0562605,0.7502025000000001,0.31959,-0.0412595,1.1472125,0.46508,0.0641095,1.2524825,0.33447,-0.0331154999999999,0.7023025,0.22551,-0.2082284999999999,1.3145425,0.25249,-0.2024984999999999,0.9271155,-0.003435,-0.0008314999999999,1.0728844999999998,0.003435,0.0008315,0.8925925000000001,-0.41451,0.0013815,1.1265525,-0.37109,-0.0159334999999999,0.8897325000000001,-0.74487,-0.0345884999999999,1.1303125,-0.7383700000000001,-0.0214515,0
8,0.987815,0.750432,0.0591815,0.840355,0.463172,0.0550245,0.736715,0.351022,-0.0578505,1.146665,0.466232,0.0631275,1.265565,0.366892,-0.0480745,0.684165,0.287502,-0.2402454999999999,1.330905,0.3174119999999999,-0.2283255,0.926908,-0.003446,-0.0011175,1.073092,0.003446,0.0011175,0.892975,-0.413708,0.0015545,1.126595,-0.368888,-0.0156984999999999,0.890095,-0.745358,-0.0347665,1.130295,-0.738298,-0.0208485,0
9,0.9874985,0.74984,0.061046,0.8404925,0.4653199999999999,0.053679,0.7236525,0.38458,-0.071903,1.1462725,0.46748,0.061926,1.2774925,0.40032,-0.061299,0.6687525000000001,0.35189,-0.264003,1.3450125,0.3841799999999999,-0.249913,0.9267245,-0.003429,-0.0013769999999999,1.0732755,0.003429,0.0013769999999999,0.8933725000000001,-0.41309,0.001663,1.1266425,-0.36674,-0.0155209999999999,0.8902025000000001,-0.74599,-0.034799,1.1303025,-0.7385200000000001,-0.0203169999999999,0
10,0.987195,0.7489795,0.062854,0.840313,0.4674995,0.052442,0.7125630000000001,0.4180795,-0.083101,1.145953,0.4688895,0.060617,1.288053,0.4347795,-0.071911,0.6549130000000001,0.4201995,-0.282211,1.357363,0.4543594999999999,-0.266931,0.926581,-0.0033965,-0.0016509999999999,1.073419,0.0033965,0.001651,0.893723,-0.4128405,0.001679,1.126643,-0.3651305,-0.01541,0.890363,-0.7468505,-0.034781,1.130343,-0.7393105,-0.019893,0
11,0.9871825,0.7478870000000001,0.063678,0.8402695,0.469617,0.05158,0.7054294999999999,0.449057,-0.0858319999999999,1.1459095,0.470207,0.059243,1.2929095,0.464657,-0.074202,0.6487695,0.4818969999999999,-0.283052,1.3616495,0.514127,-0.267442,0.9265255,-0.003325,-0.0019249999999999,1.0734745,0.003325,0.0019249999999999,0.8938195,-0.413113,0.0016889999999999,1.1266094999999998,-0.365633,-0.0155789999999999,0.8903395000000001,-0.747953,-0.034848,1.1303195,-0.7400129999999999,-0.019539,0
12,0.9872185,0.746297,0.064361,0.8402885,0.471967,0.0508939999999999,0.6994785,0.483507,-0.086097,1.1459085,0.471727,0.0578739999999999,1.2963985,0.497387,-0.074627,0.6456185,0.545087,-0.283357,1.3620285,0.576417,-0.267817,0.9264975,-0.003241,-0.002118,1.0735025,0.003241,0.0021179999999999,0.8939285,-0.413963,0.0017439999999999,1.1266385,-0.366653,-0.015681,0.8903585,-0.749353,-0.034847,1.1303585,-0.741243,-0.019189,0
13,0.987243,0.744121,0.064604,0.8402960000000002,0.474551,0.05048,0.6960660000000001,0.5149509999999999,-0.086259,1.145916,0.473271,0.056665,1.2979759999999998,0.5260009999999999,-0.074859,0.645636,0.603471,-0.283569,1.362046,0.631361,-0.268029,0.926475,-0.003097,-0.002208,1.073525,0.003097,0.002208,0.893946,-0.415329,0.0017239999999999,1.126656,-0.368439,-0.015731,0.8903860000000001,-0.751259,-0.034669,1.130386,-0.742519,-0.018705,0
14,0.9874985,0.7419110000000001,0.0645304999999999,0.8404265000000001,0.477121,0.0503095,0.6961065,0.5402210000000001,-0.0863285,1.1461265,0.474901,0.0554185,1.2980165,0.5499210000000001,-0.0749285,0.6456765,0.649561,-0.2836385,1.3620865,0.676351,-0.2679385,0.9264345,-0.002967,-0.0021385,1.0735655,0.002967,0.0021385,0.8939965,-0.417069,0.0017234999999999,1.1265165,-0.371489,-0.0156994999999999,0.8901065,-0.7530889999999999,-0.0341835,1.1302065,-0.744759,-0.0178745,0
15,0.9877505,0.7396035,0.064527,0.8406355,0.4795635,0.050306,0.6961554999999999,0.5647735,-0.085709,1.1460655,0.4766935,0.054449,1.2980855,0.5726635,-0.0730089999999999,0.6457955,0.6953335,-0.278669,1.3622155,0.7170035,-0.262439,0.9264005,-0.0028615,-0.002138,1.0735995,0.0028614999999999,0.002138,0.8940355000000001,-0.4189065,0.001785,1.1263854999999998,-0.3747465,-0.0156979999999999,0.8898455000000001,-0.7553765,-0.033993,1.1302655,-0.7474565,-0.017805,0
16,0.988022,0.7372810000000001,0.064522,0.8410839999999999,0.4813409999999999,0.050329,0.696304,0.5874910000000001,-0.08062,1.146374,0.478381,0.0537659999999999,1.298234,0.592801,-0.067828,0.647274,0.7367410000000001,-0.26284,1.360824,0.753251,-0.24979,0.926415,-0.0027729999999999,-0.002138,1.073585,0.002773,0.0021379999999999,0.894054,-0.420789,0.001836,1.126264,-0.377659,-0.015696,0.889624,-0.7577889999999999,-0.033799,1.130214,-0.7502989999999999,-0.017716,0
17,0.9883525,0.7348509999999999,0.0643644999999999,0.8412815,0.482861,0.0505095,0.6984115,0.611331,-0.0710325,1.1466815,0.480951,0.0534245,1.2954115,0.616031,-0.0602185,0.6518115000000001,0.775431,-0.2398025,1.3558515,0.790001,-0.2282425,0.9265155,-0.0027669999999999,-0.0020405,1.0734845,0.002767,0.0020405,0.8940215,-0.423299,0.0019785,1.1261815,-0.3810389999999999,-0.0155965,0.8896015,-0.7609090000000001,-0.0334724999999999,1.1301314999999998,-0.753429,-0.0169595,0
18,0.9887005,0.7323905,0.063336,0.8414195000000001,0.4843505,0.050858,0.7023295,0.6329005,-0.0587789999999999,1.1468995,0.4846805,0.053491,1.2911495,0.6412605,-0.0507609999999999,0.6599595,0.8129105,-0.211004,1.3473894999999998,0.8244505,-0.200154,0.9266435,-0.0027495,-0.0018359999999999,1.0733564999999998,0.0027494999999999,0.001836,0.8939395,-0.4262395,0.002255,1.1259695,-0.3849995,-0.0153559999999999,0.8896895,-0.7647895,-0.0329129999999999,1.1301495,-0.7572995,-0.016131,0
19,0.98904,0.7301305,0.062175,0.84154,0.4858904999999999,0.05122,0.70671,0.6530205,-0.0465349999999999,1.14702,0.4884105,0.053775,1.28633,0.6640405,-0.041448,0.66837,0.8450005,-0.1809799999999999,1.33873,0.8543605000000001,-0.17226,0.926762,-0.0027784999999999,-0.0016479999999999,1.073238,0.0027784999999999,0.001648,0.8938200000000001,-0.4289495,0.002565,1.12575,-0.3888095,-0.015029,0.88979,-0.7685995,-0.032339,1.13026,-0.7612895,-0.015548,0
20,0.9894105,0.727996,0.0609605,0.8417565000000001,0.487276,0.0514065,0.7119964999999999,0.671186,-0.0349074999999999,1.1471465,0.492006,0.0540135,1.2810365,0.684446,-0.0320764999999999,0.6777565,0.873126,-0.1516705,1.3296265,0.881116,-0.1443505,0.9268785,-0.0027969999999999,-0.0014815,1.0731215,0.002797,0.0014815,0.8936465000000001,-0.431584,0.0029315,1.1255365,-0.392444,-0.0146204999999999,0.8897365000000002,-0.771894,-0.0316495,1.1302365,-0.765604,-0.0152205,0
21,0.989752,0.726381,0.0595749999999999,0.84223,0.488251,0.051649,0.71719,0.683431,-0.024276,1.14723,0.495361,0.05436,1.27563,0.6994710000000001,-0.02258,0.6867,0.8948010000000001,-0.126254,1.3206,0.900231,-0.119164,0.927006,-0.0028129999999999,-0.001445,1.072994,0.002813,0.0014449999999999,0.89342,-0.4337789999999999,0.0032829999999999,1.12529,-0.395569,-0.014233,0.8896900000000001,-0.7747689999999999,-0.031032,1.13,-0.768469,-0.014351,0
22,0.9900935,0.7252799999999999,0.058116,0.8428555,0.4887,0.051996,0.7228455,0.69378,-0.014946,1.1472555,0.49839,0.054716,1.2705855,0.71243,-0.01374,0.6946055,0.91188,-0.104238,1.3122555,0.91502,-0.0961679999999999,0.9271285,-0.0028619999999999,-0.0014339999999999,1.0728715,0.002862,0.0014339999999999,0.8931555,-0.43577,0.0036249999999999,1.1250055,-0.39827,-0.0138199999999999,0.8896455,-0.7772800000000001,-0.030365,1.1297455,-0.77074,-0.0135629999999999,0
23,0.990692,0.724375,0.0566305,0.843828,0.488935,0.0523164999999999,0.7287680000000001,0.703975,-0.0055165,1.146938,0.501065,0.0552484999999999,1.265378,0.7241850000000001,-0.0054405,0.702488,0.927195,-0.0834945,1.303858,0.927745,-0.0747245,0.927208,-0.002846,-0.0015345,1.072792,0.002846,0.0015344999999999,0.8927180000000001,-0.437625,0.0039344999999999,1.124468,-0.400155,-0.0133865,0.889198,-0.779805,-0.0297755,1.129228,-0.772955,-0.0127905,0
24,0.9913875,0.7234755,0.0551465,0.8452805,0.4891155,0.0526465,0.7346604999999999,0.7133655,0.0038694999999999,1.1464005,0.5033755,0.0558354999999999,1.2604805,0.7354655,0.0027384999999999,0.7100405000000001,0.9368655,-0.0628364999999999,1.2959705,0.9393455,-0.0538325,0.9272655,-0.0028134999999999,-0.0017355,1.0727345,0.0028135,0.0017355,0.8922905,-0.4394445,0.0042605,1.1239205,-0.4020145,-0.0129545,0.8887205,-0.7822844999999999,-0.0291655,1.1286405,-0.7754845,-0.0123334999999999,0
25,0.992132,0.7226245,0.053704,0.8470949999999999,0.4893345,0.052772,0.739745,0.7216144999999999,0.012478,1.145675,0.5055945,0.056434,1.255925,0.7458644999999999,0.010717,0.717085,0.9455245,-0.0431919999999999,1.288645,0.9493945,-0.034486,0.927291,-0.0027685,-0.0020519999999999,1.072709,0.0027685,0.002052,0.891875,-0.4411755,0.004594,1.123395,-0.4042055,-0.0125429999999999,0.888365,-0.7847255000000001,-0.028605,1.128085,-0.7780455000000001,-0.0120089999999999,0
26,0.992897,0.7219365,0.052559,0.848804,0.4894365,0.053074,0.742874,0.7253965,0.018095,1.144764,0.5069064999999999,0.057409,1.253994,0.7506965,0.016513,0.721634,0.9502765,-0.0304499999999999,1.283634,0.9535765,-0.0210599999999999,0.927352,-0.0026535,-0.0023709999999999,1.072648,0.0026534999999999,0.002371,0.891474,-0.4423435,0.004897,1.122874,-0.4060435,-0.0122049999999999,0.888064,-0.7870635,-0.028272,1.127614,-0.7801035000000001,-0.0117889999999999,0
27,0.9936955,0.721363,0.0522575,0.8499075,0.4892729999999999,0.0533455,0.7442075,0.727513,0.0209294999999999,1.1442075,0.507043,0.0583785,1.2529875,0.750933,0.0200484999999999,0.7234975,0.951843,-0.0239295,1.2816475,0.955143,-0.0142505,0.9274285,-0.002575,-0.0026365,1.0725715,0.002575,0.0026365,0.8911074999999999,-0.443017,0.0051614999999999,1.1224675,-0.4070169999999999,-0.0118505,0.8877175,-0.788677,-0.0279485,1.1271975,-0.782067,-0.0120805,0
28,0.9946025,0.720836,0.0520065,0.8509504999999999,0.489006,0.0536725,0.7453004999999999,0.729206,0.0233474999999999,1.1438005,0.507046,0.0593415,1.2520305,0.751086,0.0237555,0.7248605,0.953106,-0.0182435,1.2801705,0.956606,-0.0078735,0.9275025,-0.002465,-0.0029075,1.0724975,0.002465,0.0029074999999999,0.8907405,-0.443694,0.0054134999999999,1.1220605,-0.407794,-0.0115225,0.8873305,-0.790224,-0.0277575,1.1267505,-0.783944,-0.0123645,0
29,0.995534,0.7204419999999999,0.05169,0.851952,0.4888319999999999,0.053845,0.746102,0.730992,0.025372,1.143432,0.506942,0.060064,1.251292,0.751172,0.027212,0.7257820000000001,0.954372,-0.01347,1.279122,0.957972,-0.0025639999999999,0.927557,-0.00237,-0.0032439999999999,1.072443,0.0023699999999999,0.003244,0.890362,-0.444208,0.0055319999999999,1.121622,-0.408348,-0.0113139999999999,0.886922,-0.791608,-0.027763,1.126302,-0.7854380000000001,-0.0122579999999999,0
30,0.996337,0.7198724999999999,0.0515625,0.852614,0.4885425,0.0537785,0.746174,0.7328224999999999,0.0274275,1.143144,0.5067925,0.0606145,1.250784,0.7515125,0.0301875,0.725724,0.9549824999999998,-0.0099195,1.278484,0.9593825,0.0019874999999999,0.927604,-0.0023175,-0.0035255,1.072396,0.0023175,0.0035254999999999,0.890244,-0.4447575,0.0054194999999999,1.121434,-0.4089375,-0.0111925,0.886784,-0.7922674999999999,-0.0278745,1.125934,-0.7857675,-0.0118214999999999,0
31,0.997111,0.7193999999999999,0.0513875,0.8531810000000001,0.48827,0.0536075,0.7460910000000001,0.7347699999999999,0.0290105,1.142851,0.50666,0.0611555,1.250271,0.75198,0.0326445,0.725651,0.95521,-0.0071254999999999,1.2780809999999998,0.96061,0.0055835,0.927647,-0.00229,-0.0036884999999999,1.072353,0.00229,0.0036885,0.890131,-0.4452299999999999,0.0052595,1.121251,-0.40941,-0.0111654999999999,0.886661,-0.79283,-0.0280344999999999,1.125621,-0.78619,-0.0114224999999999,0
32,0.9974395,0.7193149999999999,0.051181,0.8534555,0.488205,0.053402,0.7460154999999999,0.7348549999999999,0.030401,1.1427355,0.506655,0.061641,1.2499255,0.7523249999999999,0.035001,0.7255955000000001,0.955125,-0.0045279999999999,1.2779555,0.961525,0.0089249999999999,0.9276815,-0.002306,-0.0038899999999999,1.0723185,0.002306,0.00389,0.8900255,-0.445305,0.005059,1.1211155,-0.409495,-0.0112319999999999,0.8865255,-0.792915,-0.028234,1.1254555,-0.786255,-0.011407,0
33,0.9975745,0.719243,0.0509595,0.8534835000000001,0.4881529999999999,0.0535714999999999,0.7458635,0.7349829999999999,0.0316414999999999,1.1423935,0.506673,0.0625735,1.2493335,0.752253,0.0366215,0.7252735,0.955053,-0.0027814999999999,1.2773435,0.961753,0.0108694999999999,0.9277085,-0.002315,-0.0041995,1.0722915,0.0023149999999999,0.0041994999999999,0.8898935,-0.445377,0.0047315,1.1209335,-0.410117,-0.0113855,0.8863235,-0.793337,-0.0287605,1.1252435,-0.786327,-0.0115605,0
34,0.9976605,0.7190715000000001,0.0507485,0.8534185,0.4881215,0.0536865,0.7453685,0.7350615,0.0327485,1.1420885,0.5067014999999999,0.0634265,1.2487385,0.7521914999999999,0.0378525,0.7246685000000002,0.9549915,-0.0014505,1.2767285,0.9616915,0.0122274999999999,0.9277145,-0.0023124999999999,-0.0045574999999999,1.0722855,0.0023125,0.0045574999999999,0.8897585,-0.4454185,0.0043435,1.1207385,-0.4107385,-0.0116085,0.8861585,-0.7936585,-0.0293475,1.1250485,-0.7862585,-0.0119804999999999,0
35,0.9976905,0.718383,0.0507305,0.8532605,0.487753,0.0538895,0.7443805,0.735283,0.0335175,1.1417605,0.506753,0.0641175,1.2482005,0.752333,0.0384995,0.7232105000000001,0.954823,-0.0005924999999999,1.2760605,0.961823,0.0128375,0.9276965,-0.002355,-0.0048495,1.0723035,0.0023549999999999,0.0048495,0.8899105,-0.445937,0.0037944999999999,1.1207805,-0.411617,-0.0119485,0.8863305,-0.794297,-0.0300175,1.1250605,-0.786307,-0.0128435,0
36,0.9976850000000002,0.7177905,0.0506055,0.853137,0.4874004999999999,0.0540185,0.743277,0.7350604999999999,0.0340645,1.141457,0.5068405,0.0645955,1.247667,0.7521804999999999,0.0387165,0.721287,0.9543005,-0.0002515,1.275387,0.9621005,0.0127735,0.927671,-0.0023935,-0.0050665,1.072329,0.0023935,0.0050665,0.890097,-0.4463895,0.0031095,1.120827,-0.4123895,-0.0124535,0.886547,-0.7948995000000001,-0.0307255,1.1250669999999998,-0.7864595000000001,-0.0140624999999999,0
37,0.9976075,0.717433,0.0503944999999999,0.8530525000000001,0.487113,0.0541065,0.7422425,0.734803,0.0343754999999999,1.1413725,0.506873,0.0645755,1.2471625,0.752253,0.0384235,0.7191125,0.953813,-0.0004135,1.2747125,0.962613,0.0120584999999999,0.9276225,-0.002469,-0.0052125,1.0723775,0.0024689999999999,0.0052124999999999,0.8902825,-0.446607,0.0023424999999999,1.1208725,-0.4130669999999999,-0.0130315,0.8867425,-0.795197,-0.0315435,1.1251925,-0.786437,-0.0153365,0
38,0.9975045,0.7170805,0.0500245,0.8529335,0.4867904999999999,0.0540465,0.7410635,0.7341905000000001,0.0344705,1.1412635,0.5068605,0.0645395,1.2466235,0.7522105,0.0377275,0.7167535,0.9531505,-0.0008185,1.2740235,0.9628505,0.0111934999999999,0.9275675,-0.0025364999999999,-0.0053095,1.0724325,0.0025364999999999,0.0053094999999999,0.8904235,-0.4469295,0.0014144999999999,1.1208335,-0.4137895,-0.0137735,0.8869635,-0.7955095,-0.0325705,1.1253935,-0.7863794999999999,-0.0168355,0
39,0.997446,0.716788,0.049484,0.852777,0.486508,0.0538889999999999,0.739807,0.733808,0.0342429999999999,1.141167,0.506748,0.064416,1.246077,0.7522380000000001,0.036743,0.7143670000000001,0.952358,-0.0015,1.273327,0.962858,0.0102109999999999,0.927525,-0.0025929999999999,-0.005359,1.072475,0.002593,0.0053589999999999,0.8905370000000001,-0.4471819999999999,0.0003449999999999,1.120767,-0.414232,-0.014707,0.887227,-0.7956719999999999,-0.033855,1.125667,-0.786532,-0.018256,0
40,0.9973825,0.7164849999999999,0.0487999999999999,0.8522875,0.485915,0.0535859999999999,0.7385075,0.733155,0.033974,1.1410375,0.506725,0.0641269999999999,1.2455475,0.752205,0.035656,0.7119774999999999,0.951485,-0.002319,1.2726075,0.962585,0.009034,0.9275085,-0.0026489999999999,-0.005359,1.0724915,0.0026489999999999,0.0053589999999999,0.8905975,-0.447415,-0.000845,1.1206975,-0.4149549999999999,-0.015801,0.8874375,-0.795815,-0.035207,1.1259275,-0.7865650000000001,-0.0195709999999999,0
41,0.997259,0.7161409999999999,0.048129,0.851677,0.485471,0.0532889999999999,0.737287,0.7325609999999999,0.0338199999999999,1.140907,0.506821,0.063843,1.245007,0.7521009999999999,0.0345829999999999,0.709677,0.950591,-0.003031,1.271837,0.961991,0.0076289999999999,0.927501,-0.0026959999999999,-0.0053309999999999,1.072499,0.002696,0.0053309999999999,0.8906370000000001,-0.4476989999999999,-0.00216,1.120647,-0.416149,-0.016882,0.887717,-0.796069,-0.0365309999999999,1.126237,-0.786869,-0.020986,0
42,0.997231,0.7162435,0.047138,0.851256,0.4850935,0.052635,0.736686,0.7314935,0.033365,1.140806,0.5068635,0.063136,1.244676,0.7519635,0.033486,0.7080960000000001,0.9502235,-0.0037249999999999,1.271406,0.9615235,0.005797,0.927504,-0.0026855,-0.0053209999999999,1.072496,0.0026855,0.0053209999999999,0.890606,-0.4476865,-0.003633,1.120596,-0.4170965,-0.017892,0.887776,-0.7961164999999999,-0.0377759999999999,1.126406,-0.7875764999999999,-0.022275,0
43,0.997205,0.7163415,0.046067,0.850838,0.4846614999999999,0.05196,0.736058,0.7301915,0.032815,1.140748,0.5067315,0.062308,1.244318,0.7517315,0.032636,0.706458,0.9499415,-0.0045179999999999,1.270868,0.9610415,0.003773,0.927504,-0.0026914999999999,-0.0053189999999999,1.072496,0.0026914999999999,0.005319,0.8905780000000001,-0.4477185,-0.0053439999999999,1.120538,-0.4180885,-0.018982,0.8878380000000001,-0.7961185,-0.039152,1.126598,-0.7884085,-0.0236839999999999,0
44,0.99717,0.7164320000000001,0.0448945,0.850409,0.4842819999999999,0.0512535,0.735309,0.728882,0.0321545,1.140739,0.506542,0.0613485,1.2439289999999998,0.7515320000000001,0.0315794999999999,0.704719,0.949572,-0.0053904999999999,1.270249,0.960472,0.0015545,0.927505,-0.0026839999999999,-0.0052845,1.072495,0.0026839999999999,0.0052845,0.890559,-0.447838,-0.0074075,1.120429,-0.419618,-0.0202504999999999,0.8878590000000001,-0.796138,-0.0408245,1.126719,-0.789408,-0.0257995,0
45,0.9972195,0.716052,0.0436904999999999,0.8498615,0.4837919999999999,0.0504875,0.7347414999999999,0.727542,0.0314455,1.1409315,0.506062,0.0602865,1.2436915,0.7511920000000001,0.0301675,0.7031514999999999,0.949272,-0.0066355,1.2696615,0.959772,-0.0008945,0.9274795,-0.0026839999999999,-0.0052605,1.0725205,0.0026839999999999,0.0052604999999999,0.8904315,-0.448068,-0.0097235,1.1201515,-0.421208,-0.0217285,0.8880015,-0.796288,-0.0425845,1.1269515,-0.790508,-0.0279885,1
46,0.997268,0.7158575,0.042704,0.849297,0.4833475,0.049554,0.7342569999999999,0.7265474999999999,0.0310119999999999,1.141077,0.5061374999999999,0.0592,1.243477,0.7509575,0.0284,0.701667,0.9491375,-0.007626,1.269067,0.9592375,-0.003598,0.92746,-0.0027085,-0.005141,1.07254,0.0027085,0.005141,0.890297,-0.4480025,-0.012696,1.119887,-0.4227825,-0.02365,0.888157,-0.7961925000000001,-0.045,1.127127,-0.7914524999999999,-0.030761,1
47,0.997344,0.715773,0.0416765,0.848855,0.4830529999999999,0.0485845,0.7338450000000001,0.7252029999999999,0.0306985,1.141215,0.506293,0.0580735,1.243355,0.7508429999999999,0.0265545,0.700245,0.949183,-0.0087275,1.268555,0.958723,-0.0063285,0.927474,-0.0027109999999999,-0.0050595,1.072526,0.0027109999999999,0.0050595,0.8901749999999999,-0.447897,-0.0158965,1.119635,-0.424457,-0.0257515,0.888285,-0.796177,-0.0475515,1.127245,-0.792367,-0.0335115,1
48,0.997411,0.7158405,0.0405159999999999,0.848503,0.4828404999999999,0.047484,0.733453,0.7241905000000001,0.030057,1.1413529999999998,0.5064905000000001,0.056764,1.243333,0.7508605,0.0243779999999999,0.698793,0.9494005,-0.009905,1.268173,0.9584605,-0.009102,0.927501,-0.0027015,-0.0050399999999999,1.072499,0.0027015,0.0050399999999999,0.890033,-0.4478195,-0.019396,1.1193529999999998,-0.4261695,-0.028069,0.888343,-0.7963294999999999,-0.050447,1.127303,-0.7927595,-0.036477,1
49,0.997411,0.7159565000000001,0.039219,0.8484630000000001,0.4827265,0.046543,0.733033,0.7235864999999999,0.029221,1.141393,0.5067265000000001,0.055406,1.243153,0.7509565,0.022072,0.697233,0.9496065,-0.011136,1.267753,0.9581365,-0.0119949999999999,0.927534,-0.0026835,-0.0049739999999999,1.072466,0.0026834999999999,0.004974,0.889823,-0.4477835,-0.023081,1.119003,-0.4283335,-0.030733,0.888323,-0.7965435000000001,-0.0535959999999999,1.1272829999999998,-0.7931235000000001,-0.039757,1
50,0.9973865,0.716168,0.0376655,0.8483075,0.4828779999999999,0.0454495,0.7325175000000002,0.723138,0.0280225,1.1413775,0.507118,0.0538875,1.2429575,0.751138,0.0196045,0.6956175,0.949878,-0.0129655,1.2674275,0.957858,-0.0152175,0.9275365,-0.0026769999999999,-0.0048195,1.0724635,0.0026769999999999,0.0048194999999999,0.8896075,-0.447732,-0.0269555,1.1187975,-0.429922,-0.0337275,0.8882475,-0.796582,-0.0573555,1.1272275,-0.793292,-0.0432955,1
51,0.997362,0.716332,0.036072,0.847958,0.483102,0.0443,0.7319880000000001,0.722742,0.026747,1.141348,0.507622,0.052404,1.242788,0.7514419999999999,0.017046,0.693988,0.950162,-0.015028,1.267288,0.957672,-0.018773,0.927538,-0.00266,-0.004567,1.072462,0.00266,0.004567,0.889458,-0.447548,-0.0307659999999999,1.118728,-0.430948,-0.036968,0.888088,-0.7965580000000001,-0.061096,1.127168,-0.793398,-0.046929,1
52,0.9972845,0.716484,0.034282,0.8475755,0.4833939999999999,0.0427619999999999,0.7316055,0.722384,0.024979,1.1412955,0.508824,0.050785,1.2423855,0.7501140000000001,0.014227,0.6922955,0.950474,-0.017541,1.2670855,0.957284,-0.022895,0.9275435,-0.0026249999999999,-0.004289,1.0724565,0.002625,0.0042889999999999,0.8892355,-0.447686,-0.034894,1.1186455,-0.431676,-0.040541,0.8879255,-0.796426,-0.064998,1.1270855,-0.793206,-0.050739,1
53,0.997185,0.7164630000000001,0.0321145,0.847128,0.483843,0.0406194999999999,0.731098,0.722153,0.0226435,1.141228,0.5097430000000001,0.0486324999999999,1.241928,0.748363,0.0108065,0.690318,0.950383,-0.0205204999999999,1.266738,0.957023,-0.0281154999999999,0.927538,-0.0025909999999999,-0.0039485,1.072462,0.002591,0.0039485,0.8889279999999999,-0.447447,-0.0395255,1.118538,-0.431307,-0.0449175,0.887748,-0.796077,-0.0693125,1.127038,-0.792557,-0.0552615,1
54,0.997,0.716399,0.029293,0.846674,0.484039,0.038561,0.7303840000000001,0.721839,0.019592,1.141094,0.5101789999999999,0.0464459999999999,1.241374,0.746539,0.0073739999999999,0.688224,0.950099,-0.0235499999999999,1.266284,0.956839,-0.033817,0.927527,-0.002567,-0.003576,1.072473,0.002567,0.003576,0.888504,-0.445231,-0.044265,1.118344,-0.429131,-0.049633,0.887504,-0.793991,-0.073301,1.127004,-0.790491,-0.06031,1
55,0.9967175,0.714783,0.025754,0.8462535,0.483363,0.035886,0.7291335,0.7201029999999999,0.016069,1.1409635,0.509923,0.043431,1.2407135,0.7439629999999999,0.003113,0.6855835,0.949083,-0.027427,1.2658135,0.956633,-0.040702,0.9274505,-0.0024379999999999,-0.0030499999999999,1.0725495,0.002438,0.0030499999999999,0.8874835,-0.443887,-0.050411,1.1183235,-0.428287,-0.0560409999999999,0.8871135,-0.792647,-0.07743,1.1269835,-0.789147,-0.065214,1
56,0.996336,0.7133299999999999,0.0222145,0.845681,0.48311,0.0333255,0.727861,0.71858,0.0125434999999999,1.140831,0.5099699999999999,0.0401835,1.239951,0.74137,-0.0013055,0.682831,0.94834,-0.0315425,1.265331,0.95671,-0.0478235,0.927366,-0.0024149999999999,-0.0025765,1.072634,0.002415,0.0025765,0.886131,-0.44215,-0.0569705,1.118361,-0.42729,-0.0630445,0.886801,-0.79095,-0.0814705,1.126921,-0.78752,-0.0698995,1
57,0.9958425,0.711707,0.018402,0.8452015000000002,0.4827369999999999,0.030533,0.7264315,0.7172470000000001,0.008476,1.1405015,0.510097,0.036557,1.2391115,0.738317,-0.007,0.6795715,0.947417,-0.037278,1.2644115,0.956567,-0.056955,0.9272405,-0.002372,-0.00193,1.0727595,0.0023719999999999,0.0019299999999999,0.8844015000000001,-0.440283,-0.064307,1.1184615,-0.426133,-0.071046,0.8865115000000001,-0.7890929999999999,-0.085561,1.1268715,-0.7856529999999999,-0.074964,1
58,0.9952005000000002,0.709507,0.014062,0.8449145,0.481917,0.0276019999999999,0.7248245,0.715327,0.003651,1.1400745,0.509237,0.032861,1.2380045,0.735287,-0.013271,0.6762445,0.941577,-0.04374,1.2632645,0.956257,-0.066493,0.9270815,-0.0023059999999999,-0.0012929999999999,1.0729185,0.0023059999999999,0.001293,0.8824845,-0.437223,-0.072388,1.1185845,-0.4248829999999999,-0.079802,0.8863645,-0.7864829999999999,-0.089692,1.1266845,-0.783033,-0.079808,1
59,0.9945,0.7064745,0.009704,0.844523,0.4815145,0.024691,0.722963,0.7129845,-0.0013159999999999,1.139613,0.5085745,0.029168,1.236773,0.7316145000000001,-0.0196149999999999,0.6729630000000001,0.9354545,-0.0500769999999999,1.261903,0.9561545,-0.076269,0.926898,-0.0021695,-0.0007129999999999,1.073102,0.0021694999999999,0.000713,0.8804630000000001,-0.4337255,-0.080814,1.118863,-0.4234855,-0.089153,0.8862630000000001,-0.7834855,-0.0935969999999999,1.126533,-0.7798754999999999,-0.084784,1
60,0.9937305,0.7036895000000001,0.005312,0.8441155,0.4811494999999999,0.021532,0.7209755,0.7109595000000001,-0.0065399999999999,1.1390855,0.5066595,0.025458,1.2354855,0.7282095000000001,-0.0260229999999999,0.6697555,0.9295595,-0.0564669999999999,1.2603555,0.9575295,-0.086094,0.9267155,-0.0019204999999999,-0.0001439999999999,1.0732845,0.0019205,0.000144,0.8783555000000001,-0.4286705,-0.089919,1.1193455,-0.4207105,-0.099282,0.8858455000000001,-0.7788605,-0.097533,1.1262055,-0.7753705,-0.089863,1
61,0.992939,0.701142,0.0009949999999999,0.843839,0.480122,0.0181889999999999,0.718969,0.708952,-0.01158,1.138749,0.504582,0.0220389999999999,1.234489,0.726662,-0.032233,0.666819,0.923472,-0.062597,1.258619,0.959482,-0.095885,0.926474,-0.0017549999999999,0.0003699999999999,1.073526,0.0017549999999999,-0.00037,0.876209,-0.422198,-0.099381,1.119929,-0.416418,-0.109664,0.885489,-0.773418,-0.101255,1.125949,-0.769988,-0.094679,1
62,0.992178,0.697906,-0.003453,0.84341,0.479856,0.015104,0.71719,0.705716,-0.0165519999999999,1.13855,0.502066,0.018542,1.23367,0.724866,-0.038609,0.66411,0.916576,-0.0682079999999999,1.25627,0.959536,-0.1058149999999999,0.926322,-0.001586,0.0008209999999999,1.073678,0.0015859999999999,-0.0008209999999999,0.87403,-0.414574,-0.10897,1.12052,-0.4108739999999999,-0.120027,0.88544,-0.766674,-0.104882,1.1258,-0.763284,-0.0990139999999999,1
63,0.9911925,0.6952475,-0.0080914999999999,0.8427955,0.4791775,0.0118795,0.7152955000000001,0.7030875000000001,-0.0218905,1.1381655,0.5003175000000001,0.0146955,1.2326555,0.7238075,-0.0452635,0.6612555,0.9103275,-0.0739905,1.2536755,0.9609375,-0.1157205,0.9260865,-0.0015494999999999,0.0013335,1.0739135,0.0015494999999999,-0.0013334999999999,0.8715255,-0.4066425,-0.1190975,1.1209155,-0.4042725,-0.1305434999999999,0.8852955,-0.7585624999999999,-0.1087905,1.1253255,-0.7551825,-0.1032355,1
64,0.9900790000000002,0.6937035,-0.012695,0.842066,0.4778135,0.008869,0.713406,0.7017835,-0.027058,1.137656,0.4991135,0.0107869999999999,1.231406,0.7235135,-0.052042,0.6582859999999999,0.9049335,-0.0796419999999999,1.250996,0.9569235,-0.125046,0.925842,-0.0015795,0.0017679999999999,1.074158,0.0015795,-0.0017679999999999,0.8691360000000001,-0.3965265,-0.128638,1.121056,-0.3956065,-0.140416,0.885126,-0.7479465,-0.11257,1.124686,-0.7444365000000001,-0.107021,1
65,0.989298,0.691412,-0.0180014999999999,0.84131,0.477252,0.0052685,0.7116800000000001,0.698612,-0.0332024999999999,1.1371099999999998,0.496842,0.0060205,1.23038,0.7225020000000001,-0.0600874999999999,0.65516,0.897132,-0.0864794999999999,1.2488,0.953442,-0.1347815,0.925447,-0.0014069999999999,0.0022735,1.074553,0.001407,-0.0022734999999999,0.86691,-0.384558,-0.1386235,1.1207699999999998,-0.384628,-0.1507735,0.88458,-0.7349979999999999,-0.1164775,1.12394,-0.7308779999999999,-0.1116795,1
66,0.988226,0.6890809999999999,-0.0225715,0.840639,0.476241,0.0023044999999999,0.710619,0.695431,-0.0382015,1.136259,0.494471,0.0015084999999999,1.229359,0.722061,-0.0669095,0.6524989999999999,0.889701,-0.0916205,1.247489,0.949451,-0.1430925,0.925117,-0.001347,0.0027024999999999,1.074883,0.0013469999999999,-0.0027025,0.864839,-0.368649,-0.1480825,1.1206889999999998,-0.371199,-0.1603725,0.883799,-0.721819,-0.1200015,1.123099,-0.717689,-0.1156385,1
67,0.987302,0.6867955,-0.027585,0.840152,0.4758855,-0.000928,0.7096720000000001,0.6922555,-0.04404,1.135192,0.4928355,-0.003785,1.228352,0.7179755,-0.074465,0.649652,0.8869355,-0.09776,1.246322,0.9464755,-0.153066,0.924784,-0.0013025,0.0031549999999999,1.075216,0.0013024999999999,-0.003155,0.862452,-0.3506645,-0.158216,1.1204619999999998,-0.3543345,-0.170346,0.8830020000000001,-0.7061145,-0.123948,1.122172,-0.7016445,-0.12062,1
68,0.986275,0.6873855,-0.037637,0.839572,0.4768255,-0.009251,0.708492,0.6909654999999999,-0.054862,1.133942,0.4924655,-0.013906,1.227292,0.7173155,-0.086705,0.6467419999999999,0.8857955,-0.109172,1.244372,0.9451555,-0.168308,0.924412,-0.0013615,0.0034039999999999,1.075588,0.0013614999999999,-0.003404,0.859572,-0.3306245,-0.173408,1.120012,-0.3360645,-0.184798,0.882012,-0.6870145000000001,-0.1328,1.121132,-0.6827045,-0.1303119999999999,1
69,0.9849945,0.6877770000000001,-0.04774,0.8396925,0.476877,-0.018737,0.7070025,0.687767,-0.065733,1.1323625,0.490487,-0.02453,1.2257725,0.717057,-0.098913,0.6435225,0.881837,-0.120922,1.2420225,0.938627,-0.183409,0.9240155,-0.0013249999999999,0.0035639999999999,1.0759845,0.001325,-0.003564,0.8557325,-0.310483,-0.191289,1.1194125,-0.318623,-0.202359,0.8807525,-0.6671830000000001,-0.141766,1.1197024999999998,-0.662973,-0.1397,1
70,0.9837445,0.68696,-0.058559,0.8402225,0.4770399999999999,-0.029459,0.7055625000000001,0.6852900000000001,-0.077314,1.1308525,0.48999,-0.035695,1.2240825,0.71502,-0.113055,0.6406825,0.8810300000000001,-0.133351,1.2394625,0.93457,-0.198972,0.9236325,-0.00125,0.0036729999999999,1.0763675,0.00125,-0.003673,0.8514325,-0.28878,-0.209712,1.1188825,-0.29833,-0.220902,0.8793525000000001,-0.64481,-0.150868,1.1181725,-0.64074,-0.149274,1
71,0.982733,0.6860550000000001,-0.0704445,0.8411299999999999,0.475885,-0.0413795,0.70418,0.6847350000000001,-0.0909195,1.12947,0.487875,-0.0484575,1.22271,0.7160150000000001,-0.1290325,0.6382099999999999,0.884125,-0.1484345,1.23709,0.934705,-0.2182945,0.923159,-0.0011049999999999,0.0037615,1.076841,0.0011049999999999,-0.0037615,0.84639,-0.262135,-0.2295845,1.11871,-0.272635,-0.2410245,0.87802,-0.616825,-0.1598804999999999,1.11625,-0.613205,-0.1590475,1
72,0.9821365,0.684785,-0.0825855,0.8422575,0.476455,-0.0534405,0.7032375,0.685005,-0.1046525,1.1285775,0.484995,-0.0614345,1.2215175,0.7161150000000001,-0.1451855,0.6369875,0.883475,-0.1642015,1.2351875,0.935145,-0.2381425,0.9226815,-0.0006849999999999,0.0037134999999999,1.0773185,0.0006849999999999,-0.0037135,0.8416175,-0.234835,-0.2491525,1.1187675,-0.246085,-0.2611025,0.8766975,-0.587875,-0.1687795,1.1145975,-0.584825,-0.1687375,1
73,0.981813,0.683095,-0.094756,0.844191,0.477085,-0.065782,0.703631,0.682035,-0.117991,1.127801,0.482685,-0.074269,1.220481,0.7162649999999999,-0.1610889999999999,0.635931,0.8836649999999999,-0.178939,1.233501,0.934365,-0.257341,0.922255,-0.000375,0.003513,1.077745,0.0003749999999999,-0.003513,0.836901,-0.207135,-0.268011,1.119111,-0.218295,-0.280551,0.875551,-0.557915,-0.177135,1.113081,-0.555625,-0.177758,1
74,0.981537,0.681585,-0.1061355,0.846149,0.4760749999999999,-0.0773465,0.704169,0.6802649999999999,-0.1300245,1.127179,0.480205,-0.0861494999999999,1.219639,0.712075,-0.1760225,0.634799,0.886855,-0.1921925,1.232189,0.933345,-0.2755955,0.922045,-0.000155,0.0033225,1.077955,0.0001549999999999,-0.0033224999999999,0.8320890000000001,-0.180335,-0.2855355,1.119099,-0.191305,-0.2985955,0.874889,-0.528825,-0.1839045,1.111529,-0.5273950000000001,-0.1855485,1
75,0.9816505,0.67982,-0.117344,0.8483515,0.47492,-0.089367,0.7045215,0.6787099999999999,-0.142105,1.1266215,0.47713,-0.098228,1.2187715,0.70921,-0.190464,0.6338415,0.8871,-0.205921,1.2308615,0.93241,-0.294131,0.9218555,0.0003,0.0031189999999999,1.0781445,-0.0003,-0.003119,0.8275815000000001,-0.14928,-0.302661,1.1190315,-0.16014,-0.316531,0.8743315,-0.4957899999999999,-0.190744,1.1096915,-0.4957,-0.192772,1
76,0.981923,0.67783,-0.127574,0.850764,0.47409,-0.10045,0.7051340000000001,0.6773100000000001,-0.152974,1.126034,0.47398,-0.109363,1.217844,0.70851,-0.203544,0.633454,0.88776,-0.218145,1.229984,0.93099,-0.310595,0.921719,0.00074,0.0029549999999999,1.078281,-0.0007399999999999,-0.0029549999999999,0.823804,-0.12112,-0.317925,1.119044,-0.13165,-0.332675,0.873724,-0.4651499999999999,-0.197373,1.107784,-0.46684,-0.198568,1
77,0.982079,0.672965,-0.132738,0.852896,0.470655,-0.106467,0.7053659999999999,0.674685,-0.159068,1.125276,0.468915,-0.11588,1.216816,0.705365,-0.212005,0.6333960000000001,0.887955,-0.225235,1.2286659999999998,0.929585,-0.321695,0.921374,0.001055,0.002985,1.078626,-0.0010549999999999,-0.002985,0.8206760000000001,-0.0931549999999999,-0.327665,1.118826,-0.1031149999999999,-0.344235,0.873786,-0.4361549999999999,-0.198966,1.105586,-0.4381849999999999,-0.199598,1
78,0.982329,0.66725,-0.138289,0.8540840000000001,0.46749,-0.1124059999999999,0.706164,0.6749,-0.164829,1.124804,0.4674,-0.122312,1.215804,0.69898,-0.220415,0.6336040000000001,0.8882800000000001,-0.230655,1.227764,0.93089,-0.331445,0.921167,0.0011,0.002875,1.078833,-0.0010999999999999,-0.002875,0.8198840000000001,-0.0644699999999999,-0.331595,1.118324,-0.0743799999999999,-0.349605,0.873254,-0.40752,-0.201145,1.104834,-0.4100899999999999,-0.201394,1
79,0.9825975,0.6633150000000001,-0.142451,0.8545735,0.464745,-0.117273,0.7069635000000001,0.674385,-0.16943,1.1246435,0.464342,-0.12804,1.2151435,0.694555,-0.226295,0.6348935,0.885765,-0.235115,1.2269435,0.928485,-0.339685,0.9210565,0.001395,0.0028249999999999,1.0789435,-0.0013949999999999,-0.002825,0.8192135,-0.0365349999999999,-0.332705,1.1176335,-0.0464549999999999,-0.352045,0.8736135,-0.3803449999999999,-0.202272,1.1041535,-0.3833149999999999,-0.202891,1
80,0.9827865,0.659475,-0.145193,0.8547835,0.462754,-0.120612,0.7078035,0.6740250000000001,-0.17178,1.1244934999999998,0.462497,-0.131878,1.2144135,0.688375,-0.22972,0.6361635,0.881535,-0.23677,1.2262535,0.920885,-0.3429,0.9209865,0.0016249999999999,0.00261,1.0790135,-0.0016249999999999,-0.00261,0.8185635,-0.0130449999999999,-0.33364,1.1169835,-0.0233849999999999,-0.35298,0.8746635,-0.358155,-0.202894,1.1035035,-0.3612149999999999,-0.204115,1
81,0.9829475,0.6553249999999999,-0.1482629999999999,0.8548245,0.4601389999999999,-0.124515,0.7099145,0.667465,-0.17434,1.1251445,0.461889,-0.136037,1.2137545,0.681475,-0.233385,0.6380145000000002,0.877085,-0.238495,1.2256045,0.911815,-0.345655,0.9209355,0.001425,0.002825,1.0790645,-0.001425,-0.0028249999999999,0.8179445,0.0104349999999999,-0.335325,1.1164145,0.000585,-0.354665,0.8759844999999999,-0.334015,-0.2041029999999999,1.1042945,-0.337995,-0.210165,1
82,0.9831025,0.65147,-0.15108,0.8543675,0.458395,-0.127844,0.7115375000000002,0.66364,-0.176918,1.1258175,0.461192,-0.140108,1.2132875,0.67544,-0.23646,0.6391375,0.8732500000000001,-0.24067,1.2250675,0.91115,-0.3484399999999999,0.9208625,0.00109,0.00317,1.0791375,-0.0010899999999999,-0.00317,0.8184275000000001,0.03344,-0.33729,1.1158875,0.02399,-0.35682,0.8788675000000001,-0.3142299999999999,-0.205797,1.1052375,-0.3164699999999999,-0.21691,1
83,0.983276,0.64811,-0.153387,0.853911,0.457246,-0.1309239999999999,0.712861,0.6604300000000001,-0.179074,1.1263709999999998,0.459642,-0.1436589999999999,1.212751,0.67474,-0.2385749999999999,0.639751,0.86805,-0.2427949999999999,1.224591,0.91001,-0.350885,0.920809,0.0009,0.0036349999999999,1.079191,-0.0009,-0.0036349999999999,0.820041,0.0556,-0.336965,1.115081,0.04625,-0.357915,0.878278,-0.2898399999999999,-0.20725,1.106691,-0.29653,-0.223525,1
84,0.983187,0.64515,-0.155214,0.853416,0.456767,-0.132845,0.713856,0.6568799999999999,-0.180966,1.126786,0.4587219999999999,-0.146172,1.212496,0.67275,-0.2404049999999999,0.639316,0.86554,-0.244385,1.224596,0.90948,-0.352755,0.920764,0.0005499999999999,0.004205,1.079236,-0.00055,-0.004205,0.821986,0.0731899999999999,-0.3357449999999999,1.114276,0.0639499999999999,-0.3581149999999999,0.877691,-0.2702299999999999,-0.208373,1.108106,-0.28062,-0.229575,1
85,0.982956,0.6428999999999999,-0.15702,0.852822,0.4557669999999999,-0.134645,0.714432,0.6538299999999999,-0.182785,1.127162,0.4582549999999999,-0.1482429999999999,1.212292,0.67228,-0.2422349999999999,0.6387320000000001,0.8627699999999999,-0.246035,1.225022,0.90862,-0.354785,0.920788,0.0002199999999999,0.004725,1.079212,-0.0002199999999999,-0.0047249999999999,0.8243320000000001,0.0909299999999999,-0.333665,1.1131319999999998,0.0823099999999999,-0.3573849999999999,0.877032,-0.25105,-0.209239,1.109292,-0.2646900000000001,-0.234935,1
86,0.982972,0.641395,-0.158679,0.85258,0.455748,-0.1363,0.7150800000000002,0.6504350000000001,-0.184454,1.12772,0.458111,-0.14991,1.21247,0.6713950000000001,-0.24431,0.63851,0.8591250000000001,-0.2472,1.22602,0.905855,-0.35697,0.92099,7.500000000004725e-05,0.0052999999999999,1.07901,-7.499999999993623e-05,-0.0053,0.82702,0.106055,-0.33108,1.11257,0.097115,-0.35609,0.8765769999999999,-0.2337449999999999,-0.208121,1.1106,-0.2524649999999999,-0.23982,1
87,0.983065,0.6407079999999999,-0.160044,0.851918,0.4563279999999999,-0.137851,0.715768,0.645982,-0.185555,1.128278,0.457209,-0.1514809999999999,1.212858,0.6730499999999999,-0.24623,0.638278,0.85785,-0.24744,1.227438,0.90383,-0.35806,0.921102,9.99999999995449e-06,0.0059099999999999,1.078898,-1.0000000000065512e-05,-0.0059099999999999,0.8295880000000001,0.1190899999999999,-0.32777,1.112208,0.1097999999999999,-0.35394,0.876107,-0.21904,-0.2082699999999999,1.112408,-0.2421500000000001,-0.24467,1
88,0.9831155,0.639155,-0.161152,0.8513305,0.456665,-0.1392459999999999,0.7161305,0.6417320000000001,-0.186382,1.1286205,0.456485,-0.153074,1.2134405,0.674475,-0.248085,0.6380705000000001,0.856425,-0.247365,1.2291705,0.902575,-0.358885,0.9211995,-0.0003049999999999,0.006565,1.0788005,0.0003049999999999,-0.0065649999999999,0.8319004999999999,0.129845,-0.324095,1.1118405,0.120305,-0.351665,0.8753735,-0.2061549999999999,-0.2090219999999999,1.1144805,-0.2339549999999999,-0.249635,1
89,0.9832375,0.638613,-0.16237,0.8509095,0.45724,-0.1407209999999999,0.7167795,0.636858,-0.1872,1.1289295,0.45652,-0.1546799999999999,1.2141695,0.6758,-0.25011,0.6379895000000001,0.85441,-0.24775,1.2313195,0.90448,-0.36001,0.9213205,-0.0005899999999999,0.00722,1.0786795,0.0005899999999999,-0.00722,0.8339495,0.13977,-0.3203,1.1114695,0.13006,-0.34897,0.8768724999999999,-0.1990199999999999,-0.2097959999999999,1.1164995,-0.2265599999999999,-0.25506,1
90,0.983397,0.638344,-0.162124,0.85046,0.458315,-0.140768,0.71687,0.63688,-0.187053,1.12903,0.455745,-0.15473,1.2152,0.677895,-0.250885,0.6375299999999999,0.855655,-0.248455,1.23335,0.906255,-0.360795,0.92141,-0.0006049999999999,0.0075049999999999,1.07859,0.000605,-0.0075049999999999,0.8347,0.145025,-0.317795,1.1112799999999998,0.134945,-0.3474049999999999,0.878613,-0.1964049999999999,-0.208334,1.11657,-0.222465,-0.2558249999999999,1
91,0.983542,0.638501,-0.161621,0.850272,0.4602499999999999,-0.140184,0.716952,0.63708,-0.186541,1.129132,0.45419,-0.154206,1.216222,0.67901,-0.25109,0.636522,0.85483,-0.24863,1.235312,0.90601,-0.36102,0.921488,-0.0002199999999999,0.0076999999999999,1.078512,0.0002199999999999,-0.0076999999999999,0.834822,0.1480199999999999,-0.3161899999999999,1.1110719999999998,0.1371599999999999,-0.34648,0.88048,-0.1961400000000001,-0.20674,1.116642,-0.22043,-0.25615,1
92,0.983631,0.6388119999999999,-0.16105,0.85016,0.4616949999999999,-0.139671,0.71704,0.638322,-0.18624,1.12922,0.454215,-0.153641,1.21727,0.679915,-0.25122,0.63549,0.854595,-0.24872,1.23719,0.905185,-0.36116,0.92157,6.499999999998174e-05,0.0078099999999999,1.07843,-6.499999999998174e-05,-0.0078099999999999,0.83492,0.1502649999999999,-0.3150199999999999,1.1108699999999998,0.138465,-0.346,0.883564,-0.196785,-0.205416,1.11675,-0.219325,-0.25636,1
93,0.9837055,0.6395120000000001,-0.160457,0.8500745000000001,0.462395,-0.139271,0.7161845,0.639022,-0.185976,1.1292245,0.453995,-0.153039,1.2182345,0.6805450000000001,-0.25144,0.6337345,0.854275,-0.24875,1.2388345,0.904005,-0.36145,0.9216355,0.000415,0.0078499999999999,1.0783645,-0.0004149999999999,-0.00785,0.8349945,0.151765,-0.31428,1.1106445,0.139035,-0.34588,0.8819395,-0.193925,-0.205429,1.1168645,-0.218905,-0.25578,1
94,0.9838765,0.6396820000000001,-0.159801,0.8501354999999999,0.462565,-0.138889,0.7154055,0.639192,-0.185836,1.1293555,0.453645,-0.152382,1.2192355,0.6807150000000001,-0.25184,0.6325755,0.853715,-0.24885,1.2403654999999998,0.902655,-0.3616,0.9216645,0.000585,0.00792,1.0783355,-0.0005849999999999,-0.0079199999999999,0.8351554999999999,0.152795,-0.31404,1.1105455,0.139475,-0.3458,0.8778505,-0.192555,-0.205333,1.1169455,-0.218735,-0.25476,1
95,0.9839485,0.6396820000000001,-0.159121,0.8502115,0.463005,-0.138678,0.7141915,0.639192,-0.185665,1.1295015,0.453645,-0.151831,1.2201615,0.6807150000000001,-0.25206,0.6317915000000001,0.853715,-0.24904,1.2416415,0.902655,-0.36121,0.9216785,0.000585,0.0080699999999999,1.0783215,-0.0005849999999999,-0.00807,0.8351014999999999,0.153495,-0.31389,1.1107115,0.139755,-0.34565,0.8753215,-0.1904449999999999,-0.205279,1.1166015,-0.218715,-0.25348,1
96,0.9838955,0.6397280000000001,-0.1584429999999999,0.8503415,0.464145,-0.138479,0.7130915,0.639734,-0.185446,1.1295715,0.453645,-0.1511219999999999,1.2209915,0.6807150000000001,-0.25199,0.6312115,0.853715,-0.2492599999999999,1.2424815,0.902655,-0.36095,0.9216485,0.000585,0.00828,1.0783515,-0.0005849999999999,-0.0082799999999999,0.8347815000000001,0.153695,-0.31369,1.1107715,0.139785,-0.34545,0.8728815,-0.1884549999999999,-0.2061469999999999,1.1162115,-0.2184849999999999,-0.25217,1
97,0.983905,0.641042,-0.157748,0.850276,0.46579,-0.138001,0.712126,0.6411870000000001,-0.185113,1.129686,0.45349,-0.15042,1.221716,0.68122,-0.251685,0.630836,0.85348,-0.249295,1.243296,0.90242,-0.360645,0.921614,0.00082,0.008475,1.078386,-0.0008199999999999,-0.0084749999999999,0.8343659999999999,0.15346,-0.313365,1.110966,0.13955,-0.345415,0.8705760000000001,-0.1866999999999999,-0.206956,1.1158659999999998,-0.2184199999999999,-0.251425,1
98,0.9839315,0.642664,-0.156153,0.8502155,0.465135,-0.136463,0.7112355,0.643355,-0.1840439999999999,1.1297755,0.454585,-0.148808,1.2222255,0.682965,-0.25024,0.6306355,0.856425,-0.2486799999999999,1.2445855,0.899395,-0.35921,0.9216145,0.001145,0.00827,1.0783855,-0.0011449999999999,-0.0082699999999999,0.8334855000000001,0.149935,-0.31461,1.1110755,0.135945,-0.34645,0.8722455,-0.1948649999999999,-0.207477,1.1150955,-0.220665,-0.2483,1
99,0.9840655,0.645049,-0.1544319999999999,0.8502575,0.4639649999999999,-0.134741,0.7103275,0.645971,-0.182788,1.1298975,0.4564249999999999,-0.146982,1.2229475,0.683735,-0.2485299999999999,0.6307875000000001,0.8592150000000001,-0.2478099999999999,1.2462075,0.8959349999999999,-0.35666,0.9216025,0.0011949999999999,0.008,1.0783975,-0.001195,-0.0079999999999999,0.8325575000000001,0.144805,-0.31642,1.1112675,0.130865,-0.34801,0.8739475000000001,-0.203785,-0.207839,1.1130975,-0.224125,-0.24314,1
100,0.9843835,0.6468980000000001,-0.152452,0.8504355,0.4641820000000001,-0.132999,0.7101155,0.6512260000000001,-0.182438,1.1301755,0.456555,-0.145001,1.2239055,0.6819750000000001,-0.24598,0.6310955,0.8615250000000001,-0.24672,1.2480254999999998,0.8921250000000001,-0.35358,0.9214545,0.001555,0.00744,1.0785455,-0.0015549999999999,-0.00744,0.8312655,0.136325,-0.32006,1.1116455,0.122085,-0.3504899999999999,0.8759555,-0.2159049999999999,-0.208157,1.1113955,-0.2310449999999999,-0.23772,1
101,0.984702,0.6487,-0.150466,0.850974,0.4630620000000001,-0.1315339999999999,0.710504,0.6546000000000001,-0.182453,1.130514,0.457081,-0.142888,1.225114,0.67849,-0.243435,0.6316539999999999,0.86262,-0.2457849999999999,1.249964,0.88597,-0.349805,0.921256,0.00161,0.006805,1.078744,-0.00161,-0.0068049999999999,0.8300640000000001,0.1235,-0.324385,1.112054,0.10912,-0.352765,0.878041,-0.2288899999999999,-0.2085139999999999,1.109464,-0.2410399999999999,-0.231755,1
102,0.9851645,0.651615,-0.148269,0.8515945,0.460598,-0.130082,0.7109245,0.6584650000000001,-0.182522,1.1305744999999998,0.457808,-0.140707,1.2263945,0.6781950000000001,-0.24069,0.6323145,0.8682350000000001,-0.24574,1.2519245,0.881775,-0.3452,0.9210155,0.001625,0.0061799999999999,1.0789845,-0.0016249999999999,-0.00618,0.8290445000000001,0.108815,-0.3285,1.1124744999999998,0.094285,-0.35457,0.8800165,-0.2437349999999999,-0.207347,1.1073645,-0.252845,-0.2258,1
103,0.985742,0.654275,-0.146047,0.85231,0.460367,-0.128633,0.71147,0.661495,-0.182642,1.13077,0.458511,-0.138511,1.2279,0.680085,-0.237565,0.63307,0.871405,-0.245635,1.25531,0.884625,-0.340305,0.92087,0.0017449999999999,0.0055049999999999,1.07913,-0.0017449999999999,-0.0055049999999999,0.8283,0.091705,-0.332335,1.11302,0.076655,-0.355665,0.880585,-0.2614149999999999,-0.2056899999999999,1.10574,-0.267265,-0.220265,1
104,0.9862255,0.658895,-0.144055,0.8529875,0.458743,-0.126929,0.7122475000000001,0.666185,-0.182808,1.1310775,0.460053,-0.1363,1.2291675,0.683775,-0.233765,0.6356075,0.878125,-0.245825,1.2586275,0.884745,-0.334935,0.9208725,0.001755,0.0048049999999999,1.0791275,-0.001755,-0.004805,0.8278375,0.0701649999999999,-0.334895,1.1135975,0.0547949999999999,-0.355865,0.8770175,-0.279005,-0.205424,1.1041075,-0.285225,-0.214538,1
105,0.986817,0.662675,-0.141781,0.8538,0.4579209999999999,-0.124972,0.7132900000000001,0.669725,-0.182909,1.13141,0.462924,-0.133779,1.23088,0.6866749999999999,-0.229765,0.6386499999999999,0.8832450000000001,-0.245775,1.2621,0.884705,-0.329085,0.92093,0.0016149999999999,0.0041049999999999,1.07907,-0.001615,-0.0041049999999999,0.8276200000000001,0.0464749999999999,-0.336845,1.11429,0.0306849999999999,-0.355435,0.87669,-0.298865,-0.20325,1.10256,-0.304955,-0.208436,1
106,0.987541,0.66544,-0.139516,0.8545780000000001,0.456979,-0.122915,0.714528,0.6737500000000001,-0.182858,1.131798,0.465741,-0.131142,1.232558,0.68735,-0.22574,0.642448,0.8880600000000001,-0.2454799999999999,1.265568,0.88306,-0.32305,0.921089,0.0013299999999999,0.0034,1.078911,-0.0013299999999999,-0.0034,0.8275380000000001,0.02064,-0.33821,1.115118,0.00489,-0.35471,0.876268,-0.32198,-0.2011,1.101138,-0.32646,-0.202185,1
107,0.988492,0.6703250000000001,-0.138129,0.855326,0.458122,-0.121634,0.716636,0.678655,-0.18274,1.1323059999999998,0.467879,-0.128769,1.234286,0.6837850000000001,-0.220505,0.648166,0.891885,-0.245505,1.268396,0.881695,-0.3169349999999999,0.921282,0.001085,0.0029449999999999,1.078718,-0.001085,-0.002945,0.828016,-0.0062749999999999,-0.336925,1.1157659999999998,-0.0206949999999999,-0.353425,0.875806,-0.346365,-0.1998,1.100046,-0.350915,-0.198216,1
108,0.989695,0.67386,-0.136464,0.856024,0.461009,-0.120334,0.7186939999999999,0.68445,-0.182396,1.132864,0.468688,-0.126353,1.235954,0.6850700000000001,-0.21528,0.654254,0.89682,-0.24532,1.270954,0.88276,-0.31138,0.921486,0.0012399999999999,0.0025599999999999,1.078514,-0.00124,-0.00256,0.828424,-0.03294,-0.33562,1.116334,-0.04633,-0.35212,0.876224,-0.37344,-0.197745,1.100324,-0.37622,-0.195853,1
109,0.990826,0.67995,-0.134673,0.856594,0.46139,-0.1191879999999999,0.721264,0.68771,-0.1812829999999999,1.133344,0.47045,-0.1240469999999999,1.237674,0.68872,-0.21032,0.660534,0.90185,-0.24481,1.274564,0.89279,-0.30587,0.921759,0.0009399999999999,0.0025,1.078241,-0.0009399999999999,-0.0024999999999999,0.828734,-0.05678,-0.33447,1.116754,-0.0689499999999999,-0.35097,0.876544,-0.39584,-0.1958349999999999,1.100604,-0.3990799999999999,-0.1935799999999999,1
110,0.9920835,0.685635,-0.1320049999999999,0.8572505,0.464945,-0.116931,0.7247205,0.690875,-0.179299,1.1336605,0.4737949999999999,-0.120339,1.2393405,0.695065,-0.204457,0.6675805,0.911135,-0.2431849999999999,1.2782405,0.901225,-0.299335,0.9220195,0.0011849999999999,0.002305,1.0779805,-0.0011849999999999,-0.002305,0.8295105,-0.0808849999999999,-0.332175,1.1171105,-0.091555,-0.347325,0.8763105,-0.420185,-0.193477,1.1009205,-0.423575,-0.190515,1
111,0.9933975000000002,0.689905,-0.128473,0.8578055,0.468995,-0.114487,0.7280154999999999,0.695025,-0.177284,1.1338855,0.476085,-0.116598,1.2410055,0.6977850000000001,-0.198425,0.6743954999999999,0.915185,-0.24123,1.2818455,0.907045,-0.29322,0.9221785,0.001405,0.00214,1.0778215,-0.0014049999999999,-0.00214,0.8306455,-0.1039349999999999,-0.3288,1.1172255,-0.1132449999999999,-0.34253,0.8757355,-0.4443249999999999,-0.1910899999999999,1.1011255,-0.447805,-0.187626,1
112,0.9947065,0.6953050000000001,-0.1246239999999999,0.8585815,0.470485,-0.1117959999999999,0.7314115,0.699415,-0.1748009999999999,1.1342515,0.479365,-0.1123219999999999,1.2424915,0.697845,-0.191738,0.6813914999999999,0.920965,-0.23903,1.2841415,0.905045,-0.28607,0.9224085,0.001365,0.00189,1.0775915,-0.001365,-0.0018899999999999,0.8325515,-0.126295,-0.32288,1.1174615,-0.1336549999999999,-0.33594,0.8750215000000001,-0.4680249999999999,-0.188597,1.1013015,-0.4716649999999999,-0.1845939999999999,1
113,0.9959815,0.698645,-0.119503,0.8591525,0.473385,-0.108224,0.7339925,0.7046250000000001,-0.171242,1.1346125,0.482215,-0.1070639999999999,1.2440525,0.6989449999999999,-0.18472,0.6868725,0.923175,-0.236222,1.2863625,0.906365,-0.277802,0.9228465,0.0013549999999999,0.001638,1.0771535,-0.0013549999999999,-0.001638,0.8344024999999999,-0.145115,-0.315752,1.1174725,-0.151025,-0.328642,0.8742325,-0.4901549999999999,-0.185495,1.1016925,-0.493525,-0.180833,1
114,0.997319,0.703705,-0.1123909999999999,0.859523,0.475515,-0.102933,0.736383,0.708495,-0.166084,1.135243,0.483575,-0.100377,1.245263,0.696685,-0.175329,0.693493,0.927215,-0.231316,1.289193,0.911515,-0.267626,0.923356,0.0014149999999999,0.001186,1.076644,-0.0014149999999999,-0.0011859999999999,0.836603,-0.1651949999999999,-0.305826,1.1173829999999998,-0.169775,-0.3188459999999999,0.873523,-0.515595,-0.180953,1.102343,-0.518595,-0.176857,1
115,0.9984975,0.7092,-0.104705,0.8597835,0.48034,-0.096755,0.7393535,0.7118599999999999,-0.159557,1.1358935,0.48584,-0.093071,1.2465035,0.6995899999999999,-0.164835,0.6998835,0.93436,-0.225389,1.2918635,0.91791,-0.256279,0.9239605,0.0015699999999999,0.0009959999999999,1.0760395,-0.00157,-0.0009959999999999,0.8389335,-0.18381,-0.294979,1.1171635,-0.18707,-0.307999,0.8729335,-0.5403500000000001,-0.175972,1.1026935,-0.54287,-0.172649,1
116,0.9996135,0.712975,-0.0968975,0.8598835,0.484025,-0.0908525,0.7423735,0.713875,-0.1525405,1.1367634999999998,0.488445,-0.0861185,1.2476535,0.704705,-0.1561525,0.7045035,0.936945,-0.2192485,1.2948935,0.927675,-0.2456985,0.9244945,0.0015949999999999,0.0007904999999999,1.0755055,-0.001595,-0.0007904999999999,0.8412135000000001,-0.198765,-0.2845885,1.1172535,-0.202125,-0.2973385,0.8727235,-0.5614750000000001,-0.1711945,1.1031135,-0.563455,-0.1677175,1
117,1.000361,0.717315,-0.0889895,0.859888,0.4864949999999999,-0.0848475,0.745458,0.7143849999999999,-0.1451764999999999,1.137548,0.491195,-0.0789945,1.248518,0.706185,-0.1467465,0.708688,0.941045,-0.2128445,1.297908,0.934865,-0.2350045,0.925002,0.0014049999999999,0.0006674999999999,1.074998,-0.001405,-0.0006675,0.8434380000000001,-0.213305,-0.2738045,1.117348,-0.216175,-0.2859545,0.872498,-0.5816950000000001,-0.1662525,1.103478,-0.583055,-0.1622515,1
118,1.001558,0.720395,-0.080894,0.860267,0.489865,-0.078476,0.748127,0.714595,-0.13737,1.138717,0.494375,-0.071205,1.250047,0.707585,-0.136757,0.713237,0.948425,-0.206291,1.300437,0.936605,-0.223301,0.925365,0.001415,0.0003659999999999,1.0746349999999998,-0.0014149999999999,-0.000366,0.846167,-0.235585,-0.262011,1.117827,-0.2355749999999999,-0.273391,0.872857,-0.604745,-0.160968,1.103967,-0.605555,-0.15636,1
119,1.0026725,0.7245649999999999,-0.0734249999999999,0.8607015,0.492245,-0.072905,0.7500215,0.7173149999999999,-0.130822,1.1397115,0.495705,-0.0645149999999999,1.2512115,0.7072350000000001,-0.127222,0.7171015000000001,0.951795,-0.2001659999999999,1.3030615,0.941545,-0.212866,0.9257035,0.001145,2.4000000000010124e-05,1.0742965,-0.0011449999999999,-2.3999999999996247e-05,0.8486115,-0.255235,-0.251256,1.1181615,-0.252835,-0.261576,0.8732815,-0.6244449999999999,-0.156262,1.1045515,-0.624795,-0.151301,1
120,1.0037284999999998,0.729788,-0.0659635,0.8610774999999999,0.494828,-0.0667865,0.7514875,0.719508,-0.1236095,1.1408475,0.4981279999999999,-0.0568105,1.2526775,0.711708,-0.1165005,0.7209075,0.954648,-0.1932655,1.3059775,0.946258,-0.2003855,0.9261595,0.0008299999999999,-0.0004595,1.0738405,-0.0008299999999999,0.0004595,0.8511975,-0.275662,-0.2384254999999999,1.1183475,-0.271472,-0.2474755,0.8738675,-0.644872,-0.1507405,1.1053175,-0.644722,-0.1455624999999999,1
121,1.004862,0.732459,-0.054062,0.861708,0.495589,-0.056284,0.752908,0.721719,-0.111762,1.143068,0.501209,-0.043753,1.254408,0.713619,-0.101267,0.7245980000000001,0.955519,-0.181819,1.309098,0.949029,-0.183059,0.926811,0.0010229999999999,-0.001182,1.073189,-0.001023,0.001182,0.854848,-0.297821,-0.215669,1.117538,-0.292431,-0.224379,0.874718,-0.667411,-0.139398,1.106348,-0.6667609999999999,-0.134048,1
122,1.0057675,0.7346210000000001,-0.042783,0.8621775,0.496231,-0.046275,0.7540775,0.7206710000000001,-0.100323,1.1451675,0.503631,-0.031289,1.2559775,0.712671,-0.0865,0.7280675,0.956171,-0.170576,1.3118175,0.951831,-0.166196,0.9274185,0.0010229999999999,-0.001867,1.0725815,-0.001023,0.001867,0.8583975,-0.318449,-0.193506,1.1167574999999998,-0.312069,-0.2018059999999999,0.8754975,-0.688319,-0.128313,1.1073575,-0.687349,-0.12291,1
123,1.0065659999999998,0.7346905,-0.0327094999999999,0.862542,0.4969405,-0.0371214999999999,0.754882,0.7244905,-0.0899194999999999,1.146992,0.5061605,-0.0199344999999999,1.257262,0.7173205,-0.0736324999999999,0.729462,0.9587705,-0.1602135,1.312872,0.9513605,-0.1504635,0.92795,0.0007374999999999,-0.0020924999999999,1.07205,-0.0007374999999999,0.0020925,0.861532,-0.3351995,-0.1727835,1.116002,-0.3279995,-0.1808634999999999,0.8764419999999999,-0.7047295,-0.1183454999999999,1.108482,-0.7034095,-0.1124724999999999,1
124,1.007306,0.7350595,-0.0229645,0.86279,0.4952995,-0.0284405,0.75557,0.7279895,-0.0807535,1.14847,0.5080994999999999,-0.0091954999999999,1.25857,0.7203394999999999,-0.0617875,0.7302,0.9593395,-0.1504715,1.3137,0.9518495,-0.1358915,0.928402,0.0004264999999999,-0.0023975,1.071598,-0.0004264999999999,0.0023974999999999,0.86449,-0.3506805,-0.1519115,1.11519,-0.3420305,-0.1599715,0.87729,-0.7192805000000001,-0.1085105,1.10951,-0.7175305000000001,-0.1022785,1
125,1.0081369999999998,0.734687,-0.0136055,0.862951,0.495147,-0.0198765,0.756391,0.7311669999999999,-0.0719685,1.149801,0.508737,0.0010175,1.259551,0.725047,-0.0505585,0.731041,0.961637,-0.1407045,1.314601,0.950707,-0.1220845,0.928654,0.000202,-0.0027445,1.071346,-0.0002019999999999,0.0027445,0.867491,-0.3657229999999999,-0.1314945,1.114621,-0.354373,-0.1392145,0.878271,-0.732423,-0.0989885,1.110641,-0.7301930000000001,-0.0921115,1
126,1.0085125,0.7343285,-0.0041695,0.8629585,0.4949085,-0.0116305,0.7571485,0.7343885,-0.0633065,1.1511185,0.5099285,0.0112805,1.2605985,0.7295185,-0.0395995,0.7319085000000001,0.9611385,-0.1307444999999999,1.3155385,0.9505085,-0.1078025,0.9287755,7.150000000000038e-05,-0.0031385,1.0712245,-7.149999999999865e-05,0.0031385,0.8708985,-0.3820314999999999,-0.1114435,1.1141985,-0.3667114999999999,-0.1192845,0.8793185,-0.7457315,-0.0895905,1.1118885,-0.7419315,-0.0823745,1
127,1.008543,0.733178,0.0053025,0.862791,0.4947279999999999,-0.0034944999999999,0.756861,0.7377779999999999,-0.0547335,1.152261,0.5109279999999999,0.0210365,1.261151,0.732748,-0.0292325,0.732591,0.956828,-0.1204775,1.316171,0.947338,-0.0940044999999999,0.928856,-5.9000000000000025e-05,-0.0034925,1.071144,5.9000000000000025e-05,0.0034925,0.874271,-0.397482,-0.0913824999999999,1.113921,-0.378352,-0.0993995,0.880241,-0.757822,-0.0802475,1.112911,-0.752202,-0.0722604999999999,1
128,1.0086245,0.7313084999999999,0.0152284999999999,0.8628985,0.4932985,0.0051105,0.7561785,0.7401985,-0.0453924999999999,1.1534185,0.5119985,0.0310965,1.2617885,0.7357885,-0.0185445,0.7331585,0.9529285,-0.1097595,1.3158485,0.9447585,-0.0789045,0.9287635,-0.0002195,-0.0037884999999999,1.0712365,0.0002194999999999,0.0037885,0.8776585000000001,-0.4127015,-0.0704975,1.1139085,-0.3896115,-0.0783575,0.8812685000000001,-0.7695514999999999,-0.0702425,1.1140985,-0.7621914999999999,-0.0610434999999999,1
129,1.0083799999999998,0.728799,0.0245795,0.8630010000000001,0.491459,0.0130425,0.755071,0.7415889999999999,-0.0363645,1.154271,0.512539,0.0402825,1.262351,0.735289,-0.0090335,0.733291,0.950469,-0.0987805,1.315031,0.943099,-0.0652025,0.92844,-0.0002349999999999,-0.0040234999999999,1.07156,0.0002349999999999,0.0040235,0.880551,-0.426181,-0.0513455,1.113931,-0.3994709999999999,-0.0593815,0.882251,-0.779381,-0.0608424999999999,1.114941,-0.770321,-0.0500995,1
130,1.0075744999999998,0.7278355,0.029059,0.8627275,0.4912855,0.016122,0.7535675,0.7430955,-0.031841,1.1545075,0.5116355,0.043657,1.2617975,0.7368855,-0.0034939999999999,0.7323675000000001,0.9508755,-0.09127,1.3127775,0.9441655,-0.056592,0.9282555,-0.0007554999999999,-0.0040409999999999,1.0717445,0.0007554999999999,0.004041,0.8819975,-0.4292745,-0.0424859999999999,1.1142675,-0.4020045,-0.0500489999999999,0.8827175,-0.7831145,-0.05721,1.1155475,-0.7729945,-0.044249,1
131,1.0066864999999998,0.7269835,0.0333725,0.8624175000000001,0.4909734999999999,0.0189885,0.7519275,0.7444335,-0.0271775,1.1547075,0.5110034999999999,0.0470194999999999,1.2609675,0.7381734999999999,0.0022524999999999,0.7313075,0.9513835,-0.0837395,1.3101474999999998,0.9451235,-0.0481445,0.9281155,-0.0010884999999999,-0.0041325,1.0718845,0.0010884999999999,0.0041324999999999,0.8833675,-0.4319565,-0.0337285,1.1145575,-0.4041865,-0.0409715,0.8830575,-0.7864165000000001,-0.0537455,1.1161775,-0.7751765,-0.0382775,1
132,1.0056755,0.7267985,0.0373759999999999,0.8620485,0.4903484999999999,0.0216709999999999,0.7505785,0.7432485,-0.022322,1.1548685,0.5104385,0.0501739999999999,1.2594185,0.7389485,0.0082139999999999,0.7299185,0.9501685,-0.076052,1.3069185,0.9463385,-0.039881,0.9279975,-0.0011195,-0.004431,1.0720025,0.0011195,0.0044309999999999,0.8845785,-0.4333815,-0.026247,1.1147985,-0.4056115,-0.032852,0.8833585,-0.7888615,-0.050328,1.1169385,-0.7771915,-0.033256,1
133,1.00442,0.7260409999999999,0.0409575,0.861455,0.489541,0.0244145,0.748955,0.742401,-0.0168304999999999,1.154315,0.5096809999999999,0.0532105,1.257735,0.738831,0.0144845,0.7279249999999999,0.949321,-0.0679865,1.303405,0.948021,-0.0315885,0.927843,-0.001177,-0.0048015,1.072157,0.0011769999999999,0.0048015,0.885545,-0.434069,-0.0202325,1.115475,-0.4060589999999999,-0.0264905,0.883485,-0.7909390000000001,-0.0471845,1.117655,-0.778039,-0.0287945,1
134,1.0030115,0.7255689999999999,0.0444795,0.8607885,0.489069,0.0271475,0.7471885,0.7419290000000001,-0.0113074999999999,1.1536885,0.5092289999999999,0.0561385,1.2559685,0.7392890000000001,0.0207515,0.7256585000000001,0.948849,-0.0598844999999999,1.2998985,0.949329,-0.0234484999999999,0.9277485,-0.0011789999999999,-0.0051874999999999,1.0722515,0.0011789999999999,0.0051875,0.8863585,-0.434281,-0.0149074999999999,1.1160785,-0.406071,-0.0209545,0.8835585,-0.7926310000000001,-0.0441125,1.1182884999999998,-0.779061,-0.0245374999999999,1
135,1.0019619999999998,0.7252554999999999,0.047276,0.860349,0.4887555,0.029619,0.745769,0.7415155,-0.006346,1.153249,0.5089155,0.05864,1.254149,0.7398655,0.026198,0.7237290000000001,0.9481455,-0.052217,1.297099,0.9506155,-0.016167,0.927677,-0.0011984999999999,-0.0056089999999999,1.072323,0.0011985,0.0056089999999999,0.886729,-0.4341845,-0.0101769999999999,1.116689,-0.4061645,-0.015834,0.883619,-0.7934345,-0.041037,1.118729,-0.7801445,-0.020614,1
136,1.00087,0.7251275,0.0499369999999999,0.859878,0.4882374999999999,0.031946,0.744308,0.7404375000000001,-0.001405,1.152878,0.5085375000000001,0.061005,1.252348,0.7383175000000001,0.031611,0.721668,0.9466375,-0.0448579999999999,1.294378,0.9518875,-0.009258,0.927608,-0.0012365,-0.0059859999999999,1.072392,0.0012364999999999,0.005986,0.886848,-0.4342125,-0.006732,1.117358,-0.4062125,-0.011989,0.883618,-0.7940024999999999,-0.038345,1.119168,-0.7807824999999999,-0.01713,1
137,0.9997805,0.7248975,0.0519565,0.8593685,0.4875474999999999,0.0337575,0.7428785,0.7393974999999999,0.0028975,1.1524285,0.5078975,0.0629025,1.2505985,0.7373675,0.0363165,0.7195085,0.9452675,-0.0387724999999999,1.2922185,0.9529875,-0.0036034999999999,0.9275135,-0.0012505,-0.0063254999999999,1.0724865,0.0012504999999999,0.0063255,0.8868885,-0.4340725,-0.0049575,1.1177585,-0.4065924999999999,-0.0102044999999999,0.8835585,-0.7945325000000001,-0.0364544999999999,1.1194885,-0.7814625000000001,-0.0150244999999999,1
138,0.9987235,0.7248585000000001,0.0537245,0.8588285000000001,0.4875084999999999,0.0354025,0.7414685,0.7388984999999999,0.0067165,1.1519485,0.5078685000000001,0.0646035,1.2487685,0.7370684999999999,0.0406785,0.7174484999999999,0.9438885,-0.0337775,1.2902385,0.9539485,0.0015535,0.9274025,-0.0012595,-0.0065955,1.0725975,0.0012594999999999,0.0065955,0.8868985,-0.4333015,-0.0039274999999999,1.1180585,-0.4065615,-0.0090645,0.8833585,-0.7947515,-0.0350375,1.1197485,-0.7814515,-0.0136184999999999,1
139,0.997761,0.7242855,0.055318,0.858294,0.4870055,0.036771,0.7402340000000001,0.7380755,0.009827,1.151484,0.5072355000000001,0.065946,1.247864,0.7360255,0.043717,0.7155940000000001,0.9429755,-0.029738,1.288954,0.9548055,0.00541,0.927292,-0.0012745,-0.006813,1.072708,0.0012744999999999,0.006813,0.886864,-0.4326545,-0.0031839999999999,1.118234,-0.4065645,-0.0082689999999999,0.883194,-0.7947845,-0.034095,1.119934,-0.7814544999999999,-0.0126589999999999,1
140,0.9967355,0.7234214999999999,0.056724,0.8576645,0.4863115,0.037981,0.7389945,0.7370114999999999,0.0125569999999999,1.1509345,0.5065215,0.067101,1.2472245,0.7349715,0.046193,0.7136945,0.9421215,-0.026043,1.2878045,0.9553415,0.0087159999999999,0.9272535,-0.0013084999999999,-0.0070339999999999,1.0727465,0.0013085,0.0070339999999999,0.8866845,-0.4323085,-0.002617,1.1183145,-0.4066085,-0.0076649999999999,0.8830145000000001,-0.7949185,-0.033268,1.1199245,-0.7819085,-0.011885,1
141,0.995841,0.722657,0.0579215,0.8570580000000001,0.485747,0.0389525,0.7379180000000001,0.736147,0.0145944999999999,1.150438,0.505937,0.0680014999999999,1.246608,0.734267,0.0476075,0.7119880000000001,0.941387,-0.0233065,1.2870279999999998,0.955587,0.0108034999999999,0.927245,-0.0013649999999999,-0.0072165,1.072755,0.0013649999999999,0.0072164999999999,0.886518,-0.432013,-0.0022375,1.118378,-0.406553,-0.0072435,0.882898,-0.795113,-0.0327615,1.119888,-0.782053,-0.0114165,1
142,0.995078,0.7219195,0.058835,0.856515,0.4852795,0.039728,0.7370750000000001,0.7355095,0.016024,1.149965,0.5054695,0.068738,1.246295,0.7343995,0.04812,0.710635,0.9408295,-0.021632,1.286485,0.9557395,0.011901,0.92725,-0.0014194999999999,-0.0073789999999999,1.07275,0.0014195,0.007379,0.886335,-0.4316605,-0.0023499999999999,1.1183949999999998,-0.4066705,-0.006974,0.882835,-0.7953505,-0.032353,1.119855,-0.7825805,-0.0118759999999999,1
143,0.994495,0.7217235000000001,0.0591055,0.85616,0.4851035,0.0399945,0.73644,0.7353135000000001,0.0162955,1.14974,0.5052735,0.0690025,1.2462,0.7351335,0.0483825,0.70949,0.9406435,-0.0213524999999999,1.28639,0.9557435,0.0121635,0.927267,-0.0014254999999999,-0.0075145,1.072733,0.0014255,0.0075145,0.88619,-0.4309465,-0.0025984999999999,1.1182999999999998,-0.4068165,-0.0066895,0.88274,-0.7954665,-0.0319635,1.11975,-0.7827664999999999,-0.0120305,1
144,0.9939895,0.721649,0.0593734999999999,0.8558445,0.485039,0.0402595,0.7358345,0.735239,0.0165655,1.1495345,0.505199,0.0692665,1.2462045,0.735209,0.0486425,0.7085445,0.940659,-0.0210775,1.2863945,0.956069,0.0124235,0.9272655,-0.001447,-0.0075885,1.0727345,0.0014469999999999,0.0075885,0.8861545,-0.430251,-0.0029554999999999,1.1183044999999998,-0.406761,-0.0064575,0.8826745,-0.7955110000000001,-0.0317024999999999,1.1197545,-0.7827409999999999,-0.0118675,1
145,0.9935635,0.721608,0.059649,0.8555885,0.484998,0.040532,0.7352585,0.735208,0.016843,1.1494285,0.505158,0.069536,1.2464085,0.736048,0.048908,0.7078385,0.940828,-0.0207969999999999,1.2863485,0.956228,0.012693,0.9272645,-0.001458,-0.007646,1.0727355,0.001458,0.007646,0.8861384999999999,-0.429512,-0.0033359999999999,1.1183085,-0.406632,-0.006232,0.8826485,-0.7955220000000001,-0.0314399999999999,1.1197484999999998,-0.782782,-0.0116969999999999,1
146,0.9931065,0.7208789999999999,0.0590785,0.8554045,0.484959,0.0409215,0.7347645,0.734509,0.0171685,1.1493545,0.504929,0.0696505,1.2466545,0.737749,0.0477475,0.7072845000000001,0.939789,-0.0206844999999999,1.2860545,0.955159,0.0119065,0.9272655,-0.0014399999999999,-0.0075884999999999,1.0727345,0.00144,0.0075885,0.8859345,-0.429371,-0.0037174999999999,1.1182645,-0.406721,-0.0059034999999999,0.8823145,-0.795641,-0.0311294999999999,1.1194745,-0.783501,-0.0113844999999999,1
147,0.9923135,0.7202605,0.057581,0.8547895,0.4852805,0.0413,0.7339895000000001,0.7333805,0.0171139999999999,1.1488695,0.5045805,0.069199,1.2466595,0.7382105,0.04562,0.7064495,0.9381205,-0.0217419999999999,1.2857995,0.9537505,0.0100619999999999,0.9272715,-0.0014894999999999,-0.007518,1.0727285,0.0014894999999999,0.007518,0.8856995,-0.4300795,-0.004296,1.1182095,-0.4066694999999999,-0.00542,0.8818495000000001,-0.7958995,-0.030846,1.1190495,-0.7839695,-0.0109959999999999,1
148,0.9914455,0.7196389999999999,0.055183,0.8537795,0.485889,0.041484,0.7330695,0.731329,0.016537,1.1481295,0.5042089999999999,0.068174,1.2465595,0.736319,0.042829,0.7054895,0.936269,-0.0234119999999999,1.2857695,0.952179,0.007033,0.9272665,-0.0015649999999999,-0.007474,1.0727335,0.001565,0.007474,0.8853695,-0.430921,-0.005046,1.1181195,-0.406721,-0.0049769999999999,0.8813995,-0.796181,-0.030501,1.1187195,-0.784791,-0.0103829999999999,1
149,0.990575,0.718951,0.0524235,0.852657,0.486801,0.0415115,0.731877,0.7295710000000001,0.0154135,1.147057,0.5037510000000001,0.0664335,1.247047,0.734051,0.0394685,0.7042269999999999,0.934831,-0.0257965,1.286107,0.950661,0.0029125,0.927208,-0.0016599999999999,-0.0074494999999999,1.072792,0.00166,0.0074495,0.885157,-0.431999,-0.0057074999999999,1.118257,-0.406539,-0.0044874999999999,0.8813370000000001,-0.796289,-0.0301135,1.118667,-0.7855489999999999,-0.0096664999999999,0
150,0.98962,0.718416,0.0493355,0.851145,0.488186,0.0415305,0.7302649999999999,0.728076,0.0141274999999999,1.1461249999999998,0.503336,0.0646245,1.247905,0.732016,0.0354975,0.702445,0.933986,-0.0287115,1.2864049999999998,0.949626,-0.0023425,0.92717,-0.001764,-0.0073575,1.07283,0.001764,0.0073574999999999,0.8851650000000001,-0.433154,-0.0063775,1.118675,-0.406184,-0.0039715,0.881595,-0.795804,-0.0297115,1.118955,-0.785804,-0.0086875,0
151,0.988808,0.718305,0.0460349999999999,0.849413,0.490005,0.041703,0.7272730000000001,0.726815,0.0124799999999999,1.145623,0.502955,0.062875,1.249653,0.731245,0.0308759999999999,0.700293,0.933285,-0.031974,1.286553,0.947105,-0.008319,0.92726,-0.001901,-0.007059,1.07274,0.001901,0.0070589999999999,0.885553,-0.434215,-0.006969,1.119593,-0.405615,-0.003194,0.882523,-0.794985,-0.028942,1.119793,-0.785925,-0.007625,0
152,0.987878,0.718085,0.042421,0.8473540000000002,0.490345,0.042059,0.722974,0.724775,0.010881,1.145294,0.502955,0.060993,1.251904,0.729295,0.025996,0.697584,0.932255,-0.0354629999999999,1.286794,0.944165,-0.0156159999999999,0.927283,-0.001901,-0.0066799999999999,1.072717,0.001901,0.00668,0.886294,-0.434685,-0.0074089999999999,1.120924,-0.405615,-0.0021589999999999,0.883844,-0.793775,-0.0278609999999999,1.121214,-0.785955,-0.0061489999999999,0
153,0.9869765,0.7179449999999999,0.0384355,0.8449545,0.490375,0.0423415,0.7170544999999999,0.719845,0.0093815,1.1453245,0.502955,0.0589525,1.2556645,0.724745,0.0210625,0.6930645,0.926675,-0.0398214999999999,1.2872145,0.939875,-0.0242244999999999,0.9273155,-0.001901,-0.0062805,1.0726845,0.001901,0.0062805,0.8875145,-0.435065,-0.0076234999999999,1.1228245,-0.405615,-0.0008395,0.8857345,-0.792445,-0.0264675,1.1234845,-0.785955,-0.0041645,0
154,0.9860005,0.717885,0.0341465,0.8430885000000001,0.490375,0.0430465,0.7101885,0.711605,0.0083085,1.1457784999999998,0.502955,0.0569125,1.2591885,0.718195,0.0155905,0.6876185,0.917665,-0.0439984999999999,1.2872685,0.932765,-0.0350815,0.9273805,-0.001901,-0.0058154999999999,1.0726195,0.001901,0.0058155,0.8889385,-0.435515,-0.0078684999999999,1.1251985,-0.405625,0.0005125,0.8885085,-0.792445,-0.0248675,1.1265485,-0.785955,-0.0017954999999999,0
155,0.9847475,0.7187335,0.0309134999999999,0.8403105000000001,0.4914735,0.0442254999999999,0.7014105000000002,0.6981135,0.0090564999999999,1.1444305,0.5010235,0.0538105,1.2651504999999998,0.7052935,0.0086804999999999,0.6797705,0.9021735,-0.0479735,1.2890005,0.9157635,-0.0477795,0.9274805,-0.0020975,-0.0051505,1.0725195,0.0020974999999999,0.0051504999999999,0.8920805,-0.4349565,-0.0075205,1.1288405,-0.4046065,0.0016294999999999,0.8946605000000001,-0.7901365,-0.0205195,1.1324805,-0.7865365,-0.0001895,0
156,0.983785,0.7197899999999999,0.028623,0.8379989999999999,0.4931,0.045835,0.6909689999999999,0.6808299999999999,0.010637,1.143639,0.49912,0.051366,1.272099,0.68723,0.003089,0.672919,0.88312,-0.0508159999999999,1.290869,0.89369,-0.062246,0.927629,-0.002269,-0.0044469999999999,1.072371,0.002269,0.0044469999999999,0.895599,-0.4340199999999999,-0.0067629999999999,1.132259,-0.40352,0.001541,0.901109,-0.78851,-0.0170309999999999,1.139379,-0.78707,0.0017959999999999,0
157,0.9820895,0.7231805,0.0261165,0.8360475,0.4946305,0.0484005,0.6791475,0.6560005,0.0115484999999999,1.1426075,0.4968005,0.0477065,1.2820975,0.6532205,0.0016264999999999,0.6694775,0.8545805,-0.0592065,1.2957075,0.8510004999999999,-0.0818665,0.9277855,-0.0025265,-0.0034544999999999,1.0722145,0.0025265,0.0034544999999999,0.9036275,-0.4346994999999999,-0.0039884999999999,1.1342375,-0.4034695,-0.0041845,0.9125975,-0.7837595,-0.0104415,1.1485175,-0.7839195,0.0028315,0
158,0.9801345,0.7265204999999999,0.0228405,0.8350875,0.4952905,0.0506755,0.6705675,0.6197205,0.0136135,1.1417975,0.4941105,0.0442345,1.2871875,0.6088505,0.0015925,0.6640375000000001,0.8114804999999999,-0.0694924999999999,1.3003375,0.7906304999999999,-0.0973725,0.9279875,-0.0027604999999999,-0.0023934999999999,1.0720125,0.0027604999999999,0.0023935,0.9116475,-0.4285494999999999,-0.0004834999999999,1.1312195,-0.3990395,-0.0158154999999999,0.9253375,-0.7776095000000001,-0.0037124999999999,1.1490475,-0.7777695,-0.0029684999999999,0
159,0.977677,0.7299494999999999,0.019129,0.8349150000000001,0.4951394999999999,0.0529189999999999,0.6644950000000001,0.5811695,0.0191999999999999,1.140562,0.4912894999999999,0.0402509999999999,1.289225,0.5619695,0.0014959999999999,0.660435,0.7633894999999999,-0.0807809999999999,1.304745,0.7219795,-0.1065909999999999,0.928255,-0.0029295,-0.001249,1.071745,0.0029295,0.001249,0.919895,-0.4221205,0.0023409999999999,1.125501,-0.3924705,-0.027271,0.939905,-0.7711405,0.0060289999999999,1.145512,-0.7713405,-0.0098649999999999,0
160,0.9759245,0.733093,0.015244,0.8358155,0.494383,0.054625,0.6622855000000001,0.538973,0.023876,1.1396775,0.488253,0.035748,1.2889555,0.512653,0.002868,0.6589754999999999,0.709583,-0.092808,1.3089055,0.647423,-0.1112779999999999,0.9281855,-0.0030619999999999,-0.0005219999999999,1.0718145,0.0030619999999999,0.000522,0.9296355,-0.4156769999999999,0.001162,1.1172245,-0.385897,-0.0435379999999999,0.9548555,-0.764567,0.015981,1.1379135,-0.7648969999999999,-0.0180979999999999,0
161,0.9741835,0.7361125000000001,0.0107875,0.8374835,0.4928824999999999,0.0558555,0.6625735000000001,0.4972924999999999,0.0293945,1.1388885,0.4850125,0.0306195,1.2868335,0.4632425,0.0055325,0.6588035,0.6498925000000001,-0.1041955,1.3128734999999998,0.5638325000000001,-0.1139055,0.9282135,-0.0032094999999999,0.0003884999999999,1.0717865,0.0032095,-0.0003884999999999,0.9343835,-0.4074075,-0.0027254999999999,1.1074235,-0.3795475,-0.0648955,0.9707635,-0.7543175,0.0258555,1.1272045,-0.7581374999999999,-0.0262155,0
162,0.971603,0.73849,0.0056299999999999,0.8391230000000001,0.4899399999999999,0.0567219999999999,0.664283,0.4502799999999999,0.0376239999999999,1.137748,0.4810899999999999,0.0246929999999999,1.279463,0.4147599999999999,0.0100299999999999,0.6624829999999999,0.58457,-0.11222,1.311203,0.47195,-0.1086599999999999,0.928103,-0.003353,0.00125,1.071897,0.003353,-0.00125,0.939313,-0.39937,-0.00413,1.09662,-0.37176,-0.08974,0.987483,-0.74325,0.0353649999999999,1.116445,-0.7454000000000001,-0.03615,0
163,0.9691495,0.740233,-0.0002899999999999,0.8408095,0.485243,0.056149,0.6690095,0.405463,0.047763,1.1364585,0.476923,0.01747,1.2709095,0.366663,0.018,0.6682695000000001,0.515133,-0.1173599999999999,1.3067995,0.377393,-0.0975899999999999,0.9280795,-0.003561,0.0024099999999999,1.0719205,0.003561,-0.0024099999999999,0.9440195,-0.390647,-0.00472,1.0854345,-0.363577,-0.11462,1.0048095,-0.731417,0.0469,1.1045765,-0.7321070000000001,-0.0489999999999999,0
164,0.967155,0.7410329999999999,-0.00608,0.8437749999999999,0.481313,0.055672,0.6767650000000001,0.365483,0.058085,1.136349,0.473903,0.01064,1.259865,0.324243,0.0291499999999999,0.676955,0.451913,-0.12579,1.299505,0.289843,-0.08236,0.927945,-0.0035009999999999,0.0032399999999999,1.072055,0.0035009999999999,-0.0032399999999999,0.954375,-0.3863069999999999,-0.0009,1.07314,-0.3559569999999999,-0.13933,1.0232949999999998,-0.724797,0.0592709999999999,1.074374,-0.718707,-0.0842199999999999,0
165,0.9647695,0.7413120000000001,-0.01197,0.8464895,0.476772,0.05567,0.6894095,0.328582,0.0670099999999999,1.1364225,0.470562,0.0043399999999999,1.2471685,0.2854319999999999,0.04155,0.6844595,0.389582,-0.1336399999999999,1.2913095,0.207572,-0.06394,0.9277195,-0.003702,0.0041799999999999,1.0722805,0.003702,-0.00418,0.9662495,-0.383648,0.0057299999999999,1.0591295,-0.349538,-0.16318,1.0438795,-0.720218,0.076205,1.0418995,-0.707158,-0.11818,0
166,0.96349,0.740562,-0.01727,0.84933,0.4730919999999999,0.0540899999999999,0.70286,0.301942,0.0748299999999999,1.137912,0.468452,-0.0005,1.232791,0.2647119999999999,0.0516399999999999,0.68894,0.335682,-0.13542,1.280892,0.148532,-0.05407,0.92758,-0.003702,0.0050699999999999,1.07242,0.003702,-0.00507,0.97123,-0.384968,0.0112399999999999,1.04688,-0.346258,-0.18079,1.05993,-0.7157479999999999,0.0930809999999999,1.00816,-0.702678,-0.14859,0
167,0.962625,0.7399815,-0.021365,0.8518450000000001,0.4701815,0.0528549999999999,0.7173350000000001,0.2863415,0.0835449999999999,1.140094,0.4668015,-0.004745,1.223378,0.2534115,0.0613549999999999,0.6957850000000001,0.2965615,-0.134315,1.271584,0.1080815,-0.042465,0.927095,-0.0039115,0.0050649999999999,1.072905,0.0039115,-0.005065,0.977445,-0.3866785,0.0144049999999999,1.039985,-0.3413585,-0.192145,1.075715,-0.7096385,0.1119749999999999,0.984955,-0.6918285,-0.170215,0
168,0.96278,0.7397215,-0.024355,0.8543499999999999,0.4683315,0.051555,0.73139,0.2732415,0.090825,1.143245,0.4664815,-0.0080749999999999,1.217641,0.2455915,0.072155,0.7012500000000002,0.2627815,-0.1316049999999999,1.264623,0.0772035,-0.028225,0.92695,-0.0039115,0.0054649999999999,1.07305,0.0039115,-0.0054649999999999,0.98554,-0.3867185,0.0212549999999999,1.03629,-0.3378685,-0.202965,1.08803,-0.7111585,0.129925,0.96809,-0.6806785,-0.188875,0
169,0.96164,0.739357,-0.026725,0.8558400000000002,0.466987,0.050655,0.74464,0.265437,0.094245,1.14495,0.466117,-0.0109549999999999,1.214522,0.243247,0.083255,0.7053400000000001,0.234097,-0.1268949999999999,1.260703,0.055057,0.0004549999999999,0.92699,-0.004031,0.006085,1.0730099999999998,0.004031,-0.006085,0.99478,-0.382333,0.036955,1.03539,-0.331903,-0.205175,1.10007,-0.711523,0.149925,0.95868,-0.669133,-0.199965,0
170,0.96029,0.738753,-0.02822,0.85697,0.466083,0.05035,0.76005,0.257393,0.0978699999999999,1.14644,0.465513,-0.01288,1.213166,0.242643,0.09047,0.70904,0.211313,-0.12208,1.257747,0.044991,0.0304499999999999,0.9271,-0.00419,0.0063999999999999,1.0729,0.00419,-0.0064,1.00791,-0.3829369999999999,0.0552999999999999,1.03648,-0.3306869999999999,-0.2015599999999999,1.10828,-0.711277,0.1662499999999999,0.95269,-0.661047,-0.21038,0
171,0.959705,0.7377630000000001,-0.02866,0.858365,0.465093,0.05062,0.774185,0.2554929999999999,0.0999999999999999,1.148405,0.4645229999999999,-0.0135399999999999,1.217114,0.241653,0.0930299999999999,0.712005,0.198563,-0.11789,1.261599,0.044001,0.0535899999999999,0.927225,-0.004503,0.00678,1.072775,0.004503,-0.00678,1.019625,-0.379917,0.0728999999999999,1.035725,-0.331677,-0.19253,1.109385,-0.7049869999999999,0.18252,0.948105,-0.6571969999999999,-0.21677,0
172,0.958385,0.7372055000000001,-0.0280699999999999,0.858635,0.4640755,0.05207,0.7846250000000001,0.2529955,0.09902,1.149625,0.4643055,-0.013,1.221764,0.2406355,0.09391,0.711985,0.1925155,-0.1184199999999999,1.268344,0.0429835,0.07032,0.927395,-0.0048194999999999,0.0073699999999999,1.0726049999999998,0.0048195,-0.0073699999999999,1.028805,-0.3760345,0.08718,1.036595,-0.3326944999999999,-0.1821,1.109985,-0.7000445,0.1965,0.944735,-0.6561144999999999,-0.21872,0
173,0.95651,0.7371975,-0.02702,0.85846,0.4630075,0.0533999999999999,0.78834,0.2509275,0.0950299999999999,1.1513,0.4649875,-0.01065,1.2259699999999998,0.2413575,0.0931399999999999,0.7113400000000001,0.1864075,-0.11514,1.2763049999999998,0.0419155,0.0769499999999999,0.92773,-0.0051635,0.0079599999999999,1.07227,0.0051635,-0.00796,1.03791,-0.3764125,0.0997899999999999,1.0389,-0.3337624999999999,-0.16952,1.1135199999999998,-0.6973425000000001,0.2071199999999999,0.95851,-0.6548525000000001,-0.19554,0
174,0.95364,0.7373050000000001,-0.0270199999999999,0.85724,0.462125,0.05266,0.79056,0.249965,0.09167,1.15149,0.466365,-0.0096499999999999,1.22962,0.244045,0.0899,0.7105800000000001,0.180835,-0.1137699999999999,1.284016,0.0415149999999999,0.07056,0.92815,-0.005383,0.00848,1.07185,0.005383,-0.0084799999999999,1.0321,-0.378195,0.08429,1.04272,-0.338625,-0.1557699999999999,1.09111,-0.6948249999999999,0.18555,0.97415,-0.6548649999999999,-0.17318,0
175,0.95002,0.737684,-0.0268499999999999,0.8559800000000001,0.462574,0.05212,0.7886200000000001,0.249994,0.08218,1.15093,0.468314,-0.0081799999999999,1.23246,0.248844,0.08499,0.7075800000000001,0.176044,-0.1175399999999999,1.290359,0.047222,0.05689,0.92848,-0.005514,0.00883,1.07152,0.005514,-0.0088299999999999,1.01859,-0.378396,0.06741,1.04694,-0.343796,-0.1438499999999999,1.06588,-0.693276,0.16217,0.98988,-0.655286,-0.15176,0
176,0.9458,0.7372055,-0.0270599999999999,0.8542000000000001,0.4615655,0.05075,0.7869100000000001,0.2502655,0.07424,1.1498,0.4707155,-0.0067699999999999,1.23461,0.2538855,0.07912,0.7047300000000001,0.1704855,-0.12017,1.295388,0.0548845,0.0391,0.92907,-0.0057315,0.00991,1.07093,0.0057315,-0.0099099999999999,1.00386,-0.3782745,0.05204,1.05019,-0.3485745,-0.13083,1.03473,-0.6910845,0.13135,1.00466,-0.6595345,-0.1311,0
177,0.94021,0.7366595,-0.0278249999999999,0.8519400000000001,0.4607894999999999,0.0488249999999999,0.78338,0.2508094999999999,0.0655749999999999,1.14698,0.4734195,-0.005125,1.23529,0.2595294999999999,0.0727949999999999,0.7006600000000001,0.1684595,-0.1233549999999999,1.29811,0.0616344999999999,0.0198049999999999,0.92915,-0.0058575,0.0100449999999999,1.07085,0.0058575,-0.010045,0.98956,-0.3764705,0.0333349999999999,1.0547099999999998,-0.3516305,-0.115795,0.99705,-0.6875505000000001,0.0946049999999999,1.02037,-0.6610105000000001,-0.108295,0
178,0.93492,0.7352875000000001,-0.0286849999999999,0.85029,0.4594475,0.0475749999999999,0.7807300000000001,0.2504175,0.0606049999999999,1.14529,0.4754875,-0.0026549999999999,1.2349899999999998,0.2629875,0.067085,0.6948099999999999,0.1631975,-0.127595,1.29862,0.0657025,0.004195,0.92926,-0.0056985,0.0102149999999999,1.0707399999999998,0.0056985,-0.0102149999999999,0.97339,-0.3744725,0.0113149999999999,1.05889,-0.3544225,-0.1044749999999999,0.96014,-0.6853024999999999,0.058865,1.03259,-0.6627225,-0.091445,0
179,0.92778,0.7340425,-0.03032,0.84584,0.4583725,0.04368,0.77582,0.2500124999999999,0.05287,1.14083,0.4780925,0.0003199999999999,1.2317,0.2662625,0.06574,0.6934899999999999,0.1580025,-0.1320399999999999,1.29661,0.0693345,-0.0023999999999999,0.92927,-0.0057105,0.01,1.07073,0.0057105,-0.01,0.95226,-0.3688275,-0.0111299999999999,1.06693,-0.3574675,-0.09206,0.93228,-0.6746975,0.02978,1.04799,-0.6656275,-0.07008,0
180,0.920445,0.7330620000000001,-0.03239,0.8417050000000001,0.457392,0.0398299999999999,0.7696149999999999,0.2490319999999999,0.0435599999999999,1.135595,0.480162,0.0028499999999999,1.2268949999999998,0.268962,0.0666699999999999,0.690905,0.151682,-0.13779,1.292675,0.071949,-0.0026600000000001,0.929305,-0.005693,0.0094999999999999,1.070695,0.005693,-0.0095,0.930665,-0.362958,-0.0342500000000001,1.076695,-0.359568,-0.08185,0.910815,-0.6638379999999999,0.0026599999999998,1.0625749999999998,-0.6666080000000001,-0.05037,0
181,0.91342,0.732047,-0.03522,0.83802,0.456517,0.0353,0.76389,0.247307,0.0349,1.13127,0.481717,0.0057099999999999,1.22183,0.2703069999999999,0.06888,0.6899500000000001,0.145347,-0.14198,1.28837,0.0730389999999999,0.0008799999999999,0.9292200000000002,-0.005872,0.00839,1.07078,0.0058719999999999,-0.00839,0.90919,-0.356623,-0.0575999999999999,1.0858,-0.361153,-0.0728999999999999,0.88962,-0.656043,-0.02204,1.07685,-0.667483,-0.03068,0
182,0.90661,0.7312415,-0.0387449999999999,0.834,0.4557115,0.030475,0.75997,0.2459015,0.028245,1.12594,0.4829614999999999,0.007085,1.2166,0.2695615,0.072265,0.68962,0.1391415,-0.1458349999999999,1.28358,0.0722334999999999,0.008735,0.92909,-0.0061115,0.0074050000000001,1.07091,0.0061114999999999,-0.0074049999999999,0.88972,-0.3503385,-0.0787149999999999,1.09438,-0.3626785,-0.0657849999999999,0.87233,-0.6496585,-0.0486649999999999,1.08955,-0.6687485000000001,-0.0136449999999999,0
183,0.90037,0.7298435,-0.0420949999999999,0.83019,0.4546135,0.026295,0.75596,0.2448135,0.021645,1.12093,0.4844135,0.009035,1.21093,0.2689835,0.077025,0.69033,0.1341435,-0.148895,1.27839,0.0716555,0.021455,0.92894,-0.0062835,0.006205,1.07106,0.0062835,-0.0062049999999999,0.88643,-0.3462665,-0.0764549999999999,1.10261,-0.3641465,-0.0592949999999999,0.86978,-0.6502365,-0.0457449999999999,1.1020599999999998,-0.6708864999999999,0.003275,0
184,0.8944350000000001,0.727934,-0.0457499999999999,0.826445,0.4530039999999999,0.02263,0.7548250000000001,0.243244,0.02105,1.115925,0.485544,0.0108099999999999,1.205235,0.269184,0.0831699999999999,0.6931850000000002,0.126644,-0.14702,1.272845,0.071947,0.03615,0.928795,-0.006449,0.00492,1.071205,0.006449,-0.00492,0.8894950000000001,-0.346696,-0.0734399999999999,1.112045,-0.364986,-0.05117,0.868695,-0.650826,-0.04244,1.113805,-0.672816,0.01885,0
185,0.8886000000000001,0.725843,-0.0495849999999999,0.8220800000000001,0.4515429999999999,0.0192649999999999,0.7526300000000001,0.242303,0.0190949999999999,1.1102800000000002,0.486893,0.0120949999999999,1.1993,0.269793,0.0898849999999999,0.69608,0.1196729999999999,-0.146905,1.26753,0.072242,0.051775,0.92873,-0.0067209999999999,0.0036749999999999,1.07127,0.006721,-0.0036749999999999,0.8931000000000002,-0.346997,-0.069985,1.12173,-0.365277,-0.044385,0.87382,-0.651127,-0.034065,1.1248,-0.673977,0.0329649999999999,0
186,0.883525,0.723637,-0.0538549999999999,0.817665,0.450177,0.0162749999999999,0.751345,0.2414269999999999,0.0181249999999999,1.105365,0.488267,0.0126249999999999,1.1937749999999998,0.270187,0.0968149999999999,0.699675,0.113707,-0.146915,1.2624149999999998,0.071417,0.063655,0.928735,-0.006817,0.0027449999999999,1.071265,0.006817,-0.0027449999999999,0.898605,-0.347143,-0.065375,1.128725,-0.365353,-0.040105,0.8852549999999999,-0.656443,-0.022015,1.133155,-0.674643,0.0435449999999999,0
187,0.878295,0.7213405,-0.05903,0.812675,0.4487105,0.0123799999999999,0.7500950000000001,0.2412105,0.0170299999999998,1.100005,0.4898905,0.0122699999999998,1.187815,0.2702505,0.1030299999999999,0.706455,0.1086404999999999,-0.14421,1.256955,0.0699995,0.0742799999999999,0.928765,-0.0068994999999999,0.0017499999999999,1.071235,0.0068994999999999,-0.00175,0.904535,-0.3473095,-0.0604000000000001,1.132215,-0.3655494999999999,-0.0359100000000001,0.8977550000000001,-0.6642994999999999,-0.01043,1.141885,-0.6752495,0.0536399999999999,0
188,0.8751450000000001,0.71981,-0.0636649999999999,0.810545,0.44792,0.0107450000000001,0.750135,0.24097,0.018075,1.097445,0.4912899999999999,0.011195,1.184235,0.27003,0.105565,0.7091150000000002,0.10464,-0.1416849999999999,1.253225,0.068977,0.0790050000000001,0.9287450000000002,-0.007001,0.001145,1.071255,0.007001,-0.0011449999999999,0.908325,-0.34768,-0.0568949999999999,1.134325,-0.36567,-0.0336749999999999,0.905955,-0.67405,-0.0044549999999999,1.146375,-0.6757500000000001,0.058305,0
189,0.872225,0.7182615,-0.0680950000000001,0.807665,0.4469315,0.0085849999999999,0.750075,0.2393414999999999,0.0199549999999999,1.094655,0.4928614999999999,0.0100049999999999,1.181275,0.2698215,0.1073849999999999,0.712615,0.1018215,-0.138295,1.2503149999999998,0.0686205,0.0858349999999998,0.928835,-0.0071985,0.0007549999999999,1.071165,0.0071985,-0.000755,0.911765,-0.3484685,-0.053155,1.136355,-0.3658885,-0.031245,0.913485,-0.6861685,0.0007049999999999,1.150095,-0.6759585,0.0620549999999998,0
190,0.8694649999999999,0.7167085,-0.07196,0.8043350000000001,0.4455785,0.00678,0.749935,0.2373685,0.02249,1.091195,0.4944485,0.0085199999999999,1.178295,0.2696485,0.1085399999999999,0.717455,0.0967085,-0.1336,1.247895,0.0684475,0.0907299999999999,0.928975,-0.0074044999999999,0.0004999999999999,1.071025,0.0074045,-0.0005,0.915165,-0.3491415,-0.0489399999999999,1.1380249999999998,-0.3660115,-0.02859,0.920545,-0.6981715,0.0059599999999999,1.153055,-0.6761315,0.0650699999999999,0
191,0.866805,0.7151885,-0.0756999999999998,0.8010050000000001,0.4439185,0.00506,0.7499250000000002,0.2353785,0.0253200000000001,1.088805,0.4958784999999999,0.00789,1.175515,0.2697585,0.1092,0.722465,0.0926985,-0.1295899999999998,1.245805,0.0682475,0.0948500000000001,0.929115,-0.0076384999999999,0.00031,1.070885,0.0076384999999999,-0.0003099999999999,0.918225,-0.3498415,-0.0448999999999999,1.139175,-0.3668915,-0.0259799999999998,0.926765,-0.7101915,0.0116100000000001,1.155315,-0.6763315,0.06754,0
192,0.8649250000000002,0.7139650000000001,-0.078465,0.7985050000000001,0.442315,0.003835,0.7517250000000001,0.2336549999999999,0.027225,1.087015,0.496805,0.007465,1.173625,0.270055,0.109295,0.726935,0.088015,-0.127085,1.244885,0.067994,0.097785,0.929255,-0.007851,0.000245,1.070745,0.007851,-0.000245,0.920805,-0.350305,-0.0420249999999999,1.140245,-0.367405,-0.0237849999999999,0.931605,-0.722065,0.016595,1.156825,-0.676485,0.069165,0
193,0.86305,0.712819,-0.081005,0.7956899999999999,0.440629,0.002565,0.75391,0.231869,0.0286849999999999,1.08544,0.4975989999999999,0.007105,1.1720199999999998,0.270509,0.1090449999999999,0.7316299999999999,0.0830789999999999,-0.124645,1.24451,0.0682059999999999,0.1003049999999999,0.92942,-0.008085,0.000275,1.07058,0.0080849999999999,-0.000275,0.92318,-0.350651,-0.039545,1.14118,-0.367661,-0.021625,0.93583,-0.733911,0.021545,1.15787,-0.676341,0.070435,0
194,0.8605,0.711125,-0.0853599999999999,0.7919500000000002,0.437825,7.00000000000145e-05,0.7493500000000002,0.228895,0.0274999999999999,1.08216,0.499445,0.00544,1.1689,0.273375,0.1074199999999999,0.7295900000000002,0.071436,-0.12282,1.24392,0.071469,0.1030599999999999,0.92967,-0.0082639999999999,0.0002599999999999,1.07033,0.008264,-0.00026,0.9260000000000002,-0.351295,-0.0367399999999999,1.14274,-0.369285,-0.02168,0.94241,-0.7461049999999999,0.0262799999999999,1.15977,-0.675735,0.07079,0
195,0.8598400000000002,0.710191,-0.08649,0.78878,0.434871,-4.999999999999449e-05,0.75021,0.2260609999999999,0.03215,1.08188,0.499571,0.0058099999999999,1.16902,0.274391,0.1064999999999999,0.73517,0.07116,-0.1215399999999999,1.244,0.072411,0.0994599999999999,0.93014,-0.008417,0.0009299999999999,1.06986,0.008417,-0.0009299999999999,0.92665,-0.351449,-0.03353,1.14172,-0.368699,-0.0201,0.94349,-0.746679,0.0272999999999999,1.15949,-0.675609,0.07194,0
196,0.8593550000000001,0.7095265,-0.0862349999999999,0.7873050000000001,0.4334165,0.000335,0.7519550000000002,0.2250565,0.037275,1.080265,0.4995864999999999,0.0061850000000001,1.168805,0.2744265,0.1063250000000001,0.7405550000000001,0.0628685,-0.1088649999999998,1.2442350000000002,0.0725815,0.097865,0.930275,-0.0086115,0.001235,1.069725,0.0086115,-0.0012349999999999,0.927015,-0.3516435,-0.0308349999999999,1.140635,-0.3694535,-0.0178249999999999,0.9436050000000002,-0.7470235000000001,0.029185,1.156705,-0.6753135,0.072425,0
197,0.8575750000000001,0.7089855,-0.08669,0.7853450000000001,0.4321355,0.0006299999999999,0.7542750000000001,0.2238655,0.0411399999999999,1.079505,0.4997255,0.0064699999999999,1.168345,0.2746755,0.1060299999999999,0.748645,0.0555865,-0.0982,1.244205,0.0730075,0.0941099999999999,0.930525,-0.0088495,0.00161,1.069475,0.0088495,-0.00161,0.928815,-0.3519145,-0.02811,1.140825,-0.3683345,-0.0154,0.946415,-0.7473845,0.0312599999999999,1.155115,-0.6752445,0.0726499999999999,0
198,0.8576550000000001,0.708634,-0.08665,0.7825749999999999,0.431844,0.0016599999999999,0.757555,0.223154,0.04444,1.079125,0.499624,0.0068599999999999,1.167725,0.274884,0.1054899999999999,0.754285,0.049284,-0.08774,1.244275,0.073498,0.0917099999999999,0.930575,-0.008993,0.00187,1.0694249999999998,0.008993,-0.00187,0.929645,-0.3520459999999999,-0.0258899999999999,1.140225,-0.3684159999999999,-0.0135899999999999,0.946115,-0.747436,0.03403,1.153535,-0.675576,0.0736599999999999,0
199,0.857755,0.708187,-0.086345,0.7815549999999999,0.431577,0.0023349999999999,0.7704549999999999,0.182677,0.0359849999999999,1.0833449999999998,0.4988769999999999,0.0091449999999999,1.166615,0.274567,0.104515,0.752805,0.014134,-0.101555,1.242965,0.073197,0.087825,0.930645,-0.008978,0.002085,1.0693549999999998,0.008978,-0.002085,0.930195,-0.352013,-0.0240249999999999,1.139805,-0.368943,-0.012175,0.945465,-0.7475229999999999,0.0353649999999999,1.151895,-0.676083,0.074315,0
200,0.8588650000000001,0.7078375,-0.085925,0.7823650000000001,0.4316275,0.0028349999999999,0.7728350000000002,0.1810475,0.0358049999999999,1.087585,0.4982375,0.0110149999999998,1.166375,0.2739875,0.1040849999999999,0.7678150000000001,-0.0033825,-0.080145,1.241905,0.0725035,0.0834449999999999,0.930555,-0.0089815,0.0024349999999999,1.069445,0.0089814999999999,-0.002435,0.931235,-0.3520025,-0.021875,1.139635,-0.3683425,-0.010985,0.946265,-0.7476325,0.0368949999999999,1.151845,-0.6761725,0.0743749999999999,0
