sb224sc-HT22-VT27/4dt907/src/data/labeled_files/A25_kinect.csv
FrameNo,nose_3d_x,nose_3d_y,nose_3d_z,left_shoulder_3d_x,left_shoulder_3d_y,left_shoulder_3d_z,left_elbow_3d_x,left_elbow_3d_y,left_elbow_3d_z,right_shoulder_3d_x,right_shoulder_3d_y,right_shoulder_3d_z,right_elbow_3d_x,right_elbow_3d_y,right_elbow_3d_z,left_wrist_3d_x,left_wrist_3d_y,left_wrist_3d_z,right_wrist_3d_x,right_wrist_3d_y,right_wrist_3d_z,left_hip_3d_x,left_hip_3d_y,left_hip_3d_z,right_hip_3d_x,right_hip_3d_y,right_hip_3d_z,left_knee_3d_x,left_knee_3d_y,left_knee_3d_z,right_knee_3d_x,right_knee_3d_y,right_knee_3d_z,left_ankle_3d_x,left_ankle_3d_y,left_ankle_3d_z,right_ankle_3d_x,right_ankle_3d_y,right_ankle_3d_z,activity_label
0,0.0053034999999999,0.7577425,0.044793,-0.1603955,0.4649525,0.062349,-0.1744755,0.2107225,0.061029,0.1588145,0.4604924999999999,0.059189,0.1861745,0.2082025,0.062809,-0.1952755,0.0080625,-0.010382,0.1995545,0.0065895,-0.014196,-0.0722855,0.0026585,0.000515,0.0722855,-0.0026585,-0.000515,-0.1224955,-0.3860975,-0.0112109999999999,0.1143845,-0.4138175,0.010993,-0.1292955,-0.7334275,-0.013397,0.1210845,-0.7409475,-0.015426,0
1,0.008873,0.757679,0.048567,-0.159389,0.465699,0.063752,-0.173529,0.211129,0.0616029999999999,0.1608609999999999,0.459549,0.061144,0.186941,0.207089,0.0640409999999999,-0.195079,0.008726,-0.010276,0.199641,0.004475,-0.013749,-0.072253,0.002962,0.0004549999999999,0.072253,-0.0029619999999999,-0.000455,-0.124509,-0.387311,-0.012656,0.112091,-0.416631,0.0095279999999999,-0.1326089999999999,-0.732821,-0.016375,0.118191,-0.742551,-0.019141,0
2,0.009006,0.7577665,0.0488405,-0.158846,0.4652965,0.0642225,-0.1736059999999999,0.2113165,0.0616695,0.160794,0.4595765,0.0610825,0.186844,0.2066365,0.0643105,-0.1949759999999999,0.0087145,-0.0096554999999999,0.196534,0.0042985,-0.0110644999999999,-0.072265,0.0029435,0.0004965,0.072265,-0.0029435,-0.0004964999999999,-0.124516,-0.3874835,-0.0127754999999999,0.112144,-0.4171035,0.0094595,-0.132536,-0.7328435,-0.0165605,0.117934,-0.7438135,-0.0191085,0
3,0.0091235,0.7577315,0.0491735,-0.1578915,0.4651415,0.0644575,-0.1736615,0.2115115,0.0616205,0.1607485,0.4595815,0.0611165,0.1868385,0.2063215,0.0640295,-0.1947515,0.0088125,-0.0094624999999999,0.1990085,0.0038194999999999,-0.0104104999999999,-0.0722724999999999,0.0029284999999999,0.0005114999999999,0.0722724999999999,-0.0029285,-0.0005114999999999,-0.1244815,-0.3875485,-0.0128995,0.1121185,-0.4173385,0.0094475,-0.1323415,-0.7330885,-0.0170574999999999,0.1180084999999999,-0.7442285000000001,-0.0192055,0
4,0.0092725,0.7577135,0.0497085,-0.1574745,0.4649235,0.0646535,-0.1736545,0.2115334999999999,0.0615565,0.1603955,0.4595935,0.0610995,0.1868555,0.2063835,0.0640475,-0.1947845,0.0087485,-0.0092334999999999,0.1983955,0.0026374999999999,-0.0117215,-0.0723085,0.0028894999999999,0.0005695,0.0723085,-0.0028894999999999,-0.0005695,-0.1244745,-0.3876965,-0.0129405,0.1120655,-0.4159365,0.0090104999999999,-0.1318845,-0.7332565,-0.0173545,0.1182255,-0.7433065,-0.0195815,0
5,0.009395,0.7575799999999999,0.0506395,-0.158298,0.46539,0.0651445,-0.174248,0.21216,0.0613195,0.160332,0.45934,0.0616325,0.186832,0.20632,0.0637765,-0.195908,0.0097969999999999,-0.0106755,0.197992,0.0020399999999999,-0.0127514999999999,-0.072327,0.0028779999999999,0.0006204999999999,0.072327,-0.002878,-0.0006205,-0.1245479999999999,-0.3880699999999999,-0.0129705,0.112092,-0.41535,0.0089494999999999,-0.131998,-0.73299,-0.0174385,0.118222,-0.7437400000000001,-0.0207505,0
6,0.009221,0.7573295,0.051471,-0.158071,0.4650495,0.06611,-0.175281,0.2120495,0.061361,0.160029,0.4593095,0.061856,0.186899,0.2064895,0.063201,-0.198111,0.0012084999999999,-0.028578,0.197269,0.0016734999999999,-0.015465,-0.072321,0.0028694999999999,0.000702,0.072321,-0.0028695,-0.000702,-0.124531,-0.3880904999999999,-0.0128539999999999,0.112099,-0.4153205,0.00876,-0.131991,-0.7331905000000001,-0.017597,0.118399,-0.7429805,-0.020774,0
7,0.008674,0.756956,0.0534535,-0.158217,0.466146,0.0660125,-0.195417,0.234786,0.0380865,0.1592829999999999,0.459916,0.0616585,0.2008329999999999,0.228366,0.0419465,-0.234987,0.053266,-0.0659064999999999,0.2201229999999999,0.040746,-0.0604924999999999,-0.072499,0.0027689999999999,0.0003715,0.072499,-0.002769,-0.0003714999999999,-0.124867,-0.381344,-0.0116374999999999,0.111913,-0.413684,0.0092135,-0.131657,-0.731664,-0.0149445,0.118073,-0.743654,-0.0204074999999999,0
8,0.0086255,0.756816,0.055325,-0.1579395,0.466146,0.066143,-0.2084495,0.248486,0.025469,0.1585905,0.459916,0.061471,0.2095604999999999,0.238496,0.029486,-0.2519794999999999,0.079471,-0.091906,0.2337604999999999,0.063454,-0.085806,-0.0725355,0.0027689999999999,0.000322,0.0725355,-0.002769,-0.0003219999999999,-0.1248595,-0.3801339999999999,-0.0112389999999999,0.1119405,-0.413684,0.009085,-0.1316695,-0.731094,-0.0142939999999999,0.1181105,-0.743654,-0.0208239999999999,0
9,0.007774,0.756419,0.0573875,-0.157303,0.466839,0.0660415,-0.223133,0.269049,0.0104195,0.157157,0.460599,0.0609415,0.2197869999999999,0.2567089999999999,0.0115795,-0.272693,0.120369,-0.1220405,0.250447,0.098808,-0.1184605,-0.072717,0.00261,0.0003885,0.072717,-0.0026099999999999,-0.0003884999999999,-0.124943,-0.378131,-0.0108794999999999,0.111827,-0.412461,0.0089095,-0.131123,-0.730441,-0.0136784999999999,0.118207,-0.744001,-0.0211844999999999,0
10,0.0068894999999999,0.755906,0.059379,-0.1566945,0.467536,0.065664,-0.2387345,0.291476,-0.004673,0.1558054999999999,0.461416,0.060197,0.2304555,0.275716,-0.0065569999999999,-0.2937245,0.167086,-0.152621,0.2679055,0.138876,-0.153481,-0.0729095,0.002445,0.000545,0.0729095,-0.0024449999999999,-0.000545,-0.1250545,-0.376214,-0.0106299999999999,0.1116655,-0.4113739999999999,0.00861,-0.1305045,-0.729864,-0.012888,0.1183955,-0.744244,-0.02172,0
11,0.0059384999999999,0.7552365,0.0613175,-0.1561375,0.4683665,0.0649785,-0.2545675,0.3189865,-0.0203935,0.1545625,0.4623165,0.0594025,0.2422224999999999,0.2982065,-0.0244584999999999,-0.3154575,0.2193865,-0.1818885,0.2854325,0.1868265,-0.1880185,-0.0731064999999999,0.0022255,0.0006595,0.0731064999999999,-0.0022255,-0.0006595,-0.1251575,-0.3742335,-0.0104584999999999,0.1114925,-0.4104335,0.0081795,-0.1297775,-0.7298135,-0.0123584999999999,0.1185624999999999,-0.7446135,-0.0221265,0
12,0.004956,0.75443,0.0632115,-0.155762,0.46956,0.0640574999999999,-0.270012,0.34891,-0.0357745,0.1534579999999999,0.46329,0.0584714999999999,0.254738,0.3244599999999999,-0.0413045,-0.335642,0.27708,-0.2096865,0.303028,0.24128,-0.2205365,-0.0732859999999999,0.002022,0.0008254999999999,0.0732859999999999,-0.0020219999999999,-0.0008254999999999,-0.125242,-0.37246,-0.0104054999999999,0.1113379999999999,-0.40964,0.0077225,-0.129112,-0.7301599999999999,-0.0121995,0.118768,-0.7451599999999999,-0.0225075,0
13,0.0039839999999999,0.753491,0.065051,-0.155393,0.470831,0.0629639999999999,-0.283543,0.379941,-0.049072,0.152477,0.464401,0.0574449999999999,0.266677,0.351941,-0.056487,-0.354143,0.3388009999999999,-0.232907,0.319227,0.298591,-0.246857,-0.073428,0.001831,0.0010049999999999,0.073428,-0.001831,-0.001005,-0.125283,-0.371139,-0.010383,0.1112169999999999,-0.409079,0.0072589999999999,-0.128423,-0.730709,-0.0121479999999999,0.1189369999999999,-0.745779,-0.022815,0
14,0.0030619999999999,0.752475,0.0665465,-0.154986,0.472205,0.0617315,-0.293216,0.411085,-0.0574374999999999,0.151884,0.4659049999999999,0.0563204999999999,0.276584,0.379785,-0.0678765,-0.3668659999999999,0.4010249999999999,-0.2466355,0.331674,0.357875,-0.2646755,-0.073503,0.0016479999999999,0.0012405,0.073503,-0.001648,-0.0012404999999999,-0.125256,-0.370725,-0.0106785,0.111164,-0.408805,0.0066494999999999,-0.127606,-0.730625,-0.0118225,0.119204,-0.746605,-0.0232145,0
15,0.0022119999999999,0.7511774999999999,0.067749,-0.1547,0.4739875,0.060405,-0.30104,0.4436475,-0.0631249999999999,0.15168,0.4676375,0.055194,0.28471,0.4113575,-0.076296,-0.37644,0.4643775,-0.2518559999999999,0.3414,0.4196775,-0.2752259999999999,-0.073575,0.0014554999999999,0.0014599999999999,0.073575,-0.0014555,-0.0014599999999999,-0.12514,-0.3711625,-0.011201,0.11118,-0.4088625,0.005964,-0.12671,-0.7308725,-0.012261,0.11954,-0.7477625000000001,-0.023666,0
16,0.0014115,0.7496825,0.068745,-0.1544475,0.4758624999999999,0.0592619999999999,-0.3056975,0.4774224999999999,-0.064664,0.1517525,0.4691924999999999,0.054075,0.2909625,0.4425524999999999,-0.078733,-0.3802875,0.5289925000000001,-0.253363,0.3475025,0.4838725,-0.276353,-0.0736725,0.0013044999999999,0.001631,0.0736725,-0.0013045,-0.001631,-0.1249975,-0.3722175,-0.011822,0.1112325,-0.4091475,0.00519,-0.1257475,-0.7314875,-0.012917,0.1199125,-0.7489275,-0.023913,0
17,0.0010219999999999,0.74766,0.068978,-0.154123,0.47791,0.058267,-0.305833,0.5095999999999999,-0.065901,0.151907,0.47121,0.053322,0.2930669999999999,0.47532,-0.079879,-0.380123,0.59013,-0.254589,0.3476669999999999,0.54663,-0.277579,-0.073793,0.0011739999999999,0.0017019999999999,0.073793,-0.001174,-0.001702,-0.124893,-0.37386,-0.012494,0.111357,-0.41003,0.0044899999999999,-0.125233,-0.73289,-0.01377,0.120037,-0.7504,-0.024283,0
18,0.001147,0.745349,0.0689215,-0.1537929999999999,0.4799589999999999,0.0576114999999999,-0.305663,0.536659,-0.0667815,0.152057,0.473499,0.0529745,0.293417,0.503689,-0.0807595,-0.379953,0.641229,-0.2554695,0.3478369999999999,0.602449,-0.2784595,-0.073891,0.001163,0.0016504999999999,0.073891,-0.001163,-0.0016505,-0.124723,-0.375761,-0.0130925,0.111487,-0.412021,0.0039224999999999,-0.125063,-0.7357009999999999,-0.0147074999999999,0.120187,-0.7522409999999999,-0.0244895,0
19,0.0013465,0.74261,0.0687845,-0.1534225,0.48286,0.0571755,-0.3054625,0.5658,-0.0670554999999999,0.1522175,0.47564,0.0528105,0.2936375,0.53621,-0.0814574999999999,-0.3799225,0.69122,-0.2511675,0.3480475,0.65979,-0.2786875,-0.0739355,0.001133,0.0015195,0.0739355,-0.001133,-0.0015195,-0.1244925,-0.37803,-0.0135494999999999,0.1116475,-0.41438,0.0034514999999999,-0.1248524999999999,-0.73875,-0.0151164999999999,0.1203475,-0.75455,-0.0245215,0
20,0.0017024999999999,0.7396539999999999,0.0685185,-0.1529765,0.4859839999999999,0.0568095,-0.3048464999999999,0.5964539999999999,-0.0633104999999999,0.1527435,0.477104,0.0527825,0.2938735,0.5682539999999999,-0.0786885,-0.3791064999999999,0.7398239999999999,-0.2373415,0.3477235,0.711824,-0.2669315,-0.0739025,0.0012139999999999,0.0014285,0.0739025,-0.001214,-0.0014284999999999,-0.1241164999999999,-0.380906,-0.0139584999999999,0.1118935,-0.417136,0.0031255,-0.1244965,-0.7424160000000001,-0.0155474999999999,0.1207034999999999,-0.757366,-0.0246865,0
21,0.0021369999999999,0.7367555,0.0681799999999999,-0.15277,0.4888955,0.056482,-0.30243,0.6246655,-0.057032,0.15388,0.4791455,0.0530939999999999,0.2939699999999999,0.5964355,-0.070172,-0.3737399999999999,0.7828755000000001,-0.217467,0.3435,0.7579555,-0.242557,-0.073769,0.0012864999999999,0.0012999999999999,0.073769,-0.0012865,-0.0013,-0.12387,-0.3837145,-0.014317,0.11204,-0.4198745,0.0028749999999999,-0.12447,-0.7453044999999999,-0.015448,0.1207599999999999,-0.7605544999999999,-0.02498,0
22,0.0025789999999999,0.7337765,0.067953,-0.152532,0.4917864999999999,0.056358,-0.297702,0.6498965000000001,-0.048808,0.154888,0.4808865,0.053639,0.292998,0.6213965,-0.060085,-0.366942,0.8196065,-0.194005,0.338518,0.7990065000000001,-0.217325,-0.073633,0.0013765,0.0012459999999999,0.073633,-0.0013764999999999,-0.001246,-0.123612,-0.3867235,-0.014546,0.1122179999999999,-0.4225635,0.0026589999999999,-0.124282,-0.7483434999999999,-0.0154359999999999,0.120808,-0.7639535,-0.025083,0
23,0.003068,0.731039,0.0678614999999999,-0.152078,0.4944889999999999,0.0563405,-0.292518,0.672289,-0.0398295,0.155752,0.4822689999999999,0.0543235,0.290482,0.644519,-0.0491415,-0.358528,0.851179,-0.1689405,0.332792,0.834909,-0.1906905,-0.073484,0.001454,0.0011684999999999,0.073484,-0.001454,-0.0011684999999999,-0.123328,-0.389511,-0.0146395,0.112402,-0.425181,0.0026065,-0.124128,-0.751931,-0.0157315,0.120872,-0.767271,-0.0251915,0
24,0.0035325,0.7286739999999999,0.067844,-0.1517995,0.496764,0.056517,-0.2868294999999999,0.693784,-0.0293639999999999,0.1563905,0.483344,0.054998,0.2865405,0.6642239999999999,-0.037062,-0.3473994999999999,0.880344,-0.139885,0.3260705,0.866194,-0.160675,-0.0733345,0.001562,0.001197,0.0733345,-0.001562,-0.001197,-0.1231295,-0.391856,-0.0146399999999999,0.1125305,-0.427496,0.002607,-0.1242895,-0.7544460000000001,-0.015926,0.1208704999999999,-0.7701760000000001,-0.025087,0
25,0.003938,0.726756,0.067596,-0.151661,0.498776,0.056741,-0.2811309999999999,0.712746,-0.018756,0.1565889999999999,0.484476,0.055673,0.282349,0.684516,-0.024793,-0.336571,0.904986,-0.112233,0.318479,0.893136,-0.1319729999999999,-0.073189,0.0016499999999999,0.001235,0.073189,-0.0016499999999999,-0.001235,-0.123041,-0.394034,-0.014662,0.112509,-0.429494,0.0026319999999999,-0.124581,-0.757284,-0.016305,0.120669,-0.773134,-0.0250089999999999,0
26,0.0043235,0.7254189999999999,0.0670439999999999,-0.1511334999999999,0.501199,0.057405,-0.2759034999999999,0.7273189999999999,-0.009218,0.1566465,0.484749,0.05611,0.2780965,0.7001689999999999,-0.0134999999999999,-0.3266334999999999,0.923149,-0.086916,0.3117265,0.911749,-0.105996,-0.0731245,0.001791,0.0012789999999999,0.0731245,-0.001791,-0.001279,-0.1230035,-0.395921,-0.014731,0.1124365,-0.431111,0.0026549999999999,-0.1248435,-0.759571,-0.016467,0.1204065,-0.775791,-0.0249829999999999,0
27,0.0046894999999999,0.72448,0.0663235,-0.1504025,0.5033,0.0581395,-0.2706825,0.74079,0.0002015,0.1566374999999999,0.48435,0.0564655,0.2735675,0.71307,-0.0027604999999999,-0.3173025,0.93773,-0.0641924999999999,0.3051675,0.92618,-0.0805404999999999,-0.0731165,0.001886,0.0012825,0.0731165,-0.0018859999999999,-0.0012824999999999,-0.1230025,-0.39736,-0.0148634999999999,0.1123075,-0.43237,0.0026345,-0.1250625,-0.76134,-0.0161455,0.1201475,-0.7780900000000001,-0.0250395,0
28,0.0050834999999999,0.7236665,0.0654115,-0.1492845,0.5047265,0.0589835,-0.2662245,0.7500665,0.0083705,0.1566055,0.4845865,0.0569845,0.2694155,0.7212365000000001,0.0056435,-0.3090545,0.9482965,-0.0450625,0.3000855,0.9345465,-0.0596085,-0.0731045,0.0020174999999999,0.0013584999999999,0.0731045,-0.0020175,-0.0013584999999999,-0.1230045,-0.3987435,-0.0149675,0.1121755,-0.4335135,0.0026195,-0.1253145,-0.7628834999999999,-0.0158335,0.1198555,-0.7802835,-0.0252454999999999,0
29,0.0051939999999999,0.7231645,0.064547,-0.148065,0.5056845,0.0600519999999999,-0.261945,0.7527045,0.0158649999999999,0.156245,0.4850445,0.0574229999999999,0.266515,0.7263345,0.0132109999999999,-0.3023349999999999,0.9546545,-0.028238,0.295925,0.9404645,-0.042461,-0.073041,0.0021105,0.0015409999999999,0.073041,-0.0021105,-0.001541,-0.123075,-0.3998454999999999,-0.015002,0.112095,-0.4341655,0.0026409999999999,-0.125465,-0.7643855,-0.016192,0.119795,-0.7818155,-0.02538,0
30,0.0052634999999999,0.722758,0.063591,-0.1468855,0.506278,0.061005,-0.2577955,0.755298,0.023449,0.1557045,0.484548,0.057566,0.2638545,0.7313780000000001,0.020337,-0.2965055,0.959818,-0.013485,0.2924545,0.945808,-0.028535,-0.0729345,0.0022,0.001759,0.0729345,-0.0022,-0.001759,-0.1231855,-0.401092,-0.0151069999999999,0.1119845,-0.434802,0.002568,-0.1256555,-0.765922,-0.016406,0.1196845,-0.783322,-0.0255409999999999,0
31,0.0052564999999999,0.722666,0.063003,-0.1457885,0.506766,0.061812,-0.2549285,0.757846,0.029102,0.1551515,0.484146,0.057637,0.2618815,0.735476,0.026107,-0.2917485,0.964796,-0.0013899999999999,0.2891515,0.949486,-0.015486,-0.0728505,0.002271,0.001911,0.0728505,-0.002271,-0.0019109999999999,-0.1233885,-0.401494,-0.015334,0.1117915,-0.435204,0.00236,-0.1259285,-0.766624,-0.0169119999999999,0.1194615,-0.783754,-0.0258269999999999,0
32,0.005114,0.7224305,0.0624775,-0.144789,0.5072105,0.0626125,-0.252239,0.7595005,0.0341545,0.1544309999999999,0.4841905000000001,0.0577305,0.260141,0.7388005000000001,0.0310744999999999,-0.287919,0.9689005,0.0089255,0.286111,0.9529205,-0.0051875,-0.072807,0.0023284999999999,0.0020874999999999,0.072807,-0.0023284999999999,-0.0020874999999999,-0.123479,-0.4019595,-0.0155945,0.111511,-0.4356695,0.0020834999999999,-0.126319,-0.7671494999999999,-0.0173765,0.119121,-0.7844095,-0.0261675,1
33,0.0049275,0.7221909999999999,0.0619614999999999,-0.1437915,0.5076609999999999,0.0634764999999999,-0.2503915,0.759691,0.0378234999999999,0.1536985,0.484031,0.0578285,0.2588585,0.740861,0.0341355,-0.2862515,0.970541,0.0143324999999999,0.2838485,0.955021,0.0018494999999999,-0.0727754999999999,0.0023709999999999,0.0022834999999999,0.0727754999999999,-0.0023709999999999,-0.0022835,-0.1236315,-0.4024189999999999,-0.0158765,0.1112684999999999,-0.436129,0.0018234999999999,-0.1268315,-0.767629,-0.0179605,0.1187584999999999,-0.785049,-0.0266045,1
34,0.0048105,0.721796,0.0614515,-0.1428895,0.5081760000000001,0.0644204999999999,-0.2490595,0.7594660000000001,0.0411105,0.1529704999999999,0.483866,0.0578875,0.2575105,0.741166,0.0371615,-0.2849995,0.971976,0.0196035,0.2818505,0.956576,0.0081145,-0.0727454999999999,0.002412,0.0025275,0.0727454999999999,-0.0024119999999999,-0.0025274999999999,-0.1237495,-0.403594,-0.0162785,0.1110305,-0.4366139999999999,0.0014745,-0.1273495,-0.7689539999999999,-0.0187174999999999,0.1183805,-0.786374,-0.0271664999999999,1
35,0.0045665,0.7214875000000001,0.0609325,-0.1427915,0.5079375,0.0648435,-0.2484115,0.7595575,0.0435135,0.1521385,0.4838975,0.0578965,0.2561584999999999,0.7408275,0.0395685,-0.2845715,0.9727375,0.0233455,0.2800485,0.9576575,0.0125335,-0.0727125,0.0023904999999999,0.0028315,0.0727125,-0.0023904999999999,-0.0028315,-0.1239615,-0.4048225,-0.0168515,0.1107185,-0.4369725,0.0009515,-0.1278515,-0.7704925,-0.0196795,0.1179785,-0.7876124999999999,-0.0279995,1
36,0.0042559999999999,0.7211395,0.0603719999999999,-0.142755,0.5077495,0.065189,-0.2483149999999999,0.7596495,0.04532,0.151355,0.4840195,0.0578309999999999,0.255075,0.7405995,0.041372,-0.284875,0.9729895,0.02593,0.2784549999999999,0.9581295,0.015099,-0.0726729999999999,0.0023035,0.00314,0.0726729999999999,-0.0023035,-0.00314,-0.124125,-0.4064305,-0.01746,0.110415,-0.4373605,0.000344,-0.128235,-0.7728205,-0.021048,0.117545,-0.7888005,-0.028896,1
37,0.00389,0.7205125,0.0596504999999999,-0.143051,0.5078325,0.0652145,-0.248741,0.7594125,0.0462955,0.150749,0.4846525,0.0575065,0.254099,0.7399825,0.0423925,-0.2853009999999999,0.9723725,0.0266035,0.277129,0.9579725,0.0158955,-0.072658,0.0022464999999999,0.0033144999999999,0.072658,-0.0022464999999999,-0.0033144999999999,-0.124211,-0.4083374999999999,-0.0182055,0.110199,-0.4381675,-0.0004585,-0.128771,-0.7754575,-0.0226035,0.117159,-0.7902475,-0.0300504999999999,1
38,0.0034054999999999,0.7197279999999999,0.0587174999999999,-0.1435644999999999,0.507798,0.0648645,-0.2492745,0.759328,0.0467365,0.1500355,0.485328,0.0570205,0.2529254999999999,0.739278,0.0426885,-0.2857945,0.971878,0.0259454999999999,0.2757055,0.957648,0.0150724999999999,-0.0726385,0.0021319999999999,0.0034354999999999,0.0726385,-0.002132,-0.0034355,-0.1242945,-0.410342,-0.0191625,0.1099955,-0.4389119999999999,-0.0017335,-0.1294445,-0.7778520000000001,-0.0244155,0.1167054999999999,-0.791802,-0.0312635,1
39,0.0028495,0.718889,0.0576785,-0.1441365,0.508109,0.0644325,-0.2498165,0.7589090000000001,0.0467305,0.1492935,0.486499,0.0563205,0.2517235,0.738679,0.0422735,-0.2863464999999999,0.971679,0.0247915,0.2741435,0.957449,0.0138795,-0.0726435,0.0019609999999999,0.0035075,0.0726435,-0.0019609999999999,-0.0035075,-0.1244064999999999,-0.412051,-0.0203945,0.1098335,-0.439471,-0.0033924999999999,-0.1301765,-0.779821,-0.0266575,0.1161935,-0.793171,-0.0330035,1
40,0.0019939999999999,0.718361,0.056179,-0.144968,0.508061,0.064217,-0.250618,0.758681,0.0458159999999999,0.148312,0.486821,0.055282,0.250162,0.737931,0.040977,-0.288218,0.971161,0.023132,0.272252,0.957601,0.012219,-0.072607,0.0018799999999999,0.0036439999999999,0.072607,-0.0018799999999999,-0.0036439999999999,-0.124698,-0.4132989999999999,-0.022107,0.109532,-0.439709,-0.005845,-0.131178,-0.781359,-0.029164,0.115502,-0.794109,-0.035305,1
41,0.000781,0.718001,0.0538275,-0.146064,0.507991,0.0634035,-0.251774,0.7585609999999999,0.0438985,0.146896,0.4869409999999999,0.0534865,0.2483359999999999,0.737221,0.0386815,-0.2908139999999999,0.970431,0.0207775,0.269936,0.957711,0.0098755,-0.072613,0.00186,0.0038835,0.072613,-0.00186,-0.0038835,-0.124944,-0.414919,-0.0244915,0.109246,-0.440179,-0.0097295,-0.132424,-0.7834490000000001,-0.0330965,0.114616,-0.7948890000000001,-0.0385045,1
42,-0.0007714999999999,0.7177025,0.0505925,-0.1472715,0.5079224999999999,0.0617225,-0.2533015,0.7565324999999999,0.0406954999999999,0.1452284999999999,0.4867224999999999,0.0507075,0.2460185,0.7361325,0.0354485,-0.2937615,0.9695325,0.0170695,0.2672385,0.9578925,0.0058315,-0.0726455,0.0018024999999999,0.0042755,0.0726455,-0.0018024999999999,-0.0042755,-0.1250715,-0.4169675,-0.0278094999999999,0.1090385,-0.4407775,-0.0151295,-0.1336514999999999,-0.7859075,-0.0385245,0.1137185,-0.7956875,-0.0429405,1
43,-0.00253,0.7178515000000001,0.0470455,-0.148432,0.5078715,0.0595815,-0.254992,0.7540914999999999,0.0371495,0.143528,0.4865314999999999,0.0471625,0.243558,0.7356815000000001,0.0318735,-0.296832,0.9690915,0.0125205,0.2644379999999999,0.9583515,0.0009445,-0.072692,0.0017775,0.0047735,0.072692,-0.0017775,-0.0047735,-0.125202,-0.4172185,-0.0314825,0.108878,-0.4401185,-0.0211115,-0.134632,-0.7865584999999999,-0.0440795,0.112978,-0.7950284999999999,-0.0479755,1
44,-0.0045554999999999,0.717856,0.043094,-0.1495885,0.507946,0.057032,-0.2567184999999999,0.751796,0.033224,0.1418114999999999,0.486556,0.043236,0.2408815,0.7347360000000001,0.027912,-0.2998585,0.9683460000000002,0.007114,0.2615515,0.958516,-0.004902,-0.0727325,0.001752,0.00528,0.0727325,-0.0017519999999999,-0.00528,-0.1252585,-0.417064,-0.035655,0.1088015,-0.439364,-0.027706,-0.1356385,-0.786744,-0.049811,0.1123015,-0.7942739999999999,-0.053587,1
45,-0.0068979999999999,0.717177,0.0385205,-0.1509019999999999,0.507987,0.0539695,-0.258582,0.7487469999999999,0.0286795,0.139918,0.486687,0.0387625,0.237818,0.733047,0.0230795,-0.302932,0.967377,0.0005054999999999,0.258428,0.958697,-0.0118564999999999,-0.072858,0.001563,0.0056045,0.072858,-0.0015629999999999,-0.0056045,-0.125472,-0.416703,-0.0407115,0.1086979999999999,-0.438633,-0.0352535,-0.136742,-0.7869630000000001,-0.0560455,0.111498,-0.793543,-0.0597655,1
46,-0.009814,0.7162965,0.0319895,-0.15252,0.5083065,0.0500095,-0.26041,0.7455265000000001,0.0218575,0.13726,0.4872665,0.0332555,0.23442,0.7310365000000001,0.0158255,-0.30616,0.9661665,-0.0091574999999999,0.25503,0.9589865,-0.0210325,-0.073102,0.0013704999999999,0.0059185,0.073102,-0.0013705,-0.0059184999999999,-0.12593,-0.4165735,-0.0470364999999999,0.1086999999999999,-0.4377535,-0.0444424999999999,-0.1379,-0.7872534999999999,-0.0631005,0.1108499999999999,-0.7928434999999999,-0.0669525,1
47,-0.0128325,0.71476,0.0249709999999999,-0.1539645,0.50884,0.045655,-0.2619445,0.7418199999999999,0.0142869999999999,0.1345954999999999,0.48719,0.0270319999999999,0.2312755,0.72924,0.0079189999999999,-0.3092745,0.96468,-0.019908,0.2517054999999999,0.95946,-0.030998,-0.0733245,0.001124,0.006068,0.0733245,-0.001124,-0.006068,-0.1265244999999999,-0.4162,-0.054341,0.1088254999999999,-0.43662,-0.054811,-0.1389145,-0.78708,-0.070503,0.1102855,-0.79171,-0.074558,1
48,-0.0158614999999999,0.7128985,0.0174585,-0.1556135,0.5087485,0.0407285,-0.2633635,0.7376085,0.0059975,0.1319165,0.4873785,0.0201395,0.2281765,0.7277285,-0.0008644999999999,-0.3121935,0.9634985,-0.0316324999999999,0.2484165,0.9606785,-0.0417235,-0.0735244999999999,0.0008055,0.0062935,0.0735244999999999,-0.0008055,-0.0062934999999999,-0.1271035,-0.4152415,-0.0625014999999999,0.1090265,-0.4343315,-0.0661555,-0.1398235,-0.7857715,-0.0781544999999999,0.1097365,-0.7894415,-0.0825015,1
49,-0.0188505,0.7106699999999999,0.009792,-0.1569924999999999,0.50916,0.0352009999999999,-0.2645425,0.7323,-0.0024709999999999,0.1294075,0.48815,0.013287,0.2254375,0.7260599999999999,-0.0100679999999999,-0.3147825,0.96254,-0.043755,0.2453375,0.96198,-0.0526149999999999,-0.0737695,0.000459,0.00649,0.0737695,-0.000459,-0.0064899999999999,-0.1276425,-0.41405,-0.071045,0.1094675,-0.4316299999999999,-0.077849,-0.1405325,-0.78371,-0.085576,0.1092175,-0.78659,-0.090388,1
50,-0.0217375,0.709024,0.0021479999999999,-0.1582515,0.510374,0.0299139999999999,-0.2655315,0.726934,-0.010942,0.1268485,0.487534,0.006148,0.2228585,0.725304,-0.019432,-0.3170215,0.962344,-0.056377,0.2426085,0.964214,-0.063183,-0.0739345,0.000133,0.0064839999999999,0.0739345,-0.000133,-0.006484,-0.1279915,-0.411136,-0.080011,0.1100584999999999,-0.427596,-0.089287,-0.1410515,-0.779356,-0.092416,0.1088185,-0.781796,-0.097979,1
51,-0.024706,0.7064525,-0.0057215,-0.159835,0.5079525,0.0240644999999999,-0.266775,0.7240025,-0.0202205,0.124185,0.4877425,-0.0011615,0.219975,0.7224925000000001,-0.0295475,-0.319405,0.9582925,-0.0699465,0.239675,0.9670525,-0.0744885,-0.0741489999999999,-0.0005194999999999,0.0067124999999999,0.0741489999999999,0.0005194999999999,-0.0067125,-0.128495,-0.4051975,-0.0898445,0.110655,-0.4209475,-0.1026865,-0.141875,-0.7720075,-0.0990105,0.1082249999999999,-0.7738474999999999,-0.1053925,1
52,-0.0276525,0.7038455,-0.01354,-0.1614815,0.5057355,0.0180739999999999,-0.2679615,0.7206655,-0.029425,0.1213285,0.4871255,-0.008553,0.2173285,0.7208355,-0.039394,-0.3216415,0.9547155,-0.083303,0.2368285,0.9708755,-0.086087,-0.0743535,-0.0009385,0.0066589999999999,0.0743535,0.0009385,-0.006659,-0.1290615,-0.3982445,-0.100128,0.1112285,-0.4135345,-0.116169,-0.1427614999999999,-0.7636545,-0.105585,0.1076285,-0.7648645000000001,-0.112312,1
53,-0.0307269999999999,0.7012569999999999,-0.0214215,-0.163459,0.503907,0.0120134999999999,-0.269529,0.716707,-0.0387285,0.118161,0.486527,-0.0160525,0.214581,0.720117,-0.0495205,-0.324099,0.951567,-0.0970225,0.233671,0.975097,-0.0979615,-0.074504,-0.001436,0.0065934999999999,0.074504,0.0014359999999999,-0.0065935,-0.130429,-0.388163,-0.1109105,0.111531,-0.403103,-0.1299475,-0.144279,-0.7538330000000001,-0.1127525,0.106611,-0.754413,-0.1189965,1
54,-0.033948,0.698585,-0.029297,-0.16546,0.500165,0.0059619999999999,-0.27143,0.714195,-0.048985,0.11468,0.484505,-0.023609,0.21195,0.7206349999999999,-0.060325,-0.32657,0.948065,-0.111698,0.2305,0.972865,-0.110137,-0.074743,-0.0019699999999999,0.006496,0.074743,0.00197,-0.006496,-0.1324,-0.3738749999999999,-0.122443,0.11186,-0.388785,-0.145011,-0.1456299999999999,-0.739965,-0.119595,0.10537,-0.7401650000000001,-0.125739,1
55,-0.036505,0.6952900000000001,-0.035633,-0.167239,0.4962499999999999,0.000558,-0.273789,0.7072700000000001,-0.057865,0.1118609999999999,0.48289,-0.030017,0.2094109999999999,0.71992,-0.070066,-0.328839,0.93998,-0.124341,0.227601,0.97008,-0.121109,-0.074848,-0.002713,0.006287,0.074848,0.0027129999999999,-0.006287,-0.134459,-0.35834,-0.133123,0.112041,-0.37272,-0.1593089999999999,-0.146929,-0.7246499999999999,-0.12561,0.104061,-0.7252599999999999,-0.131345,1
56,-0.0388035,0.695784,-0.047679,-0.1688425,0.494674,-0.010817,-0.2762225,0.707384,-0.07301,0.1089675,0.484064,-0.04206,0.2067574999999999,0.723784,-0.085548,-0.3308425,0.937474,-0.142991,0.2248975,0.972824,-0.13757,-0.0749535,-0.003214,0.0058499999999999,0.0749535,0.0032139999999999,-0.00585,-0.1384425,-0.336446,-0.154199,0.1125274999999999,-0.347896,-0.181123,-0.1479225,-0.702576,-0.1369,0.1026875,-0.703226,-0.14217,1
57,-0.0410065,0.697172,-0.0598385,-0.1702035,0.494152,-0.0216635,-0.2791035,0.707652,-0.0890505,0.1060465,0.485322,-0.0534895,0.2033164999999999,0.720342,-0.1003185,-0.3331234999999999,0.933212,-0.1623875,0.2218764999999999,0.972932,-0.1533085,-0.0751175,-0.003605,0.0053084999999999,0.0751175,0.0036049999999999,-0.0053085,-0.1425635,-0.315218,-0.1747125,0.1129665,-0.324478,-0.2019885,-0.1489335,-0.680968,-0.1476075,0.1012365,-0.6810080000000001,-0.1524445,1
58,-0.042871,0.6972400000000001,-0.072399,-0.171565,0.49014,-0.03401,-0.281915,0.7088699999999999,-0.105746,0.103255,0.4854,-0.065476,0.200085,0.71858,-0.114806,-0.335165,0.93011,-0.18469,0.219045,0.97426,-0.169542,-0.075441,-0.0042579999999999,0.004625,0.075441,0.0042579999999999,-0.004625,-0.1468549999999999,-0.29383,-0.195917,0.112985,-0.30182,-0.222787,-0.149795,-0.65771,-0.158509,0.099725,-0.65689,-0.162803,1
59,-0.0442865,0.696135,-0.0847585,-0.1727025,0.486765,-0.0465485,-0.2846025,0.708205,-0.1236305,0.1006075,0.484685,-0.0774705,0.1971675,0.716125,-0.1300805,-0.3369625,0.929825,-0.2082415,0.2166975,0.972855,-0.1868875,-0.0760175,-0.0046549999999999,0.0038884999999999,0.0760175,0.0046549999999999,-0.0038885,-0.1513825,-0.269465,-0.2180815,0.1129775,-0.276555,-0.2442915,-0.1503425,-0.631605,-0.1692045,0.0983975,-0.630685,-0.1731265,1
60,-0.045298,0.6954,-0.097283,-0.1732759999999999,0.48756,-0.058711,-0.285426,0.70679,-0.140877,0.0984739999999999,0.48349,-0.088558,0.195234,0.71467,-0.144119,-0.337096,0.93359,-0.229515,0.215174,0.97035,-0.203128,-0.076403,-0.00459,0.0027549999999999,0.076403,0.0045899999999999,-0.002755,-0.155556,-0.24775,-0.238655,0.113244,-0.25419,-0.262555,-0.1504059999999999,-0.60817,-0.178782,0.0975239999999999,-0.6072000000000001,-0.182472,1
61,-0.046403,0.6933900000000001,-0.11022,-0.173642,0.48496,-0.072768,-0.286372,0.70664,-0.160717,0.096328,0.48172,-0.10092,0.193308,0.71343,-0.159461,-0.337082,0.92768,-0.253855,0.213778,0.9622,-0.220649,-0.076751,-0.0049099999999999,0.0019649999999999,0.076751,0.00491,-0.001965,-0.159822,-0.22154,-0.260055,0.113578,-0.2274499999999999,-0.281465,-0.150422,-0.58047,-0.188212,0.096788,-0.5794199999999999,-0.192209,1
62,-0.0475725,0.69057,-0.124098,-0.1737935,0.48143,-0.088669,-0.2859735,0.70534,-0.181765,0.0943365,0.4796,-0.114126,0.1914565,0.70979,-0.175659,-0.3365435,0.92073,-0.27926,0.2127465,0.9583,-0.23892,-0.0768215,-0.0050999999999999,0.0011099999999999,0.0768215,0.0051,-0.0011099999999999,-0.1638534999999999,-0.1909699999999999,-0.28163,0.1141365,-0.1967299999999999,-0.3005,-0.1501635,-0.54849,-0.197757,0.0958465,-0.54741,-0.202243,1
63,-0.0495665,0.68523,-0.137909,-0.1736835,0.47761,-0.10541,-0.2849735,0.69704,-0.201787,0.0925864999999999,0.47722,-0.127556,0.1898365,0.7055400000000001,-0.191417,-0.3354034999999999,0.90883,-0.302895,0.2118664999999999,0.95343,-0.257815,-0.0770335,-0.0051499999999999,0.0003549999999999,0.0770335,0.00515,-0.0003549999999999,-0.1673935,-0.15942,-0.301515,0.1146865,-0.1671499999999999,-0.317485,-0.1494735,-0.51651,-0.207208,0.0950365,-0.51542,-0.2121779999999999,1
64,-0.0515,0.67855,-0.1527,-0.173552,0.47446,-0.121853,-0.284062,0.6941299999999999,-0.221425,0.090728,0.475,-0.141001,0.188278,0.7012700000000001,-0.206896,-0.334202,0.90267,-0.32648,0.211258,0.95051,-0.27602,-0.077314,-0.00526,-0.0003599999999999,0.077314,0.0052599999999999,0.0003599999999999,-0.170812,-0.12739,-0.32092,0.115258,-0.13726,-0.33353,-0.148862,-0.4846399999999999,-0.216634,0.094238,-0.48331,-0.221568,1
65,-0.0534995,0.66964,-0.161376,-0.1733685,0.4680499999999999,-0.131721,-0.2844385,0.68076,-0.234112,0.0892215,0.47109,-0.148035,0.1871914999999999,0.69309,-0.216139,-0.3328485,0.8904599999999999,-0.34392,0.2109715,0.9442,-0.28792,-0.0779975,-0.00569,-0.00051,0.0779975,0.0056899999999999,0.0005099999999999,-0.1712985,-0.09946,-0.32755,0.1160914999999999,-0.11178,-0.34015,-0.1481585,-0.4577,-0.219898,0.0935815,-0.45602,-0.224884,1
66,-0.055316,0.6594800000000001,-0.169123,-0.172781,0.46315,-0.1413289999999999,-0.2840709999999999,0.66995,-0.2451189999999999,0.088679,0.46606,-0.15466,0.187589,0.69282,-0.225151,-0.330741,0.8775000000000001,-0.35919,0.2117689999999999,0.93777,-0.3004,-0.07848,-0.0056599999999999,-0.00048,0.07848,0.0056599999999999,0.00048,-0.170901,-0.0688599999999999,-0.33318,0.1175389999999999,-0.0833599999999999,-0.34608,-0.1466009999999999,-0.4285099999999999,-0.2227879999999999,0.092509,-0.4270699999999999,-0.2276139999999999,1
67,-0.056591,0.651735,-0.176018,-0.171807,0.460605,-0.149558,-0.283837,0.659585,-0.2554,0.0886829999999999,0.462425,-0.160543,0.188513,0.689335,-0.233981,-0.328897,0.8629249999999999,-0.37091,0.212973,0.930045,-0.31199,-0.079105,-0.005605,-0.00037,0.079105,0.0056049999999999,0.0003699999999999,-0.169567,-0.039295,-0.33681,0.119243,-0.054735,-0.35073,-0.144687,-0.400905,-0.225612,0.091473,-0.399065,-0.229416,1
68,-0.057918,0.6450400000000001,-0.182729,-0.17078,0.456696,-0.157241,-0.2827199999999999,0.65405,-0.2670099999999999,0.088778,0.4608109999999999,-0.166011,0.18891,0.68615,-0.2413799999999999,-0.32693,0.84888,-0.38234,0.21312,0.92576,-0.32244,-0.079608,-0.0058799999999999,-0.0002699999999999,0.079608,0.0058799999999999,0.00027,-0.1684,-0.01094,-0.33928,0.1198299999999999,-0.0306,-0.35322,-0.14364,-0.3735,-0.229212,0.08965,-0.37169,-0.230203,1
69,-0.057748,0.6394650000000001,-0.188325,-0.169839,0.452342,-0.164957,-0.281429,0.6501250000000001,-0.27859,0.089067,0.459203,-0.1715,0.189541,0.684955,-0.248524,-0.325839,0.8360350000000001,-0.39412,0.213771,0.919105,-0.33209,-0.080155,-0.0062249999999999,-0.0002,0.080155,0.006225,0.0001999999999999,-0.167379,0.018385,-0.34174,0.1202709999999999,-0.0040849999999999,-0.3557,-0.143159,-0.3445049999999999,-0.233056,0.090241,-0.3416749999999999,-0.229054,1
70,-0.057163,0.635025,-0.1930469999999999,-0.168926,0.450534,-0.170365,-0.280646,0.646485,-0.2870549999999999,0.089682,0.457997,-0.1754019999999999,0.190524,0.679515,-0.2541409999999999,-0.325116,0.833235,-0.4025649999999999,0.214544,0.916965,-0.3395049999999999,-0.080494,-0.006325,-0.0002649999999999,0.080494,0.0063249999999999,0.000265,-0.166406,0.0429749999999999,-0.3434549999999999,0.121044,0.0196849999999999,-0.357425,-0.142876,-0.320085,-0.2362139999999999,0.090848,-0.316225,-0.2272679999999999,1
71,-0.0564225,0.628595,-0.1969,-0.1681635,0.4469,-0.174683,-0.2801535,0.643745,-0.29564,0.0903544999999999,0.456172,-0.179204,0.1913065,0.678635,-0.259103,-0.3242335,0.831565,-0.41026,0.2151865,0.912145,-0.34606,-0.0805135,-0.0065649999999999,-0.00015,0.0805135,0.0065649999999999,0.0001499999999999,-0.1653434999999999,0.064875,-0.34338,0.1215065,0.0426349999999999,-0.35737,-0.1434834999999999,-0.297695,-0.240601,0.0913824999999999,-0.2928849999999999,-0.225687,1
72,-0.0560175,0.624795,-0.201066,-0.1677655,0.446732,-0.1786,-0.2795155,0.647285,-0.304295,0.0907445,0.456255,-0.182968,0.1917344999999999,0.674015,-0.263919,-0.3237454999999999,0.834125,-0.418475,0.2156545,0.909995,-0.351855,-0.0804415,-0.0066549999999999,-0.0001049999999999,0.0804415,0.006655,0.0001049999999999,-0.1645355,0.078205,-0.343845,0.1215845,0.0639549999999999,-0.356755,-0.1451755,-0.2770249999999999,-0.249281,0.0887395,-0.274795,-0.222631,1
73,-0.055756,0.6228049999999999,-0.20415,-0.167491,0.446053,-0.182169,-0.278961,0.649925,-0.3128999999999999,0.091019,0.455804,-0.18638,0.192049,0.6707449999999999,-0.268371,-0.323311,0.8354550000000001,-0.42611,0.216019,0.906775,-0.35752,-0.080345,-0.006615,3.0000000000002247e-05,0.080345,0.0066149999999999,-3.0000000000002247e-05,-0.163451,0.0901249999999999,-0.34319,0.121519,0.0833149999999999,-0.35526,-0.1468809999999999,-0.257605,-0.257724,0.086164,-0.257995,-0.219716,1
74,-0.0555625,0.619944,-0.206788,-0.1671285,0.446206,-0.185445,-0.2786085,0.65652,-0.32095,0.0911545,0.454967,-0.189594,0.1925915,0.66673,-0.272249,-0.3230585,0.8375300000000001,-0.43239,0.2162214999999999,0.90147,-0.36269,-0.0803415,-0.0064199999999999,0.00014,0.0803415,0.0064199999999999,-0.00014,-0.1621685,0.09918,-0.34199,0.1214514999999999,0.1005,-0.35319,-0.1485285,-0.2405399999999999,-0.265889,0.0838645,-0.2428199999999999,-0.216658,1
75,-0.054011,0.6179690000000001,-0.2093449999999999,-0.166976,0.444397,-0.1884209999999999,-0.279546,0.6607200000000001,-0.32941,0.091696,0.455061,-0.1925869999999999,0.193724,0.6618600000000001,-0.27579,-0.324086,0.84148,-0.43903,0.217244,0.89707,-0.36717,-0.08033,-0.0067299999999999,0.00024,0.08033,0.00673,-0.0002399999999999,-0.160506,0.10551,-0.34095,0.121344,0.11519,-0.35104,-0.150766,-0.2272299999999999,-0.272285,0.082089,-0.2305499999999999,-0.213769,1
76,-0.051865,0.615351,-0.211758,-0.166455,0.4431699999999999,-0.191219,-0.2799149999999999,0.66441,-0.33726,0.092846,0.4543609999999999,-0.195361,0.195595,0.65856,-0.27892,-0.324785,0.84554,-0.4457399999999999,0.218775,0.89299,-0.37156,-0.080319,-0.0067099999999999,0.00038,0.080319,0.0067099999999999,-0.0003799999999999,-0.158465,0.1105599999999999,-0.33979,0.1215649999999999,0.12816,-0.3483699999999999,-0.152445,-0.21604,-0.27891,0.0804619999999999,-0.21987,-0.2115729999999999,1
77,-0.049601,0.612333,-0.214077,-0.165858,0.441965,-0.193669,-0.280078,0.664915,-0.34214,0.0941019999999999,0.453685,-0.197749,0.1974619999999999,0.654927,-0.28183,-0.325558,0.8455050000000001,-0.45061,0.220252,0.887035,-0.37521,-0.080166,-0.0065949999999999,0.0005999999999999,0.080166,0.006595,-0.0006,-0.157268,0.110985,-0.33946,0.1216419999999999,0.137235,-0.34549,-0.1538479999999999,-0.2096749999999999,-0.28389,0.081038,-0.2092049999999999,-0.211433,1
78,-0.0471715,0.6088340000000001,-0.216344,-0.1654745,0.4406000000000001,-0.196055,-0.2805045,0.6644500000000001,-0.34628,0.0946755,0.45261,-0.200083,0.1991055,0.6499810000000001,-0.28436,-0.3270745,0.8443800000000001,-0.45529,0.2215655,0.8836300000000001,-0.37883,-0.0801515,-0.0064499999999999,0.0007599999999999,0.0801515,0.00645,-0.00076,-0.1566245,0.10975,-0.33928,0.1212155,0.14521,-0.34258,-0.1539645,-0.2027599999999999,-0.28916,0.0832355,-0.1981599999999999,-0.21323,1
79,-0.0450374999999999,0.6053310000000001,-0.2188979999999999,-0.1651294999999999,0.439385,-0.1984689999999999,-0.2808195,0.6629700000000001,-0.3507599999999999,0.0949805,0.451675,-0.2024979999999999,0.2004305,0.648105,-0.28698,-0.3285495,0.842325,-0.46001,0.2228005,0.880465,-0.3832,-0.0799385,-0.0063349999999999,0.00077,0.0799385,0.006335,-0.0007699999999999,-0.1563695,0.108085,-0.33984,0.1206505,0.152625,-0.34023,-0.1542494999999999,-0.1963349999999999,-0.2944799999999999,0.0851375,-0.1879949999999999,-0.2151719999999999,1
80,-0.043019,0.60463,-0.220303,-0.165039,0.440575,-0.199573,-0.280759,0.662218,-0.35345,0.095501,0.451665,-0.2035739999999999,0.202191,0.643845,-0.28859,-0.329329,0.839845,-0.46348,0.224771,0.875175,-0.38697,-0.079897,-0.006105,0.00074,0.079897,0.006105,-0.0007399999999999,-0.155939,0.1036349999999999,-0.34073,0.120341,0.155965,-0.3393899999999999,-0.154159,-0.193505,-0.2977499999999999,0.085622,-0.185085,-0.214507,1
81,-0.04244,0.60427,-0.220803,-0.1649479999999999,0.4405,-0.199914,-0.280528,0.6610550000000001,-0.35545,0.095752,0.4515,-0.203896,0.203732,0.6433340000000001,-0.28964,-0.329408,0.83829,-0.46618,0.226132,0.87324,-0.38971,-0.0798939999999999,-0.00605,0.00064,0.0798939999999999,0.00605,-0.00064,-0.1555379999999999,0.10374,-0.34097,0.120102,0.15688,-0.33916,-0.153638,-0.1918799999999999,-0.29862,0.085603,-0.1846799999999999,-0.21527,1
82,-0.0419724999999999,0.604051,-0.221109,-0.1648695,0.440505,-0.200187,-0.2803295,0.6600469999999999,-0.35568,0.0959305,0.451365,-0.204175,0.2050905,0.643371,-0.29084,-0.3293395,0.836815,-0.46788,0.2274305,0.871245,-0.39234,-0.0798905,-0.0059949999999999,0.0005499999999999,0.0798905,0.0059949999999999,-0.00055,-0.1552695,0.1036849999999999,-0.34118,0.1199105,0.1573149999999999,-0.33922,-0.1548894999999999,-0.190595,-0.30011,0.0859595,-0.183545,-0.21742,1
83,-0.041492,0.60389,-0.222018,-0.164779,0.44051,-0.2003849999999999,-0.280309,0.6591,-0.35588,0.096081,0.45121,-0.20437,0.206361,0.643382,-0.29207,-0.3292589999999999,0.8353700000000001,-0.4696599999999999,0.228681,0.86931,-0.39495,-0.079875,-0.0059499999999999,0.0005,0.079875,0.00595,-0.0005,-0.155509,0.10342,-0.34147,0.1197509999999999,0.15769,-0.33942,-0.155739,-0.1888699999999999,-0.30142,0.08598,-0.1838399999999999,-0.2176199999999999,1
84,-0.040728,0.6037290000000001,-0.222985,-0.164362,0.44051,-0.200561,-0.279912,0.65825,-0.35606,0.096548,0.45109,-0.204545,0.2076279999999999,0.643382,-0.29322,-0.328882,0.83419,-0.47104,0.229648,0.86802,-0.39694,-0.079788,-0.0059499999999999,0.0004599999999999,0.079788,0.00595,-0.00046,-0.1551719999999999,0.10314,-0.34165,0.120018,0.15769,-0.3396099999999999,-0.155552,-0.1892499999999999,-0.30069,0.084583,-0.1881999999999999,-0.217233,1
85,-0.0397975,0.6035290000000001,-0.22401,-0.1638365,0.4404450000000001,-0.200767,-0.2781465,0.6506550000000001,-0.352855,0.0971635,0.450945,-0.204714,0.2091334999999999,0.643325,-0.294575,-0.3278865,0.8316050000000001,-0.472155,0.2305535,0.8668550000000002,-0.398675,-0.0797345,-0.0058849999999999,0.0004149999999999,0.0797345,0.005885,-0.0004149999999999,-0.1547164999999999,0.102945,-0.341845,0.1204134999999999,0.157585,-0.339855,-0.1553264999999999,-0.1895149999999998,-0.299955,0.0848925,-0.1878449999999999,-0.217895,1
86,-0.0388279999999999,0.60322,-0.22514,-0.163304,0.440345,-0.201023,-0.276264,0.643132,-0.34982,0.097816,0.450745,-0.204926,0.210586,0.643457,-0.29597,-0.326794,0.829405,-0.47301,0.231406,0.867005,-0.40023,-0.079706,-0.005735,0.0003699999999999,0.079706,0.005735,-0.00037,-0.1542239999999999,0.1028149999999999,-0.34205,0.1208159999999999,0.157115,-0.34005,-0.1552239999999999,-0.189705,-0.29921,0.085226,-0.188255,-0.217832,1
87,-0.0378485,0.602885,-0.226207,-0.1627415,0.4402699999999999,-0.201306,-0.2754014999999999,0.6409279999999999,-0.351385,0.0985085,0.45053,-0.205164,0.2119684999999999,0.6433519999999999,-0.297515,-0.3254315,0.8272999999999999,-0.474015,0.2321184999999999,0.86575,-0.401565,-0.0796895,-0.0055899999999999,0.0003449999999999,0.0796895,0.0055899999999999,-0.000345,-0.1541115,0.1025099999999999,-0.342205,0.1212584999999999,0.1565599999999999,-0.340525,-0.1551915,-0.1899199999999999,-0.299165,0.0865715,-0.18697,-0.219288,1
88,-0.0371665,0.6026619999999999,-0.227181,-0.1624795,0.4402699999999999,-0.201598,-0.2738595,0.6337349999999999,-0.348875,0.0989005,0.4503399999999999,-0.205401,0.2130905,0.6432979999999999,-0.299085,-0.3242995,0.8253699999999999,-0.474895,0.2326105,0.8648,-0.4021949999999999,-0.0796785,-0.00551,0.000335,0.0796785,0.0055099999999999,-0.000335,-0.1543995,0.1021599999999999,-0.342335,0.1214505,0.1564799999999999,-0.341455,-0.1556195,-0.1901400000000001,-0.299115,0.0868485,-0.1870400000000001,-0.221617,1
89,-0.03631,0.602438,-0.228349,-0.162089,0.44027,-0.201879,-0.272979,0.633391,-0.35001,0.099411,0.45023,-0.2056299999999999,0.214901,0.643412,-0.30137,-0.323219,0.82526,-0.47578,0.233871,0.86469,-0.4034999999999999,-0.07967,-0.00546,0.0002999999999999,0.07967,0.00546,-0.0002999999999999,-0.154519,0.10242,-0.34229,0.121821,0.15581,-0.34247,-0.155659,-0.18964,-0.2981399999999999,0.087195,-0.1874299999999999,-0.223871,1
90,-0.035251,0.602322,-0.230045,-0.161702,0.4402,-0.202155,-0.271202,0.633251,-0.350835,0.099978,0.45016,-0.205871,0.216668,0.644564,-0.303425,-0.322112,0.8252299999999999,-0.476765,0.235238,0.8650599999999999,-0.404785,-0.079648,-0.0054199999999999,0.0002949999999999,0.079648,0.0054199999999999,-0.000295,-0.154902,0.1025599999999999,-0.342245,0.122218,0.1549499999999999,-0.343545,-0.154952,-0.1888499999999999,-0.298105,0.086394,-0.18842,-0.225911,1
91,-0.034003,0.602287,-0.232026,-0.161199,0.440165,-0.202447,-0.269379,0.633216,-0.3515049999999999,0.100571,0.450125,-0.206129,0.218351,0.6458849999999999,-0.305195,-0.320889,0.8251949999999999,-0.477765,0.236661,0.8650249999999999,-0.406115,-0.079627,-0.0053849999999999,0.000295,0.079627,0.0053849999999999,-0.0002949999999999,-0.155269,0.1025249999999999,-0.3423549999999999,0.1226809999999999,0.1536349999999999,-0.344685,-0.153999,-0.188865,-0.298075,0.085705,-0.1914949999999999,-0.2281389999999999,1
92,-0.0325034999999999,0.602128,-0.234213,-0.1606715,0.4401199999999999,-0.202785,-0.2675915,0.632961,-0.350525,0.1012585,0.44987,-0.206419,0.2201385,0.647064,-0.306935,-0.3196015,0.82576,-0.478545,0.2387785,0.86598,-0.407495,-0.0795905,-0.00529,0.0002749999999999,0.0795905,0.00529,-0.0002749999999999,-0.1557414999999999,0.1062199999999999,-0.342455,0.1232085,0.15203,-0.345805,-0.1521314999999999,-0.18912,-0.297725,0.0836035,-0.19744,-0.229041,1
93,-0.0308034999999999,0.602916,-0.236822,-0.1600605,0.44,-0.2031,-0.2656305,0.633148,-0.34891,0.1020495,0.44957,-0.206666,0.2221595,0.648961,-0.30843,-0.3182905,0.8263400000000001,-0.47843,0.2411495,0.86832,-0.40905,-0.0795174999999999,-0.0052099999999999,0.0002,0.0795174999999999,0.00521,-0.0002,-0.1562505,0.10936,-0.3423899999999999,0.1238195,0.14969,-0.34677,-0.1524205,-0.1908799999999999,-0.29636,0.0820675,-0.20306,-0.229555,1
94,-0.028439,0.606681,-0.238388,-0.159142,0.439725,-0.201989,-0.263412,0.63375,-0.343215,0.103238,0.449235,-0.205491,0.2243379999999999,0.6518510000000001,-0.308325,-0.316872,0.8265150000000001,-0.4760449999999999,0.244188,0.871445,-0.409325,-0.079437,-0.0052149999999999,0.000365,0.079437,0.005215,-0.000365,-0.156612,0.110805,-0.341435,0.1249279999999999,0.145565,-0.3472349999999999,-0.151702,-0.1942649999999999,-0.292615,0.0829139999999999,-0.2060149999999999,-0.229111,1
95,-0.0245614999999999,0.611105,-0.2379499999999999,-0.1572275,0.440935,-0.1989789999999999,-0.2609575,0.632167,-0.3359799999999999,0.1058425,0.449345,-0.2028869999999999,0.2270525,0.653124,-0.3061999999999999,-0.3143675,0.825125,-0.4714799999999999,0.2488024999999999,0.877705,-0.4075,-0.0792485,-0.004645,0.00029,0.0792485,0.004645,-0.0002899999999999,-0.1573875,0.105865,-0.3427,0.1270525,0.134695,-0.34862,-0.1505975,-0.2043849999999999,-0.2860899999999999,0.0847045,-0.214805,-0.2283239999999999,1
96,-0.021543,0.616436,-0.2348289999999999,-0.155408,0.44266,-0.1946679999999999,-0.259248,0.628851,-0.326535,0.108452,0.449373,-0.19876,0.229642,0.65529,-0.3028849999999999,-0.311508,0.82167,-0.466255,0.253332,0.88204,-0.404155,-0.079026,-0.0040499999999999,0.000365,0.079026,0.0040499999999999,-0.000365,-0.157538,0.09775,-0.343155,0.1293619999999999,0.12234,-0.348915,-0.149558,-0.2167399999999999,-0.278995,0.087031,-0.2265899999999999,-0.227099,1
97,-0.0186769999999999,0.623943,-0.231087,-0.153637,0.446374,-0.190281,-0.256997,0.6340300000000001,-0.322125,0.111063,0.451225,-0.194341,0.232433,0.6606000000000001,-0.298465,-0.308547,0.82403,-0.461825,0.2578229999999999,0.8897600000000001,-0.400355,-0.078768,-0.0037899999999999,0.0003949999999999,0.078768,0.00379,-0.000395,-0.1572269999999999,0.08414,-0.343355,0.131913,0.10426,-0.348775,-0.1469569999999999,-0.23451,-0.270723,0.089751,-0.2431499999999999,-0.224845,1
98,-0.0161599999999999,0.6304949999999999,-0.226608,-0.151888,0.4487899999999999,-0.185831,-0.255888,0.641805,-0.3186,0.113432,0.4512919999999999,-0.189867,0.234482,0.6659249999999999,-0.294,-0.305568,0.827575,-0.45733,0.261442,0.895165,-0.39584,-0.07855,-0.003195,0.0003899999999999,0.07855,0.0031949999999999,-0.00039,-0.156268,0.0678949999999999,-0.34272,0.1338919999999999,0.0831249999999999,-0.34723,-0.144308,-0.2549150000000001,-0.262268,0.09389,-0.260175,-0.223162,1
99,-0.013908,0.637755,-0.220202,-0.150326,0.453858,-0.179247,-0.2544059999999999,0.6475949999999999,-0.31222,0.116074,0.453739,-0.183447,0.2369639999999999,0.671765,-0.28759,-0.302986,0.827745,-0.4472,0.265064,0.905025,-0.38938,-0.0783349999999999,-0.002625,0.00042,0.0783349999999999,0.0026249999999999,-0.00042,-0.155586,0.0419649999999999,-0.33974,0.1355539999999999,0.050485,-0.34319,-0.141726,-0.286745,-0.25153,0.096395,-0.290115,-0.218874,1
100,-0.0114905,0.646145,-0.213341,-0.1484645,0.458564,-0.172017,-0.2517844999999999,0.648335,-0.304705,0.1189655,0.4565,-0.176502,0.2395855,0.678685,-0.280505,-0.2997545,0.833545,-0.435835,0.2688755,0.912535,-0.382465,-0.0780005,-0.0020749999999999,0.0004249999999999,0.0780005,0.0020749999999999,-0.000425,-0.1546845,0.014475,-0.334615,0.1372354999999999,0.016345,-0.336685,-0.1387245,-0.320885,-0.240235,0.0975905,-0.3262649999999999,-0.214038,1
101,-0.0092799999999999,0.6556150000000001,-0.2047069999999999,-0.146666,0.464281,-0.162547,-0.249356,0.6544650000000001,-0.295725,0.122214,0.461221,-0.1678909999999999,0.243044,0.687665,-0.2711249999999999,-0.296606,0.8388450000000001,-0.4229449999999999,0.2721139999999999,0.916685,-0.3725849999999999,-0.077696,-0.0017849999999999,0.000495,0.077696,0.001785,-0.0004949999999999,-0.153616,-0.0214649999999999,-0.328375,0.138884,-0.0211349999999999,-0.329005,-0.135786,-0.3595349999999999,-0.228906,0.098966,-0.3680449999999999,-0.2083919999999999,1
102,-0.0070709999999999,0.6656,-0.194929,-0.144838,0.46937,-0.152875,-0.247058,0.6593100000000001,-0.280765,0.125532,0.46589,-0.158957,0.246202,0.6954800000000001,-0.261445,-0.293258,0.84396,-0.407585,0.275372,0.92102,-0.361995,-0.077521,-0.0014799999999999,0.000535,0.077521,0.00148,-0.000535,-0.151988,-0.0580699999999999,-0.320625,0.140402,-0.0592399999999999,-0.321045,-0.132788,-0.3992899999999999,-0.2179269999999999,0.1014829999999999,-0.4089499999999999,-0.201893,1
103,-0.0057249999999999,0.672745,-0.183906,-0.14334,0.474725,-0.142874,-0.24547,0.6613249999999999,-0.26724,0.12877,0.471485,-0.149052,0.2488199999999999,0.701055,-0.2503,-0.29057,0.846665,-0.38929,0.27833,0.927335,-0.35097,-0.077334,-0.001035,0.0005699999999999,0.077334,0.001035,-0.00057,-0.14977,-0.097065,-0.31282,0.14142,-0.0995749999999999,-0.31329,-0.13029,-0.442385,-0.207989,0.10552,-0.4505849999999999,-0.195041,1
104,-0.0044915,0.680225,-0.174213,-0.1420205,0.478655,-0.134682,-0.2431505,0.669345,-0.25281,0.1314095,0.476475,-0.140997,0.2517195,0.708375,-0.24048,-0.2879305,0.856805,-0.37241,0.2805295,0.933445,-0.3399,-0.0770315,-0.0012449999999999,0.0008999999999999,0.0770315,0.0012449999999999,-0.0008999999999999,-0.1473404999999999,-0.129575,-0.30692,0.1423695,-0.133275,-0.30745,-0.1282805,-0.4838849999999999,-0.200551,0.1094995,-0.487255,-0.189626,1
105,-0.0032325,0.68699,-0.161645,-0.1407125,0.48338,-0.124206,-0.2424425,0.67642,-0.23596,0.1337475,0.48152,-0.130916,0.2544275,0.71389,-0.22714,-0.2862325,0.86674,-0.3527,0.2827675,0.93942,-0.32646,-0.0765245,-0.0013199999999999,0.0009699999999999,0.0765245,0.0013199999999999,-0.00097,-0.1442625,-0.16362,-0.29976,0.1426675,-0.16703,-0.29803,-0.1264525,-0.5285299999999999,-0.191847,0.1129375,-0.52525,-0.18245,1
106,-0.002107,0.691505,-0.148086,-0.139569,0.485885,-0.113501,-0.241279,0.6840950000000001,-0.22086,0.135851,0.484575,-0.120589,0.2558709999999999,0.7164950000000001,-0.21365,-0.2845689999999999,0.879135,-0.33354,0.284151,0.942095,-0.31227,-0.076002,-0.0010449999999999,0.00106,0.076002,0.001045,-0.00106,-0.140539,-0.192075,-0.29154,0.142771,-0.1951049999999999,-0.28699,-0.125189,-0.562805,-0.183416,0.115311,-0.559515,-0.17519,1
107,-0.0016075,0.698265,-0.133465,-0.1387475,0.489435,-0.102272,-0.2404575,0.689385,-0.206025,0.1378525,0.489205,-0.1091719999999999,0.2573924999999999,0.720455,-0.199434,-0.2834075,0.890015,-0.313965,0.2853625,0.947035,-0.296765,-0.0751845,-0.0010749999999999,0.0012049999999999,0.0751845,0.0010749999999999,-0.0012049999999999,-0.1356875,-0.2178149999999999,-0.277705,0.1426325,-0.2205849999999999,-0.271905,-0.1242175,-0.594265,-0.174859,0.1172425,-0.591565,-0.1673549999999999,1
108,-0.0012124999999999,0.705265,-0.1220115,-0.1388315,0.492405,-0.0926915,-0.2396815,0.7020550000000001,-0.1922654999999999,0.1393685,0.493145,-0.0991015,0.2580685,0.723585,-0.1860385,-0.2821114999999999,0.904165,-0.2988335,0.2857285,0.946535,-0.2824935,-0.0745035,-0.0009849999999999,0.0011975,0.0745035,0.0009849999999999,-0.0011974999999999,-0.1310715,-0.240155,-0.2642535,0.1421885,-0.2452949999999999,-0.2572135,-0.1233015,-0.618945,-0.1680015,0.1182385,-0.6168849999999999,-0.1605955,1
109,-0.0012934999999999,0.71149,-0.108908,-0.1394055,0.49455,-0.082009,-0.2399855,0.7135199999999999,-0.177396,0.1402945,0.49608,-0.087889,0.2581945,0.72634,-0.170418,-0.2820155,0.9125,-0.279101,0.2853145,0.94734,-0.263891,-0.0741755,-0.0012419999999999,0.0017969999999999,0.0741755,0.001242,-0.001797,-0.1268554999999999,-0.26448,-0.245841,0.1400645,-0.27192,-0.237491,-0.1227254999999999,-0.6448099999999999,-0.159883,0.1188545,-0.6436599999999999,-0.152579,1
110,-0.0010389999999999,0.7161584999999999,-0.0931999999999999,-0.139594,0.4945385,-0.0693309999999999,-0.239174,0.7170985000000001,-0.159183,0.141086,0.4959385,-0.074122,0.258156,0.7277785000000001,-0.151656,-0.2816039999999999,0.9205685,-0.255529,0.285016,0.9493785,-0.242899,-0.073525,-0.0007125,0.001929,0.073525,0.0007124999999999,-0.001929,-0.1233539999999999,-0.2859115,-0.224169,0.138376,-0.2950115,-0.214949,-0.121974,-0.6669915,-0.1483789999999999,0.119586,-0.6669415000000001,-0.140868,1
111,-0.000182,0.7191715000000001,-0.076821,-0.13983,0.4984515,-0.054848,-0.23923,0.7213615000000001,-0.140678,0.14176,0.4967015,-0.05888,0.25781,0.7302715000000001,-0.131931,-0.28138,0.9264815,-0.231975,0.2844299999999999,0.9530515,-0.219695,-0.072949,-0.0001614999999999,0.0021219999999999,0.072949,0.0001615,-0.0021219999999999,-0.1201499999999999,-0.3085485,-0.198255,0.1357399999999999,-0.3185285,-0.187295,-0.12131,-0.6900685,-0.134562,0.1202299999999999,-0.6910685,-0.127149,1
112,0.0006924999999999,0.721949,-0.0624259999999999,-0.1400425,0.501869,-0.041702,-0.2394125,0.7286189999999999,-0.125466,0.1420674999999999,0.496449,-0.0456209999999999,0.2575575,0.733389,-0.114434,-0.2810525,0.935489,-0.211934,0.2839375,0.953999,-0.197654,-0.0724144999999999,0.0003219999999999,0.002036,0.0724144999999999,-0.0003219999999999,-0.0020359999999999,-0.1179825,-0.325461,-0.1746039999999999,0.1332674999999999,-0.336001,-0.161984,-0.1206025,-0.707681,-0.121403,0.1208374999999999,-0.7093510000000001,-0.114289,1
113,0.0016254999999999,0.72376,-0.0481054999999999,-0.1401705,0.50506,-0.0284364999999999,-0.2385505,0.7321599999999999,-0.1099405,0.1424895,0.49641,-0.0322284999999999,0.2571095,0.7363999999999999,-0.0972615,-0.2804105,0.93891,-0.1911485,0.2835895,0.95209,-0.1768885,-0.0719885,0.000875,0.0019185,0.0719885,-0.0008749999999999,-0.0019184999999999,-0.1161205,-0.34195,-0.1505584999999999,0.1308995,-0.35401,-0.1362765,-0.1198505,-0.7255600000000001,-0.1081405,0.1213595,-0.7274700000000001,-0.1011644999999999,1
114,0.0019979999999999,0.7250464999999999,-0.035744,-0.140489,0.5065965,-0.017232,-0.237949,0.7382464999999999,-0.096853,0.142711,0.4961565,-0.020696,0.256551,0.7399764999999999,-0.083097,-0.279859,0.9445665,-0.173566,0.2830709999999999,0.9514465,-0.157846,-0.0720659999999999,0.0012645,0.0018259999999999,0.0720659999999999,-0.0012645,-0.001826,-0.115289,-0.3525135,-0.128852,0.128211,-0.3669435,-0.113777,-0.119589,-0.7371235,-0.096089,0.1216809999999999,-0.7396535000000001,-0.089203,1
115,0.0023519999999999,0.7261700000000001,-0.023605,-0.140899,0.5081300000000001,-0.006092,-0.237829,0.7423000000000001,-0.0835819999999999,0.1429409999999999,0.49593,-0.009225,0.2560409999999999,0.74295,-0.068867,-0.279359,0.94383,-0.155512,0.282051,0.95045,-0.138482,-0.072101,0.00166,0.001718,0.072101,-0.0016599999999999,-0.001718,-0.115109,-0.36367,-0.107146,0.125391,-0.38162,-0.090903,-0.119339,-0.7485499999999999,-0.083766,0.121901,-0.75174,-0.077078,1
116,0.0027399999999999,0.7256444999999999,-0.0120699999999999,-0.141104,0.5094544999999999,0.005041,-0.237154,0.7464244999999999,-0.070138,0.143226,0.4956145,0.002129,0.255756,0.7435045,-0.054917,-0.278254,0.9442745,-0.137081,0.281046,0.9481245,-0.119991,-0.072108,0.0021235,0.001548,0.072108,-0.0021234999999999,-0.001548,-0.1154439999999999,-0.3747454999999999,-0.086098,0.122596,-0.3950754999999999,-0.068253,-0.119434,-0.7597255,-0.0712899999999999,0.121696,-0.7628755,-0.0652109999999999,1
117,0.0030349999999999,0.724226,-0.0009935,-0.141613,0.508726,0.0152424999999999,-0.236893,0.7452259999999999,-0.0572955,0.143227,0.493646,0.0122435,0.255407,0.7442259999999999,-0.0416374999999999,-0.277283,0.944816,-0.1192845,0.279677,0.946646,-0.1026235,-0.072107,0.002499,0.0015314999999999,0.072107,-0.0024989999999999,-0.0015315,-0.1160529999999999,-0.385144,-0.0661315,0.119837,-0.409184,-0.0468424999999999,-0.119703,-0.769974,-0.0585995,0.121417,-0.773944,-0.0539825,1
118,0.00339,0.7224535,0.007936,-0.142019,0.5092635,0.024121,-0.236549,0.7450435,-0.04664,0.143331,0.4923735,0.020898,0.2552109999999999,0.7443535,-0.03133,-0.275439,0.9455135,-0.1059679999999999,0.2790209999999999,0.9458235,-0.089381,-0.07211,0.0032434999999999,0.001079,0.07211,-0.0032435,-0.001079,-0.116469,-0.3923365,-0.050155,0.117821,-0.4195765,-0.029731,-0.119959,-0.7768665,-0.046928,0.121291,-0.7814365,-0.044471,1
119,0.0039374999999999,0.7214175,0.012848,-0.1423815,0.5109475,0.029047,-0.2363315,0.7459375,-0.039781,0.1435185,0.4923775,0.025707,0.2550084999999999,0.7435275,-0.024525,-0.2733815,0.9444875,-0.095753,0.2784785,0.9457675,-0.079879,-0.0722454999999999,0.0034295,0.001124,0.0722454999999999,-0.0034294999999999,-0.001124,-0.1168415,-0.3986325,-0.038986,0.1158184999999999,-0.4284925,-0.017414,-0.1201815,-0.7824625,-0.0397,0.1211684999999999,-0.7882625,-0.039292,1
120,0.004695,0.7206145,0.016423,-0.1422749999999999,0.5102945,0.0318689999999999,-0.235255,0.7468845,-0.034436,0.143915,0.4916844999999999,0.028625,0.255035,0.7427245,-0.019135,-0.271385,0.9458145,-0.0874099999999999,0.278455,0.9449745,-0.073134,-0.07248,0.0035704999999999,0.0011669999999999,0.07248,-0.0035704999999999,-0.001167,-0.116965,-0.4002155,-0.032672,0.115035,-0.4295755,-0.0109439999999999,-0.120125,-0.7836855,-0.035047,0.121275,-0.7907455,-0.036015,1
121,0.0056534999999999,0.720275,0.0196205,-0.1419284999999999,0.510095,0.0342825,-0.2342185,0.747315,-0.0297085,0.1445615,0.491455,0.0311555,0.2555314999999999,0.742475,-0.0142884999999999,-0.2693485,0.946925,-0.0801585,0.2786814999999999,0.944735,-0.0670675,-0.0729404999999999,0.003693,0.0012595,0.0729404999999999,-0.003693,-0.0012595,-0.1175485,-0.4009649999999999,-0.0270895,0.1144915,-0.4301049999999999,-0.0053005,-0.1202385,-0.7844150000000001,-0.0310225,0.1214415,-0.792575,-0.0332135,1
122,0.0065304999999999,0.720125,0.0224935,-0.1416075,0.5100049999999999,0.0363944999999999,-0.2333775,0.747705,-0.0253815,0.1451825,0.4914649999999999,0.0334794999999999,0.2560325,0.742405,-0.0097515,-0.2676675,0.947815,-0.0739355,0.2788725,0.944715,-0.0613595,-0.0733525,0.003802,0.0013414999999999,0.0733525,-0.003802,-0.0013415,-0.1182775,-0.401155,-0.0221235,0.1139324999999999,-0.430465,-0.0002675,-0.1205175,-0.784945,-0.0269425,0.1216125,-0.793535,-0.0310095,1
123,0.0074615,0.719937,0.0246905,-0.1408105,0.5092669999999999,0.0379395,-0.2325405,0.747927,-0.0218015,0.1459195,0.491587,0.0353065,0.2566995,0.741717,-0.0057424999999999,-0.2660605,0.948527,-0.0685104999999999,0.2793295,0.943707,-0.0563655,-0.0736225,0.0037949999999999,0.0015265,0.0736225,-0.0037949999999999,-0.0015265,-0.1192504999999999,-0.400303,-0.0179755,0.1137295,-0.429753,0.0038094999999999,-0.1207905,-0.784913,-0.0234995,0.1219495,-0.7944929999999999,-0.0293155,1
124,0.0083185,0.719411,0.0266355,-0.1400684999999999,0.508521,0.0392885,-0.2318484999999999,0.747921,-0.0187064999999999,0.1466215,0.491441,0.0369565,0.2572014999999999,0.740471,-0.0021274999999999,-0.2647985,0.948661,-0.0638374999999999,0.2799215,0.941911,-0.0522254999999999,-0.0738625,0.003792,0.0017475,0.0738625,-0.0037919999999999,-0.0017474999999999,-0.1200584999999999,-0.4000289999999999,-0.0145675,0.1136915,-0.429729,0.0070315,-0.1210785,-0.7849090000000001,-0.0207534999999999,0.1222314999999999,-0.795489,-0.0276815,1
125,0.0090695,0.7187195,0.0283185,-0.1394395,0.5077495,0.0404285,-0.2313394999999999,0.7479195,-0.0160665,0.1472105,0.4911095,0.0384115,0.2577005,0.7389495,0.0010155,-0.2639695,0.9486595,-0.0601565,0.2805205,0.9401295,-0.0484374999999999,-0.0740425,0.0037925,0.0020015,0.0740425,-0.0037924999999999,-0.0020015,-0.1207694999999999,-0.3999905,-0.0118764999999999,0.1137505,-0.4291405,0.0092395,-0.1213995,-0.7847005,-0.0184125,0.1224805,-0.7964305,-0.0262745,1
126,0.0096984999999999,0.718176,0.029543,-0.1389265,0.507196,0.041262,-0.2309965,0.748146,-0.0138779999999999,0.1476635,0.4908559999999999,0.039567,0.2581535,0.737856,0.003572,-0.2633765,0.948886,-0.057175,0.2810935,0.939206,-0.045,-0.0741765,0.003935,0.002217,0.0741765,-0.003935,-0.002217,-0.1213664999999999,-0.399654,-0.010116,0.1138035,-0.428514,0.010554,-0.1217165,-0.784114,-0.0168089999999999,0.1226434999999999,-0.7971739999999999,-0.02534,1
127,0.0102189999999999,0.7177855,0.030199,-0.138572,0.5068954999999999,0.041731,-0.230782,0.7483655,-0.012659,0.148028,0.4907154999999999,0.040376,0.258548,0.7373455,0.005762,-0.263212,0.9493355,-0.0556109999999999,0.281618,0.9388255,-0.042226,-0.074272,0.0040535,0.002275,0.074272,-0.0040535,-0.0022749999999999,-0.1215319999999999,-0.3989045,-0.0099569999999999,0.113938,-0.4275945,0.010663,-0.122112,-0.7836845,-0.015979,0.122648,-0.7976745,-0.0248009999999999,1
128,0.010569,0.7177855,0.03031,-0.138576,0.5068954999999999,0.041829,-0.2306359999999999,0.7482755,-0.0125549999999999,0.148164,0.4907154999999999,0.040564,0.258794,0.7373455,0.00645,-0.263076,0.9491555,-0.055507,0.282054,0.9388255,-0.0413409999999999,-0.074274,0.0040535,0.002326,0.074274,-0.0040535,-0.002326,-0.1215359999999999,-0.3985745,-0.0098589999999999,0.113934,-0.4273845,0.010761,-0.122146,-0.7834645,-0.0152059999999999,0.122624,-0.7976745,-0.0243789999999999,1
129,0.0110099999999999,0.7177855,0.0304615,-0.138541,0.5068954999999999,0.0419655,-0.230491,0.7481955,-0.0124144999999999,0.148329,0.4907154999999999,0.0407045,0.2593089999999999,0.7373455,0.0068765,-0.262621,0.9489355,-0.0553555,0.282669,0.9388255,-0.0411835,-0.074275,0.0040535,0.0023485,0.074275,-0.0040535,-0.0023485,-0.1215409999999999,-0.3985745,-0.0097244999999999,0.113929,-0.4270445,0.0108955,-0.1221809999999999,-0.7834645,-0.0141824999999999,0.122619,-0.7976745,-0.0242445,1
130,0.0115965,0.7177855,0.030622,-0.1384965,0.5068954999999999,0.042106,-0.2303565,0.7480855,-0.0122709999999999,0.1484935,0.4907154999999999,0.04085,0.2600435,0.7373455,0.007169,-0.2620465,0.9486755,-0.055195,0.2833934999999999,0.9388255,-0.041017,-0.0742755,0.0040535,0.002375,0.0742755,-0.0040535,-0.0023749999999999,-0.1215464999999999,-0.3985745,-0.0095859999999999,0.1139335,-0.4266945,0.010564,-0.1222164999999999,-0.7834645,-0.01327,0.1226135,-0.7976745,-0.02412,1
131,0.0121765,0.7178990000000001,0.0303255,-0.1387595,0.507379,0.0422685,-0.2305295,0.7474190000000001,-0.0122114999999999,0.1483305,0.491399,0.0413045,0.2607605,0.736799,0.0076575,-0.2623095,0.947729,-0.0563395,0.2842605,0.938299,-0.0405235,-0.0743055,0.0039799999999999,0.0023155,0.0743055,-0.0039799999999999,-0.0023155,-0.1215895,-0.3984109999999999,-0.0094795,0.1142405,-0.427211,0.0099025,-0.1223694999999999,-0.783941,-0.0128145,0.1226505,-0.797511,-0.0236574999999999,1
132,0.0125995,0.7181569999999999,0.0299175,-0.1389655,0.507927,0.0420665,-0.2313255,0.746947,-0.0128115,0.1487445,0.492997,0.0419905,0.2617545,0.736297,0.0087505,-0.2633855,0.946887,-0.0588615,0.2852945,0.938097,-0.0394345,-0.0743155,0.003928,0.0021834999999999,0.0743155,-0.0039279999999999,-0.0021835,-0.1223055,-0.398163,-0.0092245,0.1141145,-0.427323,0.0088285,-0.1234455,-0.783993,-0.0118005,0.1218345,-0.796903,-0.0226334999999999,0
133,0.0132305,0.718137,0.02908,-0.1392085,0.508217,0.041652,-0.2323885,0.746277,-0.013866,0.1498015,0.4946269999999999,0.042799,0.2636515,0.7355269999999999,0.010174,-0.2644585,0.945917,-0.0617989999999999,0.2864215,0.937677,-0.038274,-0.0742965,0.003928,0.002018,0.0742965,-0.0039279999999999,-0.0020179999999999,-0.1232485,-0.3981829999999999,-0.0090239999999999,0.1137315,-0.427663,0.007739,-0.1249484999999999,-0.783993,-0.0105059999999999,0.1210115,-0.796393,-0.021796,0
134,0.0138435,0.7181069999999999,0.0280204999999999,-0.1401764999999999,0.508217,0.0412955,-0.2350565,0.744467,-0.0160035,0.1511635,0.4962369999999999,0.0441094999999999,0.2668935,0.7336469999999999,0.0123144999999999,-0.2652265,0.944297,-0.0667815,0.2882035,0.936987,-0.0370525,-0.0741355,0.003928,0.0017114999999999,0.0741355,-0.0039279999999999,-0.0017115,-0.1250565,-0.3981829999999999,-0.0086305,0.1126534999999999,-0.428413,0.0067254999999999,-0.1277964999999999,-0.784383,-0.0088655,0.1189435,-0.7958930000000001,-0.0204865,0
135,0.014202,0.7180725,0.0269605,-0.141551,0.5082325000000001,0.0408145,-0.239321,0.7384325,-0.0189225,0.152249,0.4975825,0.0457905,0.271299,0.7307925000000001,0.0149264999999999,-0.266231,0.9418425,-0.0731985,0.289899,0.9357825,-0.0356545,-0.073919,0.0039235,0.0013304999999999,0.073919,-0.0039234999999999,-0.0013305,-0.127651,-0.3981975,-0.0079385,0.111229,-0.4293175,0.0055475,-0.131761,-0.7849775,-0.0067905,0.115489,-0.7954574999999999,-0.0188004999999999,0
136,0.014542,0.7182075,0.025758,-0.143434,0.5084175000000001,0.040375,-0.244504,0.7318775000000001,-0.0219009999999999,0.152726,0.4977675,0.047893,0.276926,0.7262175000000001,0.017904,-0.267494,0.9382875,-0.080661,0.293856,0.9309375,-0.0344579999999999,-0.073612,0.0038084999999999,0.000929,0.073612,-0.0038085,-0.0009289999999999,-0.130654,-0.3982925,-0.0072619999999999,0.109326,-0.4303725,0.004529,-0.136644,-0.7861024999999999,-0.0049079999999999,0.1113359999999999,-0.7950925,-0.0168279999999999,0
137,0.0147254999999999,0.718347,0.024696,-0.1453195,0.508427,0.039368,-0.2505895,0.723457,-0.025664,0.1546005,0.498417,0.0503249999999999,0.2835005,0.719997,0.021387,-0.2687195,0.932767,-0.08994,0.2970805,0.924537,-0.032683,-0.0732565,0.0036679999999999,0.000455,0.0732565,-0.0036679999999999,-0.000455,-0.1340395,-0.398563,-0.006553,0.1066305,-0.430963,0.0040539999999999,-0.1425394999999999,-0.787483,-0.003148,0.1047305,-0.7946030000000001,-0.0127959999999999,0
138,0.014869,0.7188530000000001,0.02362,-0.147267,0.508013,0.0379689999999999,-0.257177,0.7133630000000001,-0.0306929999999999,0.156533,0.499623,0.053061,0.290913,0.7121230000000001,0.0250659999999999,-0.270497,0.923343,-0.100644,0.300563,0.916453,-0.0309269999999999,-0.072855,0.0035639999999999,7.000000000000062e-06,0.072855,-0.0035639999999999,-7.000000000000062e-06,-0.137577,-0.399717,-0.006288,0.103613,-0.431477,0.0035239999999999,-0.149507,-0.7885369999999999,-0.001201,0.097123,-0.793457,-0.0096359999999999,0
139,0.0150345,0.7208424999999999,0.022398,-0.1486205,0.5062725,0.035927,-0.2685305,0.6960824999999999,-0.038157,0.1581595,0.5025025,0.05644,0.3000695,0.6992524999999999,0.030858,-0.2750105,0.9042325,-0.1139319999999999,0.3056695,0.9024125,-0.0294339999999999,-0.0723395,0.0033725,-0.0005609999999999,0.0723395,-0.0033725,0.0005609999999999,-0.1403605,-0.4013375,-0.009964,0.0980595,-0.4313575,0.0045299999999999,-0.1604505,-0.7865275,0.001877,0.0844395,-0.7893875,-0.0035269999999999,0
140,0.015734,0.7230690000000001,0.0209365,-0.149274,0.504089,0.0333555,-0.2806369999999999,0.669679,-0.0442355,0.159943,0.505049,0.0600295,0.311193,0.681059,0.0362975,-0.278977,0.875109,-0.1287054999999999,0.311923,0.882129,-0.0298495,-0.071703,0.0031979999999999,-0.0012594999999999,0.0717029999999999,-0.0031979999999999,0.0012595,-0.139166,-0.403441,-0.0178855,0.0913529999999999,-0.434021,0.0060375,-0.165517,-0.784131,-0.0014935,0.071963,-0.785441,0.0025625,0
141,0.0168699999999999,0.7252985,0.019037,-0.149564,0.5016984999999999,0.031012,-0.292671,0.6406285,-0.048013,0.160999,0.5071285,0.063346,0.3223789999999999,0.6595885,0.041052,-0.282101,0.8416885,-0.144503,0.318129,0.8584984999999999,-0.0314059999999999,-0.071209,0.0030295,-0.0019119999999999,0.071209,-0.0030294999999999,0.001912,-0.135399,-0.4025115,-0.0278019999999999,0.0816489999999999,-0.4316115,0.008187,-0.167071,-0.7799015,-0.0091289999999999,0.059559,-0.7803215,0.007945,0
142,0.0175769999999999,0.7276644999999999,0.0172154999999999,-0.150196,0.4991644999999999,0.0287154999999999,-0.303854,0.6066244999999999,-0.0489105,0.160606,0.5089144999999999,0.0664974999999999,0.332166,0.6350445,0.0451354999999999,-0.2864339999999999,0.8021244999999999,-0.1610905,0.323836,0.8314945,-0.0348605,-0.070776,0.0028395,-0.0024905,0.070776,-0.0028394999999999,0.0024904999999999,-0.130104,-0.3982455,-0.0402605,0.069136,-0.4284655,0.0102754999999999,-0.16498,-0.7750355,-0.0202615,0.0462559999999999,-0.7747455000000001,0.0127374999999999,0
143,0.0181144999999999,0.72973,0.014985,-0.1504965,0.49581,0.025983,-0.3128355,0.5688799999999999,-0.0488769999999999,0.1595445,0.5094799999999999,0.068773,0.3404644999999999,0.6079899999999999,0.047989,-0.2923855,0.7555,-0.172007,0.3283545,0.8029299999999999,-0.0414669999999999,-0.0706145,0.0025909999999999,-0.0029099999999999,0.0706145,-0.0025909999999999,0.00291,-0.1208735,-0.39288,-0.0551269999999999,0.0601245,-0.4231,0.012307,-0.1568765,-0.7696700000000001,-0.033567,0.0324045,-0.76918,0.021188,0
144,0.0192379999999999,0.7315244999999999,0.0119775,-0.150555,0.4920845,0.0230325,-0.319762,0.5314745,-0.0485894999999999,0.158588,0.5086444999999999,0.0704725,0.3464379999999999,0.5795845,0.0503345,-0.297792,0.7024944999999999,-0.1801295,0.333898,0.7679845,-0.0487395,-0.070498,0.0023724999999999,-0.0033165,0.0704979999999999,-0.0023724999999999,0.0033165,-0.109303,-0.3878554999999999,-0.0763595,0.050528,-0.4180755,0.0141384999999999,-0.144155,-0.7646455000000001,-0.0509994999999999,0.0218479999999999,-0.7590155000000001,0.0297214999999999,0
145,0.0219315,0.733036,0.007706,-0.1485294999999999,0.4872959999999999,0.018433,-0.3207385,0.4894159999999999,-0.047321,0.1582415,0.505776,0.071278,0.3497114999999999,0.545196,0.05352,-0.3031085,0.648426,-0.182721,0.3374915,0.726576,-0.057391,-0.0705615,0.002267,-0.003972,0.0705615,-0.002267,0.003972,-0.0956074999999999,-0.382494,-0.0997309999999999,0.0405315,-0.412714,0.01863,-0.1226424999999999,-0.756394,-0.0792209999999999,0.0114215,-0.748384,0.035077,0
146,0.0242914999999999,0.7347975,0.0027649999999999,-0.1472865,0.4823575,0.0135919999999999,-0.3176485,0.4461175,-0.043675,0.1556915,0.5012675,0.0715649999999999,0.3495815,0.5073975,0.0562699999999999,-0.3044985,0.5647774999999999,-0.183075,0.3401415,0.6778074999999999,-0.069005,-0.0707415,0.0022244999999999,-0.004895,0.0707414999999999,-0.0022245,0.0048949999999999,-0.0833575,-0.3763424999999999,-0.122525,0.0347415,-0.4083124999999999,0.0143039999999999,-0.0966375,-0.7447325,-0.111475,-0.0057185,-0.7424125,0.0419839999999999,0
147,0.0266639999999999,0.737347,-0.002595,-0.146947,0.477927,0.0091949999999999,-0.309316,0.399457,-0.035315,0.1531739999999999,0.495587,0.0717509999999999,0.3461439999999999,0.466087,0.0601339999999999,-0.304696,0.479787,-0.181695,0.341074,0.621897,-0.080805,-0.070964,0.00269,-0.0062149999999999,0.070964,-0.00269,0.0062149999999999,-0.070569,-0.370413,-0.144325,0.0288139999999999,-0.4054029999999999,0.0109149999999999,-0.066289,-0.733163,-0.143215,-0.017086,-0.733503,0.0513479999999999,0
148,0.029155,0.7383329999999999,-0.007335,-0.146865,0.475023,0.0049949999999999,-0.295675,0.359463,-0.023235,0.150825,0.489973,0.0712229999999999,0.335975,0.426513,0.0626279999999999,-0.298465,0.395933,-0.169685,0.3384749999999999,0.5620029999999999,-0.092145,-0.0713449999999999,0.003437,-0.007265,0.0713449999999999,-0.003437,0.0072649999999999,-0.0573449999999999,-0.366977,-0.161255,0.0251649999999999,-0.4053569999999999,0.0141049999999999,-0.029035,-0.7229270000000001,-0.173695,-0.026645,-0.726707,0.0656759999999999,0
149,0.0306449999999999,0.7389709999999999,-0.010365,-0.147297,0.473101,0.0012349999999999,-0.281135,0.3292609999999999,-0.011115,0.147715,0.484521,0.0702729999999999,0.318395,0.3916409999999999,0.0705079999999999,-0.293087,0.3229209999999999,-0.148295,0.3316749999999999,0.502271,-0.096985,-0.071725,0.004075,-0.007975,0.071725,-0.004075,0.0079749999999999,-0.048735,-0.363699,-0.173355,0.0203949999999999,-0.405939,0.0228949999999999,-0.003345,-0.711829,-0.191525,-0.040425,-0.720709,0.0811989999999999,0
150,0.03261,0.7390005,-0.0127999999999999,-0.147764,0.4725005,-0.0020099999999999,-0.265393,0.3054505,0.00073,0.14532,0.4794705,0.06952,0.29922,0.3603105,0.07966,-0.287306,0.2555405,-0.12439,0.32304,0.4432705,-0.0981699999999999,-0.07188,0.0040455,-0.00827,0.07188,-0.0040455,0.00827,-0.04169,-0.3639395,-0.1814899999999999,0.0136799999999999,-0.4041095,0.03493,0.01702,-0.7021295,-0.2017799999999999,-0.05506,-0.7145895,0.099176,0
151,0.0346449999999999,0.7394905,-0.0150099999999999,-0.148365,0.4723505,-0.0054099999999999,-0.251572,0.2874605,0.0126699999999999,0.143115,0.4749205,0.0687799999999999,0.279945,0.3320405,0.08751,-0.280926,0.1993405,-0.09816,0.3156449999999999,0.3853805,-0.1010899999999999,-0.071835,0.0041155,-0.00855,0.0718349999999999,-0.0041155,0.00855,-0.036635,-0.3604695,-0.18611,0.0071849999999999,-0.3987195,0.0479199999999999,0.031945,-0.6918394999999999,-0.20691,-0.068775,-0.7077995,0.1165399999999999,0
152,0.037005,0.7404489999999999,-0.016605,-0.148645,0.472439,-0.008155,-0.238966,0.275989,0.0249649999999999,0.141245,0.470839,0.0685049999999999,0.2601549999999999,0.307259,0.0959849999999999,-0.273715,0.153609,-0.074315,0.307055,0.330769,-0.099105,-0.071735,0.004263,-0.008985,0.071735,-0.004263,0.0089849999999999,-0.033985,-0.355331,-0.186605,0.0029049999999999,-0.389031,0.0611649999999999,0.0405849999999999,-0.681091,-0.207955,-0.076655,-0.7001310000000001,0.1287849999999999,0
153,0.042045,0.74084,-0.0177399999999999,-0.147035,0.47282,-0.0103199999999999,-0.226928,0.26829,0.0362,0.1407449999999999,0.46655,0.0676,0.2437649999999999,0.28552,0.10118,-0.266507,0.1146399999999999,-0.0572599999999999,0.299445,0.28225,-0.09787,-0.071455,0.004694,-0.0104199999999999,0.0714549999999999,-0.004694,0.0104199999999999,-0.035685,-0.35289,-0.1765499999999999,-0.000495,-0.38237,0.07871,0.0419449999999999,-0.6716,-0.1994,-0.066695,-0.6997099999999999,0.12078,0
154,0.0459149999999999,0.7407865,-0.017885,-0.147365,0.4727665,-0.010385,-0.219975,0.2665665,0.0437949999999999,0.140405,0.4644065,0.0668049999999999,0.2287049999999999,0.2717865,0.1054749999999999,-0.258328,0.0807475,-0.042335,0.291535,0.2432065,-0.094685,-0.0712349999999999,0.0051585,-0.011315,0.0712349999999999,-0.0051585,0.0113149999999999,-0.039575,-0.3507235,-0.163725,0.0075049999999999,-0.3759635,0.0641049999999999,0.0354049999999999,-0.6655035,-0.179265,-0.056645,-0.6997635,0.1123549999999999,0
155,0.051595,0.7405015,-0.0183099999999999,-0.145785,0.4733815,-0.01056,-0.215915,0.2662315,0.04647,0.1415849999999999,0.4626415,0.06458,0.217415,0.2628215,0.1058,-0.254335,0.0761775,-0.03176,0.287895,0.2123314999999999,-0.0929599999999999,-0.071035,0.0058204999999999,-0.0116999999999999,0.071035,-0.0058205,0.0116999999999999,-0.042845,-0.3491085,-0.14976,0.0169849999999999,-0.3695985,0.05623,0.023135,-0.6628385,-0.15232,-0.035685,-0.6999785,0.09503,0
156,0.0589399999999999,0.7401995,-0.01817,-0.1426799999999999,0.4748095,-0.00919,-0.2164699999999999,0.2660995,0.04469,0.1440099999999999,0.4608395,0.0623199999999999,0.21072,0.2583095,0.1042799999999999,-0.25078,0.0756005,-0.0272499999999999,0.28802,0.1891295,-0.09198,-0.0707499999999999,0.0065245,-0.01134,0.07075,-0.0065244999999999,0.0113399999999999,-0.0494099999999999,-0.3483005,-0.1324699999999999,0.02835,-0.3629305,0.04918,0.00303,-0.6612005,-0.12006,-0.0088399999999999,-0.7041405,0.0706499999999999,0
157,0.066785,0.7401595,-0.0184999999999999,-0.1394249999999999,0.4775895,-0.0069099999999999,-0.216995,0.2654995,0.04308,0.146695,0.4588095,0.05977,0.208945,0.2560595,0.10398,-0.251235,0.0750005,-0.0272999999999999,0.288025,0.1746595,-0.0920099999999999,-0.0704449999999999,0.0070744999999999,-0.0110899999999999,0.070445,-0.0070745,0.01109,-0.0582349999999999,-0.3489605,-0.11585,0.040335,-0.3574405,0.04314,-0.0218949999999999,-0.6604205000000001,-0.0877199999999999,0.018725,-0.7095105,0.04879,0
158,0.0758999999999999,0.739467,-0.0200799999999999,-0.13534,0.480987,-0.00463,-0.21664,0.266317,0.0423299999999999,0.15061,0.456827,0.0569999999999999,0.2132999999999999,0.253787,0.0969599999999999,-0.25131,0.071409,-0.0405999999999999,0.29079,0.164897,-0.09619,-0.07033,0.007676,-0.01084,0.07033,-0.007676,0.01084,-0.06663,-0.351753,-0.0997099999999999,0.0524399999999999,-0.358323,0.02093,-0.04249,-0.6614530000000001,-0.06096,0.0503899999999999,-0.7147530000000001,0.01333,0
159,0.084225,0.7389885,-0.0219149999999999,-0.1317849999999999,0.4842185,-0.002645,-0.2155849999999999,0.2723285,0.042505,0.154155,0.4565285,0.053985,0.2194249999999999,0.2521985,0.087005,-0.250595,0.0715195,-0.0535049999999999,0.294605,0.1559685,-0.1025849999999999,-0.070205,0.0076925,-0.010965,0.0702049999999999,-0.0076925,0.010965,-0.0771049999999999,-0.3548215,-0.0856949999999999,0.0653949999999999,-0.3589615,-0.003915,-0.061715,-0.6619515,-0.0372749999999999,0.082045,-0.7210215,-0.019235,0
160,0.09291,0.73867,-0.0241650000000001,-0.1275899999999999,0.48726,-0.000595,-0.21402,0.27879,0.0437649999999999,0.15789,0.45639,0.0507249999999999,0.22544,0.25088,0.0787249999999999,-0.25017,0.079798,-0.0639750000000001,0.29666,0.14957,-0.105605,-0.0702299999999999,0.00758,-0.011055,0.07023,-0.00758,0.0110549999999999,-0.0872199999999999,-0.35757,-0.0726350000000001,0.07756,-0.35761,-0.029875,-0.0800299999999999,-0.66111,-0.014555,0.11208,-0.72655,-0.048565,0
161,0.1021099999999999,0.7384630000000001,-0.02721,-0.12339,0.490083,0.0015999999999999,-0.21159,0.284503,0.0451699999999999,0.1616299999999999,0.456323,0.0474299999999999,0.2323599999999999,0.250623,0.0692699999999999,-0.24894,0.086703,-0.06939,0.2988099999999999,0.143613,-0.1108,-0.07009,0.007564,-0.011,0.0700899999999999,-0.007564,0.011,-0.09856,-0.360247,-0.0613,0.0969699999999998,-0.353327,-0.05649,-0.0978,-0.6600569999999999,0.00722,0.1353799999999999,-0.727197,-0.07044,0
162,0.1085849999999999,0.736951,-0.03032,-0.119475,0.491531,0.0028199999999999,-0.209475,0.286371,0.0479999999999999,0.165535,0.455631,0.0438499999999999,0.236375,0.2505509999999999,0.06335,-0.247665,0.092109,-0.0661899999999999,0.2985749999999999,0.138331,-0.1153699999999999,-0.070175,0.007586,-0.00978,0.0701749999999999,-0.007586,0.00978,-0.107465,-0.360959,-0.05425,0.1099249999999999,-0.349619,-0.08687,-0.112145,-0.659119,0.0239399999999999,0.140505,-0.731359,-0.07033,0
163,0.1151249999999999,0.734826,-0.0335499999999999,-0.115065,0.4932460000000001,0.00369,-0.207025,0.288136,0.05113,0.1693549999999999,0.454316,0.04066,0.2407049999999999,0.250396,0.05696,-0.247305,0.0930459999999999,-0.0608099999999999,0.2979349999999999,0.133186,-0.1206899999999999,-0.070115,0.007631,-0.0087999999999999,0.0701149999999999,-0.007631,0.0088,-0.115915,-0.361734,-0.0477599999999999,0.1121149999999999,-0.346864,-0.0852699999999999,-0.126505,-0.658494,0.04016,0.1433649999999999,-0.737094,-0.0696599999999999,0
164,0.1205749999999999,0.732259,-0.0364949999999999,-0.110995,0.4945989999999999,0.005245,-0.204535,0.289109,0.055625,0.1727649999999999,0.453059,0.0389049999999999,0.2429749999999999,0.249889,0.054625,-0.246795,0.0930889999999999,-0.0508649999999999,0.2951349999999999,0.128879,-0.122695,-0.069995,0.007588,-0.0078949999999999,0.0699949999999999,-0.0075879999999999,0.0078949999999999,-0.123345,-0.362561,-0.042745,0.108835,-0.346821,-0.080635,-0.138725,-0.6575209999999999,0.0532749999999999,0.1344249999999999,-0.741811,-0.0594449999999999,0
165,0.12465,0.7307395,-0.0399549999999999,-0.10779,0.4952094999999999,0.0055849999999999,-0.20193,0.2894295,0.0602949999999999,0.1745,0.4527195,0.0372749999999999,0.24321,0.2489995,0.0526649999999999,-0.24639,0.0932795,-0.037695,0.28927,0.1249094999999999,-0.1239749999999999,-0.06996,0.0077785,-0.0073149999999999,0.06996,-0.0077785,0.0073149999999999,-0.13023,-0.3623705,-0.041775,0.1042199999999999,-0.3466305,-0.077245,-0.14586,-0.6568404999999999,0.059305,0.12073,-0.7423204999999999,-0.047205,0
166,0.1283349999999999,0.729056,-0.0437299999999999,-0.1039249999999999,0.4957159999999999,0.00477,-0.199395,0.289676,0.0643,0.176525,0.452416,0.03527,0.244225,0.248106,0.04958,-0.2458949999999999,0.0933959999999999,-0.0259699999999999,0.284195,0.1220359999999999,-0.12414,-0.0698849999999999,0.007895,-0.0068,0.0698849999999999,-0.007895,0.0068,-0.132625,-0.362254,-0.04113,0.099955,-0.346514,-0.0738099999999999,-0.1508649999999999,-0.656174,0.0619699999999999,0.1081849999999999,-0.742664,-0.03605,0
167,0.1311799999999999,0.727609,-0.0474299999999999,-0.10077,0.496369,0.0042499999999999,-0.1973,0.289919,0.0681699999999999,0.17847,0.452059,0.03388,0.24317,0.248009,0.04962,-0.24537,0.092474,-0.0149,0.2782399999999999,0.1201989999999999,-0.12355,-0.06972,0.00791,-0.00655,0.06972,-0.00791,0.0065499999999999,-0.13463,-0.362031,-0.04122,0.0952999999999999,-0.347231,-0.06951,-0.15415,-0.656051,0.0628699999999999,0.09621,-0.7429110000000001,-0.0251,0
168,0.13409,0.7260955,-0.0506949999999999,-0.0976399999999999,0.4975655,0.003905,-0.1963399999999999,0.2907455,0.071725,0.1802,0.4513155,0.032895,0.24135,0.2467954999999999,0.051955,-0.2467599999999999,0.0919845,-0.0039649999999999,0.27231,0.1195455,-0.1218849999999999,-0.0696399999999999,0.0080165,-0.0063949999999999,0.06964,-0.0080165,0.006395,-0.1360099999999999,-0.3620045,-0.0418749999999999,0.09106,-0.3474345,-0.0653349999999999,-0.1557099999999999,-0.6556345,0.061795,0.08417,-0.7432545,-0.0143349999999999,0
169,0.136785,0.724857,-0.0535549999999999,-0.094735,0.498727,0.003945,-0.195265,0.291247,0.074595,0.1823949999999999,0.450397,0.0323350000000001,0.239155,0.2455069999999999,0.0543650000000001,-0.247265,0.090947,0.0047450000000001,0.266665,0.119197,-0.1208949999999999,-0.0695449999999999,0.008246,-0.0064349999999999,0.0695449999999999,-0.008246,0.006435,-0.136975,-0.362773,-0.0427649999999999,0.087005,-0.348203,-0.0608749999999999,-0.155565,-0.655473,0.0592450000000001,0.0732549999999999,-0.743453,-0.0044649999999999,0
170,0.14258,0.7239205,-0.0599899999999999,-0.0858599999999999,0.5017305,0.00039,-0.1918699999999999,0.2914505,0.07996,0.1849,0.4508705,0.0281,0.2403600000000001,0.2450605,0.0533099999999999,-0.2478499999999999,0.0881415,0.0278699999999999,0.2682700000000001,0.1192804999999999,-0.12372,-0.0698499999999999,0.0082475,-0.0053199999999999,0.06985,-0.0082475,0.0053199999999999,-0.1387099999999999,-0.3643194999999999,-0.04117,0.0816000000000001,-0.3500795,-0.0531,-0.1553299999999999,-0.6484995,0.05435,0.06059,-0.7441095,0.01212,0
171,0.1422449999999999,0.7221575,-0.0619449999999999,-0.086025,0.5022575,0.0007650000000001,-0.195045,0.2929275,0.0837350000000001,0.1867449999999999,0.4491875,0.0289450000000001,0.2360149999999999,0.2434575,0.0628050000000001,-0.251835,0.0884404999999999,0.038465,0.255285,0.1209275,-0.1178349999999999,-0.0694949999999999,0.0085615,-0.0064149999999999,0.0694949999999999,-0.0085615,0.006415,-0.138745,-0.3656324999999999,-0.0453749999999999,0.0758449999999999,-0.3510824999999999,-0.0469349999999999,-0.152275,-0.6506925,0.0491850000000001,0.049405,-0.7441425,0.0217750000000001,0
172,0.142945,0.721113,-0.05949,-0.087365,0.5027729999999999,0.0044899999999999,-0.195625,0.292783,0.0856099999999999,0.187075,0.447343,0.0326699999999999,0.234275,0.241673,0.0686999999999999,-0.2532649999999999,0.088244,0.0420699999999999,0.251015,0.122353,-0.1144,-0.069285,0.008862,-0.00717,0.069285,-0.008862,0.0071699999999998,-0.1372949999999999,-0.3657169999999999,-0.0497200000000001,0.074085,-0.3512969999999999,-0.04651,-0.149075,-0.649447,0.0406799999999999,0.045045,-0.7443970000000001,0.02098,0
173,0.1432399999999999,0.7203885,-0.0599499999999999,-0.08776,0.5032785,0.00539,-0.19545,0.2937085,0.08589,0.1878999999999999,0.4449285,0.0337199999999999,0.2322099999999999,0.2395285,0.0736,-0.2538,0.0891614999999999,0.04344,0.2483499999999999,0.1230285,-0.1114,-0.06903,0.0092375,-0.0081299999999999,0.0690299999999999,-0.0092375,0.0081299999999999,-0.13648,-0.3655215,-0.05181,0.0727299999999999,-0.3517714999999999,-0.04493,-0.14537,-0.6466515,0.0348899999999999,0.0406999999999999,-0.7440915,0.02541,0
174,0.143055,0.7196515,-0.05993,-0.0877449999999999,0.5038615000000001,0.00575,-0.195775,0.2939115,0.08635,0.189245,0.4428215,0.0349399999999999,0.230375,0.2373915,0.0774899999999999,-0.253975,0.0894315,0.0432099999999999,0.2460949999999999,0.1204415,-0.10725,-0.0688349999999999,0.0095735,-0.0090099999999999,0.0688349999999999,-0.0095735,0.0090099999999999,-0.1354849999999999,-0.3707985,-0.05268,0.071385,-0.3522185,-0.0430599999999999,-0.139075,-0.6515685,0.0298499999999999,0.0376649999999999,-0.7441985,0.02829,0
175,0.14387,0.7192785,-0.061255,-0.0877299999999999,0.5041085000000001,0.0052449999999999,-0.1945499999999999,0.2945585,0.0843949999999998,0.1899900000000001,0.4419685,0.0356549999999998,0.22891,0.2365285,0.0799449999999999,-0.2527099999999999,0.0901425,0.0407549999999998,0.2430000000000001,0.1055185,-0.0950750000000001,-0.0686399999999999,0.0097285,-0.009395,0.06864,-0.0097285,0.0093949999999999,-0.1336799999999999,-0.3743615,-0.0541150000000001,0.07091,-0.3524015,-0.0424050000000001,-0.1378099999999998,-0.6556415,0.0268549999999999,0.03561,-0.7440914999999999,0.0297549999999998,0
176,0.141835,0.7180745000000001,-0.0594149999999999,-0.0904649999999999,0.5036145000000001,0.0104549999999999,-0.1928049999999999,0.2933845,0.0789349999999999,0.187745,0.4415644999999999,0.0413549999999999,0.219965,0.1880945,0.0441349999999999,-0.2480549999999999,0.0899745,0.0260949999999999,0.238595,0.0310355,-0.106595,-0.0682149999999999,0.0099535,-0.011185,0.068215,-0.0099535,0.011185,-0.1307849999999999,-0.3758255,-0.0561249999999999,0.0683450000000001,-0.3528255,-0.038955,-0.1319749999999999,-0.6582954999999999,0.021235,0.032945,-0.7442555,0.034385,0
