sb224sc-HT22-VT27/4dt907/src/data/labeled_files/A27_kinect_mirrored.csv
FrameNo,nose_3d_x,nose_3d_y,nose_3d_z,left_shoulder_3d_x,left_shoulder_3d_y,left_shoulder_3d_z,left_elbow_3d_x,left_elbow_3d_y,left_elbow_3d_z,right_shoulder_3d_x,right_shoulder_3d_y,right_shoulder_3d_z,right_elbow_3d_x,right_elbow_3d_y,right_elbow_3d_z,left_wrist_3d_x,left_wrist_3d_y,left_wrist_3d_z,right_wrist_3d_x,right_wrist_3d_y,right_wrist_3d_z,left_hip_3d_x,left_hip_3d_y,left_hip_3d_z,right_hip_3d_x,right_hip_3d_y,right_hip_3d_z,left_knee_3d_x,left_knee_3d_y,left_knee_3d_z,right_knee_3d_x,right_knee_3d_y,right_knee_3d_z,left_ankle_3d_x,left_ankle_3d_y,left_ankle_3d_z,right_ankle_3d_x,right_ankle_3d_y,right_ankle_3d_z,activity_label
0,1.0003535,0.762875,0.0640725,0.8480965,0.463945,0.0730295,0.8137265,0.213005,0.0738825,1.1649365,0.462155,0.0608795,1.1802165,0.211945,0.0568635,0.7982665,0.011088,-0.0016324999999999,1.1927165,0.009565,-0.0173824999999999,0.9265105,-0.0008479999999999,-0.0012554999999999,1.0734895,0.000848,0.0012554999999999,0.8869565,-0.414385,0.0178925,1.1217265,-0.391255,-0.0140165,0.8774865000000001,-0.738215,-0.0132574999999999,1.1251165,-0.734715,-0.0153454999999999,0
1,1.000227,0.7628315,0.0634895,0.848012,0.4637615,0.0725175,0.814082,0.2129215,0.0736935,1.164772,0.4620315,0.0610205,1.1800419999999998,0.2121515,0.0564285,0.798552,0.0109325,-0.0015715,1.192792,0.0098444999999999,-0.0179685,0.926539,-0.0009534999999999,-0.0007285,1.073461,0.0009534999999999,0.0007285,0.887112,-0.4168085,0.0180984999999999,1.121702,-0.3913585,-0.0146235,0.877942,-0.7387085,-0.0125725,1.125342,-0.7357885000000001,-0.0168405,0
2,1.0001025,0.7628975,0.063523,0.8479255,0.4636774999999999,0.072391,0.8141555,0.2129775,0.074423,1.1653255,0.4627374999999999,0.059209,1.1797755,0.2127775,0.056487,0.7987955,0.0111395,-0.0013339999999999,1.1926255,0.0104855,-0.0179379999999999,0.9265625,-0.0009895,-0.0005769999999999,1.0734375,0.0009895,0.000577,0.8871255,-0.4168725,0.018224,1.1217255,-0.3913425,-0.0148079999999999,0.8783255,-0.7388425000000001,-0.0097729999999999,1.1252455,-0.7357325,-0.0170509999999999,0
3,1.0000845,0.7630899999999999,0.063635,0.8481475,0.46354,0.072185,0.8145975000000001,0.21346,0.074992,1.1657275,0.46327,0.058344,1.1797175,0.21314,0.056507,0.7990875,0.011575,-0.0006019999999999,1.1925775,0.010961,-0.018268,0.9266205,-0.001009,-0.0002449999999999,1.0733795,0.001009,0.000245,0.8869475,-0.417,0.017669,1.1216675,-0.39131,-0.0152069999999999,0.8781475000000001,-0.73873,-0.0103689999999999,1.1248775,-0.7378600000000001,-0.0168699999999999,0
4,0.9996665,0.7634375,0.059133,0.8479685000000001,0.4638374999999999,0.069386,0.8145685,0.2137375,0.073914,1.1653685,0.4635875,0.056009,1.1795185,0.2135975,0.055242,0.7997585,0.0112314999999999,-0.0001039999999999,1.1927285,0.0110195,-0.0183739999999999,0.9266235,-0.0010554999999999,-0.0002019999999999,1.0733765,0.0010555,0.000202,0.8873085,-0.4154825,0.019889,1.1219385,-0.3911625,-0.0128209999999999,0.8786484999999999,-0.7390924999999999,-0.0065419999999999,1.1249385,-0.7372425,-0.0124959999999999,0
5,0.999537,0.7634595000000001,0.0591349999999999,0.848233,0.4637595,0.069382,0.815593,0.2142595,0.075027,1.166053,0.4643295,0.053922,1.179353,0.2137495,0.0549959999999999,0.8007029999999999,0.0118355,0.0007839999999999,1.192823,0.0106785,-0.016997,0.926671,-0.0010875,-1.1000000000004062e-05,1.073329,0.0010875,1.0999999999997123e-05,0.887013,-0.4152504999999999,0.0198669999999999,1.121873,-0.3912104999999999,-0.012973,0.877833,-0.7389205,-0.008521,1.124683,-0.7362704999999999,-0.012023,0
6,0.999396,0.7632135,0.0588859999999999,0.84857,0.4636135,0.069194,0.81628,0.2147235,0.074388,1.16621,0.4650435,0.0533179999999999,1.1798,0.2131835,0.05402,0.8030200000000001,0.0104295,-0.00713,1.19973,0.0087405,-0.02553,0.926681,-0.0011184999999999,0.0004839999999999,1.073319,0.0011184999999999,-0.000484,0.88712,-0.4137564999999999,0.0190209999999999,1.12184,-0.3913065,-0.013325,0.87844,-0.7365565,-0.007646,1.12407,-0.7379265,-0.011164,0
7,0.9997625,0.762374,0.061034,0.8499245,0.464694,0.06826,0.7978945,0.234114,0.0555549999999999,1.1647445,0.466034,0.055901,1.1990845,0.232384,0.032706,0.7724945,0.049054,-0.045535,1.2293545,0.047146,-0.069457,0.9264965,-0.0010689999999999,0.0002909999999999,1.0735035,0.001069,-0.0002909999999999,0.8875245,-0.412536,0.019282,1.1221545,-0.386566,-0.012794,0.8781045,-0.738936,-0.009327,1.1242645,-0.737066,-0.013317,0
8,0.9997345,0.7619425,0.0607365,0.8509085000000001,0.4652025,0.0670675,0.7892485000000001,0.2441925,0.0452135,1.1642185,0.4672725,0.0554995,1.2086485,0.2433225,0.0209405,0.7574085,0.0717525,-0.0682815,1.2454385,0.0692315,-0.0929945,0.9264175,-0.0010784999999999,0.0004604999999999,1.0735825,0.0010785,-0.0004605,0.8877285,-0.4114974999999999,0.0194445,1.1222385,-0.3845975,-0.0124365,0.8780685,-0.7391375,-0.0096305,1.1241385,-0.7370475000000001,-0.0130904999999999,0
9,0.9999085,0.7617965,0.0605065,0.8517835,0.4657365,0.0659035,0.7788235,0.2575265,0.0316885,1.1635135,0.4684164999999999,0.0549965,1.2203635,0.2576365,0.0069905,0.7392635000000001,0.0987665,-0.0940905,1.2638235,0.0968465,-0.1197705,0.9263005,-0.0011114999999999,0.0006155,1.0736995,0.0011115,-0.0006154999999999,0.8879635,-0.4104335,0.0193475,1.1222835,-0.3825035,-0.0123654999999999,0.8779235,-0.7391435,-0.0099364999999999,1.1240835,-0.7366834999999999,-0.0130354999999999,0
10,1.0001509999999998,0.7616685000000001,0.060329,0.8525739999999999,0.4662785,0.064573,0.767394,0.2733285,0.016485,1.162874,0.4694985,0.054051,1.232874,0.2743385,-0.0085099999999999,0.720434,0.1329185,-0.123005,1.284134,0.1311985,-0.149035,0.926181,-0.0011455,0.000664,1.073819,0.0011454999999999,-0.0006639999999999,0.888234,-0.4093815,0.019078,1.122354,-0.3803915,-0.012398,0.877774,-0.7391515,-0.0104309999999999,1.124064,-0.7365514999999999,-0.0130899999999999,0
11,1.0004645,0.7614690000000001,0.060172,0.8531635,0.466889,0.063177,0.7541335,0.292729,0.0007479999999999,1.1621635,0.4704689999999999,0.053079,1.2466635,0.293259,-0.024231,0.7011935,0.172389,-0.152954,1.3037235,0.171779,-0.179514,0.9260425,-0.0011579999999999,0.000649,1.0739575,0.0011579999999999,-0.000649,0.8885435,-0.408561,0.018763,1.1224635,-0.378321,-0.012527,0.8776235,-0.739301,-0.01102,1.1241135,-0.736571,-0.013312,0
12,1.0008625,0.76069,0.0603705,0.8531925000000001,0.46813,0.0615605,0.7402225,0.31905,-0.0164795,1.1615325,0.4717,0.0519035,1.2617525,0.32037,-0.0407965,0.6808325,0.22444,-0.1851485,1.3257325,0.22466,-0.2109984999999999,0.9258815,-0.0011629999999999,0.0005104999999999,1.0741185,0.001163,-0.0005105,0.8888425,-0.40792,0.0180875,1.1225825,-0.3760099999999999,-0.0128655,0.8775325,-0.73974,-0.0121865,1.1241425,-0.73685,-0.0138995,0
13,1.0012625,0.7598365,0.0605649999999999,0.8532065,0.4695965,0.05985,0.7263765,0.3474664999999999,-0.032378,1.1611065,0.4728265,0.050711,1.2758265,0.3518965,-0.0569,0.6626665,0.2823564999999999,-0.210506,1.3459165,0.2833965,-0.2362959999999999,0.9256995,-0.0011424999999999,0.000337,1.0743005,0.0011424999999999,-0.000337,0.8891365,-0.4074335,0.017387,1.1227065,-0.3740135,-0.013278,0.8775065000000001,-0.7403635,-0.013197,1.1241165,-0.7374035,-0.014577,0
14,1.001676,0.7588630000000001,0.0608275,0.853209,0.471413,0.0580525,0.717029,0.375233,-0.0444575,1.160719,0.473993,0.0494885,1.287049,0.381253,-0.0685305,0.649159,0.340583,-0.2307174999999999,1.361169,0.341803,-0.2540675,0.925521,-0.001116,0.0002125,1.074479,0.0011159999999999,-0.0002125,0.889369,-0.407157,0.0166215,1.122809,-0.372367,-0.0137604999999999,0.877329,-0.741217,-0.0144105,1.124059,-0.737977,-0.0153795,0
15,1.0020965,0.7575265,0.0610675,0.8532345,0.4734365,0.0564375,0.7099445,0.4074164999999999,-0.0534845,1.1606945,0.4750764999999999,0.0482994999999999,1.2952645,0.4139164999999999,-0.0760454999999999,0.6414145,0.3930865,-0.2405155,1.3713245,0.4044565,-0.2623455,0.9253895,-0.0010984999999999,0.0001994999999999,1.0746105,0.0010985,-0.0001995,0.8895345,-0.4075335,0.0157665,1.1228745,-0.3727535,-0.0144485,0.8771745000000001,-0.7423435,-0.0155555,1.1240045,-0.7388435,-0.0161045,0
16,1.0024615,0.7555634999999999,0.0611615,0.8530925,0.4753135,0.0549115,0.7036525,0.4418435,-0.0598555,1.1606725,0.4765635,0.0469325,1.3014625,0.4499634999999999,-0.0807965,0.6373825,0.4582834999999999,-0.2415865,1.3784225,0.4708535,-0.2648065,0.9253095,-0.0011234999999999,0.0003115,1.0746905,0.0011234999999999,-0.0003114999999999,0.8896425,-0.4091765,0.0147935,1.1228225,-0.3739065,-0.0151924999999999,0.8770225,-0.7440965,-0.0166354999999999,1.1238125,-0.7405565000000001,-0.0167744999999999,0
17,1.0027705,0.753551,0.061149,0.8527345,0.477171,0.053723,0.7002245,0.476921,-0.060558,1.1606445,0.477681,0.045544,1.3048045,0.484461,-0.082122,0.6370245,0.524011,-0.2425719999999999,1.3807845,0.535501,-0.266042,0.9252765,-0.0011789999999999,0.0003739999999999,1.0747235,0.0011789999999999,-0.000374,0.8896745000000001,-0.411089,0.0139649999999999,1.1227045,-0.375479,-0.015789,0.8768845000000001,-0.746109,-0.017415,1.1235945,-0.742409,-0.017186,0
18,1.0028925,0.751259,0.061032,0.8518975,0.479099,0.052962,0.6991674999999999,0.5109889999999999,-0.061243,1.1606175,0.479129,0.044287,1.3052875,0.5163789999999999,-0.082944,0.6370375000000001,0.5887089999999999,-0.243354,1.3807975,0.596649,-0.2668239999999999,0.9253575,-0.0012379999999999,0.0004439999999999,1.0746425,0.0012379999999999,-0.0004439999999999,0.8896975,-0.4132909999999999,0.013314,1.1226475,-0.3777109999999999,-0.016259,0.8768075,-0.748251,-0.017901,1.1233675,-0.744861,-0.0179459999999999,0
19,1.0029445,0.7488950000000001,0.060721,0.8508435,0.481095,0.052509,0.6991735,0.543765,-0.061765,1.1606035,0.480805,0.0435129999999999,1.3060235,0.546775,-0.0835259999999999,0.6370435000000001,0.6466550000000001,-0.2438759999999999,1.3808035,0.6530750000000001,-0.267346,0.9254245,-0.001289,0.0005949999999999,1.0745755,0.0012889999999999,-0.000595,0.8896735,-0.415665,0.0129089999999999,1.1225735,-0.380015,-0.016544,0.8767834999999999,-0.750645,-0.018213,1.1230835,-0.747405,-0.018442,0
20,1.0029985,0.746183,0.0604515,0.8498435,0.483693,0.0523365,0.6992435,0.578603,-0.0616275,1.1611135,0.483413,0.0428145,1.3062735,0.579283,-0.0814135,0.6376135,0.706193,-0.2382435,1.3815835,0.711693,-0.2593535,0.9254975,-0.001323,0.0008065,1.0745025,0.001323,-0.0008064999999999,0.8896435,-0.418487,0.0126685,1.1225035,-0.382817,-0.0166424999999999,0.8767735,-0.753367,-0.0182774999999999,1.1228535,-0.750117,-0.0186845,0
21,1.0030834999999998,0.7440355000000001,0.06037,0.8492065,0.4857855,0.05232,0.6996865000000001,0.6070455,-0.057461,1.1617365,0.4861655,0.042133,1.3067365,0.6061255000000001,-0.076972,0.6429565000000002,0.7538255,-0.222522,1.3821865,0.7585555,-0.247072,0.9255645,-0.0013584999999999,0.0008739999999999,1.0744355,0.0013585,-0.0008739999999999,0.8896965,-0.4210045,0.01259,1.1224765,-0.3853345,-0.016714,0.8768165,-0.7557444999999999,-0.01814,1.1226265,-0.7530144999999999,-0.018923,0
22,1.003119,0.74201,0.0603234999999999,0.848778,0.48751,0.0523875,0.701048,0.63423,-0.0509875,1.162158,0.48907,0.0417275,1.306938,0.63255,-0.0710595,0.6494580000000001,0.79601,-0.2029665,1.380388,0.8003,-0.2304465,0.925646,-0.0014289999999999,0.0009104999999999,1.074354,0.001429,-0.0009105,0.889688,-0.4235399999999999,0.0125474999999999,1.122418,-0.38788,-0.0167515,0.8767780000000001,-0.75829,-0.0180315,1.122468,-0.75587,-0.0191145,0
23,1.0030825,0.7400765,0.0600845,0.8487275,0.4891264999999999,0.0525795,0.7054275,0.6582565,-0.0419275,1.1623075,0.4923264999999999,0.0414145,1.3058275,0.6576165,-0.0642065,0.6567675,0.8346965000000001,-0.1787335,1.3774175,0.8380165,-0.2078735,0.9257425,-0.0014885,0.0009014999999999,1.0742575,0.0014885,-0.0009014999999999,0.8895875,-0.4262035,0.0125565,1.1222875,-0.3905935,-0.0167394999999999,0.8767675,-0.7610034999999999,-0.0179404999999999,1.1224175,-0.7585934999999999,-0.0192875,0
24,1.0029855,0.7384375000000001,0.0597095,0.8486935,0.4904275,0.0528975,0.7106235000000001,0.6778875,-0.0310025,1.1623335,0.4953475,0.0414075,1.3023935,0.6761775,-0.0555515,0.6658435,0.8736775,-0.1506575,1.3713935,0.8650375,-0.1828375,0.9258675,-0.0015295,0.0011225,1.0741325,0.0015294999999999,-0.0011224999999999,0.8894235,-0.4287125,0.0127235,1.1221035,-0.3937125,-0.0166025,0.8767635,-0.7635325,-0.0177085,1.1223535,-0.7611325,-0.0192504999999999,0
25,1.002859,0.7374325,0.0591745,0.848631,0.4918524999999999,0.0533545,0.7162010000000001,0.6936525,-0.0202625,1.162261,0.4979225,0.0416295,1.298951,0.6898325000000001,-0.0463455,0.673511,0.8963325000000001,-0.1265565,1.364641,0.8852125000000001,-0.1595965,0.925995,-0.0015294999999999,0.0014055,1.074005,0.0015295,-0.0014055,0.889221,-0.4307075,0.0129125,1.121901,-0.3964675,-0.0164465,0.876741,-0.7655974999999999,-0.0174125,1.122251,-0.7632975,-0.0193085,0
26,1.002755,0.73662,0.0584105,0.848581,0.4933,0.0539495,0.721571,0.7073200000000001,-0.0103775,1.162191,0.50076,0.0420365,1.294841,0.7024400000000001,-0.0367475,0.681191,0.91302,-0.1018045,1.358101,0.90291,-0.1366345,0.926123,-0.001489,0.0016214999999999,1.073877,0.0014889999999999,-0.0016215,0.8890010000000002,-0.43274,0.0131504999999999,1.121641,-0.39926,-0.0164295,0.876761,-0.76766,-0.0168385,1.122101,-0.76544,-0.0193845,0
27,1.002694,0.7358950000000001,0.057499,0.849114,0.494895,0.054581,0.726904,0.7185050000000001,0.000465,1.162144,0.503335,0.042525,1.291024,0.7142350000000001,-0.0278859999999999,0.688264,0.926405,-0.078315,1.352214,0.919045,-0.115335,0.926251,-0.0014349999999999,0.001698,1.073749,0.0014349999999999,-0.0016979999999999,0.888804,-0.434695,0.013436,1.121374,-0.401865,-0.0164729999999999,0.876714,-0.769655,-0.0163089999999999,1.121864,-0.767255,-0.018838,0
28,1.002698,0.7353540000000001,0.0565225,0.8499040000000001,0.496604,0.0553655,0.732194,0.7288939999999999,0.0108135,1.161854,0.5057640000000001,0.0431485,1.287314,0.726974,-0.0195295,0.6942540000000001,0.939574,-0.0587645,1.346744,0.933464,-0.0954245,0.926352,-0.001375,0.0016464999999999,1.073648,0.001375,-0.0016464999999999,0.8886140000000001,-0.436576,0.0137605,1.121094,-0.404526,-0.0164934999999999,0.876694,-0.771406,-0.0157495,1.121824,-0.768856,-0.0184154999999999,0
29,1.0027415,0.7350675000000001,0.0555355,0.8508145,0.4975375,0.0560475,0.7371445,0.7334075,0.0174935,1.1614545,0.5072975000000001,0.0437835,1.2844345,0.7355075000000001,-0.0144554999999999,0.6995145,0.9457175,-0.0406645,1.3426045,0.9396475,-0.0808875,0.9264355,-0.0013415,0.0015455,1.0735645,0.0013415,-0.0015454999999999,0.8884145,-0.4380825,0.0138355,1.1207645,-0.4068625,-0.0166505,0.8769645,-0.7735124999999999,-0.0152855,1.1218445,-0.7706124999999999,-0.0182285,0
30,1.0028245,0.734603,0.054454,0.8518815,0.4983529999999999,0.056547,0.7411215,0.737433,0.023462,1.1609515,0.508443,0.0444149999999999,1.2816215,0.741563,-0.009701,0.7028015000000001,0.950663,-0.029462,1.3385715,0.945283,-0.067479,0.9264815,-0.001329,0.0014289999999999,1.0735185,0.0013289999999999,-0.0014289999999999,0.8881815,-0.439747,0.013602,1.1203915,-0.4092369999999999,-0.016977,0.8772314999999999,-0.775807,-0.0148329999999999,1.1218015,-0.772607,-0.01822,0
31,1.0029935,0.734062,0.053385,0.8530305,0.499312,0.056996,0.7441205,0.7408119999999999,0.02862,1.1604305,0.5096919999999999,0.045018,1.2793305,0.743502,-0.005177,0.7060405000000001,0.954612,-0.01917,1.3349305,0.949722,-0.055858,0.9265205,-0.0012939999999999,0.001284,1.0734795,0.001294,-0.001284,0.8879405,-0.441338,0.012967,1.1200104999999998,-0.411628,-0.017484,0.8775005,-0.778078,-0.0146099999999999,1.1218305,-0.7747080000000001,-0.018171,0
32,1.003041,0.733551,0.052301,0.854054,0.500201,0.057419,0.745574,0.743231,0.031942,1.159604,0.5105109999999999,0.045549,1.276944,0.745931,-0.00145,0.708214,0.955771,-0.012042,1.332214,0.952471,-0.048426,0.926532,-0.0012399999999999,0.0010559999999999,1.073468,0.00124,-0.001056,0.8877540000000002,-0.442279,0.0116209999999999,1.119784,-0.413389,-0.018338,0.877794,-0.779729,-0.0146939999999999,1.122014,-0.776459,-0.018237,0
33,1.0031685,0.7332854999999999,0.051118,0.8547534999999999,0.4999955,0.05784,0.7467635,0.7446455,0.034399,1.1588435,0.5107855,0.046042,1.2752635,0.7486955,0.000798,0.7100635,0.9562855,-0.006608,1.3297935,0.9550855,-0.0427769999999999,0.9265545,-0.0011774999999999,0.000793,1.0734455,0.0011775,-0.0007929999999999,0.8874835,-0.4426144999999999,0.009634,1.1196135,-0.4151545,-0.019332,0.8781535,-0.7809545,-0.0147069999999999,1.1221335,-0.7775545,-0.018371,0
34,1.0033365,0.7332574999999999,0.0500705,0.8552145000000001,0.4998674999999999,0.0582615,0.7476245,0.7463875,0.0359715,1.1581545,0.5108275,0.0464355,1.2738245,0.7517075,0.0021575,0.7115845000000001,0.9564575,-0.0032074999999999,1.3275945,0.9572575,-0.0390514999999999,0.9266005,-0.0011125,0.0005175,1.0733995,0.0011125,-0.0005174999999999,0.8871345,-0.4425125,0.0066295,1.1194445,-0.4163425,-0.0203995,0.8785045,-0.7818825,-0.0149264999999999,1.1222845,-0.7784424999999999,-0.0185764999999999,0
35,1.003421,0.7332574999999999,0.049025,0.855248,0.4998674999999999,0.058427,0.748228,0.7473075,0.036517,1.157518,0.5108275,0.046693,1.272588,0.7543975,0.0026459999999999,0.712458,0.9564575,-0.00168,1.325268,0.9581575,-0.037707,0.926638,-0.0011125,0.000286,1.073362,0.0011125,-0.0002859999999999,0.886848,-0.4423325,0.002919,1.1191879999999998,-0.4179225,-0.021504,0.879178,-0.7832425000000001,-0.015431,1.122658,-0.7797125,-0.018888,0
36,1.0032789999999998,0.7332574999999999,0.0479114999999999,0.854895,0.4998674999999999,0.0582765,0.748405,0.7473075,0.0368895,1.156795,0.5108275,0.0468915,1.271115,0.7566975,0.0031694999999999,0.712925,0.9564575,-0.0013325,1.322525,0.9584575,-0.0370674999999999,0.926593,-0.0011125,0.0001055,1.073407,0.0011125,-0.0001054999999999,0.886355,-0.4423925,-0.0012224999999999,1.118785,-0.4199125,-0.0229435,0.879795,-0.7852524999999999,-0.0158885,1.122975,-0.7813425,-0.0199365,0
37,1.0030095,0.7332574999999999,0.046855,0.8544655,0.4995575,0.058134,0.7485355,0.7473075,0.037322,1.1560855,0.5108275,0.047018,1.2696555,0.7566975,0.0037459999999999,0.7132255000000001,0.9564575,-0.000916,1.3198255,0.9584575,-0.036378,0.9265105,-0.0011125,-0.000106,1.0734895,0.0011125,0.0001059999999999,0.8857254999999999,-0.4424525,-0.005651,1.1182955,-0.4218125,-0.024628,0.8805355,-0.7873524999999999,-0.016369,1.1232355,-0.7829425000000001,-0.0209789999999999,0
38,1.0026535,0.7334324999999999,0.04563,0.8540435,0.4990725,0.0579169999999999,0.7481835,0.7462325,0.037757,1.1553835,0.5105925,0.047058,1.2682335,0.7570425,0.0036699999999999,0.7135135,0.9563025,-0.000539,1.3171735,0.9588025,-0.035734,0.9264075,-0.0010625,-0.000263,1.0735925,0.0010625,0.0002629999999999,0.8849035,-0.4421375,-0.0101149999999999,1.1178435,-0.4237675,-0.026812,0.8810535,-0.7889575,-0.016767,1.1233935,-0.7845975000000001,-0.022059,1
39,1.002226,0.733457,0.0440595,0.853943,0.498117,0.0575035,0.747733,0.745557,0.0370455,1.154693,0.510227,0.0470665,1.266643,0.757647,0.0029444999999999,0.713793,0.956007,-0.0001754999999999,1.314433,0.959407,-0.0355174999999999,0.926294,-0.001015,-0.0004254999999999,1.073706,0.001015,0.0004254999999999,0.884003,-0.441643,-0.0146345,1.117353,-0.426133,-0.0295015,0.881453,-0.790263,-0.0183255,1.123613,-0.785463,-0.0233784999999999,1
40,1.001554,0.733158,0.041868,0.85379,0.497078,0.0569179999999999,0.74715,0.744738,0.035573,1.15393,0.509858,0.046862,1.26471,0.7584380000000001,0.000723,0.71349,0.955598,-0.0017289999999999,1.31122,0.959898,-0.0374739999999999,0.926134,-0.001018,-0.0005709999999999,1.073866,0.0010179999999999,0.000571,0.88297,-0.440122,-0.020044,1.11695,-0.427772,-0.0339519999999999,0.88185,-0.790982,-0.0198049999999999,1.12382,-0.7855719999999999,-0.0248079999999999,1
41,1.0008155,0.7324225,0.0394255,0.8536105,0.4961225,0.0562525,0.7458905,0.7441125000000001,0.0328275,1.1530905,0.5092425,0.0463854999999999,1.2625205,0.7590525,-0.0023035,0.7128805,0.9553425,-0.0044514999999999,1.3077305,0.9594225,-0.0402855,0.9259565,-0.0009445,-0.0006934999999999,1.0740435,0.0009445,0.0006934999999999,0.8818605,-0.4382675,-0.0258894999999999,1.1165605,-0.4288975,-0.0391615,0.8821905,-0.7910874999999999,-0.0212704999999999,1.1240905,-0.7849275,-0.0267174999999999,1
42,0.9999625,0.731414,0.036569,0.8531415,0.494554,0.054314,0.7445515,0.742684,0.029815,1.1519215,0.508574,0.045102,1.2590215,0.7556740000000001,-0.0056319999999999,0.7119815,0.955004,-0.007889,1.3039215,0.958684,-0.043879,0.9257105,-0.000855,-0.0007439999999999,1.0742895,0.000855,0.000744,0.8806115,-0.4358059999999999,-0.032043,1.1162614999999998,-0.428836,-0.045554,0.8824015000000001,-0.7905059999999999,-0.022731,1.1244415,-0.7837959999999999,-0.02955,1
43,0.9991035,0.7296404999999999,0.033457,0.8527905,0.4928005,0.051475,0.7433805,0.7411304999999999,0.025873,1.1503505,0.5077605000000001,0.042756,1.2555705,0.7528904999999999,-0.0093059999999999,0.7110004999999999,0.9547805,-0.0134779999999999,1.2998505,0.9588705,-0.0492669999999999,0.9254005,-0.0008605,-0.0006199999999999,1.0745995,0.0008605,0.00062,0.8787705,-0.4310795,-0.040439,1.1161505,-0.4258595,-0.053813,0.8827605000000001,-0.7869595,-0.023965,1.1249205,-0.7797495000000001,-0.032573,1
44,0.99819,0.7270274999999999,0.02969,0.8525240000000001,0.4909674999999999,0.048334,0.741924,0.7388874999999999,0.021011,1.148964,0.5075675,0.040275,1.252604,0.7493875000000001,-0.013523,0.709984,0.9555375,-0.020349,1.296314,0.9602775,-0.056129,0.925103,-0.0009285,-0.0006459999999999,1.074897,0.0009284999999999,0.000646,0.877004,-0.4251025,-0.0498539999999999,1.116164,-0.4209525,-0.064833,0.883014,-0.7810824999999999,-0.0249599999999999,1.125154,-0.7732625,-0.035429,1
45,0.9975385,0.724453,0.0257845,0.8524095,0.490373,0.0453875,0.7407395,0.736143,0.0159415,1.1478495,0.508113,0.0377735,1.2499795,0.745963,-0.0177765,0.7090195,0.956243,-0.0276405,1.2934295,0.961733,-0.0633955,0.9250375,-0.001003,-0.0005915,1.0749625,0.001003,0.0005915,0.8754495,-0.418517,-0.0596545,1.1162795,-0.415037,-0.0762525,0.8833394999999999,-0.773837,-0.0258284999999999,1.1254795,-0.765737,-0.0373844999999999,1
46,0.9970175,0.7217275,0.02172,0.8522495,0.4895075,0.041818,0.7395995,0.7334674999999999,0.0104269999999999,1.1468094999999998,0.5079475,0.034843,1.2478895,0.7417075,-0.022398,0.7078895000000001,0.9572575,-0.035379,1.2909595,0.9634775,-0.0712559999999999,0.9250425,-0.0010685,-0.0005389999999999,1.0749575,0.0010685,0.0005389999999999,0.8739095,-0.4115925,-0.069756,1.1164595,-0.4086225,-0.087986,0.8835595,-0.7657425,-0.0265979999999999,1.1258595,-0.7575325,-0.039057,1
47,0.9966695,0.7187724999999999,0.0179105,0.8522845,0.4885825,0.0382845,0.7386444999999999,0.7303624999999999,0.0049685,1.1459545,0.5078024999999999,0.0319105,1.2458445,0.7373824999999999,-0.0268544999999999,0.7069245,0.9587425,-0.0434394999999999,1.2886845,0.9654425,-0.0790675,0.9250145,-0.0010764999999999,-0.0004704999999999,1.0749855,0.0010765,0.0004704999999999,0.8719645,-0.4036075,-0.0805475,1.1167145,-0.4005775,-0.0995575,0.8839345,-0.7563575,-0.0273575,1.1263445,-0.7481475000000001,-0.0402064999999999,1
48,0.996366,0.7157835,0.0144894999999999,0.852541,0.4879435,0.0347825,0.737951,0.7285435,-0.0005845,1.1450509999999998,0.5080435,0.0290754999999999,1.243721,0.7327835,-0.0313224999999999,0.705881,0.9610835,-0.0512915,1.286571,0.9639135,-0.0870404999999999,0.924882,-0.0010305,-0.0003604999999999,1.075118,0.0010305,0.0003604999999999,0.870071,-0.3945065,-0.0915805,1.117091,-0.3909265,-0.1110905,0.884091,-0.7457465,-0.0268735,1.126931,-0.7374865,-0.0407985,1
49,0.9960935,0.7124925,0.0120705,0.8526644999999999,0.4864725,0.0310155,0.7372045,0.7274025000000001,-0.0055314999999999,1.1441645,0.5072125,0.0259535,1.2418945,0.7290825,-0.0351905,0.7048845,0.9581625,-0.0583284999999999,1.2850645,0.9644825,-0.0936655,0.9244775,-0.0009624999999999,-0.0002174999999999,1.0755225,0.0009625,0.0002175,0.8672645,-0.3811675,-0.1045755,1.1177745,-0.3772375,-0.1229955,0.8842345,-0.7288775,-0.0258145,1.1276145,-0.7204975,-0.0403405,1
50,0.9955175,0.7091395,0.0067805,0.8525855,0.4854195,0.0243095,0.7361655,0.7266895,-0.0128584999999999,1.1430155,0.5070895,0.0200725,1.2399755,0.7251595,-0.0417344999999999,0.7034955,0.9545295,-0.0680345,1.2835755,0.9650895,-0.1032245,0.9240635,-0.0008644999999999,0.0001545,1.0759365,0.0008644999999999,-0.0001544999999999,0.8640655000000002,-0.3675205,-0.1204445,1.1184055,-0.3633805,-0.1379444999999999,0.8838655,-0.7104605,-0.0282214999999999,1.1280955,-0.7024505,-0.0434134999999999,1
51,0.9947655,0.7054444999999999,0.0007954999999999,0.8520905,0.4843645,0.0181255,0.7353805,0.7231445,-0.0209634999999999,1.1420405,0.5064945,0.0138515,1.2389105,0.7220544999999999,-0.0488095,0.7019805,0.9489445,-0.0776145,1.2822905,0.9600345,-0.1136045,0.9237435,-0.0008284999999999,0.0006644999999999,1.0762565,0.0008285,-0.0006644999999999,0.8598005,-0.3511955,-0.1377445,1.1194505,-0.3472055,-0.1544445,0.8836305,-0.6890155,-0.0316515,1.1286604999999998,-0.6816655,-0.0466044999999999,1
52,0.9941225,0.7033845,-0.0060659999999999,0.8516205,0.4832645,0.01125,0.7347105,0.7212545,-0.0294119999999999,1.1414805,0.5051045,0.0069099999999999,1.2378705,0.7200145,-0.0573189999999999,0.7009405,0.9458845,-0.086419,1.2815205,0.9576145,-0.123759,0.9234975,-0.0007675,0.000821,1.0765025,0.0007675,-0.0008209999999999,0.8548205,-0.3327454999999999,-0.1550289999999999,1.1213605,-0.3285055,-0.172289,0.8833505,-0.6651155,-0.0359899999999999,1.1292105,-0.6589355,-0.050426,1
53,0.993752,0.70538,-0.013384,0.851498,0.4842999999999999,0.004177,0.734038,0.72085,-0.037759,1.141158,0.50532,-0.000487,1.237478,0.72053,-0.066529,0.700108,0.94432,-0.095179,1.281068,0.95611,-0.133699,0.92333,-0.00076,0.0012809999999999,1.07667,0.0007599999999999,-0.0012809999999999,0.850198,-0.31381,-0.171199,1.1234579999999998,-0.30928,-0.188249,0.8832780000000001,-0.6401,-0.040797,1.130348,-0.6353300000000001,-0.0547239999999999,1
54,0.9931955,0.705435,-0.021209,0.8513605,0.4842849999999999,-0.004179,0.7331305,0.7177849999999999,-0.047305,1.1401105,0.501025,-0.009946,1.2373005,0.7190650000000001,-0.076523,0.6994705,0.941255,-0.105333,1.2807205,0.955255,-0.144443,0.9231435,-0.000465,0.001451,1.0768565,0.0004649999999999,-0.001451,0.8438805,-0.293315,-0.191543,1.1267505,-0.288275,-0.2087129999999999,0.8833705000000001,-0.613405,-0.045851,1.1316905,-0.610085,-0.059643,1
55,0.992354,0.7061850000000001,-0.029726,0.850981,0.485845,-0.011711,0.732461,0.715305,-0.056229,1.139021,0.498625,-0.018775,1.236621,0.718585,-0.086177,0.6988110000000001,0.937685,-0.114877,1.279981,0.953885,-0.155137,0.922935,-0.0001049999999999,0.0014699999999999,1.077065,0.000105,-0.00147,0.837301,-0.272495,-0.211527,1.129951,-0.266655,-0.228787,0.883341,-0.586685,-0.050743,1.132961,-0.583965,-0.064757,1
56,0.991842,0.70551,-0.0389164999999999,0.850668,0.4856499999999999,-0.0206605,0.731848,0.71453,-0.0664675,1.137778,0.49687,-0.0284665,1.236318,0.72068,-0.0981575,0.698098,0.93596,-0.1260375,1.279608,0.94862,-0.1689475,0.922768,3.999999999998449e-05,0.0015534999999999,1.077232,-4.000000000001225e-05,-0.0015534999999999,0.830838,-0.24825,-0.2317175,1.133238,-0.24314,-0.2498175,0.8833380000000001,-0.55645,-0.0521595,1.133078,-0.55654,-0.0681475,1
57,0.9913955,0.704595,-0.0484434999999999,0.8503735,0.485315,-0.0297885,0.7314535,0.714695,-0.0770885,1.1364935,0.494915,-0.0383225,1.2360735,0.7231749999999999,-0.1104685,0.6972935,0.933475,-0.1379685,1.2794835,0.947395,-0.1819185,0.9226175,0.0001049999999999,0.0017215,1.0773825,-0.000105,-0.0017215,0.8244335,-0.223685,-0.2515485,1.1366535,-0.218945,-0.2703285,0.8836135,-0.5267850000000001,-0.0570785,1.1332035,-0.529315,-0.0711185,1
58,0.991121,0.7043550000000001,-0.0572574999999999,0.8501380000000001,0.484965,-0.0376545,0.731098,0.7147049999999999,-0.0873384999999999,1.135398,0.493775,-0.0470385,1.235368,0.719275,-0.1207985,0.696548,0.936445,-0.1494885,1.278778,0.940005,-0.1944084999999999,0.922394,6.50000000000095e-05,0.0021995,1.077606,-6.499999999998174e-05,-0.0021995,0.819138,-0.202335,-0.2670285,1.139778,-0.197755,-0.2874885,0.8839980000000001,-0.5019549999999999,-0.0602985,1.133428,-0.5075149999999999,-0.0732684999999999,1
59,0.990423,0.703615,-0.069846,0.8496250000000001,0.483935,-0.048964,0.730145,0.711985,-0.101746,1.133945,0.4915549999999999,-0.059119,1.234225,0.717325,-0.135196,0.6953050000000001,0.939505,-0.167286,1.277585,0.934455,-0.2119259999999999,0.922077,-0.0001349999999999,0.002556,1.077923,0.0001349999999999,-0.002556,0.814065,-0.173775,-0.283856,1.142485,-0.169505,-0.3052859999999999,0.884195,-0.470225,-0.065216,1.132425,-0.479045,-0.076246,1
60,0.9894315,0.702885,-0.081445,0.8488375000000001,0.483465,-0.0600669999999999,0.7285275,0.712225,-0.1156949999999999,1.1326775,0.487935,-0.070805,1.2334275,0.718275,-0.148985,0.6935374999999999,0.941565,-0.185515,1.2765875,0.932505,-0.2288649999999999,0.9218605,-5.499999999997174e-05,0.0028899999999999,1.0781395,5.500000000002725e-05,-0.00289,0.8099875,-0.146345,-0.297965,1.1442475,-0.1419749999999999,-0.320235,0.8840475,-0.439655,-0.070845,1.1307775,-0.451615,-0.079575,1
61,0.9881495,0.70102,-0.094794,0.8482695,0.48264,-0.072484,0.7268595,0.71084,-0.131444,1.1313095,0.48559,-0.083494,1.2321495,0.7124,-0.163764,0.6915994999999999,0.9428,-0.2052939999999999,1.2753695,0.9238,-0.246884,0.9215965,3.0000000000030003e-05,0.0032959999999999,1.0784035,-2.999999999997449e-05,-0.003296,0.8069395,-0.1200199999999999,-0.310814,1.1452595,-0.1159599999999999,-0.333984,0.8835895,-0.41052,-0.077454,1.1291595,-0.4254,-0.086284,1
62,0.9871865,0.69599,-0.105219,0.8478785,0.4799799999999999,-0.082169,0.7257885,0.70766,-0.144359,1.1302485,0.48135,-0.093449,1.2313485,0.70476,-0.175449,0.6899285,0.94162,-0.221979,1.2744085,0.91383,-0.261559,0.9213375,0.0001999999999999,0.0033889999999999,1.0786625,-0.0002,-0.0033889999999999,0.8040885,-0.09514,-0.320639,1.1465385,-0.09253,-0.344159,0.8835585,-0.38604,-0.081519,1.1275085,-0.40152,-0.090209,1
63,0.986492,0.69136,-0.11511,0.847423,0.4771189999999999,-0.0910499999999999,0.7239230000000001,0.7079899999999999,-0.15636,1.129123,0.480595,-0.10213,1.231683,0.70061,-0.18805,0.687913,0.9404,-0.23727,1.274173,0.90293,-0.27684,0.920938,9.99999999995449e-06,0.003664,1.079062,-1.000000000001e-05,-0.003664,0.802843,-0.06995,-0.3253,1.146813,-0.06856,-0.349,0.8843630000000001,-0.36295,-0.09111,1.125413,-0.37788,-0.0935199999999999,1
64,0.986161,0.68587,-0.1240684999999999,0.8475480000000001,0.472982,-0.0999984999999999,0.722108,0.70781,-0.1685185,1.128038,0.478737,-0.1109484999999999,1.232238,0.69564,-0.2004085,0.685878,0.93923,-0.2520584999999999,1.274368,0.89141,-0.2914785,0.92065,-0.00024,0.0039875,1.07935,0.00024,-0.0039875,0.8017480000000001,-0.0439399999999999,-0.3293284999999999,1.147428,-0.04246,-0.3532984999999999,0.883858,-0.3404799999999999,-0.0956585,1.123868,-0.3546999999999999,-0.0962285,1
65,0.986008,0.68188,-0.1320935,0.847879,0.4706869999999999,-0.1070034999999999,0.7206589999999999,0.70495,-0.1787135,1.127079,0.476281,-0.1184134999999999,1.232999,0.6879500000000001,-0.2099935,0.684099,0.93539,-0.2641135,1.275209,0.88342,-0.3026935,0.92038,-0.0003199999999999,0.0041044999999999,1.07962,0.0003199999999999,-0.0041045,0.800829,-0.0221399999999999,-0.3323435,1.148269,-0.0215899999999999,-0.3564835,0.8832790000000001,-0.32239,-0.0995035,1.122299,-0.3338,-0.0984835,1
66,0.986324,0.6784250000000001,-0.1395205,0.848265,0.468462,-0.1135205,0.719185,0.7018949999999999,-0.1872805,1.126905,0.473805,-0.1256205,1.233985,0.680085,-0.2188905,0.6822350000000001,0.931475,-0.2746905,1.276465,0.874295,-0.3144205,0.92008,-0.0004049999999999,0.0043315,1.07992,0.0004049999999999,-0.0043314999999999,0.799715,-0.003535,-0.3354205,1.1493449999999998,-0.005025,-0.3597505,0.882605,-0.306235,-0.1035804999999999,1.120985,-0.313805,-0.1009404999999999,1
67,0.9868095,0.6749350000000001,-0.146097,0.8487184999999999,0.467016,-0.118927,0.7180085,0.697995,-0.194057,1.1269785,0.471353,-0.131637,1.2349485,0.677635,-0.227467,0.6802585,0.926435,-0.2833369999999999,1.2777785,0.8698049999999999,-0.324897,0.9197255,-0.000315,0.0044619999999999,1.0802745,0.000315,-0.004462,0.7980185000000001,0.012925,-0.3381769999999999,1.1507985,0.0093449999999999,-0.362797,0.8818885,-0.2920049999999999,-0.107387,1.1199385,-0.295915,-0.103607,1
68,0.987133,0.672515,-0.148551,0.849073,0.465811,-0.120881,0.717063,0.6968650000000001,-0.196021,1.127193,0.469517,-0.134421,1.235283,0.674145,-0.231651,0.678543,0.921865,-0.285111,1.278873,0.8643350000000001,-0.330291,0.919361,-0.0001849999999999,0.004724,1.080639,0.000185,-0.0047239999999999,0.796313,0.021465,-0.338811,1.152103,0.016525,-0.363671,0.8808930000000001,-0.2857149999999999,-0.110211,1.119053,-0.285775,-0.105131,1
69,0.9873395,0.670835,-0.15065,0.8493225,0.4646699999999999,-0.12237,0.7163825000000001,0.695855,-0.1974199999999999,1.1275425,0.469486,-0.1364199999999999,1.2355125,0.670605,-0.2354399999999999,0.6769325000000002,0.920665,-0.28643,1.2802725,0.8615349999999999,-0.3347,0.9191125,-0.0002449999999999,0.0049699999999999,1.0808875,0.0002449999999999,-0.00497,0.7944125,0.028635,-0.33873,1.1530925,0.022565,-0.36413,0.8799425,-0.280835,-0.11233,1.1181025,-0.277645,-0.1065,1
70,0.987543,0.67032,-0.1519095,0.8492680000000001,0.464047,-0.1235994999999999,0.7158380000000001,0.69618,-0.1986095,1.127998,0.469514,-0.1376995,1.236578,0.6725399999999999,-0.2374695,0.675678,0.91903,-0.2875495,1.281968,0.86626,-0.3374395,0.918814,-0.00025,0.0051395,1.081186,0.0002499999999999,-0.0051395,0.7926780000000001,0.0329799999999999,-0.3383395,1.153328,0.0260999999999999,-0.3641895,0.8802580000000001,-0.27917,-0.1157494999999999,1.116668,-0.2728900000000001,-0.1073095,1
71,0.9879485,0.6707299999999999,-0.1531035,0.8494225,0.4629069999999999,-0.1247735,0.7152725,0.6974099999999999,-0.1997135,1.1286925,0.4688499999999999,-0.1389235,1.2376825,0.6761599999999999,-0.2387335,0.6746625000000002,0.91834,-0.2886235,1.2837925,0.86988,-0.3399235,0.9185695,-0.00018,0.0052345,1.0814305,0.0001799999999999,-0.0052345,0.7909125,0.0363899999999999,-0.3373735,1.1531425,0.0289699999999999,-0.3642735,0.8809725,-0.2767200000000001,-0.1227135,1.1158425,-0.26943,-0.1079935,1
72,0.9883165,0.6707299999999999,-0.1536519999999999,0.8497755000000001,0.4629069999999999,-0.1251519999999999,0.7150755,0.6974099999999999,-0.1998619999999999,1.1292455,0.4688499999999999,-0.1394919999999999,1.2379155,0.6761599999999999,-0.2392719999999999,0.6737255,0.91834,-0.288322,1.2852755,0.86988,-0.340572,0.9187415,-0.00018,0.005211,1.0812585,0.0001799999999999,-0.0052109999999999,0.7895355,0.0360799999999999,-0.336552,1.1529455,0.0286199999999999,-0.364182,0.8807255,-0.2767200000000001,-0.123212,1.1155955,-0.26958,-0.108492,1
73,0.9886975,0.6707299999999999,-0.1530955,0.8500955,0.4629069999999999,-0.1246755,0.7149555000000001,0.6974099999999999,-0.1984555,1.1298855,0.4688499999999999,-0.1392455,1.2380555,0.67651,-0.2396555,0.6729555,0.91834,-0.2863955,1.2870055,0.8715499999999999,-0.3411055,0.9188625,-0.00018,0.0052535,1.0811375,0.0001799999999999,-0.0052535,0.7885055,0.0357999999999999,-0.3358555,1.1527155,0.0286199999999999,-0.3645355,0.8810455,-0.2775900000000001,-0.1290955,1.1158655,-0.26948,-0.1091854999999999,1
74,0.98926,0.6707299999999999,-0.1513495,0.8504010000000001,0.4629069999999999,-0.1240495,0.7147610000000001,0.6974099999999999,-0.1964395,1.130511,0.4688499999999999,-0.1389695,1.239021,0.6766099999999999,-0.2396195,0.672531,0.91834,-0.2835495,1.288501,0.87347,-0.3416595,0.918988,-0.00018,0.0052375,1.081012,0.0001799999999999,-0.0052375,0.787911,0.0360799999999999,-0.3350795,1.152621,0.0286199999999999,-0.3641795,0.880781,-0.2775900000000001,-0.1298095,1.115741,-0.2693500000000001,-0.1095894999999999,1
75,0.9897755,0.67359,-0.148468,0.8509705000000001,0.4646139999999999,-0.120548,0.7150205000000001,0.69665,-0.192038,1.1318505,0.471564,-0.135568,1.2406605,0.6807099999999999,-0.236528,0.6722705,0.91784,-0.278568,1.2907105,0.88032,-0.339368,0.9191915,-0.0001099999999999,0.005219,1.0808085,0.0001099999999999,-0.005219,0.7874905,0.03053,-0.334358,1.1520805,0.0230699999999999,-0.363318,0.8796305000000001,-0.28314,-0.1296979999999999,1.1171005,-0.27469,-0.110888,1
76,0.990201,0.676635,-0.144884,0.851269,0.465271,-0.117114,0.7153590000000001,0.6966749999999999,-0.187114,1.133039,0.473897,-0.132164,1.242679,0.684505,-0.233254,0.6717390000000001,0.918095,-0.2732839999999999,1.292899,0.886605,-0.336624,0.919343,-0.0001349999999999,0.0052049999999999,1.080657,0.0001349999999999,-0.005205,0.7871090000000001,0.022905,-0.333734,1.150169,0.0162149999999999,-0.362224,0.877999,-0.290885,-0.125704,1.118169,-0.2823449999999999,-0.111044,1
77,0.990665,0.680705,-0.14079,0.8514470000000001,0.467108,-0.11346,0.715507,0.6991050000000001,-0.1818,1.134117,0.475876,-0.12813,1.244567,0.6870350000000001,-0.2289999999999999,0.6711370000000001,0.919765,-0.26748,1.295177,0.890815,-0.33247,0.919541,2.500000000005276e-05,0.005187,1.080459,-2.4999999999997247e-05,-0.005187,0.786907,0.011855,-0.33308,1.147707,0.005725,-0.36129,0.8760970000000001,-0.2999849999999999,-0.1215599999999999,1.119127,-0.2934449999999999,-0.11137,1
78,0.9913015,0.685705,-0.134536,0.8519015,0.4691079999999999,-0.108376,0.7160215,0.702525,-0.175086,1.1353315,0.480008,-0.122096,1.2463915,0.692655,-0.222626,0.6712615,0.922855,-0.2593459999999999,1.2981215,0.902335,-0.325526,0.9198355,7.499999999999174e-05,0.005069,1.0801645,-7.499999999999174e-05,-0.005069,0.7870415,-0.006705,-0.3303959999999999,1.1448515,-0.012905,-0.358506,0.8742115,-0.320105,-0.117266,1.1202715,-0.315805,-0.113706,1
79,0.992183,0.689855,-0.1274479999999999,0.8527020000000001,0.4714129999999999,-0.102128,0.716962,0.703945,-0.167398,1.136192,0.482471,-0.115288,1.248972,0.697925,-0.214938,0.671462,0.926515,-0.250568,1.301302,0.910855,-0.317318,0.920111,0.0002249999999999,0.00488,1.079889,-0.0002249999999999,-0.00488,0.787772,-0.027455,-0.326538,1.141862,-0.0341949999999999,-0.3545979999999999,0.872752,-0.343045,-0.116408,1.120922,-0.341355,-0.111438,1
80,0.9930615,0.69627,-0.1199269999999999,0.8533995,0.474015,-0.095527,0.7179195,0.7059,-0.1590069999999999,1.1370795,0.48578,-0.107687,1.2510195,0.70263,-0.206277,0.6716195,0.92832,-0.241377,1.3038495,0.91953,-0.307407,0.9206725,0.00039,0.004671,1.0793275,-0.00039,-0.004671,0.7887295,-0.05014,-0.321917,1.1387295,-0.0572699999999999,-0.349747,0.8719695000000001,-0.36811,-0.114537,1.1217594999999998,-0.36898,-0.109727,1
81,0.9943025,0.701945,-0.111239,0.8540675,0.476995,-0.088181,0.7187775000000001,0.709105,-0.1497689999999999,1.1382575,0.488645,-0.099689,1.2533675,0.7069650000000001,-0.196509,0.6721475,0.933075,-0.230789,1.3067275,0.927545,-0.296449,0.9212575,0.0006249999999999,0.004383,1.0787425,-0.0006249999999999,-0.004383,0.7903675,-0.0746649999999999,-0.316439,1.1361175,-0.081595,-0.344099,0.8717275,-0.395415,-0.112719,1.1230175,-0.3986249999999999,-0.107419,1
82,0.995145,0.7093149999999999,-0.099441,0.854447,0.482205,-0.077336,0.719787,0.712105,-0.136551,1.139347,0.4915349999999999,-0.089681,1.255767,0.712385,-0.183431,0.6729769999999999,0.935165,-0.2161809999999999,1.309237,0.933525,-0.281011,0.922042,0.0008249999999999,0.0041249999999999,1.077958,-0.000825,-0.004125,0.792897,-0.107895,-0.303701,1.133237,-0.114615,-0.330911,0.872107,-0.435685,-0.109361,1.124477,-0.4398849999999999,-0.102891,1
83,0.995417,0.7164699999999999,-0.0863445,0.854479,0.48682,-0.0652945,0.720799,0.7142900000000001,-0.1215945,1.140649,0.49564,-0.0782275,1.257789,0.71695,-0.1690944999999999,0.6734089999999999,0.93812,-0.2004844999999999,1.312039,0.93723,-0.2631545,0.92278,0.00068,0.0038334999999999,1.07722,-0.00068,-0.0038335,0.797219,-0.14493,-0.2875344999999999,1.1311989999999998,-0.15027,-0.3135345,0.874679,-0.48016,-0.1047345,1.125449,-0.48472,-0.0976845,1
84,0.9955595,0.72181,-0.073528,0.8543075,0.4889799999999999,-0.055343,0.7215575000000001,0.72038,-0.107349,1.1418075,0.49594,-0.068827,1.2598875,0.71992,-0.155329,0.6740975,0.94201,-0.185289,1.3142275,0.94165,-0.246129,0.9234305,0.00081,0.003641,1.0765695,-0.00081,-0.0036409999999999,0.8021875,-0.1773499999999999,-0.269669,1.1296675,-0.1805699999999999,-0.295069,0.8769775,-0.51951,-0.098199,1.1265275,-0.52473,-0.092259,1
85,0.9960995,0.72649,-0.0567415,0.8543625000000001,0.49077,-0.0405115,0.7228025,0.7214700000000001,-0.0891215,1.1433725,0.4962,-0.0544604999999999,1.2627025,0.72084,-0.1369315,0.6755225,0.94169,-0.1656215,1.3169425,0.94413,-0.2245015,0.9241545,0.0008599999999999,0.0034464999999999,1.0758455,-0.0008599999999999,-0.0034464999999999,0.8084225,-0.21191,-0.2444515,1.1290825,-0.2142399999999999,-0.2691615,0.8785725,-0.5613,-0.0852315,1.1288425,-0.5675399999999999,-0.0827515,1
86,0.996532,0.729565,-0.0398194999999999,0.8543620000000001,0.4918949999999999,-0.0255615,0.723982,0.724915,-0.0712495,1.145032,0.497975,-0.0399695,1.265422,0.724985,-0.1189094999999999,0.6765920000000001,0.941525,-0.1463295,1.319602,0.947825,-0.2034095,0.924854,0.0007249999999999,0.0030504999999999,1.075146,-0.000725,-0.0030504999999999,0.817392,-0.244615,-0.2141394999999999,1.127762,-0.246015,-0.2386395,0.880512,-0.604355,-0.0697895,1.131802,-0.6084149999999999,-0.0712795,1
87,0.9968375000000002,0.732085,-0.0244945,0.8542935,0.492795,-0.0119385,0.7248235000000001,0.7268549999999999,-0.0550455,1.1459635,0.4973149999999999,-0.0272095,1.2671335,0.727905,-0.1021515,0.6775735,0.940245,-0.1286614999999999,1.3216234999999998,0.945615,-0.1839115,0.9254945,0.0007449999999999,0.0026814999999999,1.0745055,-0.0007449999999999,-0.0026815,0.8264235,-0.271785,-0.1850014999999999,1.1265835,-0.270305,-0.2100714999999999,0.8824735000000001,-0.6374150000000001,-0.0545815,1.1337335,-0.639165,-0.0605215,1
88,0.997145,0.735305,-0.0097374999999999,0.854245,0.494375,0.0008145,0.725055,0.731205,-0.0400054999999999,1.146905,0.498915,-0.0149565,1.268705,0.7313949999999999,-0.0866375,0.6782349999999999,0.939915,-0.1118075,1.323565,0.946125,-0.1652275,0.925905,0.000598,0.0024085,1.074095,-0.000598,-0.0024085,0.835535,-0.297925,-0.1565275,1.125415,-0.2930149999999999,-0.1822375,0.884405,-0.6679550000000001,-0.0402984999999999,1.135665,-0.667535,-0.0493174999999999,1
89,0.99744,0.7359485,0.004754,0.8543810000000001,0.4954685,0.013246,0.725201,0.7345785,-0.0259319999999999,1.147951,0.5001485,-0.0030859999999999,1.270571,0.7351885,-0.0720909999999999,0.6789510000000001,0.9412785,-0.095771,1.325481,0.9460585,-0.1477709999999999,0.92621,0.0004655,0.00209,1.07379,-0.0004655,-0.0020899999999999,0.844651,-0.3234915,-0.128241,1.124371,-0.3149215,-0.154651,0.8865010000000001,-0.6969515000000001,-0.0273019999999999,1.137531,-0.6950115,-0.03905,1
90,0.9976175,0.737591,0.0180889999999999,0.8544655,0.496601,0.0249199999999999,0.7254155,0.737721,-0.012898,1.1489655,0.501791,0.0081739999999999,1.2720755,0.739471,-0.05852,0.6793454999999999,0.939811,-0.08145,1.3267555,0.946551,-0.13118,0.9263315,0.0001779999999999,0.0018739999999999,1.0736685,-0.000178,-0.001874,0.8542755,-0.348349,-0.09954,1.1234155,-0.335909,-0.12709,0.8889055,-0.725289,-0.018442,1.1394455,-0.7209990000000001,-0.025285,1
91,0.9979860000000002,0.7367199999999999,0.0273594999999999,0.854427,0.49555,0.0329174999999999,0.725187,0.7394799999999999,-0.0043405,1.150477,0.503,0.0168234999999999,1.273227,0.74201,-0.0492955,0.679257,0.93952,-0.0719455,1.327277,0.94307,-0.1198455,0.926421,-0.0001239999999999,0.0016144999999999,1.073579,0.0001239999999999,-0.0016145,0.862887,-0.3624,-0.0776655,1.123227,-0.34937,-0.1065955,0.893067,-0.7391500000000001,-0.0072975,1.140707,-0.73489,-0.0156295,1
92,0.998711,0.7351025,0.0349305,0.854635,0.4951725,0.0397355,0.7248050000000001,0.7415225,0.0022365,1.151685,0.5034425,0.0242395,1.274015,0.7428925,-0.0416855,0.6794450000000001,0.9378925,-0.0638454999999999,1.327875,0.9419825,-0.1107454999999999,0.926425,-0.0001745,0.0013895,1.073575,0.0001745,-0.0013895,0.8698850000000001,-0.3737875,-0.0585355,1.122715,-0.3606975,-0.0895855,0.896375,-0.7507975,0.0026395,1.141865,-0.7461575,-0.0065534999999999,1
93,0.999403,0.7342905,0.042451,0.854797,0.4951605,0.04667,0.7247170000000001,0.7409905,0.008468,1.152877,0.5049604999999999,0.031841,1.274777,0.7433405,-0.03401,0.6795169999999999,0.9365805,-0.05618,1.327997,0.9388505,-0.10188,0.926436,-0.0004635,0.001089,1.073564,0.0004635,-0.001089,0.8766470000000001,-0.3840995,-0.0396799999999999,1.122527,-0.3706295,-0.07222,0.899277,-0.7618295,0.0115569999999999,1.142587,-0.7562895000000001,0.0012309999999999,1
94,1.0,0.7339910000000001,0.0462169999999999,0.854836,0.496601,0.0495109999999999,0.724356,0.744441,0.0110939999999999,1.1536259999999998,0.507031,0.0355949999999999,1.275446,0.746591,-0.030087,0.679566,0.938691,-0.052407,1.327896,0.938891,-0.096547,0.926424,-0.000658,0.0010899999999999,1.073576,0.0006579999999999,-0.00109,0.8821060000000001,-0.393109,-0.026417,1.122536,-0.376359,-0.060487,0.9004860000000001,-0.769509,0.0150809999999999,1.143276,-0.763079,0.0051369999999999,1
95,1.000706,0.7343885,0.04987,0.8549230000000001,0.4974885,0.052205,0.724173,0.7450485,0.014055,1.154483,0.5079085,0.038933,1.275823,0.7467785,-0.0259189999999999,0.680133,0.9396185,-0.048679,1.327633,0.9385785,-0.091149,0.926338,-0.0008795,0.001098,1.073662,0.0008794999999999,-0.001098,0.8849629999999999,-0.4001115,-0.0177429999999999,1.123623,-0.3810314999999999,-0.0524389999999999,0.901013,-0.7744415,0.015653,1.143613,-0.7680115,0.006088,1
96,1.0014535,0.734315,0.053343,0.8549305,0.498335,0.055046,0.7249304999999999,0.743545,0.017306,1.1553705,0.5088550000000001,0.042219,1.2762004999999998,0.744905,-0.021883,0.6809005,0.939095,-0.045351,1.3275105,0.937515,-0.085991,0.9263365,-0.001131,0.001098,1.0736635,0.001131,-0.001098,0.8877105,-0.4063549999999999,-0.0090579999999999,1.1247205,-0.3854249999999999,-0.0440509999999999,0.9015405,-0.778675,0.016346,1.1439205,-0.772245,0.0070339999999999,1
97,1.0019755,0.7341595000000001,0.0562159999999999,0.8546655000000001,0.4981995,0.0566089999999999,0.7254754999999999,0.7411395000000001,0.0202019999999999,1.1561055,0.5091395000000001,0.0441969999999999,1.2765055,0.7422995,-0.018438,0.6814955,0.9380195,-0.041836,1.3274055,0.9360495,-0.081646,0.9264215,-0.0013504999999999,0.0007929999999999,1.0735785,0.0013504999999999,-0.000793,0.8901455,-0.4118005,-0.000384,1.1255855,-0.3891405,-0.036366,0.9020155,-0.7821705,0.0161139999999999,1.1433455,-0.7757404999999999,0.007285,1
98,1.002248,0.7342175,0.0585579999999999,0.8541560000000001,0.4982175,0.057669,0.725266,0.7410375,0.0231339999999999,1.156526,0.5087775000000001,0.0452679999999999,1.276516,0.7398475,-0.0143,0.6818660000000001,0.9379775,-0.038463,1.327236,0.9347675,-0.077453,0.926481,-0.0016125,0.0007839999999999,1.073519,0.0016124999999999,-0.000784,0.892116,-0.4162825,0.0076489999999999,1.126296,-0.3912825,-0.029623,0.901186,-0.7846225,0.0155999999999999,1.142816,-0.7776825,0.0087329999999999,1
99,1.0024405,0.733983,0.0606624999999999,0.8543005,0.497733,0.0597554999999999,0.7256905,0.739873,0.0278654999999999,1.1570205,0.508633,0.0474914999999999,1.2763105,0.7377830000000001,-0.0106225,0.6823005,0.937003,-0.0341355,1.3271905,0.933433,-0.0735655,0.9264745,-0.0018369999999999,0.0007164999999999,1.0735255,0.001837,-0.0007165,0.8935705,-0.420207,0.0139014999999999,1.1268905,-0.392997,-0.0237795,0.9002205,-0.786397,0.0148314999999999,1.1422305,-0.7787769999999999,0.0097714999999999,1
100,1.0026395,0.7336484999999999,0.0628585,0.8543615,0.4973685,0.0619935,0.7266715,0.7386185,0.0321785,1.1575715,0.5081884999999999,0.0495565,1.2761015,0.7362385,-0.0068534999999999,0.6831715,0.9364785,-0.0296934999999999,1.3274715,0.9325285,-0.0697055,0.9264635,-0.0020285,0.0005905,1.0735365,0.0020284999999999,-0.0005904999999999,0.8948515,-0.4234515,0.0194265,1.1273815,-0.3941915,-0.0185395,0.8993615000000001,-0.7875915,0.0142485,1.1414815,-0.7793715,0.0104055,1
101,1.002924,0.7332865,0.0647674999999999,0.854525,0.4970065,0.0640964999999999,0.727795,0.7379765,0.0361784999999999,1.158075,0.5075065,0.0514584999999999,1.275945,0.7349965,-0.0034835,0.684085,0.9365665,-0.0255375,1.327775,0.9320065,-0.0661125,0.926489,-0.0021904999999999,0.0005884999999999,1.073511,0.0021905,-0.0005885,0.895945,-0.4263135,0.0242434999999999,1.127795,-0.3953035,-0.0138675,0.898305,-0.7884435,0.0135294999999999,1.1406649999999998,-0.7796135,0.0108784999999999,1
102,1.003261,0.7328279999999999,0.0662975,0.854633,0.4968079999999999,0.0659265,0.729113,0.737598,0.0403125,1.158643,0.506918,0.0534265,1.275933,0.7336379999999999,-0.0005944999999999,0.685133,0.936808,-0.0215685,1.327983,0.931858,-0.0631605,0.926547,-0.0023439999999999,0.0005764999999999,1.073453,0.0023439999999999,-0.0005764999999999,0.896533,-0.428232,0.0276324999999999,1.128043,-0.396242,-0.0105674999999999,0.897383,-0.7887620000000001,0.0126715,1.139773,-0.779482,0.0110434999999999,1
103,1.003563,0.7323795,0.0676255,0.8547330000000001,0.4966794999999999,0.0679435,0.730273,0.7377495,0.0443985,1.159083,0.5062995,0.0549205,1.276023,0.7318895,0.0021075,0.686083,0.9373095,-0.0178354999999999,1.328063,0.9318695,-0.0605435,0.926605,-0.0024255,0.0007085,1.073395,0.0024254999999999,-0.0007085,0.8968230000000001,-0.4299505,0.0300965,1.128093,-0.3969805,-0.0082464999999999,0.8964529999999999,-0.7889505,0.0117315,1.138753,-0.7792405,0.0109365,1
104,1.0040144999999998,0.732142,0.0688884999999999,0.8549305,0.496592,0.0700085,0.7314105,0.737582,0.0480354999999999,1.1595505,0.506062,0.0562494999999999,1.2760905,0.730102,0.0045214999999999,0.6871805,0.937782,-0.0138355,1.3282805,0.931802,-0.0580335,0.9266475,-0.002471,0.0008984999999999,1.0733525,0.002471,-0.0008985,0.8969705,-0.431048,0.0316864999999999,1.1280705,-0.397568,-0.0069745,0.8955805,-0.789118,0.0103034999999999,1.1376805,-0.778948,0.0103305,1
105,1.0044955,0.7320165,0.069988,0.8551115,0.4966465,0.0719969999999999,0.7325115,0.7360964999999999,0.0514319999999999,1.1599715,0.5059365,0.0577239999999999,1.2761315,0.7280665,0.0068479999999999,0.6882415,0.9383765,-0.009898,1.3288315,0.9314565,-0.05574,0.9266495,-0.0024815,0.0010649999999999,1.0733505,0.0024814999999999,-0.001065,0.8968615,-0.4319635,0.0325809999999999,1.1279415,-0.3981035,-0.006213,0.8946915,-0.7892435,0.0087969999999999,1.1365415,-0.7786335,0.0095979999999999,1
106,1.0044995,0.7320165,0.0706635,0.8553275,0.4966965,0.0741775,0.7333575,0.7343265,0.0542955,1.1601275,0.5058465,0.0594835,1.2761775,0.7258765,0.0088845,0.6887475000000001,0.9388265,-0.0066524999999999,1.3294575,0.9309465,-0.0538045,0.9266365,-0.0024815,0.0011175,1.0733635,0.0024814999999999,-0.0011175,0.8965275,-0.4325635,0.0319465,1.1277075,-0.3983635,-0.0063085,0.8941175,-0.7892735000000001,0.0071195,1.1360275,-0.7780335,0.0086985,1
107,1.0044145,0.7317395,0.071311,0.8554255,0.4967095,0.07646,0.7339855,0.7335995,0.056777,1.1601955,0.5053095,0.061396,1.2761255,0.7246095,0.009911,0.6892455,0.9391895,-0.0034629999999999,1.3298455,0.9307195,-0.0521979999999999,0.9265915,-0.0024744999999999,0.001083,1.0734085,0.0024745,-0.0010829999999999,0.8960955,-0.4331905,0.030878,1.1274255,-0.3983705,-0.0065129999999999,0.8935755,-0.7892805,0.005566,1.1354054999999998,-0.7776605,0.006387,1
108,1.0043025,0.731383,0.071839,0.8553895,0.496903,0.07735,0.7343095,0.732733,0.057501,1.1600595,0.504713,0.061976,1.2760695,0.723473,0.010874,0.6894595,0.939483,-0.001486,1.3300395,0.930583,-0.0509419999999999,0.9265565,-0.002472,0.001139,1.0734435,0.002472,-0.001139,0.8956095,-0.4337769999999999,0.02999,1.1270795,-0.398627,-0.006945,0.8929995,-0.789317,0.004129,1.1347695,-0.777277,0.0042629999999999,1
109,1.004278,0.7311955,0.0720815,0.855229,0.4971155,0.0780515,0.734219,0.7324555,0.0583075,1.159989,0.5043955,0.0624135,1.275779,0.7228855000000001,0.0115105,0.689559,0.9397155,-3.0499999999995808e-05,1.330159,0.9307855,-0.0502984999999999,0.926505,-0.0024865,0.0012615,1.073495,0.0024865,-0.0012614999999999,0.8952690000000001,-0.4340345,0.0291845,1.126949,-0.3989245,-0.0074164999999999,0.892699,-0.7892644999999999,0.0025905,1.134239,-0.7769444999999999,0.0023945,1
110,1.004314,0.7309055,0.072213,0.8551880000000001,0.4972255,0.0787529999999999,0.7340679999999999,0.7322755,0.059112,1.159898,0.5039555,0.0627549999999999,1.275808,0.7222655,0.0119939999999999,0.6896880000000001,0.9398155,0.0012779999999999,1.330278,0.9313255,-0.049842,0.926448,-0.0024904999999999,0.0012659999999999,1.073552,0.0024904999999999,-0.001266,0.894978,-0.4343045,0.0283869999999999,1.126828,-0.3993645,-0.007981,0.8924380000000001,-0.7893345,0.0010579999999999,1.133838,-0.7768045,0.0004789999999999,1
111,1.0043335,0.7305995,0.07228,0.8551235,0.4974595,0.079658,0.7337935,0.7333295,0.05925,1.1597435,0.5036495,0.062695,1.2759335,0.7216695,0.012344,0.6896935,0.9404895,0.002124,1.3303635,0.9318195,-0.049608,0.9263935,-0.0024554999999999,0.0012749999999999,1.0736065,0.0024554999999999,-0.0012749999999999,0.8946835,-0.4345104999999999,0.027583,1.1266635,-0.3998605,-0.008648,0.8920035,-0.7891205,-0.0005999999999999,1.1334135,-0.7765905,-0.001279,1
112,1.004322,0.730303,0.072279,0.85497,0.497723,0.080184,0.7334900000000001,0.733583,0.059141,1.15968,0.5034230000000001,0.062792,1.27606,0.721373,0.0123089999999999,0.6894100000000001,0.940743,0.002582,1.33035,0.932103,-0.049937,0.926346,-0.002399,0.001236,1.073654,0.0023989999999999,-0.001236,0.89439,-0.4346069999999999,0.0268699999999999,1.12652,-0.400297,-0.009262,0.89155,-0.788857,-0.001855,1.13302,-0.775967,-0.002563,1
113,1.004196,0.7300089999999999,0.072057,0.8547660000000001,0.497959,0.080519,0.733206,0.7327589999999999,0.0589809999999999,1.159606,0.503279,0.062855,1.276146,0.7211289999999999,0.0119689999999999,0.689136,0.940619,0.0026019999999999,1.330246,0.932359,-0.050811,0.926315,-0.0023409999999999,0.0011609999999999,1.073685,0.002341,-0.001161,0.8941160000000001,-0.434741,0.0262949999999999,1.126376,-0.400771,-0.009653,0.8911760000000001,-0.7886610000000001,-0.002732,1.132676,-0.7753209999999999,-0.003194,1
114,1.0040135,0.72977,0.0716755,0.8545135,0.4982999999999999,0.0806875,0.7329435,0.73235,0.0584195,1.1595535,0.50314,0.0628005,1.2761935,0.7209599999999999,0.0108785,0.6888335000000001,0.94091,0.0014824999999999,1.3301835,0.93265,-0.0519745,0.9263215,-0.0023079999999999,0.0011265,1.0736785,0.002308,-0.0011265,0.8939135,-0.43483,0.0257515,1.1262935,-0.40121,-0.0100555,0.8909235000000001,-0.78837,-0.0035994999999999,1.1323735,-0.7748200000000001,-0.0041515,1
115,1.003811,0.7295145,0.0712049999999999,0.8543499999999999,0.4984745,0.080695,0.7317100000000001,0.7324445,0.058025,1.15952,0.5030045,0.062696,1.27625,0.7207245,0.01004,0.6885400000000002,0.9411945,0.0006759999999999,1.33006,0.9329345,-0.052797,0.926319,-0.0022754999999999,0.0011429999999999,1.073681,0.0022754999999999,-0.0011429999999999,0.89378,-0.4349155,0.025403,1.12627,-0.4016254999999999,-0.010231,0.89052,-0.7880855,-0.004636,1.13213,-0.7747054999999999,-0.005033,1
116,1.0036995,0.729352,0.0704465,0.8542885,0.498342,0.0804945,0.7301185,0.7311219999999999,0.0575245,1.1595685,0.503002,0.0624675,1.2765885,0.720432,0.0092405,0.6880985,0.940922,-5.3499999999998e-05,1.3300285,0.932712,-0.0535625,0.9263525,-0.0022759999999999,0.0011825,1.0736475,0.002276,-0.0011824999999999,0.8937485000000001,-0.434948,0.0250065,1.1263285,-0.401758,-0.0104754999999999,0.8903985,-0.787868,-0.0054074999999999,1.1319785,-0.7749280000000001,-0.0059384999999999,1
117,1.0036425,0.72921,0.0698205,0.8542615,0.49821,0.0801885,0.7261515000000001,0.72665,0.0572545,1.1596115,0.503,0.0621985,1.2778615,0.71861,0.0084935,0.6869815,0.93954,-0.0005824999999999,1.3299615,0.93175,-0.0555205,0.9263555,-0.0022589999999999,0.0012165,1.0736445,0.002259,-0.0012164999999999,0.8937115,-0.43498,0.0244905,1.1264515,-0.40184,-0.0106414999999999,0.8905015000000001,-0.78771,-0.0060484999999999,1.1318415,-0.77522,-0.0065635,0
118,1.003515,0.729222,0.0694015,0.8539829999999999,0.498152,0.0797835,0.7205630000000001,0.719642,0.0574875,1.159573,0.503032,0.0617715,1.280053,0.714862,0.0071595,0.6853629999999999,0.936942,-0.0016284999999999,1.329693,0.929772,-0.0584424999999999,0.926363,-0.0022499999999999,0.0012945,1.073637,0.00225,-0.0012944999999999,0.8936729999999999,-0.434828,0.0240635,1.126513,-0.401688,-0.0107834999999999,0.890463,-0.7873479999999999,-0.0064754999999999,1.131753,-0.7752279999999999,-0.0070474999999999,0
119,1.003235,0.7292055,0.069222,0.853527,0.4983455,0.079652,0.714127,0.7092055,0.058032,1.159557,0.5030555,0.0616,1.283427,0.7075855,0.0052899999999999,0.681597,0.9257055,-0.002757,1.329297,0.9233655,-0.0627979999999999,0.926374,-0.0022304999999999,0.001412,1.073626,0.0022305,-0.0014119999999999,0.893657,-0.4345545,0.023892,1.126517,-0.4014945,-0.010706,0.890337,-0.7865345,-0.0068379999999999,1.131677,-0.7750245,-0.0072129999999999,0
120,1.0024989999999998,0.7293059999999999,0.0686245,0.852954,0.498516,0.0797035,0.706124,0.697986,0.0582945,1.159614,0.5030359999999999,0.0615944999999999,1.2875839999999998,0.6977559999999999,0.0030664999999999,0.6775340000000001,0.912616,-0.0038345,1.328904,0.914466,-0.0678245,0.926383,-0.002285,0.0014114999999999,1.073617,0.0022849999999999,-0.0014115,0.893714,-0.434214,0.0238864999999999,1.126594,-0.4012239999999999,-0.0104605,0.890244,-0.785714,-0.0071635,1.131624,-0.774754,-0.0071995,0
121,1.0010949999999998,0.729488,0.0666425,0.851029,0.4981879999999999,0.0791784999999999,0.6951790000000001,0.678508,0.0588024999999999,1.159509,0.502138,0.0607905,1.293889,0.680798,-0.0015135,0.672319,0.893328,-0.0058135,1.328429,0.8967579999999999,-0.0751665,0.926306,-0.002361,0.0014184999999999,1.073694,0.002361,-0.0014185,0.893879,-0.433272,0.0234634999999999,1.127079,-0.400312,-0.0103345,0.8904990000000002,-0.784832,-0.0075725,1.1319789999999998,-0.7752020000000001,-0.0078435,0
122,0.9994875,0.729882,0.064234,0.8489385,0.4977719999999999,0.078154,0.6838584999999999,0.657072,0.059751,1.1593885,0.501112,0.059787,1.2982485,0.6625420000000001,-0.0064479999999999,0.6667185,0.870862,-0.0084319999999999,1.3272685,0.875662,-0.0842509999999999,0.9262335,-0.00248,0.001425,1.0737665,0.0024799999999999,-0.0014249999999999,0.8940585,-0.432178,0.022584,1.1278885,-0.399148,-0.0104089999999999,0.8908885,-0.783758,-0.0084439999999999,1.1326485,-0.775118,-0.0081619999999999,0
123,0.997742,0.7309965,0.0612329999999999,0.847077,0.4973965,0.076632,0.672247,0.6325265,0.06096,1.157957,0.4991765,0.057739,1.303777,0.6401165,-0.0132709999999999,0.659987,0.8441365000000001,-0.0128969999999999,1.325737,0.8503665,-0.095178,0.926104,-0.0026025,0.00141,1.073896,0.0026025,-0.00141,0.894567,-0.4306335,0.0212709999999999,1.129227,-0.3973235,-0.010369,0.8919370000000001,-0.7822534999999999,-0.0092609999999999,1.133957,-0.7744435,-0.0084079999999999,0
124,0.9957025,0.7325075,0.0577755,0.8451915,0.4968575,0.0748284999999999,0.6613415,0.6040575,0.0624254999999999,1.1568915,0.4974475,0.0556505,1.3051415,0.6139475,-0.0205775,0.6538215,0.8154375,-0.0180845,1.3241515,0.8201875000000001,-0.1087825,0.9259765,-0.0026684999999999,0.0013195,1.0740234999999998,0.0026684999999999,-0.0013195,0.8951614999999999,-0.4289325,0.0196315,1.1308815,-0.3955525,-0.0100465,0.8932915000000001,-0.7802525,-0.0097934999999999,1.1357315,-0.7733225,-0.0083314999999999,0
125,0.9935125,0.734532,0.053937,0.8434185000000001,0.496062,0.072992,0.6528685000000001,0.5713320000000001,0.064107,1.1541485,0.4945819999999999,0.052145,1.3074785,0.583332,-0.025522,0.6461885,0.777672,-0.023447,1.3220785,0.7856920000000001,-0.1226309999999999,0.9258395,-0.002745,0.001277,1.0741605,0.0027449999999999,-0.001277,0.8961085,-0.4267579999999999,0.01792,1.1330085,-0.393248,-0.0093649999999999,0.8954285,-0.777938,-0.0099749999999999,1.1381385,-0.7722479999999999,-0.008198,0
126,0.991276,0.736727,0.0498305,0.841771,0.495247,0.0714394999999999,0.652541,0.539107,0.0655365,1.151671,0.491787,0.0485165,1.310841,0.5484870000000001,-0.0283135,0.639501,0.736507,-0.0293985,1.319131,0.746347,-0.1364334999999999,0.925779,-0.0028189999999999,0.0013594999999999,1.074221,0.002819,-0.0013595,0.897371,-0.4241729999999999,0.0161684999999999,1.135521,-0.390523,-0.0084725,0.898591,-0.775403,-0.0096355,1.141421,-0.770623,-0.0074915,0
127,0.9890605,0.739647,0.045307,0.8414665,0.494637,0.070502,0.6588665,0.5030370000000001,0.070654,1.1481165,0.488937,0.043769,1.3117565,0.509457,-0.0295249999999999,0.6376065,0.682797,-0.027767,1.3153965,0.6958570000000001,-0.151776,0.9258585,-0.002951,0.001626,1.0741415,0.0029509999999999,-0.0016259999999999,0.8996365,-0.420683,0.0146,1.1389265,-0.386993,-0.0075919999999999,0.9037165,-0.7717729999999999,-0.0082659999999999,1.1466565,-0.769123,-0.0060979999999999,0
128,0.9866135,0.7434335,0.040496,0.8404975,0.4933335,0.069102,0.6674074999999999,0.4632635,0.07677,1.1439575,0.4860835,0.038104,1.3072375,0.4694635,-0.029388,0.6412074999999999,0.6248535000000001,-0.027056,1.3104375,0.6369835,-0.159034,0.9258775,-0.0032354999999999,0.001903,1.0741225,0.0032354999999999,-0.001903,0.9027375,-0.4166765,0.013441,1.1421075,-0.3825265,-0.007848,0.9114375,-0.7672565,-0.005585,1.1544075,-0.7666364999999999,-0.003596,0
129,0.9844455,0.7474935,0.0357204999999999,0.8405475,0.4919435,0.0677995,0.6788575,0.4251335,0.0839645,1.1394595,0.4832235,0.0319804999999999,1.2992675,0.4287535,-0.0274645,0.6494475,0.5574235000000001,-0.0250285,1.3033775,0.5689035,-0.1648474999999999,0.9261275,-0.0036175,0.0024994999999999,1.0738725,0.0036174999999999,-0.0024995,0.9065775,-0.4132965,0.0132464999999999,1.1442975,-0.3807565,-0.0106225,0.9219275,-0.7623365,-0.0014445,1.1643375,-0.7633065,-0.0008515,0
130,0.9828245,0.751448,0.031901,0.8422425,0.490758,0.067219,0.6905425000000001,0.393718,0.089945,1.1354165,0.481308,0.026812,1.2882225,0.394558,-0.023768,0.6601925,0.4915280000000001,-0.0221519999999999,1.2948325,0.5040680000000001,-0.164517,0.9264225,-0.003884,0.003215,1.0735775,0.003884,-0.003215,0.9109325,-0.411292,0.014052,1.1448145,-0.3788419999999999,-0.0152379999999999,0.9334325,-0.757852,0.0033219999999999,1.1736025,-0.757792,0.000127,0
131,0.980747,0.755209,0.0277255,0.844565,0.489019,0.0669785,0.705375,0.360849,0.0974205,1.132219,0.4792789999999999,0.0218195,1.274375,0.3607889999999999,-0.0170324999999999,0.675215,0.418139,-0.0171744999999999,1.284905,0.434399,-0.1580785,0.926915,-0.004112,0.0043005,1.073085,0.004112,-0.0043004999999999,0.918405,-0.412661,0.0173445,1.1413,-0.375961,-0.0230134999999999,0.947525,-0.7543110000000001,0.0049435,1.174555,-0.752331,-0.0027635,0
132,0.9794325000000002,0.7583345,0.023847,0.8479125000000001,0.4870744999999999,0.067389,0.7216725000000002,0.3308345,0.105122,1.1311195,0.4783345,0.0177999999999999,1.2596225,0.3306544999999999,-0.010329,0.6899325000000001,0.3473845,-0.0142749999999999,1.2744325,0.3660345,-0.148928,0.9277125,-0.0043085,0.0060959999999999,1.0722875,0.0043085,-0.006096,0.9267225,-0.4071655,0.0211849999999999,1.1340245,-0.3738155,-0.033098,0.9632125,-0.7504955,0.0083639999999999,1.1711125,-0.7471855000000001,-0.009147,0
133,0.9786905,0.7605925,0.019996,0.8511105000000001,0.4853325,0.067922,0.7405905000000002,0.3041125,0.112969,1.1295225,0.4770324999999999,0.012426,1.2428005,0.3041525,-0.003192,0.7070205,0.2768825,-0.0082519999999999,1.2636905,0.3006125,-0.137878,0.9279705,-0.0045725,0.0076129999999999,1.0720295,0.0045725,-0.0076129999999999,0.9363305,-0.4027675,0.0215549999999999,1.1258155,-0.3693975,-0.049938,0.9786105,-0.7460975,0.0122239999999999,1.1647015,-0.7427875,-0.0197409999999999,0
134,0.9778165,0.7623095,0.0158024999999999,0.8540365,0.4837795,0.0680525,0.7596165,0.2823295,0.1209005,1.1294095,0.4769095,0.0075645,1.2267965,0.2822695,0.0033075,0.7213765,0.2150294999999999,-0.0044944999999999,1.2525565,0.2371194999999999,-0.1265105,0.9282965,-0.0048085,0.0090245,1.0717035,0.0048085,-0.0090245,0.9461565,-0.3986505,0.0219845,1.1143875,-0.3652205,-0.0688705,0.9965165,-0.7420705,0.0209514999999999,1.1530585,-0.7379305,-0.0352004999999999,0
135,0.976504,0.763724,0.011145,0.8570139999999999,0.482194,0.067911,0.778454,0.262974,0.128708,1.128641,0.476574,0.002048,1.210716,0.265194,0.010815,0.736604,0.154184,0.000393,1.242484,0.177534,-0.114759,0.928694,-0.005039,0.010369,1.071306,0.005039,-0.0103689999999999,0.951014,-0.394436,0.018349,1.100453,-0.361446,-0.0906289999999999,1.013944,-0.7380059999999999,0.029777,1.13552,-0.731296,-0.056509,0
136,0.9740095,0.764045,0.005925,0.8586595,0.480135,0.067005,0.7961095,0.248685,0.134013,1.1291064999999998,0.476095,-0.00294,1.2008505,0.253275,0.0170569999999999,0.7504195,0.107179,0.007161,1.2319955,0.127835,-0.09815,0.9289895,-0.0052619999999999,0.0117499999999999,1.0710105,0.005262,-0.01175,0.9546195,-0.390655,0.012184,1.0842995,-0.355845,-0.11566,1.0303595,-0.734315,0.0393009999999999,1.1038625,-0.723795,-0.08936,0
137,0.97261,0.7625335000000001,0.0007549999999999,0.86172,0.4778535,0.066573,0.8131900000000001,0.2411135,0.1366,1.131209,0.4751034999999999,-0.007115,1.197497,0.2452935,0.0226699999999999,0.7658,0.0726275,0.014515,1.222891,0.0905195,-0.085765,0.92947,-0.0052815,0.013335,1.07053,0.0052815,-0.013335,0.95943,-0.3872565,0.0057849999999999,1.0692,-0.3513565,-0.1388549999999999,1.04593,-0.7281265,0.044083,1.07138,-0.7178665,-0.121965,0
138,0.972305,0.7599605,-0.0044599999999999,0.865205,0.4751904999999999,0.066284,0.8299450000000002,0.2335305,0.13693,1.134399,0.4732605,-0.0113699999999999,1.1982,0.2400305,0.029456,0.781475,0.0488925,0.02354,1.218405,0.0645625,-0.0733199999999999,0.9295250000000002,-0.0049955,0.01478,1.070475,0.0049955,-0.0147799999999999,0.964235,-0.3844195,-0.0010199999999999,1.053835,-0.3475795,-0.15985,1.061515,-0.7211394999999999,0.049187,1.0357649999999998,-0.7122395,-0.1546799999999999,0
139,0.972575,0.7570635,-0.00961,0.8688750000000001,0.4726335,0.0647369999999999,0.846615,0.2275135,0.132405,1.138042,0.4707734999999999,-0.01564,1.201327,0.2351935,0.03283,0.7995550000000001,0.0295495,0.0348599999999999,1.217825,0.0443944999999999,-0.05959,0.929395,-0.0049625,0.0157299999999999,1.070605,0.0049624999999999,-0.01573,0.968015,-0.3820365,-0.00826,1.040555,-0.3439665,-0.17901,1.077285,-0.7140565,0.0548999999999999,0.997855,-0.6940765,-0.18849,0
140,0.97426,0.7554735,-0.0141749999999999,0.87409,0.4716935,0.062628,0.85885,0.2253335,0.126358,1.142114,0.4698334999999999,-0.0196149999999999,1.20698,0.2328135,0.033075,0.81445,0.0221805,0.042025,1.222847,0.0339244999999999,-0.042445,0.92908,-0.0049625,0.016795,1.07092,0.0049624999999999,-0.016795,0.96928,-0.3778365,-0.017345,1.02756,-0.3383265,-0.193245,1.09259,-0.7041065,0.062249,0.96982,-0.6756665000000001,-0.214405,0
141,0.97603,0.7546134999999999,-0.0181199999999999,0.87841,0.4711435,0.06074,0.86485,0.2242935,0.120958,1.14528,0.4694434999999999,-0.02379,1.2127279999999998,0.2323235,0.0335699999999999,0.82691,0.0196454999999999,0.0464699999999999,1.229872,0.0277224999999999,-0.0242499999999999,0.92835,-0.0049625,0.01696,1.07165,0.0049624999999999,-0.01696,0.96967,-0.3718565,-0.02688,1.01862,-0.3290765,-0.20503,1.10689,-0.6935865,0.06827,0.94602,-0.6567565000000001,-0.2365799999999999,0
142,0.97774,0.7541595,-0.0211349999999999,0.88265,0.4706895,0.060095,0.86737,0.2238395,0.116915,1.14957,0.4689895,-0.025365,1.218014,0.2328194999999999,0.034365,0.83445,0.0191915,0.046455,1.238253,0.0254655,-0.0035349999999999,0.9285,-0.0049925,0.018095,1.0715,0.0049924999999999,-0.018095,0.96889,-0.3652505,-0.032995,1.0105,-0.3203105,-0.2091949999999999,1.1201899999999998,-0.6817905,0.076145,0.92503,-0.6403504999999999,-0.2511549999999999,0
143,0.98007,0.7530485,-0.0235399999999999,0.8875600000000001,0.4696285,0.05897,0.86877,0.2227285,0.11232,1.15448,0.4678785,-0.02667,1.223397,0.2317084999999999,0.03393,0.8382900000000001,0.0180805,0.04385,1.247098,0.0243545,0.00717,0.92863,-0.0045474999999999,0.01882,1.07137,0.0045475,-0.01882,0.97126,-0.3565915,-0.0390299999999999,1.0069899999999998,-0.3142915,-0.2104299999999999,1.13405,-0.6747215,0.0906,0.91209,-0.6347815,-0.25486,0
144,0.98254,0.7521135,-0.025065,0.8919800000000001,0.4688434999999999,0.057675,0.8694200000000001,0.2217935,0.1081949999999999,1.15958,0.4669434999999999,-0.0272149999999999,1.228382,0.2307735,0.0334849999999999,0.8379700000000001,0.0171455,0.0412049999999999,1.254655,0.0234195,0.0154949999999999,0.92837,-0.0041675,0.0189149999999999,1.07163,0.0041674999999999,-0.018915,0.9786700000000002,-0.3570065,-0.040805,1.00613,-0.3103265,-0.207335,1.14591,-0.6738164999999999,0.1061949999999999,0.9056300000000002,-0.6300665,-0.251025,0
145,0.98576,0.7509475,-0.025855,0.8961600000000001,0.4676375,0.0570749999999999,0.8696900000000001,0.2218675,0.1051249999999999,1.16421,0.4661375,-0.027105,1.23317,0.2294975,0.0333849999999999,0.8349300000000001,0.0164275,0.0369849999999999,1.262424,0.0212035,0.0157449999999999,0.9282,-0.0044265,0.0188349999999999,1.0718,0.0044265,-0.018835,0.98433,-0.3592225,-0.051295,1.00555,-0.3125425,-0.198745,1.15421,-0.6749425,0.1164749999999999,0.91263,-0.6266925,-0.233705,0
146,0.987905,0.7500604999999999,-0.0259999999999999,0.899485,0.4668505,0.05714,0.8685750000000001,0.2227105,0.1026,1.1680549999999998,0.4658105,-0.0260599999999999,1.236665,0.2300705,0.03312,0.8308150000000001,0.0182745,0.03067,1.269415,0.0213295,0.01025,0.928335,-0.0048255,0.01924,1.071665,0.0048255,-0.0192399999999999,0.988785,-0.3603495,-0.0596299999999999,1.005475,-0.3149895,-0.1887899999999999,1.153855,-0.6690795,0.12828,0.919225,-0.6237395,-0.2159499999999999,0
147,0.987205,0.7482629999999999,-0.0257099999999999,0.899665,0.465553,0.05779,0.8641750000000001,0.225223,0.09915,1.169985,0.466443,-0.0239399999999999,1.238115,0.233223,0.0322,0.8223550000000002,0.026453,0.02123,1.271205,0.025939,-0.0009599999999999,0.928605,-0.0051179999999999,0.01939,1.071395,0.005118,-0.0193899999999999,0.991395,-0.3603969999999999,-0.0645999999999999,1.007285,-0.3179369999999999,-0.1749799999999999,1.143235,-0.670687,0.12722,0.928185,-0.619997,-0.1954699999999999,0
148,0.984935,0.746356,-0.025285,0.898395,0.464066,0.059985,0.858495,0.229346,0.0960849999999999,1.170985,0.467516,-0.021235,1.237995,0.238126,0.030675,0.812045,0.03591,0.0095149999999999,1.269425,0.034574,-0.0158749999999999,0.929055,-0.005158,0.019755,1.0709449999999998,0.0051579999999999,-0.019755,0.992405,-0.360934,-0.067905,1.009005,-0.322674,-0.160415,1.121285,-0.6743939999999999,0.108635,0.940515,-0.620184,-0.1705049999999999,0
149,0.97982,0.7446985,-0.025805,0.89381,0.4626285,0.061145,0.8522599999999999,0.2339485,0.093105,1.16929,0.4700385,-0.019585,1.2360699999999998,0.2448085,0.027015,0.79877,0.0493045,-0.0038349999999999,1.26192,0.0435035,-0.033665,0.92943,-0.0052885,0.019405,1.0705699999999998,0.0052885,-0.019405,0.9861,-0.3609715,-0.072765,1.0150899999999998,-0.3277315,-0.1463149999999999,1.0939,-0.6793115,0.0871649999999999,0.95235,-0.6210315,-0.146935,0
150,0.970275,0.7436130000000001,-0.0282099999999999,0.887545,0.462013,0.05876,0.8393250000000001,0.238803,0.08218,1.165815,0.473813,-0.0177599999999999,1.232705,0.252143,0.0234699999999999,0.7804949999999999,0.063872,-0.0229499999999999,1.252385,0.052818,-0.05035,0.929745,-0.005528,0.01875,1.070255,0.005528,-0.0187499999999999,0.974975,-0.359597,-0.0794699999999999,1.022795,-0.332737,-0.1302799999999999,1.052845,-0.686647,0.05867,0.966955,-0.6226269999999999,-0.1198799999999999,0
151,0.959735,0.7426985,-0.0311799999999999,0.881065,0.4617085,0.05473,0.8268949999999999,0.2435685,0.0716,1.160535,0.4782385,-0.01715,1.2293649999999998,0.2597185,0.0205699999999999,0.7632950000000001,0.0794015,-0.0411,1.242805,0.0619895,-0.06496,0.929635,-0.0056555,0.0172799999999999,1.0703649999999998,0.0056555,-0.01728,0.963745,-0.3579314999999999,-0.0856599999999999,1.030415,-0.3367914999999999,-0.11443,1.011615,-0.6946015,0.02943,0.981975,-0.6311315,-0.09542,0
152,0.946655,0.740917,-0.03497,0.872425,0.461327,0.0502699999999999,0.812705,0.247477,0.0605299999999999,1.153715,0.482407,-0.01545,1.225425,0.266777,0.0219699999999999,0.7487550000000001,0.091787,-0.0539399999999999,1.2349549999999998,0.070265,-0.0707499999999999,0.929305,-0.0060399999999999,0.0157699999999999,1.070695,0.00604,-0.01577,0.949875,-0.356583,-0.09013,1.037025,-0.342213,-0.09776,0.972015,-0.704433,0.0017499999999999,0.995385,-0.639343,-0.07108,0
153,0.93354,0.7392550000000001,-0.03882,0.86373,0.461135,0.0462399999999999,0.7991699999999999,0.251045,0.0502999999999999,1.14575,0.486795,-0.01387,1.2212299999999998,0.273305,0.0251999999999999,0.7368,0.101145,-0.06519,1.2296999999999998,0.0775889999999999,-0.0712599999999999,0.92931,-0.006335,0.0147999999999999,1.07069,0.006335,-0.0148,0.93635,-0.355285,-0.0942899999999999,1.0434199999999998,-0.346895,-0.08179,0.93525,-0.714285,-0.0251,1.00847,-0.646365,-0.04854,0
154,0.920515,0.7386874999999999,-0.0427449999999999,0.8550750000000001,0.4613575,0.0413049999999999,0.7862750000000001,0.2536575,0.040955,1.137725,0.4908875,-0.0123749999999999,1.217235,0.2788875,0.029515,0.726515,0.1096875,-0.076675,1.225895,0.0837295,-0.068375,0.929215,-0.0062645,0.0137349999999999,1.070785,0.0062644999999999,-0.0137349999999999,0.925105,-0.3533425,-0.087205,1.051515,-0.3500925,-0.067715,0.901415,-0.7245225,-0.0480649999999999,1.020735,-0.6523325,-0.026095,0
155,0.907125,0.7377345000000001,-0.0473799999999999,0.8461650000000001,0.4603945,0.03576,0.7746350000000001,0.2544845,0.03294,1.128365,0.4947445,-0.0115299999999999,1.213145,0.2834545,0.03506,0.7158150000000001,0.1166045,-0.0912199999999999,1.223575,0.0879845,-0.0606299999999999,0.928655,-0.0064364999999999,0.01194,1.071345,0.0064365,-0.0119399999999999,0.913625,-0.3523755,-0.0811799999999999,1.059705,-0.3526555,-0.0539199999999999,0.874735,-0.7326455,-0.0634599999999999,1.033555,-0.6533555,-0.0024999999999999,0
156,0.895285,0.736694,-0.052425,0.838945,0.459424,0.0293049999999999,0.7660250000000001,0.253514,0.0277049999999999,1.120745,0.4976839999999999,-0.010335,1.209455,0.286344,0.0412449999999999,0.7086450000000001,0.119824,-0.102145,1.224005,0.089144,-0.048315,0.928185,-0.006768,0.0102049999999999,1.071815,0.006768,-0.010205,0.903435,-0.351786,-0.078645,1.068145,-0.353626,-0.0433149999999999,0.8564050000000001,-0.738166,-0.076025,1.045945,-0.6543260000000001,0.018845,0
157,0.884455,0.734081,-0.0575249999999999,0.832765,0.457561,0.022575,0.759225,0.252411,0.0237750000000001,1.112495,0.5004109999999999,-0.0105249999999998,1.206265,0.288211,0.047595,0.7047750000000002,0.118731,-0.1090049999999999,1.225915,0.088571,-0.0353749999999999,0.927845,-0.0071259999999999,0.008665,1.072155,0.0071259999999999,-0.0086649999999999,0.8954950000000002,-0.349159,-0.0775149999999998,1.076475,-0.354729,-0.0331449999999999,0.848545,-0.740239,-0.0715349999999999,1.059535,-0.655429,0.0392650000000001,0
158,0.87552,0.7311145,-0.06186,0.827,0.4553345,0.0173499999999999,0.75335,0.2513345,0.0200899999999999,1.1054799999999998,0.5022645,-0.0103,1.20302,0.2883245,0.0545999999999999,0.7059099999999999,0.1176545,-0.11123,1.23019,0.0874945,-0.02245,0.92769,-0.0073904999999999,0.0075899999999999,1.07231,0.0073905,-0.0075899999999999,0.8943900000000001,-0.3459355,-0.07483,1.08424,-0.3558055,-0.024,0.8443800000000001,-0.7421155,-0.06785,1.07106,-0.6546555000000001,0.0563399999999999,0
159,0.8700550000000001,0.7286495,-0.065025,0.8222150000000001,0.4531495,0.015135,0.754855,0.2496695,0.0249049999999999,1.100195,0.5035395,-0.010175,1.200215,0.2875295,0.0611549999999999,0.714195,0.1163695,-0.105935,1.234865,0.0862095,-0.014085,0.927805,-0.0078025,0.0072649999999999,1.072195,0.0078025,-0.0072649999999999,0.8979150000000001,-0.3466205,-0.0697849999999999,1.092295,-0.3563905,-0.0170949999999999,0.8538750000000002,-0.7428505000000001,-0.056045,1.079495,-0.6556505,0.0695949999999999,0
160,0.8653000000000001,0.726249,-0.068295,0.8180000000000001,0.450959,0.0136049999999999,0.7569700000000001,0.247039,0.029665,1.09548,0.5044390000000001,-0.0102849999999999,1.19708,0.286229,0.066915,0.72199,0.114899,-0.1019449999999999,1.23801,0.084739,-0.0063349999999999,0.92801,-0.008283,0.007205,1.07199,0.0082829999999999,-0.007205,0.90154,-0.347441,-0.0644749999999999,1.10124,-0.356351,-0.0109049999999999,0.86332,-0.7437809999999999,-0.0438649999999999,1.08779,-0.6566909999999999,0.0820549999999999,0
161,0.8626450000000001,0.7243350000000001,-0.0709649999999999,0.814855,0.448935,0.013805,0.7619250000000001,0.243905,0.035295,1.091675,0.504885,-0.0110449999999999,1.193305,0.284765,0.069315,0.7301350000000001,0.106215,-0.0976449999999999,1.237435,0.0818349999999999,-0.0008949999999999,0.928365,-0.008764,0.007655,1.071635,0.008764,-0.0076549999999999,0.904365,-0.3483549999999999,-0.0603649999999998,1.108405,-0.3557249999999999,-0.0057949999999999,0.871915,-0.7452949999999999,-0.0333549999999999,1.096015,-0.657405,0.0921050000000001,0
162,0.860465,0.72273,-0.07372,0.8121449999999999,0.44725,0.0141599999999999,0.767055,0.24082,0.0403299999999999,1.089745,0.505,-0.01114,1.189955,0.2835,0.0703899999999999,0.737655,0.0960699999999999,-0.0922499999999999,1.2357749999999998,0.07908,0.00826,0.928595,-0.009042,0.0081299999999999,1.071405,0.009042,-0.0081299999999999,0.906515,-0.3497,-0.05649,1.111565,-0.355,-0.0010999999999999,0.879875,-0.7465900000000001,-0.02436,1.1025649999999998,-0.65813,0.10072,0
163,0.857425,0.7212810000000001,-0.075595,0.8072150000000001,0.443291,0.014355,0.7730850000000001,0.235171,0.0537449999999999,1.086185,0.506761,-0.012135,1.189895,0.288221,0.077415,0.720345,0.100441,-0.110035,1.244025,0.081341,0.0451349999999999,0.929485,-0.009833,0.0094549999999999,1.070515,0.0098329999999999,-0.0094549999999999,0.908235,-0.3514989999999999,-0.052425,1.114485,-0.355029,0.0038549999999999,0.8885950000000001,-0.748769,-0.011045,1.108835,-0.6603789999999999,0.110175,0
164,0.8567750000000001,0.7202595,-0.0775849999999999,0.8078150000000001,0.4416295,0.014935,0.7770350000000001,0.2334095,0.056385,1.084515,0.5054895,-0.0136449999999999,1.185855,0.2871395,0.075495,0.728885,0.0864595,-0.0978449999999999,1.235705,0.0797295,0.038775,0.929815,-0.0099654999999999,0.010605,1.070185,0.0099654999999999,-0.0106049999999999,0.9099350000000002,-0.3519605,-0.0492049999999999,1.116675,-0.3542805,0.005635,0.8936450000000001,-0.7494004999999999,-0.0075749999999999,1.113285,-0.6604304999999999,0.115075,0
165,0.8556250000000001,0.71822,-0.0817,0.802605,0.44012,0.01741,0.7843150000000001,0.22824,0.05184,1.082645,0.5037200000000001,-0.01605,1.175125,0.28039,0.0652599999999999,0.7582950000000002,0.050732,-0.07203,1.214225,0.0585879999999999,0.0100299999999999,0.929495,-0.0097849999999999,0.01073,1.070505,0.009785,-0.01073,0.912365,-0.3523799999999999,-0.0442099999999999,1.121335,-0.35305,0.01078,0.902445,-0.74988,-0.0008299999999999,1.120145,-0.65764,0.1217599999999999,0
166,0.8553000000000001,0.7161975,-0.0833149999999999,0.8026400000000001,0.4396275,0.020085,0.78799,0.2268775,0.052495,1.08721,0.5030775000000001,-0.0113949999999999,1.17229,0.2744775,0.062025,0.77516,0.0423535,-0.0628349999999999,1.21229,0.0633925,0.010655,0.92924,-0.0095204999999999,0.010645,1.07076,0.0095205,-0.010645,0.91273,-0.3522925,-0.0424949999999999,1.12298,-0.3518825,0.012745,0.90727,-0.7493725,0.004735,1.12482,-0.6582024999999999,0.126405,0
167,0.857085,0.7155425,-0.0837149999999999,0.801025,0.4415625,0.020735,0.791155,0.2245525,0.055365,1.083305,0.5019925,-0.0170749999999999,1.1696149999999998,0.2723625,0.057615,0.776395,0.0227474999999999,-0.0642549999999999,1.207385,0.0653545,0.000455,0.929445,-0.0095195,0.011165,1.070555,0.0095195,-0.0111649999999999,0.914795,-0.3525275,-0.0404749999999999,1.1255449999999998,-0.3513374999999999,0.015175,0.911665,-0.7493175,0.008925,1.128785,-0.6583875,0.1301650000000001,0
168,0.8579750000000002,0.7157405,-0.084385,0.8029450000000001,0.4427805,0.0206249999999998,0.794995,0.2259505,0.0585749999999999,1.083845,0.5024405,-0.017785,1.167005,0.2669405,0.0503649999999998,0.7909750000000001,0.0313685,-0.038735,1.200525,0.0627514999999999,-0.016775,0.929485,-0.0091625,0.0111749999999999,1.070515,0.0091624999999999,-0.011175,0.9172550000000002,-0.3524595,-0.038135,1.128585,-0.3507995,0.0178649999999999,0.915985,-0.7490694999999999,0.0125249999999998,1.133545,-0.6582095,0.1346249999999998,0
169,0.8597050000000002,0.7160745,-0.0851949999999999,0.8037850000000001,0.4436145,0.0198949999999999,0.7965250000000001,0.2253945,0.059265,1.083345,0.5026745,-0.0197349999999999,1.165325,0.2649745,0.042775,0.796815,0.0262125,-0.0277149999999999,1.195645,0.0575015,-0.0363649999999999,0.9297550000000002,-0.0087584999999999,0.0110649999999999,1.070245,0.0087585,-0.0110649999999999,0.9192650000000002,-0.3522655,-0.0361849999999999,1.131065,-0.3518455,0.019425,0.921155,-0.7486455000000001,0.016085,1.137395,-0.6589255,0.1376050000000001,0
