sb224sc-HT22-VT27/4dt907/src/data/labeled_files/A29_kinect_mirrored.csv
FrameNo,nose_3d_x,nose_3d_y,nose_3d_z,left_shoulder_3d_x,left_shoulder_3d_y,left_shoulder_3d_z,left_elbow_3d_x,left_elbow_3d_y,left_elbow_3d_z,right_shoulder_3d_x,right_shoulder_3d_y,right_shoulder_3d_z,right_elbow_3d_x,right_elbow_3d_y,right_elbow_3d_z,left_wrist_3d_x,left_wrist_3d_y,left_wrist_3d_z,right_wrist_3d_x,right_wrist_3d_y,right_wrist_3d_z,left_hip_3d_x,left_hip_3d_y,left_hip_3d_z,right_hip_3d_x,right_hip_3d_y,right_hip_3d_z,left_knee_3d_x,left_knee_3d_y,left_knee_3d_z,right_knee_3d_x,right_knee_3d_y,right_knee_3d_z,left_ankle_3d_x,left_ankle_3d_y,left_ankle_3d_z,right_ankle_3d_x,right_ankle_3d_y,right_ankle_3d_z,activity_label
0,0.995561,0.7665035,0.072158,0.841114,0.4651135,0.065902,0.815684,0.2149835,0.065763,1.161994,0.4662435,0.070601,1.1820739999999998,0.2144535,0.065637,0.8047839999999999,0.0124614999999999,-0.008132,1.204664,0.0115975,-0.003421,0.926683,-0.0016025,-0.000641,1.073317,0.0016024999999999,0.000641,0.891214,-0.4100265,0.018749,1.127224,-0.3758465,-0.0092889999999999,0.890594,-0.7371265,-0.0065679999999999,1.134404,-0.7270165,-0.0033279999999999,0
1,0.9959655,0.7663585,0.0718325,0.8435875000000002,0.4642485,0.0667565,0.8163475,0.2145385,0.0657615,1.1621175,0.4662985,0.0707475,1.1819075,0.2142785,0.0654005,0.8057875000000001,0.0102145,-0.0075044999999999,1.2043975,0.0116385,-0.0044065,0.9268375,-0.0015704999999999,-0.0004254999999999,1.0731624999999998,0.0015705,0.0004255,0.8912975,-0.4109915,0.0188965,1.1275675,-0.3794515,-0.0079404999999999,0.8907775,-0.7373215,-0.0051275,1.1336375,-0.7201115,-0.0013174999999999,0
2,0.9969505,0.7663075,0.071546,0.8430285000000001,0.4642075,0.066832,0.8177585,0.2152575,0.066027,1.1628985,0.4654175,0.070435,1.1819785,0.2141674999999999,0.065334,0.8037885000000001,0.0127575,-0.007321,1.2035985,0.0116485,-0.005199,0.9268755,-0.0014464999999999,-0.000441,1.0731245,0.0014464999999999,0.0004409999999999,0.8911585,-0.4108325,0.0188789999999999,1.1278285,-0.3817525,-0.00741,0.8903985000000001,-0.7353425,-0.003126,1.1328085,-0.7225725,-0.003126,0
3,0.99722,0.766246,0.071548,0.8442140000000001,0.463206,0.067341,0.818044,0.214886,0.066067,1.162654,0.465366,0.070486,1.181944,0.214136,0.065471,0.8038540000000001,0.012079,-0.0062709999999999,1.202514,0.011792,-0.006011,0.926926,-0.0014919999999999,-0.000466,1.073074,0.001492,0.000466,0.891134,-0.4098139999999999,0.018701,1.127624,-0.382584,-0.007143,0.889414,-0.7349140000000001,-0.003143,1.132714,-0.722454,-0.0036609999999999,0
4,0.997535,0.766266,0.071523,0.841662,0.464016,0.067619,0.818252,0.214746,0.0659859999999999,1.162522,0.465326,0.070324,1.181982,0.214056,0.065364,0.803602,0.012025,-0.006512,1.202292,0.011844,-0.006646,0.926952,-0.001503,-0.000471,1.073048,0.001503,0.0004709999999999,0.891172,-0.409804,0.0185029999999999,1.127462,-0.3826739999999999,-0.007315,0.888712,-0.735464,-0.003997,1.132772,-0.722974,-0.004366,0
5,1.0004395,0.7666335,0.06869,0.8453965000000001,0.4638535,0.066157,0.8189965000000001,0.2153935,0.064864,1.1640465,0.4651135,0.068754,1.1825765,0.2139435,0.064609,0.8035365000000001,0.0123895,-0.0066289999999999,1.2020865,0.0113534999999999,-0.0065609999999999,0.9269335,-0.0012564999999999,-0.0004829999999999,1.0730665,0.0012564999999999,0.000483,0.8897665000000001,-0.4093664999999999,0.020159,1.1260465,-0.3833065,-0.0055719999999999,0.8865465000000001,-0.7338665,0.000915,1.1303365,-0.7234765000000001,-0.0014849999999999,0
6,1.000834,0.7666425,0.0687385,0.843055,0.4644825,0.0663655,0.819155,0.2152424999999999,0.0648955,1.164035,0.4650125,0.0687135,1.182635,0.2139424999999999,0.0645905,0.807455,0.0091895,-0.0057324999999999,1.202145,0.0113454999999999,-0.0065294999999999,0.926964,-0.0012515,-0.0004334999999999,1.073036,0.0012515,0.0004335,0.889985,-0.4092475,0.0202225,1.125855,-0.3814075,-0.0058944999999999,0.8866650000000001,-0.7330675,0.0018255,1.130675,-0.7228475,-0.0019794999999999,0
7,1.000417,0.766838,0.0705575,0.8438480000000002,0.463078,0.0671865,0.8181579999999999,0.2155679999999999,0.0646005,1.163988,0.465078,0.0698085,1.182628,0.2142279999999999,0.0641955,0.804268,0.011033,-0.0080685,1.202178,0.012304,-0.0090165,0.926954,-0.001439,-0.0005435,1.073046,0.001439,0.0005435,0.8902880000000001,-0.409732,0.0197945,1.126288,-0.380502,-0.0060694999999999,0.887918,-0.735722,-0.0007595,1.130468,-0.722442,-0.0026144999999999,0
8,1.000787,0.7669945,0.070451,0.844604,0.4629744999999999,0.067425,0.817914,0.2165945,0.063647,1.164184,0.4650844999999999,0.069827,1.182994,0.2144045,0.0632389999999999,0.8036340000000001,0.0120175,-0.010235,1.204414,0.0142645,-0.013451,0.926974,-0.0014514999999999,-0.000514,1.073026,0.0014515,0.000514,0.890234,-0.4096155,0.0198519999999999,1.126254,-0.3804755,-0.0059799999999999,0.887754,-0.7362055,-0.000521,1.129944,-0.7222554999999999,-0.002558,0
9,1.0010935,0.7669945,0.0704775,0.8453935000000001,0.4629744999999999,0.0676445,0.8174235,0.2193645,0.0614624999999999,1.1643035,0.4651944999999999,0.0698445,1.1838935,0.2161045,0.0611624999999999,0.8009335000000001,0.0162465,-0.0155455,1.2067735,0.0185305,-0.0208025,0.9269745,-0.0014514999999999,-0.0005145,1.0730255,0.0014515,0.0005144999999999,0.8901035,-0.4090255,0.0199064999999999,1.1261035,-0.3789555,-0.0059185,0.8873235000000002,-0.7362055,-0.0005655,1.1294135,-0.7218954999999999,-0.0027095,0
10,1.0011345,0.7669945,0.0707245,0.8463655,0.4629744999999999,0.0677415,0.8137855,0.2244445,0.0558354999999999,1.1641655,0.4652544999999999,0.0700025,1.1865255,0.2208845,0.0547755,0.7960455,0.0244945,-0.0265905,1.2108655,0.0269445,-0.0339515,0.9269505,-0.0014514999999999,-0.0005075,1.0730495,0.0014515,0.0005075,0.8899855000000001,-0.4088655,0.0198894999999999,1.1258855,-0.3778055,-0.0059325,0.8869155,-0.7362055,-0.0006565,1.1291055,-0.7218954999999999,-0.0027645,0
11,1.0011585,0.7669945,0.0715795,0.8475505,0.4631145,0.0675485,0.8082005000000001,0.2317945,0.0457665,1.1639205,0.4658845,0.0700495,1.1912605,0.2283645,0.0443655,0.7875105,0.0383624999999999,-0.0459514999999999,1.2176605,0.0413505,-0.0545704999999999,0.9268605,-0.0014514999999999,-0.0003854999999999,1.0731395,0.0014515,0.0003855,0.8898105000000001,-0.4087355,0.0197455,1.1256105,-0.3766255,-0.0058845,0.8866505000000001,-0.7362654999999999,-0.0008074999999999,1.1287405,-0.7214655,-0.0027664999999999,0
12,1.0011285,0.7666335000000001,0.073114,0.8494335,0.4638035,0.0672,0.8021335,0.2392635,0.034075,1.1637235,0.4658635,0.0699299999999999,1.1970435,0.2362735,0.031784,0.7779235,0.0532725,-0.06769,1.2257635,0.0580544999999999,-0.0788239999999999,0.9267255,-0.0014275,-0.0003249999999999,1.0732745,0.0014275,0.000325,0.8897135,-0.4089165,0.019479,1.1253535,-0.3753865,-0.0059779999999999,0.8864835000000001,-0.7371165,-0.0010719999999999,1.1281035,-0.7214364999999999,-0.0029049999999999,0
13,1.0010565,0.765957,0.075129,0.8509075,0.464427,0.066951,0.7947474999999999,0.249297,0.0208129999999999,1.1635075,0.466547,0.069524,1.2047075,0.247947,0.01648,0.7651375000000001,0.075659,-0.09397,1.2356575,0.0799899999999999,-0.1068399999999999,0.9265645,-0.0014319999999999,-0.0002769999999999,1.0734355,0.001432,0.0002769999999999,0.8897875,-0.408423,0.019086,1.1252075,-0.3732229999999999,-0.0061789999999999,0.8866275,-0.7383930000000001,-0.001535,1.1274775,-0.720963,-0.0032,0
14,1.000962,0.7650355,0.07719,0.852626,0.4647955,0.0665429999999999,0.785396,0.2637155,0.004524,1.162736,0.4672655,0.068812,1.215586,0.2698655,-0.0023439999999999,0.748786,0.1200654999999999,-0.124075,1.249166,0.1181955,-0.140175,0.926405,-0.0014735,-0.00034,1.073595,0.0014735,0.00034,0.8898560000000001,-0.4079945,0.0185229999999999,1.125026,-0.3713045,-0.0065279999999999,0.886706,-0.7397545,-0.002292,1.1268159999999998,-0.7207845,-0.0029409999999999,0
15,1.0009184999999998,0.7638055,0.0793715,0.8533045000000001,0.4648255,0.0654095,0.7735445000000001,0.2912654999999999,-0.0127895,1.1617545,0.4677254999999999,0.0675225,1.2266345,0.2967054999999999,-0.0212375,0.7323445,0.1724355,-0.1575565,1.2645145,0.1691855,-0.1739264999999999,0.9262295,-0.0014735,-0.0005065,1.0737705,0.0014735,0.0005065,0.8899845,-0.4077645,0.0176685,1.1248745,-0.3694145,-0.0071115,0.8868345,-0.7413745,-0.0031204999999999,1.1261945,-0.7209345,-0.0031624999999999,0
16,1.0008905,0.7625955,0.081471,0.8535665,0.4652655,0.064179,0.7613265000000001,0.3252354999999999,-0.028268,1.1604265,0.4687854999999999,0.066148,1.2379465,0.3295855,-0.0385719999999999,0.7175865,0.2370455,-0.183793,1.2795665,0.2308455,-0.201743,0.9260775,-0.0014735,-0.0006019999999999,1.0739225,0.0014735,0.000602,0.8901765000000001,-0.4075045,0.016825,1.1247365,-0.3675345,-0.007681,0.8866265000000001,-0.7425245,-0.0040629999999999,1.1255565,-0.7210945,-0.0034999999999999,0
17,1.0008834999999998,0.7613755,0.0834615,0.8534025000000001,0.4657455,0.0629455,0.7494225,0.3609155,-0.0401905,1.1592225,0.4701355,0.0647745,1.2485625,0.3659055,-0.0543965,0.7041625,0.3076655,-0.2057105,1.2911724999999998,0.2971755,-0.2229205,0.9259855,-0.0014735,-0.0007085,1.0740145,0.0014735,0.0007085,0.8904325,-0.4071545,0.0159694999999999,1.1246125,-0.3665345,-0.0082715,0.8865025,-0.7434345,-0.0048165,1.1249925,-0.7211245000000001,-0.0038884999999999,0
18,1.0009215,0.7609505000000001,0.0850225,0.8533515,0.4678104999999999,0.0619055,0.7400115,0.3985805,-0.0495634999999999,1.1581115,0.4717205,0.0634265,1.2576015,0.4029605,-0.0664025,0.6939515,0.3813505,-0.2198175,1.3024215,0.3676105,-0.2381875,0.9259595,-0.0014775,-0.0007264999999999,1.0740405,0.0014774999999999,0.0007265,0.8907615000000001,-0.4066995,0.0151325,1.1246415,-0.3654295,-0.0088275,0.8867315,-0.7436195,-0.0058325,1.1246515,-0.7210194999999999,-0.0043785,0
19,1.0009435,0.7598675,0.0863515,0.8533535,0.4703375,0.0612034999999999,0.7330935000000001,0.4375975,-0.0548044999999999,1.1569835,0.4736175,0.0620924999999999,1.2645535,0.4407975,-0.0729185,0.6867335,0.4565775,-0.2262625,1.3114935,0.4397375,-0.2457025,0.9259245,-0.0014985,-0.0006964999999999,1.0740755,0.0014984999999999,0.0006964999999999,0.8910235,-0.4069325,0.0143155,1.1246835,-0.3651825,-0.0093435,0.8869335,-0.7444225,-0.0064425,1.1244435,-0.7215325,-0.0049025,0
20,1.000919,0.758544,0.0865399999999999,0.853524,0.473504,0.060903,0.729924,0.479124,-0.055589,1.155794,0.475864,0.060937,1.268174,0.482974,-0.074085,0.6844239999999999,0.535314,-0.227096,1.3159539999999998,0.513614,-0.2469259999999999,0.925853,-0.0015,-0.000651,1.074147,0.0014999999999999,0.0006509999999999,0.891294,-0.4075359999999999,0.0136779999999999,1.124724,-0.365656,-0.009815,0.886924,-0.745746,-0.006662,1.124164,-0.723056,-0.005277,0
21,1.0008709999999998,0.7558525,0.0859175,0.853646,0.4766725,0.0608485,0.727236,0.5227725,-0.0561774999999999,1.154666,0.4783125,0.0598815,1.270316,0.5251525,-0.0749465,0.683346,0.6175725,-0.2277705,1.318056,0.5903725,-0.2477805,0.925744,-0.0014844999999999,-0.0005574999999999,1.074256,0.0014844999999999,0.0005574999999999,0.891486,-0.4088875,0.0131665,1.124786,-0.3674175,-0.0101174999999999,0.886826,-0.7484375,-0.0063765,1.124156,-0.7258275,-0.0056425,0
22,1.0009605,0.752892,0.0853449999999999,0.8539075,0.479852,0.060984,0.7262575,0.565302,-0.05669,1.1535675,0.480722,0.0588859999999999,1.2704575,0.564862,-0.075523,0.6834775,0.694232,-0.228346,1.3181875,0.665342,-0.248356,0.9256565,-0.00145,-0.000448,1.0743435,0.00145,0.000448,0.8916675000000001,-0.410728,0.012734,1.1248575,-0.369538,-0.010303,0.8867575,-0.751368,-0.005937,1.1243275,-0.7284780000000001,-0.0055109999999999,0
23,1.0012065,0.7494695,0.0850144999999999,0.8540194999999999,0.4832594999999999,0.0615605,0.7266995,0.6077695,-0.0541025,1.1531895,0.4837795,0.0580274999999999,1.2708095,0.5970995,-0.0745285,0.6842794999999999,0.7537895,-0.2193375,1.3188295,0.7297095,-0.2421275,0.9256845,-0.0014334999999999,-0.0003065,1.0743155,0.0014335,0.0003064999999999,0.8919495,-0.4136305,0.0124714999999999,1.1250195,-0.3725705,-0.0103365,0.8867795,-0.7547605000000001,-0.0055465,1.1246195,-0.7319505000000001,-0.0053925,0
24,1.001488,0.7465579999999999,0.0849765,0.8539510000000001,0.485788,0.0623695,0.727241,0.637638,-0.0494825,1.152971,0.486228,0.0574705,1.271331,0.6244379999999999,-0.0703915,0.685251,0.804178,-0.2070455,1.319861,0.781238,-0.2289255,0.925777,-0.001428,-0.0002894999999999,1.074223,0.0014279999999999,0.0002895,0.892231,-0.416672,0.0124395,1.125191,-0.376152,-0.0103684999999999,0.8870110000000001,-0.757962,-0.0050864999999999,1.125021,-0.735532,-0.0050964999999999,0
25,1.001764,0.74366,0.0845795,0.854108,0.48824,0.0631055,0.727948,0.66196,-0.0421515,1.152828,0.48885,0.0573445,1.272078,0.64786,-0.0624085,0.689468,0.84218,-0.1861125,1.320598,0.82299,-0.2082224999999999,0.925872,-0.0014289999999999,-0.0002945,1.074128,0.0014289999999999,0.0002944999999999,0.892528,-0.42008,0.0124224999999999,1.125338,-0.37974,-0.0103765,0.887208,-0.7614,-0.0048415,1.125428,-0.73908,-0.0048615,0
26,1.0020165,0.7408445,0.0836915,0.8543405,0.4907845,0.0637895,0.7297905,0.6835545000000001,-0.0312925,1.1526805,0.4914945,0.0573525,1.2681005,0.6687745,-0.0492005,0.6974005000000001,0.8758345000000001,-0.1602495,1.3170105,0.8597845000000001,-0.1809795,0.9259825,-0.0013895,-0.0003004999999999,1.0740175,0.0013894999999999,0.0003005,0.8928305,-0.4235255,0.0124055,1.1254905,-0.3836355,-0.0103854999999999,0.8873305000000001,-0.7650355,-0.0045684999999999,1.1259104999999998,-0.7434354999999999,-0.0048654999999999,0
27,1.0022529999999998,0.7383055,0.0822575,0.854684,0.4923754999999999,0.0645165,0.7347440000000001,0.7021155,-0.0192265,1.152464,0.4943855,0.0576035,1.263654,0.6885355,-0.0359285,0.705704,0.9040855,-0.1301785,1.311294,0.8918155,-0.1522785,0.926148,-0.0014375,-7.149999999999865e-05,1.073852,0.0014374999999999,7.150000000000212e-05,0.893094,-0.4269145,0.0125425,1.125634,-0.3874145,-0.0101604999999999,0.887454,-0.7685945,-0.0041094999999999,1.126364,-0.7471545,-0.0045415,0
28,1.0025419999999998,0.7362255,0.0807585,0.8548640000000001,0.4934754999999999,0.0650864999999999,0.7394339999999999,0.7165555,-0.0079365,1.152244,0.4970654999999999,0.0580484999999999,1.258994,0.7042455,-0.0234214999999999,0.712854,0.9261755,-0.1055945,1.305284,0.9176355,-0.1250145,0.926316,-0.0014365,2.4500000000000216e-05,1.073684,0.0014365,-2.4500000000000216e-05,0.893304,-0.4299145,0.0127144999999999,1.125744,-0.3905445,-0.0099585,0.887664,-0.7721745,-0.0034785,1.126774,-0.7499745,-0.0039145,0
29,1.00282,0.734619,0.079214,0.854982,0.493759,0.065622,0.745472,0.724889,0.0018449999999999,1.151972,0.499159,0.058593,1.254682,0.713669,-0.011341,0.719572,0.939099,-0.082562,1.299722,0.936369,-0.100652,0.92644,-0.0014359999999999,8.000000000000021e-05,1.07356,0.0014359999999999,-8.000000000000021e-05,0.893462,-0.432401,0.0129069999999999,1.125822,-0.393321,-0.009717,0.887832,-0.775491,-0.002934,1.127242,-0.752301,-0.003328,0
30,1.002915,0.733295,0.077955,0.855209,0.493905,0.066248,0.750289,0.7304750000000001,0.010558,1.151699,0.500745,0.059219,1.251419,0.7226750000000001,-0.0013759999999999,0.725299,0.947155,-0.063098,1.293949,0.949465,-0.077946,0.926559,-0.001513,0.000146,1.073441,0.001513,-0.000146,0.893669,-0.434525,0.013162,1.126019,-0.395315,-0.009417,0.888059,-0.7779849999999999,-0.0022399999999999,1.127619,-0.7535149999999999,-0.002502,0
31,1.0029395,0.7322305,0.0767635,0.8556255,0.4938704999999999,0.0668885,0.7545355000000001,0.7351805,0.0191085,1.1513155,0.5022605,0.0599895,1.2483955,0.7318805,0.0080775,0.7307055,0.9536405,-0.0446624999999999,1.2883655,0.9603405,-0.0559994999999999,0.9266775,-0.0016094999999999,0.0001045,1.0733225,0.0016094999999999,-0.0001045,0.8938555,-0.4363595,0.0134154999999999,1.1261755,-0.3970795,-0.0091254999999999,0.8885655,-0.7803295,-0.0015084999999999,1.1279355,-0.7554795,-0.0019815,0
32,1.0028944999999998,0.7313795000000001,0.0761125,0.8561515,0.4934795,0.0673095,0.7576015,0.7368095,0.0259615,1.1505515,0.5029295,0.0606585,1.2464415,0.7384895,0.0157145,0.7346714999999999,0.9566795,-0.0292545,1.2836915,0.9653795,-0.0355635,0.9267295,-0.0016725,-6.950000000000012e-05,1.0732705,0.0016725,6.950000000000012e-05,0.8939815,-0.4376104999999999,0.0136625,1.1262515,-0.3986105,-0.0088935,0.8889415,-0.7820905,-0.0008545,1.1282215,-0.7569805,-0.0015065,0
33,1.0028955,0.7303379999999999,0.0756,0.8564635,0.492898,0.067952,0.7604835,0.7371479999999999,0.032846,1.1497235,0.503498,0.061513,1.2445435,0.7448980000000001,0.023205,0.7384135000000001,0.959618,-0.014378,1.2797535,0.969718,-0.018394,0.9267565,-0.001786,-0.0002149999999999,1.0732435,0.0017859999999999,0.0002149999999999,0.8940835,-0.438642,0.013994,1.1263035,-0.400022,-0.008598,0.8892635,-0.7839320000000001,-0.000317,1.1288535,-0.758022,-0.000578,0
34,1.0029154999999998,0.7294025,0.0751199999999999,0.8565145000000001,0.4921025,0.068434,0.7627345,0.7376524999999999,0.038804,1.1490245,0.5034925,0.06229,1.2427845,0.7494225,0.029799,0.7409745,0.9624425,-0.0033629999999999,1.2765645,0.9729425,-0.0045919999999999,0.9267745,-0.0018875,-0.0003569999999999,1.0732255,0.0018875,0.0003569999999999,0.8942045,-0.4393575,0.014367,1.1263445,-0.4012875,-0.0083359999999999,0.8896345,-0.7854975000000001,0.0001869999999999,1.1294045,-0.7594975,0.000167,1
35,1.002886,0.728743,0.0748,0.856527,0.491343,0.06864,0.764547,0.738533,0.044487,1.148527,0.503383,0.0630479999999999,1.242687,0.753193,0.0347499999999999,0.7428170000000001,0.963333,0.0065729999999999,1.274217,0.975533,0.0085239999999999,0.926812,-0.0019879999999999,-0.000511,1.073188,0.001988,0.0005109999999999,0.894347,-0.439877,0.014743,1.126397,-0.402187,-0.008058,0.890247,-0.787017,0.0005219999999999,1.130127,-0.760707,0.0007429999999999,1
36,1.002841,0.7281985,0.0746095,0.856525,0.4905585,0.0688985,0.765995,0.7398485,0.0499075,1.148255,0.5032485,0.0638094999999999,1.242955,0.7569885,0.0397605,0.744335,0.9643885,0.0163965,1.272435,0.9776885,0.0205515,0.926864,-0.0020164999999999,-0.0006805,1.073136,0.0020165,0.0006805,0.894525,-0.4401215,0.0151125,1.126445,-0.4029815,-0.0077054999999999,0.890865,-0.7883215,0.0007185,1.130855,-0.7616515,0.0013225,1
37,1.002734,0.7278954999999999,0.0745055,0.856439,0.4898754999999999,0.0691805,0.767099,0.7404854999999999,0.0548475,1.148099,0.5033255,0.0646055,1.243169,0.7588054999999999,0.0444865,0.7452989999999999,0.9656655,0.0250195,1.271509,0.9793655,0.0296365,0.92692,-0.0020565,-0.0008134999999999,1.07308,0.0020565,0.0008135,0.8946890000000001,-0.4402045,0.0154405,1.126509,-0.4037044999999999,-0.0073114999999999,0.891459,-0.7892945,0.0008895,1.131309,-0.7636845,0.0014875,1
38,1.0026235,0.7276085,0.074408,0.8562145000000001,0.4892684999999999,0.0694849999999999,0.7672445000000001,0.7402385,0.058259,1.1480745,0.5033885,0.0655,1.2434645,0.7621085000000001,0.048608,0.7456745,0.9666585,0.0325429999999999,1.2712645,0.9801585000000002,0.037166,0.9269755,-0.0021104999999999,-0.000914,1.0730244999999998,0.0021105,0.0009139999999999,0.8948445,-0.4403515,0.015778,1.1265845,-0.4042615,-0.006935,0.8922645000000001,-0.7901014999999999,0.0010859999999999,1.1317645,-0.7653915,0.0016779999999999,1
39,1.002492,0.727259,0.0744345,0.855772,0.4889189999999999,0.0697385,0.7673719999999999,0.740139,0.0614195,1.148072,0.5037090000000001,0.0663135,1.243612,0.7648090000000001,0.0520835,0.745992,0.967509,0.0390705,1.271552,0.980909,0.0431035,0.927022,-0.0021149999999999,-0.0011005,1.072978,0.0021149999999999,0.0011005,0.8949920000000001,-0.440361,0.0160915,1.126702,-0.404411,-0.0066044999999999,0.892642,-0.7904509999999999,0.0012124999999999,1.132172,-0.766521,0.0017935,1
40,1.0025119999999998,0.7271544999999999,0.074359,0.855334,0.4885744999999999,0.070029,0.767484,0.7400844999999999,0.063601,1.148094,0.5039745,0.066834,1.244144,0.7661844999999999,0.054319,0.746264,0.9688645,0.044016,1.271764,0.9814645,0.047003,0.927072,-0.0021264999999999,-0.001201,1.072928,0.0021265,0.001201,0.895004,-0.4403255,0.016391,1.126694,-0.4045355,-0.0062249999999999,0.892674,-0.7907955,0.0017399999999999,1.132394,-0.7662255,0.002363,1
41,1.002527,0.7270530000000001,0.074291,0.855204,0.4882229999999999,0.070244,0.767164,0.741793,0.06454,1.148104,0.5042530000000001,0.067281,1.244704,0.767203,0.055481,0.746124,0.968913,0.045123,1.271774,0.982013,0.047356,0.927116,-0.002144,-0.0012999999999999,1.072884,0.002144,0.0013,0.895004,-0.440297,0.016642,1.126704,-0.404717,-0.0058999999999999,0.892934,-0.7911469999999999,0.002087,1.132814,-0.766787,0.002428,1
42,1.0025145,0.727085,0.0742335,0.8551305,0.4880649999999999,0.0704684999999999,0.7666605,0.743905,0.0651435,1.1483305,0.504685,0.0676185,1.2453505,0.767475,0.0557405,0.7456505,0.969055,0.0458215,1.2717505,0.982455,0.0476145,0.9271415,-0.002145,-0.0013935,1.0728585,0.002145,0.0013934999999999,0.8949805,-0.4403149999999999,0.0167744999999999,1.1266805,-0.4047349999999999,-0.0056954999999999,0.8932105,-0.791115,0.0024234999999999,1.1331004999999998,-0.767165,0.0024554999999999,1
43,1.0025105,0.7270960000000001,0.0737975,0.8550105,0.4879959999999999,0.0704704999999999,0.7660205,0.745556,0.0655034999999999,1.1485705,0.5051760000000001,0.0680325,1.2463605,0.767036,0.0559675,0.7447305,0.968566,0.0461565,1.2724805,0.981366,0.0478575,0.9271565,-0.002126,-0.0014704999999999,1.0728435,0.0021259999999999,0.0014704999999999,0.8948605000000001,-0.440594,0.0168994999999999,1.1266305,-0.405024,-0.0054885,0.8932505,-0.791484,0.0025265,1.1331105,-0.768834,0.0024134999999999,1
44,1.002476,0.727571,0.0731044999999999,0.854825,0.488221,0.0703535,0.764935,0.747081,0.0656995,1.148785,0.505621,0.0683385,1.247675,0.766431,0.0560294999999999,0.743285,0.967971,0.0463745,1.274235,0.980171,0.0469205,0.927171,-0.0021149999999999,-0.0015285,1.072829,0.0021149999999999,0.0015284999999999,0.894725,-0.441009,0.0168835,1.126585,-0.405229,-0.0054485,0.893255,-0.791779,0.0025104999999999,1.133095,-0.770139,0.0022384999999999,1
45,1.002674,0.7279884999999999,0.0722115,0.8546200000000002,0.4883385,0.0701795,0.7639000000000001,0.7477685,0.0657585,1.14918,0.5060485,0.0684595,1.24938,0.7658784999999999,0.0559335,0.7416499999999999,0.9670785,0.0464665,1.27607,0.9788785,0.0454684999999999,0.927169,-0.0021154999999999,-0.0015284999999999,1.072831,0.0021154999999999,0.0015284999999999,0.8943800000000001,-0.4414615,0.0166865,1.12635,-0.4059014999999999,-0.0055354999999999,0.89312,-0.7921215,0.0024764999999999,1.13306,-0.7717215000000001,0.0020895,1
46,1.002782,0.728507,0.071267,0.8544230000000002,0.488607,0.070051,0.7628429999999999,0.747787,0.065818,1.149653,0.506447,0.06854,1.250933,0.765257,0.055278,0.7397929999999999,0.966297,0.046446,1.277803,0.977697,0.043015,0.927162,-0.0021419999999999,-0.0015279999999999,1.072838,0.002142,0.001528,0.8940330000000001,-0.441863,0.016453,1.126113,-0.406983,-0.0056229999999999,0.892933,-0.792553,0.002082,1.132843,-0.772873,0.00201,1
47,1.002847,0.729142,0.070277,0.854221,0.489012,0.069945,0.761761,0.747582,0.065485,1.150091,0.507032,0.068608,1.252331,0.764942,0.054099,0.737771,0.965512,0.045767,1.279431,0.976312,0.039844,0.92715,-0.0021919999999999,-0.0015279999999999,1.07285,0.0021919999999999,0.001528,0.893681,-0.442588,0.016157,1.125821,-0.408068,-0.005752,0.892641,-0.7931779999999999,0.0016989999999999,1.132631,-0.774298,0.001908,1
48,1.0028685,0.7299545,0.0690395,0.8540715,0.4896144999999999,0.0696935,0.7606015,0.7480245,0.0646355,1.1505015,0.5077845,0.0684905,1.2536815,0.7647145,0.0519914999999999,0.7355815,0.9646945,0.0438205,1.2810015,0.9748945,0.0354055,0.9271535,-0.0022065,-0.0014524999999999,1.0728465,0.0022065,0.0014524999999999,0.8932915000000001,-0.4433055,0.0154505,1.1254715,-0.4090855,-0.0061974999999999,0.8926715000000001,-0.7936155,0.0015475,1.1325315,-0.7763255,0.0014624999999999,1
49,1.0028685,0.7309715,0.067047,0.8539325,0.4905015,0.068914,0.7593925,0.7485315,0.0629089999999999,1.1509225,0.5087515,0.067799,1.2550125,0.7640615,0.048492,0.7333225,0.9639415,0.040603,1.2826125,0.9734415,0.029236,0.9271515,-0.0021745,-0.0013239999999999,1.0728485,0.0021744999999999,0.001324,0.8928825,-0.4439585,0.013656,1.1251125,-0.4099585,-0.0074889999999999,0.8926625,-0.7940485,0.000852,1.1325325,-0.7771485,0.000418,1
50,1.0027885,0.7321234999999999,0.0646515,0.8537715000000001,0.4917435,0.0678475,0.7583515000000001,0.7483335,0.0607555,1.1512915,0.5100735000000001,0.0666085,1.2560915,0.7638134999999999,0.0443855,0.7313115,0.9637435,0.0366245,1.2840915,0.9724435,0.0224025,0.9271495,-0.0020744999999999,-0.0011234999999999,1.0728505,0.0020745,0.0011235,0.8923615,-0.4442264999999999,0.0111355,1.1247715,-0.4105465,-0.0092374999999999,0.8923315,-0.7941164999999999,-0.0002104999999999,1.1325115,-0.7773464999999999,-0.0007984999999999,1
51,1.0027025,0.7329334999999999,0.0618445,0.8536005,0.4930535,0.0664685,0.7570304999999999,0.7483335,0.0578464999999999,1.1515805,0.5113335000000001,0.0650905,1.2569805,0.7637535,0.0396245,0.7291305,0.9635435,0.0317645,1.2854804999999998,0.9715435,0.0148125,0.9271085,-0.0020744999999999,-0.0008785,1.0728915,0.0020745,0.0008785,0.8917505,-0.4443265,0.0079005,1.1243805,-0.4112665,-0.0115124999999999,0.8921305,-0.7941164999999999,-0.0019004999999999,1.1325005,-0.7773464999999999,-0.0023224999999999,1
52,1.0026195,0.7329334999999999,0.05898,0.8534005,0.4930535,0.064728,0.7558205,0.7483335,0.0548629999999999,1.1517105,0.5113335000000001,0.063224,1.2567805,0.7634434999999999,0.034669,0.7269205000000001,0.9631435000000002,0.026576,1.2862905,0.9696435,0.0070969999999999,0.9270665,-0.0020744999999999,-0.000663,1.0729335,0.0020745,0.000663,0.8913405000000001,-0.4447865,0.0036489999999999,1.1242905,-0.4125965,-0.014527,0.8919305,-0.7941164999999999,-0.004334,1.1325905,-0.7773965,-0.004767,1
53,1.002491,0.7329334999999999,0.0555574999999999,0.853185,0.4930535,0.0625465,0.7545950000000001,0.7482035,0.0510345,1.151795,0.5113335000000001,0.0610254999999999,1.256535,0.7630135,0.0289464999999999,0.724685,0.9629435,0.0203564999999999,1.2867449999999998,0.9677435,-0.0013255,0.927015,-0.0020744999999999,-0.0005535,1.072985,0.0020745,0.0005534999999999,0.890815,-0.4454165,-0.0014395,1.124155,-0.4141365,-0.0183075,0.891825,-0.7941164999999999,-0.0074795,1.132725,-0.7775665,-0.0076235,1
54,1.0023354999999998,0.733019,0.051948,0.8529335,0.493139,0.059864,0.7534335,0.747339,0.046793,1.1517434999999998,0.5114190000000001,0.058448,1.2562735,0.762219,0.022577,0.7226235000000001,0.962529,0.013592,1.2873435,0.965729,-0.0106219999999999,0.9269665,-0.002008,-0.0004079999999999,1.0730335,0.0020079999999999,0.000408,0.8901535,-0.445041,-0.0070459999999999,1.1239935,-0.415151,-0.0229889999999999,0.8917335,-0.794351,-0.0107979999999999,1.1329334999999998,-0.778471,-0.0112249999999999,1
55,1.001807,0.7335290000000001,0.0480045,0.852468,0.494529,0.0571375,0.752358,0.746489,0.0422785,1.151668,0.5128790000000001,0.0556975,1.256118,0.758189,0.0157325,0.7206980000000001,0.962159,0.0061485,1.287828,0.963659,-0.0206784999999999,0.926894,-0.001947,-0.0002694999999999,1.073106,0.001947,0.0002695,0.889178,-0.444731,-0.0133665,1.123808,-0.416431,-0.0286075,0.8916580000000001,-0.7941609999999999,-0.0154644999999999,1.133238,-0.7791110000000001,-0.0156125,1
56,1.0011454999999998,0.7327100000000001,0.0436725,0.8519345,0.49543,0.0542545,0.7513445,0.7446900000000001,0.0376014999999999,1.1516045,0.51431,0.0527305,1.2558545,0.7541500000000001,0.0088525,0.7188345,0.96138,-0.0013644999999999,1.2882645,0.96128,-0.0312905,0.9268255,-0.001908,-6.849999999999912e-05,1.0731745,0.001908,6.850000000000085e-05,0.8878145,-0.44356,-0.0207375,1.1239045,-0.4167,-0.0357015,0.8915545,-0.79323,-0.0204635,1.1330845,-0.77889,-0.0185154999999999,1
57,1.0004455,0.730512,0.0376849999999999,0.8521855,0.4958419999999999,0.05046,0.7499255,0.742542,0.029838,1.1515855,0.5132720000000001,0.047249,1.2557255,0.7488520000000001,-0.0015079999999999,0.7169155,0.961202,-0.01334,1.2885655,0.960402,-0.0475479999999999,0.9265955,-0.0016589999999999,0.000221,1.0734045,0.001659,-0.0002209999999999,0.8847355,-0.436918,-0.033823,1.1258955,-0.411638,-0.0487139999999999,0.8916855,-0.787018,-0.026586,1.1340955,-0.773878,-0.024844,1
58,1.0000295,0.7278445,0.031562,0.8525145000000001,0.4958444999999999,0.046575,0.7484645000000001,0.7405345000000001,0.021621,1.1515844999999998,0.5123445,0.041809,1.2556845,0.7439644999999999,-0.0121279999999999,0.7149945000000001,0.9584745,-0.025885,1.2888445,0.9601745,-0.063774,0.9263665,-0.0013655,0.0005539999999999,1.0736335,0.0013654999999999,-0.000554,0.8812045,-0.4280055,-0.047908,1.1285945,-0.4032055,-0.06173,0.8919945,-0.7780655000000001,-0.03201,1.1352045,-0.7642355000000001,-0.032028,1
59,0.9997415,0.724285,0.0251945,0.8529225,0.495575,0.0425815,0.7470325,0.738465,0.0128995,1.1516225,0.511105,0.0361085,1.2559425,0.738705,-0.0228804999999999,0.7132324999999999,0.956305,-0.0379955,1.2892625,0.960125,-0.0802385,0.9261105,-0.0009659999999999,0.0008414999999999,1.0738895,0.000966,-0.0008415,0.8777025,-0.417445,-0.0619665,1.1318325,-0.393115,-0.0745525,0.8922925,-0.766955,-0.0369515,1.1368325,-0.753485,-0.0389684999999999,1
60,0.999456,0.7207325,0.018129,0.853246,0.4944125,0.037284,0.745696,0.7362124999999999,0.003106,1.151536,0.5093325,0.029482,1.255806,0.7330425,-0.034541,0.711266,0.9523825,-0.051832,1.289486,0.9569625,-0.097941,0.925912,-0.0005834999999999,0.001134,1.074088,0.0005835,-0.001134,0.873756,-0.4036175,-0.077099,1.135986,-0.3806275,-0.087902,0.892586,-0.7523875,-0.041617,1.1401359999999998,-0.7384774999999999,-0.045142,1
61,0.9992,0.7162004999999999,0.0109425,0.853595,0.4933305,0.0320795,0.7445250000000001,0.7334004999999999,-0.0072134999999999,1.151575,0.5064504999999999,0.0227425,1.254895,0.7275505,-0.0463585,0.7093050000000001,0.9473205,-0.0657345,1.289635,0.9549505,-0.1150954999999999,0.925561,-0.0002935,0.0016065,1.074439,0.0002935,-0.0016064999999999,0.869645,-0.3887195,-0.0919035,1.140765,-0.3675595,-0.1012855,0.892815,-0.7364295000000001,-0.0453675,1.143375,-0.7233495000000001,-0.0510355,1
62,0.998822,0.7116895,0.00295,0.853665,0.4918195,0.025627,0.743355,0.7307895,-0.018698,1.1513749999999998,0.5034095,0.0148139999999999,1.253585,0.7221495,-0.059104,0.707395,0.9433795,-0.080198,1.289425,0.9500095,-0.1329999999999999,0.925334,0.0001815,0.001823,1.074666,-0.0001815,-0.001823,0.865085,-0.3725704999999999,-0.10772,1.146115,-0.3537404999999999,-0.11629,0.892455,-0.7192505,-0.0503949999999999,1.146205,-0.7072205,-0.056983,1
63,0.99831,0.7080249999999999,-0.0062555,0.853587,0.490615,0.0190455,0.7422870000000001,0.7284250000000001,-0.0308435,1.150457,0.5014350000000001,0.0071784999999999,1.252357,0.714785,-0.0725195,0.7059870000000001,0.939815,-0.0955005,1.288997,0.945085,-0.1505214999999999,0.925335,0.000532,0.0019805,1.074665,-0.0005319999999999,-0.0019804999999999,0.860027,-0.355945,-0.1243215,1.151647,-0.339555,-0.1313415,0.8921870000000001,-0.700915,-0.0553805,1.147247,-0.690175,-0.0627935,1
64,0.997788,0.7037385,-0.0153324999999999,0.853749,0.4881185,0.0109684999999999,0.740769,0.7251885,-0.0440585,1.149339,0.4969585,-0.0022205,1.251489,0.7095685,-0.0859325,0.7049990000000002,0.9335785,-0.1117445,1.2886689999999998,0.9418985,-0.1685545,0.925331,0.0010314999999999,0.0021035,1.074669,-0.0010314999999999,-0.0021035,0.854909,-0.3364515,-0.1419245,1.1580389999999998,-0.3228015,-0.1472445,0.891909,-0.6797615,-0.0600335,1.148219,-0.6709115,-0.0684495,1
65,0.9968165,0.7019175,-0.0276814999999999,0.8535915000000001,0.4880875,-0.0003005,0.7394015,0.7230475,-0.0606875,1.1479015,0.4949275,-0.0146655,1.2502715,0.7068975,-0.1025245,0.7036315,0.9284775,-0.1310295,1.2878715,0.9408475,-0.1899395,0.9251455,0.0012355,0.0026304999999999,1.0748544999999998,-0.0012355,-0.0026305,0.8494515,-0.3146425,-0.1618895,1.1637515,-0.3038725,-0.1655795,0.8912515,-0.6555925,-0.0673795,1.1483915,-0.6487125,-0.0771415,1
66,0.995726,0.70249,-0.041482,0.8533999999999999,0.48878,-0.012085,0.73813,0.71972,-0.077037,1.14667,0.4934199999999999,-0.026723,1.24846,0.70489,-0.117934,0.70226,0.92644,-0.149254,1.28718,0.93567,-0.207654,0.924806,0.0015399999999999,0.002767,1.075194,-0.0015399999999999,-0.002767,0.8446899999999999,-0.29382,-0.182614,1.16948,-0.28661,-0.184674,0.8907,-0.63202,-0.074302,1.14782,-0.62714,-0.08428,1
67,0.9943355,0.703065,-0.055212,0.8530504999999999,0.488415,-0.0251979999999999,0.7363305,0.720265,-0.093564,1.1450505,0.491985,-0.039995,1.2473105,0.704805,-0.133411,0.7003205,0.928985,-0.168181,1.2860005,0.933125,-0.225381,0.9243615,0.001485,0.003016,1.0756385,-0.0014849999999999,-0.0030159999999999,0.8395405,-0.271275,-0.202831,1.1741405,-0.268015,-0.204911,0.8899005,-0.606285,-0.0811639999999999,1.1470805,-0.6034849999999999,-0.090385,1
68,0.9930135,0.703295,-0.0684045,0.8529045,0.488305,-0.0381875,0.7343845,0.7180850000000001,-0.1105355,1.1433345,0.490145,-0.0529085,1.2460844999999998,0.701355,-0.1491684999999999,0.6986745,0.928615,-0.1883485,1.2845145,0.926205,-0.2436785,0.9239675,0.0014949999999999,0.0032955,1.0760325,-0.0014949999999999,-0.0032955,0.8343945,-0.248755,-0.2224384999999999,1.1784045,-0.249395,-0.2246685,0.8884645,-0.5795349999999999,-0.0870295,1.1461445,-0.5791649999999999,-0.0963955,1
69,0.9916785,0.70494,-0.082033,0.8524095,0.4880299999999999,-0.050322,0.7328295,0.71663,-0.126512,1.1418395,0.48826,-0.065101,1.2445195,0.69579,-0.163042,0.6973895,0.93072,-0.207322,1.2826595,0.92345,-0.260552,0.9236835,0.00153,0.003588,1.0763165,-0.00153,-0.003588,0.8289695000000001,-0.22807,-0.240622,1.1818295,-0.23077,-0.243722,0.8868195,-0.55367,-0.0917839999999999,1.1445595,-0.55577,-0.1018189999999999,1
70,0.990968,0.70312,-0.09569,0.85236,0.48627,-0.063665,0.73139,0.7150599999999999,-0.144722,1.14018,0.48653,-0.078096,1.2426,0.69221,-0.179552,0.69672,0.93231,-0.229152,1.2805,0.91599,-0.279692,0.923461,0.00156,0.0037699999999999,1.076539,-0.00156,-0.0037699999999999,0.82273,-0.20391,-0.258302,1.18448,-0.20909,-0.262842,0.88528,-0.5246500000000001,-0.096242,1.1427,-0.52862,-0.107838,1
71,0.9900885,0.70089,-0.11059,0.8522425,0.48485,-0.0776979999999999,0.7305325,0.7106699999999999,-0.164656,1.1381825,0.48426,-0.0921579999999999,1.2404225,0.68743,-0.1974459999999999,0.6961525,0.93105,-0.254306,1.2781325,0.90991,-0.301626,0.9233445,0.0013799999999999,0.004256,1.0766555,-0.00138,-0.0042559999999999,0.8154825,-0.17686,-0.275456,1.1871925,-0.18424,-0.281316,0.8827025,-0.49153,-0.101155,1.1406625,-0.50075,-0.1146499999999999,1
72,0.989271,0.69702,-0.12417,0.852046,0.48336,-0.0916299999999999,0.729636,0.70722,-0.18371,1.136166,0.48057,-0.1064799999999999,1.238526,0.68378,-0.21504,0.696196,0.9275,-0.27948,1.275586,0.90402,-0.32498,0.923275,0.00141,0.004629,1.076725,-0.00141,-0.004629,0.808126,-0.14904,-0.29104,1.189786,-0.15787,-0.29874,0.880106,-0.4576199999999999,-0.105831,1.138026,-0.47127,-0.1207,1
73,0.988409,0.69505,-0.1383105,0.852058,0.48222,-0.1045175,0.7288380000000001,0.70392,-0.2021615,1.134358,0.47831,-0.1193165,1.236578,0.68204,-0.2331115,0.6962480000000001,0.92758,-0.3039215,1.272778,0.8969499999999999,-0.3483015,0.923201,0.0013199999999999,0.0049524999999999,1.076799,-0.0013199999999999,-0.0049525,0.800588,-0.12151,-0.3048915,1.191668,-0.13161,-0.3149115,0.877318,-0.42489,-0.1099485,1.135288,-0.4428399999999999,-0.1263255,1
74,0.9880725,0.69025,-0.1477655,0.8527035000000001,0.4786,-0.1130585,0.7286435,0.69983,-0.2157755,1.1334035,0.47375,-0.1280385,1.2353335,0.67733,-0.2476355,0.6971435,0.92552,-0.3247255,1.2703935,0.8881600000000001,-0.3674155,0.9232225,0.00151,0.0054065,1.0767775,-0.0015099999999999,-0.0054065,0.7935734999999999,-0.0961799999999999,-0.3140355,1.1942435,-0.10707,-0.3260455,0.8758035,-0.39591,-0.1113365,1.1328935,-0.41515,-0.1277505,1
75,0.9879295,0.6866099999999999,-0.155372,0.8539654999999999,0.47508,-0.121565,0.7297454999999999,0.69634,-0.226952,1.1332455,0.47064,-0.136482,1.2353155,0.67415,-0.262582,0.6986654999999999,0.92058,-0.342992,1.2682655,0.88201,-0.385452,0.9229205,0.0015,0.0056619999999999,1.0770795,-0.0015,-0.005662,0.7874455,-0.0693,-0.316922,1.1954955,-0.0802399999999999,-0.331222,0.8740755,-0.36569,-0.112523,1.1306355,-0.3881699999999999,-0.1332269999999999,1
76,0.9890735,0.6801349999999999,-0.16217,0.8555735000000001,0.4727409999999999,-0.127974,0.7310935000000001,0.689315,-0.23685,1.1336335,0.466896,-0.143178,1.2361734999999998,0.665505,-0.27601,0.7006535,0.912095,-0.3585399999999999,1.2671135,0.867645,-0.40174,0.9226495,0.0018549999999999,0.0057419999999999,1.0773505,-0.0018549999999999,-0.005742,0.7816735,-0.0531949999999999,-0.31803,1.1973235,-0.0565849999999999,-0.33426,0.8727035,-0.339385,-0.113248,1.1289435,-0.3650549999999999,-0.138605,1
77,0.989494,0.6759850000000001,-0.168461,0.856173,0.471435,-0.133647,0.731983,0.6843250000000001,-0.244891,1.133313,0.464857,-0.149371,1.235913,0.662435,-0.287711,0.7015830000000001,0.907175,-0.372061,1.265033,0.859395,-0.415971,0.921967,0.0029049999999999,0.006093,1.078033,-0.0029049999999999,-0.006093,0.774613,-0.034165,-0.318391,1.199153,-0.037835,-0.339281,0.870973,-0.315945,-0.116115,1.126223,-0.3460449999999999,-0.14324,1
78,0.9900815,0.669635,-0.172813,0.8565015,0.4708,-0.138235,0.7324815,0.6792549999999999,-0.251913,1.1334115,0.4629999999999999,-0.1548729999999999,1.2356915,0.660315,-0.2994529999999999,0.7019015,0.901765,-0.384003,1.2632215,0.849915,-0.4295029999999999,0.9213585,0.0037649999999999,0.0068139999999999,1.0786415,-0.003765,-0.006814,0.7679914999999999,-0.018475,-0.317843,1.2002415,-0.020235,-0.3436329999999999,0.8692915,-0.294865,-0.11365,1.1247715,-0.328315,-0.147803,1
79,0.990064,0.667755,-0.176709,0.856444,0.4712959999999999,-0.141486,0.732534,0.6765749999999999,-0.255739,1.133474,0.461989,-0.1591989999999999,1.235724,0.655365,-0.307759,0.701784,0.8968449999999999,-0.392139,1.262064,0.844305,-0.440639,0.920866,0.0047149999999999,0.007565,1.079134,-0.004715,-0.0075649999999999,0.762104,-0.007205,-0.317069,1.201384,-0.006575,-0.347219,0.865804,-0.279175,-0.117545,1.123414,-0.3150550000000001,-0.152309,1
80,0.990313,0.666605,-0.179441,0.856473,0.471624,-0.1437709999999999,0.732063,0.676855,-0.257321,1.133823,0.4613629999999999,-0.162041,1.236313,0.651675,-0.314161,0.7015030000000001,0.8929849999999999,-0.396561,1.262063,0.8404849999999999,-0.449851,0.920387,0.0056449999999999,0.00835,1.079613,-0.005645,-0.00835,0.757413,0.0066549999999999,-0.316291,1.200323,0.0098149999999999,-0.349331,0.8636429999999999,-0.268595,-0.121606,1.122363,-0.300485,-0.156851,1
81,0.990806,0.667365,-0.1812875,0.856624,0.4715519999999999,-0.1452175,0.731494,0.678045,-0.2585075,1.134054,0.460933,-0.1639475,1.237154,0.649525,-0.3182775,0.7007939999999999,0.893195,-0.3986775,1.263234,0.8377749999999999,-0.4561575,0.919966,0.006525,0.0094315,1.080034,-0.006525,-0.0094315,0.753254,0.018475,-0.3151975,1.199164,0.0235449999999999,-0.3512075,0.861024,-0.2565849999999999,-0.1221734999999999,1.122264,-0.288915,-0.1611175,1
82,0.991367,0.668,-0.1814955,0.856588,0.47353,-0.1453955,0.7308680000000001,0.68018,-0.2591755,1.134548,0.463336,-0.1642755,1.238738,0.64767,-0.3201055,0.700148,0.89407,-0.3989055,1.265358,0.83662,-0.4591155,0.919742,0.00733,0.0105125,1.080258,-0.0073299999999999,-0.0105124999999999,0.749858,0.0260099999999999,-0.3134055,1.198128,0.0330699999999999,-0.3525655,0.858668,-0.24855,-0.1218475,1.122638,-0.2812599999999999,-0.1645455,1
83,0.99193,0.671255,-0.180188,0.856518,0.477088,-0.144278,0.7303379999999999,0.683555,-0.258138,1.134938,0.46662,-0.163078,1.239498,0.6485650000000001,-0.318498,0.6994279999999999,0.898105,-0.396898,1.267798,0.837915,-0.458548,0.919742,0.0081149999999999,0.0113269999999999,1.080258,-0.0081149999999999,-0.011327,0.7471380000000001,0.029135,-0.310958,1.196768,0.038895,-0.353608,0.8578080000000001,-0.243105,-0.116983,1.122348,-0.277145,-0.163568,1
84,0.99257,0.671255,-0.178564,0.8560220000000001,0.477088,-0.142594,0.729592,0.683555,-0.257194,1.134782,0.46662,-0.161414,1.239652,0.6485650000000001,-0.316854,0.6987220000000001,0.898105,-0.395204,1.270352,0.837915,-0.457034,0.920118,0.0081149999999999,0.01204,1.079882,-0.0081149999999999,-0.0120399999999999,0.745232,0.028105,-0.309064,1.195912,0.040965,-0.354604,0.858312,-0.2468749999999999,-0.117762,1.121642,-0.277145,-0.161934,1
85,0.9922365,0.671255,-0.178265,0.8556885,0.477088,-0.142295,0.7292585,0.683555,-0.256895,1.1344485,0.46662,-0.161115,1.2393185,0.6485650000000001,-0.316555,0.6983885000000001,0.898105,-0.3949049999999999,1.2716685,0.837915,-0.456825,0.9204615,0.0081149999999999,0.011895,1.0795385,-0.0081149999999999,-0.011895,0.7449085,0.028105,-0.3084949999999999,1.1955285,0.041685,-0.355125,0.8571085,-0.2468749999999999,-0.116592,1.1212985,-0.277145,-0.161835,1
86,0.992248,0.671255,-0.178105,0.8557,0.477088,-0.142135,0.72929,0.683555,-0.256315,1.1344599999999998,0.46662,-0.160955,1.23933,0.6485650000000001,-0.316395,0.6984600000000001,0.898105,-0.3937549999999999,1.27267,0.837915,-0.456725,0.92046,0.0081149999999999,0.0118269999999999,1.07954,-0.0081149999999999,-0.011827,0.74495,0.028105,-0.307875,1.1954,0.043595,-0.354955,0.85715,-0.2472749999999999,-0.118395,1.1213099999999998,-0.277145,-0.161675,1
87,0.992358,0.673705,-0.1761045,0.85574,0.481344,-0.1413645,0.7284200000000001,0.690835,-0.2553145,1.13452,0.471211,-0.1598244999999999,1.23945,0.649335,-0.3129945,0.6976900000000001,0.903985,-0.3908245,1.27284,0.841185,-0.4536145,0.92045,0.0087749999999999,0.0117075,1.07955,-0.0087749999999999,-0.0117074999999999,0.74497,0.0249449999999999,-0.3074945,1.19447,0.041835,-0.3546745,0.85717,-0.250675,-0.1199225,1.12067,-0.278155,-0.1578244999999999,1
88,0.9930425,0.6777599999999999,-0.1731944999999999,0.8561375,0.4837399999999999,-0.1390745,0.7280675,0.6944199999999999,-0.2524245,1.1351075,0.4748039999999999,-0.1567545,1.2399975,0.6535799999999999,-0.3073245,0.6972075,0.90939,-0.3855645,1.2737475,0.8473499999999999,-0.4481745,0.9210625,0.0086199999999999,0.0120125,1.0789375,-0.00862,-0.0120124999999999,0.7459875,0.0206799999999999,-0.3061844999999999,1.1918375,0.0318599999999999,-0.3537345,0.8579775000000001,-0.2620800000000001,-0.1196385,1.1201375,-0.2874000000000001,-0.1532945,1
89,0.9948825,0.67998,-0.168845,0.8574075,0.484488,-0.135905,0.7285874999999999,0.69974,-0.250415,1.1366175,0.476071,-0.152785,1.2420075,0.6553,-0.300345,0.6981775,0.91294,-0.379075,1.2764275,0.8492500000000001,-0.440135,0.9218625,0.0079,0.0119049999999999,1.0781375,-0.0079,-0.0119049999999999,0.7498775,0.0078599999999999,-0.305255,1.1876975,0.0190199999999999,-0.351485,0.8583175000000001,-0.2779799999999999,-0.118105,1.1206375,-0.3002999999999999,-0.150455,1
90,0.9965025,0.68378,-0.1640225,0.8585785000000001,0.48488,-0.1325195,0.7294085,0.7049300000000001,-0.2478125,1.1380085,0.477129,-0.1484125,1.2435185,0.65828,-0.2919024999999999,0.6996285,0.91837,-0.3721725,1.2791885,0.8559000000000001,-0.4307625,0.9227115,0.00732,0.0119645,1.0772885,-0.0073199999999999,-0.0119645,0.7540085000000001,-0.0056199999999999,-0.3041025,1.1829285,0.00574,-0.3482524999999999,0.8586585,-0.2948299999999999,-0.1164925,1.1210585,-0.3148799999999999,-0.1468825,1
91,0.99791,0.688265,-0.1579605,0.8592299999999999,0.48622,-0.1276975,0.7311099999999999,0.707635,-0.2423205,1.13908,0.479175,-0.1424005,1.24484,0.665175,-0.2814804999999999,0.70145,0.926725,-0.3629805,1.28149,0.866475,-0.4188405,0.92343,0.006585,0.0117714999999999,1.07657,-0.006585,-0.0117715,0.75875,-0.023175,-0.3026905,1.17737,-0.0130049999999999,-0.3441305,0.85816,-0.317685,-0.1144465,1.12147,-0.335605,-0.1424805,1
92,0.998814,0.693935,-0.147495,0.859846,0.489281,-0.119679,0.733306,0.714815,-0.229655,1.139896,0.483268,-0.132885,1.245596,0.674265,-0.264595,0.7038260000000001,0.934555,-0.3445149999999999,1.282956,0.877175,-0.395785,0.924094,0.005745,0.010744,1.075906,-0.005745,-0.010744,0.7640359999999999,-0.0525249999999999,-0.298145,1.171586,-0.0452949999999999,-0.336495,0.8579559999999999,-0.3503749999999999,-0.111496,1.121976,-0.372005,-0.137085,1
93,0.9994205,0.7008099999999999,-0.1361315,0.8603675,0.4927499999999999,-0.1105965,0.7360675,0.71933,-0.2151015,1.1406375,0.4874699999999999,-0.1222925,1.2459975,0.68404,-0.2470515,0.7065375,0.93987,-0.3229915,1.2834875,0.88601,-0.3709015,0.9247405,0.0050199999999999,0.0096625,1.0752595,-0.00502,-0.0096625,0.7694175,-0.08318,-0.2920915,1.1658675,-0.07958,-0.3276615,0.8583675,-0.388,-0.1121795,1.1224075,-0.40931,-0.1299415,1
94,1.00008,0.70628,-0.1238805,0.860754,0.49527,-0.1004715,0.738944,0.7239500000000001,-0.1976115,1.141214,0.48966,-0.1114925,1.246834,0.6925600000000001,-0.2289315,0.7095940000000001,0.94377,-0.2988515,1.284194,0.89648,-0.3444215,0.925338,0.00424,0.0087204999999999,1.074662,-0.0042399999999999,-0.0087205,0.775624,-0.1145899999999999,-0.2845415,1.160044,-0.1145399999999999,-0.3174315,0.860984,-0.42643,-0.1064385,1.122934,-0.4478099999999999,-0.1220585,1
95,1.0006375,0.712195,-0.1113635,0.8610225,0.495335,-0.0905565,0.7414625,0.7282150000000001,-0.1801785,1.1415325,0.490925,-0.1008435,1.2477825,0.699245,-0.2107985,0.7121725,0.954065,-0.2755185,1.2846625,0.905575,-0.3185885,0.9258945,0.003445,0.0077834999999999,1.0741055,-0.0034449999999999,-0.0077834999999999,0.7817925,-0.143955,-0.2769585,1.1541825,-0.147445,-0.3069185,0.8610925,-0.462315,-0.1002245,1.1232025,-0.485135,-0.1161525,1
96,1.00172,0.714105,-0.0983035,0.861531,0.496695,-0.0793895,0.744211,0.727225,-0.1614425,1.142991,0.493295,-0.0894235,1.249701,0.7014450000000001,-0.1910625,0.715131,0.958425,-0.2515525,1.285791,0.913965,-0.2921025,0.926092,0.002715,0.0068325,1.073908,-0.0027149999999999,-0.0068324999999999,0.789031,-0.1737749999999999,-0.2668325,1.148611,-0.180695,-0.2937125,0.864351,-0.5026249999999999,-0.0926985,1.123231,-0.523085,-0.1099805,1
97,1.0028035,0.719735,-0.0844305,0.8615615,0.500355,-0.0666275,0.7465115,0.731525,-0.1409194999999999,1.1443914999999998,0.495195,-0.0772355,1.2516915,0.7099549999999999,-0.1712294999999999,0.7176615,0.962395,-0.2252795,1.2869915,0.923715,-0.2648594999999999,0.9258425,0.0026049999999999,0.0055295,1.0741575,-0.0026049999999999,-0.0055295,0.7956215,-0.202925,-0.2515495,1.1430315,-0.212195,-0.2766695,0.8672415,-0.5428949999999999,-0.0822535,1.1228115,-0.560065,-0.1024165,1
98,1.003898,0.725515,-0.067984,0.861904,0.503035,-0.051168,0.748614,0.7342150000000001,-0.116628,1.145914,0.496955,-0.062195,1.253734,0.717665,-0.148998,0.719984,0.966305,-0.196308,1.288514,0.935085,-0.236318,0.926115,0.002135,0.003905,1.073885,-0.0021349999999999,-0.003905,0.801484,-0.2282549999999999,-0.230798,1.138904,-0.238495,-0.254858,0.868984,-0.580955,-0.072266,1.122454,-0.592095,-0.091043,1
99,1.0051435,0.72783,-0.050462,0.8623455,0.50484,-0.034484,0.7509355,0.73822,-0.0914089999999999,1.1475655,0.50162,-0.045048,1.2556955,0.72569,-0.126459,0.7221755000000001,0.96643,-0.166289,1.2908355,0.94087,-0.207039,0.9263975,0.0020599999999999,0.002403,1.0736025,-0.00206,-0.002403,0.8109855,-0.25829,-0.204079,1.1338055,-0.26927,-0.228359,0.8711154999999999,-0.61996,-0.057407,1.1218955,-0.62744,-0.075568,1
100,1.0065935,0.730377,-0.032415,0.8634364999999999,0.505067,-0.01801,0.7526965,0.742697,-0.067477,1.1494765,0.504767,-0.028287,1.2577465,0.731757,-0.104007,0.7243865,0.967217,-0.136597,1.2933365,0.945117,-0.176837,0.9266865,0.0019559999999999,0.002245,1.0733135,-0.0019559999999999,-0.002245,0.8204465000000001,-0.285463,-0.176547,1.1295265,-0.294563,-0.200757,0.8737365,-0.6543129999999999,-0.04589,1.1219165,-0.657103,-0.059248,1
101,1.008208,0.731243,-0.018942,0.864197,0.5057429999999999,-0.004858,0.7541869999999999,0.743803,-0.0507969999999999,1.151137,0.505933,-0.015423,1.259417,0.734873,-0.087977,0.7260270000000001,0.968383,-0.1162769999999999,1.295297,0.948913,-0.156407,0.927223,0.001908,0.002089,1.072777,-0.001908,-0.002089,0.8292270000000002,-0.307017,-0.152117,1.126217,-0.3138869999999999,-0.176747,0.875617,-0.6787270000000001,-0.034647,1.121947,-0.6779970000000001,-0.045505,1
102,1.0097995,0.7301475,-0.0060095,0.8649625,0.5055975,0.0074805,0.7554325,0.7457575,-0.0351095,1.1525725,0.5071975,-0.0031524999999999,1.2608825,0.7364075,-0.0727575,0.7275325,0.9696975,-0.0987175,1.2971425,0.9541175,-0.1373375,0.9277765,0.0016525,0.0019275,1.0722235,-0.0016524999999999,-0.0019274999999999,0.8381125,-0.3276024999999999,-0.1276275,1.1228525,-0.3320424999999999,-0.1526874999999999,0.8773124999999999,-0.7015825,-0.0236325,1.1220925,-0.6983125,-0.0326345,1
103,1.0118005,0.7299895,0.0062535,0.8659755,0.5050895,0.0189935,0.7566755000000001,0.7466495,-0.0213305,1.1542055,0.5077995,0.0084015,1.2626555,0.7382495,-0.0585544999999999,0.7292155,0.9704795,-0.0836345,1.2991655,0.9550895,-0.1208245,0.9281205,0.0014755,0.0016285,1.0718795,-0.0014755,-0.0016284999999999,0.8470155,-0.3473305,-0.1031445,1.1200555,-0.3492605,-0.1288844999999999,0.8793355,-0.7228305,-0.0129284999999999,1.1226855,-0.7173805,-0.0202725,1
104,1.013807,0.7282385,0.017511,0.8670450000000001,0.5053985,0.0303319999999999,0.758195,0.7467985,-0.0085,1.156005,0.5080085,0.019559,1.265005,0.7395484999999999,-0.045764,0.7311850000000001,0.9629085,-0.069244,1.301685,0.9544985,-0.105124,0.928341,0.0013934999999999,0.0013589999999999,1.071659,-0.0013935,-0.001359,0.856105,-0.3670415,-0.078704,1.117605,-0.3663615,-0.105214,0.883745,-0.7433815,0.0013609999999999,1.123515,-0.7361215,-0.0070049999999999,1
105,1.0157015,0.7289304999999999,0.0276165,0.8682525,0.5034004999999999,0.0400665,0.7594225,0.7492205,0.0028424999999999,1.1577825,0.5063004999999999,0.0296714999999999,1.2671225,0.7444005,-0.0350765,0.7330825000000001,0.9585305,-0.0559365,1.3040025,0.9525005,-0.0915265,0.9284055,0.0012055,0.0010855,1.0715945,-0.0012055,-0.0010855,0.8644425,-0.3836894999999999,-0.0563064999999999,1.1156525,-0.3811294999999999,-0.0835765,0.8876125,-0.7603095000000001,0.0142074999999999,1.1248125,-0.7528595,0.0046124999999999,1
106,1.0168285,0.727308,0.0357325,0.8691915,0.500988,0.0472255,0.7599215,0.749288,0.0106545,1.1592615,0.505708,0.0378695,1.2687415,0.742598,-0.0258184999999999,0.7344515,0.956438,-0.0467074999999999,1.3055415,0.950658,-0.0801274999999999,0.9282515,0.001166,0.0011765,1.0717485,-0.0011659999999999,-0.0011764999999999,0.8718615000000001,-0.394222,-0.0378474999999999,1.1152415,-0.390712,-0.0654275,0.8910515,-0.770912,0.0245865,1.1263015,-0.763402,0.0141145,1
107,1.0174409999999998,0.7261755000000001,0.0394839999999999,0.869424,0.5000555,0.0505449999999999,0.759744,0.7499355,0.0138809999999999,1.160234,0.5063755,0.0418369999999999,1.269894,0.7424255000000001,-0.020996,0.735274,0.9551555,-0.042281,1.306394,0.9495555,-0.073681,0.927774,0.0012015,0.0013259999999999,1.072226,-0.0012015,-0.001326,0.878704,-0.4032044999999999,-0.024419,1.114924,-0.3989445,-0.051831,0.893834,-0.7801445,0.0300879999999999,1.127204,-0.7723745,0.0188689999999999,1
108,1.0174265,0.7276305,0.042126,0.8690614999999999,0.5006305,0.0525599999999999,0.7593814999999999,0.7492004999999999,0.0158019999999999,1.1605115,0.5045605,0.043697,1.2704215,0.7420905,-0.0172039999999999,0.7356914999999999,0.9557805,-0.0391689999999999,1.3067215,0.9493805,-0.068579,0.9276375,0.0008505,0.001334,1.0723625,-0.0008504999999999,-0.001334,0.8814715,-0.4092295,-0.016616,1.1157515,-0.4027095,-0.042769,0.8944515,-0.7866095,0.031421,1.1273715,-0.7774195,0.019615,1
109,1.0167955,0.727952,0.0445675,0.8683935,0.5018320000000001,0.0546815,0.7590435,0.748652,0.0178805,1.1607235,0.503182,0.0456015,1.2698935,0.7411420000000001,-0.0134644999999999,0.7356435,0.954082,-0.0365744999999999,1.3064935,0.947382,-0.0643745,0.9275565,0.000633,0.0013385,1.0724435,-0.000633,-0.0013384999999999,0.8840835,-0.415108,-0.0084284999999999,1.1163835,-0.407208,-0.0334144999999999,0.8948335000000001,-0.791928,0.0328515,1.1275335,-0.782098,0.0205945,1
110,1.0160144999999998,0.7281525,0.0470405,0.8677535000000001,0.5006125,0.0564075,0.7588135,0.7468925000000001,0.0199945,1.1608234999999998,0.5019125,0.0472985,1.2692935,0.7405825,-0.0099344999999999,0.7354735,0.9529825,-0.0342045,1.3062435,0.9451825,-0.0601144999999999,0.9275565,0.0003834999999999,0.0013385,1.0724435,-0.0003835,-0.0013384999999999,0.8864335,-0.4197475,0.0001325,1.1169335,-0.4105075,-0.0237534999999999,0.8950635,-0.7954574999999999,0.0339865,1.1275635,-0.7853975,0.0226095,1
111,1.0150845,0.7281785000000001,0.0491474999999999,0.8670705,0.4998885,0.0576824999999999,0.7585505,0.7453585,0.0217114999999999,1.1602505,0.5005285,0.0483704999999999,1.2688505,0.7402085,-0.0068485,0.7352704999999999,0.9522885,-0.0324125,1.3060105,0.9426885,-0.0563125,0.9275435,0.0001905,0.0011034999999999,1.0724565,-0.0001904999999999,-0.0011035,0.8884805,-0.4231015,0.0078474999999999,1.1178505,-0.4115315,-0.0145965,0.8951705000000001,-0.7980514999999999,0.0345554999999999,1.1280105,-0.7879915,0.0241354999999999,1
112,1.014129,0.727887,0.0503555,0.866579,0.4994069999999999,0.0581045,0.7582090000000001,0.744397,0.0227455,1.159779,0.500027,0.0489735,1.268549,0.740277,-0.0043274999999999,0.734989,0.952087,-0.0314325,1.305889,0.941187,-0.0531625,0.927523,1.0999999999997123e-05,0.0007415,1.072477,-1.0999999999997123e-05,-0.0007414999999999,0.890249,-0.425233,0.0140395,1.119059,-0.411463,-0.0071364999999999,0.895209,-0.799563,0.0346585,1.128189,-0.789493,0.0254005,1
113,1.012835,0.727395,0.0512129999999999,0.865814,0.4993049999999999,0.058383,0.757444,0.744075,0.0232539999999999,1.159004,0.499955,0.0498109999999999,1.267984,0.7405949999999999,-0.002644,0.734314,0.952575,-0.031163,1.305464,0.940475,-0.050937,0.92742,-0.000229,0.0004359999999999,1.07258,0.0002289999999999,-0.000436,0.8914940000000001,-0.426765,0.019648,1.120094,-0.411095,-0.000908,0.894974,-0.8002750000000001,0.0343129999999999,1.128034,-0.7892349999999999,0.027537,1
114,1.011469,0.7270684999999999,0.0515905,0.864968,0.4993184999999999,0.0584575,0.756488,0.7440484999999999,0.0233625,1.158268,0.4999984999999999,0.0504205,1.267408,0.7410285000000001,-0.0014774999999999,0.733438,0.9522484999999998,-0.0314064999999999,1.305008,0.9398485,-0.0493064999999999,0.927264,-0.0004075,4.350000000000187e-05,1.072736,0.0004074999999999,-4.349999999998799e-05,0.892538,-0.4279115,0.0244575,1.121178,-0.4102715,0.0043345,0.894648,-0.8005914999999999,0.0336185,1.127758,-0.7886115,0.0289845,1
115,1.0100845,0.7270684999999999,0.0515749999999999,0.8639745,0.4994584999999999,0.058352,0.7552745000000001,0.7442785000000001,0.0230159999999999,1.1573545,0.5003584999999999,0.0506179999999999,1.2666545,0.7412684999999999,-0.0010819999999999,0.7322545,0.9522484999999998,-0.03209,1.3043945,0.9397485,-0.049492,0.9270695,-0.0004075,-0.00041,1.0729305,0.0004074999999999,0.0004099999999999,0.8930045,-0.4284215,0.0277959999999999,1.1219745,-0.4092915,0.007888,0.8942345,-0.8004315,0.032192,1.1272245,-0.7877415000000001,0.0301149999999999,1
116,1.008777,0.7270684999999999,0.0512595,0.863143,0.4994685,0.0578935,0.753993,0.7445085,0.0225285,1.156453,0.5006885000000001,0.0506285,1.265903,0.7413185,-0.0010564999999999,0.7309129999999999,0.9522484999999998,-0.0330144999999999,1.303773,0.9395485,-0.0498955,0.926852,-0.0004075,-0.0007855,1.073148,0.0004074999999999,0.0007855,0.893293,-0.4290515,0.0304985,1.1225729999999998,-0.4083415,0.0105535,0.8938429999999999,-0.8002615,0.0306525,1.126693,-0.7869014999999999,0.0309765,1
117,1.0075675,0.7269684999999999,0.0508925,0.8623235000000001,0.4994685,0.0577125,0.7527135,0.7447585000000001,0.0218355,1.1556335,0.5009185,0.0505955,1.2652035,0.7413285000000001,-0.0013055,0.7290635000000001,0.9520485,-0.0334995,1.3031235,0.9395485,-0.0505775,0.9266425,-0.0004075,-0.0011395,1.0733575,0.0004074999999999,0.0011395,0.8934835000000001,-0.4298115,0.0325125,1.1230235,-0.4073015,0.0122735,0.8934735,-0.8000915,0.0289525,1.1261635,-0.7862515000000001,0.0316614999999999,1
118,1.0066855,0.726654,0.0502795,0.8616975,0.499594,0.0575365,0.7516675000000002,0.745024,0.0209284999999999,1.1549575,0.501174,0.0506664999999999,1.2646175,0.741584,-0.0019945,0.7274175,0.951704,-0.0343715,1.3025675,0.939804,-0.0517365,0.9264965,-0.0006009999999999,-0.0014225,1.0735035,0.000601,0.0014225,0.8934075000000001,-0.430246,0.0337465,1.1232375,-0.406426,0.0131225,0.8930275,-0.799636,0.0270925,1.1257575,-0.785496,0.0319765,1
119,1.0062655,0.7261895,0.0496685,0.8614815,0.4996995,0.0575965,0.7509715000000001,0.7450695,0.0201885,1.1546815,0.5011095000000001,0.0509065,1.2644315,0.7417995,-0.0028304999999999,0.7261415,0.9511895,-0.0351684999999999,1.3023115,0.9399895,-0.0537595,0.9264835,-0.0007564999999999,-0.0016474999999999,1.0735165,0.0007565,0.0016475,0.8934915000000001,-0.4306405,0.0339305,1.1236715,-0.4065805,0.0132885,0.8930315,-0.7995005,0.0252615,1.1257515,-0.7852105,0.0308235,1
120,1.0058595,0.725738,0.049065,0.8611525000000001,0.499788,0.0579919999999999,0.7502025000000001,0.745098,0.0194679999999999,1.1544225,0.5010680000000001,0.0513,1.2642325,0.742008,-0.0042,0.7245425,0.950268,-0.035936,1.3020325,0.940168,-0.055867,0.9264865,-0.0009289999999999,-0.001601,1.0735135,0.0009289999999999,0.0016009999999999,0.8934525000000001,-0.430792,0.0331039999999999,1.1238325,-0.406632,0.0126109999999999,0.8930425,-0.799472,0.0235079999999999,1.1257525,-0.784972,0.0295019999999999,1
121,1.0053599999999998,0.7252190000000001,0.047885,0.860629,0.499799,0.058714,0.749169,0.7453190000000001,0.019066,1.154139,0.5012490000000001,0.051544,1.264079,0.742239,-0.006212,0.7228289999999999,0.949619,-0.0371229999999999,1.301919,0.940319,-0.0578819999999999,0.926488,-0.001073,-0.001569,1.073512,0.0010729999999999,0.001569,0.893349,-0.430901,0.031363,1.123789,-0.406381,0.0117639999999999,0.8930490000000001,-0.799221,0.021494,1.125639,-0.784721,0.0274869999999999,1
122,1.0040825,0.7245875,0.0463349999999999,0.8591265000000001,0.4999575,0.0593999999999999,0.7469565,0.7455675,0.0191379999999999,1.1535165,0.5020175,0.0507659999999999,1.2632265,0.7421375,-0.007951,0.7193765,0.9484475,-0.038589,1.3006465,0.9407475,-0.059599,0.9264135,-0.0012405,-0.001404,1.0735865,0.0012404999999999,0.0014039999999999,0.8933565,-0.4305425,0.0295759999999999,1.1238365,-0.4053825,0.0107789999999999,0.8932265,-0.7987124999999999,0.0196979999999999,1.1258965,-0.7841325,0.0256859999999999,1
123,1.002902,0.723997,0.04546,0.857843,0.5004569999999999,0.060464,0.744553,0.7457370000000001,0.0199799999999999,1.153073,0.5027969999999999,0.049849,1.262513,0.741987,-0.0088519999999999,0.715873,0.947177,-0.039333,1.298593,0.9411770000000002,-0.061637,0.926413,-0.001399,-0.00107,1.073587,0.0013989999999999,0.00107,0.893523,-0.430243,0.0286249999999999,1.124313,-0.404743,0.0099259999999999,0.893753,-0.7982229999999999,0.018726,1.126563,-0.7839229999999999,0.024707,1
124,1.0016725,0.7236365,0.0451224999999999,0.8563585000000001,0.5010565,0.0618175,0.7411685,0.7452965,0.0212844999999999,1.1527585,0.5037065,0.0494605,1.2625285,0.7416165,-0.0098465,0.7121985,0.9458465,-0.0395325,1.2966485,0.9415465,-0.0649755,0.9263945,-0.0016045,-0.0006615,1.0736055,0.0016044999999999,0.0006614999999999,0.8940985,-0.4301035,0.0281854999999999,1.1255785,-0.4043035,0.0094474999999999,0.8951985000000001,-0.7978835,0.0182374999999999,1.1280185,-0.7847035,0.0241224999999999,1
125,1.000602,0.723361,0.0451714999999999,0.8548990000000001,0.5016510000000001,0.0628465,0.7375690000000001,0.743611,0.0229545,1.152879,0.504501,0.0494405,1.263489,0.741001,-0.0113115,0.7073389999999999,0.942331,-0.0392705,1.295109,0.941531,-0.0687585,0.926403,-0.001776,-0.0006504999999999,1.073597,0.0017759999999999,0.0006504999999999,0.895099,-0.429909,0.0272805,1.1272289999999998,-0.403949,0.0093424999999999,0.897499,-0.7975289999999999,0.0178515,1.130219,-0.786399,0.0224245,1
126,0.9993145,0.723017,0.044445,0.8523895,0.502577,0.0629889999999999,0.7304095000000002,0.738317,0.0247909999999999,1.1536295,0.504957,0.0487559999999999,1.2671895,0.737337,-0.015367,0.7024695000000001,0.937217,-0.039126,1.2932795,0.940237,-0.075787,0.9266205,-0.001922,-0.000663,1.0733795,0.001922,0.0006629999999999,0.8966995,-0.429903,0.0252429999999999,1.1296895,-0.404173,0.0092039999999999,0.9013595,-0.796813,0.0171299999999999,1.1340095,-0.787523,0.0207259999999999,1
127,0.998059,0.722917,0.043044,0.850757,0.5035470000000001,0.0631019999999999,0.723117,0.732047,0.026715,1.154827,0.505347,0.0474879999999999,1.270697,0.729947,-0.0199369999999999,0.6977070000000001,0.930897,-0.03904,1.291547,0.937607,-0.083674,0.926879,-0.0020109999999999,-0.000656,1.073121,0.0020109999999999,0.0006559999999999,0.8984570000000001,-0.429633,0.0225259999999999,1.132537,-0.404413,0.0085049999999999,0.905887,-0.7958029999999999,0.0161769999999999,1.138647,-0.7893629999999999,0.018524,0
128,0.996889,0.723406,0.0412335,0.84841,0.505136,0.0635905,0.71509,0.722766,0.0291585,1.15501,0.504966,0.0454215,1.27641,0.720356,-0.0251605,0.6931,0.922936,-0.0387305,1.28982,0.930446,-0.0931375,0.927117,-0.0021949999999999,-0.0003135,1.072883,0.002195,0.0003135,0.90094,-0.428844,0.0195885,1.13552,-0.404424,0.0070624999999999,0.91156,-0.7941640000000001,0.0154665,1.1445,-0.7902640000000001,0.0162965,0
129,0.9954675,0.724782,0.0393705,0.8459855000000001,0.506942,0.0651355,0.7045655,0.7097019999999999,0.0327505,1.1554355,0.504542,0.0433275,1.2834355,0.706152,-0.0330674999999999,0.6875155,0.908992,-0.0380195,1.2884955,0.915682,-0.1033244999999999,0.9275895,-0.0023149999999999,0.0003724999999999,1.0724105,0.002315,-0.0003724999999999,0.9043855,-0.427188,0.0169025,1.1372355,-0.404038,0.0023675,0.9196155,-0.791128,0.0160825,1.1527055,-0.789898,0.0153125,0
130,0.993848,0.7264145,0.0371854999999999,0.843834,0.5087645,0.0670125,0.693534,0.6944045,0.0358854999999999,1.155794,0.5037145,0.0411164999999999,1.290934,0.6869945,-0.0406195,0.682734,0.8927944999999999,-0.0367655,1.288184,0.8955645,-0.1145325,0.927974,-0.0024215,0.0009764999999999,1.072026,0.0024215,-0.0009765,0.908104,-0.4262555,0.0145984999999999,1.138994,-0.4032255,-0.0031455,0.929314,-0.7877255,0.0166394999999999,1.161324,-0.7889255000000001,0.0140644999999999,0
131,0.9925375,0.7285785,0.0347374999999999,0.8423525000000001,0.5098385,0.0689645,0.6826825000000001,0.6753585,0.0399324999999999,1.1564025,0.5023084999999999,0.0386974999999999,1.2988825,0.6652685,-0.0469425,0.6793525,0.8726484999999999,-0.0359645,1.2879825,0.8712584999999999,-0.1264925,0.9284125,-0.0024444999999999,0.0016744999999999,1.0715875,0.0024445,-0.0016745,0.9118325,-0.4258315,0.0128634999999999,1.1386075,-0.4029415,-0.0111475,0.9393625,-0.7838115,0.0174294999999999,1.1695825,-0.7871815,0.0127884999999999,0
132,0.991375,0.7311145000000001,0.032047,0.841304,0.5108245,0.070874,0.672194,0.6542745000000001,0.04443,1.156255,0.5005645000000001,0.035556,1.307874,0.6382045000000001,-0.0492429999999999,0.676364,0.8493945,-0.036744,1.288564,0.8411245,-0.1381129999999999,0.928854,-0.0025065,0.002286,1.071146,0.0025065,-0.0022859999999999,0.918574,-0.4239655,0.01181,1.137009,-0.4011655,-0.0205729999999999,0.950044,-0.7788055,0.017928,1.176794,-0.7821754999999999,0.008549,0
133,0.9900555,0.733766,0.0289834999999999,0.8417805,0.511056,0.0729215,0.6648704999999999,0.624036,0.0502325,1.1567155,0.498926,0.0322154999999999,1.3161205,0.601126,-0.0483385,0.6753505,0.814636,-0.0386325,1.2899205,0.797746,-0.1511285,0.9292105,-0.0025909999999999,0.0029734999999999,1.0707894999999998,0.002591,-0.0029735,0.9270605,-0.420724,0.0119955,1.1317245,-0.397074,-0.0331655,0.9624105,-0.772304,0.0195894999999999,1.1767105,-0.775674,-0.0008734999999999,0
134,0.988509,0.7363935,0.0259865,0.84253,0.5105335,0.0747695,0.66113,0.5890035,0.0562985,1.156646,0.4970034999999999,0.0288425,1.32205,0.5605735,-0.0463614999999999,0.67477,0.7748435,-0.0410914999999999,1.29121,0.7475235,-0.1650015,0.92959,-0.0026265,0.0038315,1.07041,0.0026265,-0.0038314999999999,0.93456,-0.4142865,0.0129945,1.123852,-0.3916565,-0.0470214999999999,0.97463,-0.7658665,0.0203495,1.172068,-0.7692365,-0.0143924999999999,0
135,0.9870745,0.7390255,0.022243,0.8450745,0.5083955,0.075899,0.6657345,0.5484255,0.064035,1.1552295,0.4941455,0.02457,1.3217745,0.5167655,-0.0428609999999999,0.6767345,0.7240555000000001,-0.046911,1.2926045,0.6820655,-0.171941,0.9295145,-0.0025105,0.0045189999999999,1.0704855,0.0025104999999999,-0.0045189999999999,0.9435745,-0.4080844999999999,0.009536,1.1115015,-0.3854545,-0.069201,0.9855145,-0.7593645,0.0210189999999999,1.1584155,-0.7629345,-0.028891,0
136,0.98543,0.74166,0.017811,0.8468,0.5055999999999999,0.076408,0.67247,0.50624,0.07235,1.153404,0.491,0.019624,1.31861,0.47157,-0.0385279999999999,0.68016,0.66827,-0.0538879999999999,1.29361,0.60985,-0.175748,0.92956,-0.002403,0.005344,1.07044,0.002403,-0.005344,0.95325,-0.40181,0.0071579999999999,1.098115,-0.37918,-0.092668,0.99601,-0.75216,0.022161,1.141979,-0.75438,-0.0483879999999999,0
137,0.982611,0.743309,0.0124675,0.8487710000000002,0.501459,0.0759545,0.681611,0.463949,0.0805215,1.152283,0.488179,0.0148975,1.312411,0.427689,-0.0346594999999999,0.683801,0.607579,-0.0613795,1.293311,0.5351090000000001,-0.1760995,0.929571,-0.0021599999999999,0.0062955,1.070429,0.00216,-0.0062954999999999,0.952901,-0.394561,0.0052574999999999,1.083114,-0.373511,-0.1184494999999999,1.005441,-0.7454609999999999,0.0228905,1.11684,-0.746401,-0.0762595,0
138,0.979769,0.7439125,0.0071755,0.8510489999999999,0.4965225,0.0751725,0.693989,0.4220325,0.0883665,1.150741,0.4850225,0.0103165,1.301059,0.3876225,-0.0296065,0.689519,0.5473125,-0.0687464999999999,1.293079,0.4603525,-0.1732564999999999,0.929419,-0.0021875,0.0073165,1.0705809999999998,0.0021875,-0.0073165,0.951769,-0.3880774999999999,0.0037164999999999,1.069953,-0.3687175,-0.1392765,1.013099,-0.7398975,0.0236865,1.08331,-0.7373675,-0.1112064999999999,0
139,0.9766395,0.7439979999999999,0.0015329999999999,0.8534295000000001,0.490958,0.073832,0.7059395000000002,0.382118,0.096853,1.1493345,0.481928,0.005483,1.2879095,0.352558,-0.0241669999999999,0.6953395,0.486098,-0.0763669999999999,1.2888695,0.387988,-0.166707,0.9291895,-0.002448,0.0082969999999999,1.0708105,0.002448,-0.0082969999999999,0.9498395,-0.382312,0.0017429999999999,1.0564605,-0.3626319999999999,-0.158727,1.0211195,-0.734452,0.0310389999999999,1.0499595,-0.7271920000000001,-0.144427,0
140,0.9737825,0.7436834999999999,-0.0038549999999999,0.8560825,0.4855035,0.072108,0.7174425,0.3456835,0.106144,1.1474455,0.4787335,0.000195,1.2729525,0.3202435,-0.0171749999999999,0.7025224999999999,0.4254535,-0.082985,1.2847325,0.3167035,-0.156265,0.9287325,-0.0027854999999999,0.008825,1.0712674999999998,0.0027855,-0.008825,0.9471825,-0.3763264999999999,-0.0008849999999999,1.0447425,-0.3564865,-0.175195,1.0287025,-0.7287865,0.036236,1.0155824999999998,-0.7150165,-0.179255,0
141,0.97044,0.743388,-0.00963,0.8584,0.479388,0.0696479999999999,0.7275200000000002,0.312108,0.1129929999999999,1.146138,0.476288,-0.005,1.256056,0.291658,-0.00595,0.71052,0.364178,-0.08856,1.279113,0.2480379999999999,-0.1434,0.92833,-0.0030819999999999,0.0095799999999999,1.07167,0.0030819999999999,-0.00958,0.94305,-0.370292,-0.00439,1.03416,-0.349732,-0.18993,1.03616,-0.7236819999999999,0.0422949999999999,0.98186,-0.7034819999999999,-0.2103,0
142,0.967795,0.7429025,-0.01416,0.8598950000000001,0.4738225,0.067352,0.734615,0.2865625,0.119513,1.145605,0.4728825,-0.0087899999999999,1.242068,0.2717025,0.00481,0.7181550000000001,0.3136625,-0.0912399999999999,1.27176,0.1895125,-0.1291699999999999,0.927935,-0.0035905,0.0104499999999999,1.072065,0.0035905,-0.0104499999999999,0.948925,-0.3681175,-0.0023799999999999,1.026435,-0.3449575,-0.2014899999999999,1.047445,-0.7211675,0.0530599999999999,0.949845,-0.6936975,-0.23701,0
143,0.965105,0.743092,-0.01854,0.861115,0.4694219999999999,0.064801,0.743085,0.267922,0.125157,1.14516,0.4708619999999999,-0.01295,1.2292,0.256392,0.0156699999999999,0.726035,0.267182,-0.09132,1.264,0.138332,-0.11953,0.927515,-0.00378,0.0109799999999999,1.072485,0.0037799999999999,-0.01098,0.951655,-0.366128,-0.00206,1.0216649999999998,-0.339788,-0.21169,1.055615,-0.719238,0.062786,0.922295,-0.683458,-0.25762,0
144,0.96311,0.743151,-0.0201999999999999,0.8626,0.467201,0.06339,0.75314,0.259991,0.130203,1.145607,0.470771,-0.01527,1.222545,0.248801,0.0261599999999999,0.7338100000000001,0.233391,-0.08531,1.259179,0.105049,-0.1047599999999999,0.92735,-0.003839,0.0114299999999999,1.07265,0.0038389999999999,-0.0114299999999999,0.95083,-0.366069,0.0081199999999999,1.01924,-0.335379,-0.21313,1.0653199999999998,-0.716029,0.078599,0.90598,-0.674849,-0.27107,0
145,0.9608,0.7433145,-0.0211449999999999,0.86394,0.4657945,0.063055,0.76726,0.2557145,0.130043,1.145257,0.4709345,-0.0172049999999999,1.218429,0.2481745,0.034485,0.73889,0.2064744999999999,-0.0819149999999999,1.255314,0.0819825,-0.0847649999999999,0.9274,-0.0040025,0.012085,1.0726,0.0040024999999999,-0.0120849999999999,0.94937,-0.3659055,0.019955,1.0174599999999998,-0.3331955,-0.212835,1.07668,-0.7130255,0.095185,0.8935500000000001,-0.6669555,-0.2777949999999999,0
146,0.959355,0.7433655,-0.0205049999999999,0.865705,0.4645154999999999,0.0635449999999999,0.784805,0.2529455,0.130985,1.145395,0.4703954999999999,-0.0180049999999999,1.216452,0.2476355,0.0409849999999999,0.744475,0.1858455,-0.0763249999999999,1.254426,0.0666795,-0.0572349999999999,0.927485,-0.0045415,0.0126249999999999,1.072515,0.0045414999999999,-0.0126249999999999,0.954615,-0.3664445,0.037135,1.017825,-0.3332445,-0.205705,1.090145,-0.7106844999999999,0.113055,0.893605,-0.6594344999999999,-0.268925,0
147,0.95864,0.7442205,-0.02039,0.86838,0.4637805,0.06424,0.80229,0.2511105,0.13269,1.14636,0.4696605,-0.01937,1.217703,0.2469005,0.04275,0.7486600000000001,0.1712505,-0.0748699999999999,1.254887,0.0608435,-0.0343399999999999,0.92793,-0.0052765,0.0130099999999999,1.07207,0.0052765,-0.0130099999999999,0.96641,-0.3647895,0.06338,1.02056,-0.3339795,-0.19705,1.10084,-0.7085295,0.12784,0.90328,-0.6545095,-0.25063,0
148,0.95814,0.745348,-0.0194749999999999,0.87024,0.462788,0.065465,0.81704,0.249968,0.132575,1.14749,0.4694879999999999,-0.019845,1.219739,0.245908,0.042555,0.75273,0.161048,-0.0719349999999999,1.258699,0.059851,-0.0171549999999999,0.92864,-0.006135,0.013915,1.07136,0.006135,-0.013915,0.97896,-0.361802,0.089135,1.02447,-0.334972,-0.188195,1.1058,-0.7064119999999999,0.137345,0.91368,-0.650192,-0.2314349999999999,0
149,0.95718,0.7469125,-0.0184599999999999,0.87148,0.4616225,0.0666499999999999,0.8250700000000001,0.2485325,0.12635,1.14888,0.4700225,-0.0194599999999999,1.222519,0.2457325,0.04171,0.75421,0.1539525,-0.06974,1.263253,0.0586855,-0.0044199999999999,0.92958,-0.0070504999999999,0.0157599999999999,1.07042,0.0070504999999999,-0.0157599999999999,0.9907700000000002,-0.3629675,0.1060899999999999,1.02627,-0.3361375,-0.1780399999999999,1.10762,-0.7039575,0.14633,0.92551,-0.6486175,-0.2080999999999999,0
150,0.95565,0.748155,-0.01721,0.87215,0.460605,0.0681,0.82883,0.2480049999999999,0.12176,1.15014,0.470975,-0.0183699999999999,1.2255699999999998,0.247265,0.04051,0.75343,0.150455,-0.0681399999999999,1.268649,0.056828,0.00025,0.93009,-0.007306,0.0168699999999999,1.06991,0.007306,-0.0168699999999999,0.99761,-0.364825,0.1238,1.0282399999999998,-0.338165,-0.16652,1.1037899999999998,-0.699355,0.15602,0.93821,-0.6470349999999999,-0.18401,0
151,0.952915,0.74937,-0.016515,0.871335,0.46018,0.0687749999999999,0.829745,0.2467099999999999,0.116765,1.1491049999999998,0.47242,-0.018625,1.2271649999999998,0.2493199999999999,0.0375449999999999,0.750255,0.1448799999999999,-0.067975,1.274019,0.054751,-0.002365,0.930735,-0.00732,0.017955,1.069265,0.00732,-0.017955,1.003135,-0.36712,0.139505,1.031825,-0.34114,-0.154145,1.0869049999999998,-0.69334,0.141855,0.956285,-0.64648,-0.157165,0
152,0.950005,0.750383,-0.01583,0.870465,0.459933,0.0691999999999999,0.828265,0.246833,0.10936,1.148115,0.474543,-0.01783,1.229415,0.2526529999999999,0.03538,0.746155,0.142113,-0.07173,1.278645,0.057563,-0.0104099999999999,0.931195,-0.0073609999999999,0.0189,1.068805,0.0073609999999999,-0.0188999999999999,0.997075,-0.365957,0.12322,1.035535,-0.344747,-0.14119,1.068145,-0.695237,0.12595,0.974465,-0.649247,-0.13078,0
153,0.94599,0.750784,-0.0171,0.86856,0.460424,0.0679099999999999,0.8243199999999999,0.247324,0.1009399999999999,1.1471999999999998,0.476554,-0.01705,1.23064,0.258294,0.0311499999999999,0.73951,0.1394039999999999,-0.07862,1.28074,0.064875,-0.02725,0.93148,-0.007395,0.0197299999999999,1.06852,0.007395,-0.01973,0.98637,-0.364766,0.1014699999999999,1.04137,-0.348536,-0.12795,1.0400999999999998,-0.6979460000000001,0.0995199999999999,0.98938,-0.6519560000000001,-0.10962,0
154,0.941425,0.7509979999999999,-0.0186899999999999,0.865595,0.460698,0.06364,0.8192650000000001,0.2477379999999999,0.09477,1.146505,0.479898,-0.0156299999999999,1.231895,0.265618,0.02685,0.731835,0.1375279999999999,-0.0850699999999999,1.282045,0.077431,-0.0490299999999999,0.931385,-0.007227,0.0198,1.068615,0.007227,-0.0197999999999999,0.974135,-0.362652,0.07646,1.048695,-0.351022,-0.11324,1.006205,-0.701972,0.0674,1.004305,-0.6521520000000001,-0.0880499999999999,0
155,0.93623,0.7511895,-0.020965,0.8630800000000001,0.4614195,0.060145,0.8133000000000001,0.2490495,0.087015,1.14553,0.4823595,-0.0146049999999999,1.23293,0.2729895,0.022785,0.72289,0.1387795,-0.0930449999999999,1.27993,0.0902035,-0.073155,0.93135,-0.0066805,0.0198249999999999,1.06865,0.0066805,-0.0198249999999999,0.9596,-0.3590305,0.048495,1.05519,-0.3514505,-0.101675,0.96778,-0.7042905,0.0338249999999999,1.01578,-0.6514705000000001,-0.071495,0
156,0.929915,0.751225,-0.022615,0.860365,0.4615749999999999,0.0581849999999999,0.8052250000000001,0.250015,0.078525,1.144895,0.4841249999999999,-0.0111249999999999,1.232295,0.279215,0.0204449999999999,0.715355,0.138915,-0.097325,1.277245,0.102045,-0.089665,0.930795,-0.006135,0.019355,1.069205,0.006135,-0.019355,0.942635,-0.355655,0.024175,1.058895,-0.352865,-0.0918449999999999,0.932295,-0.706565,0.0021249999999999,1.024635,-0.650945,-0.0564149999999999,0
157,0.923455,0.7508269999999999,-0.024205,0.855485,0.461757,0.053455,0.795945,0.250387,0.070985,1.1409349999999998,0.485607,-0.0099249999999999,1.2310949999999998,0.284297,0.0197249999999999,0.7074849999999999,0.141227,-0.1009949999999999,1.2741749999999998,0.1113369999999999,-0.1012349999999999,0.930055,-0.005571,0.018265,1.069945,0.0055709999999999,-0.0182649999999999,0.923095,-0.349883,-0.005695,1.062485,-0.353803,-0.0818649999999999,0.902695,-0.707423,-0.022915,1.034515,-0.6510630000000001,-0.0404149999999999,0
158,0.91683,0.7495655,-0.0265299999999999,0.8516700000000001,0.4614455,0.0494499999999999,0.7882700000000001,0.2513755,0.06575,1.13767,0.4870855,-0.00829,1.22966,0.2888055,0.0202999999999999,0.70025,0.1429355,-0.1023899999999999,1.27208,0.1179855,-0.1076,0.92919,-0.0052745,0.0164,1.0708099999999998,0.0052745,-0.0163999999999999,0.90429,-0.3445545,-0.03537,1.06826,-0.3553445,-0.07267,0.8737700000000002,-0.7089645,-0.0472299999999999,1.04399,-0.6521845000000001,-0.02471,0
159,0.9106,0.7482989999999999,-0.0286999999999999,0.84752,0.461599,0.0455599999999999,0.7802800000000001,0.252199,0.05953,1.13409,0.488669,-0.00651,1.22732,0.292719,0.02258,0.6956600000000002,0.1418589999999999,-0.10238,1.26998,0.122119,-0.10823,0.92864,-0.005265,0.01487,1.07136,0.005265,-0.01487,0.89053,-0.340101,-0.0660199999999999,1.07435,-0.3564509999999999,-0.0647799999999999,0.8504300000000001,-0.713321,-0.07159,1.0524,-0.653061,-0.0099399999999999,0
160,0.90496,0.7466714999999999,-0.030805,0.84442,0.4610915,0.0417449999999999,0.7731,0.2520615,0.0534849999999999,1.13104,0.4901415,-0.0043349999999999,1.22549,0.2945615,0.0263149999999999,0.69318,0.1406714999999999,-0.103715,1.26761,0.1224615,-0.103505,0.92807,-0.0054205,0.013085,1.07193,0.0054205,-0.013085,0.87816,-0.3368885,-0.096295,1.0804399999999998,-0.3565385,-0.057315,0.84006,-0.7161885,-0.073205,1.0609799999999998,-0.6543685,0.0044149999999999,0
161,0.8996250000000001,0.744761,-0.0328249999999999,0.841365,0.460671,0.038235,0.767795,0.252891,0.049995,1.127875,0.491631,-0.0023949999999999,1.222795,0.295171,0.030535,0.692455,0.139501,-0.1038649999999999,1.265355,0.121291,-0.094885,0.927655,-0.0055449999999999,0.011435,1.072345,0.005545,-0.0114349999999999,0.8785949999999999,-0.337679,-0.0933149999999999,1.089375,-0.356109,-0.0503349999999999,0.831565,-0.719149,-0.0740449999999999,1.069605,-0.655489,0.0175049999999999,0
162,0.893705,0.7423995,-0.0354749999999999,0.837705,0.4597995,0.0350950000000001,0.762445,0.2533695,0.046205,1.123795,0.4929894999999999,-0.0011649999999999,1.219175,0.2945995,0.036255,0.690195,0.1371595,-0.1066949999999999,1.262595,0.1197995,-0.082785,0.927515,-0.0058115,0.010095,1.072485,0.0058115,-0.0100949999999999,0.8798149999999999,-0.3391705,-0.0894149999999999,1.098815,-0.3556105,-0.0431549999999999,0.830255,-0.7264205,-0.0693949999999999,1.0787449999999998,-0.6568105,0.030925,0
163,0.88785,0.7400705,-0.0389,0.83448,0.4589505,0.0334999999999999,0.7597700000000001,0.2535205,0.0450399999999999,1.11868,0.4941305,-0.00114,1.21466,0.2939704999999999,0.04196,0.69126,0.1341804999999999,-0.10676,1.25935,0.1183505,-0.06888,0.92737,-0.0061785,0.00905,1.07263,0.0061785,-0.00905,0.88236,-0.3406195,-0.0843,1.10749,-0.3553495,-0.03699,0.83556,-0.7356195,-0.0586499999999999,1.08714,-0.6579795,0.04303,0
164,0.88284,0.737799,-0.0422849999999999,0.83094,0.457889,0.031235,0.75648,0.253429,0.0431450000000001,1.11402,0.495269,-0.0011149999999999,1.20985,0.292599,0.047445,0.69311,0.1315889999999999,-0.1070649999999999,1.2582,0.115799,-0.0558249999999999,0.9272200000000002,-0.006671,0.007955,1.07278,0.006671,-0.0079549999999999,0.8853,-0.342421,-0.0790649999999999,1.1115,-0.3550109999999999,-0.0311549999999999,0.84436,-0.737461,-0.0475749999999999,1.09544,-0.6588809999999999,0.054515,0
165,0.87823,0.7356145000000001,-0.0462299999999998,0.82613,0.4565845,0.02714,0.75274,0.2525345,0.0396200000000001,1.10788,0.4964945,-0.0033499999999999,1.20533,0.2911545,0.05276,0.69477,0.1282445,-0.1086699999999999,1.25602,0.1117345,-0.0442199999999999,0.92719,-0.0071174999999999,0.00711,1.0728099999999998,0.0071175,-0.0071099999999999,0.88836,-0.3443355,-0.0744499999999999,1.11481,-0.3547555,-0.0264899999999999,0.85432,-0.7392755,-0.0372399999999999,1.10339,-0.6597955,0.06463,0
166,0.8738300000000001,0.7332125,-0.05055,0.8240400000000001,0.4550125,0.0254399999999999,0.7503200000000001,0.2510425,0.0357899999999998,1.10462,0.4977025,-0.0039300000000001,1.20095,0.2896025,0.0571199999999999,0.6952,0.1263925,-0.1111,1.25389,0.1054325,-0.0330000000000001,0.92729,-0.0074844999999999,0.0064999999999999,1.07271,0.0074845,-0.0065,0.8915500000000001,-0.3462775,-0.0703500000000001,1.1177,-0.3544675,-0.0225900000000001,0.8641300000000001,-0.7410875,-0.0280300000000001,1.11101,-0.6614774999999999,0.0733799999999998,0
167,0.869745,0.7324625,-0.054525,0.820975,0.4549824999999999,0.0233249999999999,0.7496750000000001,0.2510124999999999,0.0352549999999999,1.100445,0.4983924999999999,-0.005245,1.196655,0.2893425,0.0608849999999998,0.696735,0.1225325,-0.112195,1.250885,0.0999825,-0.0200650000000001,0.927415,-0.0075145,0.0060249999999999,1.072585,0.0075145,-0.006025,0.8947450000000001,-0.3466175,-0.0667550000000001,1.120825,-0.3542875,-0.019225,0.8733150000000001,-0.7413675,-0.0199450000000001,1.118785,-0.6621475,0.0807949999999999,0
168,0.866115,0.7318484999999999,-0.058355,0.8184750000000001,0.4549485,0.021595,0.7507550000000001,0.2509785,0.037285,1.096655,0.4989785,-0.0067949999999999,1.193455,0.2893085,0.063755,0.698105,0.1182385,-0.1137249999999999,1.248405,0.0947585,-0.009275,0.927605,-0.0075485,0.0057749999999999,1.072395,0.0075485,-0.0057749999999999,0.8978349999999999,-0.3470115,-0.063415,1.123975,-0.3541815,-0.0161949999999999,0.882045,-0.7416715,-0.0122449999999999,1.126185,-0.6627915,0.087225,0
169,0.8628750000000001,0.7313930000000001,-0.0620899999999999,0.815905,0.4549229999999999,0.0201999999999999,0.751865,0.250893,0.03853,1.093225,0.499293,-0.00839,1.190165,0.288753,0.0659699999999999,0.699165,0.114243,-0.1158399999999999,1.246995,0.090123,-0.0006699999999999,0.927855,-0.0075739999999999,0.0057899999999999,1.072145,0.007574,-0.0057899999999999,0.900535,-0.347037,-0.0603899999999999,1.127095,-0.354107,-0.0133599999999999,0.8903750000000001,-0.7416969999999999,-0.00541,1.1330049999999998,-0.6634169999999999,0.0927799999999999,0
170,0.859605,0.7292895,-0.065545,0.812975,0.4527494999999999,0.0195149999999999,0.754035,0.2477395,0.0404249999999999,1.090255,0.4997594999999999,-0.0094550000000001,1.187575,0.2871795,0.0680249999999998,0.700955,0.1092395,-0.1115250000000001,1.245765,0.0863095,0.0062749999999999,0.9281350000000002,-0.0078854999999999,0.0059749999999999,1.0718649999999998,0.0078855,-0.005975,0.9033250000000002,-0.3480605,-0.0573350000000001,1.130475,-0.3538505,-0.0108150000000001,0.8991550000000001,-0.7425505,0.0010149999999998,1.139755,-0.6638704999999999,0.0974349999999999,0
171,0.8562549999999999,0.7259479999999999,-0.0694449999999999,0.8109049999999999,0.452098,0.0175849999999999,0.7526249999999999,0.246538,0.039495,1.0863349999999998,0.502168,-0.0113949999999999,1.1844549999999998,0.281938,0.0693249999999999,0.696035,0.104948,-0.1162649999999999,1.245135,0.078828,0.0247249999999999,0.927845,-0.008626,0.0048449999999999,1.072155,0.0086259999999999,-0.0048449999999999,0.904495,-0.350272,-0.054385,1.132585,-0.352082,-0.006885,0.904345,-0.744672,0.0060449999999999,1.1448349999999998,-0.6637120000000001,0.102545,0
172,0.8550050000000001,0.7262970000000001,-0.0713499999999999,0.809245,0.4514769999999999,0.01794,0.756165,0.245077,0.0437899999999999,1.084935,0.502387,-0.0118599999999999,1.184105,0.2817369999999999,0.07079,0.7028150000000001,0.105597,-0.1151499999999999,1.244705,0.078407,0.02718,0.928345,-0.0088899999999999,0.00544,1.071655,0.00889,-0.00544,0.907185,-0.350873,-0.0519999999999999,1.134455,-0.351533,-0.0058899999999999,0.910175,-0.745173,0.00912,1.148955,-0.662613,0.10453,0
173,0.85516,0.7254525,-0.072415,0.80749,0.4477624999999999,0.018205,0.7604,0.2410525,0.0501849999999999,1.08389,0.5020825,-0.012345,1.18322,0.2820625,0.071245,0.7095699999999999,0.1054225,-0.1130149999999999,1.24548,0.0789825,0.0289949999999999,0.92911,-0.0091244999999999,0.0070149999999999,1.07089,0.0091244999999999,-0.0070149999999999,0.90971,-0.3513375,-0.049335,1.13759,-0.3519675,-0.005055,0.91732,-0.7453675000000001,0.0131449999999999,1.15385,-0.6625475000000001,0.1075549999999999,0
174,0.8529,0.7214195000000001,-0.0725949999999999,0.8030200000000001,0.4402195,0.023175,0.76924,0.2319595,0.060725,1.08533,0.5021895000000001,-0.0085549999999999,1.18219,0.2856495,0.0739549999999999,0.7201500000000001,0.0833805,-0.0909949999999999,1.2443099999999998,0.0832075,0.027965,0.92968,-0.0096545,0.008475,1.07032,0.0096545,-0.008475,0.915,-0.3521205,-0.0464249999999999,1.1424,-0.3515905,-0.0071849999999999,0.92936,-0.7460705000000001,0.015605,1.16105,-0.6632005000000001,0.1066949999999999,0
175,0.85458,0.7212869999999999,-0.0729249999999999,0.80071,0.438547,0.024275,0.77352,0.229207,0.062235,1.08456,0.501987,-0.0089049999999999,1.18126,0.285937,0.073415,0.72708,0.072097,-0.0812949999999999,1.24346,0.084037,0.024675,0.92986,-0.0096719999999999,0.009105,1.07014,0.009672,-0.0091049999999999,0.91667,-0.352343,-0.0442549999999999,1.14288,-0.352303,-0.0079949999999999,0.93347,-0.746163,0.018165,1.15859,-0.662923,0.104195,0
176,0.8552850000000001,0.7218705000000001,-0.0734199999999999,0.8034550000000003,0.4383005,0.02606,0.7708150000000002,0.1727605,0.0310700000000001,1.086615,0.5016305,-0.0075999999999999,1.180655,0.2863605,0.07217,0.7286850000000002,0.0206524999999999,-0.1191799999999999,1.2406350000000002,0.0850905,0.0174900000000001,0.929715,-0.0096075,0.00955,1.070285,0.0096075,-0.0095499999999999,0.9181650000000002,-0.3524794999999999,-0.0424799999999998,1.141615,-0.3521895,-0.0085199999999998,0.936185,-0.7461495,0.0204700000000001,1.155175,-0.6610195,0.1005800000000001,0
177,0.855775,0.7208655,-0.0741899999999999,0.803075,0.4382855,0.02571,0.774795,0.1712955,0.03325,1.085865,0.5015855,-0.0080799999999999,1.179145,0.2863355,0.0702899999999999,0.6998250000000001,-0.0085974999999999,-0.05879,1.239415,0.0855654999999999,0.0138,0.929555,-0.0093644999999999,0.00968,1.070445,0.0093645,-0.00968,0.919805,-0.3524445,-0.0408699999999999,1.142125,-0.3532845,-0.00829,0.938305,-0.7458245,0.0234999999999999,1.1521549999999998,-0.6616344999999999,0.0968499999999999,0
