sb224sc-HT22-VT27/4dt907/src/data/labeled_files/A2_kinect_mirrored.csv
FrameNo,nose_3d_x,nose_3d_y,nose_3d_z,left_shoulder_3d_x,left_shoulder_3d_y,left_shoulder_3d_z,left_elbow_3d_x,left_elbow_3d_y,left_elbow_3d_z,right_shoulder_3d_x,right_shoulder_3d_y,right_shoulder_3d_z,right_elbow_3d_x,right_elbow_3d_y,right_elbow_3d_z,left_wrist_3d_x,left_wrist_3d_y,left_wrist_3d_z,right_wrist_3d_x,right_wrist_3d_y,right_wrist_3d_z,left_hip_3d_x,left_hip_3d_y,left_hip_3d_z,right_hip_3d_x,right_hip_3d_y,right_hip_3d_z,left_knee_3d_x,left_knee_3d_y,left_knee_3d_z,right_knee_3d_x,right_knee_3d_y,right_knee_3d_z,left_ankle_3d_x,left_ankle_3d_y,left_ankle_3d_z,right_ankle_3d_x,right_ankle_3d_y,right_ankle_3d_z,activity_label
0,0.993116,0.75832,0.0305915,0.8540300000000001,0.46336,0.0594765,0.8184899999999999,0.22766,0.0686885,1.15961,0.46736,0.0401765,1.17688,0.2292,0.0452305,0.80816,0.010363,-0.0071325,1.18971,0.031668,-0.0184804999999999,0.931578,-0.0018969999999999,-0.0001754999999999,1.068422,0.0018969999999999,0.0001754999999999,0.88611,-0.40868,0.0314295,1.12538,-0.37622,-0.0073674999999999,0.87408,-0.73475,0.0085265,1.13093,-0.73538,-0.0248375,0
1,0.993167,0.7583300000000001,0.0307195,0.853687,0.46326,0.0592495,0.818527,0.22753,0.0687015,1.159577,0.46726,0.0409785,1.177017,0.22906,0.0452894999999999,0.808107,0.00995,-0.0072554999999999,1.190447,0.033657,-0.0175705,0.931576,-0.001899,-0.0002114999999999,1.068424,0.001899,0.0002114999999999,0.886107,-0.40868,0.0313895,1.125407,-0.37803,-0.0072595,0.874557,-0.73491,0.0088244999999999,1.131557,-0.73626,-0.0262174999999999,0
2,0.9931425,0.7585164999999999,0.0307825,0.8533824999999999,0.4632465,0.0590205,0.8184825,0.2274965,0.0686875,1.1596725,0.4670065,0.0414295,1.1771925,0.2287964999999999,0.0455325,0.8080225,0.0091135,-0.0071495,1.1911824999999998,0.0357535,-0.0161084999999999,0.9315705,-0.0018744999999999,-0.0002335,1.0684295,0.0018745,0.0002335,0.8860325,-0.4081835,0.0312625,1.1254225,-0.3780435,-0.0072795,0.8745625000000001,-0.7350735,0.0086755,1.1312025,-0.7346535000000001,-0.0252925,0
3,0.9930645,0.7584685000000001,0.030837,0.8544585,0.4633085,0.05902,0.8184485,0.2277084999999999,0.068571,1.1595085,0.4679985,0.039212,1.1771385,0.2299485,0.045383,0.8079885,0.0084645,-0.0072589999999999,1.1909585,0.0357675,-0.016231,0.9315635,-0.0018575,-4.099999999999937e-05,1.0684365,0.0018575,4.099999999999937e-05,0.8859485,-0.4082115,0.030968,1.1255385,-0.3780115,-0.007144,0.8742285000000001,-0.7352114999999999,0.0080299999999999,1.1303985,-0.7324915,-0.023211,0
4,0.9930415,0.7584295,0.0308875,0.8547125,0.4633295,0.0591745,0.8184125,0.2277695,0.0685455,1.1595425,0.4679095,0.0400185,1.1771425,0.2298195,0.0455095,0.8078625,0.0082395,-0.0072544999999999,1.1911725,0.0367705,-0.0157715,0.9315575,-0.0018335,-5.049999999999846e-05,1.0684425,0.0018335,5.050000000000193e-05,0.8859225,-0.4079905,0.0308365,1.1254825,-0.3781204999999999,-0.0071475,0.8744525000000001,-0.7350205,0.0083455,1.1304025,-0.7333405,-0.0236995,0
5,0.9931885,0.7584114999999999,0.0310195,0.8550805,0.4633415,0.0591774999999999,0.8185505,0.2278115,0.0684155,1.1596405,0.4685115,0.0384165,1.1772105,0.2305215,0.0454185,0.8078205,0.0078025,-0.0073515,1.1910605,0.0375375,-0.0155415,0.9315455,-0.0017985,6.250000000000006e-05,1.0684545,0.0017984999999999,-6.250000000000006e-05,0.8859405,-0.4079184999999999,0.0306175,1.1254905,-0.3784685,-0.0070314999999999,0.8742805,-0.7346685000000001,0.0083995,1.1303605,-0.7333685000000001,-0.0238155,0
6,0.9958475,0.7584705,0.0306325,0.8572325000000001,0.4640605,0.0590065,0.8193525,0.2287305,0.0681895,1.1613625,0.4674304999999999,0.0399734999999999,1.1781625,0.2293105,0.0459745,0.8099925,0.0425274999999999,0.0046894999999999,1.1916624999999998,0.0377025,-0.0144925,0.9315325,-0.0015505,5.55e-05,1.0684675,0.0015505,-5.55e-05,0.8844425,-0.4073795,0.0307125,1.1241925,-0.3795095,-0.0061965,0.8717225,-0.7347794999999999,0.0085415,1.1276125,-0.7334995,-0.0235535,0
7,0.9947635,0.7584415,0.030658,0.8558875,0.4636615,0.0589149999999999,0.8187875,0.2281814999999999,0.068034,1.1603375,0.4671915,0.039844,1.1776775,0.2291014999999999,0.045756,0.8079275000000001,0.0097335,-0.0061739999999999,1.1908675,0.0350295,-0.01647,0.9315305,-0.0016345,-3.900000000000084e-05,1.0684695,0.0016345,3.900000000000084e-05,0.8849075000000001,-0.4070985,0.030642,1.1245075,-0.3793185,-0.0067559999999999,0.8723675000000001,-0.7353485,0.007871,1.1287175,-0.7348785,-0.0250029999999999,0
8,0.995032,0.7584525,0.030603,0.8560639999999999,0.4636625,0.058886,0.8188340000000001,0.2281925,0.067921,1.160444,0.4672125,0.039659,1.177794,0.2291325,0.045812,0.807914,0.0095505,-0.0060479999999999,1.190924,0.0349935,-0.016306,0.931513,-0.0016045,-6.699999999999762e-05,1.068487,0.0016045,6.700000000000109e-05,0.884734,-0.4069375,0.030594,1.124384,-0.3795975,-0.006718,0.872094,-0.7354275,0.007817,1.128414,-0.7346775,-0.024992,0
9,0.99531,0.7584405000000001,0.03055,0.856134,0.4636305,0.058841,0.818884,0.2281505,0.067817,1.160534,0.4672604999999999,0.039332,1.177894,0.2292005,0.045842,0.807884,0.0093685,-0.0059019999999999,1.190884,0.0350495,-0.0160859999999999,0.931498,-0.0015745,-0.000101,1.068502,0.0015745,0.000101,0.8845540000000001,-0.4067695,0.030545,1.124254,-0.3798795,-0.0066849999999999,0.871734,-0.7354594999999999,0.007755,1.128114,-0.7344895,-0.0248849999999999,0
10,0.995576,0.7583985,0.0304745,0.856166,0.4635785,0.0587354999999999,0.8189060000000001,0.2280885,0.0676954999999999,1.160606,0.4672785,0.0389155,1.177986,0.2292384999999999,0.0458425,0.8078460000000001,0.0092555,-0.0057805,1.190796,0.0350315,-0.0160605,0.931477,-0.0015455,-0.0001635,1.068523,0.0015455,0.0001635,0.884386,-0.4066015,0.0304915,1.124116,-0.3801515,-0.0066864999999999,0.871366,-0.7354215000000001,0.0076815,1.127836,-0.7343515,-0.0247865,0
11,0.9956285,0.758387,0.0304375,0.8561315,0.463567,0.0586155,0.8189315,0.228077,0.0675564999999999,1.1607515,0.467337,0.0390075,1.1780415,0.2292769999999999,0.0458125,0.8077915,0.0092439999999999,-0.0059084999999999,1.1904415,0.033972,-0.0168565,0.9314625,-0.0015509999999999,-0.0002165,1.0685375,0.0015509999999999,0.0002165,0.8843615,-0.406553,0.0304035,1.1240915,-0.380283,-0.0067605,0.8712915,-0.735263,0.0076174999999999,1.1277415,-0.734313,-0.0249165,0
12,0.9956865,0.7583745,0.0303939999999999,0.8561025000000001,0.4635545,0.058473,0.8189525,0.2280645,0.067385,1.1609025,0.4673245,0.039,1.1780925,0.2292445,0.045758,0.8077325000000001,0.0092315,-0.00606,1.1900425,0.0331135,-0.017704,0.9314405,-0.0015555,-0.000269,1.0685595,0.0015555,0.0002689999999999,0.8843325,-0.4065554999999999,0.030314,1.1240625,-0.3804555,-0.006858,0.8712225,-0.7350955,0.0075089999999999,1.1276625,-0.7341655,-0.025022,0
13,0.9957875,0.758369,0.030375,0.8560705,0.463549,0.058329,0.8190005,0.228059,0.067205,1.1610805,0.467219,0.039207,1.1781505,0.229119,0.045704,0.8077005000000002,0.009226,-0.00621,1.1896305,0.032199,-0.01861,0.9314275,-0.0015559999999999,-0.0003309999999999,1.0685725,0.001556,0.000331,0.8843105,-0.406551,0.030243,1.1240405,-0.380531,-0.0069559999999999,0.8711504999999999,-0.734911,0.007389,1.1276005,-0.7339910000000001,-0.025139,0
14,0.995756,0.7583375,0.0304429999999999,0.855908,0.4634275,0.058259,0.818978,0.2279175,0.06706,1.161038,0.4671375,0.039354,1.178148,0.2290275,0.045639,0.8076380000000001,0.0092345,-0.006346,1.189258,0.0309815,-0.019793,0.931411,-0.0015545,-0.000383,1.068589,0.0015545,0.0003829999999999,0.884288,-0.4065425,0.0301639999999999,1.124058,-0.3805925,-0.007055,0.8711380000000001,-0.7350024999999999,0.0073289999999999,1.127578,-0.7342325,-0.025291,0
15,0.995736,0.7582725,0.030571,0.85575,0.4633024999999999,0.058204,0.81899,0.2277525,0.066879,1.1609999999999998,0.4670424999999999,0.039443,1.17814,0.2289425,0.045506,0.8075800000000001,0.0092395,-0.006514,1.18916,0.0314015,-0.0199129999999999,0.931396,-0.0015545,-0.0004329999999999,1.068604,0.0015545,0.0004329999999999,0.88427,-0.4065775,0.030089,1.12408,-0.3806775,-0.007152,0.87114,-0.7351675,0.0072739999999999,1.12757,-0.7344675,-0.0254509999999999,0
16,0.995733,0.7581964999999999,0.0307895,0.855537,0.4631665,0.0581875,0.818907,0.2275565,0.0665565,1.161037,0.4668564999999999,0.0398625,1.178117,0.2287265,0.0453885,0.807507,0.0091555,-0.0067334999999999,1.189137,0.0316695,-0.0200305,0.931382,-0.0015515,-0.0004714999999999,1.068618,0.0015515,0.0004715,0.884267,-0.4066235,0.0300045,1.1241169999999998,-0.3807535,-0.0072305,0.871117,-0.7352835,0.0072465,1.127567,-0.7348235000000001,-0.0256534999999999,0
17,0.9955275,0.7580874999999999,0.0312145,0.8551415,0.4628975,0.0582075,0.8187115,0.2272575,0.0661345,1.1610615,0.4669275,0.0402155,1.1780015,0.2287475,0.0452435,0.8073115000000001,0.0096065,-0.0071555,1.1893515,0.0321205,-0.0202275,0.9313825,-0.0015955,-0.0004944999999999,1.0686175,0.0015955,0.0004945,0.8845315,-0.4067225,0.0298395,1.1243615,-0.3805425,-0.0074024999999999,0.8714715,-0.7351025,0.0070605,1.1280215,-0.7345125,-0.0257625,0
18,0.99534,0.7579805,0.0317015,0.854777,0.4626405,0.0582115,0.818437,0.2276205,0.0652065,1.161077,0.4670105,0.0402885,1.177877,0.2287805,0.0450265,0.8067970000000001,0.0102075,-0.0083754999999999,1.188927,0.0313115,-0.0221855,0.931382,-0.0016335,-0.0005145,1.068618,0.0016334999999999,0.0005145,0.8848070000000001,-0.4067995,0.0296775,1.124617,-0.3803595,-0.0075574999999999,0.8718570000000001,-0.7348195000000001,0.0070055,1.128427,-0.7341195,-0.0258475,0
19,0.995157,0.757888,0.0322445,0.854324,0.462428,0.0581504999999999,0.818114,0.228098,0.0639815,1.161094,0.467128,0.0404965,1.177844,0.2294179999999999,0.0444535,0.806184,0.011014,-0.0101734999999999,1.188474,0.031789,-0.0243124999999999,0.931392,-0.001674,-0.0005234999999999,1.068608,0.001674,0.0005234999999999,0.885064,-0.4068819999999999,0.0295135,1.124874,-0.3801319999999999,-0.0077104999999999,0.8722840000000001,-0.7346320000000001,0.0069575,1.128764,-0.7337520000000001,-0.0259815,0
20,0.995021,0.7578550000000001,0.032846,0.854169,0.462445,0.057977,0.817209,0.228595,0.061725,1.160999,0.467395,0.040758,1.177979,0.230155,0.043481,0.8047690000000001,0.0133269999999999,-0.0131179999999999,1.187849,0.032286,-0.0275819999999999,0.931397,-0.001699,-0.0005529999999999,1.068603,0.001699,0.000553,0.885329,-0.406505,0.029373,1.125109,-0.379605,-0.0078639999999999,0.872729,-0.7344449999999999,0.006886,1.129069,-0.733065,-0.0260439999999999,0
21,0.994895,0.757824,0.0335619999999999,0.853999,0.462624,0.057814,0.8154890000000001,0.229104,0.0587069999999999,1.160859,0.4680339999999999,0.040937,1.178359,0.230984,0.0416229999999999,0.8023090000000002,0.017777,-0.017502,1.187639,0.032795,-0.032465,0.93139,-0.00172,-0.000588,1.06861,0.0017199999999999,0.0005879999999999,0.885579,-0.406036,0.0292759999999999,1.125339,-0.378966,-0.00798,0.873499,-0.734626,0.0068439999999999,1.129459,-0.732186,-0.026084,0
22,0.994763,0.7577710000000001,0.0343045,0.853824,0.462871,0.0576055,0.813194,0.2301409999999999,0.0547325,1.160584,0.468611,0.0406875,1.179644,0.231701,0.0383634999999999,0.799374,0.023992,-0.0227455,1.189354,0.038479,-0.0387845,0.931389,-0.001702,-0.0006255,1.068611,0.0017019999999999,0.0006254999999999,0.885854,-0.405589,0.0291855,1.125574,-0.378399,-0.0080975,0.874264,-0.734899,0.0067575,1.129714,-0.731289,-0.0261274999999999,0
23,0.9945875,0.757658,0.035171,0.8536265000000001,0.463238,0.056969,0.8090565000000001,0.236878,0.047943,1.1601965,0.469058,0.040438,1.1824865,0.2354979999999999,0.0301829999999999,0.7926565,0.0400359999999999,-0.033962,1.1938465,0.0499169999999999,-0.052834,0.9313235,-0.001653,-0.000639,1.0686765,0.001653,0.0006389999999999,0.8861065,-0.405162,0.029196,1.1257065,-0.377832,-0.0082759999999999,0.8749765,-0.7353219999999999,0.0066219999999999,1.1299665,-0.7307119999999999,-0.02623,0
24,0.9944115,0.757509,0.0360395,0.8537705,0.463599,0.0560045,0.8029605,0.2458189999999999,0.0357125,1.1595105,0.469459,0.0401674999999999,1.1870504999999998,0.245269,0.0183254999999999,0.7829905,0.058987,-0.0525695,1.1997605,0.06735,-0.0709665,0.9312285,-0.0015999999999999,-0.0006175,1.0687715,0.0016,0.0006175,0.8863705,-0.404801,0.0291855,1.1258605,-0.376451,-0.0082695,0.8757205,-0.735951,0.0063975,1.1301105,-0.730261,-0.0263815,0
25,0.9942225,0.7573435000000001,0.03692,0.8540055,0.4639235,0.05493,0.7967055000000001,0.2562735,0.023342,1.1587655,0.4699035,0.039836,1.1916855,0.2552035,0.005547,0.7726155,0.0822905,-0.07243,1.2069355,0.0878485,-0.0923479999999999,0.9311355,-0.0015544999999999,-0.000562,1.0688645,0.0015545,0.000562,0.8866555,-0.4044765,0.029153,1.1259955,-0.3744665,-0.0081619999999999,0.8764255,-0.7365965,0.006075,1.1303155,-0.7296465,-0.0261269999999999,0
26,0.994214,0.7573435000000001,0.037623,0.854373,0.4639235,0.053796,0.790413,0.2677335,0.010666,1.157703,0.4702635,0.039276,1.196463,0.2666735,-0.008211,0.760633,0.1097635,-0.093957,1.215633,0.1138735,-0.1161169999999999,0.931036,-0.0015544999999999,-0.0004669999999999,1.068964,0.0015545,0.0004669999999999,0.8866930000000001,-0.4043565,0.029205,1.125903,-0.3727365,-0.007985,0.8765630000000001,-0.7367864999999999,0.005857,1.130243,-0.7293565,-0.0258249999999999,0
27,0.994202,0.7573435000000001,0.0382975,0.8547830000000001,0.4641235,0.0524545,0.782843,0.2814635,-0.0040774999999999,1.1565329999999998,0.4707735,0.0384805,1.2017129999999998,0.2804935,-0.0225714999999999,0.7480530000000001,0.1387935,-0.1171735,1.224323,0.1422235,-0.1404035,0.930938,-0.0015544999999999,-0.0003624999999999,1.069062,0.0015545,0.0003625,0.886723,-0.4042365,0.0292465,1.125823,-0.3707565,-0.0077824999999999,0.876603,-0.7368564999999999,0.0055935,1.130223,-0.7290764999999999,-0.0251995,0
28,0.9941675,0.7573435000000001,0.0388745,0.8551985,0.4644135,0.0509644999999999,0.7743885,0.2966535,-0.0199875,1.1553085,0.4713335,0.0374885,1.2077485,0.2977435,-0.0389185,0.7347185,0.1685635,-0.1417275,1.2336285,0.1733335,-0.1661475,0.9308315,-0.0015544999999999,-0.0002554999999999,1.0691685,0.0015545,0.0002554999999999,0.8867484999999999,-0.4041165,0.0292845,1.1257385,-0.3687365,-0.0075315,0.8766484999999999,-0.7369165,0.0052625,1.1301885,-0.7286265,-0.0246015,0
29,0.9943455,0.7569849999999999,0.0393359999999999,0.8558015,0.465395,0.049062,0.7650515,0.317595,-0.039104,1.1541615,0.472055,0.0360889999999999,1.2141215,0.316375,-0.0555289999999999,0.7204215,0.203465,-0.168526,1.2435215,0.208215,-0.192376,0.9307035,-0.0014539999999999,-0.0001619999999999,1.0692965,0.001454,0.0001619999999999,0.8868115,-0.403555,0.029318,1.1255615,-0.366975,-0.0072769999999999,0.8767015,-0.737585,0.004861,1.1298315,-0.7281650000000001,-0.0236049999999999,0
30,0.9945055,0.756545,0.039623,0.8563784999999999,0.466675,0.047072,0.7556185,0.3379649999999999,-0.060462,1.1529485,0.472665,0.03446,1.2210185,0.337835,-0.072259,0.7056884999999999,0.240195,-0.202317,1.2537785,0.247555,-0.218227,0.9305885,-0.001335,-3.699999999999884e-05,1.0694115,0.0013349999999999,3.699999999999884e-05,0.8868885,-0.403055,0.029318,1.1254084999999998,-0.365445,-0.007055,0.8766285,-0.738335,0.004348,1.1293485,-0.727945,-0.022393,0
31,0.9946955,0.7559735,0.0397919999999999,0.8569665000000001,0.4682235,0.045049,0.7470365,0.3593635,-0.078483,1.1517465,0.4731735,0.0329,1.2272465,0.3606935,-0.0881349999999999,0.6913365,0.2802535,-0.232535,1.2631265,0.2866035,-0.245405,0.9304495,-0.0011894999999999,0.0001439999999999,1.0695505,0.0011895,-0.000144,0.8869865,-0.4025965,0.029254,1.1253065,-0.3639165,-0.006847,0.8765465,-0.7392465,0.0038379999999999,1.1289465,-0.7276365,-0.021214,0
32,0.994886,0.7552435000000001,0.0397145,0.857287,0.4700935,0.0435065,0.740307,0.3760735,-0.0932685,1.150547,0.4736435,0.0310575,1.232287,0.3827435,-0.0999285,0.680247,0.3152435,-0.2587985,1.2703669999999998,0.3227235,-0.2659685,0.930363,-0.0010374999999999,0.0003494999999999,1.069637,0.0010375,-0.0003494999999999,0.887107,-0.4027365,0.0290375,1.125287,-0.3628964999999999,-0.0066005,0.8765769999999999,-0.7402865,0.0033524999999999,1.128647,-0.7278264999999999,-0.0203075,0
33,0.995054,0.7543115,0.039494,0.857191,0.4719715,0.042189,0.735651,0.3953115,-0.100134,1.149611,0.4738815,0.029253,1.236641,0.4009215,-0.1107939999999999,0.672681,0.3517615,-0.274964,1.277361,0.3592615,-0.288164,0.930286,-0.0008985,0.0005299999999999,1.069714,0.0008985,-0.0005299999999999,0.887251,-0.4030984999999999,0.028767,1.1252609999999998,-0.3628685,-0.006554,0.876491,-0.7411584999999999,0.0027599999999999,1.128381,-0.7284085,-0.019672,0
34,0.9951795,0.7532555,0.0391824999999999,0.8570345,0.4738655,0.0409975,0.7304945,0.4156154999999999,-0.1077595,1.1488645,0.4739555,0.0277534999999999,1.2420545,0.4220155,-0.1201095,0.6656945000000001,0.3876455,-0.2894295,1.2832045,0.3967755,-0.3036195,0.9302425,-0.0007905,0.0007334999999999,1.0697575,0.0007905,-0.0007335,0.8873545,-0.4035745,0.0285365,1.1251745,-0.3636045,-0.0065785,0.8763245,-0.7420945,0.0022364999999999,1.1280645,-0.7294045,-0.0194825,0
35,0.995274,0.7520345,0.0388395,0.856855,0.4756845,0.0398015,0.725275,0.4353045,-0.1150295,1.148495,0.4739845,0.0262585,1.247305,0.4430145,-0.1279295,0.660555,0.4241245,-0.3010995,1.287395,0.4342545,-0.3148395,0.930228,-0.0006975,0.0009825,1.069772,0.0006975,-0.0009825,0.887405,-0.4043055,0.0283045,1.125095,-0.3645755,-0.0065565,0.876225,-0.7430955,0.0019375,1.127765,-0.7305955,-0.0192515,0
36,0.9953165,0.7505780000000001,0.03847,0.8566685,0.477278,0.038778,0.7214185,0.454618,-0.11961,1.1482485,0.474048,0.024826,1.2519885,0.464588,-0.1339,0.6563285,0.461628,-0.30914,1.2911085,0.474358,-0.3208,0.9302335,-0.000621,0.001222,1.0697665,0.000621,-0.001222,0.8874585,-0.4052719999999999,0.028103,1.1249985,-0.365952,-0.006551,0.8761385,-0.7443219999999999,0.0017509999999999,1.1274485,-0.732132,-0.019057,0
37,0.995376,0.7487365,0.038201,0.856132,0.4790264999999999,0.038001,0.718602,0.4783765,-0.122123,1.148022,0.4743664999999999,0.023506,1.255562,0.4877565,-0.136353,0.6532920000000001,0.5072065,-0.312903,1.293362,0.5195164999999999,-0.323833,0.93025,-0.0005795,0.001477,1.06975,0.0005795,-0.0014769999999999,0.887542,-0.4066435,0.027991,1.124942,-0.3677635,-0.0065169999999999,0.876112,-0.7459235,0.0016959999999999,1.127192,-0.7342835,-0.018798,0
38,0.9953695,0.746837,0.0379675,0.8553115,0.480827,0.0375015,0.7169814999999999,0.497607,-0.1221085,1.1478415,0.474747,0.0224355,1.2584615,0.510587,-0.1371185,0.6522615,0.548407,-0.3129885,1.2944215,0.5632670000000001,-0.3242285,0.9302595,-0.0005479999999999,0.0017105,1.0697405,0.0005479999999999,-0.0017105,0.8876315,-0.4083929999999999,0.0278435,1.1249215,-0.3693729999999999,-0.0064554999999999,0.8761015,-0.747703,0.0017945,1.1270615,-0.736003,-0.0186525,0
39,0.9953635,0.744867,0.037872,0.8544325,0.482227,0.0371439999999999,0.7159725,0.519927,-0.122056,1.1477825,0.475517,0.021651,1.2595625,0.532177,-0.1373859999999999,0.6518025000000001,0.590087,-0.313016,1.2943625,0.604917,-0.324316,0.9302555,-0.0005349999999999,0.001808,1.0697445,0.000535,-0.001808,0.8877025000000001,-0.410303,0.027771,1.1248925,-0.371333,-0.0063779999999999,0.8760924999999999,-0.749623,0.00208,1.1270425,-0.737773,-0.018352,0
40,0.9953135,0.7427144999999999,0.037816,0.8534585,0.4834145,0.036893,0.7158685,0.5413645,-0.1194279999999999,1.1478785,0.4765445,0.021153,1.2602085,0.5533845,-0.137488,0.6519385,0.6296145,-0.311508,1.2942685,0.6459245,-0.324308,0.9302605,-0.0005545,0.001813,1.0697395,0.0005544999999999,-0.0018129999999999,0.8877285,-0.4124555,0.027761,1.1247984999999998,-0.3734855,-0.0063599999999999,0.8760384999999999,-0.7517755,0.002211,1.1269885,-0.7399255,-0.018061,0
41,0.99525,0.740481,0.037885,0.85226,0.484281,0.036741,0.71557,0.562951,-0.1193209999999999,1.14795,0.477641,0.021085,1.26009,0.573191,-0.1374109999999999,0.6518200000000001,0.666511,-0.311431,1.29427,0.685471,-0.323441,0.930312,-0.000594,0.001864,1.069688,0.0005939999999999,-0.0018639999999999,0.88774,-0.414689,0.027819,1.12471,-0.375979,-0.0062859999999999,0.8761,-0.754009,0.002389,1.12687,-0.742409,-0.017984,0
42,0.9952095,0.738259,0.0379885,0.8508945,0.485289,0.0366965,0.7164645000000001,0.5812390000000001,-0.1125475,1.1480845,0.478819,0.0211895,1.2602645,0.5923290000000001,-0.1353775,0.6535845,0.701679,-0.2988575,1.2939845,0.7208990000000001,-0.3185774999999999,0.9304045,-0.0006279999999999,0.0020075,1.0695955,0.000628,-0.0020074999999999,0.8877245,-0.416911,0.0279795,1.1246444999999998,-0.378351,-0.0061194999999999,0.8761645,-0.756261,0.0026315,1.1268045,-0.7448809999999999,-0.0182094999999999,0
43,0.995083,0.7357795,0.038076,0.8494539999999999,0.4862094999999999,0.03684,0.717144,0.5982695,-0.106597,1.1482139999999998,0.4798295,0.021414,1.260594,0.6088895,-0.1317569999999999,0.656134,0.7348695,-0.284967,1.292884,0.7531395,-0.309087,0.930556,-0.0006584999999999,0.002228,1.069444,0.0006584999999999,-0.0022279999999999,0.8876040000000001,-0.4193105,0.028135,1.124504,-0.3808205,-0.0058549999999999,0.876144,-0.7584705,0.003004,1.126714,-0.7472905,-0.0179529999999999,0
44,0.994955,0.733364,0.0383125,0.8481920000000001,0.487214,0.0372684999999999,0.718092,0.615494,-0.1003505,1.148502,0.481264,0.0217865,1.261112,0.6248940000000001,-0.1263705,0.6596219999999999,0.765474,-0.2696605,1.291022,0.782414,-0.2954105,0.930731,-0.000708,0.0024115,1.069269,0.000708,-0.0024115,0.887422,-0.421606,0.0284045,1.124302,-0.3832759999999999,-0.0054794999999999,0.876102,-0.760706,0.0034945,1.126662,-0.749686,-0.0178534999999999,0
45,0.9948505,0.731268,0.0385835,0.8471435,0.4882379999999999,0.0379905,0.7189435,0.631588,-0.0941755,1.1488735,0.482738,0.0223195,1.2603835,0.638778,-0.1173755,0.6632635,0.794048,-0.2541155,1.2877435,0.807868,-0.2744054999999999,0.9309075,-0.000747,0.0025835,1.0690925,0.0007469999999999,-0.0025834999999999,0.8872135,-0.423632,0.0287395,1.1241035,-0.385432,-0.0050494999999999,0.8760535,-0.762702,0.0040905,1.1266435,-0.751892,-0.0176355,0
46,0.9947665,0.729511,0.0388595,0.8465205,0.489021,0.0387415,0.7210205000000001,0.642541,-0.0867465,1.1492004999999998,0.4842309999999999,0.0232155,1.2583305,0.648541,-0.1077965,0.6671505,0.814831,-0.2366565,1.2841105,0.826831,-0.2547165,0.9310535,-0.000765,0.0026745,1.0689465,0.0007649999999999,-0.0026745,0.8870205,-0.425379,0.0290985,1.1239205,-0.387459,-0.0045944999999999,0.8760505,-0.764389,0.0047495,1.1268105,-0.753839,-0.0174005,0
47,0.9947015,0.7279405,0.039153,0.8463545,0.4896005,0.039509,0.7238545000000001,0.6534504999999999,-0.078466,1.1495245,0.4859505,0.024309,1.2561945,0.6579904999999999,-0.098147,0.6715845,0.8341605,-0.2187869999999999,1.2808645,0.8440905,-0.235347,0.9311765,-0.0007895,0.0026709999999999,1.0688235,0.0007894999999999,-0.0026709999999999,0.8868545,-0.4270595,0.029486,1.1237745,-0.3893695,-0.0040919999999999,0.8760945,-0.7660695000000001,0.005484,1.1270245,-0.7557395,-0.0170189999999999,0
48,0.99466,0.7264685,0.039365,0.84627,0.4903384999999999,0.040266,0.72666,0.6615685,-0.070644,1.14974,0.4874985,0.025524,1.25377,0.6663985,-0.0886599999999999,0.67656,0.8502284999999999,-0.19979,1.27824,0.8598984999999999,-0.21868,0.93129,-0.0008065,0.002647,1.06871,0.0008064999999999,-0.002647,0.88671,-0.4287315,0.029844,1.12363,-0.3914215,-0.0036189999999999,0.8761099999999999,-0.7678515,0.006147,1.12724,-0.7573215000000001,-0.0164779999999999,0
49,0.9946715000000002,0.7251125,0.039495,0.8462555,0.4911125,0.041052,0.7303355,0.6694325,-0.061461,1.1499255,0.4889324999999999,0.026867,1.2515055,0.6735025,-0.07975,0.6819355,0.8640025,-0.1820899999999999,1.2768655,0.8722825000000001,-0.2005199999999999,0.9313895,-0.0008065,0.002593,1.0686105,0.0008064999999999,-0.0025929999999999,0.8865955000000001,-0.4302675,0.03014,1.1235354999999998,-0.3932075,-0.0032219999999999,0.8761755,-0.7695875,0.006708,1.1274755,-0.7590574999999999,-0.0159969999999999,0
50,0.994726,0.723911,0.0396055,0.8462959999999999,0.4917009999999999,0.0418695,0.7341160000000001,0.676241,-0.0526635,1.150126,0.490521,0.0282725,1.249386,0.6799609999999999,-0.0712165,0.6875360000000001,0.876171,-0.1647305,1.275866,0.883271,-0.1836304999999999,0.931464,-0.000798,0.0025034999999999,1.068536,0.000798,-0.0025035,0.886486,-0.431629,0.0304505,1.123456,-0.395079,-0.0029295,0.8762560000000001,-0.771219,0.0071884999999999,1.127686,-0.760439,-0.0153165,0
51,0.994773,0.7227790000000001,0.039573,0.8464929999999999,0.492009,0.042604,0.7379830000000001,0.6818590000000001,-0.04435,1.150253,0.4919389999999999,0.029542,1.247933,0.685099,-0.063402,0.692813,0.8861190000000001,-0.1484309999999999,1.275463,0.8919490000000001,-0.1684109999999999,0.931527,-0.0007559999999999,0.0024239999999999,1.068473,0.0007559999999999,-0.0024239999999999,0.886353,-0.432911,0.030632,1.123343,-0.396691,-0.0027739999999999,0.876283,-0.7728109999999999,0.0074259999999999,1.127873,-0.761651,-0.014914,0
52,0.994876,0.7216389999999999,0.039517,0.8469409999999999,0.4923789999999999,0.043328,0.7414810000000001,0.686379,-0.036914,1.150411,0.4934489999999999,0.0307269999999999,1.246471,0.689859,-0.056217,0.698231,0.8949189999999999,-0.1325619999999999,1.275271,0.899959,-0.153962,0.931532,-0.000719,0.002311,1.068468,0.0007189999999999,-0.002311,0.886231,-0.434101,0.03084,1.123271,-0.397841,-0.002595,0.8763810000000001,-0.7742610000000001,0.0077579999999999,1.128141,-0.7631110000000001,-0.014825,0
53,0.99502,0.720511,0.0393634999999999,0.84766,0.4926009999999999,0.0440225,0.74507,0.690241,-0.0295285,1.1506,0.494731,0.0318405,1.24519,0.693911,-0.0493925,0.70282,0.901321,-0.1189015,1.27519,0.906391,-0.1410915,0.931533,-0.000676,0.0021774999999999,1.068467,0.0006759999999999,-0.0021775,0.88611,-0.435259,0.0309874999999999,1.12321,-0.399129,-0.0024755,0.8765000000000001,-0.775639,0.0080585,1.12833,-0.764629,-0.0149705,0
54,0.995178,0.7194045,0.0392915,0.8487439999999999,0.4930345,0.0446634999999999,0.7483839999999999,0.6937344999999999,-0.0224715,1.150804,0.4960644999999999,0.0330545,1.244144,0.6975144999999999,-0.0429965,0.7073940000000001,0.9075845,-0.1047654999999999,1.275384,0.9120945,-0.1287855,0.931528,-0.0006245,0.0020295,1.068472,0.0006245,-0.0020295,0.885994,-0.4364355,0.0311825,1.123124,-0.4003055,-0.0023614999999999,0.8765940000000001,-0.7769355,0.0084365,1.128504,-0.7661955,-0.0150495,0
55,0.995398,0.7187680000000001,0.0392205,0.849974,0.493918,0.0454625,0.751534,0.6969580000000001,-0.0163724999999999,1.151024,0.497208,0.0341775,1.243334,0.7004480000000001,-0.0371905,0.7117640000000001,0.913288,-0.0916225,1.275774,0.916768,-0.1175525,0.931577,-0.0005519999999999,0.0018974999999999,1.068423,0.000552,-0.0018974999999999,0.885924,-0.437472,0.0313355,1.123084,-0.401272,-0.0023215,0.8767240000000001,-0.778042,0.0088375,1.128594,-0.7674519999999999,-0.0149434999999999,0
56,0.995619,0.7182155,0.039178,0.851164,0.4949355,0.046253,0.754134,0.6997555,-0.0105519999999999,1.151134,0.4982354999999999,0.035259,1.242844,0.7030155,-0.031473,0.7159139999999999,0.9185055,-0.078719,1.276324,0.9208055,-0.1068389999999999,0.931618,-0.0004924999999999,0.0017469999999999,1.068382,0.0004924999999999,-0.0017469999999999,0.885884,-0.4385045,0.031496,1.123024,-0.4022045,-0.0023749999999999,0.876834,-0.7791545,0.009093,1.128684,-0.7684745,-0.014814,0
57,0.9959005,0.7177255,0.039219,0.8523515,0.4959955,0.0469809999999999,0.7566215000000001,0.7024355,-0.004495,1.1512414999999998,0.4991955,0.0363089999999999,1.2428715,0.7051255,-0.025481,0.7195715,0.9230255,-0.065852,1.2770415,0.9242355,-0.095674,0.9316625,-0.0004424999999999,0.0016109999999999,1.0683375,0.0004424999999999,-0.001611,0.8858715,-0.4393145,0.031671,1.1229815,-0.4030745,-0.002469,0.8769715,-0.7802045,0.009318,1.1288715,-0.7693645,-0.014242,0
58,0.996347,0.717338,0.039172,0.853623,0.496978,0.047714,0.7588630000000001,0.704648,0.001319,1.151413,0.500038,0.037377,1.2431029999999998,0.706868,-0.0199209999999999,0.723123,0.927128,-0.052679,1.277583,0.926898,-0.086263,0.931698,-0.0003799999999999,0.0014529999999999,1.068302,0.0003799999999999,-0.0014529999999999,0.885873,-0.440272,0.031915,1.122953,-0.4042619999999999,-0.0025139999999999,0.877073,-0.7816219999999999,0.009623,1.128903,-0.771182,-0.0142439999999999,0
59,0.996881,0.7169504999999999,0.0391665,0.8548370000000001,0.4979705,0.0485135,0.761097,0.7068105,0.0076665,1.151647,0.5008604999999999,0.0384485,1.243577,0.7082005,-0.0142935,0.726297,0.9307505,-0.0397435,1.278347,0.9294805,-0.0756614999999999,0.931746,-0.0003455,0.0013185,1.068254,0.0003454999999999,-0.0013185,0.885927,-0.4412494999999999,0.0321925,1.122967,-0.4054394999999999,-0.0024545,0.8771869999999999,-0.7829695,0.0099794999999999,1.129037,-0.7728095,-0.0138745,0
60,0.9974275,0.7166055,0.0392095,0.8558895,0.4990155,0.0493414999999999,0.7631595,0.7088355000000001,0.0138285,1.1519195,0.5016455,0.0395475,1.2441895,0.7094255,-0.0087345,0.7291795,0.9339155,-0.0273005,1.2791395,0.9317255,-0.0651694999999999,0.9317875,-0.0003294999999999,0.0011635,1.0682125,0.0003295,-0.0011634999999999,0.8859895,-0.4422045,0.0324925,1.1230195,-0.4066745,-0.0023584999999999,0.8772695000000001,-0.7841144999999999,0.0103275,1.1292095,-0.7742745,-0.0132305,0
61,0.9979585,0.7163365,0.0392475,0.8568005,0.5000665,0.0501385,0.7650105,0.7107165,0.0196854999999999,1.1521705,0.5024265,0.0405635,1.2448705,0.7102165,-0.0035185,0.7314105,0.9365765,-0.0162995,1.2798205,0.9334765,-0.0549395,0.9318175,-0.0003134999999999,0.0010044999999999,1.0681825,0.0003135,-0.0010045,0.8860905,-0.4430635,0.0327735,1.1230705,-0.4077035,-0.0022805,0.8773405,-0.7851335,0.0106384999999999,1.1293605,-0.7756735,-0.0126145,0
62,0.9984645,0.7161305,0.039399,0.8575714999999999,0.5011705,0.050912,0.7665715,0.7124404999999999,0.025151,1.1524015,0.5029205,0.041441,1.2455815,0.7108405,0.001324,0.7333815,0.9389805,-0.0061019999999999,1.2806815,0.9349405,-0.0452779999999999,0.9318305,-0.0003015,0.000865,1.0681695,0.0003014999999999,-0.0008649999999999,0.8861815000000001,-0.4437995,0.033072,1.1230915,-0.4085795,-0.0021919999999999,0.8773515000000001,-0.7859895,0.01097,1.1292115,-0.7768495000000001,-0.0117519999999999,0
63,0.9989605,0.7159504999999999,0.039555,0.8581585,0.5021005,0.05161,0.7679085,0.7138905,0.030278,1.1526485,0.5032605,0.042161,1.2464885,0.7113404999999999,0.006206,0.7349885,0.9409305,0.0029689999999999,1.2817585,0.9360305,-0.036299,0.9318425,-0.0002935,0.0007279999999999,1.0681575,0.0002935,-0.0007279999999999,0.8862785,-0.4444595,0.033344,1.1231084999999998,-0.4095595,-0.0021179999999999,0.8773885,-0.7869095,0.011341,1.1289585,-0.7781095,-0.011091,0
64,0.999391,0.715833,0.0397435,0.858609,0.502603,0.0521015,0.7691490000000001,0.714883,0.0351475,1.152829,0.503513,0.0427575,1.2473489999999998,0.711613,0.0108865,0.736379,0.942273,0.0111225,1.282989,0.936863,-0.0278795,0.93184,-0.0002839999999999,0.0005995,1.06816,0.0002839999999999,-0.0005994999999999,0.886329,-0.445007,0.0336225,1.123069,-0.410547,-0.0020194999999999,0.877379,-0.787667,0.0116825,1.128669,-0.778727,-0.0103294999999999,0
65,0.999851,0.715817,0.0399855,0.859046,0.502907,0.0525725,0.7702260000000001,0.7155670000000001,0.0395065,1.153086,0.503677,0.0432715,1.248186,0.7117370000000001,0.0152415,0.737646,0.943217,0.0183275,1.284276,0.937487,-0.0198034999999999,0.931854,-0.0002599999999999,0.0005115,1.068146,0.00026,-0.0005114999999999,0.886416,-0.445503,0.0339045,1.123106,-0.411403,-0.0019054999999999,0.877366,-0.788323,0.0119955,1.128406,-0.7795829999999999,-0.0099854999999999,0
66,1.000279,0.715813,0.0402155,0.85945,0.503103,0.0530405,0.77113,0.715973,0.0430875,1.15331,0.503773,0.0437694999999999,1.24883,0.711743,0.0185035,0.73858,0.943683,0.0234995,1.28535,0.937813,-0.0137625,0.931863,-0.000239,0.0004314999999999,1.068137,0.0002389999999999,-0.0004315,0.88648,-0.446067,0.0341715,1.12316,-0.412037,-0.0017495,0.87736,-0.789047,0.0122814999999999,1.12814,-0.780357,-0.0095885,0
67,1.0005605,0.7157865,0.040376,0.8597395000000001,0.5031965,0.053454,0.7718595,0.7162465,0.046209,1.1534995,0.5038465,0.044171,1.2495495,0.7117365,0.021527,0.7392194999999999,0.9438965,0.02737,1.2863095,0.9380865,-0.008199,0.9318965,-0.0002385,0.0004019999999999,1.0681035,0.0002385,-0.0004019999999999,0.8865995,-0.4463835,0.034351,1.1232495,-0.4122335,-0.0016369999999999,0.8774195,-0.7894235000000001,0.012421,1.1278795,-0.7805035,-0.0088749999999999,0
68,1.000675,0.7158765,0.0404475,0.859888,0.5033065,0.0537505,0.772298,0.7164265000000001,0.0483745,1.153628,0.5037265000000001,0.0444455,1.250198,0.7118365000000001,0.0237295,0.7395579999999999,0.9440165,0.0300285,1.286908,0.9381865,-0.0043764999999999,0.931905,-0.0002175,0.0004115,1.068095,0.0002174999999999,-0.0004114999999999,0.886678,-0.4465435,0.0344165,1.123318,-0.4121035,-0.0016354999999999,0.8774379999999999,-0.7895034999999999,0.0124265,1.127828,-0.7803335,-0.0086574999999999,0
69,1.0007765,0.7160569999999999,0.040573,0.8599905000000001,0.5031869999999999,0.054027,0.7727505,0.716307,0.0500629999999999,1.1537605,0.503607,0.044588,1.2507105,0.711717,0.025297,0.7397705,0.943897,0.031694,1.2873605,0.938067,-0.0015909999999999,0.9319245,-0.0002389999999999,0.000445,1.0680755,0.000239,-0.000445,0.8867405,-0.446593,0.034478,1.1233805,-0.412053,-0.0016079999999999,0.8774905,-0.789513,0.012387,1.1277705,-0.780263,-0.008481,0
70,1.0008935,0.7162630000000001,0.040937,0.8600865,0.503073,0.054343,0.7730665000000001,0.7161930000000001,0.051467,1.1538965,0.5034930000000001,0.044735,1.2511265,0.7116030000000001,0.026661,0.7399565,0.943783,0.033193,1.2876665,0.937953,0.000403,0.9319375,-0.0002559999999999,0.000474,1.0680625,0.0002559999999999,-0.0004739999999999,0.8868065,-0.446707,0.034529,1.1234365,-0.412167,-0.0015859999999999,0.8775364999999999,-0.789647,0.012358,1.1276665,-0.7804669999999999,-0.008471,1
71,1.001,0.7165395,0.0413505,0.860191,0.5029895,0.0547015,0.773311,0.7161095000000001,0.0526414999999999,1.153971,0.5034095000000001,0.0449115,1.251481,0.7113095,0.0277124999999999,0.740081,0.9436995,0.0344135,1.288091,0.9377795,0.0019014999999999,0.931943,-0.0002665,0.0004824999999999,1.068057,0.0002665,-0.0004825,0.8868610000000001,-0.4467905,0.0345775,1.123551,-0.4124605,-0.0015675,0.8775410000000001,-0.7897305,0.0123154999999999,1.127701,-0.7804705,-0.0084655,1
72,1.0011045,0.7168415,0.0417685,0.8601445,0.5025615,0.0550475,0.7734745000000001,0.7157515,0.0534875,1.1540545,0.5032315,0.0450825,1.2519445,0.7110815,0.0282325,0.7401245000000001,0.9433015,0.0353795,1.2886445,0.9376215,0.0029325,0.9319495,-0.0002795,0.0005264999999999,1.0680505,0.0002795,-0.0005264999999999,0.8869045,-0.4468085,0.0345775,1.1236645,-0.4122985,-0.0016305,0.8775745000000001,-0.7897785,0.0122355,1.1278045,-0.7803285,-0.0082905,1
73,1.001189,0.717142,0.042245,0.8600760000000001,0.502222,0.055347,0.773556,0.715422,0.054147,1.154146,0.503202,0.045214,1.252306,0.711002,0.0283299999999999,0.740056,0.942962,0.036092,1.289166,0.937542,0.0032839999999999,0.931956,-0.000273,0.0005999999999999,1.068044,0.0002729999999999,-0.0005999999999999,0.886906,-0.446808,0.0345829999999999,1.123756,-0.412578,-0.001691,0.877566,-0.789828,0.012152,1.127886,-0.779868,-0.0076719999999999,1
74,1.001253,0.717465,0.042664,0.859965,0.501655,0.055646,0.773605,0.714915,0.054801,1.1542849999999998,0.502975,0.045348,1.252635,0.710945,0.028217,0.739975,0.942435,0.036668,1.289505,0.937475,0.003138,0.931957,-0.000262,0.000695,1.068043,0.0002619999999999,-0.0006949999999999,0.886905,-0.446775,0.034576,1.123875,-0.412925,-0.0017549999999999,0.877555,-0.789815,0.012059,1.127965,-0.779305,-0.007245,1
75,1.0012885,0.7178114999999999,0.043068,0.8598155000000001,0.5009015,0.055948,0.7736255,0.7142615,0.055389,1.1544154999999998,0.5027315,0.045379,1.2527655,0.7106315,0.028056,0.7398455000000002,0.9417615,0.037223,1.2897355,0.9371615,0.0029619999999999,0.9319665,-0.0002585,0.0008349999999999,1.0680335,0.0002585,-0.0008349999999999,0.8868955000000001,-0.4467385,0.034559,1.1239955,-0.4128185,-0.00184,0.8775855,-0.7897385,0.011954,1.1281755,-0.7790685,-0.008086,1
76,1.0013245,0.7181445,0.043415,0.8596135,0.5002645,0.056163,0.7736235,0.7136545,0.055865,1.1545235,0.5024645,0.045257,1.2529035,0.7106144999999999,0.027744,0.7396935,0.9411345,0.037693,1.2899135,0.9371145,0.002644,0.9319895,-0.0002384999999999,0.001015,1.0680105,0.0002385,-0.0010149999999999,0.8868335,-0.4467655,0.034357,1.1240735,-0.4128754999999999,-0.0020239999999999,0.8776035,-0.7897955,0.011665,1.1283935,-0.7791255,-0.008992,1
77,1.001335,0.71844,0.0436195,0.859396,0.49982,0.0562595,0.773576,0.71322,0.0561814999999999,1.154556,0.50234,0.0450895,1.253026,0.71048,0.0273264999999999,0.739526,0.94067,0.0381235,1.290056,0.93695,0.0021974999999999,0.932005,-0.000217,0.0011494999999999,1.067995,0.0002169999999999,-0.0011495,0.886726,-0.44683,0.0339745,1.124036,-0.41323,-0.0024165,0.8776160000000001,-0.7898900000000001,0.0113284999999999,1.128596,-0.77919,-0.0099405,1
78,1.00134,0.718711,0.0436855,0.8592270000000001,0.499471,0.0563085,0.773497,0.712851,0.0564605,1.154607,0.5022909999999999,0.0448615,1.253117,0.710351,0.0267414999999999,0.739357,0.940271,0.0385225,1.290187,0.936771,0.0015224999999999,0.932005,-0.000202,0.0012444999999999,1.067995,0.0002019999999999,-0.0012445,0.886587,-0.446909,0.0335045,1.123997,-0.4134489999999999,-0.0029015,0.8776070000000001,-0.7899390000000001,0.0108424999999999,1.129007,-0.779259,-0.0110535,1
79,1.0013315,0.718973,0.0435794999999999,0.8590325,0.499073,0.0563184999999999,0.7734025000000001,0.7124429999999999,0.0566674999999999,1.1546425,0.501983,0.0445275,1.2531825,0.7100529999999999,0.0260254999999999,0.7391125000000001,0.939833,0.0387565,1.2903025,0.936483,0.0006054999999999,0.9319885,-0.000189,0.0013924999999999,1.0680115,0.000189,-0.0013925,0.8864025000000001,-0.446967,0.0329055,1.1239425,-0.413597,-0.0035195,0.8775525000000001,-0.7900170000000001,0.0101885,1.1293925,-0.7794570000000001,-0.0122654999999999,1
80,1.001357,0.7191869999999999,0.0434175,0.858919,0.498557,0.0563525,0.773309,0.711947,0.0568415,1.154699,0.5016569999999999,0.0441255,1.253269,0.709757,0.0252815,0.7388490000000001,0.939307,0.0389675,1.290459,0.936197,-0.0004564999999999,0.931956,-0.000151,0.0015005,1.068044,0.0001509999999999,-0.0015004999999999,0.8861090000000001,-0.447033,0.0322125,1.123869,-0.413973,-0.0042125,0.8775189999999999,-0.7900830000000001,0.0095015,1.129569,-0.779783,-0.0137105,1
81,1.0013314999999998,0.719389,0.043128,0.8588765,0.4982689999999999,0.056316,0.7732065,0.7117089999999999,0.056998,1.1546465,0.501309,0.0435409999999999,1.2532765,0.7094389999999999,0.024461,0.7385665,0.939049,0.039032,1.2905465,0.935819,-0.0017339999999999,0.9318865,-9.20000000000018e-05,0.001533,1.0681135,9.20000000000018e-05,-0.0015329999999999,0.8856165,-0.447211,0.031279,1.1236864999999998,-0.414681,-0.005023,0.8774165,-0.7901710000000001,0.008671,1.1295665,-0.7803910000000001,-0.0155169999999999,1
82,1.001248,0.7196205,0.042706,0.8587520000000001,0.4980205,0.056139,0.7730520000000001,0.7115005000000001,0.056963,1.154522,0.5011205000000001,0.042817,1.253192,0.7092705,0.023491,0.738232,0.9388205,0.03896,1.290562,0.9356205,-0.0031809999999999,0.931865,-2.4500000000003685e-05,0.001642,1.068135,2.4499999999996747e-05,-0.0016419999999999,0.884912,-0.4474095,0.029965,1.123412,-0.4154095,-0.0060199999999999,0.877252,-0.7902095,0.007686,1.129462,-0.7810495,-0.0174539999999999,1
83,1.001269,0.7199485,0.0422195,0.858634,0.4978485,0.0558375,0.772974,0.7113585,0.0568145,1.154494,0.5010085,0.0420535,1.253154,0.7091785,0.0224295,0.7378640000000001,0.9386285,0.0388235,1.290744,0.9354985,-0.0047054999999999,0.931849,-3.850000000000381e-05,0.0016735,1.068151,3.849999999999687e-05,-0.0016734999999999,0.8840040000000001,-0.4474815,0.0282915,1.123034,-0.4162015,-0.0071304999999999,0.877054,-0.7904915,0.0064925,1.129384,-0.7811915,-0.0191744999999999,1
84,1.001291,0.7201354999999999,0.041535,0.858528,0.4980255,0.055285,0.772768,0.7114455,0.05653,1.154648,0.5009055,0.041485,1.253258,0.7090655,0.021155,0.737498,0.9386755,0.038498,1.290938,0.9353555,-0.006499,0.931827,-3.149999999999681e-05,0.001686,1.068173,3.150000000000375e-05,-0.001686,0.883058,-0.4476245,0.026141,1.122608,-0.4171945,-0.008561,0.876758,-0.7908145,0.00502,1.129328,-0.7814345,-0.0211339999999999,1
85,1.001275,0.720191,0.0406415,0.858352,0.498061,0.0544235,0.7725420000000001,0.711481,0.0559345,1.154702,0.5008109999999999,0.0405535,1.253312,0.7089810000000001,0.0197085,0.736982,0.938711,0.0378885,1.290942,0.935211,-0.0084935,0.931745,3.9999999999970615e-06,0.0015434999999999,1.068255,-4.000000000004e-06,-0.0015434999999999,0.882172,-0.447789,0.0233365,1.122032,-0.418759,-0.0106275,0.876332,-0.791139,0.0029595,1.129192,-0.7815989999999999,-0.0234545,1
86,1.001284,0.7202594999999999,0.03975,0.8580910000000002,0.4978895,0.053419,0.772311,0.7112695,0.055184,1.154721,0.5006395,0.039411,1.253301,0.7087895,0.018126,0.736421,0.9384695,0.037091,1.290901,0.9349595,-0.0105969999999999,0.931637,6.649999999999712e-05,0.00143,1.068363,-6.650000000000406e-05,-0.00143,0.881261,-0.4479305,0.020287,1.121431,-0.4203705,-0.0130139999999999,0.875881,-0.7915805,0.000614,1.128981,-0.7817505,-0.025927,1
87,1.0013045,0.7204415,0.038727,0.8577785,0.4976214999999999,0.052281,0.7720385,0.7110815,0.054281,1.1546985,0.5004215,0.038217,1.2532185,0.7085615,0.016459,0.7358385000000001,0.9382715,0.036146,1.2908185,0.9347215,-0.0127409999999999,0.9315105,0.0001805,0.001287,1.0684895,-0.0001805,-0.001287,0.8802985000000001,-0.4479085,0.016965,1.1208385,-0.4217485,-0.0157679999999999,0.8753585000000002,-0.7919385,-0.0019649999999999,1.1285585,-0.7820085,-0.028591,1
88,1.001372,0.720827,0.0376709999999999,0.857461,0.497407,0.050971,0.771711,0.710987,0.053278,1.154691,0.500367,0.036927,1.253091,0.708547,0.014777,0.735311,0.938147,0.0352009999999999,1.290701,0.934687,-0.014861,0.931375,0.0002749999999999,0.001068,1.068625,-0.0002749999999999,-0.0010679999999999,0.879351,-0.447523,0.013488,1.120261,-0.4220129999999999,-0.01881,0.874841,-0.792063,-0.0046359999999999,1.128141,-0.781893,-0.0311909999999999,1
89,1.001421,0.7211044999999999,0.036614,0.857191,0.4977345,0.0494649999999999,0.7712510000000001,0.7112045,0.052237,1.154671,0.5002044999999999,0.035736,1.253111,0.7084045,0.013186,0.734781,0.9383245,0.034275,1.290551,0.9345445,-0.016818,0.931254,0.0003604999999999,0.000887,1.068746,-0.0003604999999999,-0.000887,0.878401,-0.4471755,0.00984,1.119611,-0.4220454999999999,-0.0220369999999999,0.8743110000000001,-0.7922555,-0.0074199999999999,1.127581,-0.7816155,-0.0338539999999999,1
90,1.0014835,0.7211304999999999,0.035619,0.8572795,0.4978904999999999,0.0484929999999999,0.7707795,0.7111805,0.0513359999999999,1.1549195,0.5001705,0.035152,1.2533195,0.7083305,0.011705,0.7342195,0.9382405,0.033428,1.2903295,0.9344505,-0.018756,0.9311745,0.0004294999999999,0.00081,1.0688255,-0.0004294999999999,-0.00081,0.8774595000000001,-0.4468595,0.0061369999999999,1.1188695,-0.4217295,-0.0255,0.8736995000000001,-0.7924195,-0.010134,1.1268895,-0.7813195000000001,-0.036539,1
91,1.0015605,0.7209844999999999,0.03467,0.8574845,0.4977944999999999,0.047847,0.7704045000000002,0.7107844999999999,0.0510479999999999,1.1553245,0.5000645,0.034847,1.2534745,0.7082145,0.0103519999999999,0.7336445,0.9377845,0.032693,1.2900345,0.9343345,-0.020675,0.9310745,0.0004944999999999,0.0006199999999999,1.0689255,-0.0004945,-0.00062,0.8763745000000001,-0.4463654999999999,0.0022669999999999,1.1181445,-0.4212654999999999,-0.029706,0.8730344999999999,-0.7923855000000001,-0.012787,1.1261045,-0.7809355,-0.039246,1
92,1.001558,0.7205999999999999,0.0336049999999999,0.8577440000000001,0.49754,0.0474529999999999,0.770034,0.71027,0.05066,1.155664,0.49996,0.034492,1.253704,0.70807,0.008952,0.733024,0.93723,0.032004,1.289564,0.93426,-0.022702,0.930982,0.0005679999999999,0.00053,1.069018,-0.0005679999999999,-0.00053,0.875094,-0.44489,-0.002504,1.117544,-0.42073,-0.034566,0.8722840000000001,-0.7918499999999999,-0.0154839999999999,1.125314,-0.7803500000000001,-0.042166,1
93,1.001593,0.719981,0.0325745,0.857892,0.4973309999999999,0.0468935,0.769592,0.7097410000000001,0.0501905,1.155822,0.4999909999999999,0.0335585,1.254252,0.707981,0.0077785,0.732372,0.936671,0.0312584999999999,1.289192,0.934261,-0.0244435,0.930915,0.0006519999999999,0.0003784999999999,1.069085,-0.0006519999999999,-0.0003785,0.873692,-0.4428789999999999,-0.0078775,1.117062,-0.419739,-0.0403165,0.871542,-0.7910889999999999,-0.0182875,1.124522,-0.779629,-0.0452065,1
94,1.0017355,0.718822,0.03158,0.8582165000000002,0.497072,0.046523,0.7693565,0.7091219999999999,0.0499099999999999,1.1560865,0.499942,0.032994,1.2548865,0.7077819999999999,0.006829,0.7318965,0.936042,0.030785,1.2890465,0.934162,-0.025721,0.9309185,0.000733,0.000371,1.0690814999999998,-0.0007329999999999,-0.0003709999999999,0.8724365000000001,-0.440768,-0.01315,1.1167665,-0.418388,-0.046011,0.8709264999999999,-0.790118,-0.020697,1.1238165,-0.778698,-0.047976,1
95,1.0018815,0.7175165,0.030609,0.8585834999999999,0.4965665,0.046279,0.7690935,0.7083265,0.049705,1.1564535,0.4995364999999999,0.032722,1.2555835,0.7071965,0.006058,0.7313735,0.9352465,0.030699,1.2889635,0.9336965,-0.026706,0.9309485,0.0008625,0.000347,1.0690515,-0.0008625,-0.000347,0.8712835,-0.4379435,-0.018821,1.1165635,-0.4163535,-0.05208,0.8704535,-0.7887435,-0.023144,1.1230935,-0.7770235,-0.050865,1
96,1.002152,0.716008,0.0297465,0.85914,0.496128,0.0462705,0.76877,0.707578,0.0495805,1.15696,0.4991880000000001,0.0326324999999999,1.25657,0.706538,0.0054925,0.7309300000000001,0.934498,0.0307645,1.28919,0.933128,-0.0273794999999999,0.931052,0.000932,0.0004035,1.068948,-0.0009319999999999,-0.0004035,0.87009,-0.434952,-0.0246385,1.11645,-0.413852,-0.0585035,0.87012,-0.787242,-0.0254644999999999,1.12245,-0.7751819999999999,-0.0535765,1
97,1.0024675,0.7143785,0.0288165,0.8596585000000001,0.4954185,0.0461895,0.7685485000000001,0.7065585,0.0494415,1.1575685,0.4983685,0.0324675,1.2575985,0.7055485,0.0049355,0.7302685,0.9334585,0.0298624999999999,1.2894385,0.9322685,-0.0279235,0.9311635,0.0010695,0.0004095,1.0688365,-0.0010695,-0.0004095,0.8687585000000001,-0.4314915,-0.0308365,1.1162985,-0.4103715,-0.0652355,0.8697885000000001,-0.7854315000000001,-0.0279465,1.1217585,-0.7733715,-0.0565465,1
98,1.0028594999999998,0.712869,0.027706,0.8601995,0.494959,0.046036,0.7683695,0.705759,0.049299,1.1582695,0.497819,0.032344,1.2586395,0.704779,0.0041659999999999,0.7296795,0.932629,0.029739,1.2898795,0.931609,-0.028455,0.9313005,0.0012299999999999,0.00043,1.0686995,-0.00123,-0.0004299999999999,0.8674495,-0.427591,-0.03742,1.1161795,-0.406381,-0.072189,0.8694495000000001,-0.783171,-0.030581,1.1210595,-0.771111,-0.059643,1
99,1.0033139999999998,0.7112525000000001,0.026427,0.860451,0.4949524999999999,0.045562,0.768301,0.7054825,0.048787,1.158711,0.4969625,0.0317529999999999,1.259471,0.7036925,0.003249,0.7288610000000001,0.9323325,0.029129,1.290331,0.9306525,-0.028941,0.931409,0.0014074999999999,0.000376,1.068591,-0.0014075,-0.0003759999999999,0.866141,-0.4232775,-0.044415,1.116111,-0.4022475,-0.079246,0.869161,-0.7805774999999999,-0.0333619999999999,1.120341,-0.7684375000000001,-0.062777,1
100,1.0037955,0.70982,0.024922,0.8606945,0.49421,0.044789,0.7681545000000001,0.70472,0.047595,1.1590045,0.49613,0.030864,1.2604945,0.7025600000000001,0.0021139999999999,0.7279545000000001,0.93111,0.028416,1.2911645,0.92965,-0.029792,0.9315525,0.0014909999999999,0.000432,1.0684475,-0.0014909999999999,-0.000432,0.8647445,-0.41852,-0.051472,1.1159745,-0.3984899999999999,-0.086027,0.8688945000000001,-0.77745,-0.036244,1.1196145,-0.76517,-0.066077,1
101,1.004236,0.708597,0.0233255,0.8609640000000001,0.4934469999999999,0.0437635,0.767964,0.703877,0.0462455,1.159254,0.495337,0.0300675,1.261394,0.701427,0.0006635,0.727034,0.930107,0.0271124999999999,1.292174,0.928557,-0.0311124999999999,0.931659,0.001613,0.0004975,1.068341,-0.0016129999999999,-0.0004974999999999,0.863564,-0.414213,-0.0579135,1.115714,-0.3947029999999999,-0.0925125,0.868544,-0.7741129999999999,-0.0391995,1.118894,-0.761753,-0.0692375,1
102,1.004681,0.707493,0.021448,0.861232,0.492793,0.0426789999999999,0.7674719999999999,0.703223,0.04462,1.159422,0.4944229999999999,0.029037,1.261912,0.700243,-0.0013829999999999,0.726022,0.929293,0.025286,1.293252,0.927353,-0.03306,0.93179,0.001627,0.000664,1.06821,-0.001627,-0.0006639999999999,0.862542,-0.409847,-0.063943,1.115402,-0.390437,-0.098574,0.868282,-0.770317,-0.042163,1.118182,-0.757807,-0.072476,1
103,1.0051629999999998,0.7067215,0.019351,0.861536,0.4921514999999999,0.041378,0.767476,0.7025315,0.042415,1.159686,0.4937215,0.027955,1.262446,0.6992815,-0.003919,0.7249559999999999,0.9284715,0.02273,1.294326,0.9263315,-0.03594,0.931827,0.0016135,0.000826,1.068173,-0.0016135,-0.000826,0.8616159999999999,-0.4051885,-0.070034,1.115116,-0.3859085,-0.104682,0.8680559999999999,-0.7661085,-0.045249,1.117586,-0.7534985,-0.075929,1
104,1.0055889999999998,0.7059345,0.0166695,0.861829,0.4918444999999999,0.0398525,0.767099,0.7020745,0.0396055,1.159709,0.4934044999999999,0.0264865,1.263099,0.6987345,-0.0068844999999999,0.723869,0.9278945,0.0200255,1.295569,0.9257145,-0.0389965,0.931892,0.0015325,0.0010765,1.068108,-0.0015324999999999,-0.0010764999999999,0.860719,-0.4005155,-0.0761635,1.114809,-0.3813655,-0.1109545,0.8677190000000001,-0.7616854999999999,-0.0486005,1.117029,-0.7491255,-0.0794775,1
105,1.005937,0.704672,0.013682,0.862116,0.491512,0.038048,0.7668159999999999,0.701692,0.036714,1.159846,0.493382,0.024689,1.263586,0.698412,-0.0098929999999999,0.7228860000000001,0.927352,0.017241,1.296866,0.925332,-0.042127,0.931983,0.0014609999999999,0.001329,1.068017,-0.0014609999999999,-0.001329,0.859896,-0.3960579999999999,-0.082357,1.114496,-0.377498,-0.117088,0.867336,-0.7571479999999999,-0.052039,1.116456,-0.744648,-0.08306,1
106,1.0062115,0.7038599999999999,0.010268,0.8623095000000001,0.49128,0.035905,0.7664795,0.70155,0.033392,1.1598395,0.49299,0.022273,1.2641195,0.69778,-0.013346,0.7217095,0.92674,0.0127499999999999,1.2989195,0.92404,-0.047942,0.9321895,0.00138,0.0015359999999999,1.0678105,-0.00138,-0.001536,0.8591995,-0.3898999999999999,-0.0891319999999999,1.1143295,-0.37317,-0.124086,0.8669795000000001,-0.75092,-0.055877,1.1159695,-0.7387100000000001,-0.086926,1
107,1.006524,0.7026355,0.0065745,0.862487,0.4909055,0.0335995,0.766157,0.7009855,0.0296605,1.159717,0.4926255,0.0192495,1.264837,0.6967855,-0.0176985,0.7205170000000001,0.9259755,0.0073615,1.300867,0.9182455,-0.0547815,0.932364,0.0011965,0.0019045,1.067636,-0.0011964999999999,-0.0019045,0.858567,-0.3824745,-0.0967805,1.114207,-0.3679845,-0.1316345,0.866727,-0.7434145,-0.0600605,1.115597,-0.7312345,-0.0912755,1
108,1.006748,0.7013935,0.0029274999999999,0.862526,0.4902035,0.0309875,0.765906,0.7001634999999999,0.0257824999999999,1.1597559999999998,0.4923635,0.0162204999999999,1.265436,0.6960435,-0.0223065,0.719406,0.9249535,0.0018204999999999,1.302756,0.9135135,-0.0618715,0.93254,0.0010605,0.0023144999999999,1.06746,-0.0010604999999999,-0.0023145,0.858096,-0.3751065,-0.1043255,1.114106,-0.3635765,-0.1395265,0.8665160000000001,-0.7357165,-0.0642435,1.115286,-0.7233765,-0.0955515,1
109,1.006918,0.6998865000000001,-0.0013885,0.862619,0.4905064999999999,0.0278984999999999,0.765449,0.7001765,0.0210534999999999,1.159799,0.4913065,0.0127865,1.265909,0.6947365,-0.0277785,0.718279,0.9252165,-0.0046845,1.304459,0.9093665,-0.0698435,0.932617,0.0011335,0.0027234999999999,1.067383,-0.0011334999999999,-0.0027235,0.857719,-0.3671235,-0.1126325,1.114169,-0.3585834999999999,-0.1481025,0.8663290000000001,-0.7267435,-0.0687515,1.115049,-0.7140835,-0.1002755,1
110,1.007062,0.6981265000000001,-0.005788,0.8628480000000001,0.4909064999999999,0.0240869999999999,0.765488,0.7004465000000001,0.015981,1.159888,0.4899265,0.009334,1.266328,0.6928465,-0.033519,0.717518,0.9253365,-0.011649,1.306028,0.9055265,-0.078293,0.932664,0.0012204999999999,0.0031209999999999,1.067336,-0.0012204999999999,-0.0031209999999999,0.8574480000000001,-0.3592535,-0.120891,1.114318,-0.3533835,-0.156845,0.8662380000000001,-0.7172035,-0.073069,1.114968,-0.7039135,-0.104638,1
111,1.007211,0.696318,-0.0103149999999999,0.8632219999999999,0.4913079999999999,0.020489,0.765712,0.700658,0.010771,1.160172,0.488678,0.006051,1.266812,0.6912980000000001,-0.0391969999999999,0.716602,0.925418,-0.01843,1.307492,0.902318,-0.0870519999999999,0.932628,0.0014009999999999,0.003492,1.067372,-0.0014009999999999,-0.003492,0.857232,-0.351642,-0.12893,1.114542,-0.347992,-0.165404,0.866232,-0.7075619999999999,-0.07732,1.1151719999999998,-0.693522,-0.1085279999999999,1
112,1.0073365,0.694349,-0.01467,0.8636195,0.492459,0.017067,0.7656795000000001,0.701489,0.005499,1.1604695,0.487789,0.002686,1.2672695,0.689759,-0.045022,0.7163395,0.926119,-0.024758,1.3087195,0.899439,-0.095916,0.9325575,0.0016709999999999,0.0038219999999999,1.0674425,-0.0016709999999999,-0.0038219999999999,0.8569095,-0.344381,-0.137012,1.1147794999999998,-0.342361,-0.17374,0.8661295,-0.6977709999999999,-0.0821129999999999,1.1155095,-0.682951,-0.112172,1
113,1.0073995,0.6928894999999999,-0.0188855,0.8641225,0.4893395,0.0134294999999999,0.7651825,0.6987194999999999,0.0005644999999999,1.1607825,0.4869995,-0.0004434999999999,1.2675525,0.6885095000000001,-0.0505505,0.7154725,0.9227295,-0.0326265,1.3097025,0.8975694999999999,-0.1045285,0.9324685,0.0018795,0.0040544999999999,1.0675315,-0.0018794999999999,-0.0040545,0.8563525,-0.3362805,-0.1448134999999999,1.1149224999999998,-0.3358005,-0.1818345,0.8660625,-0.6869304999999999,-0.0864335,1.1159525,-0.6701505000000001,-0.1161815,1
114,1.0074955,0.692259,-0.0233935,0.8646255,0.487259,0.0095714999999999,0.7647255,0.6964790000000001,-0.0046425,1.1611055,0.485969,-0.0036375,1.2679055,0.687219,-0.0560725,0.7144955,0.920049,-0.0405355,1.3103855,0.895659,-0.1131215,0.9324155,0.002071,0.0043054999999999,1.0675845,-0.002071,-0.0043055,0.8558555000000001,-0.327601,-0.1526965,1.1151255,-0.328621,-0.1897904999999999,0.8660655000000002,-0.674971,-0.0909455,1.1164755,-0.656641,-0.1204645,1
115,1.0074035,0.6909665,-0.027444,0.8647315,0.4856665,0.0063059999999999,0.7640315000000001,0.6946765,-0.009267,1.1612515,0.4854365,-0.00615,1.2676915,0.6862465000000001,-0.060939,0.7138815000000001,0.9181465,-0.046344,1.3100715,0.8946365000000001,-0.118637,0.9322405,0.0022225,0.0046799999999999,1.0677595,-0.0022225,-0.00468,0.8552915,-0.3163335,-0.159915,1.1151515,-0.3173535,-0.196545,0.8659515,-0.6643135,-0.094966,1.1169915,-0.6444835,-0.124048,1
116,1.0071665,0.6896495,-0.0312879999999999,0.8648005,0.4838795,0.003261,0.7636005,0.6927095,-0.0135499999999999,1.1609705,0.4847295,-0.0084489999999999,1.2674105,0.6855195,-0.0650959999999999,0.7134005,0.9160095,-0.051826,1.3096305,0.8979895,-0.1237949999999999,0.9320365,0.0024205,0.004829,1.0679635,-0.0024205,-0.0048289999999999,0.8546805,-0.3060805,-0.166209,1.1150805,-0.3071005,-0.202639,0.8657604999999999,-0.6545205,-0.0985389999999999,1.1173704999999998,-0.6333605,-0.127168,1
117,1.0063015,0.69006,-0.0386605,0.8644265,0.48365,-0.0032624999999999,0.7625065,0.69228,-0.0214634999999999,1.1600765,0.48563,-0.0144324999999999,1.2662365,0.68625,-0.0729684999999999,0.7122665,0.91539,-0.0611445,1.3085665,0.90203,-0.1327225,0.9318095,0.00257,0.0049664999999999,1.0681905,-0.00257,-0.0049664999999999,0.8534865,-0.2940399999999999,-0.1757065,1.1143665,-0.29506,-0.2118065,0.8649465000000001,-0.64277,-0.1056624999999999,1.1170865,-0.62041,-0.1338295,1
118,1.005447,0.6910850000000001,-0.0457879999999999,0.864039,0.483335,-0.0099929999999999,0.761509,0.691815,-0.029217,1.158349,0.485395,-0.0211139999999999,1.265399,0.685815,-0.0803639999999999,0.7114389999999999,0.914775,-0.070286,1.307309,0.903725,-0.141033,0.931677,0.002625,0.0049939999999999,1.068323,-0.0026249999999999,-0.0049939999999999,0.850279,-0.282495,-0.189896,1.114529,-0.283585,-0.225266,0.864509,-0.631145,-0.111409,1.116619,-0.607815,-0.139917,1
119,1.004517,0.69237,-0.053044,0.863387,0.48224,-0.017114,0.7603670000000001,0.6907,-0.037008,1.156727,0.48626,-0.028031,1.2638569999999998,0.68654,-0.087694,0.710397,0.91357,-0.079103,1.305837,0.90576,-0.149251,0.931619,0.00253,0.0051269999999999,1.068381,-0.00253,-0.005127,0.847027,-0.2706199999999999,-0.204035,1.114717,-0.27117,-0.238775,0.864027,-0.6193799999999999,-0.117298,1.1159469999999998,-0.59525,-0.145994,1
120,1.003709,0.6932050000000001,-0.060002,0.862729,0.480775,-0.02418,0.7594290000000001,0.6890449999999999,-0.044809,1.154939,0.487425,-0.0348119999999999,1.262879,0.687335,-0.095214,0.7092689999999999,0.911855,-0.087872,1.305049,0.907625,-0.157545,0.931614,0.0023549999999999,0.005273,1.068386,-0.002355,-0.005273,0.8436589999999999,-0.259295,-0.21792,1.114949,-0.259785,-0.25187,0.863549,-0.6080749999999999,-0.123051,1.115259,-0.5829249999999999,-0.151796,1
121,1.002898,0.6946000000000001,-0.0670345,0.862198,0.47904,-0.0313325,0.758628,0.6874199999999999,-0.0525155,1.153118,0.48733,-0.0418065,1.262338,0.6874499999999999,-0.1025185,0.7083980000000001,0.91017,-0.0962745,1.304068,0.90845,-0.1654545,0.931609,0.0022199999999999,0.0053774999999999,1.068391,-0.0022199999999999,-0.0053775,0.840168,-0.24716,-0.2318685,1.115378,-0.24736,-0.2652985,0.863308,-0.59396,-0.1287405,1.1145779999999998,-0.5698799999999999,-0.1576855,1
122,1.0020705,0.69542,-0.073891,0.8615395,0.48162,-0.037347,0.7579695000000001,0.6893,-0.0604,1.1515395,0.48705,-0.048685,1.2608695,0.6872,-0.109657,0.7078694999999999,0.9125,-0.103659,1.3026195,0.9081,-0.173371,0.9315325,0.0022099999999999,0.005543,1.0684675,-0.00221,-0.005543,0.8365795,-0.23564,-0.245687,1.1158995,-0.23582,-0.278467,0.8630295,-0.58047,-0.134478,1.1138495,-0.55828,-0.16347,1
123,1.0012825,0.69493,-0.0806424999999999,0.8608305,0.48228,-0.0435364999999999,0.7574305,0.68986,-0.0683915,1.1497605,0.48599,-0.0557664999999999,1.2597105,0.68579,-0.1169974999999999,0.7072805000000001,0.91323,-0.1116974999999999,1.3012105,0.90652,-0.1815355,0.9314395,0.0022899999999999,0.0054845,1.0685605,-0.00229,-0.0054844999999999,0.8324205,-0.22211,-0.2606254999999999,1.1165105,-0.22219,-0.2922654999999999,0.8627405,-0.56494,-0.1403154999999999,1.1130505,-0.54435,-0.1689175,1
124,1.0006715,0.6948,-0.0872295,0.8601495,0.4836,-0.0497505,0.7568995000000001,0.69088,-0.0764945,1.1480795,0.48594,-0.0628335,1.2588795,0.68526,-0.1242095,0.7067695,0.91449,-0.1198255,1.3001895,0.9059,-0.1896105,0.9311755,0.00236,0.0054504999999999,1.0688245,-0.00236,-0.0054504999999999,0.8283795,-0.20783,-0.2752795,1.1171395,-0.2083199999999999,-0.3061795,0.8627895,-0.54908,-0.1455815,1.1123695,-0.52982,-0.1744025,1
125,1.000246,0.696195,-0.093725,0.8596110000000001,0.484135,-0.055937,0.7561510000000001,0.691565,-0.084047,1.146501,0.4841749999999999,-0.06972,1.258221,0.683415,-0.131094,0.706331,0.915245,-0.127781,1.299431,0.903955,-0.197206,0.930884,0.0024549999999999,0.0054249999999999,1.069116,-0.002455,-0.0054249999999999,0.8245910000000001,-0.193155,-0.289655,1.1178709999999998,-0.194155,-0.319915,0.862961,-0.533075,-0.150884,1.111411,-0.5160850000000001,-0.18035,1
126,1.000579,0.6951350000000001,-0.0965459999999999,0.85975,0.483545,-0.058404,0.75618,0.691155,-0.087904,1.14553,0.481945,-0.073051,1.2582,0.681045,-0.134359,0.70689,0.914895,-0.132043,1.29937,0.901455,-0.201036,0.930615,0.0026049999999999,0.0053399999999999,1.069385,-0.002605,-0.0053399999999999,0.82132,-0.178455,-0.30071,1.11928,-0.180165,-0.33019,0.86368,-0.5176149999999999,-0.152706,1.11113,-0.502705,-0.182599,1
127,1.0009344999999998,0.69352,-0.099173,0.8598855,0.48304,-0.0607789999999999,0.7561555,0.69086,-0.0912839999999999,1.1455455,0.48137,-0.0756059999999999,1.2581155,0.6795599999999999,-0.137844,0.7073655,0.9146,-0.135629,1.2992754999999998,0.90012,-0.2048749999999999,0.9303915,0.00271,0.005295,1.0696085,-0.0027099999999999,-0.0052949999999999,0.8201455,-0.16453,-0.3059849999999999,1.1197755,-0.1662599999999999,-0.335105,0.8643255,-0.50261,-0.1541739999999999,1.1108855,-0.48992,-0.184759,1
128,1.0013165,0.69175,-0.1016229999999999,0.8601915,0.4819299999999999,-0.063219,0.7566115,0.6898599999999999,-0.0947119999999999,1.1456115,0.4799,-0.0781119999999999,1.2581615,0.67765,-0.1409979999999999,0.7073815,0.91365,-0.1389119999999999,1.2991815,0.8981399999999999,-0.2089539999999999,0.9301415,0.0028799999999999,0.0051,1.0698585,-0.0028799999999999,-0.0050999999999999,0.8190815,-0.15056,-0.31111,1.1202615,-0.1522899999999999,-0.33956,0.8653115,-0.48781,-0.1552619999999999,1.1106714999999998,-0.47751,-0.1867059999999999,1
129,1.0016079999999998,0.690465,-0.104103,0.8605160000000001,0.481385,-0.065702,0.756996,0.689605,-0.097887,1.145546,0.477875,-0.0807109999999999,1.257886,0.675415,-0.143897,0.7077460000000001,0.913425,-0.142036,1.299206,0.895685,-0.2128399999999999,0.929888,0.0031049999999999,0.0049,1.070112,-0.003105,-0.0048999999999999,0.817966,-0.135875,-0.31632,1.120596,-0.1376049999999999,-0.34411,0.866286,-0.4732849999999999,-0.156067,1.110516,-0.4644549999999999,-0.18843,1
130,1.002156,0.68881,-0.106368,0.861038,0.48051,-0.068088,0.757568,0.68881,-0.101091,1.145738,0.47662,-0.083092,1.258518,0.67371,-0.146899,0.708288,0.91269,-0.145137,1.300008,0.8938400000000001,-0.21668,0.929653,0.00324,0.0048699999999999,1.070347,-0.0032399999999999,-0.00487,0.817088,-0.1251899999999999,-0.32088,1.120858,-0.1278099999999999,-0.34818,0.866928,-0.4592999999999999,-0.157187,1.110618,-0.45189,-0.190238,1
131,1.002748,0.68653,-0.108666,0.86161,0.47983,-0.070358,0.75755,0.6881999999999999,-0.104029,1.14596,0.4757099999999999,-0.0853879999999999,1.25922,0.6718999999999999,-0.150119,0.70871,0.91182,-0.148598,1.30085,0.89182,-0.22058,0.929397,0.0033599999999999,0.00481,1.070603,-0.00336,-0.0048099999999999,0.81631,-0.11546,-0.3251199999999999,1.12092,-0.11859,-0.35194,0.86747,-0.4458,-0.1582879999999999,1.11081,-0.43976,-0.191043,1
132,1.0031845,0.68589,-0.110675,0.8622115,0.47818,-0.0727839999999999,0.7581115,0.68649,-0.106381,1.1461115,0.47417,-0.087917,1.2594215,0.6704600000000001,-0.152841,0.7093415000000001,0.91023,-0.150758,1.3014815,0.8902800000000001,-0.223805,0.9291535,0.00346,0.004985,1.0708465,-0.0034599999999999,-0.004985,0.8162115,-0.1072399999999999,-0.327975,1.1209515,-0.1100999999999999,-0.355005,0.8689315,-0.43445,-0.159431,1.1109815,-0.42962,-0.191844,1
133,1.0032465,0.68508,-0.112505,0.8625665,0.476,-0.07512,0.7583565,0.68436,-0.108244,1.1460765,0.4720999999999999,-0.090406,1.2595965,0.66856,-0.155566,0.7098265,0.90813,-0.152791,1.3017165,0.88825,-0.226735,0.9289675,0.0035299999999999,0.0051549999999999,1.0710325,-0.0035299999999999,-0.005155,0.8160665,-0.09904,-0.3305949999999999,1.1207965,-0.1016699999999999,-0.357795,0.8698965000000001,-0.42567,-0.1615,1.1108665,-0.4201499999999999,-0.193287,1
134,1.0031865,0.68302,-0.1139389999999999,0.8626495000000001,0.4753,-0.077259,0.7582895000000001,0.68359,-0.1100999999999999,1.1458995,0.47187,-0.0928529999999999,1.2597995,0.6678999999999999,-0.158519,0.7097495,0.9074,-0.1543359999999999,1.3016595,0.88755,-0.22957,0.9288405,0.0037099999999999,0.00535,1.0711595,-0.0037099999999999,-0.0053499999999999,0.8158695,-0.0911299999999999,-0.33292,1.1205595,-0.09336,-0.36041,0.8708895,-0.41516,-0.162459,1.1108195,-0.4115799999999999,-0.1951689999999999,1
135,1.0030899999999998,0.681915,-0.115187,0.862581,0.473715,-0.079577,0.758171,0.682005,-0.1118219999999999,1.145711,0.4705049999999999,-0.0951139999999999,1.260031,0.666515,-0.161189,0.709681,0.905925,-0.155659,1.301771,0.886135,-0.2324399999999999,0.92873,0.0036849999999999,0.00551,1.07127,-0.0036849999999999,-0.00551,0.815681,-0.082795,-0.33501,1.120041,-0.084755,-0.36274,0.8708210000000001,-0.404825,-0.1637259999999999,1.110881,-0.403035,-0.196933,1
136,1.003039,0.6807650000000001,-0.116075,0.862438,0.472165,-0.081714,0.7580980000000002,0.680455,-0.113215,1.145508,0.469205,-0.0973199999999999,1.259728,0.665815,-0.1633129999999999,0.709668,0.904455,-0.15647,1.301778,0.8852549999999999,-0.234955,0.928602,0.0036849999999999,0.005675,1.071398,-0.0036849999999999,-0.0056749999999999,0.815538,-0.074415,-0.336925,1.119328,-0.075925,-0.364875,0.870668,-0.394665,-0.165001,1.111168,-0.394625,-0.197644,1
137,1.0031994999999998,0.6792750000000001,-0.1163829999999999,0.8623915,0.471965,-0.083393,0.7581315,0.680185,-0.1141509999999999,1.1453215,0.467795,-0.0994259999999999,1.2596215,0.664405,-0.16541,0.7093815,0.904295,-0.156969,1.3018415,0.884045,-0.2367099999999999,0.9285145,0.0037349999999999,0.0059199999999999,1.0714855,-0.0037349999999999,-0.0059199999999999,0.8155615,-0.0649949999999999,-0.33852,1.1186315,-0.0660049999999999,-0.36684,0.8706015,-0.383435,-0.165596,1.1115115,-0.384875,-0.19885,1
138,1.00308,0.677855,-0.1165809999999999,0.86234,0.4716559999999999,-0.084836,0.7579899999999999,0.6798150000000001,-0.1146609999999999,1.14512,0.466871,-0.1012839999999999,1.25949,0.6632849999999999,-0.167344,0.70909,0.903995,-0.1571409999999999,1.30205,0.8830549999999999,-0.238045,0.928432,0.003755,0.006145,1.071568,-0.003755,-0.0061449999999999,0.8157300000000001,-0.056125,-0.339835,1.11764,-0.056255,-0.368545,0.87278,-0.375455,-0.167209,1.1119199999999998,-0.375555,-0.199868,1
139,1.002873,0.6765749999999999,-0.116741,0.8623730000000001,0.470869,-0.086064,0.757943,0.6791849999999999,-0.114842,1.144993,0.4652099999999999,-0.102936,1.258943,0.6617249999999999,-0.16885,0.708933,0.903435,-0.157131,1.302473,0.881605,-0.23917,0.928241,0.0038249999999999,0.0062099999999999,1.071759,-0.003825,-0.00621,0.816053,-0.047015,-0.34107,1.116633,-0.046345,-0.36988,0.8753029999999999,-0.368125,-0.169509,1.112333,-0.366215,-0.200372,1
140,1.0027495,0.67594,-0.1167179999999999,0.8621555000000001,0.469815,-0.0869639999999999,0.7574755000000001,0.67836,-0.1147679999999999,1.1449455,0.462854,-0.1045989999999999,1.2585855,0.66006,-0.1698829999999999,0.7082255,0.90294,-0.1568449999999999,1.3026955,0.88025,-0.23962,0.9279855,0.0039399999999999,0.00625,1.0720145,-0.0039399999999999,-0.0062499999999999,0.8164055,-0.03683,-0.3424,1.1157355,-0.03578,-0.37126,0.8792854999999999,-0.36245,-0.174111,1.1133655,-0.35648,-0.200564,1
141,1.002575,0.674525,-0.116654,0.861955,0.4705729999999999,-0.0871909999999999,0.7570950000000001,0.6792149999999999,-0.114671,1.144985,0.4618919999999999,-0.105753,1.258475,0.6593249999999999,-0.17092,0.7073750000000001,0.903925,-0.156583,1.302985,0.879615,-0.23985,0.927744,0.0040549999999999,0.00633,1.072256,-0.004055,-0.00633,0.816775,-0.027475,-0.34359,1.114805,-0.025915,-0.37242,0.883505,-0.357755,-0.17991,1.114455,-0.347665,-0.2006899999999999,1
142,1.0023805,0.67242,-0.116386,0.8617545,0.471333,-0.087266,0.7566045,0.67987,-0.1144319999999999,1.1450645,0.46112,-0.106697,1.2582945,0.6586000000000001,-0.171811,0.7065445,0.90471,-0.156293,1.3034745,0.879,-0.23989,0.9275285,0.00415,0.00647,1.0724715,-0.0041499999999999,-0.00647,0.8171845,-0.0184099999999999,-0.3446599999999999,1.1138545,-0.0162599999999999,-0.37334,0.8839245,-0.35299,-0.18418,1.1156245,-0.3393999999999999,-0.201919,1
143,1.002213,0.670695,-0.115966,0.861576,0.470023,-0.087166,0.7561260000000001,0.678795,-0.113705,1.145116,0.459504,-0.107337,1.258266,0.657365,-0.172284,0.7060660000000001,0.903695,-0.154393,1.303836,0.877875,-0.239345,0.927182,0.004095,0.006565,1.072818,-0.0040949999999999,-0.006565,0.817606,-0.0082449999999999,-0.345785,1.113086,-0.0055649999999999,-0.373975,0.884046,-0.347085,-0.188162,1.116906,-0.3297949999999999,-0.2033559999999999,1
144,1.0020319999999998,0.669385,-0.115087,0.861236,0.469917,-0.086592,0.755386,0.678615,-0.112704,1.145156,0.458092,-0.1077269999999999,1.258856,0.6559550000000001,-0.1726079999999999,0.704936,0.903595,-0.152015,1.304356,0.876565,-0.2391599999999999,0.926772,0.004285,0.00658,1.073228,-0.0042849999999999,-0.00658,0.818146,0.001155,-0.34661,1.112486,0.0042949999999999,-0.37427,0.886676,-0.341375,-0.18801,1.118096,-0.320925,-0.2049409999999999,1
145,1.001896,0.668115,-0.113966,0.8609440000000002,0.469701,-0.085872,0.754964,0.678155,-0.111537,1.145404,0.4569249999999999,-0.107227,1.259004,0.654825,-0.172139,0.703624,0.903255,-0.149382,1.304684,0.875505,-0.238535,0.926324,0.0044249999999999,0.0065649999999999,1.073676,-0.004425,-0.006565,0.818724,0.0100849999999999,-0.347255,1.112034,0.0133549999999999,-0.374355,0.888985,-0.334755,-0.19078,1.119354,-0.312515,-0.206902,1
146,1.0018375,0.666165,-0.1126959999999999,0.8608115000000001,0.46989,-0.085147,0.7542715,0.6777949999999999,-0.110271,1.1456215,0.456316,-0.106555,1.2589715,0.654425,-0.171596,0.7020815,0.902995,-0.146877,1.3049214999999998,0.875015,-0.2377,0.9257995,0.0045649999999999,0.0065199999999999,1.0742005,-0.004565,-0.0065199999999999,0.8193515,0.0174749999999999,-0.34764,1.1116315,0.0207749999999999,-0.37399,0.8917225,-0.329895,-0.188603,1.1202515,-0.305655,-0.20919,1
147,1.001919,0.66406,-0.111132,0.860804,0.469791,-0.084156,0.753534,0.67708,-0.108715,1.145894,0.45579,-0.105608,1.259654,0.65399,-0.170711,0.700294,0.90088,-0.144088,1.305564,0.8746,-0.236805,0.925256,0.0046999999999999,0.006485,1.074744,-0.0046999999999999,-0.006485,0.820014,0.0248399999999999,-0.347665,1.111494,0.0283599999999999,-0.373045,0.892134,-0.3240599999999999,-0.19012,1.121154,-0.2988099999999999,-0.2107979999999999,1
148,1.0019574999999998,0.6622349999999999,-0.109556,0.8607115,0.467443,-0.0827209999999999,0.7525215000000001,0.674545,-0.1068949999999999,1.1461615,0.4542389999999999,-0.104633,1.2603415,0.6526449999999999,-0.1698,0.6983315,0.898145,-0.141234,1.3060715,0.873305,-0.23619,0.9246855,0.0047149999999999,0.00648,1.0753145,-0.004715,-0.00648,0.8204615,0.0321349999999999,-0.3475499999999999,1.1112515,0.0362849999999999,-0.37199,0.8921525,-0.316255,-0.184636,1.1217815,-0.292015,-0.2121859999999999,1
149,1.001992,0.66028,-0.1079609999999999,0.8606730000000001,0.4654399999999999,-0.081181,0.7515530000000001,0.6723899999999999,-0.1048709999999999,1.146453,0.4530959999999999,-0.1033699999999999,1.260543,0.65147,-0.1687249999999999,0.696733,0.89585,-0.138483,1.306753,0.87222,-0.235495,0.924168,0.0046999999999999,0.0063549999999999,1.075832,-0.0047,-0.0063549999999999,0.8209029999999999,0.0391999999999999,-0.3474049999999999,1.110943,0.0438299999999999,-0.371005,0.8947680000000001,-0.31518,-0.1840919999999999,1.122043,-0.2853300000000001,-0.213432,1
150,1.0020535,0.658435,-0.106351,0.8606245000000001,0.4634219999999999,-0.07961,0.7504545,0.670175,-0.102858,1.1467345,0.4515969999999999,-0.101989,1.2607345,0.649305,-0.167615,0.6951445,0.8934949999999999,-0.135909,1.3070645,0.870425,-0.2344,0.9237005,0.0046249999999999,0.00611,1.0762995,-0.004625,-0.00611,0.8213845000000001,0.0463149999999999,-0.34714,1.1106645,0.0513749999999999,-0.3700799999999999,0.8980764999999999,-0.309775,-0.181281,1.1223445,-0.278795,-0.214762,1
151,1.002251,0.657005,-0.104669,0.860596,0.4607699999999999,-0.077927,0.7494959999999999,0.6670349999999999,-0.100593,1.147196,0.4495049999999999,-0.100497,1.261396,0.6468849999999999,-0.166767,0.693936,0.890465,-0.133311,1.308036,0.8680049999999999,-0.233435,0.923085,0.0046049999999999,0.0058549999999999,1.076915,-0.004605,-0.0058549999999999,0.821956,0.0536849999999999,-0.346775,1.110416,0.0588549999999999,-0.369185,0.89894,-0.3033450000000001,-0.179981,1.122686,-0.2723150000000001,-0.214665,1
152,1.0023425,0.65502,-0.103073,0.8603925,0.459674,-0.076552,0.7485425,0.66517,-0.098739,1.1476325,0.447987,-0.098936,1.2621025,0.64501,-0.165934,0.6927425,0.8887,-0.131434,1.3089025,0.86606,-0.232565,0.9224485,0.00462,0.005625,1.0775515,-0.00462,-0.0056249999999999,0.8224525,0.06006,-0.346215,1.1101125,0.0650399999999999,-0.368245,0.8994314999999999,-0.2981,-0.17853,1.1228524999999998,-0.26703,-0.2144849999999999,1
153,1.0024134999999998,0.65215,-0.101316,0.8601965,0.4576100000000001,-0.075112,0.7476565,0.66263,-0.096811,1.1480265,0.4462670000000001,-0.097185,1.2629665,0.64307,-0.164925,0.6915865,0.8861800000000001,-0.129675,1.3096765,0.8640300000000001,-0.231485,0.9216555,0.00452,0.005345,1.0783445,-0.0045199999999999,-0.005345,0.8227665,0.06661,-0.3455749999999999,1.1099065,0.07122,-0.3669449999999999,0.8961145,-0.2922399999999999,-0.175845,1.1230165,-0.2619399999999999,-0.213815,1
154,1.0024605,0.64937,-0.09953,0.8599255,0.4550939999999999,-0.0736069999999999,0.7467055,0.65992,-0.0949599999999999,1.1484155,0.444275,-0.095468,1.2635855,0.6408499999999999,-0.163631,0.6906555,0.8834299999999999,-0.12808,1.3101755,0.8617299999999999,-0.2303549999999999,0.9208585,0.0044299999999999,0.005075,1.0791415,-0.00443,-0.0050749999999999,0.8229855,0.0735699999999999,-0.3449149999999999,1.1099055,0.0772899999999999,-0.365565,0.8924595,-0.28617,-0.173588,1.1231255,-0.25667,-0.213145,1
155,1.002497,0.6474650000000001,-0.097853,0.859638,0.451965,-0.072022,0.7459180000000001,0.6569450000000001,-0.093143,1.149048,0.441805,-0.093762,1.264508,0.6382650000000001,-0.162381,0.690188,0.8804150000000001,-0.126516,1.310958,0.859075,-0.22923,0.920031,0.004335,0.0048499999999999,1.079969,-0.0043349999999999,-0.00485,0.8231280000000001,0.080595,-0.3442199999999999,1.109998,0.083205,-0.3641299999999999,0.889589,-0.2801549999999999,-0.171335,1.123248,-0.2515349999999999,-0.21244,1
156,1.002633,0.6458099999999999,-0.096166,0.859429,0.4490419999999999,-0.070379,0.7452190000000001,0.6542299999999999,-0.091398,1.149829,0.4390609999999999,-0.091919,1.265469,0.6355699999999999,-0.161098,0.690149,0.8791699999999999,-0.12497,1.311819,0.8563699999999999,-0.228165,0.919324,0.0042799999999999,0.0046449999999999,1.080676,-0.00428,-0.0046449999999999,0.8234090000000001,0.0875799999999998,-0.343365,1.110209,0.0887399999999998,-0.3626749999999999,0.886879,-0.2751200000000001,-0.170008,1.123479,-0.2466800000000001,-0.211705,1
157,1.0028235,0.643795,-0.094364,0.8592555,0.449074,-0.068831,0.7445255,0.653915,-0.089752,1.1505655,0.4380219999999999,-0.090385,1.2663855,0.634215,-0.159913,0.6901455000000001,0.879085,-0.12357,1.3126855,0.8550249999999999,-0.227055,0.9187555,0.0043549999999999,0.004375,1.0812445,-0.0043549999999999,-0.004375,0.8237855000000001,0.0939549999999999,-0.342295,1.1103655,0.0929549999999999,-0.361955,0.8873555,-0.270945,-0.169069,1.1239255,-0.2426249999999999,-0.20998,1
158,1.002973,0.6419349999999999,-0.0925189999999999,0.859094,0.4484559999999999,-0.067168,0.744024,0.653045,-0.088211,1.151194,0.4369989999999999,-0.088821,1.266994,0.632945,-0.15879,0.690104,0.878405,-0.12197,1.313434,0.853715,-0.225895,0.918219,0.0043949999999999,0.004145,1.081781,-0.004395,-0.0041449999999999,0.8241740000000001,0.1002449999999999,-0.341025,1.110474,0.0968849999999999,-0.361255,0.887764,-0.266955,-0.167977,1.124324,-0.2389649999999999,-0.20822,1
159,1.003073,0.640295,-0.0907679999999999,0.858872,0.4481919999999999,-0.065496,0.743572,0.6522849999999999,-0.0865379999999999,1.151712,0.4369079999999999,-0.0873979999999999,1.267352,0.6327349999999999,-0.15764,0.6902820000000001,0.877815,-0.120308,1.313932,0.8533649999999999,-0.224625,0.917685,0.0044549999999999,0.004015,1.082315,-0.004455,-0.0040149999999999,0.8244819999999999,0.1064949999999999,-0.339565,1.110652,0.1008449999999999,-0.360605,0.886752,-0.262865,-0.165091,1.124772,-0.235335,-0.206619,1
160,1.0030045,0.638975,-0.089053,0.8585795,0.44852,-0.063832,0.7429595,0.652635,-0.0853059999999999,1.1519695,0.437312,-0.08601,1.2675895,0.632765,-0.156476,0.6899495,0.878085,-0.118581,1.3139995,0.853585,-0.22364,0.9172535,0.0044549999999999,0.00389,1.0827465,-0.0044549999999999,-0.00389,0.8246795,0.112535,-0.3379999999999999,1.1118895,0.100385,-0.36016,0.8861095,-0.259725,-0.158325,1.1253895,-0.2364549999999999,-0.20412,1
161,1.0029515,0.637695,-0.0874,0.8582955,0.4489689999999999,-0.062305,0.7422655,0.652655,-0.083962,1.1520855,0.437751,-0.08475,1.2680455,0.632709,-0.155447,0.6894155,0.878115,-0.116786,1.3142555,0.8537349999999999,-0.22267,0.9168595,0.0044649999999999,0.00383,1.0831405,-0.004465,-0.00383,0.8248955,0.1182149999999999,-0.33648,1.1129555,0.099435,-0.35996,0.8836755000000001,-0.256255,-0.162521,1.1258255,-0.237945,-0.201608,1
162,1.0029205,0.6368010000000001,-0.086003,0.8581635,0.449207,-0.060993,0.7416335000000001,0.652765,-0.082865,1.1521035,0.438156,-0.083743,1.2684235,0.632769,-0.154684,0.6884935,0.878285,-0.114945,1.3145635,0.8539650000000001,-0.22192,0.9166195,0.0045049999999999,0.00385,1.0833805,-0.0045049999999999,-0.00385,0.8251735,0.122725,-0.33505,1.1140934999999998,0.097605,-0.36013,0.8838835,-0.254005,-0.159421,1.1265835,-0.2403649999999999,-0.199114,1
163,1.0029145,0.6359319999999999,-0.084657,0.8581025,0.449511,-0.059816,0.7415325000000001,0.65295,-0.081933,1.1521125,0.4384,-0.082817,1.2691025,0.632935,-0.154028,0.6874525,0.8785499999999999,-0.113254,1.3149025,0.85423,-0.22093,0.9164115,0.0045499999999999,0.0038499999999999,1.0835885,-0.00455,-0.00385,0.8255625,0.1267499999999999,-0.33371,1.1148925,0.0994899999999999,-0.3592999999999999,0.8832825,-0.25165,-0.162037,1.1273925,-0.2398599999999999,-0.196969,1
164,1.0029104999999998,0.635233,-0.083401,0.8580775,0.449782,-0.05873,0.7411375,0.653065,-0.080977,1.1521075,0.438655,-0.081932,1.2697975,0.63314,-0.153423,0.6862675,0.878745,-0.111481,1.3152975,0.8545050000000001,-0.22004,0.9162165,0.004595,0.0038499999999999,1.0837835,-0.004595,-0.00385,0.8263275,0.130255,-0.33237,1.1157675,0.096625,-0.35977,0.8827275,-0.249835,-0.16409,1.1279975,-0.2432649999999999,-0.19434,1
165,1.0025389999999998,0.634527,-0.082025,0.857626,0.450961,-0.05758,0.739996,0.653805,-0.07985,1.151856,0.439665,-0.081054,1.2702559999999998,0.633714,-0.152648,0.684696,0.8794150000000001,-0.109636,1.315356,0.855225,-0.2191,0.915991,0.0045749999999999,0.0038499999999999,1.084009,-0.0045749999999999,-0.00385,0.826946,0.134135,-0.33116,1.1163059999999998,0.094175,-0.36038,0.882056,-0.2484349999999999,-0.164409,1.128336,-0.2460949999999999,-0.19183,1
166,1.0021505,0.63386,-0.080879,0.8571195,0.45189,-0.056718,0.7385695,0.65418,-0.078536,1.1515795,0.4407,-0.080357,1.2707295,0.634262,-0.152025,0.6831895,0.8797699999999999,-0.107996,1.3153595,0.85591,-0.218395,0.9157845,0.0044999999999999,0.0038649999999999,1.0842155,-0.0045,-0.003865,0.8274695000000001,0.1370599999999999,-0.330195,1.1167195,0.09031,-0.361145,0.8825895,-0.24785,-0.166352,1.1286195,-0.25027,-0.190292,1
167,1.0017649999999998,0.633296,-0.079926,0.856568,0.452914,-0.056071,0.737128,0.65472,-0.077333,1.151278,0.4413,-0.079781,1.271178,0.634605,-0.15144,0.681778,0.88034,-0.106636,1.315328,0.85636,-0.21784,0.915619,0.00446,0.0038599999999999,1.084381,-0.00446,-0.00386,0.8278980000000001,0.13927,-0.32949,1.116528,0.09143,-0.36049,0.8826579999999999,-0.24755,-0.168526,1.128628,-0.24963,-0.189804,1
168,1.0015735,0.633144,-0.079126,0.8562405,0.453886,-0.0557,0.7363105,0.6555150000000001,-0.076443,1.1511305,0.441295,-0.079339,1.2716805,0.6346310000000001,-0.15102,0.6809305,0.881225,-0.105629,1.3155205,0.856395,-0.21748,0.9155875,0.004475,0.0037299999999999,1.0844125,-0.0044749999999998,-0.00373,0.8283205,0.140515,-0.32937,1.1163005,0.091825,-0.3599799999999999,0.8845705,-0.2477749999999999,-0.168627,1.1285805,-0.2495049999999999,-0.189507,1
169,1.001534,0.633359,-0.078618,0.856109,0.454547,-0.0555429999999999,0.735939,0.656185,-0.0758699999999999,1.151099,0.4408849999999999,-0.0790159999999999,1.272089,0.634432,-0.1506839999999999,0.680429,0.881895,-0.1048809999999999,1.315799,0.856135,-0.2172,0.915565,0.004565,0.00363,1.084435,-0.004565,-0.0036299999999999,0.828749,0.141185,-0.32933,1.116009,0.092415,-0.35972,0.8867929999999999,-0.247105,-0.16691,1.128539,-0.248835,-0.189398,1
170,1.0016045,0.633799,-0.078396,0.8561615,0.454987,-0.055539,0.7358115000000001,0.656625,-0.0754259999999999,1.1511915,0.440575,-0.078817,1.2723115,0.634292,-0.1504059999999999,0.6802915,0.882335,-0.1045,1.3160415,0.855905,-0.217,0.9156525,0.004685,0.00361,1.0843474999999998,-0.004685,-0.00361,0.8292714999999999,0.141625,-0.3293999999999999,1.1158315,0.092735,-0.35965,0.8888445000000001,-0.246665,-0.166924,1.1285315,-0.248395,-0.189386,1
171,1.0017895,0.633799,-0.078421,0.8561865,0.455514,-0.055541,0.7356265,0.656935,-0.075194,1.1513965,0.441145,-0.078631,1.2721565,0.634398,-0.149942,0.6800765000000001,0.882605,-0.104465,1.3163665,0.856055,-0.216515,0.9158675,0.004685,0.0035749999999999,1.0841325,-0.004685,-0.003575,0.8295965000000001,0.141285,-0.3294749999999999,1.1156265,0.092455,-0.359645,0.8900435,-0.246665,-0.166105,1.1284665,-0.248395,-0.189373,1
172,1.0020185,0.633779,-0.078454,0.8562425000000001,0.4563239999999999,-0.055577,0.7354025,0.6574249999999999,-0.075115,1.1514825,0.441885,-0.078409,1.2722925,0.6348,-0.149316,0.6798425,0.883065,-0.104435,1.3166925,0.856465,-0.216015,0.9161005,0.004665,0.0035349999999999,1.0838995,-0.004665,-0.0035349999999999,0.8297425,0.140515,-0.3296949999999999,1.1145625,0.0959349999999999,-0.3583849999999999,0.8908035,-0.245365,-0.165923,1.1280025,-0.244885,-0.190236,1
173,1.002228,0.634255,-0.078552,0.8563100000000001,0.456896,-0.055655,0.73531,0.6579550000000001,-0.075213,1.15147,0.442235,-0.078474,1.2721,0.634935,-0.148993,0.67969,0.883595,-0.104479,1.31711,0.856615,-0.2154849999999999,0.916322,0.004655,0.0034349999999999,1.083678,-0.0046549999999999,-0.003435,0.8295399999999999,0.139455,-0.329825,1.11352,0.099155,-0.357095,0.892022,-0.246885,-0.1636,1.12752,-0.241305,-0.191233,1
174,1.002491,0.636384,-0.079086,0.856439,0.457451,-0.056201,0.736129,0.658805,-0.075927,1.151409,0.442125,-0.078959,1.272039,0.635344,-0.149478,0.6803790000000001,0.884385,-0.10533,1.317969,0.856645,-0.21611,0.916532,0.004785,0.00336,1.083468,-0.004785,-0.00336,0.829479,0.136745,-0.33033,1.112729,0.1016949999999999,-0.35627,0.891961,-0.2455049999999999,-0.164085,1.127039,-0.238395,-0.192954,1
175,1.002453,0.639116,-0.080382,0.856424,0.457603,-0.057435,0.737344,0.65975,-0.077304,1.151184,0.44253,-0.080119,1.271664,0.635935,-0.150615,0.681054,0.88506,-0.107017,1.318634,0.85713,-0.21741,0.916892,0.0048399999999999,0.0033799999999999,1.083108,-0.00484,-0.00338,0.829284,0.13237,-0.33131,1.111844,0.1028299999999999,-0.35595,0.891736,-0.24511,-0.165245,1.126584,-0.236,-0.195297,1
176,1.002367,0.643014,-0.082667,0.856384,0.45841,-0.059461,0.738784,0.66133,-0.08006,1.150954,0.4433,-0.082026,1.271044,0.637533,-0.15245,0.682024,0.88634,-0.110093,1.319134,0.8581799999999999,-0.219415,0.917419,0.00487,0.003485,1.082581,-0.00487,-0.003485,0.829054,0.12484,-0.333205,1.110934,0.10174,-0.356265,0.891894,-0.2456399999999999,-0.164574,1.126354,-0.23579,-0.197192,1
177,1.0027775,0.64761,-0.085958,0.8569075000000002,0.4599899999999999,-0.06233,0.7404275,0.66354,-0.083,1.1513475,0.444631,-0.084833,1.2710775,0.6393,-0.155199,0.6845975,0.8886000000000001,-0.11452,1.3203375,0.85932,-0.22226,0.9185215,0.0049099999999999,0.0035199999999999,1.0814785,-0.0049099999999999,-0.0035199999999999,0.8286775,0.11012,-0.33559,1.1107475,0.0948099999999999,-0.35708,0.8914095,-0.25138,-0.1673,1.1262975,-0.2405899999999999,-0.199627,1
178,1.0031385,0.653435,-0.089213,0.8574725000000001,0.461646,-0.065323,0.7422925,0.665905,-0.086001,1.1515725,0.447161,-0.087599,1.2707725,0.641785,-0.158038,0.6869925,0.891065,-0.118871,1.3217025,0.861445,-0.225055,0.9197785,0.004785,0.0035149999999999,1.0802215,-0.0047849999999999,-0.003515,0.8281725,0.091045,-0.337715,1.1107625,0.078535,-0.358945,0.8892315000000001,-0.2612049999999999,-0.169495,1.1260225,-0.2541449999999999,-0.201483,1
179,1.0035115,0.658985,-0.092421,0.8580295,0.4631360000000001,-0.0682899999999999,0.7447395,0.6682650000000001,-0.089514,1.1517595,0.4493500000000001,-0.090409,1.2702395,0.6442150000000001,-0.160827,0.6894895000000001,0.893375,-0.123267,1.3222495,0.8634250000000001,-0.2276,0.9210925,0.004705,0.0035199999999999,1.0789075,-0.0047049999999999,-0.0035199999999999,0.8275795,0.071575,-0.3396699999999999,1.1110595,0.062695,-0.36074,0.8869215,-0.271925,-0.1719419999999999,1.1252595,-0.2681849999999999,-0.2037209999999999,1
180,1.0037555,0.66434,-0.095471,0.8584525000000001,0.464387,-0.071093,0.7468125,0.67033,-0.092931,1.1521725,0.452101,-0.092835,1.2705324999999998,0.64691,-0.163556,0.6914825,0.8951800000000001,-0.127763,1.3234125,0.86571,-0.2301,0.9224055,0.0045999999999999,0.0035599999999999,1.0775945,-0.0045999999999999,-0.00356,0.8269725,0.04909,-0.34097,1.1114125,0.0432,-0.36205,0.8844025,-0.2865,-0.174171,1.1242025,-0.28626,-0.205687,1
181,1.0039705,0.669905,-0.098462,0.8587265,0.466094,-0.073726,0.7482265,0.672745,-0.096423,1.1526065,0.455376,-0.095151,1.2708065,0.6499550000000001,-0.166128,0.6931565,0.897225,-0.132043,1.3245065,0.8681650000000001,-0.23269,0.9237155,0.004435,0.0036999999999999,1.0762845,-0.0044349999999999,-0.0037,0.8263765000000001,0.025875,-0.34176,1.1117965,0.022685,-0.36288,0.8828565,-0.302555,-0.174276,1.1230665,-0.3056449999999999,-0.207155,1
182,1.004142,0.675415,-0.100972,0.858943,0.467371,-0.075964,0.749613,0.674675,-0.09954,1.152933,0.457627,-0.096808,1.270303,0.652145,-0.167917,0.694653,0.898965,-0.135865,1.325343,0.870195,-0.234895,0.924975,0.0043449999999999,0.003845,1.075025,-0.0043449999999999,-0.003845,0.825773,0.0027249999999999,-0.341905,1.112153,-0.000205,-0.363145,0.881463,-0.322255,-0.17337,1.122043,-0.326115,-0.207094,1
183,1.0041705,0.6796599999999999,-0.10256,0.8591095,0.46924,-0.0774739999999999,0.7502595,0.67675,-0.101589,1.1531995,0.4614149999999999,-0.097748,1.2704295,0.65501,-0.169492,0.6955994999999999,0.90096,-0.13846,1.3260595,0.87303,-0.23701,0.9260745,0.0040799999999999,0.0039,1.0739255,-0.00408,-0.0039,0.8253695,-0.02149,-0.34067,1.1125395,-0.02442,-0.3622999999999999,0.8794195,-0.34407,-0.171599,1.1209695,-0.3478300000000001,-0.206313,1
184,1.0043755,0.683765,-0.1031489999999999,0.8595025000000001,0.471777,-0.078259,0.7507125,0.678925,-0.1025369999999999,1.1533925,0.4640809999999999,-0.098037,1.2708225,0.657215,-0.1702429999999999,0.6966625,0.903275,-0.1401339999999999,1.3266625,0.874995,-0.237215,0.9270715,0.0039349999999999,0.003835,1.0729285,-0.003935,-0.0038349999999999,0.8254125000000001,-0.046365,-0.338195,1.1132125,-0.048675,-0.360545,0.8776025,-0.367275,-0.169537,1.1202025,-0.370375,-0.2045719999999999,1
185,1.0044105,0.68706,-0.103499,0.8596795,0.47317,-0.0788869999999999,0.7515195,0.68038,-0.1029789999999999,1.1533195,0.46644,-0.0982899999999999,1.2707695,0.65915,-0.1705799999999999,0.6983195,0.90479,-0.1404959999999999,1.3271495,0.8767800000000001,-0.237505,0.9278045,0.0038199999999999,0.003725,1.0721955,-0.0038199999999999,-0.0037249999999999,0.8253195,-0.07084,-0.335595,1.1137395,-0.07194,-0.358445,0.8756095,-0.3889799999999999,-0.167758,1.1191395,-0.39248,-0.202546,1
186,1.0041365,0.6896199999999999,-0.103572,0.8594825,0.4737899999999999,-0.0790709999999999,0.7514425,0.68097,-0.1034739999999999,1.1530025,0.46875,-0.0982559999999999,1.2707625,0.66089,-0.1705789999999999,0.6982025000000001,0.9052,-0.141175,1.3272425,0.87844,-0.237725,0.9281995,0.0036799999999999,0.003665,1.0718005,-0.00368,-0.0036649999999999,0.8255224999999999,-0.09066,-0.3328149999999999,1.1139724999999998,-0.09043,-0.356025,0.8740525,-0.40829,-0.16634,1.1180025,-0.41102,-0.2004099999999999,1
187,1.003837,0.691445,-0.1035,0.8590900000000001,0.474485,-0.078982,0.7508300000000001,0.681575,-0.103351,1.15274,0.470145,-0.098195,1.27028,0.6621250000000001,-0.170478,0.69807,0.905305,-0.14137,1.32725,0.879705,-0.2377,0.928474,0.0036849999999999,0.00365,1.071526,-0.0036849999999999,-0.00365,0.8258300000000001,-0.1068049999999999,-0.33006,1.11408,-0.1053049999999999,-0.3537,0.8741099999999999,-0.425135,-0.165242,1.11695,-0.4268849999999999,-0.198652,1
188,1.0035409999999998,0.694365,-0.102438,0.858592,0.474335,-0.077869,0.750702,0.6821550000000001,-0.102296,1.152622,0.472645,-0.0971,1.270192,0.664355,-0.169428,0.697972,0.904715,-0.140368,1.326892,0.881865,-0.23661,0.92873,0.0033449999999999,0.00372,1.07127,-0.0033449999999999,-0.00372,0.826152,-0.1217449999999999,-0.32631,1.114332,-0.1195549999999999,-0.35042,0.874162,-0.4420149999999999,-0.16326,1.116442,-0.443045,-0.196808,1
189,1.003368,0.696275,-0.1003149999999999,0.858203,0.4774049999999999,-0.0757439999999999,0.7505729999999999,0.684605,-0.1000829999999999,1.152723,0.474085,-0.0950309999999999,1.270903,0.6657850000000001,-0.1670579999999999,0.696983,0.907205,-0.138208,1.327153,0.8831549999999999,-0.234035,0.929005,0.003365,0.003545,1.070995,-0.003365,-0.0035449999999999,0.8265830000000001,-0.1342649999999999,-0.321355,1.114693,-0.131625,-0.346025,0.874003,-0.460155,-0.1622779999999999,1.116113,-0.4576349999999999,-0.1939489999999999,1
190,1.003298,0.698195,-0.098193,0.8578120000000001,0.478975,-0.073514,0.751162,0.685845,-0.097969,1.153012,0.475445,-0.092772,1.270962,0.6671549999999999,-0.164269,0.6959120000000001,0.908435,-0.135911,1.327662,0.884625,-0.231535,0.929281,0.0032949999999999,0.0033949999999999,1.070719,-0.0032949999999999,-0.0033949999999999,0.827022,-0.145785,-0.316255,1.115122,-0.142555,-0.341405,0.8738319999999999,-0.4777249999999999,-0.161422,1.115872,-0.4720149999999999,-0.190961,1
191,1.0031815,0.70033,-0.095909,0.8571735,0.48022,-0.071129,0.7504435,0.68695,-0.095415,1.1530235,0.47726,-0.090206,1.2715535,0.6691400000000001,-0.161411,0.6947735000000002,0.9093,-0.133474,1.3278835,0.88633,-0.228625,0.9295995,0.00306,0.0032549999999999,1.0704005,-0.00306,-0.003255,0.8275935,-0.1569,-0.311135,1.1153434999999998,-0.15271,-0.336735,0.8733934999999999,-0.49284,-0.160255,1.1157335,-0.48688,-0.188948,1
192,1.0029785,0.70269,-0.092844,0.8564355000000001,0.48181,-0.0679269999999999,0.7493455,0.68828,-0.0917849999999999,1.1525755,0.47916,-0.086953,1.2710055,0.6711400000000001,-0.157408,0.6936755,0.91038,-0.129742,1.3275455,0.88822,-0.2246349999999999,0.9297725,0.0029,0.003285,1.0702275,-0.0028999999999999,-0.0032849999999999,0.8281655,-0.1671599999999999,-0.305585,1.1153455,-0.1624399999999999,-0.331635,0.8724655,-0.5074799999999999,-0.157919,1.1155355,-0.50139,-0.186215,1
193,1.002805,0.70564,-0.089634,0.85577,0.4822,-0.064691,0.7479899999999999,0.68912,-0.087697,1.15253,0.48107,-0.083809,1.27152,0.67352,-0.153421,0.6926500000000001,0.91075,-0.12577,1.32738,0.89025,-0.22027,0.929867,0.0026899999999999,0.0032699999999999,1.070133,-0.0026899999999999,-0.0032699999999999,0.82874,-0.1764299999999999,-0.30034,1.1153,-0.17192,-0.32645,0.87154,-0.52112,-0.156129,1.11523,-0.51441,-0.1830129999999999,1
194,1.0026475,0.70708,-0.0861339999999999,0.8551605,0.48551,-0.06059,0.7474704999999999,0.6920900000000001,-0.083318,1.1523805,0.48246,-0.080378,1.2714705,0.67424,-0.148965,0.6919005,0.91364,-0.1214119999999999,1.3274905,0.8912300000000001,-0.215775,0.9299365,0.00265,0.003025,1.0700635,-0.0026499999999999,-0.003025,0.8294705,-0.1869299999999999,-0.293875,1.1153705,-0.1820199999999999,-0.320185,0.8705605,-0.53581,-0.154503,1.1150305,-0.52855,-0.179796,1
195,1.00254,0.70943,-0.0826165,0.8548420000000001,0.4879099999999999,-0.0564785,0.7465919999999999,0.6943,-0.0788185,1.152112,0.48245,-0.0768665,1.271532,0.67452,-0.1442925,0.690952,0.91576,-0.1168835,1.327612,0.89157,-0.2107625,0.929988,0.0026899999999999,0.0028374999999999,1.070012,-0.0026899999999999,-0.0028375,0.830202,-0.19659,-0.2874525,1.115562,-0.19176,-0.3138625,0.869812,-0.54922,-0.1520145,1.114752,-0.54206,-0.1755335,1
196,1.0023365,0.711085,-0.0786825,0.8544465,0.489835,-0.0520305,0.7456165,0.695955,-0.0738715,1.1517765,0.4830649999999999,-0.0729425,1.2713365,0.675035,-0.1392285,0.6900865,0.917665,-0.1118455,1.3278165,0.891925,-0.2059825,0.9299085,0.0026349999999999,0.0026474999999999,1.0700915,-0.0026349999999999,-0.0026474999999999,0.8308265,-0.206585,-0.2800924999999999,1.1156065,-0.202275,-0.3063125,0.8688865,-0.5633050000000001,-0.1489905,1.1143664999999998,-0.5564250000000001,-0.1709014999999999,1
197,1.0022395,0.71278,-0.0750484999999999,0.8542745,0.49214,-0.0480105,0.7451145,0.6974,-0.0691425,1.1515245,0.48307,-0.0694035,1.2719545,0.67556,-0.1344645,0.6899245,0.91999,-0.1071604999999999,1.3281945,0.89217,-0.2013984999999999,0.9299075,0.0027999999999999,0.0024155,1.0700925,-0.0027999999999999,-0.0024155,0.8315345000000001,-0.21624,-0.2728385,1.1157145,-0.2126099999999999,-0.2986585,0.8679445,-0.57724,-0.1463815,1.1142245,-0.57055,-0.1673305,1
198,1.0024345,0.713525,-0.071231,0.8540995,0.492405,-0.044032,0.7443495,0.6974849999999999,-0.064441,1.1514194999999998,0.4844449999999999,-0.065816,1.2721595,0.6763950000000001,-0.12966,0.6895095,0.919895,-0.102133,1.3286895,0.892935,-0.196791,0.9296965,0.0026149999999999,0.0023559999999999,1.0703035,-0.002615,-0.002356,0.8326195000000001,-0.225965,-0.264351,1.1159695,-0.223245,-0.289731,0.8671995,-0.5911250000000001,-0.143375,1.1142995,-0.5846750000000001,-0.163654,1
199,1.0027505,0.71417,-0.067463,0.8541425,0.49328,-0.040148,0.7441625000000001,0.69799,-0.059933,1.1515725,0.48504,-0.062119,1.2726225,0.6768000000000001,-0.124921,0.6894825,0.92043,-0.097175,1.3298625,0.89314,-0.192177,0.9298015,0.0025,0.0022269999999999,1.0701985,-0.0024999999999999,-0.002227,0.8338925,-0.2354199999999999,-0.255647,1.1163225,-0.23346,-0.280717,0.8666225,-0.60421,-0.139777,1.1146425,-0.59853,-0.160235,1
200,1.003119,0.71449,-0.0636024999999999,0.8542069999999999,0.49416,-0.0362274999999999,0.744267,0.69849,-0.0557564999999999,1.151837,0.48574,-0.0583044999999999,1.273677,0.67698,-0.1204984999999999,0.689647,0.92113,-0.0925894999999999,1.331097,0.89307,-0.1872665,0.929833,0.00241,0.0020615,1.070167,-0.0024099999999999,-0.0020614999999999,0.835397,-0.2501,-0.2462565,1.116537,-0.24677,-0.2710765,0.866047,-0.61894,-0.1356724999999999,1.114777,-0.61431,-0.1558915,1
201,1.0036425,0.7146030000000001,-0.0602,0.8546755,0.495513,-0.032816,0.7451555000000001,0.699603,-0.052128,1.1521455,0.484823,-0.055095,1.2748555,0.675923,-0.11685,0.6902555,0.922383,-0.088022,1.3324655,0.8917029999999999,-0.183005,0.9298515,0.002507,0.0017129999999999,1.0701485,-0.0025069999999999,-0.001713,0.8372855000000001,-0.265177,-0.236565,1.1165355,-0.260047,-0.261325,0.8659755,-0.633367,-0.132148,1.1148155,-0.6295470000000001,-0.151993,1
202,1.0041875,0.715376,-0.056746,0.8551095,0.498086,-0.029112,0.7461395,0.701446,-0.048364,1.1525995,0.485286,-0.051473,1.2760695,0.675826,-0.11312,0.6909795000000001,0.924486,-0.083264,1.3342495,0.8917759999999999,-0.178499,0.9299445,0.002505,0.0014169999999999,1.0700555,-0.0025049999999999,-0.001417,0.8394295,-0.281134,-0.225289,1.1165395,-0.274084,-0.250039,0.8659595,-0.6486639999999999,-0.128074,1.1148395,-0.645594,-0.147737,1
203,1.005542,0.7167035,-0.049129,0.856479,0.4967935,-0.021353,0.747579,0.7003235,-0.039704,1.155139,0.4870335,-0.043533,1.278649,0.6776035,-0.104908,0.692349,0.9232935,-0.074288,1.337559,0.8934035,-0.170001,0.930274,0.0022515,0.0010089999999999,1.069726,-0.0022514999999999,-0.001009,0.843279,-0.2972765,-0.203951,1.115729,-0.2890265,-0.229451,0.866569,-0.6646465,-0.118552,1.115109,-0.6616365,-0.138122,1
204,1.006976,0.7168800000000001,-0.0416505,0.857432,0.49585,-0.0134485,0.7497119999999999,0.6994900000000001,-0.0313485,1.157802,0.48932,-0.0354245,1.280682,0.6795500000000001,-0.0966945,0.694072,0.92241,-0.0656185,1.340432,0.89534,-0.1616755,0.930593,0.001931,0.0007575,1.069407,-0.0019309999999999,-0.0007575,0.847172,-0.31296,-0.1827255,1.115012,-0.30368,-0.2089855,0.867652,-0.6798099999999999,-0.1062625,1.115632,-0.6771699999999999,-0.1287395,1
205,1.0083675,0.717606,-0.034713,0.8585525,0.494816,-0.006281,0.7504425,0.699156,-0.023447,1.1603725,0.490496,-0.027901,1.2831225,0.681056,-0.089127,0.6952225000000001,0.921796,-0.057602,1.3434725,0.896606,-0.15412,0.9308645,0.00177,0.0005389999999999,1.0691355,-0.00177,-0.0005389999999999,0.8509925,-0.3274539999999999,-0.16225,1.1142525,-0.316864,-0.18949,0.8688225,-0.6935439999999999,-0.09475,1.1160925,-0.690694,-0.1199109999999999,1
206,1.0096735,0.7177129999999999,-0.027847,0.8599185,0.494503,0.0002669999999999,0.7526985000000002,0.699163,-0.015741,1.1630885,0.491443,-0.020674,1.2856485,0.681573,-0.081812,0.6967085,0.921613,-0.049749,1.3466785,0.897183,-0.146554,0.9311775,0.001674,0.0002409999999999,1.0688225,-0.0016739999999999,-0.000241,0.8549485,-0.342777,-0.141343,1.1136185,-0.329897,-0.169904,0.8698485,-0.707017,-0.083248,1.1163785,-0.703987,-0.109365,1
207,1.0108565,0.719486,-0.0217135,0.8605565,0.493796,0.0064045,0.7539465000000001,0.699316,-0.0086165,1.1658265,0.491316,-0.0141255,1.2881965,0.682046,-0.0755585,0.6976865,0.921626,-0.0425125,1.3491465,0.897566,-0.1396525,0.9314375,0.0015399999999999,4.149999999999987e-05,1.0685625,-0.0015399999999999,-4.149999999999987e-05,0.8587265,-0.355614,-0.1220415,1.1130465,-0.3398239999999999,-0.1518324999999999,0.8708965000000001,-0.717474,-0.0727754999999999,1.1166865,-0.714314,-0.0995095,1
208,1.0120384999999998,0.7206075000000001,-0.015683,0.8612515000000001,0.4947175,0.012633,0.7553615,0.7007875,-0.00167,1.1685315,0.4923375,-0.007806,1.2906415,0.6830375000000001,-0.069442,0.6986815,0.9229175,-0.035456,1.3518315,0.8986075,-0.13291,0.9317405,0.0014254999999999,-0.0001239999999999,1.0682595,-0.0014254999999999,0.0001239999999999,0.8625615,-0.3692924999999999,-0.102761,1.1125215,-0.3493725,-0.13384,0.8719415,-0.7277224999999999,-0.062492,1.1170315,-0.7235825,-0.090011,1
209,1.0131405,0.721333,-0.0098159999999999,0.8619635000000001,0.496213,0.018812,0.7562035000000001,0.702623,0.005139,1.1711635,0.494063,-0.0017129999999999,1.2927335,0.684603,-0.063523,0.6993535,0.924463,-0.028744,1.3545635,0.900253,-0.1266229999999999,0.9320795,0.001321,-0.0002489999999999,1.0679205,-0.001321,0.000249,0.8662735,-0.383017,-0.083857,1.1120335,-0.358387,-0.1161059999999999,0.8730635000000001,-0.737607,-0.052382,1.1173235,-0.732137,-0.08034,1
210,1.014208,0.7220175000000001,-0.004103,0.862613,0.4978775,0.024947,0.7573130000000001,0.7047175,0.011754,1.173713,0.4952175,0.0043839999999999,1.294823,0.6858675000000001,-0.057821,0.7003429999999999,0.9263675,-0.021794,1.357233,0.9016475,-0.120283,0.93247,0.0010984999999999,-0.000383,1.06753,-0.0010985,0.0003829999999999,0.869733,-0.3971125,-0.065713,1.111823,-0.3677225,-0.098897,0.873953,-0.7475725,-0.042925,1.117683,-0.7409924999999999,-0.071832,1
211,1.0150615,0.7213295,0.001527,0.8630195,0.4991894999999999,0.030907,0.7582295,0.7062995,0.017969,1.1759695,0.4955895,0.009994,1.2966295,0.6863595,-0.052468,0.7010695,0.9278995,-0.0153349999999999,1.3592495,0.9019295,-0.114437,0.9327055,0.0009765,-0.0005679999999999,1.0672945,-0.0009764999999999,0.000568,0.8729495,-0.4104705,-0.048775,1.1115995,-0.3768705,-0.082797,0.8746395000000001,-0.7566305,-0.034421,1.1180395,-0.7493305,-0.062747,1
212,1.015145,0.7213095,0.002602,0.862747,0.5017495,0.032212,0.758347,0.7090095,0.0192649999999999,1.176017,0.4950595,0.010841,1.297057,0.6858595,-0.051666,0.700817,0.9305095,-0.01412,1.359627,0.9012595,-0.113329,0.932808,0.0009524999999999,-0.000445,1.067192,-0.0009525,0.000445,0.874337,-0.4165105,-0.042769,1.112057,-0.3815205,-0.076954,0.874647,-0.7615705,-0.032583,1.118277,-0.7541405,-0.059715,1
213,1.0152275,0.7214700000000001,0.003619,0.8626255,0.50453,0.0335619999999999,0.7584555,0.71185,0.020468,1.1760655,0.49482,0.011605,1.2972755,0.6855600000000001,-0.050821,0.7009255,0.93329,-0.012919,1.3599955,0.90081,-0.111852,0.9328685,0.0009869999999999,-0.0005209999999999,1.0671315,-0.000987,0.0005209999999999,0.8758255,-0.42241,-0.0363789999999999,1.1125455,-0.38602,-0.070992,0.8746955000000001,-0.76633,-0.030791,1.1185055,-0.75846,-0.0564289999999999,1
214,1.0152945,0.7211985,0.004887,0.8622915,0.5075584999999999,0.035123,0.7585415,0.7144284999999999,0.02185,1.1761115,0.4946885,0.012752,1.2974215,0.6852085,-0.049568,0.7010315,0.9359785,-0.011399,1.3602215,0.9003785,-0.110565,0.9328615,0.0009645,-0.000668,1.0671385,-0.0009645,0.0006679999999999,0.8772815,-0.4277315,-0.029915,1.1130515,-0.3902115,-0.064719,0.8747615,-0.7709215,-0.028746,1.1187115,-0.7626915000000001,-0.0529489999999999,1
215,1.015286,0.7205845,0.006094,0.861484,0.5103044999999999,0.036703,0.758074,0.7167745000000001,0.023298,1.176154,0.4946645,0.013711,1.297194,0.6849845000000001,-0.048245,0.700534,0.9384845,-0.009811,1.360364,0.9001045000000001,-0.109098,0.932806,0.0008844999999999,-0.000764,1.067194,-0.0008845,0.0007639999999999,0.878734,-0.4326355,-0.023593,1.113954,-0.3937055,-0.058468,0.875024,-0.7750455,-0.026739,1.119144,-0.7660955,-0.049842,1
