sb224sc-HT22-VT27/4dt907/src/data/labeled_files/A2_kinect.csv
FrameNo,nose_3d_x,nose_3d_y,nose_3d_z,left_shoulder_3d_x,left_shoulder_3d_y,left_shoulder_3d_z,left_elbow_3d_x,left_elbow_3d_y,left_elbow_3d_z,right_shoulder_3d_x,right_shoulder_3d_y,right_shoulder_3d_z,right_elbow_3d_x,right_elbow_3d_y,right_elbow_3d_z,left_wrist_3d_x,left_wrist_3d_y,left_wrist_3d_z,right_wrist_3d_x,right_wrist_3d_y,right_wrist_3d_z,left_hip_3d_x,left_hip_3d_y,left_hip_3d_z,right_hip_3d_x,right_hip_3d_y,right_hip_3d_z,left_knee_3d_x,left_knee_3d_y,left_knee_3d_z,right_knee_3d_x,right_knee_3d_y,right_knee_3d_z,left_ankle_3d_x,left_ankle_3d_y,left_ankle_3d_z,right_ankle_3d_x,right_ankle_3d_y,right_ankle_3d_z,activity_label
0,0.006884,0.75832,0.0305915,-0.15961,0.46736,0.0401765,-0.17688,0.2292,0.0452305,0.14597,0.46336,0.0594765,0.18151,0.22766,0.0686885,-0.18971,0.031668,-0.0184804999999999,0.19184,0.010363,-0.0071325,-0.068422,0.0018969999999999,0.0001754999999999,0.068422,-0.0018969999999999,-0.0001754999999999,-0.12538,-0.37622,-0.0073674999999999,0.11389,-0.40868,0.0314295,-0.13093,-0.73538,-0.0248375,0.12592,-0.73475,0.0085265,0
1,0.006833,0.7583300000000001,0.0307195,-0.159577,0.46726,0.0409785,-0.177017,0.22906,0.0452894999999999,0.146313,0.46326,0.0592495,0.181473,0.22753,0.0687015,-0.190447,0.033657,-0.0175705,0.191893,0.00995,-0.0072554999999999,-0.068424,0.001899,0.0002114999999999,0.068424,-0.001899,-0.0002114999999999,-0.125407,-0.37803,-0.0072595,0.113893,-0.40868,0.0313895,-0.131557,-0.73626,-0.0262174999999999,0.125443,-0.73491,0.0088244999999999,0
2,0.0068575,0.7585164999999999,0.0307825,-0.1596725,0.4670065,0.0414295,-0.1771924999999999,0.2287964999999999,0.0455325,0.1466175,0.4632465,0.0590205,0.1815175,0.2274965,0.0686875,-0.1911824999999999,0.0357535,-0.0161084999999999,0.1919775,0.0091135,-0.0071495,-0.0684295,0.0018745,0.0002335,0.0684295,-0.0018744999999999,-0.0002335,-0.1254225,-0.3780435,-0.0072795,0.1139675,-0.4081835,0.0312625,-0.1312025,-0.7346535000000001,-0.0252925,0.1254374999999999,-0.7350735,0.0086755,0
3,0.0069354999999999,0.7584685000000001,0.030837,-0.1595085,0.4679985,0.039212,-0.1771385,0.2299485,0.045383,0.1455415,0.4633085,0.05902,0.1815515,0.2277084999999999,0.068571,-0.1909585,0.0357675,-0.016231,0.1920115,0.0084645,-0.0072589999999999,-0.0684365,0.0018575,4.099999999999937e-05,0.0684365,-0.0018575,-4.099999999999937e-05,-0.1255385,-0.3780115,-0.007144,0.1140515,-0.4082115,0.030968,-0.1303985,-0.7324915,-0.023211,0.1257714999999999,-0.7352114999999999,0.0080299999999999,0
4,0.0069584999999999,0.7584295,0.0308875,-0.1595424999999999,0.4679095,0.0400185,-0.1771424999999999,0.2298195,0.0455095,0.1452875,0.4633295,0.0591745,0.1815875,0.2277695,0.0685455,-0.1911725,0.0367705,-0.0157715,0.1921375,0.0082395,-0.0072544999999999,-0.0684425,0.0018335,5.050000000000193e-05,0.0684425,-0.0018335,-5.049999999999846e-05,-0.1254825,-0.3781204999999999,-0.0071475,0.1140775,-0.4079905,0.0308365,-0.1304024999999999,-0.7333405,-0.0236995,0.1255474999999999,-0.7350205,0.0083455,0
5,0.0068114999999999,0.7584114999999999,0.0310195,-0.1596405,0.4685115,0.0384165,-0.1772105,0.2305215,0.0454185,0.1449195,0.4633415,0.0591774999999999,0.1814495,0.2278115,0.0684155,-0.1910605,0.0375375,-0.0155415,0.1921795,0.0078025,-0.0073515,-0.0684545,0.0017984999999999,-6.250000000000006e-05,0.0684545,-0.0017985,6.250000000000006e-05,-0.1254905,-0.3784685,-0.0070314999999999,0.1140595,-0.4079184999999999,0.0306175,-0.1303605,-0.7333685000000001,-0.0238155,0.1257195,-0.7346685000000001,0.0083995,0
6,0.0041525,0.7584705,0.0306325,-0.1613625,0.4674304999999999,0.0399734999999999,-0.1781625,0.2293105,0.0459745,0.1427675,0.4640605,0.0590065,0.1806475,0.2287305,0.0681895,-0.1916624999999999,0.0377025,-0.0144925,0.1900075,0.0425274999999999,0.0046894999999999,-0.0684674999999999,0.0015505,-5.55e-05,0.0684674999999999,-0.0015505,5.55e-05,-0.1241925,-0.3795095,-0.0061965,0.1155575,-0.4073795,0.0307125,-0.1276125,-0.7334995,-0.0235535,0.1282775,-0.7347794999999999,0.0085415,0
7,0.0052364999999999,0.7584415,0.030658,-0.1603375,0.4671915,0.039844,-0.1776775,0.2291014999999999,0.045756,0.1441125,0.4636615,0.0589149999999999,0.1812125,0.2281814999999999,0.068034,-0.1908675,0.0350295,-0.01647,0.1920724999999999,0.0097335,-0.0061739999999999,-0.0684694999999999,0.0016345,3.900000000000084e-05,0.0684694999999999,-0.0016345,-3.900000000000084e-05,-0.1245075,-0.3793185,-0.0067559999999999,0.1150924999999999,-0.4070985,0.030642,-0.1287175,-0.7348785,-0.0250029999999999,0.1276324999999999,-0.7353485,0.007871,0
8,0.0049679999999999,0.7584525,0.030603,-0.160444,0.4672125,0.039659,-0.177794,0.2291325,0.045812,0.143936,0.4636625,0.058886,0.181166,0.2281925,0.067921,-0.190924,0.0349935,-0.016306,0.192086,0.0095505,-0.0060479999999999,-0.0684869999999999,0.0016045,6.700000000000109e-05,0.0684869999999999,-0.0016045,-6.699999999999762e-05,-0.124384,-0.3795975,-0.006718,0.115266,-0.4069375,0.030594,-0.128414,-0.7346775,-0.024992,0.127906,-0.7354275,0.007817,0
9,0.0046899999999999,0.7584405000000001,0.03055,-0.1605339999999999,0.4672604999999999,0.039332,-0.177894,0.2292005,0.045842,0.143866,0.4636305,0.058841,0.181116,0.2281505,0.067817,-0.190884,0.0350495,-0.0160859999999999,0.192116,0.0093685,-0.0059019999999999,-0.068502,0.0015745,0.000101,0.068502,-0.0015745,-0.000101,-0.124254,-0.3798795,-0.0066849999999999,0.115446,-0.4067695,0.030545,-0.128114,-0.7344895,-0.0248849999999999,0.128266,-0.7354594999999999,0.007755,0
10,0.004424,0.7583985,0.0304745,-0.160606,0.4672785,0.0389155,-0.1779859999999999,0.2292384999999999,0.0458425,0.143834,0.4635785,0.0587354999999999,0.1810939999999999,0.2280885,0.0676954999999999,-0.190796,0.0350315,-0.0160605,0.192154,0.0092555,-0.0057805,-0.068523,0.0015455,0.0001635,0.068523,-0.0015455,-0.0001635,-0.124116,-0.3801515,-0.0066864999999999,0.115614,-0.4066015,0.0304915,-0.127836,-0.7343515,-0.0247865,0.128634,-0.7354215000000001,0.0076815,0
11,0.0043715,0.758387,0.0304375,-0.1607515,0.467337,0.0390075,-0.1780415,0.2292769999999999,0.0458125,0.1438685,0.463567,0.0586155,0.1810685,0.228077,0.0675564999999999,-0.1904414999999999,0.033972,-0.0168565,0.1922085,0.0092439999999999,-0.0059084999999999,-0.0685375,0.0015509999999999,0.0002165,0.0685375,-0.0015509999999999,-0.0002165,-0.1240915,-0.380283,-0.0067605,0.1156385,-0.406553,0.0304035,-0.1277414999999999,-0.734313,-0.0249165,0.1287085,-0.735263,0.0076174999999999,0
12,0.0043134999999999,0.7583745,0.0303939999999999,-0.1609025,0.4673245,0.039,-0.1780925,0.2292445,0.045758,0.1438974999999999,0.4635545,0.058473,0.1810475,0.2280645,0.067385,-0.1900425,0.0331135,-0.017704,0.1922674999999999,0.0092315,-0.00606,-0.0685595,0.0015555,0.0002689999999999,0.0685595,-0.0015555,-0.000269,-0.1240624999999999,-0.3804555,-0.006858,0.1156675,-0.4065554999999999,0.030314,-0.1276625,-0.7341655,-0.025022,0.1287775,-0.7350955,0.0075089999999999,0
13,0.0042125,0.758369,0.030375,-0.1610805,0.467219,0.039207,-0.1781505,0.229119,0.045704,0.1439295,0.463549,0.058329,0.1809995,0.228059,0.067205,-0.1896305,0.032199,-0.01861,0.1922994999999999,0.009226,-0.00621,-0.0685725,0.001556,0.000331,0.0685725,-0.0015559999999999,-0.0003309999999999,-0.1240405,-0.380531,-0.0069559999999999,0.1156895,-0.406551,0.030243,-0.1276005,-0.7339910000000001,-0.025139,0.1288495,-0.734911,0.007389,0
14,0.004244,0.7583375,0.0304429999999999,-0.161038,0.4671375,0.039354,-0.1781479999999999,0.2290275,0.045639,0.144092,0.4634275,0.058259,0.181022,0.2279175,0.06706,-0.1892579999999999,0.0309815,-0.019793,0.1923619999999999,0.0092345,-0.006346,-0.068589,0.0015545,0.0003829999999999,0.068589,-0.0015545,-0.000383,-0.124058,-0.3805925,-0.007055,0.115712,-0.4065425,0.0301639999999999,-0.127578,-0.7342325,-0.025291,0.1288619999999999,-0.7350024999999999,0.0073289999999999,0
15,0.004264,0.7582725,0.030571,-0.1609999999999999,0.4670424999999999,0.039443,-0.17814,0.2289425,0.045506,0.14425,0.4633024999999999,0.058204,0.18101,0.2277525,0.066879,-0.18916,0.0314015,-0.0199129999999999,0.1924199999999999,0.0092395,-0.006514,-0.068604,0.0015545,0.0004329999999999,0.068604,-0.0015545,-0.0004329999999999,-0.12408,-0.3806775,-0.007152,0.11573,-0.4065775,0.030089,-0.12757,-0.7344675,-0.0254509999999999,0.12886,-0.7351675,0.0072739999999999,0
16,0.004267,0.7581964999999999,0.0307895,-0.1610369999999999,0.4668564999999999,0.0398625,-0.178117,0.2287265,0.0453885,0.144463,0.4631665,0.0581875,0.181093,0.2275565,0.0665565,-0.189137,0.0316695,-0.0200305,0.192493,0.0091555,-0.0067334999999999,-0.068618,0.0015515,0.0004715,0.068618,-0.0015515,-0.0004714999999999,-0.1241169999999999,-0.3807535,-0.0072305,0.115733,-0.4066235,0.0300045,-0.1275669999999999,-0.7348235000000001,-0.0256534999999999,0.128883,-0.7352835,0.0072465,0
17,0.0044724999999999,0.7580874999999999,0.0312145,-0.1610615,0.4669275,0.0402155,-0.1780015,0.2287475,0.0452435,0.1448585,0.4628975,0.0582075,0.1812885,0.2272575,0.0661345,-0.1893515,0.0321205,-0.0202275,0.1926884999999999,0.0096065,-0.0071555,-0.0686175,0.0015955,0.0004945,0.0686175,-0.0015955,-0.0004944999999999,-0.1243615,-0.3805425,-0.0074024999999999,0.1154685,-0.4067225,0.0298395,-0.1280215,-0.7345125,-0.0257625,0.1285285,-0.7351025,0.0070605,0
18,0.00466,0.7579805,0.0317015,-0.161077,0.4670105,0.0402885,-0.177877,0.2287805,0.0450265,0.145223,0.4626405,0.0582115,0.181563,0.2276205,0.0652065,-0.188927,0.0313115,-0.0221855,0.1932029999999999,0.0102075,-0.0083754999999999,-0.068618,0.0016334999999999,0.0005145,0.068618,-0.0016335,-0.0005145,-0.124617,-0.3803595,-0.0075574999999999,0.1151929999999999,-0.4067995,0.0296775,-0.128427,-0.7341195,-0.0258475,0.1281429999999999,-0.7348195000000001,0.0070055,0
19,0.004843,0.757888,0.0322445,-0.161094,0.467128,0.0404965,-0.177844,0.2294179999999999,0.0444535,0.145676,0.462428,0.0581504999999999,0.181886,0.228098,0.0639815,-0.188474,0.031789,-0.0243124999999999,0.193816,0.011014,-0.0101734999999999,-0.068608,0.001674,0.0005234999999999,0.068608,-0.001674,-0.0005234999999999,-0.1248739999999999,-0.3801319999999999,-0.0077104999999999,0.114936,-0.4068819999999999,0.0295135,-0.128764,-0.7337520000000001,-0.0259815,0.127716,-0.7346320000000001,0.0069575,0
20,0.004979,0.7578550000000001,0.032846,-0.160999,0.467395,0.040758,-0.177979,0.230155,0.043481,0.145831,0.462445,0.057977,0.182791,0.228595,0.061725,-0.187849,0.032286,-0.0275819999999999,0.195231,0.0133269999999999,-0.0131179999999999,-0.068603,0.001699,0.000553,0.068603,-0.001699,-0.0005529999999999,-0.125109,-0.379605,-0.0078639999999999,0.114671,-0.406505,0.029373,-0.129069,-0.733065,-0.0260439999999999,0.127271,-0.7344449999999999,0.006886,0
21,0.0051049999999999,0.757824,0.0335619999999999,-0.160859,0.4680339999999999,0.040937,-0.178359,0.230984,0.0416229999999999,0.146001,0.462624,0.057814,0.1845109999999999,0.229104,0.0587069999999999,-0.187639,0.032795,-0.032465,0.1976909999999999,0.017777,-0.017502,-0.06861,0.0017199999999999,0.0005879999999999,0.06861,-0.00172,-0.000588,-0.125339,-0.378966,-0.00798,0.114421,-0.406036,0.0292759999999999,-0.129459,-0.732186,-0.026084,0.126501,-0.734626,0.0068439999999999,0
22,0.005237,0.7577710000000001,0.0343045,-0.160584,0.468611,0.0406875,-0.179644,0.231701,0.0383634999999999,0.146176,0.462871,0.0576055,0.186806,0.2301409999999999,0.0547325,-0.189354,0.038479,-0.0387845,0.200626,0.023992,-0.0227455,-0.068611,0.0017019999999999,0.0006254999999999,0.068611,-0.001702,-0.0006255,-0.125574,-0.378399,-0.0080975,0.114146,-0.405589,0.0291855,-0.129714,-0.731289,-0.0261274999999999,0.125736,-0.734899,0.0067575,0
23,0.0054124999999999,0.757658,0.035171,-0.1601965,0.469058,0.040438,-0.1824865,0.2354979999999999,0.0301829999999999,0.1463735,0.463238,0.056969,0.1909435,0.236878,0.047943,-0.1938465,0.0499169999999999,-0.052834,0.2073435,0.0400359999999999,-0.033962,-0.0686765,0.001653,0.0006389999999999,0.0686765,-0.001653,-0.000639,-0.1257065,-0.377832,-0.0082759999999999,0.1138935,-0.405162,0.029196,-0.1299665,-0.7307119999999999,-0.02623,0.1250235,-0.7353219999999999,0.0066219999999999,0
24,0.0055885,0.757509,0.0360395,-0.1595105,0.469459,0.0401674999999999,-0.1870504999999999,0.245269,0.0183254999999999,0.1462295,0.463599,0.0560045,0.1970395,0.2458189999999999,0.0357125,-0.1997605,0.06735,-0.0709665,0.2170095,0.058987,-0.0525695,-0.0687715,0.0016,0.0006175,0.0687715,-0.0015999999999999,-0.0006175,-0.1258605,-0.376451,-0.0082695,0.1136295,-0.404801,0.0291855,-0.1301105,-0.730261,-0.0263815,0.1242795,-0.735951,0.0063975,0
25,0.0057775,0.7573435000000001,0.03692,-0.1587655,0.4699035,0.039836,-0.1916855,0.2552035,0.005547,0.1459945,0.4639235,0.05493,0.2032945,0.2562735,0.023342,-0.2069355,0.0878485,-0.0923479999999999,0.2273845,0.0822905,-0.07243,-0.0688645,0.0015545,0.000562,0.0688645,-0.0015544999999999,-0.000562,-0.1259955,-0.3744665,-0.0081619999999999,0.1133444999999999,-0.4044765,0.029153,-0.1303155,-0.7296465,-0.0261269999999999,0.1235745,-0.7365965,0.006075,0
26,0.005786,0.7573435000000001,0.037623,-0.157703,0.4702635,0.039276,-0.196463,0.2666735,-0.008211,0.145627,0.4639235,0.053796,0.209587,0.2677335,0.010666,-0.215633,0.1138735,-0.1161169999999999,0.239367,0.1097635,-0.093957,-0.068964,0.0015545,0.0004669999999999,0.068964,-0.0015544999999999,-0.0004669999999999,-0.125903,-0.3727365,-0.007985,0.1133069999999999,-0.4043565,0.029205,-0.130243,-0.7293565,-0.0258249999999999,0.1234369999999999,-0.7367864999999999,0.005857,0
27,0.005798,0.7573435000000001,0.0382975,-0.1565329999999999,0.4707735,0.0384805,-0.2017129999999999,0.2804935,-0.0225714999999999,0.1452169999999999,0.4641235,0.0524545,0.217157,0.2814635,-0.0040774999999999,-0.224323,0.1422235,-0.1404035,0.251947,0.1387935,-0.1171735,-0.069062,0.0015545,0.0003625,0.069062,-0.0015544999999999,-0.0003624999999999,-0.125823,-0.3707565,-0.0077824999999999,0.113277,-0.4042365,0.0292465,-0.1302229999999999,-0.7290764999999999,-0.0251995,0.123397,-0.7368564999999999,0.0055935,0
28,0.0058324999999999,0.7573435000000001,0.0388745,-0.1553085,0.4713335,0.0374885,-0.2077485,0.2977435,-0.0389185,0.1448015,0.4644135,0.0509644999999999,0.2256115,0.2966535,-0.0199875,-0.2336285,0.1733335,-0.1661475,0.2652815,0.1685635,-0.1417275,-0.0691685,0.0015545,0.0002554999999999,0.0691685,-0.0015544999999999,-0.0002554999999999,-0.1257385,-0.3687365,-0.0075315,0.1132515,-0.4041165,0.0292845,-0.1301885,-0.7286265,-0.0246015,0.1233515,-0.7369165,0.0052625,0
29,0.0056545,0.7569849999999999,0.0393359999999999,-0.1541615,0.472055,0.0360889999999999,-0.2141215,0.316375,-0.0555289999999999,0.1441985,0.465395,0.049062,0.2349485,0.317595,-0.039104,-0.2435215,0.208215,-0.192376,0.2795785,0.203465,-0.168526,-0.0692965,0.001454,0.0001619999999999,0.0692965,-0.0014539999999999,-0.0001619999999999,-0.1255615,-0.366975,-0.0072769999999999,0.1131885,-0.403555,0.029318,-0.1298315,-0.7281650000000001,-0.0236049999999999,0.1232985,-0.737585,0.004861,0
30,0.0054945,0.756545,0.039623,-0.1529485,0.472665,0.03446,-0.2210185,0.337835,-0.072259,0.1436215,0.466675,0.047072,0.2443815,0.3379649999999999,-0.060462,-0.2537784999999999,0.247555,-0.218227,0.2943115,0.240195,-0.202317,-0.0694115,0.0013349999999999,3.699999999999884e-05,0.0694115,-0.001335,-3.699999999999884e-05,-0.1254084999999999,-0.365445,-0.007055,0.1131115,-0.403055,0.029318,-0.1293484999999999,-0.727945,-0.022393,0.1233715,-0.738335,0.004348,0
31,0.0053044999999999,0.7559735,0.0397919999999999,-0.1517465,0.4731735,0.0329,-0.2272465,0.3606935,-0.0881349999999999,0.1430334999999999,0.4682235,0.045049,0.2529635,0.3593635,-0.078483,-0.2631265,0.2866035,-0.245405,0.3086635,0.2802535,-0.232535,-0.0695505,0.0011895,-0.000144,0.0695505,-0.0011894999999999,0.0001439999999999,-0.1253065,-0.3639165,-0.006847,0.1130135,-0.4025965,0.029254,-0.1289465,-0.7276365,-0.021214,0.1234535,-0.7392465,0.0038379999999999,0
32,0.005114,0.7552435000000001,0.0397145,-0.150547,0.4736435,0.0310575,-0.232287,0.3827435,-0.0999285,0.142713,0.4700935,0.0435065,0.259693,0.3760735,-0.0932685,-0.2703669999999999,0.3227235,-0.2659685,0.319753,0.3152435,-0.2587985,-0.069637,0.0010375,-0.0003494999999999,0.069637,-0.0010374999999999,0.0003494999999999,-0.125287,-0.3628964999999999,-0.0066005,0.112893,-0.4027365,0.0290375,-0.128647,-0.7278264999999999,-0.0203075,0.123423,-0.7402865,0.0033524999999999,0
33,0.004946,0.7543115,0.039494,-0.149611,0.4738815,0.029253,-0.236641,0.4009215,-0.1107939999999999,0.142809,0.4719715,0.042189,0.264349,0.3953115,-0.100134,-0.2773609999999999,0.3592615,-0.288164,0.327319,0.3517615,-0.274964,-0.069714,0.0008985,-0.0005299999999999,0.069714,-0.0008985,0.0005299999999999,-0.1252609999999999,-0.3628685,-0.006554,0.112749,-0.4030984999999999,0.028767,-0.128381,-0.7284085,-0.019672,0.123509,-0.7411584999999999,0.0027599999999999,0
34,0.0048204999999999,0.7532555,0.0391824999999999,-0.1488645,0.4739555,0.0277534999999999,-0.2420545,0.4220155,-0.1201095,0.1429655,0.4738655,0.0409975,0.2695054999999999,0.4156154999999999,-0.1077595,-0.2832044999999999,0.3967755,-0.3036195,0.3343055,0.3876455,-0.2894295,-0.0697575,0.0007905,-0.0007335,0.0697575,-0.0007905,0.0007334999999999,-0.1251745,-0.3636045,-0.0065785,0.1126455,-0.4035745,0.0285365,-0.1280645,-0.7294045,-0.0194825,0.1236755,-0.7420945,0.0022364999999999,0
35,0.004726,0.7520345,0.0388395,-0.148495,0.4739845,0.0262585,-0.247305,0.4430145,-0.1279295,0.143145,0.4756845,0.0398015,0.274725,0.4353045,-0.1150295,-0.287395,0.4342545,-0.3148395,0.339445,0.4241245,-0.3010995,-0.069772,0.0006975,-0.0009825,0.069772,-0.0006975,0.0009825,-0.125095,-0.3645755,-0.0065565,0.112595,-0.4043055,0.0283045,-0.127765,-0.7305955,-0.0192515,0.123775,-0.7430955,0.0019375,0
36,0.0046835,0.7505780000000001,0.03847,-0.1482485,0.474048,0.024826,-0.2519885,0.464588,-0.1339,0.1433315,0.477278,0.038778,0.2785815,0.454618,-0.11961,-0.2911085,0.474358,-0.3208,0.3436715,0.461628,-0.30914,-0.0697665,0.000621,-0.001222,0.0697665,-0.000621,0.001222,-0.1249985,-0.365952,-0.006551,0.1125415,-0.4052719999999999,0.028103,-0.1274485,-0.732132,-0.019057,0.1238615,-0.7443219999999999,0.0017509999999999,0
37,0.0046239999999999,0.7487365,0.038201,-0.148022,0.4743664999999999,0.023506,-0.255562,0.4877565,-0.136353,0.143868,0.4790264999999999,0.038001,0.281398,0.4783765,-0.122123,-0.293362,0.5195164999999999,-0.323833,0.3467079999999999,0.5072065,-0.312903,-0.06975,0.0005795,-0.0014769999999999,0.06975,-0.0005795,0.001477,-0.124942,-0.3677635,-0.0065169999999999,0.112458,-0.4066435,0.027991,-0.127192,-0.7342835,-0.018798,0.123888,-0.7459235,0.0016959999999999,0
38,0.0046305,0.746837,0.0379675,-0.1478415,0.474747,0.0224355,-0.2584615,0.510587,-0.1371185,0.1446885,0.480827,0.0375015,0.2830185,0.497607,-0.1221085,-0.2944215,0.5632670000000001,-0.3242285,0.3477385,0.548407,-0.3129885,-0.0697405,0.0005479999999999,-0.0017105,0.0697405,-0.0005479999999999,0.0017105,-0.1249215,-0.3693729999999999,-0.0064554999999999,0.1123685,-0.4083929999999999,0.0278435,-0.1270615,-0.736003,-0.0186525,0.1238985,-0.747703,0.0017945,0
39,0.0046364999999999,0.744867,0.037872,-0.1477825,0.475517,0.021651,-0.2595625,0.532177,-0.1373859999999999,0.1455675,0.482227,0.0371439999999999,0.2840275,0.519927,-0.122056,-0.2943624999999999,0.604917,-0.324316,0.3481975,0.590087,-0.313016,-0.0697445,0.000535,-0.001808,0.0697445,-0.0005349999999999,0.001808,-0.1248924999999999,-0.371333,-0.0063779999999999,0.1122975,-0.410303,0.027771,-0.1270425,-0.737773,-0.018352,0.1239075,-0.749623,0.00208,0
40,0.0046865,0.7427144999999999,0.037816,-0.1478785,0.4765445,0.021153,-0.2602085,0.5533845,-0.137488,0.1465415,0.4834145,0.036893,0.2841315,0.5413645,-0.1194279999999999,-0.2942685,0.6459245,-0.324308,0.3480615,0.6296145,-0.311508,-0.0697395,0.0005544999999999,-0.0018129999999999,0.0697395,-0.0005545,0.001813,-0.1247984999999999,-0.3734855,-0.0063599999999999,0.1122715,-0.4124555,0.027761,-0.1269885,-0.7399255,-0.018061,0.1239615,-0.7517755,0.002211,0
41,0.00475,0.740481,0.037885,-0.14795,0.477641,0.021085,-0.26009,0.573191,-0.1374109999999999,0.14774,0.484281,0.036741,0.2844299999999999,0.562951,-0.1193209999999999,-0.29427,0.685471,-0.323441,0.34818,0.666511,-0.311431,-0.069688,0.0005939999999999,-0.0018639999999999,0.069688,-0.000594,0.001864,-0.1247099999999999,-0.375979,-0.0062859999999999,0.11226,-0.414689,0.027819,-0.12687,-0.742409,-0.017984,0.1239,-0.754009,0.002389,0
42,0.0047905,0.738259,0.0379885,-0.1480844999999999,0.478819,0.0211895,-0.2602645,0.5923290000000001,-0.1353775,0.1491055,0.485289,0.0366965,0.2835355,0.5812390000000001,-0.1125475,-0.2939845,0.7208990000000001,-0.3185774999999999,0.3464155,0.701679,-0.2988575,-0.0695955,0.000628,-0.0020074999999999,0.0695955,-0.0006279999999999,0.0020075,-0.1246444999999999,-0.378351,-0.0061194999999999,0.1122755,-0.416911,0.0279795,-0.1268045,-0.7448809999999999,-0.0182094999999999,0.1238355,-0.756261,0.0026315,0
43,0.004917,0.7357795,0.038076,-0.1482139999999999,0.4798295,0.021414,-0.260594,0.6088895,-0.1317569999999999,0.150546,0.4862094999999999,0.03684,0.282856,0.5982695,-0.106597,-0.292884,0.7531395,-0.309087,0.343866,0.7348695,-0.284967,-0.069444,0.0006584999999999,-0.0022279999999999,0.069444,-0.0006584999999999,0.002228,-0.1245039999999999,-0.3808205,-0.0058549999999999,0.112396,-0.4193105,0.028135,-0.126714,-0.7472905,-0.0179529999999999,0.123856,-0.7584705,0.003004,0
44,0.005045,0.733364,0.0383125,-0.148502,0.481264,0.0217865,-0.261112,0.6248940000000001,-0.1263705,0.151808,0.487214,0.0372684999999999,0.281908,0.615494,-0.1003505,-0.291022,0.782414,-0.2954105,0.340378,0.765474,-0.2696605,-0.069269,0.000708,-0.0024115,0.069269,-0.000708,0.0024115,-0.124302,-0.3832759999999999,-0.0054794999999999,0.112578,-0.421606,0.0284045,-0.126662,-0.749686,-0.0178534999999999,0.123898,-0.760706,0.0034945,0
45,0.0051494999999999,0.731268,0.0385835,-0.1488735,0.482738,0.0223195,-0.2603835,0.638778,-0.1173755,0.1528565,0.4882379999999999,0.0379905,0.2810565,0.631588,-0.0941755,-0.2877435,0.807868,-0.2744054999999999,0.3367365,0.794048,-0.2541155,-0.0690925,0.0007469999999999,-0.0025834999999999,0.0690925,-0.000747,0.0025835,-0.1241035,-0.385432,-0.0050494999999999,0.1127865,-0.423632,0.0287395,-0.1266435,-0.751892,-0.0176355,0.1239465,-0.762702,0.0040905,0
46,0.0052335,0.729511,0.0388595,-0.1492004999999999,0.4842309999999999,0.0232155,-0.2583305,0.648541,-0.1077965,0.1534795,0.489021,0.0387415,0.2789795,0.642541,-0.0867465,-0.2841105,0.826831,-0.2547165,0.3328495,0.814831,-0.2366565,-0.0689465,0.0007649999999999,-0.0026745,0.0689465,-0.000765,0.0026745,-0.1239204999999999,-0.387459,-0.0045944999999999,0.1129795,-0.425379,0.0290985,-0.1268105,-0.753839,-0.0174005,0.1239495,-0.764389,0.0047495,0
47,0.0052984999999999,0.7279405,0.039153,-0.1495245,0.4859505,0.024309,-0.2561945,0.6579904999999999,-0.098147,0.1536455,0.4896005,0.039509,0.2761455,0.6534504999999999,-0.078466,-0.2808645,0.8440905,-0.235347,0.3284154999999999,0.8341605,-0.2187869999999999,-0.0688235,0.0007894999999999,-0.0026709999999999,0.0688235,-0.0007895,0.0026709999999999,-0.1237744999999999,-0.3893695,-0.0040919999999999,0.1131455,-0.4270595,0.029486,-0.1270244999999999,-0.7557395,-0.0170189999999999,0.1239055,-0.7660695000000001,0.005484,0
48,0.0053399999999999,0.7264685,0.039365,-0.14974,0.4874985,0.025524,-0.25377,0.6663985,-0.0886599999999999,0.15373,0.4903384999999999,0.040266,0.27334,0.6615685,-0.070644,-0.27824,0.8598984999999999,-0.21868,0.32344,0.8502284999999999,-0.19979,-0.06871,0.0008064999999999,-0.002647,0.06871,-0.0008065,0.002647,-0.12363,-0.3914215,-0.0036189999999999,0.11329,-0.4287315,0.029844,-0.12724,-0.7573215000000001,-0.0164779999999999,0.12389,-0.7678515,0.006147,0
49,0.0053284999999999,0.7251125,0.039495,-0.1499255,0.4889324999999999,0.026867,-0.2515055,0.6735025,-0.07975,0.1537445,0.4911125,0.041052,0.2696645,0.6694325,-0.061461,-0.2768655,0.8722825000000001,-0.2005199999999999,0.3180645,0.8640025,-0.1820899999999999,-0.0686104999999999,0.0008064999999999,-0.0025929999999999,0.0686104999999999,-0.0008065,0.002593,-0.1235354999999999,-0.3932075,-0.0032219999999999,0.1134044999999999,-0.4302675,0.03014,-0.1274755,-0.7590574999999999,-0.0159969999999999,0.1238245,-0.7695875,0.006708,0
50,0.005274,0.723911,0.0396055,-0.1501259999999999,0.490521,0.0282725,-0.2493859999999999,0.6799609999999999,-0.0712165,0.153704,0.4917009999999999,0.0418695,0.2658839999999999,0.676241,-0.0526635,-0.275866,0.883271,-0.1836304999999999,0.3124639999999999,0.876171,-0.1647305,-0.068536,0.000798,-0.0025035,0.068536,-0.000798,0.0025034999999999,-0.1234559999999999,-0.395079,-0.0029295,0.113514,-0.431629,0.0304505,-0.127686,-0.760439,-0.0153165,0.1237439999999999,-0.771219,0.0071884999999999,0
51,0.005227,0.7227790000000001,0.039573,-0.150253,0.4919389999999999,0.029542,-0.247933,0.685099,-0.063402,0.153507,0.492009,0.042604,0.262017,0.6818590000000001,-0.04435,-0.275463,0.8919490000000001,-0.1684109999999999,0.307187,0.8861190000000001,-0.1484309999999999,-0.068473,0.0007559999999999,-0.0024239999999999,0.068473,-0.0007559999999999,0.0024239999999999,-0.123343,-0.396691,-0.0027739999999999,0.113647,-0.432911,0.030632,-0.127873,-0.761651,-0.014914,0.123717,-0.7728109999999999,0.0074259999999999,0
52,0.0051239999999999,0.7216389999999999,0.039517,-0.150411,0.4934489999999999,0.0307269999999999,-0.246471,0.689859,-0.056217,0.153059,0.4923789999999999,0.043328,0.258519,0.686379,-0.036914,-0.275271,0.899959,-0.153962,0.301769,0.8949189999999999,-0.1325619999999999,-0.068468,0.0007189999999999,-0.002311,0.068468,-0.000719,0.002311,-0.1232709999999999,-0.397841,-0.002595,0.113769,-0.434101,0.03084,-0.128141,-0.7631110000000001,-0.014825,0.1236189999999999,-0.7742610000000001,0.0077579999999999,0
53,0.00498,0.720511,0.0393634999999999,-0.1506,0.494731,0.0318405,-0.24519,0.693911,-0.0493925,0.15234,0.4926009999999999,0.0440225,0.25493,0.690241,-0.0295285,-0.27519,0.906391,-0.1410915,0.29718,0.901321,-0.1189015,-0.068467,0.0006759999999999,-0.0021775,0.068467,-0.000676,0.0021774999999999,-0.12321,-0.399129,-0.0024755,0.11389,-0.435259,0.0309874999999999,-0.12833,-0.764629,-0.0149705,0.1235,-0.775639,0.0080585,0
54,0.0048219999999999,0.7194045,0.0392915,-0.150804,0.4960644999999999,0.0330545,-0.244144,0.6975144999999999,-0.0429965,0.151256,0.4930345,0.0446634999999999,0.251616,0.6937344999999999,-0.0224715,-0.2753839999999999,0.9120945,-0.1287855,0.292606,0.9075845,-0.1047654999999999,-0.068472,0.0006245,-0.0020295,0.068472,-0.0006245,0.0020295,-0.123124,-0.4003055,-0.0023614999999999,0.114006,-0.4364355,0.0311825,-0.128504,-0.7661955,-0.0150495,0.1234059999999999,-0.7769355,0.0084365,0
55,0.0046019999999999,0.7187680000000001,0.0392205,-0.151024,0.497208,0.0341775,-0.243334,0.7004480000000001,-0.0371905,0.150026,0.493918,0.0454625,0.248466,0.6969580000000001,-0.0163724999999999,-0.275774,0.916768,-0.1175525,0.288236,0.913288,-0.0916225,-0.068423,0.000552,-0.0018974999999999,0.068423,-0.0005519999999999,0.0018974999999999,-0.123084,-0.401272,-0.0023215,0.114076,-0.437472,0.0313355,-0.128594,-0.7674519999999999,-0.0149434999999999,0.123276,-0.778042,0.0088375,0
56,0.004381,0.7182155,0.039178,-0.151134,0.4982354999999999,0.035259,-0.242844,0.7030155,-0.031473,0.148836,0.4949355,0.046253,0.245866,0.6997555,-0.0105519999999999,-0.276324,0.9208055,-0.1068389999999999,0.284086,0.9185055,-0.078719,-0.068382,0.0004924999999999,-0.0017469999999999,0.068382,-0.0004924999999999,0.0017469999999999,-0.123024,-0.4022045,-0.0023749999999999,0.114116,-0.4385045,0.031496,-0.128684,-0.7684745,-0.014814,0.123166,-0.7791545,0.009093,0
57,0.0040995,0.7177255,0.039219,-0.1512414999999999,0.4991955,0.0363089999999999,-0.2428715,0.7051255,-0.025481,0.1476485,0.4959955,0.0469809999999999,0.2433785,0.7024355,-0.004495,-0.2770415,0.9242355,-0.095674,0.2804285,0.9230255,-0.065852,-0.0683375,0.0004424999999999,-0.001611,0.0683375,-0.0004424999999999,0.0016109999999999,-0.1229815,-0.4030745,-0.002469,0.1141285,-0.4393145,0.031671,-0.1288715,-0.7693645,-0.014242,0.1230285,-0.7802045,0.009318,0
58,0.003653,0.717338,0.039172,-0.151413,0.500038,0.037377,-0.2431029999999999,0.706868,-0.0199209999999999,0.146377,0.496978,0.047714,0.241137,0.704648,0.001319,-0.2775829999999999,0.926898,-0.086263,0.276877,0.927128,-0.052679,-0.068302,0.0003799999999999,-0.0014529999999999,0.068302,-0.0003799999999999,0.0014529999999999,-0.1229529999999999,-0.4042619999999999,-0.0025139999999999,0.114127,-0.440272,0.031915,-0.128903,-0.771182,-0.0142439999999999,0.122927,-0.7816219999999999,0.009623,0
59,0.0031189999999999,0.7169504999999999,0.0391665,-0.151647,0.5008604999999999,0.0384485,-0.243577,0.7082005,-0.0142935,0.145163,0.4979705,0.0485135,0.238903,0.7068105,0.0076665,-0.278347,0.9294805,-0.0756614999999999,0.273703,0.9307505,-0.0397435,-0.068254,0.0003454999999999,-0.0013185,0.068254,-0.0003455,0.0013185,-0.122967,-0.4054394999999999,-0.0024545,0.114073,-0.4412494999999999,0.0321925,-0.129037,-0.7728095,-0.0138745,0.122813,-0.7829695,0.0099794999999999,0
60,0.0025725,0.7166055,0.0392095,-0.1519194999999999,0.5016455,0.0395475,-0.2441895,0.7094255,-0.0087345,0.1441105,0.4990155,0.0493414999999999,0.2368405,0.7088355000000001,0.0138285,-0.2791395,0.9317255,-0.0651694999999999,0.2708205,0.9339155,-0.0273005,-0.0682125,0.0003295,-0.0011634999999999,0.0682125,-0.0003294999999999,0.0011635,-0.1230195,-0.4066745,-0.0023584999999999,0.1140105,-0.4422045,0.0324925,-0.1292095,-0.7742745,-0.0132305,0.1227304999999999,-0.7841144999999999,0.0103275,0
61,0.0020414999999999,0.7163365,0.0392475,-0.1521705,0.5024265,0.0405635,-0.2448705,0.7102165,-0.0035185,0.1431995,0.5000665,0.0501385,0.2349895,0.7107165,0.0196854999999999,-0.2798205,0.9334765,-0.0549395,0.2685895,0.9365765,-0.0162995,-0.0681825,0.0003135,-0.0010045,0.0681825,-0.0003134999999999,0.0010044999999999,-0.1230705,-0.4077035,-0.0022805,0.1139095,-0.4430635,0.0327735,-0.1293605,-0.7756735,-0.0126145,0.1226595,-0.7851335,0.0106384999999999,0
62,0.0015354999999999,0.7161305,0.039399,-0.1524015,0.5029205,0.041441,-0.2455815,0.7108405,0.001324,0.1424285,0.5011705,0.050912,0.2334285,0.7124404999999999,0.025151,-0.2806815,0.9349405,-0.0452779999999999,0.2666185,0.9389805,-0.0061019999999999,-0.0681695,0.0003014999999999,-0.0008649999999999,0.0681695,-0.0003015,0.000865,-0.1230914999999999,-0.4085795,-0.0021919999999999,0.1138184999999999,-0.4437995,0.033072,-0.1292115,-0.7768495000000001,-0.0117519999999999,0.1226485,-0.7859895,0.01097,0
63,0.0010394999999999,0.7159504999999999,0.039555,-0.1526485,0.5032605,0.042161,-0.2464885,0.7113404999999999,0.006206,0.1418415,0.5021005,0.05161,0.2320915,0.7138905,0.030278,-0.2817585,0.9360305,-0.036299,0.2650114999999999,0.9409305,0.0029689999999999,-0.0681575,0.0002935,-0.0007279999999999,0.0681575,-0.0002935,0.0007279999999999,-0.1231084999999999,-0.4095595,-0.0021179999999999,0.1137215,-0.4444595,0.033344,-0.1289585,-0.7781095,-0.011091,0.1226115,-0.7869095,0.011341,0
64,0.000609,0.715833,0.0397435,-0.152829,0.503513,0.0427575,-0.2473489999999999,0.711613,0.0108865,0.141391,0.502603,0.0521015,0.2308509999999999,0.714883,0.0351475,-0.282989,0.936863,-0.0278795,0.263621,0.942273,0.0111225,-0.06816,0.0002839999999999,-0.0005994999999999,0.06816,-0.0002839999999999,0.0005995,-0.123069,-0.410547,-0.0020194999999999,0.113671,-0.445007,0.0336225,-0.1286689999999999,-0.778727,-0.0103294999999999,0.122621,-0.787667,0.0116825,0
65,0.000149,0.715817,0.0399855,-0.153086,0.503677,0.0432715,-0.248186,0.7117370000000001,0.0152415,0.140954,0.502907,0.0525725,0.2297739999999999,0.7155670000000001,0.0395065,-0.284276,0.937487,-0.0198034999999999,0.262354,0.943217,0.0183275,-0.068146,0.00026,-0.0005114999999999,0.068146,-0.0002599999999999,0.0005115,-0.123106,-0.411403,-0.0019054999999999,0.113584,-0.445503,0.0339045,-0.128406,-0.7795829999999999,-0.0099854999999999,0.122634,-0.788323,0.0119955,0
66,-0.000279,0.715813,0.0402155,-0.15331,0.503773,0.0437694999999999,-0.24883,0.711743,0.0185035,0.1405499999999999,0.503103,0.0530405,0.22887,0.715973,0.0430875,-0.28535,0.937813,-0.0137625,0.26142,0.943683,0.0234995,-0.068137,0.0002389999999999,-0.0004315,0.068137,-0.000239,0.0004314999999999,-0.1231599999999999,-0.412037,-0.0017495,0.11352,-0.446067,0.0341715,-0.12814,-0.780357,-0.0095885,0.12264,-0.789047,0.0122814999999999,0
67,-0.0005604999999999,0.7157865,0.040376,-0.1534995,0.5038465,0.044171,-0.2495495,0.7117365,0.021527,0.1402604999999999,0.5031965,0.053454,0.2281405,0.7162465,0.046209,-0.2863095,0.9380865,-0.008199,0.2607805,0.9438965,0.02737,-0.0681035,0.0002385,-0.0004019999999999,0.0681035,-0.0002385,0.0004019999999999,-0.1232495,-0.4122335,-0.0016369999999999,0.1134005,-0.4463835,0.034351,-0.1278795,-0.7805035,-0.0088749999999999,0.1225805,-0.7894235000000001,0.012421,0
68,-0.000675,0.7158765,0.0404475,-0.153628,0.5037265000000001,0.0444455,-0.250198,0.7118365000000001,0.0237295,0.140112,0.5033065,0.0537505,0.227702,0.7164265000000001,0.0483745,-0.286908,0.9381865,-0.0043764999999999,0.260442,0.9440165,0.0300285,-0.068095,0.0002174999999999,-0.0004114999999999,0.068095,-0.0002175,0.0004115,-0.123318,-0.4121035,-0.0016354999999999,0.113322,-0.4465435,0.0344165,-0.127828,-0.7803335,-0.0086574999999999,0.122562,-0.7895034999999999,0.0124265,0
69,-0.0007765,0.7160569999999999,0.040573,-0.1537605,0.503607,0.044588,-0.2507105,0.711717,0.025297,0.1400094999999999,0.5031869999999999,0.054027,0.2272495,0.716307,0.0500629999999999,-0.2873604999999999,0.938067,-0.0015909999999999,0.2602295,0.943897,0.031694,-0.0680755,0.000239,-0.000445,0.0680755,-0.0002389999999999,0.000445,-0.1233805,-0.412053,-0.0016079999999999,0.1132595,-0.446593,0.034478,-0.1277705,-0.780263,-0.008481,0.1225095,-0.789513,0.012387,0
70,-0.0008935,0.7162630000000001,0.040937,-0.1538965,0.5034930000000001,0.044735,-0.2511265,0.7116030000000001,0.026661,0.1399135,0.503073,0.054343,0.2269334999999999,0.7161930000000001,0.051467,-0.2876665,0.937953,0.000403,0.2600435,0.943783,0.033193,-0.0680625,0.0002559999999999,-0.0004739999999999,0.0680625,-0.0002559999999999,0.000474,-0.1234365,-0.412167,-0.0015859999999999,0.1131935,-0.446707,0.034529,-0.1276665,-0.7804669999999999,-0.008471,0.1224635,-0.789647,0.012358,1
71,-0.001,0.7165395,0.0413505,-0.153971,0.5034095000000001,0.0449115,-0.251481,0.7113095,0.0277124999999999,0.139809,0.5029895,0.0547015,0.226689,0.7161095000000001,0.0526414999999999,-0.288091,0.9377795,0.0019014999999999,0.259919,0.9436995,0.0344135,-0.068057,0.0002665,-0.0004825,0.068057,-0.0002665,0.0004824999999999,-0.123551,-0.4124605,-0.0015675,0.1131389999999999,-0.4467905,0.0345775,-0.127701,-0.7804705,-0.0084655,0.1224589999999999,-0.7897305,0.0123154999999999,1
72,-0.0011045,0.7168415,0.0417685,-0.1540545,0.5032315,0.0450825,-0.2519445,0.7110815,0.0282325,0.1398555,0.5025615,0.0550475,0.2265255,0.7157515,0.0534875,-0.2886445,0.9376215,0.0029325,0.2598755,0.9433015,0.0353795,-0.0680505,0.0002795,-0.0005264999999999,0.0680505,-0.0002795,0.0005264999999999,-0.1236645,-0.4122985,-0.0016305,0.1130955,-0.4468085,0.0345775,-0.1278045,-0.7803285,-0.0082905,0.1224254999999999,-0.7897785,0.0122355,1
73,-0.0011889999999999,0.717142,0.042245,-0.1541459999999999,0.503202,0.045214,-0.252306,0.711002,0.0283299999999999,0.139924,0.502222,0.055347,0.226444,0.715422,0.054147,-0.289166,0.937542,0.0032839999999999,0.259944,0.942962,0.036092,-0.068044,0.0002729999999999,-0.0005999999999999,0.068044,-0.000273,0.0005999999999999,-0.123756,-0.412578,-0.001691,0.113094,-0.446808,0.0345829999999999,-0.127886,-0.779868,-0.0076719999999999,0.122434,-0.789828,0.012152,1
74,-0.0012529999999999,0.717465,0.042664,-0.1542849999999999,0.502975,0.045348,-0.252635,0.710945,0.028217,0.140035,0.501655,0.055646,0.226395,0.714915,0.054801,-0.289505,0.937475,0.003138,0.260025,0.942435,0.036668,-0.0680429999999999,0.0002619999999999,-0.0006949999999999,0.0680429999999999,-0.000262,0.000695,-0.1238749999999999,-0.412925,-0.0017549999999999,0.113095,-0.446775,0.034576,-0.127965,-0.779305,-0.007245,0.122445,-0.789815,0.012059,1
75,-0.0012885,0.7178114999999999,0.043068,-0.1544154999999999,0.5027315,0.045379,-0.2527655,0.7106315,0.028056,0.1401845,0.5009015,0.055948,0.2263745,0.7142615,0.055389,-0.2897355,0.9371615,0.0029619999999999,0.2601544999999999,0.9417615,0.037223,-0.0680335,0.0002585,-0.0008349999999999,0.0680335,-0.0002585,0.0008349999999999,-0.1239954999999999,-0.4128185,-0.00184,0.1131045,-0.4467385,0.034559,-0.1281755,-0.7790685,-0.008086,0.1224145,-0.7897385,0.011954,1
76,-0.0013244999999999,0.7181445,0.043415,-0.1545235,0.5024645,0.045257,-0.2529035,0.7106144999999999,0.027744,0.1403865,0.5002645,0.056163,0.2263765,0.7136545,0.055865,-0.2899135,0.9371145,0.002644,0.2603065,0.9411345,0.037693,-0.0680105,0.0002385,-0.0010149999999999,0.0680105,-0.0002384999999999,0.001015,-0.1240735,-0.4128754999999999,-0.0020239999999999,0.1131665,-0.4467655,0.034357,-0.1283935,-0.7791255,-0.008992,0.1223965,-0.7897955,0.011665,1
77,-0.001335,0.71844,0.0436195,-0.154556,0.50234,0.0450895,-0.253026,0.71048,0.0273264999999999,0.140604,0.49982,0.0562595,0.226424,0.71322,0.0561814999999999,-0.290056,0.93695,0.0021974999999999,0.260474,0.94067,0.0381235,-0.067995,0.0002169999999999,-0.0011495,0.067995,-0.000217,0.0011494999999999,-0.124036,-0.41323,-0.0024165,0.113274,-0.44683,0.0339745,-0.128596,-0.77919,-0.0099405,0.1223839999999999,-0.7898900000000001,0.0113284999999999,1
78,-0.00134,0.718711,0.0436855,-0.154607,0.5022909999999999,0.0448615,-0.253117,0.710351,0.0267414999999999,0.1407729999999999,0.499471,0.0563085,0.226503,0.712851,0.0564605,-0.290187,0.936771,0.0015224999999999,0.2606429999999999,0.940271,0.0385225,-0.067995,0.0002019999999999,-0.0012445,0.067995,-0.000202,0.0012444999999999,-0.123997,-0.4134489999999999,-0.0029015,0.113413,-0.446909,0.0335045,-0.1290069999999999,-0.779259,-0.0110535,0.1223929999999999,-0.7899390000000001,0.0108424999999999,1
79,-0.0013315,0.718973,0.0435794999999999,-0.1546425,0.501983,0.0445275,-0.2531825,0.7100529999999999,0.0260254999999999,0.1409675,0.499073,0.0563184999999999,0.2265974999999999,0.7124429999999999,0.0566674999999999,-0.2903025,0.936483,0.0006054999999999,0.2608875,0.939833,0.0387565,-0.0680115,0.000189,-0.0013925,0.0680115,-0.000189,0.0013924999999999,-0.1239425,-0.413597,-0.0035195,0.1135974999999999,-0.446967,0.0329055,-0.1293925,-0.7794570000000001,-0.0122654999999999,0.1224474999999999,-0.7900170000000001,0.0101885,1
80,-0.001357,0.7191869999999999,0.0434175,-0.154699,0.5016569999999999,0.0441255,-0.253269,0.709757,0.0252815,0.141081,0.498557,0.0563525,0.226691,0.711947,0.0568415,-0.290459,0.936197,-0.0004564999999999,0.2611509999999999,0.939307,0.0389675,-0.068044,0.0001509999999999,-0.0015004999999999,0.068044,-0.000151,0.0015005,-0.123869,-0.413973,-0.0042125,0.1138909999999999,-0.447033,0.0322125,-0.129569,-0.779783,-0.0137105,0.122481,-0.7900830000000001,0.0095015,1
81,-0.0013314999999999,0.719389,0.043128,-0.1546465,0.501309,0.0435409999999999,-0.2532765,0.7094389999999999,0.024461,0.1411235,0.4982689999999999,0.056316,0.2267935,0.7117089999999999,0.056998,-0.2905465,0.935819,-0.0017339999999999,0.2614335,0.939049,0.039032,-0.0681135,9.20000000000018e-05,-0.0015329999999999,0.0681135,-9.20000000000018e-05,0.001533,-0.1236864999999999,-0.414681,-0.005023,0.1143835,-0.447211,0.031279,-0.1295665,-0.7803910000000001,-0.0155169999999999,0.1225835,-0.7901710000000001,0.008671,1
82,-0.0012479999999999,0.7196205,0.042706,-0.154522,0.5011205000000001,0.042817,-0.253192,0.7092705,0.023491,0.1412479999999999,0.4980205,0.056139,0.2269479999999999,0.7115005000000001,0.056963,-0.290562,0.9356205,-0.0031809999999999,0.261768,0.9388205,0.03896,-0.068135,2.4499999999996747e-05,-0.0016419999999999,0.068135,-2.4500000000003685e-05,0.001642,-0.123412,-0.4154095,-0.0060199999999999,0.115088,-0.4474095,0.029965,-0.129462,-0.7810495,-0.0174539999999999,0.122748,-0.7902095,0.007686,1
83,-0.001269,0.7199485,0.0422195,-0.154494,0.5010085,0.0420535,-0.253154,0.7091785,0.0224295,0.141366,0.4978485,0.0558375,0.227026,0.7113585,0.0568145,-0.290744,0.9354985,-0.0047054999999999,0.262136,0.9386285,0.0388235,-0.0681509999999999,3.849999999999687e-05,-0.0016734999999999,0.0681509999999999,-3.850000000000381e-05,0.0016735,-0.123034,-0.4162015,-0.0071304999999999,0.1159959999999999,-0.4474815,0.0282915,-0.129384,-0.7811915,-0.0191744999999999,0.122946,-0.7904915,0.0064925,1
84,-0.001291,0.7201354999999999,0.041535,-0.154648,0.5009055,0.041485,-0.253258,0.7090655,0.021155,0.141472,0.4980255,0.055285,0.227232,0.7114455,0.05653,-0.290938,0.9353555,-0.006499,0.262502,0.9386755,0.038498,-0.068173,3.150000000000375e-05,-0.001686,0.068173,-3.149999999999681e-05,0.001686,-0.122608,-0.4171945,-0.008561,0.116942,-0.4476245,0.026141,-0.129328,-0.7814345,-0.0211339999999999,0.123242,-0.7908145,0.00502,1
85,-0.0012749999999999,0.720191,0.0406415,-0.1547019999999999,0.5008109999999999,0.0405535,-0.253312,0.7089810000000001,0.0197085,0.141648,0.498061,0.0544235,0.227458,0.711481,0.0559345,-0.290942,0.935211,-0.0084935,0.263018,0.938711,0.0378885,-0.068255,-4.000000000004e-06,-0.0015434999999999,0.068255,3.9999999999970615e-06,0.0015434999999999,-0.122032,-0.418759,-0.0106275,0.117828,-0.447789,0.0233365,-0.129192,-0.7815989999999999,-0.0234545,0.123668,-0.791139,0.0029595,1
86,-0.001284,0.7202594999999999,0.03975,-0.154721,0.5006395,0.039411,-0.253301,0.7087895,0.018126,0.1419089999999999,0.4978895,0.053419,0.227689,0.7112695,0.055184,-0.290901,0.9349595,-0.0105969999999999,0.263579,0.9384695,0.037091,-0.068363,-6.650000000000406e-05,-0.00143,0.068363,6.649999999999712e-05,0.00143,-0.121431,-0.4203705,-0.0130139999999999,0.118739,-0.4479305,0.020287,-0.128981,-0.7817505,-0.025927,0.124119,-0.7915805,0.000614,1
87,-0.0013045,0.7204415,0.038727,-0.1546985,0.5004215,0.038217,-0.2532185,0.7085615,0.016459,0.1422215,0.4976214999999999,0.052281,0.2279615,0.7110815,0.054281,-0.2908185,0.9347215,-0.0127409999999999,0.2641615,0.9382715,0.036146,-0.0684895,-0.0001805,-0.001287,0.0684895,0.0001805,0.001287,-0.1208385,-0.4217485,-0.0157679999999999,0.1197014999999999,-0.4479085,0.016965,-0.1285585,-0.7820085,-0.028591,0.1246414999999999,-0.7919385,-0.0019649999999999,1
88,-0.0013719999999999,0.720827,0.0376709999999999,-0.154691,0.500367,0.036927,-0.253091,0.708547,0.014777,0.142539,0.497407,0.050971,0.228289,0.710987,0.053278,-0.290701,0.934687,-0.014861,0.264689,0.938147,0.0352009999999999,-0.0686249999999999,-0.0002749999999999,-0.0010679999999999,0.0686249999999999,0.0002749999999999,0.001068,-0.120261,-0.4220129999999999,-0.01881,0.120649,-0.447523,0.013488,-0.128141,-0.781893,-0.0311909999999999,0.125159,-0.792063,-0.0046359999999999,1
89,-0.001421,0.7211044999999999,0.036614,-0.154671,0.5002044999999999,0.035736,-0.253111,0.7084045,0.013186,0.142809,0.4977345,0.0494649999999999,0.2287489999999999,0.7112045,0.052237,-0.290551,0.9345445,-0.016818,0.265219,0.9383245,0.034275,-0.068746,-0.0003604999999999,-0.000887,0.068746,0.0003604999999999,0.000887,-0.119611,-0.4220454999999999,-0.0220369999999999,0.121599,-0.4471755,0.00984,-0.127581,-0.7816155,-0.0338539999999999,0.125689,-0.7922555,-0.0074199999999999,1
90,-0.0014834999999999,0.7211304999999999,0.035619,-0.1549195,0.5001705,0.035152,-0.2533195,0.7083305,0.011705,0.1427205,0.4978904999999999,0.0484929999999999,0.2292205,0.7111805,0.0513359999999999,-0.2903295,0.9344505,-0.018756,0.2657805,0.9382405,0.033428,-0.0688255,-0.0004294999999999,-0.00081,0.0688255,0.0004294999999999,0.00081,-0.1188695,-0.4217295,-0.0255,0.1225405,-0.4468595,0.0061369999999999,-0.1268895,-0.7813195000000001,-0.036539,0.1263004999999999,-0.7924195,-0.010134,1
91,-0.0015605,0.7209844999999999,0.03467,-0.1553245,0.5000645,0.034847,-0.2534745,0.7082145,0.0103519999999999,0.1425155,0.4977944999999999,0.047847,0.2295954999999999,0.7107844999999999,0.0510479999999999,-0.2900345,0.9343345,-0.020675,0.2663554999999999,0.9377845,0.032693,-0.0689255,-0.0004945,-0.00062,0.0689255,0.0004944999999999,0.0006199999999999,-0.1181445,-0.4212654999999999,-0.029706,0.1236255,-0.4463654999999999,0.0022669999999999,-0.1261045,-0.7809355,-0.039246,0.1269655,-0.7923855000000001,-0.012787,1
92,-0.001558,0.7205999999999999,0.0336049999999999,-0.155664,0.49996,0.034492,-0.253704,0.70807,0.008952,0.142256,0.49754,0.0474529999999999,0.229966,0.71027,0.05066,-0.289564,0.93426,-0.022702,0.266976,0.93723,0.032004,-0.069018,-0.0005679999999999,-0.00053,0.069018,0.0005679999999999,0.00053,-0.117544,-0.42073,-0.034566,0.124906,-0.44489,-0.002504,-0.1253139999999999,-0.7803500000000001,-0.042166,0.127716,-0.7918499999999999,-0.0154839999999999,1
93,-0.0015929999999999,0.719981,0.0325745,-0.155822,0.4999909999999999,0.0335585,-0.254252,0.707981,0.0077785,0.142108,0.4973309999999999,0.0468935,0.230408,0.7097410000000001,0.0501905,-0.289192,0.934261,-0.0244435,0.267628,0.936671,0.0312584999999999,-0.069085,-0.0006519999999999,-0.0003785,0.069085,0.0006519999999999,0.0003784999999999,-0.117062,-0.419739,-0.0403165,0.126308,-0.4428789999999999,-0.0078775,-0.124522,-0.779629,-0.0452065,0.128458,-0.7910889999999999,-0.0182875,1
94,-0.0017355,0.718822,0.03158,-0.1560865,0.499942,0.032994,-0.2548865,0.7077819999999999,0.006829,0.1417834999999999,0.497072,0.046523,0.2306435,0.7091219999999999,0.0499099999999999,-0.2890465,0.934162,-0.025721,0.2681035,0.936042,0.030785,-0.0690814999999999,-0.0007329999999999,-0.0003709999999999,0.0690814999999999,0.000733,0.000371,-0.1167665,-0.418388,-0.046011,0.1275635,-0.440768,-0.01315,-0.1238165,-0.778698,-0.047976,0.1290735,-0.790118,-0.020697,1
95,-0.0018814999999999,0.7175165,0.030609,-0.1564535,0.4995364999999999,0.032722,-0.2555835,0.7071965,0.006058,0.1414165,0.4965665,0.046279,0.2309065,0.7083265,0.049705,-0.2889635,0.9336965,-0.026706,0.2686265,0.9352465,0.030699,-0.0690515,-0.0008625,-0.000347,0.0690515,0.0008625,0.000347,-0.1165635,-0.4163535,-0.05208,0.1287165,-0.4379435,-0.018821,-0.1230935,-0.7770235,-0.050865,0.1295465,-0.7887435,-0.023144,1
96,-0.002152,0.716008,0.0297465,-0.15696,0.4991880000000001,0.0326324999999999,-0.25657,0.706538,0.0054925,0.14086,0.496128,0.0462705,0.23123,0.707578,0.0495805,-0.28919,0.933128,-0.0273794999999999,0.26907,0.934498,0.0307645,-0.068948,-0.0009319999999999,-0.0004035,0.068948,0.000932,0.0004035,-0.11645,-0.413852,-0.0585035,0.12991,-0.434952,-0.0246385,-0.12245,-0.7751819999999999,-0.0535765,0.12988,-0.787242,-0.0254644999999999,1
97,-0.0024675,0.7143785,0.0288165,-0.1575685,0.4983685,0.0324675,-0.2575985,0.7055485,0.0049355,0.1403414999999999,0.4954185,0.0461895,0.2314514999999999,0.7065585,0.0494415,-0.2894385,0.9322685,-0.0279235,0.2697315,0.9334585,0.0298624999999999,-0.0688365,-0.0010695,-0.0004095,0.0688365,0.0010695,0.0004095,-0.1162985,-0.4103715,-0.0652355,0.1312414999999999,-0.4314915,-0.0308365,-0.1217585,-0.7733715,-0.0565465,0.1302114999999999,-0.7854315000000001,-0.0279465,1
98,-0.0028594999999999,0.712869,0.027706,-0.1582695,0.497819,0.032344,-0.2586395,0.704779,0.0041659999999999,0.1398005,0.494959,0.046036,0.2316305,0.705759,0.049299,-0.2898795,0.931609,-0.028455,0.2703204999999999,0.932629,0.029739,-0.0686995,-0.00123,-0.0004299999999999,0.0686995,0.0012299999999999,0.00043,-0.1161795,-0.406381,-0.072189,0.1325505,-0.427591,-0.03742,-0.1210595,-0.771111,-0.059643,0.1305504999999999,-0.783171,-0.030581,1
99,-0.0033139999999999,0.7112525000000001,0.026427,-0.158711,0.4969625,0.0317529999999999,-0.259471,0.7036925,0.003249,0.139549,0.4949524999999999,0.045562,0.231699,0.7054825,0.048787,-0.290331,0.9306525,-0.028941,0.2711389999999999,0.9323325,0.029129,-0.068591,-0.0014075,-0.0003759999999999,0.068591,0.0014074999999999,0.000376,-0.1161109999999999,-0.4022475,-0.079246,0.133859,-0.4232775,-0.044415,-0.120341,-0.7684375000000001,-0.062777,0.130839,-0.7805774999999999,-0.0333619999999999,1
100,-0.0037955,0.70982,0.024922,-0.1590045,0.49613,0.030864,-0.2604945,0.7025600000000001,0.0021139999999999,0.1393055,0.49421,0.044789,0.2318454999999999,0.70472,0.047595,-0.2911645,0.92965,-0.029792,0.2720455,0.93111,0.028416,-0.0684475,-0.0014909999999999,-0.000432,0.0684475,0.0014909999999999,0.000432,-0.1159745,-0.3984899999999999,-0.086027,0.1352555,-0.41852,-0.051472,-0.1196145,-0.76517,-0.066077,0.1311054999999999,-0.77745,-0.036244,1
101,-0.004236,0.708597,0.0233255,-0.159254,0.495337,0.0300675,-0.261394,0.701427,0.0006635,0.139036,0.4934469999999999,0.0437635,0.232036,0.703877,0.0462455,-0.292174,0.928557,-0.0311124999999999,0.272966,0.930107,0.0271124999999999,-0.068341,-0.0016129999999999,-0.0004974999999999,0.068341,0.001613,0.0004975,-0.1157139999999999,-0.3947029999999999,-0.0925125,0.136436,-0.414213,-0.0579135,-0.118894,-0.761753,-0.0692375,0.131456,-0.7741129999999999,-0.0391995,1
102,-0.004681,0.707493,0.021448,-0.159422,0.4944229999999999,0.029037,-0.261912,0.700243,-0.0013829999999999,0.138768,0.492793,0.0426789999999999,0.232528,0.703223,0.04462,-0.293252,0.927353,-0.03306,0.273978,0.929293,0.025286,-0.0682099999999999,-0.001627,-0.0006639999999999,0.0682099999999999,0.001627,0.000664,-0.115402,-0.390437,-0.098574,0.137458,-0.409847,-0.063943,-0.118182,-0.757807,-0.072476,0.131718,-0.770317,-0.042163,1
103,-0.0051629999999999,0.7067215,0.019351,-0.159686,0.4937215,0.027955,-0.262446,0.6992815,-0.003919,0.138464,0.4921514999999999,0.041378,0.2325239999999999,0.7025315,0.042415,-0.294326,0.9263315,-0.03594,0.275044,0.9284715,0.02273,-0.068173,-0.0016135,-0.000826,0.068173,0.0016135,0.000826,-0.1151159999999999,-0.3859085,-0.104682,0.138384,-0.4051885,-0.070034,-0.1175859999999999,-0.7534985,-0.075929,0.131944,-0.7661085,-0.045249,1
104,-0.0055889999999999,0.7059345,0.0166695,-0.159709,0.4934044999999999,0.0264865,-0.2630989999999999,0.6987345,-0.0068844999999999,0.138171,0.4918444999999999,0.0398525,0.232901,0.7020745,0.0396055,-0.2955689999999999,0.9257145,-0.0389965,0.276131,0.9278945,0.0200255,-0.068108,-0.0015324999999999,-0.0010764999999999,0.068108,0.0015325,0.0010765,-0.114809,-0.3813655,-0.1109545,0.139281,-0.4005155,-0.0761635,-0.117029,-0.7491255,-0.0794775,0.1322809999999999,-0.7616854999999999,-0.0486005,1
105,-0.0059369999999999,0.704672,0.013682,-0.159846,0.493382,0.024689,-0.263586,0.698412,-0.0098929999999999,0.137884,0.491512,0.038048,0.233184,0.701692,0.036714,-0.296866,0.925332,-0.042127,0.2771139999999999,0.927352,0.017241,-0.068017,-0.0014609999999999,-0.001329,0.068017,0.0014609999999999,0.001329,-0.114496,-0.377498,-0.117088,0.140104,-0.3960579999999999,-0.082357,-0.116456,-0.744648,-0.08306,0.132664,-0.7571479999999999,-0.052039,1
106,-0.0062115,0.7038599999999999,0.010268,-0.1598395,0.49299,0.022273,-0.2641195,0.69778,-0.013346,0.1376905,0.49128,0.035905,0.2335205,0.70155,0.033392,-0.2989195,0.92404,-0.047942,0.2782905,0.92674,0.0127499999999999,-0.0678105,-0.00138,-0.001536,0.0678105,0.00138,0.0015359999999999,-0.1143295,-0.37317,-0.124086,0.1408005,-0.3898999999999999,-0.0891319999999999,-0.1159695,-0.7387100000000001,-0.086926,0.1330204999999999,-0.75092,-0.055877,1
107,-0.006524,0.7026355,0.0065745,-0.159717,0.4926255,0.0192495,-0.264837,0.6967855,-0.0176985,0.137513,0.4909055,0.0335995,0.233843,0.7009855,0.0296605,-0.300867,0.9182455,-0.0547815,0.279483,0.9259755,0.0073615,-0.067636,-0.0011964999999999,-0.0019045,0.067636,0.0011965,0.0019045,-0.114207,-0.3679845,-0.1316345,0.141433,-0.3824745,-0.0967805,-0.115597,-0.7312345,-0.0912755,0.133273,-0.7434145,-0.0600605,1
108,-0.0067479999999999,0.7013935,0.0029274999999999,-0.1597559999999999,0.4923635,0.0162204999999999,-0.265436,0.6960435,-0.0223065,0.137474,0.4902035,0.0309875,0.234094,0.7001634999999999,0.0257824999999999,-0.3027559999999999,0.9135135,-0.0618715,0.280594,0.9249535,0.0018204999999999,-0.06746,-0.0010604999999999,-0.0023145,0.06746,0.0010605,0.0023144999999999,-0.114106,-0.3635765,-0.1395265,0.141904,-0.3751065,-0.1043255,-0.1152859999999999,-0.7233765,-0.0955515,0.133484,-0.7357165,-0.0642435,1
109,-0.006918,0.6998865000000001,-0.0013885,-0.159799,0.4913065,0.0127865,-0.2659089999999999,0.6947365,-0.0277785,0.137381,0.4905064999999999,0.0278984999999999,0.234551,0.7001765,0.0210534999999999,-0.304459,0.9093665,-0.0698435,0.281721,0.9252165,-0.0046845,-0.067383,-0.0011334999999999,-0.0027235,0.067383,0.0011335,0.0027234999999999,-0.1141689999999999,-0.3585834999999999,-0.1481025,0.142281,-0.3671235,-0.1126325,-0.115049,-0.7140835,-0.1002755,0.1336709999999999,-0.7267435,-0.0687515,1
110,-0.0070619999999999,0.6981265000000001,-0.005788,-0.159888,0.4899265,0.009334,-0.2663279999999999,0.6928465,-0.033519,0.137152,0.4909064999999999,0.0240869999999999,0.234512,0.7004465000000001,0.015981,-0.3060279999999999,0.9055265,-0.078293,0.282482,0.9253365,-0.011649,-0.067336,-0.0012204999999999,-0.0031209999999999,0.067336,0.0012204999999999,0.0031209999999999,-0.114318,-0.3533835,-0.156845,0.1425519999999999,-0.3592535,-0.120891,-0.114968,-0.7039135,-0.104638,0.133762,-0.7172035,-0.073069,1
111,-0.0072109999999999,0.696318,-0.0103149999999999,-0.1601719999999999,0.488678,0.006051,-0.266812,0.6912980000000001,-0.0391969999999999,0.136778,0.4913079999999999,0.020489,0.234288,0.700658,0.010771,-0.307492,0.902318,-0.0870519999999999,0.283398,0.925418,-0.01843,-0.067372,-0.0014009999999999,-0.003492,0.067372,0.0014009999999999,0.003492,-0.1145419999999999,-0.347992,-0.165404,0.142768,-0.351642,-0.12893,-0.1151719999999999,-0.693522,-0.1085279999999999,0.133768,-0.7075619999999999,-0.07732,1
112,-0.0073364999999999,0.694349,-0.01467,-0.1604695,0.487789,0.002686,-0.2672695,0.689759,-0.045022,0.1363805,0.492459,0.017067,0.2343205,0.701489,0.005499,-0.3087195,0.899439,-0.095916,0.2836605,0.926119,-0.024758,-0.0674425,-0.0016709999999999,-0.0038219999999999,0.0674425,0.0016709999999999,0.0038219999999999,-0.1147794999999999,-0.342361,-0.17374,0.1430905,-0.344381,-0.137012,-0.1155095,-0.682951,-0.112172,0.1338705,-0.6977709999999999,-0.0821129999999999,1
113,-0.0073994999999999,0.6928894999999999,-0.0188855,-0.1607825,0.4869995,-0.0004434999999999,-0.2675525,0.6885095000000001,-0.0505505,0.1358775,0.4893395,0.0134294999999999,0.2348175,0.6987194999999999,0.0005644999999999,-0.3097025,0.8975694999999999,-0.1045285,0.2845275,0.9227295,-0.0326265,-0.0675315,-0.0018794999999999,-0.0040545,0.0675315,0.0018795,0.0040544999999999,-0.1149224999999999,-0.3358005,-0.1818345,0.1436475,-0.3362805,-0.1448134999999999,-0.1159524999999999,-0.6701505000000001,-0.1161815,0.1339375,-0.6869304999999999,-0.0864335,1
114,-0.0074955,0.692259,-0.0233935,-0.1611055,0.485969,-0.0036375,-0.2679054999999999,0.687219,-0.0560725,0.1353745,0.487259,0.0095714999999999,0.2352745,0.6964790000000001,-0.0046425,-0.3103855,0.895659,-0.1131215,0.2855045,0.920049,-0.0405355,-0.0675844999999999,-0.002071,-0.0043055,0.0675844999999999,0.002071,0.0043054999999999,-0.1151255,-0.328621,-0.1897904999999999,0.1441444999999999,-0.327601,-0.1526965,-0.1164755,-0.656641,-0.1204645,0.1339344999999999,-0.674971,-0.0909455,1
115,-0.0074035,0.6909665,-0.027444,-0.1612515,0.4854365,-0.00615,-0.2676915,0.6862465000000001,-0.060939,0.1352685,0.4856665,0.0063059999999999,0.2359684999999999,0.6946765,-0.009267,-0.3100715,0.8946365000000001,-0.118637,0.2861185,0.9181465,-0.046344,-0.0677595,-0.0022225,-0.00468,0.0677595,0.0022225,0.0046799999999999,-0.1151515,-0.3173535,-0.196545,0.1447085,-0.3163335,-0.159915,-0.1169915,-0.6444835,-0.124048,0.1340485,-0.6643135,-0.094966,1
116,-0.0071664999999999,0.6896495,-0.0312879999999999,-0.1609705,0.4847295,-0.0084489999999999,-0.2674105,0.6855195,-0.0650959999999999,0.1351995,0.4838795,0.003261,0.2363995,0.6927095,-0.0135499999999999,-0.3096305,0.8979895,-0.1237949999999999,0.2865995,0.9160095,-0.051826,-0.0679635,-0.0024205,-0.0048289999999999,0.0679635,0.0024205,0.004829,-0.1150805,-0.3071005,-0.202639,0.1453195,-0.3060805,-0.166209,-0.1173704999999999,-0.6333605,-0.127168,0.1342395,-0.6545205,-0.0985389999999999,1
117,-0.0063015,0.69006,-0.0386605,-0.1600765,0.48563,-0.0144324999999999,-0.2662365,0.68625,-0.0729684999999999,0.1355735,0.48365,-0.0032624999999999,0.2374935,0.69228,-0.0214634999999999,-0.3085664999999999,0.90203,-0.1327225,0.2877335,0.91539,-0.0611445,-0.0681905,-0.00257,-0.0049664999999999,0.0681905,0.00257,0.0049664999999999,-0.1143665,-0.29506,-0.2118065,0.1465135,-0.2940399999999999,-0.1757065,-0.1170865,-0.62041,-0.1338295,0.1350535,-0.64277,-0.1056624999999999,1
118,-0.0054469999999999,0.6910850000000001,-0.0457879999999999,-0.158349,0.485395,-0.0211139999999999,-0.265399,0.685815,-0.0803639999999999,0.135961,0.483335,-0.0099929999999999,0.238491,0.691815,-0.029217,-0.307309,0.903725,-0.141033,0.288561,0.914775,-0.070286,-0.068323,-0.0026249999999999,-0.0049939999999999,0.068323,0.002625,0.0049939999999999,-0.1145289999999999,-0.283585,-0.225266,0.149721,-0.282495,-0.189896,-0.116619,-0.607815,-0.139917,0.135491,-0.631145,-0.111409,1
119,-0.0045169999999999,0.69237,-0.053044,-0.156727,0.48626,-0.028031,-0.2638569999999999,0.68654,-0.087694,0.136613,0.48224,-0.017114,0.2396329999999999,0.6907,-0.037008,-0.3058369999999999,0.90576,-0.149251,0.289603,0.91357,-0.079103,-0.068381,-0.00253,-0.005127,0.068381,0.00253,0.0051269999999999,-0.114717,-0.27117,-0.238775,0.152973,-0.2706199999999999,-0.204035,-0.1159469999999999,-0.59525,-0.145994,0.135973,-0.6193799999999999,-0.117298,1
120,-0.003709,0.6932050000000001,-0.060002,-0.154939,0.487425,-0.0348119999999999,-0.262879,0.687335,-0.095214,0.137271,0.480775,-0.02418,0.2405709999999999,0.6890449999999999,-0.044809,-0.305049,0.907625,-0.157545,0.290731,0.911855,-0.087872,-0.068386,-0.002355,-0.005273,0.068386,0.0023549999999999,0.005273,-0.114949,-0.259785,-0.25187,0.156341,-0.259295,-0.21792,-0.115259,-0.5829249999999999,-0.151796,0.136451,-0.6080749999999999,-0.123051,1
121,-0.002898,0.6946000000000001,-0.0670345,-0.153118,0.48733,-0.0418065,-0.262338,0.6874499999999999,-0.1025185,0.137802,0.47904,-0.0313325,0.241372,0.6874199999999999,-0.0525155,-0.304068,0.90845,-0.1654545,0.291602,0.91017,-0.0962745,-0.068391,-0.0022199999999999,-0.0053775,0.068391,0.0022199999999999,0.0053774999999999,-0.1153779999999999,-0.24736,-0.2652985,0.159832,-0.24716,-0.2318685,-0.1145779999999999,-0.5698799999999999,-0.1576855,0.136692,-0.59396,-0.1287405,1
122,-0.0020705,0.69542,-0.073891,-0.1515395,0.48705,-0.048685,-0.2608695,0.6872,-0.109657,0.1384605,0.48162,-0.037347,0.2420304999999999,0.6893,-0.0604,-0.3026195,0.9081,-0.173371,0.2921305,0.9125,-0.103659,-0.0684675,-0.00221,-0.005543,0.0684675,0.0022099999999999,0.005543,-0.1158995,-0.23582,-0.278467,0.1634205,-0.23564,-0.245687,-0.1138495,-0.55828,-0.16347,0.1369705,-0.58047,-0.134478,1
123,-0.0012824999999999,0.69493,-0.0806424999999999,-0.1497605,0.48599,-0.0557664999999999,-0.2597105,0.68579,-0.1169974999999999,0.1391695,0.48228,-0.0435364999999999,0.2425695,0.68986,-0.0683915,-0.3012105,0.90652,-0.1815355,0.2927194999999999,0.91323,-0.1116974999999999,-0.0685605,-0.00229,-0.0054844999999999,0.0685605,0.0022899999999999,0.0054845,-0.1165105,-0.22219,-0.2922654999999999,0.1675795,-0.22211,-0.2606254999999999,-0.1130504999999999,-0.54435,-0.1689175,0.1372595,-0.56494,-0.1403154999999999,1
124,-0.0006715,0.6948,-0.0872295,-0.1480795,0.48594,-0.0628335,-0.2588795,0.68526,-0.1242095,0.1398505,0.4836,-0.0497505,0.2431005,0.69088,-0.0764945,-0.3001895,0.9059,-0.1896105,0.2932304999999999,0.91449,-0.1198255,-0.0688245,-0.00236,-0.0054504999999999,0.0688245,0.00236,0.0054504999999999,-0.1171395,-0.2083199999999999,-0.3061795,0.1716205,-0.20783,-0.2752795,-0.1123695,-0.52982,-0.1744025,0.1372105,-0.54908,-0.1455815,1
125,-0.000246,0.696195,-0.093725,-0.146501,0.4841749999999999,-0.06972,-0.258221,0.683415,-0.131094,0.1403889999999999,0.484135,-0.055937,0.2438489999999999,0.691565,-0.084047,-0.299431,0.903955,-0.197206,0.293669,0.915245,-0.127781,-0.069116,-0.002455,-0.0054249999999999,0.069116,0.0024549999999999,0.0054249999999999,-0.1178709999999999,-0.194155,-0.319915,0.1754089999999999,-0.193155,-0.289655,-0.111411,-0.5160850000000001,-0.18035,0.137039,-0.533075,-0.150884,1
126,-0.0005789999999999,0.6951350000000001,-0.0965459999999999,-0.14553,0.481945,-0.073051,-0.2582,0.681045,-0.134359,0.14025,0.483545,-0.058404,0.24382,0.691155,-0.087904,-0.29937,0.901455,-0.201036,0.29311,0.914895,-0.132043,-0.069385,-0.002605,-0.0053399999999999,0.069385,0.0026049999999999,0.0053399999999999,-0.11928,-0.180165,-0.33019,0.17868,-0.178455,-0.30071,-0.11113,-0.502705,-0.182599,0.13632,-0.5176149999999999,-0.152706,1
127,-0.0009344999999999,0.69352,-0.099173,-0.1455455,0.48137,-0.0756059999999999,-0.2581155,0.6795599999999999,-0.137844,0.1401145,0.48304,-0.0607789999999999,0.2438445,0.69086,-0.0912839999999999,-0.2992754999999999,0.90012,-0.2048749999999999,0.2926345,0.9146,-0.135629,-0.0696085,-0.0027099999999999,-0.0052949999999999,0.0696085,0.00271,0.005295,-0.1197755,-0.1662599999999999,-0.335105,0.1798545,-0.16453,-0.3059849999999999,-0.1108855,-0.48992,-0.184759,0.1356745,-0.50261,-0.1541739999999999,1
128,-0.0013165,0.69175,-0.1016229999999999,-0.1456115,0.4799,-0.0781119999999999,-0.2581615,0.67765,-0.1409979999999999,0.1398085,0.4819299999999999,-0.063219,0.2433885,0.6898599999999999,-0.0947119999999999,-0.2991815,0.8981399999999999,-0.2089539999999999,0.2926185,0.91365,-0.1389119999999999,-0.0698585,-0.0028799999999999,-0.0050999999999999,0.0698585,0.0028799999999999,0.0051,-0.1202615,-0.1522899999999999,-0.33956,0.1809185,-0.15056,-0.31111,-0.1106714999999999,-0.47751,-0.1867059999999999,0.1346885,-0.48781,-0.1552619999999999,1
129,-0.0016079999999999,0.690465,-0.104103,-0.1455459999999999,0.477875,-0.0807109999999999,-0.257886,0.675415,-0.143897,0.139484,0.481385,-0.065702,0.243004,0.689605,-0.097887,-0.299206,0.895685,-0.2128399999999999,0.2922539999999999,0.913425,-0.142036,-0.070112,-0.003105,-0.0048999999999999,0.070112,0.0031049999999999,0.0049,-0.1205959999999999,-0.1376049999999999,-0.34411,0.182034,-0.135875,-0.31632,-0.110516,-0.4644549999999999,-0.18843,0.133714,-0.4732849999999999,-0.156067,1
130,-0.002156,0.68881,-0.106368,-0.145738,0.47662,-0.083092,-0.2585179999999999,0.67371,-0.146899,0.138962,0.48051,-0.068088,0.242432,0.68881,-0.101091,-0.300008,0.8938400000000001,-0.21668,0.291712,0.91269,-0.145137,-0.0703469999999999,-0.0032399999999999,-0.00487,0.0703469999999999,0.00324,0.0048699999999999,-0.120858,-0.1278099999999999,-0.34818,0.182912,-0.1251899999999999,-0.32088,-0.110618,-0.45189,-0.190238,0.133072,-0.4592999999999999,-0.157187,1
131,-0.002748,0.68653,-0.108666,-0.14596,0.4757099999999999,-0.0853879999999999,-0.25922,0.6718999999999999,-0.150119,0.13839,0.47983,-0.070358,0.24245,0.6881999999999999,-0.104029,-0.30085,0.89182,-0.22058,0.29129,0.91182,-0.148598,-0.070603,-0.00336,-0.0048099999999999,0.070603,0.0033599999999999,0.00481,-0.12092,-0.11859,-0.35194,0.18369,-0.11546,-0.3251199999999999,-0.11081,-0.43976,-0.191043,0.13253,-0.4458,-0.1582879999999999,1
132,-0.0031844999999999,0.68589,-0.110675,-0.1461115,0.47417,-0.087917,-0.2594215,0.6704600000000001,-0.152841,0.1377885,0.47818,-0.0727839999999999,0.2418885,0.68649,-0.106381,-0.3014815,0.8902800000000001,-0.223805,0.2906585,0.91023,-0.150758,-0.0708465,-0.0034599999999999,-0.004985,0.0708465,0.00346,0.004985,-0.1209514999999999,-0.1100999999999999,-0.355005,0.1837885,-0.1072399999999999,-0.327975,-0.1109815,-0.42962,-0.191844,0.1310685,-0.43445,-0.159431,1
133,-0.0032464999999999,0.68508,-0.112505,-0.1460765,0.4720999999999999,-0.090406,-0.2595965,0.66856,-0.155566,0.1374335,0.476,-0.07512,0.2416435,0.68436,-0.108244,-0.3017165,0.88825,-0.226735,0.2901735,0.90813,-0.152791,-0.0710325,-0.0035299999999999,-0.005155,0.0710325,0.0035299999999999,0.0051549999999999,-0.1207965,-0.1016699999999999,-0.357795,0.1839335,-0.09904,-0.3305949999999999,-0.1108665,-0.4201499999999999,-0.193287,0.1301034999999999,-0.42567,-0.1615,1
134,-0.0031865,0.68302,-0.1139389999999999,-0.1458995,0.47187,-0.0928529999999999,-0.2597995,0.6678999999999999,-0.158519,0.1373505,0.4753,-0.077259,0.2417105,0.68359,-0.1100999999999999,-0.3016595,0.88755,-0.22957,0.2902505,0.9074,-0.1543359999999999,-0.0711595,-0.0037099999999999,-0.0053499999999999,0.0711595,0.0037099999999999,0.00535,-0.1205595,-0.09336,-0.36041,0.1841305,-0.0911299999999999,-0.33292,-0.1108195,-0.4115799999999999,-0.1951689999999999,0.1291105,-0.41516,-0.162459,1
135,-0.0030899999999999,0.681915,-0.115187,-0.145711,0.4705049999999999,-0.0951139999999999,-0.260031,0.666515,-0.161189,0.137419,0.473715,-0.079577,0.241829,0.682005,-0.1118219999999999,-0.301771,0.886135,-0.2324399999999999,0.290319,0.905925,-0.155659,-0.07127,-0.0036849999999999,-0.00551,0.07127,0.0036849999999999,0.00551,-0.120041,-0.084755,-0.36274,0.184319,-0.082795,-0.33501,-0.110881,-0.403035,-0.196933,0.129179,-0.404825,-0.1637259999999999,1
136,-0.003039,0.6807650000000001,-0.116075,-0.145508,0.469205,-0.0973199999999999,-0.259728,0.665815,-0.1633129999999999,0.137562,0.472165,-0.081714,0.2419019999999999,0.680455,-0.113215,-0.301778,0.8852549999999999,-0.234955,0.290332,0.904455,-0.15647,-0.0713979999999999,-0.0036849999999999,-0.0056749999999999,0.0713979999999999,0.0036849999999999,0.005675,-0.119328,-0.075925,-0.364875,0.184462,-0.074415,-0.336925,-0.111168,-0.394625,-0.197644,0.129332,-0.394665,-0.165001,1
137,-0.0031994999999999,0.6792750000000001,-0.1163829999999999,-0.1453215,0.467795,-0.0994259999999999,-0.2596215,0.664405,-0.16541,0.1376085,0.471965,-0.083393,0.2418685,0.680185,-0.1141509999999999,-0.3018415,0.884045,-0.2367099999999999,0.2906185,0.904295,-0.156969,-0.0714855,-0.0037349999999999,-0.0059199999999999,0.0714855,0.0037349999999999,0.0059199999999999,-0.1186315,-0.0660049999999999,-0.36684,0.1844385,-0.0649949999999999,-0.33852,-0.1115114999999999,-0.384875,-0.19885,0.1293985,-0.383435,-0.165596,1
138,-0.0030799999999999,0.677855,-0.1165809999999999,-0.14512,0.466871,-0.1012839999999999,-0.25949,0.6632849999999999,-0.167344,0.13766,0.4716559999999999,-0.084836,0.24201,0.6798150000000001,-0.1146609999999999,-0.30205,0.8830549999999999,-0.238045,0.29091,0.903995,-0.1571409999999999,-0.0715679999999999,-0.003755,-0.0061449999999999,0.0715679999999999,0.003755,0.006145,-0.11764,-0.056255,-0.368545,0.18427,-0.056125,-0.339835,-0.1119199999999999,-0.375555,-0.199868,0.12722,-0.375455,-0.167209,1
139,-0.0028729999999999,0.6765749999999999,-0.116741,-0.1449929999999999,0.4652099999999999,-0.102936,-0.258943,0.6617249999999999,-0.16885,0.137627,0.470869,-0.086064,0.242057,0.6791849999999999,-0.114842,-0.302473,0.881605,-0.23917,0.2910669999999999,0.903435,-0.157131,-0.071759,-0.003825,-0.00621,0.071759,0.0038249999999999,0.0062099999999999,-0.116633,-0.046345,-0.36988,0.183947,-0.047015,-0.34107,-0.112333,-0.366215,-0.200372,0.124697,-0.368125,-0.169509,1
140,-0.0027495,0.67594,-0.1167179999999999,-0.1449455,0.462854,-0.1045989999999999,-0.2585854999999999,0.66006,-0.1698829999999999,0.1378444999999999,0.469815,-0.0869639999999999,0.2425244999999999,0.67836,-0.1147679999999999,-0.3026955,0.88025,-0.23962,0.2917745,0.90294,-0.1568449999999999,-0.0720145,-0.0039399999999999,-0.0062499999999999,0.0720145,0.0039399999999999,0.00625,-0.1157355,-0.03578,-0.37126,0.1835945,-0.03683,-0.3424,-0.1133655,-0.35648,-0.200564,0.1207145,-0.36245,-0.174111,1
141,-0.002575,0.674525,-0.116654,-0.1449849999999999,0.4618919999999999,-0.105753,-0.258475,0.6593249999999999,-0.17092,0.138045,0.4705729999999999,-0.0871909999999999,0.2429049999999999,0.6792149999999999,-0.114671,-0.302985,0.879615,-0.23985,0.2926249999999999,0.903925,-0.156583,-0.072256,-0.004055,-0.00633,0.072256,0.0040549999999999,0.00633,-0.114805,-0.025915,-0.37242,0.183225,-0.027475,-0.34359,-0.1144549999999999,-0.347665,-0.2006899999999999,0.116495,-0.357755,-0.17991,1
142,-0.0023805,0.67242,-0.116386,-0.1450645,0.46112,-0.106697,-0.2582945,0.6586000000000001,-0.171811,0.1382455,0.471333,-0.087266,0.2433955,0.67987,-0.1144319999999999,-0.3034745,0.879,-0.23989,0.2934555,0.90471,-0.156293,-0.0724715,-0.0041499999999999,-0.00647,0.0724715,0.00415,0.00647,-0.1138545,-0.0162599999999999,-0.37334,0.1828155,-0.0184099999999999,-0.3446599999999999,-0.1156245,-0.3393999999999999,-0.201919,0.1160755,-0.35299,-0.18418,1
143,-0.002213,0.670695,-0.115966,-0.145116,0.459504,-0.107337,-0.258266,0.657365,-0.172284,0.138424,0.470023,-0.087166,0.2438739999999999,0.678795,-0.113705,-0.303836,0.877875,-0.239345,0.293934,0.903695,-0.154393,-0.072818,-0.0040949999999999,-0.006565,0.072818,0.004095,0.006565,-0.113086,-0.0055649999999999,-0.373975,0.182394,-0.0082449999999999,-0.345785,-0.116906,-0.3297949999999999,-0.2033559999999999,0.115954,-0.347085,-0.188162,1
144,-0.0020319999999999,0.669385,-0.115087,-0.145156,0.458092,-0.1077269999999999,-0.258856,0.6559550000000001,-0.1726079999999999,0.138764,0.469917,-0.086592,0.244614,0.678615,-0.112704,-0.304356,0.876565,-0.2391599999999999,0.295064,0.903595,-0.152015,-0.073228,-0.0042849999999999,-0.00658,0.073228,0.004285,0.00658,-0.112486,0.0042949999999999,-0.37427,0.181854,0.001155,-0.34661,-0.118096,-0.320925,-0.2049409999999999,0.113324,-0.341375,-0.18801,1
145,-0.0018959999999999,0.668115,-0.113966,-0.145404,0.4569249999999999,-0.107227,-0.2590039999999999,0.654825,-0.172139,0.1390559999999999,0.469701,-0.085872,0.245036,0.678155,-0.111537,-0.3046839999999999,0.875505,-0.238535,0.296376,0.903255,-0.149382,-0.073676,-0.004425,-0.006565,0.073676,0.0044249999999999,0.0065649999999999,-0.112034,0.0133549999999999,-0.374355,0.181276,0.0100849999999999,-0.347255,-0.1193539999999999,-0.312515,-0.206902,0.111015,-0.334755,-0.19078,1
146,-0.0018374999999999,0.666165,-0.1126959999999999,-0.1456215,0.456316,-0.106555,-0.2589715,0.654425,-0.171596,0.1391885,0.46989,-0.085147,0.2457285,0.6777949999999999,-0.110271,-0.3049214999999999,0.875015,-0.2377,0.2979185,0.902995,-0.146877,-0.0742005,-0.004565,-0.0065199999999999,0.0742005,0.0045649999999999,0.0065199999999999,-0.1116315,0.0207749999999999,-0.37399,0.1806485,0.0174749999999999,-0.34764,-0.1202514999999999,-0.305655,-0.20919,0.1082775,-0.329895,-0.188603,1
147,-0.0019189999999999,0.66406,-0.111132,-0.145894,0.45579,-0.105608,-0.259654,0.65399,-0.170711,0.139196,0.469791,-0.084156,0.246466,0.67708,-0.108715,-0.305564,0.8746,-0.236805,0.299706,0.90088,-0.144088,-0.074744,-0.0046999999999999,-0.006485,0.074744,0.0046999999999999,0.006485,-0.111494,0.0283599999999999,-0.373045,0.179986,0.0248399999999999,-0.347665,-0.1211539999999999,-0.2988099999999999,-0.2107979999999999,0.107866,-0.3240599999999999,-0.19012,1
148,-0.0019574999999999,0.6622349999999999,-0.109556,-0.1461615,0.4542389999999999,-0.104633,-0.2603415,0.6526449999999999,-0.1698,0.1392885,0.467443,-0.0827209999999999,0.2474785,0.674545,-0.1068949999999999,-0.3060715,0.873305,-0.23619,0.3016685,0.898145,-0.141234,-0.0753145,-0.004715,-0.00648,0.0753145,0.0047149999999999,0.00648,-0.1112515,0.0362849999999999,-0.37199,0.1795385,0.0321349999999999,-0.3475499999999999,-0.1217814999999999,-0.292015,-0.2121859999999999,0.1078475,-0.316255,-0.184636,1
149,-0.001992,0.66028,-0.1079609999999999,-0.146453,0.4530959999999999,-0.1033699999999999,-0.2605429999999999,0.65147,-0.1687249999999999,0.1393269999999999,0.4654399999999999,-0.081181,0.2484469999999999,0.6723899999999999,-0.1048709999999999,-0.306753,0.87222,-0.235495,0.303267,0.89585,-0.138483,-0.075832,-0.0047,-0.0063549999999999,0.075832,0.0046999999999999,0.0063549999999999,-0.110943,0.0438299999999999,-0.371005,0.179097,0.0391999999999999,-0.3474049999999999,-0.122043,-0.2853300000000001,-0.213432,0.1052319999999999,-0.31518,-0.1840919999999999,1
150,-0.0020535,0.658435,-0.106351,-0.1467345,0.4515969999999999,-0.101989,-0.2607345,0.649305,-0.167615,0.1393754999999999,0.4634219999999999,-0.07961,0.2495455,0.670175,-0.102858,-0.3070645,0.870425,-0.2344,0.3048555,0.8934949999999999,-0.135909,-0.0762994999999999,-0.004625,-0.00611,0.0762994999999999,0.0046249999999999,0.00611,-0.1106645,0.0513749999999999,-0.3700799999999999,0.1786154999999999,0.0463149999999999,-0.34714,-0.1223445,-0.278795,-0.214762,0.1019235,-0.309775,-0.181281,1
151,-0.0022509999999999,0.657005,-0.104669,-0.147196,0.4495049999999999,-0.100497,-0.2613959999999999,0.6468849999999999,-0.166767,0.139404,0.4607699999999999,-0.077927,0.250504,0.6670349999999999,-0.100593,-0.308036,0.8680049999999999,-0.233435,0.306064,0.890465,-0.133311,-0.076915,-0.004605,-0.0058549999999999,0.076915,0.0046049999999999,0.0058549999999999,-0.110416,0.0588549999999999,-0.369185,0.178044,0.0536849999999999,-0.346775,-0.1226859999999999,-0.2723150000000001,-0.214665,0.10106,-0.3033450000000001,-0.179981,1
152,-0.0023425,0.65502,-0.103073,-0.1476325,0.447987,-0.098936,-0.2621025,0.64501,-0.165934,0.1396075,0.459674,-0.076552,0.2514575,0.66517,-0.098739,-0.3089025,0.86606,-0.232565,0.3072574999999999,0.8887,-0.131434,-0.0775515,-0.00462,-0.0056249999999999,0.0775515,0.00462,0.005625,-0.1101125,0.0650399999999999,-0.368245,0.1775475,0.06006,-0.346215,-0.1228524999999999,-0.26703,-0.2144849999999999,0.1005685,-0.2981,-0.17853,1
153,-0.0024134999999999,0.65215,-0.101316,-0.1480265,0.4462670000000001,-0.097185,-0.2629665,0.64307,-0.164925,0.1398035,0.4576100000000001,-0.075112,0.2523435,0.66263,-0.096811,-0.3096764999999999,0.8640300000000001,-0.231485,0.3084135,0.8861800000000001,-0.129675,-0.0783445,-0.0045199999999999,-0.005345,0.0783445,0.00452,0.005345,-0.1099064999999999,0.07122,-0.3669449999999999,0.1772335,0.06661,-0.3455749999999999,-0.1230164999999999,-0.2619399999999999,-0.213815,0.1038855,-0.2922399999999999,-0.175845,1
154,-0.0024605,0.64937,-0.09953,-0.1484155,0.444275,-0.095468,-0.2635855,0.6408499999999999,-0.163631,0.1400745,0.4550939999999999,-0.0736069999999999,0.2532945,0.65992,-0.0949599999999999,-0.3101755,0.8617299999999999,-0.2303549999999999,0.3093445,0.8834299999999999,-0.12808,-0.0791415,-0.00443,-0.0050749999999999,0.0791415,0.0044299999999999,0.005075,-0.1099054999999999,0.0772899999999999,-0.365565,0.1770145,0.0735699999999999,-0.3449149999999999,-0.1231255,-0.25667,-0.213145,0.1075405,-0.28617,-0.173588,1
155,-0.0024969999999999,0.6474650000000001,-0.097853,-0.149048,0.441805,-0.093762,-0.2645079999999999,0.6382650000000001,-0.162381,0.140362,0.451965,-0.072022,0.254082,0.6569450000000001,-0.093143,-0.310958,0.859075,-0.22923,0.309812,0.8804150000000001,-0.126516,-0.079969,-0.0043349999999999,-0.00485,0.079969,0.004335,0.0048499999999999,-0.109998,0.083205,-0.3641299999999999,0.1768719999999999,0.080595,-0.3442199999999999,-0.123248,-0.2515349999999999,-0.21244,0.110411,-0.2801549999999999,-0.171335,1
156,-0.002633,0.6458099999999999,-0.096166,-0.149829,0.4390609999999999,-0.091919,-0.265469,0.6355699999999999,-0.161098,0.140571,0.4490419999999999,-0.070379,0.254781,0.6542299999999999,-0.091398,-0.311819,0.8563699999999999,-0.228165,0.309851,0.8791699999999999,-0.12497,-0.080676,-0.00428,-0.0046449999999999,0.080676,0.0042799999999999,0.0046449999999999,-0.110209,0.0887399999999998,-0.3626749999999999,0.176591,0.0875799999999998,-0.343365,-0.123479,-0.2466800000000001,-0.211705,0.113121,-0.2751200000000001,-0.170008,1
157,-0.0028234999999999,0.643795,-0.094364,-0.1505655,0.4380219999999999,-0.090385,-0.2663855,0.634215,-0.159913,0.1407445,0.449074,-0.068831,0.2554745,0.653915,-0.089752,-0.3126855,0.8550249999999999,-0.227055,0.3098545,0.879085,-0.12357,-0.0812445,-0.0043549999999999,-0.004375,0.0812445,0.0043549999999999,0.004375,-0.1103654999999999,0.0929549999999999,-0.361955,0.1762145,0.0939549999999999,-0.342295,-0.1239255,-0.2426249999999999,-0.20998,0.1126445,-0.270945,-0.169069,1
158,-0.002973,0.6419349999999999,-0.0925189999999999,-0.151194,0.4369989999999999,-0.088821,-0.266994,0.632945,-0.15879,0.140906,0.4484559999999999,-0.067168,0.255976,0.653045,-0.088211,-0.313434,0.853715,-0.225895,0.309896,0.878405,-0.12197,-0.0817809999999999,-0.004395,-0.0041449999999999,0.0817809999999999,0.0043949999999999,0.004145,-0.1104739999999999,0.0968849999999999,-0.361255,0.1758259999999999,0.1002449999999999,-0.341025,-0.124324,-0.2389649999999999,-0.20822,0.112236,-0.266955,-0.167977,1
159,-0.0030729999999999,0.640295,-0.0907679999999999,-0.151712,0.4369079999999999,-0.0873979999999999,-0.267352,0.6327349999999999,-0.15764,0.141128,0.4481919999999999,-0.065496,0.256428,0.6522849999999999,-0.0865379999999999,-0.313932,0.8533649999999999,-0.224625,0.309718,0.877815,-0.120308,-0.082315,-0.004455,-0.0040149999999999,0.082315,0.0044549999999999,0.004015,-0.110652,0.1008449999999999,-0.360605,0.175518,0.1064949999999999,-0.339565,-0.124772,-0.235335,-0.206619,0.113248,-0.262865,-0.165091,1
160,-0.0030044999999999,0.638975,-0.089053,-0.1519695,0.437312,-0.08601,-0.2675895,0.632765,-0.156476,0.1414205,0.44852,-0.063832,0.2570405,0.652635,-0.0853059999999999,-0.3139995,0.853585,-0.22364,0.3100505,0.878085,-0.118581,-0.0827465,-0.0044549999999999,-0.00389,0.0827465,0.0044549999999999,0.00389,-0.1118894999999999,0.100385,-0.36016,0.1753205,0.112535,-0.3379999999999999,-0.1253895,-0.2364549999999999,-0.20412,0.1138905,-0.259725,-0.158325,1
161,-0.0029515,0.637695,-0.0874,-0.1520855,0.437751,-0.08475,-0.2680455,0.632709,-0.155447,0.1417045,0.4489689999999999,-0.062305,0.2577345,0.652655,-0.083962,-0.3142555,0.8537349999999999,-0.22267,0.3105845,0.878115,-0.116786,-0.0831405,-0.004465,-0.00383,0.0831405,0.0044649999999999,0.00383,-0.1129555,0.099435,-0.35996,0.1751045,0.1182149999999999,-0.33648,-0.1258255,-0.237945,-0.201608,0.1163245,-0.256255,-0.162521,1
162,-0.0029204999999999,0.6368010000000001,-0.086003,-0.1521035,0.438156,-0.083743,-0.2684235,0.632769,-0.154684,0.1418365,0.449207,-0.060993,0.2583665,0.652765,-0.082865,-0.3145635,0.8539650000000001,-0.22192,0.3115065,0.878285,-0.114945,-0.0833805,-0.0045049999999999,-0.00385,0.0833805,0.0045049999999999,0.00385,-0.1140934999999999,0.097605,-0.36013,0.1748265,0.122725,-0.33505,-0.1265835,-0.2403649999999999,-0.199114,0.1161165,-0.254005,-0.159421,1
163,-0.0029145,0.6359319999999999,-0.084657,-0.1521125,0.4384,-0.082817,-0.2691025,0.632935,-0.154028,0.1418975,0.449511,-0.059816,0.2584674999999999,0.65295,-0.081933,-0.3149025,0.85423,-0.22093,0.3125475,0.8785499999999999,-0.113254,-0.0835885,-0.00455,-0.00385,0.0835885,0.0045499999999999,0.0038499999999999,-0.1148925,0.0994899999999999,-0.3592999999999999,0.1744375,0.1267499999999999,-0.33371,-0.1273925,-0.2398599999999999,-0.196969,0.1167175,-0.25165,-0.162037,1
164,-0.0029104999999999,0.635233,-0.083401,-0.1521075,0.438655,-0.081932,-0.2697975,0.63314,-0.153423,0.1419225,0.449782,-0.05873,0.2588625,0.653065,-0.080977,-0.3152975,0.8545050000000001,-0.22004,0.3137324999999999,0.878745,-0.111481,-0.0837835,-0.004595,-0.00385,0.0837835,0.004595,0.0038499999999999,-0.1157675,0.096625,-0.35977,0.1736725,0.130255,-0.33237,-0.1279975,-0.2432649999999999,-0.19434,0.1172725,-0.249835,-0.16409,1
165,-0.0025389999999999,0.634527,-0.082025,-0.151856,0.439665,-0.081054,-0.2702559999999999,0.633714,-0.152648,0.142374,0.450961,-0.05758,0.260004,0.653805,-0.07985,-0.3153559999999999,0.855225,-0.2191,0.315304,0.8794150000000001,-0.109636,-0.084009,-0.0045749999999999,-0.00385,0.084009,0.0045749999999999,0.0038499999999999,-0.1163059999999999,0.094175,-0.36038,0.173054,0.134135,-0.33116,-0.128336,-0.2460949999999999,-0.19183,0.117944,-0.2484349999999999,-0.164409,1
166,-0.0021505,0.63386,-0.080879,-0.1515794999999999,0.4407,-0.080357,-0.2707295,0.634262,-0.152025,0.1428805,0.45189,-0.056718,0.2614305,0.65418,-0.078536,-0.3153594999999999,0.85591,-0.218395,0.3168105,0.8797699999999999,-0.107996,-0.0842155,-0.0045,-0.003865,0.0842155,0.0044999999999999,0.0038649999999999,-0.1167194999999999,0.09031,-0.361145,0.1725304999999999,0.1370599999999999,-0.330195,-0.1286195,-0.25027,-0.190292,0.1174105,-0.24785,-0.166352,1
167,-0.0017649999999999,0.633296,-0.079926,-0.151278,0.4413,-0.079781,-0.271178,0.634605,-0.15144,0.143432,0.452914,-0.056071,0.262872,0.65472,-0.077333,-0.315328,0.85636,-0.21784,0.318222,0.88034,-0.106636,-0.084381,-0.00446,-0.00386,0.084381,0.00446,0.0038599999999999,-0.116528,0.09143,-0.36049,0.1721019999999999,0.13927,-0.32949,-0.128628,-0.24963,-0.189804,0.117342,-0.24755,-0.168526,1
168,-0.0015734999999999,0.633144,-0.079126,-0.1511305,0.441295,-0.079339,-0.2716805,0.6346310000000001,-0.15102,0.1437595,0.453886,-0.0557,0.2636895,0.6555150000000001,-0.076443,-0.3155205,0.856395,-0.21748,0.3190695,0.881225,-0.105629,-0.0844125,-0.0044749999999998,-0.00373,0.0844125,0.004475,0.0037299999999999,-0.1163005,0.091825,-0.3599799999999999,0.1716795,0.140515,-0.32937,-0.1285805,-0.2495049999999999,-0.189507,0.1154295,-0.2477749999999999,-0.168627,1
169,-0.001534,0.633359,-0.078618,-0.151099,0.4408849999999999,-0.0790159999999999,-0.272089,0.634432,-0.1506839999999999,0.143891,0.454547,-0.0555429999999999,0.264061,0.656185,-0.0758699999999999,-0.315799,0.856135,-0.2172,0.319571,0.881895,-0.1048809999999999,-0.084435,-0.004565,-0.0036299999999999,0.084435,0.004565,0.00363,-0.116009,0.092415,-0.35972,0.171251,0.141185,-0.32933,-0.128539,-0.248835,-0.189398,0.113207,-0.247105,-0.16691,1
170,-0.0016045,0.633799,-0.078396,-0.1511915,0.440575,-0.078817,-0.2723115,0.634292,-0.1504059999999999,0.1438385,0.454987,-0.055539,0.2641885,0.656625,-0.0754259999999999,-0.3160415,0.855905,-0.217,0.3197084999999999,0.882335,-0.1045,-0.0843474999999999,-0.004685,-0.00361,0.0843474999999999,0.004685,0.00361,-0.1158315,0.092735,-0.35965,0.1707285,0.141625,-0.3293999999999999,-0.1285315,-0.248395,-0.189386,0.1111554999999999,-0.246665,-0.166924,1
171,-0.0017895,0.633799,-0.078421,-0.1513965,0.441145,-0.078631,-0.2721565,0.634398,-0.149942,0.1438135,0.455514,-0.055541,0.2643735,0.656935,-0.075194,-0.3163665,0.856055,-0.216515,0.3199234999999999,0.882605,-0.104465,-0.0841325,-0.004685,-0.003575,0.0841325,0.004685,0.0035749999999999,-0.1156265,0.092455,-0.359645,0.1704034999999999,0.141285,-0.3294749999999999,-0.1284665,-0.248395,-0.189373,0.1099565,-0.246665,-0.166105,1
172,-0.0020185,0.633779,-0.078454,-0.1514825,0.441885,-0.078409,-0.2722925,0.6348,-0.149316,0.1437574999999999,0.4563239999999999,-0.055577,0.2645975,0.6574249999999999,-0.075115,-0.3166925,0.856465,-0.216015,0.3201575,0.883065,-0.104435,-0.0838995,-0.004665,-0.0035349999999999,0.0838995,0.004665,0.0035349999999999,-0.1145625,0.0959349999999999,-0.3583849999999999,0.1702575,0.140515,-0.3296949999999999,-0.1280025,-0.244885,-0.190236,0.1091965,-0.245365,-0.165923,1
173,-0.0022279999999999,0.634255,-0.078552,-0.15147,0.442235,-0.078474,-0.2721,0.634935,-0.148993,0.1436899999999999,0.456896,-0.055655,0.26469,0.6579550000000001,-0.075213,-0.31711,0.856615,-0.2154849999999999,0.32031,0.883595,-0.104479,-0.083678,-0.0046549999999999,-0.003435,0.083678,0.004655,0.0034349999999999,-0.11352,0.099155,-0.357095,0.17046,0.139455,-0.329825,-0.12752,-0.241305,-0.191233,0.107978,-0.246885,-0.1636,1
174,-0.002491,0.636384,-0.079086,-0.151409,0.442125,-0.078959,-0.272039,0.635344,-0.149478,0.143561,0.457451,-0.056201,0.2638709999999999,0.658805,-0.075927,-0.317969,0.856645,-0.21611,0.319621,0.884385,-0.10533,-0.083468,-0.004785,-0.00336,0.083468,0.004785,0.00336,-0.112729,0.1016949999999999,-0.35627,0.170521,0.136745,-0.33033,-0.127039,-0.238395,-0.192954,0.108039,-0.2455049999999999,-0.164085,1
175,-0.002453,0.639116,-0.080382,-0.151184,0.44253,-0.080119,-0.271664,0.635935,-0.150615,0.143576,0.457603,-0.057435,0.262656,0.65975,-0.077304,-0.318634,0.85713,-0.21741,0.318946,0.88506,-0.107017,-0.083108,-0.00484,-0.00338,0.083108,0.0048399999999999,0.0033799999999999,-0.111844,0.1028299999999999,-0.35595,0.170716,0.13237,-0.33131,-0.126584,-0.236,-0.195297,0.108264,-0.24511,-0.165245,1
176,-0.0023669999999999,0.643014,-0.082667,-0.150954,0.4433,-0.082026,-0.271044,0.637533,-0.15245,0.143616,0.45841,-0.059461,0.261216,0.66133,-0.08006,-0.319134,0.8581799999999999,-0.219415,0.317976,0.88634,-0.110093,-0.082581,-0.00487,-0.003485,0.082581,0.00487,0.003485,-0.110934,0.10174,-0.356265,0.170946,0.12484,-0.333205,-0.126354,-0.23579,-0.197192,0.108106,-0.2456399999999999,-0.164574,1
177,-0.0027775,0.64761,-0.085958,-0.1513475,0.444631,-0.084833,-0.2710774999999999,0.6393,-0.155199,0.1430924999999999,0.4599899999999999,-0.06233,0.2595725,0.66354,-0.083,-0.3203375,0.85932,-0.22226,0.3154025,0.8886000000000001,-0.11452,-0.0814785,-0.0049099999999999,-0.0035199999999999,0.0814785,0.0049099999999999,0.0035199999999999,-0.1107475,0.0948099999999999,-0.35708,0.1713225,0.11012,-0.33559,-0.1262975,-0.2405899999999999,-0.199627,0.1085905,-0.25138,-0.1673,1
178,-0.0031385,0.653435,-0.089213,-0.1515725,0.447161,-0.087599,-0.2707725,0.641785,-0.158038,0.1425274999999999,0.461646,-0.065323,0.2577075,0.665905,-0.086001,-0.3217025,0.861445,-0.225055,0.3130075,0.891065,-0.118871,-0.0802215,-0.0047849999999999,-0.003515,0.0802215,0.004785,0.0035149999999999,-0.1107625,0.078535,-0.358945,0.1718275,0.091045,-0.337715,-0.1260224999999999,-0.2541449999999999,-0.201483,0.1107684999999999,-0.2612049999999999,-0.169495,1
179,-0.0035115,0.658985,-0.092421,-0.1517595,0.4493500000000001,-0.090409,-0.2702395,0.6442150000000001,-0.160827,0.1419705,0.4631360000000001,-0.0682899999999999,0.2552605,0.6682650000000001,-0.089514,-0.3222495,0.8634250000000001,-0.2276,0.3105104999999999,0.893375,-0.123267,-0.0789074999999999,-0.0047049999999999,-0.0035199999999999,0.0789074999999999,0.004705,0.0035199999999999,-0.1110595,0.062695,-0.36074,0.1724205,0.071575,-0.3396699999999999,-0.1252595,-0.2681849999999999,-0.2037209999999999,0.1130785,-0.271925,-0.1719419999999999,1
180,-0.0037555,0.66434,-0.095471,-0.1521725,0.452101,-0.092835,-0.2705324999999999,0.64691,-0.163556,0.1415475,0.464387,-0.071093,0.2531875,0.67033,-0.092931,-0.3234125,0.86571,-0.2301,0.3085175,0.8951800000000001,-0.127763,-0.0775945,-0.0045999999999999,-0.00356,0.0775945,0.0045999999999999,0.0035599999999999,-0.1114125,0.0432,-0.36205,0.1730275,0.04909,-0.34097,-0.1242025,-0.28626,-0.205687,0.1155975,-0.2865,-0.174171,1
181,-0.0039705,0.669905,-0.098462,-0.1526064999999999,0.455376,-0.095151,-0.2708065,0.6499550000000001,-0.166128,0.1412735,0.466094,-0.073726,0.2517735,0.672745,-0.096423,-0.3245065,0.8681650000000001,-0.23269,0.3068435,0.897225,-0.132043,-0.0762845,-0.0044349999999999,-0.0037,0.0762845,0.004435,0.0036999999999999,-0.1117965,0.022685,-0.36288,0.1736235,0.025875,-0.34176,-0.1230665,-0.3056449999999999,-0.207155,0.1171435,-0.302555,-0.174276,1
182,-0.004142,0.675415,-0.100972,-0.152933,0.457627,-0.096808,-0.270303,0.652145,-0.167917,0.141057,0.467371,-0.075964,0.250387,0.674675,-0.09954,-0.325343,0.870195,-0.234895,0.305347,0.898965,-0.135865,-0.075025,-0.0043449999999999,-0.003845,0.075025,0.0043449999999999,0.003845,-0.112153,-0.000205,-0.363145,0.174227,0.0027249999999999,-0.341905,-0.122043,-0.326115,-0.207094,0.118537,-0.322255,-0.17337,1
183,-0.0041705,0.6796599999999999,-0.10256,-0.1531995,0.4614149999999999,-0.097748,-0.2704295,0.65501,-0.169492,0.1408905,0.46924,-0.0774739999999999,0.2497405,0.67675,-0.101589,-0.3260595,0.87303,-0.23701,0.3044005,0.90096,-0.13846,-0.0739255,-0.00408,-0.0039,0.0739255,0.0040799999999999,0.0039,-0.1125395,-0.02442,-0.3622999999999999,0.1746305,-0.02149,-0.34067,-0.1209695,-0.3478300000000001,-0.206313,0.1205805,-0.34407,-0.171599,1
184,-0.0043755,0.683765,-0.1031489999999999,-0.1533925,0.4640809999999999,-0.098037,-0.2708225,0.657215,-0.1702429999999999,0.1404975,0.471777,-0.078259,0.2492875,0.678925,-0.1025369999999999,-0.3266625,0.874995,-0.237215,0.3033375,0.903275,-0.1401339999999999,-0.0729285,-0.003935,-0.0038349999999999,0.0729285,0.0039349999999999,0.003835,-0.1132125,-0.048675,-0.360545,0.1745874999999999,-0.046365,-0.338195,-0.1202025,-0.370375,-0.2045719999999999,0.1223975,-0.367275,-0.169537,1
185,-0.0044105,0.68706,-0.103499,-0.1533195,0.46644,-0.0982899999999999,-0.2707695,0.65915,-0.1705799999999999,0.1403205,0.47317,-0.0788869999999999,0.2484805,0.68038,-0.1029789999999999,-0.3271495,0.8767800000000001,-0.237505,0.3016805,0.90479,-0.1404959999999999,-0.0721955,-0.0038199999999999,-0.0037249999999999,0.0721955,0.0038199999999999,0.003725,-0.1137395,-0.07194,-0.358445,0.1746805,-0.07084,-0.335595,-0.1191395,-0.39248,-0.202546,0.1243905,-0.3889799999999999,-0.167758,1
186,-0.0041365,0.6896199999999999,-0.103572,-0.1530024999999999,0.46875,-0.0982559999999999,-0.2707625,0.66089,-0.1705789999999999,0.1405175,0.4737899999999999,-0.0790709999999999,0.2485575,0.68097,-0.1034739999999999,-0.3272425,0.87844,-0.237725,0.3017975,0.9052,-0.141175,-0.0718005,-0.00368,-0.0036649999999999,0.0718005,0.0036799999999999,0.003665,-0.1139724999999999,-0.09043,-0.356025,0.1744775,-0.09066,-0.3328149999999999,-0.1180025,-0.41102,-0.2004099999999999,0.1259475,-0.40829,-0.16634,1
187,-0.003837,0.691445,-0.1035,-0.15274,0.470145,-0.098195,-0.27028,0.6621250000000001,-0.170478,0.1409099999999999,0.474485,-0.078982,0.2491699999999999,0.681575,-0.103351,-0.32725,0.879705,-0.2377,0.30193,0.905305,-0.14137,-0.0715259999999999,-0.0036849999999999,-0.00365,0.0715259999999999,0.0036849999999999,0.00365,-0.11408,-0.1053049999999999,-0.3537,0.17417,-0.1068049999999999,-0.33006,-0.1169499999999999,-0.4268849999999999,-0.198652,0.12589,-0.425135,-0.165242,1
188,-0.0035409999999999,0.694365,-0.102438,-0.152622,0.472645,-0.0971,-0.270192,0.664355,-0.169428,0.141408,0.474335,-0.077869,0.249298,0.6821550000000001,-0.102296,-0.3268919999999999,0.881865,-0.23661,0.302028,0.904715,-0.140368,-0.07127,-0.0033449999999999,-0.00372,0.07127,0.0033449999999999,0.00372,-0.114332,-0.1195549999999999,-0.35042,0.173848,-0.1217449999999999,-0.32631,-0.116442,-0.443045,-0.196808,0.125838,-0.4420149999999999,-0.16326,1
189,-0.003368,0.696275,-0.1003149999999999,-0.152723,0.474085,-0.0950309999999999,-0.270903,0.6657850000000001,-0.1670579999999999,0.141797,0.4774049999999999,-0.0757439999999999,0.249427,0.684605,-0.1000829999999999,-0.327153,0.8831549999999999,-0.234035,0.303017,0.907205,-0.138208,-0.070995,-0.003365,-0.0035449999999999,0.070995,0.003365,0.003545,-0.114693,-0.131625,-0.346025,0.173417,-0.1342649999999999,-0.321355,-0.116113,-0.4576349999999999,-0.1939489999999999,0.125997,-0.460155,-0.1622779999999999,1
190,-0.003298,0.698195,-0.098193,-0.153012,0.475445,-0.092772,-0.270962,0.6671549999999999,-0.164269,0.1421879999999999,0.478975,-0.073514,0.248838,0.685845,-0.097969,-0.327662,0.884625,-0.231535,0.3040879999999999,0.908435,-0.135911,-0.070719,-0.0032949999999999,-0.0033949999999999,0.070719,0.0032949999999999,0.0033949999999999,-0.115122,-0.142555,-0.341405,0.172978,-0.145785,-0.316255,-0.115872,-0.4720149999999999,-0.190961,0.126168,-0.4777249999999999,-0.161422,1
191,-0.0031815,0.70033,-0.095909,-0.1530235,0.47726,-0.090206,-0.2715535,0.6691400000000001,-0.161411,0.1428265,0.48022,-0.071129,0.2495565,0.68695,-0.095415,-0.3278835,0.88633,-0.228625,0.3052264999999999,0.9093,-0.133474,-0.0704005,-0.00306,-0.003255,0.0704005,0.00306,0.0032549999999999,-0.1153434999999999,-0.15271,-0.336735,0.1724065,-0.1569,-0.311135,-0.1157334999999999,-0.48688,-0.188948,0.1266065,-0.49284,-0.160255,1
192,-0.0029785,0.70269,-0.092844,-0.1525755,0.47916,-0.086953,-0.2710055,0.6711400000000001,-0.157408,0.1435644999999999,0.48181,-0.0679269999999999,0.2506545,0.68828,-0.0917849999999999,-0.3275455,0.88822,-0.2246349999999999,0.3063245,0.91038,-0.129742,-0.0702275,-0.0028999999999999,-0.0032849999999999,0.0702275,0.0029,0.003285,-0.1153455,-0.1624399999999999,-0.331635,0.1718345,-0.1671599999999999,-0.305585,-0.1155355,-0.50139,-0.186215,0.1275345,-0.5074799999999999,-0.157919,1
193,-0.002805,0.70564,-0.089634,-0.15253,0.48107,-0.083809,-0.27152,0.67352,-0.153421,0.14423,0.4822,-0.064691,0.25201,0.68912,-0.087697,-0.32738,0.89025,-0.22027,0.3073499999999999,0.91075,-0.12577,-0.070133,-0.0026899999999999,-0.0032699999999999,0.070133,0.0026899999999999,0.0032699999999999,-0.1153,-0.17192,-0.32645,0.17126,-0.1764299999999999,-0.30034,-0.11523,-0.51441,-0.1830129999999999,0.12846,-0.52112,-0.156129,1
194,-0.0026475,0.70708,-0.0861339999999999,-0.1523805,0.48246,-0.080378,-0.2714705,0.67424,-0.148965,0.1448395,0.48551,-0.06059,0.2525295,0.6920900000000001,-0.083318,-0.3274905,0.8912300000000001,-0.215775,0.3080995,0.91364,-0.1214119999999999,-0.0700635,-0.0026499999999999,-0.003025,0.0700635,0.00265,0.003025,-0.1153705,-0.1820199999999999,-0.320185,0.1705295,-0.1869299999999999,-0.293875,-0.1150305,-0.52855,-0.179796,0.1294395,-0.53581,-0.154503,1
195,-0.0025399999999999,0.70943,-0.0826165,-0.152112,0.48245,-0.0768665,-0.271532,0.67452,-0.1442925,0.1451579999999999,0.4879099999999999,-0.0564785,0.253408,0.6943,-0.0788185,-0.327612,0.89157,-0.2107625,0.309048,0.91576,-0.1168835,-0.0700119999999999,-0.0026899999999999,-0.0028375,0.0700119999999999,0.0026899999999999,0.0028374999999999,-0.115562,-0.19176,-0.3138625,0.169798,-0.19659,-0.2874525,-0.1147519999999999,-0.54206,-0.1755335,0.130188,-0.54922,-0.1520145,1
196,-0.0023364999999999,0.711085,-0.0786825,-0.1517764999999999,0.4830649999999999,-0.0729425,-0.2713365,0.675035,-0.1392285,0.1455535,0.489835,-0.0520305,0.2543835,0.695955,-0.0738715,-0.3278165,0.891925,-0.2059825,0.3099134999999999,0.917665,-0.1118455,-0.0700915,-0.0026349999999999,-0.0026474999999999,0.0700915,0.0026349999999999,0.0026474999999999,-0.1156065,-0.202275,-0.3063125,0.1691735,-0.206585,-0.2800924999999999,-0.1143664999999999,-0.5564250000000001,-0.1709014999999999,0.1311135,-0.5633050000000001,-0.1489905,1
197,-0.0022394999999999,0.71278,-0.0750484999999999,-0.1515245,0.48307,-0.0694035,-0.2719545,0.67556,-0.1344645,0.1457255,0.49214,-0.0480105,0.2548855,0.6974,-0.0691425,-0.3281945,0.89217,-0.2013984999999999,0.3100755,0.91999,-0.1071604999999999,-0.0700925,-0.0027999999999999,-0.0024155,0.0700925,0.0027999999999999,0.0024155,-0.1157145,-0.2126099999999999,-0.2986585,0.1684655,-0.21624,-0.2728385,-0.1142244999999999,-0.57055,-0.1673305,0.1320555,-0.57724,-0.1463815,1
198,-0.0024344999999999,0.713525,-0.071231,-0.1514194999999999,0.4844449999999999,-0.065816,-0.2721595,0.6763950000000001,-0.12966,0.1459005,0.492405,-0.044032,0.2556505,0.6974849999999999,-0.064441,-0.3286895,0.892935,-0.196791,0.3104905,0.919895,-0.102133,-0.0703034999999999,-0.002615,-0.002356,0.0703034999999999,0.0026149999999999,0.0023559999999999,-0.1159695,-0.223245,-0.289731,0.1673805,-0.225965,-0.264351,-0.1142995,-0.5846750000000001,-0.163654,0.1328005,-0.5911250000000001,-0.143375,1
199,-0.0027504999999999,0.71417,-0.067463,-0.1515725,0.48504,-0.062119,-0.2726225,0.6768000000000001,-0.124921,0.1458575,0.49328,-0.040148,0.2558375,0.69799,-0.059933,-0.3298625,0.89314,-0.192177,0.3105175,0.92043,-0.097175,-0.0701985,-0.0024999999999999,-0.002227,0.0701985,0.0025,0.0022269999999999,-0.1163224999999999,-0.23346,-0.280717,0.1661075,-0.2354199999999999,-0.255647,-0.1146425,-0.59853,-0.160235,0.1333775,-0.60421,-0.139777,1
200,-0.003119,0.71449,-0.0636024999999999,-0.151837,0.48574,-0.0583044999999999,-0.273677,0.67698,-0.1204984999999999,0.145793,0.49416,-0.0362274999999999,0.255733,0.69849,-0.0557564999999999,-0.331097,0.89307,-0.1872665,0.310353,0.92113,-0.0925894999999999,-0.070167,-0.0024099999999999,-0.0020614999999999,0.070167,0.00241,0.0020615,-0.116537,-0.24677,-0.2710765,0.164603,-0.2501,-0.2462565,-0.1147769999999999,-0.61431,-0.1558915,0.133953,-0.61894,-0.1356724999999999,1
201,-0.0036425,0.7146030000000001,-0.0602,-0.1521455,0.484823,-0.055095,-0.2748555,0.675923,-0.11685,0.1453245,0.495513,-0.032816,0.2548445,0.699603,-0.052128,-0.3324654999999999,0.8917029999999999,-0.183005,0.3097445,0.922383,-0.088022,-0.0701485,-0.0025069999999999,-0.001713,0.0701485,0.002507,0.0017129999999999,-0.1165355,-0.260047,-0.261325,0.1627144999999999,-0.265177,-0.236565,-0.1148155,-0.6295470000000001,-0.151993,0.1340245,-0.633367,-0.132148,1
202,-0.0041874999999999,0.715376,-0.056746,-0.1525995,0.485286,-0.051473,-0.2760694999999999,0.675826,-0.11312,0.1448905,0.498086,-0.029112,0.2538605,0.701446,-0.048364,-0.3342495,0.8917759999999999,-0.178499,0.3090205,0.924486,-0.083264,-0.0700555,-0.0025049999999999,-0.001417,0.0700555,0.002505,0.0014169999999999,-0.1165395,-0.274084,-0.250039,0.1605705,-0.281134,-0.225289,-0.1148395,-0.645594,-0.147737,0.1340405,-0.6486639999999999,-0.128074,1
203,-0.0055419999999999,0.7167035,-0.049129,-0.155139,0.4870335,-0.043533,-0.278649,0.6776035,-0.104908,0.143521,0.4967935,-0.021353,0.252421,0.7003235,-0.039704,-0.337559,0.8934035,-0.170001,0.307651,0.9232935,-0.074288,-0.069726,-0.0022514999999999,-0.001009,0.069726,0.0022515,0.0010089999999999,-0.115729,-0.2890265,-0.229451,0.156721,-0.2972765,-0.203951,-0.1151089999999999,-0.6616365,-0.138122,0.133431,-0.6646465,-0.118552,1
204,-0.0069759999999999,0.7168800000000001,-0.0416505,-0.157802,0.48932,-0.0354245,-0.280682,0.6795500000000001,-0.0966945,0.142568,0.49585,-0.0134485,0.250288,0.6994900000000001,-0.0313485,-0.340432,0.89534,-0.1616755,0.305928,0.92241,-0.0656185,-0.069407,-0.0019309999999999,-0.0007575,0.069407,0.001931,0.0007575,-0.1150119999999999,-0.30368,-0.2089855,0.152828,-0.31296,-0.1827255,-0.115632,-0.6771699999999999,-0.1287395,0.132348,-0.6798099999999999,-0.1062625,1
205,-0.0083675,0.717606,-0.034713,-0.1603725,0.490496,-0.027901,-0.2831225,0.681056,-0.089127,0.1414475,0.494816,-0.006281,0.2495575,0.699156,-0.023447,-0.3434725,0.896606,-0.15412,0.3047775,0.921796,-0.057602,-0.0691355,-0.00177,-0.0005389999999999,0.0691355,0.00177,0.0005389999999999,-0.1142525,-0.316864,-0.18949,0.1490075,-0.3274539999999999,-0.16225,-0.1160925,-0.690694,-0.1199109999999999,0.1311775,-0.6935439999999999,-0.09475,1
206,-0.0096735,0.7177129999999999,-0.027847,-0.1630885,0.491443,-0.020674,-0.2856484999999999,0.681573,-0.081812,0.1400815,0.494503,0.0002669999999999,0.2473014999999999,0.699163,-0.015741,-0.3466785,0.897183,-0.146554,0.3032915,0.921613,-0.049749,-0.0688225,-0.0016739999999999,-0.000241,0.0688225,0.001674,0.0002409999999999,-0.1136185,-0.329897,-0.169904,0.1450515,-0.342777,-0.141343,-0.1163785,-0.703987,-0.109365,0.1301515,-0.707017,-0.083248,1
207,-0.0108565,0.719486,-0.0217135,-0.1658265,0.491316,-0.0141255,-0.2881965,0.682046,-0.0755585,0.1394435,0.493796,0.0064045,0.2460534999999999,0.699316,-0.0086165,-0.3491465,0.897566,-0.1396525,0.3023135,0.921626,-0.0425125,-0.0685625,-0.0015399999999999,-4.149999999999987e-05,0.0685625,0.0015399999999999,4.149999999999987e-05,-0.1130465,-0.3398239999999999,-0.1518324999999999,0.1412735,-0.355614,-0.1220415,-0.1166864999999999,-0.714314,-0.0995095,0.1291034999999999,-0.717474,-0.0727754999999999,1
208,-0.0120384999999999,0.7206075000000001,-0.015683,-0.1685315,0.4923375,-0.007806,-0.2906415,0.6830375000000001,-0.069442,0.1387485,0.4947175,0.012633,0.2446385,0.7007875,-0.00167,-0.3518315,0.8986075,-0.13291,0.3013185,0.9229175,-0.035456,-0.0682595,-0.0014254999999999,0.0001239999999999,0.0682595,0.0014254999999999,-0.0001239999999999,-0.1125215,-0.3493725,-0.13384,0.1374385,-0.3692924999999999,-0.102761,-0.1170314999999999,-0.7235825,-0.090011,0.1280585,-0.7277224999999999,-0.062492,1
209,-0.0131405,0.721333,-0.0098159999999999,-0.1711635,0.494063,-0.0017129999999999,-0.2927335,0.684603,-0.063523,0.1380364999999999,0.496213,0.018812,0.2437964999999999,0.702623,0.005139,-0.3545635,0.900253,-0.1266229999999999,0.3006465,0.924463,-0.028744,-0.0679205,-0.001321,0.000249,0.0679205,0.001321,-0.0002489999999999,-0.1120335,-0.358387,-0.1161059999999999,0.1337265,-0.383017,-0.083857,-0.1173235,-0.732137,-0.08034,0.1269364999999999,-0.737607,-0.052382,1
210,-0.0142079999999999,0.7220175000000001,-0.004103,-0.173713,0.4952175,0.0043839999999999,-0.294823,0.6858675000000001,-0.057821,0.137387,0.4978775,0.024947,0.2426869999999999,0.7047175,0.011754,-0.357233,0.9016475,-0.120283,0.299657,0.9263675,-0.021794,-0.06753,-0.0010985,0.0003829999999999,0.06753,0.0010984999999999,-0.000383,-0.111823,-0.3677225,-0.098897,0.130267,-0.3971125,-0.065713,-0.117683,-0.7409924999999999,-0.071832,0.126047,-0.7475725,-0.042925,1
