sb224sc-HT22-VT27/4dt907/src/data/labeled_files/A33_kinect.csv
FrameNo,nose_3d_x,nose_3d_y,nose_3d_z,left_shoulder_3d_x,left_shoulder_3d_y,left_shoulder_3d_z,left_elbow_3d_x,left_elbow_3d_y,left_elbow_3d_z,right_shoulder_3d_x,right_shoulder_3d_y,right_shoulder_3d_z,right_elbow_3d_x,right_elbow_3d_y,right_elbow_3d_z,left_wrist_3d_x,left_wrist_3d_y,left_wrist_3d_z,right_wrist_3d_x,right_wrist_3d_y,right_wrist_3d_z,left_hip_3d_x,left_hip_3d_y,left_hip_3d_z,right_hip_3d_x,right_hip_3d_y,right_hip_3d_z,left_knee_3d_x,left_knee_3d_y,left_knee_3d_z,right_knee_3d_x,right_knee_3d_y,right_knee_3d_z,left_ankle_3d_x,left_ankle_3d_y,left_ankle_3d_z,right_ankle_3d_x,right_ankle_3d_y,right_ankle_3d_z,activity_label
0,0.0051764999999999,0.7585620000000001,0.0661465,-0.1669075,0.459862,0.0705534999999999,-0.2042875,0.2442019999999999,0.0102034999999999,0.1603125,0.458122,0.0664075,0.2063924999999999,0.2415419999999999,0.0160924999999999,-0.2491075,0.070014,-0.1119295,0.2313724999999999,0.069786,-0.1157295,-0.0724545,0.0021179999999999,0.0004674999999999,0.0724545,-0.002118,-0.0004675,-0.1227375,-0.379998,-0.0102605,0.1104824999999999,-0.414538,0.0119894999999999,-0.1257875,-0.7321679999999999,-0.0135065,0.1104225,-0.7399279999999999,-0.0146115,0
1,0.0043765,0.757357,0.0720814999999999,-0.1589084999999999,0.467197,0.0674075,-0.2443285,0.3048869999999999,-0.0574985,0.1535815,0.460327,0.0599534999999999,0.2424815,0.2895569999999999,-0.0497605,-0.3015085,0.191417,-0.2358154999999999,0.2769415,0.173807,-0.2328555,-0.0729644999999999,0.002171,-0.0005824999999999,0.0729644999999999,-0.0021709999999999,0.0005824999999999,-0.1247085,-0.366493,-0.0096785,0.1086115,-0.406903,0.0119804999999999,-0.1262785,-0.7282230000000001,-0.0107805,0.1065515,-0.745003,-0.0138155,0
2,0.004135,0.7569945,0.0747695,-0.1555369999999999,0.4682245,0.0653425,-0.261007,0.3289944999999999,-0.0718535,0.154293,0.4609445,0.0592895,0.253303,0.3154944999999999,-0.0770535,-0.320397,0.2403945,-0.2633135,0.302073,0.2372845,-0.2763135,-0.073073,0.0021545,-0.0003934999999999,0.073073,-0.0021544999999999,0.0003935,-0.124917,-0.3657255,-0.0097954999999999,0.107973,-0.4054955,0.0117435,-0.125847,-0.7286855,-0.0093264999999999,0.105363,-0.7454255000000001,-0.0137604999999999,0
3,0.004095,0.7569819999999999,0.0757565,-0.1523479999999999,0.469432,0.0634535,-0.2668979999999999,0.350682,-0.0856465,0.148762,0.465102,0.0585885,0.253222,0.331292,-0.0857865,-0.3306179999999999,0.283352,-0.2842865,0.307242,0.255222,-0.3639565,-0.073284,0.002012,0.0001945,0.073284,-0.002012,-0.0001945,-0.125118,-0.3648079999999999,-0.0099585,0.106972,-0.405848,0.0113335,-0.125988,-0.7282080000000001,-0.0100504999999999,0.103102,-0.747498,-0.0113494999999999,0
4,0.000756,0.757498,0.0724085,-0.153471,0.469408,0.0591015,-0.2721409999999999,0.371328,-0.1017695,0.144779,0.467348,0.0539675,0.276559,0.376338,-0.1288595,-0.348011,0.321828,-0.3011795,0.312679,0.302618,-0.3326194999999999,-0.0734779999999999,0.001548,0.0009314999999999,0.0734779999999999,-0.001548,-0.0009315,-0.1232109999999999,-0.364642,-0.0078215,0.1088389999999999,-0.406022,0.0137844999999999,-0.122721,-0.728442,-0.0058255,0.106669,-0.747072,-0.0074385,0
5,0.0008524999999999,0.7565580000000001,0.07278,-0.1561975,0.468728,0.057379,-0.2912275,0.425058,-0.11367,0.1512425,0.468018,0.052183,0.2788724999999999,0.417108,-0.12787,-0.3563175,0.422838,-0.33232,0.3179225,0.429648,-0.34595,-0.0737835,0.001693,0.002234,0.0737835,-0.001693,-0.002234,-0.1229775,-0.3639019999999999,-0.00861,0.1086424999999999,-0.405902,0.012457,-0.1219875,-0.7289019999999999,-0.005135,0.1075425,-0.747352,-0.0093349999999999,0
6,0.0007994999999999,0.754263,0.0726505,-0.1541805,0.472833,0.0537085,-0.3007105,0.469253,-0.1120424999999999,0.1544195,0.467673,0.0499665,0.2920195,0.478153,-0.1240824999999999,-0.3657404999999999,0.517023,-0.3382725,0.3243495,0.530303,-0.3430325,-0.0740595,0.0021829999999999,0.0028334999999999,0.0740595,-0.0021829999999999,-0.0028335,-0.1226705,-0.364687,-0.0100175,0.1084395,-0.408077,0.0108934999999999,-0.1212505,-0.733197,-0.0068795,0.1068495,-0.750327,-0.0103105,0
7,0.0014114999999999,0.749558,0.0729954999999999,-0.1539725,0.473108,0.0531785,-0.2844725,0.4874379999999999,-0.0849845,0.1524275,0.473798,0.0514955,0.2738375,0.497208,-0.0919345,-0.3455125,0.5466679999999999,-0.2812045,0.3076675,0.553828,-0.2892745,-0.0737035,0.0019699999999999,0.0014715,0.0737035,-0.00197,-0.0014715,-0.1230925,-0.374352,-0.0105364999999999,0.1081175,-0.413002,0.0103615,-0.1231325,-0.737732,-0.0091074999999999,0.1068475,-0.7535620000000001,-0.0112195,0
8,0.0012755,0.7472065,0.072711,-0.1538135,0.4750765,0.0516,-0.2845535,0.5206765,-0.085538,0.1521365,0.4765065,0.050812,0.2749565,0.5350765,-0.0924379999999999,-0.3455935,0.6085565000000001,-0.281758,0.3075865,0.6205965,-0.289828,-0.0736805,0.0019745,0.001437,0.0736805,-0.0019745,-0.0014369999999999,-0.1231235,-0.3781635,-0.0107739999999999,0.1078565,-0.4156335,0.009963,-0.1231434999999999,-0.7406335,-0.0092379999999999,0.1064765,-0.7568535,-0.011324,0
9,0.0012275,0.745322,0.07231,-0.1538195,0.476932,0.0507549999999999,-0.2846395,0.553342,-0.084964,0.1518805,0.478942,0.0503679999999999,0.2749105,0.568472,-0.092794,-0.3458195,0.669602,-0.277204,0.3073205,0.685482,-0.283944,-0.0736175,0.0020429999999999,0.001398,0.0736175,-0.0020429999999999,-0.001398,-0.1231095,-0.380748,-0.011157,0.1077505,-0.418288,0.0095249999999999,-0.1231594999999999,-0.742908,-0.009518,0.1064305,-0.759508,-0.01176,0
10,0.0011555,0.743016,0.0720915,-0.1537414999999999,0.479516,0.0502175,-0.2848615,0.582846,-0.0809025,0.1515484999999999,0.481406,0.0501405,0.2746685,0.600536,-0.0882525,-0.3456115,0.722486,-0.2662525,0.3055285,0.739826,-0.2687625,-0.0735305,0.0020669999999999,0.0011854999999999,0.0735305,-0.002067,-0.0011855,-0.1231115,-0.383024,-0.0113735,0.1076685,-0.420814,0.0093064999999999,-0.1232115,-0.745484,-0.0097345,0.1064285,-0.762114,-0.0119765,0
11,0.0010799999999999,0.740651,0.0718274999999999,-0.153813,0.4821109999999999,0.0499624999999999,-0.284463,0.607941,-0.0748215,0.151467,0.4838909999999999,0.0500214999999999,0.2743569999999999,0.626271,-0.0819614999999999,-0.343583,0.765681,-0.2511015,0.303127,0.783241,-0.2459415,-0.07344,0.0020949999999999,0.0010724999999999,0.07344,-0.0020949999999999,-0.0010725,-0.1231329999999999,-0.385009,-0.0114895,0.107627,-0.423249,0.0091884999999999,-0.123253,-0.747749,-0.0095635,0.106377,-0.764609,-0.0120945,0
12,0.001296,0.738285,0.0718075,-0.153828,0.4849749999999999,0.0499345,-0.283018,0.630965,-0.0661144999999999,0.151412,0.486295,0.0504115,0.272602,0.649695,-0.0710025,-0.3390379999999999,0.804335,-0.2321105,0.299622,0.823225,-0.2213205,-0.0733429999999999,0.002107,0.0010485,0.0733429999999999,-0.002107,-0.0010485,-0.123148,-0.388365,-0.0115184999999999,0.1074519999999999,-0.426015,0.0090774999999999,-0.123608,-0.750875,-0.0094625,0.106182,-0.7674650000000001,-0.0123514999999999,0
13,0.0015395,0.7361885,0.0717635,-0.1536855,0.4883785,0.0499435,-0.2790154999999999,0.6522285,-0.0570894999999999,0.1512845,0.4874584999999999,0.0508485,0.2700045,0.6709785,-0.0594185,-0.3329455,0.8386985,-0.2082875,0.2953745,0.8578085000000001,-0.1955375,-0.0732075,0.0021574999999999,0.0010494999999999,0.0732075,-0.0021574999999999,-0.0010495,-0.1231654999999999,-0.3916615,-0.0116365,0.1073045,-0.4287115,0.0089034999999999,-0.1240155,-0.7539515,-0.0097625,0.1059145,-0.7702315,-0.0125965,0
14,0.0018595,0.7345425,0.0715635,-0.1533695,0.4915724999999999,0.0501174999999999,-0.2738495,0.6687525,-0.0481245,0.1509705,0.4880624999999999,0.0514745,0.2670205,0.6883825,-0.0487865,-0.3253395,0.8651325,-0.1847845,0.2904105,0.8836925,-0.1700445,-0.0730285,0.0022244999999999,0.0008925,0.0730285,-0.0022245,-0.0008925,-0.1231994999999999,-0.3946675,-0.0116675,0.1071805,-0.4309475,0.0088204999999999,-0.1244095,-0.7564875,-0.0098845,0.1057105,-0.7725975,-0.0128034999999999,0
15,0.002306,0.7333594999999999,0.0711695,-0.152909,0.4948094999999999,0.0504774999999999,-0.268609,0.6856994999999999,-0.0394954999999999,0.1506809999999999,0.4880994999999999,0.0522065,0.264101,0.7019495,-0.0381405,-0.317709,0.8870294999999999,-0.1615255,0.286661,0.9034795,-0.1468755,-0.072829,0.0022934999999999,0.0006624999999999,0.072829,-0.0022935,-0.0006624999999999,-0.123179,-0.3970405,-0.0116744999999999,0.107111,-0.4329005,0.0087444999999999,-0.124789,-0.7591405,-0.0100545,0.1055909999999999,-0.7748105000000001,-0.0129275,0
16,0.0028004999999999,0.7323590000000001,0.070794,-0.1523325,0.497959,0.051174,-0.2636624999999999,0.701299,-0.031236,0.1504375,0.487959,0.053034,0.2611575,0.713149,-0.027227,-0.3100325,0.906319,-0.139172,0.2832775,0.918519,-0.1231719999999999,-0.0726344999999999,0.0023829999999999,0.000503,0.0726344999999999,-0.002383,-0.000503,-0.1231125,-0.399101,-0.011575,0.1070675,-0.434501,0.00876,-0.1249325,-0.761651,-0.009709,0.1054975,-0.776871,-0.013023,0
17,0.0033629999999999,0.7311835,0.0704055,-0.151603,0.5007835,0.0524905,-0.258683,0.7122935,-0.0234624999999999,0.150087,0.4871935,0.0538825,0.258147,0.7206435,-0.0175644999999999,-0.302793,0.9181135,-0.1187454999999999,0.280417,0.9278335,-0.1025654999999999,-0.072469,0.0024235,0.0004865,0.072469,-0.0024235,-0.0004864999999999,-0.123043,-0.4012965,-0.0113184999999999,0.107017,-0.4364165,0.0088825,-0.125133,-0.7634365,-0.0091344999999999,0.105347,-0.7793865,-0.0129354999999999,0
18,0.003632,0.7303355,0.0699065,-0.15082,0.5036754999999999,0.0536445,-0.2539,0.7215055,-0.0163304999999999,0.14965,0.4864355,0.0545055,0.25526,0.7281055,-0.0095625,-0.29651,0.9268855,-0.1011395,0.2779,0.9344255,-0.0851895,-0.072313,0.0024785,0.0005294999999999,0.072313,-0.0024785,-0.0005294999999999,-0.12297,-0.4036145,-0.0110284999999999,0.1071,-0.4382745,0.0091215,-0.12519,-0.7659645,-0.0086984999999999,0.10543,-0.7813245,-0.0129345,0
19,0.0038745,0.7294965,0.0692855,-0.1499605,0.5058364999999999,0.0547485,-0.2507405,0.7282365,-0.0103844999999999,0.1491895,0.4855664999999999,0.0550835,0.2530595,0.7323965,-0.0025374999999999,-0.2899005,0.9350365,-0.0841485,0.2758095,0.9379465,-0.0701755,-0.0721634999999999,0.0025624999999999,0.0006435,0.0721634999999999,-0.0025625,-0.0006434999999999,-0.1228805,-0.4056435,-0.0107775,0.1071795,-0.4400835,0.0093835,-0.1251505,-0.7682835,-0.0084715,0.1055295,-0.7832835,-0.0129555,0
20,0.004113,0.728389,0.0687135,-0.148653,0.508019,0.0560065,-0.247553,0.7341489999999999,-0.0040175,0.148577,0.484739,0.0556075,0.251067,0.7361989999999999,0.0046055,-0.283783,0.943029,-0.0684765,0.273557,0.941669,-0.0541564999999999,-0.072008,0.002612,0.0008115,0.072008,-0.0026119999999999,-0.0008114999999999,-0.122783,-0.407671,-0.0105745,0.107267,-0.4420409999999999,0.0096135,-0.125103,-0.770911,-0.0083874999999999,0.105637,-0.785551,-0.0130645,0
21,0.004343,0.7273575000000001,0.0681925,-0.147112,0.5103774999999999,0.0574475,-0.2445919999999999,0.7394974999999999,0.0026144999999999,0.1480179999999999,0.4845775,0.0560854999999999,0.248798,0.7387075000000001,0.0118265,-0.277782,0.9498275,-0.0527795,0.271358,0.9438675,-0.0394615,-0.071877,0.0026815,0.0010544999999999,0.071877,-0.0026814999999999,-0.0010544999999999,-0.122542,-0.4084625,-0.0104444999999999,0.107378,-0.4434524999999999,0.0097154999999999,-0.125012,-0.7727124999999999,-0.0076725,0.105838,-0.7878624999999999,-0.0129735,0
22,0.0045345,0.7263274999999999,0.067661,-0.1456515,0.5123475,0.058877,-0.2418615,0.7446974999999999,0.00902,0.1475785,0.4844974999999999,0.0565699999999999,0.2470785,0.7411975,0.018063,-0.2720614999999999,0.9559875,-0.0383229999999999,0.2692885,0.9461275,-0.025269,-0.0717615,0.0027734999999999,0.001343,0.0717615,-0.0027734999999999,-0.001343,-0.1223414999999999,-0.4092725,-0.010375,0.1074685,-0.4447025,0.009808,-0.1249315,-0.7751325,-0.007385,0.1060685,-0.7900125,-0.012954,0
23,0.0046425,0.7250620000000001,0.067344,-0.1442845,0.5140119999999999,0.060349,-0.2392844999999999,0.7498720000000001,0.014632,0.1473155,0.4843719999999999,0.057073,0.2455455,0.742632,0.02379,-0.2665645,0.961722,-0.024921,0.2673655,0.948152,-0.012178,-0.0716865,0.002846,0.0016039999999999,0.0716865,-0.002846,-0.001604,-0.1221845,-0.410058,-0.010347,0.1075155,-0.445788,0.009907,-0.1249245,-0.7773779999999999,-0.0072219999999999,0.1062555,-0.792068,-0.012986,0
24,0.0046954999999999,0.72373,0.0672185,-0.1430445,0.51471,0.0615914999999999,-0.2365545,0.75047,0.0209084999999999,0.1470955,0.48383,0.0575075,0.2440155,0.7428300000000001,0.0292035,-0.2614445,0.96484,-0.0133275,0.2656955,0.95014,-0.0011535,-0.0716344999999999,0.002952,0.0018544999999999,0.0716344999999999,-0.0029519999999999,-0.0018544999999999,-0.1220545,-0.41054,-0.0104255,0.1074455,-0.4469,0.0100574999999999,-0.1249845,-0.7795300000000001,-0.0071155,0.1062954999999999,-0.79396,-0.0128815,0
25,0.0047735,0.7225199999999999,0.0671265,-0.1418275,0.51586,0.0628145,-0.2339575,0.7509,0.0267725,0.1468925,0.4835199999999999,0.0578995,0.2425825,0.7429899999999999,0.0344375,-0.2569575,0.96714,-0.0032344999999999,0.2642425,0.95204,0.0087845,-0.0715745,0.0030759999999999,0.0020405,0.0715745,-0.003076,-0.0020405,-0.1219075,-0.41129,-0.0105544999999999,0.1073925,-0.44794,0.0101565,-0.1249675,-0.78161,-0.0070784999999999,0.1063125,-0.79579,-0.0128314999999999,1
26,0.0048535,0.721642,0.067047,-0.1407455,0.516192,0.0639319999999999,-0.2314655,0.751482,0.032143,0.1467545,0.4834919999999999,0.0582219999999999,0.2413845,0.7432219999999999,0.039129,-0.2529855,0.969532,0.0056629999999999,0.2632045,0.953832,0.0177369999999999,-0.0715254999999999,0.0032159999999999,0.0021669999999999,0.0715254999999999,-0.0032159999999999,-0.002167,-0.1217554999999999,-0.411728,-0.010717,0.1073645,-0.448908,0.0102709999999999,-0.1249655,-0.783018,-0.007308,0.1063345,-0.797278,-0.012816,1
27,0.0049339999999999,0.720886,0.0667799999999999,-0.139733,0.516826,0.064524,-0.229713,0.7520560000000001,0.036334,0.146677,0.483856,0.058255,0.2404869999999999,0.742936,0.042803,-0.249833,0.972026,0.0127749999999999,0.262607,0.954926,0.0244269999999999,-0.07147,0.0033369999999999,0.0022769999999999,0.07147,-0.0033369999999999,-0.0022769999999999,-0.121623,-0.412114,-0.010913,0.107347,-0.449714,0.0102699999999999,-0.124953,-0.7840239999999999,-0.007223,0.106357,-0.798284,-0.012815,1
28,0.005007,0.720129,0.0665365,-0.138726,0.5173989999999999,0.0650495,-0.2283359999999999,0.7521789999999999,0.0397575,0.146544,0.484229,0.0582935,0.239834,0.742489,0.0457365,-0.248506,0.971759,0.0170305,0.2623439999999999,0.955459,0.0290455,-0.071418,0.0034299999999999,0.0023445,0.071418,-0.00343,-0.0023444999999999,-0.121486,-0.412621,-0.0111094999999999,0.1073139999999999,-0.450541,0.0102035,-0.125016,-0.785091,-0.0068974999999999,0.106354,-0.799351,-0.0128804999999999,1
29,0.005031,0.7197745,0.066272,-0.138228,0.5174245000000001,0.065354,-0.227448,0.7526245,0.042121,0.146452,0.4844545,0.058255,0.239452,0.7420645,0.047685,-0.247548,0.9712945,0.020412,0.262122,0.9556945,0.031813,-0.0713999999999999,0.0035024999999999,0.0024379999999999,0.0713999999999999,-0.0035025,-0.0024379999999999,-0.1213779999999999,-0.4127555,-0.011274,0.107292,-0.4509554999999999,0.01011,-0.125088,-0.7852155,-0.006493,0.106392,-0.8000155,-0.012971,1
30,0.005008,0.7192850000000001,0.066025,-0.13808,0.517115,0.065299,-0.22691,0.753245,0.043338,0.1463499999999999,0.484225,0.058155,0.2392699999999999,0.742035,0.0487709999999999,-0.2473,0.970555,0.021556,0.26193,0.956155,0.0331189999999999,-0.071463,0.003614,0.0025329999999999,0.071463,-0.0036139999999999,-0.002533,-0.12133,-0.412705,-0.01137,0.10727,-0.451395,0.0101929999999999,-0.12518,-0.784955,-0.005893,0.10632,-0.800705,-0.012873,1
31,0.0049525,0.718816,0.0657295,-0.1380914999999999,0.516436,0.0651305,-0.2265815,0.7537360000000001,0.0440765,0.1462285,0.483776,0.0579825,0.2390685,0.7421260000000001,0.0495044999999999,-0.2474714999999999,0.969556,0.0218205,0.2618785,0.956756,0.0337035,-0.0715565,0.0036589999999999,0.0026784999999999,0.0715565,-0.003659,-0.0026785,-0.1213114999999999,-0.412794,-0.0115375,0.1072385,-0.4517839999999999,0.0102364999999999,-0.1253515,-0.784654,-0.0057105,0.1062685,-0.801234,-0.0128624999999999,1
32,0.0048769999999999,0.7182740000000001,0.0654105,-0.138247,0.515884,0.0648405,-0.2264769999999999,0.7541840000000001,0.0443034999999999,0.1463129999999999,0.483224,0.0577015,0.238893,0.742204,0.0498895,-0.2476269999999999,0.968804,0.0215305,0.262223,0.957204,0.0334315,-0.071685,0.0037129999999999,0.0028814999999999,0.071685,-0.003713,-0.0028815,-0.121287,-0.412756,-0.0118214999999999,0.107233,-0.451976,0.0102725,-0.125507,-0.784396,-0.0060064999999999,0.106233,-0.801176,-0.0129024999999999,1
33,0.004756,0.718137,0.0650895,-0.1383849999999999,0.515477,0.0644505,-0.2266149999999999,0.754617,0.0439935,0.146425,0.482677,0.0572145,0.238885,0.742457,0.0495845,-0.2477649999999999,0.968717,0.0212205,0.262925,0.957517,0.0331515,-0.071829,0.0036769999999999,0.0030025,0.071829,-0.0036769999999999,-0.0030024999999999,-0.1212949999999999,-0.412543,-0.0120795,0.1072549999999999,-0.451783,0.0103835,-0.125525,-0.783183,-0.0061424999999999,0.106195,-0.800453,-0.0126765,1
34,0.0045894999999999,0.7180365,0.064691,-0.1385395,0.5149064999999999,0.063786,-0.2267795,0.7551065,0.043544,0.1464305,0.4821864999999999,0.056673,0.2389205,0.7427665,0.049142,-0.2479295,0.9685565,0.0207709999999999,0.2637105,0.9580565,0.032736,-0.0720095,0.0036694999999999,0.003077,0.0720095,-0.0036694999999999,-0.003077,-0.1213195,-0.4122035,-0.012382,0.1072704999999999,-0.4515035,0.010384,-0.1255795,-0.7818835000000001,-0.006234,0.1060705,-0.7996635,-0.012618,1
35,0.004413,0.7180435000000001,0.06409,-0.138516,0.5141235000000001,0.0628239999999999,-0.226956,0.7552135,0.042951,0.146254,0.4818135,0.056004,0.238984,0.7430635,0.048558,-0.248536,0.9681835,0.0196399999999999,0.264514,0.9581835,0.03196,-0.072159,0.0036375,0.003129,0.072159,-0.0036375,-0.003129,-0.121366,-0.4125765,-0.012823,0.107264,-0.4513365,0.0103229999999999,-0.125546,-0.7807164999999999,-0.006385,0.105974,-0.7991965,-0.012892,1
36,0.004278,0.7181545,0.06319,-0.138642,0.5135745,0.061542,-0.227362,0.7552745000000001,0.04178,0.146128,0.4815545,0.054984,0.239048,0.7434645,0.047663,-0.249552,0.9683245,0.0172319999999999,0.265388,0.9584245,0.0295269999999999,-0.072296,0.0036805,0.0031219999999999,0.072296,-0.0036804999999999,-0.0031219999999999,-0.121372,-0.4129155,-0.013399,0.107288,-0.4512255,0.0099829999999999,-0.125542,-0.7797554999999999,-0.0076509999999999,0.105888,-0.7987155,-0.013531,1
37,0.004048,0.7183695,0.0620229999999999,-0.138805,0.5130695000000001,0.0599139999999999,-0.227815,0.7553495,0.04001,0.145955,0.4813195,0.053738,0.239065,0.7438895,0.0462,-0.250495,0.9688895,0.013654,0.266175,0.9585895,0.026627,-0.072459,0.0036935,0.003098,0.072459,-0.0036934999999999,-0.003098,-0.121455,-0.4133105,-0.014201,0.107305,-0.4511104999999999,0.0094659999999999,-0.1254549999999999,-0.7779805,-0.008533,0.105695,-0.7982905,-0.0143559999999999,1
38,0.0037485,0.718955,0.0601815,-0.1390315,0.512555,0.0580205,-0.2283615,0.7556550000000001,0.0374115,0.1453085,0.4816750000000001,0.0520595,0.2391184999999999,0.744255,0.0440305,-0.2515314999999999,0.970105,0.0091245,0.2666685,0.958505,0.0228625,-0.0726475,0.003672,0.0031035,0.0726475,-0.003672,-0.0031034999999999,-0.1215715,-0.413995,-0.0154614999999999,0.1072885,-0.451115,0.0085775,-0.1255515,-0.776505,-0.0100734999999999,0.1054384999999999,-0.797945,-0.0157515,1
39,0.0033935,0.719135,0.057735,-0.1392275,0.512555,0.05588,-0.2288475,0.755715,0.033986,0.1445625,0.4816750000000001,0.0499499999999999,0.2392225,0.744255,0.041276,-0.2524275,0.971405,0.00347,0.2669825,0.958505,0.018451,-0.0728255,0.003672,0.003327,0.0728255,-0.003672,-0.003327,-0.1216175,-0.414855,-0.017425,0.1073625,-0.451115,0.0068489999999999,-0.1257675,-0.776505,-0.012164,0.1053225,-0.797945,-0.017838,1
40,0.003002,0.719165,0.054987,-0.139622,0.512225,0.053419,-0.229292,0.755715,0.030104,0.143988,0.4816750000000001,0.047586,0.239358,0.744255,0.038102,-0.253262,0.972005,-0.002644,0.267168,0.958505,0.013561,-0.073026,0.003672,0.0034339999999999,0.073026,-0.003672,-0.0034339999999999,-0.1216019999999999,-0.4155549999999999,-0.019618,0.107488,-0.451115,0.00458,-0.125932,-0.776505,-0.014488,0.105128,-0.797945,-0.020163,1
41,0.0026364999999999,0.719165,0.051949,-0.1400805,0.511965,0.050689,-0.2298405,0.755715,0.025418,0.1434895,0.481605,0.044959,0.2394994999999999,0.744255,0.034385,-0.2539405,0.972305,-0.009183,0.2672995,0.958505,0.008216,-0.0732515,0.003672,0.003406,0.0732515,-0.003672,-0.0034059999999999,-0.1215405,-0.416425,-0.022114,0.1076495,-0.451115,0.0020109999999999,-0.1260505,-0.776505,-0.017143,0.1049995,-0.797945,-0.022742,1
42,0.0021945,0.7198720000000001,0.048212,-0.1404315,0.511812,0.047184,-0.2304614999999999,0.756352,0.019788,0.1430685,0.482022,0.041591,0.2396985,0.744422,0.029691,-0.2545815,0.973032,-0.016576,0.2674985,0.957732,0.001651,-0.0734485,0.003581,0.003271,0.0734485,-0.003581,-0.0032709999999999,-0.1213315,-0.4180779999999999,-0.0254109999999999,0.1079685,-0.451318,-0.001312,-0.1261215,-0.775698,-0.0213459999999999,0.1050485,-0.797688,-0.0265149999999999,1
43,0.0017614999999999,0.7208265,0.043529,-0.1407594999999999,0.5121465000000001,0.042869,-0.2310095,0.7574365000000001,0.01288,0.1427405,0.4822464999999999,0.037389,0.2400005,0.7449165000000001,0.023615,-0.2551895,0.9742865,-0.025735,0.2678105,0.9567865,-0.006611,-0.0735835,0.0034835,0.002973,0.0735835,-0.0034835,-0.002973,-0.1210295,-0.4195835,-0.0295199999999999,0.1084405,-0.4519035,-0.0054149999999999,-0.1260695,-0.7759535,-0.0269319999999999,0.1052105,-0.7972535,-0.031098,1
44,0.001425,0.7219690000000001,0.038297,-0.1409379999999999,0.512529,0.038298,-0.231538,0.758619,0.005404,0.142522,0.482589,0.032907,0.240432,0.745379,0.016889,-0.255668,0.975879,-0.035438,0.2682319999999999,0.955779,-0.015489,-0.07366,0.00338,0.002685,0.07366,-0.0033799999999999,-0.002685,-0.1206879999999999,-0.420941,-0.03392,0.109002,-0.452271,-0.009914,-0.125958,-0.775451,-0.032786,0.105332,-0.797051,-0.036077,1
45,0.0009885,0.722267,0.0318185,-0.1411825,0.512927,0.0329024999999999,-0.2321325,0.7596769999999999,-0.0036345,0.1422075,0.483127,0.0275545,0.2406875,0.745737,0.0084134999999999,-0.2562824999999999,0.977157,-0.0471065,0.2686375,0.954557,-0.0267435,-0.0737255,0.0032299999999999,0.0025035,0.0737255,-0.00323,-0.0025035,-0.1204125,-0.421993,-0.0391765,0.1095875,-0.452033,-0.0155744999999999,-0.1258525,-0.7758430000000001,-0.0397995,0.1056675,-0.7967230000000001,-0.0427405,1
46,0.000484,0.7221635000000001,0.0247989999999999,-0.141417,0.5132235,0.0271359999999999,-0.232487,0.7604135000000001,-0.013329,0.141923,0.4836135,0.021827,0.240983,0.7459035,-0.001039,-0.257007,0.9778335,-0.05909,0.269153,0.9531335,-0.0388979999999999,-0.073776,0.0030654999999999,0.002382,0.073776,-0.0030655,-0.002382,-0.120287,-0.4230665,-0.044804,0.110153,-0.4518565,-0.021793,-0.125877,-0.7761865,-0.0471549999999999,0.106053,-0.7963165,-0.049692,1
47,-2.849999999999641e-05,0.7219135,0.0174135,-0.1416245,0.5135835,0.0210955,-0.2328245,0.7596235,-0.0236265,0.1419255,0.4840735,0.0158035,0.2412855,0.7459435,-0.0109354999999999,-0.2576445,0.9782035,-0.0713844999999999,0.2697354999999999,0.9515035,-0.0514755,-0.0737765,0.0029024999999999,0.0023375,0.0737765,-0.0029025,-0.0023374999999999,-0.1201245,-0.4235265,-0.0507045,0.1107255,-0.4519265,-0.0283835,-0.1259945,-0.7764065,-0.0548225,0.1062255,-0.7957665,-0.0568885,1
48,-0.0006714999999999,0.7210605,0.008846,-0.1420054999999999,0.5140705000000001,0.0144269999999999,-0.2332555,0.7593105,-0.035346,0.1417345,0.4843605,0.008988,0.2415845,0.7435305000000001,-0.022612,-0.2584555,0.9772505,-0.085386,0.2702745,0.9481105,-0.065603,-0.0738435,0.0027184999999999,0.0020489999999999,0.0738435,-0.0027184999999999,-0.002049,-0.1200155,-0.4230295,-0.057276,0.1112445,-0.4509495,-0.035836,-0.1262355,-0.7762895,-0.063142,0.1065545,-0.7946595,-0.064599,1
49,-0.0012634999999999,0.719131,-0.0012039999999999,-0.1423235,0.514921,0.006776,-0.2336835,0.754111,-0.048683,0.1416165,0.484791,0.001187,0.2421465,0.741131,-0.035634,-0.2592934999999999,0.974031,-0.101723,0.2708965,0.944761,-0.081984,-0.0739145,0.002479,0.001879,0.0739145,-0.002479,-0.0018789999999999,-0.1197834999999999,-0.422039,-0.0652099999999999,0.1120465,-0.449159,-0.0444679999999999,-0.1263235,-0.775359,-0.072088,0.1070165,-0.7927390000000001,-0.073166,1
50,-0.0018094999999999,0.7165195,-0.0119909999999999,-0.1428335,0.5156995,-0.001496,-0.2338835,0.7495795,-0.062007,0.1416865,0.4847295,-0.0071239999999999,0.2427665,0.7378195,-0.0492429999999999,-0.2601535,0.9715695,-0.119246,0.2716665,0.9417295,-0.0991409999999999,-0.0740935,0.0022794999999999,0.001785,0.0740935,-0.0022795,-0.0017849999999999,-0.1195235,-0.4203905,-0.073691,0.1131365,-0.4467005,-0.0538489999999999,-0.1263135,-0.7737105,-0.081384,0.1075965,-0.7901805,-0.082079,1
51,-0.0024699999999999,0.7134675,-0.0248185,-0.143252,0.5138775,-0.0115135,-0.2339419999999999,0.7437375,-0.0776425,0.141438,0.4843375,-0.0172385,0.243458,0.7336375,-0.0648415,-0.261282,0.9650875,-0.1402275,0.272638,0.9385075,-0.1189045,-0.074269,0.0020495,0.0017424999999999,0.074269,-0.0020494999999999,-0.0017425,-0.119272,-0.4178425,-0.0833615,0.114318,-0.4427325,-0.0639185,-0.1262019999999999,-0.7710524999999999,-0.0909365,0.108278,-0.7863625,-0.0919805,1
52,-0.0032325,0.7105085000000001,-0.0392725,-0.1434735,0.5115685000000001,-0.0232534999999999,-0.2339935,0.7375385000000001,-0.0953405,0.1405765,0.4834885,-0.0291664999999999,0.2441665,0.7296885000000001,-0.0821075,-0.2627035,0.9593385,-0.1630845,0.2739865,0.9359785,-0.1406454999999999,-0.0744595,0.0017794999999999,0.0018375,0.0744595,-0.0017794999999999,-0.0018374999999999,-0.1190435,-0.4133915,-0.0941115,0.1154665,-0.4367215,-0.0746864999999999,-0.1261135,-0.7660815,-0.1011924999999999,0.1087365,-0.7802414999999999,-0.1025935,1
53,-0.003835,0.706768,-0.0543079999999999,-0.143462,0.5089279999999999,-0.035581,-0.233832,0.7304579999999999,-0.1137249999999999,0.1397779999999999,0.482458,-0.0418189999999999,0.245038,0.725278,-0.100087,-0.264142,0.953438,-0.187031,0.275698,0.933218,-0.163411,-0.074511,0.001503,0.002027,0.074511,-0.001503,-0.0020269999999999,-0.118672,-0.408672,-0.1052849999999999,0.116908,-0.4304219999999999,-0.085951,-0.125622,-0.760722,-0.1117819999999999,0.109218,-0.7735120000000001,-0.1135269999999999,1
54,-0.0044129999999999,0.703387,-0.0712365,-0.1427139999999999,0.506817,-0.0482035,-0.2331939999999999,0.7215469999999999,-0.1332775,0.138936,0.481607,-0.0549375,0.245986,0.7188869999999999,-0.1192125,-0.264734,0.946637,-0.2133995,0.2778359999999999,0.929897,-0.1877295,-0.074608,0.001287,0.0021014999999999,0.074608,-0.001287,-0.0021015,-0.1184339999999999,-0.400563,-0.1168865,0.118546,-0.422313,-0.0972865,-0.125164,-0.754613,-0.1221045,0.109716,-0.7654030000000001,-0.1237425,1
55,-0.0049949999999999,0.6972689999999999,-0.0900865,-0.141788,0.5018389999999999,-0.0634635,-0.232658,0.712519,-0.1553475,0.138072,0.479929,-0.0701865,0.247262,0.711669,-0.1411715,-0.265078,0.940289,-0.2437325,0.280182,0.921029,-0.2146425,-0.074799,0.0008079999999999,0.0021734999999999,0.074799,-0.000808,-0.0021735,-0.118418,-0.389471,-0.1300045,0.120322,-0.410521,-0.1099015,-0.124608,-0.7450410000000001,-0.1333435,0.110542,-0.754401,-0.1352075,1
56,-0.0047635,0.6924465,-0.1130674999999999,-0.1406125,0.4973964999999999,-0.0826845,-0.2314125,0.7055165,-0.1811105,0.1373475,0.4783064999999999,-0.0896304999999999,0.2487275,0.7047365,-0.1670875,-0.2650825,0.9310665,-0.2776505,0.2827874999999999,0.9126965,-0.2449105,-0.0750685,0.0005394999999999,0.0017035,0.0750685,-0.0005395,-0.0017034999999999,-0.1182725,-0.3770135,-0.1471825,0.1223775,-0.3972135,-0.1267434999999999,-0.1235825,-0.7337135,-0.1480635,0.1116274999999999,-0.7423835,-0.1508225,1
57,-0.0038014999999999,0.6874195,-0.135841,-0.1390815,0.4900894999999999,-0.1022039999999999,-0.2296615,0.6939495,-0.206612,0.1366885,0.4750295,-0.1094719999999999,0.2505585,0.7012995,-0.1923019999999999,-0.2646415,0.9200995,-0.3103399999999999,0.2857985,0.9087895,-0.27607,-0.0752675,0.0001394999999999,0.00134,0.0752675,-0.0001395,-0.0013399999999999,-0.1187715,-0.3610105,-0.1667719999999999,0.1254085,-0.3779505,-0.146727,-0.1222915,-0.7197405,-0.163094,0.1127785,-0.7276505,-0.1658,1
58,-0.0023805,0.681957,-0.15791,-0.1369075,0.482897,-0.12168,-0.2273675,0.688387,-0.23138,0.1362324999999999,0.471117,-0.129403,0.2527725,0.696397,-0.218473,-0.2635174999999999,0.910817,-0.34257,0.2892725,0.903777,-0.3073099999999999,-0.0754235,-1.1000000000004062e-05,0.0009099999999999,0.0754235,1.0999999999997123e-05,-0.00091,-0.1189375,-0.344383,-0.18581,0.1285525,-0.358183,-0.166731,-0.1208175,-0.704733,-0.177807,0.1141824999999999,-0.711783,-0.18046,1
59,-0.0008274999999999,0.67408,-0.179905,-0.1344894999999999,0.47422,-0.141924,-0.2251294999999999,0.6800999999999999,-0.25769,0.1357304999999999,0.4657,-0.149723,0.2554405,0.69113,-0.24495,-0.2622195,0.89715,-0.37412,0.2929605,0.8975799999999999,-0.33984,-0.0756695,-0.0002199999999999,0.0004399999999999,0.0756695,0.00022,-0.00044,-0.1192595,-0.32543,-0.205895,0.1315305,-0.3362199999999999,-0.187685,-0.1192295,-0.68666,-0.192819,0.1154605,-0.69328,-0.195286,1
60,0.0011049999999999,0.66572,-0.200938,-0.131961,0.4679,-0.161045,-0.223191,0.6711,-0.282275,0.1360589999999999,0.46041,-0.168738,0.258499,0.68527,-0.271275,-0.259711,0.8862,-0.406155,0.296919,0.89063,-0.371615,-0.075894,-0.00028,3.500000000000725e-05,0.075894,0.0002799999999999,-3.500000000000725e-05,-0.119721,-0.3051899999999999,-0.225842,0.134639,-0.3127,-0.209079,-0.117521,-0.66627,-0.207225,0.116799,-0.67223,-0.20943,1
61,0.0032039999999999,0.6570105,-0.219389,-0.129064,0.4625605,-0.177626,-0.221794,0.6598105000000001,-0.3037499999999999,0.1370159999999999,0.4559005,-0.185157,0.261326,0.6788805,-0.2948199999999999,-0.257884,0.8741005000000001,-0.43478,0.299866,0.8828705,-0.4,-0.076075,-0.0001805,-0.0003699999999999,0.076075,0.0001805,0.00037,-0.120474,-0.2859995,-0.244048,0.1377359999999999,-0.2907795,-0.2288569999999999,-0.115924,-0.6469995,-0.2200369999999999,0.117786,-0.6522395,-0.222055,1
62,0.0052705,0.64935,-0.237109,-0.1261145,0.45862,-0.1934499999999999,-0.2204045,0.6491899999999999,-0.325395,0.1380154999999999,0.4517599999999999,-0.200716,0.2638855,0.67001,-0.317415,-0.2560745,0.86003,-0.462465,0.3024955,0.87062,-0.4276649999999999,-0.0762575,8.999999999999286e-05,-0.000865,0.0762575,-9.000000000000674e-05,0.000865,-0.1212745,-0.26653,-0.2617819999999999,0.1407354999999999,-0.26858,-0.248216,-0.1143845,-0.62705,-0.232327,0.1191455,-0.63142,-0.234088,1
63,0.0071115,0.639615,-0.252572,-0.1236485,0.449905,-0.209326,-0.2189785,0.6406449999999999,-0.346685,0.1388615,0.4447149999999999,-0.216373,0.2660315,0.663575,-0.338125,-0.2545385,0.8476549999999999,-0.488215,0.3049215,0.860285,-0.453285,-0.0764975,-9.500000000001174e-05,-0.001305,0.0764975,9.4999999999984e-05,0.001305,-0.1223285,-0.243185,-0.280262,0.1436715,-0.243755,-0.268049,-0.1132185,-0.6038250000000001,-0.243854,0.1197815,-0.607105,-0.244498,1
64,0.0089215,0.633575,-0.265467,-0.1215795,0.444225,-0.222829,-0.2183095,0.6298250000000001,-0.364715,0.1394305,0.438725,-0.229842,0.2676905,0.656595,-0.355305,-0.2533195,0.832055,-0.509775,0.3071205,0.8511550000000001,-0.475935,-0.0766075,0.000365,-0.0018149999999999,0.0766075,-0.000365,0.001815,-0.1233894999999999,-0.219575,-0.297518,0.1462805,-0.219335,-0.286925,-0.1123994999999999,-0.580805,-0.2537129999999999,0.1202805,-0.582945,-0.253223,1
65,0.0103564999999999,0.625945,-0.273876,-0.1199075,0.438925,-0.231786,-0.2177575,0.618345,-0.377915,0.1395325,0.433695,-0.238519,0.2689525,0.643695,-0.367795,-0.2524075,0.816665,-0.527215,0.3086025,0.8412850000000001,-0.494035,-0.0767615,0.000565,-0.001875,0.0767615,-0.000565,0.0018749999999999,-0.1248674999999999,-0.1961949999999999,-0.310495,0.1485625,-0.195455,-0.301525,-0.1120675,-0.558365,-0.25952,0.1204124999999999,-0.559375,-0.257579,1
66,0.0117455,0.616885,-0.282325,-0.1193434999999999,0.434585,-0.240153,-0.2176834999999999,0.609335,-0.38913,0.1393365,0.428505,-0.2462339999999999,0.2695965,0.630595,-0.3795199999999999,-0.2514734999999999,0.805205,-0.54375,0.3093565,0.827475,-0.5104,-0.0770214999999999,0.000805,-0.0019699999999999,0.0770214999999999,-0.000805,0.0019699999999999,-0.1260434999999999,-0.1719649999999999,-0.32059,0.1500265,-0.171225,-0.3122,-0.1121534999999999,-0.534135,-0.264107,0.1199665,-0.534745,-0.260558,1
67,0.01242,0.60994,-0.289799,-0.119016,0.43056,-0.247303,-0.2178959999999999,0.59824,-0.39942,0.139014,0.42402,-0.25268,0.269954,0.61988,-0.3886199999999999,-0.250846,0.79083,-0.55923,0.309734,0.81548,-0.52459,-0.077088,0.00084,-0.0019899999999999,0.077088,-0.00084,0.00199,-0.1274559999999999,-0.1490999999999999,-0.3297899999999999,0.151294,-0.14825,-0.32164,-0.112426,-0.51127,-0.268024,0.119284,-0.51139,-0.262905,1
68,0.012665,0.605695,-0.296355,-0.118809,0.4285049999999999,-0.252885,-0.217889,0.589085,-0.408045,0.138741,0.421045,-0.257968,0.270151,0.611105,-0.397355,-0.250399,0.781045,-0.573795,0.310171,0.802955,-0.5364949999999999,-0.077098,0.0009449999999999,-0.002005,0.077098,-0.000945,0.002005,-0.128759,-0.128535,-0.336955,0.152491,-0.127525,-0.329065,-0.112839,-0.490705,-0.270809,0.118561,-0.4903350000000001,-0.264401,1
69,0.0127755,0.59926,-0.301508,-0.1187825,0.42299,-0.2584349999999999,-0.2190325,0.5813900000000001,-0.41623,0.1378475,0.41645,-0.263231,0.2701375,0.60286,-0.4034999999999999,-0.2509725,0.77061,-0.58492,0.3101775,0.79098,-0.54585,-0.0772495,0.00068,-0.0020299999999999,0.0772495,-0.00068,0.00203,-0.1299125,-0.11329,-0.34253,0.1535075,-0.11208,-0.3347299999999999,-0.1130824999999999,-0.47237,-0.2734149999999999,0.1179575,-0.47163,-0.265745,1
70,0.012619,0.5927899999999999,-0.3075799999999999,-0.119367,0.4166999999999999,-0.264913,-0.220327,0.57345,-0.42582,0.136793,0.41149,-0.269139,0.268893,0.59127,-0.40975,-0.2516969999999999,0.75679,-0.59799,0.309683,0.7783899999999999,-0.55646,-0.07769,0.0003199999999999,-0.0020399999999999,0.07769,-0.0003199999999999,0.00204,-0.131077,-0.09676,-0.34829,0.154233,-0.09459,-0.34057,-0.113617,-0.4536,-0.276633,0.117623,-0.4518999999999999,-0.266987,1
71,0.010619,0.586595,-0.313492,-0.120128,0.409055,-0.271463,-0.222038,0.565625,-0.43434,0.135992,0.406033,-0.274812,0.268252,0.582215,-0.41552,-0.252408,0.744775,-0.6109100000000001,0.309232,0.769675,-0.5662,-0.078274,-0.0001349999999999,-0.00214,0.078274,0.0001349999999999,0.00214,-0.1320779999999999,-0.0800049999999999,-0.3537599999999999,0.1550619999999999,-0.076585,-0.34593,-0.113748,-0.4351849999999999,-0.279996,0.117322,-0.432165,-0.26847,1
72,0.0084094999999999,0.583855,-0.3184249999999999,-0.1207035,0.4057079999999999,-0.276333,-0.2230135,0.5552549999999999,-0.44059,0.1353265,0.4036169999999999,-0.278478,0.2675065,0.571735,-0.4199699999999999,-0.2525535,0.730985,-0.62215,0.3087065,0.758505,-0.57376,-0.0787015,-0.000205,-0.0021999999999999,0.0787015,0.0002049999999999,0.0022,-0.1326035,-0.066165,-0.35665,0.1560565,-0.061745,-0.34906,-0.1137335,-0.420625,-0.282275,0.1174865,-0.416535,-0.2693319999999999,1
73,0.005682,0.580395,-0.323025,-0.121622,0.402248,-0.280055,-0.223662,0.546865,-0.446735,0.134298,0.401007,-0.28118,0.266598,0.562145,-0.423485,-0.253152,0.717975,-0.6321950000000001,0.308408,0.7509950000000001,-0.580635,-0.079194,-0.000595,-0.0022849999999999,0.079194,0.000595,0.002285,-0.133392,-0.0544749999999999,-0.358395,0.156728,-0.0488049999999999,-0.3507249999999999,-0.114042,-0.4084649999999999,-0.284005,0.117338,-0.4032249999999999,-0.2693419999999999,1
74,0.0047635,0.57701,-0.32741,-0.1219564999999999,0.396412,-0.284655,-0.2241564999999999,0.53762,-0.4535099999999999,0.1336835,0.395538,-0.284714,0.2661435,0.55809,-0.4279699999999999,-0.2530765,0.70804,-0.64299,0.3086135,0.74377,-0.58868,-0.0793875,-0.0009199999999999,-0.0023799999999999,0.0793875,0.0009199999999999,0.0023799999999999,-0.1339665,-0.0412799999999999,-0.35926,0.1572035,-0.0355699999999999,-0.3515,-0.1140564999999999,-0.39507,-0.284955,0.1175735,-0.38945,-0.269652,1
75,0.0054435,0.57646,-0.330195,-0.1223205,0.393111,-0.288673,-0.2245505,0.53052,-0.460185,0.1324095,0.393047,-0.288118,0.2658595,0.5556099999999999,-0.432665,-0.2528705,0.69736,-0.653525,0.3089195,0.7364299999999999,-0.596455,-0.0796425,-0.00113,-0.002415,0.0796425,0.0011299999999999,0.002415,-0.1344405,-0.02893,-0.360825,0.1575495,-0.0229,-0.352335,-0.1146204999999999,-0.3831300000000001,-0.285831,0.1186495,-0.3753000000000001,-0.269862,1
76,0.005855,0.57672,-0.3329499999999999,-0.122698,0.389343,-0.292707,-0.224528,0.5257,-0.4668299999999999,0.130762,0.3907609999999999,-0.291433,0.265572,0.55211,-0.43721,-0.252738,0.6884699999999999,-0.66309,0.3095219999999999,0.72815,-0.60348,-0.079902,-0.00146,-0.0025099999999999,0.079902,0.0014599999999999,0.00251,-0.134888,-0.0158699999999999,-0.36167,0.157932,-0.0094,-0.35316,-0.115458,-0.37035,-0.2866959999999999,0.119722,-0.35747,-0.270028,1
77,0.0064129999999999,0.570675,-0.33567,-0.12315,0.384519,-0.296625,-0.2241,0.519595,-0.47262,0.12912,0.387486,-0.294651,0.26572,0.544995,-0.43984,-0.25245,0.679365,-0.67151,0.31048,0.721095,-0.61,-0.080176,-0.0018349999999999,-0.00256,0.080176,0.0018349999999999,0.00256,-0.1350199999999999,0.0007849999999999,-0.3625,0.15874,0.007535,-0.35336,-0.11592,-0.354005,-0.287532,0.1201,-0.340165,-0.269787,1
78,0.0068899999999999,0.566595,-0.337975,-0.122849,0.3831929999999999,-0.299349,-0.222909,0.5129389999999999,-0.477605,0.128381,0.3857849999999999,-0.296655,0.266521,0.538555,-0.442395,-0.251939,0.670315,-0.678905,0.311571,0.715025,-0.616055,-0.080319,-0.001845,-0.0026149999999999,0.080319,0.0018449999999999,0.002615,-0.134719,0.0130849999999999,-0.3632849999999999,0.159801,0.0231849999999999,-0.352715,-0.116239,-0.339825,-0.2873,0.120921,-0.324125,-0.269541,1
79,0.0064699999999999,0.562195,-0.338615,-0.1222689999999999,0.381969,-0.3008119999999999,-0.221629,0.50784,-0.481105,0.128091,0.3841759999999999,-0.297635,0.267471,0.534185,-0.444625,-0.251159,0.664155,-0.684265,0.312571,0.708905,-0.619755,-0.080237,-0.001875,-0.0026549999999999,0.080237,0.001875,0.0026549999999999,-0.134329,0.0236049999999999,-0.363035,0.160861,0.0369749999999999,-0.3516249999999999,-0.116699,-0.327065,-0.286677,0.122801,-0.3087149999999999,-0.270095,1
80,0.0058294999999999,0.55794,-0.33934,-0.1216615,0.381766,-0.302071,-0.2212115,0.502366,-0.48414,0.1278085,0.383859,-0.29868,0.2683185,0.530117,-0.44697,-0.2510415,0.65627,-0.68879,0.3136085,0.70351,-0.62322,-0.0801235,-0.00186,-0.00265,0.0801235,0.0018599999999999,0.0026499999999999,-0.1340515,0.03493,-0.36272,0.1617185,0.05119,-0.35,-0.1172615,-0.31389,-0.286119,0.1246885,-0.29283,-0.270731,1
81,0.0055004999999999,0.552173,-0.340355,-0.1208685,0.38188,-0.303491,-0.2201885,0.499079,-0.486505,0.1278115,0.383554,-0.29992,0.2693315,0.527002,-0.449295,-0.2508884999999999,0.650085,-0.6919649999999999,0.3152115,0.699045,-0.626375,-0.0799035,-0.001715,-0.002715,0.0799035,0.001715,0.0027149999999999,-0.1335485,0.046285,-0.362045,0.1641815,0.060985,-0.348475,-0.1175885,-0.3004949999999999,-0.28541,0.1268815,-0.276995,-0.272311,1
82,0.005835,0.5441819999999999,-0.34156,-0.1200079999999999,0.380976,-0.305356,-0.219158,0.4969099999999999,-0.48895,0.127892,0.381973,-0.301743,0.270652,0.52482,-0.45203,-0.250648,0.64696,-0.69538,0.316842,0.6935899999999999,-0.6292800000000001,-0.079616,-0.00153,-0.0027999999999999,0.079616,0.0015299999999999,0.0027999999999999,-0.133048,0.0579799999999999,-0.36095,0.166712,0.07077,-0.34663,-0.118098,-0.28678,-0.285305,0.130182,-0.26095,-0.279387,1
83,0.0076624999999999,0.53697,-0.342655,-0.1194615,0.38177,-0.306727,-0.2184815,0.4957499999999999,-0.491045,0.1275585,0.3826199999999999,-0.303144,0.2715185,0.523046,-0.453915,-0.2508115,0.64381,-0.697755,0.3180785,0.68841,-0.6312150000000001,-0.0791265,-0.0013299999999999,-0.002945,0.0791265,0.0013299999999999,0.002945,-0.1327015,0.0688099999999999,-0.359815,0.1689685,0.0794499999999999,-0.344725,-0.1189715,-0.2739,-0.284938,0.1308285,-0.24728,-0.280234,1
84,0.0096845,0.529629,-0.34303,-0.1190345,0.38202,-0.308024,-0.2179845,0.494534,-0.49314,0.1280255,0.38255,-0.304439,0.2722255,0.519055,-0.4552,-0.2511445,0.6406700000000001,-0.69929,0.3190555,0.6846800000000001,-0.63249,-0.0786945,-0.00108,-0.0030799999999999,0.0786945,0.00108,0.0030799999999999,-0.1325144999999999,0.07642,-0.35856,0.1710855,0.08495,-0.34275,-0.1193745,-0.2642899999999999,-0.284181,0.1299354999999999,-0.2373099999999999,-0.278632,1
85,0.0114845,0.521605,-0.34167,-0.1188915,0.382135,-0.307895,-0.2177815,0.492736,-0.49301,0.1281985,0.382335,-0.304309,0.2726485,0.51782,-0.45545,-0.2517815,0.638055,-0.69919,0.3197185,0.684155,-0.63234,-0.0785115,-0.000835,-0.0031599999999999,0.0785115,0.000835,0.0031599999999999,-0.1325915,0.0822149999999999,-0.35687,0.1719085,0.0939849999999999,-0.33921,-0.1197315,-0.256465,-0.281965,0.1283685,-0.229615,-0.27569,1
86,0.0129829999999999,0.52305,-0.340595,-0.118464,0.38358,-0.307918,-0.217354,0.494181,-0.493065,0.128626,0.38378,-0.304298,0.273266,0.519265,-0.455495,-0.252094,0.6395,-0.699275,0.320636,0.6856,-0.632375,-0.0782839999999999,-0.0001999999999999,-0.002935,0.0782839999999999,0.0001999999999999,0.0029349999999999,-0.132254,0.08368,-0.355495,0.173016,0.0956799999999999,-0.338075,-0.119624,-0.25502,-0.281437,0.129966,-0.22375,-0.274822,1
87,0.0138799999999999,0.5232100000000001,-0.3397799999999999,-0.1184709999999999,0.3837400000000001,-0.307917,-0.217351,0.4943410000000001,-0.49334,0.129009,0.38394,-0.303888,0.273459,0.519425,-0.45503,-0.252741,0.6396600000000001,-0.6992799999999999,0.321139,0.68576,-0.6316299999999999,-0.078055,-3.999999999992898e-05,-0.0026799999999999,0.078055,4.000000000004e-05,0.00268,-0.132171,0.08384,-0.35446,0.173659,0.09592,-0.3377699999999999,-0.119881,-0.25476,-0.281721,0.130299,-0.2200399999999999,-0.273513,1
88,0.0146315,0.5232100000000001,-0.338635,-0.1185374999999999,0.3837400000000001,-0.307546,-0.2176875,0.4943410000000001,-0.493065,0.1289925,0.38394,-0.30323,0.2735425,0.519425,-0.454175,-0.2533674999999999,0.6396600000000001,-0.698255,0.3214025,0.68576,-0.630195,-0.0777765,-3.999999999992898e-05,-0.002645,0.0777765,4.000000000004e-05,0.002645,-0.1321874999999999,0.08454,-0.354285,0.1742125,0.0962,-0.337765,-0.1199774999999999,-0.25259,-0.281748,0.1291125,-0.2237199999999999,-0.274216,1
89,0.0151675,0.5261490000000001,-0.33761,-0.1181415,0.3857900000000001,-0.306184,-0.2182515,0.497399,-0.4916399999999999,0.1309385,0.38685,-0.30175,0.2741584999999999,0.5208440000000001,-0.45254,-0.2545615,0.6429,-0.69632,0.3217985,0.68837,-0.62866,-0.0773345,-3.999999999992898e-05,-0.0025399999999999,0.0773345,4.000000000004e-05,0.0025399999999999,-0.1321815,0.08369,-0.35426,0.1758885,0.0957,-0.33763,-0.1199015,-0.2539499999999999,-0.281663,0.1264885,-0.2289199999999999,-0.271363,1
90,0.0143455,0.530943,-0.33724,-0.1183235,0.38842,-0.305568,-0.2184535,0.501871,-0.49024,0.1320365,0.39048,-0.3011729999999999,0.2742165,0.52449,-0.45154,-0.2563335,0.64779,-0.6947,0.3217565,0.69272,-0.62774,-0.0771335,0.00024,-0.0024799999999999,0.0771335,-0.00024,0.00248,-0.1324135,0.08578,-0.3549299999999999,0.1754965,0.09419,-0.33831,-0.1202835,-0.25287,-0.282737,0.1254065,-0.23397,-0.272541,1
91,0.013757,0.5359720000000001,-0.33737,-0.118503,0.390955,-0.305107,-0.219273,0.5088980000000001,-0.48824,0.133017,0.393955,-0.300857,0.274417,0.5307350000000001,-0.44994,-0.258283,0.655405,-0.6922200000000001,0.321887,0.6995650000000001,-0.6264700000000001,-0.0771459999999999,0.000805,-0.0023799999999999,0.0771459999999999,-0.0008049999999999,0.0023799999999999,-0.132453,0.087175,-0.35539,0.175287,0.091845,-0.33889,-0.120433,-0.2529149999999999,-0.28491,0.124577,-0.2365249999999999,-0.273624,1
92,0.0130009999999999,0.546303,-0.336215,-0.119042,0.396105,-0.304082,-0.2205919999999999,0.517734,-0.485905,0.133608,0.398395,-0.299975,0.274238,0.53898,-0.446985,-0.261022,0.6671050000000001,-0.688685,0.321938,0.708975,-0.623015,-0.077084,0.000925,-0.002375,0.077084,-0.0009249999999999,0.0023749999999999,-0.132842,0.084775,-0.355575,0.174748,0.085135,-0.340265,-0.120942,-0.257795,-0.287035,0.125728,-0.2415849999999999,-0.276722,1
93,0.011754,0.553679,-0.333835,-0.120099,0.396965,-0.301797,-0.222769,0.524431,-0.480615,0.133851,0.399624,-0.298176,0.273711,0.544797,-0.443065,-0.2646489999999999,0.678815,-0.6824749999999999,0.321721,0.7169449999999999,-0.617745,-0.077242,0.000755,-0.002255,0.077242,-0.000755,0.002255,-0.1336889999999999,0.0731749999999999,-0.355145,0.172611,0.074625,-0.340405,-0.121029,-0.271875,-0.288396,0.126321,-0.255845,-0.27892,1
94,0.0113954999999999,0.563236,-0.330215,-0.1211935,0.399729,-0.298326,-0.2250435,0.53106,-0.4757949999999999,0.1341165,0.402282,-0.295407,0.2730365,0.549724,-0.437705,-0.2683935,0.688,-0.673745,0.3214765,0.7292,-0.611265,-0.0773405,0.00067,-0.0020749999999999,0.0773405,-0.00067,0.002075,-0.1343635,0.0588599999999999,-0.354915,0.1705964999999999,0.0617099999999999,-0.340595,-0.1206635,-0.28915,-0.288726,0.1231464999999999,-0.27532,-0.2718299999999999,1
95,0.0112205,0.574515,-0.326414,-0.1219855,0.402394,-0.2944839999999999,-0.2271854999999999,0.5378080000000001,-0.4690999999999999,0.1348145,0.405538,-0.292057,0.2726545,0.5577150000000001,-0.43213,-0.2720754999999999,0.698855,-0.6633899999999999,0.3215545,0.740835,-0.60419,-0.0773005,0.000565,-0.0017699999999999,0.0773005,-0.0005649999999999,0.00177,-0.1345255,0.042835,-0.35435,0.1686945,0.047015,-0.34029,-0.1199754999999999,-0.3084949999999999,-0.288759,0.1210745,-0.297045,-0.269155,1
96,0.010997,0.58543,-0.322337,-0.122674,0.40506,-0.290456,-0.228634,0.54416,-0.462155,0.135386,0.408686,-0.288609,0.272206,0.5645899999999999,-0.426085,-0.275914,0.7094400000000001,-0.652585,0.321676,0.7530399999999999,-0.5954550000000001,-0.0773,0.00039,-0.001535,0.0773,-0.00039,0.0015349999999999,-0.1346139999999999,0.02399,-0.353405,0.166626,0.0300799999999999,-0.339985,-0.119144,-0.33067,-0.288673,0.119126,-0.32155,-0.267527,1
97,0.010629,0.5958950000000001,-0.318599,-0.123702,0.408365,-0.28676,-0.229912,0.5566450000000001,-0.455715,0.135738,0.412192,-0.285584,0.2716079999999999,0.5700149999999999,-0.420585,-0.280172,0.723635,-0.642255,0.3212379999999999,0.763525,-0.586425,-0.0773399999999999,0.0002449999999999,-0.001465,0.0773399999999999,-0.0002449999999999,0.0014649999999999,-0.134632,0.003205,-0.352195,0.164428,0.0075749999999999,-0.339935,-0.118422,-0.3545149999999999,-0.289007,0.118018,-0.346795,-0.266357,1
98,0.009857,0.6006199999999999,-0.3137649999999999,-0.124772,0.409002,-0.283294,-0.232072,0.56251,-0.449225,0.135108,0.412303,-0.282402,0.270428,0.5764,-0.414895,-0.2837719999999999,0.7287999999999999,-0.630825,0.320798,0.77339,-0.576585,-0.0773919999999999,-0.00024,-0.0013749999999999,0.0773919999999999,0.0002399999999999,0.001375,-0.134542,-0.01946,-0.3504049999999999,0.162828,-0.01483,-0.338215,-0.117752,-0.37828,-0.28745,0.1186079999999999,-0.3711,-0.267938,1
99,0.0090819999999999,0.606185,-0.3085449999999999,-0.125697,0.410615,-0.279223,-0.234277,0.567805,-0.44253,0.1344429999999999,0.41327,-0.278865,0.269463,0.5856650000000001,-0.4092,-0.287307,0.7360850000000001,-0.61873,0.320223,0.782805,-0.56623,-0.077375,-0.0006249999999999,-0.0014299999999999,0.077375,0.000625,0.00143,-0.134237,-0.0433949999999999,-0.34831,0.161263,-0.0387349999999999,-0.33618,-0.117067,-0.4034949999999999,-0.285581,0.1178029999999999,-0.3967849999999999,-0.2665559999999999,1
100,0.0089134999999999,0.61366,-0.303469,-0.1260335,0.4137119999999999,-0.274641,-0.2360034999999999,0.57176,-0.434575,0.1343365,0.4161209999999999,-0.274912,0.2691564999999999,0.59223,-0.4036849999999999,-0.2895435,0.74474,-0.606715,0.3201765,0.7906,-0.5554749999999999,-0.0772495,-0.00123,-0.0012949999999999,0.0772495,0.00123,0.0012949999999999,-0.1334635,-0.06879,-0.345635,0.1601464999999999,-0.06551,-0.3340849999999999,-0.1160035,-0.42955,-0.283408,0.1175165,-0.4234,-0.265173,1
101,0.0075335,0.6166149999999999,-0.298445,-0.1272555,0.413285,-0.269612,-0.2371555,0.5778049999999999,-0.42538,0.1328845,0.4160549999999999,-0.270368,0.2680245,0.6000749999999999,-0.39797,-0.2922855,0.7531049999999999,-0.59385,0.3190444999999999,0.802045,-0.54559,-0.0773865,-0.0014149999999999,-0.00114,0.0773865,0.0014149999999999,0.0011399999999999,-0.1335355,-0.095475,-0.34186,0.1578745,-0.092295,-0.33121,-0.1158454999999999,-0.457335,-0.280455,0.1160745,-0.451185,-0.262726,1
102,0.0073954999999999,0.62483,-0.292478,-0.1274084999999999,0.41932,-0.263506,-0.2374485,0.5865400000000001,-0.41585,0.1331115,0.4224299999999999,-0.264436,0.2683415,0.6134999999999999,-0.39113,-0.2936685,0.76416,-0.58047,0.3187215,0.81511,-0.53444,-0.0771805,-0.00135,-0.00136,0.0771805,0.00135,0.00136,-0.1327384999999999,-0.11574,-0.3368799999999999,0.1563815,-0.1132099999999999,-0.32674,-0.1156485,-0.47976,-0.276603,0.1156615,-0.47361,-0.259334,1
103,0.0075064999999999,0.6325000000000001,-0.285964,-0.1274035,0.42451,-0.2572669999999999,-0.2373435,0.59529,-0.4068699999999999,0.1334465,0.42774,-0.258156,0.2689065,0.62676,-0.38426,-0.2952335,0.77593,-0.56695,0.3183665,0.82701,-0.52227,-0.0769415,-0.0013599999999999,-0.0017199999999999,0.0769415,0.00136,0.0017199999999999,-0.1320635,-0.13493,-0.3308999999999999,0.1548064999999999,-0.13295,-0.3212,-0.1157235,-0.50141,-0.271319,0.1155165,-0.49526,-0.255165,1
104,0.0079595,0.639445,-0.279914,-0.1274495,0.431005,-0.25187,-0.2372295,0.6070150000000001,-0.39816,0.1342505,0.434005,-0.252988,0.2694404999999999,0.638785,-0.3774,-0.2967495,0.7915650000000001,-0.55474,0.3179605,0.840785,-0.5096700000000001,-0.0766815,-0.0014549999999999,-0.0022699999999999,0.0766815,0.001455,0.0022699999999999,-0.1314695,-0.1534049999999999,-0.32557,0.1530405,-0.152385,-0.31569,-0.1158895,-0.524555,-0.266558,0.1154005,-0.518205,-0.252379,1
105,0.008492,0.647235,-0.270045,-0.1277309999999999,0.437445,-0.242589,-0.237921,0.618655,-0.38542,0.135059,0.439855,-0.243898,0.269919,0.651705,-0.36664,-0.297921,0.8058749999999999,-0.5391600000000001,0.317589,0.855035,-0.49402,-0.076259,-0.001455,-0.00235,0.076259,0.001455,0.0023499999999999,-0.130891,-0.170595,-0.3161,0.151299,-0.169475,-0.3061,-0.1162709999999999,-0.5461450000000001,-0.257964,0.115309,-0.540815,-0.245969,1
106,0.0090425,0.654945,-0.259827,-0.1277194999999999,0.443395,-0.232982,-0.2381895,0.626285,-0.372265,0.1358905,0.445515,-0.234402,0.2704405,0.664095,-0.354835,-0.2986795,0.821325,-0.523575,0.3170905,0.868175,-0.478115,-0.0758705,-0.001395,-0.002405,0.0758705,0.001395,0.0024049999999999,-0.1303595,-0.1875349999999999,-0.305925,0.1495205,-0.186435,-0.295775,-0.1165695,-0.566655,-0.248754,0.1153005,-0.562715,-0.239132,1
107,0.0094594999999999,0.66327,-0.249651,-0.1277605,0.44976,-0.222911,-0.2384005,0.63473,-0.358975,0.1365394999999999,0.45112,-0.22476,0.2709195,0.6746800000000001,-0.342735,-0.2995205,0.8377,-0.508455,0.3164895,0.87824,-0.460845,-0.0754325,-0.0013299999999999,-0.0024249999999999,0.0754325,0.0013299999999999,0.002425,-0.1298805,-0.20344,-0.295065,0.1477795,-0.20228,-0.284895,-0.1169405,-0.5858099999999999,-0.2391599999999999,0.1153995,-0.5829799999999999,-0.2320269999999999,1
108,0.009906,0.671225,-0.2389609999999999,-0.128103,0.457165,-0.212882,-0.238353,0.6443249999999999,-0.3454399999999999,0.137277,0.4574149999999999,-0.215002,0.271297,0.681935,-0.32954,-0.300203,0.852105,-0.49278,0.316067,0.890205,-0.4429999999999999,-0.074919,-0.001235,-0.00262,0.074919,0.0012349999999999,0.00262,-0.129313,-0.218305,-0.28385,0.145887,-0.217455,-0.273308,-0.1172729999999999,-0.603545,-0.2295039999999999,0.115417,-0.602005,-0.224708,1
109,0.0100959999999999,0.67772,-0.227047,-0.128669,0.46267,-0.2025739999999999,-0.238019,0.6549499999999999,-0.33224,0.138211,0.4627799999999999,-0.204427,0.270711,0.6920999999999999,-0.31525,-0.300849,0.8649899999999999,-0.47491,0.315431,0.90159,-0.42371,-0.07466,-0.001,-0.00261,0.07466,0.001,0.00261,-0.128829,-0.2332499999999999,-0.27095,0.143821,-0.23317,-0.260019,-0.117989,-0.6216700000000001,-0.219193,0.115311,-0.62114,-0.2166159999999999,1
110,0.010267,0.683459,-0.215964,-0.1294449999999999,0.468489,-0.19284,-0.237695,0.661569,-0.31879,0.139015,0.469299,-0.194398,0.270355,0.698819,-0.30103,-0.301695,0.877009,-0.45854,0.314515,0.906819,-0.4041599999999999,-0.074531,-0.000722,-0.00256,0.074531,0.000722,0.00256,-0.1283249999999999,-0.246021,-0.25856,0.142015,-0.2466209999999999,-0.247166,-0.1186749999999999,-0.637471,-0.210083,0.115135,-0.637621,-0.208403,1
111,0.0104064999999999,0.6893915,-0.2057439999999999,-0.1300845,0.4721115,-0.1842269999999999,-0.2386645,0.6676215,-0.305455,0.1392655,0.4726415,-0.185381,0.2700255,0.7033615,-0.286965,-0.3021745,0.8856515,-0.442735,0.3133955,0.9123915,-0.385795,-0.0744205,-0.0004684999999999,-0.0025849999999999,0.0744205,0.0004684999999999,0.002585,-0.1276945,-0.2572185,-0.246462,0.1403855,-0.2582785,-0.234742,-0.1193144999999999,-0.6508885,-0.201616,0.1148154999999999,-0.6520585,-0.2006869999999999,1
112,0.010317,0.6963235000000001,-0.195987,-0.130795,0.4753035,-0.1759089999999999,-0.240205,0.6734335,-0.292185,0.139395,0.4766235,-0.176672,0.269075,0.7097635,-0.272595,-0.302195,0.8957634999999999,-0.427265,0.312305,0.9175635,-0.367475,-0.074015,-0.0003994999999999,-0.0024349999999999,0.074015,0.0003994999999999,0.0024349999999999,-0.1271649999999999,-0.2675065,-0.234375,0.138745,-0.2701365,-0.222296,-0.120015,-0.6631165000000001,-0.194186,0.114505,-0.6663064999999999,-0.193244,1
113,0.0095745,0.7022904999999999,-0.186033,-0.1320055,0.4790305,-0.167526,-0.2412455,0.6761204999999999,-0.278475,0.1390945,0.4807405,-0.167359,0.2679645,0.7151704999999999,-0.257985,-0.3024354999999999,0.9026805,-0.410125,0.3107845,0.9216105,-0.348925,-0.0734225,-0.0002585,-0.002245,0.0734225,0.0002584999999999,0.0022449999999999,-0.1273355,-0.2827294999999999,-0.221216,0.1363545,-0.2853595,-0.208679,-0.1211655,-0.6769795000000001,-0.186045,0.1133245,-0.6814795,-0.185824,1
114,0.0087635,0.7080255,-0.176169,-0.1335245,0.4833055,-0.159437,-0.2422444999999999,0.6852455,-0.26543,0.1387955,0.4855455,-0.158306,0.2667555,0.7218955,-0.24353,-0.3027045,0.9151455,-0.393,0.3096455,0.9261355,-0.32995,-0.0729515,-0.0001654999999999,-0.002,0.0729515,0.0001654999999999,0.002,-0.1272545,-0.2955345,-0.208586,0.1332355,-0.2981645,-0.19451,-0.1223145,-0.6897845,-0.178609,0.1121255,-0.6942845,-0.178723,1
115,0.0076674999999999,0.713719,-0.162349,-0.1352165,0.487189,-0.147516,-0.2434965,0.691539,-0.24838,0.1382534999999999,0.4897789999999999,-0.145448,0.2653935,0.728289,-0.22515,-0.3032865,0.922249,-0.3712999999999999,0.3081735,0.930879,-0.30742,-0.0726155,6.000000000000103e-05,-0.0015799999999999,0.0726155,-5.999999999999756e-05,0.0015799999999999,-0.1273365,-0.3072009999999999,-0.192157,0.1297835,-0.3098309999999999,-0.176205,-0.1236065,-0.701451,-0.167381,0.1106834999999999,-0.705951,-0.16761,1
116,0.0065585,0.716033,-0.146357,-0.1369034999999999,0.490033,-0.132819,-0.2447835,0.697933,-0.229815,0.1380165,0.492773,-0.130005,0.2637465,0.733373,-0.205035,-0.3034035,0.928213,-0.347075,0.3067465,0.934303,-0.283935,-0.0722505,0.0006969999999999,-0.001735,0.0722505,-0.0006969999999999,0.001735,-0.1270335,-0.322557,-0.1712,0.1262665,-0.329067,-0.153601,-0.1248934999999999,-0.714287,-0.153807,0.1093265,-0.718787,-0.154466,1
117,0.0055195,0.7187250000000001,-0.1310555,-0.1387115,0.491785,-0.1188305,-0.2457814999999999,0.7040850000000001,-0.2120834999999999,0.1377485,0.495305,-0.1150765,0.2621685,0.738425,-0.1859735,-0.3034015,0.934195,-0.3231435,0.3052085,0.935985,-0.2607835,-0.0719315,0.001282,-0.0018444999999999,0.0719315,-0.001282,0.0018444999999999,-0.1269015,-0.337725,-0.1514625,0.1227485,-0.348475,-0.1324175,-0.1260214999999999,-0.725155,-0.1408565,0.1078385,-0.731125,-0.1414955,1
118,0.0045925,0.7208625,-0.1172785,-0.1404665,0.4941125,-0.1059275,-0.2466265,0.7090025,-0.1953805,0.1371135,0.4970425,-0.1015175,0.2606135,0.7420125,-0.1680444999999999,-0.3030565,0.9401025,-0.3011304999999999,0.3038435,0.9384425,-0.2399205,-0.0717385,0.0017774999999999,-0.0019665,0.0717385,-0.0017775,0.0019664999999999,-0.1270665,-0.3494775,-0.1338305,0.1193535,-0.3653975,-0.1128835,-0.1271364999999999,-0.7337075,-0.1290425,0.1063635,-0.7412575,-0.1294805,1
119,0.0037245,0.7228785,-0.1033709999999999,-0.1421174999999999,0.4962885,-0.093274,-0.2474475,0.7150885,-0.1791829999999999,0.1365125,0.4987184999999999,-0.088256,0.2590125,0.7460985,-0.150925,-0.3025175,0.9454685,-0.278883,0.3024325,0.9411985,-0.219713,-0.0716215,0.0021075,-0.0019109999999999,0.0716215,-0.0021075,0.0019109999999999,-0.1275375,-0.3600115,-0.116659,0.1158825,-0.3810715,-0.093449,-0.1283675,-0.7413115,-0.117262,0.1049925,-0.7507215,-0.117409,1
120,0.0028745,0.723114,-0.0896445,-0.1436714999999999,0.4980839999999999,-0.0806645,-0.2481715,0.7217640000000001,-0.1635755,0.1359085,0.499924,-0.0754114999999999,0.2574985,0.749254,-0.1346035,-0.3021915,0.951864,-0.2572755,0.3007385,0.943914,-0.2000555,-0.0716115,0.002402,-0.0017905,0.0716115,-0.0024019999999999,0.0017905,-0.1283115,-0.370836,-0.1001305,0.1123685,-0.3963959999999999,-0.0745775,-0.1296415,-0.749306,-0.1057395,0.1036185,-0.760286,-0.1057365,1
121,0.002457,0.7231464999999999,-0.076123,-0.144757,0.5003065,-0.067948,-0.248487,0.7287064999999999,-0.147906,0.1357529999999999,0.5013765,-0.062538,0.256443,0.7512565,-0.118722,-0.301427,0.9589265,-0.235174,0.299393,0.9457965,-0.1810439999999999,-0.07167,0.0027905,-0.0016369999999999,0.07167,-0.0027904999999999,0.0016369999999999,-0.128697,-0.3821334999999999,-0.08334,0.109243,-0.4122234999999999,-0.055887,-0.130527,-0.7578735,-0.094212,0.102553,-0.7703935000000001,-0.0939369999999999,1
122,0.0025314999999999,0.7226965,-0.0643045,-0.1451934999999999,0.5004265,-0.0566715,-0.2485534999999999,0.7357465,-0.1342025,0.1359965,0.5010865,-0.0516515,0.2560365,0.7522765,-0.1050245,-0.3002335,0.9637265,-0.2164775,0.2985465,0.9473865,-0.1651175,-0.0716975,0.0031874999999999,-0.0014455,0.0716975,-0.0031875,0.0014454999999999,-0.1285735,-0.3916635,-0.0687725,0.1069865,-0.4261135,-0.0399405,-0.1309235,-0.7645435,-0.0838925,0.1019765,-0.7787135000000001,-0.0836985,1
123,0.0026344999999999,0.7216094999999999,-0.0530415,-0.1455834999999999,0.4999195,-0.0457615,-0.2488635,0.7365594999999999,-0.1205955,0.1364965,0.5003394999999999,-0.0408064999999999,0.2557765,0.7521095,-0.0920995,-0.2989934999999999,0.9646295,-0.1980285,0.2977965,0.9474995,-0.1508085,-0.0717045,0.0035805,-0.0012504999999999,0.0717045,-0.0035805,0.0012505,-0.1288335,-0.4012405,-0.0545825,0.1055065,-0.4396905,-0.0257395,-0.1313135,-0.7712405,-0.0734275,0.1014965,-0.7867505,-0.0739644999999999,1
124,0.0027704999999999,0.720296,-0.046311,-0.1459484999999999,0.499496,-0.039154,-0.2495784999999999,0.737476,-0.111103,0.1369915,0.499626,-0.034534,0.2555214999999999,0.751546,-0.083846,-0.2980985,0.966046,-0.183937,0.2972315,0.947286,-0.141117,-0.0717065,0.00386,-0.001199,0.0717065,-0.00386,0.0011989999999999,-0.1288985,-0.409534,-0.045094,0.1045115,-0.451024,-0.016699,-0.1313485,-0.776764,-0.067246,0.1013014999999999,-0.792654,-0.068689,1
125,0.0033045,0.7212265,-0.0425055,-0.1458485,0.4996565,-0.0360365,-0.2498985,0.7395065000000001,-0.1040775,0.1374915,0.4998165,-0.0314975,0.2556215,0.7519965000000001,-0.0781735,-0.2976385,0.9664465,-0.1732705,0.2969815,0.9480165,-0.1339305,-0.0719365,0.0037074999999999,-0.0005615,0.0719365,-0.0037075,0.0005614999999999,-0.1285485,-0.4101335,-0.0414055,0.1040415,-0.4516234999999999,-0.0132995,-0.1310085,-0.7776835,-0.0641635,0.1015215,-0.7934534999999999,-0.0661825,1
126,0.003696,0.721677,-0.038966,-0.145754,0.500077,-0.032858,-0.249554,0.7410869999999999,-0.097083,0.1379159999999999,0.4997469999999999,-0.028507,0.255746,0.752007,-0.072456,-0.297264,0.966467,-0.1635539999999999,0.297036,0.948417,-0.1272039999999999,-0.072247,0.003775,0.000118,0.072247,-0.003775,-0.000118,-0.128204,-0.411243,-0.037747,0.103776,-0.452503,-0.009901,-0.130664,-0.778623,-0.0609539999999999,0.1018459999999999,-0.794333,-0.0635,1
127,0.0040399999999999,0.7218665000000001,-0.0349374999999999,-0.145581,0.5000465000000001,-0.0291835,-0.249381,0.7430165000000001,-0.0900145,0.138379,0.4996465,-0.0250365,0.255939,0.7525365,-0.0666905,-0.296931,0.9651265,-0.1543755,0.297219,0.9493465,-0.1202555,-0.0725099999999999,0.0037195,0.0006815,0.0725099999999999,-0.0037195,-0.0006815,-0.127821,-0.4125835,-0.0340225,0.103579,-0.4538434999999999,-0.0066335,-0.130201,-0.7799634999999999,-0.0572675,0.102469,-0.7956734999999999,-0.0605085,1
128,0.0043275,0.7227045000000001,-0.0312285,-0.1453025,0.4996244999999999,-0.0255005,-0.2492025,0.7449345,-0.0835655,0.1388275,0.4996744999999999,-0.0216775,0.2559975,0.7535845,-0.0608745,-0.2968725,0.9645245,-0.1445505,0.2970775,0.9507945,-0.1132595,-0.0728004999999999,0.0034645,0.0010795,0.0728004999999999,-0.0034645,-0.0010795,-0.1280325,-0.4107255,-0.0307595,0.1034875,-0.4521655,-0.0037935,-0.1299425,-0.7805154999999999,-0.0537664999999999,0.1033274999999999,-0.7962754999999999,-0.0574444999999999,1
129,0.004665,0.7226905,-0.027614,-0.144954,0.4995404999999999,-0.021951,-0.248964,0.7456605,-0.0772699999999999,0.139296,0.4995904999999999,-0.018188,0.255926,0.7538505,-0.055062,-0.296734,0.9631905,-0.135413,0.296626,0.9514405,-0.106248,-0.07313,0.0034205,0.0012829999999999,0.07313,-0.0034205,-0.001283,-0.128194,-0.4092095,-0.027761,0.103576,-0.4505095,-0.000785,-0.129484,-0.7811595,-0.04999,0.104106,-0.7968595,-0.05424,1
130,0.0050925,0.722596,-0.0240085,-0.1445315,0.4994559999999999,-0.0183165,-0.2486114999999999,0.745776,-0.0715035,0.1398085,0.4995759999999999,-0.0145545,0.2559485,0.754216,-0.0492205,-0.2964515,0.961436,-0.1278105,0.2962285,0.952056,-0.0995014999999999,-0.0734335,0.003339,0.0014345,0.0734335,-0.003339,-0.0014344999999999,-0.1281415,-0.409364,-0.0245925,0.1038185,-0.449144,0.0023905,-0.1290115,-0.781754,-0.0459805,0.1049585,-0.797244,-0.0508965,1
131,0.0055649999999999,0.7224745,-0.020876,-0.144095,0.4993545,-0.01496,-0.248405,0.7456845000000001,-0.066578,0.1403049999999999,0.4996445,-0.011108,0.256025,0.7545945000000001,-0.043716,-0.296125,0.9594445,-0.12129,0.295935,0.9526745,-0.09315,-0.073645,0.0032454999999999,0.0014029999999999,0.073645,-0.0032454999999999,-0.0014029999999999,-0.127875,-0.4102654999999999,-0.021569,0.104105,-0.4482454999999999,0.0049869999999999,-0.128465,-0.7823355,-0.042509,0.1057449999999999,-0.7973454999999999,-0.047855,1
132,0.0059525,0.722506,-0.0176525,-0.1437054999999999,0.4993459999999999,-0.0115455,-0.2483455,0.745416,-0.0620815,0.1407645,0.4994959999999999,-0.0076675,0.2561245,0.754926,-0.0381195,-0.2960155,0.956956,-0.1156145,0.2957245,0.953126,-0.0868065,-0.0738765,0.003137,0.0013384999999999,0.0738765,-0.003137,-0.0013385,-0.1275555,-0.411354,-0.0184295,0.1044145,-0.447624,0.0072654999999999,-0.1279555,-0.7830440000000001,-0.0392815,0.1063445,-0.797284,-0.0446245,1
133,0.0061249999999999,0.722438,-0.0141615,-0.1433789999999999,0.499228,-0.0080474999999999,-0.248669,0.744698,-0.0581025,0.141251,0.499388,-0.0040395,0.256611,0.753958,-0.0326365,-0.296419,0.953288,-0.1111715,0.295591,0.952388,-0.0805045,-0.07406,0.003018,0.0012634999999999,0.07406,-0.003018,-0.0012634999999999,-0.127169,-0.4124219999999999,-0.0162465,0.104751,-0.447132,0.0091765,-0.127369,-0.783922,-0.0357745,0.1069509999999999,-0.797152,-0.0411165,1
134,0.006049,0.72236,-0.010661,-0.143196,0.49913,-0.00448,-0.249536,0.74366,-0.05437,0.141674,0.4992899999999999,-0.000422,0.257104,0.75292,-0.027542,-0.2974059999999999,0.94925,-0.107263,0.295764,0.95135,-0.0746069999999999,-0.074191,0.0028959999999999,0.001154,0.074191,-0.002896,-0.001154,-0.126806,-0.41346,-0.01484,0.105154,-0.44691,0.010509,-0.126716,-0.7850499999999999,-0.032249,0.107494,-0.79699,-0.037702,1
135,0.0056785,0.7223545,-0.007108,-0.1431755,0.4993745,-0.00053,-0.2516454999999999,0.7430445,-0.050496,0.1418845,0.4993144999999999,0.0035699999999999,0.2576045,0.7522145,-0.02242,-0.2991255,0.9453245,-0.103374,0.2962445,0.9507345,-0.068798,-0.0743014999999999,0.0027205,0.0007899999999999,0.0743014999999999,-0.0027205,-0.00079,-0.1261654999999999,-0.4141155,-0.013773,0.1056645,-0.4466255,0.0118269999999999,-0.1261455,-0.7856654999999999,-0.028584,0.1080145,-0.7967055,-0.03386,1
136,0.0052625,0.7223545,-0.0040299999999999,-0.1431675,0.4993745,0.0032589999999999,-0.2541975,0.7430445,-0.046799,0.1423025,0.4993144999999999,0.007418,0.2582525,0.7521345,-0.017275,-0.3009475,0.9413145,-0.099653,0.2968725,0.9507345,-0.06496,-0.0743395,0.0027205,0.0004,0.0743395,-0.0027205,-0.0003999999999999,-0.1254374999999999,-0.4146955,-0.013183,0.1062625,-0.4464155,0.012778,-0.1255075,-0.7856654999999999,-0.025179,0.1086525,-0.7967055,-0.0302889999999999,0
137,0.0047985,0.7223545,-0.0012504999999999,-0.1440185,0.4993745,0.0068735,-0.2573285,0.7417445,-0.0431215,0.1428714999999999,0.4994045,0.0112725,0.2594214999999999,0.7520545000000001,-0.0125765,-0.3024685,0.9390245,-0.0959165,0.2976515,0.9507345,-0.0610675,-0.0743185,0.0027205,-5.499999999998562e-06,0.0743185,-0.0027205,5.500000000002031e-06,-0.1245785,-0.4154455,-0.0127625,0.1069715,-0.4464155,0.0136315,-0.1247285,-0.7856654999999999,-0.0220355,0.1093915,-0.7967055,-0.0267444999999999,0
138,0.0044505,0.7223545,0.0014144999999999,-0.1448034999999999,0.4993745,0.0105654999999999,-0.2617435,0.7401445000000001,-0.0403985,0.1435765,0.4994045,0.0152104999999999,0.2619464999999999,0.7491245000000001,-0.0077275,-0.3043835,0.9367345,-0.0932025,0.2987165,0.9486045,-0.0571175,-0.0742125,0.0027205,-0.0003275,0.0742125,-0.0027205,0.0003274999999999,-0.1237735,-0.4168055,-0.0125605,0.1076065,-0.4464155,0.0140874999999999,-0.1237835,-0.7857154999999999,-0.0189255,0.1102365,-0.7967055,-0.0231775,0
139,0.0041765,0.7222845,0.003689,-0.1451135,0.4996145000000001,0.01449,-0.2685035,0.7326145000000001,-0.037989,0.1448165,0.4998845,0.019577,0.2668965,0.7411345,-0.0025479999999999,-0.3075135,0.9333845,-0.093558,0.3019765,0.9405245,-0.0526779999999999,-0.0740075,0.0025475,-0.000632,0.0740075,-0.0025475,0.000632,-0.1225435,-0.4189555,-0.0129109999999999,0.1084265,-0.4459955,0.013603,-0.1225435,-0.7858554999999999,-0.015911,0.1111365,-0.7962555,-0.0193349999999999,0
140,0.004453,0.7222265,0.0056279999999999,-0.1462419999999999,0.4995665,0.0178779999999999,-0.276492,0.7229765,-0.036226,0.146418,0.5006265,0.0241949999999999,0.273238,0.7303565,0.0028899999999999,-0.312142,0.9231965,-0.096673,0.305908,0.9315665,-0.048794,-0.073779,0.0023695,-0.000991,0.073779,-0.0023694999999999,0.0009909999999999,-0.121062,-0.4209135,-0.013535,0.109458,-0.4450735,0.0127599999999999,-0.121122,-0.7858335,-0.012875,0.112438,-0.7954635,-0.015346,0
141,0.0057554999999999,0.722294,0.00748,-0.1469195,0.499104,0.020891,-0.2863595,0.711174,-0.035793,0.1482805,0.501764,0.029179,0.2818905,0.715424,0.00928,-0.3163395,0.912814,-0.10051,0.3114305,0.916164,-0.04534,-0.0735275,0.002174,-0.001596,0.0735275,-0.002174,0.001596,-0.1193994999999999,-0.422416,-0.014341,0.1113105,-0.443756,0.01133,-0.1193994999999999,-0.7855960000000001,-0.009533,0.1146005,-0.7944260000000001,-0.0112999999999999,0
142,0.00829,0.7225215,0.0088305,-0.14719,0.4979815,0.0231345,-0.29672,0.6946615,-0.0357544999999999,0.15019,0.5030015,0.0342705,0.2929699999999999,0.6970615,0.0160255,-0.3209499999999999,0.8952715,-0.1060775,0.31735,0.8974815,-0.0425015,-0.073212,0.0020975,-0.0022575,0.073212,-0.0020975,0.0022575,-0.1177199999999999,-0.4205085,-0.0153254999999999,0.11399,-0.4418485,0.0086235,-0.1175199999999999,-0.7850484999999999,-0.0066254999999999,0.11705,-0.7923985,-0.0075614999999999,0
143,0.0109804999999999,0.7230585,0.009721,-0.1467795,0.4963384999999999,0.024861,-0.3074295,0.6707685,-0.03598,0.1521904999999999,0.5035285,0.039615,0.3026205,0.6726785000000001,0.024795,-0.3237595,0.8688585000000001,-0.114349,0.3240004999999999,0.8709485,-0.041351,-0.0730095,0.0019204999999999,-0.003261,0.0730095,-0.0019204999999999,0.003261,-0.1161495,-0.4180615,-0.015805,0.1169905,-0.4388715,0.001001,-0.1155695,-0.7835614999999999,-0.0029049999999999,0.1196704999999999,-0.7892914999999999,-0.004616,0
144,0.0129374999999999,0.723503,0.0097439999999999,-0.1463745,0.493373,0.025047,-0.3109945,0.636923,-0.033384,0.1539454999999999,0.504113,0.045273,0.3109055,0.640463,0.035639,-0.3258945,0.829173,-0.125491,0.3308455,0.834163,-0.041538,-0.0728185,0.001719,-0.003818,0.0728185,-0.0017189999999999,0.003818,-0.1154845,-0.4150669999999999,-0.0166059999999999,0.1193955,-0.4317769999999999,-0.011648,-0.1144045,-0.781687,0.0013569999999999,0.1220355,-0.7857569999999999,-0.004882,0
145,0.014057,0.7241065,0.0093605,-0.145916,0.4903465,0.0252174999999999,-0.311926,0.6000765,-0.0300135,0.154824,0.5032065,0.0505344999999999,0.3172439999999999,0.6066865,0.0473265,-0.324786,0.7830365,-0.1384695,0.338084,0.7925565,-0.0433895,-0.072671,0.0014134999999999,-0.0046974999999999,0.072671,-0.0014135,0.0046975,-0.115416,-0.4121435,-0.0182834999999999,0.121314,-0.4235335,-0.0246895,-0.113966,-0.7794435000000001,0.0060655,0.127934,-0.7816835,-0.0107955,0
146,0.0149325,0.7247975,0.0088185,-0.1458944999999999,0.4869975,0.0250484999999999,-0.3120545,0.5567175,-0.0258945,0.1546455,0.5019375,0.0562154999999999,0.3237255,0.5681475,0.0595324999999999,-0.3243045,0.7302375,-0.1513235,0.3451255,0.7447975,-0.0445935,-0.0726115,0.0011264999999999,-0.0057445,0.0726115,-0.0011264999999999,0.0057445,-0.1160944999999999,-0.4091425,-0.0187555,0.1240255,-0.4144725,-0.0388435,-0.1145144999999999,-0.7768125,0.0115834999999999,0.1359255,-0.7768025,-0.0191415,0
147,0.0171525,0.725418,0.0074854999999999,-0.1458555,0.483038,0.0240254999999999,-0.3122255,0.511938,-0.0210275,0.1544944999999999,0.4998579999999999,0.0615674999999999,0.3292545,0.5298379999999999,0.0714114999999999,-0.3239255,0.666558,-0.1617145,0.3521945,0.693388,-0.0468645,-0.0725705,0.000826,-0.0068985,0.0725705,-0.000826,0.0068984999999999,-0.1161155,-0.405352,-0.0181685,0.1284845,-0.405142,-0.0535745,-0.1147955,-0.774282,0.0177674999999999,0.1473044999999999,-0.7719020000000001,-0.0294045,0
148,0.0205705,0.726142,0.006043,-0.1457834999999999,0.4789219999999999,0.0220479999999999,-0.3124234999999999,0.470472,-0.0154519999999999,0.1552365,0.496842,0.065893,0.3339665,0.492892,0.081025,-0.3236735,0.5972919999999999,-0.168812,0.3593665,0.6412519999999999,-0.0485019999999999,-0.0725215,0.0005299999999999,-0.0082529999999999,0.0725215,-0.00053,0.0082529999999999,-0.1161835,-0.401488,-0.0161919999999999,0.1352565,-0.395658,-0.0687019999999999,-0.1150435,-0.771518,0.024724,0.1625565,-0.7658280000000001,-0.0440319999999999,0
149,0.025297,0.7268859999999999,0.004718,-0.144349,0.474896,0.0198919999999999,-0.310169,0.429326,-0.008635,0.156711,0.493286,0.070127,0.337861,0.453596,0.091848,-0.320559,0.527956,-0.173595,0.366471,0.586576,-0.048835,-0.072389,0.000322,-0.009645,0.072389,-0.0003219999999999,0.009645,-0.1163789999999999,-0.396984,-0.0130149999999999,0.143371,-0.3857339999999999,-0.083585,-0.1154989999999999,-0.7680640000000001,0.033235,0.181761,-0.7566940000000001,-0.063295,0
150,0.0304034999999999,0.7275495,0.0029694999999999,-0.1431905,0.4713095,0.0175824999999999,-0.3040005,0.3863795,9.949999999998849e-05,0.1581495,0.4888495,0.0733804999999999,0.3393195,0.4182695,0.1034814999999999,-0.3146605,0.4512995,-0.1765904999999999,0.3720795,0.5353395,-0.0493205,-0.0722315,0.0002455,-0.0108705,0.0722315,-0.0002454999999999,0.0108704999999999,-0.1174605,-0.3916505,-0.0105605,0.1523195,-0.3756905,-0.0982705,-0.1172005,-0.7640605,0.0426644999999999,0.2015195,-0.7462605,-0.0831305,0
151,0.0362809999999999,0.728248,0.0010399999999999,-0.142307,0.468738,0.0155199999999999,-0.294477,0.348508,0.0080599999999999,0.159503,0.4840779999999999,0.076129,0.338923,0.3862879999999999,0.115615,-0.308367,0.3807879999999999,-0.17762,0.378053,0.485898,-0.0515299999999999,-0.072197,0.0003039999999999,-0.0119299999999999,0.072197,-0.000304,0.0119299999999999,-0.119637,-0.386382,-0.0072599999999999,0.161443,-0.366062,-0.11179,-0.120417,-0.759412,0.053284,0.222443,-0.731992,-0.10597,0
152,0.042399,0.7285910000000001,-0.0008449999999999,-0.139641,0.466281,0.012755,-0.282321,0.317561,0.016565,0.161279,0.479741,0.077855,0.338469,0.360641,0.124311,-0.294261,0.314741,-0.173985,0.3844889999999999,0.442831,-0.0544049999999999,-0.072079,0.000476,-0.0126949999999999,0.072079,-0.0004759999999999,0.012695,-0.122751,-0.380789,-0.0036249999999999,0.170189,-0.357279,-0.1197949999999999,-0.125401,-0.754709,0.064734,0.242739,-0.7184189999999999,-0.1277649999999999,0
153,0.0482439999999999,0.7291559999999999,-0.00261,-0.137246,0.465776,0.01072,-0.265036,0.296776,0.02344,0.163214,0.475256,0.07815,0.336234,0.343306,0.129887,-0.278786,0.260116,-0.1665499999999999,0.390394,0.409436,-0.0570399999999999,-0.072018,0.000719,-0.01349,0.072018,-0.000719,0.01349,-0.126886,-0.374664,0.00102,0.1783539999999999,-0.351834,-0.1231999999999999,-0.132056,-0.750044,0.077104,0.262574,-0.7057840000000001,-0.1488999999999999,0
154,0.0552275,0.729524,-0.0060349999999999,-0.1327775,0.465734,0.006845,-0.2446375,0.278484,0.028705,0.1670925,0.471934,0.075966,0.3344425,0.328704,0.130007,-0.2624075,0.209114,-0.1532349999999999,0.3979525,0.379384,-0.0621049999999999,-0.0721295,0.001408,-0.0132849999999999,0.0721295,-0.001408,0.013285,-0.1327975,-0.368966,0.008145,0.1842225,-0.346986,-0.125405,-0.1425475,-0.745846,0.091863,0.2764025,-0.694026,-0.164715,0
155,0.0628784999999999,0.7288575,-0.0110099999999999,-0.1287245,0.4660175,0.00274,-0.2248554999999999,0.2670674999999999,0.03268,0.1724845,0.4675674999999999,0.07133,0.3339045,0.3171175,0.125218,-0.2454955,0.1624275,-0.1412299999999999,0.4062845,0.3520175,-0.07057,-0.0719745,0.0025375,-0.0128999999999999,0.0719745,-0.0025375,0.0129,-0.1389855,-0.3652125,0.01403,0.1874145,-0.3435625,-0.12662,-0.1554055,-0.7426225,0.106275,0.2853145,-0.6845724999999999,-0.1774899999999999,0
156,0.071218,0.7281675000000001,-0.0169099999999999,-0.122877,0.4669675,-0.0025399999999999,-0.210152,0.2575575,0.03491,0.178358,0.4634574999999999,0.06475,0.3347279999999999,0.3065775,0.115074,-0.229172,0.1255375,-0.12867,0.415278,0.3292675,-0.0815299999999999,-0.071918,0.0038544999999999,-0.0121899999999999,0.071918,-0.0038545,0.01219,-0.145332,-0.3621325,0.01936,0.188358,-0.3407125,-0.1266899999999999,-0.170352,-0.7386425,0.12069,0.289678,-0.6758425,-0.1879799999999999,0
157,0.080377,0.7270314999999999,-0.024125,-0.117144,0.4677415,-0.0079349999999999,-0.197203,0.2533315,0.035835,0.184497,0.4592814999999999,0.0563449999999999,0.337437,0.2983814999999999,0.101945,-0.217743,0.0947745,-0.115785,0.424767,0.3109915,-0.0965149999999999,-0.071907,0.0046285,-0.011245,0.071907,-0.0046284999999999,0.011245,-0.1524869999999999,-0.3613585,0.0243649999999999,0.187057,-0.3388785,-0.125695,-0.187293,-0.7347385000000001,0.134679,0.288727,-0.6691885000000001,-0.193695,0
158,0.0920435,0.726125,-0.03375,-0.1090805,0.468135,-0.01496,-0.1859565,0.251505,0.0382299999999999,0.1923234999999999,0.455685,0.0448599999999999,0.3421235,0.295575,0.0817699999999999,-0.2085865,0.074904,-0.09949,0.4348835,0.293985,-0.1152399999999999,-0.0719134999999999,0.005022,-0.01027,0.0719134999999999,-0.005022,0.01027,-0.1587365,-0.3580549999999999,0.0281499999999999,0.1846235,-0.3371749999999999,-0.1237,-0.2068765,-0.7273649999999999,0.1475409999999999,0.2801135,-0.665685,-0.1915099999999999,0
159,0.1048615,0.725255,-0.0448049999999999,-0.0997504999999999,0.468135,-0.0228749999999999,-0.1764925,0.251505,0.0351849999999999,0.2012115,0.452725,0.031815,0.3487715,0.292695,0.057965,-0.2008945,0.060994,-0.0876649999999999,0.4462215,0.279375,-0.136645,-0.0719915,0.005022,-0.0092649999999999,0.0719915,-0.005022,0.0092649999999999,-0.1649135,-0.3545549999999999,0.032775,0.1809215,-0.3372449999999999,-0.1211849999999999,-0.2254985,-0.7199249999999999,0.157626,0.2704115,-0.6638649999999999,-0.1886149999999999,0
160,0.1189669999999999,0.7236665,-0.0583499999999999,-0.088909,0.4687665,-0.0323499999999999,-0.166769,0.2504265,0.03286,0.2104769999999999,0.4496265,0.01592,0.3553469999999999,0.2894965,0.03037,-0.195879,0.0512045,-0.0729999999999999,0.456817,0.2634964999999999,-0.1612299999999999,-0.072097,0.0061005,-0.00866,0.072097,-0.0061005,0.00866,-0.170746,-0.3495235,0.03551,0.1739069999999999,-0.3383235,-0.1169199999999999,-0.242983,-0.7122134999999999,0.16554,0.254257,-0.6649434999999999,-0.1797999999999999,0
161,0.13318,0.7218215,-0.072635,-0.0781129999999999,0.4701815,-0.0413149999999999,-0.1582299999999999,0.2489915,0.030815,0.21951,0.4470015,-0.0003549999999999,0.36404,0.2858515,0.001975,-0.195571,0.0464655,-0.058975,0.46773,0.2490315,-0.1873249999999999,-0.0723099999999999,0.0075355,-0.007855,0.07231,-0.0075355,0.007855,-0.176221,-0.3448285,0.037695,0.16699,-0.3398184999999999,-0.1131049999999999,-0.25936,-0.7046085000000001,0.171235,0.23819,-0.6663785,-0.171045,0
162,0.14841,0.7189004999999999,-0.08803,-0.0659099999999999,0.4722504999999999,-0.05057,-0.152546,0.2496405,0.03003,0.22925,0.4441305,-0.01777,0.37366,0.2809005,-0.02753,-0.1986109999999999,0.0440325,-0.04815,0.4782599999999999,0.2332804999999999,-0.2147,-0.0725099999999999,0.0093755,-0.00678,0.07251,-0.0093754999999999,0.0067799999999999,-0.1806729999999999,-0.3403295,0.0386699999999999,0.15828,-0.3423595,-0.10754,-0.2733669999999999,-0.6953895,0.1770699999999999,0.21883,-0.6686095,-0.15813,0
163,0.1634699999999999,0.7146264999999999,-0.103245,-0.05388,0.4742665,-0.059315,-0.147494,0.2510565,0.0301349999999999,0.2375199999999999,0.4396865,-0.034885,0.3797,0.2750965,-0.052165,-0.201892,0.0406185,-0.037195,0.48389,0.2182865,-0.237195,-0.07274,0.0111104999999999,-0.0056849999999999,0.07274,-0.0111105,0.0056849999999999,-0.18506,-0.3367435,0.0398649999999999,0.14879,-0.3459135,-0.100885,-0.28284,-0.6822935,0.1785649999999999,0.19836,-0.6739435,-0.142605,0
164,0.1771599999999999,0.709963,-0.1171149999999999,-0.0420599999999999,0.476613,-0.0677449999999999,-0.141379,0.255363,0.030635,0.24392,0.434543,-0.0504649999999999,0.38436,0.269303,-0.0764249999999999,-0.207363,0.036495,-0.0259349999999999,0.4863699999999999,0.207783,-0.254745,-0.073,0.012941,-0.0045949999999999,0.073,-0.012941,0.004595,-0.18889,-0.3338069999999999,0.040895,0.13982,-0.350327,-0.0941149999999999,-0.290305,-0.670657,0.179515,0.17898,-0.679837,-0.1277249999999999,0
165,0.190595,0.705141,-0.1306,-0.0316849999999999,0.478171,-0.0744799999999999,-0.135495,0.261201,0.03186,0.2498849999999999,0.428721,-0.0653,0.3884249999999999,0.261721,-0.09852,-0.213172,0.031873,-0.0152999999999999,0.486745,0.1975309999999999,-0.26676,-0.073025,0.014842,-0.0035499999999999,0.073025,-0.014842,0.0035499999999999,-0.184276,-0.330929,0.03793,0.130345,-0.355269,-0.08664,-0.293305,-0.655839,0.1769,0.159655,-0.685609,-0.1120999999999999,0
166,0.20355,0.7005875,-0.14337,-0.01937,0.4794575,-0.08242,-0.13001,0.2682775,0.03353,0.25569,0.4231075,-0.0787999999999999,0.39177,0.2551375,-0.1196699999999999,-0.217266,0.0305665,-0.0061699999999999,0.48546,0.1882375,-0.2734599999999999,-0.0729899999999999,0.0165025,-0.0024799999999999,0.07299,-0.0165025,0.00248,-0.1787289999999999,-0.3283725,0.03456,0.12091,-0.3598225,-0.0787799999999999,-0.294187,-0.6415825,0.17393,0.14192,-0.6915425,-0.0972899999999999,0
167,0.2139599999999999,0.6976074999999999,-0.154115,-0.0100999999999999,0.4808075,-0.087595,-0.12581,0.2769475,0.034505,0.25989,0.4189475,-0.089845,0.3950999999999999,0.2499975,-0.135305,-0.221253,0.0354764999999999,0.0014949999999999,0.4836,0.1825574999999999,-0.2769049999999999,-0.07286,0.0176775,-0.001225,0.0728599999999999,-0.0176775,0.0012249999999999,-0.17384,-0.3268724999999999,0.031845,0.1114999999999999,-0.3626925,-0.071315,-0.292014,-0.6308525,0.1709449999999999,0.12813,-0.6959425,-0.085415,0
168,0.2236049999999999,0.6946869999999999,-0.16431,-0.000645,0.481827,-0.09305,-0.122565,0.284987,0.0350999999999999,0.2631449999999999,0.414707,-0.09953,0.3971949999999999,0.245477,-0.1473,-0.226539,0.04223,0.00716,0.479325,0.176277,-0.2764,-0.072555,0.018693,6.999999999995898e-05,0.0725549999999999,-0.018693,-7.00000000000145e-05,-0.165575,-0.325023,0.02804,0.1010049999999999,-0.365203,-0.06301,-0.289933,-0.620783,0.1696799999999999,0.1129049999999999,-0.699883,-0.07233,0
169,0.231145,0.6929615,-0.1716799999999999,0.0071549999999999,0.4823715,-0.0968499999999999,-0.120695,0.2907215,0.03525,0.265545,0.4123015,-0.1059599999999999,0.398185,0.2417815,-0.15266,-0.228278,0.0505145,0.0113199999999999,0.4745049999999999,0.1703414999999999,-0.2757499999999999,-0.072165,0.0190704999999999,0.00156,0.0721649999999999,-0.0190705,-0.00156,-0.158185,-0.3236485,0.02561,0.092795,-0.3668685,-0.05624,-0.28774,-0.6102785,0.17009,0.1016349999999999,-0.7020385,-0.0615899999999999,0
170,0.2377349999999999,0.690894,-0.17794,0.0139649999999999,0.482734,-0.10008,-0.119175,0.2952639999999999,0.0353499999999999,0.2672449999999999,0.410414,-0.11132,0.392775,0.238494,-0.14853,-0.231525,0.056772,0.0154699999999999,0.468345,0.163234,-0.26814,-0.071785,0.019465,0.0029799999999999,0.0717849999999999,-0.0194649999999999,-0.0029799999999999,-0.151995,-0.323126,0.0233899999999999,0.084395,-0.369516,-0.0494999999999999,-0.285456,-0.605046,0.1712699999999999,0.0901949999999999,-0.704076,-0.0508399999999999,0
171,0.24236,0.689312,-0.1825399999999999,0.0188499999999999,0.482852,-0.10251,-0.11806,0.299502,0.0348899999999999,0.26761,0.409672,-0.1144299999999999,0.3836699999999999,0.2360919999999999,-0.13906,-0.2331,0.061314,0.01893,0.45846,0.156362,-0.2587,-0.07137,0.019711,0.00395,0.0713699999999999,-0.019711,-0.00395,-0.14636,-0.323178,0.02182,0.0772299999999999,-0.371048,-0.04424,-0.284043,-0.6015579999999999,0.17092,0.0808699999999999,-0.704958,-0.04214,0
172,0.24478,0.6882075,-0.185515,0.02112,0.4828175,-0.103815,-0.1177999999999999,0.3019975,0.034075,0.2671099999999999,0.4091475,-0.1149049999999999,0.37605,0.2338675,-0.131975,-0.23475,0.0654185,0.020695,0.45084,0.1460475,-0.251615,-0.07083,0.0197545,0.004135,0.07083,-0.0197545,-0.004135,-0.1407199999999999,-0.3237025,0.0190049999999999,0.07185,-0.3720725,-0.040895,-0.283226,-0.6020825,0.171845,0.0735899999999999,-0.7054825,-0.035785,0
173,0.24627,0.6875655,-0.18712,0.0225999999999999,0.4828655,-0.1040699999999999,-0.11914,0.3014455,0.0341799999999999,0.2671399999999999,0.4084755,-0.1131099999999999,0.3681299999999999,0.2303155,-0.12423,-0.23523,0.0650585,0.02194,0.44292,0.1339455,-0.2438699999999999,-0.0704,0.0197024999999999,0.0041499999999999,0.0703999999999999,-0.0197024999999999,-0.0041499999999999,-0.13622,-0.3242545,0.0174199999999999,0.0665899999999999,-0.3728645,-0.03737,-0.279916,-0.6026345,0.17339,0.0660399999999999,-0.7060345,-0.0286899999999999,0
174,0.25162,0.682148,-0.1931399999999999,0.02978,0.483458,-0.11031,-0.1211899999999999,0.312478,0.0321399999999999,0.26992,0.401678,-0.12022,0.3943399999999999,0.2285879999999999,-0.15337,-0.23722,0.089418,0.0242999999999999,0.43029,0.181648,-0.21375,-0.06956,0.020627,0.0046999999999999,0.06956,-0.020627,-0.0047,-0.1097,-0.319642,0.0104999999999999,0.0584399999999999,-0.377852,-0.03274,-0.283858,-0.5848120000000001,0.1797099999999999,0.0559299999999999,-0.7079219999999999,-0.01991,0
175,0.250175,0.6827124999999999,-0.1911649999999999,0.0267549999999999,0.4840325,-0.1071949999999999,-0.122595,0.3113625,0.033175,0.265165,0.4045424999999999,-0.113715,0.388225,0.2303025,-0.1460349999999999,-0.237085,0.0900624999999999,0.0249449999999999,0.434235,0.1662125,-0.214205,-0.069905,0.0203565,0.0049049999999999,0.069905,-0.0203564999999999,-0.0049049999999999,-0.119215,-0.3172975,0.014355,0.056975,-0.3772475,-0.032075,-0.283225,-0.5901975,0.181745,0.0530849999999999,-0.7061575,-0.0182749999999999,0
176,0.249315,0.68249,-0.191305,0.024255,0.48387,-0.1052249999999999,-0.1228849999999999,0.3092499999999999,0.0327649999999999,0.263855,0.40497,-0.111575,0.383585,0.2277199999999999,-0.1381549999999999,-0.2359849999999999,0.08973,0.0259449999999999,0.485395,0.08627,-0.266335,-0.0697149999999999,0.020198,0.004035,0.069715,-0.020198,-0.004035,-0.1288649999999999,-0.31894,0.0200049999999999,0.056395,-0.37755,-0.031015,-0.281887,-0.59038,0.183765,0.050465,-0.70621,-0.013245,0
177,0.242645,0.6837605,-0.1826499999999999,0.0174249999999999,0.4842305,-0.0957099999999999,-0.123615,0.2990005,0.03541,0.2668649999999999,0.4076305,-0.10192,0.343155,0.1930405,-0.0715099999999999,-0.227895,0.0724075,0.02377,0.435365,0.0664945,-0.22202,-0.069535,0.0197155,0.00208,0.0695349999999999,-0.0197155,-0.0020799999999999,-0.147785,-0.3270695,0.03158,0.0559149999999999,-0.3768195,-0.0292,-0.261955,-0.6354195,0.19689,0.0432649999999999,-0.7064995,-0.0036899999999999,0
178,0.2393299999999999,0.6838495,-0.17956,0.0143699999999999,0.4831995,-0.0930499999999999,-0.12307,0.2939695,0.0356,0.2769699999999999,0.4115095,-0.09413,0.3086599999999999,0.2075395,-0.01987,-0.22729,0.0679935,0.02533,0.40418,0.0618165,-0.18935,-0.06935,0.0200974999999999,0.0010999999999999,0.0693499999999999,-0.0200975,-0.0010999999999999,-0.15144,-0.3314705,0.0340199999999999,0.0554199999999999,-0.3784305,-0.02895,-0.25636,-0.6349405,0.1953599999999999,0.0398899999999999,-0.7074705,-0.00085,0
179,0.2370999999999999,0.684724,-0.177015,0.01252,0.483504,-0.0906449999999999,-0.1218999999999999,0.289124,0.0364649999999999,0.27675,0.412154,-0.0904049999999999,0.30389,0.209884,-0.017905,-0.2145099999999999,0.074679,0.0267149999999999,0.3769600000000001,0.039505,-0.164015,-0.06921,0.019924,0.0002249999999999,0.06921,-0.019924,-0.000225,-0.1648499999999999,-0.336886,0.0382949999999999,0.05724,-0.376786,-0.030155,-0.2468899999999999,-0.6407860000000001,0.191695,0.03907,-0.704686,-0.0001249999999999,0
180,0.231195,0.6891849999999999,-0.16945,0.0064049999999999,0.485565,-0.0843999999999999,-0.120475,0.2801749999999999,0.03982,0.278165,0.4108849999999999,-0.0753499999999999,0.2992049999999999,0.207355,-0.0173799999999999,-0.211085,0.037362,0.021,0.314635,0.011038,-0.1080399999999999,-0.068045,0.019428,-0.0031299999999999,0.0680449999999999,-0.019428,0.00313,-0.171085,-0.345915,0.04276,0.0574549999999999,-0.374425,-0.0311,-0.241325,-0.6599550000000001,0.17356,0.033445,-0.706715,0.00607,0
