sb224sc-HT22-VT27/4dt907/src/data/labeled_files/A36_kinect_mirrored.csv
FrameNo,nose_3d_x,nose_3d_y,nose_3d_z,left_shoulder_3d_x,left_shoulder_3d_y,left_shoulder_3d_z,left_elbow_3d_x,left_elbow_3d_y,left_elbow_3d_z,right_shoulder_3d_x,right_shoulder_3d_y,right_shoulder_3d_z,right_elbow_3d_x,right_elbow_3d_y,right_elbow_3d_z,left_wrist_3d_x,left_wrist_3d_y,left_wrist_3d_z,right_wrist_3d_x,right_wrist_3d_y,right_wrist_3d_z,left_hip_3d_x,left_hip_3d_y,left_hip_3d_z,right_hip_3d_x,right_hip_3d_y,right_hip_3d_z,left_knee_3d_x,left_knee_3d_y,left_knee_3d_z,right_knee_3d_x,right_knee_3d_y,right_knee_3d_z,left_ankle_3d_x,left_ankle_3d_y,left_ankle_3d_z,right_ankle_3d_x,right_ankle_3d_y,right_ankle_3d_z,activity_label
0,0.983179,0.762396,0.0640355,0.84032,0.460916,0.0676045,0.8107800000000001,0.213466,0.0711855,1.15474,0.468806,0.0618775,1.17078,0.2162659999999999,0.0697975,0.79949,0.004247,-0.0101554999999999,1.19423,0.014974,-0.0036544999999999,0.92679,-0.0031119999999999,-0.0002085,1.07321,0.003112,0.0002085,0.88871,-0.415674,-0.0012244999999999,1.12947,-0.372984,-0.0220985,0.87958,-0.739734,-0.0301275,1.1403599999999998,-0.732924,-0.0215454999999999,0
1,0.983041,0.7622635,0.0636925,0.840623,0.4605735,0.0672095,0.8108830000000001,0.2136835,0.0710524999999999,1.155213,0.4687535,0.0622845,1.170733,0.2162135,0.0697965,0.799593,0.0040215,-0.0102944999999999,1.190003,0.0140805,-0.0024635,0.926928,-0.0031154999999999,-0.0003604999999999,1.073072,0.0031155,0.0003604999999999,0.888713,-0.4158865,-0.0013654999999999,1.129383,-0.3747365,-0.0231225,0.879513,-0.7394165,-0.0296465,1.140463,-0.7329365,-0.0220465,0
2,0.9831075,0.762224,0.063655,0.8405845000000001,0.460624,0.06739,0.8108744999999999,0.213614,0.071003,1.1552945,0.468714,0.062279,1.1705845,0.216434,0.06994,0.8001045,0.003664,-0.0105899999999999,1.1907744999999998,0.014321,-0.0020799999999999,0.9269305,-0.003114,-0.0003369999999999,1.0730695,0.003114,0.000337,0.8887945,-0.415856,-0.0013429999999999,1.1294145,-0.373336,-0.0230979999999999,0.8798144999999999,-0.7405660000000001,-0.0305669999999999,1.1405145,-0.733046,-0.0221369999999999,0
3,0.9831725,0.7622445,0.063622,0.8401345,0.4604645,0.067664,0.8108545,0.2134745,0.070896,1.1553445,0.4687045,0.0623139999999999,1.1706145,0.2164145,0.0699819999999999,0.8001745,0.0036645,-0.01061,1.1913645,0.0141845,-0.001453,0.9269565,-0.0031035,-0.000306,1.0730435,0.0031035,0.000306,0.8888345,-0.4158055,-0.0013319999999999,1.1294445,-0.3741555,-0.02275,0.8794145,-0.7399155,-0.0305369999999999,1.1407745,-0.7337055,-0.024214,0
4,0.983203,0.762394,0.063591,0.8400210000000001,0.460414,0.067503,0.810831,0.213534,0.070582,1.155401,0.468784,0.0622319999999999,1.170681,0.216424,0.069827,0.800251,0.0036489999999999,-0.010775,1.192241,0.014057,-0.0008789999999999,0.926958,-0.003104,-0.0003329999999999,1.073042,0.0031039999999999,0.0003329999999999,0.888911,-0.415836,-0.0014219999999999,1.129521,-0.375266,-0.022545,0.879431,-0.740276,-0.030844,1.140771,-0.733766,-0.024375,0
5,0.9840595,0.7625219999999999,0.0633675,0.8402855000000001,0.460332,0.0673035,0.8110155,0.213912,0.0703545,1.1559655,0.468612,0.0622635,1.1708055,0.2163119999999999,0.0698505,0.8005255,0.00377,-0.0114454999999999,1.1923255,0.013898,-0.0007235,0.9269535,-0.003018,-0.0003514999999999,1.0730465,0.003018,0.0003514999999999,0.8884055,-0.415858,-0.0014435,1.1290555,-0.375398,-0.0224945,0.8785955,-0.7401880000000001,-0.0307514999999999,1.1398155,-0.7341580000000001,-0.0239595,0
6,0.9840135,0.7624084999999999,0.063167,0.8404035,0.4605585,0.067461,0.8106234999999999,0.2133585,0.069702,1.1559135,0.4686685,0.0621209999999999,1.1707235,0.2164285,0.069664,0.8004735000000001,0.0037964999999999,-0.011791,1.1920835,0.0139845,-0.000877,0.9269625,-0.0030445,-0.000557,1.0730375,0.0030445,0.0005569999999999,0.8883235,-0.4160515,-0.001456,1.1291935,-0.3762815,-0.022173,0.8788435,-0.7402115,-0.03114,1.1398335,-0.7344815,-0.02383,0
7,0.983383,0.7622475000000001,0.06345,0.839414,0.4605475,0.06744,0.809064,0.2164375,0.065309,1.155334,0.4687675,0.062282,1.173324,0.2178775,0.065699,0.797184,0.0102535,-0.0202229999999999,1.200534,0.0189245,-0.012884,0.926993,-0.0031475,-0.000382,1.0730069999999998,0.0031475,0.000382,0.8885540000000001,-0.4155425,-0.0014669999999999,1.129264,-0.3730325,-0.02162,0.878834,-0.7411225,-0.030922,1.139574,-0.7331025,-0.0221229999999999,0
8,0.9833610000000002,0.762249,0.063449,0.839356,0.460549,0.067362,0.807336,0.219149,0.061792,1.155156,0.468809,0.062497,1.176416,0.220299,0.061769,0.794396,0.015106,-0.026033,1.205946,0.023157,-0.0201599999999999,0.927019,-0.00314,-0.0003859999999999,1.072981,0.00314,0.000386,0.888506,-0.415331,-0.0014899999999999,1.129246,-0.372121,-0.02132,0.878766,-0.741261,-0.030976,1.139196,-0.732941,-0.0217819999999999,0
9,0.983351,0.762242,0.0637649999999999,0.839235,0.460742,0.0670089999999999,0.803335,0.224352,0.0549929999999999,1.154865,0.468902,0.0627549999999999,1.183035,0.226692,0.0545089999999999,0.788395,0.025085,-0.039086,1.214875,0.032674,-0.03314,0.92697,-0.003153,-0.000384,1.07303,0.003153,0.0003839999999999,0.888565,-0.414538,-0.001497,1.129255,-0.370768,-0.020889,0.8786849999999999,-0.741358,-0.031039,1.138755,-0.732738,-0.021412,0
10,0.9833885,0.762226,0.0644635,0.8394085,0.461166,0.0662825,0.7970685,0.231836,0.0445265,1.1541785,0.469206,0.0630265,1.1927485,0.237006,0.0427844999999999,0.7783785,0.043273,-0.0606955,1.2291885,0.051623,-0.0556125,0.9268585,-0.003188,-0.0003895,1.0731415,0.003188,0.0003895,0.8887085,-0.413644,-0.0014085,1.1293185,-0.369294,-0.0203395,0.8786985,-0.741404,-0.0311144999999999,1.1385285,-0.732344,-0.0207795,0
11,0.983409,0.7618775,0.065215,0.839709,0.4616975,0.065399,0.7892890000000001,0.2415475,0.031484,1.153199,0.4696375,0.063362,1.203709,0.2497875,0.029141,0.765719,0.0674975,-0.086607,1.246829,0.0767765,-0.081487,0.92673,-0.0032455,-0.000389,1.07327,0.0032455,0.000389,0.888849,-0.4127425,-0.001236,1.129359,-0.3675525,-0.0197699999999999,0.8788390000000001,-0.7420325,-0.0308129999999999,1.138299,-0.7319725,-0.0197859999999999,0
12,0.983459,0.7614745,0.0661684999999999,0.840201,0.4624344999999999,0.0642205,0.7800009999999999,0.2549845,0.0151195,1.151991,0.4702145,0.0637565,1.215551,0.2663945,0.0129944999999999,0.751261,0.0939175,-0.1223835,1.265721,0.1071044999999999,-0.1099935,0.92659,-0.0032965,-0.0004274999999999,1.07341,0.0032965,0.0004274999999999,0.8890210000000001,-0.4117355,-0.0010845,1.129381,-0.3654055,-0.0191865,0.879021,-0.7426855,-0.0305304999999999,1.138061,-0.7315955,-0.0188385,0
13,0.98364,0.7609545,0.0673634999999999,0.840725,0.4634344999999999,0.0626645,0.768195,0.2751345,-0.0037295,1.150585,0.4709144999999999,0.0638825,1.229445,0.2896745,-0.0039775,0.734525,0.1346145,-0.1555965,1.286485,0.1511445,-0.1416365,0.926426,-0.0033365,-0.0006365,1.073574,0.0033365,0.0006364999999999,0.889325,-0.4107055,-0.0010335,1.129435,-0.3630255,-0.0186625,0.879325,-0.7434255000000001,-0.0303495,1.137755,-0.7311855,-0.0181055,0
14,0.983867,0.7602705000000001,0.0685465,0.8411040000000001,0.4646705,0.0609115,0.756004,0.2965704999999999,-0.0222855,1.149284,0.4717004999999999,0.0635415,1.243674,0.3168804999999999,-0.0203505,0.717384,0.1811305,-0.1888075,1.307744,0.2016005,-0.1724875,0.926265,-0.0033755,-0.0009434999999999,1.073735,0.0033755,0.0009434999999999,0.889634,-0.4097495,-0.0011014999999999,1.129474,-0.3610595,-0.0183095,0.879524,-0.7443195,-0.0302715,1.137434,-0.7309995,-0.0176155,0
15,0.9841115,0.75949,0.069743,0.8413235,0.46608,0.059003,0.7440534999999999,0.32271,-0.03793,1.1479635,0.47271,0.062982,1.2572135,0.34679,-0.036043,0.7007935000000001,0.23542,-0.2168999999999999,1.3266635,0.25726,-0.19967,0.9261305,-0.003392,-0.0012529999999999,1.0738695,0.003392,0.001253,0.8899235,-0.40889,-0.0012169999999999,1.1294535,-0.35952,-0.0180709999999999,0.8796535,-0.74524,-0.030322,1.1370835,-0.73095,-0.0172169999999999,0
16,0.98439,0.758585,0.0709615,0.841336,0.4679149999999999,0.0570405,0.732746,0.349925,-0.0523115,1.146626,0.473795,0.0623785,1.269266,0.379245,-0.0499665,0.686546,0.292925,-0.2403665,1.344646,0.318645,-0.2240265,0.926006,-0.003401,-0.0015715,1.073994,0.003401,0.0015715,0.890176,-0.408215,-0.0013345,1.129406,-0.358435,-0.0179295,0.879776,-0.746245,-0.0303845,1.136806,-0.731125,-0.0171945,0
17,0.984696,0.7574615,0.0721565,0.841243,0.4698815,0.0551274999999999,0.721743,0.3823215,-0.0651245,1.145923,0.4753215,0.0618205,1.280193,0.4144815,-0.0598745,0.673943,0.3562415,-0.2574245,1.358243,0.3847415,-0.2393545,0.925881,-0.0034184999999999,-0.0018185,1.074119,0.0034185,0.0018185,0.890463,-0.4073885,-0.0013835,1.129313,-0.3579885,-0.0178235,0.879873,-0.7473785000000001,-0.0303794999999999,1.136603,-0.7315885000000001,-0.0171155,0
18,0.985013,0.755804,0.0730885,0.8410480000000001,0.472044,0.0534555,0.713048,0.4182639999999999,-0.0733215,1.145378,0.476794,0.0612075,1.287098,0.453494,-0.0655525,0.6647080000000001,0.425784,-0.2656415,1.367438,0.457974,-0.2461215,0.925789,-0.0034159999999999,-0.0019915,1.074211,0.003416,0.0019915,0.890658,-0.407706,-0.0014054999999999,1.129218,-0.358406,-0.0177294999999999,0.879958,-0.749096,-0.0302785,1.136438,-0.732926,-0.0171105,0
19,0.9852705,0.7537714999999999,0.0735665,0.8412405000000001,0.4742315,0.0523035,0.7079405,0.4529415,-0.0740465,1.1450705,0.4782214999999999,0.0606025,1.2888805,0.4890015,-0.0658695,0.6602105,0.4910914999999999,-0.2658265,1.3682605,0.5268815,-0.2464164999999999,0.9257095,-0.0033784999999999,-0.0021405,1.0742905,0.0033784999999999,0.0021405,0.8907505,-0.4084585,-0.0013414999999999,1.1290705,-0.3595385,-0.0175665,0.8798505000000001,-0.7511385,-0.0298605,1.1363805,-0.7349585000000001,-0.0171475,0
20,0.985494,0.751405,0.0737905,0.841746,0.476375,0.0514675,0.706276,0.490735,-0.0742015,1.144676,0.480525,0.0596575,1.289066,0.524755,-0.0660625,0.659516,0.556875,-0.2660015,1.368046,0.5937749999999999,-0.2466014999999999,0.925655,-0.003362,-0.0023284999999999,1.074345,0.003362,0.0023285,0.890626,-0.410085,-0.0014175,1.128866,-0.362095,-0.0173984999999999,0.879636,-0.753735,-0.0299895,1.136156,-0.7375550000000001,-0.0173325,0
21,0.9856255,0.7489210000000001,0.0737055,0.8422295,0.478251,0.0509435,0.7060195,0.526491,-0.0742785,1.1442294999999998,0.482951,0.0588805,1.2888095,0.5577510000000001,-0.0661394999999999,0.6592595,0.6270110000000001,-0.2660785,1.3677895,0.658251,-0.2466784999999999,0.9256305,-0.003346,-0.0024105,1.0743695,0.003346,0.0024104999999999,0.8903795,-0.412049,-0.0014475,1.1286195,-0.364899,-0.0172065,0.8793795000000001,-0.756659,-0.0299714999999999,1.1357795,-0.740479,-0.0173995,0
22,0.985553,0.7463905000000001,0.073723,0.842381,0.4811805,0.0507289999999999,0.705731,0.5617905,-0.074256,1.143571,0.4859005,0.057982,1.288561,0.5888605,-0.063833,0.659071,0.6864405,-0.261556,1.367701,0.7147705,-0.236866,0.925658,-0.0033085,-0.0024269999999999,1.074342,0.0033084999999999,0.002427,0.890091,-0.4144994999999999,-0.0014249999999999,1.128311,-0.3679794999999999,-0.0171399999999999,0.8790910000000001,-0.7600595,-0.0299489999999999,1.1355309999999998,-0.7438795,-0.017193,0
23,0.985573,0.7438105,0.073774,0.8423880000000001,0.4837505,0.050603,0.705468,0.5980905000000001,-0.070237,1.143008,0.4886704999999999,0.057601,1.288328,0.6203505,-0.058824,0.659088,0.7419205000000001,-0.244587,1.364558,0.7657605000000001,-0.220887,0.925764,-0.0032045,-0.002481,1.074236,0.0032044999999999,0.002481,0.889758,-0.4168895,-0.0013659999999999,1.127908,-0.3711595,-0.017063,0.8786579999999999,-0.7636795,-0.02961,1.135378,-0.7475094999999999,-0.0171389999999999,0
24,0.985494,0.7414205,0.073712,0.8421830000000001,0.4861005,0.050582,0.705343,0.6299505,-0.062515,1.142623,0.4916705,0.057359,1.287433,0.6490505,-0.051058,0.6611130000000001,0.7900605,-0.214787,1.359503,0.8108405,-0.200267,0.92589,-0.0031614999999999,-0.002595,1.07411,0.0031615,0.002595,0.889363,-0.4194695,-0.001246,1.127443,-0.3744995,-0.016942,0.878153,-0.7673795,-0.0294649999999999,1.135013,-0.7512095,-0.016897,0
25,0.9853355,0.739053,0.0730755,0.8420025,0.487903,0.0508715,0.7086224999999999,0.6590429999999999,-0.0502035,1.1423025,0.4946929999999999,0.0573845,1.2836125,0.674603,-0.0410645,0.6662825,0.833793,-0.1821135,1.3513625,0.850523,-0.1728035,0.9260915,-0.0030519999999999,-0.0026805,1.0739085,0.0030519999999999,0.0026805,0.8888525,-0.422267,-0.0010905,1.1269125,-0.378387,-0.0165365,0.8774725,-0.771467,-0.0290484999999999,1.1344625,-0.754847,-0.0164915,0
26,0.98513,0.7367119999999999,0.0722095,0.841951,0.489402,0.0515245,0.712681,0.682342,-0.0360375,1.141811,0.498092,0.0580475,1.278401,0.696642,-0.0298375,0.6725209999999999,0.871212,-0.1473095,1.340701,0.8844019999999999,-0.1426895,0.926341,-0.0029759999999999,-0.0027524999999999,1.073659,0.0029759999999999,0.0027524999999999,0.8882510000000001,-0.425568,-0.0007235,1.126321,-0.382558,-0.0158715,0.876791,-0.775838,-0.0283955,1.133811,-0.7593380000000001,-0.0156865,0
27,0.9850365,0.7347699999999999,0.0710795,0.8420675,0.4904699999999999,0.0524255,0.7172875000000001,0.6999299999999999,-0.0232264999999999,1.1413475,0.50169,0.0589605,1.2729675,0.71115,-0.0177745,0.6790575,0.89729,-0.1144065,1.3287875,0.90635,-0.1118365,0.9265755,-0.002943,-0.0028364999999999,1.0734245,0.002943,0.0028365,0.8876675,-0.42848,-0.0002435,1.1257575,-0.38635,-0.0150534999999999,0.8761875000000001,-0.77986,-0.0275315,1.1332375,-0.7636200000000001,-0.0147934999999999,0
28,0.985036,0.733252,0.0698935,0.8424070000000001,0.4913419999999999,0.0533784999999999,0.722027,0.716702,-0.0103284999999999,1.140977,0.505112,0.0599284999999999,1.267627,0.725492,-0.0060645,0.685287,0.919622,-0.0833885,1.317227,0.923492,-0.0822285,0.926791,-0.002921,-0.0029365,1.073209,0.002921,0.0029364999999999,0.887167,-0.430948,0.0002624999999999,1.125267,-0.389688,-0.0142315,0.875777,-0.783558,-0.0266035,1.132787,-0.767698,-0.0136254999999999,0
29,0.9851265,0.732316,0.068616,0.8429625000000001,0.492236,0.054356,0.7265025,0.7281759999999999,0.0024019999999999,1.1407025,0.5076959999999999,0.061021,1.2623525,0.7368859999999999,0.0040389999999999,0.6909525000000001,0.935716,-0.056198,1.3080525,0.936596,-0.057884,0.9269725,-0.0028649999999999,-0.003186,1.0730275,0.002865,0.0031859999999999,0.8866925,-0.4329039999999999,0.0007519999999999,1.1248325,-0.3923939999999999,-0.013478,0.8753725,-0.7866540000000001,-0.025748,1.1323925,-0.7712140000000001,-0.012351,0
30,0.9850025,0.731359,0.0675875,0.8438225000000001,0.493039,0.0553835,0.7305225,0.737559,0.0140215,1.1404225,0.510379,0.0622475,1.2572425,0.747359,0.0135535,0.6961525,0.945229,-0.0304205,1.3000625,0.947099,-0.0363365,0.9271185,-0.0028649999999999,-0.0035555,1.0728815,0.0028649999999999,0.0035554999999999,0.8864025000000001,-0.434811,0.0011144999999999,1.1245825,-0.394401,-0.0128885,0.8750925,-0.789131,-0.0250345,1.1322525,-0.774151,-0.0114795,0
31,0.985015,0.7305315,0.0667565,0.844668,0.4925414999999999,0.0562194999999999,0.733738,0.7406115,0.0219294999999999,1.140138,0.5123015,0.0634435,1.254098,0.7529415,0.0200174999999999,0.7004779999999999,0.9511315,-0.0084255,1.294758,0.9519115,-0.0214925,0.927254,-0.0029034999999999,-0.0039585,1.072746,0.0029035,0.0039584999999999,0.886138,-0.4361685,0.0012684999999999,1.124368,-0.3961085,-0.0125195,0.874838,-0.7910485,-0.0246475,1.132208,-0.7762585,-0.0105525,0
32,0.9849445,0.7298445,0.0660715,0.8452175,0.4921345,0.0568495,0.7349775000000001,0.7412044999999999,0.0279015,1.1396075,0.5143145,0.0648885,1.2511675,0.7541745,0.0257515,0.7033375,0.9539745,0.0054485,1.2901275,0.9554745,-0.0095234999999999,0.9273455,-0.0029975,-0.0042974999999999,1.0726545,0.0029975,0.0042975,0.8859575,-0.4374655,0.0013715,1.1242075,-0.3977255,-0.0123424999999999,0.8746674999999999,-0.7924355000000001,-0.0245404999999999,1.1321475,-0.7781855,-0.0103064999999999,0
33,0.984989,0.729159,0.065694,0.845783,0.4917889999999999,0.057562,0.7361329999999999,0.741159,0.033823,1.139073,0.515859,0.066613,1.248053,0.7552289999999999,0.031594,0.705453,0.956149,0.016502,1.285563,0.958349,0.001101,0.92745,-0.003054,-0.0046309999999999,1.07255,0.0030539999999999,0.004631,0.886043,-0.438651,0.0013,1.124143,-0.399161,-0.0123579999999999,0.8750630000000001,-0.7941210000000001,-0.0244819999999999,1.132163,-0.7801410000000001,-0.0100909999999999,0
34,0.985121,0.728811,0.0656674999999999,0.846104,0.4916009999999999,0.0581664999999999,0.7363840000000001,0.741671,0.0378354999999999,1.138724,0.517251,0.0682665,1.245744,0.755951,0.0361914999999999,0.7066940000000002,0.956991,0.0233204999999999,1.282194,0.960191,0.0084994999999999,0.927519,-0.003175,-0.0048305,1.0724809999999998,0.0031749999999999,0.0048304999999999,0.886174,-0.439319,0.0012744999999999,1.124104,-0.400129,-0.0124585,0.8755040000000001,-0.795199,-0.0244515,1.132334,-0.781459,-0.0100425,0
35,0.9853415,0.7288595,0.0656965,0.8463545,0.4915895,0.0585785,0.7364345,0.7417995,0.0402435,1.1384045,0.5176795,0.0694185,1.2441545,0.7561194999999999,0.0394415,0.7072244999999999,0.9572295,0.0267945,1.2798345,0.9612295,0.0130655,0.9275185,-0.0031894999999999,-0.0048635,1.0724815,0.0031895,0.0048635,0.8865545,-0.4393805,0.0010905,1.1242645,-0.4002305,-0.0127324999999999,0.8760945,-0.7959805000000001,-0.0246484999999999,1.1329045,-0.7819905,-0.0100214999999999,0
36,0.9855085,0.7290584999999999,0.0656345,0.8464935,0.4917184999999999,0.0589245,0.7364634999999999,0.7418385,0.0418225,1.1380535,0.5177485,0.0703884999999999,1.2430635,0.7561585,0.0417945,0.7072635,0.9573185,0.0287955,1.2782735,0.9617185,0.0157345,0.9275175,-0.0031785,-0.0049215,1.0724825,0.0031785,0.0049215,0.8868635,-0.4393915,0.0008304999999999,1.1243335,-0.4004215,-0.0130564999999999,0.8766435,-0.7966715,-0.0249744999999999,1.1334635,-0.7827115,-0.0102155,0
37,0.9856855,0.7291985,0.0654754999999999,0.8465025000000002,0.4917184999999999,0.0592184999999999,0.7364925,0.7418785,0.0429455,1.1376725,0.5178085,0.0712744999999999,1.2421725,0.7561985,0.0437165,0.7072925,0.9573185,0.0298295,1.2770825,0.9618185,0.0174754999999999,0.9275165,-0.0031785,-0.0050765,1.0724835,0.0031785,0.0050764999999999,0.8870425000000001,-0.4398315,0.0004894999999999,1.1243625,-0.4009515,-0.0134885,0.8771825,-0.7974215,-0.0253395,1.1339725,-0.7833215,-0.0109385,1
38,0.9859335,0.729143,0.0655179999999999,0.8465725,0.491653,0.0594539999999999,0.7364925,0.741913,0.0437069999999999,1.1373425,0.517843,0.0719789999999999,1.2415425,0.756233,0.044794,0.7073525,0.957353,0.0296479999999999,1.2763725,0.961953,0.0178999999999999,0.9275405,-0.003213,-0.005257,1.0724595,0.003213,0.0052569999999999,0.8871025,-0.440397,0.0001559999999999,1.1243725,-0.401497,-0.013891,0.8776425,-0.7981969999999999,-0.025862,1.1343725,-0.7836069999999999,-0.011127,1
39,0.9862945,0.7294045,0.0656215,0.8468575,0.4920945,0.0593245,0.7364275,0.7417545000000001,0.0435355,1.1372675,0.5183545,0.0722615,1.2413275,0.7562545,0.0445305,0.7074175,0.9577145,0.0289945,1.2765375,0.9622145,0.0172455,0.9275115,-0.0032415,-0.0053684999999999,1.0724885,0.0032414999999999,0.0053685,0.8872975,-0.4409255,-0.0006945,1.1245375,-0.4023355,-0.0149235,0.8780275,-0.7986755000000001,-0.0268305,1.1348075,-0.7841454999999999,-0.0127924999999999,1
40,0.9867265,0.7296115000000001,0.0655834999999999,0.8472345,0.4924615,0.0589255,0.7362545,0.7415415000000001,0.0428355,1.1373345,0.5190315000000001,0.0722994999999999,1.2413845,0.7561515000000001,0.0436615,0.7073645,0.9579315000000002,0.0280824999999999,1.2768045,0.9626315,0.0163264999999999,0.9274735,-0.0032324999999999,-0.0053985,1.0725265,0.0032324999999999,0.0053984999999999,0.8875545,-0.4414985,-0.0019045,1.1247645,-0.4030685,-0.0163805,0.8784745,-0.7990885000000001,-0.0280494999999999,1.1353345,-0.7845884999999999,-0.0151055,1
41,0.9873965,0.7298635,0.0641974999999999,0.8478375,0.4926835,0.0573805,0.7362275,0.7414335,0.0405235,1.1377175,0.5195535,0.0707645,1.2414275,0.7565135,0.0413324999999999,0.7069675,0.9582135,0.0248474999999999,1.2773075,0.9632135,0.0139874999999999,0.9274245,-0.0030984999999999,-0.0054505,1.0725755,0.0030985,0.0054504999999999,0.8879075,-0.4424365,-0.0052875,1.1248775,-0.4050865,-0.0201405,0.8791675,-0.7992465,-0.0309175,1.1361075,-0.7850765,-0.0193695,1
42,0.9879695,0.730016,0.0617385,0.8480565,0.4927359999999999,0.0548155,0.7364865,0.741266,0.0373715,1.1379765,0.519846,0.0680175,1.2413765,0.756906,0.0381875,0.7065965000000001,0.958356,0.0197945,1.2775565,0.963656,0.0101134999999999,0.9273025,-0.0029319999999999,-0.0053525,1.0726975,0.002932,0.0053525,0.8877865,-0.443344,-0.0099095,1.1247465,-0.408024,-0.0250205,0.8794365,-0.799124,-0.0346595,1.1365365,-0.785834,-0.0244285,1
43,0.988494,0.73035,0.0587815,0.8482760000000001,0.49283,0.0518784999999999,0.736666,0.7411,0.0338175,1.138196,0.5202,0.0648595,1.241366,0.75734,0.0346365,0.706176,0.95847,0.0138824999999999,1.277946,0.96397,0.0053915,0.927124,-0.0027179999999999,-0.0051785,1.072876,0.0027179999999999,0.0051784999999999,0.887556,-0.4443,-0.0151705,1.124746,-0.41074,-0.0305124999999999,0.879636,-0.79899,-0.0387604999999999,1.136906,-0.78631,-0.0302455,1
44,0.9889375,0.7307965,0.055479,0.8484265,0.4929464999999999,0.048767,0.7365665,0.7409565,0.029938,1.1383365,0.5207565,0.061452,1.2413465,0.7556365,0.0303459999999999,0.7055965,0.9585865,0.007068,1.2783665,0.9643865,-0.0002459999999999,0.9269065,-0.0025104999999999,-0.004945,1.0730935,0.0025104999999999,0.004945,0.8871065,-0.4450735,-0.02101,1.1248465,-0.4129135,-0.036452,0.8798565,-0.7986835,-0.043266,1.1372665,-0.7865435,-0.036331,1
45,0.989803,0.730258,0.0512435,0.8487610000000001,0.492688,0.0446395,0.7364109999999999,0.738988,0.0243114999999999,1.138581,0.5207879999999999,0.0568554999999999,1.241481,0.753008,0.0239054999999999,0.7048110000000001,0.958598,-0.0024055,1.279291,0.964598,-0.0088035,0.926645,-0.0023169999999999,-0.0044795,1.073355,0.0023169999999999,0.0044794999999999,0.8857210000000001,-0.4435019999999999,-0.0298705,1.124881,-0.414402,-0.0456685,0.880001,-0.797272,-0.0490425,1.137461,-0.786122,-0.0441065,1
46,0.990654,0.7295785,0.046604,0.849125,0.4925584999999999,0.040479,0.736235,0.7376585,0.018105,1.138935,0.5198685000000001,0.052107,1.241395,0.7505385,0.016812,0.7040649999999999,0.9589385,-0.012457,1.280085,0.9651785,-0.018315,0.926385,-0.0019664999999999,-0.004047,1.073615,0.0019665,0.0040469999999999,0.884115,-0.4418415,-0.039814,1.1249349999999998,-0.4151415,-0.055988,0.880135,-0.7947615,-0.05561,1.137715,-0.7848014999999999,-0.052568,1
47,0.9916155,0.7285145000000001,0.0412745,0.8494765,0.4924345,0.0356045,0.7359865,0.7367045,0.0107114999999999,1.1393865,0.5192445,0.0466535,1.2413165,0.7472645,0.0085855,0.7033265,0.9598545,-0.0237625,1.2807865,0.9661445,-0.0296455,0.9261115,-0.0016564999999999,-0.0035744999999999,1.0738885,0.0016564999999999,0.0035745,0.8821165,-0.4386955,-0.0519015,1.1249165,-0.4142855,-0.0689055,0.8802265,-0.7906955,-0.0632565,1.1378565,-0.7819355,-0.0618154999999999,1
48,0.9923995,0.7276475,0.0350025,0.8500075,0.4916575000000001,0.0295745,0.7355575000000001,0.7352375,0.0024514999999999,1.1398075,0.5177175,0.0404325,1.2412975,0.7446975,-0.0003204999999999,0.7024075000000001,0.9617075,-0.0364004999999999,1.2814475,0.9680775,-0.0426255,0.9257915,-0.0014645,-0.0030914999999999,1.0742085,0.0014645,0.0030914999999999,0.8798675,-0.4327425,-0.0665415,1.1247474999999998,-0.4104725,-0.0833904999999999,0.8802175,-0.7841024999999999,-0.0717545,1.1377975,-0.7760524999999999,-0.0711145,1
49,0.9932125,0.7255965,0.02834,0.8505735,0.4910564999999999,0.023329,0.7350935000000001,0.7328565,-0.006623,1.1402435,0.5162165000000001,0.033754,1.2413235,0.7401265,-0.01027,0.7015035000000001,0.9645765,-0.050129,1.2821335,0.9706265,-0.0571469999999999,0.9255195,-0.0012405,-0.002755,1.0744805,0.0012404999999999,0.002755,0.8776435,-0.4246235,-0.082324,1.1245635,-0.4048635,-0.098968,0.8801835000000001,-0.7749935,-0.080684,1.1377535,-0.7673935,-0.080598,1
50,0.9938745,0.7232475,0.0228075,0.8509774999999999,0.4899475,0.0177215,0.7348275,0.7303775,-0.0148185,1.1406474999999998,0.5144875,0.0279965,1.2413375,0.7356575000000001,-0.0190325,0.7006275,0.9662575,-0.0626444999999999,1.2827675,0.9677275,-0.0705285,0.9252645,-0.0011025,-0.0023394999999999,1.0747355,0.0011024999999999,0.0023395,0.8756675,-0.4156625,-0.0968735,1.1242975,-0.3974625,-0.1133865,0.8802375,-0.7648125,-0.0884504999999999,1.1378175,-0.7573525,-0.0887705,1
51,0.9942085,0.7208815000000001,0.0170255,0.8513205,0.4872114999999999,0.0120745,0.7344705,0.7284515,-0.0236124999999999,1.1408904999999998,0.5117915000000001,0.0222165,1.2412405,0.7321915,-0.0281254999999999,0.6992404999999999,0.9700315,-0.0755335,1.2828105,0.9671415,-0.0833545,0.9249805,-0.0009595,-0.0020204999999999,1.0750195,0.0009595,0.0020205,0.8738205,-0.4029085,-0.1121725,1.1242105,-0.3875385,-0.1286775,0.8805005,-0.7514385,-0.0963854999999999,1.1382605,-0.7440085,-0.0972985,1
52,0.994539,0.71816,0.0114719999999999,0.8516750000000001,0.4854,0.0065199999999999,0.734035,0.72625,-0.0323,1.141095,0.5088400000000001,0.016665,1.240865,0.7281,-0.037141,0.697845,0.9662,-0.088058,1.282835,0.96411,-0.096279,0.924621,-0.000865,-0.001749,1.075379,0.000865,0.0017489999999999,0.871965,-0.38935,-0.128249,1.124175,-0.37665,-0.143879,0.880775,-0.73706,-0.104302,1.138755,-0.72963,-0.105783,1
53,0.9944485,0.7143094999999999,0.006003,0.8516675,0.4831695,0.0011439999999999,0.7332575,0.7208395,-0.041382,1.1404875,0.5064595,0.0110289999999999,1.2404875,0.7269194999999999,-0.046614,0.6962475,0.9582295,-0.100327,1.2824275,0.9607095,-0.109303,0.9243085,-0.0008545,-0.001303,1.0756915,0.0008545,0.0013029999999999,0.8698175,-0.3719405,-0.144792,1.1242275,-0.3592404999999999,-0.159322,0.8808075,-0.7193905,-0.112078,1.1389375,-0.7121905000000001,-0.114634,1
54,0.994163,0.712179,0.0013675,0.851962,0.482379,-0.0031834999999999,0.732602,0.7175090000000001,-0.0493944999999999,1.139972,0.505159,0.0064615,1.240192,0.725109,-0.0548935,0.694992,0.950849,-0.1102554999999999,1.282342,0.954599,-0.1204705,0.92418,-0.0007599999999999,-0.0010984999999999,1.07582,0.00076,0.0010985,0.868332,-0.354611,-0.1586125,1.124402,-0.342101,-0.1720425,0.881212,-0.702381,-0.1186364999999999,1.139132,-0.695191,-0.1216985,1
55,0.9936275,0.7121580000000001,-0.007832,0.8520485000000001,0.482628,-0.012255,0.7319085000000001,0.7164079999999999,-0.062057,1.1392485,0.505358,-0.003052,1.2394985,0.722748,-0.067554,0.6935585,0.946478,-0.124707,1.2821285,0.950718,-0.13568,0.9239305,-0.000828,-0.000758,1.0760695,0.0008279999999999,0.0007579999999999,0.8668685,-0.333532,-0.176594,1.1244185,-0.321972,-0.189274,0.8813785000000001,-0.6825019999999999,-0.12938,1.1391085,-0.6753119999999999,-0.132956,1
56,0.9929375,0.711997,-0.0167044999999999,0.8520855,0.481357,-0.0213515,0.7310555000000001,0.715007,-0.0742605,1.1380355,0.502367,-0.0128104999999999,1.2389955,0.722737,-0.0797175,0.6920554999999999,0.942707,-0.1384755,1.2816955,0.946797,-0.1497665,0.9235945,-0.000869,-0.0004515,1.0764055,0.0008689999999999,0.0004515,0.8652255,-0.312403,-0.1963835,1.1245255,-0.302843,-0.2072535,0.8814355,-0.661983,-0.1391075,1.1388055,-0.655213,-0.1434825,1
57,0.9921505,0.7121550000000001,-0.025624,0.8518365,0.480595,-0.03027,0.7300165000000001,0.712955,-0.086042,1.1366665,0.500845,-0.022273,1.2382365,0.723625,-0.091757,0.6906365,0.938995,-0.151327,1.2810864999999998,0.942555,-0.162692,0.9232315,-0.000765,-0.000337,1.0767685,0.000765,0.0003369999999999,0.8635165000000001,-0.292245,-0.214102,1.1245065,-0.285385,-0.223972,0.8811565,-0.641885,-0.14783,1.1383665,-0.6356550000000001,-0.153091,1
58,0.991326,0.713125,-0.0349645,0.851537,0.480005,-0.0391915,0.728847,0.7105349999999999,-0.0972755,1.135207,0.499535,-0.0316205,1.237397,0.722305,-0.1028425,0.689257,0.933865,-0.1635165,1.280507,0.936975,-0.1747205,0.922945,-0.000685,-0.0001794999999999,1.077055,0.0006849999999999,0.0001794999999999,0.861757,-0.274285,-0.2306005,1.124467,-0.270575,-0.2394705,0.880827,-0.6237349999999999,-0.1558594999999999,1.137837,-0.6180650000000001,-0.1622265,1
59,0.9905465,0.71302,-0.0443685,0.8512284999999999,0.47858,-0.0493205,0.7278285,0.7091200000000001,-0.1091505,1.1336885,0.49693,-0.0422465,1.2365785,0.72275,-0.1142525,0.6879085,0.9316,-0.1767265,1.2798685,0.93846,-0.1881465,0.9226745,-0.00076,4.849999999999299e-05,1.0773255,0.00076,-4.850000000000687e-05,0.8595785,-0.2537899999999999,-0.2478265,1.1247485,-0.25288,-0.2556465,0.8804285000000001,-0.6025699999999999,-0.1635855,1.1369385,-0.5978399999999999,-0.1707604999999999,1
60,0.9896945,0.71317,-0.052951,0.8509105,0.47926,-0.058188,0.7269705,0.70711,-0.11984,1.1322705,0.49576,-0.051883,1.2359505,0.7190300000000001,-0.124218,0.6868905000000001,0.92434,-0.18862,1.2793305,0.93778,-0.20067,0.9224555,-0.00081,0.0003019999999999,1.0775445,0.00081,-0.000302,0.8573605,-0.2375399999999999,-0.26323,1.1249105,-0.2375,-0.27,0.8797105000000001,-0.58383,-0.170286,1.1360305,-0.58017,-0.177893,1
61,0.988947,0.713165,-0.0616515,0.850636,0.479235,-0.0670925,0.726236,0.705635,-0.1307465,1.130866,0.494675,-0.0614185,1.235576,0.7159850000000001,-0.1339265,0.685906,0.925165,-0.2005075,1.279116,0.939855,-0.2131275,0.922269,-0.0008549999999999,0.0006145,1.077731,0.0008549999999999,-0.0006145,0.855126,-0.219915,-0.2775875,1.125136,-0.220965,-0.2840875,0.878846,-0.565035,-0.1765634999999999,1.135156,-0.5622450000000001,-0.1845014999999999,1
62,0.988182,0.71349,-0.0702255,0.850394,0.47856,-0.0759205,0.725474,0.70735,-0.1413845,1.129464,0.49337,-0.0705525,1.234984,0.71215,-0.1430615,0.684884,0.92991,-0.2124315,1.278594,0.93558,-0.2248515,0.922022,-0.00089,0.0007235,1.077978,0.0008899999999999,-0.0007235,0.852834,-0.205,-0.2910315,1.125344,-0.2068,-0.2977714999999999,0.878014,-0.54864,-0.1827665,1.134174,-0.54681,-0.1908814999999999,1
63,0.987436,0.713315,-0.078541,0.849906,0.477125,-0.085003,0.724756,0.708515,-0.152289,1.128126,0.491045,-0.079914,1.234486,0.710375,-0.152069,0.6841360000000001,0.933225,-0.224995,1.277876,0.935235,-0.236015,0.921859,-0.0009149999999999,0.000865,1.078141,0.0009149999999999,-0.000865,0.850436,-0.1897849999999999,-0.304415,1.125566,-0.1910649999999999,-0.311255,0.877166,-0.5317149999999999,-0.188752,1.132806,-0.5309550000000001,-0.1969179999999999,1
64,0.9871965,0.71125,-0.0824449999999999,0.8498975,0.47467,-0.0893769999999999,0.7243675,0.70733,-0.1587279999999999,1.1272075,0.48795,-0.0844349999999999,1.2342875,0.7095400000000001,-0.156856,0.6840375000000001,0.9335,-0.232952,1.2775075,0.93279,-0.242942,0.9218325,-0.0008999999999999,0.000838,1.0781675,0.0009,-0.0008379999999999,0.8481075000000001,-0.1771399999999999,-0.3129119999999999,1.1258975,-0.1786499999999999,-0.319322,0.8766475,-0.51781,-0.1899139999999999,1.1313775,-0.51852,-0.198131,1
65,0.987254,0.709365,-0.086329,0.8505860000000001,0.4736849999999999,-0.093829,0.724296,0.706715,-0.165426,1.127076,0.4871449999999999,-0.088589,1.234276,0.704035,-0.161497,0.684796,0.933085,-0.24167,1.278136,0.930205,-0.25084,0.921795,-0.000845,0.0007399999999999,1.078205,0.0008449999999999,-0.00074,0.846646,-0.163505,-0.31797,1.126326,-0.165015,-0.32444,0.876656,-0.503245,-0.190716,1.130376,-0.504885,-0.198959,1
66,0.9873965,0.707365,-0.089818,0.8511855,0.473075,-0.097705,0.7244155,0.7071149999999999,-0.171907,1.1269954999999998,0.4860649999999999,-0.092145,1.2346855,0.697055,-0.165396,0.6858355,0.930475,-0.24987,1.2790355,0.927065,-0.25859,0.9217925,-0.0007949999999999,0.0007299999999999,1.0782075,0.0007949999999999,-0.00073,0.8453955000000001,-0.1512649999999999,-0.32214,1.1266655,-0.152775,-0.32871,0.8767055,-0.490515,-0.191085,1.1294755,-0.4926549999999999,-0.199529,1
67,0.9875885,0.706515,-0.094112,0.8517705,0.472545,-0.101476,0.7246305,0.7082550000000001,-0.179006,1.1269105,0.485255,-0.095535,1.2355705,0.6941550000000001,-0.170144,0.6872405000000001,0.929115,-0.25822,1.2807305,0.924625,-0.26727,0.9217815,-0.0007949999999999,0.0007299999999999,1.0782185,0.000795,-0.00073,0.8442005,-0.1389249999999999,-0.32639,1.1269605,-0.1404349999999999,-0.33282,0.8767905,-0.4778449999999999,-0.191307,1.1284005,-0.480685,-0.199727,1
68,0.9876805,0.706985,-0.09925,0.8523235,0.472955,-0.103969,0.7248235000000001,0.708815,-0.185857,1.1273335,0.485435,-0.098567,1.2362735,0.6917850000000001,-0.17505,0.6884935,0.926225,-0.26583,1.2829835,0.920515,-0.27507,0.9217285,-0.000645,0.0007299999999999,1.0782715,0.000645,-0.00073,0.8434435,-0.132685,-0.32918,1.1268235,-0.135245,-0.3354,0.8768035,-0.469645,-0.191299,1.1271935,-0.4732149999999999,-0.199838,1
69,0.9878165,0.7066650000000001,-0.103224,0.8527465,0.470905,-0.106514,0.7248865000000001,0.709045,-0.191035,1.1277065,0.484175,-0.101641,1.2365065,0.694785,-0.179857,0.6888265,0.929225,-0.271475,1.2852565,0.919755,-0.282605,0.9217285,-0.0007849999999999,0.0007349999999999,1.0782715,0.000785,-0.0007349999999999,0.8430965,-0.131135,-0.330745,1.1266565,-0.1341549999999999,-0.3364749999999999,0.8767965,-0.466645,-0.191331,1.1260965,-0.470715,-0.200009,1
70,0.9877825,0.7066650000000001,-0.107201,0.8531795,0.470905,-0.108941,0.7249095,0.709045,-0.1952269999999999,1.1281095,0.484175,-0.104575,1.2373394999999998,0.694785,-0.184556,0.6891395,0.929225,-0.27641,1.2876095,0.919755,-0.28828,0.9217515,-0.0007849999999999,0.0007299999999999,1.0782485,0.000785,-0.0007299999999999,0.8429395,-0.1312149999999999,-0.33074,1.1264995,-0.1343649999999999,-0.33647,0.8767895,-0.466645,-0.191383,1.1251095,-0.471325,-0.199883,1
71,0.9878775,0.7066650000000001,-0.110038,0.8535874999999999,0.470905,-0.111119,0.7251875,0.709045,-0.198133,1.1286675,0.484175,-0.106703,1.2387975,0.694785,-0.187999,0.6893975,0.929225,-0.279935,1.2901675,0.919755,-0.292425,0.9217315,-0.0007849999999999,0.0007349999999999,1.0782685,0.000785,-0.0007349999999999,0.8429375,-0.1312149999999999,-0.330635,1.1264875,-0.1343649999999999,-0.336365,0.8769075,-0.466645,-0.191178,1.1245975,-0.471975,-0.199727,1
72,0.987938,0.7066650000000001,-0.111914,0.853855,0.470905,-0.112728,0.725035,0.709045,-0.199573,1.128985,0.484175,-0.107932,1.240235,0.695045,-0.190236,0.689365,0.929435,-0.28149,1.292435,0.919755,-0.29558,0.921746,-0.0007849999999999,0.0005999999999999,1.0782539999999998,0.000785,-0.0006,0.8428450000000001,-0.1312149999999999,-0.33,1.126235,-0.1343649999999999,-0.33572,0.876965,-0.466815,-0.190478,1.123945,-0.4726049999999999,-0.199011,1
73,0.988005,0.70825,-0.1126944999999999,0.8540920000000001,0.47124,-0.1132384999999999,0.725292,0.70938,-0.1997465,1.129362,0.48453,-0.1080984999999999,1.241672,0.6964,-0.1906185,0.689532,0.92885,-0.2809975,1.294602,0.91746,-0.2972475,0.921762,-0.0007399999999999,0.0003725,1.078238,0.00074,-0.0003724999999999,0.843002,-0.1335699999999999,-0.3288575,1.125922,-0.1367199999999999,-0.3341075,0.876972,-0.46924,-0.1891955,1.123652,-0.47551,-0.1977364999999999,1
74,0.9884285,0.71037,-0.1115035,0.8542465000000001,0.4730499999999999,-0.1117905,0.7254465,0.7121999999999999,-0.1981885,1.1297465,0.48501,-0.1065455,1.2424565,0.70027,-0.1890735,0.6899565,0.92803,-0.2794395,1.2966365,0.92321,-0.2957195,0.9218785,-0.00051,0.0001715,1.0781215,0.00051,-0.0001715,0.8436365,-0.1388599999999999,-0.3259095,1.1256765,-0.1420699999999999,-0.3308795,0.8769365,-0.4759199999999999,-0.1878515,1.1235765,-0.4825299999999999,-0.1959385,1
75,0.9887355,0.713275,-0.1095375,0.8544185,0.4746249999999999,-0.1098215,0.7256184999999999,0.714745,-0.1962195,1.1302185,0.4860249999999999,-0.1045825,1.2430285,0.702375,-0.1871125,0.6901284999999999,0.927715,-0.2774705,1.2982285,0.928905,-0.2937805,0.9220045,-0.000395,-2.8500000000000747e-05,1.0779955,0.0003949999999999,2.8500000000000747e-05,0.8443785,-0.145935,-0.3218405,1.1254485,-0.149405,-0.3263305,0.8768785,-0.485375,-0.1858845,1.1235385,-0.491875,-0.1935025,1
76,0.988606,0.715285,-0.1071165,0.854411,0.475875,-0.1074035,0.725571,0.716835,-0.1938005,1.130411,0.487055,-0.1021685,1.243901,0.702755,-0.1847135,0.690061,0.930005,-0.2750525,1.298671,0.933225,-0.2913725,0.922224,-0.0003049999999999,-9.349999999999636e-05,1.077776,0.0003049999999999,9.349999999999636e-05,0.845371,-0.1554849999999999,-0.3161225,1.124981,-0.158915,-0.3204625,0.876861,-0.498005,-0.1837794999999999,1.123531,-0.504505,-0.1906495,1
77,0.9883955,0.719275,-0.103627,0.8541894999999999,0.477635,-0.103914,0.7252595,0.718485,-0.188085,1.1304095,0.488915,-0.098518,1.2446695,0.706845,-0.179925,0.6896095,0.930375,-0.267447,1.2987295,0.939395,-0.286387,0.9226535,-0.000295,-0.000258,1.0773465,0.0002949999999999,0.0002579999999999,0.8466495,-0.171865,-0.305737,1.1243895,-0.176325,-0.310827,0.8763895,-0.520615,-0.180252,1.1235395,-0.527115,-0.185947,1
78,0.988142,0.7233350000000001,-0.0995455,0.85373,0.479805,-0.0998484999999999,0.7249399999999999,0.719925,-0.1805315,1.13036,0.4914849999999999,-0.0942015,1.2447,0.710685,-0.1738345,0.68882,0.933585,-0.2583075,1.29908,0.945855,-0.2794775,0.923088,-0.0002749999999999,-0.0004964999999999,1.076912,0.0002749999999999,0.0004965,0.84797,-0.189675,-0.2936875,1.12358,-0.1939649999999999,-0.2990075,0.87569,-0.544805,-0.1762075,1.1233499999999998,-0.551045,-0.1808564999999999,1
79,0.9878025,0.7273149999999999,-0.0933385,0.8531415,0.481525,-0.0953695,0.7242515,0.722105,-0.1710275,1.1301715,0.493425,-0.0894865,1.2445815,0.718345,-0.1660345,0.6875215,0.934285,-0.2471305,1.2993615,0.952455,-0.2696805,0.9236205,-0.0003249999999999,-0.0007575,1.0763794999999998,0.0003249999999999,0.0007574999999999,0.8492315,-0.208835,-0.2800705,1.1227015,-0.212815,-0.2860705,0.8748615000000001,-0.570785,-0.1715355,1.1230915,-0.576245,-0.1751405,1
80,0.987696,0.730985,-0.085505,0.852585,0.482975,-0.09032,0.7236549999999999,0.7237250000000001,-0.15981,1.130315,0.495555,-0.083232,1.244775,0.722145,-0.156913,0.685865,0.939985,-0.2332449999999999,1.299605,0.958435,-0.257675,0.924204,-0.0005549999999999,-0.0009709999999999,1.075796,0.0005549999999999,0.0009709999999999,0.850535,-0.235475,-0.265055,1.121905,-0.236475,-0.271155,0.874305,-0.598975,-0.166261,1.123075,-0.604295,-0.168983,1
81,0.987769,0.7350800000000001,-0.077695,0.85172,0.48799,-0.084311,0.72313,0.72613,-0.148664,1.13071,0.49837,-0.076701,1.24544,0.72146,-0.146492,0.6849000000000001,0.9405,-0.219665,1.29991,0.96068,-0.243385,0.924631,-0.0005499999999999,-0.0011899999999999,1.075369,0.00055,0.0011899999999999,0.85191,-0.26075,-0.248315,1.12137,-0.25954,-0.2547049999999999,0.87385,-0.62606,-0.160586,1.12319,-0.63117,-0.162092,1
82,0.988051,0.736604,-0.0658604999999999,0.8511569999999999,0.489554,-0.0740855,0.7228070000000001,0.727444,-0.1333745,1.131417,0.498764,-0.0659965,1.246687,0.7207840000000001,-0.1318345,0.6841470000000001,0.943094,-0.2016845,1.300197,0.963434,-0.2256844999999999,0.925071,-0.000815,-0.0009445,1.074929,0.0008149999999999,0.0009445,0.853477,-0.285706,-0.2272944999999999,1.121117,-0.281606,-0.2347245,0.873827,-0.6513660000000001,-0.1503995,1.1236469999999998,-0.655786,-0.1514435,1
83,0.9883575,0.73824,-0.054111,0.8507145,0.4898,-0.063203,0.7225545,0.726,-0.117714,1.1328345,0.50257,-0.054496,1.2476745,0.72114,-0.117335,0.6831545,0.94524,-0.183639,1.3004445,0.96328,-0.208279,0.9255755,-0.000944,-0.0009919999999999,1.0744245,0.000944,0.0009919999999999,0.8555945,-0.30865,-0.202589,1.1204945,-0.30335,-0.211479,0.8740145,-0.6747000000000001,-0.138683,1.1242345,-0.67817,-0.13998,1
84,0.988703,0.739539,-0.0422395,0.850333,0.490129,-0.0517855,0.722403,0.7255389999999999,-0.1018565,1.134393,0.505989,-0.0429475,1.248573,0.725529,-0.1027675,0.6819230000000001,0.948329,-0.1652665,1.300783,0.962659,-0.1901665,0.926102,-0.001173,-0.0010775,1.073898,0.001173,0.0010775,0.858073,-0.330591,-0.1773964999999999,1.119993,-0.324481,-0.1881765,0.874213,-0.6966410000000001,-0.1268225,1.124793,-0.699281,-0.1285885,1
85,0.9891415,0.741413,-0.0298565,0.8499315000000001,0.490543,-0.0402845,0.7226115,0.725033,-0.0855845,1.1356315,0.5095729999999999,-0.0312055,1.2494215,0.731203,-0.0885235,0.6806515,0.948383,-0.1473925,1.3011615,0.962983,-0.1710025,0.9264935,-0.001504,-0.0010705,1.0735065,0.0015039999999999,0.0010704999999999,0.8611715,-0.350667,-0.1508725,1.1196615,-0.344577,-0.1642725,0.8743615,-0.716937,-0.1147825,1.1254115,-0.718897,-0.1171315,1
86,0.9894655,0.7418805,-0.0192925,0.8495254999999999,0.4901905,-0.0302755,0.7227755,0.7240505,-0.0723235,1.1367055,0.5129205,-0.0209195,1.2499255,0.7360305,-0.0772665,0.6792255,0.9495505,-0.1332815,1.3014355,0.9611605,-0.1547615,0.9268075,-0.0017835,-0.0010084999999999,1.0731925,0.0017834999999999,0.0010084999999999,0.8642255,-0.3646495,-0.1274845,1.1197655,-0.3554295,-0.1426315,0.8749055,-0.7299194999999999,-0.1036405,1.1259355,-0.7313394999999999,-0.1070495,1
87,0.9896985,0.7419555,-0.009254,0.8492235,0.4892154999999999,-0.020748,0.7225735,0.7248455,-0.059922,1.1375235,0.5151654999999999,-0.011149,1.2496634999999998,0.7405255,-0.066723,0.6776735,0.9492455,-0.1196879999999999,1.3018335,0.9591655,-0.139105,0.9271015,-0.0020794999999999,-0.0009469999999999,1.0728985,0.0020794999999999,0.0009469999999999,0.8672635,-0.3770745,-0.105141,1.1201035,-0.3636945,-0.122725,0.8753835000000001,-0.7408545,-0.09303,1.1264934999999998,-0.7414745,-0.096892,1
88,0.9898525,0.7408485,0.000644,0.8485355,0.4894585,-0.010724,0.7220455,0.7256185,-0.047899,1.1381655,0.5171185,-0.0014479999999999,1.2499955,0.7413285000000001,-0.055981,0.6761155000000001,0.9504085,-0.106171,1.3022355,0.9567385,-0.123528,0.9273885,-0.0023105,-0.0009399999999999,1.0726115,0.0023105,0.00094,0.8703255,-0.3889515,-0.082809,1.1205255,-0.3704615,-0.1030499999999999,0.8758954999999999,-0.7507115,-0.082476,1.1270555,-0.7500114999999999,-0.086521,1
89,0.989808,0.7395235,0.0106074999999999,0.847628,0.4900935,-0.0005634999999999,0.721508,0.7254935,-0.0361005,1.139118,0.5184435,0.0083835,1.251418,0.7423234999999999,-0.0450145,0.674878,0.9461935,-0.0931485,1.302498,0.9537435,-0.1079185,0.927497,-0.0024554999999999,-0.0012014999999999,1.072503,0.0024555,0.0012014999999999,0.873348,-0.4029864999999999,-0.0606805,1.120998,-0.3781265,-0.0837065,0.876638,-0.7605965,-0.0706965,1.127678,-0.7574065,-0.0751165,1
90,0.9897655,0.738079,0.0195435,0.8471185,0.4891189999999999,0.0083605,0.7211185,0.7252689999999999,-0.0256274999999999,1.1399885,0.519789,0.0176235,1.2527685,0.745319,-0.0344755,0.6738585,0.944059,-0.0812725,1.3030485,0.950829,-0.0942295,0.9275605,-0.002617,-0.0013755,1.0724395,0.002617,0.0013755,0.8761185,-0.415251,-0.0416114999999999,1.1214784999999998,-0.385271,-0.0669425,0.8772584999999999,-0.768781,-0.0602075,1.1282285,-0.7633610000000001,-0.0644085,1
91,0.9896475,0.7376715,0.0239925,0.8464545,0.4895414999999999,0.0131595,0.7207045000000001,0.7256414999999999,-0.0195515,1.1407645,0.5218415,0.0225645,1.2535845,0.7504715,-0.0282845,0.6728945,0.9432015,-0.0742455,1.3038645,0.9488815,-0.0850865,0.9273945,-0.0026855,-0.0020265,1.0726055,0.0026855,0.0020264999999999,0.8786145,-0.4265585,-0.0281485,1.1219445,-0.3914085,-0.0547875,0.8779345000000001,-0.7758285,-0.0542455,1.1287045,-0.7688385,-0.0570845,1
92,0.989489,0.737485,0.0276915,0.845643,0.4903649999999999,0.0173775,0.720313,0.726105,-0.0145115,1.141213,0.519695,0.0259315,1.254533,0.751715,-0.0228695,0.6722330000000001,0.943205,-0.0680255,1.304753,0.948145,-0.0769675,0.927247,-0.002988,-0.0024185,1.072753,0.0029879999999999,0.0024185,0.880453,-0.430455,-0.0197175,1.122453,-0.3952949999999999,-0.0468605,0.878403,-0.780095,-0.0499305,1.129143,-0.772985,-0.0504725,1
93,0.9893155,0.73683,0.030974,0.8448125,0.49095,0.021351,0.7198825000000001,0.72624,-0.010095,1.1417125,0.51783,0.028974,1.2557025,0.75051,-0.0180359999999999,0.6719225000000001,0.94272,-0.06284,1.3053325,0.9473,-0.070029,0.9271305,-0.0031829999999999,-0.002807,1.0728695,0.0031829999999999,0.002807,0.8819525,-0.43373,-0.012471,1.1229625,-0.39851,-0.039887,0.8789125000000001,-0.7838,-0.046242,1.1297525,-0.77632,-0.044155,1
94,0.989178,0.7363095,0.0334789999999999,0.844114,0.4916195,0.024973,0.7194039999999999,0.7263795,-0.006203,1.142344,0.5159395,0.0315499999999999,1.256914,0.7488195,-0.013647,0.6717040000000001,0.9423695,-0.058113,1.305914,0.9460095,-0.064684,0.927043,-0.0032715,-0.003217,1.072957,0.0032714999999999,0.0032169999999999,0.882814,-0.4364905,-0.007776,1.123424,-0.4015605,-0.034678,0.879454,-0.7868305000000001,-0.043126,1.130484,-0.7807305,-0.039375,1
95,0.9889865,0.7356145000000001,0.0356935,0.8434195000000001,0.4926545,0.0284805,0.7188595,0.7268745000000001,-0.0025564999999999,1.1422695,0.5140245000000001,0.0337815,1.2577695,0.7474345,-0.0093625,0.6714895000000001,0.9423845,-0.0536834999999999,1.3064995,0.9449845,-0.0597505,0.9269315,-0.0033554999999999,-0.0035015,1.0730685,0.0033554999999999,0.0035014999999999,0.8833995,-0.4378455,-0.0040075,1.1244195,-0.4005255,-0.0303995,0.8797995000000001,-0.7892254999999999,-0.0404525,1.1312795,-0.7819155,-0.0348605,1
96,0.98877,0.7348119999999999,0.037992,0.842779,0.493772,0.031931,0.718359,0.726112,0.0015839999999999,1.142169,0.512242,0.036009,1.258739,0.7456919999999999,-0.0051889999999999,0.670939,0.942322,-0.0489769999999999,1.307729,0.943652,-0.0551089999999999,0.926809,-0.003477,-0.003741,1.073191,0.0034769999999999,0.003741,0.883969,-0.439048,-0.001211,1.125419,-0.399048,-0.026389,0.8801289999999999,-0.791518,-0.037827,1.131889,-0.782188,-0.030511,1
97,0.988797,0.734291,0.0397745,0.8425940000000001,0.4940009999999999,0.0348345,0.718154,0.724931,0.0056464999999999,1.142374,0.511401,0.0377875,1.259864,0.744561,-0.0019325,0.6699940000000001,0.942321,-0.0447335,1.309584,0.942661,-0.0519025,0.926733,-0.003569,-0.0038515,1.073267,0.0035689999999999,0.0038515,0.884604,-0.439229,0.0005585,1.126104,-0.396719,-0.0229955,0.880354,-0.7924289999999999,-0.0354045,1.132514,-0.7817689999999999,-0.0264175,1
98,0.9889855,0.7341065,0.041135,0.8426665,0.4943165,0.037313,0.7175564999999999,0.7249565,0.009008,1.1427665,0.5117065000000001,0.039144,1.2610965,0.7446865,4.60000000000009e-05,0.6691465,0.9423065,-0.0414999999999999,1.3115765,0.9423765,-0.050235,0.9266825,-0.0036064999999999,-0.0037059999999999,1.0733175,0.0036065,0.003706,0.8852965000000002,-0.4392635,0.001909,1.1268065,-0.3960935,-0.020941,0.8805665,-0.7922935,-0.0339659999999999,1.1331165,-0.7808735,-0.023929,1
99,0.9892765,0.7339995,0.0425955,0.8427665,0.4947595,0.0399835,0.7166665,0.7246895,0.0119285,1.1431365,0.5118595,0.0406025,1.2624165,0.7443995,0.0014845,0.6681965000000001,0.9422995,-0.0389465,1.3137265,0.9421095,-0.0488145,0.9266385,-0.0036225,-0.0035054999999999,1.0733615,0.0036225,0.0035055,0.8858665,-0.4392005,0.0033635,1.1275565,-0.3958005,-0.0194905,0.8808765000000001,-0.7920705,-0.0325055,1.1338265,-0.7806204999999999,-0.0220474999999999,1
100,0.989771,0.733673,0.0439979999999999,0.843028,0.495283,0.0426249999999999,0.7158180000000001,0.7239329999999999,0.0145519999999999,1.143878,0.511173,0.042016,1.264438,0.743103,0.0030489999999999,0.6673979999999999,0.941543,-0.037063,1.315948,0.941353,-0.047255,0.926628,-0.003561,-0.003213,1.073372,0.003561,0.003213,0.885978,-0.438507,0.0042269999999999,1.1285079999999998,-0.3957969999999999,-0.017904,0.8807280000000001,-0.7920670000000001,-0.030896,1.134388,-0.780987,-0.020423,1
101,0.9903195,0.733366,0.0454535,0.8428964999999999,0.496156,0.0451265,0.7145165,0.7231860000000001,0.0169055,1.1446265,0.5100960000000001,0.0434335,1.2668865,0.741236,0.0045175,0.6661765,0.941056,-0.0355155,1.3176865,0.940456,-0.0457705,0.9266315,-0.0034359999999999,-0.0028935,1.0733685,0.003436,0.0028935,0.8860765,-0.437584,0.0039305,1.1291865,-0.395644,-0.0163965,0.8806965,-0.792244,-0.0293734999999999,1.1348265,-0.781474,-0.0189104999999999,1
102,0.9908345,0.7331645,0.0466025,0.8420475000000001,0.4972844999999999,0.0476754999999999,0.7117275000000001,0.7227245,0.0190644999999999,1.1456775,0.5093544999999999,0.0447124999999999,1.2699975,0.7401044999999999,0.0045894999999999,0.6639675,0.9408845,-0.0336885,1.3190075,0.9391245,-0.0463805,0.9266625,-0.0032905,-0.0025335,1.0733375,0.0032905,0.0025334999999999,0.8863675,-0.4366355,0.0032144999999999,1.1300975,-0.3953955,-0.0146485,0.8810575,-0.7920855,-0.0276655,1.1357075,-0.7819455000000001,-0.0171495,0
103,0.9911695,0.7330945,0.047422,0.8408555,0.4974345,0.049816,0.7081155,0.7208545,0.020984,1.1467055,0.5088045,0.0455669999999999,1.2737855,0.7353945,0.003896,0.6612655000000001,0.9403045,-0.03179,1.3205355,0.9374245,-0.048341,0.9266905,-0.0032905,-0.002221,1.0733095,0.0032905,0.002221,0.8866655,-0.4357554999999999,0.002149,1.1310055,-0.3955455,-0.013427,0.8816555,-0.7916755000000001,-0.026094,1.1368655,-0.7826955,-0.015877,0
104,0.9913585,0.7330535,0.047767,0.8396895,0.4969235,0.05184,0.7028095000000001,0.7158735,0.023095,1.1478195,0.5081235000000001,0.046195,1.2784895,0.7276835,0.00303,0.6578895,0.9382535,-0.0308769999999999,1.3223995,0.9337935,-0.052143,0.9267115,-0.0032965,-0.0019679999999999,1.0732885,0.0032965,0.001968,0.8872495,-0.4356365,0.000816,1.1321395,-0.3957765,-0.012287,0.8825695,-0.7912264999999999,-0.024679,1.1384495,-0.7839364999999999,-0.0151869999999999,0
105,0.991539,0.7330805,0.0479914999999999,0.838241,0.4963805,0.0539734999999999,0.696841,0.7088305,0.0253254999999999,1.148871,0.5069305,0.0464524999999999,1.284501,0.7168605,0.0010554999999999,0.653581,0.9287105,-0.0301185,1.324301,0.9280705,-0.0575275,0.926779,-0.0033084999999999,-0.0016615,1.073221,0.0033084999999999,0.0016614999999999,0.8878310000000001,-0.4355695,-0.0008325,1.133461,-0.3959295,-0.0109895,0.8838010000000001,-0.7908695,-0.0230505,1.140391,-0.7849495,-0.0142755,0
106,0.991184,0.7329074999999999,0.0475145,0.836794,0.4964575,0.0566885,0.688824,0.6943475,0.0280525,1.150004,0.5048575,0.0462135,1.290094,0.6990474999999999,-0.0024505,0.648444,0.9116175,-0.0301265,1.326184,0.9098075,-0.0650625,0.92684,-0.0032044999999999,-0.0013815,1.07316,0.0032044999999999,0.0013815,0.8887040000000002,-0.4349024999999999,-0.0025975,1.135414,-0.3955625,-0.0091115,0.886034,-0.7900125,-0.0210464999999999,1.143294,-0.7854525,-0.0122205,0
107,0.9909155,0.73379,0.0464335,0.8357155000000001,0.49688,0.0592845,0.6796955,0.67469,0.0310015,1.1506255,0.50194,0.0452235,1.2972955,0.6738000000000001,-0.0071784999999999,0.6439555,0.88941,-0.0305755,1.3274055,0.88295,-0.0760835,0.9268315,-0.003061,-0.0011525,1.0731685,0.0030609999999999,0.0011525,0.8901855,-0.43277,-0.0049675,1.1380855,-0.39431,-0.0073884999999999,0.8899455000000001,-0.78759,-0.0185694999999999,1.1478755,-0.78511,-0.0103414999999999,0
108,0.9907005,0.7351915,0.044767,0.8348635,0.4976914999999999,0.061824,0.6705635,0.6524615,0.033297,1.1509335,0.4990015,0.043856,1.3030935,0.6434515,-0.009313,0.6402135,0.8658615,-0.033224,1.3283934999999998,0.8499515,-0.089169,0.9268565,-0.0028634999999999,-0.0009289999999999,1.0731435,0.0028634999999999,0.0009289999999999,0.8922935000000001,-0.4300385,-0.0070049999999999,1.1413035,-0.3926585,-0.005809,0.8948235000000001,-0.7843885,-0.015883,1.1534335,-0.7837485,-0.0082589999999999,0
109,0.989534,0.736802,0.042336,0.833765,0.4977919999999999,0.063761,0.660945,0.625462,0.035801,1.151475,0.496422,0.042766,1.309315,0.608142,-0.008592,0.6344050000000001,0.8344119999999999,-0.038271,1.328075,0.8102320000000001,-0.104421,0.926989,-0.002672,-0.000594,1.073011,0.002672,0.0005939999999999,0.894865,-0.427098,-0.008794,1.144335,-0.391798,-0.005035,0.900725,-0.7811680000000001,-0.013215,1.159475,-0.781298,-0.006456,0
110,0.9885535,0.7390899999999999,0.039672,0.8338395000000001,0.49815,0.066033,0.6575995,0.59534,0.040116,1.1499495,0.4929199999999999,0.0397029999999999,1.3170295,0.56612,-0.006218,0.6303595,0.79958,-0.043557,1.3276895,0.76394,-0.115212,0.9272195,-0.002534,-0.0002009999999999,1.0727805,0.002534,0.0002009999999999,0.8981395,-0.42385,-0.009927,1.1477895,-0.39076,-0.004581,0.9084495,-0.7770400000000001,-0.009909,1.1669695,-0.77822,-0.004642,0
111,0.987576,0.7417969999999999,0.036901,0.83479,0.4982869999999999,0.06787,0.6572,0.560357,0.044498,1.14854,0.489757,0.036782,1.32008,0.523287,-0.0025739999999999,0.6288,0.758147,-0.0503539999999999,1.32727,0.710187,-0.122344,0.92743,-0.002392,0.000157,1.07257,0.0023919999999999,-0.0001569999999999,0.90167,-0.4203329999999999,-0.0103609999999999,1.14981,-0.3903029999999999,-0.0058629999999999,0.9167,-0.7724030000000001,-0.0064819999999999,1.17488,-0.7753030000000001,-0.0028689999999999,0
112,0.986183,0.7452734999999999,0.033227,0.836481,0.4976335,0.069971,0.661671,0.5208235,0.049837,1.146278,0.4868335,0.033441,1.316831,0.4799735,0.000535,0.632241,0.7067734999999999,-0.05914,1.325401,0.6416335,-0.12517,0.927671,-0.0024075,0.000641,1.072329,0.0024075,-0.0006409999999999,0.909331,-0.4188965,-0.009592,1.149765,-0.3885865,-0.0115399999999999,0.926591,-0.7663265,-0.0044059999999999,1.181461,-0.7686765000000001,-0.0037719999999999,0
113,0.9843215,0.7485285,0.028385,0.8381755000000001,0.4960485,0.071191,0.6716055000000001,0.4808285,0.057122,1.1433325,0.4839385,0.029424,1.3084155,0.4357285,0.004493,0.6395855000000001,0.6421985,-0.064083,1.3202455,0.5584185,-0.1221029999999999,0.9278455,-0.0023695,0.001098,1.0721545,0.0023695,-0.0010979999999999,0.9181355,-0.4161114999999999,-0.0073589999999999,1.1445955,-0.3863215,-0.02166,0.9380555000000002,-0.7598415,-0.0018439999999999,1.1817555,-0.7621915,-0.0100409999999999,0
114,0.982991,0.751596,0.0229569999999999,0.841029,0.494066,0.072002,0.683049,0.442276,0.0627399999999999,1.141288,0.481396,0.0253209999999999,1.299089,0.394486,0.0062069999999999,0.649419,0.580016,-0.069904,1.315019,0.475086,-0.114844,0.928059,-0.0024669999999999,0.0016179999999999,1.071941,0.002467,-0.001618,0.929519,-0.413014,-0.004405,1.138677,-0.380004,-0.033184,0.950489,-0.754404,0.0010679999999999,1.178089,-0.755874,-0.019541,0
115,0.9817715,0.754673,0.0169229999999999,0.8443115,0.491593,0.071227,0.6960315,0.409453,0.069574,1.1396045,0.479463,0.020607,1.2867015,0.356813,0.008826,0.6628615,0.515873,-0.074638,1.3070915,0.396733,-0.106408,0.9282515,-0.002576,0.002418,1.0717485,0.002576,-0.002418,0.9420215,-0.410237,-0.0144289999999999,1.1280335,-0.374427,-0.053288,0.9647015,-0.7488269999999999,0.006996,1.1664595,-0.749867,-0.038508,0
116,0.980291,0.756459,0.010882,0.8476610000000001,0.489369,0.070801,0.707391,0.378119,0.076784,1.13854,0.4784489999999999,0.016489,1.271851,0.326109,0.0120979999999999,0.675441,0.453829,-0.078136,1.296451,0.324069,-0.097456,0.928391,-0.002731,0.003151,1.071609,0.002731,-0.003151,0.952221,-0.407851,-0.0232659999999999,1.116071,-0.370281,-0.0739059999999999,0.978561,-0.7446809999999999,0.012645,1.149615,-0.7434109999999999,-0.060716,0
117,0.9761515,0.756752,0.002457,0.8491615,0.486212,0.067571,0.7131615,0.348922,0.085119,1.1357305,0.476842,0.010196,1.2531315,0.299312,0.016933,0.6844715,0.387882,-0.0781439999999999,1.2811415,0.254262,-0.093284,0.9286015,-0.002863,0.004304,1.0713985,0.002863,-0.0043039999999999,0.9614315,-0.408248,-0.0198439999999999,1.1010925,-0.366378,-0.0978739999999999,0.9924215,-0.740488,0.021216,1.1229725,-0.730708,-0.090084,0
118,0.973427,0.7561165000000001,-0.004235,0.851577,0.4830064999999999,0.0656839999999999,0.720677,0.3244864999999999,0.0930809999999999,1.133293,0.4743464999999999,0.0047649999999999,1.235207,0.2769764999999999,0.0252999999999999,0.693847,0.3272865,-0.074725,1.267177,0.1909465,-0.090625,0.928627,-0.0035424999999999,0.0051949999999999,1.071373,0.0035424999999999,-0.005195,0.971067,-0.4054735,-0.032885,1.087553,-0.3619435,-0.120445,1.005337,-0.7360135,0.0239209999999999,1.096866,-0.7178435,-0.118385,0
119,0.971547,0.7545805,-0.0110699999999999,0.854487,0.4790704999999999,0.0638229999999999,0.732207,0.3027205,0.100418,1.134724,0.4724005,0.0003599999999999,1.217961,0.2623904999999999,0.03498,0.705627,0.2680805,-0.07038,1.255357,0.1351205,-0.08234,0.928457,-0.0040304999999999,0.0060799999999999,1.071543,0.0040304999999999,-0.00608,0.983027,-0.4042495,-0.04302,1.073244,-0.3562195,-0.14321,1.019937,-0.7305695,0.02141,1.065878,-0.7076895,-0.14962,0
120,0.9700950000000002,0.75299,-0.016965,0.857915,0.47556,0.062564,0.748895,0.2865,0.107365,1.137574,0.47048,-0.0031349999999999,1.209183,0.25053,0.045835,0.722255,0.21525,-0.0644049999999999,1.247286,0.08873,-0.064305,0.928355,-0.0045299999999999,0.0072149999999999,1.071645,0.0045299999999999,-0.0072149999999999,0.997045,-0.40375,-0.0486749999999999,1.061465,-0.35018,-0.162615,1.038495,-0.7255,0.026005,1.035705,-0.69833,-0.179025,0
121,0.969715,0.75221,-0.02067,0.861135,0.47369,0.0607799999999999,0.765895,0.27854,0.1124069999999999,1.141127,0.47048,-0.00556,1.20609,0.2447099999999999,0.0552399999999999,0.7375150000000001,0.17576,-0.05566,1.242433,0.060735,-0.04062,0.928295,-0.0045299999999999,0.0082299999999999,1.071705,0.0045299999999999,-0.00823,1.004575,-0.40119,-0.06845,1.052195,-0.34301,-0.17744,1.054875,-0.71381,0.0355199999999999,1.0052949999999998,-0.6898799999999999,-0.20115,0
122,0.97024,0.75221,-0.0226899999999999,0.86528,0.47369,0.06003,0.78203,0.27526,0.115884,1.146054,0.47048,-0.0065099999999999,1.207945,0.2447099999999999,0.06351,0.75087,0.15261,-0.0481999999999999,1.241619,0.054157,-0.0204599999999999,0.9282,-0.0045299999999999,0.00904,1.0718,0.0045299999999999,-0.0090399999999999,1.0123,-0.39903,-0.08786,1.0475899999999998,-0.3381099999999999,-0.1882399999999999,1.07019,-0.70683,0.04494,0.98277,-0.6796599999999999,-0.21508,0
123,0.96985,0.752016,-0.0240799999999999,0.86831,0.473496,0.05952,0.79857,0.272806,0.11867,1.150334,0.470286,-0.0070399999999999,1.209989,0.2445159999999999,0.06563,0.7632099999999999,0.1370859999999999,-0.0407899999999999,1.241841,0.052601,-0.0016399999999999,0.92828,-0.004724,0.01033,1.07172,0.004724,-0.0103299999999999,1.01962,-0.398164,-0.10701,1.04256,-0.334544,-0.1969199999999999,1.08492,-0.699784,0.05595,0.96476,-0.6686840000000001,-0.22352,0
124,0.97003,0.7508135,-0.024305,0.87106,0.4722935,0.0603549999999999,0.81231,0.2713235,0.118745,1.154522,0.4691635,-0.006865,1.213933,0.2433135,0.064515,0.77272,0.1322835,-0.035235,1.2449979999999998,0.0513985,0.011795,0.92832,-0.0053565,0.011085,1.07168,0.0053565,-0.011085,1.02716,-0.3923465,-0.121095,1.04184,-0.3326165,-0.197125,1.09639,-0.6881965,0.066645,0.9554,-0.6612765,-0.221795,0
125,0.970045,0.749992,-0.02345,0.873005,0.470842,0.0618199999999999,0.818065,0.269492,0.1152099999999999,1.158085,0.469112,-0.0061499999999999,1.218694,0.242472,0.06172,0.780445,0.130292,-0.0319599999999999,1.251411,0.049567,0.0133599999999999,0.928665,-0.005689,0.0118499999999999,1.071335,0.005689,-0.01185,1.029565,-0.386928,-0.12104,1.041985,-0.331678,-0.19207,1.099315,-0.676788,0.07976,0.9537750000000002,-0.656038,-0.2106599999999999,0
126,0.970845,0.7490290000000001,-0.020415,0.8750150000000001,0.469439,0.065155,0.8219050000000001,0.267079,0.1130749999999999,1.162045,0.469309,-0.0033549999999999,1.223876,0.242769,0.058485,0.783145,0.127879,-0.0322649999999999,1.25963,0.047154,0.0044049999999999,0.928905,-0.005575,0.0122849999999999,1.071095,0.005575,-0.0122849999999999,1.026385,-0.3834309999999999,-0.121615,1.045775,-0.333571,-0.181025,1.087065,-0.667021,0.0703949999999999,0.962195,-0.656161,-0.189885,0
127,0.96986,0.747632,-0.01876,0.87587,0.468072,0.06644,0.8220800000000001,0.263252,0.11065,1.16419,0.470512,-0.0018599999999999,1.22904,0.247832,0.05559,0.78076,0.123482,-0.03591,1.26694,0.052743,-0.0066299999999999,0.92902,-0.005683,0.0129199999999999,1.0709799999999998,0.005683,-0.0129199999999999,1.01073,-0.376208,-0.1187599999999999,1.05051,-0.335418,-0.16846,1.0698,-0.668868,0.0685,0.97103,-0.657038,-0.1671299999999999,0
128,0.96725,0.7466125,-0.0169549999999999,0.8751599999999999,0.4668525,0.066665,0.81869,0.2635425,0.106575,1.16438,0.4719325,0.000665,1.2320099999999998,0.2533525,0.0521849999999999,0.77293,0.1193625,-0.042055,1.271248,0.0609085,-0.0249749999999999,0.92925,-0.0059585,0.0133449999999999,1.07075,0.0059585,-0.0133449999999999,0.99223,-0.3692275,-0.119945,1.0565,-0.3371175,-0.155715,1.0454,-0.6705675,0.059785,0.98424,-0.6579475,-0.1402049999999999,0
129,0.96341,0.7461915,-0.0159149999999999,0.8742500000000001,0.4662715,0.066985,0.8151100000000001,0.2630015,0.102495,1.16242,0.4735315,0.002365,1.23304,0.2597915,0.048495,0.7629100000000001,0.1222015,-0.048595,1.272026,0.0712245,-0.0461949999999999,0.92947,-0.0061745,0.013485,1.07053,0.0061744999999999,-0.0134849999999999,0.97168,-0.3628285,-0.125575,1.06154,-0.3406785,-0.1439549999999999,1.01284,-0.6724785,0.0325449999999999,0.99694,-0.6605584999999999,-0.1141449999999999,0
130,0.957645,0.746506,-0.015225,0.871205,0.466466,0.0663649999999999,0.8087750000000001,0.2630659999999999,0.0942849999999999,1.159545,0.475886,0.0048649999999999,1.233035,0.266906,0.0465549999999999,0.751235,0.127956,-0.0607349999999999,1.271515,0.081311,-0.060795,0.929415,-0.005901,0.0129949999999999,1.070585,0.005901,-0.012995,0.955825,-0.357824,-0.116935,1.067735,-0.344104,-0.1292849999999999,0.978925,-0.673824,0.0084149999999999,1.013045,-0.663624,-0.089865,0
131,0.95076,0.7468295,-0.015155,0.86747,0.4670195,0.065465,0.80248,0.2641095,0.087285,1.15613,0.4786995,0.0074449999999999,1.23226,0.2730695,0.0463049999999999,0.73794,0.1320795,-0.073205,1.27051,0.0896295,-0.0710549999999999,0.92949,-0.0057975,0.0126949999999999,1.07051,0.0057975,-0.012695,0.93855,-0.3535104999999999,-0.1096249999999999,1.07453,-0.3495405,-0.113875,0.945,-0.6774405,-0.014315,1.02822,-0.6658204999999999,-0.066765,0
132,0.943625,0.7467604999999999,-0.015275,0.8615550000000001,0.4674005,0.062885,0.795965,0.2645605,0.081305,1.149995,0.4818705,0.0086249999999999,1.230465,0.2783005,0.047345,0.725175,0.1404105,-0.085535,1.268975,0.0960205,-0.076515,0.929325,-0.0055745,0.011745,1.0706749999999998,0.0055745,-0.011745,0.921185,-0.3501095,-0.1026249999999999,1.082625,-0.3534295,-0.098705,0.911415,-0.6808595000000001,-0.036985,1.043455,-0.6674795,-0.043235,0
133,0.935575,0.7463905,-0.0159349999999999,0.855745,0.4672805,0.060225,0.789535,0.2647505,0.076185,1.143675,0.4841505,0.010585,1.227595,0.2820605,0.050015,0.713425,0.1479805,-0.0950649999999999,1.266795,0.1001305,-0.076565,0.929135,-0.0054715,0.010755,1.070865,0.0054715,-0.0107549999999999,0.903505,-0.3479394999999999,-0.096885,1.090715,-0.3579095,-0.0824949999999999,0.880365,-0.6932895,-0.0594049999999999,1.058045,-0.6688695,-0.021285,0
134,0.927035,0.7460735,-0.017805,0.8499550000000001,0.4671435,0.0558849999999999,0.780065,0.2649035,0.0662249999999999,1.138255,0.4851535,0.0126149999999999,1.223585,0.2822735,0.0542449999999999,0.7030350000000001,0.1539935,-0.1022050000000001,1.263345,0.0998135,-0.069365,0.928735,-0.0055205,0.0096349999999999,1.071265,0.0055204999999999,-0.009635,0.8903050000000001,-0.3455364999999999,-0.0970350000000001,1.098705,-0.3591565,-0.070475,0.8570950000000002,-0.7051265000000001,-0.083485,1.069385,-0.6689465,-0.004065,0
135,0.91903,0.745765,-0.0201649999999999,0.8451100000000001,0.466905,0.0511049999999999,0.77193,0.264845,0.0565749999999999,1.13274,0.485725,0.0140949999999999,1.21932,0.281965,0.0603549999999999,0.69738,0.153685,-0.106075,1.26182,0.099505,-0.052495,0.92839,-0.005592,0.008275,1.07161,0.005592,-0.008275,0.88261,-0.342675,-0.097665,1.10632,-0.359465,-0.0602449999999999,0.8502800000000001,-0.716795,-0.085215,1.08158,-0.668955,0.0121249999999999,0
136,0.91176,0.74527,-0.02271,0.8403100000000001,0.46671,0.04656,0.76439,0.26467,0.0468399999999999,1.1269,0.48647,0.0148199999999999,1.21458,0.28177,0.0662099999999999,0.69411,0.15349,-0.1115599999999999,1.26042,0.09931,-0.0373,0.92831,-0.005608,0.00683,1.0716899999999998,0.005608,-0.00683,0.8837100000000001,-0.34287,-0.09496,1.1121599999999998,-0.35966,-0.0520899999999999,0.85045,-0.72733,-0.08126,1.09273,-0.66881,0.0254199999999999,0
137,0.90438,0.743245,-0.0254949999999999,0.83559,0.465165,0.042105,0.7579899999999999,0.2634249999999999,0.038695,1.12095,0.4874249999999999,0.015395,1.2095399999999998,0.281595,0.072515,0.6927099999999999,0.153945,-0.1146549999999999,1.2593899999999998,0.098075,-0.0226049999999999,0.92818,-0.005541,0.005445,1.07182,0.005541,-0.005445,0.88598,-0.343045,-0.091125,1.11696,-0.359835,-0.0427349999999999,0.85536,-0.733115,-0.0726149999999999,1.1031399999999998,-0.669395,0.038015,0
138,0.8975300000000002,0.7413234999999999,-0.0287349999999999,0.83022,0.4635535,0.0365349999999999,0.7517200000000002,0.2621435,0.0304349999999999,1.11512,0.4889435,0.015495,1.20434,0.2808935,0.0783949999999999,0.68891,0.1533535,-0.121085,1.25747,0.0939535,-0.008765,0.92795,-0.0060595,0.003985,1.07205,0.0060595,-0.003985,0.88853,-0.3426865,-0.0876749999999999,1.12171,-0.3581565,-0.032455,0.8623000000000001,-0.7386865,-0.0623049999999999,1.1127,-0.6696265,0.049605,0
139,0.891715,0.7402155,-0.033015,0.8264549999999999,0.4629355,0.031575,0.7486149999999999,0.2613255,0.026985,1.110135,0.4899354999999999,0.014375,1.199785,0.2794455,0.082955,0.6884349999999999,0.1495254999999999,-0.1238949999999999,1.2551549999999998,0.0884655,0.003445,0.927905,-0.0061915,0.003085,1.0720949999999998,0.0061915,-0.003085,0.8913049999999999,-0.3435345,-0.085245,1.123995,-0.3563645,-0.0282449999999999,0.871975,-0.7393645,-0.051775,1.120625,-0.6694945,0.058535,0
140,0.8863850000000001,0.7392155,-0.03734,0.8224950000000001,0.4629355,0.0264299999999999,0.744745,0.2612655,0.0221499999999998,1.105435,0.4906855,0.0130499999999998,1.195095,0.2794455,0.0868799999999999,0.688485,0.1450554999999999,-0.12636,1.252535,0.0853685,0.0129499999999999,0.927835,-0.0061915,0.0021399999999999,1.072165,0.0061915,-0.00214,0.8941550000000001,-0.3439245,-0.0829900000000001,1.126265,-0.3545345,-0.02401,0.8809750000000001,-0.7393645,-0.04188,1.127555,-0.6694945,0.0664599999999999,0
141,0.8813750000000001,0.7383855,-0.042125,0.820405,0.4629255,0.0224549999999998,0.741225,0.2611055,0.0166549999999998,1.102065,0.4919854999999999,0.0121449999999999,1.191015,0.2794455,0.0905849999999999,0.689075,0.1394754999999999,-0.1291550000000001,1.249885,0.0842365,0.0223949999999999,0.927785,-0.0061915,0.0012949999999999,1.072215,0.0061915,-0.001295,0.897275,-0.3441845,-0.0804150000000001,1.128335,-0.3528845,-0.0197450000000001,0.889795,-0.7393645,-0.032535,1.133185,-0.6694945,0.0734749999999999,0
142,0.876675,0.7375655,-0.0469499999999999,0.817715,0.4626855,0.01815,0.737665,0.2609555,0.01044,1.098135,0.4937255,0.0101499999999999,1.1872349999999998,0.2792455,0.09327,0.690805,0.1371455,-0.1329,1.247255,0.0839395,0.03133,0.927815,-0.0063915,0.0007099999999999,1.072185,0.0063915,-0.0007099999999999,0.900385,-0.3443845,-0.0772199999999999,1.129995,-0.3514945,-0.01549,0.8984250000000001,-0.7395645,-0.0238399999999999,1.137335,-0.6694745,0.0799199999999999,0
143,0.8728650000000001,0.7361989999999999,-0.0524899999999999,0.8153750000000001,0.461279,0.01394,0.7395450000000001,0.259839,0.011,1.093855,0.495689,0.00692,1.183835,0.278669,0.09401,0.6961650000000001,0.133899,-0.1282799999999999,1.246085,0.083063,0.04002,0.927845,-0.006681,0.0002199999999999,1.072155,0.0066809999999999,-0.0002199999999999,0.903685,-0.345261,-0.0722799999999999,1.131005,-0.351011,-0.01066,0.906925,-0.740421,-0.0152399999999999,1.139585,-0.6695810000000001,0.08637,0
144,0.8702650000000001,0.734664,-0.0574899999999999,0.813715,0.459954,0.01126,0.742345,0.258784,0.01213,1.091385,0.497144,0.00469,1.181715,0.278874,0.09325,0.7010450000000001,0.1269839999999999,-0.1279199999999999,1.245465,0.082018,0.04387,0.927845,-0.006838,-9.9999999999989e-05,1.072155,0.006838,9.9999999999989e-05,0.906665,-0.346306,-0.0660999999999999,1.131165,-0.351256,-0.00629,0.913725,-0.741486,-0.0083599999999999,1.139905,-0.669626,0.09136,0
145,0.8659399999999999,0.731675,-0.06029,0.8106,0.459015,0.0090799999999998,0.7357200000000002,0.257035,0.0086399999999998,1.08754,0.499695,0.0049399999999999,1.17847,0.271035,0.1015699999999999,0.68026,0.1239649999999999,-0.1547600000000001,1.2416999999999998,0.06605,0.0836399999999999,0.92776,-0.00705,-0.00069,1.07224,0.00705,0.0006899999999999,0.90988,-0.348425,-0.0671800000000001,1.13417,-0.351095,-0.00326,0.92262,-0.741405,-0.00132,1.14336,-0.668965,0.0938699999999999,0
146,0.862935,0.7303185,-0.06457,0.808785,0.4587385,0.0063099999999999,0.7368049999999999,0.2557284999999999,0.0076599999999998,1.084205,0.5012885,0.0007599999999999,1.176565,0.2746984999999999,0.1004099999999998,0.689245,0.1163385,-0.15304,1.240795,0.0698965,0.0843899999999999,0.927695,-0.0071465,-0.0008800000000001,1.0723049999999998,0.0071465,0.0008799999999999,0.913705,-0.3492815,-0.06241,1.1324949999999998,-0.3524015,0.0016599999999999,0.929985,-0.7419515,0.0046199999999999,1.142185,-0.6675415,0.09863,0
147,0.863585,0.7294685000000001,-0.0760849999999999,0.8088950000000001,0.4595585,0.000275,0.7419250000000002,0.2550785,0.0074049999999999,1.083335,0.5031185,-0.0061949999999999,1.176075,0.2818685,0.0872049999999999,0.696375,0.1153885,-0.153675,1.244415,0.0797485,0.0526649999999999,0.927655,-0.0069155,-0.0013149999999999,1.072345,0.0069154999999999,0.0013149999999999,0.917585,-0.3500915,-0.0537149999999999,1.128945,-0.3549715,0.010715,0.937375,-0.7425014999999999,0.0143649999999999,1.134575,-0.6701915,0.109375,0
148,0.86307,0.728353,-0.0795449999999999,0.8089500000000001,0.4587529999999999,0.0006249999999999,0.74549,0.253403,0.011155,1.08811,0.502413,-0.0017949999999999,1.1756,0.286873,0.0806149999999999,0.70404,0.1089229999999999,-0.1467849999999999,1.24686,0.0893529999999999,0.0262149999999999,0.9278300000000002,-0.006839,-0.000815,1.07217,0.0068389999999999,0.000815,0.91985,-0.350327,-0.0497349999999999,1.12883,-0.355067,0.013525,0.94036,-0.743037,0.016795,1.13494,-0.6702969999999999,0.112005,0
149,0.8629550000000001,0.7274235,-0.0804,0.807705,0.4579735,0.0005899999999999,0.747735,0.2518135,0.0139199999999999,1.0859949999999998,0.5024234999999999,-0.0043,1.175195,0.2888135,0.0776299999999999,0.708595,0.1000835,-0.13757,1.246415,0.0924735,0.0183599999999999,0.927895,-0.0069374999999999,-0.00059,1.072105,0.0069374999999999,0.0005899999999999,0.919565,-0.3504965,-0.0470099999999999,1.1284949999999998,-0.3548665,0.0143499999999999,0.941645,-0.7436365,0.0171199999999999,1.134695,-0.6692265,0.11263,0
150,0.8630400000000001,0.7264975,-0.0811049999999999,0.80245,0.4527474999999999,0.0025649999999999,0.75984,0.2428874999999999,0.0237749999999999,1.0852499999999998,0.5021275000000001,-0.005195,1.17333,0.2903775,0.071585,0.73541,0.0682055,-0.1037449999999999,1.24168,0.0991675,-0.006915,0.92833,-0.0072005,0.0003349999999999,1.07167,0.0072004999999999,-0.0003349999999999,0.91934,-0.3508525,-0.038885,1.12841,-0.3544625,0.0154849999999999,0.94227,-0.7450924999999999,0.0193749999999999,1.13551,-0.6697124999999999,0.1137449999999999,0
151,0.8634450000000001,0.725392,-0.081705,0.7986950000000002,0.448002,0.005805,0.7699550000000002,0.2358319999999999,0.029735,1.084485,0.501652,-0.0058049999999999,1.171555,0.289382,0.0659549999999999,0.747655,0.051487,-0.083125,1.237595,0.098332,-0.0151249999999999,0.9287450000000002,-0.007448,0.001645,1.0712549999999998,0.007448,-0.001645,0.919975,-0.351028,-0.0268049999999999,1.128775,-0.354228,0.0169249999999999,0.942305,-0.747188,0.0202149999999999,1.136095,-0.670408,0.1153349999999999,0
