sb224sc-HT22-VT27/4dt907/src/data/labeled_files/A37_kinect_mirrored.csv
FrameNo,nose_3d_x,nose_3d_y,nose_3d_z,left_shoulder_3d_x,left_shoulder_3d_y,left_shoulder_3d_z,left_elbow_3d_x,left_elbow_3d_y,left_elbow_3d_z,right_shoulder_3d_x,right_shoulder_3d_y,right_shoulder_3d_z,right_elbow_3d_x,right_elbow_3d_y,right_elbow_3d_z,left_wrist_3d_x,left_wrist_3d_y,left_wrist_3d_z,right_wrist_3d_x,right_wrist_3d_y,right_wrist_3d_z,left_hip_3d_x,left_hip_3d_y,left_hip_3d_z,right_hip_3d_x,right_hip_3d_y,right_hip_3d_z,left_knee_3d_x,left_knee_3d_y,left_knee_3d_z,right_knee_3d_x,right_knee_3d_y,right_knee_3d_z,left_ankle_3d_x,left_ankle_3d_y,left_ankle_3d_z,right_ankle_3d_x,right_ankle_3d_y,right_ankle_3d_z,activity_label
0,0.994571,0.7592555,0.057759,0.839337,0.4629955,0.063318,0.814707,0.2143455,0.064042,1.155797,0.4620255,0.0629639999999999,1.178767,0.2097554999999999,0.059573,0.804837,0.0086385,-0.017685,1.195287,0.0075645,-0.013293,0.927352,-0.0028935,-8.400000000000074e-05,1.0726479999999998,0.0028935,8.400000000000074e-05,0.884737,-0.4166245,0.006709,1.130447,-0.3671545,-0.01299,0.875247,-0.7394345,-0.0285229999999999,1.138307,-0.7286945,-0.005809,0
1,0.9934765,0.759252,0.0576224999999999,0.8388964999999999,0.462382,0.0645864999999999,0.8144565,0.213992,0.0640854999999999,1.1551465,0.462132,0.0644545,1.1784465,0.209762,0.0597775,0.8047165000000001,0.008331,-0.0177515,1.1977665,0.006781,-0.0096505,0.9273555,-0.002985,-6.450000000000206e-05,1.0726445,0.002985,6.449999999999512e-05,0.8853565,-0.416228,0.0066344999999999,1.1309465,-0.368018,-0.0129175,0.8760765,-0.739908,-0.0286384999999999,1.1391465,-0.728498,-0.0064635,0
2,0.9932295,0.7590435,0.0573854999999999,0.8392715,0.4620535,0.0650775,0.8144315,0.2139935,0.0639505,1.1552715,0.4623335,0.0631235,1.1784315,0.2097435,0.0599114999999999,0.8046715,0.0082705,-0.0179625,1.1961615,0.0067405,-0.0099755,0.9273645,-0.0029955,-2.750000000000669e-05,1.0726355,0.0029955,2.7499999999999747e-05,0.8853515,-0.4164465,0.0066164999999999,1.1309815,-0.3689064999999999,-0.0130925,0.8759115,-0.7396665,-0.0285975,1.1387315,-0.7292265,-0.0072115,0
3,0.9930635,0.758987,0.0572864999999999,0.8392015000000002,0.462127,0.0647875,0.8145315000000001,0.213997,0.0638794999999999,1.1548815,0.461787,0.0636795,1.1783415,0.209377,0.0604694999999999,0.8048515,0.013721,-0.0162545,1.1956915,0.006502,-0.0099425,0.9273555,-0.002966,2.9499999999994808e-05,1.0726445,0.002966,-2.9500000000001747e-05,0.8853615,-0.416443,0.0064484999999999,1.1310515,-0.369823,-0.0133005,0.8759815,-0.739883,-0.0289395,1.1386615,-0.729663,-0.0075725,0
4,0.9929675,0.7589505000000001,0.0571355,0.8391405000000001,0.4621805,0.0646424999999999,0.8146305,0.2138805,0.0639685,1.1548405,0.4622805,0.0624255,1.1780305,0.2099805,0.0609055,0.8045505,0.0137534999999999,-0.0165025,1.1951705,0.0071265,-0.0096575,0.9273615,-0.0029965,-1.5500000000001624e-05,1.0726385,0.0029965,1.5500000000001624e-05,0.8854005000000001,-0.4164995,0.0064315,1.1309105,-0.3689095,-0.0133865,0.8762805,-0.7400795,-0.0291854999999999,1.1384305,-0.7291894999999999,-0.0071495,0
5,0.992764,0.758633,0.056685,0.839093,0.4622329999999999,0.064357,0.814663,0.213783,0.063835,1.154823,0.462433,0.061541,1.178013,0.210003,0.060838,0.804493,0.013607,-0.0164889999999999,1.193653,0.007164,-0.0101829999999999,0.927373,-0.002979,-0.0001109999999999,1.072627,0.002979,0.0001109999999999,0.885703,-0.414847,0.006209,1.130903,-0.368597,-0.0135269999999999,0.8763130000000001,-0.740117,-0.0292979999999999,1.138403,-0.7314470000000001,-0.0073169999999999,0
6,0.992693,0.7586400000000001,0.0564965,0.8390839999999999,0.4622799999999999,0.0640725,0.8147940000000001,0.21376,0.0637725,1.154924,0.46259,0.0608905,1.177944,0.20993,0.0607825,0.8044140000000001,0.013132,-0.0166705,1.193644,0.007175,-0.0104785,0.927382,-0.003006,-8.94999999999993e-05,1.072618,0.0030059999999999,8.94999999999993e-05,0.885754,-0.41509,0.0060985,1.130914,-0.36837,-0.0135855,0.8767240000000001,-0.74047,-0.0298005,1.138304,-0.73017,-0.0076555,0
7,0.9924295,0.758656,0.0568255,0.8388694999999999,0.4623359999999999,0.0637695,0.8152095,0.213806,0.0602285,1.1549995,0.462246,0.0613285,1.1781595,0.210846,0.0589335,0.8047495,0.009604,-0.0200764999999999,1.1974895,0.007976,-0.0183614999999999,0.9273755,-0.003031,-0.0001274999999999,1.0726245,0.003031,0.0001275,0.8857695,-0.415964,0.0061645,1.1309395,-0.368644,-0.0134034999999999,0.8763695,-0.739834,-0.0293604999999999,1.1384295,-0.730414,-0.0086474999999999,0
8,0.9922035,0.7585839999999999,0.0568269999999999,0.8387985,0.462334,0.0637099999999999,0.8152185000000001,0.213834,0.058084,1.1549685,0.462254,0.0610509999999999,1.1782685,0.211884,0.0578389999999999,0.8050085000000001,0.010193,-0.02216,1.1991385,0.008844,-0.024359,0.9273715,-0.003059,-0.000154,1.0726285,0.003059,0.0001539999999999,0.8858585,-0.415936,0.0061059999999999,1.1309385,-0.368616,-0.013403,0.8764185,-0.739916,-0.029408,1.1384085,-0.7307060000000001,-0.008924,0
9,0.991922,0.75852,0.0569645,0.8387169999999999,0.46233,0.0635185,0.815187,0.21417,0.0552785,1.154967,0.46245,0.0607295,1.1786869999999998,0.21352,0.0558265,0.804927,0.011129,-0.0254324999999999,1.200727,0.010416,-0.0312775,0.927371,-0.003102,-0.0001694999999999,1.072629,0.0031019999999999,0.0001695,0.886057,-0.41587,0.0060345,1.131007,-0.36828,-0.0134244999999999,0.8765270000000001,-0.73973,-0.0294494999999999,1.138337,-0.73055,-0.0092774999999999,0
10,0.991648,0.7584925,0.0571524999999999,0.838681,0.4623624999999999,0.0632794999999999,0.815161,0.2145825,0.0517784999999999,1.154941,0.4628224999999999,0.0605624999999999,1.1793809999999998,0.2154825,0.0530785,0.804841,0.0120814999999999,-0.0301745,1.202931,0.0122245,-0.0401585,0.927373,-0.0031515,-0.0001505,1.072627,0.0031515,0.0001504999999999,0.886221,-0.4157775,0.0059584999999999,1.131081,-0.3678275,-0.0134445,0.876641,-0.7396575000000001,-0.0295145,1.138261,-0.7303775,-0.0095915,0
11,0.9913525,0.758465,0.057428,0.8386635,0.462395,0.063051,0.8151235,0.215055,0.04722,1.1549335,0.463265,0.060345,1.1805635,0.218025,0.049082,0.8047135000000001,0.012525,-0.0363599999999999,1.2060835,0.017677,-0.0498399999999999,0.9273765,-0.003208,-0.0001189999999999,1.0726235,0.003208,0.000119,0.8863935000000001,-0.415675,0.00588,1.1311535,-0.367155,-0.0133919999999999,0.8767435,-0.7395550000000001,-0.0295669999999999,1.1381435,-0.730025,-0.0097109999999999,0
12,0.9910445,0.758404,0.0577909999999999,0.8386775,0.462704,0.062756,0.8146675,0.216704,0.040795,1.1549475,0.463624,0.060124,1.1827275,0.222804,0.043059,0.8035075,0.0169969999999999,-0.048151,1.2104975,0.0265919999999999,-0.063132,0.9273465,-0.00324,-9.599999999999886e-05,1.0726535,0.00324,9.599999999999886e-05,0.8865975,-0.415526,0.005776,1.1312175,-0.366196,-0.013331,0.8769075,-0.739516,-0.029585,1.1380575,-0.729726,-0.009931,0
13,0.990769,0.7583125000000001,0.0582629999999999,0.838713,0.4629925,0.062271,0.812703,0.2217825,0.031731,1.154903,0.4639325,0.059848,1.187003,0.2294825,0.033868,0.800923,0.0262185,-0.0644039999999999,1.217473,0.0386035,-0.080875,0.927268,-0.0032484999999999,-7.499999999999868e-05,1.0727319999999998,0.0032484999999999,7.499999999999868e-05,0.886843,-0.4152875,0.0058749999999999,1.131263,-0.3650675,-0.0132569999999999,0.877183,-0.7396075,-0.029503,1.137973,-0.7293275,-0.010207,0
14,0.990518,0.7581445,0.0587925,0.8387690000000001,0.4632245,0.0616785,0.809239,0.2280545,0.0208035,1.154849,0.4642945,0.0596135,1.192199,0.2374345,0.0225075,0.797849,0.0372695,-0.0834745,1.225619,0.0535154999999999,-0.1022245,0.927162,-0.0032405,-9.850000000000136e-05,1.072838,0.0032404999999999,9.850000000000136e-05,0.887099,-0.4150554999999999,0.0059805,1.131329,-0.3638355,-0.0132075,0.877449,-0.7397455,-0.0294505,1.137879,-0.7289654999999999,-0.0104445,0
15,0.990373,0.7578999999999999,0.0596415,0.839417,0.4635,0.0605875,0.8034669999999999,0.23928,0.0050455,1.154497,0.46485,0.0593435,1.201607,0.25185,0.0062405,0.792297,0.061174,-0.1128865,1.236777,0.0801689999999999,-0.1297465,0.92703,-0.003211,-0.0002404999999999,1.07297,0.003211,0.0002405,0.8874170000000001,-0.41494,0.0059555,1.131407,-0.3623699999999999,-0.0132574999999999,0.877747,-0.7400500000000001,-0.0295154999999999,1.137787,-0.7283400000000001,-0.0107004999999999,0
16,0.9903305,0.7575415,0.060704,0.8401145,0.4637115,0.059298,0.7974145,0.2509615,-0.010929,1.1539445,0.4655315,0.059058,1.2112445,0.2678315,-0.010414,0.7862945,0.0892045,-0.143573,1.2476345,0.1091815,-0.156783,0.9268715,-0.0031995,-0.000406,1.0731285,0.0031995,0.000406,0.8877845,-0.4149184999999999,0.005836,1.1315145,-0.3607285,-0.0133329999999999,0.8780845,-0.7404585,-0.029762,1.1376545,-0.7272785,-0.010157,0
17,0.990479,0.7575415,0.0617345,0.840846,0.4639515,0.0579024999999999,0.789866,0.2661915,-0.0282555,1.153296,0.4663115,0.0585935,1.220926,0.2866915,-0.0284225,0.779146,0.1205615,-0.1791025,1.261076,0.1437015,-0.1841725,0.926706,-0.0031995,-0.0006264999999999,1.073294,0.0031995,0.0006264999999999,0.888206,-0.4146285,0.0056935,1.131626,-0.3591185,-0.0134465,0.878336,-0.7403985,-0.0300505,1.137506,-0.7264085,-0.0097415,0
18,0.9906435,0.7575415,0.0625455,0.8417945,0.4644915,0.0562775,0.7817345,0.2846415,-0.0460445,1.1525745,0.4673615,0.0578665,1.2305845,0.3067815,-0.0453945,0.7712245,0.1569815,-0.2136974999999999,1.2744945,0.1833115,-0.2109774999999999,0.9265295,-0.0031995,-0.0009214999999999,1.0734705,0.0031995,0.0009214999999999,0.8885745,-0.4139685,0.0054284999999999,1.1317245,-0.3574285,-0.0136125,0.8786545,-0.7403285,-0.0304365,1.1373845,-0.7252185,-0.0091335,0
19,0.990854,0.7575035,0.063234,0.843129,0.4655035,0.054533,0.772239,0.3110135,-0.064432,1.151699,0.4687435,0.056913,1.241369,0.3338835,-0.059917,0.761889,0.2069635,-0.2472929999999999,1.289309,0.2336234999999999,-0.234993,0.926316,-0.0031615,-0.0012799999999999,1.073684,0.0031615,0.0012799999999999,0.888999,-0.4133965,0.005073,1.131839,-0.3556964999999999,-0.013786,0.878969,-0.7403664999999999,-0.030934,1.137309,-0.7239765,-0.008625,0
20,0.9910985,0.756969,0.0638489999999999,0.8447175,0.4667489999999999,0.052357,0.7629675,0.341839,-0.082531,1.1507675,0.4701889999999999,0.056047,1.2518775,0.363699,-0.072711,0.7516575,0.259909,-0.2803009999999999,1.3026175,0.283659,-0.257511,0.9260675,-0.003072,-0.001661,1.0739325,0.0030719999999999,0.0016609999999999,0.8894575000000001,-0.412831,0.00477,1.1319175,-0.354361,-0.013977,0.8792875,-0.741141,-0.031271,1.1372675,-0.7234510000000001,-0.008169,0
21,0.991433,0.7562844999999999,0.0644185,0.846302,0.4684245,0.0498975,0.7546220000000001,0.3718745,-0.0968305,1.149712,0.4715645,0.0551485,1.261322,0.3921845,-0.0837305,0.7425820000000001,0.3142545,-0.3036605,1.315352,0.3361645,-0.2766605,0.925858,-0.0029265,-0.0020605,1.074142,0.0029265,0.0020605,0.8898820000000001,-0.4124155,0.0044625,1.131882,-0.3538754999999999,-0.0141954999999999,0.879542,-0.7420955,-0.0314315,1.137162,-0.7231955,-0.0075654999999999,0
22,0.9917945,0.755272,0.0649,0.8476485,0.470302,0.047576,0.7472185,0.403372,-0.1078459999999999,1.1485685,0.473062,0.054313,1.2681585,0.423662,-0.090486,0.7350985,0.374252,-0.319506,1.3241085,0.394252,-0.286526,0.9256995,-0.002765,-0.002536,1.0743005,0.002765,0.002536,0.8902785,-0.411858,0.00392,1.1318185,-0.353958,-0.014493,0.8797085,-0.743308,-0.031725,1.1369885,-0.7227779999999999,-0.006806,0
23,0.992191,0.7539955,0.0653815,0.848711,0.4725455,0.0455075,0.7413810000000001,0.4388455,-0.1162425,1.147721,0.4748455,0.0537695,1.273491,0.4557655,-0.0922425,0.728391,0.4389755,-0.3302125,1.330311,0.4546655,-0.2897725,0.925566,-0.0026095,-0.0029494999999999,1.074434,0.0026095,0.0029495,0.890661,-0.4115645,0.0032485,1.131731,-0.3545144999999999,-0.0147424999999999,0.879881,-0.7447545,-0.0319415,1.136991,-0.7239745,-0.0065865,0
24,0.992605,0.7525780000000001,0.065623,0.8491210000000001,0.474308,0.044303,0.738371,0.469788,-0.116758,1.147281,0.476488,0.053516,1.273631,0.484198,-0.093228,0.7245710000000001,0.492328,-0.3307179999999999,1.3317009999999998,0.507078,-0.290338,0.925431,-0.0024639999999999,-0.003185,1.074569,0.002464,0.003185,0.890871,-0.411542,0.002758,1.131651,-0.355692,-0.01484,0.8800209999999999,-0.7464019999999999,-0.031941,1.137071,-0.724792,-0.0057429999999999,0
25,0.992995,0.7509440000000001,0.065659,0.849465,0.476114,0.04341,0.735815,0.500754,-0.117076,1.147145,0.478004,0.053495,1.2737349999999998,0.5116040000000001,-0.093576,0.7213350000000001,0.545034,-0.331036,1.332245,0.558744,-0.290686,0.925324,-0.0023369999999999,-0.003348,1.074676,0.002337,0.003348,0.890985,-0.4117559999999999,0.0024129999999999,1.131575,-0.357236,-0.014889,0.8800250000000001,-0.748086,-0.031757,1.137175,-0.727166,-0.0060909999999999,0
26,0.9933725,0.748987,0.065623,0.8497655,0.4777969999999999,0.042778,0.7350355,0.533887,-0.117306,1.1472255,0.4801269999999999,0.053618,1.2738355,0.538237,-0.093816,0.7194455,0.602317,-0.331256,1.3323455,0.610797,-0.290926,0.9252535,-0.0022159999999999,-0.003404,1.0747465,0.002216,0.0034039999999999,0.8910855,-0.412313,0.0021759999999999,1.1314855,-0.359163,-0.0148809999999999,0.8799855,-0.750063,-0.031488,1.1372455,-0.729353,-0.006098,0
27,0.993755,0.746639,0.0655765,0.849907,0.479999,0.0424994999999999,0.734467,0.566419,-0.1170045,1.147377,0.4821189999999999,0.0538835,1.274017,0.5689390000000001,-0.0897245,0.7184470000000001,0.660219,-0.3255245,1.332567,0.664869,-0.2826845,0.925273,-0.002132,-0.0033565,1.074727,0.002132,0.0033564999999999,0.891227,-0.413451,0.0021274999999999,1.131447,-0.361571,-0.0147774999999999,0.879957,-0.752421,-0.0310685,1.137357,-0.732101,-0.0058945,0
28,0.994084,0.7441850000000001,0.065568,0.8501190000000001,0.481795,0.0424159999999999,0.7346290000000001,0.5925250000000001,-0.114781,1.147509,0.484745,0.054077,1.273269,0.592755,-0.084351,0.7186589999999999,0.7067150000000001,-0.3150509999999999,1.332799,0.708925,-0.272221,0.925348,-0.002088,-0.003352,1.074652,0.0020879999999999,0.003352,0.891359,-0.414805,0.0021459999999999,1.131429,-0.364175,-0.014768,0.879889,-0.754875,-0.030604,1.137459,-0.7351949999999999,-0.0060769999999999,0
29,0.994312,0.7417205,0.065566,0.850618,0.4836104999999999,0.0424009999999999,0.734818,0.6144705,-0.109422,1.147538,0.4875705,0.054206,1.272348,0.6138205,-0.076292,0.718988,0.7515904999999999,-0.295552,1.329838,0.7518104999999999,-0.257322,0.92544,-0.0020934999999999,-0.003353,1.07456,0.0020935,0.0033529999999999,0.8914680000000001,-0.4164295,0.0021829999999999,1.131478,-0.3669295,-0.014768,0.879958,-0.7575495,-0.030302,1.137608,-0.7380495,-0.006317,0
30,0.994528,0.739419,0.0655105,0.8512320000000001,0.4849189999999999,0.0424304999999999,0.736202,0.635999,-0.1018775,1.147292,0.4904489999999999,0.0543525,1.270772,0.634609,-0.0678385,0.719352,0.791899,-0.2749375,1.326252,0.789119,-0.2409075,0.925546,-0.002164,-0.0033175,1.0744539999999998,0.0021639999999999,0.0033174999999999,0.891562,-0.418101,0.0021764999999999,1.131522,-0.369761,-0.0147325,0.880112,-0.7602909999999999,-0.0301795,1.137682,-0.740961,-0.0062815,0
31,0.9947095,0.7373145,0.0653745,0.8516845,0.4861744999999999,0.0425794999999999,0.7364745000000001,0.6543445,-0.0912055,1.1470745,0.4929345,0.0544805,1.2672645,0.6505145,-0.0600115,0.7198945,0.8229245000000001,-0.2526254999999999,1.3201245,0.8210145,-0.2234755,0.9256705,-0.0022175,-0.0032065,1.0743295,0.0022174999999999,0.0032064999999999,0.8915945,-0.4201755,0.0022834999999999,1.1315545,-0.3725155,-0.0145795,0.8802045000000001,-0.7628855,-0.0299325,1.1378645,-0.7438055,-0.0061375,0
32,0.995046,0.7355815,0.065222,0.8519280000000001,0.4871915,0.043176,0.738308,0.6712615,-0.080565,1.146958,0.4956115,0.055095,1.2633379999999998,0.6664614999999999,-0.051503,0.721668,0.8500715,-0.226685,1.313538,0.8476515,-0.202715,0.925834,-0.0022614999999999,-0.0030209999999999,1.074166,0.0022614999999999,0.003021,0.8914880000000001,-0.4225585,0.002378,1.131458,-0.3753885,-0.0143889999999999,0.880358,-0.7658585,-0.029597,1.138228,-0.7482485000000001,-0.0064959999999999,0
33,0.9953505,0.7341224999999999,0.0648615,0.8521434999999999,0.4883625,0.0441985,0.7404435,0.6880824999999999,-0.0691975,1.1469535,0.4984125,0.0558445,1.2593935,0.6808525,-0.0425295,0.7238035,0.8761924999999999,-0.1987944999999999,1.3066435,0.8727925,-0.1783044999999999,0.9260205,-0.0023254999999999,-0.0028754999999999,1.0739795,0.0023255,0.0028755,0.8913535,-0.4248475,0.0025535,1.1313535,-0.3781775,-0.0141634999999999,0.8804635000000001,-0.7687575000000001,-0.0291994999999999,1.1384535,-0.7523175000000001,-0.0067645,0
34,0.995608,0.7325505,0.064321,0.852356,0.4893605,0.045473,0.742956,0.7048905000000001,-0.0564729999999999,1.146896,0.5013105,0.0568609999999999,1.254476,0.6951705,-0.031976,0.725636,0.8994805,-0.171543,1.299796,0.8962505000000001,-0.156113,0.926223,-0.0024394999999999,-0.002742,1.073777,0.0024395,0.002742,0.891176,-0.4273895,0.0028919999999999,1.131186,-0.3810695,-0.013875,0.880506,-0.7719794999999999,-0.028696,1.138606,-0.7559195,-0.0065569999999999,0
35,0.995858,0.73093,0.0636655,0.8528410000000001,0.49051,0.0468125,0.7450209999999999,0.71615,-0.0431185,1.146571,0.50349,0.0577825,1.250001,0.7069399999999999,-0.0230955,0.727141,0.91524,-0.1438825,1.293781,0.91329,-0.1339625,0.926401,-0.002574,-0.0027275,1.073599,0.002574,0.0027275,0.890991,-0.43021,0.0033875,1.131011,-0.38394,-0.0135734999999999,0.880551,-0.77529,-0.0281045,1.138741,-0.75944,-0.0060654999999999,0
36,0.99607,0.7296515,0.062839,0.853339,0.4909715,0.047862,0.747109,0.7248614999999999,-0.031854,1.146129,0.5057615,0.058633,1.246539,0.7140114999999999,-0.0144739999999999,0.728009,0.9260515,-0.120056,1.288519,0.9232015,-0.113316,0.926517,-0.0026914999999999,-0.002818,1.073483,0.0026914999999999,0.002818,0.8908590000000001,-0.4326985,0.0038529999999999,1.130819,-0.3867184999999999,-0.0133239999999999,0.880659,-0.7781185,-0.027462,1.139019,-0.7632385,-0.0059679999999999,0
37,0.99628,0.7283995,0.0619355,0.8538970000000001,0.4914794999999999,0.0489125,0.749167,0.7322295,-0.0210085,1.145867,0.5069995,0.0594265,1.243677,0.7205495,-0.0057285,0.728607,0.9352895,-0.0977035,1.283867,0.9331995,-0.0916535,0.926629,-0.0027944999999999,-0.0029705,1.073371,0.0027944999999999,0.0029704999999999,0.890737,-0.4351505,0.0043804999999999,1.130617,-0.3893105,-0.0130634999999999,0.880767,-0.7810705,-0.0267835,1.139267,-0.7669705,-0.0058365,0
38,0.9965745,0.72732,0.0609705,0.8547685,0.4915199999999999,0.0498175,0.7512985,0.73934,-0.0111955,1.1454685,0.50779,0.0602075,1.2414785,0.7266699999999999,0.0023854999999999,0.7291885,0.94212,-0.0772115,1.2805485,0.94134,-0.0716245,0.9267505,-0.002883,-0.0031704999999999,1.0732495,0.0028829999999999,0.0031704999999999,0.8906285,-0.4371699999999999,0.0048395,1.1304185,-0.39159,-0.0129144999999999,0.8808585,-0.78373,-0.0262505,1.1393885,-0.7700600000000001,-0.0057795,0
39,0.9968725,0.725982,0.060073,0.8556735,0.4913919999999999,0.050704,0.7531734999999999,0.7458319999999999,-0.002083,1.1450135,0.508112,0.061021,1.2395235,0.732112,0.0103359999999999,0.7297534999999999,0.947752,-0.057741,1.2777535,0.949052,-0.052029,0.9269015,-0.00293,-0.003458,1.0730985,0.00293,0.0034579999999999,0.8905135,-0.439158,0.005242,1.1302035,-0.393758,-0.012856,0.8808735,-0.786398,-0.025944,1.1393235,-0.773698,-0.0058339999999999,0
40,0.9971865,0.7248129999999999,0.0591725,0.8566325000000001,0.491153,0.0513695,0.7549525,0.7506229999999999,0.0060815,1.1444925,0.508473,0.0618145,1.2381825,0.737763,0.0174305,0.7303325,0.952273,-0.0400714999999999,1.2757425,0.953573,-0.0337105,0.9270215,-0.003,-0.0037254999999999,1.0729785,0.003,0.0037255,0.8904425,-0.440807,0.0055475,1.1300025,-0.3956369999999999,-0.0128594999999999,0.8809325000000001,-0.788957,-0.0257034999999999,1.1392825,-0.776707,-0.0056194999999999,0
41,0.997522,0.7235245,0.0585205,0.857294,0.4906645,0.0519065,0.756724,0.7515845,0.0136355,1.143984,0.5082145,0.0625285,1.237104,0.7415145000000001,0.0236765,0.731034,0.9539745,-0.0264464999999999,1.274224,0.9581745,-0.0189394999999999,0.927109,-0.0030794999999999,-0.0039835,1.072891,0.0030794999999999,0.0039835,0.890344,-0.4418255,0.0057135,1.129804,-0.3971455,-0.0129694999999999,0.880694,-0.7907955,-0.0256004999999999,1.139204,-0.7785055,-0.0053614999999999,0
42,0.9978645,0.7222105,0.0579984999999999,0.8577935000000001,0.4900004999999999,0.0522845,0.7580735000000001,0.7521105,0.0190725,1.1438535,0.5076905,0.0631385,1.2361535,0.7436905,0.0292384999999999,0.7316635,0.9549705,-0.0182945,1.2735935,0.9601705,-0.0084185,0.9271795,-0.0031505,-0.0041134999999999,1.0728205,0.0031505,0.0041134999999999,0.8902335000000001,-0.4427295,0.0057464999999999,1.1295935,-0.3985195,-0.0131645,0.8804335000000001,-0.7923795,-0.0256005,1.1391335,-0.7801095,-0.0052315,0
43,0.9982225,0.7211715,0.057542,0.8581555,0.4896315,0.052487,0.7591155,0.7520815,0.022236,1.1440155,0.5068914999999999,0.063629,1.2363055,0.7451215,0.032081,0.7322755000000001,0.9554415,-0.0137359999999999,1.2735855,0.9609415,-0.0015509999999999,0.9272455,-0.0031415,-0.004114,1.0727545,0.0031414999999999,0.004114,0.8901055,-0.4432085,0.005592,1.1294055,-0.3995685,-0.0134009999999999,0.8801855,-0.7936185,-0.0257669999999999,1.1390455,-0.7813385,-0.0052299999999999,0
44,0.998471,0.7205185,0.0572135,0.858346,0.4892585,0.0525505,0.760126,0.7520385,0.0242215,1.144116,0.5060785,0.0641365,1.2363559999999998,0.7464385,0.0341335,0.7325459999999999,0.9554285,-0.0122564999999999,1.273436,0.9618285,0.0020535,0.927248,-0.0031164999999999,-0.0041425,1.072752,0.0031165,0.0041425,0.8899160000000002,-0.4433815,0.0054405,1.129186,-0.4002715,-0.0135804999999999,0.879766,-0.7945815,-0.0259965,1.138596,-0.7810615,-0.0048484999999999,1
45,0.998704,0.7200165000000001,0.056886,0.858515,0.4888364999999999,0.052459,0.761015,0.7520365,0.024236,1.144175,0.5054164999999999,0.064538,1.236275,0.7467165,0.03494,0.7327050000000002,0.9551665,-0.0123589999999999,1.273115,0.9617665,0.003156,0.927227,-0.0030564999999999,-0.004243,1.072773,0.0030565,0.004243,0.8896850000000001,-0.4437135,0.005192,1.128925,-0.4009635,-0.013866,0.879315,-0.7953935000000001,-0.02632,1.138125,-0.7805534999999999,-0.0043239999999999,1
46,0.999029,0.7198574999999999,0.056383,0.858851,0.4886475,0.052062,0.761821,0.7519374999999999,0.023835,1.144391,0.5050775,0.064549,1.236671,0.7476174999999999,0.034543,0.733121,0.9548275,-0.012757,1.273001,0.9619275,0.0027639999999999,0.927136,-0.0029495,-0.0042719999999999,1.072864,0.0029495,0.0042719999999999,0.889521,-0.4439425,0.004566,1.128691,-0.4014425,-0.014398,0.879121,-0.7958725,-0.026921,1.137881,-0.7808225,-0.004993,1
47,0.999361,0.7198574999999999,0.055285,0.859106,0.4887874999999999,0.0510459999999999,0.7624760000000002,0.7519975,0.022815,1.144866,0.5050475,0.063833,1.237186,0.7486275,0.033524,0.733716,0.9548275,-0.013776,1.273196,0.9626275,0.0017489999999999,0.927093,-0.0029495,-0.004093,1.072907,0.0029495,0.0040929999999999,0.8892860000000001,-0.4439425,0.0032779999999999,1.128396,-0.4017325,-0.015488,0.878776,-0.7959825,-0.028192,1.137626,-0.7808625,-0.0065139999999999,1
48,0.999788,0.7198574999999999,0.0533374999999999,0.8593680000000001,0.4888874999999999,0.0492245,0.7635080000000001,0.7519975,0.0209854999999999,1.145428,0.5048975,0.0621264999999999,1.237568,0.7491074999999999,0.0317014999999999,0.734488,0.9548275,-0.0164245,1.273358,0.9626275,-7.150000000000212e-05,0.927097,-0.0029495,-0.0036925,1.072903,0.0029495,0.0036924999999999,0.888998,-0.4439425,0.0010144999999999,1.127998,-0.4022125,-0.0173865,0.8785180000000001,-0.7962725,-0.0304265,1.137568,-0.7814825000000001,-0.0089425,1
49,1.000209,0.7198574999999999,0.0505225,0.8595280000000001,0.4887275,0.0465765,0.7643980000000001,0.7519975,0.0170724999999999,1.1457879999999998,0.5046575,0.0595254999999999,1.237828,0.7499874999999999,0.0282245,0.7353780000000001,0.9548275,-0.0218975,1.273258,0.9626275,-0.0042665,0.927036,-0.0029495,-0.0034275,1.072964,0.0029495,0.0034275,0.888628,-0.4439425,-0.0021895,1.127538,-0.4044925,-0.0203175,0.878118,-0.7968925,-0.0335634999999999,1.137478,-0.7827225,-0.0122375,1
50,1.0002285,0.7198895,0.046202,0.8592635,0.4885895,0.042589,0.7644934999999999,0.7520595,0.010643,1.1457235,0.5046295,0.0557939999999999,1.2375635,0.7501194999999999,0.022224,0.7359135,0.9544595,-0.031039,1.2729635,0.9621595,-0.012855,0.9268325,-0.0028385,-0.0032179999999999,1.0731675,0.0028385,0.003218,0.8883735,-0.4447305,-0.007133,1.1272935,-0.4072205,-0.024621,0.8778635,-0.7974405,-0.038208,1.1373535,-0.7841905,-0.017032,1
51,1.00022,0.7203615,0.040926,0.858888,0.4890515,0.037664,0.764328,0.7524015,0.002613,1.145578,0.5051615,0.051245,1.237258,0.7508414999999999,0.014378,0.7364280000000001,0.9541815,-0.04266,1.272548,0.9615815,-0.024405,0.926605,-0.0026655,-0.003096,1.073395,0.0026655,0.003096,0.888018,-0.4453585,-0.012973,1.126948,-0.4090985,-0.029696,0.8775080000000001,-0.7974085,-0.043639,1.136998,-0.7841485,-0.022565,1
52,1.000259,0.7207785,0.0350965,0.858867,0.4895685000000001,0.0321194999999999,0.7646470000000001,0.7523685,-0.0066985,1.145197,0.5057685000000001,0.0460565,1.236837,0.7517685000000001,0.0047905,0.737197,0.9532785,-0.0558255,1.271927,0.9609785,-0.0375505,0.926382,-0.0025265,-0.0028445,1.073618,0.0025265,0.0028445,0.887567,-0.4457215,-0.0193025,1.126557,-0.4108115,-0.0352455,0.8771170000000001,-0.7971015,-0.0497795,1.136607,-0.7836515,-0.0290055,1
53,1.000107,0.7203915,0.028006,0.858693,0.4898515,0.025387,0.7646930000000001,0.7518515,-0.01769,1.144633,0.5063314999999999,0.03979,1.236093,0.7533215,-0.006465,0.737673,0.9518115,-0.070575,1.270103,0.9603115,-0.052756,0.926132,-0.0024304999999999,-0.0026899999999999,1.073868,0.0024305,0.00269,0.886933,-0.4445685,-0.027298,1.126363,-0.4110385,-0.042257,0.877493,-0.7963485,-0.05738,1.137033,-0.7826785,-0.036887,1
54,0.9999595,0.7197345,0.0199825,0.8585355,0.4902144999999999,0.0178575,0.7648355,0.7515845,-0.0300695,1.1440455,0.5070045000000001,0.0326955,1.2352355,0.7549345000000001,-0.0190125,0.7379454999999999,0.9507545,-0.0864105,1.2683055,0.9596545,-0.0697795,0.9258865,-0.0022925,-0.0026325,1.0741135,0.0022925,0.0026325,0.8862555,-0.4431755,-0.0360184999999999,1.1262055,-0.4112355,-0.0501384999999999,0.8778755,-0.7952254999999999,-0.0657725,1.1375655,-0.7813255,-0.0455505,1
55,0.9997265,0.718588,0.0105005,0.8584235,0.490268,0.0095065,0.7651635,0.7472179999999999,-0.0435535,1.1434135,0.507258,0.0245024999999999,1.2339035,0.7532179999999999,-0.0334795,0.7379635,0.949378,-0.1034694999999999,1.2666235,0.959188,-0.0878174999999999,0.9256565,-0.002173,-0.0025005,1.0743435,0.002173,0.0025004999999999,0.8853535000000001,-0.441052,-0.0461465,1.1261535,-0.410532,-0.0594605,0.8788135,-0.793002,-0.0749435,1.1381035,-0.779072,-0.0552535,1
56,0.999496,0.716606,1.4499999999997154e-05,0.858685,0.489546,-0.0003545,0.765485,0.742646,-0.0588495,1.142905,0.506746,0.0149504999999999,1.231825,0.748976,-0.0486885,0.737915,0.947436,-0.1240475,1.265005,0.959146,-0.1082815,0.92541,-0.001902,-0.0023865,1.07459,0.001902,0.0023864999999999,0.884135,-0.437564,-0.0578875,1.126215,-0.408114,-0.0703005,0.879775,-0.788994,-0.0851965,1.139055,-0.777524,-0.0672435,1
57,0.999051,0.714973,-0.012181,0.858823,0.489413,-0.0117,0.765983,0.7369129999999999,-0.075401,1.142253,0.505873,0.0039599999999999,1.229903,0.744093,-0.065213,0.738423,0.940293,-0.145106,1.2634729999999998,0.958073,-0.131836,0.92506,-0.0015529999999999,-0.002636,1.07494,0.001553,0.0026359999999999,0.8827530000000001,-0.430287,-0.071397,1.126413,-0.403377,-0.083651,0.880613,-0.780617,-0.096159,1.139813,-0.771817,-0.080261,1
58,0.998567,0.7119409999999999,-0.0241185,0.858966,0.488611,-0.0230635,0.766356,0.731281,-0.0917475,1.141646,0.505171,-0.0068975,1.228126,0.739061,-0.0809195,0.7389060000000001,0.933381,-0.1661945,1.262106,0.957341,-0.1552545,0.924802,-0.0012739999999999,-0.0026554999999999,1.075198,0.001274,0.0026554999999999,0.881216,-0.421769,-0.0854215,1.126996,-0.397229,-0.0976925,0.881506,-0.770239,-0.1070565,1.140656,-0.763279,-0.0925725,1
59,0.9982595,0.7086060000000001,-0.035095,0.8592825,0.487326,-0.033566,0.7665925,0.725056,-0.106792,1.1407625,0.503726,-0.016803,1.2262525,0.733626,-0.095308,0.7395525000000001,0.925796,-0.185687,1.2610425,0.956456,-0.176427,0.9246025,-0.0010079999999999,-0.0026279999999999,1.0753975,0.001008,0.0026279999999999,0.8797225,-0.409814,-0.0986529999999999,1.1280125,-0.385274,-0.111433,0.8824825000000001,-0.7593139999999999,-0.116935,1.1414725,-0.754074,-0.103807,1
60,0.997948,0.703878,-0.046699,0.859746,0.485068,-0.044397,0.7668159999999999,0.7170679999999999,-0.122833,1.139666,0.502928,-0.027141,1.224356,0.7264079999999999,-0.111277,0.740016,0.916058,-0.206056,1.259666,0.954648,-0.199896,0.924367,-0.0009629999999999,-0.0023309999999999,1.075633,0.000963,0.0023309999999999,0.877826,-0.3950019999999999,-0.113145,1.129286,-0.3704619999999999,-0.126635,0.883426,-0.745472,-0.127354,1.141946,-0.741622,-0.1147239999999999,1
61,0.9974395,0.7001909999999999,-0.0630289999999999,0.8599855000000001,0.483531,-0.0600839999999999,0.7669555,0.711171,-0.14378,1.1383955,0.500321,-0.0426919999999999,1.2219455,0.719231,-0.13132,0.7401055000000001,0.908681,-0.231839,1.2579555,0.953451,-0.227019,0.9240045,-0.000778,-0.0023789999999999,1.0759955,0.000778,0.002379,0.8756855,-0.378559,-0.132749,1.1304554999999998,-0.354019,-0.1467669999999999,0.8841455,-0.7291190000000001,-0.141507,1.1419355,-0.727109,-0.129691,1
62,0.9963615,0.698807,-0.078752,0.8600245,0.482477,-0.075311,0.7666345,0.706957,-0.164142,1.1364745,0.497487,-0.0578029999999999,1.2194745,0.710557,-0.150785,0.7394345,0.903797,-0.256706,1.2559245,0.950667,-0.253306,0.9236455,-0.0006099999999999,-0.0021859999999999,1.0763545,0.0006099999999999,0.002186,0.8720145,-0.357813,-0.155092,1.1307345,-0.336363,-0.1687,0.8836345,-0.711933,-0.1546489999999999,1.1404945,-0.709923,-0.143513,1
63,0.995193,0.697816,-0.093784,0.859907,0.481576,-0.089832,0.766257,0.7007859999999999,-0.18323,1.1345269999999998,0.494476,-0.07221,1.217447,0.7018359999999999,-0.169283,0.7386269999999999,0.898586,-0.28071,1.254187,0.943596,-0.27853,0.923287,-0.00034,-0.0018859999999999,1.076713,0.00034,0.0018859999999999,0.868337,-0.337144,-0.176769,1.130977,-0.318914,-0.189833,0.8831370000000001,-0.6947340000000001,-0.167044,1.138917,-0.692724,-0.156619,1
64,0.9938295,0.6955764999999999,-0.107774,0.8599045000000001,0.4800864999999999,-0.1039889999999999,0.7661145,0.6966065,-0.2012,1.1324645,0.4914564999999999,-0.085948,1.2157144999999998,0.6962165,-0.185969,0.7375745,0.8940965,-0.30394,1.2523845,0.9328465,-0.30171,0.9228985,-9.349999999999636e-05,-0.0018099999999999,1.0771015,9.349999999999636e-05,0.00181,0.8646645,-0.3160435,-0.197708,1.1310545,-0.3012635,-0.2100599999999999,0.8821945,-0.6769635,-0.178941,1.1372245,-0.6749535,-0.1691309999999999,1
65,0.992397,0.694913,-0.120853,0.859524,0.479273,-0.116652,0.766054,0.693283,-0.217472,1.130504,0.489393,-0.09839,1.213444,0.6945830000000001,-0.20246,0.7366540000000001,0.8909630000000001,-0.323915,1.2509439999999998,0.923153,-0.322045,0.922586,-6.20000000000065e-05,-0.001755,1.077414,6.20000000000065e-05,0.0017549999999999,0.861214,-0.294627,-0.217423,1.131144,-0.282927,-0.229145,0.881294,-0.657737,-0.189886,1.135584,-0.657007,-0.180352,1
66,0.991081,0.69326,-0.1318519999999999,0.859127,0.47808,-0.1273289999999999,0.7658469999999999,0.69108,-0.2305149999999999,1.128787,0.4874,-0.1089759999999999,1.211147,0.69429,-0.2165559999999999,0.735097,0.89265,-0.342375,1.249677,0.91567,-0.3372349999999999,0.922427,-0.0001,-0.0015149999999999,1.077573,0.0001,0.001515,0.857967,-0.27674,-0.234865,1.131217,-0.26818,-0.2454849999999999,0.880557,-0.64138,-0.1993519999999999,1.134007,-0.6413099999999999,-0.1901659999999999,1
67,0.9900055,0.6927,-0.142838,0.8588655000000001,0.47662,-0.137906,0.7658555,0.68846,-0.2434899999999999,1.1275455,0.48483,-0.119668,1.2090855,0.6951,-0.230246,0.7336055,0.8918,-0.36044,1.2484055,0.9089,-0.35212,0.9223265,-0.0001199999999999,-0.0012199999999999,1.0776735,0.00012,0.0012199999999999,0.8548755,-0.25853,-0.25175,1.1311455,-0.2537,-0.2609599999999999,0.8798155,-0.62462,-0.208953,1.1323755,-0.6257199999999999,-0.199915,1
68,0.9888645,0.692955,-0.15375,0.8585965,0.476115,-0.148444,0.7658365,0.685565,-0.2563999999999999,1.1264065,0.482835,-0.1304369999999999,1.2074965,0.6919949999999999,-0.243666,0.7321065,0.891775,-0.37785,1.2470765,0.901335,-0.3662999999999999,0.9222255,-6.50000000000095e-05,-0.0008999999999999,1.0777745,6.50000000000095e-05,0.0009,0.8518765,-0.240145,-0.26814,1.1308965,-0.239145,-0.27588,0.8790865,-0.6077950000000001,-0.218159,1.1308165,-0.6103449999999999,-0.2096449999999999,1
69,0.988087,0.6924950000000001,-0.163567,0.858739,0.475125,-0.158432,0.765979,0.684605,-0.26806,1.125749,0.479465,-0.140685,1.206479,0.688775,-0.2547439999999999,0.730839,0.894385,-0.39393,1.246119,0.895915,-0.37856,0.922171,5.499999999999949e-05,-0.00084,1.077829,-5.499999999999949e-05,0.00084,0.849389,-0.2229449999999999,-0.2833,1.130899,-0.224075,-0.28926,0.878579,-0.592505,-0.226548,1.129559,-0.595965,-0.218418,1
70,0.987643,0.69053,-0.168328,0.8592240000000001,0.47401,-0.163323,0.7658640000000001,0.68136,-0.274265,1.125204,0.47789,-0.145423,1.206084,0.68467,-0.260855,0.7298640000000001,0.89366,-0.404005,1.245414,0.88996,-0.386245,0.922169,0.00014,-0.0004949999999999,1.077831,-0.00014,0.0004949999999999,0.847254,-0.2068199999999999,-0.293195,1.131274,-0.20863,-0.297765,0.878374,-0.57838,-0.2296969999999999,1.128384,-0.58311,-0.222268,1
71,0.9877265,0.687865,-0.172761,0.8599555,0.472335,-0.167744,0.7665655,0.6769350000000001,-0.280585,1.1251255,0.476215,-0.149853,1.2060755,0.6826049999999999,-0.2667049999999999,0.7298454999999999,0.8910450000000001,-0.413675,1.2454155,0.8861049999999999,-0.394295,0.9221375,0.000295,-0.000255,1.0778625,-0.0002949999999999,0.000255,0.8466355,-0.1956049999999999,-0.2990049999999999,1.1321255,-0.197395,-0.303515,0.8786955,-0.5659350000000001,-0.232456,1.1279755,-0.571895,-0.225735,1
72,0.9877625,0.684435,-0.177288,0.8606895,0.470745,-0.172235,0.7671895000000001,0.674235,-0.28694,1.1250395,0.473605,-0.154366,1.2056695,0.679145,-0.27251,0.7297095,0.888135,-0.42312,1.2450895,0.8843150000000001,-0.40213,0.9221015,0.000455,-0.0001099999999999,1.0778985,-0.0004549999999999,0.0001099999999999,0.8460095000000001,-0.1837149999999999,-0.30503,1.1329695,-0.1855049999999999,-0.30943,0.8789795,-0.552855,-0.235117,1.1275995,-0.560005,-0.229267,1
73,0.987846,0.682895,-0.181666,0.861301,0.469405,-0.176488,0.767431,0.675025,-0.29447,1.124941,0.471615,-0.158656,1.205321,0.676925,-0.27815,0.729031,0.884565,-0.43154,1.244741,0.885185,-0.40961,0.922065,0.000595,9.000000000000674e-05,1.077935,-0.0005949999999999,-9.000000000000674e-05,0.8455010000000001,-0.1706149999999999,-0.31106,1.133661,-0.1724049999999999,-0.31553,0.878991,-0.539355,-0.23837,1.127421,-0.546895,-0.232777,1
74,0.9879975,0.6798150000000001,-0.185725,0.8618375,0.467445,-0.180564,0.7674375,0.673605,-0.301945,1.1252375,0.469205,-0.162763,1.2054975,0.671375,-0.282945,0.7283175,0.878975,-0.439205,1.2445875,0.885545,-0.417665,0.9220575,0.0006849999999999,0.0002449999999999,1.0779425,-0.000685,-0.000245,0.8451175000000001,-0.160175,-0.316555,1.1342175,-0.162115,-0.321005,0.8789275,-0.526135,-0.241324,1.1272975,-0.534105,-0.236063,1
75,0.988171,0.67721,-0.189548,0.862386,0.46529,-0.184399,0.767296,0.6714100000000001,-0.309365,1.125346,0.46719,-0.166629,1.205886,0.66533,-0.287215,0.727576,0.87392,-0.445865,1.244456,0.8847799999999999,-0.426315,0.922003,0.00068,0.0004049999999999,1.077997,-0.0006799999999999,-0.000405,0.8447960000000001,-0.1496,-0.321575,1.134666,-0.1519599999999999,-0.325945,0.8788460000000001,-0.5132699999999999,-0.244244,1.127186,-0.52138,-0.239355,1
76,0.9884245000000002,0.6749149999999999,-0.193226,0.8628675,0.463565,-0.18799,0.7672375000000001,0.669065,-0.3165,1.1254675,0.4651149999999999,-0.170431,1.2065075,0.658425,-0.29177,0.7271775,0.8695849999999999,-0.4548799999999999,1.2447375,0.882425,-0.43472,0.9219835,0.0007149999999999,0.00039,1.0780165,-0.000715,-0.00039,0.8446775000000001,-0.139905,-0.32578,1.1350975,-0.142385,-0.3302,0.8788675,-0.501255,-0.246965,1.1271775,-0.509485,-0.242543,1
77,0.988704,0.670415,-0.196726,0.863358,0.461205,-0.19136,0.7671479999999999,0.666365,-0.323215,1.125578,0.463015,-0.173983,1.2069379999999998,0.654795,-0.296885,0.7271080000000001,0.864285,-0.463015,1.245078,0.8793949999999999,-0.444075,0.921967,0.000735,0.0003549999999999,1.0780329999999998,-0.0007349999999999,-0.0003549999999999,0.844568,-0.130685,-0.329615,1.135488,-0.133185,-0.334135,0.878898,-0.489925,-0.249466,1.127158,-0.4983249999999999,-0.245808,1
78,0.9889815,0.66813,-0.200217,0.8635535,0.45929,-0.194658,0.7669535000000001,0.66281,-0.3297299999999999,1.1256635,0.46118,-0.177446,1.2071435,0.6533100000000001,-0.30203,0.7272835,0.85865,-0.47069,1.2453235,0.87531,-0.4529999999999999,0.9219675,0.0007699999999999,0.00042,1.0780325,-0.0007699999999999,-0.00042,0.8445135,-0.12214,-0.33262,1.1357535,-0.12467,-0.33752,0.8788935,-0.47972,-0.251968,1.1273335,-0.4883699999999999,-0.249328,1
79,0.9891645,0.66638,-0.203759,0.8634265,0.4569899999999999,-0.19785,0.7664965,0.6597299999999999,-0.336205,1.1257865,0.45918,-0.18102,1.2070965,0.6516299999999999,-0.306805,0.7273965,0.85437,-0.477925,1.2456465,0.86998,-0.4610149999999999,0.9220235,0.0006899999999999,0.0004649999999999,1.0779765,-0.00069,-0.0004649999999999,0.8443965,-0.1142,-0.335385,1.1358265,-0.11673,-0.340565,0.8788065,-0.47034,-0.254419,1.1273265,-0.47947,-0.252405,1
80,0.9893545,0.663505,-0.206649,0.8633385,0.455075,-0.200794,0.7660585,0.656165,-0.34189,1.1259185,0.457585,-0.184268,1.2079885,0.6492549999999999,-0.31202,0.7275885,0.846795,-0.48481,1.2464185,0.863515,-0.46779,0.9220515,0.000585,0.0004599999999999,1.0779485,-0.000585,-0.00046,0.8442985000000001,-0.107245,-0.33775,1.1359185,-0.109685,-0.3431,0.8787385,-0.462155,-0.256764,1.1272885,-0.4717949999999999,-0.255316,1
81,0.989524,0.660915,-0.209477,0.863213,0.452935,-0.203699,0.765543,0.651975,-0.347615,1.126043,0.457065,-0.187437,1.209173,0.6464350000000001,-0.317955,0.727913,0.8396750000000001,-0.491185,1.247483,0.858545,-0.474145,0.921989,0.000345,0.0005249999999999,1.078011,-0.0003449999999999,-0.0005249999999999,0.8441730000000001,-0.1010949999999999,-0.340025,1.136033,-0.1033949999999999,-0.345495,0.878693,-0.4549649999999999,-0.25903,1.127233,-0.4650949999999999,-0.258151,1
82,0.989302,0.657845,-0.212829,0.862891,0.4510849999999999,-0.206408,0.765041,0.646185,-0.351965,1.126081,0.455965,-0.190604,1.210111,0.6429750000000001,-0.323475,0.728171,0.833115,-0.497245,1.248631,0.851505,-0.480595,0.921882,0.000145,0.000615,1.078118,-0.000145,-0.000615,0.843871,-0.096785,-0.342215,1.135941,-0.098945,-0.347805,0.878501,-0.450105,-0.261111,1.126991,-0.4605849999999999,-0.260744,1
83,0.989314,0.65539,-0.215834,0.862733,0.44995,-0.20882,0.764803,0.64167,-0.35563,1.126223,0.45503,-0.193519,1.211253,0.64071,-0.3287299999999999,0.728623,0.8275600000000001,-0.5028600000000001,1.249993,0.8434299999999999,-0.48626,0.921689,6.0000000000004494e-05,0.0007099999999999,1.0783109999999998,-6.0000000000004494e-05,-0.00071,0.843773,-0.0937,-0.3442199999999999,1.135933,-0.0956,-0.35,0.878503,-0.44641,-0.262842,1.126893,-0.4572,-0.26303,1
84,0.9894915,0.65309,-0.218826,0.8626635,0.44874,-0.211371,0.7648334999999999,0.63812,-0.359305,1.1266235,0.45371,-0.196491,1.2125235,0.63845,-0.3340349999999999,0.7291835,0.8221,-0.508585,1.2515335,0.83601,-0.4913149999999999,0.9215805,8.00000000000245e-05,0.0008249999999999,1.0784195,-7.999999999996898e-05,-0.0008249999999999,0.8438435,-0.0906799999999999,-0.346215,1.1358635,-0.09203,-0.352175,0.8785735000000001,-0.4426399999999999,-0.264509,1.1269635,-0.45336,-0.2652879999999999,1
85,0.9894425,0.6504300000000001,-0.221916,0.8626185,0.44732,-0.213892,0.7650185,0.63499,-0.3627599999999999,1.1269385,0.45236,-0.199371,1.2138285,0.63624,-0.33865,0.7294385,0.81852,-0.51202,1.2530185,0.82965,-0.49559,0.9215635,4.000000000004e-05,0.001,1.0784365,-3.999999999998449e-05,-0.001,0.8438085,-0.0869299999999999,-0.34743,1.1356485,-0.08781,-0.3538599999999999,0.8785485,-0.4382499999999999,-0.26576,1.1269285,-0.4487799999999999,-0.267211,1
86,0.9894795,0.648965,-0.224685,0.8625315,0.445565,-0.216421,0.7646915,0.6334850000000001,-0.36591,1.1268415,0.450715,-0.202092,1.2142915,0.634835,-0.34314,0.7291814999999999,0.815905,-0.51532,1.2541915,0.825095,-0.49857,0.9215025,2.500000000005276e-05,0.0011799999999999,1.0784975,-2.4999999999997247e-05,-0.00118,0.8437315,-0.0828649999999999,-0.34881,1.1354215,-0.0831849999999999,-0.35525,0.8784615,-0.433345,-0.266742,1.1268315,-0.443655,-0.26893,1
87,0.989623,0.64708,-0.227132,0.862511,0.44442,-0.218464,0.764441,0.63245,-0.368645,1.126641,0.44899,-0.204344,1.214341,0.63298,-0.347225,0.729101,0.81316,-0.518675,1.255161,0.82026,-0.500965,0.92143,0.0001099999999999,0.0013549999999999,1.07857,-0.0001099999999999,-0.001355,0.843431,-0.07949,-0.349655,1.135211,-0.0791399999999999,-0.356105,0.8782010000000001,-0.42893,-0.267117,1.126451,-0.43913,-0.270177,1
88,0.9896875,0.6446350000000001,-0.229239,0.8626075,0.4432549999999999,-0.22015,0.7642475,0.6317349999999999,-0.3709949999999999,1.1264575,0.446905,-0.206212,1.2147675,0.630405,-0.3505749999999999,0.7296275,0.810255,-0.521835,1.2558575,0.8162149999999999,-0.503395,0.9213515,0.0003049999999999,0.0014149999999999,1.0786485,-0.0003049999999999,-0.0014149999999999,0.8431275,-0.076015,-0.349945,1.1351375,-0.0750049999999999,-0.356395,0.8780175,-0.424375,-0.266938,1.1260375,-0.434475,-0.270463,1
89,0.9899245,0.64195,-0.231916,0.8627595,0.44087,-0.222677,0.7642795,0.63074,-0.37391,1.1264495,0.44371,-0.208914,1.2154395,0.62673,-0.35415,0.7300694999999999,0.80986,-0.52568,1.2563295,0.81199,-0.5072,0.9210965,0.0004399999999999,0.00136,1.0789035,-0.00044,-0.00136,0.8428795,-0.06993,-0.35015,1.1353895,-0.06809,-0.35707,0.8781695,-0.41706,-0.266689,1.1257595,-0.4270900000000001,-0.270567,1
90,0.99021,0.63931,-0.234379,0.862869,0.43847,-0.225018,0.764289,0.62783,-0.37664,1.126619,0.44038,-0.211643,1.216159,0.62412,-0.3575,0.730499,0.80891,-0.52935,1.256619,0.80769,-0.51091,0.920821,0.00079,0.0013399999999999,1.079179,-0.00079,-0.00134,0.842619,-0.06355,-0.35042,1.135789,-0.06091,-0.35792,0.8784689999999999,-0.40947,-0.266218,1.125379,-0.4196399999999999,-0.270128,1
91,0.9907305,0.636435,-0.237019,0.8632355,0.436086,-0.22772,0.7645655,0.625195,-0.379225,1.1270955,0.437745,-0.214315,1.2173355,0.6213150000000001,-0.360575,0.7311855,0.8086249999999999,-0.532995,1.2571855,0.807465,-0.5148550000000001,0.9204215,0.0008949999999999,0.0013249999999999,1.0795785,-0.0008949999999999,-0.001325,0.8424055,-0.0559149999999999,-0.351425,1.1364255,-0.052485,-0.359015,0.8789855,-0.400605,-0.265681,1.1253455,-0.410865,-0.269496,1
92,0.991373,0.634755,-0.240105,0.8638350000000001,0.433375,-0.230909,0.765125,0.622925,-0.38205,1.127775,0.435647,-0.217421,1.218645,0.618745,-0.3643699999999999,0.7320250000000001,0.806785,-0.53758,1.258215,0.806055,-0.51997,0.919971,0.0007349999999999,0.00136,1.080029,-0.0007349999999999,-0.00136,0.842375,-0.047675,-0.35257,1.137205,-0.043725,-0.3599,0.8797550000000001,-0.3914149999999999,-0.265491,1.125635,-0.401705,-0.269348,1
93,0.9921235,0.63301,-0.243174,0.8646055,0.430015,-0.2340269999999999,0.7657955,0.62079,-0.384725,1.1285455,0.4336419999999999,-0.220574,1.2197955,0.61581,-0.367915,0.7329855000000001,0.8051299999999999,-0.542115,1.2593655,0.80397,-0.524925,0.9195055,0.0005499999999999,0.001425,1.0804945,-0.00055,-0.001425,0.8423055,-0.04129,-0.353525,1.1377955,-0.03679,-0.360635,0.8803855,-0.38371,-0.26529,1.1260655,-0.3942300000000001,-0.269213,1
94,0.992919,0.6344099999999999,-0.245858,0.8655539999999999,0.4301689999999999,-0.23609,0.766464,0.62093,-0.3873649999999999,1.129084,0.432019,-0.223123,1.220574,0.61206,-0.3706549999999999,0.7341040000000001,0.80528,-0.545995,1.260514,0.80095,-0.5301549999999999,0.919089,0.0007199999999999,0.0014149999999999,1.080911,-0.0007199999999999,-0.0014149999999999,0.8423240000000001,-0.03871,-0.3538449999999999,1.138464,-0.03338,-0.360965,0.881074,-0.37983,-0.264984,1.126604,-0.39038,-0.268987,1
95,0.9936085,0.6344099999999999,-0.248614,0.8664345,0.429596,-0.23789,0.7669745,0.6188499999999999,-0.390115,1.1293445,0.432019,-0.225132,1.2215145,0.60846,-0.371055,0.7351645,0.80399,-0.549615,1.2618545,0.79813,-0.533935,0.9187845,0.0007199999999999,0.001335,1.0812155,-0.0007199999999999,-0.001335,0.8422345,-0.03901,-0.3542349999999999,1.1391045,-0.03335,-0.361355,0.8817245,-0.37942,-0.264612,1.1271345,-0.3901200000000001,-0.268769,1
96,0.9940805,0.6344099999999999,-0.250722,0.8670405,0.429596,-0.239645,0.7672505000000001,0.6188499999999999,-0.392335,1.1290905,0.432019,-0.2270609999999999,1.2229805,0.60846,-0.373075,0.7360405,0.80399,-0.5521050000000001,1.2629905,0.79767,-0.535785,0.9186265,0.0007199999999999,0.001195,1.0813735,-0.0007199999999999,-0.001195,0.8420605,-0.03901,-0.354765,1.1396105,-0.03326,-0.3618949999999999,0.8822305,-0.37914,-0.264525,1.1275305,-0.39008,-0.2684729999999999,1
97,0.9945855,0.6344099999999999,-0.253318,0.8674445,0.429596,-0.241183,0.7676345,0.6188499999999999,-0.3943,1.1288445,0.432019,-0.228618,1.2240945,0.60846,-0.3739,0.7368045,0.80399,-0.5539700000000001,1.2643345,0.79767,-0.53661,0.9185365,0.0007199999999999,0.0010999999999999,1.0814635,-0.0007199999999999,-0.0011,0.8420645,-0.03898,-0.35511,1.1399545,-0.03298,-0.36219,0.8826945,-0.37893,-0.264749,1.1279745,-0.38991,-0.268362,1
98,0.9950345000000002,0.6349750000000001,-0.255178,0.8677975,0.428761,-0.241914,0.7679374999999999,0.618145,-0.39503,1.1289775,0.431285,-0.229396,1.2246675,0.6076250000000001,-0.37463,0.7376775,0.8031550000000001,-0.5547,1.2656075,0.796835,-0.53734,0.9188735,0.000655,0.0010499999999999,1.0811265,-0.000655,-0.0010499999999999,0.8423975000000001,-0.039285,-0.35419,1.1403675,-0.033445,-0.36121,0.8832275,-0.3795849999999999,-0.2648749999999999,1.1284675,-0.390525,-0.26814,1
99,0.9955445,0.63427,-0.255571,0.8680384999999999,0.428474,-0.2419929999999999,0.7684785000000001,0.6164000000000001,-0.395105,1.1295085,0.431263,-0.229478,1.2250585,0.6054999999999999,-0.374275,0.7383785,0.80304,-0.554785,1.2667185,0.79291,-0.537585,0.9192835,0.0005999999999999,0.001085,1.0807165,-0.0005999999999999,-0.001085,0.8429185000000001,-0.0424499999999999,-0.352225,1.1408085,-0.03693,-0.3591149999999999,0.8838885000000001,-0.38344,-0.264397,1.1288785,-0.39435,-0.267094,1
100,0.9962655,0.639025,-0.255056,0.8685395000000001,0.428029,-0.241476,0.7691495,0.615795,-0.39459,1.1300895,0.431383,-0.228961,1.2260395,0.6037950000000001,-0.37488,0.7390595,0.8040050000000001,-0.55427,1.2679495,0.789705,-0.53707,0.9197495,0.000495,0.001,1.0802505,-0.0004949999999999,-0.001,0.8436695000000001,-0.0488049999999999,-0.34934,1.1411395,-0.0442949999999999,-0.3555399999999999,0.8843395000000001,-0.3914849999999999,-0.263407,1.1290795,-0.402365,-0.265196,1
101,0.9967605,0.64445,-0.254586,0.8686345,0.42827,-0.24072,0.7693245000000001,0.617,-0.3935,1.1305245,0.43229,-0.228283,1.2276645,0.60397,-0.3738,0.7394845,0.80745,-0.55307,1.2691845,0.78738,-0.53436,0.9201295,0.00032,0.0009099999999999,1.0798705,-0.0003199999999999,-0.00091,0.8441945000000001,-0.0585799999999999,-0.34586,1.1413245,-0.0550799999999999,-0.35146,0.8845145,-0.4033,-0.262588,1.1290144999999998,-0.4142,-0.263361,1
102,0.997363,0.648055,-0.254286,0.8688870000000001,0.430795,-0.240062,0.769567,0.6201650000000001,-0.39231,1.131137,0.436245,-0.2271619999999999,1.229407,0.604275,-0.37204,0.740267,0.8103750000000001,-0.5516099999999999,1.271527,0.791155,-0.53149,0.920553,0.000155,0.00078,1.079447,-0.0001549999999999,-0.0007799999999999,0.8448370000000001,-0.0711749999999999,-0.34168,1.141557,-0.069025,-0.34678,0.884757,-0.418605,-0.262059,1.129027,-0.429095,-0.2614309999999999,1
103,0.9981305,0.653535,-0.25304,0.8695385000000001,0.432565,-0.2386599999999999,0.7703485000000001,0.6256649999999999,-0.39005,1.1317885,0.439195,-0.2255279999999999,1.2309885,0.611915,-0.36958,0.7409185,0.816115,-0.5485599999999999,1.2744585,0.795105,-0.5274,0.9209935,4.500000000001725e-05,0.0007,1.0790065,-4.500000000001725e-05,-0.0006999999999999,0.8456785,-0.089025,-0.3364899999999999,1.1415285,-0.0878149999999999,-0.34112,0.8849985,-0.440065,-0.2614059999999999,1.1290685,-0.449955,-0.2592089999999999,1
104,0.998879,0.658675,-0.251601,0.8698170000000001,0.434475,-0.236808,0.770337,0.632795,-0.386905,1.132257,0.441265,-0.223626,1.232307,0.6199950000000001,-0.366125,0.741147,0.824145,-0.544205,1.276817,0.800925,-0.521415,0.921512,0.000265,0.0006249999999999,1.078488,-0.000265,-0.000625,0.846607,-0.107375,-0.331425,1.141127,-0.1070749999999999,-0.336015,0.884887,-0.4624049999999999,-0.260685,1.128947,-0.471785,-0.256895,1
105,0.9998375,0.6639649999999999,-0.2485109999999999,0.8701835,0.4395449999999999,-0.2335789999999999,0.7702835,0.638995,-0.381745,1.1329435,0.445385,-0.220079,1.2331135,0.625675,-0.360785,0.7416035000000001,0.831855,-0.537235,1.2795235,0.804265,-0.513535,0.9219675,0.0004349999999999,0.000455,1.0780325,-0.000435,-0.000455,0.8478435,-0.128945,-0.324315,1.1402635,-0.129275,-0.328625,0.8847235,-0.489125,-0.258344,1.1289535,-0.497455,-0.252906,1
106,1.001056,0.6679999999999999,-0.243748,0.870645,0.4421,-0.229236,0.770385,0.64423,-0.3749949999999999,1.133955,0.45066,-0.214525,1.233755,0.6313500000000001,-0.351715,0.742075,0.84141,-0.528635,1.281855,0.81155,-0.5027550000000001,0.922506,0.00037,0.0001049999999999,1.077494,-0.00037,-0.0001049999999999,0.8495550000000001,-0.15122,-0.315245,1.139225,-0.15248,-0.3191049999999999,0.8844750000000001,-0.51755,-0.254487,1.129045,-0.52472,-0.247269,1
107,1.00216,0.67466,-0.2366039999999999,0.870795,0.44841,-0.223109,0.770365,0.65327,-0.365515,1.135075,0.45722,-0.207497,1.234565,0.6383000000000001,-0.340505,0.7418750000000001,0.85497,-0.517795,1.285115,0.81877,-0.489495,0.922887,0.00029,-0.0001049999999999,1.077113,-0.0002899999999999,0.0001049999999999,0.851415,-0.17246,-0.304295,1.137895,-0.1741299999999999,-0.307625,0.883965,-0.54514,-0.248882,1.128905,-0.55043,-0.2398549999999999,1
108,1.0033489999999998,0.68311,-0.227979,0.870927,0.4541199999999999,-0.215863,0.770487,0.6618499999999999,-0.354535,1.1364169999999998,0.4626099999999999,-0.1993639999999999,1.236297,0.6426,-0.328495,0.741657,0.86479,-0.504805,1.288347,0.83027,-0.475485,0.923296,0.0003299999999999,-0.000445,1.076704,-0.0003299999999999,0.000445,0.853827,-0.19408,-0.290325,1.136467,-0.19519,-0.293715,0.883487,-0.57214,-0.242284,1.128747,-0.57515,-0.231376,1
109,1.0046855,0.689965,-0.218035,0.8712675000000001,0.459595,-0.207885,0.7704275,0.669195,-0.342275,1.1378075,0.468685,-0.190411,1.2381375,0.647755,-0.315455,0.7414575,0.874315,-0.490595,1.2913975,0.842135,-0.460435,0.9236655,0.0003049999999999,-0.000935,1.0763345,-0.0003049999999999,0.0009349999999999,0.8562275,-0.214115,-0.274621,1.1348775,-0.2137549999999999,-0.278745,0.8829975,-0.596685,-0.234307,1.1286675,-0.597375,-0.22246,1
110,1.0058865,0.69578,-0.207723,0.8714725,0.46621,-0.199237,0.7704125,0.67826,-0.32885,1.1393025,0.47648,-0.1807929999999999,1.2397925,0.65665,-0.30235,0.7412625000000002,0.88775,-0.4761599999999999,1.2944624999999998,0.85484,-0.44422,0.9242065,0.00032,-0.0015399999999999,1.0757935,-0.0003199999999999,0.00154,0.8585225,-0.24162,-0.2566049999999999,1.1329825,-0.24017,-0.262049,0.8823025,-0.62409,-0.2256709999999999,1.1283825,-0.62305,-0.2129539999999999,1
111,1.006482,0.7041204999999999,-0.196682,0.871376,0.4695304999999999,-0.190097,0.770186,0.6880605,-0.3150199999999999,1.140426,0.4810204999999999,-0.171183,1.241506,0.6709305,-0.28855,0.7408859999999999,0.9007505,-0.46066,1.296226,0.8635205,-0.42794,0.924686,0.0001345,-0.0022899999999999,1.075314,-0.0001344999999999,0.00229,0.8610260000000001,-0.2673594999999999,-0.23845,1.131246,-0.2659095,-0.244246,0.881806,-0.6498295000000001,-0.216503,1.128446,-0.6487895,-0.203731,1
112,1.006744,0.711906,-0.186917,0.871336,0.475606,-0.182059,0.769126,0.6978260000000001,-0.302425,1.141656,0.487726,-0.162264,1.243386,0.677786,-0.2758049999999999,0.740686,0.910756,-0.446165,1.297836,0.871896,-0.411715,0.925095,0.000137,-0.002945,1.074905,-0.0001369999999999,0.002945,0.863676,-0.289054,-0.218717,1.129686,-0.2876039999999999,-0.2277179999999999,0.881276,-0.671524,-0.2081589999999999,1.1284759999999998,-0.670484,-0.195462,1
113,1.007051,0.7176915,-0.168712,0.871352,0.4815715,-0.164963,0.768112,0.7050615,-0.281735,1.143582,0.4942614999999999,-0.144371,1.245072,0.6838015000000001,-0.254675,0.740602,0.9184515,-0.419725,1.298792,0.8795615,-0.385325,0.925495,-0.0004914999999999,-0.002905,1.074505,0.0004914999999999,0.0029049999999999,0.866412,-0.3161485,-0.188749,1.128282,-0.3110685,-0.200547,0.880852,-0.6949885,-0.191293,1.128582,-0.6939485,-0.178649,1
114,1.007205,0.7233425,-0.150576,0.871186,0.4850925,-0.148615,0.766876,0.7133725000000001,-0.2613149999999999,1.145216,0.4989725,-0.127279,1.246816,0.6926125000000001,-0.234985,0.740056,0.9259925,-0.393955,1.299806,0.8901825000000001,-0.359955,0.925859,-0.0010074999999999,-0.0027449999999999,1.074141,0.0010074999999999,0.0027449999999999,0.869586,-0.3400175,-0.161241,1.127496,-0.3289075,-0.175958,0.8808360000000001,-0.7149074999999999,-0.175798,1.128936,-0.7122375,-0.163798,1
115,1.0070979999999998,0.7273065,-0.1337559999999999,0.8703339999999999,0.4879265,-0.133622,0.765524,0.7203765,-0.24199,1.146374,0.5027565,-0.111817,1.247684,0.7019965,-0.2185,0.738964,0.9296965,-0.36804,1.300434,0.8975565,-0.33677,0.926137,-0.0015395,-0.0024799999999999,1.073863,0.0015394999999999,0.0024799999999999,0.872254,-0.3599435,-0.136275,1.126954,-0.3431035,-0.153797,0.880644,-0.7303835,-0.1616,1.129174,-0.7262435,-0.150146,1
116,1.00698,0.7298365,-0.1169444999999999,0.869542,0.4886365,-0.1186425,0.764302,0.7261965,-0.2230255,1.147402,0.5045465,-0.0964835,1.248432,0.7111665,-0.2013355,0.737662,0.9314665,-0.3416755,1.300372,0.9055165,-0.3138555,0.926421,-0.0018335,-0.0025664999999999,1.073579,0.0018335,0.0025664999999999,0.874832,-0.3773335,-0.1124584999999999,1.126612,-0.3550034999999999,-0.1329005,0.880422,-0.7432135,-0.1475115,1.129472,-0.7366135,-0.1364865,1
117,1.006824,0.7320415,-0.1004605,0.868851,0.4888515,-0.1039745,0.763131,0.7313315,-0.2038235,1.148421,0.5071615,-0.0814315,1.2490009999999998,0.7209615,-0.1841935,0.735931,0.9352015,-0.3156735,1.300361,0.9106915,-0.2912135,0.92666,-0.0023035,-0.0026435,1.07334,0.0023035,0.0026434999999999,0.877391,-0.3920685,-0.0913755,1.126561,-0.3637485,-0.1140355,0.880081,-0.7536985,-0.1342275,1.129971,-0.7451384999999999,-0.1230415,1
118,1.0064194999999998,0.730851,-0.0841704999999999,0.8679735,0.490051,-0.0891664999999999,0.7618834999999999,0.736321,-0.1843705,1.1493635,0.509381,-0.0663174999999999,1.2498435,0.730011,-0.1665974999999999,0.7343135000000001,0.938571,-0.2895204999999999,1.2994235,0.914341,-0.2681405,0.9267795,-0.0027289999999999,-0.0025464999999999,1.0732205,0.0027289999999999,0.0025465,0.8799635000000001,-0.406999,-0.0715534999999999,1.1264934999999998,-0.372859,-0.0958385,0.8798535000000001,-0.762529,-0.1202944999999999,1.1304934999999998,-0.753239,-0.1092715,1
119,1.005871,0.7307695000000001,-0.0674545,0.867008,0.4909895,-0.0737755,0.7611680000000001,0.7390795,-0.1647025,1.1500979999999998,0.5098395,-0.0505695,1.250638,0.7351995,-0.1480425,0.7326980000000001,0.9371195,-0.2610625,1.299478,0.9181395,-0.2433425,0.926693,-0.0030195,-0.0023654999999999,1.073307,0.0030195,0.0023654999999999,0.882578,-0.4212505,-0.0531675,1.126438,-0.3815905,-0.0782195,0.879658,-0.7707305,-0.1064455,1.131138,-0.7609604999999999,-0.0948415,1
120,1.005202,0.7303879999999999,-0.0506355,0.865939,0.491938,-0.0575635,0.759919,0.7422479999999999,-0.1441585,1.150809,0.510658,-0.0344565,1.250679,0.736248,-0.1278615,0.730959,0.937398,-0.2324085,1.298729,0.921508,-0.2163885,0.926511,-0.003362,-0.0021825,1.073489,0.0033619999999999,0.0021824999999999,0.8846390000000001,-0.435162,-0.0351525,1.126639,-0.390482,-0.0612225,0.8795189999999999,-0.778502,-0.0923705,1.131989,-0.768652,-0.0797675,1
121,1.0043065,0.7292945,-0.0335909999999999,0.8648645,0.4918445000000001,-0.041218,0.7587444999999999,0.7431445,-0.123281,1.1512045,0.5100345,-0.018368,1.2507245,0.7375444999999999,-0.10736,0.7290945000000001,0.9371945,-0.203709,1.2978545,0.9247145,-0.189329,0.9262085,-0.0036754999999999,-0.0018679999999999,1.0737915,0.0036754999999999,0.001868,0.8861245000000001,-0.4484955,-0.019877,1.1270845,-0.3991854999999999,-0.0443719999999999,0.8796345,-0.7857855,-0.078012,1.1329145,-0.7759055,-0.06448,1
122,1.003235,0.7295955,-0.024878,0.8638910000000001,0.4920055,-0.033767,0.758141,0.7448955,-0.110538,1.151061,0.5100755,-0.011129,1.250661,0.7397655,-0.095143,0.7270909999999999,0.9388855,-0.187051,1.296971,0.9282755,-0.1726309999999999,0.925816,-0.0034194999999999,-0.002242,1.074184,0.0034194999999999,0.002242,0.887351,-0.4497645,-0.013883,1.127641,-0.4004545,-0.038085,0.8794910000000001,-0.7885645,-0.072258,1.133901,-0.7781245,-0.0575699999999999,1
123,1.0022975,0.7300605,-0.0172825,0.8631605,0.4920005,-0.0268015,0.7574105,0.7459305,-0.0987145,1.1508605,0.5101505,-0.0044275,1.2499705,0.7415805,-0.0829685,0.7255605,0.9403105,-0.1713095,1.2961705,0.9313905,-0.1566894999999999,0.9256295,-0.0032895,-0.0026235,1.0743705,0.0032894999999999,0.0026235,0.8878205,-0.4512495,-0.0077085,1.1279005,-0.4018195,-0.0317375,0.8792805,-0.7899295,-0.0660765,1.1341705,-0.7794895,-0.0504955,1
124,1.001319,0.7304785,-0.0098695,0.86247,0.4920285,-0.0198964999999999,0.7567,0.7464285,-0.0872825,1.15069,0.5100885,0.0022375,1.24939,0.7437885,-0.0710565,0.72421,0.9403485,-0.1569345,1.29545,0.9346585,-0.1410245,0.925448,-0.0032545,-0.0029974999999999,1.074552,0.0032545,0.0029975,0.8881900000000001,-0.4524715,-0.0015984999999999,1.12819,-0.4030415,-0.0256004999999999,0.8791,-0.7911515,-0.0602305,1.13435,-0.7809115,-0.0434235,1
125,1.0004125,0.730462,-0.0035665,0.8618825,0.4918619999999999,-0.0138465,0.7560825,0.745922,-0.0773345,1.1503925,0.510142,0.0080025,1.2494025,0.746132,-0.0612995,0.7228325,0.941782,-0.1439525,1.2949925,0.938402,-0.1285925,0.9253565,-0.003261,-0.0031385,1.0746435,0.003261,0.0031385,0.8883725,-0.4520079999999999,0.0024414999999999,1.1285425,-0.401038,-0.0205414999999999,0.8790625,-0.791058,-0.0550444999999999,1.1345925,-0.780958,-0.0373975,1
126,0.9995305,0.730885,0.0018984999999999,0.8614035000000001,0.492035,-0.0081575,0.7555635,0.745125,-0.0684085,1.1502635,0.510115,0.0133295,1.2495335,0.7453350000000001,-0.0522875,0.7214435,0.943275,-0.1327934999999999,1.2947235,0.939585,-0.1188535,0.9253135,-0.0033069999999999,-0.0032805,1.0746865,0.0033069999999999,0.0032804999999999,0.8884535000000001,-0.450055,0.0060295,1.1289435,-0.398865,-0.0156455,0.8788835000000002,-0.7909849999999999,-0.0503605,1.1349435,-0.780805,-0.0310455,1
127,0.998566,0.731232,0.0064175,0.860865,0.4928319999999999,-0.0029885,0.7543250000000001,0.744602,-0.0598475,1.150065,0.5097619999999999,0.0181405,1.249655,0.744812,-0.0441764999999999,0.719785,0.942752,-0.1227455,1.294465,0.939062,-0.1122555,0.925275,-0.0033469999999999,-0.0034354999999999,1.074725,0.003347,0.0034355,0.888515,-0.447948,0.0087145,1.129185,-0.396988,-0.0112855,0.878695,-0.790718,-0.0462265,1.135265,-0.7809280000000001,-0.0257225,1
128,0.997338,0.7315619999999999,0.0098905,0.860385,0.4934119999999999,0.0009224999999999,0.748945,0.742212,-0.0514075,1.149915,0.5097619999999999,0.0217545,1.250595,0.744812,-0.0384645,0.7175549999999999,0.942752,-0.1156265,1.294615,0.939062,-0.1087965,0.925163,-0.0033469999999999,-0.0035385,1.074837,0.003347,0.0035385,0.8886350000000001,-0.4454979999999999,0.0094485,1.129325,-0.394968,-0.0079284999999999,0.8785350000000001,-0.790178,-0.0431895,1.135595,-0.7809280000000001,-0.0222655,1
129,0.996035,0.7315619999999999,0.012395,0.859994,0.493862,0.0035929999999999,0.742594,0.738382,-0.044974,1.149784,0.5097619999999999,0.024248,1.2525039999999998,0.741022,-0.035872,0.7147940000000002,0.942752,-0.110347,1.294834,0.939062,-0.106307,0.924968,-0.0033469999999999,-0.003592,1.075032,0.003347,0.0035919999999999,0.888754,-0.4443479999999999,0.0089679999999999,1.129544,-0.394788,-0.005723,0.878464,-0.789948,-0.04112,1.135904,-0.7809280000000001,-0.019777,1
130,0.9948145,0.7315619999999999,0.01484,0.8578345,0.493862,0.006645,0.7340345000000001,0.730622,-0.038935,1.1495245,0.5097619999999999,0.026684,1.2555345,0.7361019999999999,-0.03293,0.7098645,0.936132,-0.1052299999999999,1.2954845,0.939032,-0.10388,0.9248535,-0.0033469999999999,-0.003875,1.0751465,0.003347,0.003875,0.8889645,-0.4439079999999999,0.008133,1.1301945,-0.3947779999999999,-0.0037509999999999,0.8787445,-0.789948,-0.03934,1.1366045,-0.7809280000000001,-0.017351,1
131,0.993558,0.7316155,0.0170969999999999,0.855622,0.4939155,0.0092469999999999,0.724072,0.7196555,-0.032971,1.149302,0.5090655000000001,0.029266,1.260752,0.7261955,-0.030402,0.7046320000000001,0.9254055,-0.102052,1.296672,0.9301055,-0.102962,0.924895,-0.0033544999999999,-0.004179,1.075105,0.0033545,0.0041789999999999,0.889422,-0.4438545,0.0070549999999999,1.131392,-0.3947245,-0.002088,0.879482,-0.7898944999999999,-0.037745,1.137832,-0.7818245,-0.01488,1
132,0.992064,0.7319265,0.0186929999999999,0.852911,0.4941065,0.011911,0.712511,0.7048165,-0.027034,1.149081,0.5083565,0.031848,1.2623609999999998,0.7132565,-0.027077,0.699121,0.9113765,-0.099352,1.298251,0.9159565,-0.1052119999999999,0.925048,-0.0034155,-0.004373,1.074952,0.0034154999999999,0.004373,0.890151,-0.4430835,0.00563,1.132571,-0.3939535,-0.001183,0.880661,-0.7891235,-0.036165,1.139531,-0.7818135,-0.012725,0
133,0.9901765,0.7323230000000001,0.0197455,0.8498205,0.494663,0.0146364999999999,0.6993005,0.684633,-0.0200395,1.1485805,0.5070330000000001,0.0342095,1.2645805,0.6939930000000001,-0.0232895,0.6915305,0.891093,-0.0964845,1.3000205,0.894873,-0.1091645,0.9251725,-0.0035239999999999,-0.0044705,1.0748274999999998,0.0035239999999999,0.0044704999999999,0.8910105,-0.441817,0.0039644999999999,1.1339405,-0.392797,-0.0003205,0.8823205000000001,-0.7882669999999999,-0.0345005,1.1417605,-0.781347,-0.0104715,0
134,0.9872105,0.7335745,0.0195315,0.8468295,0.4950644999999999,0.0186875,0.6848695,0.6527745,-0.0109595,1.1458095,0.5044745,0.0350655,1.2693895,0.6610145000000001,-0.0180954999999999,0.6833495,0.8561145,-0.0922765,1.3041295,0.8562145,-0.1175865,0.9252745,-0.0036815,-0.0043645,1.0747255,0.0036814999999999,0.0043645,0.8929595,-0.4393655,0.0023605,1.1365695,-0.3907255,0.0006784999999999,0.8865395,-0.7856555,-0.0317874999999999,1.1464695,-0.7806455,-0.0092935,0
135,0.9842835,0.7355799999999999,0.0184609999999999,0.8443455,0.49535,0.023354,0.6759855,0.6111500000000001,0.003615,1.1424855,0.5013799999999999,0.034596,1.2752255,0.6186799999999999,-0.0116529999999999,0.6751155,0.8078099999999999,-0.088364,1.3085055,0.80156,-0.126364,0.9255055,-0.003719,-0.003956,1.0744945,0.003719,0.003956,0.8957655,-0.43644,0.0012379999999999,1.1396655,-0.38888,0.000861,0.8931855,-0.78199,-0.0279799999999999,1.1531455,-0.7789900000000001,-0.007086,0
136,0.9816015,0.7380075,0.0172684999999999,0.8416035,0.4954575,0.0286644999999999,0.6697835,0.5688275,0.0197204999999999,1.1390035,0.4981575,0.0339774999999999,1.2789535,0.5737575,-0.0043775,0.6670535,0.7537375,-0.0851305,1.3135235,0.7388475,-0.1311804999999999,0.9258235,-0.0037585,-0.0035365,1.0741765,0.0037584999999999,0.0035364999999999,0.8992735000000001,-0.4330225,0.0006434999999999,1.1428535,-0.3878925,4.949999999999399e-05,0.9011735,-0.7777325,-0.0236595,1.1611235,-0.7767725,-0.0049185,0
137,0.9789805,0.740736,0.015642,0.8387795,0.4955659999999999,0.034329,0.6714495,0.525766,0.036139,1.1349995,0.494676,0.032501,1.2803295,0.526566,0.0036549999999999,0.6609295,0.692976,-0.08062,1.3180095,0.6686259999999999,-0.13339,0.9261495,-0.0037979999999999,-0.003104,1.0738505,0.003798,0.003104,0.9029495,-0.429854,0.000842,1.1451395,-0.387304,-0.002811,0.9103695,-0.7730940000000001,-0.018934,1.1698795,-0.7740940000000001,-0.0029899999999999,0
138,0.9762035,0.7437745,0.0136215,0.8360385,0.4954744999999999,0.0401195,0.6754885000000002,0.4837945,0.0529445,1.1312325,0.4912244999999999,0.0307775,1.2805585,0.4796945,0.0115175,0.6573685,0.6268144999999999,-0.0760845,1.3207885,0.5932545,-0.1316245,0.9265485,-0.0038775,-0.0025654999999999,1.0734515,0.0038774999999999,0.0025655,0.9065385,-0.4275854999999999,0.0015895,1.1464385,-0.3870654999999999,-0.0076644999999999,0.9208285,-0.7690155000000001,-0.0141395,1.1779785,-0.7697555,-0.0026734999999999,0
139,0.9734335,0.747209,0.011095,0.8357785,0.495139,0.0455729999999999,0.6837085,0.441059,0.070384,1.1275974999999998,0.487979,0.028199,1.2783685,0.433019,0.019449,0.6579385,0.562599,-0.068598,1.3232485,0.511249,-0.124698,0.9270385,-0.003931,-0.0015809999999999,1.0729615,0.003931,0.0015809999999999,0.9135985,-0.427061,0.0032969999999999,1.1465355,-0.386481,-0.015495,0.9317785,-0.764791,-0.009126,1.1830685,-0.764161,-0.006311,0
140,0.970714,0.7504149999999999,0.008101,0.83603,0.494435,0.050656,0.6943600000000001,0.399965,0.086808,1.124182,0.484985,0.024895,1.27301,0.389655,0.02709,0.6592800000000001,0.497025,-0.062506,1.32426,0.432565,-0.1171659999999999,0.92746,-0.003938,-0.0005529999999999,1.07254,0.003938,0.0005529999999999,0.92204,-0.425985,0.005906,1.144936,-0.385565,-0.025743,0.9434,-0.7610450000000001,-0.003969,1.18527,-0.758205,-0.0117329999999999,0
141,0.9679485,0.7531825,0.005094,0.8369785,0.4932125,0.055484,0.7061985,0.3621925,0.100628,1.1206895,0.4821125,0.021146,1.2641585,0.3482625,0.034171,0.6622885000000001,0.4292925,-0.0557869999999999,1.3216285,0.3533725,-0.108897,0.9277985,-0.0038294999999999,0.000335,1.0722015,0.0038294999999999,-0.000335,0.9316885,-0.4213774999999999,0.009541,1.1397835,-0.3824275,-0.037427,0.9555885,-0.7578975,0.001544,1.1835685,-0.7527575,-0.0212829999999999,0
142,0.9661115,0.755556,0.0017814999999999,0.8389515,0.491176,0.0589924999999999,0.7190215,0.329296,0.1126605,1.1182595,0.4796359999999999,0.0172674999999999,1.2540715,0.3123559999999999,0.0415674999999999,0.6703415000000001,0.3634259999999999,-0.0503504999999999,1.3167415,0.278346,-0.1000004999999999,0.9280415,-0.003724,0.0011204999999999,1.0719585,0.003724,-0.0011205,0.9391715,-0.416404,0.0094824999999999,1.1326295,-0.379454,-0.0504705,0.9694615,-0.752924,0.0094095,1.1785425,-0.747784,-0.0355105,0
143,0.9654325,0.757178,-0.000918,0.8412625,0.489648,0.061357,0.7274925,0.308188,0.120881,1.1184055,0.478378,0.014307,1.2395325,0.289558,0.048824,0.6781524999999999,0.310198,-0.0471199999999999,1.3077525,0.218128,-0.0883299999999999,0.9282325,-0.00364,0.001744,1.0717675,0.00364,-0.0017439999999999,0.9466925000000002,-0.4128619999999999,0.0064929999999999,1.1218855,-0.3759119999999999,-0.0691999999999999,0.9814125,-0.749382,0.013354,1.1663005,-0.743412,-0.0527199999999999,0
144,0.9649475,0.7576615000000001,-0.003341,0.8431975,0.4878915,0.0633,0.7338374999999999,0.2968015,0.129332,1.1199325,0.4775315,0.0126479999999999,1.2283875,0.2749115,0.0570489999999999,0.6871875000000001,0.2677615,-0.042471,1.2969375,0.1714014999999999,-0.073501,0.9282675,-0.0036465,0.0022209999999999,1.0717325,0.0036465,-0.002221,0.9541875,-0.4104385,0.0036979999999999,1.1099005,-0.3734885,-0.091611,0.9902175,-0.7469585,0.0171519999999999,1.1489535,-0.7398285,-0.076371,0
145,0.964041,0.7575605,-0.0059199999999999,0.845011,0.4858905,0.063689,0.7404310000000001,0.2859805,0.138044,1.121117,0.4766405,0.010215,1.219084,0.2623705,0.064125,0.695721,0.2300105,-0.0373699999999999,1.284121,0.1317205,-0.0559899999999999,0.928441,-0.0036214999999999,0.0031899999999999,1.071559,0.0036214999999999,-0.0031899999999999,0.953791,-0.4035195,0.00025,1.096509,-0.3717295,-0.1120799999999999,0.996881,-0.7421395,0.024634,1.125113,-0.7355895,-0.1049199999999999,0
146,0.964411,0.756065,-0.0087049999999999,0.848961,0.482285,0.063616,0.755151,0.280155,0.146483,1.12491,0.475285,0.007585,1.21378,0.250565,0.072399,0.708121,0.198175,-0.031475,1.272361,0.0985119999999999,-0.0328449999999999,0.928331,-0.00322,0.004015,1.071669,0.0032199999999999,-0.0040149999999999,0.951921,-0.396435,0.000115,1.085561,-0.366925,-0.1318849999999999,1.0068009999999998,-0.7379249999999999,0.035817,1.093273,-0.716225,-0.138455,0
147,0.9654365,0.754367,-0.0116899999999999,0.8545465000000001,0.478837,0.06452,0.7703565,0.273807,0.14861,1.1293515,0.473947,0.00535,1.2099365,0.244187,0.077281,0.7204265000000001,0.173197,-0.0262499999999999,1.2623165,0.071189,-0.0127799999999999,0.9283165,-0.0029379999999999,0.00494,1.0716835,0.002938,-0.00494,0.9490765,-0.3894729999999999,0.0008,1.0754985,-0.361253,-0.14984,1.0176265,-0.733883,0.046155,1.0614155,-0.706403,-0.17078,0
148,0.966455,0.7529560000000001,-0.0139549999999999,0.8579850000000001,0.476056,0.0624809999999999,0.785085,0.271856,0.148548,1.133805,0.473006,0.002785,1.207866,0.238946,0.080562,0.731795,0.1542059999999999,-0.0208649999999999,1.252485,0.052415,0.002945,0.927815,-0.002957,0.005085,1.072185,0.0029569999999999,-0.005085,0.944655,-0.382804,0.0008849999999999,1.066565,-0.353384,-0.165225,1.026965,-0.727334,0.05759,1.032485,-0.6968139999999999,-0.199015,0
149,0.967845,0.752686,-0.0157599999999999,0.8622350000000001,0.474406,0.06127,0.798935,0.270396,0.145142,1.138853,0.472056,0.00101,1.207507,0.2364959999999999,0.082661,0.740335,0.1390259999999999,-0.0161699999999999,1.244691,0.040022,0.02052,0.927705,-0.002957,0.00631,1.072295,0.0029569999999999,-0.00631,0.940715,-0.375054,0.0004099999999999,1.059485,-0.3444939999999999,-0.17824,1.036785,-0.719414,0.069923,1.007535,-0.689264,-0.2227799999999999,0
150,0.970085,0.7525854999999999,-0.0168299999999999,0.8665849999999999,0.4730555,0.0604399999999999,0.809375,0.2690855,0.140625,1.144527,0.4719555,-0.0001299999999999,1.209564,0.2352055,0.08327,0.748505,0.1314055,-0.0125299999999999,1.242025,0.0340515,0.0397899999999999,0.927135,-0.0028565,0.00689,1.072865,0.0028564999999999,-0.00689,0.942935,-0.3687045,-0.0013999999999999,1.055845,-0.3348445,-0.18981,1.0463049999999998,-0.7102745,0.07981,0.981635,-0.6833845000000001,-0.24099,0
151,0.972175,0.7516145,-0.0163799999999999,0.870405,0.4717145,0.06187,0.817945,0.2671045,0.134944,1.149568,0.4709845,-0.0007699999999999,1.212335,0.2342345,0.08287,0.754935,0.1265845,-0.0109999999999999,1.242537,0.0326685,0.05828,0.927395,-0.0028005,0.00837,1.072605,0.0028004999999999,-0.0083699999999999,0.945435,-0.3615855,-0.0024899999999999,1.0536249999999998,-0.3250655,-0.20017,1.054905,-0.7006155,0.09195,0.960535,-0.6744555,-0.2519699999999999,0
152,0.97411,0.7499695,-0.0151,0.8739600000000001,0.4700695,0.06334,0.8235600000000001,0.2654595,0.12821,1.153902,0.4693395,-0.0004599999999999,1.216373,0.2325895,0.07995,0.75944,0.1249395,-0.01349,1.245915,0.0310235,0.06731,0.92761,-0.0033345,0.00961,1.07239,0.0033344999999999,-0.00961,0.94551,-0.3575005,0.00165,1.05045,-0.3190005,-0.20274,1.06562,-0.6976105,0.10666,0.94762,-0.6653105,-0.2556,0
153,0.975825,0.7484500000000001,-0.01339,0.877125,0.4681,0.0649199999999999,0.8290150000000001,0.26349,0.12433,1.157825,0.46747,-0.00063,1.220936,0.23116,0.07599,0.760445,0.12297,-0.02066,1.252063,0.029054,0.06847,0.928205,-0.004136,0.0112199999999999,1.0717949999999998,0.004136,-0.01122,0.943395,-0.35557,-0.01327,1.049305,-0.31993,-0.19979,1.078625,-0.68814,0.1139,0.939495,-0.6588299999999999,-0.25131,0
154,0.977645,0.7476045,-0.0115799999999999,0.8807550000000001,0.4660945,0.06709,0.833205,0.2614845,0.11818,1.161775,0.4662945,-0.00013,1.225444,0.2303445,0.07057,0.7616450000000001,0.1209645,-0.02798,1.259635,0.0270485,0.06237,0.928235,-0.0049215,0.01162,1.071765,0.0049214999999999,-0.01162,0.949955,-0.3528955,-0.02582,1.0493249999999998,-0.3200355,-0.19757,1.090415,-0.6817055000000001,0.12443,0.937565,-0.6522555000000001,-0.2406999999999999,0
155,0.977275,0.7479875,-0.009355,0.881845,0.4643075,0.0691949999999999,0.833875,0.2603875,0.1127149999999999,1.164035,0.4669975,0.0024249999999999,1.228994,0.2337975,0.0637249999999999,0.757485,0.1197975,-0.035845,1.265329,0.0348715,0.040825,0.928725,-0.0055825,0.0126549999999999,1.071275,0.0055825,-0.012655,0.959245,-0.3514425,-0.0360449999999999,1.0496649999999998,-0.3208125,-0.188595,1.088085,-0.6752325,0.1290049999999999,0.946615,-0.6485325,-0.2194249999999999,0
156,0.974615,0.7484275,-0.0080549999999999,0.8794850000000001,0.4638474999999999,0.068545,0.8332650000000001,0.2580074999999999,0.107735,1.164065,0.4685775,0.003495,1.231323,0.2391875,0.053985,0.751865,0.1221175,-0.0440049999999999,1.269923,0.0474275,0.011675,0.928905,-0.0059924999999999,0.013335,1.071095,0.0059925,-0.0133349999999999,0.960585,-0.3501725,-0.0405849999999999,1.051455,-0.3227925,-0.1774749999999999,1.075675,-0.6678525000000001,0.122005,0.957565,-0.6453225,-0.1956649999999999,0
157,0.971255,0.7484755000000001,-0.007745,0.8784350000000001,0.4636755,0.069615,0.8332950000000001,0.2557055,0.103465,1.163665,0.4701555,0.004935,1.233895,0.2450955,0.044295,0.7465250000000001,0.1257355,-0.0506749999999999,1.274655,0.0608165,-0.0212149999999999,0.929375,-0.0061775,0.014435,1.070625,0.0061775,-0.0144349999999999,0.954765,-0.3494644999999999,-0.0576749999999999,1.053815,-0.3250645,-0.1649849999999999,1.053625,-0.6609045,0.101615,0.969155,-0.6442844999999999,-0.1706949999999999,0
158,0.96686,0.748352,-0.0078999999999999,0.8758900000000001,0.463962,0.06946,0.83219,0.253692,0.0992,1.16213,0.472222,0.00595,1.23578,0.2534019999999999,0.03281,0.7423500000000001,0.130512,-0.0593599999999999,1.274966,0.07668,-0.0558299999999999,0.92943,-0.0067009999999999,0.01423,1.0705699999999998,0.0067009999999999,-0.0142299999999999,0.94761,-0.349308,-0.0752299999999999,1.0566,-0.330428,-0.1513499999999999,1.02688,-0.655478,0.07469,0.98048,-0.652938,-0.14724,0
159,0.96108,0.74801,-0.0090299999999999,0.87229,0.46395,0.06839,0.8258800000000001,0.25226,0.09024,1.15973,0.47416,0.00701,1.23736,0.26177,0.0234,0.73444,0.13505,-0.0719699999999999,1.27322,0.091926,-0.0867399999999999,0.92997,-0.007182,0.01471,1.07003,0.007182,-0.01471,0.93974,-0.34922,-0.0929999999999999,1.05979,-0.33615,-0.1367699999999999,0.99512,-0.65757,0.0426,0.99694,-0.65628,-0.12405,0
160,0.9542,0.7476845,-0.0112299999999999,0.86805,0.4640745,0.06544,0.8194000000000001,0.2514045,0.08273,1.15696,0.4768544999999999,0.00825,1.23792,0.2704145,0.01614,0.72604,0.1394145,-0.0825599999999999,1.27023,0.1064344999999999,-0.1124899999999999,0.92975,-0.0073915,0.01412,1.07025,0.0073915,-0.0141199999999999,0.93106,-0.3486955,-0.10319,1.0636899999999998,-0.3416755,-0.12112,0.96154,-0.6589355,0.0123,1.0123399999999998,-0.6588055,-0.10202,0
161,0.946205,0.747125,-0.0135599999999999,0.862705,0.463555,0.06268,0.810675,0.251175,0.07642,1.152965,0.480635,0.00923,1.236965,0.277725,0.0125,0.716715,0.143845,-0.0926899999999999,1.264225,0.118105,-0.1283299999999999,0.929615,-0.0071349999999999,0.01351,1.070385,0.007135,-0.0135099999999999,0.919555,-0.347975,-0.1157,1.070785,-0.345805,-0.1072499999999999,0.925515,-0.664345,-0.02221,1.0247849999999998,-0.6608449999999999,-0.0826799999999999,0
162,0.937335,0.746677,-0.0161799999999999,0.857065,0.463107,0.05898,0.801085,0.251197,0.06971,1.147805,0.483627,0.01077,1.235145,0.284637,0.0112,0.7089450000000002,0.146737,-0.0982899999999999,1.257845,0.128307,-0.13761,0.929075,-0.006751,0.01232,1.070925,0.006751,-0.0123199999999999,0.908645,-0.347603,-0.1094199999999999,1.077685,-0.349333,-0.0938,0.886125,-0.671053,-0.04998,1.036625,-0.6594129999999999,-0.0638499999999999,0
163,0.927765,0.7461395,-0.019305,0.8506149999999999,0.4625695,0.055035,0.791975,0.2513295,0.065705,1.142605,0.4863095,0.0125149999999999,1.232845,0.2890095,0.0125949999999999,0.696905,0.1489694999999999,-0.1104049999999999,1.251235,0.1346294999999999,-0.142055,0.928785,-0.0064275,0.0116549999999999,1.0712149999999998,0.0064275,-0.0116549999999999,0.896725,-0.3458805,-0.1046749999999999,1.084455,-0.3532005,-0.0792049999999999,0.8499049999999999,-0.6769005,-0.0784749999999999,1.048155,-0.6597905000000001,-0.045795,0
164,0.91779,0.7451345,-0.0238799999999999,0.84412,0.4620845,0.04911,0.78269,0.2518445,0.05934,1.13559,0.4874645,0.01243,1.22754,0.2905045,0.01709,0.68879,0.1511945,-0.1152199999999999,1.24467,0.1341445,-0.1355499999999999,0.92821,-0.0063075,0.01003,1.0717899999999998,0.0063075,-0.0100299999999999,0.8835999999999999,-0.3447155,-0.1057899999999999,1.09157,-0.3539755,-0.0692299999999999,0.8253900000000001,-0.6843255,-0.1027499999999999,1.05899,-0.6601955,-0.0296699999999999,0
165,0.909315,0.743536,-0.02755,0.839005,0.461446,0.0438699999999999,0.774855,0.252356,0.0543699999999999,1.130355,0.488186,0.0139399999999999,1.221845,0.290946,0.0252399999999999,0.6829150000000002,0.153416,-0.11775,1.239655,0.133846,-0.12218,0.927795,-0.006257,0.0084899999999999,1.072205,0.006257,-0.0084899999999999,0.877955,-0.3409939999999999,-0.1059,1.097565,-0.354274,-0.06127,0.814885,-0.695234,-0.11158,1.069685,-0.660494,-0.01472,0
166,0.90101,0.7410460000000001,-0.031625,0.83375,0.4603359999999999,0.039115,0.7657800000000001,0.251986,0.0491349999999999,1.12346,0.4888059999999999,0.0142149999999999,1.2154,0.290996,0.033775,0.6783,0.153046,-0.123055,1.2343,0.1334759999999999,-0.107515,0.92744,-0.006321,0.0069449999999999,1.07256,0.006321,-0.0069449999999999,0.8787200000000001,-0.341354,-0.103945,1.10304,-0.354644,-0.053995,0.8094700000000001,-0.704824,-0.1147449999999999,1.07995,-0.660864,-0.000655,0
167,0.8930500000000001,0.7370675,-0.03576,0.8282900000000001,0.4585175,0.0341799999999999,0.75532,0.2511475,0.03936,1.11715,0.4896075,0.01472,1.20911,0.2906475,0.0450099999999999,0.67528,0.1526875,-0.1276999999999999,1.23188,0.1310975,-0.0928599999999999,0.92717,-0.0064345,0.00563,1.07283,0.0064344999999999,-0.00563,0.8800400000000002,-0.3417125,-0.1017599999999999,1.10996,-0.3550025,-0.0436599999999999,0.8093700000000001,-0.7053325,-0.11285,1.09027,-0.6628925,0.0126399999999999,0
168,0.8853050000000001,0.7332460000000001,-0.0401150000000001,0.8245250000000001,0.455776,0.0307649999999999,0.7501450000000001,0.250306,0.0354349999999998,1.111315,0.490516,0.0151549999999999,1.202085,0.290596,0.0550749999999999,0.676365,0.151726,-0.126315,1.229705,0.126046,-0.078645,0.926835,-0.006707,0.0042249999999999,1.073165,0.006707,-0.004225,0.8821050000000001,-0.3417639999999999,-0.099295,1.117925,-0.352244,-0.037695,0.8132350000000002,-0.714044,-0.1071050000000001,1.101025,-0.662944,0.0251349999999999,0
169,0.8780550000000001,0.7298790000000001,-0.04515,0.8189649999999999,0.453349,0.02505,0.744645,0.249779,0.0305099999999999,1.1039249999999998,0.491569,0.0135299999999999,1.195235,0.290809,0.0634199999999999,0.675805,0.146679,-0.13011,1.227575,0.120499,-0.06529,0.926535,-0.0071849999999999,0.0030399999999999,1.073465,0.007185,-0.00304,0.884285,-0.342821,-0.0976,1.122025,-0.349571,-0.03251,0.818945,-0.7251409999999999,-0.09901,1.1114449999999998,-0.664041,0.03659,0
170,0.871855,0.7277385000000001,-0.05091,0.814705,0.4521385,0.01956,0.740335,0.2491185,0.02532,1.098185,0.4922185,0.01163,1.1887649999999998,0.2907485,0.0705899999999999,0.6759449999999999,0.1415985,-0.1340799999999999,1.2269249999999998,0.1140385,-0.04779,0.926315,-0.0072665,0.0020599999999999,1.073685,0.0072665,-0.00206,0.887425,-0.3431015,-0.09562,1.125715,-0.3472715,-0.0275499999999999,0.825715,-0.7368815,-0.08921,1.121605,-0.6644914999999999,0.04752,0
171,0.8662650000000001,0.725588,-0.05735,0.811315,0.451328,0.0148,0.735895,0.248798,0.0191299999999999,1.093405,0.492908,0.0097399999999999,1.182035,0.290468,0.0762899999999999,0.677025,0.137598,-0.1385199999999999,1.226085,0.107888,-0.0308699999999999,0.926155,-0.007342,0.0011499999999999,1.073845,0.007342,-0.0011499999999999,0.891115,-0.343292,-0.09326,1.1293149999999998,-0.345092,-0.0227899999999999,0.8361949999999999,-0.737812,-0.07865,1.131625,-0.664822,0.0578499999999999,0
172,0.8614650000000001,0.7235275,-0.063675,0.8080350000000001,0.4507975,0.009865,0.732205,0.2483675,0.0128449999999999,1.088415,0.4935775,0.0069749999999999,1.176155,0.2902475,0.0807149999999999,0.680285,0.1330474999999999,-0.140935,1.225525,0.1027575,-0.0162849999999999,0.926125,-0.0073915,0.0003949999999999,1.073875,0.0073915,-0.000395,0.894675,-0.3436625,-0.0909349999999999,1.132855,-0.3430824999999999,-0.0184349999999999,0.846365,-0.7387125,-0.0683949999999999,1.140675,-0.6647725,0.0671649999999999,0
173,0.8581500000000001,0.72159,-0.0689999999999999,0.8053300000000001,0.45026,0.0066599999999999,0.7305000000000001,0.24802,0.01019,1.08466,0.49501,0.00448,1.17251,0.28989,0.0825799999999999,0.68191,0.1284199999999999,-0.1455699999999999,1.22617,0.09847,-0.0059299999999999,0.92614,-0.007892,0.0,1.07386,0.007892,0.0,0.8974600000000001,-0.3446499999999999,-0.08831,1.1357,-0.3419899999999999,-0.0149799999999999,0.8550600000000002,-0.73995,-0.0594199999999999,1.14765,-0.66512,0.07437,0
174,0.8552500000000001,0.7197709999999999,-0.07388,0.80305,0.449701,0.0040499999999999,0.7285900000000001,0.2473209999999999,0.0066799999999999,1.08014,0.496341,0.0012299999999999,1.1699199999999998,0.289541,0.0836699999999999,0.68311,0.123831,-0.14854,1.22614,0.094581,0.0023899999999998,0.92614,-0.008352,-0.00036,1.0738599999999998,0.008352,0.0003599999999999,0.9000500000000001,-0.345719,-0.0852400000000001,1.13831,-0.3417889999999999,-0.01169,0.86311,-0.741179,-0.05118,1.15362,-0.665529,0.0808499999999999,0
175,0.8530800000000001,0.718243,-0.078025,0.8013399999999999,0.449113,0.001915,0.72766,0.246443,0.003195,1.07774,0.497613,-0.000545,1.16796,0.289183,0.084315,0.68448,0.119393,-0.1487849999999999,1.22591,0.092043,0.009955,0.9262,-0.008672,-0.0006049999999999,1.0738,0.008672,0.0006049999999999,0.90253,-0.346887,-0.081875,1.14062,-0.342257,-0.008885,0.87065,-0.742317,-0.0436949999999999,1.15854,-0.6659470000000001,0.086065,0
176,0.8513800000000001,0.7170755000000001,-0.0818949999999999,0.80027,0.4485854999999999,0.0002349999999999,0.7303100000000001,0.2454855,0.005785,1.07532,0.4988155,-0.0026249999999999,1.16657,0.2887055,0.084635,0.6876000000000001,0.1153255,-0.1478349999999999,1.22622,0.0907014999999999,0.016785,0.92629,-0.0088535,-0.0007749999999999,1.07371,0.0088535,0.0007749999999999,0.90495,-0.3479145,-0.0784749999999999,1.14245,-0.3426645,-0.0067549999999999,0.8776800000000002,-0.7431745,-0.036825,1.16265,-0.6659744999999999,0.0902549999999999,0
177,0.8504500000000002,0.716062,-0.085035,0.7984100000000001,0.448172,-0.002315,0.7333000000000001,0.244762,0.0081949999999999,1.07295,0.499982,-0.004765,1.16553,0.287942,0.084515,0.69096,0.110382,-0.145675,1.22682,0.089373,0.022845,0.92647,-0.009038,-0.000755,1.07353,0.009038,0.0007549999999999,0.90739,-0.348958,-0.075095,1.14384,-0.3429979999999999,-0.0051849999999999,0.88438,-0.743888,-0.030205,1.16555,-0.665518,0.0930449999999999,0
178,0.8481450000000001,0.714501,-0.0896049999999999,0.7971250000000001,0.449021,-0.0041649999999999,0.7313250000000001,0.244741,0.005545,1.069415,0.501901,-0.0082649999999999,1.164955,0.287421,0.086095,0.681165,0.111221,-0.1591349999999999,1.228255,0.085935,0.037985,0.926325,-0.00973,-0.0016849999999999,1.073675,0.00973,0.001685,0.9112350000000002,-0.3507289999999999,-0.0709449999999999,1.146095,-0.3415689999999999,-0.0039649999999999,0.8925050000000001,-0.7464689999999999,-0.0242549999999999,1.171735,-0.6647489999999999,0.099435,0
179,0.8492899999999999,0.7141155,-0.0920149999999999,0.7985800000000001,0.4487255,-0.0049049999999999,0.7340199999999999,0.2443855,0.0079650000000001,1.0691399999999998,0.5031055,-0.0095049999999998,1.16454,0.2873755,0.0848350000000001,0.6879799999999999,0.1102655,-0.1575549999999999,1.22769,0.0859105,0.036295,0.92678,-0.0096545,-0.0009949999999999,1.0732199999999998,0.0096545,0.000995,0.91243,-0.3509745,-0.0680249999999998,1.1461899999999998,-0.3417745,-0.0042649999999999,0.8973199999999999,-0.7464145,-0.0180849999999999,1.17152,-0.6621444999999999,0.098345,0
180,0.849005,0.7141315,-0.0933150000000001,0.799195,0.4487715,-0.0050850000000001,0.736775,0.2442615,0.0118249999999998,1.070185,0.5043715,-0.0093050000000001,1.164895,0.2882214999999999,0.0836649999999998,0.693465,0.1105314999999999,-0.154835,1.227395,0.0864475,0.0355249999999999,0.926985,-0.0095915,-0.000705,1.0730149999999998,0.0095915,0.0007049999999999,0.913655,-0.3511685,-0.0657850000000001,1.1462249999999998,-0.3435885,-0.004485,0.900915,-0.7460785,-0.012075,1.172145,-0.6615085,0.0984849999999999,0
181,0.849825,0.7135345000000001,-0.092675,0.800595,0.4480044999999999,-0.003535,0.739135,0.2436245,0.0161449999999999,1.071775,0.5041845,-0.007155,1.163485,0.2889644999999999,0.0818749999999999,0.6984350000000001,0.1085945,-0.1501650000000001,1.226545,0.0877765,0.0316549999999998,0.9275250000000002,-0.0096744999999999,0.0003949999999999,1.0724749999999998,0.0096744999999999,-0.000395,0.915305,-0.3514855,-0.0631450000000001,1.145535,-0.3456255,-0.003685,0.905195,-0.7460454999999999,-0.006785,1.168415,-0.6608855,0.0943649999999999,0
182,0.853315,0.7137330000000001,-0.0874299999999999,0.8051950000000001,0.445813,0.0053900000000001,0.748685,0.240673,0.02984,1.077025,0.503523,0.00136,1.161345,0.288473,0.07407,0.7121550000000001,0.092003,-0.1252399999999999,1.213815,0.093083,-0.0063099999999999,0.9287450000000002,-0.009448,0.00399,1.071255,0.009448,-0.0039899999999999,0.9194050000000002,-0.351897,-0.0544699999999999,1.142305,-0.3490669999999999,-0.0025999999999999,0.914145,-0.745707,0.00691,1.143115,-0.659937,0.0758200000000001,0
183,0.8549250000000002,0.7142784999999999,-0.08514,0.8059450000000001,0.4442885,0.0095,0.7592450000000001,0.2374785,0.0397199999999999,1.079105,0.5030184999999999,0.0036399999999999,1.163145,0.2865785,0.07123,0.734405,0.0630095,-0.0877399999999999,1.217025,0.0902085,-0.00551,0.928825,-0.0093325,0.0049299999999999,1.071175,0.0093325,-0.0049299999999999,0.919355,-0.3519315,-0.0514,1.140405,-0.3526714999999999,-0.0010099999999999,0.919005,-0.7448915,0.01477,1.145015,-0.6602215,0.0812899999999999,0
184,0.8558749999999999,0.7147385,-0.08343,0.8062549999999999,0.4440485,0.0116899999999999,0.765725,0.2356985,0.0419399999999999,1.079985,0.5031385,0.0049199999999999,1.1635749999999998,0.2843485,0.0690099999999999,0.737525,0.0583384999999999,-0.0804,1.215985,0.0876815,-0.00801,0.929055,-0.0092495,0.0054899999999999,1.070945,0.0092495,-0.0054899999999999,0.919395,-0.3519015,-0.0496699999999999,1.139955,-0.3538914999999999,0.0006499999999999,0.919735,-0.7445215,0.0181799999999999,1.145065,-0.6600315,0.0828099999999999,0
