sb224sc-HT22-VT27/4dt907/src/data/labeled_files/A39_kinect.csv
FrameNo,nose_3d_x,nose_3d_y,nose_3d_z,left_shoulder_3d_x,left_shoulder_3d_y,left_shoulder_3d_z,left_elbow_3d_x,left_elbow_3d_y,left_elbow_3d_z,right_shoulder_3d_x,right_shoulder_3d_y,right_shoulder_3d_z,right_elbow_3d_x,right_elbow_3d_y,right_elbow_3d_z,left_wrist_3d_x,left_wrist_3d_y,left_wrist_3d_z,right_wrist_3d_x,right_wrist_3d_y,right_wrist_3d_z,left_hip_3d_x,left_hip_3d_y,left_hip_3d_z,right_hip_3d_x,right_hip_3d_y,right_hip_3d_z,left_knee_3d_x,left_knee_3d_y,left_knee_3d_z,right_knee_3d_x,right_knee_3d_y,right_knee_3d_z,left_ankle_3d_x,left_ankle_3d_y,left_ankle_3d_z,right_ankle_3d_x,right_ankle_3d_y,right_ankle_3d_z,activity_label
0,0.0182759999999999,0.7590585,0.0593955,-0.154192,0.4617385,0.0681545,-0.178552,0.2101184999999999,0.0678225,0.166868,0.4571385,0.0631325,0.188018,0.2090685,0.0588195,-0.201922,0.0093405,-0.0069475,0.197428,0.0096805,-0.0233435,-0.072337,0.0035975,-0.0004325,0.072337,-0.0035975,0.0004325,-0.1284719999999999,-0.3777115,-0.0099824999999999,0.106098,-0.4211315,0.0059654999999999,-0.136232,-0.7374015,-0.0106605,0.104618,-0.7410915,-0.0261235,0
1,0.018052,0.7591140000000001,0.059744,-0.15419,0.461724,0.067924,-0.1784199999999999,0.2099639999999999,0.067964,0.16713,0.457264,0.063173,0.18806,0.2089939999999999,0.058778,-0.20203,0.008792,-0.005502,0.19344,0.005214,-0.024389,-0.072351,0.0036009999999999,-0.0003729999999999,0.072351,-0.003601,0.0003729999999999,-0.12843,-0.376876,-0.0098979999999999,0.10616,-0.421006,0.00585,-0.13622,-0.742036,-0.012663,0.10458,-0.738596,-0.0238649999999999,0
2,0.017985,0.7591924999999999,0.0599445,-0.1541489999999999,0.4618125,0.0678275,-0.178279,0.2100025,0.0680335,0.167181,0.4575525,0.0631655,0.187931,0.2095125,0.0592415,-0.201629,0.0088245,-0.0054935,0.193491,0.0045665,-0.0246345,-0.0723709999999999,0.0035625,-0.0002405,0.0723709999999999,-0.0035625,0.0002404999999999,-0.128239,-0.3749375,-0.0101215,0.106221,-0.4208975,0.0058254999999999,-0.1362489999999999,-0.7401075,-0.0114335,0.103191,-0.7413475,-0.0234935,0
3,0.0180305,0.7591915,0.0600165,-0.1541024999999999,0.4618315,0.0678945,-0.1781825,0.2100015,0.0680635,0.1661975,0.4573315,0.0632955,0.1877075,0.2094815,0.0590255,-0.2011325,0.0086714999999999,-0.0051404999999999,0.1934675,0.0042315,-0.0249014999999999,-0.0723855,0.0035445,-0.0003014999999999,0.0723855,-0.0035445,0.0003015,-0.1281425,-0.3751084999999999,-0.0102594999999999,0.1062575,-0.4205985,0.0058385,-0.1361525,-0.7384085,-0.0108744999999999,0.1029075,-0.7415885,-0.0232654999999999,0
4,0.017945,0.7592245,0.0602145,-0.154039,0.4618744999999999,0.0678775,-0.177889,0.2098445,0.0678135,0.166441,0.4574944999999999,0.0634965,0.187761,0.2095445,0.0590944999999999,-0.200119,0.0084345,-0.0054115,0.193561,0.0040025,-0.0251315,-0.072361,0.0035614999999999,-0.0002815,0.072361,-0.0035615,0.0002814999999999,-0.127999,-0.3740955,-0.0108294999999999,0.106341,-0.4205555,0.0058834999999999,-0.136189,-0.7387655,-0.0107355,0.105051,-0.7392155,-0.0252405,0
5,0.0216495,0.759064,0.0623975,-0.1517445,0.462414,0.0689444999999999,-0.1767345,0.210494,0.0681875,0.1688855,0.456604,0.0648845,0.1885355,0.208644,0.0598435,-0.1958445,0.009913,-0.0085195,0.1937455,0.002865,-0.0250924999999999,-0.0723225,0.003909,-0.0003135,0.0723225,-0.0039089999999999,0.0003135,-0.1296445,-0.373496,-0.0118964999999999,0.1044755,-0.421056,0.0049415,-0.1392845,-0.740426,-0.0129634999999999,0.1015135,-0.739546,-0.0266474999999999,0
6,0.0216729999999999,0.759054,0.0625865,-0.151632,0.462484,0.0690135,-0.176532,0.210474,0.0681015,0.169038,0.456714,0.0650125,0.188438,0.208664,0.0600305,-0.197092,0.010263,-0.0092394999999999,0.193708,0.0024609999999999,-0.0251074999999999,-0.0723449999999999,0.0038989999999999,-0.0002334999999999,0.0723449999999999,-0.0038989999999999,0.0002334999999999,-0.129562,-0.372056,-0.0120865,0.104498,-0.420426,0.0049295,-0.139152,-0.740216,-0.0134155,0.102018,-0.738816,-0.0267345,0
7,0.020705,0.759183,0.062227,-0.1522609999999999,0.462343,0.068603,-0.176661,0.210443,0.067716,0.1685189999999999,0.456933,0.064812,0.187929,0.2087929999999999,0.060174,-0.197261,0.010847,-0.0097609999999999,0.193649,0.004318,-0.0243729999999999,-0.072329,0.003807,-8.69999999999968e-05,0.072329,-0.0038069999999999,8.700000000000374e-05,-0.129411,-0.3748169999999999,-0.0114329999999999,0.105059,-0.420417,0.005197,-0.138681,-0.739737,-0.0128329999999999,0.103079,-0.738347,-0.0267039999999999,0
8,0.0210585,0.7591985,0.0625905,-0.1519915,0.4624185,0.0686565,-0.1763914999999999,0.2105385,0.0676475,0.1687485,0.4568885,0.0651144999999999,0.1879185,0.2087485,0.0603915,-0.1965714999999999,0.0113245,-0.0105255,0.1935685,0.0041545,-0.0244045,-0.0723205,0.0038355,-2.3500000000002685e-05,0.0723205,-0.0038355,2.3500000000002685e-05,-0.1295915,-0.3744015,-0.0116295,0.1049384999999999,-0.4202615,0.0051154999999999,-0.1390315,-0.7397214999999999,-0.0130745,0.1030285,-0.7381215,-0.0269965,0
9,0.0214755,0.7592175,0.0629535,-0.1516755,0.4625075,0.0687305,-0.1761255,0.2106674999999999,0.0674964999999999,0.1690045,0.4568175,0.0654265,0.1879345,0.2087075,0.0605855,-0.1963055,0.0118215,-0.0114855,0.1935245,0.0040155,-0.0243675,-0.0723195,0.0038705,3.949999999999787e-05,0.0723195,-0.0038705,-3.950000000000481e-05,-0.1297755,-0.3738725,-0.0118335,0.1048544999999999,-0.4201025,0.0050414999999999,-0.1393455,-0.7391225,-0.0130975,0.1030244999999999,-0.7378724999999999,-0.0272605,0
10,0.021633,0.7592384999999999,0.063043,-0.151519,0.4625185,0.068741,-0.175969,0.2107085,0.067317,0.169131,0.4568084999999999,0.065558,0.187841,0.2087385,0.060674,-0.195849,0.0118625,-0.0124729999999999,0.193551,0.0040564999999999,-0.024277,-0.072319,0.0038664999999999,7.800000000000168e-05,0.072319,-0.0038665,-7.800000000000168e-05,-0.129829,-0.3738415,-0.011968,0.104971,-0.4200615,0.005041,-0.139319,-0.7390915,-0.0131239999999999,0.102931,-0.7382515000000001,-0.027398,0
11,0.0217554999999999,0.7592384999999999,0.063069,-0.1513965,0.4625185,0.068767,-0.1758465,0.2107085,0.067135,0.1692535,0.4568084999999999,0.065584,0.1877435,0.2087385,0.0607,-0.1957365,0.0118625,-0.0134309999999999,0.1934934999999999,0.0040564999999999,-0.024094,-0.0723235,0.0038664999999999,0.000105,0.0723235,-0.0038665,-0.000105,-0.1297465,-0.3738415,-0.012083,0.1050934999999999,-0.4200615,0.0050669999999999,-0.1391965,-0.7390915,-0.0130979999999999,0.1030534999999999,-0.7382515000000001,-0.027372,0
12,0.021874,0.7592384999999999,0.063093,-0.1512779999999999,0.4625185,0.068791,-0.175728,0.2107085,0.066981,0.169372,0.4568084999999999,0.065608,0.187662,0.2087385,0.060724,-0.195438,0.0118625,-0.0144079999999999,0.193402,0.0040564999999999,-0.024069,-0.072326,0.0038664999999999,0.000129,0.072326,-0.0038665,-0.0001289999999999,-0.129678,-0.3738415,-0.0121959999999999,0.105212,-0.4200615,0.005091,-0.1390779999999999,-0.7390915,-0.0132509999999999,0.103172,-0.7382515000000001,-0.0273479999999999,0
13,0.0218955,0.7592485,0.06312,-0.1512445,0.4625185,0.068749,-0.1756345,0.2107285,0.066748,0.1693255,0.4568385,0.065635,0.1875555,0.2087385,0.060752,-0.1955545,0.0121035,-0.0152039999999999,0.1933255,0.0046354999999999,-0.0240579999999999,-0.0723325,0.0038664999999999,0.0001509999999999,0.0723325,-0.0038665,-0.0001509999999999,-0.1296344999999999,-0.3736915,-0.01231,0.1053254999999999,-0.4199515,0.005118,-0.1389645,-0.7387515,-0.0133199999999999,0.1033854999999999,-0.7378615000000001,-0.0272489999999999,0
14,0.021657,0.759347,0.063004,-0.151324,0.462507,0.068567,-0.175594,0.210897,0.06633,0.169226,0.456937,0.065637,0.187666,0.208727,0.060518,-0.195614,0.012744,-0.016361,0.193306,0.004814,-0.02407,-0.0723429999999999,0.003822,0.0001939999999999,0.0723429999999999,-0.003822,-0.0001939999999999,-0.129594,-0.374053,-0.0123399999999999,0.1055359999999999,-0.419753,0.005233,-0.138734,-0.7389330000000001,-0.0133059999999999,0.103546,-0.738113,-0.027004,0
15,0.0214159999999999,0.759439,0.062951,-0.151406,0.462499,0.068349,-0.175646,0.211289,0.065436,0.169124,0.457039,0.065591,0.187774,0.208729,0.0598449999999999,-0.195836,0.01359,-0.018425,0.193414,0.0045509999999999,-0.024585,-0.072346,0.003773,0.000195,0.072346,-0.0037729999999999,-0.000195,-0.129636,-0.3740909999999999,-0.01236,0.1056139999999999,-0.419381,0.0053299999999999,-0.138466,-0.7390410000000001,-0.013322,0.103524,-0.7386210000000001,-0.0265229999999999,0
16,0.0211519999999999,0.7595230000000001,0.0629245,-0.151504,0.462493,0.0680865,-0.175744,0.211723,0.0642195,0.168986,0.457143,0.0654925,0.187866,0.208883,0.0588255,-0.197224,0.014506,-0.0208614999999999,0.193576,0.005217,-0.0254814999999999,-0.072356,0.003719,0.0002185,0.072356,-0.003719,-0.0002184999999999,-0.129694,-0.373917,-0.0123834999999999,0.1056759999999999,-0.4190669999999999,0.0053795,-0.138174,-0.739187,-0.0134284999999999,0.1035259999999999,-0.739017,-0.0258575,0
17,0.0208605,0.7596315,0.062954,-0.1516165,0.4625015,0.067824,-0.1766565,0.2140515,0.060669,0.1687835,0.4572515,0.065328,0.1881435,0.2111215,0.055484,-0.1995565,0.0156275,-0.0302389999999999,0.1936435,0.0061405,-0.030233,-0.0723834999999999,0.0036655,0.000243,0.0723834999999999,-0.0036654999999999,-0.000243,-0.1297665,-0.3736084999999999,-0.0124,0.1057235,-0.4187484999999999,0.005433,-0.1378764999999999,-0.7390785,-0.013547,0.1034235,-0.7397085,-0.025189,0
18,0.0204165,0.7597284999999999,0.06297,-0.1516255,0.4626085,0.0675969999999999,-0.1793255,0.2193385,0.05387,0.1681045,0.4575085,0.064977,0.1899045,0.2157785,0.049912,-0.2041455,0.0245995,-0.043227,0.1958945,0.0141494999999999,-0.040624,-0.0724124999999999,0.0036215,0.000264,0.0724124999999999,-0.0036215,-0.000264,-0.1298655,-0.3733815,-0.012419,0.1057245,-0.4178515,0.0056049999999999,-0.1376055,-0.7389815000000001,-0.013544,0.1034245,-0.7399815000000001,-0.024612,0
19,0.0199285,0.7598499999999999,0.062968,-0.1515725,0.46278,0.067324,-0.1829025,0.22538,0.0454409999999999,0.1674475,0.45778,0.0645719999999999,0.1927174999999999,0.22097,0.0430779999999999,-0.2103125,0.0356,-0.05899,0.1987375,0.024252,-0.055227,-0.0724655,0.003582,0.0002599999999999,0.0724655,-0.003582,-0.00026,-0.1299225,-0.3730199999999999,-0.012426,0.1057075,-0.41678,0.0058019999999999,-0.1373225,-0.7389800000000001,-0.0137,0.1033075,-0.7405900000000001,-0.024185,0
20,0.019406,0.759955,0.062929,-0.1515109999999999,0.463045,0.067029,-0.187551,0.232765,0.0346929999999999,0.166339,0.458165,0.063821,0.196149,0.227275,0.033613,-0.216971,0.048303,-0.077608,0.202229,0.036215,-0.072348,-0.072528,0.003546,0.0002349999999999,0.072528,-0.0035459999999999,-0.0002349999999999,-0.129961,-0.372675,-0.012362,0.105659,-0.415635,0.0059869999999999,-0.137021,-0.738955,-0.013842,0.103155,-0.741535,-0.023743,0
21,0.018843,0.7600225,0.0628445,-0.151438,0.4636225,0.0665965,-0.192868,0.2413525,0.0227015,0.165052,0.4586625,0.0628235,0.200032,0.2345425,0.0222665,-0.224578,0.0641315,-0.0989204999999999,0.206082,0.0491845,-0.0913705,-0.072618,0.0034855,0.0002395,0.072618,-0.0034855,-0.0002394999999999,-0.129918,-0.3724575,-0.0122904999999999,0.105612,-0.4143675,0.0060555,-0.136718,-0.7389374999999999,-0.0138974999999999,0.102939,-0.7419874999999999,-0.0231964999999999,0
22,0.018245,0.7600144999999999,0.062679,-0.151361,0.4641445,0.06595,-0.199951,0.2532045,0.0069679999999999,0.163639,0.4593145,0.061493,0.204779,0.2437544999999999,0.0084599999999999,-0.232601,0.0846755,-0.1287269999999999,0.2103489999999999,0.0689365,-0.117097,-0.072738,0.0033964999999999,0.000328,0.072738,-0.0033964999999999,-0.000328,-0.129801,-0.3721555,-0.012339,0.105559,-0.4130655,0.00594,-0.136351,-0.7388555,-0.014149,0.1028,-0.7422255,-0.022889,0
23,0.0178729999999999,0.7598885,0.0625044999999999,-0.150888,0.4649185,0.0651915,-0.208048,0.2670485,-0.0096895,0.162302,0.4599885,0.0599424999999999,0.2099619999999999,0.2550685,-0.0076745,-0.240518,0.1102384999999999,-0.1596955,0.214722,0.0918045,-0.1462955,-0.072921,0.0033824999999999,0.0005485,0.072921,-0.0033825,-0.0005485,-0.129638,-0.3708214999999999,-0.0125305,0.105542,-0.4118914999999999,0.0055914999999999,-0.136188,-0.7382314999999999,-0.0146055,0.102881,-0.7418315,-0.0230115,0
24,0.0174539999999999,0.7596655,0.0620925,-0.149765,0.4661455,0.0640305,-0.216485,0.2845555,-0.0282914999999999,0.160985,0.4606355,0.0578355,0.216545,0.2668855,-0.0238554999999999,-0.251025,0.1393255,-0.1915035,0.219435,0.1185955,-0.1762534999999999,-0.073141,0.0033755,0.0008605,0.073141,-0.0033755,-0.0008605,-0.129435,-0.3692445,-0.0128355,0.105525,-0.4108245,0.0051665,-0.136005,-0.7376345,-0.0152404999999999,0.102908,-0.7422845,-0.0233885,0
25,0.0170415,0.7594175000000001,0.0615965,-0.1484955,0.4674875,0.0626885,-0.2253255,0.3042775,-0.0475245,0.1596044999999999,0.4612575,0.0555325,0.2236845,0.2787475,-0.0402305,-0.2607055,0.1741175,-0.2250605,0.2242045,0.1453075,-0.2059905,-0.0733755,0.0033864999999999,0.0012775,0.0733755,-0.0033864999999999,-0.0012775,-0.1292054999999999,-0.3679325,-0.0133164999999999,0.1054945,-0.4098225,0.0046425,-0.1358255,-0.7369724999999999,-0.0160265,0.1030425,-0.7428425,-0.0239735,0
26,0.0166394999999999,0.75914,0.061406,-0.1470835,0.4688,0.0610379999999999,-0.2335235,0.325,-0.065713,0.1582265,0.46218,0.052897,0.2306465,0.29573,-0.061377,-0.2700035,0.2173,-0.252256,0.2295065,0.18334,-0.2405459999999999,-0.0736515,0.0033629999999999,0.001774,0.0736515,-0.0033629999999999,-0.001774,-0.1290135,-0.36707,-0.0139819999999999,0.1053965,-0.40886,0.003879,-0.1355935,-0.73669,-0.017106,0.1029775,-0.74402,-0.0247759999999999,0
27,0.016266,0.7586700000000001,0.061119,-0.145592,0.47014,0.058893,-0.240172,0.3470499999999999,-0.081093,0.156768,0.46347,0.050053,0.236128,0.31388,-0.080063,-0.276582,0.2577399999999999,-0.277283,0.233778,0.22096,-0.269793,-0.073928,0.003297,0.0023149999999999,0.073928,-0.0032969999999999,-0.002315,-0.128792,-0.36605,-0.01492,0.1053979999999999,-0.40865,0.0027489999999999,-0.1353919999999999,-0.73651,-0.018323,0.1029279999999999,-0.74551,-0.025919,0
28,0.015915,0.7580725,0.060771,-0.144089,0.4714725,0.056687,-0.245689,0.3728625,-0.094647,0.155051,0.4651225,0.047146,0.240501,0.3352525,-0.0974869999999999,-0.2812489999999999,0.3039325,-0.299787,0.237491,0.2647425,-0.296257,-0.074181,0.0032155,0.002856,0.074181,-0.0032155,-0.0028559999999999,-0.128579,-0.3656775,-0.0159829999999999,0.105431,-0.4086975,0.001418,-0.135189,-0.7365174999999999,-0.0196649999999999,0.102921,-0.7467275,-0.0272929999999999,0
29,0.015613,0.757338,0.0602935,-0.142589,0.472538,0.0542875,-0.249959,0.3992279999999999,-0.1060124999999999,0.154131,0.467118,0.0442325,0.2442109999999999,0.358868,-0.1123424999999999,-0.285089,0.351758,-0.3187824999999999,0.2406309999999999,0.311178,-0.3202025,-0.074443,0.003098,0.0034385,0.074443,-0.003098,-0.0034385,-0.128339,-0.365642,-0.0173195,0.105501,-0.409032,-0.0002034999999999,-0.134999,-0.736542,-0.0211664999999999,0.102795,-0.748082,-0.0287364999999999,0
30,0.01533,0.756351,0.059485,-0.141204,0.474001,0.051642,-0.253404,0.426451,-0.116477,0.153186,0.469041,0.041081,0.247446,0.385011,-0.125627,-0.287524,0.401261,-0.334857,0.243456,0.361261,-0.341797,-0.074699,0.0029949999999999,0.004033,0.074699,-0.002995,-0.0040329999999999,-0.128074,-0.3664889999999999,-0.019068,0.105546,-0.409809,-0.002165,-0.1348539999999999,-0.7372890000000001,-0.023249,0.10265,-0.7496590000000001,-0.03034,0
31,0.0150795,0.755243,0.05835,-0.1398645,0.475763,0.049128,-0.2551845,0.451123,-0.123888,0.1522255,0.470763,0.038241,0.2494955,0.410203,-0.136778,-0.2890045,0.447033,-0.343678,0.2458555,0.406303,-0.355198,-0.0749465,0.002892,0.0044699999999999,0.0749465,-0.0028919999999999,-0.00447,-0.1277645,-0.3685469999999999,-0.020931,0.1057455,-0.410917,-0.004326,-0.1347345,-0.738537,-0.025353,0.1025215,-0.7517170000000001,-0.032433,0
32,0.0148305,0.7540190000000001,0.056855,-0.1389565,0.477399,0.046656,-0.2557864999999999,0.474289,-0.130412,0.1511735,0.472559,0.03559,0.2510535,0.434309,-0.145682,-0.2903464999999999,0.488419,-0.351032,0.2481634999999999,0.449909,-0.366842,-0.0751175,0.002778,0.004721,0.0751175,-0.0027779999999999,-0.0047209999999999,-0.1275465,-0.370621,-0.0229059999999999,0.1058735,-0.412211,-0.00648,-0.1347165,-0.739811,-0.0275069999999999,0.1023304999999999,-0.753791,-0.0344379999999999,0
33,0.014629,0.7527675,0.0548125,-0.1386959999999999,0.4787275,0.0442845,-0.255876,0.4940274999999999,-0.1351765,0.150094,0.4743775,0.0332515,0.251304,0.4585375,-0.1551364999999999,-0.2902659999999999,0.5266175,-0.3566365,0.250244,0.4904575,-0.3775165,-0.075235,0.0026444999999999,0.0049025,0.075235,-0.0026444999999999,-0.0049025,-0.127386,-0.3718725,-0.0250204999999999,0.105964,-0.4134625,-0.0085945,-0.134736,-0.7410625000000001,-0.0296325,0.101947,-0.7551825,-0.0365515,0
34,0.0143719999999999,0.7514550000000001,0.0516395,-0.138533,0.480365,0.0407905,-0.255783,0.514105,-0.1405805,0.149167,0.476865,0.0298335,0.251467,0.485295,-0.1654105,-0.290173,0.562415,-0.3626105,0.251757,0.534045,-0.3891104999999999,-0.075333,0.002512,0.0050295,0.075333,-0.0025119999999999,-0.0050294999999999,-0.127293,-0.373375,-0.0281944999999999,0.106097,-0.414775,-0.0119874999999999,-0.134763,-0.742375,-0.0328065,0.101655,-0.7566149999999999,-0.0397255,0
35,0.0141179999999999,0.7502715000000001,0.0483525,-0.138435,0.4821614999999999,0.0372105,-0.255725,0.5318315,-0.1455074999999999,0.148345,0.4791315,0.0264184999999999,0.2516649999999999,0.5051915,-0.1699574999999999,-0.290115,0.5900315,-0.3684875,0.253765,0.5669515,-0.3940175,-0.075406,0.0023864999999999,0.0051005,0.075406,-0.0023864999999999,-0.0051004999999999,-0.1272249999999999,-0.3754585,-0.0314814999999999,0.1062849999999999,-0.4157285,-0.0158285,-0.134855,-0.7435585,-0.0360935,0.1017049999999999,-0.7576885,-0.0430124999999999,0
36,0.0139334999999999,0.7490565,0.044029,-0.1383195,0.4838765,0.0326469999999999,-0.2556395,0.5462265,-0.152082,0.1481105,0.4805764999999999,0.021925,0.2516305,0.5223964999999999,-0.175652,-0.2882795,0.6135965,-0.375822,0.2543605,0.5944564999999999,-0.398462,-0.0754595,0.0022684999999999,0.004956,0.0754595,-0.0022685,-0.004956,-0.1271395,-0.3782635,-0.036014,0.1065905,-0.4163435,-0.021258,-0.1348795,-0.7446535000000001,-0.040914,0.1017895,-0.7590535,-0.047638,0
37,0.0137894999999999,0.7479239999999999,0.0390245,-0.1381735,0.485504,0.0277805,-0.2549835,0.557074,-0.1592935,0.1479765,0.481434,0.0170175,0.2516365,0.536454,-0.1816835,-0.2857535,0.6317039999999999,-0.3826835,0.2550165,0.614544,-0.4031335,-0.0754924999999999,0.002211,0.0048085,0.0754924999999999,-0.0022109999999999,-0.0048085,-0.1270835,-0.380426,-0.0409635,0.1070365,-0.4163059999999999,-0.0273345,-0.1349135,-0.745216,-0.0461624999999999,0.1019045,-0.759826,-0.0526515,0
38,0.0136859999999999,0.7462139999999999,0.032648,-0.137965,0.486684,0.022414,-0.253885,0.5660339999999999,-0.167113,0.1480949999999999,0.481434,0.011613,0.252285,0.547024,-0.186833,-0.282495,0.646664,-0.390613,0.255765,0.630294,-0.406943,-0.075562,0.002211,0.00476,0.075562,-0.0022109999999999,-0.0047599999999999,-0.127105,-0.382486,-0.04689,0.107665,-0.4161559999999999,-0.034244,-0.1347249999999999,-0.745776,-0.0519349999999999,0.102092,-0.7602960000000001,-0.058654,0
39,0.0136584999999999,0.7441939999999999,0.025358,-0.1377495,0.486684,0.016731,-0.2524395,0.572634,-0.174564,0.1483104999999999,0.481434,0.0059189999999999,0.2525005,0.553584,-0.192214,-0.2795594999999999,0.656764,-0.397064,0.2565505,0.641434,-0.4112039999999999,-0.0756614999999999,0.002211,0.0047399999999999,0.0756614999999999,-0.0022109999999999,-0.00474,-0.1271195,-0.3845159999999999,-0.053187,0.1084005,-0.415896,-0.041645,-0.1345095,-0.7463660000000001,-0.057996,0.1024055,-0.760966,-0.065118,0
40,0.013813,0.741744,0.0169855,-0.1374929999999999,0.486684,0.0104975,-0.251033,0.578074,-0.1829045,0.148637,0.481434,-0.0004325,0.252707,0.558414,-0.1986145,-0.2767529999999999,0.666034,-0.4026645,0.257147,0.650264,-0.4169445,-0.075833,0.002211,0.0046875,0.075833,-0.0022109999999999,-0.0046875,-0.127183,-0.386366,-0.0600015,0.109277,-0.415626,-0.0498785,-0.134313,-0.746996,-0.0646945,0.10272,-0.761636,-0.0719575,0
41,0.0140419999999999,0.739232,0.0073019999999999,-0.137118,0.487392,0.003619,-0.249558,0.5802620000000001,-0.1907249999999999,0.149132,0.481672,-0.0074609999999999,0.252942,0.559172,-0.2048249999999999,-0.274018,0.675032,-0.409005,0.257992,0.658492,-0.423095,-0.0760639999999999,0.0021609999999999,0.004712,0.0760639999999999,-0.0021609999999999,-0.004712,-0.127308,-0.388048,-0.067494,0.110372,-0.415138,-0.0590399999999999,-0.134218,-0.747688,-0.072061,0.10327,-0.761868,-0.079708,0
42,0.0142635,0.7355225,-0.0028859999999999,-0.1366805,0.4883225,-0.0038009999999999,-0.2480905,0.5821825,-0.198871,0.1496295,0.4813725,-0.014836,0.2533095,0.5608425,-0.212261,-0.2712805,0.6840325,-0.4140009999999999,0.2588094999999999,0.6664425,-0.4290009999999999,-0.0763025,0.0021065,0.0046509999999999,0.0763025,-0.0021065,-0.0046509999999999,-0.1275105,-0.3885774999999999,-0.075391,0.1115295,-0.4139275,-0.0687789999999999,-0.1341405,-0.7471274999999999,-0.079432,0.1039575,-0.7613075,-0.087899,0
43,0.014414,0.73181,-0.0137819999999999,-0.136112,0.48903,-0.011521,-0.2464219999999999,0.58564,-0.205594,0.150198,0.48092,-0.022632,0.254058,0.5643,-0.219204,-0.268922,0.6908,-0.419704,0.259388,0.6727,-0.433944,-0.076494,0.00215,0.004413,0.076494,-0.0021499999999999,-0.004413,-0.128332,-0.3873,-0.0847749999999999,0.112628,-0.41106,-0.079023,-0.134152,-0.7447,-0.087056,0.104415,-0.75845,-0.095758,1
44,0.014761,0.726735,-0.026438,-0.1353369999999999,0.4894949999999999,-0.020993,-0.243287,0.593785,-0.213797,0.150463,0.480145,-0.032273,0.255943,0.572445,-0.227407,-0.265647,0.701375,-0.427607,0.260113,0.681885,-0.439967,-0.076702,0.002082,0.00417,0.076702,-0.0020819999999999,-0.00417,-0.129297,-0.383575,-0.097786,0.113813,-0.404335,-0.092471,-0.134767,-0.7398750000000001,-0.098604,0.104643,-0.7520450000000001,-0.10691,1
45,0.015417,0.721593,-0.037809,-0.1344469999999999,0.489463,-0.029601,-0.239997,0.6029530000000001,-0.221078,0.151013,0.478373,-0.041065,0.257783,0.5808530000000001,-0.234678,-0.262557,0.711913,-0.434888,0.260883,0.691083,-0.444728,-0.076962,0.001966,0.004143,0.076962,-0.001966,-0.004143,-0.130137,-0.374407,-0.110151,0.115213,-0.395147,-0.105021,-0.135027,-0.732497,-0.108998,0.104734,-0.743277,-0.1165229999999999,1
46,0.0161534999999999,0.716415,-0.049719,-0.1334825,0.4882849999999999,-0.0386249999999999,-0.2366025,0.6104550000000001,-0.228754,0.1517975,0.4756149999999999,-0.0506559999999999,0.2595375,0.586975,-0.242364,-0.2599424999999999,0.723395,-0.440574,0.2617374999999999,0.702565,-0.450624,-0.0771255,0.0019249999999999,0.0042149999999999,0.0771255,-0.0019249999999999,-0.0042149999999999,-0.1309125,-0.362875,-0.1234519999999999,0.1167975,-0.383165,-0.118602,-0.1351725,-0.722885,-0.1186899999999999,0.1050145,-0.732955,-0.126689,1
47,0.0166089999999999,0.7118985,-0.066765,-0.132434,0.4879985,-0.052882,-0.233384,0.6176285,-0.24053,0.152066,0.4738985,-0.065441,0.2610059999999999,0.5943185,-0.25509,-0.257844,0.7377085,-0.45065,0.2626159999999999,0.7168785,-0.45953,-0.077243,0.0019555,0.0040639999999999,0.077243,-0.0019554999999999,-0.0040639999999999,-0.131584,-0.3483115,-0.141535,0.1185759999999999,-0.3680815,-0.137682,-0.135494,-0.7110515,-0.134037,0.1052789999999999,-0.7203815,-0.141638,1
48,0.016974,0.7073085,-0.083544,-0.131158,0.4853585,-0.066703,-0.230298,0.6243085,-0.251138,0.152312,0.4712485,-0.07968,0.261552,0.6008085,-0.2669479999999999,-0.256048,0.7529085,-0.4601579999999999,0.263412,0.7320785,-0.4674979999999999,-0.077359,0.0019904999999999,0.003748,0.077359,-0.0019904999999999,-0.003748,-0.132658,-0.3319715,-0.1626699999999999,0.1210519999999999,-0.3498115,-0.159493,-0.135188,-0.6973915,-0.147633,0.105483,-0.7051915,-0.154212,1
49,0.0172475,0.7012809999999999,-0.100318,-0.1297195,0.482881,-0.080833,-0.2273495,0.629651,-0.26222,0.1525905,0.468851,-0.093977,0.2618305,0.607861,-0.27886,-0.2544194999999999,0.768201,-0.46706,0.2641105,0.7479709999999999,-0.47502,-0.0774225,0.0019629999999999,0.003403,0.0774225,-0.001963,-0.003403,-0.1337895,-0.313679,-0.184369,0.1236005,-0.329689,-0.181578,-0.1347995,-0.681569,-0.161238,0.1055615,-0.687749,-0.166929,1
50,0.0175204999999999,0.694172,-0.117755,-0.1285015,0.479472,-0.095452,-0.2245615,0.635292,-0.273795,0.1528685,0.466072,-0.108749,0.2621385,0.6148119999999999,-0.290505,-0.2529915,0.781462,-0.471995,0.2648985,0.764652,-0.481975,-0.0774245,0.0019499999999999,0.0030649999999999,0.0774245,-0.00195,-0.0030649999999999,-0.1350215,-0.2944879999999999,-0.206952,0.1262085,-0.307838,-0.204139,-0.1343815,-0.6628080000000001,-0.1749899999999999,0.1053804999999999,-0.6679080000000001,-0.179551,1
51,0.017562,0.688215,-0.13574,-0.127371,0.476255,-0.110653,-0.222041,0.6401749999999999,-0.285495,0.152589,0.463435,-0.124217,0.262189,0.621435,-0.302355,-0.251921,0.796335,-0.476995,0.265439,0.781115,-0.4882849999999999,-0.077427,0.001905,0.0027749999999999,0.077427,-0.0019049999999999,-0.0027749999999999,-0.136541,-0.273715,-0.230015,0.128849,-0.284355,-0.227125,-0.134181,-0.642135,-0.188632,0.104685,-0.646055,-0.192305,1
52,0.017549,0.68211,-0.152152,-0.126686,0.47346,-0.124876,-0.220156,0.64436,-0.2965,0.1519539999999999,0.46049,-0.138487,0.261804,0.6269199999999999,-0.31288,-0.2513459999999999,0.81016,-0.48107,0.266074,0.7957799999999999,-0.49339,-0.077412,0.0018899999999999,0.0025399999999999,0.077412,-0.00189,-0.00254,-0.137726,-0.25377,-0.25095,0.131344,-0.26208,-0.2487,-0.134156,-0.62144,-0.201567,0.103995,-0.6243400000000001,-0.204258,1
53,0.0174255,0.67759,-0.166729,-0.1264315,0.47101,-0.137395,-0.2201115,0.6476900000000001,-0.3049849999999999,0.1507785,0.45799,-0.1512389999999999,0.2611685,0.63132,-0.322315,-0.2514515,0.8198,-0.485695,0.2663985,0.80631,-0.497805,-0.0774875,0.00199,0.002305,0.0774875,-0.0019899999999999,-0.0023049999999999,-0.1390915,-0.2365999999999999,-0.268625,0.1336685,-0.2421499999999999,-0.2673649999999999,-0.1345615,-0.60281,-0.2127509999999999,0.1032225,-0.60476,-0.214492,1
54,0.0171665,0.67317,-0.181218,-0.1262694999999999,0.46673,-0.1498429999999999,-0.2202395,0.6504300000000001,-0.31316,0.1494005,0.4561,-0.163828,0.2604905,0.6354200000000001,-0.33192,-0.2516295,0.82785,-0.49015,0.2667405,0.81654,-0.50205,-0.0775825,0.00189,0.00203,0.0775825,-0.0018899999999999,-0.0020299999999999,-0.1406895,-0.2187099999999999,-0.28608,0.1358305,-0.2219899999999999,-0.28588,-0.1350994999999999,-0.58307,-0.2241199999999999,0.1023705,-0.58401,-0.2244189999999999,1
55,0.0166095,0.66788,-0.194773,-0.1264055,0.46464,-0.161675,-0.2204755,0.65194,-0.321065,0.1478045,0.45431,-0.175707,0.2593545,0.63883,-0.341155,-0.2518655,0.83498,-0.495105,0.2669645,0.82462,-0.5061450000000001,-0.0776525,0.00199,0.0017349999999999,0.0776525,-0.0019899999999999,-0.001735,-0.1423355,-0.1984199999999999,-0.302665,0.1377644999999999,-0.20144,-0.303715,-0.1356955,-0.5627099999999999,-0.234939,0.1015425,-0.56275,-0.233779,1
56,0.0155565,0.662485,-0.202896,-0.1266445,0.459785,-0.168287,-0.2207045,0.6521049999999999,-0.3243749999999999,0.1457255,0.451045,-0.182526,0.2571255,0.640315,-0.345255,-0.2528845,0.840805,-0.495305,0.2673555,0.830065,-0.5050250000000001,-0.0776945,0.0017349999999999,0.001615,0.0776945,-0.001735,-0.001615,-0.1438944999999999,-0.174795,-0.314505,0.1393555,-0.178335,-0.316235,-0.1354245,-0.5397750000000001,-0.239089,0.1008075,-0.539145,-0.236195,1
57,0.0146505,0.6568350000000001,-0.210775,-0.1267435,0.457135,-0.17497,-0.2208035,0.650825,-0.3283899999999999,0.1436764999999999,0.4487649999999999,-0.1893969999999999,0.2549265,0.641005,-0.34926,-0.2541435,0.844105,-0.49596,0.2679565,0.834495,-0.5044500000000001,-0.0778405,0.001505,0.0015799999999999,0.0778405,-0.001505,-0.0015799999999999,-0.1449135,-0.152635,-0.32286,0.1402065,-0.156175,-0.32543,-0.1348335,-0.517435,-0.2429759999999999,0.1003955,-0.515315,-0.2384839999999999,1
58,0.0141734999999999,0.65167,-0.218077,-0.1264735,0.45421,-0.18088,-0.2209035,0.6500600000000001,-0.33205,0.1419765,0.44699,-0.195636,0.2535265,0.64044,-0.35274,-0.2551135,0.8430500000000001,-0.49724,0.2688765,0.83735,-0.50409,-0.0779725,0.0012499999999999,0.00173,0.0779725,-0.0012499999999999,-0.00173,-0.1456235,-0.13168,-0.33003,0.1411865,-0.13522,-0.33319,-0.1339335,-0.49648,-0.245895,0.1002774999999999,-0.49328,-0.240293,1
59,0.0138609999999999,0.64714,-0.224013,-0.126115,0.45149,-0.185855,-0.220995,0.6484,-0.33616,0.140755,0.44448,-0.201392,0.252295,0.63872,-0.35596,-0.255605,0.8442999999999999,-0.50013,0.269885,0.83826,-0.5039199999999999,-0.0780319999999999,0.0010399999999999,0.00189,0.0780319999999999,-0.0010399999999999,-0.0018899999999999,-0.146065,-0.11232,-0.33582,0.142055,-0.11581,-0.33974,-0.133085,-0.47712,-0.248294,0.100275,-0.4736599999999999,-0.241892,1
60,0.013444,0.64203,-0.23006,-0.126069,0.44806,-0.190598,-0.221069,0.64636,-0.33971,0.139541,0.4415099999999999,-0.206827,0.251731,0.63664,-0.35946,-0.256199,0.84426,-0.50278,0.271221,0.838,-0.50467,-0.07807,0.00085,0.00201,0.07807,-0.00085,-0.00201,-0.146439,-0.09598,-0.34068,0.142471,-0.0986799999999999,-0.34508,-0.132409,-0.45833,-0.25019,0.1003,-0.4541699999999999,-0.24437,1
61,0.012859,0.6372599999999999,-0.235865,-0.126558,0.44416,-0.195353,-0.2215079999999999,0.6420699999999999,-0.34365,0.138332,0.43909,-0.212027,0.251482,0.6357299999999999,-0.36276,-0.257258,0.8423499999999999,-0.5052099999999999,0.272282,0.8382999999999999,-0.5058,-0.078202,0.0005299999999999,0.0021399999999999,0.078202,-0.00053,-0.00214,-0.1469879999999999,-0.07946,-0.34524,0.142552,-0.08107,-0.34992,-0.132008,-0.43916,-0.252623,0.100092,-0.43472,-0.246748,1
62,0.0123309999999999,0.6311500000000001,-0.241626,-0.126892,0.44065,-0.199713,-0.221962,0.6365000000000001,-0.3470499999999999,0.137488,0.43724,-0.216824,0.251478,0.63171,-0.3659799999999999,-0.258292,0.8381000000000001,-0.50766,0.273378,0.83595,-0.50743,-0.078202,0.00036,0.0021299999999999,0.078202,-0.0003599999999999,-0.00213,-0.147452,-0.06377,-0.3490499999999999,0.142548,-0.0643699999999999,-0.35359,-0.1315619999999999,-0.42093,-0.253978,0.1000699999999999,-0.4167299999999999,-0.248848,1
63,0.011883,0.62554,-0.247328,-0.127059,0.437266,-0.204037,-0.222389,0.62944,-0.350345,0.136801,0.434909,-0.221532,0.251111,0.62898,-0.368785,-0.259349,0.83423,-0.509745,0.274951,0.8348599999999999,-0.5090250000000001,-0.078369,0.0003099999999999,0.002125,0.078369,-0.00031,-0.0021249999999999,-0.147809,-0.04763,-0.3520149999999999,0.142671,-0.04746,-0.356555,-0.131119,-0.4035500000000001,-0.256159,0.100203,-0.39857,-0.250564,1
64,0.0114504999999999,0.6204099999999999,-0.252823,-0.1271295,0.432617,-0.207874,-0.2226795,0.62328,-0.3525749999999999,0.1363205,0.4324719999999999,-0.225601,0.2514705,0.62673,-0.3713349999999999,-0.2603095,0.82983,-0.511835,0.2763905,0.83244,-0.510355,-0.0785505,-0.00029,0.002125,0.0785505,0.0002899999999999,-0.0021249999999999,-0.1482695,-0.03328,-0.3541849999999999,0.1428505,-0.03223,-0.358355,-0.1307095,-0.3886200000000001,-0.25749,0.1003825,-0.3829100000000001,-0.252064,1
65,0.0109235,0.613685,-0.257895,-0.1270875,0.4301149999999999,-0.2114789999999999,-0.2228075,0.619225,-0.354255,0.1361025,0.430036,-0.2294319999999999,0.2518424999999999,0.626115,-0.374115,-0.2612375,0.825105,-0.514485,0.2776225,0.8310150000000001,-0.5113449999999999,-0.0788045,-0.000315,0.001765,0.0788045,0.000315,-0.0017649999999999,-0.1487375,-0.020135,-0.3551649999999999,0.1430225,-0.0186649999999999,-0.3593349999999999,-0.1307975,-0.375535,-0.259459,0.1006345,-0.369135,-0.253214,1
66,0.0107025,0.60836,-0.262837,-0.1267245,0.42777,-0.215391,-0.2231145,0.61604,-0.35695,0.1359955,0.427484,-0.233481,0.2529055,0.6223799999999999,-0.37713,-0.2619245,0.82027,-0.51834,0.2790554999999999,0.82897,-0.51257,-0.0790194999999999,-0.0003199999999999,0.0016599999999999,0.0790194999999999,0.0003199999999999,-0.0016599999999999,-0.1486845,-0.0068,-0.35639,0.1433955,-0.0052699999999999,-0.36056,-0.1305945,-0.36278,-0.261749,0.1015685,-0.3555,-0.254927,1
67,0.010423,0.60397,-0.267227,-0.126242,0.426479,-0.218972,-0.223472,0.6119100000000001,-0.359515,0.135758,0.424428,-0.237341,0.254008,0.6191300000000001,-0.380295,-0.262652,0.81772,-0.522615,0.280688,0.82687,-0.5141249999999999,-0.079211,2.000000000002e-05,0.0014949999999999,0.079211,-1.999999999996449e-05,-0.0014949999999999,-0.148402,0.00607,-0.357515,0.143738,0.0076,-0.361685,-0.130182,-0.35075,-0.264021,0.102627,-0.34268,-0.2577089999999999,1
68,0.010138,0.600475,-0.2711699999999999,-0.125616,0.4246749999999999,-0.222651,-0.2245059999999999,0.607645,-0.364125,0.135304,0.4228989999999999,-0.240776,0.254824,0.6179049999999999,-0.383215,-0.263686,0.813155,-0.526705,0.282564,0.8257349999999999,-0.5167649999999999,-0.079129,-1.5000000000042755e-05,0.001315,0.079129,1.4999999999987246e-05,-0.0013149999999999,-0.147806,0.0206449999999999,-0.357865,0.144054,0.0222249999999999,-0.3609949999999999,-0.129546,-0.336895,-0.265391,0.103193,-0.327405,-0.258121,1
69,0.009953,0.59749,-0.27443,-0.125129,0.423528,-0.225791,-0.225389,0.60471,-0.368975,0.135141,0.422057,-0.243773,0.255301,0.61606,-0.385695,-0.264719,0.8072,-0.5313749999999999,0.284031,0.82516,-0.519765,-0.078922,1.000000000001e-05,0.001075,0.078922,-1.000000000001e-05,-0.0010749999999999,-0.146999,0.03347,-0.357325,0.144351,0.03542,-0.359415,-0.129059,-0.32462,-0.266475,0.104199,-0.3146799999999999,-0.260206,1
70,0.008968,0.593175,-0.277673,-0.125203,0.422412,-0.22882,-0.226333,0.5996250000000001,-0.37356,0.134177,0.421306,-0.24688,0.255017,0.6129950000000001,-0.38828,-0.266123,0.800285,-0.5362100000000001,0.284567,0.822895,-0.52315,-0.078765,-4.999999999977245e-06,0.0007399999999999,0.078765,5.000000000032756e-06,-0.00074,-0.147003,0.044875,-0.35655,0.144517,0.047255,-0.35773,-0.129533,-0.3135549999999999,-0.267769,0.105009,-0.303145,-0.262041,1
71,0.0079559999999999,0.5896399999999999,-0.280892,-0.125471,0.4195489999999999,-0.232715,-0.227321,0.59632,-0.37898,0.133149,0.418384,-0.250353,0.254829,0.61016,-0.39133,-0.2665809999999999,0.7945199999999999,-0.54181,0.284949,0.81956,-0.52695,-0.078511,-4.000000000004e-05,0.0004399999999999,0.078511,3.999999999998449e-05,-0.00044,-0.146741,0.0567299999999999,-0.35535,0.1447689999999999,0.0596199999999999,-0.35553,-0.130251,-0.3019200000000001,-0.269556,0.106011,-0.29112,-0.264019,1
72,0.006818,0.585445,-0.284203,-0.125941,0.418346,-0.236976,-0.228501,0.593315,-0.385495,0.131989,0.415786,-0.254025,0.254799,0.606215,-0.394985,-0.266891,0.788545,-0.5485450000000001,0.285289,0.8151649999999999,-0.5314650000000001,-0.0783379999999999,0.0001549999999999,5.499999999999949e-05,0.0783379999999999,-0.000155,-5.499999999999949e-05,-0.146571,0.0672249999999999,-0.354065,0.144949,0.0708749999999999,-0.353195,-0.131471,-0.291435,-0.272159,0.1068979999999999,-0.281135,-0.266583,1
73,0.0056309999999999,0.5806800000000001,-0.288389,-0.126817,0.416855,-0.2427409999999999,-0.2297969999999999,0.5869,-0.3933949999999999,0.130343,0.409913,-0.25877,0.254613,0.60261,-0.400015,-0.267297,0.7812300000000001,-0.556785,0.2855729999999999,0.81184,-0.537455,-0.078045,0.0006,-0.0001849999999999,0.078045,-0.0005999999999999,0.000185,-0.1464869999999999,0.07471,-0.353275,0.145623,0.07935,-0.351815,-0.133297,-0.28515,-0.2764219999999999,0.107836,-0.2747199999999999,-0.2705999999999999,1
74,0.0048165,0.5750259999999999,-0.28948,-0.1273574999999999,0.4121299999999999,-0.245476,-0.2308474999999999,0.5788479999999999,-0.39824,0.1290625,0.4042359999999999,-0.260507,0.2549825,0.593815,-0.40244,-0.2671975,0.7703949999999999,-0.5626,0.2862225,0.803415,-0.54088,-0.0779235,0.0007749999999999,-0.00089,0.0779235,-0.000775,0.00089,-0.1465274999999999,0.0824849999999999,-0.35095,0.1466525,0.0863249999999999,-0.34848,-0.1349775,-0.279595,-0.278075,0.1091705,-0.269945,-0.272009,1
75,0.0035949999999999,0.570172,-0.294373,-0.128275,0.408481,-0.251428,-0.2315849999999999,0.570749,-0.404835,0.127635,0.39964,-0.265579,0.255095,0.589451,-0.408525,-0.267815,0.76129,-0.5716049999999999,0.286665,0.7971999999999999,-0.548075,-0.077655,-9.9999999999989e-05,-0.0015149999999999,0.077655,9.9999999999989e-05,0.001515,-0.146195,0.0873599999999999,-0.350255,0.146585,0.0960499999999999,-0.347925,-0.137095,-0.27599,-0.283856,0.109269,-0.26148,-0.278322,1
76,0.0023374999999999,0.5678280000000001,-0.299366,-0.1292765,0.4044400000000001,-0.257708,-0.2324865,0.5668770000000001,-0.41249,0.1264635,0.39621,-0.270922,0.2547335,0.586222,-0.41447,-0.2689264999999999,0.75397,-0.58022,0.2868135,0.79239,-0.55564,-0.0772165,-0.0013599999999999,-0.0017699999999999,0.0772165,0.00136,0.0017699999999999,-0.1455465,0.09599,-0.3497099999999999,0.1462834999999999,0.10438,-0.34777,-0.1392765,-0.2676599999999999,-0.290482,0.1092344999999999,-0.2543099999999999,-0.284713,1
77,0.0014435,0.566389,-0.304604,-0.1301275,0.40465,-0.262947,-0.2332775,0.562846,-0.4187499999999999,0.1263325,0.39627,-0.276161,0.2546125,0.5823510000000001,-0.4200399999999999,-0.2700074999999999,0.74847,-0.58927,0.2871125,0.78722,-0.5625899999999999,-0.0767984999999999,-0.00219,-0.0019799999999999,0.0767984999999999,0.00219,0.00198,-0.1446075,0.09975,-0.35001,0.1460625,0.10777,-0.34895,-0.1408275,-0.2640399999999999,-0.296833,0.1093814999999999,-0.25166,-0.291192,1
78,0.0008915,0.565334,-0.309508,-0.1303995,0.40315,-0.26785,-0.2336895,0.557257,-0.424355,0.1262105,0.3947,-0.281066,0.2554805,0.578551,-0.425365,-0.2708895,0.74211,-0.597215,0.2877405,0.7809900000000001,-0.569015,-0.0761005,-0.00258,-0.0020649999999999,0.0761005,0.00258,0.002065,-0.1433895,0.09965,-0.351095,0.1460405,0.10709,-0.350745,-0.1409995,-0.2646499999999999,-0.3021379999999999,0.1096715,-0.2524799999999999,-0.2975989999999999,1
79,0.0005584999999999,0.565334,-0.31468,-0.1307705,0.40315,-0.273124,-0.2344805,0.557257,-0.42991,0.1258995,0.3947,-0.28634,0.2557695,0.576844,-0.43064,-0.2716605,0.73952,-0.6050599999999999,0.2882395,0.77722,-0.57559,-0.0752615,-0.00258,-0.0025,0.0752615,0.00258,0.0025,-0.1424305,0.09891,-0.35307,0.1459395,0.10603,-0.35354,-0.1409005,-0.2655499999999999,-0.307756,0.1103685,-0.25285,-0.302631,1
80,-1.900000000000165e-05,0.565334,-0.315278,-0.131688,0.40315,-0.274307,-0.235648,0.557257,-0.4316,0.1254019999999999,0.3947,-0.286758,0.255122,0.576844,-0.43215,-0.273378,0.73952,-0.60864,0.287742,0.77722,-0.57824,-0.075042,-0.00258,-0.0019399999999999,0.075042,0.00258,0.0019399999999999,-0.142698,0.09769,-0.35426,0.1452419999999999,0.10532,-0.35473,-0.141398,-0.2655499999999999,-0.308946,0.109553,-0.2534799999999999,-0.303391,1
81,-0.0003704999999999,0.565334,-0.315361,-0.1324515,0.40315,-0.275014,-0.2366415,0.557257,-0.432635,0.1253785,0.39473,-0.286839,0.2542685,0.576844,-0.433185,-0.2751315,0.73952,-0.6113850000000001,0.2873785,0.77722,-0.5807549999999999,-0.0749715,-0.00258,-0.0015849999999999,0.0749715,0.00258,0.001585,-0.1427215,0.09661,-0.355295,0.1447785,0.10501,-0.355765,-0.1417515,-0.2655499999999999,-0.309981,0.1087025,-0.25385,-0.30349,1
82,-0.0007385,0.5676129999999999,-0.314618,-0.1330125,0.40318,-0.27498,-0.2382225,0.5564429999999999,-0.433645,0.1253575,0.3932799999999999,-0.2861869999999999,0.2535075,0.575394,-0.434085,-0.2768825,0.73807,-0.613355,0.2870074999999999,0.77577,-0.583495,-0.0751975,-0.0028799999999999,-0.001255,0.0751975,0.0028799999999999,0.001255,-0.1427025,0.0949299999999999,-0.3560149999999999,0.1442275,0.1035599999999999,-0.356665,-0.1421225,-0.267,-0.310587,0.1076755,-0.2553000000000001,-0.303294,1
83,-0.0010839999999999,0.571385,-0.312285,-0.133602,0.405355,-0.273375,-0.2403819999999999,0.553142,-0.43355,0.125358,0.394435,-0.283453,0.252868,0.574022,-0.43455,-0.279102,0.731175,-0.61505,0.286918,0.770645,-0.58767,-0.075522,-0.0028449999999999,-0.00115,0.075522,0.0028449999999999,0.00115,-0.142662,0.085975,-0.35617,0.143748,0.094605,-0.35761,-0.141812,-0.2759549999999999,-0.3099389999999999,0.107326,-0.264255,-0.304023,1
84,-0.0014714999999999,0.576432,-0.309175,-0.1342645,0.407006,-0.270852,-0.2428245,0.550633,-0.432965,0.1252855,0.395908,-0.28015,0.2521455,0.571824,-0.434635,-0.2814145,0.7224700000000001,-0.6160749999999999,0.2864655,0.7626700000000001,-0.592575,-0.0759445,-0.0029199999999999,-0.0011649999999999,0.0759445,0.00292,0.001165,-0.1428045,0.07316,-0.3563849999999999,0.1431555,0.08184,-0.3590649999999999,-0.1412344999999999,-0.2884799999999999,-0.309202,0.1066845,-0.27635,-0.3036649999999999,1
85,-0.001177,0.58477,-0.30413,-0.133981,0.4093139999999999,-0.265807,-0.243641,0.550696,-0.4321,0.1267289999999999,0.402633,-0.27471,0.252369,0.5680339999999999,-0.43294,-0.283501,0.71254,-0.6156900000000001,0.286559,0.75227,-0.5968,-0.076205,-0.00322,-0.00098,0.076205,0.00322,0.0009799999999999,-0.142161,0.06079,-0.35585,0.141969,0.0693999999999999,-0.35887,-0.139361,-0.29954,-0.307022,0.1061339999999999,-0.2873,-0.302093,1
86,-0.000719,0.59582,-0.296516,-0.1338829999999999,0.414971,-0.258338,-0.2442829999999999,0.5501050000000001,-0.42854,0.128627,0.409023,-0.266733,0.252677,0.56625,-0.42843,-0.285453,0.7022700000000001,-0.6133,0.286647,0.7412700000000001,-0.59929,-0.076579,-0.0035099999999999,-0.0007699999999999,0.076579,0.00351,0.0007699999999999,-0.1416529999999999,0.04384,-0.35422,0.140557,0.05291,-0.35707,-0.137353,-0.3152699999999999,-0.3029159999999999,0.105273,-0.30221,-0.29896,1
87,-0.0004035,0.60704,-0.287449,-0.1340125,0.418586,-0.249973,-0.2449225,0.5495300000000001,-0.424065,0.1300775,0.414375,-0.257674,0.2524575,0.56374,-0.424355,-0.2857225,0.69096,-0.610255,0.2864675,0.72687,-0.6018950000000001,-0.0768595,-0.00272,-0.000565,0.0768595,0.00272,0.0005649999999999,-0.1414725,0.02538,-0.350635,0.1396375,0.03099,-0.353265,-0.1356025,-0.33143,-0.297647,0.1039725,-0.32306,-0.295039,1
88,0.000142,0.617295,-0.27594,-0.134023,0.423879,-0.239724,-0.245143,0.542975,-0.419135,0.131497,0.421361,-0.24678,0.251967,0.555555,-0.419925,-0.285953,0.670915,-0.607895,0.285647,0.701055,-0.604515,-0.077099,-0.0017949999999999,-0.000845,0.077099,0.0017949999999999,0.000845,-0.141283,-0.0050149999999999,-0.346415,0.138477,0.0010749999999999,-0.348825,-0.133943,-0.362185,-0.290693,0.102705,-0.353245,-0.289948,1
89,0.000331,0.62844,-0.266818,-0.13436,0.4265299999999999,-0.233062,-0.24584,0.53349,-0.417715,0.13246,0.426042,-0.239404,0.25073,0.54462,-0.419075,-0.28666,0.64568,-0.609755,0.28289,0.66841,-0.612525,-0.0774509999999999,-0.00108,-0.000285,0.0774509999999999,0.0010799999999999,0.0002849999999999,-0.14144,-0.03737,-0.343345,0.13682,-0.03123,-0.346865,-0.13281,-0.3961100000000001,-0.287806,0.101732,-0.38715,-0.288689,1
90,0.0006655,0.64246,-0.248603,-0.1339064999999999,0.43246,-0.218942,-0.2471265,0.51833,-0.40914,0.1332435,0.43294,-0.224121,0.2482935,0.52886,-0.41105,-0.2873865,0.61205,-0.60463,0.2784635,0.62851,-0.61337,-0.0779815,-0.0008099999999999,6.0000000000004494e-05,0.0779815,0.00081,-6.0000000000004494e-05,-0.1414465,-0.0715299999999999,-0.33529,0.1350335,-0.0669099999999999,-0.33874,-0.1325065,-0.4337,-0.27765,0.1010925,-0.4273599999999999,-0.278821,1
91,0.0009705,0.65516,-0.2292679999999999,-0.1334185,0.43722,-0.203725,-0.2474384999999999,0.50136,-0.397725,0.1338015,0.43911,-0.2077079999999999,0.2474715,0.5117,-0.3993449999999999,-0.2857085,0.57577,-0.595205,0.2740415,0.58849,-0.6081650000000001,-0.0786584999999999,-0.00051,0.000705,0.0786584999999999,0.00051,-0.0007049999999999,-0.1413885,-0.10475,-0.325705,0.1332615,-0.10092,-0.328585,-0.1321485,-0.47053,-0.265644,0.1008685,-0.46618,-0.267738,1
92,0.0013165,0.66842,-0.212476,-0.1325255,0.44084,-0.191276,-0.2471955,0.48421,-0.38739,0.1344145,0.44458,-0.194986,0.2452645,0.49451,-0.39008,-0.2824255,0.53993,-0.58832,0.2694545,0.5528,-0.6033,-0.0784965,-0.0006599999999999,0.00064,0.0784965,0.00066,-0.00064,-0.1408555,-0.13282,-0.31806,0.1319245,-0.13015,-0.32029,-0.1319854999999999,-0.50288,-0.256564,0.1015465,-0.50007,-0.259489,1
93,0.0017825,0.681265,-0.194522,-0.1316805,0.445625,-0.177546,-0.2467305,0.466335,-0.37276,0.1349795,0.449905,-0.181261,0.2428295,0.475385,-0.37918,-0.2781605,0.504815,-0.57962,0.2645995,0.517685,-0.5967800000000001,-0.0782664999999999,-0.000705,0.0004699999999999,0.0782664999999999,0.000705,-0.00047,-0.1402305,-0.1598649999999999,-0.30853,0.1306395,-0.158225,-0.31023,-0.1321605,-0.5342450000000001,-0.246551,0.1013314999999999,-0.5329349999999999,-0.250669,1
94,0.0022834999999999,0.692985,-0.1757729999999999,-0.1309495,0.450015,-0.1636139999999999,-0.2458095,0.448115,-0.3571999999999999,0.1357005,0.453815,-0.167315,0.2402004999999999,0.456055,-0.36784,-0.2728795,0.470955,-0.57041,0.2589205,0.483725,-0.58721,-0.0779715,-0.0005149999999999,0.00028,0.0779715,0.0005149999999999,-0.00028,-0.1397995,-0.1853449999999999,-0.2976499999999999,0.1296205,-0.1847849999999999,-0.29882,-0.1323695,-0.5643450000000001,-0.2360259999999999,0.1010524999999999,-0.564705,-0.241099,1
95,0.0032179999999999,0.705735,-0.156773,-0.1295319999999999,0.453305,-0.1497629999999999,-0.2433719999999999,0.430085,-0.3409999999999999,0.136708,0.458175,-0.153661,0.238278,0.437285,-0.35555,-0.264372,0.431405,-0.56028,0.2533579999999999,0.449175,-0.5771,-0.077792,-0.0003349999999999,0.00013,0.077792,0.000335,-0.0001299999999999,-0.139002,-0.209165,-0.28417,0.129068,-0.2095849999999999,-0.28497,-0.132172,-0.593205,-0.224487,0.101781,-0.594325,-0.2309999999999999,1
96,0.0036249999999999,0.7166899999999999,-0.1364959999999999,-0.128948,0.4583899999999999,-0.1340599999999999,-0.2412079999999999,0.4088,-0.322395,0.137342,0.4635499999999999,-0.1389549999999999,0.2356619999999999,0.41507,-0.340005,-0.256368,0.39142,-0.548445,0.247632,0.4124899999999999,-0.5653349999999999,-0.077386,-0.0001499999999999,-4.499999999998949e-05,0.077386,0.0001499999999999,4.500000000001725e-05,-0.138788,-0.23736,-0.268745,0.1278119999999999,-0.24078,-0.2694249999999999,-0.132278,-0.62249,-0.2115019999999999,0.101973,-0.62451,-0.2179859999999999,1
97,0.0036775,0.7270825,-0.1171099999999999,-0.1289254999999999,0.4620925,-0.118366,-0.2389155,0.3876425,-0.30074,0.1380144999999999,0.4660725,-0.124345,0.2327745,0.3947625,-0.32249,-0.2485455,0.3580525,-0.53496,0.2427045,0.3729725,-0.54558,-0.0768255,4.5000000000045e-06,0.0,0.0768255,-4.5000000000045e-06,0.0,-0.1387955,-0.2597075,-0.25143,0.1266445,-0.2642875,-0.25302,-0.1327654999999999,-0.6446375000000001,-0.197761,0.1018305,-0.6473075,-0.203837,1
98,0.0035754999999999,0.7353580000000001,-0.09601,-0.1291025,0.465038,-0.099999,-0.2364225,0.368458,-0.27522,0.1386275,0.466328,-0.107175,0.2300974999999999,0.375578,-0.30025,-0.2415425,0.326528,-0.5079,0.2393974999999999,0.336998,-0.5172100000000001,-0.0761615,0.0004429999999999,-0.00056,0.0761615,-0.0004429999999999,0.0005599999999999,-0.1387025,-0.278892,-0.23034,0.1255675,-0.283472,-0.23317,-0.1333425,-0.662932,-0.180747,0.1017124999999999,-0.665882,-0.186273,1
99,0.0033719999999999,0.7407505,-0.077842,-0.129696,0.4656605,-0.082704,-0.233366,0.3559405,-0.2477899999999999,0.139284,0.4660205,-0.0912579999999999,0.227494,0.3630605,-0.27551,-0.235646,0.2983305,-0.47714,0.237264,0.3060305,-0.48434,-0.0756149999999999,0.0005555,1.000000000001e-05,0.0756149999999999,-0.0005555,-9.999999999996125e-06,-0.137396,-0.2914095,-0.20676,0.1237139999999999,-0.2959895,-0.2101,-0.133736,-0.6754495,-0.1644709999999999,0.101932,-0.6783995,-0.169205,1
100,0.0031634999999999,0.7456245,-0.0599009999999999,-0.1303355,0.4659545,-0.065305,-0.2301855,0.3439945,-0.220126,0.1397345,0.4662145,-0.075125,0.2259245,0.3511145,-0.2499259999999999,-0.2320055,0.2670745,-0.441986,0.2350745,0.2748245,-0.447156,-0.0751165,0.0006765,0.000574,0.0751165,-0.0006764999999999,-0.000574,-0.1360855,-0.3033555,-0.182937,0.1219445,-0.3095155,-0.187273,-0.1343155,-0.6873954999999999,-0.148366,0.1022845,-0.6903455,-0.152961,1
101,0.002873,0.749238,-0.0436845,-0.131074,0.466278,-0.0482725,-0.226954,0.333008,-0.1923535,0.140276,0.466698,-0.0592855,0.224246,0.340088,-0.2230635,-0.228514,0.234138,-0.4048935,0.233186,0.243718,-0.4106535,-0.074728,0.0007629999999999,0.0010415,0.074728,-0.0007629999999999,-0.0010415,-0.134844,-0.314552,-0.1595794999999999,0.120116,-0.322952,-0.1647005,-0.134964,-0.697862,-0.1327195,0.102474,-0.700812,-0.1373445,0
102,0.0026014999999999,0.753123,-0.0278984999999999,-0.1321594999999999,0.466663,-0.0320544999999999,-0.2233995,0.321223,-0.1647675,0.1406505,0.467323,-0.0437274999999999,0.2228905,0.327443,-0.1904175,-0.2255295,0.202183,-0.3628075,0.2314105,0.2129829999999999,-0.3653975,-0.0742545,0.000807,0.0014755,0.0742545,-0.0008069999999999,-0.0014754999999999,-0.1334894999999999,-0.327987,-0.1363754999999999,0.1183605,-0.336437,-0.1420285,-0.1356095,-0.707537,-0.1169335,0.1023545,-0.709207,-0.1223414999999999,0
103,0.0022634999999999,0.7565915,-0.0123729999999999,-0.1332545,0.4667315,-0.0165269999999999,-0.2196245,0.3093215,-0.136476,0.1407855,0.4677015,-0.0286849999999999,0.2215955,0.3157715,-0.1589809999999999,-0.2231845,0.1713715,-0.320141,0.2296154999999999,0.1822615,-0.320061,-0.0738965,0.0007775,0.002121,0.0738965,-0.0007775,-0.0021209999999999,-0.1320545,-0.3404685,-0.113786,0.1166355,-0.3497385,-0.11984,-0.1360545,-0.7164285,-0.101246,0.1023555,-0.7173885000000001,-0.107375,0
104,0.0021019999999999,0.7588145,0.0032604999999999,-0.1343929999999999,0.4670645,-0.0008914999999999,-0.2145129999999999,0.2965244999999999,-0.1056375,0.141007,0.4680344999999999,-0.0140525,0.220427,0.3039245,-0.1252495,-0.222583,0.1490345,-0.2731965,0.228147,0.1513445,-0.2718265,-0.073698,0.0007924999999999,0.0027065,0.073698,-0.0007924999999999,-0.0027065,-0.130653,-0.3526455,-0.0912015,0.114987,-0.3631255,-0.0973505,-0.136243,-0.7248455,-0.0850465,0.1023989999999999,-0.7253255000000001,-0.0919375,0
105,0.0019054999999999,0.760772,0.017754,-0.1358675,0.466762,0.013963,-0.2094075,0.2857119999999999,-0.075586,0.1410324999999999,0.467032,-0.0005159999999999,0.2184725,0.2915419999999999,-0.092655,-0.2217375,0.127302,-0.225823,0.2267624999999999,0.118322,-0.223303,-0.0736054999999999,0.0009269999999999,0.003303,0.0736054999999999,-0.000927,-0.003303,-0.1294375,-0.362938,-0.069767,0.1134024999999999,-0.375988,-0.075399,-0.1363175,-0.732438,-0.069603,0.1023874999999999,-0.7325280000000001,-0.0772429999999999,0
106,0.0017185,0.7617515,0.0296864999999999,-0.1375935,0.4656515,0.0272875,-0.2050735,0.2759615,-0.0476264999999999,0.1408065,0.4659715,0.0107055,0.2163865,0.2806715,-0.0619244999999999,-0.2208435,0.1076815,-0.1791135,0.2253265,0.0978805,-0.1826635,-0.0735455,0.0010544999999999,0.0036135,0.0735455,-0.0010544999999999,-0.0036135,-0.1282735,-0.3712384999999999,-0.0505054999999999,0.1118065,-0.3872184999999999,-0.0549394999999999,-0.1363935,-0.7379184999999999,-0.0555574999999999,0.1023765,-0.7376785,-0.0638745,0
107,0.0017425,0.7628615,0.036485,-0.1393085,0.4648815,0.036088,-0.2005285,0.2647215,-0.022583,0.1405315,0.4657115,0.01723,0.2143215,0.2692515,-0.035675,-0.2201585,0.0887595,-0.143249,0.2234515,0.0802865,-0.146359,-0.0735815,0.0010325,0.004445,0.0735815,-0.0010325,-0.0044449999999999,-0.1271985,-0.3777485,-0.0362489999999999,0.1102615,-0.3967085,-0.0384199999999999,-0.1363785,-0.7411785000000001,-0.044932,0.1024414999999999,-0.7408285,-0.054074,0
108,0.0020674999999999,0.764099,0.0404745,-0.1405615,0.465059,0.0415824999999999,-0.1964115,0.255929,-0.0011855,0.1403385,0.465519,0.0210185,0.2118985,0.260539,-0.0135885,-0.2191315,0.072729,-0.1101455,0.2213785,0.06543,-0.1133755,-0.0735285,0.0012369999999999,0.0044704999999999,0.0735285,-0.001237,-0.0044705,-0.1273715,-0.378671,-0.0281465,0.1098885,-0.398321,-0.0286345,-0.1364614999999999,-0.7423109999999999,-0.0359995,0.1026685,-0.741861,-0.0467254999999999,0
109,0.0023835,0.765201,0.043775,-0.1417365,0.465241,0.046266,-0.1925565,0.247691,0.01904,0.1400435,0.465161,0.02389,0.2094635,0.252191,0.007164,-0.2179465,0.058218,-0.079561,0.2195234999999999,0.052018,-0.082621,-0.0734455,0.001364,0.004567,0.0734455,-0.001364,-0.004567,-0.1276165,-0.379389,-0.020675,0.1094835,-0.399699,-0.0195119999999999,-0.1367765,-0.7427889999999999,-0.028118,0.1025735,-0.7424489999999999,-0.039854,0
110,0.0028014999999999,0.7659889999999999,0.0468489999999999,-0.1428575,0.465549,0.050127,-0.1887175,0.240169,0.037618,0.1398025,0.464949,0.0262619999999999,0.2065525,0.244129,0.0260189999999999,-0.2168675,0.045714,-0.051584,0.2180725,0.040385,-0.055579,-0.0733455,0.001507,0.0047079999999999,0.0733455,-0.001507,-0.004708,-0.1278875,-0.379831,-0.013375,0.1091225,-0.401051,-0.010657,-0.1370075,-0.743171,-0.020239,0.1022325,-0.7429110000000001,-0.033027,0
111,0.0032454999999999,0.7663125000000001,0.049284,-0.1437605,0.4655125,0.052872,-0.1852305,0.2336224999999999,0.0521579999999999,0.1397294999999999,0.4648925,0.02784,0.2035495,0.2368525,0.0406129999999999,-0.2155505,0.0354535,-0.0288579999999999,0.2157194999999999,0.0303415,-0.033945,-0.0732485,0.0015135,0.004822,0.0732485,-0.0015135,-0.004822,-0.1280705,-0.3796375,-0.0072149999999999,0.1088494999999999,-0.4021475,-0.003325,-0.1372305,-0.7432274999999999,-0.0132779999999999,0.1025395,-0.7432175,-0.02748,0
112,0.003736,0.7662895000000001,0.0513254999999999,-0.144536,0.4653494999999999,0.0549845,-0.182186,0.2273395,0.0631305,0.139944,0.4648695,0.0287575,0.201074,0.2294995,0.0529754999999999,-0.213736,0.0268375,-0.0127455,0.214164,0.0213765,-0.0166075,-0.073156,0.0015455,0.0046814999999999,0.073156,-0.0015455,-0.0046815,-0.128216,-0.3794905,-0.0015825,0.108624,-0.4032405,0.0023074999999999,-0.137456,-0.7434204999999999,-0.0071375,0.103084,-0.7434105,-0.0224285,0
113,0.0041355,0.76617,0.052893,-0.1447655,0.46523,0.056033,-0.1806855,0.2221199999999999,0.068989,0.1401545,0.46464,0.028956,0.1997745,0.2225599999999999,0.061492,-0.2125054999999999,0.020715,-0.0041299999999999,0.2139445,0.013288,-0.0039189999999999,-0.0730685,0.001599,0.004638,0.0730685,-0.001599,-0.0046379999999999,-0.1281755,-0.37909,0.003098,0.1084045,-0.40363,0.006988,-0.1377054999999999,-0.74393,-0.0016529999999999,0.1035045,-0.74347,-0.018196,0
114,0.0045904999999999,0.7662215,0.0541915,-0.1450625,0.4652115,0.0569365,-0.1793925,0.2181115,0.0733315,0.1405575,0.4642914999999999,0.0290495,0.1994975,0.2177315,0.0680675,-0.2114025,0.0163115,0.0008645,0.2136675,0.0104125,0.0067605,-0.0729795,0.0016705,0.0045805,0.0729795,-0.0016705,-0.0045804999999999,-0.1283725,-0.3781485,0.0074435,0.1081575,-0.4033585,0.0113335,-0.1380525,-0.7442185,0.0032495,0.1037175,-0.7430985,-0.0140054999999999,0
115,0.0053385,0.7664425,0.055,-0.1457985,0.4653325,0.057692,-0.1782685,0.2148325,0.0777569999999999,0.1410415,0.4638825,0.029358,0.1987715,0.2141525,0.07447,-0.2103685,0.0128475,0.0052899999999999,0.2129515,0.0083015,0.0167329999999999,-0.0728495,0.0018405,0.0045089999999999,0.0728495,-0.0018405,-0.0045089999999999,-0.1290485,-0.3779274999999999,0.011769,0.1078514999999999,-0.4032775,0.015604,-0.1387585,-0.7441274999999999,0.0079129999999999,0.1035415,-0.7426475,-0.0097879999999999,0
116,0.006923,0.766713,0.0546145,-0.144143,0.465743,0.0556925,-0.177583,0.214253,0.0820005,0.1420969999999999,0.463323,0.0299844999999999,0.197417,0.212753,0.0790845,-0.209883,0.012649,0.0095345,0.212007,0.006685,0.0228725,-0.072711,0.00196,0.0044454999999999,0.072711,-0.00196,-0.0044454999999999,-0.1303929999999999,-0.377387,0.0155215,0.107227,-0.403177,0.0184324999999999,-0.140063,-0.743757,0.0121604999999999,0.102687,-0.7421070000000001,-0.0057935,0
117,0.0086404999999999,0.7667634999999999,0.0532275,-0.1432905,0.4659235,0.0541915,-0.1774105,0.2148035,0.0851215,0.1438694999999999,0.4633535,0.0316685,0.1955694999999999,0.2124035,0.0834095,-0.2106305,0.0131995,0.0138575,0.2116595,0.0064765,0.0271955,-0.0725385,0.0019555,0.0039135,0.0725385,-0.0019554999999999,-0.0039135,-0.1325405,-0.3768364999999999,0.0185525,0.1058895,-0.4033664999999999,0.0197585,-0.1429205,-0.7436265000000001,0.0164875,0.1003294999999999,-0.7418865,-0.0020994999999999,0
118,0.0108755,0.766723,0.0506935,-0.1424715,0.466113,0.0518315,-0.1785815,0.215773,0.0860705,0.1461485,0.463823,0.0346595,0.1932785,0.212533,0.0886175,-0.2125514999999999,0.014141,0.0155915,0.2113785,0.006794,0.0324005,-0.0722754999999999,0.002016,0.0031044999999999,0.0722754999999999,-0.002016,-0.0031044999999999,-0.1353815,-0.3764369999999999,0.0200965,0.1029185,-0.403217,0.0206785,-0.1485614999999999,-0.743437,0.0217015,0.0951385,-0.741327,0.0024134999999999,0
119,0.0129039999999999,0.7664759999999999,0.0473235,-0.14176,0.466466,0.0490665,-0.18011,0.216806,0.0841535,0.14787,0.4644459999999999,0.0377425,0.19139,0.213566,0.0933825,-0.21536,0.014123,0.0133584999999999,0.21137,0.007827,0.0371615,-0.072046,0.002112,0.0020214999999999,0.072046,-0.002112,-0.0020214999999999,-0.13816,-0.377334,0.0194025,0.0996399999999999,-0.402744,0.0201915,-0.15526,-0.7428440000000001,0.0258984999999999,0.08874,-0.740764,0.0063084999999999,0
120,0.0146325,0.7660210000000001,0.0432184999999999,-0.1412735,0.466821,0.0455675,-0.1823235,0.218231,0.0800535,0.1496664999999999,0.465131,0.0408795,0.1894165,0.214781,0.0964235,-0.2174935,0.01534,0.0062824999999999,0.2111465,0.009042,0.0404024999999999,-0.0717995,0.002329,0.0008745,0.0717995,-0.002329,-0.0008745,-0.1403035,-0.376139,0.0159614999999999,0.0960165,-0.403429,0.0193004999999999,-0.1630535,-0.7414189999999999,0.0280814999999999,0.0807565,-0.7404189999999999,0.0096094999999999,0
121,0.0164055,0.7643345,0.0368535,-0.1418845,0.4669345,0.0402675,-0.1861545,0.2195445,0.0749895,0.1502454999999999,0.4652845,0.0452545,0.1867555,0.2157545,0.0998005,-0.2218244999999999,0.0164535,-0.0002734999999999,0.2092255,0.0100155,0.0431565,-0.0714655,0.0025584999999999,-0.0006385,0.0714655,-0.0025585,0.0006385,-0.1395025,-0.3751655,0.0049645,0.0869755,-0.4057655,0.0199405,-0.1690245,-0.7401255,0.0231855,0.0667055,-0.7416555,0.0112325,0
122,0.0187099999999999,0.762587,0.0297455,-0.143014,0.466947,0.0354355,-0.189711,0.220397,0.0702275,0.151629,0.465497,0.0493465,0.184299,0.217207,0.1026545,-0.2242009999999999,0.017356,-0.0065355,0.208419,0.011487,0.0441155,-0.071169,0.002771,-0.0023784999999999,0.071169,-0.0027709999999999,0.0023785,-0.133764,-0.374073,-0.0120055,0.077739,-0.409273,0.0226565,-0.166211,-0.738583,0.0105405,0.052019,-0.740263,0.0131625,0
123,0.0209939999999999,0.760885,0.0222834999999999,-0.142563,0.4671349999999999,0.0286904999999999,-0.193536,0.221245,0.0654444999999999,0.1528739999999999,0.4657449999999999,0.0531744999999999,0.1818439999999999,0.219245,0.1052075,-0.227506,0.0184739999999999,-0.0127465,0.208304,0.0141529999999999,0.0436794999999999,-0.071024,0.0030189999999999,-0.0040665,0.071024,-0.003019,0.0040665,-0.126456,-0.372905,-0.0349464999999999,0.067664,-0.412955,0.0240615,-0.159169,-0.735855,-0.0067564999999999,0.0366239999999999,-0.738085,0.0120894999999999,0
124,0.0235724999999999,0.758765,0.0134829999999999,-0.1429975,0.467375,0.0218759999999999,-0.1974874999999999,0.222315,0.061395,0.1528824999999999,0.466205,0.0556549999999999,0.1790624999999999,0.221755,0.106232,-0.2317175,0.019506,-0.0144349999999999,0.2072925,0.017641,0.04212,-0.0706425,0.003264,-0.0060749999999999,0.0706425,-0.0032639999999999,0.0060749999999999,-0.1163305,-0.370235,-0.062245,0.0549225,-0.415785,0.0283169999999999,-0.1445975,-0.729015,-0.034765,0.0180125,-0.735665,0.0198409999999999,0
125,0.0255499999999999,0.7563135000000001,0.005595,-0.14533,0.4669635,0.016085,-0.201386,0.2236135,0.0581939999999999,0.1523999999999999,0.4658335,0.056938,0.1770999999999999,0.2242035,0.10608,-0.23467,0.0202385,-0.013465,0.20681,0.0218104999999999,0.038609,-0.07065,0.0035164999999999,-0.007605,0.0706499999999999,-0.0035165,0.007605,-0.105003,-0.3643865,-0.090005,0.0412799999999999,-0.4174165,0.033707,-0.12066,-0.7149065,-0.069695,0.0001299999999999,-0.7329365,0.020955,0
126,0.0283225,0.7531595,-0.002315,-0.1468215,0.4659895,0.010175,-0.2047715,0.2245895,0.0552519999999999,0.1518325,0.4640494999999999,0.057088,0.1760525,0.2264695,0.104026,-0.2360374999999999,0.0203285,-0.0110649999999999,0.2068025,0.0255105,0.032555,-0.0706824999999999,0.0036804999999999,-0.008865,0.0706825,-0.0036804999999999,0.008865,-0.0934354999999999,-0.3590705,-0.1166249999999999,0.0276825,-0.4183005,0.041465,-0.0928464999999999,-0.7002805,-0.108245,-0.0194974999999999,-0.7293505,0.031785,0
127,0.0295969999999999,0.749436,-0.0087899999999999,-0.147577,0.464636,0.00406,-0.208132,0.224596,0.0537099999999999,0.1496769999999999,0.461126,0.0574579999999999,0.174807,0.227546,0.1008469999999999,-0.237727,0.019513,-0.00608,0.206267,0.0285339999999999,0.0243,-0.070817,0.003707,-0.0100099999999999,0.0708169999999999,-0.003707,0.0100099999999999,-0.080857,-0.3545339999999999,-0.1428,0.014517,-0.419844,0.050053,-0.063264,-0.693064,-0.14585,-0.037633,-0.727814,0.04155,0
128,0.0307979999999999,0.746636,-0.0147049999999999,-0.149567,0.463506,-0.0002749999999999,-0.211458,0.225236,0.052135,0.147748,0.459126,0.057435,0.173428,0.2285559999999999,0.097348,-0.239329,0.019049,-0.0005849999999999,0.205848,0.031504,0.015415,-0.071098,0.003707,-0.010935,0.071098,-0.003707,0.010935,-0.068039,-0.349784,-0.1674649999999999,0.0004679999999999,-0.4200939999999999,0.058345,-0.0337719999999999,-0.6852739999999999,-0.1823349999999999,-0.056102,-0.726244,0.051995,0
129,0.031705,0.745746,-0.01949,-0.1520859999999999,0.463416,-0.00372,-0.2145009999999999,0.2257459999999999,0.0515699999999999,0.145305,0.459026,0.0579499999999999,0.172115,0.2297759999999999,0.0941139999999999,-0.2424719999999999,0.019318,0.0059899999999999,0.205285,0.034776,0.0063199999999999,-0.0712449999999999,0.003707,-0.0122,0.071245,-0.003707,0.0121999999999999,-0.0541149999999999,-0.3447639999999999,-0.18913,-0.0145449999999999,-0.4217039999999999,0.0682299999999999,-0.0018149999999999,-0.677024,-0.21723,-0.0750549999999999,-0.7243539999999999,0.0641199999999999,0
130,0.0325699999999999,0.7456735,-0.0223899999999999,-0.15309,0.4633434999999999,-0.00608,-0.215708,0.2267335,0.0513,0.14415,0.4589534999999999,0.05663,0.1719,0.2308035,0.0896,-0.244271,0.0196435,0.01095,0.20639,0.0380665,-0.00336,-0.07169,0.0037795,-0.0128399999999999,0.0716899999999999,-0.0037795,0.01284,-0.04328,-0.3377065,-0.20223,-0.0246099999999999,-0.4226365,0.07773,0.0297099999999999,-0.6686665,-0.24244,-0.08941,-0.7197665,0.07533,0
131,0.03217,0.744737,-0.02396,-0.154281,0.4624069999999999,-0.00817,-0.217671,0.226317,0.0508899999999999,0.14195,0.4580169999999999,0.05595,0.17109,0.230557,0.0861099999999999,-0.248915,0.0187069999999999,0.0164699999999999,0.20561,0.040291,-0.01092,-0.0723,0.0037299999999999,-0.01288,0.0723,-0.00373,0.01288,-0.03684,-0.330233,-0.20931,-0.03506,-0.423943,0.0816599999999999,0.0505699999999999,-0.6605530000000001,-0.25695,-0.10472,-0.7150230000000001,0.0891599999999999,0
132,0.031965,0.7428765,-0.025135,-0.1560589999999999,0.4605964999999999,-0.0091049999999999,-0.2191419999999999,0.2267165,0.049795,0.140315,0.4561564999999999,0.055425,0.170615,0.2307965,0.082475,-0.252443,0.0168465,0.018875,0.204675,0.0424774999999999,-0.017745,-0.0725349999999999,0.0039885,-0.0129849999999999,0.072535,-0.0039885,0.0129849999999999,-0.0320849999999999,-0.3277635,-0.2081549999999999,-0.0443049999999999,-0.4260335,0.088245,0.064195,-0.6546234999999999,-0.2619249999999999,-0.1204749999999999,-0.7128135,0.109025,0
133,0.031905,0.741378,-0.0245949999999999,-0.156395,0.458768,-0.0098249999999999,-0.2204219999999999,0.2265579999999999,0.049405,0.139675,0.4550079999999999,0.056285,0.170885,0.2313079999999999,0.080295,-0.2541799999999999,0.016,0.017125,0.204965,0.04486,-0.0241649999999999,-0.073015,0.00422,-0.0119049999999999,0.073015,-0.00422,0.0119049999999999,-0.0289949999999999,-0.330022,-0.2024749999999999,-0.051035,-0.425142,0.091985,0.069945,-0.653222,-0.254475,-0.1292849999999999,-0.707082,0.127565,0
134,0.031555,0.7404465,-0.0236649999999999,-0.157525,0.4576065,-0.009315,-0.222052,0.2270865,0.048705,0.1387149999999999,0.4540265,0.0580649999999999,0.1700149999999999,0.2326065,0.0790249999999999,-0.256854,0.0173075,0.013295,0.2039249999999999,0.0475765,-0.0293749999999999,-0.072685,0.0045455,-0.011535,0.072685,-0.0045455,0.011535,-0.026925,-0.3319235,-0.1957049999999999,-0.056885,-0.4243734999999999,0.0965349999999999,0.0652349999999999,-0.6528135,-0.238375,-0.130735,-0.7042035,0.144165,0
135,0.029895,0.7398790000000001,-0.0216549999999999,-0.158745,0.4569089999999999,-0.008355,-0.224148,0.228989,0.0483049999999999,0.1363349999999999,0.453059,0.060765,0.168155,0.234339,0.079305,-0.259925,0.019976,0.008045,0.2018749999999999,0.051168,-0.0326049999999999,-0.071665,0.0048699999999999,-0.012815,0.0716649999999999,-0.00487,0.012815,-0.025685,-0.333801,-0.187865,-0.059485,-0.422621,0.106165,0.0563349999999999,-0.6522709999999999,-0.2170549999999999,-0.124845,-0.701531,0.147755,0
136,0.032065,0.7398585,-0.02104,-0.1588549999999999,0.4577485,-0.00635,-0.2238419999999999,0.2330985,0.0466299999999999,0.136645,0.4524485,0.0613699999999999,0.169455,0.2362285,0.0779999999999999,-0.259729,0.0264535,-0.00173,0.204365,0.0562895,-0.03799,-0.0712649999999999,0.0050525,-0.01345,0.071265,-0.0050525,0.0134499999999999,-0.0280449999999999,-0.3359715,-0.17479,-0.056475,-0.4217915,0.1263899999999999,0.044935,-0.6516515,-0.1921400000000001,-0.1049349999999999,-0.6980815,0.1370399999999999,0
137,0.035065,0.7402465,-0.020465,-0.157335,0.4593164999999999,-0.0054549999999999,-0.223245,0.2379165,0.0455249999999999,0.1371549999999999,0.4527465,0.061765,0.171325,0.2376765,0.076735,-0.258293,0.0341415,-0.0127249999999999,0.208225,0.0623235,-0.0441249999999999,-0.0708349999999999,0.0053175,-0.0139449999999999,0.0708349999999999,-0.0053174999999999,0.0139449999999999,-0.031335,-0.3406535,-0.161485,-0.042895,-0.4157235,0.1016449999999999,0.034275,-0.6564135,-0.167735,-0.084235,-0.6927734999999999,0.125325,0
138,0.0396699999999999,0.740765,-0.0214399999999999,-0.1548,0.461275,-0.005,-0.22174,0.243675,0.04363,0.13893,0.453735,0.06043,0.1735,0.2392149999999999,0.07547,-0.255229,0.042924,-0.0243399999999999,0.21475,0.0685679999999999,-0.05251,-0.07068,0.0055769999999999,-0.0136499999999999,0.07068,-0.005577,0.0136499999999999,-0.0369499999999999,-0.3455049999999999,-0.14818,-0.02406,-0.407315,0.07313,0.02128,-0.662675,-0.1429999999999999,-0.0556599999999999,-0.6849850000000001,0.10381,0
139,0.04483,0.7417015,-0.0221649999999999,-0.1523699999999999,0.4639514999999999,-0.0037849999999999,-0.22057,0.2500015,0.042225,0.14094,0.4549815,0.059335,0.17556,0.2402315,0.075155,-0.25112,0.0523305,-0.0362649999999999,0.22086,0.0751515,-0.0590249999999999,-0.0702999999999999,0.0058235,-0.0133949999999999,0.0703,-0.0058235,0.0133949999999999,-0.04319,-0.3503685,-0.134865,-0.0045399999999999,-0.3979285,0.045045,0.00597,-0.6647885,-0.119155,-0.0231699999999999,-0.6761585,0.074075,0
140,0.05137,0.742139,-0.02347,-0.1489599999999999,0.4672989999999999,-0.00289,-0.2191799999999999,0.256059,0.0414299999999999,0.1436,0.455949,0.0576999999999999,0.17913,0.242549,0.0733899999999999,-0.2467199999999999,0.0612369999999999,-0.04796,0.23138,0.082936,-0.06966,-0.0697299999999999,0.006207,-0.01335,0.06973,-0.0062069999999999,0.0133499999999999,-0.04996,-0.354631,-0.1203,0.0158699999999999,-0.388731,0.0165799999999999,-0.0082099999999999,-0.666281,-0.09659,0.01142,-0.668781,0.0454499999999999,0
141,0.058665,0.741417,-0.02504,-0.1460149999999999,0.470477,-0.0009399999999999,-0.217935,0.260467,0.04209,0.146455,0.455767,0.0555499999999999,0.183255,0.243987,0.0719799999999999,-0.2429849999999999,0.068738,-0.056,0.241295,0.090977,-0.0808299999999999,-0.069415,0.006303,-0.01311,0.069415,-0.006303,0.01311,-0.056595,-0.356913,-0.10686,0.036245,-0.379183,-0.00628,-0.019965,-0.667413,-0.07766,0.048165,-0.661483,0.0079799999999999,0
142,0.06591,0.740647,-0.0265299999999999,-0.14254,0.473407,0.00108,-0.2165899999999999,0.264887,0.04348,0.14956,0.455167,0.05285,0.19045,0.244887,0.0654199999999999,-0.2405,0.074548,-0.05947,0.2539099999999999,0.0999169999999999,-0.0942699999999999,-0.0691899999999999,0.0063089999999999,-0.0133699999999999,0.06919,-0.0063089999999999,0.0133699999999999,-0.06456,-0.359623,-0.0931699999999999,0.0568299999999999,-0.370063,-0.0281799999999999,-0.03147,-0.665713,-0.05944,0.07948,-0.6545629999999999,-0.0280099999999999,0
143,0.074855,0.740059,-0.0286899999999999,-0.1374849999999999,0.475849,0.0036399999999999,-0.213475,0.268629,0.04671,0.1540149999999999,0.454629,0.04911,0.197765,0.245169,0.06165,-0.238405,0.078712,-0.05786,0.265635,0.105359,-0.1046599999999999,-0.069465,0.006109,-0.0128399999999999,0.069465,-0.006109,0.01284,-0.0735549999999999,-0.362681,-0.07923,0.077035,-0.362321,-0.05064,-0.0429049999999999,-0.665221,-0.04042,0.1043949999999999,-0.648991,-0.0592199999999999,0
144,0.0847,0.739582,-0.0317899999999999,-0.13162,0.478072,0.00552,-0.20985,0.271142,0.05098,0.1597499999999999,0.454192,0.04399,0.20614,0.245672,0.05675,-0.2365,0.081276,-0.0533599999999999,0.2776599999999999,0.109362,-0.11473,-0.07047,0.0060529999999999,-0.0105399999999999,0.0704699999999999,-0.0060529999999999,0.0105399999999999,-0.08071,-0.363958,-0.0673199999999999,0.0941999999999999,-0.352888,-0.0742499999999999,-0.05334,-0.665178,-0.0228999999999999,0.1208699999999999,-0.642468,-0.0764399999999999,0
145,0.092345,0.7387155,-0.0345199999999999,-0.128095,0.4789954999999999,0.00822,-0.206505,0.2717555,0.05623,0.164115,0.4537555,0.0391,0.2153049999999999,0.2459055,0.04862,-0.236535,0.0808195,-0.0434299999999999,0.2853449999999999,0.1113355,-0.1213999999999999,-0.0708249999999999,0.0062314999999999,-0.0086699999999999,0.070825,-0.0062315,0.0086699999999999,-0.085355,-0.3644145,-0.05996,0.1065249999999999,-0.3449145,-0.10196,-0.061805,-0.6650345,-0.00992,0.126835,-0.6378145000000001,-0.07982,0
146,0.0999649999999999,0.736977,-0.038235,-0.1221049999999999,0.480617,0.0090149999999999,-0.202585,0.271937,0.0620149999999999,0.168875,0.453187,0.0338249999999999,0.223435,0.2457869999999999,0.0410749999999999,-0.2370749999999999,0.080351,-0.0308249999999999,0.293865,0.112547,-0.130225,-0.071085,0.006393,-0.0068749999999999,0.0710849999999999,-0.006393,0.0068749999999999,-0.0914149999999999,-0.364883,-0.0522749999999999,0.108315,-0.342253,-0.1004749999999999,-0.071425,-0.665103,0.003395,0.1307749999999999,-0.635173,-0.080575,0
147,0.106655,0.7351580000000001,-0.04144,-0.1166749999999999,0.482158,0.01026,-0.198905,0.2716679999999999,0.06815,0.172925,0.452888,0.02954,0.2319449999999999,0.245938,0.0325299999999999,-0.238345,0.080082,-0.01682,0.299905,0.114918,-0.1366399999999999,-0.071195,0.0063089999999999,-0.00531,0.071195,-0.006309,0.00531,-0.097225,-0.365152,-0.04505,0.105825,-0.342342,-0.0965399999999999,-0.0808149999999999,-0.6648719999999999,0.01617,0.128595,-0.634512,-0.0771,0
148,0.1132799999999999,0.73344,-0.0451549999999999,-0.11175,0.48329,0.011695,-0.19484,0.2717,0.074305,0.1768799999999999,0.45248,0.025735,0.24067,0.2458899999999999,0.023495,-0.23971,0.079512,-0.0037849999999999,0.30626,0.11692,-0.1446049999999999,-0.07134,0.006717,-0.0038449999999999,0.07134,-0.0067169999999999,0.0038449999999999,-0.1069999999999999,-0.36371,-0.038845,0.10303,-0.3418799999999999,-0.092615,-0.08994,-0.66484,0.0277749999999999,0.12333,-0.63398,-0.0701649999999999,0
149,0.119475,0.7315105,-0.04918,-0.105875,0.4843904999999999,0.0119199999999999,-0.1902649999999999,0.2714505,0.0801099999999999,0.182205,0.4518605,0.0208699999999999,0.248565,0.2460205,0.0156199999999999,-0.2403149999999999,0.0782315,0.0079599999999999,0.3088349999999999,0.1179605,-0.14934,-0.0715049999999999,0.0069724999999999,-0.0024399999999999,0.071505,-0.0069725,0.0024399999999999,-0.1152349999999999,-0.3621495,-0.0339099999999999,0.099875,-0.3415995,-0.08854,-0.0983349999999999,-0.6650595,0.0380399999999999,0.1168449999999999,-0.6335995,-0.06264,0
150,0.124925,0.7297119999999999,-0.0533650000000001,-0.100055,0.485522,0.0114549999999999,-0.185415,0.271112,0.0853249999999999,0.187185,0.451152,0.0163349999999999,0.2559149999999999,0.246052,0.0076749999999999,-0.240055,0.076461,0.0174849999999999,0.3131749999999999,0.117712,-0.153935,-0.071645,0.007205,-0.001205,0.071645,-0.007205,0.0012049999999999,-0.121095,-0.360448,-0.030145,0.0965449999999999,-0.342048,-0.084595,-0.106355,-0.665628,0.0470149999999999,0.1092849999999999,-0.6330180000000001,-0.053735,0
151,0.1295549999999999,0.7272005,-0.0582949999999999,-0.0952049999999999,0.4865505,0.0104549999999999,-0.180705,0.2700005,0.0895549999999999,0.191625,0.4502705,0.0117749999999999,0.2596549999999999,0.2451605,0.004645,-0.239305,0.0733534999999999,0.0273149999999999,0.313805,0.1151905,-0.155395,-0.071735,0.0074234999999999,-8.500000000000174e-05,0.071735,-0.0074235,8.500000000000174e-05,-0.1244049999999999,-0.3588295,-0.0270449999999999,0.0931349999999999,-0.3436595,-0.0805949999999999,-0.1139649999999999,-0.6665995,0.0552449999999999,0.102095,-0.6333695,-0.045545,0
152,0.1326049999999999,0.7250295,-0.06301,-0.091935,0.4876795,0.00909,-0.176895,0.2689895,0.0924,0.195075,0.4490095,0.008,0.263405,0.2437295,-0.00065,-0.237275,0.0699155,0.0340399999999999,0.314605,0.1137495,-0.1593799999999999,-0.071685,0.0076575,0.00063,0.071685,-0.0076574999999999,-0.00063,-0.127075,-0.3578405,-0.02487,0.0902149999999999,-0.3452905,-0.0771699999999999,-0.120495,-0.6679105,0.06135,0.0960849999999999,-0.6350405,-0.03966,0
153,0.13522,0.723103,-0.0676099999999999,-0.08854,0.4889529999999999,0.00744,-0.1724299999999999,0.268133,0.09408,0.19839,0.447683,0.0049,0.26626,0.2421829999999999,-0.0043199999999999,-0.2340799999999999,0.067276,0.0404099999999999,0.31391,0.109073,-0.16202,-0.0715699999999999,0.00791,0.00124,0.07157,-0.00791,-0.00124,-0.1297399999999999,-0.356847,-0.0225499999999999,0.08766,-0.346837,-0.0734,-0.1266799999999999,-0.669197,0.06701,0.09058,-0.636557,-0.03427,0
154,0.13729,0.7211850000000001,-0.0716249999999999,-0.0842399999999999,0.4902849999999999,0.005035,-0.1685699999999999,0.267265,0.095345,0.20157,0.446255,0.002325,0.26578,0.2406549999999999,-0.0025149999999999,-0.2305299999999999,0.065171,0.046345,0.31303,0.1072249999999999,-0.1631549999999999,-0.0714499999999999,0.008134,0.0017449999999999,0.07145,-0.0081339999999999,-0.0017449999999999,-0.1323599999999999,-0.3559049999999999,-0.0199949999999999,0.0855,-0.348365,-0.069585,-0.1322999999999999,-0.6705249999999999,0.0722249999999999,0.08578,-0.6379549999999999,-0.0292749999999999,0
155,0.138875,0.7196155,-0.0748149999999999,-0.0824449999999999,0.4910955,0.004395,-0.1648649999999999,0.2664355,0.095515,0.204745,0.4450155,0.000735,0.2653350000000001,0.2392355,-0.0005749999999999,-0.2262949999999999,0.0638015,0.0501449999999999,0.308755,0.1036155,-0.1590549999999999,-0.0712649999999999,0.0082264999999999,0.002055,0.071265,-0.0082265,-0.002055,-0.1343249999999999,-0.3551645,-0.017575,0.084245,-0.3493445,-0.066215,-0.1365349999999999,-0.6717245,0.0762549999999999,0.082565,-0.6387445,-0.025185,0
156,0.1404299999999999,0.718103,-0.07767,-0.08039,0.491873,0.0035899999999999,-0.16137,0.265943,0.0953399999999999,0.20836,0.443703,-0.00082,0.2642799999999999,0.237863,0.0021799999999999,-0.22202,0.062479,0.0522899999999999,0.3048099999999999,0.099683,-0.1550399999999999,-0.07114,0.008278,0.00236,0.0711399999999999,-0.0082779999999999,-0.00236,-0.13598,-0.354677,-0.01514,0.08333,-0.350107,-0.06289,-0.14015,-0.672677,0.07996,0.07999,-0.639387,-0.02126,0
157,0.14148,0.716702,-0.0797949999999999,-0.0780899999999999,0.4925719999999999,0.002635,-0.1580499999999999,0.265442,0.094855,0.21203,0.442462,-0.0022149999999999,0.26224,0.2356019999999999,0.0056950000000001,-0.2182899999999999,0.061238,0.0523850000000001,0.3013599999999999,0.094702,-0.1513849999999998,-0.0709799999999999,0.008331,0.002515,0.07098,-0.008331,-0.0025149999999999,-0.13749,-0.3544879999999999,-0.0125949999999999,0.0825,-0.350738,-0.0593949999999999,-0.14342,-0.6733680000000001,0.083605,0.07781,-0.6399180000000001,-0.0176049999999999,0
158,0.14239,0.7154425,-0.081515,-0.07706,0.4928925,0.0026049999999999,-0.15494,0.2651325,0.0938949999999999,0.21406,0.4413125,-0.002105,0.25927,0.2337525,0.0077549999999999,-0.2147,0.0602625,0.0499549999999999,0.29871,0.0896625,-0.149945,-0.07079,0.0083724999999999,0.0025249999999999,0.07079,-0.0083725,-0.0025249999999999,-0.13877,-0.3545375,-0.010035,0.08172,-0.3510975,-0.056165,-0.14634,-0.6741075,0.0868249999999999,0.0761899999999999,-0.6402275,-0.014365,0
159,0.1430949999999999,0.7143625,-0.08282,-0.076355,0.4931425,0.00285,-0.152165,0.2649924999999999,0.0928299999999999,0.216105,0.4402625,-0.0017099999999999,0.256645,0.2315424999999999,0.0107099999999999,-0.211605,0.0598624999999999,0.04602,0.296085,0.0847525,-0.14678,-0.070575,0.0084264999999999,0.00239,0.0705749999999999,-0.0084265,-0.00239,-0.139915,-0.3547575,-0.0074999999999999,0.080785,-0.3514375,-0.0532099999999999,-0.148965,-0.6748975,0.08976,0.0749649999999999,-0.6412575,-0.01141,0
160,0.14498,0.7140695,-0.0854649999999999,-0.07437,0.4940894999999999,0.002555,-0.14705,0.2672795,0.090475,0.22102,0.4410294999999999,-0.0026249999999999,0.26054,0.2300495,0.013265,-0.20373,0.0601655,0.037275,0.2943899999999999,0.0871395,-0.1477649999999999,-0.07014,0.0085125,0.002385,0.0701399999999999,-0.0085125,-0.0023849999999999,-0.14188,-0.3551605,-0.0037749999999999,0.0794599999999999,-0.3517405,-0.0513849999999999,-0.15285,-0.6755905,0.094525,0.07313,-0.6431005000000001,-0.0094149999999999,0
161,0.1450449999999999,0.713842,-0.084775,-0.073745,0.493912,0.0031449999999999,-0.146175,0.267682,0.0894049999999999,0.2225149999999999,0.438882,-0.001415,0.2574949999999999,0.2274719999999999,0.0179549999999999,-0.203705,0.061309,0.030375,0.2868949999999999,0.073612,-0.1333849999999999,-0.069995,0.00857,0.0017749999999999,0.0699949999999999,-0.00857,-0.0017749999999999,-0.142345,-0.3549879999999999,-0.002175,0.0788049999999999,-0.351928,-0.048435,-0.154315,-0.675308,0.0964549999999999,0.0720649999999999,-0.643318,-0.0066749999999999,0
162,0.145815,0.713543,-0.0842250000000001,-0.0748649999999999,0.493753,0.0047749999999999,-0.145275,0.268133,0.0878849999999999,0.220565,0.438723,0.0009349999999999,0.255405,0.227383,0.0209049999999999,-0.203785,0.06141,0.0223549999999999,0.278685,0.062902,-0.119765,-0.0699249999999999,0.008527,0.0013649999999999,0.069925,-0.008527,-0.001365,-0.1426549999999999,-0.355317,-0.0009150000000001,0.078355,-0.351987,-0.045555,-0.1550749999999999,-0.676347,0.0982849999999999,0.072015,-0.643417,-0.004025,0
163,0.1458649999999999,0.713298,-0.0831649999999999,-0.074325,0.493598,0.005425,-0.145035,0.267348,0.087705,0.222885,0.436598,0.0023849999999999,0.251155,0.224428,0.024595,-0.204435,0.0621169999999999,0.018425,0.273045,0.057502,-0.1133349999999999,-0.069745,0.008624,0.000835,0.0697449999999999,-0.008624,-0.000835,-0.143295,-0.355362,0.000435,0.077565,-0.352182,-0.0424949999999999,-0.156165,-0.676462,0.099875,0.0717849999999999,-0.643582,-0.000835,0
164,0.1454949999999999,0.713199,-0.082385,-0.074465,0.4933189999999999,0.0062749999999999,-0.144865,0.266079,0.0869949999999999,0.2236749999999999,0.435639,0.0034449999999999,0.2457549999999999,0.222999,0.0283249999999999,-0.2047750000000001,0.0621979999999999,0.0154249999999999,0.2662949999999999,0.0504019999999999,-0.102415,-0.069645,0.008668,0.0004449999999999,0.0696449999999999,-0.0086679999999999,-0.000445,-0.1437250000000001,-0.355341,0.0012849999999999,0.0769849999999999,-0.352301,-0.039005,-0.157185,-0.676461,0.1012049999999999,0.0720349999999999,-0.643611,0.0030549999999999,0
165,0.14466,0.713314,-0.0811199999999999,-0.07495,0.493144,0.00711,-0.1455,0.265564,0.08737,0.2244,0.434754,0.00518,0.2329999999999999,0.169694,0.01885,-0.2051799999999999,0.062701,0.01409,0.2773799999999999,0.019247,-0.1317499999999999,-0.06968,0.0087479999999999,0.00036,0.0696799999999999,-0.0087479999999999,-0.00036,-0.14481,-0.3553159999999999,0.0019299999999999,0.0758999999999999,-0.352446,-0.0334799999999999,-0.1587299999999999,-0.6757059999999999,0.10218,0.0724099999999999,-0.643636,0.00912,0
166,0.144,0.7133780000000001,-0.0802249999999998,-0.0756,0.493258,0.0080850000000001,-0.14548,0.2646179999999999,0.087365,0.22407,0.434498,0.0062550000000001,0.2298299999999999,0.220698,0.0336550000000001,-0.20554,0.062636,0.013835,0.24958,0.034764,-0.0764449999999998,-0.0697599999999999,0.008732,0.000545,0.06976,-0.008732,-0.0005449999999999,-0.1456799999999999,-0.355722,0.0022550000000001,0.07578,-0.352382,-0.0296449999999999,-0.15991,-0.6759919999999999,0.1032750000000001,0.07201,-0.643652,0.012545,0
