sb224sc-HT22-VT27/4dt907/src/data/labeled_files/A3_kinect.csv
FrameNo,nose_3d_x,nose_3d_y,nose_3d_z,left_shoulder_3d_x,left_shoulder_3d_y,left_shoulder_3d_z,left_elbow_3d_x,left_elbow_3d_y,left_elbow_3d_z,right_shoulder_3d_x,right_shoulder_3d_y,right_shoulder_3d_z,right_elbow_3d_x,right_elbow_3d_y,right_elbow_3d_z,left_wrist_3d_x,left_wrist_3d_y,left_wrist_3d_z,right_wrist_3d_x,right_wrist_3d_y,right_wrist_3d_z,left_hip_3d_x,left_hip_3d_y,left_hip_3d_z,right_hip_3d_x,right_hip_3d_y,right_hip_3d_z,left_knee_3d_x,left_knee_3d_y,left_knee_3d_z,right_knee_3d_x,right_knee_3d_y,right_knee_3d_z,left_ankle_3d_x,left_ankle_3d_y,left_ankle_3d_z,right_ankle_3d_x,right_ankle_3d_y,right_ankle_3d_z,activity_label
0,-0.0023655,0.764661,0.058202,-0.1618625,0.4670709999999999,0.041216,-0.1828325,0.209931,0.050702,0.1405675,0.462561,0.056704,0.1815075,0.205061,0.083561,-0.1963225,-0.0008719999999999,-0.035869,0.1998575,-0.019911,0.015921,-0.0719775,0.0007019999999999,0.0008299999999999,0.0719775,-0.0007019999999999,-0.0008299999999999,-0.1222525,-0.383569,-0.015153,0.1117975,-0.421879,0.028373,-0.1224125,-0.740339,-0.018824,0.1208274999999999,-0.7417189999999999,0.006624,0
1,-0.0009624999999999,0.766084,0.057613,-0.1654225,0.465454,0.0499489999999999,-0.1819325,0.211224,0.049347,0.1369575,0.460764,0.0564999999999999,0.1779975,0.207054,0.082397,-0.1952225,0.0001019999999999,-0.036451,0.1965575,-0.01149,0.017352,-0.0717925,0.0006769999999999,0.0002349999999999,0.0717925,-0.0006769999999999,-0.000235,-0.1216124999999999,-0.381416,-0.014343,0.1130675,-0.420026,0.0269629999999999,-0.1207425,-0.740836,-0.025222,0.1230975,-0.741896,0.0032159999999999,0
2,-0.0007295,0.7663465,0.0574394999999999,-0.1659115,0.4651165,0.0512985,-0.1817015,0.2116765,0.0489424999999999,0.1371685,0.4605365,0.0562405,0.1779784999999999,0.2078865,0.0818135,-0.1949415,0.0005224999999999,-0.0369095,0.1969685,-0.0107605,0.0168514999999999,-0.0715595,0.0007734999999999,-0.0001075,0.0715595,-0.0007734999999999,0.0001074999999999,-0.1213215,-0.3812735,-0.0142995,0.1132285,-0.4194735,0.0267434999999999,-0.1199015,-0.7396935,-0.0247365,0.1233985,-0.7419035,0.0033944999999999,0
3,-0.000602,0.7665285000000001,0.0574725,-0.166539,0.4646085,0.0524085,-0.181749,0.2121085,0.0485885,0.136771,0.4602885,0.0561565,0.178681,0.2074985,0.0809875,-0.194639,0.0098045,-0.0332944999999999,0.196961,-0.0100245,0.0160045,-0.0714839999999999,0.0007244999999999,-0.0001814999999999,0.0714839999999999,-0.0007245,0.0001815,-0.121119,-0.3808015,-0.0143644999999999,0.1133309999999999,-0.4193515,0.0267845,-0.119499,-0.7402015,-0.0248525,0.1237409999999999,-0.7417414999999999,0.0031785,0
4,-0.0007954999999999,0.7665035,0.057519,-0.1673345,0.4641235,0.053729,-0.1833545,0.2118334999999999,0.047744,0.1365655,0.4603735,0.056517,0.1795855,0.2080935,0.07909,-0.1951045,0.0052615,-0.042115,0.1984255,-0.0041565,0.013908,-0.0714665,0.0007395,-0.0002279999999999,0.0714665,-0.0007394999999999,0.0002279999999999,-0.1211645,-0.3807365,-0.0143529999999999,0.1130855,-0.4198064999999999,0.027065,-0.1192845,-0.7404365,-0.023661,0.1239855,-0.7429865,0.002565,0
5,9.349999999999897e-05,0.7664065,0.0583365,-0.1670545,0.4642165,0.0549425,-0.1920645,0.2151665,0.0336835,0.1420355,0.4636765,0.0570325,0.1877255,0.2112865,0.0663235,-0.2109845,0.0297375,-0.0656265,0.2159555,0.0073554999999999,-0.0195105,-0.0713435,0.0007654999999999,-0.0004604999999999,0.0713435,-0.0007655,0.0004604999999999,-0.1215045,-0.3787435,-0.0151484999999999,0.1127954999999999,-0.4202635,0.0269205,-0.1188945,-0.7421435,-0.0259215,0.1235255,-0.7426834999999999,0.0017455,0
6,-0.0003979999999999,0.7658389999999999,0.058849,-0.165862,0.465389,0.051552,-0.199882,0.228989,0.02021,0.143808,0.465099,0.057197,0.1965279999999999,0.215909,0.054231,-0.2236719999999999,0.025321,-0.117186,0.2305579999999999,0.012247,-0.0394219999999999,-0.071382,0.000746,-0.0006649999999999,0.071382,-0.000746,0.000665,-0.121932,-0.377481,-0.0147579999999999,0.112348,-0.418601,0.026999,-0.1188419999999999,-0.741351,-0.0262079999999999,0.123178,-0.742901,0.001651,0
7,-0.0017469999999999,0.76459,0.06137,-0.161872,0.46751,0.04775,-0.216132,0.26425,-0.015508,0.137698,0.46458,0.056278,0.221858,0.26182,0.027393,-0.2379619999999999,0.105748,-0.153364,0.265218,0.093983,-0.094034,-0.071667,0.000619,-0.001486,0.071667,-0.0006189999999999,0.001486,-0.121612,-0.37727,-0.0134659999999999,0.112258,-0.41607,0.027831,-0.118182,-0.73934,-0.023128,0.122878,-0.7449399999999999,0.002066,0
8,-0.0022434999999999,0.76419,0.0629395,-0.1613975,0.4678,0.0470555,-0.2261375,0.28346,-0.0341005,0.1379925,0.46506,0.0562885,0.2349125,0.28236,0.0131855,-0.2503375,0.14705,-0.1856654999999999,0.2840425,0.13784,-0.1231855,-0.0718085,0.000619,-0.0018384999999999,0.0718085,-0.0006189999999999,0.0018384999999999,-0.1215475,-0.37625,-0.0132455,0.1120825,-0.41511,0.0279925,-0.1175975,-0.7394799999999999,-0.0228045,0.1227925,-0.74544,0.0015634999999999,0
9,-0.002763,0.764086,0.064581,-0.160614,0.468416,0.045941,-0.237374,0.310566,-0.053534,0.138686,0.466526,0.056645,0.2487559999999999,0.310626,-0.0006229999999999,-0.2628439999999999,0.199226,-0.218999,0.305016,0.192726,-0.154469,-0.071973,0.0005809999999999,-0.0021879999999999,0.071973,-0.0005809999999999,0.002188,-0.121264,-0.375224,-0.01297,0.1120259999999999,-0.414224,0.028066,-0.1169139999999999,-0.7392839999999999,-0.0219499999999999,0.122996,-0.745544,0.001235,0
10,-0.0033939999999999,0.7635985,0.066066,-0.159862,0.4690185,0.044392,-0.247972,0.3413585,-0.072187,0.139368,0.4687785,0.057254,0.2610079999999999,0.3426385,-0.013188,-0.273802,0.2609385,-0.2488099999999999,0.322818,0.2579985,-0.1792,-0.072169,0.0005124999999999,-0.0025699999999999,0.072169,-0.0005124999999999,0.0025699999999999,-0.1209819999999999,-0.3744114999999999,-0.012765,0.112068,-0.4136915,0.027968,-0.116252,-0.7395715,-0.0212529999999999,0.123308,-0.7460315000000001,0.000764,0
11,-0.0039949999999999,0.7625985,0.067371,-0.159007,0.4694685,0.0425409999999999,-0.257877,0.3771985,-0.0895739999999999,0.140253,0.4711285,0.057799,0.272153,0.3804485,-0.024319,-0.283477,0.3309085,-0.2716139999999999,0.338403,0.3237085,-0.200864,-0.072362,0.0004524999999999,-0.002968,0.072362,-0.0004525,0.0029679999999999,-0.120677,-0.3742115,-0.012752,0.112163,-0.4136315,0.027755,-0.115567,-0.7401515000000001,-0.020414,0.123693,-0.7470315000000001,0.0002479999999999,0
12,-0.0046989999999999,0.76084,0.068574,-0.1582609999999999,0.47007,0.04042,-0.267021,0.41118,-0.103997,0.141199,0.47357,0.058365,0.281419,0.41521,-0.033288,-0.292261,0.39756,-0.292157,0.350039,0.40056,-0.214507,-0.072528,0.0003299999999999,-0.0033919999999999,0.072528,-0.00033,0.0033919999999999,-0.1203809999999999,-0.37477,-0.0127009999999999,0.1122789999999999,-0.4139299999999999,0.027554,-0.1146609999999999,-0.74127,-0.0196939999999999,0.124029,-0.74872,1.1000000000000593e-05,0
13,-0.0052255,0.7586415,0.069394,-0.1577485,0.4702815,0.038899,-0.2735385,0.4469815,-0.113893,0.1418815,0.4760515,0.058965,0.2880315,0.4513715,-0.0390579999999999,-0.2984885,0.4640615,-0.304543,0.3570315,0.4724215,-0.2217029999999999,-0.0726465,0.0002145,-0.0037349999999999,0.0726465,-0.0002145,0.003735,-0.1199585,-0.3761285,-0.0129039999999999,0.1124715,-0.4155284999999999,0.027123,-0.1136785,-0.7429785,-0.0190009999999999,0.1242715,-0.7508885,-0.0002579999999999,0
14,-0.005694,0.7562059999999999,0.070048,-0.157299,0.470396,0.037473,-0.279219,0.481086,-0.11726,0.142451,0.478446,0.059676,0.2924409999999999,0.486386,-0.041192,-0.302689,0.530766,-0.30695,0.3592309999999999,0.5422459999999999,-0.22245,-0.072728,0.0001279999999999,-0.004036,0.072728,-0.000128,0.0040359999999999,-0.119519,-0.377944,-0.013164,0.112661,-0.417574,0.026652,-0.112829,-0.7451040000000001,-0.01887,0.124511,-0.7533040000000001,-0.000621,0
15,-0.0060469999999999,0.753624,0.0704115,-0.156877,0.470634,0.0362645,-0.2837969999999999,0.514584,-0.1193784999999999,0.143263,0.480824,0.0605055,0.294643,0.518964,-0.0418345,-0.306157,0.596154,-0.3085085,0.359603,0.607534,-0.2233885,-0.072801,5.199999999999996e-05,-0.0042955,0.072801,-5.199999999999996e-05,0.0042955,-0.1190469999999999,-0.380216,-0.0135545,0.112913,-0.419956,0.0262145,-0.112117,-0.7476659999999999,-0.0191644999999999,0.124793,-0.755756,-0.0010655,0
16,-0.0063205,0.750893,0.0703735,-0.1567645,0.471083,0.0352195,-0.2844145,0.542063,-0.1204085,0.1445854999999999,0.483193,0.0613654999999999,0.2949655,0.547953,-0.0427145,-0.3058345,0.6511129999999999,-0.3093885,0.3599255,0.661493,-0.2242685,-0.0728195,-5.9000000000000025e-05,-0.0045325,0.0728195,5.9000000000000025e-05,0.0045324999999999,-0.1185545,-0.383107,-0.0139585,0.1131455,-0.422637,0.0257985,-0.1114645,-0.750467,-0.0195865,0.1250855,-0.758237,-0.0013615,0
17,-0.0065404999999999,0.7478375,0.070036,-0.1568735,0.4715575,0.034479,-0.2850535,0.5746575,-0.1213009999999999,0.1464265,0.4857575,0.062305,0.2951965,0.5808675,-0.043467,-0.3056035,0.7073675,-0.310141,0.3601565,0.7151675000000001,-0.225021,-0.0727855,-0.0001945,-0.0047509999999999,0.0727855,0.0001945,0.004751,-0.1181535,-0.3866525,-0.0142769999999999,0.1133265,-0.4257225,0.025399,-0.1110734999999999,-0.7536025,-0.0202149999999999,0.1253565,-0.7611025,-0.0015439999999999,0
18,-0.0067114999999999,0.7447729999999999,0.069599,-0.1571965,0.472323,0.033847,-0.2851865,0.5999730000000001,-0.122011,0.1480435,0.4876729999999999,0.062885,0.2949535,0.606163,-0.041372,-0.3058765,0.755743,-0.3079309999999999,0.3578735,0.7631030000000001,-0.216821,-0.0727184999999999,-0.0002759999999999,-0.0049389999999999,0.0727184999999999,0.0002759999999999,0.004939,-0.1177765,-0.390497,-0.014629,0.1134635,-0.428897,0.025082,-0.1106264999999999,-0.7568870000000001,-0.020255,0.1257435,-0.7639469999999999,-0.001597,0
19,-0.0067765,0.7418600000000001,0.06917,-0.1576675,0.47328,0.033349,-0.2858075,0.62128,-0.11769,0.1489925,0.48863,0.063148,0.2922325,0.62787,-0.038702,-0.3066975,0.79342,-0.29767,0.3531424999999999,0.8011900000000001,-0.20414,-0.0726275,-0.00031,-0.0050399999999999,0.0726275,0.0003099999999999,0.0050399999999999,-0.1174375,-0.3943899999999999,-0.0148329999999999,0.1135724999999999,-0.43193,0.024956,-0.1102875,-0.76034,-0.020311,0.1259925,-0.76678,-0.001454,0
20,-0.0068255,0.7389905,0.0689325,-0.1580705,0.4745005,0.0329775,-0.2865005,0.6376805,-0.1130385,0.1491595,0.4892904999999999,0.0633595,0.2885395,0.6438205,-0.0346985,-0.3066405,0.8244405,-0.2843185,0.3460095,0.8384105,-0.1900685,-0.0725565,-0.0003395,-0.0051085,0.0725565,0.0003394999999999,0.0051085,-0.1171605,-0.3979295,-0.0149515,0.1137094999999999,-0.4350095,0.0248215,-0.1101405,-0.7637595,-0.0205415,0.1260295,-0.7697495,-0.0013034999999999,0
21,-0.0067375,0.7364825,0.0686384999999999,-0.1581925,0.4759225,0.0327265,-0.2864625,0.6546825000000001,-0.1064924999999999,0.1491875,0.4898125,0.0634315,0.2845075,0.6592225,-0.0300525,-0.3061525,0.8525625,-0.2678925,0.3364375,0.8639325,-0.1731325,-0.0725195,-0.0003394999999999,-0.0050865,0.0725195,0.0003395,0.0050865,-0.1170525,-0.4005074999999999,-0.0152095,0.1138175,-0.4375874999999999,0.0246065,-0.1100525,-0.7663375,-0.0208585,0.1261175,-0.7723275,-0.0014605,0
22,-0.0067074999999999,0.7343385,0.0683085,-0.1582615,0.4778484999999999,0.0330385,-0.2860415,0.6673285,-0.0991315,0.1491585,0.4899785,0.0634925,0.2800785,0.6722785,-0.0248104999999999,-0.3051715,0.8745985,-0.2490815,0.3267585,0.8843185,-0.1569315,-0.0725165,-0.0004294999999999,-0.0050014999999999,0.0725165,0.0004294999999999,0.0050015,-0.1170114999999999,-0.4030315,-0.0154314999999999,0.1138785,-0.4395815,0.0243985,-0.1099715,-0.7685715000000001,-0.0214625,0.1261085,-0.7745615,-0.0015414999999999,0
23,-0.0066995,0.732484,0.0680154999999999,-0.1583915,0.480034,0.0336665,-0.2847915,0.679924,-0.0886375,0.1491285,0.490364,0.0634765,0.2752385,0.684864,-0.0186215,-0.3036715,0.8946040000000001,-0.2280674999999999,0.3165385,0.903944,-0.1391875,-0.0725095,-0.0005189999999999,-0.0048475,0.0725095,0.0005189999999999,0.0048474999999999,-0.1169915,-0.4056659999999999,-0.0156134999999999,0.1139385,-0.441366,0.0242604999999999,-0.1099715,-0.770536,-0.0216585,0.1260885,-0.776516,-0.0015775,0
24,-0.0067144999999999,0.7307485,0.0678205,-0.1585705,0.4821384999999999,0.0345445,-0.2828505,0.6909185,-0.0778425,0.1488395,0.4905685,0.0634145,0.2698295,0.6962885000000001,-0.0117844999999999,-0.3020505,0.9123285,-0.2065014999999999,0.3071995,0.9248085,-0.1234315,-0.0724944999999999,-0.0005404999999999,-0.0046924999999999,0.0724944999999999,0.0005404999999999,0.0046925,-0.1169804999999999,-0.4088315,-0.0157954999999999,0.1139695,-0.4431515,0.0241405,-0.1101304999999999,-0.7730715,-0.0223634999999999,0.1257795,-0.7787215,-0.0016804999999999,0
25,-0.0067634999999999,0.729164,0.0675615,-0.1587905,0.483994,0.0354115,-0.2809105,0.700894,-0.0674525,0.1480095,0.490784,0.0632515,0.2644495,0.705994,-0.0049625,-0.3006105,0.927534,-0.1854225,0.2984295,0.944354,-0.1083325,-0.0724485,-0.000621,-0.0045135,0.0724485,0.0006209999999999,0.0045134999999999,-0.1170205,-0.411806,-0.0159725,0.1140795,-0.444796,0.0240004999999999,-0.1103405,-0.775556,-0.0230535,0.1254395,-0.780776,-0.0018605,0
26,-0.00682,0.7279085000000001,0.0671695,-0.158998,0.4858485,0.0363775,-0.278878,0.7050085,-0.0590595,0.146892,0.4908485,0.0630355,0.260042,0.7107585000000001,0.0004105,-0.299378,0.9345185,-0.1690015,0.291222,0.9570985,-0.0948815,-0.072393,-0.0006914999999999,-0.0043375,0.072393,0.0006915,0.0043374999999999,-0.117078,-0.4146514999999999,-0.0161495,0.114242,-0.4461515,0.0238595,-0.110588,-0.7777014999999999,-0.0239715,0.125052,-0.7826015,-0.0020464999999999,0
27,-0.006918,0.7267205,0.0667675,-0.159087,0.4875605,0.0373895,-0.276727,0.7084805,-0.0501145,0.145443,0.4910105,0.0627055,0.255413,0.7154705,0.0061835,-0.297867,0.9389205,-0.1522715,0.285733,0.9639305,-0.0841514999999999,-0.07235,-0.0008415,-0.0041815,0.07235,0.0008414999999999,0.0041814999999999,-0.117167,-0.4168294999999999,-0.0163245,0.114383,-0.4473695,0.0237335,-0.110927,-0.7797195,-0.0249464999999999,0.124633,-0.7843895,-0.0022634999999999,0
28,-0.0070154999999999,0.725572,0.0663065,-0.1591785,0.489472,0.0387305,-0.2746485,0.712282,-0.0416615,0.1437615,0.491222,0.0624005,0.2509315,0.719732,0.0121165,-0.2961885,0.942962,-0.1350015,0.2797115,0.970762,-0.0718235,-0.0723345,-0.00105,-0.0039844999999999,0.0723345,0.00105,0.0039845,-0.1172685,-0.418718,-0.0164544999999999,0.1145515,-0.448328,0.0236245,-0.1113184999999999,-0.781758,-0.0257734999999999,0.1242215,-0.786318,-0.0024264999999999,0
29,-0.007107,0.724526,0.0658325,-0.159294,0.491396,0.0402155,-0.272454,0.7143459999999999,-0.0331315,0.1421259999999999,0.491456,0.0621845,0.246996,0.723336,0.0175005,-0.2944239999999999,0.944956,-0.1191915,0.274486,0.975136,-0.0595095,-0.072301,-0.0012809999999999,-0.0038065,0.072301,0.0012809999999999,0.0038065,-0.117354,-0.420454,-0.0165545,0.114756,-0.4491239999999999,0.0235205,-0.111624,-0.783794,-0.0265084999999999,0.123796,-0.788284,-0.0025514999999999,0
30,-0.0072169999999999,0.7237294999999999,0.06544,-0.159418,0.4933495,0.041914,-0.2706179999999999,0.7153495,-0.0243039999999999,0.1409119999999999,0.4913495,0.062129,0.2434819999999999,0.7267294999999999,0.022781,-0.2926479999999999,0.9477995,-0.103573,0.269772,0.9800795,-0.046249,-0.072271,-0.0014614999999999,-0.0036279999999999,0.072271,0.0014615,0.003628,-0.117328,-0.4219805,-0.016588,0.114972,-0.4496104999999999,0.023463,-0.112048,-0.7855905000000001,-0.0271079999999999,0.123332,-0.7900605,-0.0025749999999999,0
31,-0.0073245,0.723053,0.0650429999999999,-0.1595455,0.494873,0.043588,-0.2681555,0.715173,-0.01632,0.1400644999999999,0.491163,0.06216,0.2409244999999999,0.7278629999999999,0.027624,-0.2910055,0.950523,-0.090638,0.2665145,0.982893,-0.034949,-0.0722435,-0.001555,-0.0034539999999999,0.0722435,0.001555,0.003454,-0.1172755,-0.4230669999999999,-0.016619,0.1152045,-0.449997,0.023404,-0.1124655,-0.787107,-0.027559,0.1228845,-0.791707,-0.0026289999999999,0
32,-0.0074539999999999,0.7224105,0.0647465,-0.159726,0.4963404999999999,0.0452245,-0.2663459999999999,0.7162005,-0.0105665,0.139504,0.4906605,0.0622475,0.238934,0.7292805,0.0315675,-0.2895459999999999,0.9531805,-0.0806775,0.264394,0.9840805,-0.0253574999999999,-0.072214,-0.0016465,-0.0033154999999999,0.072214,0.0016464999999999,0.0033155,-0.117226,-0.4241795,-0.0166084999999999,0.115394,-0.4505395,0.0233865,-0.112676,-0.7882195,-0.0274205,0.122554,-0.7930294999999999,-0.0026694999999999,0
33,-0.0075575,0.721888,0.0644415,-0.1598585,0.497848,0.0468735,-0.2645385,0.717218,-0.0051774999999999,0.1392715,0.490118,0.0623985,0.2378715,0.730888,0.0347625,-0.2878985,0.955698,-0.0719295,0.2628415,0.983998,-0.0164075,-0.0722045,-0.001784,-0.0031824999999999,0.0722045,0.001784,0.0031825,-0.1171185,-0.425262,-0.0166004999999999,0.1156015,-0.451032,0.0233925,-0.1128985,-0.789492,-0.0277094999999999,0.1222814999999999,-0.7943319999999999,-0.0027134999999999,0
34,-0.0075254999999999,0.7214714999999999,0.064161,-0.1599964999999999,0.4993515,0.0485219999999999,-0.2626664999999999,0.7182115,-0.000221,0.1392135,0.4894015,0.062543,0.2372035,0.7311415,0.037788,-0.2860565,0.9568015,-0.063452,0.2615135,0.9837015,-0.008327,-0.0722065,-0.0018065,-0.003066,0.0722065,0.0018064999999999,0.0030659999999999,-0.1169565,-0.4259684999999999,-0.016595,0.1157435,-0.4513085,0.023378,-0.1130065,-0.7905585,-0.028019,0.1220635,-0.7955785000000001,-0.002781,0
35,-0.0075195,0.7213545,0.063964,-0.1600995,0.5008345000000001,0.050105,-0.2608495,0.7186045000000001,0.004446,0.1391705,0.4885344999999999,0.06269,0.2367305,0.7316745,0.040588,-0.2839895,0.9595545,-0.055647,0.2603605,0.9831545,-0.001295,-0.0722165,-0.0017964999999999,-0.002935,0.0722165,0.0017964999999999,0.002935,-0.1167395,-0.4262255,-0.016567,0.1158505,-0.4515955,0.023402,-0.1131295,-0.7915455,-0.028209,0.1218704999999999,-0.7967255,-0.0028299999999999,0
36,-0.0075269999999999,0.721231,0.0638065,-0.16018,0.5022909999999999,0.0515975,-0.25914,0.719591,0.0085305,0.13911,0.4876809999999999,0.0628395,0.23632,0.733741,0.0429415,-0.28182,0.962201,-0.0490665,0.25942,0.982601,0.0047885,-0.0722339999999999,-0.001723,-0.0028135,0.0722339999999999,0.001723,0.0028135,-0.11653,-0.426289,-0.0165045,0.1159,-0.451899,0.0234375,-0.11324,-0.7923990000000001,-0.0282995,0.12167,-0.797779,-0.0029894999999999,0
37,-0.007552,0.7212624999999999,0.063705,-0.160219,0.5034525,0.052752,-0.257649,0.7206724999999999,0.011673,0.139131,0.4870724999999999,0.063007,0.235951,0.7349325,0.044983,-0.279869,0.9641925,-0.044209,0.259111,0.9820925,0.009212,-0.072251,-0.0015994999999999,-0.002755,0.072251,0.0015995,0.002755,-0.1163589999999999,-0.4259975,-0.0163759999999999,0.115921,-0.4523875,0.023523,-0.113339,-0.7929275,-0.028319,0.121511,-0.7984375,-0.0031619999999999,0
38,-0.0075834999999999,0.721364,0.063617,-0.1602314999999999,0.504544,0.053763,-0.2561515,0.721324,0.0144719999999999,0.1393385,0.4865539999999999,0.063221,0.2357385,0.736054,0.047101,-0.2779014999999999,0.965974,-0.039821,0.2591285,0.981574,0.0134689999999999,-0.0722535,-0.001455,-0.002726,0.0722535,0.0014549999999999,0.0027259999999999,-0.1162115,-0.425576,-0.01622,0.1159085,-0.452886,0.023651,-0.1134515,-0.793346,-0.028321,0.1213785,-0.799006,-0.003298,0
39,-0.0075719999999999,0.7215889999999999,0.0635255,-0.1601659999999999,0.5053989999999999,0.0544215,-0.254506,0.722069,0.0164475,0.139824,0.486129,0.0634035,0.235944,0.7371289999999999,0.0487565,-0.276066,0.967249,-0.0367465,0.259644,0.981249,0.0161785,-0.072226,-0.0013169999999999,-0.0027525,0.072226,0.0013169999999999,0.0027525,-0.116086,-0.4258409999999999,-0.0160575,0.115924,-0.453211,0.0237964999999999,-0.113526,-0.793671,-0.0280114999999999,0.121274,-0.799371,-0.0034135,0
40,-0.0075134999999999,0.721838,0.0633945,-0.1600694999999999,0.5061180000000001,0.0548995,-0.2533095,0.7227480000000001,0.0182105,0.1404605,0.485568,0.0635995,0.2363305,0.737908,0.0503234999999999,-0.2744295,0.968308,-0.0344575,0.2607505,0.979208,0.0187285,-0.0722065,-0.0011839999999999,-0.0027895,0.0722065,0.001184,0.0027895,-0.1159595,-0.4260819999999999,-0.0159045,0.1159405,-0.4534519999999999,0.0239315,-0.1135295,-0.793952,-0.0278574999999999,0.1211505,-0.7997719999999999,-0.0034795,0
41,-0.0074149999999999,0.7221625,0.0632485,-0.1599519999999999,0.5066225,0.0552035,-0.252142,0.7226225000000001,0.0197245,0.141068,0.4850025,0.0637855,0.236848,0.7384525000000001,0.0517545,-0.273062,0.9691825,-0.0327075,0.2615579999999999,0.9778825,0.0204785,-0.072185,-0.0010594999999999,-0.0028415,0.072185,0.0010594999999999,0.0028415,-0.115752,-0.4262074999999999,-0.0157275,0.115948,-0.4536175,0.0240755,-0.1135419999999999,-0.7941174999999999,-0.0277275,0.121078,-0.8000475,-0.0034875,0
42,-0.0072709999999999,0.7224855,0.063111,-0.159895,0.5069855,0.055434,-0.251535,0.7225255,0.020288,0.141435,0.4846055,0.0639909999999999,0.237435,0.7386455000000001,0.052919,-0.272135,0.9697855,-0.031525,0.262535,0.9769855,0.02158,-0.0721769999999999,-0.0009624999999999,-0.0028949999999999,0.0721769999999999,0.0009624999999999,0.002895,-0.115505,-0.4259245,-0.015487,0.115935,-0.4538945,0.024241,-0.113465,-0.7942945,-0.027308,0.121045,-0.8002845,-0.0035489999999999,0
43,-0.0071224999999999,0.7228175000000001,0.062973,-0.1598625,0.5072775,0.0556129999999999,-0.2511624999999999,0.7224575,0.020727,0.1417275,0.4842675,0.064188,0.2380175,0.7386174999999999,0.053903,-0.2716024999999999,0.9702175,-0.0304879999999999,0.2635075,0.9762175,0.022498,-0.0721665,-0.0008944999999999,-0.0029379999999999,0.0721665,0.0008944999999999,0.0029379999999999,-0.1153225,-0.4256725,-0.0151889999999999,0.1158575,-0.4543425,0.024484,-0.1134225,-0.7945125,-0.0268159999999999,0.1209875,-0.8004525,-0.0036139999999999,0
44,-0.006981,0.7228175000000001,0.0629204999999999,-0.159887,0.5072775,0.0557775,-0.250887,0.7219774999999999,0.0211524999999999,0.141983,0.4839775,0.0643505,0.238533,0.7386174999999999,0.0547855,-0.271507,0.9705175,-0.0297285,0.264393,0.9762175,0.0234575,-0.0721509999999999,-0.0008944999999999,-0.0029735,0.0721509999999999,0.0008944999999999,0.0029734999999999,-0.115187,-0.4257325,-0.0149135,0.115733,-0.4547225,0.0246865,-0.113567,-0.7946124999999999,-0.0266905,0.120843,-0.8005225,-0.0035185,0
45,-0.0068439999999999,0.7228445000000001,0.0627585,-0.1599769999999999,0.5073045,0.0559165,-0.2507169999999999,0.7215445,0.0215205,0.142163,0.4836944999999999,0.0644415,0.238973,0.7386444999999999,0.0555425,-0.2717569999999999,0.9705445,-0.0290694999999999,0.265343,0.9756445,0.0242525,-0.072142,-0.0008675,-0.0030024999999999,0.072142,0.0008675,0.0030025,-0.115067,-0.4257055,-0.0147155,0.1155529999999999,-0.4550555,0.0248505,-0.1136969999999999,-0.7948055,-0.0264085,0.120693,-0.8006555,-0.0034135,0
46,-0.006774,0.7228915,0.0626195,-0.160095,0.5073515,0.0560325,-0.250635,0.7210415,0.0218575,0.142305,0.4834315,0.0644885,0.239335,0.7386915,0.0561515,-0.271975,0.9707915,-0.0284455,0.266155,0.9750915,0.0247185,-0.07214,-0.0008205,-0.0030255,0.07214,0.0008205,0.0030255,-0.114975,-0.4260084999999999,-0.0145225,0.115395,-0.4554085,0.0249425,-0.113895,-0.7949485000000001,-0.0263265,0.120565,-0.8007685,-0.0033194999999999,0
47,-0.0068104999999999,0.723339,0.062508,-0.1602875,0.507639,0.056193,-0.2506775,0.720529,0.022333,0.1423425,0.483189,0.064558,0.2396525,0.738499,0.056747,-0.2723175,0.971519,-0.027507,0.2669025,0.974519,0.025074,-0.0721575,-0.0007059999999999,-0.003013,0.0721575,0.000706,0.0030129999999999,-0.1149274999999999,-0.425751,-0.014341,0.1152225,-0.455451,0.0250339999999999,-0.1142074999999999,-0.794981,-0.026506,0.1203925,-0.800601,-0.003279,0
48,-0.006933,0.7238565,0.062449,-0.160563,0.5079365,0.056389,-0.250653,0.7197465000000001,0.022866,0.142317,0.4829965,0.064659,0.239937,0.7381865000000001,0.057266,-0.272783,0.9722165,-0.026514,0.267557,0.9742165,0.025466,-0.072162,-0.0006045,-0.002978,0.072162,0.0006045,0.0029779999999999,-0.115003,-0.4258235,-0.014128,0.115017,-0.4554935,0.025182,-0.114493,-0.7947835,-0.0262589999999999,0.1201769999999999,-0.8002135,-0.00304,0
49,-0.0071579999999999,0.7243925,0.0624005,-0.160856,0.5082125,0.0565315,-0.251016,0.7202825,0.0229735,0.142234,0.4828625,0.0647125,0.240134,0.7379225,0.0577155,-0.273426,0.9729525,-0.0253785,0.268164,0.9739525,0.0258025,-0.0721779999999999,-0.0005115,-0.0029234999999999,0.0721779999999999,0.0005114999999999,0.0029234999999999,-0.115116,-0.4258175,-0.0139805,0.114774,-0.4557175,0.0253075,-0.114836,-0.7945375,-0.0259405,0.119934,-0.7997875,-0.0029125,0
50,-0.0074469999999999,0.724814,0.0622695,-0.16114,0.508374,0.0565825,-0.25142,0.720254,0.0232765,0.14213,0.4826439999999999,0.0646645,0.24025,0.737624,0.0580055,-0.2742099999999999,0.973474,-0.0242515,0.26876,0.973674,0.0260745,-0.072215,-0.0004429999999999,-0.0028824999999999,0.072215,0.0004429999999999,0.0028824999999999,-0.1152499999999999,-0.425776,-0.0139545,0.11456,-0.4560659999999999,0.0252945,-0.11517,-0.794046,-0.0256575,0.11976,-0.7996260000000001,-0.0028945,0
51,-0.0077684999999999,0.725243,0.062121,-0.1614264999999999,0.508463,0.056588,-0.2517965,0.720243,0.023514,0.1420135,0.4824229999999999,0.064623,0.2403635,0.737323,0.058221,-0.2750265,0.973933,-0.023308,0.2692835,0.973433,0.026238,-0.0722425,-0.000396,-0.002887,0.0722425,0.000396,0.002887,-0.1153765,-0.426057,-0.013976,0.1144035,-0.456277,0.025134,-0.1155165,-0.7940470000000001,-0.025615,0.1195935,-0.799517,-0.0029269999999999,0
52,-0.0081139999999999,0.7256465,0.0620655,-0.1617219999999999,0.5085065,0.0566085,-0.252312,0.7205165,0.0237365,0.1418579999999999,0.4822065,0.0645975,0.240368,0.7370465,0.0584155,-0.275812,0.9743065,-0.0225194999999999,0.269728,0.9734065,0.0263435,-0.072264,-0.0003525,-0.0028905,0.072264,0.0003524999999999,0.0028905,-0.115462,-0.4263535,-0.0140824999999999,0.114318,-0.4564535,0.0247585,-0.115852,-0.7940834999999999,-0.0257574999999999,0.119368,-0.7995335,-0.0029934999999999,0
53,-0.0084855,0.7257565,0.061961,-0.1621135,0.5085165,0.056594,-0.2529135,0.7205165,0.023929,0.1414865,0.4822065,0.064493,0.2403465,0.7370465,0.0586,-0.2766435,0.9743065,-0.021814,0.2701265,0.9734065,0.026385,-0.0723215,-0.0003525,-0.002855,0.0723215,0.0003524999999999,0.002855,-0.1154135,-0.4267435,-0.014403,0.1143464999999999,-0.4564835,0.024083,-0.1162435,-0.7942035,-0.025963,0.1191764999999999,-0.7995835,-0.0031799999999999,0
54,-0.008856,0.7258065,0.061706,-0.162403,0.5085265,0.056442,-0.254133,0.7218665,0.0238969999999999,0.141177,0.4822065,0.064235,0.240317,0.7370465,0.058762,-0.277433,0.9743065,-0.0212569999999999,0.270487,0.9734065,0.026313,-0.072399,-0.0003525,-0.002724,0.072399,0.0003524999999999,0.002724,-0.115273,-0.4269635,-0.0149849999999999,0.114517,-0.4564835,0.023062,-0.116583,-0.7942835,-0.026823,0.119057,-0.7998435,-0.0035969999999999,0
55,-0.009317,0.7258265,0.0611204999999999,-0.16264,0.5085265,0.0560325,-0.2551299999999999,0.7229865,0.0238415,0.1408999999999999,0.4822065,0.0636915,0.2402699999999999,0.7370465,0.0587245,-0.2782,0.9745065,-0.0210525,0.27094,0.9734065,0.0260675,-0.072503,-0.0003525,-0.0025424999999999,0.072503,0.0003524999999999,0.0025424999999999,-0.11501,-0.4271835,-0.0160015,0.1148899999999999,-0.4565135,0.0214585,-0.11681,-0.7942235,-0.0281735,0.11898,-0.8000935,-0.0044655,1
56,-0.010038,0.725768,0.0601339999999999,-0.1628939999999999,0.508428,0.055201,-0.256114,0.723948,0.023289,0.140496,0.483098,0.063266,0.240416,0.737618,0.058238,-0.279064,0.974738,-0.021685,0.271236,0.973438,0.0253609999999999,-0.0725939999999999,-0.000264,-0.002266,0.0725939999999999,0.000264,0.0022659999999999,-0.114794,-0.427552,-0.017621,0.1154159999999999,-0.456832,0.019289,-0.1170239999999999,-0.794242,-0.030063,0.1189359999999999,-0.800492,-0.00586,1
57,-0.010672,0.7259059999999999,0.0588999999999999,-0.163023,0.508486,0.054233,-0.257303,0.7262759999999999,0.022458,0.1401669999999999,0.484576,0.062808,0.240477,0.737466,0.05737,-0.279593,0.975046,-0.022638,0.271627,0.974246,0.0244619999999999,-0.072746,-0.0002059999999999,-0.0020039999999999,0.072746,0.0002059999999999,0.002004,-0.1145829999999999,-0.4274739999999999,-0.0196159999999999,0.116117,-0.456424,0.016724,-0.117273,-0.793814,-0.032527,0.119027,-0.800204,-0.007595,1
58,-0.0111919999999999,0.7260605,0.057548,-0.162925,0.5085805,0.053095,-0.2585349999999999,0.7294805,0.02118,0.140205,0.4851904999999999,0.062109,0.240715,0.7373805,0.056275,-0.2798049999999999,0.9755005,-0.0240749999999999,0.272205,0.9753005,0.023239,-0.072883,-0.0001615,-0.0016819999999999,0.072883,0.0001614999999999,0.001682,-0.114375,-0.4276095,-0.02218,0.116935,-0.4559695,0.013601,-0.117135,-0.7932495,-0.0353669999999999,0.119345,-0.7999095,-0.0098369999999999,1
59,-0.011708,0.726135,0.055788,-0.162794,0.508635,0.051667,-0.259234,0.729135,0.019476,0.140146,0.485185,0.0611609999999999,0.241006,0.737335,0.054818,-0.279844,0.975675,-0.026018,0.272766,0.975875,0.02156,-0.072994,-0.0001279999999999,-0.0014839999999999,0.072994,0.000128,0.0014839999999999,-0.114094,-0.4282249999999999,-0.025466,0.1178559999999999,-0.455615,0.009859,-0.1166939999999999,-0.792765,-0.03786,0.119786,-0.799845,-0.0128379999999999,1
60,-0.0119504999999999,0.7260835,0.0532415,-0.1624064999999999,0.5086134999999999,0.0494875,-0.2595965,0.7290935,0.0166935,0.1403035,0.4852035,0.0594785,0.2416035,0.7366134999999999,0.0529655,-0.2794764999999999,0.9757235,-0.0292735,0.2736735,0.9767235,0.0187085,-0.0731084999999999,-0.0001115,-0.0013105,0.0731084999999999,0.0001115,0.0013105,-0.1134665,-0.4280965,-0.0304555,0.1190435,-0.4552965,0.0045045,-0.1164264999999999,-0.7918865,-0.0423895,0.1203235,-0.7997965,-0.0172225,1
61,-0.0120354999999999,0.7256724999999999,0.05034,-0.1618784999999999,0.5088524999999999,0.046691,-0.2594085,0.7294025,0.013346,0.1405015,0.4855625,0.057326,0.2423315,0.7354825,0.050436,-0.2789785,0.9761025,-0.033229,0.2747715,0.9771025,0.015217,-0.0732135,-0.0001145,-0.001227,0.0732135,0.0001144999999999,0.0012269999999999,-0.1127285,-0.4275875,-0.036816,0.1205115,-0.4538675,-0.002502,-0.1160085,-0.7905975000000001,-0.0477029999999999,0.1209815,-0.7993675,-0.022201,1
62,-0.011975,0.7245945,0.0469645,-0.161266,0.5084045,0.0439825,-0.258996,0.7298745000000001,0.0094005,0.1407439999999999,0.4864445,0.0550615,0.243274,0.7348745000000001,0.0471725,-0.278266,0.9769545,-0.0379305,0.276294,0.9780545,0.0110415,-0.073285,-0.0002655,-0.0010625,0.073285,0.0002655,0.0010625,-0.111986,-0.4266355,-0.0446495,0.122154,-0.4512255,-0.0108635,-0.115296,-0.7884255,-0.0534245,0.121794,-0.7981855,-0.0277835,1
63,-0.0117905,0.723584,0.043575,-0.1605245,0.507784,0.041267,-0.2585145,0.730484,0.005373,0.1410354999999999,0.4874539999999999,0.05264,0.2442855,0.734144,0.043769,-0.2775245,0.977654,-0.042711,0.2780755,0.979154,0.006691,-0.0733245,-0.00043,-0.000961,0.0733245,0.0004299999999999,0.000961,-0.1116245,-0.425116,-0.053297,0.1237055,-0.447666,-0.019633,-0.1148445,-0.786176,-0.059569,0.1224855,-0.796566,-0.033489,1
64,-0.0114739999999999,0.7222005,0.040188,-0.159697,0.5072205000000001,0.038563,-0.2574269999999999,0.7276405,0.001238,0.141373,0.4880305,0.050341,0.245423,0.7335705,0.040344,-0.276767,0.9785705,-0.047636,0.279923,0.9801705,0.002154,-0.0733409999999999,-0.0005775,-0.0009519999999999,0.0733409999999999,0.0005775,0.000952,-0.111367,-0.4235994999999999,-0.062244,0.125143,-0.4441495,-0.0285659999999999,-0.114047,-0.7841595,-0.0650989999999999,0.123173,-0.7947394999999999,-0.039149,1
65,-0.0109835,0.7210230000000001,0.036862,-0.1587925,0.506243,0.0358459999999999,-0.2572125,0.727673,-0.002997,0.1415175,0.4885829999999999,0.0474539999999999,0.2463874999999999,0.733583,0.036834,-0.2760225,0.980293,-0.052471,0.2816875,0.981993,-0.002397,-0.0733785,-0.000616,-0.001047,0.0733785,0.0006159999999999,0.0010469999999999,-0.1113525,-0.421517,-0.071683,0.1265974999999999,-0.440137,-0.037902,-0.1132425,-0.7824169999999999,-0.070385,0.1237875,-0.792047,-0.044725,1
66,-0.0105105,0.7194745,0.0333879999999999,-0.1578635,0.5051045000000001,0.0327429999999999,-0.2570635,0.7275145000000001,-0.007681,0.1417665,0.4898345,0.044292,0.2473365,0.7332145000000001,0.033158,-0.2754735,0.9790345,-0.057486,0.2834164999999999,0.9844345,-0.007219,-0.0734055,-0.0006274999999999,-0.001171,0.0734055,0.0006275,0.0011709999999999,-0.1114635,-0.4185555,-0.0818,0.1281565,-0.4357555,-0.047952,-0.1124235,-0.7786955,-0.0758969999999999,0.1243965,-0.7884555,-0.050416,1
67,-0.0099405,0.7179329999999999,0.0295375,-0.1570845,0.503873,0.0295044999999999,-0.2565345,0.725963,-0.0124495,0.1421555,0.4908629999999999,0.0409055,0.2483855,0.732393,0.0291745,-0.2748045,0.978493,-0.0626625,0.2851054999999999,0.986893,-0.0121465,-0.0734475,-0.0007139999999999,-0.0012325,0.0734475,0.0007139999999999,0.0012324999999999,-0.1116244999999999,-0.414017,-0.0928065,0.1299055,-0.430127,-0.0589575,-0.1115444999999999,-0.773657,-0.0814505,0.1250955,-0.7835570000000001,-0.0561725,1
68,-0.0093285,0.7165975,0.0259855,-0.1562405,0.5022074999999999,0.0263885,-0.2556805,0.7246975,-0.0170294999999999,0.1428595,0.4900975,0.0375605,0.2495794999999999,0.7312974999999999,0.0251395,-0.2738905,0.9787175,-0.0677625,0.2868895,0.9898175,-0.0168894999999999,-0.0735025,-0.0008525,-0.0012584999999999,0.0735025,0.0008524999999999,0.0012584999999999,-0.1116705,-0.4085125,-0.1038755,0.1315795,-0.4232424999999999,-0.0699915,-0.1106505,-0.7671125000000001,-0.0868935,0.1256095,-0.7774225,-0.0615055,1
69,-0.0087444999999999,0.7148905,0.023148,-0.1553795,0.5005005,0.023862,-0.2552195,0.7234705,-0.0210279999999999,0.1434105,0.4886505,0.035028,0.2504905,0.7316205,0.0212149999999999,-0.2730595,0.9790605,-0.072256,0.2879505,0.9919605,-0.0207919999999999,-0.0735035,-0.0009305,-0.0012959999999999,0.0735035,0.0009305,0.0012959999999999,-0.1117995,-0.4017295,-0.113756,0.1333605,-0.4151695,-0.080006,-0.1101095,-0.7604995,-0.0913809999999999,0.1264905,-0.7708495000000001,-0.065811,1
70,-0.0081474999999999,0.7134735,0.0204905,-0.1545685,0.4985035,0.0217875,-0.2551685,0.7217135,-0.0247934999999999,0.1438915,0.4878034999999999,0.0329515,0.2513615,0.7318935,0.0177365,-0.2722584999999999,0.9795735,-0.0765214999999999,0.2890115,0.9933735,-0.0243664999999999,-0.0735185,-0.0010085,-0.0012404999999999,0.0735185,0.0010084999999999,0.0012405,-0.1117585,-0.3960565,-0.1228375,0.1345515,-0.4087565,-0.0888085,-0.1090985,-0.7537665,-0.0954355,0.1268115,-0.7637965,-0.0697555,1
71,-0.0077584999999999,0.712273,0.018313,-0.1538304999999999,0.497173,0.019705,-0.2553505,0.722073,-0.0279609999999999,0.1441695,0.487043,0.031199,0.2520695,0.731573,0.014933,-0.2717005,0.978623,-0.0807199999999999,0.2896995,0.994193,-0.0275049999999999,-0.0735085,-0.000958,-0.0013019999999999,0.0735085,0.000958,0.001302,-0.1118505,-0.389807,-0.130606,0.1355095,-0.402237,-0.096504,-0.1082005,-0.747227,-0.098745,0.1266695,-0.756877,-0.073135,1
72,-0.00714,0.712939,0.0144715,-0.152791,0.496999,0.0156715,-0.253851,0.725159,-0.0318365,0.144619,0.488339,0.0283604999999999,0.252809,0.732349,0.0103395,-0.271771,0.977719,-0.0870165,0.290659,0.994269,-0.0334364999999999,-0.073472,-0.001018,-0.0015294999999999,0.073472,0.001018,0.0015295,-0.111301,-0.378061,-0.1410285,0.137209,-0.390581,-0.1070005,-0.107441,-0.737211,-0.1034525,0.127359,-0.746861,-0.0776815,1
73,-0.006587,0.713248,0.0104324999999999,-0.15182,0.496898,0.0119044999999999,-0.25328,0.726598,-0.0360145,0.14481,0.490068,0.0253585,0.25356,0.732948,0.0058094999999999,-0.27205,0.975988,-0.0933404999999999,0.29153,0.993958,-0.0394485,-0.073473,-0.0010539999999999,-0.0018314999999999,0.073473,0.001054,0.0018314999999999,-0.11075,-0.366362,-0.1510065,0.13891,-0.379052,-0.1171095,-0.10691,-0.727072,-0.1083605,0.1278399999999999,-0.736882,-0.0822435,1
74,-0.0060085,0.71268,0.0063365,-0.1507585,0.49735,0.0081475,-0.2536485,0.72573,-0.0408315,0.1450115,0.49178,0.0223005,0.2542915,0.7328600000000001,0.0011274999999999,-0.2724785,0.97305,-0.0998894999999999,0.2923915,0.9925,-0.0455675,-0.0734895,-0.0011999999999999,-0.0022324999999999,0.0734895,0.0011999999999999,0.0022324999999999,-0.1099885,-0.35713,-0.1623095,0.1404814999999999,-0.3702499999999999,-0.1288425,-0.1063585,-0.7177899999999999,-0.1140445,0.1284015,-0.72765,-0.0871625,1
75,-0.0056935,0.71335,0.0025459999999999,-0.1498265,0.49611,0.0045439999999999,-0.2543365,0.72584,-0.04536,0.1445634999999999,0.49092,0.0189239999999999,0.2548435,0.73304,-0.0034339999999999,-0.2732365,0.97494,-0.106138,0.2927935,0.99242,-0.052085,-0.0735224999999999,-0.001646,-0.0025629999999999,0.0735224999999999,0.0016459999999999,0.002563,-0.1099465,-0.3453299999999999,-0.173372,0.1424035,-0.35699,-0.140363,-0.1056265,-0.70601,-0.119282,0.1292635,-0.71594,-0.09312,1
76,-0.005552,0.713288,-0.0010474999999999,-0.149204,0.495738,0.0012174999999999,-0.255134,0.725868,-0.0501435,0.144016,0.4908679999999999,0.0157345,0.2553459999999999,0.733848,-0.0082544999999999,-0.274204,0.976408,-0.1127825,0.293046,0.991108,-0.0588475,-0.073515,-0.001875,-0.0032755,0.073515,0.001875,0.0032755,-0.1089639999999999,-0.337242,-0.1839195,0.143566,-0.347102,-0.1511805,-0.105084,-0.694432,-0.1243395,0.129496,-0.704682,-0.0974355,1
77,-0.0054059999999999,0.7129245,-0.0055294999999999,-0.1484829999999999,0.4952145,-0.0031724999999999,-0.255773,0.7256445,-0.0558665,0.143557,0.4916745,0.0111525,0.255667,0.7344745,-0.0139664999999999,-0.275153,0.9767745,-0.1203944999999999,0.293097,0.9896245,-0.0665385,-0.073662,-0.0020804999999999,-0.0034174999999999,0.073662,0.0020805,0.0034175,-0.108803,-0.3267455,-0.1965135,0.145427,-0.3351455,-0.1639495,-0.104623,-0.6837155,-0.1303555,0.130197,-0.6943255,-0.1041314999999999,1
78,-0.00519,0.713911,-0.0107399999999999,-0.147666,0.494911,-0.0080939999999999,-0.256256,0.726281,-0.062521,0.142984,0.4926509999999999,0.0060079999999999,0.256044,0.735221,-0.0205209999999999,-0.275736,0.978621,-0.1285659999999999,0.293304,0.988861,-0.075275,-0.073865,-0.002517,-0.003525,0.073865,0.0025169999999999,0.003525,-0.108536,-0.314579,-0.209449,0.147504,-0.321469,-0.177429,-0.103856,-0.671689,-0.1362209999999999,0.130834,-0.682509,-0.111203,1
79,-0.0049924999999999,0.713344,-0.016045,-0.1467455,0.493994,-0.01338,-0.2562255,0.725374,-0.069363,0.1423845,0.493824,0.000835,0.2561945,0.733284,-0.027291,-0.2762955,0.977974,-0.137311,0.2934445,0.984354,-0.084224,-0.0740355,-0.002739,-0.003818,0.0740355,0.0027389999999999,0.003818,-0.1081155,-0.302696,-0.22354,0.1498045,-0.308256,-0.192,-0.1035555,-0.6597660000000001,-0.14218,0.1312645,-0.6718459999999999,-0.118008,1
80,-0.0047495,0.71499,-0.0227279999999999,-0.1458545,0.49346,-0.0199249999999999,-0.2561445,0.7265400000000001,-0.0771429999999999,0.1420155,0.49393,-0.0054839999999999,0.2563555,0.7337100000000001,-0.0351839999999999,-0.2768445,0.9747,-0.147229,0.2936155,0.98201,-0.0947739999999999,-0.0742875,-0.0029719999999999,-0.0043059999999999,0.0742875,0.002972,0.004306,-0.1077645,-0.28857,-0.238394,0.1521655,-0.29316,-0.2070239999999999,-0.1034245,-0.64586,-0.1487939999999999,0.1317955,-0.65928,-0.1257869999999999,1
81,-0.0046099999999999,0.7141084999999999,-0.0283925,-0.145267,0.4919685,-0.0253285,-0.256297,0.7249085,-0.0833525,0.141513,0.4920685,-0.0107915,0.256343,0.7324385,-0.0417785,-0.276967,0.9719685,-0.1549785,0.293713,0.9805185,-0.1026525,-0.0745919999999999,-0.0031215,-0.0045795,0.0745919999999999,0.0031214999999999,0.0045795,-0.107777,-0.2776815,-0.2498155,0.1540929999999999,-0.2810515,-0.2188155,-0.103607,-0.6351515,-0.1541645,0.131703,-0.6488715,-0.1304585,1
82,-0.0045445,0.7138,-0.0341805,-0.1447885,0.49017,-0.0308535,-0.2566385,0.72193,-0.0896035,0.1410915,0.48994,-0.0162625,0.2564115,0.73114,-0.0484455,-0.2771985,0.97067,-0.1627035,0.2937115,0.9802,-0.1107365,-0.0749265,-0.0033399999999999,-0.0047325,0.0749265,0.0033399999999999,0.0047324999999999,-0.1079084999999999,-0.26626,-0.2613575,0.1559815,-0.26842,-0.2307675,-0.1037885,-0.6237900000000001,-0.1594565,0.1315915,-0.63753,-0.1350805,1
83,-0.0043734999999999,0.714225,-0.0398265,-0.1442025,0.4881049999999999,-0.0362685,-0.2566724999999999,0.7221350000000001,-0.0957865,0.1408675,0.4881149999999999,-0.0217085,0.2567075,0.730475,-0.0549465,-0.2771625,0.970685,-0.1700345,0.2939575,0.980285,-0.1187805,-0.0751985,-0.0034549999999999,-0.0048115,0.0751985,0.0034549999999999,0.0048114999999999,-0.1082325,-0.254375,-0.2710464999999999,0.1577275,-0.255205,-0.2407065,-0.1039525,-0.611765,-0.1639175,0.1314374999999999,-0.6249049999999999,-0.1395395,1
84,-0.0042125,0.71343,-0.0452775,-0.1437005,0.48798,-0.0414915,-0.2564405,0.72227,-0.1019235,0.1410095,0.4881,-0.0273604999999999,0.2570595,0.7298,-0.0614455,-0.2768705,0.96932,-0.1776355,0.2942594999999999,0.97816,-0.1266644999999999,-0.0754835,-0.0032899999999999,-0.0049334999999999,0.0754835,0.00329,0.0049335,-0.1077405,-0.2469799999999999,-0.2803465,0.1589195,-0.24786,-0.2502065,-0.1038905,-0.6027199999999999,-0.1677825,0.1304895,-0.61592,-0.1421695,1
85,-0.0040299999999999,0.713395,-0.0504155,-0.143128,0.486775,-0.0464245,-0.2562879999999999,0.722905,-0.1074745,0.141212,0.487375,-0.0327125,0.257422,0.728955,-0.0675844999999999,-0.276398,0.968115,-0.1845804999999999,0.294682,0.977545,-0.1343265,-0.075746,-0.0032449999999999,-0.0047564999999999,0.075746,0.0032449999999999,0.0047564999999999,-0.108178,-0.236545,-0.2891235,0.1605919999999999,-0.2377449999999999,-0.2593135,-0.103958,-0.593795,-0.1722685,0.130252,-0.606665,-0.1461285,1
86,-0.0035689999999999,0.71343,-0.054879,-0.1424619999999999,0.48646,-0.050462,-0.256072,0.72377,-0.112462,0.141578,0.48629,-0.037354,0.257968,0.72743,-0.073357,-0.275622,0.96827,-0.190831,0.295618,0.97705,-0.141674,-0.075823,-0.0031599999999999,-0.005095,0.075823,0.0031599999999999,0.005095,-0.107772,-0.22611,-0.295875,0.162028,-0.2273099999999999,-0.266655,-0.103692,-0.58336,-0.1756599999999999,0.130308,-0.5956600000000001,-0.149479,1
87,-0.003136,0.712175,-0.0585869999999999,-0.142357,0.485965,-0.0536399999999999,-0.255817,0.723875,-0.116713,0.141873,0.485185,-0.040948,0.258563,0.725665,-0.078303,-0.274877,0.967105,-0.196371,0.296493,0.975775,-0.147996,-0.075861,-0.0028749999999999,-0.0054799999999999,0.075861,0.0028749999999999,0.0054799999999999,-0.107397,-0.220065,-0.30206,0.1630629999999999,-0.221115,-0.27297,-0.103447,-0.574255,-0.1781229999999999,0.129543,-0.585745,-0.1503519999999999,1
88,-0.00269,0.7121350000000001,-0.0621209999999999,-0.141975,0.486355,-0.056706,-0.255495,0.725955,-0.120805,0.1420449999999999,0.483975,-0.04436,0.258895,0.727035,-0.083149,-0.274105,0.967815,-0.201307,0.2973949999999999,0.978695,-0.15403,-0.07593,-0.002785,-0.005705,0.07593,0.002785,0.005705,-0.107305,-0.213855,-0.306595,0.163995,-0.214655,-0.277865,-0.103355,-0.564925,-0.180589,0.128855,-0.575635,-0.151112,1
89,-0.0023845,0.7099899999999999,-0.06464,-0.1417225,0.48638,-0.058932,-0.2550325,0.72594,-0.124341,0.1417975,0.48248,-0.046543,0.2590875,0.7255499999999999,-0.087117,-0.2737425,0.97355,-0.2052189999999999,0.2979175,0.97801,-0.158516,-0.0760065,-0.0025199999999999,-0.0058499999999999,0.0760065,0.0025199999999999,0.00585,-0.1074525,-0.2031899999999999,-0.31129,0.1654675,-0.20399,-0.28298,-0.1033325,-0.5545,-0.182072,0.1282375,-0.56453,-0.152257,1
90,-0.0022669999999999,0.7083149999999999,-0.066992,-0.1416569999999999,0.486255,-0.061155,-0.254887,0.725795,-0.128147,0.1417729999999999,0.480345,-0.048734,0.259363,0.7243649999999999,-0.090788,-0.273437,0.978805,-0.209151,0.298473,0.977645,-0.162781,-0.076113,-0.002255,-0.0059649999999999,0.076113,0.002255,0.0059649999999999,-0.106877,-0.195895,-0.316215,0.166493,-0.1965849999999999,-0.288265,-0.103327,-0.5435650000000001,-0.183451,0.127583,-0.5522750000000001,-0.152228,1
91,-0.0019344999999999,0.7068,-0.069363,-0.1413045,0.48511,-0.063475,-0.2543344999999999,0.7271000000000001,-0.132097,0.1417854999999999,0.47882,-0.050888,0.2596755,0.72351,-0.094451,-0.2729344999999999,0.9812,-0.213526,0.2990155,0.97971,-0.16692,-0.0760955,-0.00206,-0.006165,0.0760955,0.00206,0.006165,-0.1067745,-0.18321,-0.321575,0.1678655,-0.1838999999999999,-0.293575,-0.1032344999999999,-0.5312899999999999,-0.184696,0.1272655,-0.54036,-0.153948,1
92,-0.0018119999999999,0.7048099999999999,-0.0718399999999999,-0.141013,0.48452,-0.065748,-0.2538129999999999,0.7280800000000001,-0.136021,0.142097,0.47766,-0.0532199999999999,0.260117,0.72261,-0.0984729999999999,-0.271993,0.98237,-0.21892,0.299767,0.97868,-0.171185,-0.076098,-0.0019999999999999,-0.0062399999999999,0.076098,0.002,0.00624,-0.1064629999999999,-0.17369,-0.32702,0.169287,-0.17411,-0.29904,-0.103183,-0.5182499999999999,-0.186021,0.126867,-0.52644,-0.154449,1
93,-0.0017624999999999,0.703055,-0.074719,-0.1407225,0.483975,-0.068244,-0.2531825,0.7283550000000001,-0.140695,0.1424275,0.476515,-0.055859,0.2604875,0.7218450000000001,-0.102753,-0.2708825,0.983695,-0.224855,0.3004274999999999,0.977975,-0.175499,-0.0760415,-0.0019249999999999,-0.0063649999999999,0.0760415,0.001925,0.0063649999999999,-0.1059624999999999,-0.1631349999999999,-0.332705,0.1707575,-0.163265,-0.304635,-0.1030924999999999,-0.503665,-0.1878429999999999,0.1269575,-0.511315,-0.155682,1
94,-0.0016965,0.70101,-0.0775609999999999,-0.1403055,0.48342,-0.07109,-0.2524555,0.72773,-0.145855,0.1424645,0.47524,-0.058641,0.2609045,0.72081,-0.10685,-0.2697055,0.98391,-0.230485,0.3009545,0.97631,-0.179397,-0.0761465,-0.0018499999999999,-0.0065349999999999,0.0761465,0.00185,0.006535,-0.1051855,-0.1512199999999999,-0.338615,0.1721744999999999,-0.15126,-0.310335,-0.1028355,-0.4881099999999999,-0.190161,0.1270745,-0.4939899999999999,-0.15687,1
95,-0.0016669999999999,0.698805,-0.080119,-0.139995,0.483095,-0.073774,-0.2518149999999999,0.727105,-0.150448,0.1423249999999999,0.474595,-0.061079,0.261005,0.7202850000000001,-0.110268,-0.268565,0.983105,-0.235575,0.301235,0.973795,-0.182509,-0.07629,-0.0018449999999999,-0.0067149999999999,0.07629,0.0018449999999999,0.0067149999999999,-0.104255,-0.140325,-0.343765,0.173375,-0.140365,-0.315185,-0.102375,-0.474005,-0.1923969999999999,0.127325,-0.477995,-0.157872,1
96,-0.001545,0.6967300000000001,-0.08281,-0.139576,0.48238,-0.076692,-0.251156,0.72628,-0.154975,0.141934,0.47278,-0.063943,0.260754,0.71916,-0.113697,-0.267316,0.98298,-0.240555,0.301444,0.9721,-0.185578,-0.076531,-0.00178,-0.006855,0.076531,0.00178,0.006855,-0.103036,-0.1286899999999999,-0.348875,0.174694,-0.12873,-0.320075,-0.101616,-0.45929,-0.194591,0.127904,-0.4635,-0.160717,1
97,-0.0014909999999999,0.69521,-0.085737,-0.13907,0.47933,-0.080152,-0.25041,0.72263,-0.159546,0.14141,0.4713,-0.067256,0.25991,0.71638,-0.117247,-0.26611,0.97713,-0.24605,0.3014,0.96994,-0.188724,-0.076746,-0.00197,-0.00704,0.076746,0.0019699999999999,0.00704,-0.10161,-0.11513,-0.35428,0.17604,-0.11553,-0.32505,-0.10072,-0.44299,-0.197062,0.12848,-0.44752,-0.164082,1
98,-0.0016014999999999,0.6936,-0.0886349999999999,-0.1386194999999999,0.47669,-0.0833219999999999,-0.2493494999999999,0.71943,-0.163321,0.1407405,0.47074,-0.0703419999999999,0.2588505,0.71469,-0.1205479999999999,-0.2650395,0.97078,-0.25065,0.3010704999999999,0.96896,-0.191458,-0.0770095,-0.00229,-0.0071099999999999,0.0770095,0.00229,0.00711,-0.1004394999999999,-0.10331,-0.3587399999999999,0.1769905,-0.10448,-0.32881,-0.0999895,-0.4296,-0.1995849999999999,0.1289805,-0.43453,-0.167462,1
99,-0.0017215,0.69158,-0.0913559999999999,-0.1381255,0.47444,-0.086363,-0.2483555,0.7171000000000001,-0.166985,0.1402645,0.47051,-0.073353,0.2578445,0.71334,-0.123628,-0.2640155,0.96549,-0.25485,0.3006145,0.96818,-0.194221,-0.0773855,-0.0025,-0.0072399999999999,0.0773855,0.0025,0.0072399999999999,-0.0994155,-0.09111,-0.36263,0.1777145,-0.0930099999999999,-0.33232,-0.0992855,-0.4165,-0.201532,0.1296844999999999,-0.41822,-0.169308,1
100,-0.0016794999999999,0.6894750000000001,-0.093868,-0.1374605,0.473255,-0.089264,-0.2473705,0.7160850000000001,-0.170241,0.1401795,0.469845,-0.076354,0.2570395,0.7117150000000001,-0.126619,-0.2630905,0.963035,-0.2585699999999999,0.3000295,0.966835,-0.196874,-0.0778295,-0.0026649999999999,-0.0072699999999999,0.0778295,0.002665,0.0072699999999999,-0.0982405,-0.0796549999999999,-0.36599,0.1782795,-0.0821949999999999,-0.33549,-0.0985504999999999,-0.405045,-0.203317,0.1289695,-0.4072549999999999,-0.172856,1
101,-0.0016494999999999,0.68767,-0.096064,-0.1369925,0.47198,-0.092137,-0.2470225,0.71219,-0.173264,0.1401175,0.46856,-0.0791,0.2561975,0.70875,-0.128981,-0.2625925,0.96053,-0.261325,0.2990974999999999,0.96512,-0.199001,-0.0783255,-0.0027699999999999,-0.007435,0.0783255,0.0027699999999999,0.0074349999999999,-0.0970125,-0.0687499999999999,-0.368665,0.1783075,-0.07194,-0.338075,-0.0979725,-0.3944499999999999,-0.204828,0.1274275,-0.39837,-0.176665,1
102,-0.0016229999999999,0.684985,-0.0978199999999999,-0.136441,0.468592,-0.0952709999999999,-0.2468909999999999,0.709615,-0.1754249999999999,0.140219,0.46649,-0.0816779999999999,0.2559889999999999,0.705245,-0.1307159999999999,-0.262381,0.958845,-0.263235,0.298569,0.962845,-0.200509,-0.078901,-0.002975,-0.0076149999999999,0.078901,0.002975,0.007615,-0.0958909999999999,-0.055885,-0.370795,0.178239,-0.0600649999999999,-0.340205,-0.0970009999999999,-0.382525,-0.206609,0.125459,-0.387865,-0.181271,1
103,-0.00165,0.682665,-0.099504,-0.1359969999999999,0.4661019999999999,-0.097994,-0.246157,0.707635,-0.176508,0.140463,0.4651119999999999,-0.084076,0.2559929999999999,0.702315,-0.132246,-0.261837,0.958345,-0.26492,0.298143,0.962285,-0.202044,-0.079357,-0.003155,-0.00778,0.079357,0.0031549999999999,0.0077799999999999,-0.094997,-0.043925,-0.37202,0.1780129999999999,-0.048105,-0.34177,-0.096107,-0.371595,-0.20765,0.1220629999999999,-0.381335,-0.185683,1
104,-0.0016074999999999,0.680685,-0.101081,-0.1355095,0.463395,-0.100738,-0.2461195,0.7054050000000001,-0.178405,0.1408005,0.463164,-0.086462,0.2564305,0.699425,-0.133899,-0.2616295,0.957815,-0.26661,0.2981305,0.960865,-0.2039,-0.0797595,-0.0033149999999999,-0.00794,0.0797595,0.003315,0.00794,-0.0940994999999999,-0.0318149999999999,-0.37307,0.1777505,-0.0359949999999999,-0.34328,-0.0954294999999999,-0.360205,-0.20902,0.1186755,-0.372935,-0.189066,1
105,-0.001846,0.6783699999999999,-0.102377,-0.1354159999999999,0.460572,-0.103018,-0.246046,0.70197,-0.180309,0.141154,0.4621019999999999,-0.088156,0.256804,0.69819,-0.135747,-0.261706,0.95437,-0.267965,0.298144,0.95851,-0.205647,-0.0799759999999999,-0.00363,-0.0081149999999999,0.0799759999999999,0.0036299999999999,0.008115,-0.093466,-0.02008,-0.373965,0.176904,-0.02426,-0.344595,-0.0951259999999999,-0.34928,-0.2100699999999999,0.1198539999999999,-0.36417,-0.195868,1
106,-0.0021895,0.6759999999999999,-0.103531,-0.1356435,0.4601989999999999,-0.104687,-0.2469635,0.70147,-0.180932,0.1412064999999999,0.460485,-0.089334,0.2570165,0.6984699999999999,-0.137894,-0.2623534999999999,0.9574,-0.26897,0.2983165,0.95691,-0.207518,-0.0802735,-0.00363,-0.00818,0.0802735,0.0036299999999999,0.0081799999999999,-0.0931034999999999,-0.00907,-0.37444,0.1758465,-0.01399,-0.34552,-0.0947935,-0.33963,-0.210818,0.1207605,-0.35648,-0.202154,1
107,-0.002518,0.673945,-0.104558,-0.13593,0.459124,-0.106102,-0.2476399999999999,0.699875,-0.181269,0.1412,0.459349,-0.090394,0.25709,0.698205,-0.13945,-0.26314,0.958975,-0.26952,0.29839,0.955135,-0.209061,-0.08054,-0.0036749999999999,-0.00814,0.08054,0.0036749999999999,0.00814,-0.0928,0.001475,-0.37482,0.17476,-0.0041249999999999,-0.34633,-0.09459,-0.330535,-0.211546,0.117739,-0.350095,-0.203064,1
108,-0.0030579999999999,0.672385,-0.105427,-0.136385,0.457956,-0.107141,-0.248765,0.693875,-0.181278,0.141075,0.458383,-0.091158,0.257085,0.698245,-0.139887,-0.264245,0.955655,-0.270065,0.298065,0.953535,-0.209422,-0.080905,-0.003915,-0.008195,0.080905,0.003915,0.008195,-0.092725,0.0121549999999999,-0.375135,0.173455,0.005765,-0.346875,-0.094725,-0.321295,-0.212286,0.11585,-0.343765,-0.207876,1
109,-0.003679,0.67047,-0.10591,-0.137041,0.456969,-0.107773,-0.250141,0.6879500000000001,-0.181732,0.140979,0.457611,-0.091524,0.257569,0.6983,-0.140219,-0.265721,0.95157,-0.270085,0.2978389999999999,0.95206,-0.209764,-0.081271,-0.0040899999999999,-0.008285,0.081271,0.0040899999999999,0.0082849999999999,-0.092921,0.0226,-0.375065,0.1722089999999999,0.0157499999999999,-0.347225,-0.094961,-0.31226,-0.21278,0.11329,-0.33705,-0.210163,1
110,-0.0042619999999999,0.6688700000000001,-0.1061599999999999,-0.137827,0.45553,-0.107999,-0.251247,0.68501,-0.181773,0.140973,0.45684,-0.091581,0.258153,0.6993100000000001,-0.140376,-0.268127,0.94222,-0.27014,0.297703,0.95146,-0.209845,-0.081647,-0.0042499999999999,-0.0083199999999999,0.081647,0.00425,0.0083199999999999,-0.093207,0.03303,-0.37444,0.171073,0.02603,-0.34747,-0.095187,-0.3035099999999999,-0.2131219999999999,0.112452,-0.3296,-0.2143709999999999,1
111,-0.0046545,0.668275,-0.106236,-0.1384635,0.456127,-0.108115,-0.2525635,0.681415,-0.181896,0.1410265,0.456721,-0.091586,0.2587965,0.696555,-0.140285,-0.2706335,0.932215,-0.27016,0.2976465,0.948675,-0.20973,-0.0819735,-0.004305,-0.00836,0.0819735,0.004305,0.0083599999999999,-0.0935235,0.041015,-0.3736399999999999,0.1700065,0.0339249999999999,-0.3475,-0.0954635,-0.297305,-0.21348,0.1125935,-0.3246849999999999,-0.217279,1
112,-0.0051299999999999,0.6674249999999999,-0.106312,-0.139262,0.456364,-0.108243,-0.254032,0.678005,-0.182117,0.141038,0.456528,-0.091583,0.259438,0.694275,-0.140181,-0.273292,0.922495,-0.27029,0.297678,0.946385,-0.209566,-0.082192,-0.004395,-0.0084,0.082192,0.0043949999999999,0.0083999999999999,-0.093932,0.0491749999999999,-0.3727,0.169068,0.0418949999999999,-0.34739,-0.095792,-0.290815,-0.213606,0.111425,-0.318275,-0.216295,1
113,-0.005631,0.6667,-0.1063919999999999,-0.140213,0.4563199999999999,-0.1083959999999999,-0.256073,0.67475,-0.182616,0.1411069999999999,0.4565309999999999,-0.0914629999999999,0.260017,0.6923699999999999,-0.140087,-0.276223,0.91342,-0.27083,0.298077,0.94538,-0.209501,-0.082373,-0.00451,-0.0084299999999999,0.082373,0.0045099999999999,0.00843,-0.094363,0.0573099999999999,-0.3716399999999999,0.168217,0.0499099999999999,-0.34712,-0.096163,-0.28411,-0.213254,0.110487,-0.31187,-0.214766,1
114,-0.006277,0.66613,-0.106199,-0.141382,0.456691,-0.107703,-0.258042,0.67326,-0.182479,0.141008,0.456909,-0.090955,0.259978,0.68955,-0.139689,-0.279292,0.90689,-0.27133,0.298158,0.94483,-0.209145,-0.082382,-0.00461,-0.00832,0.082382,0.00461,0.0083199999999999,-0.094922,0.06506,-0.37028,0.167508,0.05768,-0.34653,-0.096662,-0.27774,-0.213214,0.1082529999999999,-0.3057899999999999,-0.214996,1
115,-0.0070594999999999,0.66492,-0.105216,-0.1426825,0.457274,-0.106564,-0.2598025,0.6712400000000001,-0.181785,0.1408475,0.457922,-0.089944,0.2595475,0.68667,-0.13851,-0.2818825,0.90089,-0.271355,0.2983775,0.9426,-0.207325,-0.0822825,-0.0047199999999999,-0.008215,0.0822825,0.00472,0.008215,-0.0955224999999999,0.07213,-0.368655,0.1666875,0.06523,-0.345445,-0.0973725,-0.27112,-0.21287,0.1077745,-0.2981899999999999,-0.208151,1
116,-0.0079209999999999,0.66405,-0.1039119999999999,-0.144138,0.4578090000000001,-0.1050439999999999,-0.2617279999999999,0.66991,-0.180718,0.140562,0.458951,-0.0884399999999999,0.2588519999999999,0.68428,-0.136867,-0.284648,0.89653,-0.270985,0.298322,0.94163,-0.2047529999999999,-0.082125,-0.0048199999999999,-0.0082849999999999,0.082125,0.00482,0.008285,-0.096118,0.08025,-0.366845,0.165722,0.07389,-0.3438949999999999,-0.098158,-0.2633899999999999,-0.2124299999999999,0.106629,-0.2895199999999999,-0.1961609999999999,1
117,-0.0084634999999999,0.66341,-0.102383,-0.1453185,0.458181,-0.103389,-0.2630785,0.67278,-0.180338,0.1404615,0.4601780000000001,-0.086814,0.2584315,0.68188,-0.134592,-0.2871185,0.8968400000000001,-0.270545,0.2983814999999999,0.94072,-0.20197,-0.0819024999999999,-0.0048199999999999,-0.008345,0.0819024999999999,0.00482,0.0083449999999999,-0.0962185,0.08781,-0.366265,0.1651515,0.0826,-0.342025,-0.0986185,-0.2558299999999999,-0.211618,0.1053605,-0.28128,-0.18742,1
118,-0.008944,0.663175,-0.1004859999999999,-0.14606,0.4586139999999999,-0.1015719999999999,-0.2644999999999999,0.675675,-0.1804449999999999,0.14051,0.461312,-0.0851109999999999,0.25807,0.679595,-0.1317559999999999,-0.2889899999999999,0.897655,-0.2700399999999999,0.2984,0.939515,-0.198814,-0.081731,-0.0047749999999999,-0.0084199999999999,0.081731,0.0047749999999999,0.00842,-0.09628,0.0953549999999999,-0.3654199999999999,0.16469,0.0913649999999999,-0.3399999999999999,-0.09906,-0.2483349999999999,-0.2108809999999999,0.104756,-0.273425,-0.1801539999999999,1
119,-0.0093584999999999,0.662845,-0.098521,-0.1469095,0.459417,-0.0997079999999999,-0.2656995,0.678015,-0.179974,0.1408005,0.462595,-0.0832609999999999,0.2577905,0.677495,-0.128972,-0.2900395,0.904295,-0.26954,0.2985105,0.938105,-0.1958079999999999,-0.0815545,-0.0047249999999999,-0.0085699999999999,0.0815545,0.0047249999999999,0.00857,-0.0961795,0.102225,-0.3644199999999999,0.1645305,0.099895,-0.33768,-0.0991295,-0.2416849999999999,-0.209303,0.1048485,-0.265475,-0.175373,1
120,-0.0096345,0.662595,-0.095983,-0.1476925,0.460449,-0.097572,-0.2669825,0.6801349999999999,-0.179218,0.1410075,0.464237,-0.080943,0.2579375,0.6797949999999999,-0.127062,-0.2911925,0.911455,-0.268765,0.2992074999999999,0.939445,-0.193527,-0.0813494999999999,-0.004615,-0.008775,0.0813494999999999,0.004615,0.0087749999999999,-0.0960425,0.106555,-0.363235,0.1642875,0.109775,-0.334305,-0.0987625,-0.239365,-0.205174,0.1033725,-0.2577549999999999,-0.171123,1
121,-0.0098795,0.662715,-0.093341,-0.1483904999999999,0.460547,-0.09543,-0.2684205,0.682025,-0.178993,0.1411795,0.465774,-0.078543,0.2580995,0.681585,-0.125052,-0.2923805,0.918295,-0.26792,0.3002395,0.940375,-0.191242,-0.0811595,-0.0045749999999999,-0.00902,0.0811595,0.0045749999999999,0.00902,-0.0958505,0.110675,-0.3619799999999999,0.1639795,0.119725,-0.33062,-0.0983005,-0.2372949999999999,-0.200717,0.1021305,-0.2502249999999999,-0.165585,1
122,-0.0100414999999999,0.6628499999999999,-0.090768,-0.1489085,0.4608689999999999,-0.093248,-0.2696285,0.6839599999999999,-0.178742,0.1412815,0.4672589999999999,-0.076128,0.2584715,0.6828,-0.123038,-0.2935785,0.92452,-0.2673999999999999,0.3015315,0.94132,-0.189279,-0.0810205,-0.0045,-0.00927,0.0810205,0.0044999999999999,0.00927,-0.0956684999999999,0.1144199999999999,-0.36072,0.1636515,0.1297799999999999,-0.32665,-0.0977985,-0.23555,-0.196043,0.1021155,-0.2419000000000001,-0.161314,1
123,-0.010077,0.6631450000000001,-0.0882179999999999,-0.14939,0.461233,-0.0912219999999999,-0.2706,0.6855350000000001,-0.1783449999999999,0.1414899999999999,0.468609,-0.0736719999999999,0.25916,0.6840950000000001,-0.1211749999999999,-0.29466,0.930055,-0.2668999999999999,0.30289,0.941875,-0.1874499999999999,-0.080934,-0.0043449999999999,-0.0095299999999999,0.080934,0.004345,0.00953,-0.0953799999999999,0.117395,-0.35951,0.16341,0.139205,-0.32275,-0.09722,-0.2344549999999999,-0.191212,0.1010069999999999,-0.2343049999999998,-0.153962,1
124,-0.0099135,0.663805,-0.086406,-0.1497335,0.460985,-0.0895519999999999,-0.2711334999999999,0.6873049999999999,-0.178055,0.1417265,0.4693759999999999,-0.071606,0.2598765,0.685515,-0.119945,-0.2955135,0.934255,-0.26657,0.3040565,0.943575,-0.186396,-0.0808915,-0.0042349999999999,-0.00979,0.0808915,0.0042349999999999,0.00979,-0.0950334999999999,0.1190649999999999,-0.35872,0.1631465,0.1470449999999999,-0.31923,-0.0965535,-0.234555,-0.186897,0.1012424999999999,-0.228625,-0.149891,1
125,-0.009808,0.664231,-0.0848999999999999,-0.150076,0.460985,-0.0882839999999999,-0.271656,0.688975,-0.1777399999999999,0.1419039999999999,0.470126,-0.0700919999999999,0.260634,0.686495,-0.1190239999999999,-0.296376,0.937345,-0.266105,0.305164,0.944565,-0.185245,-0.080867,-0.0041149999999999,-0.0099449999999999,0.080867,0.0041149999999999,0.009945,-0.094896,0.1196649999999999,-0.358355,0.1627239999999999,0.152935,-0.316185,-0.096186,-0.235645,-0.1830899999999999,0.100864,-0.224065,-0.1485739999999999,1
126,-0.0097,0.6644180000000001,-0.083475,-0.150333,0.46101,-0.0871009999999999,-0.272123,0.6899000000000001,-0.177444,0.1420769999999999,0.47059,-0.068687,0.261367,0.68726,-0.118225,-0.2971629999999999,0.93965,-0.26569,0.306337,0.94495,-0.18422,-0.0808319999999999,-0.0039699999999999,-0.0100799999999999,0.0808319999999999,0.00397,0.01008,-0.094733,0.11927,-0.3582999999999999,0.1623069999999999,0.15787,-0.3135,-0.095803,-0.2374899999999999,-0.179587,0.100361,-0.22026,-0.14537,1
127,-0.0096149999999999,0.6646270000000001,-0.0821909999999999,-0.150569,0.4608,-0.0860779999999999,-0.272549,0.69072,-0.1771289999999999,0.142161,0.47107,-0.0673639999999999,0.262051,0.68786,-0.1174409999999999,-0.297869,0.94145,-0.26535,0.307531,0.94521,-0.183491,-0.0808,-0.0038999999999999,-0.0102099999999999,0.0808,0.0039,0.0102099999999999,-0.094549,0.11798,-0.3585199999999999,0.161951,0.16214,-0.31111,-0.0953789999999999,-0.23995,-0.176365,0.101587,-0.2174999999999999,-0.1468799999999999,1
128,-0.009393,0.664888,-0.0807539999999999,-0.150464,0.461005,-0.084907,-0.272684,0.691505,-0.176758,0.1422359999999999,0.471415,-0.065932,0.262866,0.688345,-0.116376,-0.298184,0.943325,-0.26499,0.308936,0.945675,-0.18279,-0.080787,-0.0038249999999999,-0.01031,0.080787,0.0038249999999999,0.01031,-0.094184,0.117155,-0.35879,0.161916,0.166555,-0.30895,-0.095004,-0.242295,-0.173471,0.1025539999999999,-0.214555,-0.147826,1
129,-0.009198,0.665803,-0.080467,-0.150337,0.460565,-0.084394,-0.272837,0.6913950000000001,-0.176739,0.142363,0.4710750000000001,-0.0651539999999999,0.263453,0.688505,-0.116031,-0.298377,0.943275,-0.26513,0.309913,0.945485,-0.182611,-0.08091,-0.0038749999999999,-0.0102899999999999,0.08091,0.003875,0.0102899999999999,-0.093827,0.118825,-0.35856,0.162003,0.168225,-0.30833,-0.094797,-0.2406249999999999,-0.173261,0.103259,-0.2137749999999999,-0.147983,1
130,-0.0090305,0.6665120000000001,-0.0803769999999999,-0.1502195,0.4607500000000001,-0.084046,-0.2729995,0.69071,-0.176852,0.1424605,0.47026,-0.064644,0.2638905,0.6881900000000001,-0.115904,-0.2985795,0.9426,-0.26537,0.3105205,0.9448,-0.182671,-0.0810445,-0.0039199999999999,-0.0102899999999999,0.0810445,0.00392,0.0102899999999999,-0.0935095,0.11954,-0.35845,0.1620305,0.1689400000000001,-0.30827,-0.0946295,-0.2399099999999999,-0.173171,0.1036634999999999,-0.2141899999999998,-0.149365,1
131,-0.0088875,0.6665120000000001,-0.0803219999999999,-0.1502565,0.4607200000000001,-0.0840209999999999,-0.2732065,0.6900000000000001,-0.177096,0.1425934999999999,0.4694800000000001,-0.064524,0.2641635,0.68805,-0.1158289999999999,-0.2988165,0.94165,-0.265685,0.3107634999999999,0.9437600000000002,-0.1828969999999999,-0.0811985,-0.0039199999999999,-0.0102749999999999,0.0811985,0.00392,0.010275,-0.0932765,0.11954,-0.358375,0.1617535,0.1689400000000001,-0.308285,-0.0944865,-0.2399099999999999,-0.173116,0.1038065,-0.2151799999999999,-0.14931,1
132,-0.0088299999999999,0.6665120000000001,-0.0803089999999999,-0.150315,0.4607200000000001,-0.0840269999999999,-0.273455,0.68966,-0.177395,0.142725,0.4688500000000001,-0.064499,0.264375,0.68805,-0.115841,-0.299115,0.94092,-0.26603,0.310935,0.94314,-0.183151,-0.0813359999999999,-0.0039199999999999,-0.0102999999999999,0.0813359999999999,0.00392,0.0103,-0.0929049999999999,0.12385,-0.3567099999999999,0.161495,0.16871,-0.30832,-0.094505,-0.2349999999999998,-0.175224,0.1038989999999999,-0.2150999999999999,-0.148372,1
133,-0.008852,0.6665120000000001,-0.080368,-0.150619,0.4607200000000001,-0.084078,-0.273739,0.68966,-0.177601,0.142791,0.4684000000000001,-0.064491,0.264501,0.68805,-0.115861,-0.299509,0.9403700000000002,-0.266415,0.311091,0.94294,-0.183431,-0.0814459999999999,-0.0039199999999999,-0.010315,0.0814459999999999,0.00392,0.0103149999999999,-0.092669,0.1277700000000001,-0.355165,0.161291,0.1681,-0.308455,-0.094589,-0.2302499999999999,-0.177433,0.103611,-0.2153399999999998,-0.146329,1
134,-0.008924,0.667055,-0.080841,-0.150908,0.46028,-0.084271,-0.274098,0.68919,-0.177979,0.142832,0.46778,-0.064631,0.264692,0.68758,-0.116296,-0.300028,0.93963,-0.266995,0.311252,0.94247,-0.18398,-0.081594,-0.0040299999999999,-0.010215,0.081594,0.0040299999999999,0.010215,-0.092448,0.13096,-0.353915,0.161322,0.16629,-0.309675,-0.094648,-0.2260499999999999,-0.179995,0.102964,-0.2164599999999999,-0.145726,1
135,-0.008995,0.6675660000000001,-0.081375,-0.1512299999999999,0.459865,-0.084625,-0.2743899999999999,0.688535,-0.178538,0.14278,0.467125,-0.064856,0.26482,0.687235,-0.116921,-0.30058,0.938895,-0.26773,0.31134,0.941815,-0.184685,-0.081722,-0.0041449999999999,-0.01009,0.081722,0.004145,0.01009,-0.09233,0.133785,-0.3528,0.16132,0.164105,-0.31101,-0.09475,-0.222055,-0.182733,0.102161,-0.2174049999999999,-0.143918,1
136,-0.0089309999999999,0.668105,-0.082141,-0.1515179999999999,0.4590599999999999,-0.085242,-0.274318,0.6873699999999999,-0.179346,0.142632,0.4658599999999999,-0.065357,0.264922,0.6868799999999999,-0.117929,-0.300998,0.93763,-0.26873,0.311262,0.94055,-0.185525,-0.081828,-0.00428,-0.00994,0.081828,0.0042799999999999,0.00994,-0.092348,0.1357299999999999,-0.35231,0.161302,0.1611199999999999,-0.31274,-0.094918,-0.21871,-0.185643,0.10192,-0.21843,-0.144275,1
137,-0.0088315,0.668474,-0.083166,-0.1514615,0.45833,-0.085975,-0.2742115,0.6861,-0.180438,0.1425785,0.46397,-0.066051,0.2651385,0.6867300000000001,-0.119258,-0.3008415,0.93574,-0.270105,0.3111485,0.93892,-0.186658,-0.0819135,-0.00441,-0.009805,0.0819135,0.00441,0.009805,-0.0924315,0.1372,-0.352985,0.1615685,0.15809,-0.314775,-0.0948915,-0.21597,-0.188611,0.1016985,-0.2203199999999999,-0.14655,1
138,-0.0086284999999999,0.6685850000000001,-0.084623,-0.1512985,0.456795,-0.0871929999999999,-0.2739685,0.6848050000000001,-0.182117,0.1426415,0.462715,-0.0677339999999999,0.2653715,0.686165,-0.121117,-0.3005584999999999,0.932865,-0.27207,0.3110615,0.936665,-0.188291,-0.0821105,-0.0048149999999999,-0.0097399999999999,0.0821105,0.004815,0.0097399999999999,-0.0923884999999999,0.137325,-0.3539,0.1619215,0.153775,-0.31716,-0.0944885,-0.2140649999999999,-0.191267,0.1025285,-0.2233449999999999,-0.14956,1
139,-0.00819,0.66927,-0.087266,-0.151037,0.45377,-0.088931,-0.273397,0.6826,-0.184292,0.142993,0.46113,-0.070432,0.2660829999999999,0.68774,-0.125053,-0.300127,0.9279,-0.274735,0.310933,0.93648,-0.191904,-0.082256,-0.00534,-0.009505,0.082256,0.00534,0.009505,-0.092247,0.13465,-0.355035,0.162413,0.14675,-0.320355,-0.0940469999999999,-0.21441,-0.194161,0.102713,-0.22826,-0.150837,1
140,-0.0074054999999999,0.66996,-0.0913259999999999,-0.1503465,0.4507099999999999,-0.092525,-0.2724465,0.68129,-0.187052,0.1434534999999999,0.460059,-0.0744359999999999,0.2668534999999999,0.6893199999999999,-0.1298329999999999,-0.2989965,0.92724,-0.2790749999999999,0.3106135,0.93552,-0.196695,-0.0823365,-0.00595,-0.0092349999999999,0.0823365,0.00595,0.009235,-0.0919965,0.1266399999999999,-0.356595,0.1631235,0.1335499999999999,-0.325125,-0.0936865,-0.2193,-0.1972479999999999,0.1020455,-0.23784,-0.152164,1
141,-0.0065509999999999,0.670995,-0.095002,-0.149497,0.4480069999999999,-0.096108,-0.270727,0.680285,-0.190443,0.143973,0.458105,-0.078403,0.267623,0.6901349999999999,-0.134299,-0.2979369999999999,0.926105,-0.28344,0.310593,0.936595,-0.201188,-0.082291,-0.0060149999999999,-0.00898,0.082291,0.0060149999999999,0.0089799999999999,-0.091617,0.1145049999999999,-0.35835,0.163983,0.1190749999999999,-0.3293399999999999,-0.0936569999999999,-0.230205,-0.198415,0.101978,-0.248395,-0.158563,1
142,-0.0056855,0.671425,-0.09813,-0.1483145,0.449023,-0.099679,-0.2701445,0.6792050000000001,-0.193612,0.1442554999999999,0.458135,-0.082029,0.2682055,0.691875,-0.137724,-0.2970745,0.923085,-0.287255,0.3106455,0.936475,-0.205067,-0.0822495,-0.0059049999999999,-0.008675,0.0822495,0.005905,0.0086749999999999,-0.0914244999999999,0.100345,-0.359715,0.1648254999999999,0.102405,-0.333005,-0.0936845,-0.2431149999999999,-0.199212,0.1021965,-0.260285,-0.163776,1
143,-0.0048615,0.67204,-0.1005289999999999,-0.1471444999999999,0.449767,-0.1025299999999999,-0.2695245,0.67727,-0.195998,0.1443855,0.458191,-0.085057,0.2686455,0.69356,-0.140292,-0.2961445,0.91938,-0.2904799999999999,0.3107855,0.9365,-0.2078209999999999,-0.0821784999999999,-0.0057899999999999,-0.0084499999999999,0.0821784999999999,0.0057899999999999,0.00845,-0.0913944999999999,0.08548,-0.36058,0.1655855,0.08494,-0.33552,-0.0939145,-0.25673,-0.1999119999999999,0.1028375,-0.273,-0.167754,1
144,-0.004062,0.67345,-0.102075,-0.146156,0.4498339999999999,-0.104372,-0.267986,0.67872,-0.196167,0.144484,0.4579129999999999,-0.087099,0.268874,0.69516,-0.141648,-0.295186,0.92213,-0.291235,0.310764,0.94003,-0.208232,-0.0820559999999999,-0.00558,-0.008395,0.0820559999999999,0.0055799999999999,0.0083949999999999,-0.091786,0.0681399999999999,-0.361385,0.166124,0.0676699999999999,-0.336195,-0.094086,-0.27134,-0.20011,0.103716,-0.28617,-0.171043,1
145,-0.0030525,0.67609,-0.103432,-0.1450115,0.451616,-0.1057989999999999,-0.2660115,0.68018,-0.19587,0.1447385,0.459183,-0.088979,0.2693185,0.69682,-0.142211,-0.2940015,0.9228,-0.291715,0.3108285,0.94147,-0.208222,-0.0817685,-0.00539,-0.008355,0.0817685,0.00539,0.008355,-0.0920115,0.04892,-0.362345,0.1668984999999999,0.04746,-0.336775,-0.0942015,-0.2890299999999999,-0.2002959999999999,0.1051655,-0.3017899999999999,-0.1725209999999999,1
146,-0.0018199999999999,0.67857,-0.1042479999999999,-0.1438549999999999,0.45347,-0.1068819999999999,-0.263755,0.68209,-0.195507,0.145215,0.460255,-0.0904479999999999,0.270095,0.69829,-0.14225,-0.292495,0.92278,-0.29147,0.311055,0.94174,-0.2081869999999999,-0.0813339999999999,-0.0050299999999999,-0.0082799999999999,0.0813339999999999,0.0050299999999999,0.00828,-0.092175,0.02733,-0.36268,0.167915,0.0255799999999999,-0.3366099999999999,-0.094245,-0.30873,-0.2000219999999999,0.107908,-0.31959,-0.1752439999999999,1
147,-0.000712,0.68225,-0.1047869999999999,-0.142736,0.456711,-0.1077939999999999,-0.261566,0.68298,-0.195098,0.145544,0.461428,-0.0912359999999999,0.270324,0.70164,-0.1421579999999999,-0.290596,0.91849,-0.2911049999999999,0.311554,0.94523,-0.2080499999999999,-0.08079,-0.0044799999999999,-0.0081449999999999,0.08079,0.0044799999999999,0.008145,-0.092366,0.00014,-0.362865,0.168924,-0.00161,-0.336465,-0.094426,-0.33353,-0.1996549999999999,0.110148,-0.3438599999999999,-0.177774,1
148,7.550000000000265e-05,0.686205,-0.104061,-0.1417025,0.461466,-0.107604,-0.2586425,0.687315,-0.194012,0.1457574999999999,0.462995,-0.090585,0.2711675,0.703105,-0.141407,-0.2888325,0.925195,-0.2902099999999999,0.3119375,0.947355,-0.207297,-0.0801844999999999,-0.0037449999999999,-0.00785,0.0801844999999999,0.0037449999999999,0.0078499999999999,-0.0926625,-0.025745,-0.3623,0.1700175,-0.027515,-0.33567,-0.0946825,-0.357035,-0.198689,0.1127035,-0.365975,-0.17762,1
149,0.0005504999999999,0.689955,-0.103019,-0.1413245,0.466812,-0.106578,-0.2557345,0.688455,-0.191835,0.1459655,0.463791,-0.089586,0.2719155,0.704195,-0.14032,-0.2882445,0.926045,-0.289095,0.3122255,0.949335,-0.205621,-0.0796645,-0.0028449999999999,-0.007565,0.0796645,0.0028449999999999,0.0075649999999999,-0.0930345,-0.0483049999999999,-0.361385,0.1708455,-0.050775,-0.334575,-0.0950645,-0.378155,-0.197177,0.1154555,-0.385685,-0.17671,1
150,0.000811,0.69327,-0.101501,-0.141078,0.472,-0.1050619999999999,-0.254628,0.6895500000000001,-0.188859,0.1461319999999999,0.46533,-0.088082,0.2719519999999999,0.70599,-0.138285,-0.288258,0.92737,-0.28712,0.312532,0.9508,-0.203004,-0.0791989999999999,-0.0023499999999999,-0.0071699999999999,0.0791989999999999,0.00235,0.0071699999999999,-0.093478,-0.0695099999999999,-0.35998,0.1714419999999999,-0.0725599999999999,-0.33286,-0.095578,-0.3987199999999999,-0.19488,0.117952,-0.40481,-0.174832,1
151,0.000967,0.69746,-0.099172,-0.14115,0.4734699999999999,-0.102927,-0.255,0.68947,-0.18489,0.1466,0.46768,-0.085587,0.2721099999999999,0.70841,-0.13363,-0.28858,0.92966,-0.283435,0.31294,0.95593,-0.197847,-0.078593,-0.00224,-0.006825,0.078593,0.0022399999999999,0.0068249999999999,-0.09398,-0.0896,-0.357405,0.17185,-0.09333,-0.329555,-0.0959599999999999,-0.4190399999999999,-0.1922,0.12006,-0.4246,-0.172345,1
152,0.000953,0.70218,-0.095518,-0.1412469999999999,0.47558,-0.099684,-0.256267,0.69292,-0.179817,0.146923,0.47003,-0.081952,0.271623,0.7109800000000001,-0.1283,-0.289567,0.93507,-0.277815,0.3136029999999999,0.96113,-0.191952,-0.078109,-0.0021299999999999,-0.006515,0.078109,0.00213,0.0065149999999999,-0.0946169999999999,-0.1090199999999999,-0.353235,0.171983,-0.1129099999999999,-0.324525,-0.096257,-0.4387099999999999,-0.189235,0.122993,-0.4448,-0.171764,1
153,0.0005504999999999,0.7071,-0.0906599999999999,-0.1414725,0.47722,-0.095743,-0.2579625,0.6948799999999999,-0.174147,0.1470175,0.4720299999999999,-0.077623,0.2714675,0.7137,-0.1215369999999999,-0.2907424999999999,0.93612,-0.271505,0.3137575,0.96197,-0.185298,-0.0775155,-0.0021,-0.0062949999999999,0.0775155,0.0020999999999999,0.006295,-0.0955925,-0.12771,-0.348175,0.1716675,-0.13202,-0.3187149999999999,-0.0972425,-0.45963,-0.186355,0.1243575,-0.46609,-0.167784,1
154,7.000000000000062e-06,0.70993,-0.085571,-0.142224,0.48049,-0.090457,-0.256974,0.6975100000000001,-0.167591,0.147156,0.47481,-0.072253,0.271326,0.7162299999999999,-0.115181,-0.2920439999999999,0.93786,-0.26496,0.313626,0.96328,-0.17828,-0.077027,-0.0019199999999999,-0.00612,0.077027,0.0019199999999999,0.00612,-0.096784,-0.14444,-0.34212,0.170986,-0.1490199999999999,-0.31222,-0.098254,-0.4794199999999999,-0.184019,0.125476,-0.48733,-0.164479,1
155,-0.0007755,0.713625,-0.079514,-0.1430725,0.4818949999999999,-0.084795,-0.2590625,0.6980850000000001,-0.161791,0.1474075,0.478425,-0.0657899999999999,0.2711075,0.718325,-0.107788,-0.2937524999999999,0.939685,-0.257395,0.3131675,0.966525,-0.170609,-0.0765695,-0.002175,-0.0059049999999999,0.0765695,0.002175,0.005905,-0.0982225,-0.160055,-0.335165,0.1698474999999999,-0.164485,-0.304705,-0.0991524999999999,-0.499225,-0.18142,0.1263175,-0.508535,-0.161231,1
156,-0.0014119999999999,0.716715,-0.0733539999999999,-0.143733,0.482415,-0.0791579999999999,-0.258463,0.700985,-0.155413,0.147827,0.480815,-0.0590539999999999,0.271447,0.7208950000000001,-0.1005529999999999,-0.294933,0.948135,-0.250345,0.312737,0.966605,-0.1638029999999999,-0.076282,-0.002225,-0.0056549999999999,0.076282,0.002225,0.005655,-0.099173,-0.171045,-0.327885,0.168867,-0.176545,-0.297205,-0.099743,-0.5158849999999999,-0.178139,0.126947,-0.526125,-0.1565309999999999,1
157,-0.00216,0.719425,-0.066812,-0.144428,0.482915,-0.073505,-0.256628,0.699085,-0.147153,0.148292,0.483515,-0.051899,0.271972,0.723385,-0.093415,-0.296518,0.944955,-0.241871,0.3128519999999999,0.968455,-0.156821,-0.075949,-0.002375,-0.005449,0.075949,0.0023749999999999,0.0054489999999999,-0.100298,-0.183915,-0.319811,0.167662,-0.189305,-0.288661,-0.100508,-0.534155,-0.174112,0.127332,-0.5449350000000001,-0.151351,1
158,-0.0029264999999999,0.7225400000000001,-0.0603609999999999,-0.1451205,0.48163,-0.0681229999999999,-0.2552405,0.7003900000000001,-0.139564,0.1485795,0.4869599999999999,-0.0451569999999999,0.2723995,0.72674,-0.0863539999999999,-0.2983805,0.94462,-0.233931,0.3129995,0.97091,-0.150133,-0.0756105,-0.0027699999999999,-0.0051389999999999,0.0756105,0.0027699999999999,0.005139,-0.1014704999999999,-0.19558,-0.311771,0.1663995,-0.20066,-0.280211,-0.1013004999999999,-0.55113,-0.170288,0.1276495,-0.56213,-0.146691,1
159,-0.0034879999999999,0.724605,-0.0537305,-0.145566,0.482225,-0.0623725,-0.254716,0.699715,-0.1319075,0.148954,0.490955,-0.0381045,0.272974,0.729355,-0.0792655,-0.300466,0.944355,-0.2255305,0.313134,0.970205,-0.1431275,-0.075097,-0.0029949999999999,-0.0048995,0.075097,0.0029949999999999,0.0048995,-0.102736,-0.208385,-0.3022605,0.164854,-0.213445,-0.2703405,-0.1021459999999999,-0.569645,-0.1660444999999999,0.128024,-0.580415,-0.1418085,1
160,-0.0038295,0.7263850000000001,-0.047021,-0.1460735,0.483365,-0.056765,-0.2539535,0.699935,-0.124337,0.1494165,0.492805,-0.031398,0.2737065,0.7304550000000001,-0.071926,-0.3028735,0.944195,-0.217782,0.3146065,0.971485,-0.135625,-0.0745545,-0.003015,-0.00475,0.0745545,0.0030149999999999,0.0047499999999999,-0.1035135,-0.221225,-0.291682,0.1632165,-0.225885,-0.259342,-0.1028435,-0.587925,-0.161492,0.1285965,-0.5980749999999999,-0.136972,1
161,-0.0042649999999999,0.72831,-0.0402495,-0.146535,0.4846,-0.0509415,-0.256425,0.69876,-0.1183875,0.149895,0.49473,-0.0247355,0.274265,0.7319500000000001,-0.0645995,-0.305055,0.94297,-0.2099885,0.316115,0.97343,-0.1278255,-0.073984,-0.0029099999999999,-0.0047935,0.073984,0.0029099999999999,0.0047934999999999,-0.104405,-0.23803,-0.2805085,0.161375,-0.24495,-0.2478785,-0.103235,-0.60805,-0.1566695,0.128925,-0.61667,-0.1318115,1
162,-0.0046495,0.7298,-0.0340764999999999,-0.1470675,0.48699,-0.0450004999999999,-0.2599675,0.69667,-0.1122404999999999,0.1503425,0.49797,-0.0182325,0.2748524999999999,0.73361,-0.0577994999999999,-0.3069674999999999,0.93916,-0.2020635,0.3179925,0.97539,-0.1199445,-0.0734345,-0.0027699999999999,-0.0047284999999999,0.0734345,0.0027699999999999,0.0047285,-0.1053475,-0.25575,-0.2673835,0.1589125,-0.26546,-0.2342535,-0.1037975,-0.62849,-0.1517335,0.1291324999999999,-0.6358600000000001,-0.1264664999999999,1
163,-0.005636,0.730156,-0.0237375,-0.148245,0.485786,-0.0353865,-0.264065,0.692516,-0.1021465,0.149895,0.497256,-0.0080864999999999,0.274105,0.7331059999999999,-0.0464655,-0.309485,0.936436,-0.1897734999999999,0.3193749999999999,0.977326,-0.1078535,-0.072914,-0.002543,-0.0045224999999999,0.072914,0.002543,0.0045224999999999,-0.106825,-0.274224,-0.2489835,0.155605,-0.286104,-0.2156035,-0.104975,-0.649234,-0.1424305,0.128685,-0.655444,-0.1166455,1
164,-0.006448,0.729833,-0.0145684999999999,-0.1495739999999999,0.4866229999999999,-0.0266085,-0.268054,0.694723,-0.0926555,0.149316,0.497223,0.0007705,0.274056,0.7353430000000001,-0.0362375,-0.312124,0.940383,-0.1787305,0.321016,0.978633,-0.0966725,-0.072532,-0.0021349999999999,-0.0043725,0.072532,0.0021349999999999,0.0043725,-0.107414,-0.292337,-0.2272305,0.151036,-0.305147,-0.1933905,-0.106204,-0.668277,-0.1328945,0.127856,-0.673557,-0.1067485,1
165,-0.0073095,0.730483,-0.0058335,-0.1510425,0.486573,-0.0181495,-0.2706625,0.695003,-0.0835905,0.1486375,0.497633,0.0093565,0.2737275,0.735743,-0.0261945,-0.3146024999999999,0.941773,-0.1683805,0.3227275,0.980523,-0.0858675,-0.0722485,-0.001962,-0.0039945,0.0722485,0.0019619999999999,0.0039944999999999,-0.1077924999999999,-0.309297,-0.2052105,0.1464075,-0.322357,-0.1711305,-0.1075225,-0.685487,-0.1234775,0.1268475,-0.689967,-0.0971385,1
166,-0.0082545,0.7305794999999999,0.0021399999999999,-0.1524535,0.4868295,-0.010251,-0.2719135,0.6980295,-0.075666,0.1478665,0.4973995,0.01736,0.2731065,0.7359395,-0.017394,-0.3170235,0.9453195,-0.15984,0.3234865,0.9797795,-0.075828,-0.0719615,-0.0016775,-0.003627,0.0719615,0.0016774999999999,0.0036269999999999,-0.1080735,-0.3235805,-0.18366,0.1420564999999999,-0.3381105,-0.14969,-0.1087835,-0.7008205000000001,-0.114361,0.1257165,-0.7043605000000001,-0.088113,1
167,-0.0091895,0.7301310000000001,0.0100869999999999,-0.1541055,0.489161,-0.0024199999999999,-0.2739554999999999,0.700261,-0.067897,0.1471744999999999,0.497731,0.025346,0.2723245,0.736291,-0.0090459999999999,-0.3192155,0.946761,-0.15118,0.3241345,0.978671,-0.065948,-0.0716775,-0.0011409999999999,-0.0033429999999999,0.0716775,0.0011409999999999,0.0033429999999999,-0.1082954999999999,-0.338159,-0.16148,0.1377745,-0.354809,-0.127973,-0.1100454999999999,-0.7161090000000001,-0.10547,0.1244845,-0.7190589999999999,-0.077392,1
168,-0.0103444999999999,0.7298319999999999,0.0176509999999999,-0.1560575,0.489702,0.0048909999999999,-0.2755174999999999,0.7051719999999999,-0.0604,0.1464125,0.498012,0.0324829999999999,0.2713225,0.737462,-0.001256,-0.3211974999999999,0.948322,-0.143055,0.3245225,0.979362,-0.056669,-0.0716364999999999,-0.0008789999999999,-0.002976,0.0716364999999999,0.0008789999999999,0.0029759999999999,-0.1086475,-0.350418,-0.140545,0.1336225,-0.3702379999999999,-0.107322,-0.1114375,-0.7293080000000001,-0.097161,0.1232525,-0.731828,-0.06756,1
169,-0.0114699999999999,0.729429,0.0248925,-0.158158,0.489909,0.0119575,-0.279478,0.710579,-0.0543774999999999,0.145672,0.497779,0.0390305,0.270302,0.738819,0.0063245,-0.322948,0.950229,-0.1349705,0.3238419999999999,0.975499,-0.0480525,-0.071614,-0.000576,-0.0025694999999999,0.071614,0.000576,0.0025695,-0.108708,-0.362131,-0.1202935,0.129572,-0.384961,-0.0874155,-0.112788,-0.7407410000000001,-0.0876425,0.122022,-0.7434710000000001,-0.0580484999999999,1
170,-0.0124814999999999,0.7282495,0.0314665,-0.1600555,0.4901495,0.0187985,-0.2823155,0.7148995,-0.0484835,0.1449945,0.4979095,0.0452145,0.2693545,0.7399595,0.0137065,-0.3246755,0.9512495,-0.1271904999999999,0.3230845,0.9712795,-0.0397074999999999,-0.0716735,-0.0003705,-0.0019804999999999,0.0716735,0.0003704999999999,0.0019805,-0.1086554999999999,-0.3738505,-0.1005125,0.1257245,-0.3994105,-0.0678515,-0.1139955,-0.7520405,-0.0790704999999999,0.1208445,-0.7544605,-0.0488085,1
171,-0.0133804999999999,0.7265405,0.037513,-0.1618245,0.4902105,0.024831,-0.2855345,0.7176405,-0.0433029999999999,0.1443455,0.4973405000000001,0.050899,0.2684255,0.7404905,0.020623,-0.3262644999999999,0.9526005,-0.119984,0.3222055,0.9676905,-0.032083,-0.0716995,-0.0002314999999999,-0.001436,0.0716995,0.0002314999999999,0.0014359999999999,-0.1085344999999999,-0.3847394999999999,-0.082877,0.1224255,-0.4128595,-0.050845,-0.1150445,-0.7613694999999999,-0.070168,0.1197955,-0.7641395,-0.040308,1
172,-0.0135879999999999,0.726865,0.038684,-0.162798,0.490745,0.0260649999999999,-0.288518,0.721635,-0.043203,0.144322,0.4987549999999999,0.05168,0.268222,0.743255,0.022428,-0.327108,0.954525,-0.1174849999999999,0.321802,0.965945,-0.029343,-0.0719009999999999,-0.0002869999999999,-0.001079,0.0719009999999999,0.0002869999999999,0.001079,-0.107828,-0.393485,-0.071386,0.119962,-0.424825,-0.039708,-0.115598,-0.768555,-0.066129,0.119482,-0.771895,-0.03702,1
173,-0.0137165,0.7274565,0.0397179999999999,-0.1634354999999999,0.4912565,0.027238,-0.2889455,0.7207565,-0.041591,0.1443445,0.4991065,0.052339,0.2680545,0.7436365,0.024165,-0.3276655,0.9506165,-0.115145,0.3213244999999999,0.9641765,-0.026957,-0.0721604999999999,-0.0002464999999999,-0.000778,0.0721604999999999,0.0002465,0.000778,-0.1078754999999999,-0.3991335,-0.06408,0.1186645,-0.4301635,-0.033277,-0.1159854999999999,-0.7737835,-0.062921,0.1193845,-0.7775135,-0.034695,1
174,-0.0136489999999999,0.7267475,0.0403004999999999,-0.163953,0.4927275,0.0281495,-0.2892829999999999,0.7208975,-0.0404245,0.144447,0.4992675,0.0527405,0.267777,0.7438174999999999,0.0252435,-0.3280229999999999,0.9476575,-0.1135265,0.321017,0.9623475,-0.0252255,-0.0723439999999999,-0.0001015,-0.0006055,0.0723439999999999,0.0001014999999999,0.0006055,-0.1079729999999999,-0.4033625,-0.0583845,0.117667,-0.4347725,-0.0280965,-0.116073,-0.7780425000000001,-0.0602715,0.119197,-0.7819425000000001,-0.0328035,1
175,-0.0136444999999999,0.7261385,0.040839,-0.1645065,0.4938685,0.028797,-0.2896665,0.7201584999999999,-0.0392319999999999,0.1444535,0.4996685,0.053014,0.2674935,0.7440184999999999,0.026076,-0.3284665,0.9451585,-0.112012,0.3206934999999999,0.9606685,-0.0236919999999999,-0.0725105,-2.6499999999998747e-05,-0.000498,0.0725105,2.6499999999998747e-05,0.0004979999999999,-0.1083464999999999,-0.4075514999999999,-0.053431,0.1166335,-0.4389714999999999,-0.0233729999999999,-0.1162165,-0.7817215000000001,-0.057689,0.1187835,-0.7857315,-0.0310049999999999,1
176,-0.0136314999999999,0.725835,0.0413215,-0.1649585,0.493755,0.0295585,-0.2895885,0.719035,-0.0378555,0.1443714999999999,0.499075,0.0533135,0.2675615,0.743475,0.0268205,-0.3286685,0.943265,-0.1102264999999999,0.3203815,0.959565,-0.0221965,-0.0726515,-4.699999999999843e-05,-0.0004335,0.0726515,4.700000000000537e-05,0.0004334999999999,-0.1088484999999999,-0.410195,-0.0491145,0.1159314999999999,-0.441865,-0.0190445,-0.1165285,-0.784145,-0.0549855,0.1187815,-0.788635,-0.0292205,1
177,-0.0135865,0.7256515,0.0417435,-0.1653524999999999,0.4937614999999999,0.0302945,-0.2896725,0.7172415,-0.0365085,0.1443075,0.4986414999999999,0.0536275,0.2676175,0.7431315000000001,0.0275944999999999,-0.3288425,0.9417215,-0.1085445,0.3199775,0.9588615,-0.0207835,-0.0727645,-6.450000000000206e-05,-0.0003775,0.0727645,6.450000000000206e-05,0.0003775,-0.1094525,-0.4121685,-0.0448244999999999,0.1153675,-0.4441184999999999,-0.0149735,-0.1166525,-0.7857585,-0.0523135,0.1188275,-0.7909984999999999,-0.0274785,1
178,-0.0134505,0.725633,0.0422009999999999,-0.1655375,0.493673,0.0309799999999999,-0.2897575,0.716143,-0.035299,0.1443324999999999,0.498313,0.054013,0.2677124999999999,0.742733,0.028521,-0.3289375,0.940903,-0.107184,0.3197224999999999,0.958463,-0.019645,-0.0728125,-5.700000000000149e-05,-0.000386,0.0728125,5.700000000000149e-05,0.000386,-0.1101175,-0.412837,-0.041146,0.1148125,-0.4450969999999999,-0.011643,-0.1164475,-0.786057,-0.049312,0.1186825,-0.791967,-0.026064,1
179,-0.0132899999999999,0.725713,0.0425635,-0.1656979999999999,0.493613,0.0315665,-0.2895479999999999,0.715333,-0.0341615,0.144392,0.4979429999999999,0.0543854999999999,0.267712,0.7423230000000001,0.0294195,-0.329048,0.940323,-0.1059595,0.319482,0.958153,-0.0186225,-0.072858,-5.100000000000243e-05,-0.0004475,0.072858,5.100000000000243e-05,0.0004475,-0.110738,-0.413217,-0.0377105,0.114302,-0.445867,-0.0084715,-0.1163579999999999,-0.786187,-0.0467585,0.118562,-0.7925869999999999,-0.0247325,1
180,-0.0130994999999999,0.725888,0.0429035,-0.1658565,0.493598,0.0321425,-0.2891765,0.7151379999999999,-0.0333095,0.1444534999999999,0.497668,0.0547085,0.2676135,0.741928,0.0302384999999999,-0.3291265,0.939938,-0.1048205,0.3192735,0.958168,-0.0176735,-0.0728875,-3.899999999999737e-05,-0.0005254999999999,0.0728875,3.900000000000431e-05,0.0005254999999999,-0.1113265,-0.413802,-0.0344125,0.1138135,-0.4464519999999999,-0.0053595,-0.1162465,-0.785912,-0.0435635,0.1184535,-0.793012,-0.0235445,1
181,-0.0128274999999999,0.726084,0.0431675,-0.1658345,0.493604,0.0325775,-0.2883045,0.7146239999999999,-0.0323435,0.1446555,0.4974639999999999,0.0549995,0.2679255,0.741614,0.0310025,-0.3291045,0.939704,-0.1039235,0.3194055,0.958354,-0.0167865,-0.0729175,-3.700000000000231e-05,-0.0005414999999999,0.0729175,3.700000000000231e-05,0.0005414999999999,-0.1119645,-0.414026,-0.0314324999999999,0.1133155,-0.446876,-0.0021775,-0.1161745,-0.785096,-0.0405364999999999,0.1183155,-0.7934260000000001,-0.0225375,1
182,-0.012596,0.72613,0.04342,-0.165807,0.49362,0.032929,-0.287777,0.71389,-0.031495,0.144863,0.49732,0.055226,0.268253,0.74133,0.031696,-0.329087,0.93953,-0.103108,0.319583,0.95854,-0.01601,-0.072935,-3.399999999999931e-05,-0.000596,0.072935,3.399999999999931e-05,0.0005959999999999,-0.112567,-0.41391,-0.028817,0.112773,-0.4472399999999999,0.000983,-0.116137,-0.78403,-0.03723,0.118153,-0.79374,-0.021597,1
183,-0.0123679999999999,0.7261759999999999,0.0435605,-0.165764,0.493686,0.0332035,-0.287634,0.7135459999999999,-0.0308495,0.145106,0.497276,0.0553025,0.268756,0.741196,0.0322135,-0.329054,0.939476,-0.1024465,0.319866,0.958856,-0.0153925,-0.072946,-3.0000000000002247e-05,-0.0006884999999999,0.072946,2.9999999999995308e-05,0.0006885,-0.113334,-0.413904,-0.0262445,0.112236,-0.447594,0.0039735,-0.116144,-0.7830140000000001,-0.0342185,0.118016,-0.793834,-0.0207815,0
184,-0.0119155,0.726157,0.043688,-0.1655865,0.493737,0.033395,-0.2876865,0.713317,-0.030203,0.1454935,0.497127,0.0553909999999999,0.2694735,0.740967,0.032635,-0.3288265,0.939577,-0.101771,0.3206335,0.959227,-0.0147129999999999,-0.0729825,-8.999999999995123e-06,-0.0007509999999999,0.0729825,9.000000000002062e-06,0.0007509999999999,-0.1143365,-0.4140629999999999,-0.0238649999999999,0.1116834999999999,-0.4483129999999999,0.007032,-0.1161565,-0.782023,-0.03114,0.1176234999999999,-0.7938729999999999,-0.019592,0
185,-0.0115379999999999,0.726156,0.0437825,-0.1654769999999999,0.493766,0.0335855,-0.287697,0.713136,-0.0296325,0.145673,0.4969959999999999,0.0554405,0.270123,0.7407860000000001,0.0329755,-0.328757,0.939576,-0.1011345,0.321443,0.959446,-0.0139874999999999,-0.073003,1.0000000000003062e-05,-0.0008214999999999,0.073003,-9.999999999996125e-06,0.0008215,-0.1152369999999999,-0.413624,-0.0219045,0.111213,-0.448934,0.0099345,-0.116057,-0.781184,-0.0282255,0.117203,-0.7939039999999999,-0.0184125,0
186,-0.011346,0.7261575,0.0438475,-0.165382,0.4937075000000001,0.0336954999999999,-0.287642,0.7131875,-0.0292694999999999,0.145828,0.4969675,0.0555375,0.2708279999999999,0.7406475,0.0333185,-0.328742,0.9394775,-0.1005355,0.3223379999999999,0.9597275,-0.0132645,-0.073012,2.8500000000000747e-05,-0.0008885,0.073012,-2.8500000000000747e-05,0.0008884999999999,-0.116002,-0.4130324999999999,-0.0205675,0.1108079999999999,-0.4492925,0.0126485,-0.116012,-0.7800325,-0.0254355,0.116808,-0.7938525,-0.0172165,0
187,-0.0111739999999999,0.7260789999999999,0.0438739999999999,-0.165204,0.493599,0.033681,-0.287644,0.7125389999999999,-0.029071,0.145986,0.4969389999999999,0.055643,0.271546,0.7404689999999999,0.033664,-0.328644,0.939369,-0.100038,0.323136,0.959719,-0.012511,-0.073024,1.7999999999997185e-05,-0.000967,0.073024,-1.8000000000004124e-05,0.000967,-0.1165239999999999,-0.4131809999999999,-0.019923,0.110496,-0.4494809999999999,0.015179,-0.1160539999999999,-0.778861,-0.023169,0.116466,-0.793861,-0.015981,0
188,-0.0109215,0.7260035,0.0438845,-0.1649655,0.4935235,0.0337055,-0.2880755,0.7118835000000001,-0.0290445,0.1462345,0.4969435,0.0556815,0.2722745,0.7402534999999999,0.0340785,-0.3284555,0.9392935,-0.0996145,0.3235945,0.9596435,-0.0117025,-0.0730425,-2.4499999999996747e-05,-0.0010264999999999,0.0730425,2.4500000000003685e-05,0.0010265,-0.1169755,-0.4131765,-0.0191725,0.1102944999999999,-0.4496865,0.0175055,-0.1160255,-0.7780665,-0.0211925,0.1161444999999999,-0.7938464999999999,-0.0143905,0
189,-0.010533,0.725969,0.043809,-0.164657,0.493489,0.0336179999999999,-0.288557,0.710709,-0.02903,0.146583,0.496989,0.055868,0.273093,0.740029,0.0346179999999999,-0.3283169999999999,0.939259,-0.099407,0.323833,0.959609,-0.010841,-0.073063,-5.900000000000349e-05,-0.001081,0.073063,5.899999999999656e-05,0.0010809999999999,-0.117357,-0.412931,-0.01829,0.110253,-0.449841,0.019569,-0.115827,-0.7774409999999999,-0.020102,0.115913,-0.793791,-0.012664,0
190,-0.0101435,0.725969,0.0436625,-0.1643425,0.493369,0.0333215,-0.2900125,0.709479,-0.0292005,0.1469375,0.497089,0.0561875,0.2743374999999999,0.739649,0.0351105,-0.3282525,0.939089,-0.0993275,0.3242675,0.959609,-0.0098954999999999,-0.0730665,-5.900000000000349e-05,-0.0011944999999999,0.0730665,5.899999999999656e-05,0.0011945,-0.1176825,-0.412261,-0.0172195,0.1104975,-0.449991,0.0212435,-0.1154325,-0.777411,-0.0184455,0.1159574999999999,-0.793791,-0.0108935,0
191,-0.0097759999999999,0.725984,0.043458,-0.1641159999999999,0.493054,0.032765,-0.2927059999999999,0.706824,-0.029828,0.147244,0.497094,0.056725,0.275984,0.734924,0.035441,-0.3284559999999999,0.938474,-0.099857,0.324884,0.958824,-0.009129,-0.0730639999999999,-7.000000000000062e-05,-0.001324,0.0730639999999999,7.000000000000062e-05,0.0013239999999999,-0.1178859999999999,-0.412246,-0.01647,0.110914,-0.450086,0.022579,-0.1149159999999999,-0.777396,-0.017095,0.116344,-0.793776,-0.009117,0
192,-0.009431,0.7259180000000001,0.0431185,-0.163944,0.492398,0.0320585,-0.297104,0.702258,-0.0305045,0.147706,0.497108,0.0574185,0.278006,0.729658,0.0358455,-0.329254,0.932358,-0.1011265,0.325706,0.957048,-0.0084065,-0.0730609999999999,-8.99999999999998e-05,-0.0014655,0.0730609999999999,8.99999999999998e-05,0.0014654999999999,-0.1177739999999999,-0.412342,-0.0163875,0.111396,-0.4499519999999999,0.0241655,-0.114394,-0.777372,-0.0155015,0.116906,-0.793752,-0.0071395,0
193,-0.0092374999999999,0.725928,0.0425755,-0.1638954999999999,0.491428,0.0311714999999999,-0.3026855,0.693678,-0.0313745,0.1481045,0.4971879999999999,0.0582295,0.2809045,0.722568,0.0362755,-0.3303655,0.923208,-0.1022955,0.3267645,0.947178,-0.0085245,-0.0730635,-0.000176,-0.0017175,0.0730635,0.000176,0.0017174999999999,-0.1173155,-0.412452,-0.0167485,0.1119745,-0.449822,0.0258665,-0.1136254999999999,-0.777782,-0.0144105,0.1177345,-0.793642,-0.0053985,0
194,-0.0090314999999999,0.7263575,0.041915,-0.1641594999999999,0.4901975,0.030303,-0.3097795,0.6790175,-0.0320919999999999,0.1486005,0.4969775,0.059632,0.2854905,0.7083775000000001,0.03712,-0.3300594999999999,0.9057275,-0.1031199999999999,0.3284105,0.9303275,-0.0087399999999999,-0.0730875,-0.0002744999999999,-0.002155,0.0730875,0.0002745,0.002155,-0.1162595,-0.4110625,-0.017078,0.1130405,-0.4486825,0.02762,-0.1123195,-0.7785525,-0.013929,0.1192205,-0.7929925,-0.0029229999999999,0
195,-0.008747,0.7271235,0.040965,-0.164412,0.4887435,0.029295,-0.3186819999999999,0.6608935,-0.0332489999999999,0.148538,0.4968235,0.060429,0.291418,0.6908935,0.037921,-0.330082,0.8830435,-0.105789,0.330248,0.9101235,-0.0093669999999999,-0.073075,-0.0003595,-0.0025759999999999,0.073075,0.0003594999999999,0.002576,-0.115002,-0.4095965,-0.0176829999999999,0.1141379999999999,-0.4471564999999999,0.028831,-0.111072,-0.7784964999999999,-0.0131389999999999,0.120878,-0.7920564999999999,-0.0001609999999999,0
196,-0.0083155,0.728365,0.0395444999999999,-0.1645685,0.4871149999999999,0.0283555,-0.3242885,0.639815,-0.0341835,0.1479815,0.4966349999999999,0.0605135,0.2958615,0.670755,0.0378355,-0.3301985,0.857635,-0.1088215,0.3319515,0.887115,-0.0108574999999999,-0.0730514999999999,-0.0004849999999999,-0.0029875,0.0730514999999999,0.0004849999999999,0.0029875,-0.1132485,-0.408245,-0.0182535,0.1154415,-0.444025,0.0288015,-0.1090385,-0.778275,-0.0124685,0.1234815,-0.790635,0.0030085,0
197,-0.0074259999999999,0.729908,0.037485,-0.164375,0.4855779999999999,0.027136,-0.326925,0.613338,-0.0338119999999999,0.147225,0.496158,0.060113,0.299985,0.646598,0.037705,-0.328065,0.827468,-0.1141779999999999,0.333325,0.860738,-0.0126459999999999,-0.073056,-0.000603,-0.0033519999999999,0.073056,0.0006029999999999,0.003352,-0.111395,-0.406622,-0.019373,0.117075,-0.440062,0.028102,-0.1066749999999999,-0.777702,-0.0117769999999999,0.126625,-0.788932,0.006376,0
198,-0.0056489999999999,0.7318465,0.035367,-0.163696,0.4840464999999999,0.025751,-0.325446,0.5838865,-0.032515,0.146764,0.4955064999999999,0.059605,0.304204,0.6184864999999999,0.038674,-0.322946,0.7910865,-0.121026,0.334804,0.8308765,-0.016835,-0.073132,-0.0006955,-0.003841,0.073132,0.0006954999999999,0.003841,-0.109286,-0.4048135,-0.0200599999999999,0.118934,-0.4353635,0.025126,-0.103906,-0.7767535,-0.011226,0.130704,-0.7866235,0.01028,0
199,-0.0025004999999999,0.734032,0.0318045,-0.1623995,0.4822019999999999,0.0233605,-0.3208094999999999,0.545482,-0.0301755,0.1465105,0.494292,0.0585445,0.3088605,0.581032,0.0408365,-0.3162594999999999,0.738162,-0.1314354999999999,0.3375105,0.7868120000000001,-0.0250405,-0.0731865,-0.000821,-0.0044975,0.0731865,0.000821,0.0044975,-0.1070394999999999,-0.402988,-0.0204244999999999,0.1216305,-0.429808,0.0184955,-0.1005495,-0.775238,-0.0104425,0.1357305,-0.783758,0.0122415,0
200,0.0017769999999999,0.736436,0.0278064999999999,-0.159856,0.480546,0.0208665,-0.315976,0.506296,-0.0270144999999999,0.147034,0.492376,0.0570085,0.313714,0.545986,0.0439014999999999,-0.309566,0.678446,-0.1397655,0.341274,0.7378159999999999,-0.0361035,-0.073259,-0.0009639999999999,-0.0053675,0.073259,0.0009639999999999,0.0053674999999999,-0.104616,-0.401434,-0.0203995,0.125694,-0.423774,0.0105154999999999,-0.096936,-0.773534,-0.0089175,0.141344,-0.7802840000000001,0.0124514999999999,0
201,0.0069345,0.7389425,0.0230175,-0.1570665,0.4790825,0.0182575,-0.3114965,0.4662125,-0.0235265,0.1478735,0.4902125,0.0554175,0.3174935,0.5069425,0.0468675,-0.3031965,0.6172424999999999,-0.1480105,0.3448335,0.6825525,-0.0477805,-0.0733465,-0.0010935,-0.0063604999999999,0.0733465,0.0010935,0.0063604999999999,-0.1025565,-0.3982475,-0.0194734999999999,0.1307835,-0.4169075,0.0011294999999999,-0.0936565,-0.7716375000000001,-0.0069354999999999,0.1488135,-0.7759275000000001,0.0082954999999999,0
202,0.011574,0.7413535,0.0177815,-0.153949,0.4774535,0.0155535,-0.308099,0.4288535,-0.0192284999999999,0.149161,0.4878234999999999,0.0542225,0.318691,0.4682135,0.0506185,-0.295899,0.5538635000000001,-0.1553425,0.348151,0.6286535,-0.0595425,-0.073319,-0.0011535,-0.0075514999999999,0.073319,0.0011534999999999,0.0075515,-0.1015289999999999,-0.3938665,-0.0180164999999999,0.136391,-0.4092265,-0.0101364999999999,-0.0914889999999999,-0.7696565,-0.0041324999999999,0.157091,-0.7712265,0.0004825,0
203,0.014332,0.7430335,0.0114075,-0.151549,0.4759935,0.0114644999999999,-0.303009,0.3969035,-0.0141465,0.151181,0.4855635,0.0524045,0.319451,0.4348035,0.0546335,-0.289549,0.4857835,-0.1598585,0.351681,0.5761435,-0.0707085,-0.073119,-0.0011115,-0.0084144999999999,0.073119,0.0011114999999999,0.0084144999999999,-0.101849,-0.3900865,-0.0163295,0.140251,-0.4014965,-0.0233304999999999,-0.0912589999999999,-0.7668665,8.64999999999963e-05,0.166011,-0.7674165000000001,-0.0111085,0
204,0.0160675,0.7442759999999999,0.0046265,-0.1502454999999999,0.4746559999999999,0.0073565,-0.2956755,0.3669759999999999,-0.0082884999999999,0.1521745,0.4830259999999999,0.0502545,0.3188344999999999,0.403616,0.0592335,-0.2824455,0.4219659999999999,-0.1611145,0.3540345,0.522286,-0.0813145,-0.0729355,-0.0010049999999999,-0.0095734999999999,0.0729355,0.0010049999999999,0.0095735,-0.1025455,-0.386654,-0.0148274999999999,0.1431145,-0.394144,-0.0371344999999999,-0.0918955,-0.764154,0.0055595,0.1745344999999999,-0.7638440000000001,-0.0236025,0
205,0.0193545,0.7448445,-0.0031,-0.1495105,0.4737245,0.0027569999999999,-0.2846805,0.3365745,-0.001029,0.1526495,0.4799545,0.047319,0.3182895,0.3694645,0.065368,-0.2734605,0.3546645,-0.158581,0.3556595,0.4670645,-0.091371,-0.0727605,-0.0008155,-0.010677,0.0727605,0.0008155,0.0106769999999999,-0.1033605,-0.3830254999999999,-0.012111,0.1466095,-0.3873655,-0.0514209999999999,-0.0933705,-0.7610855,0.013404,0.1883695,-0.7569755,-0.044221,0
206,0.0272235,0.744444,-0.0117089999999999,-0.1455015,0.4726439999999999,-0.0032429999999999,-0.2689815,0.312114,0.007004,0.1540085,0.4768239999999999,0.043281,0.3191585,0.342144,0.067835,-0.2619515,0.288514,-0.1495089999999999,0.3599685,0.4108639999999999,-0.103709,-0.0725345,-0.000564,-0.0120789999999999,0.0725345,0.000564,0.012079,-0.1042315,-0.379546,-0.0067099999999999,0.1529785,-0.380666,-0.0653389999999999,-0.0952415,-0.757486,0.025012,0.2051585,-0.7459060000000001,-0.0673389999999999,0
207,0.036542,0.743425,-0.020094,-0.140635,0.471705,-0.0085739999999999,-0.250305,0.290275,0.015365,0.157095,0.473835,0.039507,0.3187149999999999,0.316855,0.070583,-0.2512649999999999,0.228165,-0.137684,0.365395,0.358375,-0.113674,-0.072337,-0.000323,-0.0133039999999999,0.072337,0.0003229999999999,0.0133039999999999,-0.105115,-0.376175,-0.0012139999999999,0.159705,-0.374325,-0.076594,-0.097245,-0.7545149999999999,0.037456,0.222505,-0.7349549999999999,-0.090504,0
208,0.047576,0.741592,-0.028305,-0.134734,0.471182,-0.0134149999999999,-0.232954,0.278292,0.0221979999999999,0.162056,0.471282,0.0353659999999999,0.317386,0.301662,0.071501,-0.241784,0.1832119999999999,-0.123105,0.373186,0.320322,-0.122315,-0.072189,2.000000000000265e-06,-0.0142449999999999,0.072189,-2.000000000000265e-06,0.0142449999999999,-0.107294,-0.372848,0.0049749999999999,0.166216,-0.368458,-0.084445,-0.100564,-0.752008,0.05073,0.239146,-0.724638,-0.111455,0
209,0.0615799999999999,0.7384745,-0.039,-0.1276749999999999,0.4708645,-0.01939,-0.217535,0.2692245,0.02831,0.169365,0.4681545,0.0292599999999999,0.316065,0.2880445,0.0648639999999999,-0.233875,0.1458245,-0.1063,0.384245,0.2860945,-0.13273,-0.0721199999999999,0.0008105,-0.01469,0.0721199999999999,-0.0008105,0.0146899999999999,-0.111025,-0.3703654999999999,0.01181,0.170955,-0.3629354999999999,-0.09097,-0.107355,-0.7495655,0.06613,0.253055,-0.7140555,-0.13032,0
210,0.0757785,0.7345845,-0.050345,-0.1190495,0.4707445,-0.0270549999999999,-0.2053295,0.2653045,0.033365,0.1781305,0.4646045,0.020385,0.3156905,0.2797045,0.056483,-0.2280195,0.1177645,-0.0897149999999999,0.3951205,0.2586645,-0.141825,-0.0720285,0.0019985,-0.014855,0.0720285,-0.0019985,0.014855,-0.1155095,-0.3661055,0.0181149999999999,0.1748505,-0.3589655,-0.0960649999999999,-0.1163095,-0.7462755,0.081887,0.2624805,-0.7040755,-0.1446249999999999,0
