sb224sc-HT22-VT27/4dt907/src/data/labeled_files/A3_kinect_mirrored.csv
FrameNo,nose_3d_x,nose_3d_y,nose_3d_z,left_shoulder_3d_x,left_shoulder_3d_y,left_shoulder_3d_z,left_elbow_3d_x,left_elbow_3d_y,left_elbow_3d_z,right_shoulder_3d_x,right_shoulder_3d_y,right_shoulder_3d_z,right_elbow_3d_x,right_elbow_3d_y,right_elbow_3d_z,left_wrist_3d_x,left_wrist_3d_y,left_wrist_3d_z,right_wrist_3d_x,right_wrist_3d_y,right_wrist_3d_z,left_hip_3d_x,left_hip_3d_y,left_hip_3d_z,right_hip_3d_x,right_hip_3d_y,right_hip_3d_z,left_knee_3d_x,left_knee_3d_y,left_knee_3d_z,right_knee_3d_x,right_knee_3d_y,right_knee_3d_z,left_ankle_3d_x,left_ankle_3d_y,left_ankle_3d_z,right_ankle_3d_x,right_ankle_3d_y,right_ankle_3d_z,activity_label
0,1.0023655,0.764661,0.058202,0.8594325,0.462561,0.056704,0.8184925000000001,0.205061,0.083561,1.1618625,0.4670709999999999,0.041216,1.1828325,0.209931,0.050702,0.8001425,-0.019911,0.015921,1.1963225,-0.0008719999999999,-0.035869,0.9280225,-0.0007019999999999,-0.0008299999999999,1.0719775,0.0007019999999999,0.0008299999999999,0.8882025,-0.421879,0.028373,1.1222525,-0.383569,-0.015153,0.8791725000000001,-0.7417189999999999,0.006624,1.1224125,-0.740339,-0.018824,0
1,1.0009625,0.766084,0.057613,0.8630424999999999,0.460764,0.0564999999999999,0.8220025,0.207054,0.082397,1.1654225,0.465454,0.0499489999999999,1.1819325,0.211224,0.049347,0.8034425000000001,-0.01149,0.017352,1.1952225,0.0001019999999999,-0.036451,0.9282075,-0.0006769999999999,-0.000235,1.0717925,0.0006769999999999,0.0002349999999999,0.8869325,-0.420026,0.0269629999999999,1.1216125,-0.381416,-0.014343,0.8769025,-0.741896,0.0032159999999999,1.1207425,-0.740836,-0.025222,0
2,1.0007295,0.7663465,0.0574394999999999,0.8628315,0.4605365,0.0562405,0.8220215000000001,0.2078865,0.0818135,1.1659115,0.4651165,0.0512985,1.1817015,0.2116765,0.0489424999999999,0.8030315,-0.0107605,0.0168514999999999,1.1949415,0.0005224999999999,-0.0369095,0.9284405,-0.0007734999999999,0.0001074999999999,1.0715595,0.0007734999999999,-0.0001075,0.8867715,-0.4194735,0.0267434999999999,1.1213215,-0.3812735,-0.0142995,0.8766015,-0.7419035,0.0033944999999999,1.1199015,-0.7396935,-0.0247365,0
3,1.000602,0.7665285000000001,0.0574725,0.863229,0.4602885,0.0561565,0.821319,0.2074985,0.0809875,1.166539,0.4646085,0.0524085,1.181749,0.2121085,0.0485885,0.8030390000000001,-0.0100245,0.0160045,1.194639,0.0098045,-0.0332944999999999,0.928516,-0.0007245,0.0001815,1.071484,0.0007244999999999,-0.0001814999999999,0.8866690000000002,-0.4193515,0.0267845,1.121119,-0.3808015,-0.0143644999999999,0.8762590000000001,-0.7417414999999999,0.0031785,1.119499,-0.7402015,-0.0248525,0
4,1.0007955,0.7665035,0.057519,0.8634345,0.4603735,0.056517,0.8204145,0.2080935,0.07909,1.1673345,0.4641235,0.053729,1.1833545,0.2118334999999999,0.047744,0.8015745,-0.0041565,0.013908,1.1951045,0.0052615,-0.042115,0.9285335,-0.0007394999999999,0.0002279999999999,1.0714665,0.0007395,-0.0002279999999999,0.8869145,-0.4198064999999999,0.027065,1.1211645,-0.3807365,-0.0143529999999999,0.8760145,-0.7429865,0.002565,1.1192845,-0.7404365,-0.023661,0
5,0.9999065,0.7664065,0.0583365,0.8579645,0.4636765,0.0570325,0.8122745,0.2112865,0.0663235,1.1670545,0.4642165,0.0549425,1.1920645,0.2151665,0.0336835,0.7840445,0.0073554999999999,-0.0195105,1.2109845,0.0297375,-0.0656265,0.9286565,-0.0007655,0.0004604999999999,1.0713435,0.0007654999999999,-0.0004604999999999,0.8872045000000001,-0.4202635,0.0269205,1.1215045,-0.3787435,-0.0151484999999999,0.8764745,-0.7426834999999999,0.0017455,1.1188945,-0.7421435,-0.0259215,0
6,1.000398,0.7658389999999999,0.058849,0.8561920000000001,0.465099,0.057197,0.8034720000000001,0.215909,0.054231,1.165862,0.465389,0.051552,1.199882,0.228989,0.02021,0.7694420000000001,0.012247,-0.0394219999999999,1.223672,0.025321,-0.117186,0.928618,-0.000746,0.000665,1.071382,0.000746,-0.0006649999999999,0.887652,-0.418601,0.026999,1.121932,-0.377481,-0.0147579999999999,0.876822,-0.742901,0.001651,1.118842,-0.741351,-0.0262079999999999,0
7,1.001747,0.76459,0.06137,0.862302,0.46458,0.056278,0.778142,0.26182,0.027393,1.161872,0.46751,0.04775,1.216132,0.26425,-0.015508,0.734782,0.093983,-0.094034,1.237962,0.105748,-0.153364,0.928333,-0.0006189999999999,0.001486,1.071667,0.000619,-0.001486,0.887742,-0.41607,0.027831,1.121612,-0.37727,-0.0134659999999999,0.877122,-0.7449399999999999,0.002066,1.118182,-0.73934,-0.023128,0
8,1.0022434999999998,0.76419,0.0629395,0.8620075,0.46506,0.0562885,0.7650875,0.28236,0.0131855,1.1613975,0.4678,0.0470555,1.2261375,0.28346,-0.0341005,0.7159575,0.13784,-0.1231855,1.2503375,0.14705,-0.1856654999999999,0.9281915,-0.0006189999999999,0.0018384999999999,1.0718085,0.000619,-0.0018384999999999,0.8879175,-0.41511,0.0279925,1.1215475,-0.37625,-0.0132455,0.8772075,-0.74544,0.0015634999999999,1.1175975,-0.7394799999999999,-0.0228045,0
9,1.002763,0.764086,0.064581,0.861314,0.466526,0.056645,0.7512440000000001,0.310626,-0.0006229999999999,1.160614,0.468416,0.045941,1.237374,0.310566,-0.053534,0.694984,0.192726,-0.154469,1.262844,0.199226,-0.218999,0.928027,-0.0005809999999999,0.002188,1.071973,0.0005809999999999,-0.0021879999999999,0.887974,-0.414224,0.028066,1.121264,-0.375224,-0.01297,0.877004,-0.745544,0.001235,1.116914,-0.7392839999999999,-0.0219499999999999,0
10,1.003394,0.7635985,0.066066,0.8606320000000001,0.4687785,0.057254,0.7389920000000001,0.3426385,-0.013188,1.159862,0.4690185,0.044392,1.247972,0.3413585,-0.072187,0.677182,0.2579985,-0.1792,1.273802,0.2609385,-0.2488099999999999,0.927831,-0.0005124999999999,0.0025699999999999,1.072169,0.0005124999999999,-0.0025699999999999,0.8879319999999999,-0.4136915,0.027968,1.120982,-0.3744114999999999,-0.012765,0.876692,-0.7460315000000001,0.000764,1.116252,-0.7395715,-0.0212529999999999,0
11,1.003995,0.7625985,0.067371,0.859747,0.4711285,0.057799,0.727847,0.3804485,-0.024319,1.159007,0.4694685,0.0425409999999999,1.257877,0.3771985,-0.0895739999999999,0.661597,0.3237085,-0.200864,1.283477,0.3309085,-0.2716139999999999,0.927638,-0.0004525,0.0029679999999999,1.072362,0.0004524999999999,-0.002968,0.887837,-0.4136315,0.027755,1.120677,-0.3742115,-0.012752,0.876307,-0.7470315000000001,0.0002479999999999,1.115567,-0.7401515000000001,-0.020414,0
12,1.004699,0.76084,0.068574,0.858801,0.47357,0.058365,0.718581,0.41521,-0.033288,1.158261,0.47007,0.04042,1.267021,0.41118,-0.103997,0.649961,0.40056,-0.214507,1.292261,0.39756,-0.292157,0.927472,-0.00033,0.0033919999999999,1.072528,0.0003299999999999,-0.0033919999999999,0.8877210000000001,-0.4139299999999999,0.027554,1.1203809999999998,-0.37477,-0.0127009999999999,0.875971,-0.74872,1.1000000000000593e-05,1.114661,-0.74127,-0.0196939999999999,0
13,1.0052255,0.7586415,0.069394,0.8581185,0.4760515,0.058965,0.7119685,0.4513715,-0.0390579999999999,1.1577485,0.4702815,0.038899,1.2735385,0.4469815,-0.113893,0.6429685,0.4724215,-0.2217029999999999,1.2984885,0.4640615,-0.304543,0.9273535,-0.0002145,0.003735,1.0726465,0.0002145,-0.0037349999999999,0.8875284999999999,-0.4155284999999999,0.027123,1.1199585,-0.3761285,-0.0129039999999999,0.8757285,-0.7508885,-0.0002579999999999,1.1136785,-0.7429785,-0.0190009999999999,0
14,1.005694,0.7562059999999999,0.070048,0.857549,0.478446,0.059676,0.707559,0.486386,-0.041192,1.157299,0.470396,0.037473,1.279219,0.481086,-0.11726,0.6407690000000001,0.5422459999999999,-0.22245,1.302689,0.530766,-0.30695,0.927272,-0.000128,0.0040359999999999,1.072728,0.0001279999999999,-0.004036,0.887339,-0.417574,0.026652,1.119519,-0.377944,-0.013164,0.875489,-0.7533040000000001,-0.000621,1.112829,-0.7451040000000001,-0.01887,0
15,1.006047,0.753624,0.0704115,0.856737,0.480824,0.0605055,0.705357,0.518964,-0.0418345,1.156877,0.470634,0.0362645,1.283797,0.514584,-0.1193784999999999,0.640397,0.607534,-0.2233885,1.306157,0.596154,-0.3085085,0.927199,-5.199999999999996e-05,0.0042955,1.072801,5.199999999999996e-05,-0.0042955,0.887087,-0.419956,0.0262145,1.119047,-0.380216,-0.0135545,0.875207,-0.755756,-0.0010655,1.112117,-0.7476659999999999,-0.0191644999999999,0
16,1.0063205,0.750893,0.0703735,0.8554145000000001,0.483193,0.0613654999999999,0.7050345,0.547953,-0.0427145,1.1567645,0.471083,0.0352195,1.2844145,0.542063,-0.1204085,0.6400745,0.661493,-0.2242685,1.3058345,0.6511129999999999,-0.3093885,0.9271805,5.9000000000000025e-05,0.0045324999999999,1.0728195,-5.9000000000000025e-05,-0.0045325,0.8868545,-0.422637,0.0257985,1.1185545,-0.383107,-0.0139585,0.8749145,-0.758237,-0.0013615,1.1114645,-0.750467,-0.0195865,0
17,1.0065404999999998,0.7478375,0.070036,0.8535735,0.4857575,0.062305,0.7048035,0.5808675,-0.043467,1.1568735,0.4715575,0.034479,1.2850535,0.5746575,-0.1213009999999999,0.6398435,0.7151675000000001,-0.225021,1.3056035,0.7073675,-0.310141,0.9272145,0.0001945,0.004751,1.0727855,-0.0001945,-0.0047509999999999,0.8866735,-0.4257225,0.025399,1.1181535,-0.3866525,-0.0142769999999999,0.8746435,-0.7611025,-0.0015439999999999,1.1110734999999998,-0.7536025,-0.0202149999999999,0
18,1.0067115,0.7447729999999999,0.069599,0.8519565,0.4876729999999999,0.062885,0.7050465,0.606163,-0.041372,1.1571965,0.472323,0.033847,1.2851865,0.5999730000000001,-0.122011,0.6421265,0.7631030000000001,-0.216821,1.3058765,0.755743,-0.3079309999999999,0.9272815,0.0002759999999999,0.004939,1.0727185,-0.0002759999999999,-0.0049389999999999,0.8865365000000001,-0.428897,0.025082,1.1177765,-0.390497,-0.014629,0.8742565,-0.7639469999999999,-0.001597,1.1106265,-0.7568870000000001,-0.020255,0
19,1.0067765,0.7418600000000001,0.06917,0.8510075,0.48863,0.063148,0.7077675,0.62787,-0.038702,1.1576675,0.47328,0.033349,1.2858075,0.62128,-0.11769,0.6468575000000001,0.8011900000000001,-0.20414,1.3066975,0.79342,-0.29767,0.9273725,0.0003099999999999,0.0050399999999999,1.0726275,-0.00031,-0.0050399999999999,0.8864275000000001,-0.43193,0.024956,1.1174375,-0.3943899999999999,-0.0148329999999999,0.8740075,-0.76678,-0.001454,1.1102875,-0.76034,-0.020311,0
20,1.0068255,0.7389905,0.0689325,0.8508405,0.4892904999999999,0.0633595,0.7114605,0.6438205,-0.0346985,1.1580705,0.4745005,0.0329775,1.2865005,0.6376805,-0.1130385,0.6539904999999999,0.8384105,-0.1900685,1.3066405,0.8244405,-0.2843185,0.9274435,0.0003394999999999,0.0051085,1.0725565,-0.0003395,-0.0051085,0.8862905000000001,-0.4350095,0.0248215,1.1171605,-0.3979295,-0.0149515,0.8739705,-0.7697495,-0.0013034999999999,1.1101405,-0.7637595,-0.0205415,0
21,1.0067375,0.7364825,0.0686384999999999,0.8508125,0.4898125,0.0634315,0.7154925,0.6592225,-0.0300525,1.1581925,0.4759225,0.0327265,1.2864625,0.6546825000000001,-0.1064924999999999,0.6635625,0.8639325,-0.1731325,1.3061525,0.8525625,-0.2678925,0.9274805,0.0003395,0.0050865,1.0725195,-0.0003394999999999,-0.0050865,0.8861825,-0.4375874999999999,0.0246065,1.1170525,-0.4005074999999999,-0.0152095,0.8738825,-0.7723275,-0.0014605,1.1100525,-0.7663375,-0.0208585,0
22,1.0067075,0.7343385,0.0683085,0.8508415,0.4899785,0.0634925,0.7199215,0.6722785,-0.0248104999999999,1.1582615,0.4778484999999999,0.0330385,1.2860415,0.6673285,-0.0991315,0.6732415,0.8843185,-0.1569315,1.3051715,0.8745985,-0.2490815,0.9274835,0.0004294999999999,0.0050015,1.0725165,-0.0004294999999999,-0.0050014999999999,0.8861215,-0.4395815,0.0243985,1.1170114999999998,-0.4030315,-0.0154314999999999,0.8738915,-0.7745615,-0.0015414999999999,1.1099715,-0.7685715000000001,-0.0214625,0
23,1.0066995,0.732484,0.0680154999999999,0.8508715,0.490364,0.0634765,0.7247615000000001,0.684864,-0.0186215,1.1583915,0.480034,0.0336665,1.2847915,0.679924,-0.0886375,0.6834614999999999,0.903944,-0.1391875,1.3036715,0.8946040000000001,-0.2280674999999999,0.9274905,0.0005189999999999,0.0048474999999999,1.0725095,-0.0005189999999999,-0.0048475,0.8860615000000001,-0.441366,0.0242604999999999,1.1169915,-0.4056659999999999,-0.0156134999999999,0.8739115,-0.776516,-0.0015775,1.1099715,-0.770536,-0.0216585,0
24,1.0067145,0.7307485,0.0678205,0.8511605,0.4905685,0.0634145,0.7301705000000001,0.6962885000000001,-0.0117844999999999,1.1585705,0.4821384999999999,0.0345445,1.2828505,0.6909185,-0.0778425,0.6928004999999999,0.9248085,-0.1234315,1.3020505,0.9123285,-0.2065014999999999,0.9275055,0.0005404999999999,0.0046925,1.0724945,-0.0005404999999999,-0.0046924999999999,0.8860304999999999,-0.4431515,0.0241405,1.1169805,-0.4088315,-0.0157954999999999,0.8742205000000001,-0.7787215,-0.0016804999999999,1.1101305,-0.7730715,-0.0223634999999999,0
25,1.0067635,0.729164,0.0675615,0.8519905,0.490784,0.0632515,0.7355505,0.705994,-0.0049625,1.1587905,0.483994,0.0354115,1.2809105,0.700894,-0.0674525,0.7015705,0.944354,-0.1083325,1.3006105,0.927534,-0.1854225,0.9275515,0.0006209999999999,0.0045134999999999,1.0724485,-0.000621,-0.0045135,0.8859205,-0.444796,0.0240004999999999,1.1170205,-0.411806,-0.0159725,0.8745605,-0.780776,-0.0018605,1.1103405,-0.775556,-0.0230535,0
26,1.00682,0.7279085000000001,0.0671695,0.853108,0.4908485,0.0630355,0.739958,0.7107585000000001,0.0004105,1.158998,0.4858485,0.0363775,1.278878,0.7050085,-0.0590595,0.708778,0.9570985,-0.0948815,1.299378,0.9345185,-0.1690015,0.927607,0.0006915,0.0043374999999999,1.072393,-0.0006914999999999,-0.0043375,0.885758,-0.4461515,0.0238595,1.117078,-0.4146514999999999,-0.0161495,0.8749480000000001,-0.7826015,-0.0020464999999999,1.110588,-0.7777014999999999,-0.0239715,0
27,1.006918,0.7267205,0.0667675,0.854557,0.4910105,0.0627055,0.744587,0.7154705,0.0061835,1.159087,0.4875605,0.0373895,1.276727,0.7084805,-0.0501145,0.714267,0.9639305,-0.0841514999999999,1.297867,0.9389205,-0.1522715,0.92765,0.0008414999999999,0.0041814999999999,1.07235,-0.0008415,-0.0041815,0.885617,-0.4473695,0.0237335,1.117167,-0.4168294999999999,-0.0163245,0.875367,-0.7843895,-0.0022634999999999,1.110927,-0.7797195,-0.0249464999999999,0
28,1.0070154999999998,0.725572,0.0663065,0.8562385,0.491222,0.0624005,0.7490685,0.719732,0.0121165,1.1591785,0.489472,0.0387305,1.2746485,0.712282,-0.0416615,0.7202885,0.970762,-0.0718235,1.2961885,0.942962,-0.1350015,0.9276655,0.00105,0.0039845,1.0723345,-0.00105,-0.0039844999999999,0.8854485,-0.448328,0.0236245,1.1172685,-0.418718,-0.0164544999999999,0.8757785,-0.786318,-0.0024264999999999,1.1113185,-0.781758,-0.0257734999999999,0
29,1.007107,0.724526,0.0658325,0.8578740000000001,0.491456,0.0621845,0.753004,0.723336,0.0175005,1.159294,0.491396,0.0402155,1.272454,0.7143459999999999,-0.0331315,0.725514,0.975136,-0.0595095,1.2944239999999998,0.944956,-0.1191915,0.927699,0.0012809999999999,0.0038065,1.072301,-0.0012809999999999,-0.0038065,0.885244,-0.4491239999999999,0.0235205,1.117354,-0.420454,-0.0165545,0.876204,-0.788284,-0.0025514999999999,1.111624,-0.783794,-0.0265084999999999,0
30,1.0072169999999998,0.7237294999999999,0.06544,0.8590880000000001,0.4913495,0.062129,0.7565180000000001,0.7267294999999999,0.022781,1.159418,0.4933495,0.041914,1.2706179999999998,0.7153495,-0.0243039999999999,0.730228,0.9800795,-0.046249,1.2926479999999998,0.9477995,-0.103573,0.927729,0.0014615,0.003628,1.072271,-0.0014614999999999,-0.0036279999999999,0.885028,-0.4496104999999999,0.023463,1.117328,-0.4219805,-0.016588,0.876668,-0.7900605,-0.0025749999999999,1.112048,-0.7855905000000001,-0.0271079999999999,0
31,1.0073245,0.723053,0.0650429999999999,0.8599355000000001,0.491163,0.06216,0.7590755000000001,0.7278629999999999,0.027624,1.1595455,0.494873,0.043588,1.2681555,0.715173,-0.01632,0.7334855,0.982893,-0.034949,1.2910055,0.950523,-0.090638,0.9277565,0.001555,0.003454,1.0722435,-0.001555,-0.0034539999999999,0.8847955,-0.449997,0.023404,1.1172755,-0.4230669999999999,-0.016619,0.8771155,-0.791707,-0.0026289999999999,1.1124655,-0.787107,-0.027559,0
32,1.0074539999999998,0.7224105,0.0647465,0.860496,0.4906605,0.0622475,0.761066,0.7292805,0.0315675,1.159726,0.4963404999999999,0.0452245,1.266346,0.7162005,-0.0105665,0.735606,0.9840805,-0.0253574999999999,1.289546,0.9531805,-0.0806775,0.927786,0.0016464999999999,0.0033155,1.072214,-0.0016465,-0.0033154999999999,0.884606,-0.4505395,0.0233865,1.117226,-0.4241795,-0.0166084999999999,0.877446,-0.7930294999999999,-0.0026694999999999,1.112676,-0.7882195,-0.0274205,0
33,1.0075575,0.721888,0.0644415,0.8607285,0.490118,0.0623985,0.7621285,0.730888,0.0347625,1.1598585,0.497848,0.0468735,1.2645385,0.717218,-0.0051774999999999,0.7371585,0.983998,-0.0164075,1.2878985,0.955698,-0.0719295,0.9277955,0.001784,0.0031825,1.0722045,-0.001784,-0.0031824999999999,0.8843985,-0.451032,0.0233925,1.1171185,-0.425262,-0.0166004999999999,0.8777185000000001,-0.7943319999999999,-0.0027134999999999,1.1128985,-0.789492,-0.0277094999999999,0
34,1.0075255,0.7214714999999999,0.064161,0.8607865,0.4894015,0.062543,0.7627965,0.7311415,0.037788,1.1599965,0.4993515,0.0485219999999999,1.2626665,0.7182115,-0.000221,0.7384865,0.9837015,-0.008327,1.2860565,0.9568015,-0.063452,0.9277935,0.0018064999999999,0.0030659999999999,1.0722065,-0.0018065,-0.003066,0.8842565,-0.4513085,0.023378,1.1169565,-0.4259684999999999,-0.016595,0.8779365,-0.7955785000000001,-0.002781,1.1130065,-0.7905585,-0.028019,0
35,1.0075195,0.7213545,0.063964,0.8608295,0.4885344999999999,0.06269,0.7632695,0.7316745,0.040588,1.1600995,0.5008345000000001,0.050105,1.2608495,0.7186045000000001,0.004446,0.7396395,0.9831545,-0.001295,1.2839895,0.9595545,-0.055647,0.9277835,0.0017964999999999,0.002935,1.0722165,-0.0017964999999999,-0.002935,0.8841495,-0.4515955,0.023402,1.1167395,-0.4262255,-0.016567,0.8781295000000001,-0.7967255,-0.0028299999999999,1.1131295,-0.7915455,-0.028209,0
36,1.0075269999999998,0.721231,0.0638065,0.8608899999999999,0.4876809999999999,0.0628395,0.76368,0.733741,0.0429415,1.16018,0.5022909999999999,0.0515975,1.25914,0.719591,0.0085305,0.74058,0.982601,0.0047885,1.28182,0.962201,-0.0490665,0.927766,0.001723,0.0028135,1.072234,-0.001723,-0.0028135,0.8841,-0.451899,0.0234375,1.11653,-0.426289,-0.0165045,0.87833,-0.797779,-0.0029894999999999,1.11324,-0.7923990000000001,-0.0282995,0
37,1.007552,0.7212624999999999,0.063705,0.860869,0.4870724999999999,0.063007,0.764049,0.7349325,0.044983,1.160219,0.5034525,0.052752,1.257649,0.7206724999999999,0.011673,0.740889,0.9820925,0.009212,1.279869,0.9641925,-0.044209,0.927749,0.0015995,0.002755,1.072251,-0.0015994999999999,-0.002755,0.8840790000000001,-0.4523875,0.023523,1.116359,-0.4259975,-0.0163759999999999,0.878489,-0.7984375,-0.0031619999999999,1.113339,-0.7929275,-0.028319,0
38,1.0075835,0.721364,0.063617,0.8606615,0.4865539999999999,0.063221,0.7642615,0.736054,0.047101,1.1602315,0.504544,0.053763,1.2561515,0.721324,0.0144719999999999,0.7408715,0.981574,0.0134689999999999,1.2779015,0.965974,-0.039821,0.9277465,0.0014549999999999,0.0027259999999999,1.0722535,-0.001455,-0.002726,0.8840915,-0.452886,0.023651,1.1162115,-0.425576,-0.01622,0.8786214999999999,-0.799006,-0.003298,1.1134515,-0.793346,-0.028321,0
39,1.007572,0.7215889999999999,0.0635255,0.860176,0.486129,0.0634035,0.7640560000000001,0.7371289999999999,0.0487565,1.1601659999999998,0.5053989999999999,0.0544215,1.254506,0.722069,0.0164475,0.740356,0.981249,0.0161785,1.276066,0.967249,-0.0367465,0.927774,0.0013169999999999,0.0027525,1.072226,-0.0013169999999999,-0.0027525,0.884076,-0.453211,0.0237964999999999,1.116086,-0.4258409999999999,-0.0160575,0.878726,-0.799371,-0.0034135,1.113526,-0.793671,-0.0280114999999999,0
40,1.0075135,0.721838,0.0633945,0.8595395,0.485568,0.0635995,0.7636695,0.737908,0.0503234999999999,1.1600695,0.5061180000000001,0.0548995,1.2533095,0.7227480000000001,0.0182105,0.7392495,0.979208,0.0187285,1.2744295,0.968308,-0.0344575,0.9277935,0.001184,0.0027895,1.0722065,-0.0011839999999999,-0.0027895,0.8840595,-0.4534519999999999,0.0239315,1.1159595,-0.4260819999999999,-0.0159045,0.8788495000000001,-0.7997719999999999,-0.0034795,1.1135295,-0.793952,-0.0278574999999999,0
41,1.007415,0.7221625,0.0632485,0.858932,0.4850025,0.0637855,0.763152,0.7384525000000001,0.0517545,1.159952,0.5066225,0.0552035,1.252142,0.7226225000000001,0.0197245,0.738442,0.9778825,0.0204785,1.273062,0.9691825,-0.0327075,0.927815,0.0010594999999999,0.0028415,1.072185,-0.0010594999999999,-0.0028415,0.8840520000000001,-0.4536175,0.0240755,1.115752,-0.4262074999999999,-0.0157275,0.878922,-0.8000475,-0.0034875,1.1135419999999998,-0.7941174999999999,-0.0277275,0
42,1.0072709999999998,0.7224855,0.063111,0.858565,0.4846055,0.0639909999999999,0.7625649999999999,0.7386455000000001,0.052919,1.159895,0.5069855,0.055434,1.251535,0.7225255,0.020288,0.737465,0.9769855,0.02158,1.272135,0.9697855,-0.031525,0.927823,0.0009624999999999,0.002895,1.072177,-0.0009624999999999,-0.0028949999999999,0.884065,-0.4538945,0.024241,1.115505,-0.4259245,-0.015487,0.878955,-0.8002845,-0.0035489999999999,1.113465,-0.7942945,-0.027308,0
43,1.0071225,0.7228175000000001,0.062973,0.8582725,0.4842675,0.064188,0.7619825,0.7386174999999999,0.053903,1.1598625,0.5072775,0.0556129999999999,1.2511625,0.7224575,0.020727,0.7364925,0.9762175,0.022498,1.2716025,0.9702175,-0.0304879999999999,0.9278335,0.0008944999999999,0.0029379999999999,1.0721665,-0.0008944999999999,-0.0029379999999999,0.8841425,-0.4543425,0.024484,1.1153225,-0.4256725,-0.0151889999999999,0.8790125,-0.8004525,-0.0036139999999999,1.1134225,-0.7945125,-0.0268159999999999,0
44,1.006981,0.7228175000000001,0.0629204999999999,0.858017,0.4839775,0.0643505,0.761467,0.7386174999999999,0.0547855,1.159887,0.5072775,0.0557775,1.250887,0.7219774999999999,0.0211524999999999,0.735607,0.9762175,0.0234575,1.271507,0.9705175,-0.0297285,0.927849,0.0008944999999999,0.0029734999999999,1.072151,-0.0008944999999999,-0.0029735,0.884267,-0.4547225,0.0246865,1.115187,-0.4257325,-0.0149135,0.879157,-0.8005225,-0.0035185,1.113567,-0.7946124999999999,-0.0266905,0
45,1.006844,0.7228445000000001,0.0627585,0.857837,0.4836944999999999,0.0644415,0.761027,0.7386444999999999,0.0555425,1.1599769999999998,0.5073045,0.0559165,1.250717,0.7215445,0.0215205,0.734657,0.9756445,0.0242525,1.271757,0.9705445,-0.0290694999999999,0.927858,0.0008675,0.0030025,1.072142,-0.0008675,-0.0030024999999999,0.8844470000000001,-0.4550555,0.0248505,1.115067,-0.4257055,-0.0147155,0.8793070000000001,-0.8006555,-0.0034135,1.113697,-0.7948055,-0.0264085,0
46,1.006774,0.7228915,0.0626195,0.857695,0.4834315,0.0644885,0.760665,0.7386915,0.0561515,1.160095,0.5073515,0.0560325,1.250635,0.7210415,0.0218575,0.7338450000000001,0.9750915,0.0247185,1.271975,0.9707915,-0.0284455,0.92786,0.0008205,0.0030255,1.07214,-0.0008205,-0.0030255,0.884605,-0.4554085,0.0249425,1.114975,-0.4260084999999999,-0.0145225,0.879435,-0.8007685,-0.0033194999999999,1.113895,-0.7949485000000001,-0.0263265,0
47,1.0068104999999998,0.723339,0.062508,0.8576575,0.483189,0.064558,0.7603475,0.738499,0.056747,1.1602875,0.507639,0.056193,1.2506775,0.720529,0.022333,0.7330975,0.974519,0.025074,1.2723175,0.971519,-0.027507,0.9278425,0.000706,0.0030129999999999,1.0721575,-0.0007059999999999,-0.003013,0.8847775,-0.455451,0.0250339999999999,1.1149274999999998,-0.425751,-0.014341,0.8796075,-0.800601,-0.003279,1.1142075,-0.794981,-0.026506,0
48,1.006933,0.7238565,0.062449,0.857683,0.4829965,0.064659,0.7600629999999999,0.7381865000000001,0.057266,1.160563,0.5079365,0.056389,1.250653,0.7197465000000001,0.022866,0.732443,0.9742165,0.025466,1.272783,0.9722165,-0.026514,0.927838,0.0006045,0.0029779999999999,1.072162,-0.0006045,-0.002978,0.884983,-0.4554935,0.025182,1.115003,-0.4258235,-0.014128,0.8798230000000001,-0.8002135,-0.00304,1.114493,-0.7947835,-0.0262589999999999,0
49,1.007158,0.7243925,0.0624005,0.857766,0.4828625,0.0647125,0.759866,0.7379225,0.0577155,1.160856,0.5082125,0.0565315,1.251016,0.7202825,0.0229735,0.7318359999999999,0.9739525,0.0258025,1.273426,0.9729525,-0.0253785,0.927822,0.0005114999999999,0.0029234999999999,1.072178,-0.0005115,-0.0029234999999999,0.885226,-0.4557175,0.0253075,1.115116,-0.4258175,-0.0139805,0.880066,-0.7997875,-0.0029125,1.114836,-0.7945375,-0.0259405,0
50,1.007447,0.724814,0.0622695,0.85787,0.4826439999999999,0.0646645,0.75975,0.737624,0.0580055,1.16114,0.508374,0.0565825,1.25142,0.720254,0.0232765,0.73124,0.973674,0.0260745,1.2742099999999998,0.973474,-0.0242515,0.927785,0.0004429999999999,0.0028824999999999,1.072215,-0.0004429999999999,-0.0028824999999999,0.88544,-0.4560659999999999,0.0252945,1.11525,-0.425776,-0.0139545,0.88024,-0.7996260000000001,-0.0028945,1.11517,-0.794046,-0.0256575,0
51,1.0077684999999998,0.725243,0.062121,0.8579865,0.4824229999999999,0.064623,0.7596365,0.737323,0.058221,1.1614265,0.508463,0.056588,1.2517965,0.720243,0.023514,0.7307165,0.973433,0.026238,1.2750265,0.973933,-0.023308,0.9277575,0.000396,0.002887,1.0722425,-0.000396,-0.002887,0.8855965,-0.456277,0.025134,1.1153765,-0.426057,-0.013976,0.8804065,-0.799517,-0.0029269999999999,1.1155165,-0.7940470000000001,-0.025615,0
52,1.008114,0.7256465,0.0620655,0.8581420000000001,0.4822065,0.0645975,0.759632,0.7370465,0.0584155,1.161722,0.5085065,0.0566085,1.252312,0.7205165,0.0237365,0.730272,0.9734065,0.0263435,1.275812,0.9743065,-0.0225194999999999,0.927736,0.0003524999999999,0.0028905,1.072264,-0.0003525,-0.0028905,0.885682,-0.4564535,0.0247585,1.115462,-0.4263535,-0.0140824999999999,0.880632,-0.7995335,-0.0029934999999999,1.115852,-0.7940834999999999,-0.0257574999999999,0
53,1.0084855,0.7257565,0.061961,0.8585135,0.4822065,0.064493,0.7596535,0.7370465,0.0586,1.1621135,0.5085165,0.056594,1.2529135,0.7205165,0.023929,0.7298735000000001,0.9734065,0.026385,1.2766435,0.9743065,-0.021814,0.9276785,0.0003524999999999,0.002855,1.0723215,-0.0003525,-0.002855,0.8856535000000001,-0.4564835,0.024083,1.1154135,-0.4267435,-0.014403,0.8808235000000001,-0.7995835,-0.0031799999999999,1.1162435,-0.7942035,-0.025963,0
54,1.008856,0.7258065,0.061706,0.858823,0.4822065,0.064235,0.759683,0.7370465,0.058762,1.162403,0.5085265,0.056442,1.254133,0.7218665,0.0238969999999999,0.7295130000000001,0.9734065,0.026313,1.277433,0.9743065,-0.0212569999999999,0.927601,0.0003524999999999,0.002724,1.072399,-0.0003525,-0.002724,0.885483,-0.4564835,0.023062,1.115273,-0.4269635,-0.0149849999999999,0.880943,-0.7998435,-0.0035969999999999,1.116583,-0.7942835,-0.026823,0
55,1.009317,0.7258265,0.0611204999999999,0.8591000000000001,0.4822065,0.0636915,0.7597300000000001,0.7370465,0.0587245,1.16264,0.5085265,0.0560325,1.25513,0.7229865,0.0238415,0.72906,0.9734065,0.0260675,1.2782,0.9745065,-0.0210525,0.927497,0.0003524999999999,0.0025424999999999,1.072503,-0.0003525,-0.0025424999999999,0.8851100000000001,-0.4565135,0.0214585,1.11501,-0.4271835,-0.0160015,0.88102,-0.8000935,-0.0044655,1.11681,-0.7942235,-0.0281735,1
56,1.010038,0.725768,0.0601339999999999,0.859504,0.483098,0.063266,0.759584,0.737618,0.058238,1.162894,0.508428,0.055201,1.256114,0.723948,0.023289,0.728764,0.973438,0.0253609999999999,1.279064,0.974738,-0.021685,0.927406,0.000264,0.0022659999999999,1.0725939999999998,-0.000264,-0.002266,0.8845840000000001,-0.456832,0.019289,1.114794,-0.427552,-0.017621,0.8810640000000001,-0.800492,-0.00586,1.1170239999999998,-0.794242,-0.030063,1
57,1.010672,0.7259059999999999,0.0588999999999999,0.8598330000000001,0.484576,0.062808,0.759523,0.737466,0.05737,1.163023,0.508486,0.054233,1.257303,0.7262759999999999,0.022458,0.7283729999999999,0.974246,0.0244619999999999,1.279593,0.975046,-0.022638,0.927254,0.0002059999999999,0.002004,1.072746,-0.0002059999999999,-0.0020039999999999,0.883883,-0.456424,0.016724,1.114583,-0.4274739999999999,-0.0196159999999999,0.880973,-0.800204,-0.007595,1.117273,-0.793814,-0.032527,1
58,1.011192,0.7260605,0.057548,0.859795,0.4851904999999999,0.062109,0.759285,0.7373805,0.056275,1.162925,0.5085805,0.053095,1.258535,0.7294805,0.02118,0.727795,0.9753005,0.023239,1.279805,0.9755005,-0.0240749999999999,0.927117,0.0001614999999999,0.001682,1.072883,-0.0001615,-0.0016819999999999,0.883065,-0.4559695,0.013601,1.114375,-0.4276095,-0.02218,0.880655,-0.7999095,-0.0098369999999999,1.117135,-0.7932495,-0.0353669999999999,1
59,1.011708,0.726135,0.055788,0.859854,0.485185,0.0611609999999999,0.758994,0.737335,0.054818,1.162794,0.508635,0.051667,1.259234,0.729135,0.019476,0.7272339999999999,0.975875,0.02156,1.279844,0.975675,-0.026018,0.927006,0.000128,0.0014839999999999,1.072994,-0.0001279999999999,-0.0014839999999999,0.882144,-0.455615,0.009859,1.114094,-0.4282249999999999,-0.025466,0.880214,-0.799845,-0.0128379999999999,1.116694,-0.792765,-0.03786,1
60,1.0119505,0.7260835,0.0532415,0.8596965,0.4852035,0.0594785,0.7583965,0.7366134999999999,0.0529655,1.1624065,0.5086134999999999,0.0494875,1.2595965,0.7290935,0.0166935,0.7263265,0.9767235,0.0187085,1.2794765,0.9757235,-0.0292735,0.9268915,0.0001115,0.0013105,1.0731084999999998,-0.0001115,-0.0013105,0.8809565,-0.4552965,0.0045045,1.1134665,-0.4280965,-0.0304555,0.8796765,-0.7997965,-0.0172225,1.1164265,-0.7918865,-0.0423895,1
61,1.0120355,0.7256724999999999,0.05034,0.8594984999999999,0.4855625,0.057326,0.7576685,0.7354825,0.050436,1.1618784999999998,0.5088524999999999,0.046691,1.2594085,0.7294025,0.013346,0.7252285,0.9771025,0.015217,1.2789785,0.9761025,-0.033229,0.9267865,0.0001144999999999,0.0012269999999999,1.0732135,-0.0001145,-0.001227,0.8794885,-0.4538675,-0.002502,1.1127285,-0.4275875,-0.036816,0.8790185,-0.7993675,-0.022201,1.1160085,-0.7905975000000001,-0.0477029999999999,1
62,1.011975,0.7245945,0.0469645,0.8592560000000001,0.4864445,0.0550615,0.756726,0.7348745000000001,0.0471725,1.161266,0.5084045,0.0439825,1.258996,0.7298745000000001,0.0094005,0.723706,0.9780545,0.0110415,1.278266,0.9769545,-0.0379305,0.926715,0.0002655,0.0010625,1.073285,-0.0002655,-0.0010625,0.877846,-0.4512255,-0.0108635,1.111986,-0.4266355,-0.0446495,0.878206,-0.7981855,-0.0277835,1.115296,-0.7884255,-0.0534245,1
63,1.0117905,0.723584,0.043575,0.8589645000000001,0.4874539999999999,0.05264,0.7557145000000001,0.734144,0.043769,1.1605245,0.507784,0.041267,1.2585145,0.730484,0.005373,0.7219245000000001,0.979154,0.006691,1.2775245,0.977654,-0.042711,0.9266755,0.0004299999999999,0.000961,1.0733245,-0.00043,-0.000961,0.8762945,-0.447666,-0.019633,1.1116245,-0.425116,-0.053297,0.8775145,-0.796566,-0.033489,1.1148445,-0.786176,-0.059569,1
64,1.011474,0.7222005,0.040188,0.858627,0.4880305,0.050341,0.754577,0.7335705,0.040344,1.159697,0.5072205000000001,0.038563,1.257427,0.7276405,0.001238,0.7200770000000001,0.9801705,0.002154,1.276767,0.9785705,-0.047636,0.926659,0.0005775,0.000952,1.073341,-0.0005775,-0.0009519999999999,0.874857,-0.4441495,-0.0285659999999999,1.111367,-0.4235994999999999,-0.062244,0.876827,-0.7947394999999999,-0.039149,1.114047,-0.7841595,-0.0650989999999999,1
65,1.0109835,0.7210230000000001,0.036862,0.8584825,0.4885829999999999,0.0474539999999999,0.7536125000000001,0.733583,0.036834,1.1587925,0.506243,0.0358459999999999,1.2572125,0.727673,-0.002997,0.7183125,0.981993,-0.002397,1.2760225,0.980293,-0.052471,0.9266215,0.0006159999999999,0.0010469999999999,1.0733785,-0.000616,-0.001047,0.8734025000000001,-0.440137,-0.037902,1.1113525,-0.421517,-0.071683,0.8762125000000001,-0.792047,-0.044725,1.1132425,-0.7824169999999999,-0.070385,1
66,1.0105105,0.7194745,0.0333879999999999,0.8582335,0.4898345,0.044292,0.7526635,0.7332145000000001,0.033158,1.1578635,0.5051045000000001,0.0327429999999999,1.2570635,0.7275145000000001,-0.007681,0.7165835,0.9844345,-0.007219,1.2754735,0.9790345,-0.057486,0.9265945,0.0006275,0.0011709999999999,1.0734055,-0.0006274999999999,-0.001171,0.8718435,-0.4357555,-0.047952,1.1114635,-0.4185555,-0.0818,0.8756035,-0.7884555,-0.050416,1.1124235,-0.7786955,-0.0758969999999999,1
67,1.0099405,0.7179329999999999,0.0295375,0.8578445,0.4908629999999999,0.0409055,0.7516145,0.732393,0.0291745,1.1570845,0.503873,0.0295044999999999,1.2565345,0.725963,-0.0124495,0.7148945000000001,0.986893,-0.0121465,1.2748045,0.978493,-0.0626625,0.9265525,0.0007139999999999,0.0012324999999999,1.0734475,-0.0007139999999999,-0.0012325,0.8700945,-0.430127,-0.0589575,1.1116245,-0.414017,-0.0928065,0.8749045,-0.7835570000000001,-0.0561725,1.1115445,-0.773657,-0.0814505,1
68,1.0093285,0.7165975,0.0259855,0.8571405,0.4900975,0.0375605,0.7504205000000002,0.7312974999999999,0.0251395,1.1562405,0.5022074999999999,0.0263885,1.2556805,0.7246975,-0.0170294999999999,0.7131105,0.9898175,-0.0168894999999999,1.2738905,0.9787175,-0.0677625,0.9264975,0.0008524999999999,0.0012584999999999,1.0735025,-0.0008525,-0.0012584999999999,0.8684205,-0.4232424999999999,-0.0699915,1.1116705,-0.4085125,-0.1038755,0.8743905,-0.7774225,-0.0615055,1.1106505,-0.7671125000000001,-0.0868935,1
69,1.0087445,0.7148905,0.023148,0.8565895,0.4886505,0.035028,0.7495095,0.7316205,0.0212149999999999,1.1553795,0.5005005,0.023862,1.2552195,0.7234705,-0.0210279999999999,0.7120495,0.9919605,-0.0207919999999999,1.2730595,0.9790605,-0.072256,0.9264965,0.0009305,0.0012959999999999,1.0735035,-0.0009305,-0.0012959999999999,0.8666395,-0.4151695,-0.080006,1.1117995,-0.4017295,-0.113756,0.8735094999999999,-0.7708495000000001,-0.065811,1.1101095,-0.7604995,-0.0913809999999999,1
70,1.0081475,0.7134735,0.0204905,0.8561084999999999,0.4878034999999999,0.0329515,0.7486385,0.7318935,0.0177365,1.1545685,0.4985035,0.0217875,1.2551685,0.7217135,-0.0247934999999999,0.7109885,0.9933735,-0.0243664999999999,1.2722585,0.9795735,-0.0765214999999999,0.9264815,0.0010084999999999,0.0012405,1.0735185,-0.0010085,-0.0012404999999999,0.8654485000000001,-0.4087565,-0.0888085,1.1117585,-0.3960565,-0.1228375,0.8731885,-0.7637965,-0.0697555,1.1090985,-0.7537665,-0.0954355,1
71,1.0077585,0.712273,0.018313,0.8558304999999999,0.487043,0.031199,0.7479305,0.731573,0.014933,1.1538305,0.497173,0.019705,1.2553505,0.722073,-0.0279609999999999,0.7103005,0.994193,-0.0275049999999999,1.2717005,0.978623,-0.0807199999999999,0.9264915,0.000958,0.001302,1.0735085,-0.000958,-0.0013019999999999,0.8644905,-0.402237,-0.096504,1.1118505,-0.389807,-0.130606,0.8733305,-0.756877,-0.073135,1.1082005,-0.747227,-0.098745,1
72,1.00714,0.712939,0.0144715,0.855381,0.488339,0.0283604999999999,0.7471909999999999,0.732349,0.0103395,1.152791,0.496999,0.0156715,1.253851,0.725159,-0.0318365,0.709341,0.994269,-0.0334364999999999,1.271771,0.977719,-0.0870165,0.926528,0.001018,0.0015295,1.073472,-0.001018,-0.0015294999999999,0.862791,-0.390581,-0.1070005,1.111301,-0.378061,-0.1410285,0.872641,-0.746861,-0.0776815,1.107441,-0.737211,-0.1034525,1
73,1.006587,0.713248,0.0104324999999999,0.85519,0.490068,0.0253585,0.74644,0.732948,0.0058094999999999,1.15182,0.496898,0.0119044999999999,1.25328,0.726598,-0.0360145,0.7084699999999999,0.993958,-0.0394485,1.27205,0.975988,-0.0933404999999999,0.926527,0.001054,0.0018314999999999,1.073473,-0.0010539999999999,-0.0018314999999999,0.86109,-0.379052,-0.1171095,1.11075,-0.366362,-0.1510065,0.87216,-0.736882,-0.0822435,1.10691,-0.727072,-0.1083605,1
74,1.0060085,0.71268,0.0063365,0.8549885,0.49178,0.0223005,0.7457085,0.7328600000000001,0.0011274999999999,1.1507585,0.49735,0.0081475,1.2536485,0.72573,-0.0408315,0.7076085,0.9925,-0.0455675,1.2724785,0.97305,-0.0998894999999999,0.9265105,0.0011999999999999,0.0022324999999999,1.0734895,-0.0011999999999999,-0.0022324999999999,0.8595185000000001,-0.3702499999999999,-0.1288425,1.1099885,-0.35713,-0.1623095,0.8715984999999999,-0.72765,-0.0871625,1.1063585,-0.7177899999999999,-0.1140445,1
75,1.0056935,0.71335,0.0025459999999999,0.8554365000000002,0.49092,0.0189239999999999,0.7451565,0.73304,-0.0034339999999999,1.1498265,0.49611,0.0045439999999999,1.2543365,0.72584,-0.04536,0.7072065000000001,0.99242,-0.052085,1.2732365,0.97494,-0.106138,0.9264775,0.0016459999999999,0.002563,1.0735225,-0.001646,-0.0025629999999999,0.8575965,-0.35699,-0.140363,1.1099465,-0.3453299999999999,-0.173372,0.8707365,-0.71594,-0.09312,1.1056265,-0.70601,-0.119282,1
76,1.005552,0.713288,-0.0010474999999999,0.855984,0.4908679999999999,0.0157345,0.7446540000000001,0.733848,-0.0082544999999999,1.149204,0.495738,0.0012174999999999,1.255134,0.725868,-0.0501435,0.7069540000000001,0.991108,-0.0588475,1.274204,0.976408,-0.1127825,0.926485,0.001875,0.0032755,1.073515,-0.001875,-0.0032755,0.856434,-0.347102,-0.1511805,1.1089639999999998,-0.337242,-0.1839195,0.870504,-0.704682,-0.0974355,1.105084,-0.694432,-0.1243395,1
77,1.0054059999999998,0.7129245,-0.0055294999999999,0.8564430000000001,0.4916745,0.0111525,0.744333,0.7344745,-0.0139664999999999,1.148483,0.4952145,-0.0031724999999999,1.255773,0.7256445,-0.0558665,0.7069030000000001,0.9896245,-0.0665385,1.275153,0.9767745,-0.1203944999999999,0.926338,0.0020805,0.0034175,1.073662,-0.0020804999999999,-0.0034174999999999,0.854573,-0.3351455,-0.1639495,1.108803,-0.3267455,-0.1965135,0.869803,-0.6943255,-0.1041314999999999,1.104623,-0.6837155,-0.1303555,1
78,1.00519,0.713911,-0.0107399999999999,0.857016,0.4926509999999999,0.0060079999999999,0.7439560000000001,0.735221,-0.0205209999999999,1.147666,0.494911,-0.0080939999999999,1.256256,0.726281,-0.062521,0.706696,0.988861,-0.075275,1.275736,0.978621,-0.1285659999999999,0.926135,0.0025169999999999,0.003525,1.073865,-0.002517,-0.003525,0.852496,-0.321469,-0.177429,1.108536,-0.314579,-0.209449,0.869166,-0.682509,-0.111203,1.103856,-0.671689,-0.1362209999999999,1
79,1.0049925,0.713344,-0.016045,0.8576155,0.493824,0.000835,0.7438055,0.733284,-0.027291,1.1467455,0.493994,-0.01338,1.2562255,0.725374,-0.069363,0.7065555,0.984354,-0.084224,1.2762955,0.977974,-0.137311,0.9259645,0.0027389999999999,0.003818,1.0740355,-0.002739,-0.003818,0.8501955,-0.308256,-0.192,1.1081155,-0.302696,-0.22354,0.8687355,-0.6718459999999999,-0.118008,1.1035555,-0.6597660000000001,-0.14218,1
80,1.0047495,0.71499,-0.0227279999999999,0.8579845,0.49393,-0.0054839999999999,0.7436445,0.7337100000000001,-0.0351839999999999,1.1458545,0.49346,-0.0199249999999999,1.2561445,0.7265400000000001,-0.0771429999999999,0.7063845,0.98201,-0.0947739999999999,1.2768445,0.9747,-0.147229,0.9257125,0.002972,0.004306,1.0742875,-0.0029719999999999,-0.0043059999999999,0.8478345,-0.29316,-0.2070239999999999,1.1077645,-0.28857,-0.238394,0.8682045,-0.65928,-0.1257869999999999,1.1034245,-0.64586,-0.1487939999999999,1
81,1.00461,0.7141084999999999,-0.0283925,0.858487,0.4920685,-0.0107915,0.743657,0.7324385,-0.0417785,1.145267,0.4919685,-0.0253285,1.256297,0.7249085,-0.0833525,0.706287,0.9805185,-0.1026525,1.276967,0.9719685,-0.1549785,0.925408,0.0031214999999999,0.0045795,1.074592,-0.0031215,-0.0045795,0.8459070000000001,-0.2810515,-0.2188155,1.107777,-0.2776815,-0.2498155,0.868297,-0.6488715,-0.1304585,1.103607,-0.6351515,-0.1541645,1
82,1.0045445,0.7138,-0.0341805,0.8589085,0.48994,-0.0162625,0.7435885,0.73114,-0.0484455,1.1447885,0.49017,-0.0308535,1.2566385,0.72193,-0.0896035,0.7062885,0.9802,-0.1107365,1.2771985,0.97067,-0.1627035,0.9250735,0.0033399999999999,0.0047324999999999,1.0749265,-0.0033399999999999,-0.0047325,0.8440185,-0.26842,-0.2307675,1.1079085,-0.26626,-0.2613575,0.8684085,-0.63753,-0.1350805,1.1037885,-0.6237900000000001,-0.1594565,1
83,1.0043734999999998,0.714225,-0.0398265,0.8591325,0.4881149999999999,-0.0217085,0.7432925,0.730475,-0.0549465,1.1442025,0.4881049999999999,-0.0362685,1.2566725,0.7221350000000001,-0.0957865,0.7060425,0.980285,-0.1187805,1.2771625,0.970685,-0.1700345,0.9248015,0.0034549999999999,0.0048114999999999,1.0751985,-0.0034549999999999,-0.0048115,0.8422725,-0.255205,-0.2407065,1.1082325,-0.254375,-0.2710464999999999,0.8685625000000001,-0.6249049999999999,-0.1395395,1.1039525,-0.611765,-0.1639175,1
84,1.0042125,0.71343,-0.0452775,0.8589905,0.4881,-0.0273604999999999,0.7429405,0.7298,-0.0614455,1.1437005,0.48798,-0.0414915,1.2564405,0.72227,-0.1019235,0.7057405000000001,0.97816,-0.1266644999999999,1.2768705,0.96932,-0.1776355,0.9245165,0.00329,0.0049335,1.0754835,-0.0032899999999999,-0.0049334999999999,0.8410805,-0.24786,-0.2502065,1.1077405,-0.2469799999999999,-0.2803465,0.8695105,-0.61592,-0.1421695,1.1038905,-0.6027199999999999,-0.1677825,1
85,1.00403,0.713395,-0.0504155,0.858788,0.487375,-0.0327125,0.742578,0.728955,-0.0675844999999999,1.143128,0.486775,-0.0464245,1.2562879999999998,0.722905,-0.1074745,0.705318,0.977545,-0.1343265,1.276398,0.968115,-0.1845804999999999,0.924254,0.0032449999999999,0.0047564999999999,1.075746,-0.0032449999999999,-0.0047564999999999,0.8394080000000002,-0.2377449999999999,-0.2593135,1.108178,-0.236545,-0.2891235,0.869748,-0.606665,-0.1461285,1.103958,-0.593795,-0.1722685,1
86,1.003569,0.71343,-0.054879,0.858422,0.48629,-0.037354,0.742032,0.72743,-0.073357,1.142462,0.48646,-0.050462,1.256072,0.72377,-0.112462,0.7043820000000001,0.97705,-0.141674,1.275622,0.96827,-0.190831,0.924177,0.0031599999999999,0.005095,1.075823,-0.0031599999999999,-0.005095,0.8379719999999999,-0.2273099999999999,-0.266655,1.107772,-0.22611,-0.295875,0.869692,-0.5956600000000001,-0.149479,1.103692,-0.58336,-0.1756599999999999,1
87,1.003136,0.712175,-0.0585869999999999,0.858127,0.485185,-0.040948,0.741437,0.725665,-0.078303,1.142357,0.485965,-0.0536399999999999,1.255817,0.723875,-0.116713,0.703507,0.975775,-0.147996,1.274877,0.967105,-0.196371,0.924139,0.0028749999999999,0.0054799999999999,1.075861,-0.0028749999999999,-0.0054799999999999,0.836937,-0.221115,-0.27297,1.107397,-0.220065,-0.30206,0.870457,-0.585745,-0.1503519999999999,1.103447,-0.574255,-0.1781229999999999,1
88,1.00269,0.7121350000000001,-0.0621209999999999,0.8579550000000001,0.483975,-0.04436,0.741105,0.727035,-0.083149,1.141975,0.486355,-0.056706,1.255495,0.725955,-0.120805,0.7026050000000001,0.978695,-0.15403,1.274105,0.967815,-0.201307,0.92407,0.002785,0.005705,1.07593,-0.002785,-0.005705,0.836005,-0.214655,-0.277865,1.107305,-0.213855,-0.306595,0.8711450000000001,-0.575635,-0.151112,1.103355,-0.564925,-0.180589,1
89,1.0023845,0.7099899999999999,-0.06464,0.8582025,0.48248,-0.046543,0.7409125,0.7255499999999999,-0.087117,1.1417225,0.48638,-0.058932,1.2550325,0.72594,-0.124341,0.7020824999999999,0.97801,-0.158516,1.2737425,0.97355,-0.2052189999999999,0.9239935,0.0025199999999999,0.00585,1.0760065,-0.0025199999999999,-0.0058499999999999,0.8345325,-0.20399,-0.28298,1.1074525,-0.2031899999999999,-0.31129,0.8717625,-0.56453,-0.152257,1.1033325,-0.5545,-0.182072,1
90,1.0022669999999998,0.7083149999999999,-0.066992,0.8582270000000001,0.480345,-0.048734,0.740637,0.7243649999999999,-0.090788,1.141657,0.486255,-0.061155,1.254887,0.725795,-0.128147,0.701527,0.977645,-0.162781,1.273437,0.978805,-0.209151,0.923887,0.002255,0.0059649999999999,1.076113,-0.002255,-0.0059649999999999,0.833507,-0.1965849999999999,-0.288265,1.106877,-0.195895,-0.316215,0.872417,-0.5522750000000001,-0.152228,1.103327,-0.5435650000000001,-0.183451,1
91,1.0019345,0.7068,-0.069363,0.8582145000000001,0.47882,-0.050888,0.7403245,0.72351,-0.094451,1.1413045,0.48511,-0.063475,1.2543345,0.7271000000000001,-0.132097,0.7009845,0.97971,-0.16692,1.2729345,0.9812,-0.213526,0.9239045,0.00206,0.006165,1.0760955,-0.00206,-0.006165,0.8321345,-0.1838999999999999,-0.293575,1.1067745,-0.18321,-0.321575,0.8727345,-0.54036,-0.153948,1.1032345,-0.5312899999999999,-0.184696,1
92,1.001812,0.7048099999999999,-0.0718399999999999,0.857903,0.47766,-0.0532199999999999,0.7398830000000001,0.72261,-0.0984729999999999,1.141013,0.48452,-0.065748,1.2538129999999998,0.7280800000000001,-0.136021,0.700233,0.97868,-0.171185,1.271993,0.98237,-0.21892,0.923902,0.002,0.00624,1.076098,-0.0019999999999999,-0.0062399999999999,0.830713,-0.17411,-0.29904,1.106463,-0.17369,-0.32702,0.8731329999999999,-0.52644,-0.154449,1.103183,-0.5182499999999999,-0.186021,1
93,1.0017625,0.703055,-0.074719,0.8575725,0.476515,-0.055859,0.7395125,0.7218450000000001,-0.102753,1.1407225,0.483975,-0.068244,1.2531825,0.7283550000000001,-0.140695,0.6995725000000002,0.977975,-0.175499,1.2708825,0.983695,-0.224855,0.9239585,0.001925,0.0063649999999999,1.0760415,-0.0019249999999999,-0.0063649999999999,0.8292425,-0.163265,-0.304635,1.1059625,-0.1631349999999999,-0.332705,0.8730424999999999,-0.511315,-0.155682,1.1030924999999998,-0.503665,-0.1878429999999999,1
94,1.0016965,0.70101,-0.0775609999999999,0.8575355,0.47524,-0.058641,0.7390955,0.72081,-0.10685,1.1403055,0.48342,-0.07109,1.2524555,0.72773,-0.145855,0.6990455,0.97631,-0.179397,1.2697055,0.98391,-0.230485,0.9238535,0.00185,0.006535,1.0761465,-0.0018499999999999,-0.0065349999999999,0.8278255000000001,-0.15126,-0.310335,1.1051855,-0.1512199999999999,-0.338615,0.8729255,-0.4939899999999999,-0.15687,1.1028355,-0.4881099999999999,-0.190161,1
95,1.001667,0.698805,-0.080119,0.8576750000000001,0.474595,-0.061079,0.7389950000000001,0.7202850000000001,-0.110268,1.139995,0.483095,-0.073774,1.251815,0.727105,-0.150448,0.6987650000000001,0.973795,-0.182509,1.268565,0.983105,-0.235575,0.92371,0.0018449999999999,0.0067149999999999,1.07629,-0.0018449999999999,-0.0067149999999999,0.8266249999999999,-0.140365,-0.315185,1.104255,-0.140325,-0.343765,0.872675,-0.477995,-0.157872,1.102375,-0.474005,-0.1923969999999999,1
96,1.001545,0.6967300000000001,-0.08281,0.858066,0.47278,-0.063943,0.7392460000000001,0.71916,-0.113697,1.139576,0.48238,-0.076692,1.251156,0.72628,-0.154975,0.698556,0.9721,-0.185578,1.267316,0.98298,-0.240555,0.923469,0.00178,0.006855,1.076531,-0.00178,-0.006855,0.825306,-0.12873,-0.320075,1.103036,-0.1286899999999999,-0.348875,0.872096,-0.4635,-0.160717,1.101616,-0.45929,-0.194591,1
97,1.001491,0.69521,-0.085737,0.85859,0.4713,-0.067256,0.74009,0.71638,-0.117247,1.13907,0.47933,-0.080152,1.25041,0.72263,-0.159546,0.6986,0.96994,-0.188724,1.26611,0.97713,-0.24605,0.923254,0.0019699999999999,0.00704,1.076746,-0.00197,-0.00704,0.82396,-0.11553,-0.32505,1.10161,-0.11513,-0.35428,0.87152,-0.44752,-0.164082,1.10072,-0.44299,-0.197062,1
98,1.0016014999999998,0.6936,-0.0886349999999999,0.8592595000000001,0.47074,-0.0703419999999999,0.7411495,0.71469,-0.1205479999999999,1.1386195,0.47669,-0.0833219999999999,1.2493495,0.71943,-0.163321,0.6989295000000001,0.96896,-0.191458,1.2650395,0.97078,-0.25065,0.9229905,0.00229,0.00711,1.0770095,-0.00229,-0.0071099999999999,0.8230095,-0.10448,-0.32881,1.1004394999999998,-0.10331,-0.3587399999999999,0.8710195000000001,-0.43453,-0.167462,1.0999895,-0.4296,-0.1995849999999999,1
99,1.0017215,0.69158,-0.0913559999999999,0.8597355,0.47051,-0.073353,0.7421555,0.71334,-0.123628,1.1381255,0.47444,-0.086363,1.2483555,0.7171000000000001,-0.166985,0.6993855,0.96818,-0.194221,1.2640155,0.96549,-0.25485,0.9226145,0.0025,0.0072399999999999,1.0773855,-0.0025,-0.0072399999999999,0.8222855,-0.0930099999999999,-0.33232,1.0994155,-0.09111,-0.36263,0.8703155000000001,-0.41822,-0.169308,1.0992855,-0.4165,-0.201532,1
100,1.0016794999999998,0.6894750000000001,-0.093868,0.8598205,0.469845,-0.076354,0.7429605,0.7117150000000001,-0.126619,1.1374605,0.473255,-0.089264,1.2473705,0.7160850000000001,-0.170241,0.6999705,0.966835,-0.196874,1.2630905,0.963035,-0.2585699999999999,0.9221705,0.002665,0.0072699999999999,1.0778295,-0.0026649999999999,-0.0072699999999999,0.8217205,-0.0821949999999999,-0.33549,1.0982405,-0.0796549999999999,-0.36599,0.8710305,-0.4072549999999999,-0.172856,1.0985505,-0.405045,-0.203317,1
101,1.0016495,0.68767,-0.096064,0.8598825,0.46856,-0.0791,0.7438024999999999,0.70875,-0.128981,1.1369925,0.47198,-0.092137,1.2470225,0.71219,-0.173264,0.7009025000000001,0.96512,-0.199001,1.2625925,0.96053,-0.261325,0.9216745,0.0027699999999999,0.0074349999999999,1.0783255,-0.0027699999999999,-0.007435,0.8216924999999999,-0.07194,-0.338075,1.0970125,-0.0687499999999999,-0.368665,0.8725725,-0.39837,-0.176665,1.0979725,-0.3944499999999999,-0.204828,1
102,1.001623,0.684985,-0.0978199999999999,0.859781,0.46649,-0.0816779999999999,0.7440110000000001,0.705245,-0.1307159999999999,1.136441,0.468592,-0.0952709999999999,1.246891,0.709615,-0.1754249999999999,0.701431,0.962845,-0.200509,1.262381,0.958845,-0.263235,0.921099,0.002975,0.007615,1.078901,-0.002975,-0.0076149999999999,0.821761,-0.0600649999999999,-0.340205,1.095891,-0.055885,-0.370795,0.874541,-0.387865,-0.181271,1.097001,-0.382525,-0.206609,1
103,1.00165,0.682665,-0.099504,0.859537,0.4651119999999999,-0.084076,0.7440070000000001,0.702315,-0.132246,1.135997,0.4661019999999999,-0.097994,1.246157,0.707635,-0.176508,0.701857,0.962285,-0.202044,1.261837,0.958345,-0.26492,0.920643,0.0031549999999999,0.0077799999999999,1.079357,-0.003155,-0.00778,0.8219870000000001,-0.048105,-0.34177,1.094997,-0.043925,-0.37202,0.8779370000000001,-0.381335,-0.185683,1.096107,-0.371595,-0.20765,1
104,1.0016075,0.680685,-0.101081,0.8591995,0.463164,-0.086462,0.7435695,0.699425,-0.133899,1.1355095,0.463395,-0.100738,1.2461195,0.7054050000000001,-0.178405,0.7018694999999999,0.960865,-0.2039,1.2616295,0.957815,-0.26661,0.9202405,0.003315,0.00794,1.0797595,-0.0033149999999999,-0.00794,0.8222495,-0.0359949999999999,-0.34328,1.0940995,-0.0318149999999999,-0.37307,0.8813245,-0.372935,-0.189066,1.0954294999999998,-0.360205,-0.20902,1
105,1.001846,0.6783699999999999,-0.102377,0.858846,0.4621019999999999,-0.088156,0.743196,0.69819,-0.135747,1.135416,0.460572,-0.103018,1.246046,0.70197,-0.180309,0.701856,0.95851,-0.205647,1.261706,0.95437,-0.267965,0.920024,0.0036299999999999,0.008115,1.0799759999999998,-0.00363,-0.0081149999999999,0.823096,-0.02426,-0.344595,1.093466,-0.02008,-0.373965,0.8801460000000001,-0.36417,-0.195868,1.0951259999999998,-0.34928,-0.2100699999999999,1
106,1.0021895,0.6759999999999999,-0.103531,0.8587935000000001,0.460485,-0.089334,0.7429835,0.6984699999999999,-0.137894,1.1356435,0.4601989999999999,-0.104687,1.2469635,0.70147,-0.180932,0.7016835,0.95691,-0.207518,1.2623535,0.9574,-0.26897,0.9197265,0.0036299999999999,0.0081799999999999,1.0802735,-0.00363,-0.00818,0.8241535,-0.01399,-0.34552,1.0931034999999998,-0.00907,-0.37444,0.8792395,-0.35648,-0.202154,1.0947935,-0.33963,-0.210818,1
107,1.002518,0.673945,-0.104558,0.8588,0.459349,-0.090394,0.74291,0.698205,-0.13945,1.13593,0.459124,-0.106102,1.24764,0.699875,-0.181269,0.7016100000000001,0.955135,-0.209061,1.26314,0.958975,-0.26952,0.91946,0.0036749999999999,0.00814,1.08054,-0.0036749999999999,-0.00814,0.82524,-0.0041249999999999,-0.34633,1.0928,0.001475,-0.37482,0.882261,-0.350095,-0.203064,1.09459,-0.330535,-0.211546,1
108,1.003058,0.672385,-0.105427,0.8589249999999999,0.458383,-0.091158,0.742915,0.698245,-0.139887,1.136385,0.457956,-0.107141,1.248765,0.693875,-0.181278,0.701935,0.953535,-0.209422,1.264245,0.955655,-0.270065,0.919095,0.003915,0.008195,1.080905,-0.003915,-0.008195,0.826545,0.005765,-0.346875,1.092725,0.0121549999999999,-0.375135,0.88415,-0.343765,-0.207876,1.094725,-0.321295,-0.212286,1
109,1.003679,0.67047,-0.10591,0.859021,0.457611,-0.091524,0.7424310000000001,0.6983,-0.140219,1.137041,0.456969,-0.107773,1.250141,0.6879500000000001,-0.181732,0.702161,0.95206,-0.209764,1.265721,0.95157,-0.270085,0.918729,0.0040899999999999,0.0082849999999999,1.081271,-0.0040899999999999,-0.008285,0.8277910000000002,0.0157499999999999,-0.347225,1.092921,0.0226,-0.375065,0.88671,-0.33705,-0.210163,1.094961,-0.31226,-0.21278,1
110,1.004262,0.6688700000000001,-0.1061599999999999,0.859027,0.45684,-0.091581,0.7418469999999999,0.6993100000000001,-0.140376,1.137827,0.45553,-0.107999,1.251247,0.68501,-0.181773,0.702297,0.95146,-0.209845,1.268127,0.94222,-0.27014,0.918353,0.00425,0.0083199999999999,1.081647,-0.0042499999999999,-0.0083199999999999,0.828927,0.02603,-0.34747,1.093207,0.03303,-0.37444,0.887548,-0.3296,-0.2143709999999999,1.095187,-0.3035099999999999,-0.2131219999999999,1
111,1.0046545,0.668275,-0.106236,0.8589735000000001,0.456721,-0.091586,0.7412035,0.696555,-0.140285,1.1384635,0.456127,-0.108115,1.2525635,0.681415,-0.181896,0.7023535000000001,0.948675,-0.20973,1.2706335,0.932215,-0.27016,0.9180265,0.004305,0.0083599999999999,1.0819735,-0.004305,-0.00836,0.8299935,0.0339249999999999,-0.3475,1.0935235,0.041015,-0.3736399999999999,0.8874065,-0.3246849999999999,-0.217279,1.0954635,-0.297305,-0.21348,1
112,1.00513,0.6674249999999999,-0.106312,0.858962,0.456528,-0.091583,0.7405619999999999,0.694275,-0.140181,1.139262,0.456364,-0.108243,1.254032,0.678005,-0.182117,0.702322,0.946385,-0.209566,1.273292,0.922495,-0.27029,0.917808,0.0043949999999999,0.0083999999999999,1.082192,-0.004395,-0.0084,0.830932,0.0418949999999999,-0.34739,1.093932,0.0491749999999999,-0.3727,0.888575,-0.318275,-0.216295,1.095792,-0.290815,-0.213606,1
113,1.005631,0.6667,-0.1063919999999999,0.8588930000000001,0.4565309999999999,-0.0914629999999999,0.7399830000000001,0.6923699999999999,-0.140087,1.140213,0.4563199999999999,-0.1083959999999999,1.256073,0.67475,-0.182616,0.7019230000000001,0.94538,-0.209501,1.276223,0.91342,-0.27083,0.917627,0.0045099999999999,0.00843,1.082373,-0.00451,-0.0084299999999999,0.8317829999999999,0.0499099999999999,-0.34712,1.094363,0.0573099999999999,-0.3716399999999999,0.889513,-0.31187,-0.214766,1.096163,-0.28411,-0.213254,1
114,1.006277,0.66613,-0.106199,0.858992,0.456909,-0.090955,0.740022,0.68955,-0.139689,1.141382,0.456691,-0.107703,1.258042,0.67326,-0.182479,0.7018420000000001,0.94483,-0.209145,1.279292,0.90689,-0.27133,0.917618,0.00461,0.0083199999999999,1.082382,-0.00461,-0.00832,0.832492,0.05768,-0.34653,1.094922,0.06506,-0.37028,0.8917470000000001,-0.3057899999999999,-0.214996,1.096662,-0.27774,-0.213214,1
115,1.0070595,0.66492,-0.105216,0.8591525,0.457922,-0.089944,0.7404525,0.68667,-0.13851,1.1426825,0.457274,-0.106564,1.2598025,0.6712400000000001,-0.181785,0.7016225,0.9426,-0.207325,1.2818825,0.90089,-0.271355,0.9177175,0.00472,0.008215,1.0822825,-0.0047199999999999,-0.008215,0.8333125,0.06523,-0.345445,1.0955225,0.07213,-0.368655,0.8922255,-0.2981899999999999,-0.208151,1.0973725,-0.27112,-0.21287,1
116,1.0079209999999998,0.66405,-0.1039119999999999,0.859438,0.458951,-0.0884399999999999,0.7411480000000001,0.68428,-0.136867,1.144138,0.4578090000000001,-0.1050439999999999,1.261728,0.66991,-0.180718,0.701678,0.94163,-0.2047529999999999,1.284648,0.89653,-0.270985,0.917875,0.00482,0.008285,1.082125,-0.0048199999999999,-0.0082849999999999,0.834278,0.07389,-0.3438949999999999,1.096118,0.08025,-0.366845,0.893371,-0.2895199999999999,-0.1961609999999999,1.098158,-0.2633899999999999,-0.2124299999999999,1
117,1.0084635,0.66341,-0.102383,0.8595385,0.4601780000000001,-0.086814,0.7415685000000001,0.68188,-0.134592,1.1453185,0.458181,-0.103389,1.2630785,0.67278,-0.180338,0.7016185000000001,0.94072,-0.20197,1.2871185,0.8968400000000001,-0.270545,0.9180975,0.00482,0.0083449999999999,1.0819025,-0.0048199999999999,-0.008345,0.8348485,0.0826,-0.342025,1.0962185,0.08781,-0.366265,0.8946395,-0.28128,-0.18742,1.0986185,-0.2558299999999999,-0.211618,1
118,1.008944,0.663175,-0.1004859999999999,0.85949,0.461312,-0.0851109999999999,0.74193,0.679595,-0.1317559999999999,1.14606,0.4586139999999999,-0.1015719999999999,1.2645,0.675675,-0.1804449999999999,0.7016,0.939515,-0.198814,1.28899,0.897655,-0.2700399999999999,0.918269,0.0047749999999999,0.00842,1.081731,-0.0047749999999999,-0.0084199999999999,0.83531,0.0913649999999999,-0.3399999999999999,1.09628,0.0953549999999999,-0.3654199999999999,0.895244,-0.273425,-0.1801539999999999,1.09906,-0.2483349999999999,-0.2108809999999999,1
119,1.0093584999999998,0.662845,-0.098521,0.8591995,0.462595,-0.0832609999999999,0.7422095,0.677495,-0.128972,1.1469095,0.459417,-0.0997079999999999,1.2656995,0.678015,-0.179974,0.7014895,0.938105,-0.1958079999999999,1.2900395,0.904295,-0.26954,0.9184455,0.0047249999999999,0.00857,1.0815545,-0.0047249999999999,-0.0085699999999999,0.8354695,0.099895,-0.33768,1.0961795,0.102225,-0.3644199999999999,0.8951515,-0.265475,-0.175373,1.0991295,-0.2416849999999999,-0.209303,1
120,1.0096345,0.662595,-0.095983,0.8589925,0.464237,-0.080943,0.7420625000000001,0.6797949999999999,-0.127062,1.1476925,0.460449,-0.097572,1.2669825,0.6801349999999999,-0.179218,0.7007925000000002,0.939445,-0.193527,1.2911925,0.911455,-0.268765,0.9186505,0.004615,0.0087749999999999,1.0813495,-0.004615,-0.008775,0.8357125,0.109775,-0.334305,1.0960425,0.106555,-0.363235,0.8966275,-0.2577549999999999,-0.171123,1.0987625,-0.239365,-0.205174,1
121,1.0098795,0.662715,-0.093341,0.8588205,0.465774,-0.078543,0.7419005000000001,0.681585,-0.125052,1.1483905,0.460547,-0.09543,1.2684205,0.682025,-0.178993,0.6997605,0.940375,-0.191242,1.2923805,0.918295,-0.26792,0.9188405,0.0045749999999999,0.00902,1.0811595,-0.0045749999999999,-0.00902,0.8360205,0.119725,-0.33062,1.0958505,0.110675,-0.3619799999999999,0.8978695,-0.2502249999999999,-0.165585,1.0983005,-0.2372949999999999,-0.200717,1
122,1.0100414999999998,0.6628499999999999,-0.090768,0.8587184999999999,0.4672589999999999,-0.076128,0.7415285,0.6828,-0.123038,1.1489085,0.4608689999999999,-0.093248,1.2696285,0.6839599999999999,-0.178742,0.6984684999999999,0.94132,-0.189279,1.2935785,0.92452,-0.2673999999999999,0.9189795,0.0044999999999999,0.00927,1.0810205,-0.0045,-0.00927,0.8363484999999999,0.1297799999999999,-0.32665,1.0956685,0.1144199999999999,-0.36072,0.8978845,-0.2419000000000001,-0.161314,1.0977985,-0.23555,-0.196043,1
123,1.010077,0.6631450000000001,-0.0882179999999999,0.8585100000000001,0.468609,-0.0736719999999999,0.7408399999999999,0.6840950000000001,-0.1211749999999999,1.14939,0.461233,-0.0912219999999999,1.2706,0.6855350000000001,-0.1783449999999999,0.69711,0.941875,-0.1874499999999999,1.29466,0.930055,-0.2668999999999999,0.919066,0.004345,0.00953,1.080934,-0.0043449999999999,-0.0095299999999999,0.83659,0.139205,-0.32275,1.0953799999999998,0.117395,-0.35951,0.8989930000000002,-0.2343049999999998,-0.153962,1.09722,-0.2344549999999999,-0.191212,1
124,1.0099135,0.663805,-0.086406,0.8582735,0.4693759999999999,-0.071606,0.7401234999999999,0.685515,-0.119945,1.1497335,0.460985,-0.0895519999999999,1.2711335,0.6873049999999999,-0.178055,0.6959435,0.943575,-0.186396,1.2955135,0.934255,-0.26657,0.9191085,0.0042349999999999,0.00979,1.0808915,-0.0042349999999999,-0.00979,0.8368535,0.1470449999999999,-0.31923,1.0950335,0.1190649999999999,-0.35872,0.8987575000000001,-0.228625,-0.149891,1.0965535,-0.234555,-0.186897,1
125,1.009808,0.664231,-0.0848999999999999,0.8580960000000001,0.470126,-0.0700919999999999,0.739366,0.686495,-0.1190239999999999,1.150076,0.460985,-0.0882839999999999,1.271656,0.688975,-0.1777399999999999,0.694836,0.944565,-0.185245,1.296376,0.937345,-0.266105,0.919133,0.0041149999999999,0.009945,1.080867,-0.0041149999999999,-0.0099449999999999,0.8372760000000001,0.152935,-0.316185,1.094896,0.1196649999999999,-0.358355,0.899136,-0.224065,-0.1485739999999999,1.096186,-0.235645,-0.1830899999999999,1
126,1.0097,0.6644180000000001,-0.083475,0.8579230000000001,0.47059,-0.068687,0.738633,0.68726,-0.118225,1.150333,0.46101,-0.0871009999999999,1.272123,0.6899000000000001,-0.177444,0.6936629999999999,0.94495,-0.18422,1.2971629999999998,0.93965,-0.26569,0.919168,0.00397,0.01008,1.080832,-0.0039699999999999,-0.0100799999999999,0.8376930000000001,0.15787,-0.3135,1.094733,0.11927,-0.3582999999999999,0.899639,-0.22026,-0.14537,1.095803,-0.2374899999999999,-0.179587,1
127,1.009615,0.6646270000000001,-0.0821909999999999,0.857839,0.47107,-0.0673639999999999,0.737949,0.68786,-0.1174409999999999,1.150569,0.4608,-0.0860779999999999,1.272549,0.69072,-0.1771289999999999,0.692469,0.94521,-0.183491,1.297869,0.94145,-0.26535,0.9192,0.0039,0.0102099999999999,1.0808,-0.0038999999999999,-0.0102099999999999,0.838049,0.16214,-0.31111,1.094549,0.11798,-0.3585199999999999,0.898413,-0.2174999999999999,-0.1468799999999999,1.095379,-0.23995,-0.176365,1
128,1.009393,0.664888,-0.0807539999999999,0.8577640000000001,0.471415,-0.065932,0.737134,0.688345,-0.116376,1.150464,0.461005,-0.084907,1.272684,0.691505,-0.176758,0.691064,0.945675,-0.18279,1.298184,0.943325,-0.26499,0.919213,0.0038249999999999,0.01031,1.080787,-0.0038249999999999,-0.01031,0.838084,0.166555,-0.30895,1.094184,0.117155,-0.35879,0.8974460000000001,-0.214555,-0.147826,1.095004,-0.242295,-0.173471,1
129,1.009198,0.665803,-0.080467,0.857637,0.4710750000000001,-0.0651539999999999,0.7365470000000001,0.688505,-0.116031,1.150337,0.460565,-0.084394,1.272837,0.6913950000000001,-0.176739,0.690087,0.945485,-0.182611,1.298377,0.943275,-0.26513,0.91909,0.003875,0.0102899999999999,1.08091,-0.0038749999999999,-0.0102899999999999,0.837997,0.168225,-0.30833,1.093827,0.118825,-0.35856,0.896741,-0.2137749999999999,-0.147983,1.094797,-0.2406249999999999,-0.173261,1
130,1.0090305,0.6665120000000001,-0.0803769999999999,0.8575395,0.47026,-0.064644,0.7361095,0.6881900000000001,-0.115904,1.1502195,0.4607500000000001,-0.084046,1.2729995,0.69071,-0.176852,0.6894795,0.9448,-0.182671,1.2985795,0.9426,-0.26537,0.9189555,0.00392,0.0102899999999999,1.0810445,-0.0039199999999999,-0.0102899999999999,0.8379695,0.1689400000000001,-0.30827,1.0935095,0.11954,-0.35845,0.8963365000000001,-0.2141899999999998,-0.149365,1.0946295,-0.2399099999999999,-0.173171,1
131,1.0088875,0.6665120000000001,-0.0803219999999999,0.8574065000000001,0.4694800000000001,-0.064524,0.7358365,0.68805,-0.1158289999999999,1.1502565,0.4607200000000001,-0.0840209999999999,1.2732065,0.6900000000000001,-0.177096,0.6892365,0.9437600000000002,-0.1828969999999999,1.2988165,0.94165,-0.265685,0.9188015,0.00392,0.010275,1.0811985,-0.0039199999999999,-0.0102749999999999,0.8382465,0.1689400000000001,-0.308285,1.0932765,0.11954,-0.358375,0.8961935,-0.2151799999999999,-0.14931,1.0944865,-0.2399099999999999,-0.173116,1
132,1.00883,0.6665120000000001,-0.0803089999999999,0.857275,0.4688500000000001,-0.064499,0.735625,0.68805,-0.115841,1.150315,0.4607200000000001,-0.0840269999999999,1.273455,0.68966,-0.177395,0.689065,0.94314,-0.183151,1.299115,0.94092,-0.26603,0.918664,0.00392,0.0103,1.081336,-0.0039199999999999,-0.0102999999999999,0.8385050000000001,0.16871,-0.30832,1.092905,0.12385,-0.3567099999999999,0.8961010000000001,-0.2150999999999999,-0.148372,1.094505,-0.2349999999999998,-0.175224,1
133,1.008852,0.6665120000000001,-0.080368,0.857209,0.4684000000000001,-0.064491,0.735499,0.68805,-0.115861,1.150619,0.4607200000000001,-0.084078,1.273739,0.68966,-0.177601,0.688909,0.94294,-0.183431,1.299509,0.9403700000000002,-0.266415,0.918554,0.00392,0.0103149999999999,1.081446,-0.0039199999999999,-0.010315,0.838709,0.1681,-0.308455,1.092669,0.1277700000000001,-0.355165,0.896389,-0.2153399999999998,-0.146329,1.094589,-0.2302499999999999,-0.177433,1
134,1.008924,0.667055,-0.080841,0.857168,0.46778,-0.064631,0.7353080000000001,0.68758,-0.116296,1.150908,0.46028,-0.084271,1.274098,0.68919,-0.177979,0.688748,0.94247,-0.18398,1.300028,0.93963,-0.266995,0.918406,0.0040299999999999,0.010215,1.081594,-0.0040299999999999,-0.010215,0.838678,0.16629,-0.309675,1.092448,0.13096,-0.353915,0.897036,-0.2164599999999999,-0.145726,1.094648,-0.2260499999999999,-0.179995,1
135,1.008995,0.6675660000000001,-0.081375,0.85722,0.467125,-0.064856,0.73518,0.687235,-0.116921,1.15123,0.459865,-0.084625,1.27439,0.688535,-0.178538,0.68866,0.941815,-0.184685,1.30058,0.938895,-0.26773,0.918278,0.004145,0.01009,1.081722,-0.0041449999999999,-0.01009,0.83868,0.164105,-0.31101,1.09233,0.133785,-0.3528,0.897839,-0.2174049999999999,-0.143918,1.09475,-0.222055,-0.182733,1
136,1.0089309999999998,0.668105,-0.082141,0.857368,0.4658599999999999,-0.065357,0.735078,0.6868799999999999,-0.117929,1.1515179999999998,0.4590599999999999,-0.085242,1.274318,0.6873699999999999,-0.179346,0.6887380000000001,0.94055,-0.185525,1.300998,0.93763,-0.26873,0.918172,0.0042799999999999,0.00994,1.081828,-0.00428,-0.00994,0.8386979999999999,0.1611199999999999,-0.31274,1.092348,0.1357299999999999,-0.35231,0.89808,-0.21843,-0.144275,1.094918,-0.21871,-0.185643,1
137,1.0088315,0.668474,-0.083166,0.8574215000000001,0.46397,-0.066051,0.7348615000000001,0.6867300000000001,-0.119258,1.1514615,0.45833,-0.085975,1.2742115,0.6861,-0.180438,0.6888515,0.93892,-0.186658,1.3008415,0.93574,-0.270105,0.9180865,0.00441,0.009805,1.0819135,-0.00441,-0.009805,0.8384315,0.15809,-0.314775,1.0924315,0.1372,-0.352985,0.8983015,-0.2203199999999999,-0.14655,1.0948915,-0.21597,-0.188611,1
138,1.0086285,0.6685850000000001,-0.084623,0.8573585,0.462715,-0.0677339999999999,0.7346285,0.686165,-0.121117,1.1512985,0.456795,-0.0871929999999999,1.2739685,0.6848050000000001,-0.182117,0.6889385,0.936665,-0.188291,1.3005585,0.932865,-0.27207,0.9178895,0.004815,0.0097399999999999,1.0821105,-0.0048149999999999,-0.0097399999999999,0.8380785,0.153775,-0.31716,1.0923885,0.137325,-0.3539,0.8974715,-0.2233449999999999,-0.14956,1.0944885,-0.2140649999999999,-0.191267,1
139,1.00819,0.66927,-0.087266,0.857007,0.46113,-0.070432,0.7339170000000002,0.68774,-0.125053,1.151037,0.45377,-0.088931,1.273397,0.6826,-0.184292,0.689067,0.93648,-0.191904,1.300127,0.9279,-0.274735,0.917744,0.00534,0.009505,1.082256,-0.00534,-0.009505,0.837587,0.14675,-0.320355,1.092247,0.13465,-0.355035,0.897287,-0.22826,-0.150837,1.094047,-0.21441,-0.194161,1
140,1.0074055,0.66996,-0.0913259999999999,0.8565465000000001,0.460059,-0.0744359999999999,0.7331465000000001,0.6893199999999999,-0.1298329999999999,1.1503465,0.4507099999999999,-0.092525,1.2724465,0.68129,-0.187052,0.6893865,0.93552,-0.196695,1.2989965,0.92724,-0.2790749999999999,0.9176635,0.00595,0.009235,1.0823365,-0.00595,-0.0092349999999999,0.8368765,0.1335499999999999,-0.325125,1.0919965,0.1266399999999999,-0.356595,0.8979545,-0.23784,-0.152164,1.0936865,-0.2193,-0.1972479999999999,1
141,1.006551,0.670995,-0.095002,0.856027,0.458105,-0.078403,0.7323770000000001,0.6901349999999999,-0.134299,1.149497,0.4480069999999999,-0.096108,1.270727,0.680285,-0.190443,0.689407,0.936595,-0.201188,1.297937,0.926105,-0.28344,0.917709,0.0060149999999999,0.0089799999999999,1.082291,-0.0060149999999999,-0.00898,0.836017,0.1190749999999999,-0.3293399999999999,1.091617,0.1145049999999999,-0.35835,0.898022,-0.248395,-0.158563,1.093657,-0.230205,-0.198415,1
142,1.0056855,0.671425,-0.09813,0.8557445000000001,0.458135,-0.082029,0.7317945,0.691875,-0.137724,1.1483145,0.449023,-0.099679,1.2701445,0.6792050000000001,-0.193612,0.6893545,0.936475,-0.205067,1.2970745,0.923085,-0.287255,0.9177505,0.005905,0.0086749999999999,1.0822495,-0.0059049999999999,-0.008675,0.8351745000000002,0.102405,-0.333005,1.0914244999999998,0.100345,-0.359715,0.8978035,-0.260285,-0.163776,1.0936845,-0.2431149999999999,-0.199212,1
143,1.0048615,0.67204,-0.1005289999999999,0.8556145,0.458191,-0.085057,0.7313545,0.69356,-0.140292,1.1471445,0.449767,-0.1025299999999999,1.2695245,0.67727,-0.195998,0.6892145000000001,0.9365,-0.2078209999999999,1.2961445,0.91938,-0.2904799999999999,0.9178215,0.0057899999999999,0.00845,1.0821785,-0.0057899999999999,-0.0084499999999999,0.8344145000000001,0.08494,-0.33552,1.0913944999999998,0.08548,-0.36058,0.8971625,-0.273,-0.167754,1.0939145,-0.25673,-0.1999119999999999,1
144,1.004062,0.67345,-0.102075,0.8555159999999999,0.4579129999999999,-0.087099,0.7311259999999999,0.69516,-0.141648,1.146156,0.4498339999999999,-0.104372,1.267986,0.67872,-0.196167,0.689236,0.94003,-0.208232,1.295186,0.92213,-0.291235,0.917944,0.0055799999999999,0.0083949999999999,1.082056,-0.00558,-0.008395,0.8338760000000001,0.0676699999999999,-0.336195,1.091786,0.0681399999999999,-0.361385,0.896284,-0.28617,-0.171043,1.094086,-0.27134,-0.20011,1
145,1.0030525,0.67609,-0.103432,0.8552615,0.459183,-0.088979,0.7306815,0.69682,-0.142211,1.1450115,0.451616,-0.1057989999999999,1.2660115,0.68018,-0.19587,0.6891715,0.94147,-0.208222,1.2940015,0.9228,-0.291715,0.9182315,0.00539,0.008355,1.0817685,-0.00539,-0.008355,0.8331015000000002,0.04746,-0.336775,1.0920115,0.04892,-0.362345,0.8948345,-0.3017899999999999,-0.1725209999999999,1.0942015,-0.2890299999999999,-0.2002959999999999,1
146,1.00182,0.67857,-0.1042479999999999,0.854785,0.460255,-0.0904479999999999,0.729905,0.69829,-0.14225,1.1438549999999998,0.45347,-0.1068819999999999,1.263755,0.68209,-0.195507,0.6889449999999999,0.94174,-0.2081869999999999,1.292495,0.92278,-0.29147,0.918666,0.0050299999999999,0.00828,1.081334,-0.0050299999999999,-0.0082799999999999,0.832085,0.0255799999999999,-0.3366099999999999,1.092175,0.02733,-0.36268,0.892092,-0.31959,-0.1752439999999999,1.094245,-0.30873,-0.2000219999999999,1
147,1.000712,0.68225,-0.1047869999999999,0.854456,0.461428,-0.0912359999999999,0.729676,0.70164,-0.1421579999999999,1.142736,0.456711,-0.1077939999999999,1.261566,0.68298,-0.195098,0.688446,0.94523,-0.2080499999999999,1.290596,0.91849,-0.2911049999999999,0.91921,0.0044799999999999,0.008145,1.08079,-0.0044799999999999,-0.0081449999999999,0.831076,-0.00161,-0.336465,1.092366,0.00014,-0.362865,0.889852,-0.3438599999999999,-0.177774,1.094426,-0.33353,-0.1996549999999999,1
148,0.9999245,0.686205,-0.104061,0.8542425000000001,0.462995,-0.090585,0.7288325,0.703105,-0.141407,1.1417025,0.461466,-0.107604,1.2586425,0.687315,-0.194012,0.6880625,0.947355,-0.207297,1.2888325,0.925195,-0.2902099999999999,0.9198155,0.0037449999999999,0.0078499999999999,1.0801845,-0.0037449999999999,-0.00785,0.8299825000000001,-0.027515,-0.33567,1.0926625,-0.025745,-0.3623,0.8872965,-0.365975,-0.17762,1.0946825,-0.357035,-0.198689,1
149,0.9994495,0.689955,-0.103019,0.8540345,0.463791,-0.089586,0.7280845,0.704195,-0.14032,1.1413245,0.466812,-0.106578,1.2557345,0.688455,-0.191835,0.6877745,0.949335,-0.205621,1.2882445,0.926045,-0.289095,0.9203355,0.0028449999999999,0.0075649999999999,1.0796645,-0.0028449999999999,-0.007565,0.8291545,-0.050775,-0.334575,1.0930345,-0.0483049999999999,-0.361385,0.8845445,-0.385685,-0.17671,1.0950645,-0.378155,-0.197177,1
150,0.999189,0.69327,-0.101501,0.8538680000000001,0.46533,-0.088082,0.728048,0.70599,-0.138285,1.141078,0.472,-0.1050619999999999,1.254628,0.6895500000000001,-0.188859,0.687468,0.9508,-0.203004,1.288258,0.92737,-0.28712,0.920801,0.00235,0.0071699999999999,1.0791989999999998,-0.0023499999999999,-0.0071699999999999,0.8285580000000001,-0.0725599999999999,-0.33286,1.093478,-0.0695099999999999,-0.35998,0.8820479999999999,-0.40481,-0.174832,1.095578,-0.3987199999999999,-0.19488,1
151,0.999033,0.69746,-0.099172,0.8533999999999999,0.46768,-0.085587,0.7278900000000001,0.70841,-0.13363,1.14115,0.4734699999999999,-0.102927,1.255,0.68947,-0.18489,0.68706,0.95593,-0.197847,1.28858,0.92966,-0.283435,0.921407,0.0022399999999999,0.0068249999999999,1.078593,-0.00224,-0.006825,0.8281499999999999,-0.09333,-0.329555,1.09398,-0.0896,-0.357405,0.8799399999999999,-0.4246,-0.172345,1.0959599999999998,-0.4190399999999999,-0.1922,1
152,0.999047,0.70218,-0.095518,0.853077,0.47003,-0.081952,0.728377,0.7109800000000001,-0.1283,1.141247,0.47558,-0.099684,1.256267,0.69292,-0.179817,0.6863970000000001,0.96113,-0.191952,1.289567,0.93507,-0.277815,0.921891,0.00213,0.0065149999999999,1.078109,-0.0021299999999999,-0.006515,0.828017,-0.1129099999999999,-0.324525,1.094617,-0.1090199999999999,-0.353235,0.877007,-0.4448,-0.171764,1.096257,-0.4387099999999999,-0.189235,1
153,0.9994495,0.7071,-0.0906599999999999,0.8529825,0.4720299999999999,-0.077623,0.7285325,0.7137,-0.1215369999999999,1.1414725,0.47722,-0.095743,1.2579625,0.6948799999999999,-0.174147,0.6862425,0.96197,-0.185298,1.2907425,0.93612,-0.271505,0.9224845,0.0020999999999999,0.006295,1.0775155,-0.0021,-0.0062949999999999,0.8283325,-0.13202,-0.3187149999999999,1.0955925,-0.12771,-0.348175,0.8756425,-0.46609,-0.167784,1.0972425,-0.45963,-0.186355,1
154,0.999993,0.70993,-0.085571,0.8528439999999999,0.47481,-0.072253,0.728674,0.7162299999999999,-0.115181,1.142224,0.48049,-0.090457,1.256974,0.6975100000000001,-0.167591,0.686374,0.96328,-0.17828,1.292044,0.93786,-0.26496,0.922973,0.0019199999999999,0.00612,1.077027,-0.0019199999999999,-0.00612,0.829014,-0.1490199999999999,-0.31222,1.096784,-0.14444,-0.34212,0.874524,-0.48733,-0.164479,1.098254,-0.4794199999999999,-0.184019,1
155,1.0007755,0.713625,-0.079514,0.8525925,0.478425,-0.0657899999999999,0.7288924999999999,0.718325,-0.107788,1.1430725,0.4818949999999999,-0.084795,1.2590625,0.6980850000000001,-0.161791,0.6868325,0.966525,-0.170609,1.2937525,0.939685,-0.257395,0.9234305,0.002175,0.005905,1.0765695,-0.002175,-0.0059049999999999,0.8301525000000001,-0.164485,-0.304705,1.0982225,-0.160055,-0.335165,0.8736825,-0.508535,-0.161231,1.0991525,-0.499225,-0.18142,1
156,1.001412,0.716715,-0.0733539999999999,0.8521730000000001,0.480815,-0.0590539999999999,0.728553,0.7208950000000001,-0.1005529999999999,1.143733,0.482415,-0.0791579999999999,1.258463,0.700985,-0.155413,0.687263,0.966605,-0.1638029999999999,1.294933,0.948135,-0.250345,0.923718,0.002225,0.005655,1.076282,-0.002225,-0.0056549999999999,0.831133,-0.176545,-0.297205,1.099173,-0.171045,-0.327885,0.873053,-0.526125,-0.1565309999999999,1.099743,-0.5158849999999999,-0.178139,1
157,1.00216,0.719425,-0.066812,0.851708,0.483515,-0.051899,0.728028,0.723385,-0.093415,1.144428,0.482915,-0.073505,1.256628,0.699085,-0.147153,0.6871480000000001,0.968455,-0.156821,1.296518,0.944955,-0.241871,0.924051,0.0023749999999999,0.0054489999999999,1.075949,-0.002375,-0.005449,0.832338,-0.189305,-0.288661,1.100298,-0.183915,-0.319811,0.872668,-0.5449350000000001,-0.151351,1.100508,-0.534155,-0.174112,1
158,1.0029264999999998,0.7225400000000001,-0.0603609999999999,0.8514205,0.4869599999999999,-0.0451569999999999,0.7276005,0.72674,-0.0863539999999999,1.1451205,0.48163,-0.0681229999999999,1.2552405,0.7003900000000001,-0.139564,0.6870005,0.97091,-0.150133,1.2983805,0.94462,-0.233931,0.9243895,0.0027699999999999,0.005139,1.0756105,-0.0027699999999999,-0.0051389999999999,0.8336005,-0.20066,-0.280211,1.1014704999999998,-0.19558,-0.311771,0.8723505,-0.56213,-0.146691,1.1013004999999998,-0.55113,-0.170288,1
159,1.003488,0.724605,-0.0537305,0.851046,0.490955,-0.0381045,0.727026,0.729355,-0.0792655,1.145566,0.482225,-0.0623725,1.254716,0.699715,-0.1319075,0.686866,0.970205,-0.1431275,1.300466,0.944355,-0.2255305,0.924903,0.0029949999999999,0.0048995,1.075097,-0.0029949999999999,-0.0048995,0.8351459999999999,-0.213445,-0.2703405,1.102736,-0.208385,-0.3022605,0.871976,-0.580415,-0.1418085,1.1021459999999998,-0.569645,-0.1660444999999999,1
160,1.0038295,0.7263850000000001,-0.047021,0.8505834999999999,0.492805,-0.031398,0.7262934999999999,0.7304550000000001,-0.071926,1.1460735,0.483365,-0.056765,1.2539535,0.699935,-0.124337,0.6853935,0.971485,-0.135625,1.3028735,0.944195,-0.217782,0.9254455,0.0030149999999999,0.0047499999999999,1.0745545,-0.003015,-0.00475,0.8367835,-0.225885,-0.259342,1.1035135,-0.221225,-0.291682,0.8714035,-0.5980749999999999,-0.136972,1.1028435,-0.587925,-0.161492,1
161,1.004265,0.72831,-0.0402495,0.850105,0.49473,-0.0247355,0.725735,0.7319500000000001,-0.0645995,1.146535,0.4846,-0.0509415,1.256425,0.69876,-0.1183875,0.6838850000000001,0.97343,-0.1278255,1.305055,0.94297,-0.2099885,0.926016,0.0029099999999999,0.0047934999999999,1.073984,-0.0029099999999999,-0.0047935,0.838625,-0.24495,-0.2478785,1.104405,-0.23803,-0.2805085,0.871075,-0.61667,-0.1318115,1.103235,-0.60805,-0.1566695,1
162,1.0046495,0.7298,-0.0340764999999999,0.8496575,0.49797,-0.0182325,0.7251475000000001,0.73361,-0.0577994999999999,1.1470675,0.48699,-0.0450004999999999,1.2599675,0.69667,-0.1122404999999999,0.6820075,0.97539,-0.1199445,1.3069674999999998,0.93916,-0.2020635,0.9265655,0.0027699999999999,0.0047285,1.0734345,-0.0027699999999999,-0.0047284999999999,0.8410875,-0.26546,-0.2342535,1.1053475,-0.25575,-0.2673835,0.8708675000000001,-0.6358600000000001,-0.1264664999999999,1.1037975,-0.62849,-0.1517335,1
163,1.005636,0.730156,-0.0237375,0.850105,0.497256,-0.0080864999999999,0.725895,0.7331059999999999,-0.0464655,1.148245,0.485786,-0.0353865,1.264065,0.692516,-0.1021465,0.680625,0.977326,-0.1078535,1.309485,0.936436,-0.1897734999999999,0.927086,0.002543,0.0045224999999999,1.072914,-0.002543,-0.0045224999999999,0.844395,-0.286104,-0.2156035,1.106825,-0.274224,-0.2489835,0.8713150000000001,-0.655444,-0.1166455,1.104975,-0.649234,-0.1424305,1
164,1.006448,0.729833,-0.0145684999999999,0.850684,0.497223,0.0007705,0.7259439999999999,0.7353430000000001,-0.0362375,1.149574,0.4866229999999999,-0.0266085,1.268054,0.694723,-0.0926555,0.678984,0.978633,-0.0966725,1.312124,0.940383,-0.1787305,0.927468,0.0021349999999999,0.0043725,1.072532,-0.0021349999999999,-0.0043725,0.848964,-0.305147,-0.1933905,1.107414,-0.292337,-0.2272305,0.872144,-0.673557,-0.1067485,1.106204,-0.668277,-0.1328945,1
165,1.0073095,0.730483,-0.0058335,0.8513625,0.497633,0.0093565,0.7262725,0.735743,-0.0261945,1.1510425,0.486573,-0.0181495,1.2706625,0.695003,-0.0835905,0.6772724999999999,0.980523,-0.0858675,1.3146025,0.941773,-0.1683805,0.9277515,0.0019619999999999,0.0039944999999999,1.0722485,-0.001962,-0.0039945,0.8535925,-0.322357,-0.1711305,1.1077925,-0.309297,-0.2052105,0.8731525,-0.689967,-0.0971385,1.1075225,-0.685487,-0.1234775,1
166,1.0082545,0.7305794999999999,0.0021399999999999,0.8521335,0.4973995,0.01736,0.7268935000000001,0.7359395,-0.017394,1.1524535,0.4868295,-0.010251,1.2719135,0.6980295,-0.075666,0.6765135,0.9797795,-0.075828,1.3170235,0.9453195,-0.15984,0.9280385,0.0016774999999999,0.0036269999999999,1.0719615,-0.0016775,-0.003627,0.8579435000000001,-0.3381105,-0.14969,1.1080735,-0.3235805,-0.18366,0.8742835,-0.7043605000000001,-0.088113,1.1087835,-0.7008205000000001,-0.114361,1
167,1.0091895,0.7301310000000001,0.0100869999999999,0.8528255000000001,0.497731,0.025346,0.7276754999999999,0.736291,-0.0090459999999999,1.1541055,0.489161,-0.0024199999999999,1.2739555,0.700261,-0.067897,0.6758655,0.978671,-0.065948,1.3192155,0.946761,-0.15118,0.9283225,0.0011409999999999,0.0033429999999999,1.0716775,-0.0011409999999999,-0.0033429999999999,0.8622255,-0.354809,-0.127973,1.1082955,-0.338159,-0.16148,0.8755155,-0.7190589999999999,-0.077392,1.1100454999999998,-0.7161090000000001,-0.10547,1
168,1.0103445,0.7298319999999999,0.0176509999999999,0.8535874999999999,0.498012,0.0324829999999999,0.7286775,0.737462,-0.001256,1.1560575,0.489702,0.0048909999999999,1.2755175,0.7051719999999999,-0.0604,0.6754775,0.979362,-0.056669,1.3211974999999998,0.948322,-0.143055,0.9283635,0.0008789999999999,0.0029759999999999,1.0716365,-0.0008789999999999,-0.002976,0.8663775,-0.3702379999999999,-0.107322,1.1086475,-0.350418,-0.140545,0.8767475,-0.731828,-0.06756,1.1114375,-0.7293080000000001,-0.097161,1
169,1.01147,0.729429,0.0248925,0.854328,0.497779,0.0390305,0.729698,0.738819,0.0063245,1.158158,0.489909,0.0119575,1.279478,0.710579,-0.0543774999999999,0.676158,0.975499,-0.0480525,1.322948,0.950229,-0.1349705,0.928386,0.000576,0.0025695,1.071614,-0.000576,-0.0025694999999999,0.870428,-0.384961,-0.0874155,1.108708,-0.362131,-0.1202935,0.877978,-0.7434710000000001,-0.0580484999999999,1.112788,-0.7407410000000001,-0.0876425,1
170,1.0124814999999998,0.7282495,0.0314665,0.8550055,0.4979095,0.0452145,0.7306455000000001,0.7399595,0.0137065,1.1600555,0.4901495,0.0187985,1.2823155,0.7148995,-0.0484835,0.6769155,0.9712795,-0.0397074999999999,1.3246755,0.9512495,-0.1271904999999999,0.9283265,0.0003704999999999,0.0019805,1.0716735,-0.0003705,-0.0019804999999999,0.8742755,-0.3994105,-0.0678515,1.1086554999999998,-0.3738505,-0.1005125,0.8791555,-0.7544605,-0.0488085,1.1139955,-0.7520405,-0.0790704999999999,1
171,1.0133804999999998,0.7265405,0.037513,0.8556545,0.4973405000000001,0.050899,0.7315745,0.7404905,0.020623,1.1618245,0.4902105,0.024831,1.2855345,0.7176405,-0.0433029999999999,0.6777945000000001,0.9676905,-0.032083,1.3262645,0.9526005,-0.119984,0.9283005,0.0002314999999999,0.0014359999999999,1.0716995,-0.0002314999999999,-0.001436,0.8775745,-0.4128595,-0.050845,1.1085345,-0.3847394999999999,-0.082877,0.8802045000000001,-0.7641395,-0.040308,1.1150445,-0.7613694999999999,-0.070168,1
172,1.013588,0.726865,0.038684,0.8556779999999999,0.4987549999999999,0.05168,0.731778,0.743255,0.022428,1.162798,0.490745,0.0260649999999999,1.288518,0.721635,-0.043203,0.6781980000000001,0.965945,-0.029343,1.327108,0.954525,-0.1174849999999999,0.928099,0.0002869999999999,0.001079,1.071901,-0.0002869999999999,-0.001079,0.880038,-0.424825,-0.039708,1.107828,-0.393485,-0.071386,0.880518,-0.771895,-0.03702,1.115598,-0.768555,-0.066129,1
173,1.0137165,0.7274565,0.0397179999999999,0.8556555,0.4991065,0.052339,0.7319455,0.7436365,0.024165,1.1634354999999998,0.4912565,0.027238,1.2889455,0.7207565,-0.041591,0.6786755000000001,0.9641765,-0.026957,1.3276655,0.9506165,-0.115145,0.9278395000000002,0.0002465,0.000778,1.0721604999999998,-0.0002464999999999,-0.000778,0.8813355,-0.4301635,-0.033277,1.1078755,-0.3991335,-0.06408,0.8806155,-0.7775135,-0.034695,1.1159855,-0.7737835,-0.062921,1
174,1.0136489999999998,0.7267475,0.0403004999999999,0.855553,0.4992675,0.0527405,0.7322230000000001,0.7438174999999999,0.0252435,1.163953,0.4927275,0.0281495,1.289283,0.7208975,-0.0404245,0.678983,0.9623475,-0.0252255,1.328023,0.9476575,-0.1135265,0.927656,0.0001014999999999,0.0006055,1.072344,-0.0001015,-0.0006055,0.882333,-0.4347725,-0.0280965,1.107973,-0.4033625,-0.0583845,0.880803,-0.7819425000000001,-0.0328035,1.116073,-0.7780425000000001,-0.0602715,1
175,1.0136444999999998,0.7261385,0.040839,0.8555465,0.4996685,0.053014,0.7325065,0.7440184999999999,0.026076,1.1645065,0.4938685,0.028797,1.2896665,0.7201584999999999,-0.0392319999999999,0.6793065,0.9606685,-0.0236919999999999,1.3284665,0.9451585,-0.112012,0.9274895,2.6499999999998747e-05,0.0004979999999999,1.0725105,-2.6499999999998747e-05,-0.000498,0.8833664999999999,-0.4389714999999999,-0.0233729999999999,1.1083465,-0.4075514999999999,-0.053431,0.8812165,-0.7857315,-0.0310049999999999,1.1162165,-0.7817215000000001,-0.057689,1
176,1.0136314999999998,0.725835,0.0413215,0.8556285000000001,0.499075,0.0533135,0.7324385,0.743475,0.0268205,1.1649585,0.493755,0.0295585,1.2895885,0.719035,-0.0378555,0.6796185,0.959565,-0.0221965,1.3286685,0.943265,-0.1102264999999999,0.9273485,4.700000000000537e-05,0.0004334999999999,1.0726515,-4.699999999999843e-05,-0.0004335,0.8840685000000001,-0.441865,-0.0190445,1.1088485,-0.410195,-0.0491145,0.8812185,-0.788635,-0.0292205,1.1165285,-0.784145,-0.0549855,1
177,1.0135865,0.7256515,0.0417435,0.8556925,0.4986414999999999,0.0536275,0.7323824999999999,0.7431315000000001,0.0275944999999999,1.1653525,0.4937614999999999,0.0302945,1.2896725,0.7172415,-0.0365085,0.6800225,0.9588615,-0.0207835,1.3288425,0.9417215,-0.1085445,0.9272355,6.450000000000206e-05,0.0003775,1.0727645,-6.450000000000206e-05,-0.0003775,0.8846325,-0.4441184999999999,-0.0149735,1.1094525,-0.4121685,-0.0448244999999999,0.8811725,-0.7909984999999999,-0.0274785,1.1166525,-0.7857585,-0.0523135,1
178,1.0134505,0.725633,0.0422009999999999,0.8556675000000001,0.498313,0.054013,0.7322875000000001,0.742733,0.028521,1.1655375,0.493673,0.0309799999999999,1.2897575,0.716143,-0.035299,0.6802775000000001,0.958463,-0.019645,1.3289375,0.940903,-0.107184,0.9271875,5.700000000000149e-05,0.000386,1.0728125,-5.700000000000149e-05,-0.000386,0.8851875,-0.4450969999999999,-0.011643,1.1101175,-0.412837,-0.041146,0.8813175,-0.791967,-0.026064,1.1164475,-0.786057,-0.049312,1
179,1.0132899999999998,0.725713,0.0425635,0.855608,0.4979429999999999,0.0543854999999999,0.732288,0.7423230000000001,0.0294195,1.165698,0.493613,0.0315665,1.289548,0.715333,-0.0341615,0.680518,0.958153,-0.0186225,1.329048,0.940323,-0.1059595,0.927142,5.100000000000243e-05,0.0004475,1.072858,-5.100000000000243e-05,-0.0004475,0.885698,-0.445867,-0.0084715,1.110738,-0.413217,-0.0377105,0.8814379999999999,-0.7925869999999999,-0.0247325,1.116358,-0.786187,-0.0467585,1
180,1.0130994999999998,0.725888,0.0429035,0.8555465000000001,0.497668,0.0547085,0.7323865,0.741928,0.0302384999999999,1.1658565,0.493598,0.0321425,1.2891765,0.7151379999999999,-0.0333095,0.6807265,0.958168,-0.0176735,1.3291265,0.939938,-0.1048205,0.9271125,3.900000000000431e-05,0.0005254999999999,1.0728875,-3.899999999999737e-05,-0.0005254999999999,0.8861865,-0.4464519999999999,-0.0053595,1.1113265,-0.413802,-0.0344125,0.8815465,-0.793012,-0.0235445,1.1162465,-0.785912,-0.0435635,1
181,1.0128275,0.726084,0.0431675,0.8553445,0.4974639999999999,0.0549995,0.7320745,0.741614,0.0310025,1.1658345,0.493604,0.0325775,1.2883045,0.7146239999999999,-0.0323435,0.6805945,0.958354,-0.0167865,1.3291045,0.939704,-0.1039235,0.9270825,3.700000000000231e-05,0.0005414999999999,1.0729175,-3.700000000000231e-05,-0.0005414999999999,0.8866845,-0.446876,-0.0021775,1.1119645,-0.414026,-0.0314324999999999,0.8816845,-0.7934260000000001,-0.0225375,1.1161745,-0.785096,-0.0405364999999999,1
182,1.012596,0.72613,0.04342,0.855137,0.49732,0.055226,0.7317469999999999,0.74133,0.031696,1.165807,0.49362,0.032929,1.287777,0.71389,-0.031495,0.680417,0.95854,-0.01601,1.329087,0.93953,-0.103108,0.927065,3.399999999999931e-05,0.0005959999999999,1.072935,-3.399999999999931e-05,-0.000596,0.887227,-0.4472399999999999,0.000983,1.112567,-0.41391,-0.028817,0.881847,-0.79374,-0.021597,1.116137,-0.78403,-0.03723,1
183,1.012368,0.7261759999999999,0.0435605,0.854894,0.497276,0.0553025,0.731244,0.741196,0.0322135,1.165764,0.493686,0.0332035,1.287634,0.7135459999999999,-0.0308495,0.680134,0.958856,-0.0153925,1.329054,0.939476,-0.1024465,0.927054,2.9999999999995308e-05,0.0006885,1.072946,-3.0000000000002247e-05,-0.0006884999999999,0.887764,-0.447594,0.0039735,1.113334,-0.413904,-0.0262445,0.881984,-0.793834,-0.0207815,1.116144,-0.7830140000000001,-0.0342185,0
184,1.0119155,0.726157,0.043688,0.8545065000000001,0.497127,0.0553909999999999,0.7305265000000001,0.740967,0.032635,1.1655865,0.493737,0.033395,1.2876865,0.713317,-0.030203,0.6793665,0.959227,-0.0147129999999999,1.3288265,0.939577,-0.101771,0.9270175,9.000000000002062e-06,0.0007509999999999,1.0729825,-8.999999999995123e-06,-0.0007509999999999,0.8883165000000001,-0.4483129999999999,0.007032,1.1143365,-0.4140629999999999,-0.0238649999999999,0.8823765000000001,-0.7938729999999999,-0.019592,1.1161565,-0.782023,-0.03114,0
185,1.0115379999999998,0.726156,0.0437825,0.8543270000000001,0.4969959999999999,0.0554405,0.729877,0.7407860000000001,0.0329755,1.165477,0.493766,0.0335855,1.287697,0.713136,-0.0296325,0.6785570000000001,0.959446,-0.0139874999999999,1.328757,0.939576,-0.1011345,0.926997,-9.999999999996125e-06,0.0008215,1.073003,1.0000000000003062e-05,-0.0008214999999999,0.888787,-0.448934,0.0099345,1.1152369999999998,-0.413624,-0.0219045,0.882797,-0.7939039999999999,-0.0184125,1.116057,-0.781184,-0.0282255,0
186,1.011346,0.7261575,0.0438475,0.8541719999999999,0.4969675,0.0555375,0.7291720000000002,0.7406475,0.0333185,1.165382,0.4937075000000001,0.0336954999999999,1.287642,0.7131875,-0.0292694999999999,0.6776620000000001,0.9597275,-0.0132645,1.328742,0.9394775,-0.1005355,0.926988,-2.8500000000000747e-05,0.0008884999999999,1.073012,2.8500000000000747e-05,-0.0008885,0.8891920000000001,-0.4492925,0.0126485,1.116002,-0.4130324999999999,-0.0205675,0.883192,-0.7938525,-0.0172165,1.116012,-0.7800325,-0.0254355,0
187,1.0111739999999998,0.7260789999999999,0.0438739999999999,0.854014,0.4969389999999999,0.055643,0.7284539999999999,0.7404689999999999,0.033664,1.165204,0.493599,0.033681,1.287644,0.7125389999999999,-0.029071,0.676864,0.959719,-0.012511,1.328644,0.939369,-0.100038,0.926976,-1.8000000000004124e-05,0.000967,1.073024,1.7999999999997185e-05,-0.000967,0.889504,-0.4494809999999999,0.015179,1.1165239999999998,-0.4131809999999999,-0.019923,0.883534,-0.793861,-0.015981,1.116054,-0.778861,-0.023169,0
188,1.0109215,0.7260035,0.0438845,0.8537655,0.4969435,0.0556815,0.7277255,0.7402534999999999,0.0340785,1.1649655,0.4935235,0.0337055,1.2880755,0.7118835000000001,-0.0290445,0.6764055,0.9596435,-0.0117025,1.3284555,0.9392935,-0.0996145,0.9269575,2.4500000000003685e-05,0.0010265,1.0730425,-2.4499999999996747e-05,-0.0010264999999999,0.8897055,-0.4496865,0.0175055,1.1169755,-0.4131765,-0.0191725,0.8838555000000001,-0.7938464999999999,-0.0143905,1.1160255,-0.7780665,-0.0211925,0
189,1.010533,0.725969,0.043809,0.853417,0.496989,0.055868,0.726907,0.740029,0.0346179999999999,1.164657,0.493489,0.0336179999999999,1.288557,0.710709,-0.02903,0.676167,0.959609,-0.010841,1.328317,0.939259,-0.099407,0.926937,5.899999999999656e-05,0.0010809999999999,1.073063,-5.900000000000349e-05,-0.001081,0.889747,-0.449841,0.019569,1.117357,-0.412931,-0.01829,0.884087,-0.793791,-0.012664,1.115827,-0.7774409999999999,-0.020102,0
190,1.0101435,0.725969,0.0436625,0.8530625000000001,0.497089,0.0561875,0.7256625000000001,0.739649,0.0351105,1.1643425,0.493369,0.0333215,1.2900125,0.709479,-0.0292005,0.6757325000000001,0.959609,-0.0098954999999999,1.3282525,0.939089,-0.0993275,0.9269335,5.899999999999656e-05,0.0011945,1.0730665,-5.900000000000349e-05,-0.0011944999999999,0.8895025,-0.449991,0.0212435,1.1176825,-0.412261,-0.0172195,0.8840425000000001,-0.793791,-0.0108935,1.1154325,-0.777411,-0.0184455,0
191,1.009776,0.725984,0.043458,0.852756,0.497094,0.056725,0.724016,0.734924,0.035441,1.164116,0.493054,0.032765,1.292706,0.706824,-0.029828,0.675116,0.958824,-0.009129,1.328456,0.938474,-0.099857,0.926936,7.000000000000062e-05,0.0013239999999999,1.073064,-7.000000000000062e-05,-0.001324,0.889086,-0.450086,0.022579,1.117886,-0.412246,-0.01647,0.883656,-0.793776,-0.009117,1.1149159999999998,-0.777396,-0.017095,0
192,1.009431,0.7259180000000001,0.0431185,0.852294,0.497108,0.0574185,0.721994,0.729658,0.0358455,1.163944,0.492398,0.0320585,1.297104,0.702258,-0.0305045,0.674294,0.957048,-0.0084065,1.329254,0.932358,-0.1011265,0.926939,8.99999999999998e-05,0.0014654999999999,1.0730609999999998,-8.99999999999998e-05,-0.0014655,0.888604,-0.4499519999999999,0.0241655,1.1177739999999998,-0.412342,-0.0163875,0.883094,-0.793752,-0.0071395,1.114394,-0.777372,-0.0155015,0
193,1.0092375,0.725928,0.0425755,0.8518955,0.4971879999999999,0.0582295,0.7190955,0.722568,0.0362755,1.1638955,0.491428,0.0311714999999999,1.3026855,0.693678,-0.0313745,0.6732355,0.947178,-0.0085245,1.3303655,0.923208,-0.1022955,0.9269365,0.000176,0.0017174999999999,1.0730635,-0.000176,-0.0017175,0.8880255,-0.449822,0.0258665,1.1173155,-0.412452,-0.0167485,0.8822655,-0.793642,-0.0053985,1.1136255,-0.777782,-0.0144105,0
194,1.0090315,0.7263575,0.041915,0.8513995,0.4969775,0.059632,0.7145095,0.7083775000000001,0.03712,1.1641594999999998,0.4901975,0.030303,1.3097795,0.6790175,-0.0320919999999999,0.6715895000000001,0.9303275,-0.0087399999999999,1.3300595,0.9057275,-0.1031199999999999,0.9269125,0.0002745,0.002155,1.0730875,-0.0002744999999999,-0.002155,0.8869595,-0.4486825,0.02762,1.1162595,-0.4110625,-0.017078,0.8807795,-0.7929925,-0.0029229999999999,1.1123195,-0.7785525,-0.013929,0
195,1.008747,0.7271235,0.040965,0.8514619999999999,0.4968235,0.060429,0.708582,0.6908935,0.037921,1.164412,0.4887435,0.029295,1.318682,0.6608935,-0.0332489999999999,0.669752,0.9101235,-0.0093669999999999,1.330082,0.8830435,-0.105789,0.926925,0.0003594999999999,0.002576,1.073075,-0.0003595,-0.0025759999999999,0.8858620000000001,-0.4471564999999999,0.028831,1.115002,-0.4095965,-0.0176829999999999,0.879122,-0.7920564999999999,-0.0001609999999999,1.111072,-0.7784964999999999,-0.0131389999999999,0
196,1.0083155,0.728365,0.0395444999999999,0.8520185,0.4966349999999999,0.0605135,0.7041385,0.670755,0.0378355,1.1645685,0.4871149999999999,0.0283555,1.3242885,0.639815,-0.0341835,0.6680485,0.887115,-0.0108574999999999,1.3301985,0.857635,-0.1088215,0.9269485,0.0004849999999999,0.0029875,1.0730514999999998,-0.0004849999999999,-0.0029875,0.8845585,-0.444025,0.0288015,1.1132485,-0.408245,-0.0182535,0.8765185,-0.790635,0.0030085,1.1090385,-0.778275,-0.0124685,0
197,1.007426,0.729908,0.037485,0.8527750000000001,0.496158,0.060113,0.700015,0.646598,0.037705,1.164375,0.4855779999999999,0.027136,1.326925,0.613338,-0.0338119999999999,0.666675,0.860738,-0.0126459999999999,1.328065,0.827468,-0.1141779999999999,0.926944,0.0006029999999999,0.003352,1.073056,-0.000603,-0.0033519999999999,0.882925,-0.440062,0.028102,1.111395,-0.406622,-0.019373,0.873375,-0.788932,0.006376,1.106675,-0.777702,-0.0117769999999999,0
198,1.0056489999999998,0.7318465,0.035367,0.853236,0.4955064999999999,0.059605,0.6957960000000001,0.6184864999999999,0.038674,1.163696,0.4840464999999999,0.025751,1.325446,0.5838865,-0.032515,0.665196,0.8308765,-0.016835,1.322946,0.7910865,-0.121026,0.926868,0.0006954999999999,0.003841,1.073132,-0.0006955,-0.003841,0.881066,-0.4353635,0.025126,1.109286,-0.4048135,-0.0200599999999999,0.8692960000000001,-0.7866235,0.01028,1.103906,-0.7767535,-0.011226,0
199,1.0025004999999998,0.734032,0.0318045,0.8534895,0.494292,0.0585445,0.6911395,0.581032,0.0408365,1.1623995,0.4822019999999999,0.0233605,1.3208095,0.545482,-0.0301755,0.6624895,0.7868120000000001,-0.0250405,1.3162595,0.738162,-0.1314354999999999,0.9268135,0.000821,0.0044975,1.0731865,-0.000821,-0.0044975,0.8783695,-0.429808,0.0184955,1.1070395,-0.402988,-0.0204244999999999,0.8642695,-0.783758,0.0122415,1.1005495,-0.775238,-0.0104425,0
200,0.998223,0.736436,0.0278064999999999,0.852966,0.492376,0.0570085,0.686286,0.545986,0.0439014999999999,1.159856,0.480546,0.0208665,1.315976,0.506296,-0.0270144999999999,0.6587259999999999,0.7378159999999999,-0.0361035,1.309566,0.678446,-0.1397655,0.926741,0.0009639999999999,0.0053674999999999,1.073259,-0.0009639999999999,-0.0053675,0.874306,-0.423774,0.0105154999999999,1.104616,-0.401434,-0.0203995,0.858656,-0.7802840000000001,0.0124514999999999,1.096936,-0.773534,-0.0089175,0
201,0.9930655,0.7389425,0.0230175,0.8521265,0.4902125,0.0554175,0.6825065,0.5069425,0.0468675,1.1570665,0.4790825,0.0182575,1.3114965,0.4662125,-0.0235265,0.6551665,0.6825525,-0.0477805,1.3031965,0.6172424999999999,-0.1480105,0.9266535,0.0010935,0.0063604999999999,1.0733465,-0.0010935,-0.0063604999999999,0.8692165000000001,-0.4169075,0.0011294999999999,1.1025565,-0.3982475,-0.0194734999999999,0.8511865000000001,-0.7759275000000001,0.0082954999999999,1.0936565,-0.7716375000000001,-0.0069354999999999,0
202,0.988426,0.7413535,0.0177815,0.850839,0.4878234999999999,0.0542225,0.6813089999999999,0.4682135,0.0506185,1.153949,0.4774535,0.0155535,1.308099,0.4288535,-0.0192284999999999,0.651849,0.6286535,-0.0595425,1.295899,0.5538635000000001,-0.1553425,0.926681,0.0011534999999999,0.0075515,1.073319,-0.0011535,-0.0075514999999999,0.863609,-0.4092265,-0.0101364999999999,1.101529,-0.3938665,-0.0180164999999999,0.842909,-0.7712265,0.0004825,1.091489,-0.7696565,-0.0041324999999999,0
203,0.985668,0.7430335,0.0114075,0.848819,0.4855635,0.0524045,0.6805490000000001,0.4348035,0.0546335,1.151549,0.4759935,0.0114644999999999,1.303009,0.3969035,-0.0141465,0.648319,0.5761435,-0.0707085,1.289549,0.4857835,-0.1598585,0.926881,0.0011114999999999,0.0084144999999999,1.073119,-0.0011115,-0.0084144999999999,0.859749,-0.4014965,-0.0233304999999999,1.101849,-0.3900865,-0.0163295,0.833989,-0.7674165000000001,-0.0111085,1.091259,-0.7668665,8.64999999999963e-05,0
204,0.9839325,0.7442759999999999,0.0046265,0.8478255,0.4830259999999999,0.0502545,0.6811655000000001,0.403616,0.0592335,1.1502454999999998,0.4746559999999999,0.0073565,1.2956755,0.3669759999999999,-0.0082884999999999,0.6459655,0.522286,-0.0813145,1.2824455,0.4219659999999999,-0.1611145,0.9270645,0.0010049999999999,0.0095735,1.0729355,-0.0010049999999999,-0.0095734999999999,0.8568855,-0.394144,-0.0371344999999999,1.1025455,-0.386654,-0.0148274999999999,0.8254655000000001,-0.7638440000000001,-0.0236025,1.0918955,-0.764154,0.0055595,0
205,0.9806455,0.7448445,-0.0031,0.8473505,0.4799545,0.047319,0.6817105,0.3694645,0.065368,1.1495105,0.4737245,0.0027569999999999,1.2846805,0.3365745,-0.001029,0.6443405,0.4670645,-0.091371,1.2734605,0.3546645,-0.158581,0.9272395,0.0008155,0.0106769999999999,1.0727605,-0.0008155,-0.010677,0.8533904999999999,-0.3873655,-0.0514209999999999,1.1033605,-0.3830254999999999,-0.012111,0.8116305,-0.7569755,-0.044221,1.0933705,-0.7610855,0.013404,0
206,0.9727765,0.744444,-0.0117089999999999,0.8459915,0.4768239999999999,0.043281,0.6808415,0.342144,0.067835,1.1455015,0.4726439999999999,-0.0032429999999999,1.2689815,0.312114,0.007004,0.6400315,0.4108639999999999,-0.103709,1.2619515,0.288514,-0.1495089999999999,0.9274655,0.000564,0.012079,1.0725345,-0.000564,-0.0120789999999999,0.8470215,-0.380666,-0.0653389999999999,1.1042315,-0.379546,-0.0067099999999999,0.7948415,-0.7459060000000001,-0.0673389999999999,1.0952415,-0.757486,0.025012,0
207,0.963458,0.743425,-0.020094,0.842905,0.473835,0.039507,0.6812850000000001,0.316855,0.070583,1.140635,0.471705,-0.0085739999999999,1.250305,0.290275,0.015365,0.634605,0.358375,-0.113674,1.2512649999999998,0.228165,-0.137684,0.927663,0.0003229999999999,0.0133039999999999,1.072337,-0.000323,-0.0133039999999999,0.840295,-0.374325,-0.076594,1.105115,-0.376175,-0.0012139999999999,0.777495,-0.7349549999999999,-0.090504,1.097245,-0.7545149999999999,0.037456,0
208,0.952424,0.741592,-0.028305,0.837944,0.471282,0.0353659999999999,0.682614,0.301662,0.071501,1.134734,0.471182,-0.0134149999999999,1.232954,0.278292,0.0221979999999999,0.626814,0.320322,-0.122315,1.241784,0.1832119999999999,-0.123105,0.927811,-2.000000000000265e-06,0.0142449999999999,1.072189,2.000000000000265e-06,-0.0142449999999999,0.833784,-0.368458,-0.084445,1.107294,-0.372848,0.0049749999999999,0.760854,-0.724638,-0.111455,1.100564,-0.752008,0.05073,0
209,0.93842,0.7384745,-0.039,0.830635,0.4681545,0.0292599999999999,0.683935,0.2880445,0.0648639999999999,1.127675,0.4708645,-0.01939,1.217535,0.2692245,0.02831,0.615755,0.2860945,-0.13273,1.233875,0.1458245,-0.1063,0.92788,-0.0008105,0.0146899999999999,1.07212,0.0008105,-0.01469,0.829045,-0.3629354999999999,-0.09097,1.111025,-0.3703654999999999,0.01181,0.746945,-0.7140555,-0.13032,1.107355,-0.7495655,0.06613,0
210,0.9242215,0.7345845,-0.050345,0.8218695,0.4646045,0.020385,0.6843095,0.2797045,0.056483,1.1190495,0.4707445,-0.0270549999999999,1.2053295,0.2653045,0.033365,0.6048795,0.2586645,-0.141825,1.2280195,0.1177645,-0.0897149999999999,0.9279715,-0.0019985,0.014855,1.0720285,0.0019985,-0.014855,0.8251495,-0.3589655,-0.0960649999999999,1.1155095,-0.3661055,0.0181149999999999,0.7375195,-0.7040755,-0.1446249999999999,1.1163095,-0.7462755,0.081887,0
211,0.9092785,0.7299289999999999,-0.063275,0.8127175,0.460449,0.0097449999999999,0.6819875,0.271669,0.0426949999999999,1.1105175,0.471409,-0.035225,1.1951975,0.263949,0.0355649999999999,0.5934975,0.236019,-0.152185,1.2254075,0.096194,-0.073155,0.9280335,-0.003323,0.0147449999999999,1.0719665,0.003323,-0.014745,0.8222975000000001,-0.354711,-0.099585,1.1212375,-0.361651,0.0245349999999999,0.7323474999999999,-0.6944710000000001,-0.154785,1.1277275,-0.7429110000000001,0.0975649999999999,0
212,0.8943475,0.7250655,-0.076905,0.8033975000000001,0.4558555,-0.003145,0.6775074999999999,0.2653455,0.024535,1.1008185,0.4721555,-0.0445649999999999,1.1869275,0.2634555,0.0361849999999999,0.5804575000000001,0.2184555,-0.166615,1.2246775,0.0876705,-0.056095,0.9280435,-0.0044895,0.014635,1.0719565,0.0044895,-0.014635,0.8211675,-0.3521844999999999,-0.1016949999999999,1.1278575,-0.3560345,0.0305249999999999,0.7315975,-0.6853245,-0.1611949999999999,1.1413075,-0.7382044999999999,0.1132649999999999,0
213,0.8789595,0.719764,-0.09192,0.7947895,0.451084,-0.0164199999999999,0.6718795,0.259944,0.0032899999999999,1.0913825,0.473074,-0.05424,1.1790195,0.264414,0.03455,0.5678495,0.204704,-0.18202,1.2249495,0.080108,-0.0371499999999999,0.9279695,-0.005448,0.0142299999999999,1.0720305,0.005448,-0.0142299999999999,0.8220495,-0.349506,-0.10319,1.1352735,-0.351396,0.03691,0.7332894999999999,-0.676996,-0.1659399999999999,1.1565895,-0.732856,0.128688,0
214,0.8655555,0.712685,-0.107045,0.7853355,0.444835,-0.032005,0.6621254999999999,0.257335,-0.023095,1.0787895,0.473085,-0.065875,1.1722455,0.2644249999999999,0.0336749999999999,0.5515255,0.192645,-0.202415,1.2261055,0.077906,-0.015715,0.9278155,-0.0066339999999999,0.0135249999999999,1.0721845,0.0066339999999999,-0.013525,0.8267855,-0.348335,-0.1027049999999999,1.1426645,-0.346965,0.0427949999999999,0.7451255,-0.673345,-0.158545,1.1746755,-0.726465,0.143306,0
215,0.8495105000000001,0.706539,-0.1238199999999999,0.7772705,0.439299,-0.0467,0.6532205,0.256079,-0.0467699999999999,1.0683255,0.472549,-0.0755899999999999,1.1662225,0.263959,0.03247,0.5415605000000001,0.1890889999999999,-0.21761,1.2271305,0.07795,-0.0025399999999999,0.9274505,-0.008022,0.01249,1.0725495,0.008022,-0.01249,0.8331305,-0.3482909999999999,-0.1017,1.1491055,-0.342591,0.04674,0.7587905,-0.6733009999999999,-0.14858,1.1909105,-0.720891,0.15335,0
