sb224sc-HT22-VT27/4dt907/src/data/labeled_files/A42_kinect.csv
FrameNo,nose_3d_x,nose_3d_y,nose_3d_z,left_shoulder_3d_x,left_shoulder_3d_y,left_shoulder_3d_z,left_elbow_3d_x,left_elbow_3d_y,left_elbow_3d_z,right_shoulder_3d_x,right_shoulder_3d_y,right_shoulder_3d_z,right_elbow_3d_x,right_elbow_3d_y,right_elbow_3d_z,left_wrist_3d_x,left_wrist_3d_y,left_wrist_3d_z,right_wrist_3d_x,right_wrist_3d_y,right_wrist_3d_z,left_hip_3d_x,left_hip_3d_y,left_hip_3d_z,right_hip_3d_x,right_hip_3d_y,right_hip_3d_z,left_knee_3d_x,left_knee_3d_y,left_knee_3d_z,right_knee_3d_x,right_knee_3d_y,right_knee_3d_z,left_ankle_3d_x,left_ankle_3d_y,left_ankle_3d_z,right_ankle_3d_x,right_ankle_3d_y,right_ankle_3d_z,activity_label
0,0.001692,0.752545,0.057118,-0.1607989999999999,0.451705,0.04985,-0.1829489999999999,0.201645,0.054337,0.151221,0.448585,0.06159,0.188811,0.200965,0.064853,-0.2037689999999999,-0.02664,-0.0324089999999999,0.200321,-0.000374,-0.0146779999999999,-0.07259,0.0021729999999999,0.000993,0.07259,-0.002173,-0.000993,-0.1312189999999999,-0.377295,-0.0190609999999999,0.124161,-0.411495,0.013907,-0.133409,-0.743005,-0.0251349999999999,0.1378309999999999,-0.748505,-0.0117019999999999,0
1,0.0020254999999999,0.7528655,0.0581905,-0.1616655,0.4505955,0.0515835,-0.1822455,0.2014755,0.0535845,0.1508945,0.4485155,0.0622695,0.1880645,0.2001755,0.0640255,-0.1968455,0.0010815,-0.0246095,0.2005745,-0.0008054999999999,-0.0133454999999999,-0.0725345,0.0021215,0.0008955,0.0725345,-0.0021215,-0.0008955,-0.1311755,-0.3789245,-0.0189785,0.1237545,-0.4139245,0.0134384999999999,-0.1332054999999999,-0.7441945,-0.0254795,0.1378444999999999,-0.7479245,-0.0119125,0
2,0.0021615,0.7526945,0.059031,-0.1615135,0.4507245,0.0513219999999999,-0.1819335,0.2013145,0.0528099999999999,0.1524265,0.4484945,0.062965,0.1878465,0.2004445,0.064052,-0.1961635,0.0006004999999999,-0.024553,0.2006965,-0.0005395,-0.013233,-0.0724745,0.0021575,0.0009289999999999,0.0724745,-0.0021574999999999,-0.000929,-0.1310935,-0.3783755,-0.019149,0.1238565,-0.4140355,0.0133129999999999,-0.1330235,-0.7458755,-0.026626,0.1376565,-0.7469155,-0.011557,0
3,0.002313,0.7526940000000001,0.059786,-0.161357,0.450794,0.051143,-0.181807,0.2017139999999999,0.052501,0.1524029999999999,0.448214,0.063312,0.187703,0.200394,0.063887,-0.199197,-0.004512,-0.026864,0.200843,-0.000632,-0.0132139999999999,-0.0723999999999999,0.00216,0.00088,0.0723999999999999,-0.00216,-0.0008799999999999,-0.130937,-0.378316,-0.019261,0.1237629999999999,-0.414516,0.013108,-0.133077,-0.743686,-0.0259329999999999,0.137803,-0.746336,-0.01106,0
4,0.0025389999999999,0.7528969999999999,0.061196,-0.161167,0.451007,0.050862,-0.181617,0.202017,0.052082,0.151923,0.447987,0.0634079999999999,0.187503,0.200617,0.0637129999999999,-0.199607,-0.005489,-0.027588,0.200673,-0.000799,-0.013308,-0.072321,0.002176,0.000794,0.072321,-0.002176,-0.000794,-0.130967,-0.377293,-0.01954,0.123703,-0.414333,0.01304,-0.132897,-0.7434130000000001,-0.026164,0.137733,-0.746603,-0.010943,0
5,0.0064325,0.7532475,0.063556,-0.1589574999999999,0.4518875,0.050888,-0.1808374999999999,0.2028275,0.051323,0.1555225,0.4472575,0.064568,0.1884825,0.1997575,0.0636579999999999,-0.2062875,-0.0465625,-0.0563539999999999,0.2007125,-0.0030425,-0.01397,-0.0722795,0.0025085,0.0006989999999999,0.0722795,-0.0025085,-0.0006989999999999,-0.1326975,-0.3765525,-0.019953,0.1214625,-0.4136925,0.01258,-0.1363674999999999,-0.7426225000000001,-0.026762,0.1340825,-0.7470525,-0.0111889999999999,0
6,0.007256,0.7538900000000001,0.065339,-0.1587599999999999,0.45228,0.050795,-0.18173,0.20438,0.045778,0.15536,0.44725,0.065242,0.18945,0.20512,0.058603,-0.1998899999999999,-0.014258,-0.053533,0.20008,-0.005507,-0.0243349999999999,-0.0722879999999999,0.002632,0.000272,0.0722879999999999,-0.002632,-0.000272,-0.13283,-0.37566,-0.019941,0.12114,-0.4143699999999999,0.013106,-0.13651,-0.74566,-0.0282979999999999,0.13389,-0.74749,-0.0114609999999999,0
7,0.006764,0.753676,0.0661455,-0.1590079999999999,0.452636,0.0520035,-0.190238,0.217936,0.0269975,0.153742,0.448356,0.0643185,0.201092,0.218546,0.0458955,-0.214688,0.028251,-0.0883055,0.215662,0.025539,-0.0603634999999999,-0.072615,0.002479,0.0001524999999999,0.072615,-0.002479,-0.0001524999999999,-0.1325779999999999,-0.3736239999999999,-0.0188865,0.121752,-0.413164,0.0130895,-0.134878,-0.743974,-0.0262384999999999,0.134542,-0.748524,-0.0119495,0
8,0.0075745,0.7537245,0.0676525,-0.1585815,0.4532445,0.0524395,-0.1950615,0.2259945,0.0162475,0.1538285,0.4483645,0.0641675,0.2069785,0.2250945,0.0381005,-0.2207615,0.0439445,-0.1080035,0.2226285,0.0404604999999999,-0.0791534999999999,-0.0727515,0.0024824999999999,5.499999999998562e-06,0.0727515,-0.0024825,-5.499999999998562e-06,-0.1327915,-0.3721955,-0.0184674999999999,0.1214285,-0.4131555,0.0130455,-0.1352115,-0.7439655000000001,-0.0262755,0.1339985,-0.7489455,-0.0121584999999999,0
9,0.008379,0.7537645,0.0692595,-0.157271,0.4542245,0.0527595,-0.201101,0.2364345,0.0034005,0.153569,0.4484545,0.0638895,0.213709,0.2331345,0.0284175,-0.228001,0.0634025,-0.1321235,0.230609,0.0596425,-0.1017235,-0.072866,0.0024824999999999,-0.0001414999999999,0.072866,-0.0024825,0.0001415,-0.132931,-0.3705955,-0.0180404999999999,0.121099,-0.4128655,0.0130135,-0.135681,-0.7436455,-0.0258144999999999,0.133329,-0.7496055,-0.0124554999999999,0
10,0.0088054999999999,0.7538245,0.070868,-0.1553775,0.4554145,0.053166,-0.2096775,0.2532845,-0.013421,0.1529825,0.4487744999999999,0.063539,0.2234525,0.2469945,0.013715,-0.2368575,0.0945455,-0.160553,0.2406424999999999,0.0886415,-0.131073,-0.0729085,0.0024824999999999,-0.000299,0.0729085,-0.0024825,0.000299,-0.1329274999999999,-0.3688355,-0.017458,0.1210225,-0.4116655,0.0131569999999999,-0.1358975,-0.7428855,-0.024875,0.1331025,-0.7500955,-0.012627,0
11,0.009106,0.7538945,0.072473,-0.153339,0.4567445,0.0533919999999999,-0.218949,0.2718845,-0.030142,0.152411,0.4494444999999999,0.0630749999999999,0.233571,0.2623344999999999,-0.0007279999999999,-0.2467389999999999,0.1325245,-0.189772,0.251281,0.1239545,-0.160462,-0.072978,0.0024824999999999,-0.000424,0.072978,-0.0024825,0.000424,-0.1329989999999999,-0.3669655,-0.016873,0.120881,-0.4102355,0.013249,-0.1361589999999999,-0.7423255,-0.024078,0.132861,-0.7504755,-0.01301,0
12,0.0092945,0.7539060000000001,0.0739985,-0.1513374999999999,0.4581159999999999,0.0536245,-0.2279075,0.294496,-0.0482065,0.1518825,0.450436,0.0626444999999999,0.2439925,0.281246,-0.0168205,-0.2580375,0.174276,-0.2203504999999999,0.2642525,0.162966,-0.1946805,-0.0730735,0.0024419999999999,-0.0005035,0.0730735,-0.0024419999999999,0.0005034999999999,-0.1331575,-0.365534,-0.0163195,0.1206825,-0.409244,0.0132794999999999,-0.1364575,-0.741784,-0.0233045,0.1327125,-0.751064,-0.0135905,0
13,0.0093764999999999,0.753762,0.0752955,-0.1492865,0.459522,0.0532345,-0.2367165,0.317282,-0.0650564999999999,0.1510535,0.451682,0.0618085,0.2542135,0.301922,-0.0337955,-0.2695765,0.219882,-0.2469265,0.2761935,0.205092,-0.2262965,-0.0732685,0.002395,-0.0004805,0.0732685,-0.002395,0.0004804999999999,-0.1332565,-0.364428,-0.0159685,0.1204134999999999,-0.408458,0.0131584999999999,-0.1367265,-0.741468,-0.0222635,0.1325135,-0.751758,-0.0144015,0
14,0.0094,0.7534355,0.076526,-0.147222,0.4608655,0.05275,-0.244802,0.3422555,-0.080316,0.150358,0.4530255,0.060841,0.263888,0.3235455,-0.0499849999999999,-0.280262,0.2672055,-0.274446,0.287218,0.2517955,-0.254196,-0.073488,0.0022955,-0.0004709999999999,0.073488,-0.0022955,0.000471,-0.133302,-0.3635545,-0.0157099999999999,0.120098,-0.4075944999999999,0.013031,-0.1368919999999999,-0.7408545,-0.0212429999999999,0.132348,-0.7524945,-0.015008,0
15,0.0092784999999999,0.7525430000000001,0.0780135,-0.1452315,0.462203,0.0522995,-0.2524315,0.367753,-0.0943485,0.1498185,0.454593,0.0599095,0.2713084999999999,0.346703,-0.0648864999999999,-0.2899715,0.317703,-0.2990185,0.2970385,0.300353,-0.2794485,-0.0737375,0.002246,-0.0005564999999999,0.0737375,-0.0022459999999999,0.0005565,-0.1332915,-0.3632069999999999,-0.0155744999999999,0.1197285,-0.406867,0.0129235,-0.1372215,-0.7412369999999999,-0.0208864999999999,0.1320985,-0.7532369999999999,-0.0153685,0
16,0.0090185,0.7514645,0.0792435,-0.1433714999999999,0.4632845,0.0517264999999999,-0.2587915,0.3951145,-0.1049175,0.1494085,0.4564445,0.0588884999999999,0.2781285,0.3717944999999999,-0.0785775,-0.2966015,0.3700745,-0.3165975,0.3046885,0.3510445,-0.2993175,-0.0739725,0.0021915,-0.0006015,0.0739725,-0.0021915,0.0006014999999999,-0.1332915,-0.3633555,-0.0156635,0.1192785,-0.4065855,0.0127054999999999,-0.1376615,-0.7417254999999999,-0.0205885,0.1318085,-0.7540855,-0.0160675,0
17,0.0087405,0.75018,0.080523,-0.1417135,0.46449,0.050978,-0.2635135,0.42584,-0.1127109999999999,0.1491465,0.45842,0.058089,0.2835665,0.40189,-0.089621,-0.3016635,0.42797,-0.3293709999999999,0.3108765,0.4097,-0.313671,-0.0741884999999999,0.0021839999999999,-0.0006849999999999,0.0741884999999999,-0.002184,0.000685,-0.1331935,-0.36404,-0.0157199999999999,0.1188565,-0.40656,0.012681,-0.1380335,-0.7416100000000001,-0.0198239999999999,0.1315465,-0.7551800000000001,-0.0165279999999999,0
18,0.0084194999999999,0.7484985,0.081603,-0.1410015,0.4654385,0.050222,-0.2653514999999999,0.4570585,-0.116215,0.1488585,0.4603885,0.057499,0.2882685,0.4333485,-0.097685,-0.3049015,0.4889685,-0.3350349999999999,0.3152785,0.4678385,-0.319015,-0.0743505,0.0022175,-0.000712,0.0743505,-0.0022175,0.000712,-0.1331315,-0.3651614999999999,-0.015753,0.1184284999999999,-0.4069815,0.012734,-0.1383915,-0.7422015000000001,-0.0196299999999999,0.1312485,-0.7565915000000001,-0.0165059999999999,0
19,0.0081894999999999,0.746676,0.0823925,-0.1411295,0.466246,0.0490125,-0.2655695,0.483326,-0.1164405,0.1486605,0.462156,0.0570925,0.2888205,0.461026,-0.0981004999999999,-0.3051195,0.540896,-0.3352605,0.3176605,0.520236,-0.3190005,-0.0744295,0.002235,-0.0007334999999999,0.0744295,-0.002235,0.0007335,-0.1329795,-0.366574,-0.0158174999999999,0.1181105,-0.408174,0.0127525,-0.1386995,-0.743294,-0.0198645,0.1310305,-0.758224,-0.0163364999999999,0
20,0.0080689999999999,0.7449675,0.08273,-0.1411879999999999,0.4669375,0.048058,-0.265708,0.5099975,-0.116453,0.148692,0.4636675,0.057015,0.288682,0.4889975,-0.0981129999999999,-0.305258,0.5883174999999999,-0.335273,0.319172,0.5691474999999999,-0.318863,-0.074408,0.0022895,-0.000732,0.074408,-0.0022895,0.000732,-0.132768,-0.3682425,-0.015797,0.117952,-0.4094824999999999,0.012843,-0.1388579999999999,-0.7446525,-0.019636,0.130742,-0.7600725,-0.0159119999999999,0
21,0.008117,0.7428595,0.082734,-0.141098,0.4681495,0.047128,-0.265708,0.5380595,-0.116453,0.1494019999999999,0.4651094999999999,0.056997,0.288682,0.5181295,-0.0981129999999999,-0.305258,0.6400994999999999,-0.335273,0.319262,0.6227395,-0.318853,-0.074408,0.0023545,-0.000732,0.074408,-0.0023545,0.000732,-0.132448,-0.3703705,-0.0157679999999999,0.117952,-0.4112205,0.012873,-0.138898,-0.7466005,-0.0192859999999999,0.130762,-0.7622705000000001,-0.01546,0
22,0.008183,0.7405185,0.08274,-0.141118,0.4698085,0.046211,-0.264628,0.5647985,-0.1153229999999999,0.150222,0.4662885,0.057003,0.288682,0.5450985,-0.0981129999999999,-0.305408,0.6879985,-0.329403,0.3191219999999999,0.6723685,-0.315793,-0.074408,0.0024174999999999,-0.000732,0.074408,-0.0024175,0.000732,-0.132188,-0.3728714999999999,-0.015743,0.117952,-0.4133415,0.012873,-0.1387479999999999,-0.7489715,-0.0189179999999999,0.130782,-0.7647214999999999,-0.0150259999999999,0
23,0.0082665,0.7377290000000001,0.0828415,-0.1415165,0.471989,0.0453265,-0.2623965,0.5900690000000001,-0.1124695,0.1509935,0.467549,0.0570984999999999,0.2874235,0.571609,-0.0965695,-0.3033865,0.734379,-0.3205195,0.3182535,0.7186990000000001,-0.3062795,-0.0744085,0.002517,-0.0007245,0.0744085,-0.0025169999999999,0.0007244999999999,-0.1318865,-0.375981,-0.0157285,0.1179635,-0.416161,0.0129674999999999,-0.1385564999999999,-0.751651,-0.0184535,0.1307935,-0.7676609999999999,-0.0145685,0
24,0.0084194999999999,0.7349285,0.083097,-0.1419425,0.4743185,0.044674,-0.2599025,0.6140485,-0.1062439999999999,0.1516874999999999,0.4684485,0.057402,0.2854475,0.5964985,-0.0919339999999999,-0.2996125,0.7764485,-0.306804,0.3164475,0.7600785,-0.287364,-0.0743805,0.0026164999999999,-0.0007989999999999,0.0743805,-0.0026165,0.000799,-0.1316725,-0.3789715,-0.0155779999999999,0.1179974999999999,-0.4191515,0.013267,-0.1384225,-0.7545014999999999,-0.017795,0.1307674999999999,-0.7707815,-0.0139779999999999,0
25,0.008717,0.7322175,0.083343,-0.142127,0.4766575,0.04448,-0.256917,0.6349275,-0.09913,0.152563,0.4692275,0.058005,0.284373,0.6192975000000001,-0.08392,-0.2946669999999999,0.8147775,-0.29076,0.314623,0.7975575,-0.26658,-0.074293,0.0027364999999999,-0.0009869999999999,0.074293,-0.0027365,0.000987,-0.131517,-0.3821925,-0.0152669999999999,0.118073,-0.4225125,0.013798,-0.138337,-0.7576725,-0.0173369999999999,0.130813,-0.7740225,-0.013108,0
26,0.009113,0.729554,0.0833175,-0.142299,0.4788639999999999,0.0447965,-0.253849,0.651574,-0.0909935,0.153441,0.470004,0.0587465,0.283031,0.636474,-0.0749235,-0.289139,0.845704,-0.2716535,0.312241,0.825234,-0.2442134999999999,-0.0742029999999999,0.0027949999999999,-0.0011154999999999,0.0742029999999999,-0.002795,0.0011154999999999,-0.131339,-0.385346,-0.0149465,0.118201,-0.425726,0.0142925,-0.138229,-0.760556,-0.0166585,0.130931,-0.777176,-0.0124915,0
27,0.0097614999999999,0.7278905,0.082843,-0.1420635,0.4814405,0.045378,-0.2501735,0.6661204999999999,-0.082388,0.1540765,0.4707705,0.059413,0.2806465,0.6524605000000001,-0.065323,-0.2834935,0.8699705,-0.250538,0.3099365,0.8512605,-0.2207179999999999,-0.0741085,0.0028405,-0.001135,0.0741085,-0.0028404999999999,0.001135,-0.1310335,-0.3879595,-0.0146199999999999,0.1183865,-0.4280795,0.014849,-0.1380134999999999,-0.7631195,-0.0159859999999999,0.1310365,-0.7798995,-0.0118659999999999,0
28,0.010729,0.726407,0.082385,-0.141627,0.484087,0.046055,-0.246277,0.681117,-0.073995,0.154573,0.471527,0.060064,0.278473,0.666487,-0.0546389999999999,-0.277837,0.892807,-0.230395,0.307993,0.873897,-0.197585,-0.073968,0.0029269999999999,-0.0010889999999999,0.073968,-0.002927,0.0010889999999999,-0.130537,-0.390353,-0.014244,0.118573,-0.4301629999999999,0.015372,-0.137767,-0.7655529999999999,-0.015312,0.131113,-0.7826029999999999,-0.011207,0
29,0.011739,0.7253255000000001,0.081672,-0.141317,0.4868855000000001,0.046687,-0.242987,0.6942755,-0.066398,0.154883,0.4722455,0.060654,0.276103,0.6808355,-0.043944,-0.273157,0.9146955,-0.210613,0.305733,0.8942455,-0.174323,-0.073792,0.0029964999999999,-0.001071,0.073792,-0.0029964999999999,0.001071,-0.130077,-0.3924645,-0.013959,0.118753,-0.4318845,0.015815,-0.137667,-0.7677145,-0.0146989999999999,0.131123,-0.7851545,-0.010615,0
30,0.0127835,0.7244355,0.080422,-0.1410345,0.4898655,0.0474509999999999,-0.2411545,0.7015655000000001,-0.056455,0.1551755,0.4729655,0.0613229999999999,0.2729455,0.6911155,-0.030827,-0.2693244999999999,0.9318255,-0.185309,0.3032555,0.9061255,-0.147059,-0.0736035,0.0031544999999999,-0.001001,0.0736035,-0.0031545,0.0010009999999999,-0.1296244999999999,-0.3946245,-0.013766,0.1188555,-0.4336845,0.0163489999999999,-0.1375544999999999,-0.7699644999999999,-0.01395,0.1311054999999999,-0.7877645,-0.009879,0
31,0.0137585,0.723623,0.078957,-0.1406155,0.492453,0.04822,-0.2395155,0.712113,-0.046541,0.1554045,0.4740229999999999,0.061958,0.2706445,0.701083,-0.01872,-0.2666955,0.947403,-0.1629129999999999,0.3007944999999999,0.916343,-0.1205929999999999,-0.0734455,0.0033219999999999,-0.0008509999999999,0.0734455,-0.0033219999999999,0.0008509999999999,-0.1292555,-0.3967969999999999,-0.013664,0.1188745,-0.435457,0.016832,-0.1374555,-0.772257,-0.0132359999999999,0.1309945,-0.790447,-0.009183,0
32,0.0145619999999999,0.72292,0.0775165,-0.140153,0.4946400000000001,0.0489055,-0.238343,0.72047,-0.0379474999999999,0.155507,0.47477,0.0624015,0.268847,0.70936,-0.0080135,-0.264783,0.95956,-0.1418375,0.298577,0.93175,-0.0976474999999999,-0.0733159999999999,0.0035029999999999,-0.0007094999999999,0.0733159999999999,-0.0035029999999999,0.0007095,-0.1289529999999999,-0.3984299999999999,-0.0136484999999999,0.118817,-0.43682,0.0171305,-0.137573,-0.77416,-0.0126104999999999,0.130907,-0.7926799999999999,-0.0086594999999999,0
33,0.0151805,0.7221845,0.076112,-0.1395685,0.4966745,0.049426,-0.2376185,0.7279245,-0.030324,0.1554015,0.4756245,0.062704,0.2670115,0.7158445,0.002168,-0.2634884999999999,0.9706545,-0.1219669999999999,0.2964915,0.9459645,-0.076377,-0.0732115,0.0036165,-0.000486,0.0732115,-0.0036164999999999,0.000486,-0.1286685,-0.3998355,-0.0137349999999999,0.1186915,-0.4380655,0.017364,-0.1377485,-0.7764755,-0.012129,0.1307515,-0.7947955,-0.0084209999999999,0
34,0.015744,0.721505,0.0748065,-0.138696,0.498645,0.0500414999999999,-0.237136,0.734865,-0.0231675,0.155244,0.476275,0.0629845,0.265264,0.722075,0.0117564999999999,-0.2625559999999999,0.980135,-0.1034114999999999,0.294604,0.959055,-0.0567795,-0.073155,0.003714,-0.0002585,0.073155,-0.0037139999999999,0.0002584999999999,-0.128456,-0.401035,-0.0138195,0.1185239999999999,-0.439185,0.0175905,-0.137936,-0.777625,-0.0111995,0.130554,-0.796355,-0.0081715,0
35,0.0161914999999999,0.720978,0.073628,-0.1376804999999999,0.500448,0.050699,-0.2366504999999999,0.7406280000000001,-0.016227,0.1550595,0.476748,0.063102,0.2636595,0.727668,0.020451,-0.2619405,0.988758,-0.085608,0.2929394999999999,0.970358,-0.038035,-0.0731125,0.0038489999999999,-4.299999999999443e-05,0.0731125,-0.0038489999999999,4.300000000000137e-05,-0.1283105,-0.4021019999999999,-0.0139239999999999,0.1182795,-0.439772,0.017748,-0.1382405,-0.779002,-0.0106199999999999,0.1302495,-0.797832,-0.007888,0
36,0.0164995,0.720485,0.0725109999999999,-0.1367435,0.5018950000000001,0.051414,-0.2364635,0.745495,-0.0093169999999999,0.1548865,0.477025,0.06321,0.2621064999999999,0.7316750000000001,0.028428,-0.2617235,0.996765,-0.068879,0.2913465,0.979765,-0.020275,-0.0730494999999999,0.003963,0.000167,0.0730494999999999,-0.003963,-0.000167,-0.1282134999999999,-0.403195,-0.0140349999999999,0.1179865,-0.440445,0.017863,-0.1386135,-0.7803249999999999,-0.0100649999999999,0.1299265,-0.7992849999999999,-0.007612,0
37,0.0165555,0.7201675,0.071211,-0.1361965,0.5031975,0.0521699999999999,-0.2364065,0.7479775,-0.002506,0.1545835,0.4767875,0.063251,0.2606035,0.7352175,0.035676,-0.2620765,1.0038675,-0.053768,0.2897035,0.9880675,-0.00407,-0.0729935,0.0040805,0.0003489999999999,0.0729935,-0.0040805,-0.000349,-0.1282165,-0.4041425,-0.01415,0.1177535,-0.4411125,0.0179709999999999,-0.1388065,-0.7818425,-0.009513,0.1297035,-0.8008824999999999,-0.007372,0
38,0.016613,0.719865,0.06999,-0.135731,0.504375,0.052874,-0.236561,0.750435,0.00435,0.1541489999999999,0.4767049999999999,0.063286,0.259199,0.736345,0.042459,-0.262631,1.010305,-0.039976,0.288269,0.995905,0.010827,-0.0729549999999999,0.0042239999999999,0.000557,0.0729549999999999,-0.0042239999999999,-0.000557,-0.128191,-0.405085,-0.0143,0.117569,-0.441715,0.017983,-0.138861,-0.784025,-0.009471,0.129489,-0.802445,-0.007181,0
39,0.016624,0.7198220000000001,0.0692815,-0.13555,0.5048520000000001,0.0532865,-0.23653,0.750672,0.0068924999999999,0.1538999999999999,0.4764919999999999,0.0631495,0.2587,0.736152,0.0459765,-0.26298,1.011172,-0.0347365,0.28771,1.003872,0.0166064999999999,-0.072908,0.00426,0.0006254999999999,0.072908,-0.00426,-0.0006255,-0.12818,-0.405498,-0.0143845,0.11748,-0.441628,0.0178784999999999,-0.13889,-0.785878,-0.0097355,0.12933,-0.8034479999999999,-0.0072295,0
40,0.0165475,0.7198865,0.068825,-0.1356655,0.5051265,0.0536099999999999,-0.2366555,0.7504165,0.0092769999999999,0.1537545,0.4760565,0.0629619999999999,0.2583345,0.7356065,0.048011,-0.2634055,1.0119665,-0.030533,0.2871045,1.0118665,0.0217859999999999,-0.0728235,0.0042805,0.0006409999999999,0.0728235,-0.0042805,-0.000641,-0.1281855,-0.4056035,-0.014467,0.1174045,-0.4414435,0.0177309999999999,-0.1389455,-0.7870435,-0.01003,0.1291445,-0.8039335,-0.007296,0
41,0.0163835,0.720036,0.0684965,-0.1357765,0.505256,0.0540515,-0.2367865,0.7498360000000001,0.0117665,0.1536035,0.475766,0.0628335,0.2580235,0.735116,0.0498495,-0.2637764999999999,1.011986,-0.0270004999999999,0.2867135,1.012086,0.0252635,-0.0727915,0.0042889999999999,0.0006435,0.0727915,-0.004289,-0.0006434999999999,-0.1282165,-0.405674,-0.0145404999999999,0.1173435,-0.4410739999999999,0.0175955,-0.1389564999999999,-0.788604,-0.0106505,0.1289334999999999,-0.804354,-0.0072925,0
42,0.01617,0.7202405,0.068248,-0.135895,0.5053905,0.054426,-0.237315,0.7500304999999999,0.014742,0.153425,0.4755704999999999,0.062767,0.257795,0.7346505,0.051499,-0.2642949999999999,1.0129105,-0.02402,0.286325,1.0122105,0.028612,-0.072768,0.0043144999999999,0.000696,0.072768,-0.0043144999999999,-0.000696,-0.128265,-0.4057995,-0.0146509999999999,0.117275,-0.4406895,0.01742,-0.139015,-0.7899695000000001,-0.011492,0.128695,-0.8046295,-0.0073609999999999,0
43,0.0159375,0.7204315,0.068117,-0.1360134999999999,0.5054615,0.054865,-0.2376335,0.7483615,0.017579,0.1533065,0.4754015,0.062696,0.2575765,0.7342015000000001,0.053051,-0.2648435,1.0136615,-0.0215829999999999,0.2859765,1.0118615,0.031567,-0.0727565,0.0043284999999999,0.000758,0.0727565,-0.0043284999999999,-0.0007579999999999,-0.1282935,-0.4059684999999999,-0.0147259999999999,0.1172265,-0.4404585,0.017261,-0.1390934999999999,-0.7912785,-0.0124099999999999,0.1285265,-0.8049485,-0.0074369999999999,0
44,0.0156785,0.7206325,0.067958,-0.1362344999999999,0.5054725,0.055285,-0.2379444999999999,0.7470825,0.020167,0.1532555,0.4750524999999999,0.062556,0.2573654999999999,0.7337925000000001,0.054313,-0.2653445,1.0147525,-0.019629,0.2857854999999999,1.0114525,0.033866,-0.0727625,0.0043174999999999,0.000847,0.0727625,-0.0043175,-0.000847,-0.1283045,-0.4061175,-0.0148729999999999,0.1172555,-0.4406775,0.016988,-0.1391645,-0.7925875,-0.0133729999999999,0.1284255,-0.8052674999999999,-0.0075809999999999,0
45,0.0153415,0.720762,0.0676364999999999,-0.1365914999999999,0.505432,0.0558884999999999,-0.2380515,0.744972,0.0219424999999999,0.1531985,0.4748219999999999,0.0622895,0.2572285,0.733302,0.0552485,-0.2658315,1.0150519999999998,-0.0180415,0.2856985,1.0110519999999998,0.0352395,-0.0727754999999999,0.0043009999999999,0.0009524999999999,0.0727754999999999,-0.0043009999999999,-0.0009525,-0.1283315,-0.406308,-0.0151965,0.1173885,-0.440888,0.0165675,-0.1392914999999999,-0.7930079999999999,-0.0142145,0.1283785,-0.805588,-0.0079715,0
46,0.0149774999999999,0.7208985,0.067174,-0.1369975,0.5053785000000001,0.056318,-0.2381875,0.7437185000000001,0.023815,0.1531624999999999,0.4749585,0.062269,0.2571225,0.7331485,0.0561,-0.2663474999999999,1.0158385,-0.0162529999999999,0.2856925,1.0110385,0.036489,-0.0727785,0.0042755,0.0010119999999999,0.0727785,-0.0042755,-0.0010119999999999,-0.1283575,-0.4064215,-0.0156639999999999,0.1175825,-0.4410015,0.015977,-0.1393175,-0.7930415,-0.0148239999999999,0.1284225,-0.8056515,-0.008527,0
47,0.01462,0.720987,0.0666935,-0.137423,0.505327,0.0566935,-0.238443,0.743067,0.0253905,0.153077,0.475057,0.0622725,0.256987,0.733027,0.0567345,-0.266883,1.016817,-0.0142665,0.285607,1.0109169999999998,0.0374855,-0.072773,0.0042409999999999,0.0010464999999999,0.072773,-0.004241,-0.0010464999999999,-0.128383,-0.406543,-0.0161704999999999,0.117837,-0.4407729999999999,0.0153035,-0.139253,-0.7934829999999999,-0.0160345,0.128467,-0.805773,-0.0092425,0
48,0.014247,0.7210595,0.0662175,-0.137874,0.5053695,0.0574195,-0.238854,0.7429695000000001,0.0272615,0.152996,0.4752495,0.0623095,0.256866,0.7329695,0.0571905,-0.267424,1.0174795,-0.0121394999999999,0.285486,1.0108795,0.0382405,-0.072775,0.0042115,0.0010685,0.072775,-0.0042115,-0.0010685,-0.128404,-0.4066805,-0.0167254999999999,0.118146,-0.4405604999999999,0.0144615,-0.139104,-0.7938705,-0.0173714999999999,0.128456,-0.8059105,-0.0100014999999999,0
49,0.0138489999999999,0.721081,0.065867,-0.13835,0.5054310000000001,0.058334,-0.2392399999999999,0.7427710000000001,0.028965,0.15288,0.475051,0.062369,0.25676,0.7327710000000001,0.057452,-0.26796,1.017581,-0.0100169999999999,0.2853699999999999,1.010681,0.038728,-0.072793,0.0041899999999999,0.001182,0.072793,-0.0041899999999999,-0.0011819999999999,-0.12833,-0.407089,-0.0174179999999999,0.1185499999999999,-0.440399,0.01337,-0.13891,-0.795379,-0.0188069999999999,0.12854,-0.8062889999999999,-0.0109579999999999,0
50,0.013342,0.7210595,0.0654319999999999,-0.138758,0.5054595000000001,0.0592769999999999,-0.239588,0.7425295000000001,0.030611,0.152722,0.4748095,0.06243,0.2566219999999999,0.7325695,0.057565,-0.268488,1.0176395,-0.007411,0.2852719999999999,1.0104395,0.039046,-0.0728169999999999,0.0041635,0.001364,0.0728169999999999,-0.0041634999999999,-0.0013639999999999,-0.1281179999999999,-0.4077105,-0.018325,0.119092,-0.4403205,0.01143,-0.138788,-0.7959805,-0.019752,0.128652,-0.8068005,-0.012121,0
51,0.012837,0.7209935000000001,0.0649535,-0.139182,0.5055835000000001,0.0603445,-0.239792,0.7422435000000001,0.0314305,0.152518,0.4749435,0.0624895,0.256458,0.7323335000000001,0.0576185,-0.268782,1.0162235,-0.0048274999999999,0.285198,1.0102235,0.0392725,-0.0728409999999999,0.0041215,0.0015434999999999,0.0728409999999999,-0.0041215,-0.0015434999999999,-0.1278719999999999,-0.4084965,-0.0193495,0.1196579999999999,-0.4408965,0.0093555,-0.138632,-0.7968365,-0.0210915,0.128818,-0.8074064999999999,-0.0134045,0
52,0.012326,0.7209129999999999,0.06446,-0.139517,0.5057429999999999,0.061383,-0.239937,0.742203,0.032391,0.152303,0.475213,0.062616,0.256233,0.7321529999999999,0.057587,-0.2690269999999999,1.014283,-0.0020039999999999,0.285123,1.010083,0.039471,-0.072863,0.004082,0.001729,0.072863,-0.004082,-0.001729,-0.127597,-0.409927,-0.020488,0.120193,-0.441247,0.0071039999999999,-0.1384369999999999,-0.797567,-0.0228239999999999,0.1290029999999999,-0.808037,-0.0146869999999999,0
53,0.0118385,0.7208345,0.064057,-0.1397285,0.5058845000000001,0.062366,-0.2400385,0.7418445,0.033476,0.1520915,0.4754045,0.062793,0.2559815,0.7320045000000001,0.0575549999999999,-0.2691584999999999,1.0121245,0.000872,0.2850015,1.0099245,0.039599,-0.0728905,0.0040615,0.0019459999999999,0.0728905,-0.0040614999999999,-0.001946,-0.1273185,-0.4114255,-0.021613,0.1207014999999999,-0.4418355,0.0048559999999999,-0.1382885,-0.7983055,-0.024474,0.1292414999999999,-0.8086955,-0.016047,0
54,0.0113899999999999,0.7206755,0.063682,-0.139827,0.5061255,0.063291,-0.240277,0.7433455,0.034612,0.151863,0.4756355,0.063014,0.255683,0.7319955,0.057633,-0.269457,1.0087455,0.004083,0.284843,1.0098455,0.039887,-0.072915,0.0040455,0.002048,0.072915,-0.0040455,-0.0020479999999999,-0.127027,-0.4129244999999999,-0.0228449999999999,0.1211629999999999,-0.4421545,0.002377,-0.138077,-0.7989944999999999,-0.026213,0.129543,-0.8093745,-0.0175969999999999,0
55,0.010962,0.7204394999999999,0.063395,-0.139907,0.5064095,0.064152,-0.240487,0.7445795,0.035603,0.151673,0.4758995,0.063028,0.255363,0.7320895000000001,0.057746,-0.269597,1.0048994999999998,0.0067119999999999,0.284603,1.0099995,0.040233,-0.072925,0.0040255,0.00211,0.072925,-0.0040255,-0.00211,-0.126717,-0.4143105,-0.0240999999999999,0.1215929999999999,-0.4425305,-0.0001329999999999,-0.1378869999999999,-0.7996205000000001,-0.02745,0.129923,-0.8099405,-0.019212,1
56,0.0105139999999999,0.720206,0.0631444999999999,-0.140006,0.5066459999999999,0.0649975,-0.2405759999999999,0.745826,0.0364235,0.151454,0.476216,0.0630815,0.255064,0.732206,0.0577535,-0.269726,1.001486,0.0087805,0.284234,1.010086,0.0405325,-0.072944,0.004009,0.0021425,0.072944,-0.0040089999999999,-0.0021424999999999,-0.1264259999999999,-0.415664,-0.0254184999999999,0.121984,-0.4432439999999999,-0.0026774999999999,-0.137616,-0.799934,-0.0287424999999999,0.130264,-0.810484,-0.0208034999999999,1
57,0.0100985,0.7199804999999999,0.0628765,-0.1399955,0.5067704999999999,0.0654105,-0.2405255,0.7469405,0.0367605,0.1513245,0.4764905,0.0630245,0.2548245,0.7323605,0.0577155,-0.2696055,0.9969705,0.0104515,0.2837944999999999,1.0102704999999998,0.0407735,-0.0729745,0.0039975,0.0021905,0.0729745,-0.0039975,-0.0021904999999999,-0.1261455,-0.4170195,-0.0267894999999999,0.1223845,-0.4437495,-0.0051004999999999,-0.1372555,-0.8004995,-0.0299865,0.1307045,-0.8110295000000001,-0.0225154999999999,1
58,0.0097235,0.719818,0.0625225,-0.1399725,0.5069779999999999,0.0655085,-0.2404725,0.7480279999999999,0.0369195,0.1511674999999999,0.476898,0.0628695,0.2546475,0.732618,0.0575985,-0.2694125,0.992468,0.0117855,0.2833575,1.010568,0.0408975,-0.0729995,0.0039949999999999,0.0022305,0.0729995,-0.0039949999999999,-0.0022305,-0.1258525,-0.418242,-0.0282764999999999,0.1227775,-0.444002,-0.0074065,-0.1370525,-0.800732,-0.0313224999999999,0.1311075,-0.811492,-0.0241585,1
59,0.0095394999999999,0.719697,0.062276,-0.1399455,0.5071869999999999,0.065427,-0.2403555,0.748827,0.036819,0.1510945,0.4771769999999999,0.062676,0.2546144999999999,0.732797,0.057483,-0.2691055,0.987957,0.0122369999999999,0.2834345,1.010357,0.039728,-0.0730125,0.0039789999999999,0.0021829999999999,0.0730125,-0.003979,-0.002183,-0.1257155,-0.419413,-0.029685,0.1230044999999999,-0.444213,-0.008808,-0.1369155,-0.801113,-0.03275,0.1315045,-0.8117530000000001,-0.02583,1
60,0.0094469999999999,0.719627,0.061956,-0.139819,0.507277,0.065084,-0.240359,0.748687,0.0365879999999999,0.151031,0.477457,0.0623569999999999,0.254611,0.733057,0.057183,-0.268899,0.984317,0.0122149999999999,0.283531,1.010217,0.038306,-0.073015,0.0039649999999999,0.0021009999999999,0.073015,-0.003965,-0.002101,-0.125579,-0.420613,-0.031109,0.123231,-0.444443,-0.010281,-0.136779,-0.8014030000000001,-0.03438,0.131901,-0.8118930000000001,-0.027552,1
61,0.0094634999999999,0.7196064999999999,0.061417,-0.1396595,0.5073664999999999,0.0644889999999999,-0.2403195,0.7485965,0.035812,0.1510605,0.4776465,0.061662,0.2546405,0.7333765,0.056485,-0.2685195,0.9799265,0.011286,0.2836605,1.0101265,0.036545,-0.0730255,0.0039765,0.0020839999999999,0.0730255,-0.0039765,-0.0020839999999999,-0.1254395,-0.4211735,-0.032668,0.1235105,-0.4447835,-0.012027,-0.1365095,-0.8018135000000001,-0.036978,0.1323805,-0.8119835000000001,-0.029648,1
62,0.0094899999999999,0.7198264999999999,0.060513,-0.139425,0.5075664999999999,0.0635469999999999,-0.2401249999999999,0.7485965,0.034439,0.151105,0.4781065,0.060599,0.254685,0.7339065,0.055373,-0.268075,0.9751265,0.0095729999999999,0.2837949999999999,1.0057265000000002,0.034466,-0.073058,0.0039765,0.0020929999999999,0.073058,-0.0039765,-0.002093,-0.125245,-0.4216035,-0.03447,0.123905,-0.4455135,-0.014038,-0.136265,-0.8021335,-0.03962,0.132815,-0.8119735,-0.032238,1
63,0.0094815,0.7198665,0.0595895,-0.1391935,0.5075664999999999,0.0622375,-0.2394635,0.7484065,0.0328585,0.1511265,0.4781065,0.0593944999999999,0.2547465,0.7341664999999999,0.0538555,-0.2679435,0.9747265,0.0075614999999999,0.2839065,1.0014265,0.0324524999999999,-0.0731095,0.0039765,0.0021304999999999,0.0731095,-0.0039765,-0.0021305,-0.1251035,-0.4222135,-0.0362845,0.1242564999999999,-0.4462035,-0.0160425,-0.1361335,-0.8024635,-0.0420875,0.1331965,-0.8119735,-0.0346985,1
64,0.0094765,0.7198665,0.058395,-0.1389155,0.5075664999999999,0.060778,-0.2388055,0.7480165,0.030957,0.1511645,0.4781065,0.058066,0.2549245,0.7342465,0.051951,-0.2678155,0.9744265,0.005426,0.2841245,0.9968265,0.029995,-0.0731735,0.0039765,0.002207,0.0731735,-0.0039765,-0.002207,-0.1248954999999999,-0.4226135,-0.038413,0.1246245,-0.4469435,-0.018186,-0.1360255,-0.8024635,-0.0443869999999999,0.1336045,-0.8118135000000001,-0.037328,1
65,0.0095465,0.7199145,0.056927,-0.1385445,0.5076444999999999,0.059161,-0.2380844999999999,0.7472545,0.028843,0.1512355,0.4781845,0.056522,0.2551555,0.7343245,0.049884,-0.2676845,0.9743045,0.003104,0.2844055,0.9923045,0.027218,-0.0732695,0.0039694999999999,0.0024029999999999,0.0732695,-0.0039695,-0.002403,-0.1246745,-0.4231355,-0.040727,0.1250055,-0.4473755,-0.020599,-0.1359345,-0.8029455,-0.047605,0.1339755,-0.8115455,-0.040155,1
66,0.0097949999999999,0.7202584999999999,0.0550444999999999,-0.138044,0.5079285,0.0571715,-0.237344,0.7466185,0.0261045,0.151406,0.4785085,0.0545255,0.255586,0.7347285,0.0470905,-0.267404,0.9747085,-0.0008384999999999,0.285026,0.9878085,0.0230915,-0.073346,0.0039724999999999,0.0026095,0.073346,-0.0039725,-0.0026095,-0.124564,-0.4234615,-0.0436635,0.125386,-0.4475515,-0.0235384999999999,-0.135744,-0.8031715,-0.0513485,0.134326,-0.8110915000000001,-0.0436805,1
67,0.0100879999999999,0.7204115,0.0531685,-0.137488,0.5079015,0.0551985,-0.236438,0.7452415,0.0233615,0.151602,0.4786614999999999,0.0524725,0.256092,0.7351314999999999,0.0441714999999999,-0.267088,0.9751615,-0.0049345,0.285892,0.9830615,0.0183155,-0.073433,0.0039625,0.0027625,0.073433,-0.0039625,-0.0027624999999999,-0.124478,-0.4236985,-0.0466285,0.125742,-0.4477085,-0.0265544999999999,-0.135708,-0.8034085,-0.0551695,0.134672,-0.8107585,-0.0472445,1
68,0.010394,0.7207979999999999,0.0508575,-0.136851,0.507788,0.0529665,-0.235211,0.7433379999999999,0.0198935,0.151799,0.478228,0.0498555,0.256449,0.734078,0.0406225,-0.266561,0.975898,-0.0099355,0.2869089999999999,0.978598,0.0122465,-0.073574,0.003909,0.0027645,0.073574,-0.0039089999999999,-0.0027645,-0.1240709999999999,-0.422662,-0.0509905,0.126369,-0.446642,-0.0307344999999999,-0.135481,-0.802762,-0.0594795,0.135089,-0.809512,-0.0515235,1
69,0.0107425,0.7205555,0.048645,-0.1361275,0.5074855,0.050758,-0.2339375,0.7414055,0.016215,0.1520225,0.4773755,0.046983,0.2569625,0.7327855000000001,0.036875,-0.2657175,0.9767255,-0.015494,0.2881925,0.9740255,0.0054889999999999,-0.0737055,0.0037114999999999,0.002854,0.0737055,-0.0037114999999999,-0.002854,-0.1235675,-0.4214045,-0.0565709999999999,0.1273625,-0.4454145,-0.035862,-0.1351575,-0.8017044999999999,-0.063992,0.1355124999999999,-0.8079445,-0.0558349999999999,1
70,0.011074,0.720537,0.046573,-0.135369,0.5068269999999999,0.048671,-0.2326289999999999,0.7391869999999999,0.012724,0.152221,0.476447,0.04464,0.257561,0.731447,0.033314,-0.264769,0.977507,-0.0211039999999999,0.2894609999999999,0.969307,-0.001364,-0.073799,0.003624,0.002831,0.073799,-0.003624,-0.002831,-0.123029,-0.419913,-0.062382,0.128381,-0.4439329999999999,-0.041067,-0.134739,-0.8007230000000001,-0.068841,0.1356709999999999,-0.8060130000000001,-0.059473,1
71,0.011123,0.7203725000000001,0.0445135,-0.13471,0.5065925,0.0467105,-0.2313199999999999,0.7370224999999999,0.0089944999999999,0.1523499999999999,0.4755124999999999,0.0425375,0.2581,0.7302825,0.0293315,-0.26371,0.9784425,-0.0273125,0.29036,0.9694425,-0.0078035,-0.073889,0.0035194999999999,0.0028054999999999,0.073889,-0.0035195,-0.0028055,-0.1226,-0.4185075,-0.0685435,0.1296999999999999,-0.4423575,-0.0467845,-0.1342999999999999,-0.7991975,-0.0734945,0.13587,-0.8036775,-0.0631485,1
72,0.0114085,0.720092,0.0421075,-0.1339555,0.505502,0.0442995,-0.2302355,0.736182,0.0044475,0.1525845,0.474282,0.0402555,0.2587745,0.729212,0.0246025,-0.2621955,0.979862,-0.0345464999999999,0.2914145,0.970062,-0.0155194999999999,-0.0739705,0.003234,0.0028655,0.0739705,-0.003234,-0.0028654999999999,-0.1219455,-0.416448,-0.0764415,0.1312445,-0.440118,-0.0542845,-0.1336955,-0.797108,-0.0785395,0.1362945,-0.8008580000000001,-0.0675355,1
73,0.011668,0.7199209999999999,0.0398375,-0.1332209999999999,0.504451,0.0419654999999999,-0.229091,0.734941,-5.6500000000000994e-05,0.152699,0.473141,0.0380485,0.259379,0.728281,0.0198285,-0.260631,0.981731,-0.0416705,0.292319,0.971131,-0.0231575,-0.074059,0.0030029999999999,0.0028275,0.074059,-0.0030029999999999,-0.0028275,-0.121281,-0.4135689999999999,-0.0846345,0.1327789999999999,-0.437369,-0.0621825,-0.133091,-0.794429,-0.0834165,0.136759,-0.797489,-0.0716235,1
74,0.0119575,0.7203035000000001,0.037651,-0.1326465,0.5024035,0.039496,-0.2279965,0.7336535000000001,-0.004601,0.1528634999999999,0.4722734999999999,0.035793,0.2600335,0.7266535000000001,0.0148489999999999,-0.2589665,0.9842935,-0.04893,0.2932234999999999,0.9725935,-0.031166,-0.0741495,0.0027845,0.0025629999999999,0.0741495,-0.0027844999999999,-0.0025629999999999,-0.1205765,-0.4099965,-0.0939479999999999,0.1344034999999999,-0.4337065,-0.070925,-0.1324465,-0.7904764999999999,-0.0881629999999999,0.1372735,-0.7932465,-0.075931,1
75,0.0120754999999999,0.718885,0.0357605,-0.1323745,0.5008349999999999,0.0372665,-0.2271045,0.7325149999999999,-0.0089755,0.1529455,0.471445,0.0338755,0.2605654999999999,0.725255,0.0102705,-0.2574745,0.987295,-0.0556745,0.2938154999999999,0.974595,-0.0384605,-0.0741925,0.0025589999999999,0.0022224999999999,0.0741925,-0.002559,-0.0022224999999999,-0.1199745,-0.4058049999999999,-0.1033264999999999,0.1359955,-0.4292749999999999,-0.0796715,-0.1318945,-0.785775,-0.0924275,0.1375355,-0.7883450000000001,-0.0797445,1
76,0.0121679999999999,0.718089,0.0337965,-0.132233,0.4997589999999999,0.0348454999999999,-0.226493,0.731379,-0.0136534999999999,0.153017,0.4705189999999999,0.0318855,0.261097,0.723859,0.0053775,-0.256053,0.989989,-0.0628104999999999,0.294467,0.977389,-0.0460075,-0.0742289999999999,0.0023779999999999,0.0018205,0.0742289999999999,-0.002378,-0.0018204999999999,-0.1194129999999999,-0.401611,-0.1139745,0.137687,-0.423271,-0.0896245,-0.131383,-0.779491,-0.0965844999999999,0.137777,-0.782011,-0.0835745,1
77,0.0122499999999999,0.716992,0.0319519999999999,-0.1321089999999999,0.498612,0.0326,-0.226169,0.730772,-0.017984,0.153001,0.470362,0.030389,0.261591,0.7242919999999999,0.0009979999999999,-0.255029,0.992332,-0.0694,0.295231,0.977612,-0.05289,-0.074278,0.002245,0.0015469999999999,0.074278,-0.002245,-0.0015469999999999,-0.118949,-0.397198,-0.123606,0.139121,-0.417228,-0.098635,-0.1311689999999999,-0.772968,-0.100616,0.138151,-0.775598,-0.087058,1
78,0.0124955,0.7160715,0.030177,-0.1318605,0.4976815,0.0303599999999999,-0.2256705,0.7306915,-0.0221649999999999,0.1530995,0.4706115,0.029143,0.2620895,0.7242515,-0.0030639999999999,-0.2537605,0.9951315,-0.07565,0.2961295,0.9780015,-0.0589529999999999,-0.0742845,0.0022424999999999,0.001161,0.0742845,-0.0022424999999999,-0.0011609999999999,-0.1185005,-0.3927684999999999,-0.132502,0.1400595,-0.4108084999999999,-0.1069919999999999,-0.1307805,-0.7664585,-0.104359,0.1383694999999999,-0.7688285,-0.0903519999999999,1
79,0.012734,0.7148145,0.0284829999999999,-0.131598,0.4970545,0.028061,-0.225188,0.7308645,-0.0266329999999999,0.153222,0.4706045,0.0275569999999999,0.262552,0.7241145,-0.007108,-0.252468,0.9979645,-0.08208,0.297052,0.9785945,-0.064798,-0.074325,0.0021705,0.000725,0.074325,-0.0021705,-0.0007249999999999,-0.117958,-0.3885655,-0.141317,0.141052,-0.4041655,-0.115734,-0.130528,-0.7596655,-0.108088,0.138612,-0.7616355,-0.093504,1
80,0.0128285,0.7135785,0.0267484999999999,-0.1314345,0.4960485,0.0256865,-0.2247745,0.7309985,-0.0306735,0.1533655,0.4699185,0.0258395,0.2631155,0.7234484999999999,-0.0107485,-0.2518344999999999,1.0005085,-0.0880855,0.2977655,0.9752185,-0.0698445,-0.0743445,0.0020875,0.0002015,0.0743445,-0.0020875,-0.0002015,-0.1174544999999999,-0.3834815,-0.1506225,0.1419855,-0.3968215,-0.1249875,-0.1300545,-0.7512015000000001,-0.1124925,0.1389755,-0.7533215000000001,-0.0971015,1
81,0.0129225,0.7121385,0.0255784999999999,-0.1313754999999999,0.4962585,0.0239185,-0.2245955,0.7311885,-0.0341975,0.1534845,0.4690685,0.0245165,0.2639444999999999,0.7225385000000001,-0.0137595,-0.2512255,1.0030485,-0.0932825,0.2986344999999999,0.9723385,-0.0738055,-0.0743305,0.0022085,-0.0003275,0.0743305,-0.0022084999999999,0.0003275,-0.1174254999999999,-0.3783315,-0.1587815,0.1428345,-0.3887515,-0.1328785,-0.1301854999999999,-0.7405514999999999,-0.1167334999999999,0.1387445,-0.7443814999999999,-0.1005025,1
82,0.0130485,0.7105104999999999,0.0243735,-0.1313254999999999,0.4964205,0.0220415,-0.2245754999999999,0.7317205,-0.0379465,0.1536045,0.4680805,0.0230385,0.2648245,0.7213005,-0.0169924999999999,-0.2506955,1.0050705,-0.0986265,0.2995145,0.9697905,-0.0779205,-0.0743014999999999,0.0022775,-0.0007104999999999,0.0743014999999999,-0.0022774999999999,0.0007105,-0.1173855,-0.3734995,-0.1668795,0.1437145,-0.3807195,-0.1406244999999999,-0.1303055,-0.7295395,-0.1210395,0.1383445,-0.7355195,-0.1039805,1
83,0.0131385,0.707836,0.022951,-0.1313254999999999,0.496396,0.02017,-0.2244955,0.732706,-0.041634,0.1536745,0.466836,0.021521,0.2656245,0.720736,-0.0201129999999999,-0.2500755,1.002086,-0.1040799999999999,0.3009345,0.965976,-0.0819949999999999,-0.0743125,0.0022869999999999,-0.0009339999999999,0.0743125,-0.002287,0.000934,-0.1175955,-0.368704,-0.174643,0.1442645,-0.372514,-0.148313,-0.1312855,-0.718574,-0.12579,0.1377645,-0.726414,-0.1078969999999999,1
84,0.0131879999999999,0.706834,0.021668,-0.131452,0.495924,0.018552,-0.224622,0.7335539999999999,-0.0451299999999999,0.153718,0.4655539999999999,0.019887,0.2660679999999999,0.719604,-0.023204,-0.249922,0.997274,-0.109096,0.302308,0.961924,-0.085973,-0.074337,0.0022869999999999,-0.0011029999999999,0.074337,-0.002287,0.0011029999999999,-0.117842,-0.364136,-0.181965,0.144878,-0.364396,-0.155695,-0.132392,-0.707726,-0.130899,0.137108,-0.717406,-0.111426,1
85,0.013255,0.70496,0.0202144999999999,-0.131519,0.49572,0.0168574999999999,-0.224969,0.73467,-0.0485495,0.153691,0.46448,0.0181884999999999,0.266821,0.7183700000000001,-0.0261745,-0.2499189999999999,0.99275,-0.1137295,0.303681,0.95712,-0.0896435,-0.074385,0.0023489999999999,-0.0013314999999999,0.074385,-0.0023489999999999,0.0013314999999999,-0.118149,-0.35892,-0.1879715,0.145481,-0.35708,-0.1620415,-0.133619,-0.6978599999999999,-0.1359345,0.136591,-0.70948,-0.1150045,1
86,0.0135955,0.7038314999999999,0.0186595,-0.1316425,0.4945615,0.0148924999999999,-0.2253425,0.7359815000000001,-0.0522445,0.1537375,0.4633514999999999,0.0162855,0.2673175,0.7171215,-0.0294405,-0.2498625,0.9890915,-0.1183565,0.3048275,0.9556715,-0.0933705,-0.0744255,0.0023524999999999,-0.0015555,0.0744255,-0.0023525,0.0015555,-0.1183825,-0.3530285,-0.1939005,0.1462275,-0.3496085,-0.1683705,-0.1348525,-0.6871484999999999,-0.1406125,0.1361075,-0.7005984999999999,-0.1185725,1
87,0.0137209999999999,0.702755,0.017232,-0.131708,0.4937249999999999,0.012995,-0.225388,0.737025,-0.056019,0.153452,0.4619649999999999,0.0143679999999999,0.267792,0.716315,-0.032741,-0.249888,0.984485,-0.123169,0.305902,0.954155,-0.097391,-0.074487,0.002333,-0.001701,0.074487,-0.002333,0.001701,-0.118688,-0.3464049999999999,-0.199531,0.146982,-0.342005,-0.174881,-0.136288,-0.676215,-0.145323,0.135482,-0.691545,-0.122144,1
88,0.013821,0.7017075,0.0158525,-0.131728,0.4929975,0.0111275,-0.225568,0.7355675,-0.0597425,0.153222,0.4610575,0.0124815,0.268352,0.7155875,-0.0364435,-0.249888,0.9798675,-0.1277194999999999,0.306942,0.9531175,-0.1017365,-0.074543,0.0022685,-0.0018335,0.074543,-0.0022684999999999,0.0018335,-0.119018,-0.3353425,-0.2049805,0.147792,-0.3309425,-0.1812005,-0.137448,-0.6654925,-0.1496115,0.134942,-0.6812225,-0.1246885,1
89,0.0140099999999999,0.700565,0.0142359999999999,-0.131553,0.492125,0.0095109999999999,-0.225523,0.734585,-0.06331,0.153047,0.460495,0.0108319999999999,0.269057,0.712435,-0.039832,-0.249613,0.975395,-0.132032,0.307877,0.953805,-0.106652,-0.074626,0.0022049999999999,-0.001885,0.074626,-0.0022049999999999,0.0018849999999999,-0.119163,-0.324855,-0.209511,0.1487369999999999,-0.320455,-0.1864009999999999,-0.137873,-0.655505,-0.152337,0.1344969999999999,-0.671205,-0.126363,1
90,0.0140515,0.69954,0.012714,-0.1313735,0.49055,0.0076699999999999,-0.2254035,0.73145,-0.06659,0.1526665,0.46029,0.0090029999999999,0.2695365,0.71008,-0.043147,-0.2495135,0.97065,-0.136301,0.3087364999999999,0.94959,-0.111849,-0.0747335,0.0020899999999999,-0.0019049999999999,0.0747335,-0.0020899999999999,0.001905,-0.1189935,-0.31577,-0.214379,0.1497365,-0.31137,-0.1913989999999999,-0.1373335,-0.64642,-0.154021,0.1345765,-0.66212,-0.127881,1
91,0.0145565,0.7000550000000001,0.006399,-0.1305565,0.488575,0.000612,-0.2240765,0.732035,-0.074852,0.1525235,0.460775,0.0019609999999999,0.2705335,0.710115,-0.051636,-0.2486364999999999,0.965385,-0.145902,0.3102235,0.948665,-0.121816,-0.0749565,0.001975,-0.002178,0.0749565,-0.001975,0.0021779999999999,-0.1182765,-0.303665,-0.226987,0.1520335,-0.298835,-0.203897,-0.1361565,-0.6339049999999999,-0.1606759999999999,0.1349835,-0.649265,-0.134187,1
92,0.0151705,0.701865,-1.6500000000002624e-05,-0.1296475,0.4886049999999999,-0.0066875,-0.2226375,0.733305,-0.0834615,0.1522224999999999,0.461885,-0.0054555,0.2714425,0.710135,-0.0607545,-0.2475075,0.965825,-0.1554135,0.3117925,0.950755,-0.1320595,-0.0751294999999999,0.001835,-0.0027155,0.0751294999999999,-0.001835,0.0027154999999999,-0.1175175,-0.290995,-0.2394265,0.1543825,-0.286505,-0.2163965,-0.1349075,-0.620855,-0.1674165,0.1354525,-0.6359250000000001,-0.1406135,1
93,0.0153544999999999,0.7018900000000001,-0.008149,-0.1285415,0.48785,-0.015576,-0.2209915,0.7335499999999999,-0.094097,0.1518085,0.46264,-0.014447,0.2719685,0.7097800000000001,-0.071414,-0.2464315,0.96923,-0.167454,0.3121084999999999,0.95354,-0.144999,-0.0753445,0.00171,-0.003109,0.0753445,-0.0017099999999999,0.003109,-0.1165914999999999,-0.27336,-0.2534389999999999,0.1581385,-0.26885,-0.230359,-0.1333915,-0.60381,-0.174355,0.1361685,-0.61687,-0.14686,1
94,0.015404,0.701885,-0.0165169999999999,-0.127467,0.486075,-0.0246559999999999,-0.2197069999999999,0.733585,-0.1054449999999999,0.151373,0.462155,-0.0237709999999999,0.272073,0.709085,-0.0824679999999999,-0.244747,0.973435,-0.1809879999999999,0.312363,0.954185,-0.158165,-0.075629,0.001615,-0.0034239999999999,0.075629,-0.001615,0.003424,-0.1156069999999999,-0.253965,-0.267826,0.161903,-0.249905,-0.244696,-0.131747,-0.584925,-0.181485,0.1368329999999999,-0.595335,-0.153661,1
95,0.0154049999999999,0.7012,-0.024888,-0.126225,0.48529,-0.033816,-0.218245,0.73333,-0.116907,0.1510449999999999,0.46264,-0.033138,0.272195,0.7090700000000001,-0.093933,-0.242815,0.97736,-0.194988,0.312625,0.95449,-0.171678,-0.076008,0.0014,-0.003558,0.076008,-0.0013999999999999,0.003558,-0.1144449999999999,-0.2346599999999999,-0.282238,0.165665,-0.23103,-0.259198,-0.129635,-0.56575,-0.189055,0.137925,-0.57365,-0.161142,1
96,0.0153555,0.701475,-0.0336159999999999,-0.1250885,0.484215,-0.042935,-0.2167885,0.7327250000000001,-0.128654,0.1509015,0.4640149999999999,-0.04219,0.2725315,0.709165,-0.105833,-0.2411685,0.981465,-0.209609,0.3128015,0.954375,-0.185329,-0.0763355,0.001055,-0.003721,0.0763355,-0.001055,0.003721,-0.1133085,-0.2153949999999999,-0.2964489999999999,0.1691015,-0.212535,-0.273119,-0.1274285,-0.546875,-0.196048,0.1387915,-0.5521349999999999,-0.1678839999999999,1
97,0.0152505,0.70018,-0.043114,-0.1238085,0.48262,-0.053183,-0.2149485,0.73378,-0.141216,0.1508415,0.46363,-0.052258,0.2737015,0.70832,-0.118611,-0.2396284999999999,0.98069,-0.224875,0.3131915,0.95113,-0.200162,-0.0766825,0.0009,-0.0038149999999999,0.0766825,-0.0009,0.0038149999999999,-0.1120485,-0.19268,-0.311525,0.1723915,-0.19068,-0.287785,-0.1250985,-0.52478,-0.203481,0.1393315,-0.52789,-0.17505,1
98,0.0152474999999999,0.69937,-0.052897,-0.1225854999999999,0.48073,-0.063735,-0.2130355,0.73119,-0.154127,0.1508145,0.4633899999999999,-0.06269,0.2745345,0.70995,-0.132231,-0.2383555,0.97306,-0.240225,0.3138745,0.95068,-0.2150949999999999,-0.0770474999999999,0.00078,-0.0039949999999999,0.0770474999999999,-0.00078,0.0039949999999999,-0.1107054999999999,-0.16906,-0.326725,0.1753945,-0.16705,-0.302655,-0.1227455,-0.5013700000000001,-0.211067,0.1397644999999999,-0.5027699999999999,-0.182223,1
99,0.0153675,0.69782,-0.0626009999999999,-0.1213885,0.47888,-0.0742029999999999,-0.2109385,0.7316100000000001,-0.166998,0.1510115,0.46362,-0.072848,0.2756915,0.71098,-0.146172,-0.2370585,0.96636,-0.256025,0.3146115,0.95358,-0.230065,-0.0774354999999999,0.00064,-0.0042549999999999,0.0774354999999999,-0.0006399999999999,0.0042549999999999,-0.1092285,-0.14544,-0.341175,0.1783114999999999,-0.14349,-0.317385,-0.1202885,-0.47819,-0.217928,0.1402615,-0.4788,-0.189719,1
100,0.0150929999999999,0.6944999999999999,-0.067532,-0.120755,0.4768699999999999,-0.079462,-0.209895,0.72693,-0.175058,0.151145,0.46387,-0.077611,0.2761249999999999,0.7085899999999999,-0.154881,-0.236055,0.96074,-0.2660099999999999,0.314655,0.94976,-0.24012,-0.077721,0.0002299999999999,-0.0042099999999999,0.077721,-0.00023,0.0042099999999999,-0.108275,-0.12542,-0.34751,0.179485,-0.12354,-0.3243,-0.1184149999999999,-0.45938,-0.219439,0.140115,-0.45864,-0.1924779999999999,1
101,0.014844,0.69038,-0.072666,-0.1201769999999999,0.47379,-0.084515,-0.208917,0.7213,-0.182534,0.151393,0.46247,-0.082289,0.276473,0.70504,-0.162522,-0.234997,0.95498,-0.276845,0.314763,0.94512,-0.249775,-0.078046,-2.999999999997449e-05,-0.0039249999999999,0.078046,2.999999999997449e-05,0.003925,-0.107467,-0.10587,-0.353045,0.180333,-0.1033,-0.330315,-0.116777,-0.4405599999999999,-0.220393,0.139413,-0.4384,-0.193081,1
102,0.0148509999999999,0.6873,-0.0764739999999999,-0.119881,0.47163,-0.088004,-0.208661,0.71592,-0.187633,0.151699,0.46083,-0.085704,0.276549,0.70326,-0.168652,-0.234031,0.94844,-0.285175,0.315159,0.93972,-0.2566049999999999,-0.078246,-0.0001499999999999,-0.0039249999999999,0.078246,0.0001499999999999,0.0039249999999999,-0.106941,-0.08804,-0.356565,0.180889,-0.08532,-0.334185,-0.115451,-0.42516,-0.220301,0.138269,-0.42042,-0.19323,1
103,0.014744,0.684355,-0.080416,-0.1200349999999999,0.469295,-0.091719,-0.207675,0.7124250000000001,-0.192467,0.151835,0.460202,-0.08926,0.276845,0.700825,-0.174916,-0.2329449999999999,0.943145,-0.29336,0.315555,0.936375,-0.26393,-0.0785,-0.0003449999999999,-0.0038399999999999,0.0785,0.000345,0.00384,-0.1060449999999999,-0.073015,-0.3596399999999999,0.1814049999999999,-0.0688149999999999,-0.33765,-0.112615,-0.409185,-0.217908,0.1365549999999999,-0.403145,-0.194999,1
104,0.0145065,0.682,-0.084153,-0.1203134999999999,0.466513,-0.095183,-0.2065835,0.70912,-0.196413,0.1519665,0.458805,-0.0926579999999999,0.2768165,0.69742,-0.180652,-0.2325835,0.93781,-0.300725,0.3158265,0.93272,-0.270715,-0.0787615,-0.0004599999999999,-0.003835,0.0787615,0.00046,0.003835,-0.1051534999999999,-0.0581899999999999,-0.362145,0.1817065,-0.0527799999999999,-0.340275,-0.1100434999999999,-0.39386,-0.216222,0.1349265,-0.3869199999999999,-0.197214,1
105,0.0139895,0.67834,-0.0874489999999999,-0.1207475,0.464523,-0.0989419999999999,-0.2060475,0.7042900000000001,-0.200006,0.1519625,0.456217,-0.0963149999999999,0.2770025,0.6952100000000001,-0.185807,-0.2322275,0.93232,-0.305525,0.3162425,0.93204,-0.2771949999999999,-0.0792404999999999,-0.0004299999999999,-0.0038049999999999,0.0792404999999999,0.00043,0.003805,-0.1043375,-0.0397799999999999,-0.364415,0.1808324999999999,-0.0332499999999999,-0.342865,-0.1081575,-0.37542,-0.215909,0.1325325,-0.3684299999999999,-0.199704,1
106,0.0136289999999999,0.675675,-0.090085,-0.121116,0.462673,-0.101553,-0.206056,0.697435,-0.202918,0.152094,0.455326,-0.099028,0.277164,0.694075,-0.189152,-0.231846,0.928985,-0.309385,0.316284,0.932385,-0.282035,-0.079634,-0.0005649999999999,-0.003755,0.079634,0.0005649999999999,0.0037549999999999,-0.103486,-0.024505,-0.365255,0.1797039999999999,-0.0166449999999999,-0.343905,-0.106916,-0.3603849999999999,-0.215895,0.128234,-0.3564849999999999,-0.201947,1
107,0.0131904999999999,0.6723,-0.092719,-0.1216925,0.461358,-0.1038019999999999,-0.2059125,0.69347,-0.20478,0.1523175,0.4546989999999999,-0.1014089999999999,0.2769175,0.69323,-0.191796,-0.2318025,0.93017,-0.31288,0.3157775,0.93144,-0.28619,-0.0799125,-0.00067,-0.0037799999999999,0.0799125,0.00067,0.00378,-0.1026025,-0.00904,-0.36587,0.1783275,-0.00029,-0.34446,-0.1057424999999999,-0.34598,-0.2158399999999999,0.1238275,-0.34508,-0.202355,1
108,0.0127205,0.6701050000000001,-0.09545,-0.1223115,0.459705,-0.105945,-0.2063914999999999,0.688555,-0.207425,0.1524585,0.454052,-0.103725,0.2766685,0.692415,-0.1945629999999999,-0.2320014999999999,0.924795,-0.31579,0.3149985,0.930635,-0.28979,-0.0801815,-0.000865,-0.0037999999999999,0.0801815,0.000865,0.0037999999999999,-0.1016415,0.005645,-0.36624,0.1768785,0.015495,-0.3449,-0.1057615,-0.3314449999999999,-0.216811,0.1207685,-0.332015,-0.2026339999999999,1
109,0.012254,0.6679600000000001,-0.097705,-0.122877,0.458801,-0.107796,-0.206687,0.6863600000000001,-0.209461,0.152603,0.452736,-0.105878,0.276893,0.69028,-0.197078,-0.2326369999999999,0.92027,-0.318905,0.314063,0.93249,-0.293065,-0.080357,-0.0007499999999999,-0.003785,0.080357,0.00075,0.0037849999999999,-0.100547,0.02115,-0.366315,0.175433,0.03229,-0.344955,-0.105807,-0.31572,-0.217462,0.11775,-0.3177599999999999,-0.202081,1
110,0.011726,0.6657150000000001,-0.098933,-0.123545,0.458385,-0.1088889999999999,-0.207085,0.684665,-0.211235,0.1526549999999999,0.45231,-0.107152,0.276535,0.689855,-0.19871,-0.233415,0.915195,-0.320215,0.312855,0.933815,-0.295235,-0.080495,-0.0007249999999999,-0.003775,0.080495,0.000725,0.003775,-0.099565,0.0366549999999999,-0.365785,0.174115,0.048375,-0.344635,-0.1058849999999999,-0.3012049999999999,-0.217324,0.11506,-0.304535,-0.199633,1
111,0.0110205,0.6642649999999999,-0.0988339999999999,-0.1241945,0.4572069999999999,-0.1093309999999999,-0.2072244999999999,0.683055,-0.2112939999999999,0.1521855,0.4526319999999999,-0.107259,0.2756155,0.6869649999999999,-0.1982479999999999,-0.2343044999999999,0.909065,-0.320515,0.3114055,0.934735,-0.295525,-0.0806245,-0.000905,-0.0037549999999999,0.0806245,0.0009049999999999,0.003755,-0.0986345,0.0507249999999999,-0.365155,0.1727854999999999,0.0624449999999999,-0.344215,-0.1064645,-0.2886250000000001,-0.2181239999999999,0.1125105,-0.2930450000000001,-0.198371,1
112,0.0105105,0.663035,-0.0981599999999999,-0.1246914999999999,0.457608,-0.1088809999999999,-0.2076615,0.6809850000000001,-0.210613,0.1516385,0.453194,-0.1065879999999999,0.2745284999999999,0.6863450000000001,-0.197627,-0.2352115,0.901775,-0.32009,0.3100885,0.936625,-0.2949299999999999,-0.0807315,-0.0009749999999999,-0.0038399999999999,0.0807315,0.000975,0.00384,-0.0979314999999999,0.061795,-0.3643699999999999,0.1717485,0.073515,-0.34335,-0.1077114999999999,-0.2787449999999999,-0.2192019999999999,0.1109435,-0.283145,-0.1966409999999999,1
113,0.0100475,0.6611500000000001,-0.097484,-0.1252454999999999,0.458268,-0.108214,-0.2083755,0.6781100000000001,-0.211303,0.1512145,0.453327,-0.105909,0.2734945,0.68544,-0.197004,-0.2359954999999999,0.90153,-0.31944,0.3088145,0.938,-0.29433,-0.0808155,-0.0009399999999999,-0.00392,0.0808155,0.00094,0.00392,-0.0971455,0.0721,-0.36356,0.1706945,0.08382,-0.34236,-0.1092155,-0.2696399999999999,-0.220542,0.1096945,-0.27374,-0.195045,1
114,0.0094289999999999,0.66022,-0.096477,-0.1259529999999999,0.458151,-0.107215,-0.209363,0.68034,-0.211468,0.150727,0.454217,-0.10489,0.2709769999999999,0.68034,-0.1950009999999999,-0.236803,0.89769,-0.318445,0.307307,0.93333,-0.2934049999999999,-0.080749,-0.00089,-0.004125,0.080749,0.0008899999999999,0.004125,-0.096273,0.0824699999999999,-0.361415,0.169687,0.0946599999999999,-0.339525,-0.112553,-0.26127,-0.223775,0.10869,-0.26436,-0.1914759999999999,1
115,0.008673,0.660055,-0.0949769999999999,-0.126675,0.4588989999999999,-0.106177,-0.210055,0.685975,-0.2106549999999999,0.150475,0.455441,-0.1036339999999999,0.268515,0.6757249999999999,-0.191933,-0.237925,0.904645,-0.31616,0.305915,0.930795,-0.29184,-0.080687,-0.0008949999999999,-0.0043699999999999,0.080687,0.0008949999999999,0.0043699999999999,-0.0955849999999999,0.0933049999999999,-0.35879,0.168785,0.1056749999999999,-0.33596,-0.1175949999999999,-0.2528250000000001,-0.22998,0.108219,-0.254915,-0.188211,1
116,0.0078239999999999,0.6600900000000001,-0.0929339999999999,-0.127303,0.459579,-0.105169,-0.211093,0.69067,-0.209127,0.1502369999999999,0.456569,-0.102239,0.266147,0.671,-0.1885109999999999,-0.238663,0.91152,-0.3124,0.3048869999999999,0.92898,-0.28972,-0.0806,-0.00092,-0.0046599999999999,0.0806,0.00092,0.0046599999999999,-0.094953,0.10289,-0.35617,0.1680569999999999,0.11525,-0.33245,-0.122423,-0.2460099999999999,-0.23573,0.108068,-0.24714,-0.187356,1
117,0.0071799999999999,0.6600000000000001,-0.091663,-0.1278419999999999,0.4611480000000001,-0.1038409999999999,-0.211892,0.6952500000000001,-0.207888,0.150088,0.4575300000000001,-0.100548,0.264278,0.6663600000000001,-0.184861,-0.239492,0.91791,-0.309245,0.304048,0.92775,-0.287025,-0.0805319999999999,-0.0008399999999999,-0.0049149999999999,0.0805319999999999,0.00084,0.004915,-0.094312,0.1127800000000001,-0.353415,0.167428,0.1247100000000001,-0.3289149999999999,-0.126652,-0.2390999999999998,-0.240365,0.107938,-0.2394399999999998,-0.18541,1
118,0.006535,0.660155,-0.090209,-0.128368,0.4622350000000001,-0.102395,-0.213408,0.6982750000000001,-0.20733,0.149922,0.4584050000000001,-0.09866,0.262352,0.6641890000000001,-0.180824,-0.240508,0.9238350000000002,-0.30593,0.303382,0.926695,-0.28391,-0.080433,-0.0008049999999999,-0.00526,0.080433,0.000805,0.00526,-0.093808,0.1216250000000001,-0.35072,0.166842,0.1331350000000001,-0.32548,-0.130228,-0.2330749999999999,-0.24367,0.1092409999999999,-0.2303149999999999,-0.182058,1
119,0.005855,0.659863,-0.088145,-0.129075,0.4628849999999999,-0.100484,-0.214815,0.701635,-0.20672,0.149525,0.4586949999999999,-0.096034,0.260375,0.662121,-0.176466,-0.241525,0.924355,-0.302995,0.302665,0.925635,-0.280775,-0.080334,-0.000595,-0.005495,0.080334,0.0005949999999999,0.005495,-0.093385,0.1306949999999999,-0.347695,0.166095,0.1416249999999999,-0.321745,-0.133835,-0.226955,-0.246505,0.110564,-0.221075,-0.179362,1
120,0.0050925,0.659554,-0.085618,-0.1297535,0.46398,-0.098339,-0.2162134999999999,0.70584,-0.205927,0.1490765,0.45896,-0.09325,0.2585465,0.661621,-0.1726349999999999,-0.2424934999999999,0.93064,-0.30035,0.3019865,0.92488,-0.27764,-0.0802385,-0.00031,-0.0057499999999999,0.0802385,0.00031,0.00575,-0.0929035,0.13792,-0.34614,0.1653265,0.1503499999999999,-0.31781,-0.1357934999999999,-0.22067,-0.2457899999999999,0.1111065,-0.21333,-0.176836,1
121,0.004418,0.6593169999999999,-0.083115,-0.130332,0.4644549999999999,-0.096164,-0.217532,0.709075,-0.2046879999999999,0.148578,0.4592449999999999,-0.090473,0.257178,0.660123,-0.169033,-0.243532,0.935645,-0.2977999999999999,0.301398,0.923505,-0.27471,-0.080162,-0.000155,-0.0059499999999999,0.080162,0.000155,0.00595,-0.0924919999999999,0.1442549999999999,-0.34475,0.164648,0.1580749999999999,-0.3142,-0.137712,-0.215525,-0.24514,0.111783,-0.206585,-0.174543,1
122,0.0036824999999999,0.659341,-0.0806699999999999,-0.1308845,0.465215,-0.094022,-0.2184945,0.714255,-0.203974,0.1478954999999999,0.459705,-0.087699,0.2558455,0.659085,-0.16535,-0.2452444999999999,0.940345,-0.2953,0.3008155,0.922405,-0.27156,-0.0800905,-1.4999999999987246e-05,-0.0061699999999999,0.0800905,1.4999999999987246e-05,0.0061699999999999,-0.0922945,0.1505449999999999,-0.3436,0.1640355,0.165505,-0.31051,-0.1391245,-0.210385,-0.24447,0.1124665,-0.1996449999999999,-0.172404,1
123,0.0034095,0.659052,-0.079456,-0.1311205,0.46567,-0.092803,-0.2192605,0.7146,-0.202807,0.1477495,0.45985,-0.086132,0.2558395,0.661172,-0.164462,-0.2468604999999999,0.94181,-0.29318,0.3007895,0.92468,-0.27031,-0.0800245,0.00014,-0.0061699999999999,0.0800245,-0.00014,0.0061699999999999,-0.0921004999999999,0.15182,-0.34329,0.1635995,0.16908,-0.3086,-0.1391905,-0.2128099999999999,-0.24427,0.1130665,-0.1968299999999999,-0.172145,1
124,0.0033045,0.6587979999999999,-0.078365,-0.1313125,0.4656449999999999,-0.091543,-0.2198524999999999,0.7141949999999999,-0.201661,0.1476875,0.4596749999999999,-0.084675,0.2558375,0.662809,-0.163618,-0.2484624999999999,0.9432049999999998,-0.291185,0.3007575,0.926525,-0.269135,-0.0799634999999999,0.0003149999999999,-0.006135,0.0799634999999999,-0.000315,0.006135,-0.0919025,0.1525249999999999,-0.343045,0.1631775,0.1722749999999999,-0.3068849999999999,-0.1392225,-0.2154250000000001,-0.243965,0.1137025,-0.194405,-0.171917,1
125,0.0032809999999999,0.658642,-0.077203,-0.131373,0.4656049999999999,-0.090331,-0.220003,0.7138749999999999,-0.200538,0.147637,0.459545,-0.083239,0.255857,0.6646259999999999,-0.162893,-0.249803,0.944575,-0.29095,0.300757,0.928455,-0.26826,-0.079898,0.000495,-0.0060899999999999,0.079898,-0.000495,0.0060899999999999,-0.091593,0.1523649999999999,-0.34285,0.162827,0.1756749999999999,-0.30494,-0.139243,-0.2182049999999999,-0.24283,0.11412,-0.192485,-0.171567,1
126,0.0033574999999999,0.658264,-0.076093,-0.1313095,0.46523,-0.089087,-0.2198995,0.7164499999999999,-0.2004619999999999,0.1476805,0.4593199999999999,-0.081847,0.2564805,0.666485,-0.162171,-0.2507895,0.94634,-0.29081,0.3009205,0.93034,-0.26773,-0.0798355,0.0007099999999999,-0.0060599999999999,0.0798355,-0.0007099999999999,0.00606,-0.0911994999999999,0.1517199999999999,-0.34294,0.1627205,0.1788599999999999,-0.30298,-0.1392695,-0.22098,-0.24059,0.1150525,-0.18938,-0.170062,1
127,0.0034665,0.658263,-0.075284,-0.1312285,0.465465,-0.087967,-0.2198685,0.719195,-0.200669,0.1477615,0.459155,-0.080701,0.2571415,0.668245,-0.161586,-0.2515584999999999,0.948015,-0.29076,0.3012115,0.932135,-0.26742,-0.0797805,0.000935,-0.00603,0.0797805,-0.000935,0.0060299999999999,-0.0908985,0.155285,-0.34167,0.1626115,0.181925,-0.30103,-0.1389385,-0.218465,-0.2398799999999999,0.1153785,-0.1869149999999999,-0.168607,1
128,0.0036754999999999,0.658165,-0.074899,-0.1310994999999999,0.465635,-0.087458,-0.2196595,0.719125,-0.200424,0.1479705,0.459385,-0.080413,0.2578605,0.669123,-0.161315,-0.2522795,0.942575,-0.290835,0.3015205,0.933075,-0.267385,-0.0797195,0.0010149999999999,-0.006025,0.0797195,-0.0010149999999999,0.006025,-0.0903895,0.153265,-0.342215,0.1626004999999999,0.183845,-0.299675,-0.1386395,-0.2219749999999999,-0.238495,0.1156775,-0.1854549999999999,-0.16761,1
129,0.0040529999999999,0.658159,-0.07486,-0.130923,0.465735,-0.087294,-0.219443,0.718935,-0.200398,0.148207,0.459565,-0.0803869999999999,0.258627,0.669517,-0.16124,-0.252963,0.943125,-0.290885,0.301817,0.933465,-0.267355,-0.07969,0.001125,-0.0060249999999999,0.07969,-0.0011249999999999,0.006025,-0.089923,0.150345,-0.343025,0.162667,0.185175,-0.2984949999999999,-0.138303,-0.2262149999999999,-0.236875,0.115685,-0.1860649999999999,-0.16404,1
130,0.0044214999999999,0.658143,-0.074795,-0.1307615,0.465535,-0.087248,-0.2192015,0.718655,-0.200345,0.1484484999999999,0.459685,-0.080334,0.2593485,0.669813,-0.161143,-0.2533615,0.937255,-0.2912099999999999,0.3020985,0.933745,-0.2673,-0.0796825,0.0011849999999999,-0.00606,0.0796825,-0.0011849999999999,0.0060599999999999,-0.0898315,0.148875,-0.3428299999999999,0.1626785,0.186075,-0.29758,-0.1382115,-0.2284649999999999,-0.23615,0.1155485,-0.1869149999999999,-0.160866,1
131,0.0049095,0.657901,-0.074752,-0.1303174999999999,0.46528,-0.087209,-0.2190375,0.71822,-0.200332,0.1488324999999999,0.45964,-0.080301,0.2601325,0.669992,-0.161073,-0.2530874999999999,0.93765,-0.29155,0.3024925,0.93388,-0.26732,-0.0796525,0.0012499999999999,-0.0060999999999999,0.0796525,-0.0012499999999999,0.0060999999999999,-0.0894375,0.14783,-0.3427,0.1628125,0.18678,-0.29691,-0.1379675,-0.2297599999999999,-0.23613,0.1155295,-0.1879699999999999,-0.1579809999999999,1
132,0.0055965,0.657768,-0.0748949999999999,-0.1298335,0.46524,-0.087228,-0.2187535,0.71804,-0.200772,0.1492165,0.45968,-0.080534,0.2611165,0.670079,-0.161354,-0.2527235,0.93777,-0.29289,0.3030965,0.93379,-0.26812,-0.0796395,0.00131,-0.00615,0.0796395,-0.00131,0.00615,-0.0891435,0.1469099999999999,-0.34268,0.1629365,0.18751,-0.2964,-0.1377235,-0.23056,-0.23617,0.1156124999999999,-0.18913,-0.156577,1
133,0.0066435,0.6579820000000001,-0.0752449999999999,-0.1289574999999999,0.464885,-0.087349,-0.2182275,0.717385,-0.2013809999999999,0.1499625,0.459695,-0.080956,0.2624825,0.669625,-0.1617799999999999,-0.2520075,0.937195,-0.29434,0.3042525,0.933155,-0.26914,-0.0796575,0.001325,-0.0061999999999999,0.0796575,-0.001325,0.0062,-0.0885675,0.147895,-0.34279,0.1634025,0.187715,-0.29635,-0.1374675,-0.2295749999999999,-0.23625,0.1156885,-0.1910149999999999,-0.155779,1
134,0.0077889999999999,0.6583950000000001,-0.076012,-0.12819,0.46493,-0.087813,-0.2176799999999999,0.7170200000000001,-0.202281,0.15065,0.45965,-0.081644,0.2639,0.6700400000000001,-0.1625909999999999,-0.25114,0.93598,-0.296255,0.30553,0.93357,-0.270385,-0.07969,0.00129,-0.006265,0.07969,-0.0012899999999999,0.0062649999999999,-0.0881,0.14831,-0.343085,0.1638399999999999,0.18708,-0.296425,-0.1372999999999999,-0.2291599999999999,-0.236835,0.115676,-0.1935999999999998,-0.155882,1
135,0.008936,0.6583950000000001,-0.076834,-0.127546,0.46493,-0.088289,-0.217076,0.71689,-0.203157,0.151284,0.45965,-0.082301,0.265174,0.6700400000000001,-0.163515,-0.250316,0.93453,-0.298355,0.306784,0.93357,-0.271695,-0.079746,0.00129,-0.006375,0.079746,-0.0012899999999999,0.0063749999999999,-0.0876359999999999,0.15019,-0.342325,0.164214,0.18586,-0.296505,-0.137256,-0.2260499999999999,-0.238775,0.115121,-0.1968999999999999,-0.154587,1
136,0.0101875,0.6583950000000001,-0.078064,-0.1268995,0.46493,-0.0890769999999999,-0.2164095,0.71689,-0.204476,0.1519405,0.45965,-0.083121,0.2664805,0.670135,-0.164605,-0.2496395,0.93453,-0.300095,0.3081605,0.93371,-0.273235,-0.0797395,0.00129,-0.0064649999999999,0.0797395,-0.0012899999999999,0.006465,-0.0870795,0.15169,-0.3424049999999999,0.1647505,0.18455,-0.296575,-0.1362995,-0.2224799999999999,-0.239985,0.1153285,-0.1970599999999999,-0.153933,1
137,0.0114929999999999,0.6583950000000001,-0.079731,-0.126078,0.4649400000000001,-0.0899939999999999,-0.215718,0.71689,-0.2045469999999999,0.152622,0.45965,-0.0841089999999999,0.269642,0.6728290000000001,-0.167544,-0.2489279999999999,0.93453,-0.302115,0.309952,0.93456,-0.275755,-0.079738,0.00129,-0.0065549999999999,0.079738,-0.0012899999999999,0.006555,-0.086488,0.152,-0.342485,0.165472,0.1827100000000001,-0.297195,-0.135378,-0.2185099999999999,-0.240035,0.1149459999999999,-0.1978199999999998,-0.154103,1
138,0.012709,0.658884,-0.081465,-0.125398,0.46503,-0.091041,-0.215398,0.71662,-0.205034,0.153292,0.4593899999999999,-0.085148,0.272812,0.6752859999999999,-0.170903,-0.248218,0.93406,-0.304265,0.311752,0.93523,-0.278375,-0.079738,0.00117,-0.006635,0.079738,-0.00117,0.006635,-0.086048,0.15192,-0.342825,0.165992,0.1804299999999999,-0.298475,-0.134478,-0.2133,-0.240115,0.115536,-0.1982899999999999,-0.154213,1
139,0.013989,0.660977,-0.083288,-0.1246499999999999,0.4644150000000001,-0.092096,-0.21476,0.7156750000000001,-0.2051589999999999,0.15396,0.458295,-0.0861229999999999,0.27532,0.677192,-0.174449,-0.2476,0.930895,-0.306425,0.31343,0.936995,-0.281715,-0.07973,0.001015,-0.006675,0.07973,-0.0010149999999999,0.006675,-0.08573,0.150895,-0.343325,0.16692,0.175235,-0.301255,-0.1334,-0.2106149999999998,-0.2401849999999999,0.116144,-0.2015149999999999,-0.1545619999999999,1
140,0.015394,0.6618519999999999,-0.0855239999999999,-0.1236509999999999,0.4637999999999999,-0.0940319999999999,-0.214491,0.70678,-0.2057379999999999,0.154759,0.4568099999999999,-0.088363,0.2775689999999999,0.6776369999999999,-0.178771,-0.247511,0.9255799999999998,-0.3084599999999999,0.314809,0.93543,-0.28675,-0.079771,0.0009199999999999,-0.0065699999999999,0.079771,-0.00092,0.00657,-0.0857709999999999,0.1377599999999999,-0.34481,0.168039,0.1582399999999999,-0.3057999999999999,-0.129331,-0.22022,-0.23743,0.117902,-0.2155100000000001,-0.158621,1
141,0.016595,0.663708,-0.087291,-0.122892,0.464265,-0.095446,-0.214302,0.7052849999999999,-0.20582,0.155448,0.4561449999999999,-0.089876,0.280028,0.678815,-0.182631,-0.247992,0.927275,-0.30959,0.315848,0.934045,-0.29097,-0.079732,0.0008549999999999,-0.00647,0.079732,-0.000855,0.0064699999999999,-0.085962,0.1232549999999999,-0.34579,0.169448,0.1404049999999999,-0.3101,-0.125532,-0.232755,-0.23479,0.11928,-0.232415,-0.160981,1
142,0.0174375,0.665965,-0.088458,-0.1225014999999999,0.4639160000000001,-0.0962099999999999,-0.2138215,0.7003450000000001,-0.205629,0.1558285,0.4555930000000001,-0.0913529999999999,0.2811685,0.6816650000000001,-0.185802,-0.2488514999999999,0.925355,-0.31033,0.3165785,0.935515,-0.29507,-0.0796515,0.000685,-0.0064699999999999,0.0796515,-0.0006849999999999,0.00647,-0.0865715,0.099715,-0.3477099999999999,0.1710485,0.116865,-0.31377,-0.1224115,-0.2539549999999999,-0.23084,0.1224625,-0.2504049999999999,-0.165548,1
143,0.0180689999999999,0.66972,-0.089294,-0.122278,0.464545,-0.096678,-0.213408,0.6999500000000001,-0.205155,0.156132,0.453752,-0.092744,0.282762,0.68329,-0.188865,-0.2490379999999999,0.92135,-0.310265,0.317312,0.93662,-0.299465,-0.079468,0.0008099999999999,-0.006445,0.079468,-0.0008099999999999,0.0064449999999999,-0.087288,0.07416,-0.348135,0.172662,0.0889099999999999,-0.3169349999999999,-0.1194679999999999,-0.2761399999999999,-0.227655,0.1255679999999999,-0.2721899999999999,-0.169858,1
144,0.0186029999999999,0.67343,-0.089392,-0.1222659999999999,0.466399,-0.096804,-0.2136559999999999,0.69708,-0.203019,0.156404,0.454501,-0.093534,0.284074,0.68697,-0.190984,-0.250116,0.92302,-0.31102,0.317944,0.93566,-0.30339,-0.0791959999999999,0.0007499999999999,-0.00636,0.0791959999999999,-0.00075,0.00636,-0.087976,0.0450499999999999,-0.34781,0.174194,0.0580299999999999,-0.31978,-0.1163059999999999,-0.30133,-0.2245599999999999,0.128664,-0.29671,-0.172932,1
145,0.0188845,0.677905,-0.088761,-0.1223094999999999,0.468869,-0.096467,-0.2135695,0.692755,-0.200458,0.1566205,0.4532299999999999,-0.093549,0.2851305,0.6899249999999999,-0.191611,-0.2509195,0.922715,-0.31049,0.3179505,0.938125,-0.30573,-0.0790095,0.0010049999999999,-0.00606,0.0790095,-0.001005,0.0060599999999999,-0.0881494999999999,0.0126449999999999,-0.3479,0.1757805,0.0234449999999999,-0.32144,-0.1124995,-0.330025,-0.22021,0.1321405,-0.324605,-0.175096,1
146,0.0189979999999999,0.6822950000000001,-0.0873009999999999,-0.122496,0.471533,-0.0953359999999999,-0.213396,0.687045,-0.1966669999999999,0.156764,0.452912,-0.0924579999999999,0.285844,0.6893750000000001,-0.190436,-0.252396,0.922385,-0.3090199999999999,0.317704,0.938455,-0.3058999999999999,-0.078776,0.0011349999999999,-0.0058499999999999,0.078776,-0.0011349999999999,0.00585,-0.088676,-0.021955,-0.3470999999999999,0.177064,-0.0128949999999999,-0.32159,-0.108916,-0.361235,-0.2141199999999999,0.135494,-0.3548349999999999,-0.1760129999999999,1
147,0.019169,0.6867650000000001,-0.0856379999999999,-0.122505,0.473939,-0.0939869999999999,-0.213915,0.685255,-0.19313,0.156935,0.4533359999999999,-0.0911289999999999,0.286245,0.689545,-0.1887519999999999,-0.253895,0.925475,-0.30679,0.317445,0.939035,-0.30496,-0.078485,0.0012949999999999,-0.0055599999999999,0.078485,-0.0012949999999999,0.00556,-0.089165,-0.057035,-0.34572,0.178295,-0.0490849999999999,-0.32105,-0.105335,-0.393095,-0.2071299999999999,0.139145,-0.385235,-0.176449,1
148,0.019113,0.69075,-0.082838,-0.1225729999999999,0.47656,-0.09139,-0.2147329999999999,0.68145,-0.187629,0.156927,0.45568,-0.088405,0.286877,0.6902699999999999,-0.185969,-0.255453,0.92716,-0.30289,0.317007,0.93852,-0.30228,-0.0781429999999999,0.0013499999999999,-0.0053599999999999,0.0781429999999999,-0.00135,0.00536,-0.0894929999999999,-0.09247,-0.34302,0.179087,-0.08512,-0.31825,-0.1026229999999999,-0.42763,-0.199597,0.142497,-0.41911,-0.174426,1
149,0.0186119999999999,0.6959500000000001,-0.079045,-0.122985,0.47909,-0.088341,-0.2147949999999999,0.68786,-0.182413,0.156625,0.45857,-0.085244,0.286255,0.69455,-0.181892,-0.256905,0.93219,-0.29815,0.3161549999999999,0.94106,-0.29917,-0.078035,0.0013,-0.0051,0.078035,-0.0012999999999999,0.0050999999999999,-0.089985,-0.1165199999999999,-0.33988,0.179115,-0.1099099999999999,-0.31506,-0.102885,-0.45216,-0.196071,0.144925,-0.4429499999999999,-0.172027,1
150,0.0181049999999999,0.700875,-0.07461,-0.123336,0.480545,-0.08469,-0.214726,0.691235,-0.175925,0.1563439999999999,0.460035,-0.0815869999999999,0.285554,0.6975150000000001,-0.177066,-0.257926,0.931905,-0.292748,0.315324,0.944375,-0.295558,-0.077906,0.001235,-0.004802,0.077906,-0.0012349999999999,0.004802,-0.090476,-0.139675,-0.336238,0.178874,-0.1344649999999999,-0.311398,-0.103166,-0.4766849999999999,-0.191824,0.146194,-0.466905,-0.169453,1
151,0.0172939999999999,0.704785,-0.068283,-0.123628,0.482615,-0.079699,-0.214698,0.695615,-0.1673649999999999,0.156212,0.462415,-0.076576,0.284742,0.7003250000000001,-0.170974,-0.259008,0.936565,-0.285666,0.314622,0.947755,-0.289616,-0.077698,0.001255,-0.004474,0.077698,-0.001255,0.0044739999999999,-0.091208,-0.158455,-0.329886,0.178192,-0.1545949999999999,-0.305586,-0.103628,-0.499825,-0.18629,0.146372,-0.491735,-0.164866,1
152,0.0158015,0.708105,-0.0595169999999999,-0.1249035,0.483625,-0.0722959999999999,-0.2163235,0.691495,-0.157708,0.1556665,0.467685,-0.0686069999999999,0.2828865,0.7045250000000001,-0.1598899999999999,-0.2609435,0.938665,-0.2730439999999999,0.3128765,0.952095,-0.278674,-0.0770435,0.000825,-0.0040879999999999,0.0770435,-0.0008249999999999,0.004088,-0.0928135,-0.1769449999999999,-0.318874,0.1763965,-0.175155,-0.294114,-0.1050835,-0.524425,-0.179537,0.1458065,-0.518925,-0.158127,1
153,0.0143169999999999,0.71193,-0.0505065,-0.125856,0.48569,-0.0649215,-0.217626,0.69029,-0.1461105,0.155084,0.46959,-0.0605875,0.2805539999999999,0.70605,-0.1486015,-0.263226,0.93787,-0.2593904999999999,0.311004,0.95829,-0.2663005,-0.076335,0.0007599999999999,-0.0038305,0.076335,-0.00076,0.0038305,-0.094316,-0.19439,-0.3072905,0.174724,-0.19379,-0.2818805,-0.106556,-0.54773,-0.1733295,0.144534,-0.5445300000000001,-0.1522015,1
154,0.0129485,0.71466,-0.042378,-0.1269745,0.48682,-0.0583469999999999,-0.2193145,0.69054,-0.135568,0.1546054999999999,0.47324,-0.053292,0.2792255,0.70872,-0.137422,-0.2651845,0.93899,-0.246437,0.3092155,0.96138,-0.253517,-0.0756044999999999,0.0005,-0.0037689999999999,0.0756044999999999,-0.0005,0.0037689999999999,-0.0959345,-0.21027,-0.295837,0.1724455,-0.21003,-0.269727,-0.1080045,-0.56931,-0.166932,0.1439755,-0.5672,-0.145597,1
155,0.0112045,0.71716,-0.0345905,-0.1290514999999999,0.48673,-0.0519785,-0.2210514999999999,0.69188,-0.1261654999999999,0.1539785,0.47596,-0.0464485,0.2779784999999999,0.71108,-0.1265975,-0.2679115,0.94043,-0.2334915,0.3077085,0.96454,-0.2407615,-0.0748015,0.00027,-0.0035624999999999,0.0748015,-0.0002699999999999,0.0035624999999999,-0.0977415,-0.2298,-0.2841215,0.1697085,-0.22945,-0.2574115,-0.1096515,-0.59284,-0.1603785,0.1428285,-0.59123,-0.1383625,1
156,0.009543,0.721985,-0.0268664999999999,-0.1309779999999999,0.486765,-0.0452105,-0.2228979999999999,0.695635,-0.1166184999999999,0.153292,0.477255,-0.0395574999999999,0.276282,0.714535,-0.1156455,-0.270698,0.944845,-0.2206535,0.306622,0.968505,-0.2276935,-0.074113,0.000335,-0.0035834999999999,0.074113,-0.000335,0.0035835,-0.099808,-0.249165,-0.2703935,0.166792,-0.248765,-0.2440935,-0.111408,-0.616225,-0.1529705,0.141852,-0.6148250000000001,-0.1311525,1
157,0.00744,0.723615,-0.015106,-0.133389,0.486125,-0.034305,-0.225909,0.698415,-0.103207,0.152261,0.478045,-0.028696,0.274881,0.7172550000000001,-0.100956,-0.2740089999999999,0.948745,-0.204147,0.305501,0.969325,-0.210837,-0.073524,0.0003449999999999,-0.003193,0.073524,-0.0003449999999999,0.003193,-0.102349,-0.268895,-0.251887,0.163281,-0.269465,-0.225457,-0.113569,-0.639705,-0.141434,0.140551,-0.638305,-0.1193009999999999,1
158,0.005542,0.7248209999999999,-0.0034949999999999,-0.135422,0.488521,-0.023341,-0.228592,0.7011109999999999,-0.089783,0.151318,0.477951,-0.017802,0.273548,0.717231,-0.086432,-0.2770019999999999,0.950451,-0.187811,0.304738,0.971881,-0.1932809999999999,-0.072975,0.00035,-0.0027169999999999,0.072975,-0.00035,0.0027169999999999,-0.104542,-0.288689,-0.230101,0.159028,-0.290239,-0.202691,-0.115782,-0.662749,-0.129089,0.139348,-0.6613490000000001,-0.107445,1
159,0.0038045,0.726118,0.007921,-0.1372574999999999,0.490058,-0.0126279999999999,-0.2306274999999999,0.698978,-0.077165,0.1504925,0.478418,-0.0070519999999999,0.2722425,0.718688,-0.072329,-0.2796475,0.950378,-0.171177,0.3041325,0.973878,-0.176097,-0.0725085,0.000306,-0.0021039999999999,0.0725085,-0.000306,0.002104,-0.1067375,-0.308832,-0.208237,0.1547224999999999,-0.311822,-0.179587,-0.1180375,-0.685592,-0.116817,0.1381025,-0.684842,-0.095752,1
160,0.0025599999999999,0.727799,0.0177155,-0.139094,0.491209,-0.0031004999999999,-0.233314,0.6998190000000001,-0.0667385,0.1496259999999999,0.477479,0.0024705,0.271246,0.718739,-0.0599295,-0.282514,0.949019,-0.1563325,0.3038059999999999,0.973219,-0.1607025,-0.072086,0.000341,-0.0015415,0.072086,-0.000341,0.0015415,-0.108644,-0.325801,-0.1870325,0.150706,-0.331111,-0.1575125,-0.120044,-0.7043309999999999,-0.1056535,0.137106,-0.7046709999999999,-0.0852395,1
161,0.0019969999999999,0.7286725000000001,0.0258575,-0.140162,0.4932025,0.0050275,-0.235372,0.7040425,-0.0585865,0.1492079999999999,0.4757424999999999,0.0103205,0.270548,0.7193925,-0.0504555,-0.2843219999999999,0.9562325,-0.1457875,0.304008,0.9723825,-0.1483075,-0.072002,0.0006204999999999,-0.0010845,0.072002,-0.0006204999999999,0.0010844999999999,-0.109802,-0.3374475,-0.1685775,0.147508,-0.3446675,-0.1386975,-0.121482,-0.7180375,-0.0961095,0.136408,-0.7190175,-0.0763325,1
162,0.0015394999999999,0.729044,0.033772,-0.1411855,0.493204,0.0128899999999999,-0.2365855,0.707704,-0.050678,0.1490245,0.475214,0.017935,0.2700145,0.7210340000000001,-0.041649,-0.2859955,0.960524,-0.135533,0.3043345,0.972244,-0.137373,-0.0719875,0.0008559999999999,-0.000598,0.0719875,-0.000856,0.0005979999999999,-0.1109155,-0.346596,-0.150463,0.1443944999999999,-0.356886,-0.1198029999999999,-0.1228155,-0.729706,-0.086878,0.1358345,-0.731866,-0.067589,1
163,0.001105,0.729308,0.0416035,-0.1422899999999999,0.494208,0.0205805,-0.2377599999999999,0.711338,-0.0429005,0.14888,0.474568,0.0252155,0.26951,0.722328,-0.0330485,-0.2873199999999999,0.964838,-0.1254185,0.30444,0.971978,-0.1264885,-0.072008,0.001084,-3.500000000000031e-06,0.072008,-0.001084,3.500000000000031e-06,-0.11209,-0.355842,-0.1324885,0.14131,-0.368232,-0.1005785,-0.12416,-0.741172,-0.0777175,0.13539,-0.744652,-0.0594905,1
164,0.0009845,0.72979,0.049027,-0.1433895,0.49538,0.02821,-0.2395594999999999,0.7178300000000001,-0.035314,0.1490805,0.474,0.032388,0.2694605,0.72394,-0.024693,-0.2887895,0.96966,-0.11567,0.3050905,0.97141,-0.11571,-0.0721755,0.00153,0.0004619999999999,0.0721755,-0.0015299999999999,-0.000462,-0.1134594999999999,-0.36656,-0.11223,0.1379605,-0.38165,-0.079222,-0.1253794999999999,-0.7537499999999999,-0.068062,0.1350005,-0.7571599999999999,-0.050348,1
165,0.0007405,0.727959,0.0560515,-0.1444185,0.496699,0.0353145,-0.2407185,0.716129,-0.0279444999999999,0.1493114999999999,0.4741689999999999,0.0392035,0.2695214999999999,0.7239289999999999,-0.0168175,-0.2902185,0.968409,-0.1062595,0.3054015,0.964789,-0.1053195,-0.0724375,0.0017169999999999,0.0011094999999999,0.0724375,-0.0017169999999999,-0.0011094999999999,-0.1150085,-0.377341,-0.0934494999999999,0.1344615,-0.396051,-0.0581854999999999,-0.1268584999999999,-0.7662610000000001,-0.0572655,0.1345215,-0.769771,-0.0411525,1
166,0.0010475,0.7282550000000001,0.057984,-0.1447294999999999,0.4990349999999999,0.037249,-0.2412695,0.7180650000000001,-0.025906,0.1497905,0.4736849999999999,0.041311,0.2697005,0.7245950000000001,-0.014227,-0.2909695,0.970375,-0.101976,0.3061305,0.961885,-0.100506,-0.0726644999999999,0.002129,0.001371,0.0726644999999999,-0.0021289999999999,-0.001371,-0.1163694999999999,-0.384955,-0.080824,0.1316705,-0.406675,-0.043492,-0.1277994999999999,-0.775195,-0.051667,0.1343305,-0.7792549999999999,-0.037242,1
167,0.001462,0.72899,0.059522,-0.14504,0.4984099999999999,0.038862,-0.24162,0.7179200000000001,-0.024267,0.15031,0.4740899999999999,0.04303,0.26999,0.72604,-0.012043,-0.2915399999999999,0.97332,-0.098034,0.30706,0.9575,-0.096094,-0.0728419999999999,0.002572,0.0014669999999999,0.0728419999999999,-0.0025719999999999,-0.0014669999999999,-0.11742,-0.39073,-0.071286,0.12991,-0.41247,-0.033194,-0.12861,-0.78075,-0.046801,0.1343,-0.7843500000000001,-0.034814,1
168,0.0017915,0.728896,0.060671,-0.1452725,0.4986359999999999,0.040195,-0.2419025,0.718376,-0.0228859999999999,0.1507575,0.4745859999999999,0.044407,0.2703375,0.7266859999999999,-0.010431,-0.2916425,0.972176,-0.0949079999999999,0.3081675,0.956916,-0.0916879999999999,-0.0729465,0.003038,0.001384,0.0729465,-0.0030379999999999,-0.0013839999999999,-0.1183925,-0.395074,-0.061841,0.1282674999999999,-0.416974,-0.023103,-0.1294124999999999,-0.784694,-0.042051,0.1342875,-0.788334,-0.032635,1
169,0.002272,0.72854,0.061658,-0.145389,0.49893,0.04135,-0.242099,0.7179800000000001,-0.021815,0.151371,0.47523,0.045629,0.270821,0.72743,-0.008093,-0.2919589999999999,0.97435,-0.091513,0.309371,0.95555,-0.087123,-0.073134,0.003479,0.0012459999999999,0.073134,-0.0034789999999999,-0.001246,-0.119419,-0.39862,-0.052608,0.126911,-0.42096,-0.013409,-0.130109,-0.7886899999999999,-0.037926,0.134241,-0.79202,-0.03058,1
170,0.0027575,0.728302,0.0623895,-0.1450524999999999,0.498522,0.0421555,-0.2419525,0.717892,-0.0202255,0.1518074999999999,0.475152,0.0467685,0.2713275,0.727342,-0.0058255,-0.2921125,0.975022,-0.0888515,0.3106175,0.955642,-0.0824415,-0.0732845,0.0038209999999999,0.0010394999999999,0.0732845,-0.003821,-0.0010394999999999,-0.1209725,-0.399118,-0.0442534999999999,0.1256475,-0.423828,-0.0041785,-0.1308225,-0.790778,-0.0335325,0.1345575,-0.794768,-0.0292575,1
171,0.0032394999999999,0.727986,0.062962,-0.1447485,0.497986,0.042786,-0.2421785,0.719346,-0.019274,0.1521015,0.4747959999999999,0.047813,0.2717715,0.727056,-0.0036199999999999,-0.2922484999999999,0.974146,-0.086733,0.3118815,0.956846,-0.077913,-0.0734225,0.0040369999999999,0.000878,0.0734225,-0.0040369999999999,-0.000878,-0.1224885,-0.399334,-0.0366999999999999,0.1245115,-0.426554,0.003831,-0.1314885,-0.7922239999999999,-0.0296569999999999,0.1347915,-0.796674,-0.027197,1
172,0.0037679999999999,0.7276954999999999,0.063439,-0.144422,0.4971555,0.043329,-0.242362,0.7213155,-0.0184779999999999,0.152438,0.4747755,0.048817,0.272258,0.7270555,-0.001444,-0.292342,0.9744655,-0.0848049999999999,0.3132379999999999,0.9593655,-0.073684,-0.073507,0.0042025,0.000614,0.073507,-0.0042024999999999,-0.000614,-0.124042,-0.3991645,-0.029859,0.123598,-0.4277345,0.010552,-0.132162,-0.7923045,-0.025663,0.134938,-0.7974945,-0.025427,1
173,0.0042589999999999,0.7275849999999999,0.063451,-0.144081,0.4970449999999999,0.043535,-0.242601,0.7227549999999999,-0.018224,0.152769,0.474835,0.049556,0.272779,0.727055,0.000883,-0.2924609999999999,0.974955,-0.083469,0.314339,0.961755,-0.070213,-0.073561,0.004245,0.000414,0.073561,-0.0042449999999999,-0.000414,-0.125411,-0.398275,-0.02637,0.123349,-0.427875,0.013796,-0.132751,-0.7917350000000001,-0.022297,0.135099,-0.797605,-0.024197,1
174,0.0047364999999999,0.7274379999999999,0.063334,-0.1438035,0.496908,0.043659,-0.2427435,0.723298,-0.0181049999999999,0.1530365,0.474928,0.050153,0.2732565,0.726908,0.003106,-0.2925235,0.975208,-0.08284,0.3154765,0.958708,-0.06692,-0.0735595,0.0042769999999999,0.000191,0.0735595,-0.004277,-0.000191,-0.1266735,-0.398232,-0.023999,0.1231665,-0.427852,0.015689,-0.1332535,-0.791192,-0.0202709999999999,0.1351765,-0.797682,-0.023187,1
175,0.0052785,0.7274379999999999,0.0631569999999999,-0.1435145,0.496908,0.0438,-0.2432745,0.723298,-0.017889,0.1533354999999999,0.4751379999999999,0.050809,0.2738155,0.726908,0.0053059999999999,-0.2925745,0.975208,-0.082453,0.3168255,0.954548,-0.063696,-0.0735514999999999,0.0042769999999999,-5.9000000000000025e-05,0.0735514999999999,-0.004277,5.9000000000000025e-05,-0.1277945,-0.398232,-0.0219439999999999,0.1230855,-0.427622,0.016377,-0.1335845,-0.791192,-0.0195849999999999,0.1352355,-0.797902,-0.022406,1
176,0.0058859999999999,0.7271255,0.0629165,-0.143155,0.4965855,0.0438905,-0.243305,0.7213655,-0.0175185,0.153705,0.4758354999999999,0.0514605,0.274425,0.7268455,0.0073644999999999,-0.292555,0.9740355,-0.0820154999999999,0.317955,0.9498555,-0.0614115,-0.073532,0.0043134999999999,-0.0002724999999999,0.073532,-0.0043134999999999,0.0002725,-0.128515,-0.3978045,-0.0207035,0.123165,-0.4273945,0.0168245,-0.133845,-0.7907645,-0.0191674999999999,0.135325,-0.7976445,-0.0217925,1
177,0.0068925,0.7267115,0.06226,-0.1427015,0.4963715,0.043844,-0.2434815,0.7206014999999999,-0.0177109999999999,0.1543285,0.4757915,0.052109,0.2760085,0.7262815,0.009746,-0.2925315,0.9700215,-0.081408,0.3200985,0.9452815,-0.0597279999999999,-0.0735545,0.0043435,-0.000486,0.0735545,-0.0043435,0.000486,-0.1286115,-0.3971085,-0.020106,0.1233085,-0.4268685,0.017444,-0.1341915,-0.7904385,-0.018593,0.1353085,-0.7973984999999999,-0.0211869999999999,1
178,0.0081345,0.7259494999999999,0.0609815,-0.1425315,0.4962295,0.0437255,-0.2444915,0.7187195,-0.0183424999999999,0.1555585,0.4752595,0.0530655,0.2803685,0.7225794999999999,0.0120725,-0.2911315,0.9625695,-0.0830695,0.3224085,0.9395395,-0.0581364999999999,-0.0735375,0.0043495,-0.0007824999999999,0.0735375,-0.0043494999999999,0.0007824999999999,-0.1290615,-0.3969405,-0.0192675,0.1231885,-0.4269405,0.0183135,-0.1347715,-0.7910005,-0.0177664999999999,0.1349085,-0.7976905000000001,-0.0203445,0
179,0.0094459999999999,0.724885,0.0595715,-0.141608,0.4953349999999999,0.0428785,-0.246838,0.713235,-0.0193295,0.157682,0.475345,0.0544225,0.286092,0.716575,0.0138565,-0.2899279999999999,0.954895,-0.0848375,0.325832,0.930035,-0.0566574999999999,-0.073524,0.00434,-0.0010284999999999,0.073524,-0.0043399999999999,0.0010285,-0.129858,-0.396795,-0.0181754999999999,0.1228519999999999,-0.427215,0.0187345,-0.135678,-0.791695,-0.0171064999999999,0.134242,-0.797995,-0.0192395,0
180,0.0121015,0.7238515,0.056356,-0.1404095,0.4936615,0.040849,-0.2510295,0.6991815,-0.0241899999999999,0.1597205,0.4766114999999999,0.056438,0.2954805,0.7005915,0.017865,-0.2879294999999999,0.9345115,-0.089777,0.3312305,0.9132615,-0.054015,-0.0734425,0.0043614999999999,-0.001541,0.0734425,-0.0043614999999999,0.001541,-0.1324895,-0.3953785,-0.016408,0.1215605,-0.4267285,0.017873,-0.1383695,-0.7912785,-0.0162859999999999,0.1318305,-0.7969985,-0.0174609999999999,0
181,0.0143319999999999,0.7230305,0.0530975,-0.1400259999999999,0.4921304999999999,0.0389415,-0.254246,0.6824205,-0.0268365,0.161464,0.4781104999999999,0.0582555,0.306144,0.6808405000000001,0.0224954999999999,-0.285016,0.9097705,-0.0969145,0.335984,0.8937505,-0.0514035,-0.0733439999999999,0.0044524999999999,-0.0020215,0.0733439999999999,-0.0044524999999999,0.0020214999999999,-0.135146,-0.3934795,-0.0152285,0.119864,-0.4259495,0.0160774999999999,-0.141946,-0.7900294999999999,-0.0153275,0.128554,-0.7955395,-0.0158165,0
182,0.0172769999999999,0.72253,0.0485695,-0.137301,0.4888599999999999,0.0354224999999999,-0.260021,0.65274,-0.0267475,0.162989,0.47931,0.0600625,0.315789,0.65457,0.0279924999999999,-0.282451,0.87053,-0.1076315,0.3389089999999999,0.86664,-0.0497885,-0.073262,0.004532,-0.0024894999999999,0.073262,-0.0045319999999999,0.0024894999999999,-0.138781,-0.39034,-0.0143495,0.116799,-0.4247999999999999,0.0139574999999999,-0.147841,-0.7874300000000001,-0.0139805,0.122969,-0.79338,-0.0137065,0
183,0.0200004999999999,0.7225335,0.0441344999999999,-0.1350935,0.4858134999999999,0.0319604999999999,-0.2668435,0.6177035000000001,-0.0257595,0.1641264999999999,0.4802435,0.0617794999999999,0.3222465,0.6235535,0.0337475,-0.2806134999999999,0.8273235,-0.1169015,0.3434165,0.8295235000000001,-0.0487795,-0.0731395,0.0045875,-0.0029195,0.0731395,-0.0045874999999999,0.0029194999999999,-0.1424435,-0.3868565,-0.0138305,0.1135364999999999,-0.4235065,0.0115474999999999,-0.1546735,-0.7846365,-0.0133375,0.1166464999999999,-0.7906664999999999,-0.0114365,0
184,0.0233939999999999,0.72348,0.0388075,-0.132791,0.48296,0.0280255,-0.270461,0.57333,-0.0232744999999999,0.164899,0.4801199999999999,0.0632745,0.3250389999999999,0.5812,0.0429705,-0.278341,0.76317,-0.1235215,0.345209,0.77868,-0.0485004999999999,-0.072969,0.0046689999999999,-0.0034765,0.072969,-0.004669,0.0034765,-0.145541,-0.38379,-0.0156195,0.1090189999999999,-0.42123,0.0096525,-0.164171,-0.78105,-0.0112514999999999,0.1070189999999999,-0.78665,-0.0080264999999999,0
185,0.0272679999999999,0.7253029999999999,0.032627,-0.130963,0.479593,0.023402,-0.269736,0.525633,-0.0201739999999999,0.165354,0.480403,0.065484,0.321774,0.536113,0.056094,-0.271976,0.6916629999999999,-0.1233339999999999,0.3430939999999999,0.726583,-0.0480439999999999,-0.072504,0.0046739999999999,-0.0042479999999999,0.072504,-0.004674,0.004248,-0.146916,-0.3812069999999999,-0.0224909999999999,0.0982939999999999,-0.420707,0.007615,-0.174266,-0.7761370000000001,-0.0106009999999999,0.094904,-0.781057,-0.0032109999999999,0
186,0.0319065,0.7274545,0.0258544999999999,-0.1287265,0.4764945,0.0183575,-0.2649424999999999,0.4757045,-0.0167775,0.1662275,0.4799145,0.0672955,0.3175175,0.4896745,0.0644735,-0.2674625,0.5980445,-0.1176715,0.3372675,0.6537345,-0.0488015,-0.0719875,0.0048015,-0.0051985,0.0719875,-0.0048015,0.0051985,-0.1445575,-0.3771355,-0.0339825,0.0914375,-0.4132555,0.0074735,-0.1769325,-0.7682455,-0.0161485,0.0818075,-0.7752555,0.0006894999999999,0
187,0.0368084999999999,0.7299525,0.0194165,-0.1262165,0.4737424999999999,0.0135155,-0.2584715,0.4255825,-0.0125264999999999,0.1664385,0.4786125,0.0686905,0.3124984999999999,0.4453525,0.0735105,-0.2641815,0.5086325,-0.1078455,0.3320984999999999,0.5751725,-0.0493555,-0.0714085,0.0048725,-0.0063425,0.0714085,-0.0048725,0.0063425,-0.1404935,-0.3698375,-0.0483055,0.0837885,-0.4116575,0.0086055,-0.1758015,-0.7609475,-0.0257535,0.0673785,-0.7679575,0.0029335,0
188,0.0413655,0.7325940000000001,0.012161,-0.1243355,0.471414,0.008259,-0.2520145,0.377084,-0.0056309999999999,0.1648254999999999,0.477124,0.069032,0.3060055,0.398754,0.0840559999999999,-0.2592845,0.4130339999999999,-0.0998049999999999,0.3228054999999999,0.4944139999999999,-0.049755,-0.0710955,0.004989,-0.007275,0.0710955,-0.004989,0.007275,-0.1325515,-0.362326,-0.069325,0.0745055,-0.404146,0.002596,-0.1655775,-0.753336,-0.042295,0.0510954999999999,-0.760446,0.007207,0
189,0.0444514999999999,0.7341005,0.0058249999999999,-0.1243084999999999,0.4692005,0.0042559999999999,-0.2449785,0.3360805,0.003184,0.1627415,0.4735105,0.068501,0.2946015,0.3617505,0.095578,-0.2533185,0.3267505,-0.098505,0.3091415,0.4204305,-0.0499449999999999,-0.0708515,0.0052785,-0.0079039999999999,0.0708515,-0.0052785,0.007904,-0.1205255,-0.3564395,-0.093165,0.0694115,-0.3981895,-0.004678,-0.1460624999999999,-0.7419895,-0.068995,0.0343015,-0.7545594999999999,0.013032,0
190,0.047339,0.7353085,-0.001298,-0.123543,0.4657584999999999,-0.001398,-0.237771,0.2977984999999999,0.015153,0.160159,0.4693684999999999,0.068712,0.278319,0.3279785,0.1058699999999999,-0.250401,0.2450685,-0.091588,0.291439,0.3452885,-0.0543879999999999,-0.070309,0.0058214999999999,-0.009048,0.070309,-0.0058215,0.009048,-0.1072509999999999,-0.3507115,-0.115088,0.0596089999999999,-0.3947215,-0.013008,-0.118754,-0.7238114999999999,-0.102038,0.0135689999999999,-0.7494314999999999,0.0233989999999999,0
191,0.0492364999999999,0.736275,-0.00694,-0.1268095,0.466145,-0.00443,-0.2275955,0.277495,0.02685,0.1577365,0.466145,0.070355,0.2628864999999999,0.301875,0.1152459999999999,-0.2491125,0.186795,-0.07844,0.2740565,0.284165,-0.0569999999999999,-0.0699665,0.005533,-0.01041,0.0699664999999999,-0.005533,0.0104099999999999,-0.0931815,-0.351355,-0.13652,0.0536064999999999,-0.392995,-0.01871,-0.0889575,-0.712895,-0.13401,-0.0079335,-0.741885,0.0368939999999999,0
192,0.0503799999999999,0.7363425,-0.0115699999999999,-0.129353,0.4662125,-0.0079099999999999,-0.217857,0.2630025,0.04031,0.1546099999999999,0.4630225,0.07065,0.24483,0.2801225,0.123666,-0.249337,0.1377125,-0.0601299999999999,0.25609,0.2295424999999999,-0.0536299999999999,-0.06977,0.0054655,-0.0113999999999999,0.06977,-0.0054655,0.0114,-0.07903,-0.3528675,-0.1565499999999999,0.0452299999999999,-0.3912075,-0.0244699999999999,-0.06187,-0.7022674999999999,-0.1601099999999999,-0.03039,-0.7331774999999999,0.05009,0
193,0.050925,0.7363425,-0.0148149999999999,-0.132397,0.4662125,-0.010035,-0.213496,0.2598425,0.050675,0.151755,0.4621425,0.070865,0.227705,0.2710325,0.1299179999999999,-0.250352,0.1067355,-0.0439549999999999,0.240455,0.1926525,-0.050275,-0.0695649999999999,0.0054655,-0.012005,0.0695649999999999,-0.0054655,0.0120049999999999,-0.065385,-0.3539075,-0.173565,0.038965,-0.3885475,-0.029935,-0.034445,-0.6910775,-0.181285,-0.0516349999999999,-0.7235675,0.067695,0
194,0.0537899999999999,0.7371525,-0.017745,-0.13377,0.4662125,-0.0119249999999999,-0.212442,0.2598425,0.0519749999999999,0.14984,0.4621425,0.069255,0.21373,0.2663625,0.133225,-0.252531,0.0847314999999999,-0.0439649999999999,0.23581,0.1541924999999999,-0.050495,-0.06935,0.0054655,-0.0132849999999999,0.06935,-0.0054655,0.0132849999999999,-0.05635,-0.3539175,-0.175715,0.0452999999999999,-0.3816675,-0.0314949999999999,-0.01288,-0.6788575,-0.189915,-0.04782,-0.7133975,0.062295,0
195,0.0565699999999999,0.7381035,-0.01977,-0.13491,0.4667135,-0.0129599999999999,-0.215863,0.2597835,0.05068,0.1479499999999999,0.4620835,0.06725,0.2023599999999999,0.2644035,0.13156,-0.252239,0.0844395,-0.04397,0.2345199999999999,0.1435735,-0.0518099999999999,-0.06928,0.0054065,-0.01427,0.06928,-0.0054065,0.01427,-0.05297,-0.3529665,-0.17248,0.0518099999999999,-0.3724365,-0.04474,0.0001999999999999,-0.6664365,-0.18923,-0.03767,-0.6983165,0.05456,0
196,0.059465,0.7379560000000001,-0.021755,-0.1359949999999999,0.467186,-0.014015,-0.2208239999999999,0.258316,0.0437549999999999,0.146135,0.4606159999999999,0.064935,0.189365,0.2627759999999999,0.126475,-0.2533359999999999,0.082852,-0.0415749999999999,0.234465,0.135016,-0.054105,-0.0693849999999999,0.005325,-0.0147649999999999,0.069385,-0.005325,0.014765,-0.051925,-0.351554,-0.165955,0.060135,-0.364464,-0.059425,0.008635,-0.654384,-0.183165,-0.0233149999999999,-0.683134,0.0459149999999999,0
197,0.0634099999999999,0.736739,-0.0226399999999999,-0.13671,0.4681889999999999,-0.0136399999999999,-0.22583,0.257479,0.03555,0.1457399999999999,0.457819,0.06314,0.18684,0.2593189999999999,0.1147099999999999,-0.255637,0.079725,-0.0405599999999999,0.2433499999999999,0.129319,-0.06261,-0.06924,0.005377,-0.0153699999999999,0.0692399999999999,-0.005377,0.0153699999999999,-0.05471,-0.349721,-0.15225,0.0707399999999999,-0.355241,-0.0665899999999999,0.0072799999999999,-0.6441509999999999,-0.16885,-0.00581,-0.670041,0.0357299999999999,0
198,0.068905,0.73481,-0.0222399999999999,-0.1348649999999999,0.46874,-0.01235,-0.2295749999999999,0.25808,0.02966,0.1472149999999999,0.45545,0.0616599999999999,0.190685,0.25532,0.10669,-0.257995,0.076017,-0.0438299999999999,0.252965,0.12539,-0.06835,-0.0692349999999999,0.005384,-0.0156899999999999,0.0692349999999999,-0.005384,0.0156899999999999,-0.0614049999999999,-0.34968,-0.13446,0.077755,-0.34751,-0.0700799999999999,-0.0031349999999999,-0.64276,-0.1420599999999999,0.014985,-0.65758,0.0245199999999999,0
199,0.07582,0.7322665,-0.02148,-0.13172,0.4689465,-0.00964,-0.23063,0.2602064999999999,0.0231399999999999,0.15004,0.4534364999999999,0.0588399999999999,0.20176,0.2508364999999999,0.0950899999999999,-0.2579599999999999,0.0727875,-0.0508,0.26833,0.1164865,-0.0719699999999999,-0.06974,0.0053145,-0.01495,0.06974,-0.0053145,0.0149499999999999,-0.069,-0.3516535,-0.11806,0.08954,-0.3452435,-0.07122,-0.0211999999999999,-0.6456135,-0.10801,0.0399399999999999,-0.6475934999999999,0.0100599999999999,0
200,0.083595,0.7292115,-0.02114,-0.1266349999999999,0.4700715,-0.00772,-0.2296449999999999,0.2632915,0.0176399999999999,0.153195,0.4512215,0.0539399999999999,0.212585,0.2496314999999999,0.0841299999999999,-0.2559049999999999,0.0742305,-0.0632099999999999,0.2841950000000001,0.1124415,-0.07566,-0.0699749999999999,0.0057355,-0.0140299999999999,0.069975,-0.0057355,0.0140299999999999,-0.0767449999999999,-0.3540685,-0.10153,0.099105,-0.3447185,-0.07388,-0.0404149999999999,-0.6498785,-0.07457,0.066945,-0.6443285000000001,-0.00735,0
201,0.09275,0.7269575,-0.02226,-0.12129,0.4721275,-0.00553,-0.2277499999999999,0.2673075,0.0140299999999999,0.15798,0.4500274999999999,0.0499599999999999,0.22469,0.2485875,0.0729199999999999,-0.25207,0.0790305,-0.07118,0.30349,0.1120975,-0.08312,-0.0701,0.0059485,-0.0133700000000001,0.0701,-0.0059485,0.0133699999999999,-0.0851,-0.3564725,-0.08578,0.11022,-0.3443925,-0.07542,-0.0569899999999999,-0.6536824999999999,-0.04568,0.09491,-0.6426124999999999,-0.02382,0
202,0.103125,0.724521,-0.025615,-0.114605,0.475401,-0.004665,-0.223815,0.271871,0.0146149999999999,0.1638849999999999,0.449161,0.0451849999999999,0.237085,0.247811,0.0611149999999999,-0.247925,0.083559,-0.070305,0.3206449999999999,0.113511,-0.093075,-0.070355,0.005866,-0.012725,0.0703549999999999,-0.005866,0.0127249999999999,-0.0949849999999999,-0.360219,-0.0702450000000001,0.1197949999999999,-0.343849,-0.076245,-0.073125,-0.6596890000000001,-0.020985,0.122525,-0.6408290000000001,-0.044295,0
203,0.1111449999999999,0.7236645,-0.0289099999999999,-0.109925,0.4767245,-0.0027599999999999,-0.220015,0.2713145,0.0236399999999999,0.1698949999999999,0.4483045,0.0408699999999999,0.2459049999999999,0.2469545,0.0513699999999999,-0.246555,0.0828875,-0.05401,0.3298649999999999,0.1126544999999999,-0.10052,-0.070935,0.0066395,-0.01105,0.0709349999999999,-0.0066395,0.01105,-0.102335,-0.3615954999999999,-0.06444,0.1184849999999999,-0.3444454999999999,-0.08065,-0.084285,-0.6621655,-0.00702,0.126255,-0.6367955,-0.04197,0
204,0.1184399999999999,0.7230935000000001,-0.0331149999999998,-0.1045899999999999,0.4776235,-0.0022449999999999,-0.21442,0.2709335,0.034505,0.17549,0.4477335,0.036725,0.25303,0.2463835,0.044485,-0.2453299999999999,0.0824755,-0.0413349999999999,0.33537,0.1120834999999999,-0.1021649999999999,-0.07143,0.0071835,-0.0094549999999999,0.07143,-0.0071835,0.0094550000000001,-0.10774,-0.3626265,-0.0594349999999999,0.11589,-0.3450165,-0.0744949999999999,-0.09469,-0.6640665,0.003905,0.12365,-0.6371064999999999,-0.0360249999999999,0
205,0.125425,0.7225965,-0.0378999999999999,-0.0988749999999999,0.4785265,-0.0021999999999999,-0.2075749999999999,0.2706465,0.04661,0.181285,0.4472365,0.0327899999999999,0.259515,0.2458865,0.03859,-0.2426649999999999,0.0821075,-0.0300799999999999,0.338065,0.1115864999999999,-0.1029099999999999,-0.0717849999999999,0.0076165,-0.0080599999999999,0.0717849999999999,-0.0076165,0.00806,-0.112255,-0.3634835,-0.05469,0.111945,-0.3454735,-0.0672499999999999,-0.1040049999999999,-0.6658035,0.0138099999999999,0.1166249999999999,-0.6374235,-0.0273499999999999,0
206,0.1315550000000001,0.7196435,-0.04278,-0.0936649999999999,0.4793834999999999,-0.00236,-0.2002649999999999,0.2704835,0.0580199999999999,0.186665,0.4459935,0.0296199999999999,0.2621150000000001,0.2442235,0.03681,-0.2396349999999999,0.0789634999999999,-0.02078,0.3307650000000001,0.1069435,-0.0965599999999999,-0.0720949999999999,0.0079075,-0.0068,0.072095,-0.0079075,0.0068,-0.1192149999999999,-0.3632665,-0.0501599999999999,0.107395,-0.3458065,-0.0596999999999999,-0.1121849999999999,-0.6660665,0.02241,0.109215,-0.6377065,-0.0186399999999999,0
207,0.1362399999999999,0.7168285,-0.048045,-0.08952,0.4803885,-0.0033149999999999,-0.19318,0.2700484999999999,0.066155,0.1904999999999999,0.4448284999999999,0.026875,0.2614499999999999,0.2427984999999999,0.036035,-0.23689,0.0746875,-0.009525,0.3235599999999999,0.0999285,-0.0903549999999999,-0.07225,0.0080725,-0.0058849999999999,0.0722499999999999,-0.0080725,0.005885,-0.1217,-0.3631715,-0.0466749999999999,0.1031199999999999,-0.3477615,-0.0536249999999999,-0.11856,-0.6660815,0.0283849999999999,0.1006699999999999,-0.6379415,-0.0106849999999999,0
208,0.1400099999999999,0.7141255,-0.05296,-0.08679,0.4812755,-0.00417,-0.18701,0.2688555,0.0727399999999999,0.19367,0.4436355,0.0247499999999999,0.2573999999999999,0.2411354999999999,0.0393399999999999,-0.23427,0.0710055,-0.00041,0.31399,0.0934754999999999,-0.08356,-0.07218,0.0083105,-0.0054199999999999,0.07218,-0.0083105,0.0054199999999999,-0.12396,-0.3631445,-0.0434499999999999,0.09899,-0.3496545,-0.048,-0.12406,-0.6667445,0.03332,0.0925899999999999,-0.6398645,-0.00375,0
209,0.149025,0.709689,-0.0661,-0.0780349999999999,0.485049,-0.00962,-0.1738049999999999,0.262649,0.0862899999999999,0.2018350000000001,0.442629,0.01483,0.265955,0.2380489999999999,0.02915,-0.2318449999999999,0.0564939999999999,0.06679,0.341165,0.090459,-0.1112199999999999,-0.0723149999999999,0.009101,-0.0038099999999999,0.072315,-0.009101,0.0038099999999999,-0.1278149999999999,-0.362811,-0.04281,0.092845,-0.352041,-0.04139,-0.1356249999999999,-0.6710809999999999,0.0400699999999999,0.075975,-0.642501,0.0064299999999999,0
