sb224sc-HT22-VT27/4dt907/src/data/labeled_files/A43_kinect.csv
FrameNo,nose_3d_x,nose_3d_y,nose_3d_z,left_shoulder_3d_x,left_shoulder_3d_y,left_shoulder_3d_z,left_elbow_3d_x,left_elbow_3d_y,left_elbow_3d_z,right_shoulder_3d_x,right_shoulder_3d_y,right_shoulder_3d_z,right_elbow_3d_x,right_elbow_3d_y,right_elbow_3d_z,left_wrist_3d_x,left_wrist_3d_y,left_wrist_3d_z,right_wrist_3d_x,right_wrist_3d_y,right_wrist_3d_z,left_hip_3d_x,left_hip_3d_y,left_hip_3d_z,right_hip_3d_x,right_hip_3d_y,right_hip_3d_z,left_knee_3d_x,left_knee_3d_y,left_knee_3d_z,right_knee_3d_x,right_knee_3d_y,right_knee_3d_z,left_ankle_3d_x,left_ankle_3d_y,left_ankle_3d_z,right_ankle_3d_x,right_ankle_3d_y,right_ankle_3d_z,activity_label
0,0.0136865,0.7530505000000001,0.0860205,-0.1426755,0.4683405,0.0481405,-0.2415155,0.4190804999999999,-0.1459724999999999,0.1480245,0.4611805,0.0490915,0.2606845,0.3932905,-0.1317325,-0.2770654999999999,0.4487704999999999,-0.3711425,0.2830045,0.4119405,-0.3568725,-0.0748425,0.0022745,0.0007074999999999,0.0748425,-0.0022745,-0.0007074999999999,-0.1298255,-0.3593695,-0.0178814999999999,0.1118045,-0.4037395,0.0064805,-0.1350755,-0.7282595,-0.0179524999999999,0.1228245,-0.7492495,-0.0268915,0
1,0.0093295,0.751914,0.0844295,-0.1445375,0.4678339999999999,0.0472005,-0.2459175,0.445874,-0.1503005,0.1432725,0.464044,0.0478245,0.2626325,0.4165439999999999,-0.1349604999999999,-0.2822274999999999,0.477694,-0.3756505,0.2849425,0.463594,-0.3714805,-0.0749695,0.001923,0.0014365,0.0749695,-0.001923,-0.0014365,-0.1278475,-0.360776,-0.0173455,0.1138825,-0.401126,0.0069995,-0.1316775,-0.7213660000000001,-0.0113474999999999,0.1272724999999999,-0.750096,-0.0259514999999999,0
2,0.008981,0.7505040000000001,0.08453,-0.1443459999999999,0.467344,0.046623,-0.2483759999999999,0.468374,-0.150279,0.140704,0.466504,0.04777,0.265494,0.434524,-0.134469,-0.281916,0.529674,-0.378079,0.283224,0.494114,-0.375249,-0.075029,0.0017889999999999,0.0013799999999999,0.075029,-0.001789,-0.0013799999999999,-0.128136,-0.3614759999999999,-0.017881,0.113694,-0.4021559999999999,0.00634,-0.132156,-0.724596,-0.014495,0.127214,-0.7513259999999999,-0.026075,0
3,0.0086555,0.7490525,0.084984,-0.1439955,0.4663225,0.0458,-0.2525355,0.4908225,-0.146388,0.1403745,0.4671325,0.047616,0.2620045,0.4679125,-0.139198,-0.2818355,0.5634125,-0.379798,0.2848444999999999,0.5419625,-0.376278,-0.0750935,0.0019255,0.0018059999999999,0.0750935,-0.0019254999999999,-0.001806,-0.1284655,-0.3626175,-0.018652,0.1135545,-0.4040075,0.0054699999999999,-0.1320755,-0.7288374999999999,-0.016662,0.1271645,-0.7527275,-0.02633,0
4,0.0087064999999999,0.7476385,0.0852475,-0.1431765,0.4676585,0.0457045,-0.2467865,0.5195285000000001,-0.1430515,0.1406135,0.4672985,0.0476575,0.2594335,0.4867785,-0.1396514999999999,-0.2852765,0.6133085,-0.3845315,0.2847735,0.5717785,-0.3780315,-0.0752075,0.0020544999999999,0.0016795,0.0752075,-0.0020545,-0.0016795,-0.1285965,-0.3634215,-0.0187045,0.1137335,-0.4053615,0.0051385,-0.1316665,-0.7305315,-0.0167065,0.1273535,-0.7541614999999999,-0.0266935,0
5,0.00868,0.7460005000000001,0.0860245,-0.141645,0.4702505,0.0454604999999999,-0.247715,0.5317405000000001,-0.1384505,0.141375,0.4673005,0.0482844999999999,0.255815,0.5099605,-0.1432305,-0.284095,0.6413905,-0.3822705,0.285305,0.6153705,-0.3776005,-0.075246,0.0024825,0.0009514999999999,0.075246,-0.0024825,-0.0009515,-0.128715,-0.3676595,-0.0177045,0.113755,-0.4073994999999999,0.0052634999999999,-0.132175,-0.7271695,-0.0150375,0.127585,-0.7559595,-0.0264435,0
6,0.008643,0.7425185000000001,0.0855625,-0.141309,0.4738985,0.0452474999999999,-0.248139,0.5804385000000001,-0.1433845,0.141521,0.4669485,0.0488535,0.255731,0.5590185,-0.1268645,-0.285269,0.7339785,-0.3870544999999999,0.278041,0.6948185,-0.3543945,-0.075165,0.0025174999999999,0.0003065,0.075165,-0.0025174999999999,-0.0003065,-0.128769,-0.3706615,-0.0180925,0.113821,-0.4106915,0.0047615,-0.131969,-0.7280814999999999,-0.0132145,0.127731,-0.7594715,-0.0263155,0
7,0.0095805,0.7391030000000001,0.0849405,-0.1405195,0.475943,0.0468925,-0.2374395,0.586803,-0.1227274999999999,0.1428404999999999,0.469683,0.0501155,0.2521405,0.579483,-0.1226575,-0.2734695,0.739383,-0.3307975,0.2768205,0.711623,-0.3288075,-0.0749954999999999,0.002724,0.0002354999999999,0.0749954999999999,-0.002724,-0.0002354999999999,-0.1277495,-0.374687,-0.0183255,0.1147705,-0.414167,0.0049235,-0.1320495,-0.738427,-0.0153394999999999,0.1281304999999999,-0.764187,-0.0262955,0
8,0.0097314999999999,0.73658,0.084865,-0.1399455,0.4783799999999999,0.047363,-0.2346855,0.60626,-0.114704,0.1430044999999999,0.47042,0.050626,0.2496045,0.6031799999999999,-0.118184,-0.2712055,0.77372,-0.313844,0.2753845,0.7493799999999999,-0.314654,-0.0750065,0.0028859999999999,6.300000000000056e-05,0.0750065,-0.0028859999999999,-6.300000000000056e-05,-0.1275355,-0.37773,-0.018398,0.1149845,-0.41675,0.004767,-0.1318355,-0.74154,-0.015496,0.1283245,-0.7673,-0.0261919999999999,0
9,0.0099945,0.734112,0.08476,-0.1392074999999999,0.480592,0.048188,-0.2312275,0.623292,-0.106154,0.1432525,0.4710519999999999,0.0513669999999999,0.2465025,0.624762,-0.1100239999999999,-0.2680875,0.806132,-0.295014,0.2731025,0.785972,-0.295944,-0.0750115,0.0030549999999999,-6.199999999999956e-05,0.0750115,-0.0030549999999999,6.199999999999956e-05,-0.1273975,-0.380798,-0.018462,0.1150525,-0.419088,0.0046479999999999,-0.1320775,-0.746248,-0.016214,0.1282225,-0.770878,-0.026067,0
10,0.010208,0.7320835,0.084723,-0.138645,0.4825035,0.049066,-0.227455,0.6393234999999999,-0.097525,0.143665,0.4716635,0.052094,0.2436249999999999,0.6449935,-0.1014749999999999,-0.264995,0.8358734999999999,-0.275355,0.270885,0.8181935,-0.275875,-0.074961,0.0031564999999999,-0.0001559999999999,0.074961,-0.0031564999999999,0.0001559999999999,-0.1272749999999999,-0.3837365,-0.0184919999999999,0.115095,-0.4212265,0.004613,-0.132355,-0.7508465,-0.016655,0.128085,-0.7742765,-0.0259019999999999,0
11,0.0103254999999999,0.7303755000000001,0.084749,-0.1381635,0.4840355,0.050026,-0.2235735,0.6531855000000001,-0.088522,0.1439465,0.4722654999999999,0.052823,0.2410565,0.6612255,-0.092362,-0.2616435,0.8585955000000001,-0.252322,0.2693465,0.8426455,-0.256522,-0.0748635,0.0032744999999999,-0.000309,0.0748635,-0.0032744999999999,0.000309,-0.1272335,-0.3863645,-0.0184279999999999,0.1150465,-0.4227945,0.004659,-0.1326435,-0.7532745,-0.015906,0.1278765,-0.7773844999999999,-0.0257279999999999,0
12,0.0103914999999999,0.7288505000000001,0.084682,-0.1375855,0.4862205,0.051042,-0.2192255,0.6662205000000001,-0.077231,0.1442044999999999,0.4731804999999999,0.053507,0.2384244999999999,0.6774705000000001,-0.084071,-0.2585855,0.8808404999999999,-0.2312709999999999,0.2675845,0.8666305000000001,-0.233561,-0.0747675,0.0033504999999999,-0.0004609999999999,0.0747675,-0.0033505,0.0004609999999999,-0.1272255,-0.3889195,-0.0183529999999999,0.1149545,-0.4240695,0.004708,-0.1330355,-0.7568895,-0.016137,0.1277145,-0.7803694999999999,-0.025672,0
13,0.010431,0.7271685,0.084475,-0.13702,0.4888385,0.052007,-0.2151499999999999,0.6771985,-0.066217,0.14432,0.4737284999999999,0.053801,0.23575,0.6882485,-0.075629,-0.25554,0.9012385,-0.209499,0.26587,0.8856585,-0.211629,-0.0746179999999999,0.0034835,-0.000543,0.0746179999999999,-0.0034835,0.000543,-0.12724,-0.3914715,-0.018289,0.11484,-0.4255515,0.004772,-0.1334999999999999,-0.7610214999999999,-0.0159969999999999,0.12741,-0.7835415,-0.025602,0
14,0.010393,0.7257035,0.084146,-0.136484,0.4899735,0.052797,-0.213134,0.6850035,-0.059986,0.144376,0.4740535,0.054195,0.234416,0.6960635,-0.068064,-0.253534,0.9114235,-0.1939989999999999,0.264086,0.9026235,-0.192569,-0.074533,0.0035595,-0.0007119999999999,0.074533,-0.0035595,0.000712,-0.1273039999999999,-0.3935964999999999,-0.018179,0.114666,-0.4266864999999999,0.004867,-0.134034,-0.7652565,-0.016315,0.127026,-0.7863165000000001,-0.02547,0
15,0.0103144999999999,0.7242915,0.083693,-0.1360475,0.4907214999999999,0.053473,-0.2111974999999999,0.6948814999999999,-0.053899,0.1443625,0.4741514999999999,0.05468,0.2331825,0.7021014999999999,-0.060614,-0.2508375,0.9217015,-0.176444,0.2623625,0.9099315,-0.174334,-0.0744905,0.0036344999999999,-0.0009109999999999,0.0744905,-0.0036344999999999,0.0009109999999999,-0.1274275,-0.3953185,-0.017972,0.1144324999999999,-0.4275685,0.005072,-0.1344775,-0.7688685000000001,-0.017017,0.1266625,-0.7886185,-0.025267,0
16,0.010494,0.7225815,0.083595,-0.135459,0.4904615,0.054125,-0.2090489999999999,0.7043615,-0.0471319999999999,0.144381,0.4732815,0.055214,0.232081,0.7071315,-0.0525879999999999,-0.247549,0.9324715,-0.1594129999999999,0.260771,0.9158015,-0.157263,-0.074534,0.0036225,-0.0009199999999999,0.074534,-0.0036225,0.00092,-0.127469,-0.3970785,-0.017796,0.114191,-0.4292785,0.005191,-0.134759,-0.7723685,-0.0175849999999999,0.126371,-0.7909185,-0.025122,0
17,0.0107099999999999,0.7207855,0.08353,-0.134916,0.4904755,0.054775,-0.207156,0.7134655,-0.040977,0.144364,0.4724355,0.055718,0.230474,0.7119154999999999,-0.044176,-0.244066,0.9435255,-0.142788,0.259614,0.9205755,-0.140468,-0.074544,0.0036465,-0.000906,0.074544,-0.0036464999999999,0.000906,-0.127566,-0.3992345,-0.017639,0.113894,-0.4310744999999999,0.005291,-0.135026,-0.7756145,-0.017935,0.126044,-0.7933745000000001,-0.025011,0
18,0.0109304999999999,0.7186465000000001,0.0833889999999999,-0.1345195,0.4906565,0.0550999999999999,-0.2048395,0.7223565000000001,-0.034111,0.1442905,0.4715065,0.056079,0.2283104999999999,0.7166165000000001,-0.037334,-0.2400095,0.9514965,-0.12555,0.2575005,0.9241965,-0.12415,-0.0745055,0.0036865,-0.000827,0.0745055,-0.0036865,0.0008269999999999,-0.1275795,-0.4015335,-0.017472,0.1138204999999999,-0.4331535,0.0053969999999999,-0.1353194999999999,-0.7794234999999999,-0.018286,0.1259405,-0.7955534999999999,-0.02513,0
19,0.0113055,0.715395,0.0833295,-0.1338675,0.4907250000000001,0.0557725,-0.2022575,0.730495,-0.0257985,0.1442824999999999,0.470495,0.0565895,0.2259525,0.719995,-0.0295795,-0.2351475,0.959105,-0.1063895,0.2555825,0.926445,-0.1064995,-0.0743365,0.0037579999999999,-0.0006835,0.0743365,-0.003758,0.0006834999999999,-0.1277075,-0.404435,-0.0174355,0.1135925,-0.435705,0.0055164999999999,-0.1356275,-0.7835449999999999,-0.0191824999999999,0.1256425,-0.798705,-0.0253785,0
20,0.011767,0.7121059999999999,0.0831085,-0.133123,0.490766,0.0564775,-0.199893,0.7352059999999999,-0.0177865,0.144287,0.470296,0.0569824999999999,0.223477,0.7216359999999999,-0.0216665,-0.2303629999999999,0.962456,-0.0896195,0.253757,0.928256,-0.0897995,-0.074144,0.003721,-0.0004845,0.074144,-0.003721,0.0004844999999999,-0.127803,-0.407224,-0.0174795,0.113417,-0.438394,0.0055524999999999,-0.135913,-0.787644,-0.0198245,0.125377,-0.801934,-0.0256685,0
21,0.0120264999999999,0.709509,0.082934,-0.1325525,0.490079,0.057291,-0.1980025,0.740129,-0.0111139999999999,0.1441075,0.469709,0.057302,0.2210875,0.723839,-0.0139369999999999,-0.2255325,0.964519,-0.073278,0.2515775,0.930049,-0.075388,-0.0739085,0.003689,-0.0003039999999999,0.0739085,-0.0036889999999999,0.0003039999999999,-0.1278825,-0.409461,-0.01752,0.1132375,-0.440701,0.005629,-0.1361825,-0.790321,-0.0195699999999999,0.1251175,-0.804771,-0.025799,0
22,0.0123894999999999,0.7070314999999999,0.082856,-0.1319695,0.4895915,0.058157,-0.1959295,0.7455815,-0.0041479999999999,0.1439705,0.4693215,0.057607,0.2182805,0.7221915,-0.0060959999999999,-0.2213895,0.9680715,-0.0572419999999999,0.2488305,0.9321215,-0.060303,-0.0736604999999999,0.0036355,-0.0001239999999999,0.0736604999999999,-0.0036355,0.0001239999999999,-0.1279195,-0.4116485,-0.0175639999999999,0.1131305,-0.4429185,0.005711,-0.1363895,-0.7934085000000001,-0.0195219999999999,0.1249005,-0.8073685,-0.0259929999999999,0
23,0.012949,0.704887,0.082818,-0.131031,0.490517,0.059323,-0.193711,0.747787,0.0025759999999999,0.143579,0.468967,0.0578,0.2153189999999999,0.720627,0.0015459999999999,-0.217521,0.970407,-0.041852,0.2461189999999999,0.931987,-0.044732,-0.073298,0.0036969999999999,7.299999999999668e-05,0.073298,-0.0036969999999999,-7.300000000000362e-05,-0.1279409999999999,-0.413913,-0.017634,0.113029,-0.445903,0.0058249999999999,-0.136541,-0.795993,-0.019356,0.124779,-0.810033,-0.026317,0
24,0.0136349999999999,0.7025095,0.0828265,-0.130065,0.4918995,0.0604335,-0.191465,0.7485295000000001,0.0095435,0.143205,0.4687995,0.0579955,0.212105,0.7192595,0.0086735,-0.213745,0.9732395,-0.0287385,0.243605,0.9344195,-0.0326375,-0.072938,0.0037394999999999,0.0002715,0.072938,-0.0037394999999999,-0.0002715,-0.127955,-0.4159705,-0.0177574999999999,0.112935,-0.4485805,0.0059135,-0.136605,-0.7986905,-0.0193305,0.124605,-0.8125605,-0.0264155,0
25,0.0144785,0.7006865,0.0826855,-0.1290685,0.4935864999999999,0.0614524999999999,-0.1894585,0.7520565,0.0165654999999999,0.1429215,0.4689964999999999,0.0581965,0.2088215,0.7161164999999999,0.0169684999999999,-0.2107585,0.9753865,-0.0147765,0.2405515,0.9371665,-0.0193675,-0.0725505,0.0038294999999999,0.0004694999999999,0.0725505,-0.0038294999999999,-0.0004695,-0.1279785,-0.4178834999999999,-0.0180285,0.1129315,-0.4505335,0.0058664999999999,-0.1366785,-0.8012835,-0.0194835,0.1244815,-0.8149535,-0.0266305,1
26,0.0154389999999999,0.6985665,0.082455,-0.1279539999999999,0.4950765,0.062583,-0.187364,0.7538665,0.0230819999999999,0.142456,0.4686464999999999,0.0582159999999999,0.204536,0.7104165,0.0243439999999999,-0.208064,0.9776465,-0.001587,0.237026,0.9395665,-0.007288,-0.072188,0.0039185,0.0007879999999999,0.072188,-0.0039184999999999,-0.000788,-0.1279539999999999,-0.4200235,-0.018468,0.112986,-0.4528235,0.0056979999999999,-0.136684,-0.8045235000000001,-0.020013,0.124466,-0.8175435,-0.027034,1
27,0.0164889999999999,0.6970545,0.0825335,-0.126802,0.4967145,0.0636945,-0.185912,0.7553945000000001,0.0287005,0.142008,0.4687145,0.0581615,0.2010779999999999,0.7048145,0.0299125,-0.206112,0.9796245,0.0096595,0.2340979999999999,0.9420245,0.0025845,-0.071854,0.0039725,0.0011795,0.071854,-0.0039724999999999,-0.0011795,-0.127932,-0.4220454999999999,-0.0189975,0.113068,-0.4547354999999999,0.0054365,-0.1366419999999999,-0.8065055,-0.0204554999999999,0.124418,-0.8199455,-0.0275025,1
28,0.017265,0.6955185,0.0825845,-0.1260379999999999,0.4976785,0.0647675,-0.185018,0.7569385000000001,0.0335645,0.141322,0.4678285,0.0580315,0.197852,0.6980985000000001,0.0341815,-0.204938,0.9811585,0.0185164999999999,0.231172,0.9436585,0.0105874999999999,-0.071643,0.0040624999999999,0.0015234999999999,0.071643,-0.0040624999999999,-0.0015235,-0.1277579999999999,-0.4233614999999999,-0.0194075,0.113312,-0.4559014999999999,0.0052644999999999,-0.136498,-0.8076715,-0.0206845,0.124652,-0.8212815,-0.0278655,1
29,0.0180425,0.694269,0.0826755,-0.1254375,0.499259,0.0655975,-0.1843975,0.759259,0.0383005,0.1405725,0.467539,0.0578105,0.1947625,0.692509,0.0382405,-0.2049775,0.983609,0.0265175,0.2286025,0.945609,0.0179995,-0.0714595,0.0041319999999999,0.0018295,0.0714595,-0.0041319999999999,-0.0018294999999999,-0.1276175,-0.4246109999999999,-0.0197554999999999,0.1135325,-0.457151,0.0050805,-0.1363975,-0.808921,-0.0208804999999999,0.1248725,-0.822531,-0.0281374999999999,1
30,0.0187775,0.6929244999999999,0.082759,-0.1248324999999999,0.5010845,0.066557,-0.1840725,0.7621845,0.041718,0.1398475,0.4674745,0.0576499999999999,0.1918975,0.6872145,0.041911,-0.2044625,0.9846745,0.0337699999999999,0.2268075,0.9480745,0.0234559999999999,-0.0712985,0.0041624999999999,0.0020989999999999,0.0712985,-0.0041624999999999,-0.002099,-0.1275025,-0.4258455,-0.020101,0.1137275,-0.4583855,0.0048799999999999,-0.1362625,-0.8101355,-0.020753,0.1250775,-0.8237655,-0.02846,1
31,0.019275,0.6921295,0.0826485,-0.1243889999999999,0.5027695,0.0675325,-0.184039,0.7646295,0.0447055,0.139131,0.4680695,0.0573775,0.190661,0.6812995,0.0449925,-0.2042089999999999,0.9853995,0.0398055,0.225771,0.9475995,0.0284345,-0.071077,0.0041174999999999,0.0023355,0.071077,-0.0041175,-0.0023354999999999,-0.127459,-0.4271105,-0.0204504999999999,0.113911,-0.4596205,0.0047705,-0.136129,-0.8106905,-0.0203795,0.125191,-0.8252105000000001,-0.0287795,1
32,0.0195885,0.6913929999999999,0.08261,-0.1243684999999999,0.5027630000000001,0.068219,-0.1842285,0.7669330000000001,0.047545,0.1386915,0.467653,0.057199,0.1881515,0.6756629999999999,0.048053,-0.2041385,0.985783,0.044968,0.2244215,0.946883,0.032613,-0.0709095,0.0040319999999999,0.002549,0.0709095,-0.004032,-0.0025489999999999,-0.1275085,-0.427927,-0.0207489999999999,0.1140015,-0.460237,0.004728,-0.1361085,-0.8112870000000001,-0.0202849999999999,0.1252515,-0.826247,-0.0290939999999999,1
33,0.0197819999999999,0.6907139999999999,0.0826995,-0.124394,0.5028239999999999,0.0688915,-0.184394,0.770344,0.0501014999999999,0.138276,0.4671339999999999,0.0571485,0.186096,0.669984,0.0507665,-0.204164,0.985714,0.0497195,0.223386,0.945214,0.0366745,-0.070748,0.0039759999999999,0.0027464999999999,0.070748,-0.003976,-0.0027464999999999,-0.127544,-0.428616,-0.0210385,0.114136,-0.460636,0.0046454999999999,-0.136014,-0.811746,-0.0203465,0.125336,-0.827176,-0.0293475,1
34,0.019762,0.6901820000000001,0.0829455,-0.124442,0.502722,0.0695365,-0.1844819999999999,0.7713220000000001,0.0512065,0.1378579999999999,0.466632,0.0571485,0.1856379999999999,0.667952,0.0516275,-0.204152,0.985372,0.0506185,0.2232179999999999,0.943972,0.0389045,-0.070614,0.0039289999999999,0.0028975,0.070614,-0.003929,-0.0028975,-0.127582,-0.429668,-0.0212785,0.114248,-0.460708,0.0045825,-0.135962,-0.812188,-0.0205354999999999,0.125408,-0.8279679999999999,-0.0295365,1
35,0.019766,0.689832,0.083286,-0.124479,0.5027320000000001,0.069923,-0.184539,0.772632,0.0522199999999999,0.137701,0.466122,0.0572229999999999,0.184811,0.666922,0.052344,-0.204559,0.984792,0.0507979999999999,0.2231209999999999,0.942892,0.040637,-0.070521,0.003875,0.0029369999999999,0.070521,-0.003875,-0.002937,-0.127579,-0.430488,-0.021515,0.114361,-0.4606479999999999,0.0046009999999999,-0.135919,-0.812288,-0.020733,0.125521,-0.828438,-0.029773,1
36,0.019738,0.68947,0.0836244999999999,-0.124544,0.5029399999999999,0.0702425,-0.184804,0.7739199999999999,0.0526385,0.137546,0.4655,0.0572895,0.1847659999999999,0.66609,0.0528855,-0.205154,0.98396,0.0506125,0.223046,0.94206,0.0416674999999999,-0.070458,0.0037869999999999,0.0028945,0.070458,-0.0037869999999999,-0.0028945,-0.1275839999999999,-0.43127,-0.0218044999999999,0.114436,-0.46055,0.0045784999999999,-0.135874,-0.81291,-0.0212895,0.125626,-0.82882,-0.0300054999999999,1
37,0.019631,0.689249,0.084035,-0.124564,0.503179,0.0703719999999999,-0.185414,0.7743089999999999,0.0525,0.137516,0.464939,0.0573879999999999,0.183806,0.666159,0.052856,-0.205094,0.982099,0.050385,0.222476,0.941499,0.041786,-0.070433,0.0037179999999999,0.0027879999999999,0.070433,-0.0037179999999999,-0.0027879999999999,-0.1275839999999999,-0.431831,-0.022054,0.114646,-0.460501,0.0045949999999999,-0.135954,-0.8129310000000001,-0.021768,0.125726,-0.8290109999999999,-0.030317,1
38,0.0194235,0.6889435,0.0844465,-0.1247834999999999,0.5033735,0.0702565,-0.1860435,0.7745135,0.0521595,0.1375065,0.4644835,0.0574505,0.1849265,0.6663835,0.0531134999999999,-0.2051134999999999,0.9816435,0.0504595,0.2231465,0.9410435,0.0415424999999999,-0.0704134999999999,0.0036665,0.0026574999999999,0.0704134999999999,-0.0036665,-0.0026575,-0.1275734999999999,-0.4322865,-0.0223465,0.1149265,-0.4604765,0.0045744999999999,-0.1360035,-0.8128165,-0.0223285,0.1257865,-0.8290665,-0.0306105,1
39,0.019168,0.6885304999999999,0.084607,-0.124943,0.5035105,0.069879,-0.186513,0.7750604999999999,0.051638,0.137337,0.4643205,0.057287,0.185177,0.6673905,0.053302,-0.205963,0.9823905,0.0499099999999999,0.2235369999999999,0.9404905,0.041139,-0.0703429999999999,0.0036864999999999,0.0025939999999999,0.0703429999999999,-0.0036864999999999,-0.0025939999999999,-0.127603,-0.4329895,-0.022833,0.115207,-0.4604895,0.0043309999999999,-0.136043,-0.8123795,-0.0225949999999999,0.125877,-0.8291495,-0.0312469999999999,1
40,0.0187329999999999,0.6880995,0.0844449999999999,-0.125127,0.5034394999999999,0.069244,-0.187237,0.7750595,0.050628,0.137083,0.4640495,0.0569,0.185213,0.6684795,0.0533219999999999,-0.207127,0.9845495,0.049126,0.223983,0.9396495,0.040521,-0.07027,0.0036904999999999,0.002522,0.07027,-0.0036904999999999,-0.002522,-0.127687,-0.4337505,-0.023487,0.115343,-0.4605005,0.0036899999999999,-0.136097,-0.8124305,-0.023322,0.1258429999999999,-0.8290705,-0.03206,1
41,0.0181414999999999,0.688006,0.0842055,-0.1252895,0.5035959999999999,0.0685975,-0.1874095,0.774846,0.0490975,0.1368805,0.4641459999999999,0.0563745,0.1853004999999999,0.669796,0.0531755,-0.2077395,0.987936,0.0481385,0.2247905,0.939936,0.0398305,-0.0702005,0.003701,0.0024185,0.0702005,-0.0037009999999999,-0.0024185,-0.1277495,-0.4342439999999999,-0.0242045,0.1154905,-0.460534,0.0029514999999999,-0.1361095,-0.812464,-0.0241534999999999,0.1258105,-0.829094,-0.0329565,1
42,0.0175114999999999,0.687878,0.083579,-0.1254745,0.5033679999999999,0.06766,-0.1874945,0.774618,0.046832,0.1366655,0.464128,0.055869,0.1854155,0.671038,0.052326,-0.2082345,0.991508,0.046279,0.2253455,0.937308,0.037734,-0.0701545,0.003715,0.0023699999999999,0.0701545,-0.0037149999999999,-0.00237,-0.1278245,-0.434592,-0.025245,0.1155954999999999,-0.460512,0.0019189999999999,-0.1360045,-0.812692,-0.025472,0.1257055,-0.829132,-0.03414,1
43,0.016502,0.688061,0.082244,-0.12586,0.5032409999999999,0.066213,-0.18775,0.774491,0.043681,0.13617,0.465541,0.055276,0.18541,0.672621,0.050683,-0.20869,0.995081,0.04174,0.22571,0.934681,0.034955,-0.070133,0.0036039999999999,0.002212,0.070133,-0.0036039999999999,-0.0022119999999999,-0.1277499999999999,-0.435329,-0.026887,0.11578,-0.460629,0.00013,-0.1359699999999999,-0.813249,-0.027762,0.12567,-0.829259,-0.0358879999999999,1
44,0.0154274999999999,0.688298,0.0807545,-0.1262355,0.503238,0.0646045,-0.1880655,0.773188,0.0403985,0.1355845,0.4667679999999999,0.0546075,0.1854144999999999,0.674288,0.0489255,-0.2087455,0.994778,0.0370565,0.2259945,0.931778,0.0319755,-0.0701135,0.003511,0.0020835,0.0701135,-0.003511,-0.0020834999999999,-0.1276855,-0.436592,-0.0287095,0.1159445,-0.460742,-0.0019004999999999,-0.1359555,-0.813612,-0.0301385,0.1256145,-0.829352,-0.0377944999999999,1
45,0.0141844999999999,0.6886755,0.078663,-0.1266545,0.5029655,0.062429,-0.1884045,0.7698054999999999,0.03655,0.1349155,0.4678655,0.053378,0.1859755,0.6749555,0.047061,-0.2093145,0.9979055,0.031538,0.2261655,0.9303055,0.027414,-0.0701425,0.0034964999999999,0.001877,0.0701425,-0.0034964999999999,-0.001877,-0.1277345,-0.4378045,-0.0311149999999999,0.1160355,-0.4607645,-0.004744,-0.1361045,-0.8141045,-0.033189,0.1254255,-0.8292744999999999,-0.040294,1
46,0.0130839999999999,0.688855,0.076164,-0.127154,0.5026250000000001,0.06002,-0.188624,0.765665,0.0322869999999999,0.134216,0.468835,0.051819,0.185606,0.6755450000000001,0.043905,-0.209884,1.000685,0.025395,0.225996,0.928885,0.02231,-0.0702319999999999,0.003452,0.001753,0.0702319999999999,-0.0034519999999999,-0.001753,-0.127634,-0.439145,-0.034002,0.1160559999999999,-0.460745,-0.008236,-0.136234,-0.8151250000000001,-0.036732,0.125296,-0.829375,-0.043259,1
47,0.0120469999999999,0.6890025000000001,0.0734944999999999,-0.12744,0.5016725000000001,0.0575974999999999,-0.18881,0.7610825,0.0279405,0.13358,0.4694225000000001,0.0501905,0.18572,0.6774825,0.0407395,-0.21022,1.0007325,0.0189685,0.22647,0.9262325,0.0169025,-0.070387,0.0034015,0.0017424999999999,0.070387,-0.0034015,-0.0017425,-0.12746,-0.4407075,-0.0372385,0.11615,-0.4607375,-0.0121205,-0.1364,-0.8160175,-0.0404855,0.12516,-0.8295075,-0.0463695,1
48,0.0112339999999999,0.6894805,0.070198,-0.127442,0.5006705,0.054691,-0.188652,0.7573405,0.02297,0.133128,0.4699105,0.048191,0.1866979999999999,0.6794305,0.037052,-0.210282,1.0010105,0.011145,0.227618,0.9250305,0.009886,-0.07067,0.0032604999999999,0.001588,0.07067,-0.0032604999999999,-0.0015879999999999,-0.127192,-0.4418295,-0.041362,0.116558,-0.4606595,-0.016956,-0.136382,-0.8170995,-0.045263,0.125168,-0.8290095,-0.050228,1
49,0.0104705,0.68969,0.066855,-0.1273294999999999,0.4987799999999999,0.051842,-0.1883895,0.75331,0.017924,0.1327205,0.4702399999999999,0.046271,0.1868205,0.68506,0.033218,-0.2102595,1.0011,0.003027,0.2286305,0.92411,0.002974,-0.0710275,0.003123,0.001459,0.0710275,-0.003123,-0.001459,-0.1269694999999999,-0.44263,-0.045765,0.1170505,-0.46073,-0.022127,-0.1363194999999999,-0.8181499999999999,-0.05021,0.1252405,-0.82851,-0.054328,1
50,0.0098999999999999,0.6893754999999999,0.063235,-0.127072,0.4957955,0.0488059999999999,-0.187982,0.7491654999999999,0.012944,0.132398,0.4707455,0.044211,0.1878379999999999,0.6900354999999999,0.028346,-0.209632,0.9977055,-0.006879,0.2297779999999999,0.9234555,-0.0039869999999999,-0.071458,0.0028605,0.001452,0.071458,-0.0028605,-0.001452,-0.126712,-0.4427545,-0.050941,0.117778,-0.4606845,-0.028321,-0.136182,-0.8190545,-0.055827,0.125378,-0.8277545000000001,-0.05867,1
51,0.009418,0.6891875000000001,0.059376,-0.126804,0.4929075,0.045325,-0.187564,0.7452375,0.007565,0.132156,0.4714975,0.041566,0.1889559999999999,0.6887175,0.021234,-0.208884,0.9945375,-0.017213,0.230296,0.9231775,-0.0125239999999999,-0.071871,0.0026505,0.001539,0.071871,-0.0026505,-0.001539,-0.126504,-0.4430125,-0.057416,0.118696,-0.4604425,-0.035679,-0.136204,-0.8199425,-0.062299,0.125506,-0.8267225,-0.06372,1
52,0.0092984999999999,0.6885410000000001,0.055859,-0.1264255,0.4894509999999999,0.042198,-0.1871355,0.741811,0.0027129999999999,0.1320445,0.472341,0.038793,0.1915045,0.691041,0.014533,-0.2083955,0.991901,-0.025012,0.2318144999999999,0.924141,-0.020673,-0.0721805,0.0023479999999999,0.00184,0.0721805,-0.002348,-0.00184,-0.1263755,-0.442679,-0.064187,0.1196445,-0.460269,-0.043117,-0.1361454999999999,-0.820569,-0.068384,0.1254745,-0.825569,-0.068488,1
53,0.0092509999999999,0.6877665,0.0521765,-0.12589,0.4862265,0.0388945,-0.1868,0.7402065,-0.0024565,0.1322199999999999,0.4722564999999999,0.0357175,0.1932499999999999,0.6894165,0.0078725,-0.20764,0.9853565,-0.0329065,0.23348,0.9244765,-0.0285665,-0.0724279999999999,0.0020434999999999,0.0020494999999999,0.0724279999999999,-0.0020435,-0.0020495,-0.12604,-0.4420935,-0.0719405,0.12067,-0.4597835,-0.0511665,-0.13591,-0.8207935000000001,-0.0746275,0.12561,-0.8239935,-0.0734725,1
54,0.009305,0.6872115000000001,0.0485015,-0.125411,0.4830515000000001,0.0356045,-0.186591,0.7400515000000001,-0.0077595,0.132549,0.4710715000000001,0.0329944999999999,0.196119,0.6925115000000001,0.0010434999999999,-0.207071,0.9800515,-0.0406465,0.235369,0.9268715,-0.0366215,-0.072616,0.0017115,0.0021895,0.072616,-0.0017114999999999,-0.0021894999999999,-0.125581,-0.4398585,-0.0806065,0.121709,-0.4583684999999999,-0.0600514999999999,-0.135661,-0.8187485,-0.0806245,0.125819,-0.8210685,-0.0786704999999999,1
55,0.0095084999999999,0.68606,0.0449755,-0.1251475,0.4793599999999999,0.0323795,-0.1862375,0.74006,-0.0129515,0.1331025,0.46881,0.0305425,0.1992924999999999,0.6953900000000001,-0.0057655,-0.2065374999999999,0.97506,-0.0481595,0.2375125,0.92949,-0.0447855,-0.0728265,0.0013969999999999,0.0022275,0.0728265,-0.001397,-0.0022275,-0.1250575,-0.43707,-0.0894275,0.1227925,-0.45626,-0.0690254999999999,-0.1354874999999999,-0.81555,-0.0863265,0.1259325,-0.81772,-0.0837455,1
56,0.009957,0.6845695,0.040909,-0.124669,0.4776094999999999,0.028636,-0.1855689999999999,0.7412995,-0.01927,0.133941,0.4677794999999999,0.027456,0.202741,0.6994095,-0.013894,-0.205729,0.9710395,-0.056462,0.240121,0.9319495,-0.053977,-0.073048,0.0011164999999999,0.0024959999999999,0.073048,-0.0011164999999999,-0.002496,-0.124289,-0.4325705,-0.09977,0.124231,-0.4529405,-0.079539,-0.1350289999999999,-0.8109105,-0.092753,0.126111,-0.8129204999999999,-0.089364,1
57,0.010479,0.6837625,0.0371419999999999,-0.124078,0.4757425,0.0256099999999999,-0.1852879999999999,0.7422125,-0.025041,0.134952,0.4662225,0.024669,0.205892,0.7047825,-0.021601,-0.204818,0.9683025,-0.063907,0.242572,0.9364525,-0.062,-0.0734259999999999,0.0009185,0.002651,0.0734259999999999,-0.0009184999999999,-0.002651,-0.1234579999999999,-0.4266474999999999,-0.109878,0.125812,-0.4481374999999999,-0.089754,-0.1344179999999999,-0.8042475,-0.098191,0.125822,-0.8067575,-0.094391,1
58,0.011006,0.6836865,0.0333875,-0.123575,0.4752065,0.0223564999999999,-0.185055,0.7435065,-0.0311395,0.136035,0.4647464999999999,0.0217215,0.2085449999999999,0.7097165,-0.0297635,-0.204005,0.9669765,-0.0716845,0.244945,0.9423465,-0.0706635,-0.073918,0.0006034999999999,0.0028105,0.073918,-0.0006034999999999,-0.0028105,-0.122705,-0.4206335,-0.1209114999999999,0.1275549999999999,-0.4413435,-0.1006394999999999,-0.1338349999999999,-0.7956935,-0.1035585,0.125685,-0.7983735,-0.0993975,1
59,0.011444,0.683248,0.0297445,-0.1232149999999999,0.476248,0.0191705,-0.185085,0.745248,-0.0375584999999999,0.136915,0.464198,0.0187995,0.211075,0.714928,-0.0375495,-0.203835,0.967928,-0.0786805,0.247025,0.949478,-0.0806785,-0.074364,0.0004219999999999,0.0029775,0.074364,-0.0004219999999999,-0.0029774999999999,-0.1221849999999999,-0.413742,-0.1320445,0.129215,-0.4336919999999999,-0.1122015,-0.133595,-0.785722,-0.1092775,0.125375,-0.7887919999999999,-0.1042855,1
60,0.0117284999999999,0.682477,0.026507,-0.1230795,0.476727,0.016416,-0.1853095,0.7462770000000001,-0.043258,0.1375904999999999,0.464117,0.0162,0.2124005,0.7211669999999999,-0.043289,-0.2038795,0.969657,-0.085031,0.2487905,0.955187,-0.089453,-0.0746195,0.000178,0.0030369999999999,0.0746195,-0.0001779999999999,-0.0030369999999999,-0.1217594999999999,-0.406543,-0.142566,0.1306705,-0.425383,-0.123511,-0.1336095,-0.7746930000000001,-0.113922,0.1247905,-0.778173,-0.108567,1
61,0.0121445,0.681941,0.0230235,-0.1224655,0.4785709999999999,0.0132014999999999,-0.1855454999999999,0.747661,-0.0490235,0.1382545,0.464891,0.0131744999999999,0.2132645,0.728071,-0.0492605,-0.2038355,0.972031,-0.0917725,0.2499945,0.955481,-0.0975925,-0.0748915,5.299999999999923e-05,0.0028745,0.0748915,-5.3000000000000096e-05,-0.0028745,-0.1211755,-0.398859,-0.1529925,0.1321945,-0.416199,-0.1344955,-0.1334755,-0.762849,-0.1186525,0.1243045,-0.767019,-0.1129225,1
62,0.012324,0.6813859999999999,0.0195135,-0.1224319999999999,0.479776,0.0098065,-0.1855419999999999,0.748486,-0.0547505,0.138798,0.465966,0.0100524999999999,0.214078,0.732316,-0.0552415,-0.204722,0.975646,-0.0987755,0.251018,0.956346,-0.1056334999999999,-0.075196,-0.000107,0.0028585,0.075196,0.0001069999999999,-0.0028585,-0.120682,-0.390694,-0.1629345,0.133598,-0.406384,-0.1453145,-0.133452,-0.7505040000000001,-0.1233495,0.1240479999999999,-0.755254,-0.1171204999999999,1
63,0.0123809999999999,0.6803950000000001,0.016588,-0.122614,0.481975,0.0071239999999999,-0.185954,0.749565,-0.060096,0.139026,0.468005,0.0073659999999999,0.214746,0.733565,-0.060808,-0.205734,0.977255,-0.105766,0.252106,0.955455,-0.113146,-0.075516,-0.000168,0.0028949999999999,0.075516,0.000168,-0.002895,-0.120294,-0.384105,-0.171918,0.134836,-0.397035,-0.155028,-0.133644,-0.7389049999999999,-0.127773,0.1235359999999999,-0.7448049999999999,-0.120657,1
64,0.01214,0.6803595,0.0136739999999999,-0.1229919999999999,0.4848595,0.004504,-0.186112,0.7518395,-0.065366,0.139158,0.4665595,0.004782,0.215008,0.7318095,-0.066477,-0.206732,0.9796395,-0.112741,0.2535779999999999,0.9540595,-0.1203579999999999,-0.075809,-4.500000000001031e-06,0.0028229999999999,0.075809,4.4999999999975615e-06,-0.0028229999999999,-0.1200219999999999,-0.3766105,-0.180728,0.135888,-0.3866005,-0.164508,-0.133972,-0.7261704999999999,-0.132567,0.123108,-0.7331305,-0.124079,1
65,0.0117589999999999,0.680978,0.0113414999999999,-0.1234869999999999,0.483428,0.0025314999999999,-0.186937,0.750268,-0.0695915,0.139203,0.465298,0.0024645,0.215193,0.730218,-0.0708025,-0.207877,0.983398,-0.1188165,0.2548629999999999,0.951438,-0.1264414999999999,-0.0760909999999999,6.800000000000556e-05,0.0023485,0.0760909999999999,-6.799999999999862e-05,-0.0023484999999999,-0.1199669999999999,-0.369812,-0.1885015,0.136683,-0.375982,-0.1727314999999999,-0.1344769999999999,-0.712902,-0.1368035,0.122893,-0.720742,-0.1274155,1
66,0.0114739999999999,0.6800265000000001,0.00859,-0.123596,0.4837965,0.000599,-0.186786,0.7503665,-0.0741459999999999,0.139544,0.4652865,2.4000000000003185e-05,0.215584,0.7296465000000001,-0.073905,-0.208626,0.9795765,-0.12516,0.256224,0.9489265,-0.133322,-0.076196,2.0499999999999685e-05,0.002156,0.076196,-2.0499999999999685e-05,-0.0021559999999999,-0.119746,-0.3568635,-0.1963809999999999,0.137744,-0.3630335,-0.181431,-0.134236,-0.6987534999999999,-0.140741,0.122804,-0.7077935,-0.129686,1
67,0.011135,0.6793155,0.005781,-0.123334,0.4825555,-0.001778,-0.1864239999999999,0.7491155,-0.077484,0.139856,0.4646455,-0.00277,0.215886,0.7287455,-0.076412,-0.209204,0.9760455,-0.13089,0.257136,0.9465155,-0.1389389999999999,-0.076274,6.749999999999812e-05,0.0019909999999999,0.076274,-6.749999999999812e-05,-0.0019909999999999,-0.119534,-0.3441945,-0.203227,0.138836,-0.3500545,-0.189637,-0.133904,-0.6846445,-0.144262,0.122646,-0.6948145,-0.131625,1
68,0.0109585,0.6806654999999999,-0.000933,-0.1230315,0.4823155,-0.00827,-0.1858314999999999,0.7485854999999999,-0.084978,0.1401585,0.4649855,-0.00903,0.2159384999999999,0.7289755,-0.083255,-0.2092014999999999,0.9792255,-0.139792,0.2580584999999999,0.9401455,-0.146862,-0.0765145,0.0002634999999999,0.0013689999999999,0.0765145,-0.0002634999999999,-0.001369,-0.1190215,-0.3312345,-0.213584,0.1401685,-0.3360145,-0.200504,-0.1334115,-0.6695644999999999,-0.150465,0.1226985,-0.6807745000000001,-0.13726,1
69,0.010721,0.683619,-0.0083864999999999,-0.12249,0.482689,-0.0159964999999999,-0.18517,0.7483690000000001,-0.0931835,0.14062,0.467859,-0.0167324999999999,0.21637,0.7235590000000001,-0.0909835,-0.20891,0.984399,-0.1494625,0.25888,0.936889,-0.1562915,-0.076547,-3.799999999999637e-05,0.0006715,0.076547,3.800000000001025e-05,-0.0006714999999999,-0.1180199999999999,-0.316281,-0.2271595,0.1420799999999999,-0.318791,-0.2135795,-0.1326,-0.6525209999999999,-0.1575925,0.12309,-0.663931,-0.1439125,1
70,0.0105275,0.68714,-0.01596,-0.1219784999999999,0.4833199999999999,-0.024307,-0.1847285,0.74359,-0.102326,0.1408215,0.4708099999999999,-0.02488,0.2162815,0.7185,-0.09959,-0.2086385,0.98176,-0.159991,0.2590314999999999,0.93985,-0.166263,-0.0765125,2.0000000000006124e-05,-1.4000000000000123e-05,0.0765125,-2.0000000000006124e-05,1.4000000000000123e-05,-0.1169984999999999,-0.30078,-0.24098,0.1440915,-0.30081,-0.22707,-0.1318185,-0.63433,-0.164979,0.1232715,-0.64561,-0.150735,1
71,0.0101354999999999,0.689905,-0.0234015,-0.1216865,0.483985,-0.0327094999999999,-0.1843865,0.7402150000000001,-0.1111965,0.1401735,0.474395,-0.0332485,0.2157635,0.713465,-0.1080255,-0.2084765,0.980205,-0.1702825,0.2596835,0.943085,-0.1759095,-0.0766475,-6.50000000000095e-05,-0.0007204999999999,0.0766475,6.499999999998174e-05,0.0007204999999999,-0.1159965,-0.284245,-0.2548694999999999,0.1457835,-0.281145,-0.2408195,-0.1307865,-0.6156349999999999,-0.1725795,0.1233134999999999,-0.626115,-0.1573995,1
72,0.0094155,0.6926950000000001,-0.03103,-0.1214375,0.483845,-0.041147,-0.1841675,0.738885,-0.120125,0.1393725,0.475815,-0.041981,0.2157825,0.706895,-0.116392,-0.2083075,0.979675,-0.181021,0.2599925,0.943515,-0.184142,-0.0767714999999999,-9.4999999999984e-05,-0.001196,0.0767714999999999,9.500000000001174e-05,0.001196,-0.1150074999999999,-0.265995,-0.268592,0.1474725,-0.2612449999999999,-0.254952,-0.1295875,-0.5953949999999999,-0.180273,0.1238425,-0.604805,-0.164343,1
73,0.0089795,0.69312,-0.0396135,-0.1208905,0.48045,-0.0504285,-0.1835505,0.73443,-0.1298115,0.1388495,0.4789099999999999,-0.0511375,0.2162295,0.7078099999999999,-0.1250395,-0.2079005,0.97718,-0.1924195,0.2608695,0.9468,-0.1949795,-0.0770795,-0.0004899999999999,-0.0016325,0.0770795,0.0004899999999999,0.0016324999999999,-0.1137604999999999,-0.24487,-0.2834295,0.1495495,-0.23881,-0.2699795,-0.1281605,-0.57255,-0.1870685,0.1247295,-0.58068,-0.1713335,1
74,0.008817,0.69416,-0.0483884999999999,-0.1201229999999999,0.48075,-0.0594494999999999,-0.182743,0.73309,-0.1394715,0.138397,0.48109,-0.0603384999999999,0.216627,0.70844,-0.1345825,-0.208393,0.97094,-0.2051515,0.2621969999999999,0.9522,-0.2073015,-0.077399,-0.00073,-0.0019845,0.077399,0.00073,0.0019845,-0.112563,-0.22414,-0.2977315,0.151637,-0.21676,-0.2847815,-0.126363,-0.55009,-0.1946485,0.125787,-0.55684,-0.1786295,1
75,0.0086245,0.69536,-0.0568455,-0.1194775,0.47985,-0.0684675,-0.1818675,0.72824,-0.1492975,0.1378225,0.4819299999999999,-0.0696905,0.2166825,0.70799,-0.1456285,-0.2088375,0.97241,-0.2171905,0.2632825,0.95755,-0.2191805,-0.0778895,-0.00091,-0.0024694999999999,0.0778895,0.0009099999999999,0.0024694999999999,-0.1115675,-0.20325,-0.3117805,0.1533925,-0.19487,-0.2988605,-0.1243975,-0.5276799999999999,-0.2021905,0.1265325,-0.53345,-0.1859505,1
76,0.0083644999999999,0.69537,-0.065293,-0.1187115,0.4798,-0.077246,-0.1809615,0.72466,-0.158656,0.1372185,0.48416,-0.078679,0.2168485,0.70905,-0.155913,-0.2091414999999999,0.97283,-0.229675,0.2645185,0.96218,-0.230405,-0.0782765,-0.00117,-0.002965,0.0782765,0.00117,0.0029649999999999,-0.1104015,-0.18325,-0.325715,0.1548184999999999,-0.17381,-0.312515,-0.1222615,-0.5076,-0.209465,0.1271685,-0.5112300000000001,-0.193113,1
77,0.0079814999999999,0.694075,-0.0701429999999999,-0.1181905,0.479025,-0.0819889999999999,-0.1808905,0.7206049999999999,-0.164579,0.1364395,0.4840649999999999,-0.0839449999999999,0.2166395,0.708425,-0.162418,-0.2095105,0.967935,-0.238155,0.2654595,0.970305,-0.237905,-0.0787025,-0.0013549999999999,-0.0031149999999999,0.0787025,0.0013549999999999,0.003115,-0.1092905,-0.163265,-0.335435,0.1559195,-0.153905,-0.322105,-0.1203605,-0.489105,-0.212775,0.1272395,-0.490395,-0.195907,1
78,0.0080765,0.690295,-0.074437,-0.1177225,0.475465,-0.086371,-0.1803925,0.717625,-0.170394,0.1360175,0.480765,-0.08865,0.2162675,0.7129749999999999,-0.167597,-0.2100725,0.963015,-0.24585,0.2664775,0.975335,-0.24428,-0.0790245,-0.001225,-0.00315,0.0790245,0.0012249999999999,0.00315,-0.1081324999999999,-0.143005,-0.34164,0.1570475,-0.133855,-0.32887,-0.1188524999999999,-0.471655,-0.21483,0.1274575,-0.469805,-0.197811,1
79,0.0081195,0.68586,-0.078856,-0.1173394999999999,0.47163,-0.090242,-0.1803295,0.71634,-0.175644,0.1357605,0.47774,-0.092878,0.2158705,0.70935,-0.173038,-0.2107295,0.95851,-0.253145,0.2667905,0.97016,-0.249325,-0.0793205,-0.0015399999999999,-0.003025,0.0793205,0.00154,0.003025,-0.1071095,-0.1233499999999999,-0.346985,0.1580405,-0.1138799999999999,-0.334705,-0.1176794999999999,-0.45482,-0.216565,0.1275005,-0.44975,-0.200447,1
80,0.008057,0.6811849999999999,-0.08366,-0.11708,0.4678749999999999,-0.094527,-0.17994,0.7151449999999999,-0.181062,0.1357,0.473145,-0.0976269999999999,0.2156,0.707165,-0.177926,-0.2105,0.954205,-0.260385,0.26701,0.967115,-0.256485,-0.079592,-0.001555,-0.002975,0.079592,0.0015549999999999,0.002975,-0.10623,-0.103345,-0.352065,0.1589499999999999,-0.093655,-0.339855,-0.1170399999999999,-0.437695,-0.218085,0.12751,-0.429695,-0.202969,1
81,0.0077254999999999,0.676835,-0.088343,-0.1168415,0.4646949999999999,-0.098853,-0.1798015,0.712445,-0.187212,0.1357285,0.4707049999999999,-0.102085,0.2157684999999999,0.706655,-0.184275,-0.2106215,0.949705,-0.26707,0.2672285,0.966945,-0.26385,-0.0798585,-0.001595,-0.0031199999999999,0.0798585,0.0015949999999999,0.0031199999999999,-0.1052815,-0.088605,-0.35689,0.1592584999999999,-0.078275,-0.3442199999999999,-0.1158614999999999,-0.421315,-0.21873,0.1278484999999999,-0.411275,-0.206809,1
82,0.007206,0.6746099999999999,-0.091922,-0.116835,0.46463,-0.1021519999999999,-0.179685,0.71089,-0.192471,0.135575,0.47075,-0.105699,0.216755,0.69982,-0.188713,-0.210785,0.94643,-0.27376,0.267665,0.96255,-0.27012,-0.080072,-0.00158,-0.0032299999999999,0.080072,0.0015799999999999,0.0032299999999999,-0.104625,-0.0757999999999999,-0.35994,0.159095,-0.0653099999999999,-0.3471,-0.114775,-0.40807,-0.21953,0.128255,-0.39636,-0.210602,1
83,0.006576,0.67059,-0.095111,-0.1169109999999999,0.4643359999999999,-0.104936,-0.179511,0.7075499999999999,-0.1971689999999999,0.135479,0.470589,-0.108802,0.217219,0.69344,-0.192066,-0.210501,0.94411,-0.278665,0.268049,0.95865,-0.273995,-0.080317,-0.00159,-0.003265,0.080317,0.0015899999999999,0.0032649999999999,-0.104021,-0.06204,-0.362515,0.158749,-0.05155,-0.349315,-0.114181,-0.39319,-0.221885,0.128249,-0.38243,-0.211927,1
84,0.0058449999999999,0.6675150000000001,-0.097731,-0.117244,0.463444,-0.107265,-0.179574,0.7079150000000001,-0.201193,0.135146,0.470197,-0.111191,0.218546,0.690025,-0.193735,-0.209884,0.942335,-0.28463,0.269136,0.955025,-0.27782,-0.080623,-0.001585,-0.00329,0.080623,0.001585,0.0032899999999999,-0.103644,-0.0479649999999999,-0.36412,0.1578959999999999,-0.036665,-0.35069,-0.113784,-0.379775,-0.22374,0.127896,-0.3691149999999999,-0.211946,1
85,0.005056,0.664875,-0.100219,-0.117745,0.462409,-0.109222,-0.179895,0.7075549999999999,-0.205335,0.134665,0.469375,-0.113517,0.218915,0.685075,-0.197155,-0.209465,0.940095,-0.28984,0.270295,0.949035,-0.28271,-0.0808339999999999,-0.001475,-0.0033,0.0808339999999999,0.001475,0.0032999999999999,-0.1035349999999999,-0.0344149999999999,-0.3658,0.156645,-0.0220449999999999,-0.3520999999999999,-0.114555,-0.366215,-0.22616,0.125425,-0.3587349999999999,-0.212863,1
86,0.0044504999999999,0.662455,-0.102625,-0.1181445,0.460982,-0.1111419999999999,-0.1796145,0.7066749999999999,-0.209416,0.1343155,0.4690959999999999,-0.115605,0.2189855,0.6798949999999999,-0.20048,-0.2087445,0.939725,-0.29499,0.2708155,0.942245,-0.2882099999999999,-0.0809215,-0.001395,-0.0033099999999999,0.0809215,0.0013949999999999,0.00331,-0.1036045,-0.021475,-0.36754,0.1554055,-0.008165,-0.35357,-0.1161545,-0.354025,-0.22979,0.1225054999999999,-0.349105,-0.213588,1
87,0.0037854999999999,0.660935,-0.104295,-0.1185205,0.461678,-0.112132,-0.1796404999999999,0.7041550000000001,-0.212392,0.1338194999999999,0.47034,-0.116934,0.2183695,0.678085,-0.201885,-0.2077005,0.937765,-0.299615,0.2708494999999999,0.938665,-0.292435,-0.0809035,-0.001255,-0.003295,0.0809035,0.001255,0.0032949999999999,-0.1041505,-0.0079049999999999,-0.368535,0.1539295,0.0060049999999999,-0.354215,-0.1179404999999999,-0.341835,-0.232625,0.1190595,-0.3388449999999999,-0.213494,1
88,0.00289,0.65932,-0.104659,-0.118926,0.462079,-0.112383,-0.179776,0.70543,-0.214091,0.133284,0.470192,-0.1177609999999999,0.217774,0.68466,-0.201631,-0.2064659999999999,0.94092,-0.3026149999999999,0.270344,0.94586,-0.293685,-0.080867,-0.001,-0.003345,0.080867,0.001,0.003345,-0.1048659999999999,0.0061599999999999,-0.368545,0.152654,0.0200699999999999,-0.3537949999999999,-0.119926,-0.32968,-0.235345,0.116624,-0.32711,-0.2128,1
89,0.0021444999999999,0.658395,-0.1044629999999999,-0.1191995,0.462929,-0.1118789999999999,-0.1799195,0.701715,-0.2151799999999999,0.1331905,0.4717479999999999,-0.1175799999999999,0.2174005,0.691365,-0.20148,-0.2054395,0.942745,-0.3054599999999999,0.2698905,0.950395,-0.29456,-0.0808355,-0.000885,-0.0033899999999999,0.0808355,0.0008849999999999,0.00339,-0.1055395,0.0189149999999999,-0.36792,0.1515004999999999,0.0328249999999999,-0.35294,-0.1216294999999999,-0.318645,-0.23807,0.1165105,-0.314355,-0.2111299999999999,1
90,0.0016779999999999,0.6577500000000001,-0.103792,-0.119665,0.463108,-0.1108219999999999,-0.180135,0.69851,-0.2155999999999999,0.133185,0.472992,-0.116849,0.217245,0.6897800000000001,-0.200532,-0.204225,0.94428,-0.30748,0.269965,0.94878,-0.29486,-0.08073,-0.00089,-0.0034099999999999,0.08073,0.00089,0.00341,-0.106055,0.03147,-0.3665899999999999,0.150555,0.0459499999999999,-0.3513,-0.123665,-0.3077399999999999,-0.24095,0.1139419999999999,-0.30294,-0.208811,1
91,0.0014874999999999,0.6566799999999999,-0.103049,-0.1200735,0.463366,-0.109637,-0.1802734999999999,0.69712,-0.215255,0.1331065,0.4737539999999999,-0.115625,0.2177965,0.6899,-0.199989,-0.2030934999999999,0.94302,-0.307705,0.2703565,0.94454,-0.295315,-0.0806225,-0.0007199999999999,-0.0034949999999999,0.0806225,0.0007199999999999,0.0034949999999999,-0.1065835,0.0433399999999999,-0.364875,0.1495165,0.0593699999999999,-0.349615,-0.1262635,-0.29711,-0.245595,0.1133375,-0.29108,-0.2046879999999999,1
92,0.001405,0.65635,-0.102099,-0.1205199999999999,0.463327,-0.108476,-0.1805,0.69737,-0.214745,0.1330299999999999,0.473859,-0.114073,0.21848,0.6883699999999999,-0.199241,-0.20231,0.94287,-0.308435,0.27089,0.93885,-0.296115,-0.080456,-0.00058,-0.0036049999999999,0.080456,0.0005799999999999,0.0036049999999999,-0.10692,0.0543299999999999,-0.363195,0.14894,0.0715699999999999,-0.347855,-0.12887,-0.2880899999999999,-0.250145,0.112845,-0.28437,-0.20309,1
93,0.0012359999999999,0.6556299999999999,-0.100882,-0.120985,0.463669,-0.107229,-0.180705,0.6964699999999999,-0.213855,0.132815,0.4747139999999999,-0.112244,0.219115,0.6853499999999999,-0.198262,-0.201955,0.93672,-0.307585,0.271395,0.9318,-0.296285,-0.080372,-0.00056,-0.003665,0.080372,0.00056,0.0036649999999999,-0.107315,0.0645699999999999,-0.361365,0.1486449999999999,0.0829699999999999,-0.346015,-0.131535,-0.2796,-0.254345,0.112187,-0.27953,-0.201568,1
94,0.0012969999999999,0.6542049999999999,-0.099716,-0.121248,0.4650239999999999,-0.106031,-0.180798,0.6945349999999999,-0.21273,0.133282,0.4749799999999999,-0.110446,0.219982,0.6826049999999999,-0.19648,-0.201918,0.934315,-0.30623,0.272302,0.927865,-0.29548,-0.080133,-0.000225,-0.0036899999999999,0.080133,0.0002249999999999,0.0036899999999999,-0.107418,0.0772749999999999,-0.35919,0.148552,0.0967249999999999,-0.34282,-0.132918,-0.268835,-0.25793,0.1121829999999999,-0.271895,-0.2019989999999999,1
95,0.001958,0.65256,-0.098307,-0.121442,0.465559,-0.104896,-0.180922,0.6922,-0.211313,0.133808,0.475756,-0.108693,0.220938,0.6804,-0.194823,-0.202222,0.93366,-0.305583,0.274158,0.92581,-0.294533,-0.079907,-0.00026,-0.003847,0.079907,0.00026,0.003847,-0.107682,0.09172,-0.356143,0.148388,0.11158,-0.338453,-0.133762,-0.25588,-0.258063,0.1119999999999999,-0.2585699999999999,-0.195759,1
96,0.0027925,0.651175,-0.097461,-0.1215455,0.4668179999999999,-0.104142,-0.1809155,0.690325,-0.210332,0.1343045,0.475298,-0.107618,0.2219345,0.6757949999999999,-0.193772,-0.2020055,0.927965,-0.305472,0.2760545,0.921055,-0.293732,-0.0797335,-9.500000000006724e-05,-0.004018,0.0797335,9.499999999995624e-05,0.0040179999999999,-0.1079055,0.1029549999999999,-0.353592,0.1483445,0.1226549999999999,-0.334592,-0.1345055,-0.246485,-0.260742,0.1124165,-0.243995,-0.190197,1
97,0.0036959999999999,0.650172,-0.0970365,-0.121581,0.4673559999999999,-0.1037565,-0.180761,0.6868299999999999,-0.2099085,0.134849,0.4751299999999999,-0.1071135,0.2225789999999999,0.6687799999999999,-0.1918415,-0.202341,0.92551,-0.3060085,0.278109,0.91487,-0.2934585,-0.079564,3.999999999992898e-05,-0.0041715,0.079564,-4.000000000004e-05,0.0041714999999999,-0.108031,0.1123899999999999,-0.3514085,0.148389,0.1323799999999999,-0.3310385,-0.135151,-0.23847,-0.2639185,0.1153889999999999,-0.2278,-0.1833275,1
98,0.0047075,0.649837,-0.0964805,-0.1216385,0.467788,-0.1032775,-0.1803985,0.6872550000000001,-0.2090495,0.1354515,0.474925,-0.1065105,0.2231515,0.6618550000000001,-0.1895835,-0.2025585,0.922345,-0.3066195,0.2804115,0.909815,-0.2922595,-0.0791855,0.000205,-0.0043605,0.0791855,-0.000205,0.0043605,-0.1078585,0.121945,-0.3488894999999999,0.1485515,0.142025,-0.3269295,-0.1360985,-0.2301849999999999,-0.2660095,0.1188215,-0.2118149999999999,-0.1805824999999999,1
99,0.0057989999999999,0.649228,-0.0961335,-0.121395,0.468513,-0.1029935,-0.179925,0.686445,-0.2079234999999999,0.136195,0.474544,-0.1059465,0.223735,0.662814,-0.1890015,-0.202575,0.918405,-0.3070235,0.282935,0.910445,-0.2912035,-0.078898,0.0004049999999999,-0.0044865,0.078898,-0.0004049999999999,0.0044865,-0.1071449999999999,0.130235,-0.3463235,0.149145,0.150365,-0.3228735,-0.136685,-0.223125,-0.2679335,0.1219049999999999,-0.198705,-0.1777794999999999,1
100,0.0073139999999999,0.6487700000000001,-0.095763,-0.121043,0.469275,-0.102653,-0.179323,0.684725,-0.207057,0.1371069999999999,0.474179,-0.104849,0.2248669999999999,0.663844,-0.188414,-0.203433,0.917125,-0.307157,0.285247,0.915745,-0.290047,-0.078752,0.0005749999999999,-0.004593,0.078752,-0.0005749999999999,0.004593,-0.106203,0.138145,-0.343787,0.150027,0.157995,-0.318467,-0.136473,-0.2164849999999999,-0.267667,0.124527,-0.186465,-0.1740769999999999,1
101,0.0088245,0.6481539999999999,-0.0948585,-0.1208954999999999,0.4692449999999999,-0.1018905,-0.1789355,0.6824349999999999,-0.2065115,0.1377945,0.4742949999999999,-0.1034505,0.2260845,0.6656209999999999,-0.1878815,-0.2043255,0.916185,-0.3070915,0.2872944999999999,0.921195,-0.2888415,-0.0785805,0.0007049999999999,-0.0046984999999999,0.0785805,-0.000705,0.0046984999999999,-0.1054254999999999,0.1459149999999999,-0.3409315,0.1510345,0.1655049999999999,-0.3137715,-0.1362455,-0.209205,-0.2675915,0.1268645,-0.1736850000000001,-0.1704795,1
102,0.0103029999999999,0.647435,-0.0936169999999999,-0.1207709999999999,0.46876,-0.1012199999999999,-0.178621,0.678744,-0.205313,0.1383889999999999,0.47421,-0.101865,0.227439,0.667435,-0.187242,-0.205521,0.91808,-0.306963,0.289619,0.92661,-0.288053,-0.078436,0.00085,-0.0049669999999999,0.078436,-0.00085,0.0049669999999999,-0.104681,0.15305,-0.338303,0.152149,0.17248,-0.309423,-0.135851,-0.2023399999999999,-0.267713,0.1277889999999999,-0.16105,-0.167435,1
103,0.011351,0.647545,-0.092204,-0.1208699999999999,0.46781,-0.100548,-0.17851,0.676784,-0.203751,0.13871,0.47463,-0.100432,0.2283599999999999,0.6689970000000001,-0.186617,-0.20697,0.91931,-0.306611,0.29139,0.92989,-0.287751,-0.078398,0.0006899999999999,-0.005179,0.078398,-0.0006899999999999,0.005179,-0.10411,0.1578999999999999,-0.336391,0.15336,0.17718,-0.306531,-0.1356,-0.19776,-0.267621,0.12819,-0.15188,-0.163978,1
104,0.0118635,0.6478489999999999,-0.09086,-0.1210085,0.467255,-0.099856,-0.1784585,0.6750109999999999,-0.202287,0.1389715,0.4747249999999999,-0.099279,0.2287615,0.6705629999999999,-0.186005,-0.2084385,0.920395,-0.306197,0.2921815,0.931635,-0.287557,-0.0784185,0.0006749999999999,-0.0053129999999999,0.0784185,-0.000675,0.0053129999999999,-0.1034185,0.1608149999999999,-0.335247,0.1542215,0.1797549999999999,-0.304997,-0.1354185,-0.195045,-0.267407,0.1280015,-0.1497750000000001,-0.163507,1
105,0.0120565,0.6480110000000001,-0.0895445,-0.1213704999999999,0.46642,-0.0991485,-0.1786505,0.673502,-0.2008765,0.1389995,0.4749300000000001,-0.0982005,0.2288395,0.6719040000000001,-0.1854115,-0.2101805,0.92132,-0.3061865,0.2924295,0.93306,-0.2869665,-0.0784365,0.00064,-0.0054535,0.0784365,-0.0006399999999999,0.0054535,-0.1027905,0.16287,-0.3342565,0.1548295,0.18181,-0.3038265,-0.1353205,-0.1932799999999999,-0.2672664999999999,0.1288895,-0.1445399999999999,-0.1634865,1
106,0.0122409999999999,0.648183,-0.0882085,-0.121786,0.46579,-0.0983525,-0.178886,0.672181,-0.1994854999999999,0.138784,0.4753,-0.0971465,0.228894,0.673281,-0.1847815,-0.210836,0.92243,-0.3061035,0.292464,0.93448,-0.2860735,-0.078449,0.0005899999999999,-0.0055864999999999,0.078449,-0.0005899999999999,0.0055864999999999,-0.102256,0.1649399999999999,-0.3333534999999999,0.155404,0.1834599999999999,-0.3027935,-0.135226,-0.19161,-0.2671234999999999,0.128684,-0.14842,-0.1641405,1
107,0.0122774999999999,0.648086,-0.086955,-0.1221935,0.465055,-0.097616,-0.1792234999999999,0.670613,-0.198139,0.1385765,0.475545,-0.096128,0.2288664999999999,0.674317,-0.184182,-0.2116334999999999,0.923435,-0.305818,0.2923965,0.935515,-0.285048,-0.0784585,0.0005249999999999,-0.005592,0.0784585,-0.0005249999999999,0.005592,-0.1019335,0.1657549999999999,-0.332548,0.1559165,0.184085,-0.301968,-0.1352135,-0.190925,-0.267068,0.1285565,-0.1472649999999999,-0.163781,1
108,0.0123535,0.6487379999999999,-0.085714,-0.1225884999999999,0.4652449999999999,-0.096968,-0.1795685,0.669157,-0.196717,0.1383815,0.4757049999999999,-0.095102,0.2288415,0.6753,-0.18338,-0.2125185,0.924235,-0.305137,0.2923415,0.936645,-0.283807,-0.0784885,0.0004349999999999,-0.0056329999999999,0.0784885,-0.000435,0.0056329999999999,-0.1013985,0.1671149999999999,-0.331817,0.1564115,0.1850149999999999,-0.301177,-0.1350185,-0.189545,-0.267157,0.1291815,-0.140355,-0.162547,1
109,0.0125049999999999,0.64981,-0.0848465,-0.1229239999999999,0.4653299999999999,-0.0964765,-0.179964,0.668025,-0.1954925,0.138266,0.4756299999999999,-0.0942585,0.2287259999999999,0.6757899999999999,-0.1826205,-0.213284,0.92462,-0.3050205,0.292296,0.93725,-0.2826505,-0.078554,0.0003499999999999,-0.0056795,0.078554,-0.00035,0.0056795,-0.100814,0.1678499999999999,-0.3314205,0.156806,0.1852499999999999,-0.3009405,-0.134794,-0.18867,-0.2674405,0.129626,-0.1386400000000001,-0.1614715,1
110,0.0122945,0.6503050000000001,-0.0845389999999999,-0.1233615,0.465825,-0.0963739999999999,-0.1805615,0.6675200000000001,-0.194763,0.1379685,0.4751350000000001,-0.093829,0.2283085,0.6755720000000001,-0.181929,-0.2143515,0.924195,-0.30403,0.2917085,0.937205,-0.2817,-0.0786605,0.000295,-0.0057299999999999,0.0786605,-0.0002949999999999,0.00573,-0.1004015,0.168125,-0.33125,0.1567385,0.1851850000000001,-0.30081,-0.1344515,-0.1881949999999999,-0.26778,0.1291785,-0.1387849999999999,-0.161198,1
111,0.012084,0.6503050000000001,-0.084306,-0.123757,0.465825,-0.096215,-0.181057,0.6675200000000001,-0.194497,0.137753,0.4745950000000001,-0.093658,0.227843,0.6755720000000001,-0.181402,-0.215087,0.923445,-0.303338,0.290983,0.937035,-0.281058,-0.078765,0.000295,-0.005732,0.078765,-0.0002949999999999,0.005732,-0.100197,0.167825,-0.331048,0.156563,0.184545,-0.300638,-0.134127,-0.1882349999999999,-0.267528,0.128343,-0.1398149999999999,-0.161529,1
112,0.011879,0.6503050000000001,-0.0840795,-0.124098,0.465825,-0.0960515,-0.181608,0.6675200000000001,-0.1940764999999999,0.137552,0.4745950000000001,-0.0934845,0.227302,0.6755720000000001,-0.1809235,-0.215528,0.923445,-0.3027345,0.290182,0.936935,-0.2804445,-0.078884,0.000295,-0.0057254999999999,0.078884,-0.0002949999999999,0.0057255,-0.100038,0.1673650000000001,-0.3308545,0.156412,0.183315,-0.3006145,-0.133778,-0.1883449999999998,-0.2671845,0.126722,-0.1455049999999998,-0.1614585,1
113,0.011649,0.651074,-0.0838915,-0.124327,0.4659750000000001,-0.0959354999999999,-0.1821769999999999,0.6675200000000001,-0.1939405,0.137383,0.4745950000000001,-0.0933185,0.226673,0.6755720000000001,-0.1805224999999999,-0.216027,0.923445,-0.3022185,0.289403,0.936715,-0.2799785,-0.079041,0.000295,-0.0057315,0.079041,-0.0002949999999999,0.0057315,-0.099937,0.1664750000000001,-0.3311085,0.1563729999999999,0.1820150000000001,-0.3011985,-0.1334469999999999,-0.1889849999999999,-0.2668485,0.122313,-0.1512149999999998,-0.1618335,1
114,0.011324,0.6521929999999999,-0.0840095,-0.1244739999999999,0.466815,-0.0961974999999999,-0.1827639999999999,0.667623,-0.1937654999999999,0.137216,0.474475,-0.0933845,0.225926,0.675573,-0.1803095,-0.216494,0.923405,-0.3018635,0.288506,0.936655,-0.2797635,-0.079208,0.0002449999999999,-0.0057465,0.079208,-0.000245,0.0057465,-0.099754,0.1653249999999999,-0.3319435,0.1562859999999999,0.1806249999999999,-0.3023834999999999,-0.132454,-0.189255,-0.2667735,0.120086,-0.156605,-0.1658895,1
115,0.0109555,0.6542600000000001,-0.0842015,-0.1244535,0.4663050000000001,-0.0965105,-0.1831535,0.667417,-0.1935885,0.1373165,0.472285,-0.0936705,0.2250865,0.674803,-0.1799985,-0.2167735,0.924615,-0.3013455,0.2871865,0.934345,-0.2791755,-0.0792085,0.000125,-0.0057445,0.0792085,-0.0001249999999999,0.0057445,-0.0993334999999999,0.161785,-0.3338855,0.1566365,0.177045,-0.3049855,-0.1310635,-0.1917649999999999,-0.2666655,0.1184065,-0.1635649999999999,-0.1700815,1
116,0.0108534999999999,0.656496,-0.084448,-0.1244234999999999,0.46549,-0.096883,-0.1835835,0.6717420000000001,-0.19343,0.1375065,0.46944,-0.0940739999999999,0.2250465,0.6735490000000001,-0.180002,-0.2175435,0.92998,-0.300365,0.2866365,0.93068,-0.279215,-0.0792414999999999,2.000000000002e-05,-0.005745,0.0792414999999999,-2.000000000002e-05,0.005745,-0.0988435,0.15651,-0.3366449999999999,0.1570265,0.1719,-0.3083249999999999,-0.1293035,-0.1957099999999999,-0.263395,0.1186965,-0.1710499999999999,-0.174222,1
117,0.0109934999999999,0.660188,-0.0864355,-0.1241104999999999,0.46257,-0.0994034999999999,-0.1838305,0.6716610000000001,-0.1951215,0.1379594999999999,0.46654,-0.0966544999999999,0.2247095,0.671084,-0.1811735,-0.2182505,0.93076,-0.3009385,0.2858095,0.92857,-0.2798385,-0.0794054999999999,-0.0002199999999999,-0.0058214999999999,0.0794054999999999,0.0002199999999999,0.0058215,-0.0982605,0.14278,-0.3405585,0.1574895,0.1583,-0.3132685,-0.1266205,-0.2073699999999999,-0.2587885,0.1191395,-0.18564,-0.1792774999999999,1
118,0.011075,0.662588,-0.0877105,-0.123815,0.4626999999999999,-0.1009545,-0.183825,0.6695599999999999,-0.1958185,0.138395,0.4645799999999999,-0.0986115,0.224735,0.6677,-0.1821215,-0.2188649999999999,0.92952,-0.3002765,0.2857449999999999,0.92537,-0.2795565,-0.079499,-3.0000000000085517e-05,-0.0057035,0.079499,2.999999999997449e-05,0.0057035,-0.097755,0.1242699999999999,-0.3429164999999999,0.157895,0.1395499999999999,-0.3172165,-0.1240549999999999,-0.22445,-0.2524265,0.119525,-0.20523,-0.1832285,1
119,0.011174,0.66532,-0.088794,-0.123474,0.46231,-0.101937,-0.183834,0.67097,-0.196011,0.138846,0.462642,-0.099974,0.224756,0.66986,-0.182755,-0.219214,0.93069,-0.2990899999999999,0.2857159999999999,0.92618,-0.27949,-0.079487,-0.00012,-0.00552,0.079487,0.00012,0.0055199999999999,-0.097264,0.10574,-0.34439,0.158276,0.12,-0.32016,-0.121604,-0.2427099999999999,-0.24595,0.119776,-0.22562,-0.186276,1
120,0.0119045,0.668035,-0.089126,-0.1229485,0.461668,-0.102285,-0.1838584999999999,0.675485,-0.195825,0.1396715,0.461277,-0.100895,0.2249315,0.669065,-0.183992,-0.2192885,0.936135,-0.297338,0.2857615,0.922425,-0.279118,-0.0794305,-0.000205,-0.005232,0.0794305,0.000205,0.005232,-0.0968585,0.080515,-0.345148,0.1586415,0.094065,-0.322608,-0.1191985,-0.266015,-0.2385779999999999,0.1197615,-0.2528049999999999,-0.188697,1
121,0.0128759999999999,0.670975,-0.0893065,-0.121861,0.461969,-0.1024565,-0.183741,0.677025,-0.1954064999999999,0.140639,0.460689,-0.1015995,0.225779,0.674905,-0.1843575,-0.219731,0.936735,-0.2952975,0.286059,0.929015,-0.2781575,-0.0794,-0.000275,-0.0050125,0.0794,0.000275,0.0050125,-0.096491,0.050395,-0.3456275,0.159109,0.063945,-0.3248875,-0.116761,-0.2938349999999999,-0.2307075,0.1240489999999999,-0.279585,-0.1900185,1
122,0.0138555,0.6742,-0.089274,-0.1209375,0.462341,-0.102428,-0.1839575,0.67652,-0.194283,0.1416225,0.460935,-0.101896,0.2266125,0.68154,-0.183871,-0.2205475,0.93466,-0.292476,0.2865325,0.93579,-0.276886,-0.0795325,-0.0002999999999999,-0.004984,0.0795325,0.0003,0.0049839999999999,-0.0964474999999999,0.0174,-0.345666,0.1590325,0.03095,-0.325656,-0.1146275,-0.3243199999999999,-0.222386,0.1259925,-0.30899,-0.190797,1
123,0.0149294999999999,0.67816,-0.088923,-0.1199765,0.46412,-0.102077,-0.1841365,0.67684,-0.192517,0.1425835,0.4608319999999999,-0.101642,0.2271335,0.68596,-0.183149,-0.2208665,0.93719,-0.28944,0.2865335,0.94109,-0.27534,-0.0796375,-0.00018,-0.00486,0.0796375,0.00018,0.00486,-0.0963765,-0.01668,-0.34547,0.1591235,-0.0037599999999999,-0.32562,-0.1133265,-0.3559799999999999,-0.21427,0.1256835,-0.3437,-0.190636,1
124,0.016176,0.682555,-0.088131,-0.119016,0.4668239999999999,-0.101516,-0.184306,0.680985,-0.190257,0.143464,0.4614089999999999,-0.1012639999999999,0.227664,0.691345,-0.1821229999999999,-0.2215659999999999,0.940815,-0.286285,0.286544,0.948705,-0.273625,-0.079611,0.000195,-0.0047149999999999,0.079611,-0.000195,0.0047149999999999,-0.096216,-0.048615,-0.345145,0.159194,-0.036985,-0.325295,-0.112336,-0.386115,-0.205955,0.125314,-0.377535,-0.19035,1
125,0.017529,0.68697,-0.086814,-0.118057,0.4690499999999999,-0.100624,-0.184657,0.6780200000000001,-0.187618,0.144093,0.46529,-0.100699,0.2285229999999999,0.69466,-0.180317,-0.2220369999999999,0.9375,-0.283088,0.286713,0.95474,-0.271458,-0.079345,-6.0000000000004494e-05,-0.004442,0.079345,6.0000000000004494e-05,0.004442,-0.096367,-0.0821899999999999,-0.343918,0.159153,-0.07195,-0.324778,-0.1119869999999999,-0.41883,-0.200218,0.125063,-0.41417,-0.190505,1
126,0.0190975,0.691585,-0.084598,-0.1173535,0.4741849999999999,-0.099065,-0.1850135,0.681005,-0.184021,0.1446865,0.467605,-0.099748,0.2295265,0.698625,-0.177377,-0.2226935,0.939445,-0.2772949999999999,0.2872465,0.958895,-0.267155,-0.0791705,0.0002349999999999,-0.004025,0.0791705,-0.0002349999999999,0.004025,-0.0966635,-0.108925,-0.341595,0.1589265,-0.100715,-0.323905,-0.1125535,-0.446415,-0.19704,0.1263265,-0.441525,-0.1876729999999999,1
127,0.021211,0.69649,-0.0809024999999999,-0.116593,0.47706,-0.0957754999999999,-0.185193,0.6874899999999999,-0.1781785,0.145577,0.47014,-0.0968874999999999,0.231247,0.70234,-0.1731935,-0.223853,0.93953,-0.2706915,0.288597,0.96302,-0.2612415,-0.078686,6.999999999995898e-05,-0.0036684999999999,0.078686,-7.00000000000145e-05,0.0036685,-0.096953,-0.13343,-0.3366715,0.158567,-0.12716,-0.3195415,-0.1128229999999999,-0.47273,-0.1938955,0.127167,-0.46799,-0.1835655,1
128,0.0229304999999999,0.701705,-0.0765565,-0.1160225,0.480205,-0.0921155,-0.1854425,0.690505,-0.1721285,0.1463374999999999,0.471885,-0.0936665,0.2325175,0.703765,-0.1688195,-0.2247925,0.937175,-0.2620625,0.2895875,0.966335,-0.2552125,-0.0781675,0.000285,-0.0034244999999999,0.0781675,-0.0002849999999999,0.0034244999999999,-0.0974825,-0.157275,-0.3304225,0.1580175,-0.152735,-0.3140225,-0.1132325,-0.4991449999999999,-0.1902995,0.1269775,-0.495715,-0.1792675,1
129,0.0235119999999999,0.7061649999999999,-0.0692185,-0.115912,0.483865,-0.0848395,-0.185952,0.688485,-0.1629485,0.146868,0.475865,-0.0867015,0.2342979999999999,0.713535,-0.1616885,-0.225692,0.933265,-0.2507795,0.290838,0.979515,-0.2460095,-0.07751,0.0002949999999999,-0.0030654999999999,0.07751,-0.000295,0.0030654999999999,-0.098382,-0.175275,-0.3213095,0.1570879999999999,-0.172315,-0.3047395,-0.114162,-0.523235,-0.1853604999999999,0.126438,-0.520445,-0.1726185,1
130,0.0237805,0.71087,-0.0610519999999999,-0.1164895,0.48661,-0.0771959999999999,-0.1871594999999999,0.68926,-0.152685,0.1472005,0.47792,-0.0792799999999999,0.2352305,0.71557,-0.1530849999999999,-0.2270094999999999,0.93637,-0.239058,0.2915105,0.98148,-0.235508,-0.0770695,0.00039,-0.0028929999999999,0.0770695,-0.00039,0.002893,-0.0995294999999999,-0.19045,-0.3117379999999999,0.1559005,-0.18897,-0.294238,-0.1152395,-0.5447,-0.1803989999999999,0.1257105,-0.54294,-0.166387,1
131,0.0238685,0.71545,-0.0528069999999999,-0.1170964999999999,0.48917,-0.069887,-0.1883564999999999,0.69197,-0.142286,0.1472335,0.47846,-0.072138,0.2357235,0.71651,-0.142855,-0.2283164999999999,0.94254,-0.227222,0.2922134999999999,0.98296,-0.225092,-0.0765335,0.0005,-0.0028099999999999,0.0765335,-0.0005,0.00281,-0.1006664999999999,-0.20405,-0.302262,0.1546235,-0.20344,-0.284012,-0.1162965,-0.56381,-0.17529,0.1249135,-0.5630499999999999,-0.1601719999999999,1
132,0.0235245,0.7192649999999999,-0.044143,-0.1181405,0.490305,-0.062289,-0.1895905,0.694665,-0.132086,0.1472395,0.480915,-0.064303,0.2365195,0.719145,-0.132693,-0.2299205,0.942665,-0.214305,0.2927794999999999,0.984015,-0.213395,-0.0758264999999999,0.0003949999999999,-0.002787,0.0758264999999999,-0.000395,0.0027869999999999,-0.1018705,-0.225395,-0.291085,0.1530794999999999,-0.225035,-0.271505,-0.1175505,-0.586725,-0.16818,0.1241795,-0.586645,-0.153189,1
133,0.0225874999999999,0.72237,-0.0348469999999999,-0.1194725,0.49276,-0.05397,-0.1914725,0.6936100000000001,-0.121478,0.1470175,0.48466,-0.055734,0.2367874999999999,0.7197199999999999,-0.120958,-0.2325325,0.94018,-0.2001279999999999,0.2929875,0.98389,-0.2004179999999999,-0.0750385,0.0001799999999999,-0.002541,0.0750385,-0.00018,0.002541,-0.1034025,-0.24839,-0.277628,0.1510874999999999,-0.24816,-0.257438,-0.1190825,-0.61093,-0.160636,0.1233374999999999,-0.6117300000000001,-0.145451,1
134,0.020994,0.72439,-0.020943,-0.121215,0.49374,-0.040742,-0.193965,0.69291,-0.106495,0.146555,0.48508,-0.042294,0.236695,0.71984,-0.10517,-0.236065,0.93664,-0.1813389999999999,0.2922949999999999,0.98375,-0.1816789999999999,-0.0744519999999999,0.0006499999999999,-0.002298,0.0744519999999999,-0.0006499999999999,0.002298,-0.105275,-0.27195,-0.258649,0.1486549999999999,-0.27185,-0.237729,-0.120985,-0.63535,-0.148258,0.122165,-0.6368900000000001,-0.132825,1
135,0.0194725,0.725166,-0.0079269999999999,-0.1227385,0.496166,-0.0281079999999999,-0.1969185,0.697586,-0.092369,0.1462814999999999,0.487186,-0.0294009999999999,0.2373515,0.726616,-0.090918,-0.2394485,0.938606,-0.165064,0.2920115,0.982946,-0.165414,-0.0739485,0.000663,-0.0020299999999999,0.0739485,-0.0006629999999999,0.00203,-0.1071685,-0.294324,-0.236954,0.1451215,-0.294744,-0.213954,-0.1227385,-0.658344,-0.135693,0.1211415,-0.660124,-0.119645,1
136,0.0179439999999999,0.727268,0.0037805,-0.124291,0.497268,-0.0170374999999999,-0.199941,0.7001379999999999,-0.0806325,0.145949,0.487988,-0.0181674999999999,0.238339,0.7343679999999999,-0.0778855,-0.242391,0.943848,-0.1499984999999999,0.291799,0.982648,-0.1504285,-0.073578,0.0006529999999999,-0.0017604999999999,0.073578,-0.000653,0.0017605,-0.109161,-0.312182,-0.2165185,0.141649,-0.313742,-0.1921485,-0.124711,-0.677902,-0.1242515,0.1200989999999999,-0.6798919999999999,-0.1080125,1
137,0.0166065,0.7284145,0.0149905,-0.1259845,0.4987745,-0.0063355,-0.2029345,0.7044045000000001,-0.0691305,0.1457855,0.4891245,-0.0070805,0.2396255,0.7383845,-0.0650215,-0.2450144999999999,0.9487345,-0.1367605,0.2916855,0.9786945,-0.1356905,-0.0730735,0.0006175,-0.0014295,0.0730735,-0.0006175,0.0014295,-0.1111144999999999,-0.3298255,-0.1960005,0.1384955,-0.3316755,-0.1702605,-0.1265244999999999,-0.6970354999999999,-0.1128865,0.1195255,-0.6994655000000001,-0.0969145,1
138,0.0150815,0.7296545,0.025494,-0.1276845,0.4992844999999999,0.003485,-0.2057945,0.7100845,-0.058668,0.1454155,0.4881344999999999,0.0030499999999999,0.2397955,0.7377144999999999,-0.0533439999999999,-0.2476545,0.9529445,-0.1236189999999999,0.2908255,0.9720345,-0.121639,-0.0726105,0.0008855,-0.0010889999999999,0.0726105,-0.0008854999999999,0.0010889999999999,-0.1129145,-0.3449055,-0.175889,0.1352755,-0.3471455,-0.149209,-0.1283045,-0.7143655,-0.102051,0.1190755,-0.7173555,-0.086751,1
139,0.0134869999999999,0.7297855,0.034776,-0.129202,0.4995055,0.01232,-0.208442,0.7156855,-0.0497159999999999,0.145038,0.4886855,0.012289,0.239788,0.7383755,-0.042779,-0.250102,0.9548355,-0.111543,0.289918,0.9660955,-0.108333,-0.072183,0.0009954999999999,-0.000799,0.072183,-0.0009954999999999,0.000799,-0.114602,-0.3582045,-0.156873,0.132248,-0.3610345,-0.129483,-0.129992,-0.7288845,-0.092064,0.118728,-0.7319345,-0.077451,1
140,0.0122725,0.7298315000000001,0.0437235,-0.1306235,0.4997515,0.0209585,-0.2109035,0.7208715,-0.0410294999999999,0.1447564999999999,0.4901215,0.0213095,0.2399165,0.7399115,-0.0325945,-0.2515535,0.9544215,-0.1002045,0.2893265,0.9630915,-0.0949275,-0.0719144999999999,0.0011064999999999,-0.0005114999999999,0.0719144999999999,-0.0011064999999999,0.0005114999999999,-0.1162735,-0.3713185,-0.1377945,0.1293165,-0.3751685,-0.1095045,-0.1315735,-0.7428984999999999,-0.0823445,0.1184264999999999,-0.7460785,-0.0678505,1
141,0.0110919999999999,0.7298939999999999,0.051604,-0.131839,0.500134,0.028671,-0.213309,0.725034,-0.0332279999999999,0.144621,0.490304,0.029288,0.240181,0.741694,-0.0239519999999999,-0.2527089999999999,0.955094,-0.090211,0.288811,0.961854,-0.083044,-0.071712,0.001347,-0.0002889999999999,0.071712,-0.001347,0.000289,-0.117699,-0.3814059999999999,-0.120241,0.1266709999999999,-0.3867359999999999,-0.091321,-0.132929,-0.7536660000000001,-0.073408,0.118241,-0.756936,-0.05925,1
142,0.00989,0.7291265,0.0587115,-0.133042,0.4993364999999999,0.0354975,-0.215222,0.7291665,-0.0260924999999999,0.144498,0.4903865,0.0365465,0.240068,0.7455665,-0.0162124999999999,-0.253592,0.9546765,-0.0816175,0.288278,0.9614865,-0.0724095,-0.071975,0.0015045,-0.0002284999999999,0.071975,-0.0015044999999999,0.0002285,-0.119102,-0.3913835,-0.1045905,0.124028,-0.3974735,-0.0742275,-0.1342819999999999,-0.7642835,-0.0650355,0.118058,-0.7673935,-0.0513644999999999,1
143,0.0089105,0.729134,0.0604855,-0.1338375,0.500834,0.0371035,-0.2166374999999999,0.735414,-0.0247345,0.1446425,0.490884,0.0385215,0.2402524999999999,0.750834,-0.0137035,-0.2541175,0.957654,-0.0779275,0.2881725,0.963774,-0.0678735,-0.0722125,0.001669,-0.0004084999999999,0.0722125,-0.001669,0.0004084999999999,-0.1200475,-0.3981059999999999,-0.0950675,0.1218125,-0.405136,-0.0635965,-0.1352175,-0.771076,-0.0618375,0.1182525,-0.774526,-0.0486454999999999,1
144,0.0080124999999999,0.7284765,0.0621824999999999,-0.1344425,0.4999964999999999,0.0385665,-0.2171625,0.7346564999999999,-0.0230895,0.1445875,0.4912965,0.0403125,0.2399375,0.7509165,-0.0114655,-0.2546925,0.9540565,-0.0747225,0.2879075,0.9665965,-0.0639365,-0.0724665,0.0018834999999999,-0.0006445,0.0724665,-0.0018834999999999,0.0006444999999999,-0.1208625,-0.4030534999999999,-0.0887475,0.1207275,-0.4107134999999999,-0.0572325,-0.1361025,-0.7760235,-0.0593295,0.1184075,-0.7797035,-0.0465185,1
145,0.0072174999999999,0.7273055,0.0636859999999999,-0.1350095,0.4999355,0.039898,-0.2176495,0.7343855,-0.021563,0.1444905,0.4917554999999999,0.041983,0.2394405,0.7499955,-0.009223,-0.2554695,0.9534355,-0.071633,0.2875905,0.9699455,-0.0603969999999999,-0.0726644999999999,0.0021734999999999,-0.0008959999999999,0.0726644999999999,-0.0021735,0.000896,-0.1217495,-0.4075645,-0.082368,0.1196105,-0.4153745,-0.0504079999999999,-0.1367295,-0.7805344999999999,-0.0569019999999999,0.1183305,-0.7842144999999999,-0.044406,1
146,0.006562,0.7263,0.0651559999999999,-0.135488,0.49972,0.0412509999999999,-0.218008,0.7314999999999999,-0.020067,0.144442,0.4926,0.043574,0.239062,0.74923,-0.007369,-0.2565179999999999,0.95308,-0.068805,0.287322,0.97355,-0.057229,-0.0729249999999999,0.0023899999999999,-0.001111,0.0729249999999999,-0.0023899999999999,0.0011109999999999,-0.122668,-0.4114799999999999,-0.076362,0.118542,-0.41929,-0.043601,-0.137238,-0.78445,-0.054452,0.1183819999999999,-0.78813,-0.042308,1
147,0.005952,0.7248605,0.066761,-0.135919,0.4988305,0.042776,-0.218349,0.7295605000000001,-0.018283,0.144181,0.4925705,0.0452049999999999,0.238321,0.7481905,-0.004681,-0.256729,0.9511305,-0.066171,0.286931,0.9743205,-0.054762,-0.0731189999999999,0.0025294999999999,-0.001364,0.0731189999999999,-0.0025295,0.001364,-0.1235989999999999,-0.4116395,-0.070455,0.117671,-0.4209695,-0.036371,-0.137689,-0.7875495,-0.0511449999999999,0.118861,-0.7918594999999999,-0.0406239999999999,1
148,0.0053515,0.723684,0.0682815,-0.1363275,0.4980739999999999,0.0442025,-0.2186775,0.7277739999999999,-0.0165924999999999,0.1438925,0.492314,0.0467485,0.2373525,0.747054,-0.0021464999999999,-0.2570675,0.949824,-0.0630474999999999,0.2865425,0.975524,-0.0522725,-0.0733024999999999,0.00273,-0.0016604999999999,0.0733024999999999,-0.0027299999999999,0.0016605,-0.1244774999999999,-0.411846,-0.0649385,0.1168425,-0.4220959999999999,-0.0294094999999999,-0.1381375,-0.7897660000000001,-0.0478534999999999,0.1190525,-0.7947160000000001,-0.0390444999999999,1
149,0.004818,0.722406,0.069685,-0.1366939999999999,0.4972159999999999,0.045611,-0.218964,0.726326,-0.0145139999999999,0.143616,0.491926,0.048337,0.236336,0.745286,0.0003209999999999,-0.257474,0.948986,-0.0600049999999999,0.286196,0.974336,-0.0500129999999999,-0.073464,0.0028639999999999,-0.001923,0.073464,-0.0028639999999999,0.001923,-0.1254739999999999,-0.411244,-0.059161,0.116096,-0.423504,-0.0228459999999999,-0.138564,-0.7914939999999999,-0.044498,0.119206,-0.7970539999999999,-0.037306,1
150,0.0039945,0.720724,0.0706115,-0.1372875,0.495924,0.0468835,-0.2194275,0.723724,-0.0121775,0.1432025,0.491334,0.0497725,0.2348825,0.742464,0.0029894999999999,-0.2582175,0.945594,-0.0570144999999999,0.2853225,0.973314,-0.0475805,-0.0734755,0.002915,-0.0020594999999999,0.0734755,-0.002915,0.0020594999999999,-0.1266375,-0.411016,-0.0530905,0.1152525,-0.424886,-0.0163695,-0.1389675,-0.792886,-0.0399565,0.1194625,-0.799146,-0.0348455,1
151,0.003272,0.719252,0.0713565,-0.137755,0.494812,0.0480865,-0.219805,0.721372,-0.0101185,0.142875,0.490392,0.0511235,0.2333049999999999,0.739972,0.0055885,-0.2589149999999999,0.942022,-0.0542755,0.284475,0.972582,-0.0451745,-0.0733719999999999,0.002971,-0.0021995,0.0733719999999999,-0.002971,0.0021995,-0.127705,-0.410478,-0.0473925,0.1145849999999999,-0.425948,-0.0104684999999999,-0.139355,-0.793828,-0.0353864999999999,0.1197749999999999,-0.800868,-0.0319685,1
152,0.0026479999999999,0.7178525,0.071854,-0.1381919999999999,0.4937425,0.049185,-0.220132,0.7191225,-0.008457,0.1425779999999999,0.4896625,0.052307,0.231898,0.7375925,0.0080459999999999,-0.259482,0.9394625,-0.052728,0.283248,0.9721425,-0.042791,-0.073258,0.0029424999999999,-0.0022959999999999,0.073258,-0.0029425,0.0022959999999999,-0.128662,-0.4097275,-0.042244,0.113998,-0.4265274999999999,-0.00517,-0.139722,-0.7944074999999999,-0.0310599999999999,0.120138,-0.8023275,-0.02921,1
153,0.0020754999999999,0.7165094999999999,0.07235,-0.1386365,0.4926695,0.050272,-0.2204165,0.7171695,-0.006904,0.1423134999999999,0.4889895,0.0535289999999999,0.2313434999999999,0.7357895000000001,0.00989,-0.2601265,0.9365295,-0.0512,0.2821135,0.9718795,-0.04043,-0.0731645,0.0029184999999999,-0.0023509999999999,0.0731645,-0.0029185,0.0023509999999999,-0.1295765,-0.4091705,-0.0374699999999999,0.1134935,-0.4271605,-0.000539,-0.1400765,-0.7949305,-0.026892,0.1205235,-0.8035604999999999,-0.026458,1
154,0.001723,0.715451,0.072808,-0.138952,0.4913609999999999,0.051342,-0.220772,0.715421,-0.005398,0.142068,0.488421,0.0546649999999999,0.230528,0.733641,0.0119349999999999,-0.260742,0.934651,-0.049713,0.281188,0.971781,-0.038192,-0.073075,0.0028809999999999,-0.002425,0.073075,-0.002881,0.0024249999999999,-0.130332,-0.408789,-0.033036,0.113138,-0.427459,0.0032859999999999,-0.140372,-0.795469,-0.023013,0.120908,-0.804619,-0.023742,1
155,0.0015345,0.7142885,0.0731755,-0.1392995,0.4900685,0.0524515,-0.2212595,0.7138885,-0.0038445,0.1418105,0.4879685,0.0558655,0.2302905,0.7315785,0.0135065,-0.2619694999999999,0.9355285,-0.0485515,0.2804005,0.9717085,-0.0359064999999999,-0.0729455,0.0028334999999999,-0.0025164999999999,0.0729455,-0.0028335,0.0025164999999999,-0.1310795,-0.4084715,-0.0288695,0.1128805,-0.4283515,0.0066765,-0.1406895,-0.7965115,-0.0193525,0.1211605,-0.8056115,-0.0211885,1
156,0.0014049999999999,0.7136315000000001,0.0732685,-0.139611,0.4893715,0.0533275,-0.221771,0.7129815,-0.0025495,0.141569,0.4879214999999999,0.0568405,0.2300489999999999,0.7299215,0.0151654999999999,-0.262941,0.9372815,-0.0480595,0.280009,0.9721615,-0.0339435,-0.072888,0.0028385,-0.0025444999999999,0.072888,-0.0028385,0.0025444999999999,-0.131741,-0.4080385,-0.0253504999999999,0.1128089999999999,-0.4286285,0.0086725,-0.140921,-0.7972984999999999,-0.0168065,0.1214389999999999,-0.8061085,-0.0188545,1
157,0.0013089999999999,0.7131285,0.073053,-0.139885,0.4890885,0.0542,-0.222285,0.7123385,-0.00143,0.1413849999999999,0.4876385,0.057866,0.2298349999999999,0.7269985,0.0165589999999999,-0.263075,0.9383085,-0.047854,0.279765,0.9727285,-0.032171,-0.072878,0.0029054999999999,-0.0024349999999999,0.072878,-0.0029055,0.0024349999999999,-0.132295,-0.4074615,-0.022181,0.112845,-0.4290015,0.0100839999999999,-0.141075,-0.7978315,-0.0142699999999999,0.121705,-0.8062815,-0.016867,0
158,0.001246,0.712873,0.072423,-0.1401089999999999,0.489253,0.054954,-0.222789,0.711383,-0.0005529999999999,0.1412109999999999,0.487303,0.058828,0.230281,0.726043,0.0177769999999999,-0.263179,0.940573,-0.04783,0.279561,0.971773,-0.0308659999999999,-0.072852,0.0029239999999999,-0.002367,0.072852,-0.002924,0.002367,-0.132579,-0.4068969999999999,-0.0200679999999999,0.112951,-0.428297,0.0114119999999999,-0.1412189999999999,-0.798007,-0.0118769999999999,0.122001,-0.8060769999999999,-0.015212,0
159,0.001494,0.712873,0.0717725,-0.1402769999999999,0.489253,0.0559385,-0.2233969999999999,0.711153,-0.0009735,0.141033,0.487303,0.0599665,0.230633,0.724963,0.0187854999999999,-0.263237,0.940573,-0.0484095,0.279383,0.971773,-0.0297015,-0.07285,0.0029239999999999,-0.0021774999999999,0.07285,-0.002924,0.0021774999999999,-0.132757,-0.4067269999999999,-0.0189034999999999,0.112923,-0.428207,0.0125875,-0.1412469999999999,-0.798007,-0.0106335,0.1219929999999999,-0.8060769999999999,-0.0140355,0
160,0.0024834999999999,0.712873,0.070577,-0.1404315,0.489253,0.056718,-0.2245615,0.7101230000000001,-0.002268,0.1413685,0.487303,0.06077,0.2332985,0.724803,0.0197909999999999,-0.2625315,0.937353,-0.051482,0.2801085,0.971773,-0.028288,-0.0728574999999999,0.0029239999999999,-0.001906,0.0728574999999999,-0.002924,0.0019059999999999,-0.1329614999999999,-0.406687,-0.017511,0.1129485,-0.428207,0.0137919999999999,-0.1413015,-0.798007,-0.009229,0.1219585,-0.8060769999999999,-0.01263,0
161,0.0038089999999999,0.712873,0.069255,-0.140707,0.489253,0.057243,-0.226497,0.708253,-0.00435,0.142083,0.487303,0.061461,0.238053,0.7212930000000001,0.021069,-0.261517,0.934893,-0.0554689999999999,0.282553,0.968973,-0.0272479999999999,-0.072918,0.0029239999999999,-0.0016659999999999,0.072918,-0.002924,0.001666,-0.133297,-0.406687,-0.015906,0.113063,-0.428207,0.014256,-0.141497,-0.798007,-0.0076149999999999,0.1217429999999999,-0.8060769999999999,-0.0110169999999999,0
162,0.0056695,0.7131434999999999,0.067319,-0.1411175,0.4898234999999999,0.057296,-0.2296375,0.7053235,-0.0065329999999999,0.1431625,0.4871634999999999,0.062199,0.2451325,0.7172335,0.022889,-0.2604074999999999,0.9342735,-0.061781,0.2854525,0.9633035,-0.0261669999999999,-0.0730365,0.0030154999999999,-0.0014849999999999,0.0730365,-0.0030155,0.001485,-0.1338775,-0.4057564999999999,-0.014116,0.1131625,-0.4278265,0.014075,-0.1421675,-0.7976165000000001,-0.0057959999999999,0.1214224999999999,-0.8053565,-0.0095409999999999,0
163,0.0077655,0.713609,0.0651535,-0.1417645,0.490389,0.0571244999999999,-0.2326445,0.7002590000000001,-0.0103375,0.1450155,0.487349,0.0631825,0.2548555,0.710439,0.0245495,-0.2591745,0.932309,-0.0688585,0.2903355,0.952509,-0.0256935,-0.0731455,0.0030939999999999,-0.0012985,0.0731455,-0.0030939999999999,0.0012985,-0.1347445,-0.404451,-0.0124994999999999,0.1130055,-0.427281,0.0137095,-0.1432045,-0.7970109999999999,-0.0041735,0.1206754999999999,-0.8043009999999999,-0.0079535,0
164,0.0103234999999999,0.7146725,0.0625475,-0.1418745,0.4898625,0.0557325,-0.2345745,0.6883725,-0.0162564999999999,0.1478155,0.4879225,0.0643805,0.2681955,0.6972825,0.0271275,-0.2578045,0.9191625,-0.0787774999999999,0.2965455,0.9336425,-0.0261374999999999,-0.0732174999999999,0.0032524999999999,-0.0012285,0.0732174999999999,-0.0032524999999999,0.0012285,-0.1364745,-0.4024275,-0.0109824999999999,0.1120855,-0.4263875,0.0129535,-0.1455545,-0.7959875000000001,-0.0024295,0.1185455,-0.8022275000000001,-0.0059434999999999,0
165,0.0131705,0.7159525,0.0595815,-0.1424185,0.4894024999999999,0.0543455,-0.2375485,0.6714825,-0.0194064999999999,0.1500615,0.4888525,0.0657775,0.2822015,0.6794625,0.0312485,-0.2570885,0.8985525,-0.0895705,0.3028915,0.9109325,-0.0269154999999999,-0.0733225,0.0033864999999999,-0.0011564999999999,0.0733225,-0.0033865,0.0011565,-0.1385984999999999,-0.4000675,-0.0096134999999999,0.1108815,-0.4249975,0.0120355,-0.1487585,-0.7945675,-0.0006914999999999,0.1156315,-0.7997175000000001,-0.0037364999999999,0
166,0.016363,0.7191145000000001,0.0553545,-0.141567,0.4873844999999999,0.0506455,-0.2452369999999999,0.6335145000000001,-0.0232614999999999,0.152473,0.4888345,0.0670115,0.295233,0.6470545000000001,0.0376565,-0.257117,0.8513245,-0.1065945,0.308843,0.8661745000000001,-0.0341154999999999,-0.073304,0.0033974999999999,-0.0013584999999999,0.073304,-0.0033974999999999,0.0013585,-0.1413269999999999,-0.3957355,-0.0096814999999999,0.107483,-0.4213855,0.0115055,-0.156597,-0.7903555,0.0025895,0.108383,-0.7942954999999999,3.650000000000875e-05,0
167,0.0194094999999999,0.7226475,0.0508245,-0.1394645,0.4854675,0.0457825,-0.2523345,0.5918275,-0.0242244999999999,0.1545955,0.4887875,0.0683735,0.3052355,0.6076575,0.0442064999999999,-0.2568445,0.7952575,-0.1250805,0.3145855,0.8137275,-0.0414304999999999,-0.0732355,0.0034604999999999,-0.0015944999999999,0.0732355,-0.0034604999999999,0.0015944999999999,-0.1436245,-0.3917725,-0.0113034999999999,0.1038155,-0.4180525,0.0111875,-0.1645845,-0.7862425,0.0051285,0.0999255,-0.7883425,0.0040425,0
168,0.0226394999999999,0.7262925,0.0456435,-0.1376905,0.4836425,0.0404695,-0.2571115,0.5470625,-0.0222315,0.1564285,0.4884924999999999,0.0692575,0.3118085,0.5648125,0.0516325,-0.2569415,0.7326025,-0.1384145,0.3181885,0.7545625,-0.0503445,-0.0730685,0.0035195,-0.0021204999999999,0.0730685,-0.0035195,0.0021204999999999,-0.1449315,-0.3893475,-0.0150944999999999,0.0999085,-0.4149975,0.0112004999999999,-0.1736515,-0.7797974999999999,0.0074375,0.0896285,-0.7817175,0.0081024999999999,0
169,0.0253504999999999,0.730179,0.0406479999999999,-0.1363285,0.4816190000000001,0.0353319999999999,-0.2616015,0.495839,-0.018516,0.1576185,0.488249,0.0701249999999999,0.3140085,0.5219889999999999,0.0602369999999999,-0.2575214999999999,0.660849,-0.142401,0.3186084999999999,0.6880189999999999,-0.059411,-0.0728085,0.003581,-0.002767,0.0728085,-0.0035809999999999,0.0027669999999999,-0.1449475,-0.386661,-0.021861,0.0904585,-0.413421,0.0115589999999999,-0.1802215,-0.772281,0.0057939999999999,0.0787384999999999,-0.774891,0.0126009999999999,0
170,0.028572,0.7338294999999999,0.0347975,-0.13465,0.4791695,0.0300365,-0.262722,0.4476995,-0.0143614999999999,0.158208,0.4880494999999999,0.0710825,0.313848,0.4814395,0.0672835,-0.2554619999999999,0.5866294999999999,-0.1423015,0.316728,0.6181895,-0.0672714999999999,-0.0724479999999999,0.0037085,-0.0034024999999999,0.072448,-0.0037084999999999,0.0034025,-0.143144,-0.3841505,-0.0311214999999999,0.081518,-0.4106205,0.0128495,-0.1840719999999999,-0.7647505,0.0035705,0.066328,-0.7694505,0.0150685,0
171,0.0318669999999999,0.7371964999999999,0.0279609999999999,-0.133031,0.4765764999999999,0.0245729999999999,-0.261023,0.3996065,-0.009107,0.158797,0.4868464999999999,0.0714489999999999,0.309487,0.4385565,0.0749169999999999,-0.255943,0.4992664999999999,-0.137257,0.313477,0.5417565,-0.073957,-0.072067,0.0038034999999999,-0.004253,0.0720669999999999,-0.0038035,0.0042529999999999,-0.137629,-0.3783735,-0.045147,0.067417,-0.4097834999999999,0.0154799999999999,-0.180562,-0.7575535,-0.007151,0.052797,-0.7639435,0.0183419999999999,0
172,0.0351205,0.7401300000000001,0.020354,-0.1315215,0.47384,0.018409,-0.2572695,0.35419,-0.0020459999999999,0.1582805,0.48425,0.070479,0.3012505,0.39491,0.0838,-0.2568095,0.40741,-0.126576,0.3064705,0.46143,-0.0783859999999999,-0.0717505,0.0038209999999999,-0.0053359999999999,0.0717505,-0.0038209999999999,0.005336,-0.1267625,-0.37158,-0.065526,0.0570005,-0.40843,0.01954,-0.1680465,-0.74969,-0.0269659999999999,0.0371704999999999,-0.7564099999999999,0.019031,0
173,0.0381684999999999,0.742464,0.01241,-0.1308254999999999,0.472244,0.013171,-0.2509615,0.314054,0.00517,0.1565085,0.4810239999999999,0.068371,0.2907485,0.357284,0.092548,-0.2553315,0.323194,-0.1152299999999999,0.2974485,0.387684,-0.08256,-0.0716285,0.003768,-0.00612,0.0716285,-0.003768,0.00612,-0.1145235,-0.364886,-0.08594,0.0467184999999999,-0.408016,0.021835,-0.1503485,-0.7403259999999999,-0.0515199999999999,0.0206685,-0.7497159999999999,0.020102,0
174,0.041225,0.744532,0.0045349999999999,-0.1295619999999999,0.470562,0.0073849999999999,-0.242765,0.278502,0.0129349999999999,0.155205,0.477092,0.0657929999999999,0.279665,0.324032,0.1013069999999999,-0.2530949999999999,0.245212,-0.103945,0.287385,0.316692,-0.085835,-0.0713949999999999,0.0038689999999999,-0.006775,0.071395,-0.003869,0.0067749999999999,-0.1012199999999999,-0.358578,-0.110155,0.036285,-0.408568,0.0245059999999999,-0.127335,-0.728038,-0.079685,0.004885,-0.743348,0.0213149999999999,0
175,0.043777,0.7435315,-0.0024249999999999,-0.130387,0.4695915,0.002905,-0.230889,0.2621715,0.022145,0.1530969999999999,0.4730715,0.063416,0.270217,0.3051415,0.108507,-0.249863,0.1901415,-0.092165,0.275317,0.2659515,-0.0787949999999999,-0.071307,0.0040985,-0.0077649999999999,0.071307,-0.0040985,0.007765,-0.088312,-0.3559184999999999,-0.130815,0.026587,-0.4104685,0.029665,-0.1006519999999999,-0.7191085,-0.107065,-0.0107529999999999,-0.7427185,0.027865,0
176,0.0450639999999999,0.7423155,-0.008495,-0.133993,0.4677055,-9.4999999999984e-05,-0.22404,0.2488655,0.034915,0.150114,0.4689755,0.06098,0.260134,0.2923654999999999,0.114713,-0.249267,0.1425255,-0.0781149999999999,0.265064,0.2221755,-0.0724449999999999,-0.071424,0.0044925,-0.008695,0.071424,-0.0044925,0.008695,-0.075278,-0.3537844999999999,-0.150385,0.0162839999999999,-0.4107245,0.036605,-0.069756,-0.7105645,-0.138425,-0.0283259999999999,-0.7403045,0.040275,0
177,0.046255,0.7412385,-0.01369,-0.1367299999999999,0.4657285,-0.00327,-0.219628,0.2390485,0.0483499999999999,0.147555,0.4651285,0.0589799999999999,0.250035,0.2821484999999999,0.1202129999999999,-0.2488479999999999,0.1033975,-0.06415,0.255655,0.1859485,-0.06537,-0.0716249999999999,0.0050365,-0.0095,0.071625,-0.0050364999999999,0.0094999999999999,-0.0627149999999999,-0.3528615,-0.16805,0.005585,-0.4124315,0.0408899999999999,-0.0379749999999999,-0.7022315,-0.16887,-0.0435149999999999,-0.7375515,0.0510899999999999,0
178,0.04669,0.7403069999999999,-0.0179,-0.138735,0.464197,-0.0065,-0.216139,0.235807,0.0605099999999999,0.14456,0.462297,0.0578199999999999,0.23432,0.273667,0.1237919999999999,-0.250501,0.072164,-0.04454,0.2463199999999999,0.156187,-0.05811,-0.0716499999999999,0.005315,-0.01057,0.0716499999999999,-0.005315,0.0105699999999999,-0.05126,-0.351383,-0.18342,-0.0067099999999999,-0.412153,0.0428699999999999,-0.00564,-0.6929430000000001,-0.19526,-0.0596899999999999,-0.7349030000000001,0.0616799999999999,0
179,0.04596,0.7403069999999999,-0.020325,-0.140915,0.463817,-0.008925,-0.2160399999999999,0.234397,0.0707949999999999,0.14182,0.460477,0.0568949999999999,0.21625,0.266617,0.1263069999999999,-0.255969,0.045136,-0.021285,0.2375499999999999,0.1371969999999999,-0.051725,-0.0719799999999999,0.005315,-0.011115,0.0719799999999999,-0.005315,0.0111149999999999,-0.0409799999999999,-0.348943,-0.194395,-0.0204499999999999,-0.412153,0.0466449999999999,0.02261,-0.682983,-0.218385,-0.07555,-0.729763,0.0755449999999999,0
180,0.04458,0.7403069999999999,-0.0213149999999999,-0.14345,0.463817,-0.0104549999999999,-0.218395,0.234397,0.075905,0.13833,0.460287,0.056255,0.20127,0.262917,0.126025,-0.260347,0.037702,0.003835,0.23018,0.126407,-0.0471349999999999,-0.0719499999999999,0.005315,-0.0115549999999999,0.07195,-0.005315,0.011555,-0.03472,-0.347673,-0.201115,-0.0314399999999999,-0.412153,0.0435049999999999,0.04149,-0.6736730000000001,-0.231735,-0.0885999999999999,-0.7235330000000001,0.0844949999999999,0
181,0.043245,0.7401065,-0.0205449999999999,-0.1457049999999999,0.4636165,-0.0102549999999999,-0.2221099999999999,0.2341965,0.081425,0.135675,0.4600865,0.057475,0.192565,0.2627165,0.122765,-0.2649769999999999,0.0375015,0.029735,0.224935,0.1262065,-0.0437749999999999,-0.0719649999999999,0.0055155,-0.0113649999999999,0.071965,-0.0055155,0.011365,-0.0334249999999999,-0.3463535,-0.201565,-0.0368249999999999,-0.4074435,0.019375,0.050505,-0.6655735,-0.2325749999999999,-0.0938449999999999,-0.7113035,0.091945,0
182,0.04197,0.739518,-0.0184649999999999,-0.14803,0.462908,-0.0099749999999999,-0.2262519999999999,0.233488,0.081025,0.13345,0.459378,0.060585,0.18532,0.262008,0.121725,-0.2718399999999999,0.036793,0.047945,0.2228,0.125498,-0.0401149999999999,-0.0715499999999999,0.0060299999999999,-0.0115449999999999,0.07155,-0.0060299999999999,0.011545,-0.0322299999999999,-0.344502,-0.2011749999999999,-0.0417299999999999,-0.401872,0.002055,0.0526,-0.660092,-0.2244549999999999,-0.0953999999999999,-0.6978719999999999,0.105825,0
183,0.0413649999999999,0.7396515,-0.015755,-0.150565,0.4628815,-0.0087849999999999,-0.230829,0.2341115,0.0778949999999999,0.131595,0.4583015,0.063855,0.180985,0.2598115,0.1217449999999999,-0.277984,0.0357165,0.054545,0.2246749999999999,0.1244215,-0.0394749999999999,-0.0713149999999999,0.0065935,-0.0124449999999999,0.071315,-0.0065934999999999,0.0124449999999999,-0.031795,-0.3439485,-0.191905,-0.0415949999999999,-0.3956385,-0.0108349999999999,0.047275,-0.6574985,-0.207955,-0.096345,-0.6847185,0.1235449999999999,0
184,0.04125,0.738602,-0.0133149999999999,-0.15256,0.462992,-0.0067049999999999,-0.234227,0.235902,0.074235,0.13055,0.457222,0.066205,0.1796399999999999,0.257372,0.120575,-0.2815729999999999,0.035287,0.046635,0.22898,0.1220219999999999,-0.0427249999999999,-0.0710399999999999,0.006898,-0.0128849999999999,0.0710399999999999,-0.006898,0.012885,-0.0312299999999999,-0.344848,-0.1846149999999999,-0.03641,-0.3926179999999999,-0.0145449999999999,0.0426799999999999,-0.6566879999999999,-0.1933249999999999,-0.0956199999999999,-0.683218,0.148625,0
185,0.0449249999999999,0.7375525,-0.012405,-0.150955,0.4642925,-0.006215,-0.235325,0.2404325,0.0678449999999999,0.131985,0.4563525,0.066795,0.181075,0.2560925,0.1176149999999999,-0.279809,0.0403545,0.0258049999999999,0.236595,0.1218225,-0.047665,-0.070545,0.0073055,-0.013405,0.070545,-0.0073054999999999,0.013405,-0.0324349999999999,-0.3469675,-0.1749649999999999,-0.019845,-0.3881675,-0.023305,0.0326549999999999,-0.6562574999999999,-0.171175,-0.074305,-0.6840075,0.1342249999999999,0
186,0.0487299999999999,0.736245,-0.0116499999999999,-0.14936,0.465765,-0.00556,-0.23676,0.2455949999999999,0.05948,0.13338,0.455225,0.06674,0.18595,0.2550449999999999,0.1093899999999999,-0.27699,0.048639,0.00114,0.24728,0.123295,-0.05702,-0.07005,0.0075959999999999,-0.0139499999999999,0.07005,-0.007596,0.01395,-0.03503,-0.349995,-0.1645299999999999,-0.0020499999999999,-0.380815,-0.0278399999999999,0.0218099999999999,-0.6563549999999999,-0.1485999999999999,-0.05079,-0.686905,0.11243,0
187,0.0556999999999999,0.7359585,-0.0124299999999999,-0.14713,0.4686785,-0.0043699999999999,-0.23795,0.2532185,0.05169,0.13644,0.4550485,0.06402,0.19179,0.2545385,0.10207,-0.2726,0.0620905,-0.0246399999999999,0.26098,0.1251985,-0.06689,-0.0701499999999999,0.0079175,-0.01344,0.0701499999999999,-0.0079175,0.01344,-0.0411099999999999,-0.3532415,-0.14937,0.02021,-0.3729615,-0.05512,0.00422,-0.6566615,-0.1216,-0.0344599999999999,-0.6929115,0.0815799999999999,0
188,0.06352,0.7353545,-0.0139699999999999,-0.14508,0.4723345,-0.0029899999999999,-0.2385799999999999,0.2613645,0.04403,0.13927,0.4547744999999999,0.06173,0.19769,0.2549045,0.0949999999999999,-0.2678899999999999,0.0743005,-0.04894,0.2759,0.1271344999999999,-0.07865,-0.0699399999999999,0.0079884999999999,-0.01345,0.06994,-0.0079884999999999,0.01345,-0.0479799999999999,-0.3559155,-0.1362899999999999,0.04338,-0.3653855,-0.08295,-0.0120099999999999,-0.6568455,-0.09671,0.0054,-0.6956955,0.0512799999999999,0
189,0.0727549999999999,0.7341255,-0.015715,-0.140985,0.4760155,-0.0021849999999999,-0.237925,0.2690355,0.0379249999999999,0.1443249999999999,0.4542355,0.058585,0.2068949999999999,0.2542855,0.085795,-0.260455,0.0848905,-0.071125,0.290215,0.1313055,-0.084225,-0.070105,0.0077894999999999,-0.013205,0.0701049999999999,-0.0077894999999999,0.013205,-0.054735,-0.3576145,-0.1218449999999999,0.0653149999999999,-0.3585845,-0.1078249999999999,-0.026885,-0.6580645,-0.072555,0.0453849999999999,-0.6982445,0.0210049999999999,0
190,0.0826349999999999,0.732411,-0.01867,-0.135835,0.479471,-0.00217,-0.236585,0.2765809999999999,0.0329599999999999,0.148835,0.453021,0.0546999999999999,0.216655,0.253521,0.0750499999999999,-0.254055,0.0951709999999999,-0.08768,0.303935,0.136131,-0.08912,-0.0702349999999999,0.007553,-0.01322,0.0702349999999999,-0.007553,0.0132199999999999,-0.062255,-0.357959,-0.10645,0.0820749999999999,-0.355679,-0.09832,-0.042195,-0.659169,-0.04985,0.081035,-0.700429,-0.00094,0
191,0.0929249999999999,0.730565,-0.022615,-0.130445,0.482355,-0.001495,-0.233865,0.283205,0.0310449999999998,0.1530549999999999,0.451185,0.0500949999999999,0.2273349999999999,0.252605,0.0631449999999999,-0.247785,0.1032749999999999,-0.0962750000000001,0.315075,0.134285,-0.098515,-0.070615,0.007292,-0.012985,0.0706149999999999,-0.007292,0.0129849999999999,-0.070825,-0.358765,-0.0907650000000001,0.098465,-0.352355,-0.093035,-0.054965,-0.660025,-0.0302850000000001,0.1129049999999999,-0.702275,-0.026685,0
192,0.10444,0.729911,-0.0286549999999999,-0.1218099999999999,0.484701,-0.0032249999999999,-0.22909,0.2876709999999999,0.032225,0.1595,0.4505309999999999,0.043155,0.2389399999999999,0.251951,0.051235,-0.2417499999999999,0.106891,-0.096715,0.32393,0.133631,-0.1039649999999999,-0.0709799999999999,0.007351,-0.0120449999999999,0.0709799999999999,-0.0073509999999999,0.0120449999999999,-0.0795499999999999,-0.360469,-0.0789449999999999,0.11012,-0.349409,-0.0913749999999999,-0.06511,-0.660679,-0.0135049999999999,0.13934,-0.706939,-0.054925,0
193,0.115455,0.7297165,-0.0338049999999999,-0.1135149999999999,0.4864965,-0.0044649999999999,-0.224475,0.2898065,0.034535,0.165375,0.4503365,0.0374349999999999,0.249895,0.2517565,0.040465,-0.2368849999999999,0.1071464999999999,-0.092665,0.332015,0.1334364999999999,-0.110105,-0.0712849999999999,0.0073745,-0.011135,0.0712849999999999,-0.0073744999999999,0.011135,-0.0882749999999999,-0.3611335,-0.0671349999999999,0.1200549999999999,-0.3462535,-0.0902049999999999,-0.0756049999999999,-0.6610535,0.003805,0.1630149999999999,-0.7175335,-0.0832549999999999,0
194,0.1241849999999999,0.729023,-0.038155,-0.106715,0.487333,-0.004865,-0.219725,0.290243,0.0385349999999999,0.1706949999999999,0.450163,0.0328849999999999,0.2584649999999999,0.251233,0.032965,-0.234575,0.107193,-0.080295,0.338175,0.132593,-0.115395,-0.071645,0.0074349999999999,-0.010085,0.0716449999999999,-0.007435,0.010085,-0.096235,-0.360497,-0.0567349999999999,0.1196249999999999,-0.346327,-0.086955,-0.086025,-0.661227,0.0188749999999999,0.1701049999999999,-0.727797,-0.086225,0
195,0.133305,0.7257915,-0.0422,-0.0994249999999999,0.4880415,-0.0050499999999999,-0.2142949999999999,0.2904315,0.04452,0.176665,0.4478315,0.0287499999999999,0.263405,0.2491415,0.0311599999999999,-0.2331149999999999,0.1069514999999999,-0.06669,0.341515,0.1302815,-0.11553,-0.0719449999999999,0.0075815,-0.00911,0.0719449999999999,-0.0075815,0.0091099999999999,-0.1036949999999999,-0.3580385,-0.04482,0.118115,-0.3464385,-0.08229,-0.0959649999999999,-0.6618185,0.0317899999999999,0.1714049999999999,-0.7390285,-0.0839,0
196,0.1401849999999999,0.7228455,-0.0456449999999999,-0.093055,0.4885454999999999,-0.0057949999999999,-0.208405,0.2903055,0.049685,0.1818249999999999,0.4452055,0.026645,0.2677949999999999,0.2461455,0.028415,-0.2320849999999999,0.1068254999999999,-0.0564149999999999,0.341845,0.1251055,-0.116085,-0.0718949999999999,0.0080515,-0.0088549999999999,0.0718949999999999,-0.0080515,0.008855,-0.108095,-0.3560045,-0.036995,0.115655,-0.3464445,-0.078175,-0.102945,-0.6628245,0.040525,0.163145,-0.7413445000000001,-0.075295,0
197,0.1469199999999999,0.720055,-0.0499950000000001,-0.08625,0.4892149999999999,-0.0075450000000001,-0.2023000000000001,0.290315,0.0544449999999999,0.1877699999999998,0.4427649999999999,0.0234249999999999,0.2717099999999999,0.243145,0.0269049999999999,-0.2312800000000001,0.105395,-0.0458450000000001,0.3396899999999999,0.117335,-0.1159650000000001,-0.07193,0.008728,-0.008485,0.0719299999999999,-0.008728,0.0084849999999999,-0.11347,-0.353865,-0.0322150000000001,0.1130799999999999,-0.346265,-0.074405,-0.11073,-0.663535,0.0493749999999999,0.1540399999999999,-0.743275,-0.0664850000000001,0
198,0.152835,0.7175995,-0.054435,-0.0806749999999999,0.4898195,-0.009255,-0.1969949999999999,0.2903295,0.058575,0.192315,0.4407395,0.021145,0.272815,0.2420294999999999,0.028315,-0.2326549999999999,0.1020095,-0.0369149999999999,0.336775,0.1125695,-0.1143649999999999,-0.0718949999999999,0.0092944999999999,-0.0082849999999999,0.071895,-0.0092944999999999,0.0082849999999999,-0.1176949999999999,-0.3518205,-0.0280549999999999,0.1105249999999999,-0.3473405,-0.0713249999999999,-0.1184149999999999,-0.6647005,0.057145,0.145125,-0.7448305000000001,-0.0585449999999999,0
199,0.158045,0.7152105,-0.0586849999999999,-0.075665,0.4902005,-0.011155,-0.192265,0.2897205,0.0618349999999999,0.197295,0.4386305,0.0188149999999999,0.2725349999999999,0.2387605,0.0322549999999999,-0.233625,0.0972005,-0.026365,0.3327549999999999,0.1059305,-0.106025,-0.071765,0.0098585,-0.008315,0.0717649999999999,-0.0098585,0.0083149999999999,-0.120955,-0.3500994999999999,-0.024075,0.1081149999999999,-0.3484795,-0.0685149999999999,-0.125775,-0.6668094999999999,0.0640349999999999,0.1365449999999999,-0.7461295,-0.051325,0
200,0.1627849999999999,0.7128275,-0.062705,-0.0701750000000001,0.4904575,-0.0138249999999999,-0.188415,0.2888975,0.0642249999999999,0.2029349999999999,0.4363075,0.016035,0.2721149999999999,0.2352275,0.036455,-0.234385,0.0927675,-0.017055,0.3291149999999999,0.0977675,-0.1017949999999999,-0.071595,0.0103975,-0.008475,0.0715949999999999,-0.0103974999999999,0.008475,-0.124175,-0.3490825,-0.0202649999999999,0.1061549999999998,-0.3496025,-0.066145,-0.132745,-0.6689725,0.0701849999999999,0.1284249999999999,-0.7474225,-0.0451249999999999,0
201,0.1653049999999999,0.710611,-0.0649600000000001,-0.067815,0.490561,-0.01452,-0.186205,0.287861,0.0653099999999998,0.206395,0.433731,0.0159799999999998,0.2694049999999999,0.2317209999999999,0.0414099999999999,-0.235205,0.089251,-0.01028,0.3243149999999999,0.089572,-0.0961600000000001,-0.071285,0.010828,-0.00894,0.0712849999999999,-0.0108279999999999,0.0089399999999999,-0.127355,-0.3485789999999999,-0.0172900000000001,0.1046049999999999,-0.350659,-0.0644200000000001,-0.138555,-0.670689,0.0746699999999999,0.1214549999999999,-0.748709,-0.0405,0
202,0.1679049999999999,0.7083284999999999,-0.06752,-0.065045,0.4904885,-0.0156699999999999,-0.184195,0.2866585,0.0660899999999999,0.210685,0.4311585,0.01573,0.2663149999999999,0.2280385,0.04648,-0.236215,0.0859215,-0.00463,0.3180349999999999,0.0810895,-0.0908799999999999,-0.070995,0.0112665,-0.00946,0.0709949999999999,-0.0112665,0.00946,-0.130545,-0.3482415,-0.0145799999999999,0.1027249999999999,-0.3518215,-0.0626599999999999,-0.144335,-0.6724615,0.07889,0.1144849999999999,-0.7500415,-0.03608,0
203,0.171835,0.7081195,-0.0727749999999999,-0.0614149999999999,0.4913594999999999,-0.0176849999999999,-0.1833549999999999,0.2862495,0.068315,0.214365,0.4315294999999999,0.013175,0.2662350000000001,0.2270595,0.0471249999999999,-0.2411049999999999,0.0841655,0.016355,0.3247850000000001,0.0845765,-0.1065749999999999,-0.0711549999999999,0.0114665,-0.0090549999999999,0.071155,-0.0114665,0.009055,-0.1355649999999999,-0.3469505,-0.0110249999999999,0.0994950000000001,-0.3520005,-0.0592749999999999,-0.1525149999999999,-0.6721505,0.083625,0.102665,-0.7509805,-0.0303149999999999,0
204,0.1735949999999999,0.706753,-0.074365,-0.058435,0.491563,-0.019065,-0.181765,0.285063,0.0683249999999999,0.2183649999999999,0.428933,0.0134349999999999,0.2643049999999999,0.224443,0.053505,-0.241555,0.082955,0.0192049999999999,0.3186549999999999,0.0756419999999999,-0.095625,-0.070505,0.012003,-0.010105,0.0705049999999999,-0.012003,0.0101049999999999,-0.136995,-0.347737,-0.0100649999999999,0.0982849999999999,-0.352667,-0.057675,-0.156335,-0.673037,0.0868849999999999,0.0991449999999999,-0.7516470000000001,-0.0282649999999999,0
205,0.173305,0.7058915,-0.07442,-0.058195,0.4903615,-0.01863,-0.180815,0.2845915,0.06869,0.2213549999999999,0.4252315,0.0167699999999999,0.259735,0.2205714999999999,0.0624299999999999,-0.241975,0.0825105,0.0213299999999999,0.3060049999999999,0.0572805,-0.07338,-0.069805,0.0123445,-0.0117399999999999,0.069805,-0.0123445,0.0117399999999999,-0.140865,-0.3484784999999999,-0.0068599999999999,0.0949349999999999,-0.3534485,-0.05474,-0.160935,-0.6742684999999999,0.09167,0.093615,-0.7521585,-0.02263,0
206,0.1739199999999999,0.704713,-0.0762049999999999,-0.05892,0.489433,-0.0179449999999998,-0.17958,0.283163,0.0680250000000001,0.2251599999999999,0.423413,0.019635,0.2557299999999999,0.2181229999999999,0.068375,-0.23955,0.081122,0.018645,0.2936899999999999,0.049136,-0.0629949999999999,-0.0692600000000001,0.012813,-0.0131649999999999,0.0692599999999999,-0.012813,0.013165,-0.14265,-0.349017,-0.0059349999999999,0.0938999999999999,-0.353857,-0.0546249999999999,-0.16432,-0.675567,0.094745,0.0905699999999999,-0.752317,-0.0202549999999999,0
