sb224sc-HT22-VT27/4dt907/src/data/labeled_files/A45_kinect.csv
FrameNo,nose_3d_x,nose_3d_y,nose_3d_z,left_shoulder_3d_x,left_shoulder_3d_y,left_shoulder_3d_z,left_elbow_3d_x,left_elbow_3d_y,left_elbow_3d_z,right_shoulder_3d_x,right_shoulder_3d_y,right_shoulder_3d_z,right_elbow_3d_x,right_elbow_3d_y,right_elbow_3d_z,left_wrist_3d_x,left_wrist_3d_y,left_wrist_3d_z,right_wrist_3d_x,right_wrist_3d_y,right_wrist_3d_z,left_hip_3d_x,left_hip_3d_y,left_hip_3d_z,right_hip_3d_x,right_hip_3d_y,right_hip_3d_z,left_knee_3d_x,left_knee_3d_y,left_knee_3d_z,right_knee_3d_x,right_knee_3d_y,right_knee_3d_z,left_ankle_3d_x,left_ankle_3d_y,left_ankle_3d_z,right_ankle_3d_x,right_ankle_3d_y,right_ankle_3d_z,activity_label
0,-0.010692,0.693605,0.092995,-0.14595,0.4194949999999999,0.0475499999999999,-0.21382,0.162885,0.0398079999999999,0.14556,0.428515,0.0423029999999999,0.1984099999999999,0.190535,0.0162529999999999,-0.22319,-0.0496369999999999,-0.040525,0.1993599999999999,-0.020666,-0.068756,-0.066953,-0.0002219999999999,-0.000235,0.066953,0.0002219999999999,0.0002349999999999,-0.1364,-0.349435,-0.021405,0.1317999999999999,-0.323485,-0.029135,-0.19393,-0.698925,-0.009343,0.18711,-0.685955,-0.018414,0
1,-0.0109885,0.6937139999999999,0.0935765,-0.1462545,0.419614,0.0482855,-0.2137744999999999,0.162834,0.0398415,0.1454955,0.428534,0.0425115,0.1984655,0.190264,0.0161745,-0.2232044999999999,-0.049688,-0.0404974999999999,0.1992855,-0.020861,-0.0690355,-0.0669495,-0.0002369999999999,-0.0002004999999999,0.0669495,0.000237,0.0002005,-0.1363645,-0.350666,-0.0215124999999999,0.1319354999999999,-0.323816,-0.0291574999999999,-0.1955945,-0.7067760000000001,-0.0102555,0.1877754999999999,-0.689096,-0.0184674999999999,0
2,-0.0113804999999999,0.6936405,0.094223,-0.1463515,0.4193905,0.048579,-0.2137714999999999,0.1626405,0.039981,0.1453685,0.4284905,0.042837,0.1983485,0.1901805,0.016046,-0.2232315,-0.0498565,-0.0404159999999999,0.1992885,-0.0209335,-0.069206,-0.0669464999999999,-0.0002515,-0.0001479999999999,0.0669464999999999,0.0002515,0.000148,-0.1364915,-0.3509295,-0.021334,0.1318185,-0.3239194999999999,-0.0289639999999999,-0.1955414999999999,-0.7066995,-0.0099879999999999,0.1881485,-0.6901795000000001,-0.0180079999999999,0
3,-0.0113735,0.693693,0.0950975,-0.1461905,0.419283,0.0486955,-0.2137205,0.162683,0.0400714999999999,0.1453195,0.428443,0.0431665,0.1983795,0.190183,0.0160455,-0.2233905,-0.049766,-0.0404225,0.1993295,-0.020876,-0.0693565,-0.0669295,-0.000245,-0.0001225,0.0669295,0.000245,0.0001225,-0.1367405,-0.344177,-0.0210584999999999,0.1319595,-0.324027,-0.0289824999999999,-0.1956605,-0.7070270000000001,-0.0100515,0.1885595,-0.691887,-0.0176934999999999,0
4,-0.0115154999999999,0.6936260000000001,0.0958469999999999,-0.1461585,0.419166,0.049192,-0.2136585,0.162636,0.04018,0.1450015,0.4284659999999999,0.043588,0.1985715,0.189736,0.015962,-0.2233685,-0.049788,-0.040386,0.1993715,-0.021268,-0.069584,-0.0668815,-0.0002749999999999,-2.500000000000072e-05,0.0668815,0.000275,2.500000000000072e-05,-0.1365185,-0.344214,-0.0207969999999999,0.1320915,-0.324094,-0.0288599999999999,-0.1953285,-0.710824,-0.008736,0.1873515,-0.686344,-0.0172589999999999,0
5,-0.011765,0.6936045,0.09666,-0.146256,0.4190244999999999,0.049408,-0.213656,0.1626445,0.0401829999999999,0.144944,0.4284245,0.043701,0.198544,0.1897144999999999,0.015978,-0.223366,-0.0497735,-0.040422,0.1992939999999999,-0.0212545,-0.069672,-0.066872,-0.0002624999999999,-8.599999999999927e-05,0.066872,0.0002625,8.599999999999927e-05,-0.136536,-0.3463555,-0.021044,0.132154,-0.3242055,-0.028863,-0.194176,-0.7012355,-0.0091709999999999,0.1868739999999999,-0.6843155,-0.0170449999999999,0
6,-0.0118284999999999,0.693518,0.0971925,-0.1460725,0.418898,0.0495465,-0.2135625,0.162518,0.0402115,0.1447675,0.428278,0.0439185,0.1986175,0.189798,0.0160505,-0.2232925,-0.049863,-0.0404975,0.1991475,-0.021145,-0.0696825,-0.0668285,-0.000239,-5.250000000000046e-05,0.0668285,0.000239,5.250000000000046e-05,-0.1357925,-0.345532,-0.0208464999999999,0.1322275,-0.324052,-0.0287935,-0.1939325,-0.702182,-0.0088135,0.1871275,-0.684622,-0.0172534999999999,0
7,-0.0112565,0.693577,0.098763,-0.1459925,0.418647,0.0503119999999999,-0.2135025,0.162517,0.040447,0.1452575,0.427807,0.0447339999999999,0.1987075,0.189657,0.0162679999999999,-0.2233725,-0.049601,-0.0407479999999999,0.1991875,-0.020829,-0.069994,-0.0668345,-0.000147,-7.599999999999968e-05,0.0668345,0.000147,7.599999999999968e-05,-0.1363225,-0.347693,-0.02124,0.1315975,-0.324363,-0.028588,-0.1951725,-0.704443,-0.0096049999999999,0.1875375,-0.687893,-0.018074,0
8,-0.0112809999999999,0.6935865000000001,0.099393,-0.145996,0.4184565,0.050556,-0.213496,0.1627165,0.040371,0.145244,0.4276765,0.045022,0.198744,0.1895565,0.016198,-0.223396,-0.0490215,-0.0409819999999999,0.199194,-0.0206285,-0.0703169999999999,-0.066812,-0.0001345,-5.999999999999756e-05,0.066812,0.0001345,6.000000000000103e-05,-0.136346,-0.3475935,-0.0212979999999999,0.131454,-0.3257135,-0.0285539999999999,-0.195166,-0.7038635,-0.0097589999999999,0.187554,-0.6882235,-0.0182229999999999,0
9,-0.0113259999999999,0.6935735000000001,0.099961,-0.146,0.4182635,0.050738,-0.21358,0.1633135,0.040131,0.14525,0.4275435,0.045252,0.19875,0.1895235,0.016093,-0.22349,-0.0484245,-0.0414969999999999,0.19918,-0.0200315,-0.070807,-0.066808,-0.0001074999999999,-5.999999999999756e-05,0.066808,0.0001074999999999,6.000000000000103e-05,-0.1364,-0.3464965,-0.0212959999999999,0.13124,-0.3273165,-0.028545,-0.19519,-0.7032365,-0.009825,0.1874299999999999,-0.6878065,-0.0183909999999999,0
10,-0.0113649999999999,0.6935605,0.1004535,-0.146021,0.4180704999999999,0.0509445,-0.213851,0.1639205,0.0396565,0.145269,0.4274104999999999,0.0454845,0.198839,0.1901305,0.0158745,-0.223861,-0.0478055,-0.0429694999999999,0.199259,-0.0194245,-0.0716465,-0.066807,-7.950000000000014e-05,-6.0499999999998055e-05,0.066807,7.949999999999971e-05,6.0500000000001525e-05,-0.136461,-0.3452895,-0.0212744999999999,0.131019,-0.3285695,-0.0284955,-0.195271,-0.7028495,-0.0099124999999999,0.1873189999999999,-0.6871594999999999,-0.0185644999999999,0
11,-0.0114004999999999,0.6935595000000001,0.1009405,-0.1460875,0.4178595,0.0512105,-0.2145775,0.1645194999999999,0.0388285,0.1452725,0.4273395,0.0457405,0.1992725,0.1907295,0.0152365,-0.2258375,-0.0468154999999999,-0.0454995,0.1999925,-0.0188255,-0.0735465,-0.0668005,-2.750000000000061e-05,-6.0499999999998055e-05,0.0668005,2.7499999999999747e-05,6.0500000000001525e-05,-0.1364375,-0.3446905,-0.0212575,0.1307725,-0.3295405,-0.0283654999999999,-0.1953475,-0.7024205,-0.0099404999999999,0.1872025,-0.6865905,-0.0187875,0
12,-0.011541,0.6935195000000001,0.1011305,-0.146308,0.4176595,0.0513775,-0.216808,0.1660595,0.0363915,0.145282,0.4273395,0.0457865,0.201152,0.1907295,0.0127265,-0.232658,-0.0428174999999999,-0.0517345,0.204472,-0.0170105,-0.0806975,-0.066755,-2.750000000000061e-05,-5.849999999999953e-05,0.066755,2.7499999999999747e-05,5.849999999999953e-05,-0.136548,-0.3446905,-0.0213944999999999,0.130482,-0.3305205,-0.0282504999999999,-0.195518,-0.7022204999999999,-0.0101344999999999,0.187082,-0.6871404999999999,-0.0189864999999999,0
13,-0.0116615,0.6934795,0.1011815,-0.1466875,0.4175595,0.0516825,-0.2203475,0.1691395,0.0328105,0.1453725,0.4273395,0.0457464999999999,0.2044625,0.1911095,0.0082495,-0.2426675,-0.0362985,-0.0597325,0.2098725,-0.0142865,-0.0896184999999999,-0.0667115,-2.750000000000061e-05,4.999999999970306e-07,0.0667115,2.7499999999999747e-05,-5.000000000005e-07,-0.1366675,-0.3441105,-0.0214765,0.1302225,-0.3307805,-0.0281235,-0.1958475,-0.7035205,-0.0104255,0.1870925,-0.6877105,-0.0192215,0
14,-0.011785,0.6934195000000001,0.1011565,-0.147268,0.4175595,0.0520555,-0.225298,0.1729595,0.0275125,0.1454319999999999,0.4273395,0.0456325,0.2084619999999999,0.1931594999999999,0.0026804999999999,-0.255638,-0.0279235,-0.0701074999999999,0.218142,-0.0083195,-0.1013435,-0.06667,-2.750000000000061e-05,0.0001024999999999,0.06667,2.7499999999999747e-05,-0.0001025,-0.136858,-0.3430505,-0.0216385,0.1299519999999999,-0.3310005,-0.0280755,-0.196248,-0.7041405,-0.0108565,0.1870619999999999,-0.6881805,-0.0196155,0
15,-0.0119905,0.6933,0.1010129999999999,-0.1479785,0.41751,0.0524,-0.2312485,0.17953,0.020992,0.1453415,0.42731,0.045322,0.2129415,0.19699,-0.004261,-0.2714085,-0.01452,-0.0833319999999999,0.2295815,0.002702,-0.117102,-0.0666325,-1.0999999999999724e-05,0.000178,0.0666325,1.1000000000000593e-05,-0.0001779999999999,-0.1370585,-0.34113,-0.021802,0.1297915,-0.33118,-0.027935,-0.1966885,-0.70438,-0.0114309999999999,0.1870514999999999,-0.68878,-0.0200969999999999,0
16,-0.012221,0.6931569999999999,0.1007665,-0.148758,0.417427,0.0527445,-0.2387179999999999,0.188517,0.0134825,0.145312,0.427287,0.0449045,0.217972,0.203127,-0.0128415,-0.290178,0.0040349999999999,-0.0990875,0.242842,0.017614,-0.1353175,-0.066603,-1.1999999999999858e-05,0.0002774999999999,0.066603,1.1999999999999858e-05,-0.0002774999999999,-0.137358,-0.339103,-0.0220634999999999,0.129632,-0.331263,-0.0277954999999999,-0.1973079999999999,-0.705033,-0.0120864999999999,0.186932,-0.689203,-0.0206334999999999,0
17,-0.012526,0.692843,0.1004849999999999,-0.149665,0.417303,0.053218,-0.2474049999999999,0.198853,0.005228,0.145335,0.427363,0.044379,0.224215,0.211123,-0.023072,-0.311695,0.027473,-0.116896,0.258075,0.037667,-0.156956,-0.066577,-3.200000000000078e-05,0.000396,0.066577,3.199999999999991e-05,-0.000396,-0.137735,-0.336927,-0.02239,0.1294449999999999,-0.331467,-0.027857,-0.197895,-0.705707,-0.0129169999999999,0.1867249999999999,-0.689867,-0.021329,0
18,-0.012915,0.6924005,0.1001735,-0.150707,0.4173005,0.0538224999999999,-0.2575469999999999,0.2111305,-0.0036755,0.145373,0.4275605,0.0438085,0.231393,0.2206904999999999,-0.0343355,-0.3358569999999999,0.0568975,-0.1361605,0.274873,0.0625815,-0.1807005,-0.066566,-9.24999999999997e-05,0.0005424999999999,0.066566,9.250000000000012e-05,-0.0005425,-0.138147,-0.3348195,-0.0227965,0.129243,-0.3317394999999999,-0.0280445,-0.198527,-0.7055995,-0.0139485,0.186683,-0.6908095000000001,-0.0221715,0
19,-0.0132429999999999,0.6918605,0.0998925,-0.151799,0.4175104999999999,0.0546395,-0.269459,0.2264905,-0.0129115,0.145451,0.4278205,0.0432505,0.239591,0.2319105,-0.0463144999999999,-0.362199,0.0929025,-0.1550925,0.2936709999999999,0.0960695,-0.2058225,-0.0665449999999999,-0.0001445,0.0007645,0.0665449999999999,0.0001444999999999,-0.0007645,-0.138519,-0.3324995,-0.0232714999999999,0.129071,-0.3304695,-0.0283035,-0.199099,-0.7054095,-0.0150774999999999,0.186781,-0.6920594999999999,-0.0231075,0
20,-0.0134924999999999,0.6912565,0.0996384999999999,-0.1529435,0.4178265,0.0555995,-0.2829735,0.2453665,-0.0218984999999999,0.1455665,0.4281165,0.0426925,0.2496565,0.2462964999999999,-0.0585655,-0.3887335,0.1341065,-0.1732135,0.3125365,0.1357165,-0.2311335,-0.0665205,-0.0002075,0.0009735,0.0665205,0.0002074999999999,-0.0009734999999999,-0.1388435,-0.3299835,-0.0237485,0.1289664999999999,-0.3300735,-0.0286184999999999,-0.1996235,-0.7055435,-0.0162114999999999,0.1868765,-0.6931035,-0.0239635,0
21,-0.0135785,0.69063,0.0993425,-0.1539775,0.41813,0.0565025,-0.2964075,0.26689,-0.0295625,0.1458924999999999,0.42853,0.0420885,0.2599125,0.26425,-0.0693435,-0.4117375,0.17859,-0.1876054999999999,0.3280125,0.17798,-0.2515955,-0.0665095,-0.0002909999999999,0.0011835,0.0665095,0.000291,-0.0011834999999999,-0.1390575,-0.32833,-0.0242524999999999,0.1289325,-0.32916,-0.0289694999999999,-0.2000675,-0.70582,-0.0172765,0.1871425,-0.69452,-0.0247994999999999,0
22,-0.0136225,0.6899195,0.0989345,-0.1549705,0.4185195,0.0571755,-0.3089205,0.2887395,-0.0362515,0.1464395,0.4290495,0.0412635,0.2688695,0.2860094999999999,-0.0806655,-0.4317605,0.2280094999999999,-0.1992355,0.3451595,0.2265694999999999,-0.2700955,-0.0665035,-0.0003985,0.0013195,0.0665035,0.0003985,-0.0013195,-0.1392705,-0.3272805,-0.0248625,0.1289795,-0.3284005,-0.0294145,-0.2003905,-0.7064205,-0.0183115,0.1875095,-0.6963404999999999,-0.0256665,0
23,-0.0136564999999999,0.689083,0.0983349999999999,-0.1559605,0.419033,0.0576809999999999,-0.3209105,0.314643,-0.0426249999999999,0.1471195,0.4300429999999999,0.040313,0.2771595,0.308233,-0.092044,-0.4499005,0.2831729999999999,-0.207114,0.3597795,0.278823,-0.283734,-0.0665004999999999,-0.0005679999999999,0.001388,0.0665004999999999,0.000568,-0.001388,-0.1394505,-0.326907,-0.025493,0.1289995,-0.328007,-0.02984,-0.2006305,-0.707137,-0.0192749999999999,0.1878595,-0.698037,-0.0265749999999999,0
24,-0.0136754999999999,0.688185,0.0975685,-0.1570705,0.419905,0.0581675,-0.3314205,0.343845,-0.0473045,0.1478594999999999,0.431095,0.0394805,0.2851895,0.337335,-0.1002435,-0.4628905,0.342515,-0.2094435,0.3700595,0.335885,-0.2905135,-0.0664945,-0.0006789999999999,0.0014895,0.0664945,0.0006789999999999,-0.0014894999999999,-0.1396204999999999,-0.326915,-0.0260334999999999,0.1290994999999999,-0.327925,-0.0302985,-0.2007304999999999,-0.708005,-0.0201545,0.1882895,-0.6998949999999999,-0.0273764999999999,0
25,-0.0136959999999999,0.687086,0.097022,-0.1583859999999999,0.421116,0.05859,-0.3379459999999999,0.373786,-0.049687,0.148714,0.4325859999999999,0.038897,0.292214,0.3641959999999999,-0.1067309999999999,-0.468286,0.4024859999999999,-0.209751,0.376994,0.394876,-0.291421,-0.066466,-0.000789,0.0017409999999999,0.066466,0.000789,-0.0017409999999999,-0.139696,-0.327234,-0.026385,0.1292039999999999,-0.328484,-0.030742,-0.200726,-0.709094,-0.020773,0.188724,-0.702034,-0.027943,0
26,-0.013678,0.685758,0.096702,-0.159745,0.422578,0.058809,-0.342845,0.404208,-0.050921,0.149495,0.4341879999999999,0.038403,0.297285,0.3921679999999999,-0.1105029999999999,-0.468715,0.465638,-0.210053,0.378615,0.454428,-0.291813,-0.066407,-0.0008849999999999,0.002037,0.066407,0.0008849999999999,-0.002037,-0.139655,-0.327922,-0.0266599999999999,0.129345,-0.329242,-0.031068,-0.200665,-0.710332,-0.0211,0.1892049999999999,-0.704302,-0.028283,0
27,-0.013601,0.684133,0.0964815,-0.160962,0.424223,0.0587865,-0.345252,0.436543,-0.0510335,0.150178,0.436073,0.0378855,0.300738,0.423093,-0.1121255,-0.468592,0.527753,-0.2102755,0.3787379999999999,0.513273,-0.2920355,-0.0662949999999999,-0.000959,0.0022495,0.0662949999999999,0.000959,-0.0022495,-0.139532,-0.328977,-0.0268775,0.129468,-0.330297,-0.0312905,-0.200542,-0.711807,-0.0213324999999999,0.189648,-0.706767,-0.0285195,0
28,-0.0134555,0.682068,0.095702,-0.1619915,0.425798,0.058752,-0.3450315,0.470438,-0.051123,0.1508285,0.438838,0.036839,0.3027285,0.456358,-0.112515,-0.4681515,0.590188,-0.205455,0.3789585,0.572218,-0.292125,-0.0661295,-0.001114,0.002322,0.0661295,0.0011139999999999,-0.0023219999999999,-0.1393115,-0.330812,-0.0269669999999999,0.1296884999999999,-0.332032,-0.03138,-0.2002515,-0.713762,-0.021425,0.1901385,-0.7097519999999999,-0.028753,0
29,-0.013281,0.6798955,0.0943015,-0.162863,0.4273955,0.0587795,-0.3447329999999999,0.5010955,-0.0511465,0.151347,0.4418755,0.0356805,0.303027,0.4886054999999999,-0.1125385,-0.4674629999999999,0.6462155,-0.1965285,0.379587,0.6258255,-0.2845985,-0.065946,-0.0012625,0.0023245,0.065946,0.0012624999999999,-0.0023245,-0.138993,-0.3328345,-0.0269914999999999,0.129987,-0.3341745,-0.0314135,-0.199883,-0.7159845,-0.0214515,0.190667,-0.7130745,-0.0288494999999999,0
30,-0.0130215,0.6774885,0.092483,-0.1636715,0.4296385,0.058886,-0.3443815,0.5287185,-0.050852,0.1516285,0.4450885,0.034369,0.3033685,0.5197785,-0.112482,-0.4615614999999999,0.6954485,-0.183592,0.3797185,0.6802585,-0.273522,-0.0657295,-0.0013384999999999,0.002387,0.0657295,0.0013385,-0.002387,-0.1386515,-0.3352315,-0.026935,0.1303284999999999,-0.3367315,-0.031459,-0.1995115,-0.7184015,-0.021394,0.1911884999999999,-0.7161915,-0.028679,0
31,-0.012767,0.674901,0.0902375,-0.164372,0.4316709999999999,0.0587725,-0.343362,0.555931,-0.0494204999999999,0.151918,0.448391,0.0329565,0.303728,0.548251,-0.1123205,-0.451612,0.738351,-0.1684304999999999,0.376768,0.727551,-0.2594505,-0.065481,-0.0014199999999999,0.0025535,0.065481,0.00142,-0.0025535,-0.138282,-0.338079,-0.0268124999999999,0.130688,-0.339679,-0.0315304999999999,-0.199072,-0.721029,-0.0212284999999999,0.191728,-0.719339,-0.0283905,0
32,-0.0124975,0.672142,0.0876295,-0.1649065,0.434322,0.0585705,-0.3389365,0.580632,-0.0473095,0.1522435,0.451042,0.0315385,0.3029834999999999,0.575722,-0.1107345,-0.4369465,0.776562,-0.1516245,0.3714834999999999,0.770072,-0.2414645,-0.0651965,-0.0014839999999999,0.0028435,0.0651965,0.0014839999999999,-0.0028434999999999,-0.1378365,-0.341098,-0.0266164999999999,0.1310735,-0.342948,-0.0314925,-0.1985165,-0.723968,-0.0209374999999999,0.1922135,-0.722308,-0.0281464999999999,0
33,-0.0123515,0.669385,0.0845355,-0.1653535,0.437145,0.0584615,-0.3324835,0.6006349999999999,-0.0445355,0.1522365,0.453795,0.0300605,0.2995465,0.595515,-0.1080065,-0.4192835,0.8071149999999999,-0.1344665,0.3648065,0.8031849999999999,-0.2217665,-0.0649025,-0.001587,0.0031535,0.0649025,0.0015869999999999,-0.0031535,-0.1372634999999999,-0.3439549999999999,-0.0263815,0.1314265,-0.3464049999999999,-0.0314085,-0.1978635,-0.726825,-0.0203475,0.1928165,-0.726985,-0.0277734999999999,0
34,-0.0123259999999999,0.66643,0.0811979999999999,-0.165551,0.4404,0.0584219999999999,-0.3249309999999999,0.61748,-0.040987,0.151629,0.45624,0.028779,0.2951789999999999,0.61573,-0.101722,-0.398871,0.83224,-0.116492,0.352959,0.83043,-0.199952,-0.064583,-0.001675,0.0035539999999999,0.064583,0.0016749999999999,-0.003554,-0.136681,-0.34695,-0.02607,0.131759,-0.3504,-0.031235,-0.197131,-0.72971,-0.019597,0.193359,-0.73195,-0.027339,0
35,-0.0123959999999999,0.663355,0.0776495,-0.165605,0.443275,0.0583995,-0.3157649999999999,0.6328250000000001,-0.0351685,0.1506549999999999,0.458585,0.0277375,0.290155,0.633595,-0.0935565,-0.377195,0.858565,-0.0963365,0.340565,0.8517750000000001,-0.1799365,-0.064286,-0.0018149999999999,0.0040075,0.064286,0.001815,-0.0040075,-0.136045,-0.349955,-0.0257315,0.132075,-0.3545049999999999,-0.0310815,-0.196395,-0.732725,-0.0187845,0.1937549999999999,-0.736575,-0.0268635,0
36,-0.012548,0.6602764999999999,0.0740005,-0.165661,0.4457965,0.0583935,-0.306291,0.6445164999999999,-0.0292035,0.149439,0.4606565,0.0268045,0.2839089999999999,0.6474465,-0.0865325,-0.357321,0.8801065,-0.0779845,0.328569,0.8695765,-0.1615625,-0.064012,-0.0019775,0.0044765,0.064012,0.0019775,-0.0044764999999999,-0.135421,-0.3529935,-0.0253605,0.132369,-0.3586135,-0.0309295,-0.1957209999999999,-0.7357635,-0.0179355,0.1941089999999999,-0.7411535,-0.0263125,0
37,-0.012757,0.6573845,0.0705435,-0.165765,0.4483344999999999,0.0583345,-0.298625,0.6515445000000001,-0.0239695,0.147895,0.4617644999999999,0.0264184999999999,0.277585,0.6591345000000001,-0.0789615,-0.340995,0.8946845,-0.0623395,0.317875,0.8804945000000001,-0.1458315,-0.0637959999999999,-0.0021204999999999,0.0048504999999999,0.0637959999999999,0.0021205,-0.0048505,-0.134825,-0.3555555,-0.0251025,0.132605,-0.3621855,-0.0308415,-0.195055,-0.7383255,-0.0171535,0.194395,-0.7451355,-0.0258605,0
38,-0.0130875,0.6543585000000001,0.067198,-0.1657015,0.4512185000000001,0.058231,-0.2907115,0.6579485,-0.018618,0.1461285,0.4624385000000001,0.026078,0.2715685,0.6695685,-0.071911,-0.3259915,0.9094285,-0.046942,0.3103685,0.9005085,-0.1289509999999999,-0.0636595,-0.0022764999999999,0.0051129999999999,0.0636595,0.0022765,-0.0051129999999999,-0.1342915,-0.3581415,-0.024804,0.1327885,-0.3654815,-0.030736,-0.1944515,-0.7409115,-0.016395,0.1946385,-0.7484115,-0.025339,0
39,-0.0137185,0.651411,0.0634995,-0.1656455,0.452841,0.0580365,-0.2830855,0.6634310000000001,-0.0132474999999999,0.1443644999999999,0.463051,0.0257305,0.2657145,0.6783110000000001,-0.0654715,-0.3135155,0.923451,-0.0328925,0.3028045,0.914571,-0.1128955,-0.0635715,-0.0024989999999999,0.0052555,0.0635715,0.002499,-0.0052555,-0.1338755,-0.360359,-0.0246535,0.1328145,-0.368369,-0.0307135,-0.1939955,-0.7430889999999999,-0.0157994999999999,0.1946645,-0.7512890000000001,-0.0249794999999999,0
40,-0.0143639999999999,0.6486345,0.0598205,-0.165536,0.4548745,0.0582255,-0.276016,0.6674445,-0.0078845,0.142834,0.4633145000000001,0.0254094999999999,0.260054,0.6847145,-0.0588445,-0.301326,0.9309245,-0.0183065,0.296254,0.9207745,-0.0962765,-0.063458,-0.0027024999999999,0.0053244999999999,0.063458,0.0027025,-0.0053245,-0.133396,-0.3620854999999999,-0.0246385,0.132824,-0.3705855,-0.0307735,-0.1935359999999999,-0.7450355,-0.0153534999999999,0.194664,-0.7535155,-0.0246995,0
41,-0.0149875,0.6460414999999999,0.0562555,-0.1653794999999999,0.4559814999999999,0.0584285,-0.2695095,0.6691914999999999,-0.0025925,0.1415605,0.4635515,0.0251945,0.2548705,0.6894315,-0.0525655,-0.2912295,0.9360415,-0.0050715,0.2910105,0.9243515,-0.0809735,-0.0633325,-0.0029545,0.0053794999999999,0.0633325,0.0029544999999999,-0.0053794999999999,-0.1328794999999999,-0.3636785,-0.0246064999999999,0.1328505,-0.3720985,-0.0308255,-0.1930095,-0.7467085,-0.0148604999999999,0.1946105,-0.7550485,-0.0244595,0
42,-0.0154639999999999,0.6429345,0.05316,-0.164295,0.4557744999999999,0.058749,-0.263175,0.6694045,0.002804,0.140765,0.4638145,0.025395,0.249935,0.6935345,-0.0459549999999999,-0.282335,0.9394545,0.00772,0.286115,0.9284045,-0.065761,-0.063213,-0.0031734999999999,0.005344,0.063213,0.0031735,-0.005344,-0.132435,-0.3658754999999999,-0.024389,0.132855,-0.3738754999999999,-0.0306929999999999,-0.192565,-0.7488955,-0.0144009999999999,0.194525,-0.7568455,-0.024089,0
43,-0.0158825,0.639096,0.0500605,-0.1626415,0.457276,0.0590885,-0.2571515,0.670196,0.0076065,0.1403485,0.463456,0.0256475,0.2458185,0.696456,-0.0400224999999999,-0.2736115,0.941576,0.0190595,0.2809585,0.931476,-0.0525804999999999,-0.0631295,-0.0032169999999999,0.0053025,0.0631295,0.0032169999999999,-0.0053024999999999,-0.1319515,-0.368754,-0.0242135,0.1327085,-0.375254,-0.0306234999999999,-0.1921515,-0.751894,-0.0140624999999999,0.1942485,-0.758274,-0.0237705,0
44,-0.0163544999999999,0.634902,0.04718,-0.1609275,0.4580419999999999,0.059439,-0.2509175,0.670522,0.0123659999999999,0.1400925,0.462012,0.02589,0.2422824999999999,0.697892,-0.034261,-0.2651175,0.937452,0.0270539999999999,0.2758125,0.933852,-0.039514,-0.0630345,-0.003176,0.0053069999999999,0.0630345,0.0031759999999999,-0.005307,-0.1314175,-0.371428,-0.024049,0.1323625,-0.376258,-0.030548,-0.1916175,-0.754568,-0.0137159999999999,0.1937625,-0.759318,-0.023463,1
45,-0.01656,0.6304135,0.044465,-0.1589179999999999,0.4580235,0.059858,-0.245188,0.6702235,0.016633,0.140262,0.4594435,0.02613,0.239142,0.6982335000000001,-0.028301,-0.256978,0.9327635,0.034181,0.271322,0.9344635,-0.027087,-0.062837,-0.0030734999999999,0.005345,0.062837,0.0030735,-0.0053449999999999,-0.1308879999999999,-0.3736665,-0.0239189999999999,0.132062,-0.3769665,-0.0304849999999999,-0.1913979999999999,-0.7567665,-0.0134789999999999,0.193242,-0.7601565,-0.023416,1
46,-0.0167895,0.6258589999999999,0.0420305,-0.1569245,0.458409,0.0601354999999999,-0.2400045,0.670159,0.0205815,0.1403855,0.4575689999999999,0.0263045,0.2363954999999999,0.6964189999999999,-0.0227545,-0.2493945,0.929399,0.0405065,0.2666354999999999,0.932899,-0.0143175,-0.0626625,-0.002939,0.0054594999999999,0.0626625,0.0029389999999999,-0.0054594999999999,-0.1303145,-0.375731,-0.0238315,0.1317054999999999,-0.377481,-0.0304555,-0.1911244999999999,-0.758821,-0.0133765,0.1926255,-0.760721,-0.0233945,1
47,-0.016847,0.6213474999999999,0.039956,-0.154918,0.4583575,0.060475,-0.2352479999999999,0.6700975,0.024405,0.140532,0.4554975,0.026492,0.234032,0.6935175,-0.017288,-0.242638,0.9228075,0.045727,0.2616119999999999,0.9287075,-0.006324,-0.062494,-0.0027785,0.0055389999999999,0.062494,0.0027784999999999,-0.0055389999999999,-0.1297279999999999,-0.3775825,-0.023759,0.131362,-0.3779125,-0.030402,-0.190958,-0.7606525000000001,-0.013263,0.192022,-0.7612725,-0.0233679999999999,1
48,-0.0168615,0.6172599999999999,0.0383375,-0.1528455,0.45858,0.0609855,-0.2309955,0.6695099999999999,0.0280895,0.1407245,0.4530799999999999,0.0268635,0.2319945,0.6901499999999999,-0.0117395,-0.2356655,0.91572,0.0508405,0.2568745,0.92482,0.0026435,-0.0623035,-0.002609,0.0055914999999999,0.0623035,0.002609,-0.0055914999999999,-0.1292755,-0.37943,-0.0238075,0.1307444999999999,-0.3782999999999999,-0.0304725,-0.1908455,-0.76253,-0.0133164999999999,0.1908945,-0.7617700000000001,-0.0236105,1
49,-0.016908,0.613283,0.0369725,-0.150776,0.459503,0.0619175,-0.227206,0.669893,0.0316285,0.141394,0.450693,0.0274585,0.230214,0.686843,-0.0065915,-0.229566,0.908113,0.0551095,0.252094,0.920913,0.0100405,-0.0620799999999999,-0.002433,0.0055935,0.0620799999999999,0.0024329999999999,-0.0055934999999999,-0.1288959999999999,-0.381277,-0.0238504999999999,0.130034,-0.378887,-0.0305024999999999,-0.190716,-0.764367,-0.0133975,0.189664,-0.762467,-0.0238434999999999,1
50,-0.0169805,0.60956,0.0357619999999999,-0.1488905,0.46063,0.062999,-0.2240305,0.6703100000000001,0.035098,0.1421895,0.44842,0.0280389999999999,0.2286395,0.6838000000000001,-0.00157,-0.2239205,0.9006,0.0601439999999999,0.2476795,0.9099,0.017068,-0.0618795,-0.0021899999999999,0.0056079999999999,0.0618795,0.0021899999999999,-0.005608,-0.1285705,-0.38299,-0.023876,0.1293395,-0.37974,-0.03054,-0.1906205,-0.7660399999999999,-0.013543,0.1885095,-0.7634299999999999,-0.024102,1
51,-0.016956,0.6066549999999999,0.034612,-0.147808,0.462625,0.064023,-0.221088,0.671585,0.03851,0.143032,0.446155,0.028539,0.227692,0.681365,0.0030099999999999,-0.218468,0.894205,0.065679,0.244012,0.8996049999999999,0.023585,-0.061646,-0.0019649999999999,0.0056419999999999,0.061646,0.0019649999999999,-0.005642,-0.128238,-0.3840449999999999,-0.023953,0.128722,-0.380025,-0.030642,-0.190348,-0.7670750000000001,-0.0138679999999999,0.1874819999999999,-0.7638050000000001,-0.024442,1
52,-0.0167585,0.605005,0.033626,-0.1473394999999999,0.4629150000000001,0.064613,-0.2184195,0.672285,0.042073,0.1439005,0.445075,0.028975,0.2271105,0.679625,0.007481,-0.2152195,0.8922050000000001,0.071453,0.2432105,0.8967050000000001,0.03046,-0.0614015,-0.0019249999999999,0.0056469999999999,0.0614015,0.001925,-0.0056469999999999,-0.1279095,-0.384065,-0.02411,0.1283205,-0.380085,-0.030753,-0.1900494999999999,-0.767065,-0.014241,0.1867105,-0.763945,-0.0247359999999999,1
53,-0.016558,0.6041049999999999,0.03276,-0.146835,0.462725,0.065131,-0.216625,0.6735850000000001,0.0449549999999999,0.144755,0.444615,0.029405,0.226855,0.678755,0.011529,-0.211855,0.891295,0.0774779999999999,0.242435,0.894995,0.037847,-0.061237,-0.001915,0.0056329999999999,0.061237,0.001915,-0.0056329999999999,-0.127655,-0.384065,-0.024313,0.128085,-0.380065,-0.0308729999999999,-0.189785,-0.767055,-0.014627,0.186085,-0.7639149999999999,-0.0250169999999999,1
54,-0.016395,0.6031099999999999,0.0319725,-0.1463529999999999,0.46241,0.0655465,-0.2150429999999999,0.6745399999999999,0.0477925,0.145577,0.44412,0.0297494999999999,0.226927,0.6784699999999999,0.0150564999999999,-0.2085729999999999,0.8903999999999999,0.0835745,0.241667,0.8936,0.0460725,-0.061154,-0.00193,0.0057445,0.061154,0.00193,-0.0057445,-0.127443,-0.38414,-0.0245745,0.127857,-0.3800199999999999,-0.0310545,-0.1895329999999999,-0.76715,-0.0152365,0.185507,-0.7639100000000001,-0.0253005,1
55,-0.0163185,0.602325,0.0312505,-0.1459815,0.461925,0.0659565,-0.2137015,0.675645,0.0505585,0.1463384999999999,0.443685,0.0302155,0.2269785,0.678495,0.0184215,-0.2058815,0.890915,0.0892284999999999,0.2411485,0.893415,0.0531144999999999,-0.0610465,-0.001915,0.0058614999999999,0.0610465,0.001915,-0.0058614999999999,-0.1273615,-0.384105,-0.0248255,0.1275585,-0.380065,-0.0312425,-0.1893815,-0.767115,-0.0157145,0.1849085,-0.764005,-0.0255714999999999,1
56,-0.016232,0.601695,0.0305955,-0.145644,0.461675,0.0664075,-0.212464,0.6768850000000001,0.0532635,0.147136,0.443575,0.0308575,0.227046,0.6786650000000001,0.0218435,-0.2031939999999999,0.8916649999999999,0.0945695,0.240566,0.893465,0.0592455,-0.060923,-0.001875,0.0059815,0.060923,0.001875,-0.0059815,-0.127304,-0.3840949999999999,-0.0250635,0.127236,-0.380085,-0.0314045,-0.189434,-0.767125,-0.0161755,0.184336,-0.763965,-0.0258375,1
57,-0.0161684999999999,0.601415,0.029944,-0.1454915,0.461315,0.066566,-0.2115915,0.677975,0.055262,0.1476085,0.4435249999999999,0.031262,0.2270685,0.678435,0.024577,-0.2013315,0.892205,0.098787,0.2377985,0.8932049999999999,0.063567,-0.0608195,-0.001835,0.0061329999999999,0.0608195,0.001835,-0.0061329999999999,-0.1272915,-0.384065,-0.0253179999999999,0.1270785,-0.380115,-0.031651,-0.1894615,-0.767095,-0.016517,0.1842385,-0.763985,-0.026091,1
58,-0.0161634999999999,0.6012000000000001,0.0293505,-0.1454835,0.46068,0.0664825,-0.2108835,0.6781400000000001,0.0568685,0.1478165,0.4436299999999999,0.0315355,0.2272365,0.67821,0.0271225,-0.1996935,0.89239,0.1019434999999999,0.2350565,0.89299,0.0674925,-0.0607825,-0.00179,0.0062025,0.0607825,0.00179,-0.0062025,-0.1272835,-0.38399,-0.0255744999999999,0.1270165,-0.38022,-0.0319045,-0.1894535,-0.76705,-0.0168474999999999,0.1841765,-0.76413,-0.0263454999999999,1
59,-0.016143,0.6010150000000001,0.0288485,-0.145397,0.460285,0.0663005,-0.210177,0.678465,0.0582345,0.148063,0.443895,0.0317695,0.227403,0.678025,0.0291925,-0.198157,0.892605,0.1039684999999999,0.232333,0.892805,0.0703205,-0.060737,-0.0017549999999999,0.0062835,0.060737,0.001755,-0.0062835,-0.127257,-0.3839249999999999,-0.0259405,0.126933,-0.380325,-0.0322655,-0.189427,-0.7669849999999999,-0.0172135,0.184143,-0.7642749999999999,-0.0267325,1
60,-0.016137,0.600835,0.028214,-0.145536,0.461395,0.066055,-0.209636,0.678715,0.058974,0.148134,0.444245,0.031848,0.227464,0.6780349999999999,0.030487,-0.196826,0.8928249999999999,0.104714,0.2296139999999999,0.8929250000000001,0.07191,-0.060665,-0.001735,0.0063609999999999,0.060665,0.001735,-0.0063609999999999,-0.127146,-0.383935,-0.0263279999999999,0.126874,-0.380355,-0.032618,-0.189206,-0.767015,-0.01763,0.184204,-0.764275,-0.0270499999999999,1
61,-0.016094,0.6005149999999999,0.0274934999999999,-0.145418,0.460725,0.0656974999999999,-0.2090479999999999,0.678835,0.0593845,0.148282,0.443835,0.0318815,0.227612,0.677815,0.0313305,-0.195418,0.892615,0.1048625,0.226962,0.892715,0.0725345,-0.060611,-0.001735,0.0064404999999999,0.060611,0.001735,-0.0064405,-0.126978,-0.383955,-0.0267975,0.1268719999999999,-0.3803749999999999,-0.0330885,-0.188908,-0.767065,-0.0181595,0.184382,-0.7642650000000001,-0.0274795,1
62,-0.0161539999999999,0.60019,0.0266705,-0.145374,0.45997,0.0652005,-0.208574,0.67887,0.0594375,0.148386,0.44372,0.0317815,0.227676,0.67756,0.0318085,-0.194154,0.8925000000000001,0.1042885,0.224346,0.8926000000000001,0.0721904999999999,-0.0605799999999999,-0.0017399999999999,0.0065174999999999,0.0605799999999999,0.00174,-0.0065174999999999,-0.126834,-0.38398,-0.0273655,0.126786,-0.3804,-0.0336905,-0.188664,-0.76712,-0.0187654999999999,0.184546,-0.76427,-0.0280295,1
63,-0.016546,0.59956,0.0259285,-0.145579,0.4583699999999999,0.0646575,-0.208349,0.6788,0.0592305,0.148481,0.4438499999999999,0.0316365,0.2275309999999999,0.67733,0.0318725,-0.192969,0.8923999999999999,0.1036255,0.221551,0.8925000000000001,0.0715955,-0.060577,-0.00177,0.0065545,0.060577,0.0017699999999999,-0.0065544999999999,-0.126609,-0.38407,-0.0277994999999999,0.126701,-0.38041,-0.0341254999999999,-0.188339,-0.7672300000000001,-0.0190914999999999,0.184801,-0.7642300000000001,-0.0282795,1
64,-0.0169159999999999,0.598975,0.0251445,-0.1459929999999999,0.456995,0.0640455,-0.208083,0.6789350000000001,0.0586675,0.148527,0.444185,0.0312845,0.227397,0.677165,0.0315465,-0.191963,0.8927049999999999,0.1027245,0.218677,0.8925049999999999,0.0708635,-0.060542,-0.001805,0.0065955,0.060542,0.001805,-0.0065955,-0.126383,-0.384155,-0.0282434999999999,0.126617,-0.380395,-0.0345535,-0.1880129999999999,-0.7673350000000001,-0.0195645,0.185027,-0.764175,-0.0286395,1
65,-0.0172025,0.59835,0.0243325,-0.1464495,0.4558799999999999,0.0633165,-0.2078595,0.67897,0.0577025,0.1485205,0.44435,0.0306885,0.2272505,0.67701,0.0307455,-0.1912495,0.89294,0.1017375,0.2158805,0.89264,0.0700305,-0.0604564999999999,-0.00185,0.0066295,0.0604564999999999,0.00185,-0.0066295,-0.1261895,-0.38425,-0.0287334999999999,0.1265305,-0.38038,-0.0350185,-0.1876795,-0.76745,-0.0200605,0.1852005,-0.76411,-0.0290814999999999,1
66,-0.0176175,0.5974,0.0233869999999999,-0.1471575,0.4537599999999999,0.062943,-0.2077175,0.67875,0.056584,0.1486024999999999,0.44453,0.030208,0.2270225,0.67659,0.029662,-0.1907075,0.89306,0.100497,0.2150524999999999,0.89246,0.067557,-0.0604175,-0.00193,0.006605,0.0604175,0.00193,-0.006605,-0.1260474999999999,-0.38437,-0.029287,0.1263425,-0.38034,-0.035576,-0.1873775,-0.7676000000000001,-0.020526,0.1852625,-0.76403,-0.0296659999999999,1
67,-0.0179949999999999,0.59634,0.022298,-0.148166,0.4536,0.06251,-0.207536,0.67881,0.055322,0.148634,0.4445599999999999,0.02955,0.226794,0.67606,0.028429,-0.190266,0.8935,0.098378,0.214244,0.8922000000000001,0.06488,-0.060376,-0.0020099999999999,0.006494,0.060376,0.0020099999999999,-0.006494,-0.125906,-0.3845,-0.0299229999999999,0.126144,-0.38029,-0.036225,-0.1870859999999999,-0.76776,-0.021233,0.185284,-0.76395,-0.0303859999999999,1
68,-0.0183035,0.5951649999999999,0.0211455,-0.1488495,0.4526949999999999,0.0618965,-0.2072895,0.678325,0.0539935,0.1485905,0.444485,0.0288235,0.2265605,0.675475,0.0271325,-0.1899495,0.893385,0.0957405,0.2134204999999999,0.8917849999999999,0.0619905,-0.0603615,-0.002085,0.0063155,0.0603615,0.0020849999999999,-0.0063154999999999,-0.1257795,-0.384595,-0.0305235,0.1259605,-0.380245,-0.0368575,-0.1867895,-0.7679050000000001,-0.0220005,0.1853405,-0.763865,-0.0311525,1
69,-0.0185235,0.593855,0.019829,-0.1495185,0.4520249999999999,0.060961,-0.2069484999999999,0.6777550000000001,0.052371,0.1486015,0.444815,0.028239,0.2263315,0.6747749999999999,0.0256069999999999,-0.1896584999999999,0.8932150000000001,0.092562,0.2125915,0.8914150000000001,0.058847,-0.0603595,-0.0021449999999999,0.006107,0.0603595,0.002145,-0.006107,-0.1256485,-0.384695,-0.031201,0.1258115,-0.380225,-0.037568,-0.1864684999999999,-0.7680549999999999,-0.022828,0.1854315,-0.763835,-0.03201,1
70,-0.0188189999999999,0.592635,0.01844,-0.150264,0.452875,0.05999,-0.206624,0.677445,0.050591,0.148596,0.445275,0.027622,0.226116,0.674165,0.023927,-0.189374,0.893275,0.089116,0.211786,0.891175,0.0555979999999999,-0.060369,-0.002185,0.005971,0.060369,0.0021849999999999,-0.005971,-0.125474,-0.384755,-0.031839,0.125656,-0.380225,-0.038235,-0.186164,-0.768175,-0.0237089999999999,0.185476,-0.763815,-0.0328969999999999,1
71,-0.019177,0.5913900000000001,0.01713,-0.150271,0.45331,0.059127,-0.206181,0.67712,0.048571,0.148579,0.44581,0.027108,0.225849,0.6734600000000001,0.022289,-0.189161,0.8934200000000001,0.085471,0.210919,0.89082,0.052478,-0.0603989999999999,-0.00225,0.005848,0.0603989999999999,0.00225,-0.005848,-0.125351,-0.38485,-0.03225,0.125519,-0.3802099999999999,-0.038748,-0.185891,-0.7683,-0.024512,0.1854789999999999,-0.76378,-0.03367,1
72,-0.0193699999999999,0.590805,0.0155944999999999,-0.150577,0.455025,0.0580505,-0.205617,0.677125,0.0465725,0.148563,0.4463249999999999,0.0265615,0.225793,0.672875,0.0208105,-0.188977,0.893635,0.0820675,0.210803,0.8903349999999999,0.0496085,-0.060407,-0.002255,0.0058024999999999,0.060407,0.0022549999999999,-0.0058025,-0.1253369999999999,-0.384835,-0.0328225,0.125343,-0.380245,-0.0394525,-0.1858469999999999,-0.768305,-0.0256414999999999,0.185433,-0.763825,-0.0348225,1
73,-0.019617,0.58995,0.014011,-0.150649,0.45588,0.0569019999999999,-0.204979,0.67689,0.044301,0.148511,0.44671,0.026012,0.2257009999999999,0.6720200000000001,0.019279,-0.188849,0.8933799999999998,0.078343,0.2106509999999999,0.88958,0.046688,-0.0604069999999999,-0.00228,0.005718,0.0604069999999999,0.0022799999999999,-0.0057179999999999,-0.125339,-0.38487,-0.03342,0.125121,-0.38027,-0.040231,-0.185759,-0.7683800000000001,-0.026765,0.185361,-0.76387,-0.036027,1
74,-0.0198519999999999,0.58914,0.0124485,-0.150739,0.45592,0.0557605,-0.204289,0.6766000000000001,0.0418245,0.148451,0.44732,0.0254985,0.225591,0.6712100000000001,0.0176615,-0.188659,0.89327,0.0740295,0.210481,0.8887700000000001,0.0435415,-0.060395,-0.0023399999999999,0.0055645,0.060395,0.00234,-0.0055645,-0.125379,-0.38488,-0.0339774999999999,0.124871,-0.3802999999999999,-0.0409675,-0.185809,-0.76843,-0.0279974999999999,0.185271,-0.7639499999999999,-0.0372095,1
75,-0.020081,0.5880099999999999,0.0111635,-0.150469,0.45577,0.0544545,-0.203309,0.67669,0.0390365,0.148541,0.44801,0.0247605,0.225461,0.67048,0.0160585,-0.188389,0.8935299999999999,0.0690935,0.211281,0.8882300000000001,0.0398035,-0.060404,-0.0023499999999999,0.0053805,0.060404,0.0023499999999999,-0.0053805,-0.125539,-0.38485,-0.0344585,0.124611,-0.3803499999999999,-0.0415895,-0.185889,-0.76847,-0.0290935,0.184941,-0.7640600000000001,-0.0382925,1
76,-0.0201565,0.5871850000000001,0.009833,-0.1499415,0.455445,0.053205,-0.2022215,0.676995,0.035973,0.1486684999999999,0.448565,0.023753,0.2252485,0.6698850000000001,0.014308,-0.1881415,0.8940050000000002,0.06397,0.2122184999999999,0.8879050000000002,0.03623,-0.0604155,-0.0023549999999999,0.005269,0.0604155,0.0023549999999999,-0.0052689999999999,-0.1257114999999999,-0.384815,-0.034849,0.1244185,-0.380405,-0.042098,-0.1859315,-0.7684949999999999,-0.030215,0.1845685,-0.7641849999999999,-0.039311,1
77,-0.020195,0.5864450000000001,0.008464,-0.149626,0.455275,0.051989,-0.200986,0.6774450000000001,0.032689,0.148784,0.448895,0.022546,0.225024,0.6690050000000001,0.012402,-0.187716,0.8946350000000001,0.058586,0.213394,0.887335,0.032845,-0.0604269999999999,-0.0023449999999999,0.005234,0.0604269999999999,0.002345,-0.005234,-0.125876,-0.384755,-0.035274,0.124254,-0.380455,-0.0425759999999999,-0.186016,-0.768505,-0.031394,0.184164,-0.764305,-0.040315,1
78,-0.0203045,0.585825,0.007006,-0.1487035,0.453165,0.050458,-0.1998935,0.677235,0.029035,0.1487665,0.448835,0.021449,0.2247565,0.668035,0.010297,-0.1873035,0.895075,0.053528,0.2142464999999999,0.886675,0.029062,-0.0604805,-0.0023249999999999,0.005219,0.0604805,0.0023249999999999,-0.005219,-0.1260935,-0.384685,-0.035556,0.1240665,-0.380505,-0.042966,-0.1861835,-0.768475,-0.03246,0.1837965,-0.764365,-0.041267,1
79,-0.0201195,0.585165,0.0054889999999999,-0.1481465,0.451065,0.048602,-0.1985765,0.677135,0.024768,0.1488435,0.448835,0.020352,0.2245235,0.667035,0.0076739999999999,-0.1868465,0.8954749999999999,0.048073,0.2149835,0.8860750000000001,0.024735,-0.0605725,-0.0023249999999999,0.005103,0.0605725,0.0023249999999999,-0.005103,-0.1262964999999999,-0.384685,-0.035882,0.1239234999999999,-0.380505,-0.043392,-0.1863564999999999,-0.768475,-0.033545,0.1836235,-0.764365,-0.042352,1
80,-0.019592,0.584355,0.0037649999999999,-0.148175,0.449065,0.046528,-0.1973349999999999,0.677165,0.01983,0.148925,0.448835,0.019095,0.224175,0.665895,0.00428,-0.1863149999999999,0.8960750000000001,0.041719,0.215745,0.8852749999999999,0.019601,-0.06074,-0.0023249999999999,0.004967,0.06074,0.0023249999999999,-0.004967,-0.126525,-0.384685,-0.036413,0.123815,-0.380505,-0.04393,-0.186545,-0.768475,-0.034719,0.183465,-0.764365,-0.043528,1
81,-0.019141,0.5836250000000001,0.00184,-0.1482899999999999,0.448995,0.04427,-0.19624,0.677195,0.01415,0.14897,0.448555,0.017136,0.2236,0.664765,8.600000000000003e-05,-0.18568,0.896395,0.033963,0.21672,0.8852949999999999,0.013269,-0.060934,-0.002305,0.004703,0.060934,0.002305,-0.004703,-0.12684,-0.384675,-0.037035,0.12375,-0.380525,-0.044553,-0.18674,-0.768485,-0.03609,0.18328,-0.764435,-0.044823,1
82,-0.0188334999999999,0.583205,-0.0005084999999999,-0.1485035,0.447195,0.0414984999999999,-0.1952635,0.678005,0.0076235,0.1488765,0.448655,0.0145595,0.2226565,0.663945,-0.0052534999999999,-0.1851135,0.897535,0.0251825,0.2173465,0.884835,0.0055925,-0.0611215,-0.0023849999999999,0.0047244999999999,0.0611215,0.002385,-0.0047244999999999,-0.1273835,-0.384665,-0.0379665,0.1237665,-0.380445,-0.0454445,-0.1871335,-0.768525,-0.0378155,0.1830065,-0.764425,-0.0464475,1
83,-0.0193665,0.58268,-0.004372,-0.1489245,0.4485399999999999,0.037499,-0.1941744999999999,0.67908,-0.001457,0.1486655,0.4484399999999999,0.0108779999999999,0.2214255,0.6622199999999999,-0.013439,-0.1839144999999999,0.8986699999999999,0.012327,0.2165955,0.8843699999999999,-0.005847,-0.0612515,-0.0024099999999999,0.004567,0.0612515,0.0024099999999999,-0.004567,-0.1281244999999999,-0.38454,-0.039573,0.1240855,-0.38033,-0.046795,-0.1877344999999999,-0.7684500000000001,-0.040388,0.1829255,-0.7644000000000001,-0.048895,1
84,-0.019907,0.5824,-0.0087295,-0.149275,0.44965,0.0332865,-0.1928949999999999,0.67987,-0.0117454999999999,0.148455,0.4483,0.0068505,0.220185,0.66047,-0.0224855,-0.1825949999999999,0.8994500000000001,-0.0010365,0.215765,0.8830499999999999,-0.0185024999999999,-0.061307,-0.00246,0.0043575,0.061307,0.0024599999999999,-0.0043575,-0.128945,-0.38438,-0.0414815,0.124625,-0.38015,-0.0485064999999999,-0.188355,-0.76835,-0.0431815,0.183045,-0.76431,-0.0516685,1
85,-0.019378,0.5822799999999999,-0.0136929999999999,-0.149591,0.44932,0.02861,-0.191801,0.6810499999999999,-0.0234689999999999,0.1481289999999999,0.44822,0.002202,0.218699,0.65926,-0.0326869999999999,-0.181101,0.90063,-0.0163239999999999,0.214879,0.8819299999999999,-0.033497,-0.061335,-0.00254,0.004077,0.061335,0.0025399999999999,-0.0040769999999999,-0.130061,-0.38413,-0.0438599999999999,0.125479,-0.37984,-0.050973,-0.189111,-0.7681899999999999,-0.046361,0.183399,-0.7641100000000001,-0.054814,1
86,-0.01898,0.579535,-0.0222425,-0.150374,0.4483049999999999,0.0193095,-0.191144,0.682295,-0.0362834999999999,0.147646,0.4475949999999999,-0.0043934999999999,0.217116,0.658555,-0.0442525,-0.180054,0.901875,-0.0330035,0.213516,0.880175,-0.0528525,-0.061395,-0.002615,0.0038095,0.061395,0.0026149999999999,-0.0038094999999999,-0.1313939999999999,-0.383845,-0.0467115,0.126526,-0.379475,-0.0539295,-0.190044,-0.767975,-0.0500155,0.183896,-0.763805,-0.0585865,1
87,-0.018531,0.576955,-0.031114,-0.1508769999999999,0.447515,0.0096659999999999,-0.190737,0.683335,-0.05012,0.147183,0.4469149999999999,-0.011442,0.215873,0.657945,-0.057019,-0.179057,0.903185,-0.051278,0.211143,0.8791850000000001,-0.07222,-0.061426,-0.002695,0.0035369999999999,0.061426,0.002695,-0.003537,-0.132997,-0.383445,-0.049905,0.127903,-0.378915,-0.057252,-0.1911469999999999,-0.767665,-0.0541839999999999,0.184823,-0.763305,-0.063434,1
88,-0.017912,0.573045,-0.0415424999999999,-0.1520729999999999,0.4474749999999999,4.24999999999974e-05,-0.191463,0.682465,-0.0650945,0.146527,0.4459649999999999,-0.0185335,0.214567,0.657595,-0.0708565,-0.1786029999999999,0.902435,-0.0705625,0.208857,0.8786349999999999,-0.0915375,-0.061519,-0.0028049999999999,0.0033615,0.061519,0.002805,-0.0033615,-0.134833,-0.382885,-0.0534605,0.130197,-0.378035,-0.0609875,-0.1924529999999999,-0.767185,-0.0590555,0.186037,-0.762565,-0.0687935,1
89,-0.0171135,0.569605,-0.0537625,-0.1540085,0.448805,-0.0111905,-0.1919085,0.684845,-0.0808045,0.1460314999999999,0.4433250000000001,-0.0293155,0.2137814999999999,0.6610250000000001,-0.0867825,-0.1786385,0.904925,-0.0914435,0.2066115,0.881835,-0.1114535,-0.0615155,-0.0028949999999999,0.0034994999999999,0.0615155,0.002895,-0.0034994999999999,-0.1377385,-0.379735,-0.0580355,0.1339715,-0.375275,-0.0660345,-0.1947185,-0.7641049999999999,-0.0656684999999999,0.1884615,-0.7599849999999999,-0.0756925,1
90,-0.016732,0.5665,-0.066045,-0.154634,0.4511900000000001,-0.022285,-0.192614,0.6867000000000001,-0.0962949999999999,0.145056,0.44105,-0.03977,0.212506,0.65702,-0.1028999999999999,-0.179174,0.90688,-0.1114899999999999,0.204826,0.87787,-0.130266,-0.061531,-0.0028899999999999,0.003689,0.061531,0.00289,-0.003689,-0.141034,-0.3765199999999999,-0.063015,0.139326,-0.37319,-0.072397,-0.197464,-0.76096,-0.072639,0.191596,-0.7584799999999999,-0.083266,1
91,-0.0161745,0.5610355,-0.0789245,-0.1552725,0.4544455,-0.0326935,-0.1934925,0.6853355000000001,-0.1121475,0.1437874999999999,0.4391655,-0.0496435,0.2116674999999999,0.6535955,-0.1177265,-0.1797025,0.9056655,-0.1298795,0.2028875,0.8743155,-0.1476375,-0.0615885,-0.0028455,0.0036355,0.0615885,0.0028455,-0.0036355,-0.1462625,-0.3738645,-0.0711355,0.1450374999999999,-0.3709045,-0.0787825,-0.2004725,-0.7568245,-0.0797025,0.1949275,-0.7551144999999999,-0.0907815,1
92,-0.0156005,0.553679,-0.090844,-0.1559725,0.454819,-0.0433,-0.1943525,0.683029,-0.125784,0.1431975,0.4360689999999999,-0.0594669999999999,0.2105475,0.649559,-0.1309239999999999,-0.1805825,0.903959,-0.144055,0.1997475,0.869219,-0.1610349999999999,-0.0615855,-0.0030699999999999,0.003804,0.0615855,0.00307,-0.0038039999999999,-0.1518125,-0.371201,-0.078958,0.1510675,-0.3677709999999999,-0.086009,-0.2035325,-0.751331,-0.0869429999999999,0.1982275,-0.749631,-0.097809,1
93,-0.0155535,0.5496145,-0.102302,-0.1570795,0.4528345,-0.0536129999999999,-0.1955095,0.6849645,-0.137691,0.1423205,0.4340545,-0.0690689999999999,0.2090505,0.6506145,-0.1436009999999999,-0.1817595,0.9069045,-0.157721,0.1977805,0.8701245,-0.173361,-0.0619785,-0.0028245,0.0040919999999999,0.0619785,0.0028244999999999,-0.0040919999999999,-0.1581795,-0.3652755,-0.087179,0.1576105,-0.3621655,-0.0939049999999999,-0.2071895,-0.7407755,-0.094748,0.2013305,-0.7385355,-0.105178,1
94,-0.016346,0.544864,-0.1131625,-0.1578179999999999,0.4517840000000001,-0.0638035,-0.197058,0.684984,-0.1486615,0.141262,0.432034,-0.0783465,0.207412,0.647294,-0.1551415,-0.183118,0.906944,-0.1705315,0.195702,0.867214,-0.1858515,-0.062423,-0.0025829999999999,0.0044485,0.062423,0.002583,-0.0044485,-0.164418,-0.357996,-0.0952675,0.164022,-0.355676,-0.1019485,-0.210858,-0.729266,-0.1013915,0.204392,-0.726866,-0.1124614999999999,1
95,-0.0173655,0.5432355,-0.120336,-0.1579414999999999,0.4500555,-0.069449,-0.1990414999999999,0.6854755,-0.158931,0.1392085,0.4293754999999999,-0.086293,0.2058285,0.6436555,-0.165101,-0.1850814999999999,0.9074955,-0.181471,0.1939485,0.8659055,-0.196311,-0.0628545,-0.0024295,0.004809,0.0628545,0.0024295,-0.004809,-0.1706015,-0.3492745,-0.103118,0.1702085,-0.3479945,-0.11026,-0.2145715,-0.7163845,-0.108164,0.2077285,-0.7140544999999999,-0.120151,1
96,-0.0183074999999999,0.5398755,-0.127277,-0.1580935,0.4458155,-0.075581,-0.2016235,0.6861355,-0.16835,0.1369165,0.4269955,-0.094514,0.2046365,0.6404555,-0.17477,-0.1874235,0.9079255,-0.19289,0.1925265,0.8669055,-0.20667,-0.0632095,-0.0026094999999999,0.0050669999999999,0.0632095,0.0026095,-0.005067,-0.1766335,-0.3384545,-0.111018,0.1763964999999999,-0.3380845,-0.11889,-0.2182935,-0.7023145,-0.114557,0.2107665,-0.6994645,-0.126786,1
97,-0.0198889999999999,0.5388105,-0.1354555,-0.158499,0.4415004999999999,-0.0838565,-0.2047689999999999,0.6810605,-0.1784235,0.134181,0.4243404999999999,-0.1051755,0.202881,0.6367404999999999,-0.1864934999999999,-0.190739,0.9053705,-0.2059035,0.190711,0.8674405,-0.2200535,-0.063341,-0.0026085,0.0051465,0.063341,0.0026084999999999,-0.0051464999999999,-0.182719,-0.3251495,-0.1210654999999999,0.181551,-0.3260695,-0.1294215,-0.222139,-0.6886895000000001,-0.1228455,0.213331,-0.6822495000000001,-0.1353995,1
98,-0.0220935,0.5447255000000001,-0.142645,-0.1574005,0.4355555,-0.090794,-0.2084605,0.6749955000000001,-0.187497,0.1269495,0.4308255,-0.115408,0.2007395,0.6384455,-0.196577,-0.1946605,0.9080855,-0.216937,0.1899695,0.8732555000000001,-0.233067,-0.0640245,-0.0030244999999999,0.0047339999999999,0.0640245,0.0030244999999999,-0.004734,-0.1916304999999999,-0.3052145,-0.1359179999999999,0.1859795,-0.3068145,-0.142048,-0.2257605,-0.6686945,-0.129907,0.2140295,-0.6606945,-0.142895,1
99,-0.023453,0.5513635,-0.150077,-0.156282,0.4297434999999999,-0.098291,-0.211312,0.6699935,-0.1966649999999999,0.121128,0.4379834999999999,-0.126241,0.199218,0.6409635,-0.2070449999999999,-0.197822,0.9118635,-0.2282549999999999,0.189618,0.8754934999999999,-0.246705,-0.063842,-0.0041375,0.0043589999999999,0.063842,0.0041374999999999,-0.004359,-0.199412,-0.2844765,-0.150955,0.189858,-0.2862165,-0.154325,-0.228212,-0.6477965,-0.137126,0.214638,-0.6384065,-0.1492129999999999,1
100,-0.0240664999999999,0.5589500000000001,-0.15714,-0.1550105,0.42099,-0.106638,-0.2138705,0.66917,-0.205809,0.1154195,0.44067,-0.137541,0.1979894999999999,0.64263,-0.218299,-0.2011705,0.91071,-0.241799,0.1886695,0.87696,-0.260419,-0.0636555,-0.004774,0.0040229999999999,0.0636555,0.004774,-0.0040229999999999,-0.2059505,-0.26106,-0.163359,0.1941294999999999,-0.26386,-0.168539,-0.2304005,-0.6246499999999999,-0.14398,0.2148594999999999,-0.61446,-0.155318,1
101,-0.0244685,0.568025,-0.1644709999999999,-0.1536435,0.416475,-0.1145539999999999,-0.2163035,0.663785,-0.2152609999999999,0.1142765,0.445945,-0.148531,0.1973464999999999,0.646125,-0.229841,-0.2042135,0.909605,-0.255571,0.1879364999999999,0.880945,-0.275141,-0.0633295,-0.0050849999999999,0.0036459999999999,0.0633295,0.005085,-0.0036459999999999,-0.2127135,-0.236805,-0.177091,0.1982965,-0.240625,-0.182671,-0.2322435,-0.600295,-0.150453,0.2150165,-0.589255,-0.1616119999999999,1
102,-0.0245145,0.570425,-0.172409,-0.1518995,0.413215,-0.123788,-0.2185194999999999,0.658385,-0.226959,0.1129105,0.448285,-0.160141,0.1966605,0.643655,-0.242949,-0.2071095,0.908155,-0.271579,0.1875204999999999,0.883705,-0.293119,-0.0628495,-0.005495,0.0036419999999999,0.0628495,0.005495,-0.003642,-0.2198395,-0.211305,-0.191819,0.2028105,-0.215835,-0.198109,-0.2334895,-0.576065,-0.1570679999999999,0.2150105,-0.5649150000000001,-0.167474,1
103,-0.0247445,0.574535,-0.180016,-0.1505985,0.410785,-0.132624,-0.2200385,0.648845,-0.237516,0.1094115,0.450385,-0.171317,0.1962715,0.6444650000000001,-0.256146,-0.2101085,0.907095,-0.286376,0.1870915,0.892805,-0.308546,-0.0623665,-0.0060249999999999,0.003608,0.0623665,0.006025,-0.003608,-0.2272285,-0.1850049999999999,-0.206336,0.2074915,-0.190245,-0.213306,-0.2345685,-0.5493049999999999,-0.162439,0.2142915,-0.539245,-0.172861,1
104,-0.025466,0.57742,-0.187894,-0.149034,0.41083,-0.142067,-0.2217039999999999,0.64208,-0.247704,0.107766,0.45018,-0.181764,0.195316,0.64317,-0.269434,-0.213104,0.90354,-0.302384,0.186916,0.89842,-0.322244,-0.0619899999999999,-0.0053999999999999,0.0035719999999999,0.0619899999999999,0.0054,-0.003572,-0.235184,-0.15785,-0.221174,0.212596,-0.1632699999999999,-0.229024,-0.235434,-0.52183,-0.167646,0.213686,-0.51167,-0.178079,1
105,-0.0257299999999999,0.582145,-0.195078,-0.147026,0.414185,-0.1506199999999999,-0.222856,0.632525,-0.258088,0.106814,0.450665,-0.191678,0.195704,0.6416850000000001,-0.281948,-0.215756,0.893805,-0.3167879999999999,0.188354,0.892555,-0.3361579999999999,-0.061515,-0.0046849999999999,0.003724,0.061515,0.0046849999999999,-0.0037239999999999,-0.242826,-0.132355,-0.235698,0.217624,-0.1383849999999999,-0.244528,-0.235726,-0.497395,-0.172535,0.213514,-0.487285,-0.183173,1
106,-0.0247015,0.5841000000000001,-0.199004,-0.1447854999999999,0.41342,-0.156069,-0.2233755,0.63039,-0.265784,0.1050845,0.4538,-0.198114,0.1959345,0.6412100000000001,-0.291244,-0.2176855,0.89208,-0.327404,0.1904845,0.88987,-0.345854,-0.0611465,-0.0051199999999999,0.0036609999999999,0.0611465,0.00512,-0.0036609999999999,-0.2506455,-0.1060399999999999,-0.247344,0.2221445,-0.1123099999999999,-0.256994,-0.2355255,-0.4690799999999999,-0.174239,0.2136945,-0.46319,-0.184997,1
107,-0.022913,0.5806,-0.20197,-0.143506,0.4114,-0.160786,-0.223646,0.62631,-0.27325,0.105524,0.44594,-0.2005299999999999,0.1972539999999999,0.63261,-0.2995,-0.219246,0.8844799999999999,-0.33785,0.193214,0.8799699999999999,-0.3556399999999999,-0.060586,-0.0042099999999999,0.0039799999999999,0.060586,0.0042099999999999,-0.00398,-0.255066,-0.08632,-0.2529099999999999,0.224934,-0.0928799999999999,-0.26627,-0.234996,-0.4477699999999999,-0.174453,0.2133439999999999,-0.4417199999999999,-0.185566,1
108,-0.0202264999999999,0.573755,-0.204209,-0.1421495,0.411361,-0.164686,-0.2239395,0.621405,-0.279649,0.1060805,0.4388939999999999,-0.202459,0.1994505,0.630705,-0.306819,-0.2206795,0.872215,-0.348119,0.1964805,0.877705,-0.3652289999999999,-0.0600045,-0.002985,0.004247,0.0600045,0.0029849999999999,-0.004247,-0.2592795,-0.065105,-0.257939,0.2270105,-0.071875,-0.274889,-0.2340495,-0.424805,-0.173472,0.2129204999999999,-0.4177850000000001,-0.184622,1
109,-0.0167529999999999,0.56977,-0.2057335,-0.1409349999999999,0.412124,-0.1678155,-0.2238949999999999,0.61669,-0.2849335,0.106755,0.437198,-0.2037835,0.201985,0.6273,-0.3138435,-0.221355,0.86723,-0.3566034999999999,0.199865,0.87693,-0.3744435,-0.0597449999999999,-0.00284,0.0042355,0.0597449999999999,0.00284,-0.0042355,-0.262495,-0.04396,-0.2622735,0.227775,-0.05175,-0.2810035,-0.233705,-0.4021999999999999,-0.1738545,0.212635,-0.39475,-0.1826605,1
110,-0.013237,0.56641,-0.2068249999999999,-0.139873,0.4129659999999999,-0.170669,-0.223503,0.61847,-0.291335,0.111437,0.43087,-0.205255,0.204987,0.62249,-0.319835,-0.221473,0.86274,-0.3672649999999999,0.203657,0.87358,-0.383865,-0.058563,-0.00185,0.004184,0.058563,0.0018499999999999,-0.0041839999999999,-0.263883,-0.02189,-0.265595,0.228727,-0.032,-0.286335,-0.232363,-0.38017,-0.173477,0.212217,-0.37536,-0.18063,1
111,-0.0098399999999999,0.566945,-0.2076974999999999,-0.138928,0.415803,-0.1726145,-0.223358,0.616145,-0.2961275,0.115662,0.427343,-0.2062875,0.206012,0.616475,-0.3241875,-0.221358,0.854485,-0.3753075,0.208242,0.861465,-0.3901175,-0.058632,-0.0010549999999999,0.0043094999999999,0.058632,0.001055,-0.0043094999999999,-0.2638479999999999,-0.0038149999999999,-0.2675775,0.229602,-0.0159949999999999,-0.2898175,-0.230758,-0.3626849999999999,-0.1726415,0.211602,-0.360965,-0.1793305,1
112,-0.0067005,0.5665399999999999,-0.2072355,-0.1377565,0.4170729999999999,-0.1739645,-0.2232565,0.61434,-0.3011355,0.1199335,0.4249819999999999,-0.2067655,0.2091535,0.6119,-0.3277955,-0.2214665,0.8430899999999999,-0.3824455,0.2129535,0.84763,-0.3958155,-0.0587445,-0.00031,0.0046994999999999,0.0587445,0.0003099999999999,-0.0046994999999999,-0.2631265,0.0128499999999999,-0.2687855,0.2307034999999999,-0.00048,-0.2925455,-0.2288365,-0.34603,-0.1722385,0.2110034999999999,-0.34721,-0.1781215,1
113,-0.0040395,0.5643389999999999,-0.205681,-0.1368305,0.411998,-0.173492,-0.2231005,0.611205,-0.304671,0.1223694999999999,0.423326,-0.205961,0.2120895,0.608575,-0.329281,-0.2214505,0.836295,-0.387171,0.2179295,0.8385849999999999,-0.399611,-0.0589325,-0.001265,0.0049039999999999,0.0589325,0.0012649999999999,-0.004904,-0.2619205,0.0282549999999999,-0.267741,0.2314195,0.0149649999999999,-0.293431,-0.2264405,-0.331285,-0.170895,0.2101895,-0.334165,-0.175966,1
114,-0.0015569999999999,0.56303,-0.2039989999999999,-0.1362519999999999,0.40697,-0.172057,-0.222812,0.61043,-0.306419,0.123858,0.422035,-0.2039389999999999,0.215108,0.60531,-0.329619,-0.2213719999999999,0.83668,-0.390909,0.221738,0.83938,-0.401849,-0.059239,-0.0018,0.004871,0.059239,0.0017999999999999,-0.004871,-0.260592,0.04387,-0.265499,0.230488,0.0310799999999999,-0.292679,-0.223772,-0.31649,-0.168602,0.209618,-0.3172399999999999,-0.1723009999999999,1
115,-0.0001914999999999,0.563239,-0.2021615,-0.1354925,0.40543,-0.1704885,-0.2224325,0.6109180000000001,-0.3079015,0.1252474999999999,0.419706,-0.2015515,0.2179275,0.601971,-0.3286215,-0.2215825,0.83571,-0.3951115,0.2256475,0.83864,-0.4035815,-0.0596045,-0.0014499999999999,0.0048624999999999,0.0596045,0.00145,-0.0048625,-0.2592025,0.05763,-0.2630915,0.2289874999999999,0.0456199999999999,-0.2917715,-0.2209725,-0.3041699999999999,-0.1656125,0.2094875,-0.3044099999999999,-0.1696865,1
116,0.0014735,0.562875,-0.199375,-0.1345475,0.404975,-0.168404,-0.2225275,0.611222,-0.308575,0.1254624999999999,0.420115,-0.198695,0.2211725,0.5965090000000001,-0.326195,-0.2222375,0.834785,-0.398965,0.2296025,0.829465,-0.403175,-0.0602825,-0.0020749999999999,0.0047329999999999,0.0602825,0.002075,-0.004733,-0.2568775,0.070975,-0.260335,0.2267424999999999,0.060625,-0.289135,-0.2151675,-0.2912549999999999,-0.163523,0.2098624999999999,-0.290745,-0.165857,1
117,0.0033104999999999,0.565094,-0.196542,-0.1334805,0.4028349999999999,-0.166174,-0.2221005,0.611387,-0.309382,0.1262595,0.4191349999999999,-0.195822,0.2244395,0.5903799999999999,-0.323422,-0.2230205,0.8385149999999999,-0.402062,0.2331295,0.8228449999999999,-0.4013719999999999,-0.0611015,-0.002315,0.0045439999999999,0.0611015,0.0023149999999999,-0.004544,-0.2540504999999999,0.0825149999999999,-0.257552,0.2243095,0.0741449999999999,-0.286222,-0.2082705,-0.2809250000000001,-0.161701,0.2108895,-0.279705,-0.162988,1
118,0.0049554999999999,0.5651269999999999,-0.193881,-0.1322865,0.4017649999999999,-0.164333,-0.2228065,0.609038,-0.310251,0.1281235,0.4161749999999999,-0.192941,0.2272535,0.5856009999999999,-0.321081,-0.2239565,0.842305,-0.405261,0.2369235,0.814715,-0.399951,-0.0619895,-0.001865,0.0046679999999999,0.0619895,0.001865,-0.004668,-0.2503365,0.0913249999999999,-0.254541,0.2221135,0.0867849999999999,-0.284111,-0.2011865,-0.272775,-0.159212,0.2104635,-0.270635,-0.161142,1
119,0.0063139999999999,0.5647120000000001,-0.1911705,-0.131693,0.3980600000000001,-0.1628125,-0.223383,0.6060960000000001,-0.3101005,0.128637,0.41573,-0.1907505,0.230277,0.581304,-0.3190605,-0.2248129999999999,0.8469000000000001,-0.4066005,0.240937,0.8090300000000001,-0.3979105,-0.062983,-0.0024799999999999,0.0046255,0.062983,0.00248,-0.0046255,-0.246093,0.0994000000000001,-0.2513205,0.219937,0.09907,-0.2822405,-0.1937829999999999,-0.2663999999999999,-0.1604735,0.209797,-0.2593299999999999,-0.1596595,1
120,0.006555,0.563654,-0.1892245,-0.13123,0.3937549999999999,-0.1614685,-0.22413,0.603021,-0.3101245,0.12911,0.414625,-0.1887945,0.23299,0.579321,-0.3168445,-0.22612,0.851125,-0.4084145,0.24392,0.806845,-0.3961745,-0.064051,-0.003245,0.0044755,0.064051,0.0032449999999999,-0.0044754999999999,-0.24201,0.1072549999999999,-0.2480145,0.2179299999999999,0.111775,-0.2802745,-0.18888,-0.259685,-0.1593554999999999,0.20856,-0.248175,-0.1585245,1
121,0.0064084999999999,0.562782,-0.1874345,-0.1310935,0.389555,-0.1603995,-0.2250835,0.6052569999999999,-0.3099245,0.1307265,0.412945,-0.1867845,0.2354365,0.577009,-0.3144544999999999,-0.2274435,0.860605,-0.4106545,0.2465765,0.8046249999999999,-0.3947145,-0.0649985,-0.0037749999999999,0.0043245,0.0649985,0.0037749999999999,-0.0043244999999999,-0.2382935,0.114375,-0.2448845,0.2158965,0.1233549999999999,-0.2789645,-0.1821335,-0.254695,-0.1620525,0.2063164999999999,-0.236705,-0.1575774999999999,1
122,0.006626,0.56492,-0.185377,-0.1301989999999999,0.3901599999999999,-0.159519,-0.225989,0.605497,-0.309867,0.130931,0.4142099999999999,-0.185017,0.237761,0.57604,-0.312077,-0.2290489999999999,0.8679,-0.413247,0.249081,0.80033,-0.393477,-0.065976,-0.0036899999999999,0.004409,0.065976,0.0036899999999999,-0.0044089999999999,-0.2352389999999999,0.1205699999999999,-0.241997,0.214091,0.1323899999999999,-0.277927,-0.1749589999999999,-0.25012,-0.161409,0.207991,-0.22574,-0.154337,1
123,0.0067965,0.5665769999999999,-0.1835695,-0.1294175,0.3898049999999999,-0.1587555,-0.2269375,0.60603,-0.3094295,0.1311325,0.4146249999999999,-0.1834495,0.2392725,0.5764579999999999,-0.3099794999999999,-0.2308375,0.8745949999999999,-0.4151795,0.2516125,0.7959249999999999,-0.3918795,-0.0668935,-0.003975,0.0043365,0.0668935,0.0039749999999999,-0.0043365,-0.2327275,0.1260249999999999,-0.2395295,0.2128825,0.1403849999999999,-0.2765895,-0.1734875,-0.240955,-0.1603715,0.2075725,-0.219995,-0.1544355,1
124,0.0066724999999999,0.5684520000000001,-0.1820815,-0.1288345,0.389435,-0.1582315,-0.2282745,0.605662,-0.3088115,0.1310455,0.414025,-0.1823015,0.2404055,0.576068,-0.3083215,-0.2331545,0.879425,-0.4163415,0.2538455,0.7987650000000001,-0.3914415,-0.0675975,-0.003935,0.0043755,0.0675975,0.003935,-0.0043755,-0.2308045,0.129445,-0.2377214999999999,0.2118455,0.145225,-0.2756415,-0.1722245,-0.2342949999999999,-0.1593185,0.2071255,-0.216955,-0.1560355,1
125,0.005918,0.568384,-0.1811505,-0.128794,0.388785,-0.1581525,-0.229484,0.605695,-0.3086305,0.131296,0.414015,-0.1819605,0.241126,0.576527,-0.3075105,-0.2357639999999999,0.8807050000000001,-0.4164305,0.255496,0.800575,-0.3915205,-0.067864,-0.0039449999999999,0.0043944999999999,0.067864,0.0039449999999999,-0.0043945,-0.2301039999999999,0.129515,-0.2372305,0.211086,0.145845,-0.2752705,-0.170144,-0.2367949999999999,-0.1589845,0.206166,-0.217635,-0.1583625,1
126,0.0048235,0.567728,-0.1801295,-0.1290245,0.387295,-0.1581505,-0.2308944999999999,0.605695,-0.3085695,0.1314055,0.413405,-0.1818195,0.2413055,0.576527,-0.3065195,-0.2388345,0.8806350000000001,-0.4162995,0.2568155,0.800575,-0.3915295,-0.0677095,-0.0039449999999999,0.0043875,0.0677095,0.0039449999999999,-0.0043874999999999,-0.2296744999999999,0.128855,-0.2372395,0.2114855,0.145555,-0.2760895,-0.1685045,-0.2388249999999999,-0.1614765,0.2061755,-0.2192549999999999,-0.1608195,1
127,0.0035954999999999,0.567728,-0.178742,-0.1293315,0.387025,-0.15826,-0.2323715,0.605695,-0.308512,0.1315184999999999,0.413405,-0.181812,0.2409885,0.576527,-0.305592,-0.2423415,0.8806350000000001,-0.416142,0.2588685,0.800575,-0.3914019999999999,-0.0675065,-0.0039449999999999,0.004379,0.0675065,0.0039449999999999,-0.0043789999999999,-0.2293815,0.128855,-0.237252,0.2117485,0.145475,-0.276752,-0.1681015,-0.2388249999999999,-0.1590059999999999,0.2055885,-0.220125,-0.162792,1
128,0.0028429999999999,0.567728,-0.1784525,-0.129251,0.387025,-0.1582635,-0.233741,0.605695,-0.3079825,0.131759,0.413405,-0.1817025,0.241929,0.576527,-0.3054925,-0.246011,0.8806350000000001,-0.4159825,0.260959,0.807775,-0.3912425,-0.0672659999999999,-0.0039449999999999,0.0043684999999999,0.0672659999999999,0.0039449999999999,-0.0043685,-0.2291409999999999,0.128855,-0.2372625,0.211959,0.145475,-0.2774625,-0.171771,-0.238245,-0.1566295,0.205309,-0.2202349999999999,-0.1641405,1
129,0.0023109999999999,0.5673130000000001,-0.1788885,-0.129264,0.38661,-0.1588925,-0.234904,0.606485,-0.3076985,0.1318959999999999,0.4129900000000001,-0.1823385,0.242076,0.577597,-0.3057585,-0.249484,0.88022,-0.4159685,0.262886,0.81732,-0.3912685,-0.067103,-0.0040899999999999,0.0043274999999999,0.067103,0.00409,-0.0043275,-0.2296139999999999,0.1284400000000001,-0.2378684999999999,0.212446,0.14506,-0.2787085,-0.175814,-0.2361699999999998,-0.1559525,0.205866,-0.2206599999999999,-0.1659785,1
130,0.0021394999999999,0.5674239999999999,-0.179551,-0.1292165,0.3839449999999999,-0.159547,-0.2359065,0.6076159999999999,-0.307231,0.1320434999999999,0.4114249999999999,-0.183051,0.2422235,0.578344,-0.306471,-0.2525865,0.8784649999999999,-0.415331,0.2648335,0.8255349999999999,-0.391601,-0.0669275,-0.004275,0.004255,0.0669275,0.0042749999999999,-0.0042549999999999,-0.2307465,0.1270049999999999,-0.239031,0.2134035,0.1423949999999999,-0.279541,-0.1805665,-0.235025,-0.156978,0.2077135,-0.2233250000000001,-0.166941,1
131,0.001662,0.5687789999999999,-0.1804105,-0.130312,0.3853549999999999,-0.1602605,-0.237252,0.6074869999999999,-0.3070104999999999,0.131988,0.4134849999999999,-0.1842805,0.242378,0.5802909999999999,-0.3072905,-0.2560619999999999,0.8724649999999999,-0.4141505,0.266198,0.8301049999999999,-0.3924404999999999,-0.066306,-0.004215,0.0040395,0.066306,0.0042149999999999,-0.0040395,-0.233292,0.1223849999999999,-0.2411005,0.214688,0.1356949999999999,-0.2809804999999999,-0.184632,-0.237565,-0.1569195,0.209468,-0.2311550000000001,-0.1692205,1
132,0.000881,0.5704650000000001,-0.1818795,-0.131077,0.38609,-0.1615135,-0.238347,0.607226,-0.3070695,0.131703,0.4150600000000001,-0.1858195,0.242153,0.5821130000000001,-0.3083194999999999,-0.259177,0.86477,-0.4130295,0.267173,0.8355600000000001,-0.3940095,-0.065597,-0.0041999999999999,0.0038325,0.065597,0.0042,-0.0038325,-0.2363569999999999,0.1164600000000001,-0.2437995,0.216133,0.1269800000000001,-0.2830495,-0.191657,-0.2421499999999999,-0.1578105,0.208683,-0.2387299999999999,-0.1708695,1
133,4.5999999999999167e-05,0.571895,-0.1833675,-0.132295,0.3867950000000001,-0.1632795,-0.239145,0.609801,-0.3076275,0.131545,0.417375,-0.1878575,0.241815,0.5845770000000001,-0.3094475,-0.261525,0.859535,-0.4113575,0.268115,0.838295,-0.3956775,-0.064839,-0.0042649999999999,0.0035764999999999,0.064839,0.004265,-0.0035764999999999,-0.2399349999999999,0.109115,-0.2474975,0.218015,0.115105,-0.2848975,-0.197575,-0.2491549999999999,-0.1609165,0.2116549999999999,-0.2488749999999999,-0.1742175,1
134,-0.0007849999999999,0.5733,-0.1851924999999999,-0.133434,0.389105,-0.1653135,-0.2401039999999999,0.6119870000000001,-0.3083325,0.131346,0.4184650000000001,-0.1902325,0.241656,0.5882980000000001,-0.3107125,-0.263324,0.8536350000000001,-0.4096925,0.269096,0.8412950000000001,-0.3976625,-0.0639059999999999,-0.0039749999999999,0.0034934999999999,0.0639059999999999,0.003975,-0.0034934999999999,-0.2435839999999999,0.100205,-0.2513324999999999,0.220036,0.102015,-0.2868024999999999,-0.2019439999999999,-0.2554949999999999,-0.1613494999999999,0.212656,-0.2584649999999999,-0.1767625,1
135,-0.0015825,0.574647,-0.1876745,-0.1349985,0.390085,-0.1680025,-0.2415785,0.614109,-0.3090845,0.1307015,0.419635,-0.1933544999999999,0.2410815,0.589269,-0.3126445,-0.2649185,0.854355,-0.4077245,0.2705415,0.848075,-0.3987345,-0.0628634999999999,-0.0037849999999999,0.0032304999999999,0.0628634999999999,0.003785,-0.0032304999999999,-0.2473685,0.087415,-0.2557645,0.2224315,0.085855,-0.2896944999999999,-0.2059685,-0.265825,-0.1644645,0.2137814999999999,-0.2689049999999999,-0.1791345,1
136,-0.0021939999999999,0.575672,-0.190495,-0.136724,0.3937299999999999,-0.170863,-0.243154,0.616476,-0.309565,0.130056,0.4205899999999999,-0.196685,0.240296,0.589801,-0.314655,-0.2664539999999999,0.8521799999999999,-0.405655,0.270806,0.8428199999999999,-0.399415,-0.061978,-0.0033199999999999,0.003028,0.061978,0.0033199999999999,-0.003028,-0.2508439999999999,0.0719499999999999,-0.260075,0.224676,0.0675399999999999,-0.292845,-0.210204,-0.27831,-0.166984,0.214696,-0.28243,-0.182135,1
137,-0.0023739999999999,0.5785779999999999,-0.1933,-0.138175,0.39696,-0.173779,-0.244515,0.6186609999999999,-0.31,0.128335,0.4225099999999999,-0.1997999999999999,0.239885,0.591606,-0.3163,-0.2679049999999999,0.8497399999999999,-0.4025299999999999,0.271265,0.84281,-0.39922,-0.061282,-0.00322,0.002876,0.061282,0.00322,-0.0028759999999999,-0.253775,0.0562199999999999,-0.2641799999999999,0.226715,0.0492499999999999,-0.29599,-0.213815,-0.29245,-0.170893,0.213685,-0.30088,-0.18627,1
138,-0.0024419999999999,0.581885,-0.1959165,-0.139619,0.4008949999999999,-0.1758934999999999,-0.245209,0.6222049999999999,-0.3097765,0.126591,0.4250849999999999,-0.2023265,0.240421,0.5937359999999999,-0.3167365,-0.2693489999999999,0.8488449999999998,-0.3981765,0.270781,0.840225,-0.3982065,-0.060789,-0.002835,0.0028035,0.060789,0.0028349999999999,-0.0028035,-0.2560989999999999,0.0387949999999999,-0.2674265,0.227371,0.0295049999999999,-0.2992065,-0.216489,-0.3111050000000001,-0.1747645,0.214081,-0.3170750000000001,-0.1894565,1
139,-0.0022939999999999,0.584805,-0.1981375,-0.1410229999999999,0.406329,-0.1774625,-0.2458429999999999,0.624545,-0.3087275,0.125947,0.427923,-0.2041875,0.241167,0.596175,-0.3163074999999999,-0.270143,0.847925,-0.3928175,0.271287,0.8370150000000001,-0.3952275,-0.060336,-0.002555,0.0027145,0.060336,0.0025549999999999,-0.0027144999999999,-0.257973,0.0203749999999999,-0.2704175,0.228027,0.0093449999999999,-0.3022675,-0.219393,-0.3300849999999999,-0.1786645,0.214447,-0.333465,-0.1925474999999999,1
140,-0.0021635,0.58717,-0.1999625,-0.1423045,0.409725,-0.1781045,-0.2461045,0.63008,-0.3056625,0.1254755,0.431452,-0.2053825,0.2407955,0.59899,-0.3154525,-0.2699245,0.85219,-0.3876225,0.2718855,0.83606,-0.3910825,-0.0602115,-0.00256,0.0028325,0.0602115,0.00256,-0.0028325,-0.2597945,0.00207,-0.2730625,0.2285355,-0.0091499999999999,-0.3046725,-0.2219245,-0.34671,-0.1825304999999999,0.2147655,-0.3484799999999999,-0.1955425,1
141,-0.0019425,0.5898300000000001,-0.199703,-0.1436025,0.412251,-0.177801,-0.2465625,0.63514,-0.301113,0.1251875,0.434108,-0.205483,0.2405275,0.6025,-0.311963,-0.2694724999999999,0.85787,-0.379673,0.2722075,0.83718,-0.384123,-0.0601435,-0.00261,0.003013,0.0601435,0.00261,-0.003013,-0.2616624999999999,-0.0161099999999999,-0.274643,0.2287775,-0.0268299999999999,-0.304993,-0.2243825,-0.3633999999999999,-0.18414,0.2148775,-0.36361,-0.197323,1
142,-0.002033,0.593305,-0.1987325,-0.14479,0.417859,-0.1762395,-0.24724,0.639235,-0.2951825,0.1251,0.436659,-0.2040625,0.23962,0.607445,-0.3079325,-0.26866,0.867415,-0.3699525,0.2722199999999999,0.844625,-0.3765225,-0.060519,-0.002275,0.0032974999999999,0.060519,0.002275,-0.0032974999999999,-0.26378,-0.0358249999999999,-0.2750525,0.22769,-0.0448049999999999,-0.3040825,-0.22729,-0.3807549999999999,-0.1853175,0.21464,-0.380425,-0.1987325,1
143,-0.0020039999999999,0.5986450000000001,-0.1954665,-0.1452709999999999,0.421057,-0.1735535,-0.2477909999999999,0.645625,-0.2875625,0.125059,0.439709,-0.2013225,0.237749,0.6106050000000001,-0.3014124999999999,-0.267771,0.875885,-0.3575325,0.271229,0.855465,-0.3666224999999999,-0.060895,-0.0023449999999999,0.0034384999999999,0.060895,0.002345,-0.0034385,-0.264851,-0.0551149999999999,-0.2733725,0.226319,-0.0622249999999999,-0.3012225,-0.229681,-0.402895,-0.1849705,0.213839,-0.401675,-0.1994725,1
144,-0.0019445,0.60059,-0.1905009999999999,-0.1451045,0.426113,-0.170163,-0.2483045,0.65428,-0.2805379999999999,0.1255755,0.4412,-0.198238,0.2373555,0.6142000000000001,-0.294558,-0.2666745,0.87897,-0.345228,0.2708255,0.8586499999999999,-0.357908,-0.0611575,-0.0019899999999999,0.003356,0.0611575,0.0019899999999999,-0.0033559999999999,-0.2650645,-0.0733699999999999,-0.271108,0.2247355,-0.0791999999999999,-0.297628,-0.2320345,-0.4219599999999999,-0.186053,0.2128055,-0.42307,-0.200148,1
145,-0.0015509999999999,0.604575,-0.184767,-0.144854,0.4282269999999999,-0.166524,-0.248414,0.661705,-0.273585,0.126286,0.441615,-0.195096,0.237236,0.620225,-0.286595,-0.2658439999999999,0.884215,-0.333165,0.270306,0.8650249999999999,-0.347935,-0.0613859999999999,-0.001905,0.0033659999999999,0.0613859999999999,0.0019049999999999,-0.003366,-0.263924,-0.087785,-0.267345,0.223596,-0.090595,-0.291035,-0.234104,-0.439295,-0.186589,0.212256,-0.4404450000000001,-0.200745,1
146,-0.001508,0.607945,-0.178949,-0.145038,0.432425,-0.161781,-0.248498,0.665795,-0.265189,0.127072,0.443675,-0.190705,0.237182,0.627165,-0.277619,-0.264618,0.887575,-0.321289,0.270222,0.865545,-0.3371389999999999,-0.061727,-0.0018449999999999,0.0033809999999999,0.061727,0.0018449999999999,-0.0033809999999999,-0.262178,-0.1041949999999999,-0.263089,0.222352,-0.1052549999999999,-0.284459,-0.236288,-0.4597349999999999,-0.1868199999999999,0.211582,-0.460505,-0.201379,1
147,-0.0013495,0.6146,-0.171889,-0.1452175,0.43575,-0.156825,-0.2486475,0.6685099999999999,-0.254898,0.1277825,0.44519,-0.185792,0.2370625,0.6340600000000001,-0.268928,-0.2633175,0.8909900000000001,-0.308078,0.2702124999999999,0.86927,-0.325988,-0.0621505,-0.00195,0.0036479999999999,0.0621505,0.00195,-0.0036479999999999,-0.2601775,-0.11845,-0.258058,0.2205725,-0.1174699999999999,-0.276738,-0.2384275,-0.4759299999999999,-0.186294,0.2111525,-0.4780299999999999,-0.2007479999999999,1
148,-0.001067,0.6179250000000001,-0.1645025,-0.144999,0.440175,-0.1505395,-0.248599,0.671695,-0.2439185,0.128861,0.449485,-0.1795785,0.236871,0.642415,-0.2601685,-0.261919,0.894695,-0.2925284999999999,0.2703109999999999,0.876665,-0.3149185,-0.062481,-0.0017249999999999,0.0036874999999999,0.062481,0.001725,-0.0036875,-0.257179,-0.1346549999999999,-0.2517585,0.218591,-0.1320949999999999,-0.2680185,-0.240419,-0.495325,-0.1853315,0.210771,-0.4983849999999999,-0.1995185,1
149,-0.000573,0.62144,-0.1557555,-0.144609,0.44353,-0.1443305,-0.248269,0.67591,-0.2310125,0.129951,0.45088,-0.1730575,0.236941,0.64933,-0.2502425,-0.260309,0.90375,-0.2755725,0.271111,0.89171,-0.3005925,-0.062675,-0.00136,0.0037934999999999,0.062675,0.00136,-0.0037935,-0.253699,-0.1488,-0.2448625,0.216561,-0.14497,-0.2589625,-0.2418489999999999,-0.5135,-0.1844135,0.210161,-0.51698,-0.1980625,1
150,5.5999999999997024e-05,0.624825,-0.1470685,-0.143923,0.447475,-0.1381145,-0.247683,0.682855,-0.2183455,0.131857,0.452665,-0.1666095,0.237757,0.655105,-0.2410755,-0.258303,0.911375,-0.2589555,0.2718069999999999,0.904075,-0.2882855,-0.063264,-0.0008849999999999,0.0038045,0.063264,0.0008849999999999,-0.0038045,-0.249613,-0.162185,-0.2374454999999999,0.214277,-0.157395,-0.2495055,-0.2426529999999999,-0.531555,-0.1829265,0.209437,-0.534265,-0.1965855,1
151,0.0007559999999999,0.62818,-0.137579,-0.143393,0.4501,-0.130768,-0.246623,0.68434,-0.205754,0.1326369999999999,0.45582,-0.1592879999999999,0.238887,0.65892,-0.230514,-0.256423,0.90958,-0.2437639999999999,0.272637,0.90971,-0.274714,-0.063174,-0.0006899999999999,0.003849,0.063174,0.00069,-0.0038489999999999,-0.245403,-0.1756599999999999,-0.2294939999999999,0.211697,-0.1704999999999999,-0.240064,-0.243393,-0.54979,-0.180805,0.208697,-0.55108,-0.1944639999999999,1
152,0.0014184999999999,0.63042,-0.1277875,-0.1427045,0.45278,-0.1235205,-0.2453045,0.68354,-0.1928945,0.1337155,0.45897,-0.1521135,0.2395055,0.66343,-0.2190544999999999,-0.2538745,0.9087,-0.2292545,0.2732455,0.91113,-0.2613845,-0.0632685,-0.0003899999999999,0.0039565,0.0632685,0.00039,-0.0039565,-0.2402145,-0.1868099999999999,-0.2207945,0.2080354999999999,-0.18039,-0.2293045,-0.2438545,-0.56487,-0.1786555,0.2082655,-0.56359,-0.1917645,1
153,0.0024029999999999,0.635195,-0.1193455,-0.1421009999999999,0.455245,-0.1162844999999999,-0.243641,0.678965,-0.1793664999999999,0.135069,0.464105,-0.1441665,0.240539,0.668965,-0.2085325,-0.251051,0.905685,-0.2135225,0.2735289999999999,0.912765,-0.2472825,-0.063307,-7.50000000000195e-05,0.0039254999999999,0.063307,7.499999999999174e-05,-0.0039254999999999,-0.234491,-0.197965,-0.2116925,0.204359,-0.190945,-0.2189025,-0.2440109999999999,-0.579445,-0.1760264999999999,0.208069,-0.576865,-0.1884525,1
154,0.0037659999999999,0.637985,-0.1111685,-0.141149,0.4562549999999999,-0.1086815,-0.241539,0.680725,-0.1657795,0.136781,0.468925,-0.1356675,0.241791,0.673405,-0.1975515,-0.2479289999999999,0.907565,-0.1976415,0.273671,0.914705,-0.2336714999999999,-0.063593,-0.000335,0.0040774999999999,0.063593,0.000335,-0.0040774999999999,-0.228179,-0.211005,-0.2021915,0.201041,-0.2052949999999999,-0.2106215,-0.243299,-0.593845,-0.1720074999999999,0.207891,-0.591635,-0.1843914999999999,1
155,0.005234,0.640775,-0.103019,-0.140064,0.457485,-0.10207,-0.239524,0.684595,-0.154313,0.1384159999999999,0.472315,-0.128656,0.243116,0.675195,-0.188654,-0.244704,0.911655,-0.183494,0.2731159999999999,0.917025,-0.221724,-0.063725,1.6999999999989246e-05,0.0040069999999999,0.063725,-1.7000000000003124e-05,-0.004007,-0.221484,-0.220205,-0.192824,0.197216,-0.214565,-0.202274,-0.241884,-0.6035750000000001,-0.168187,0.207376,-0.601325,-0.180614,1
156,0.0066809999999999,0.639827,-0.094483,-0.1392,0.456737,-0.094973,-0.23757,0.688217,-0.142259,0.14001,0.475007,-0.12065,0.24397,0.6753170000000001,-0.17809,-0.24098,0.915497,-0.169837,0.27243,0.917557,-0.20797,-0.06362,0.000258,0.004137,0.06362,-0.000258,-0.004137,-0.21409,-0.229933,-0.18192,0.19254,-0.2247929999999999,-0.19294,-0.2397999999999999,-0.615453,-0.163028,0.20564,-0.611853,-0.175259,1
157,0.0073489999999999,0.6431595,-0.085732,-0.1390009999999999,0.4545495,-0.088732,-0.2360209999999999,0.6937195,-0.130477,0.140799,0.4758595,-0.113574,0.244559,0.6768895,-0.166686,-0.238111,0.9210295,-0.156495,0.272589,0.9190195,-0.194421,-0.063666,0.0002915,0.0042799999999999,0.063666,-0.0002915,-0.00428,-0.208011,-0.2425105,-0.171747,0.187199,-0.2364205,-0.183541,-0.2377409999999999,-0.6284005,-0.157817,0.203149,-0.6234505,-0.169649,1
158,0.0077299999999999,0.644371,-0.0780135,-0.138535,0.456511,-0.0803285,-0.234605,0.6936110000000001,-0.1216194999999999,0.141435,0.476971,-0.1054964999999999,0.245115,0.676911,-0.1559404999999999,-0.235925,0.917141,-0.1443555,0.273545,0.911361,-0.1844735,-0.063815,0.0003289999999999,0.0044625,0.063815,-0.0003289999999999,-0.0044624999999999,-0.201815,-0.257879,-0.1614755,0.181235,-0.250969,-0.1737035,-0.235315,-0.6433989999999999,-0.1522494999999999,0.200215,-0.637949,-0.1636575,1
159,0.0081809999999999,0.645529,-0.0691244999999999,-0.137952,0.458799,-0.0699014999999999,-0.232792,0.691179,-0.1102075,0.142178,0.478489,-0.0953614999999999,0.2455979999999999,0.677419,-0.1438725,-0.233852,0.914649,-0.1313174999999999,0.274288,0.904959,-0.1718655,-0.064013,0.0005669999999999,0.0046135,0.064013,-0.000567,-0.0046134999999999,-0.194992,-0.273501,-0.1491275,0.1756879999999999,-0.266161,-0.1624835,-0.232602,-0.658651,-0.1438315,0.197028,-0.653041,-0.1557875,1
160,0.0087029999999999,0.6433855,-0.057789,-0.137054,0.4557955,-0.058306,-0.2304739999999999,0.6900755000000001,-0.096259,0.143456,0.4759255,-0.083212,0.245956,0.6756055000000001,-0.129973,-0.231074,0.9144855,-0.112646,0.275706,0.9075855,-0.1525169999999999,-0.06398,-4.649999999999793e-05,0.0050149999999999,0.06398,4.65000000000014e-05,-0.0050149999999999,-0.1865939999999999,-0.2897545,-0.133762,0.168666,-0.2818145,-0.148282,-0.2293639999999999,-0.6744945,-0.13251,0.194146,-0.6685945,-0.144833,1
161,0.009124,0.640519,-0.0466785,-0.136245,0.453109,-0.0465885,-0.228205,0.689889,-0.0830085,0.144595,0.473449,-0.0710625,0.2465949999999999,0.673439,-0.1168154999999999,-0.229035,0.915679,-0.0938245,0.275455,0.910489,-0.1333115,-0.064163,-0.0004229999999999,0.0051785,0.064163,0.0004229999999999,-0.0051785,-0.179165,-0.307241,-0.1193114999999999,0.162725,-0.299521,-0.1360045,-0.226165,-0.691921,-0.1210535,0.191245,-0.686301,-0.1336995,1
162,0.0093849999999999,0.6383215,-0.035793,-0.135612,0.4500015,-0.036057,-0.226052,0.6915115,-0.070933,0.145388,0.4699115,-0.060471,0.247228,0.6708615,-0.103758,-0.226672,0.9168415,-0.077401,0.275398,0.9161615,-0.115521,-0.064402,-0.0009184999999999,0.0052219999999999,0.064402,0.0009185,-0.005222,-0.172112,-0.3211785,-0.105607,0.156868,-0.3135385,-0.124115,-0.223152,-0.7056385000000001,-0.109948,0.1885679999999999,-0.7003185000000001,-0.12335,1
163,0.0092555,0.6366465,-0.0252645,-0.1351834999999999,0.4486165,-0.0258085,-0.2243234999999999,0.6876465,-0.0588985,0.1459665,0.4681665,-0.0501115,0.2470065,0.6675065,-0.0914555,-0.2241735,0.9128965,-0.0611325,0.2752965,0.9215165,-0.0981105,-0.0647715,-0.0010544999999999,0.0051985,0.0647715,0.0010544999999999,-0.0051985,-0.1660035,-0.3326935,-0.0926385,0.1512665,-0.3251235,-0.1127245,-0.2206634999999999,-0.7170934999999999,-0.0991674999999999,0.1858665,-0.7119035,-0.1130365,1
164,0.009153,0.6343965,-0.0146674999999999,-0.134794,0.4459364999999999,-0.0160815,-0.222444,0.6846765,-0.0463125,0.146546,0.4656365,-0.0399125,0.247486,0.6648165,-0.0779785,-0.2219239999999999,0.9106865,-0.0444284999999999,0.274516,0.9197865,-0.0790935,-0.065166,-0.0013704999999999,0.0049485,0.065166,0.0013704999999999,-0.0049484999999999,-0.160524,-0.3431835,-0.0802905,0.145976,-0.3365235,-0.1015264999999999,-0.218474,-0.7274535,-0.0883275,0.183026,-0.7230735,-0.1021815,1
165,0.008851,0.633027,-0.004923,-0.134585,0.445957,-0.006478,-0.221165,0.681407,-0.035462,0.146785,0.464267,-0.03035,0.2473149999999999,0.663517,-0.065319,-0.220425,0.908367,-0.028633,0.273295,0.919927,-0.061906,-0.065151,-0.0016509999999999,0.0044789999999999,0.065151,0.0016509999999999,-0.004479,-0.156525,-0.351503,-0.069451,0.141155,-0.345453,-0.0912969999999999,-0.217215,-0.7353029999999999,-0.0782539999999999,0.180885,-0.731783,-0.092068,1
166,0.0089614999999999,0.6305665,0.004465,-0.1337385,0.4456965,0.002877,-0.2192985,0.6774865,-0.0249,0.1476914999999999,0.4625865,-0.0209,0.2480214999999999,0.6596065,-0.053203,-0.2183785,0.9055565,-0.015386,0.2724515,0.9176465,-0.04512,-0.0650425,-0.0019284999999999,0.0040439999999999,0.0650425,0.0019284999999999,-0.0040439999999999,-0.1520385,-0.3607935,-0.0588729999999999,0.1372515,-0.3554235,-0.081452,-0.2156785,-0.7441335,-0.06884,0.1793914999999999,-0.7415134999999999,-0.081882,1
167,0.0086024999999999,0.629676,0.0137185,-0.1335635,0.441196,0.0099765,-0.2177335,0.675866,-0.0141994999999999,0.1484165,0.461136,-0.0118944999999999,0.2485365,0.658446,-0.0409135,-0.2166334999999999,0.904996,-0.0012624999999999,0.2713165,0.917446,-0.0287605,-0.0647765,-0.0021319999999999,0.0036015,0.0647765,0.002132,-0.0036014999999999,-0.1485034999999999,-0.368764,-0.0488815,0.1337465,-0.3641939999999999,-0.0720025,-0.2146035,-0.751644,-0.0594925,0.1778765,-0.750024,-0.0717464999999999,1
168,0.0077314999999999,0.628308,0.0210045,-0.1339275,0.437018,0.0152575,-0.2170075,0.674148,-0.0059735,0.1487225,0.460218,-0.0045014999999999,0.2485625,0.657478,-0.0306405,-0.2160175,0.904508,0.0107564999999999,0.2691925,0.917068,-0.0148394999999999,-0.0648275,-0.002557,0.0032175,0.0648275,0.0025569999999999,-0.0032175,-0.1463775,-0.378842,-0.0415445,0.1298025,-0.374672,-0.0643615,-0.2141275,-0.761302,-0.0523485,0.1759625,-0.760222,-0.0633985,1
169,0.0075495,0.6292305,0.0250919999999999,-0.1339335,0.4360405,0.017464,-0.2164235,0.6742305000000001,-0.0009319999999999,0.1491164999999999,0.4609205,-0.0007959999999999,0.2487765,0.6583705000000001,-0.023334,-0.2147235,0.9035305,0.016581,0.2674765,0.9174905,-0.009061,-0.0647555,-0.0022765,0.002495,0.0647555,0.0022765,-0.002495,-0.1452935,-0.3798195,-0.038289,0.1282865,-0.3760795,-0.060323,-0.2132035,-0.7622795,-0.048743,0.1743964999999999,-0.7615894999999999,-0.058607,1
170,0.0073919999999999,0.6299699999999999,0.028973,-0.133959,0.4352499999999999,0.019606,-0.216019,0.67387,0.0039539999999999,0.149541,0.46186,0.0029579999999999,0.248971,0.6594899999999999,-0.016361,-0.2137889999999999,0.90275,0.021068,0.265801,0.91771,-0.003409,-0.064663,-0.002138,0.0020749999999999,0.064663,0.002138,-0.002075,-0.144309,-0.3806,-0.035246,0.126801,-0.37699,-0.0563899999999999,-0.212499,-0.7630600000000001,-0.045283,0.173041,-0.7624500000000001,-0.0541279999999999,1
171,0.007233,0.6303365,0.032672,-0.133953,0.4344665,0.0218009999999999,-0.215713,0.6731665,0.008671,0.149977,0.4629265,0.00686,0.249167,0.6608265,-0.009738,-0.213533,0.9020465,0.0252739999999999,0.264337,0.9179065,0.002159,-0.064583,-0.0020725,0.0018,0.064583,0.0020724999999999,-0.0017999999999999,-0.143463,-0.3813035,-0.032563,0.125407,-0.3776935,-0.052564,-0.211863,-0.7637635,-0.042264,0.171757,-0.7631535,-0.049753,1
172,0.0071034999999999,0.630463,0.0361444999999999,-0.1339125,0.4331630000000001,0.0238885,-0.2155325,0.672463,0.0130955,0.1504474999999999,0.464153,0.0107275,0.2491275,0.6623330000000001,-0.0035575,-0.2133925,0.899823,0.0291514999999999,0.2611575,0.911503,0.0071405,-0.0644495,-0.001986,0.0015855,0.0644495,0.001986,-0.0015855,-0.1426825,-0.381417,-0.0302905,0.1241375,-0.3784269999999999,-0.0489805,-0.2111625,-0.763867,-0.0394265,0.1706375,-0.763877,-0.0457445,1
173,0.0069409999999999,0.6302455,0.0388699999999999,-0.133906,0.4319555,0.025632,-0.215386,0.6715955,0.016806,0.150904,0.4653155,0.014207,0.248994,0.6638455,0.001444,-0.213276,0.8978755,0.032228,0.257794,0.9049355,0.010239,-0.064308,-0.0019104999999999,0.001476,0.064308,0.0019104999999999,-0.001476,-0.142096,-0.3814945,-0.0286489999999999,0.123164,-0.3792945,-0.046091,-0.210776,-0.7639245,-0.037124,0.169984,-0.7647445,-0.042659,1
174,0.0067834999999999,0.6298765000000001,0.041327,-0.1338524999999999,0.4311065,0.027217,-0.2152025,0.6705365,0.020139,0.1513875,0.4665964999999999,0.017505,0.2488375,0.6654665,0.005877,-0.2131225,0.8954165000000001,0.034796,0.2547675,0.8982065,0.013212,-0.0641935,-0.0018485,0.001573,0.0641935,0.0018485,-0.0015729999999999,-0.1415625,-0.3815834999999999,-0.027153,0.1223975,-0.3801434999999999,-0.043566,-0.2103924999999999,-0.7639635,-0.035162,0.1694475,-0.7655235,-0.03995,1
175,0.0067449999999999,0.6292745,0.043432,-0.133766,0.4302645,0.028728,-0.215006,0.6696945,0.022832,0.151664,0.4678544999999999,0.020565,0.248604,0.6670045,0.009781,-0.2127959999999999,0.8948745,0.037908,0.251774,0.8917245,0.0161849999999999,-0.064102,-0.0018144999999999,0.001763,0.064102,0.0018145,-0.001763,-0.141096,-0.3816655,-0.02572,0.121754,-0.3808255,-0.041407,-0.209976,-0.7640055,-0.033277,0.169004,-0.7661555,-0.037702,1
176,0.0066879999999999,0.6285930000000001,0.0453895,-0.133683,0.4294530000000001,0.0302115,-0.214953,0.6690130000000001,0.0250855,0.151857,0.468343,0.0229285,0.248537,0.667873,0.0133345,-0.212693,0.894663,0.0399735,0.249697,0.8909130000000001,0.0190745,-0.064006,-0.0018229999999999,0.0018805,0.064006,0.001823,-0.0018805,-0.140673,-0.381717,-0.0243885,0.121217,-0.381227,-0.0396385,-0.209653,-0.764057,-0.0315075,0.168657,-0.766517,-0.0358015,1
177,0.0066015,0.627929,0.0469355,-0.1341365,0.4306689999999999,0.0325535,-0.2150465,0.668319,0.0266245,0.1520735,0.468429,0.0248575,0.2482835,0.668339,0.0161984999999999,-0.2128665,0.894259,0.0413754999999999,0.2493235,0.890089,0.0223425,-0.0638715,-0.001819,0.0019445,0.0638715,0.0018189999999999,-0.0019445,-0.1402165,-0.381781,-0.0234785,0.1207635,-0.381431,-0.0381615,-0.2092565,-0.764091,-0.0299184999999999,0.1686135,-0.7666810000000001,-0.0340695,1
178,0.0066645,0.626705,0.0484375,-0.1355225,0.435835,0.0362825,-0.2163825,0.669825,0.0281114999999999,0.1524775,0.468155,0.0268425,0.2482275,0.6682549999999999,0.0186895,-0.2129925,0.895635,0.0426965,0.2492475,0.888745,0.0249474999999999,-0.0636395,-0.0017949999999999,0.0018944999999999,0.0636395,0.001795,-0.0018944999999999,-0.1395125,-0.381885,-0.0228005,0.1205875,-0.381505,-0.0367855,-0.2086625,-0.764155,-0.0282745,0.1689975,-0.766725,-0.0326135,1
179,0.0068184999999999,0.62501,0.0497565,-0.1368015,0.4404899999999999,0.0398494999999999,-0.2177015,0.67072,0.0294335,0.1528385,0.4676899999999999,0.0285715,0.2479685,0.66782,0.0208345,-0.2130615,0.89565,0.0439095,0.2490484999999999,0.88811,0.0266255,-0.0633895,-0.0017,0.0016825,0.0633895,0.0016999999999999,-0.0016825,-0.1386415,-0.38193,-0.0222185,0.1205785,-0.38163,-0.0355335,-0.2079315,-0.76417,-0.0267975,0.1694985,-0.7668200000000001,-0.0312225,1
180,0.0066665,0.623685,0.050893,-0.1381105,0.444705,0.043231,-0.2191605,0.671045,0.030584,0.1528395,0.4671850000000001,0.030053,0.2477095,0.667455,0.022661,-0.2135405,0.894875,0.04491,0.2487895,0.887715,0.0285549999999999,-0.0631765,-0.001625,0.001423,0.0631765,0.001625,-0.001423,-0.1376405,-0.382065,-0.021792,0.1206395,-0.381675,-0.03446,-0.2069705,-0.764285,-0.025135,0.1699295,-0.766805,-0.029993,1
181,0.0066109999999999,0.622405,0.052043,-0.139213,0.4489250000000001,0.0466349999999999,-0.220413,0.671335,0.031777,0.152887,0.466535,0.031459,0.247677,0.666895,0.024216,-0.2140429999999999,0.894065,0.045645,0.248677,0.8871549999999999,0.029699,-0.063025,-0.001555,0.001257,0.063025,0.001555,-0.0012569999999999,-0.136533,-0.382185,-0.0213209999999999,0.1209269999999999,-0.3817049999999999,-0.033334,-0.205833,-0.764385,-0.023471,0.170547,-0.766785,-0.0287329999999999,1
182,0.006513,0.62141,0.0530665,-0.140153,0.4531,0.0498735,-0.221553,0.67151,0.0328554999999999,0.152847,0.46601,0.0326285,0.247637,0.66654,0.0252365,-0.214893,0.8929,0.0460624999999999,0.247497,0.8868,0.0307694999999999,-0.062877,-0.0014699999999999,0.0011725,0.062877,0.0014699999999999,-0.0011725,-0.135543,-0.38229,-0.0209095,0.121287,-0.38172,-0.0323385,-0.204743,-0.7645299999999999,-0.0220825,0.171207,-0.7667499999999999,-0.0276224999999999,1
183,0.0063465,0.620345,0.0540019999999999,-0.1407365,0.4561550000000001,0.0524359999999999,-0.2223165,0.670645,0.033731,0.1527735,0.465465,0.033601,0.2475735,0.666255,0.026143,-0.2157764999999999,0.8906750000000001,0.046447,0.2465935,0.886515,0.031729,-0.0627585,-0.0014349999999999,0.001007,0.0627585,0.001435,-0.0010069999999999,-0.1346365,-0.382425,-0.020534,0.1216635,-0.381695,-0.031484,-0.2036265,-0.764675,-0.0208769999999999,0.1719535,-0.766685,-0.026696,1
184,0.0061705,0.6195700000000001,0.054841,-0.1413645,0.45966,0.0548499999999999,-0.2232545,0.6702600000000001,0.034297,0.1526954999999999,0.46525,0.034475,0.2474955,0.66649,0.026951,-0.2167445,0.89026,0.046772,0.2456655,0.88681,0.032708,-0.0626545,-0.0014099999999999,0.000788,0.0626545,0.00141,-0.0007879999999999,-0.1338245,-0.38258,-0.020235,0.1221655,-0.38164,-0.0307509999999999,-0.2026145,-0.7648499999999999,-0.019778,0.1726955,-0.7665599999999999,-0.025848,1
185,0.006,0.619035,0.0555965,-0.141991,0.4635249999999999,0.0571674999999999,-0.224341,0.670145,0.0345755,0.1526489999999999,0.465195,0.0352605,0.247639,0.666305,0.0275345,-0.217731,0.890145,0.0469684999999999,0.244969,0.886615,0.0333365,-0.062585,-0.001395,0.0006145,0.062585,0.0013949999999999,-0.0006144999999999,-0.133061,-0.382735,-0.0199795,0.122779,-0.381555,-0.0301495,-0.201641,-0.765015,-0.0186965,0.173539,-0.766405,-0.0250904999999999,1
186,0.0056119999999999,0.618955,0.0563175,-0.1422649999999999,0.465495,0.0583955,-0.225435,0.670005,0.0347735,0.152525,0.4653549999999999,0.0359914999999999,0.248185,0.666305,0.0276485,-0.218905,0.890045,0.0468995,0.244165,0.886615,0.0338165,-0.062527,-0.001395,0.0005555,0.062527,0.0013949999999999,-0.0005555,-0.132495,-0.382735,-0.0197075,0.123345,-0.381545,-0.0296445,-0.200745,-0.765015,-0.0177585,0.1743449999999999,-0.766335,-0.0244495,1
187,0.0049944999999999,0.618905,0.0570325,-0.1423665,0.465495,0.0590345,-0.2255065,0.6699849999999999,0.0351655,0.1524535,0.4653549999999999,0.0366225,0.2485835,0.666305,0.0271825,-0.2212765,0.890045,0.0467485,0.2432734999999999,0.886615,0.0341265,-0.0625894999999999,-0.001395,0.0008024999999999,0.0625894999999999,0.0013949999999999,-0.0008025,-0.1321065,-0.382735,-0.0193825,0.1237434999999999,-0.381545,-0.0292405,-0.2002265,-0.765015,-0.0168855,0.1750235,-0.766335,-0.0238645,1
188,0.0042014999999999,0.618885,0.0577095,-0.1426515,0.465495,0.0599685,-0.2258915,0.6699849999999999,0.0354815,0.1523385,0.4653549999999999,0.0374145,0.2490885,0.666305,0.0265145,-0.2241715,0.890045,0.0463205,0.2422784999999999,0.886455,0.0343225,-0.0627345,-0.001395,0.0011564999999999,0.0627345,0.0013949999999999,-0.0011565,-0.1318315,-0.382735,-0.0190504999999999,0.1240284999999999,-0.381545,-0.0288595,-0.1999315,-0.765015,-0.0160435,0.1756484999999999,-0.766335,-0.0232375,1
189,0.0036644999999999,0.6189250000000001,0.0584374999999999,-0.1429995,0.465635,0.0608225,-0.2275195,0.670125,0.0357424999999999,0.1524305,0.465495,0.0382855,0.2508605,0.665425,0.0254594999999999,-0.2264595,0.890185,0.0456235,0.2407305,0.8854850000000001,0.0330015,-0.0629075,-0.001425,0.0016074999999999,0.0629075,0.0014249999999999,-0.0016075,-0.1316195,-0.3828749999999999,-0.0186615,0.1243104999999999,-0.381405,-0.0284385,-0.1997095,-0.765195,-0.0153175,0.1761505,-0.766195,-0.0226325,1
190,0.0030875,0.620135,0.0590945,-0.1430885,0.464465,0.0608255,-0.2315985,0.6668350000000001,0.0352395,0.1525115,0.466445,0.0390705,0.2535415,0.664625,0.0238105,-0.2277685,0.8869750000000001,0.0448565,0.2389915,0.884335,0.0316105,-0.0629735,-0.0014349999999999,0.0020355,0.0629735,0.001435,-0.0020354999999999,-0.1317385,-0.382905,-0.0183315,0.1246114999999999,-0.381255,-0.0281314999999999,-0.1995985,-0.765265,-0.0146974999999999,0.1765915,-0.765975,-0.0220114999999999,1
191,0.002657,0.622875,0.0601515,-0.144097,0.462955,0.0609515,-0.241727,0.659405,0.0339364999999999,0.152613,0.4665549999999999,0.0397825,0.258283,0.661225,0.0214135,-0.229757,0.880665,0.0439935,0.235733,0.880675,0.0316565,-0.063027,-0.001485,0.0024104999999999,0.063027,0.001485,-0.0024104999999999,-0.132127,-0.382895,-0.0179045,0.125113,-0.381025,-0.0277345,-0.199827,-0.765235,-0.0139705,0.177283,-0.765645,-0.0213255,1
192,0.0024035,0.62566,0.0616705,-0.1441525,0.46177,0.0609975,-0.2530225,0.65085,0.0322525,0.1525975,0.46728,0.0407245,0.2645275,0.65706,0.0181365,-0.2319425,0.87304,0.0426795,0.2298474999999999,0.87433,0.0303965,-0.0630695,-0.0014499999999999,0.0027465,0.0630695,0.00145,-0.0027464999999999,-0.1327425,-0.3823,-0.0174384999999999,0.1255575,-0.38092,-0.0273515,-0.2004825,-0.76462,-0.0133684999999999,0.1779875,-0.7654599999999999,-0.0207105,1
193,0.00233,0.6287280000000001,0.063383,-0.144249,0.460568,0.061068,-0.267359,0.6376080000000001,0.030283,0.152491,0.468378,0.041782,0.271761,0.652088,0.013949,-0.233909,0.8615480000000001,0.039927,0.222671,0.864178,0.026952,-0.063204,-0.0014239999999999,0.003074,0.063204,0.0014239999999999,-0.003074,-0.133439,-0.381672,-0.0169179999999999,0.125901,-0.380662,-0.026961,-0.201169,-0.763952,-0.012773,0.178601,-0.765122,-0.020085,0
194,0.0022345,0.632819,0.0652264999999999,-0.1441025,0.4589189999999999,0.0611615,-0.2819625,0.6228389999999999,0.0278835,0.1526175,0.469259,0.0430365,0.2793275,0.645859,0.0088544999999999,-0.2350124999999999,0.8436589999999999,0.0348184999999999,0.2154775,0.851949,0.0224964999999999,-0.0633664999999999,-0.0013729999999999,0.0033774999999999,0.0633664999999999,0.0013729999999999,-0.0033775,-0.1341425,-0.3799909999999999,-0.0164205,0.1262175,-0.379881,-0.0266035,-0.2018525,-0.762221,-0.0123175,0.1791575,-0.764271,-0.0195975,0
195,0.0020544999999999,0.6373025,0.067007,-0.1438185,0.4547225,0.060857,-0.2950185,0.6031725,0.0247,0.1528315,0.4701724999999999,0.044388,0.2869514999999999,0.6383325000000001,0.0022609999999999,-0.2364785,0.8209725,0.0279169999999999,0.2065715,0.8364725000000001,0.0160109999999999,-0.0635645,-0.0012584999999999,0.0035469999999999,0.0635645,0.0012584999999999,-0.003547,-0.1348985,-0.3777875,-0.016006,0.1264415,-0.3786375,-0.026205,-0.2026385,-0.7599775,-0.011888,0.1797115,-0.7629475,-0.019132,0
196,0.0023579999999999,0.6416535000000001,0.068572,-0.143585,0.4502135,0.060542,-0.306155,0.5771235,0.021143,0.153735,0.4684535,0.046046,0.2941249999999999,0.6287835,-0.0053459999999999,-0.2371249999999999,0.7927135000000001,0.019575,0.196205,0.8185435000000001,0.007631,-0.063723,-0.0010825,0.00353,0.063723,0.0010825,-0.0035299999999999,-0.135605,-0.3751765,-0.015729,0.126535,-0.3768965,-0.025881,-0.203515,-0.7573165,-0.0116519999999999,0.180115,-0.7611465,-0.0188209999999999,0
197,0.0035555,0.6457385,0.0699335,-0.1434025,0.4452885,0.0600835,-0.3139424999999999,0.5467785000000001,0.0179485,0.1542075,0.4665285,0.0476535,0.2999275,0.6175485000000001,-0.0157895,-0.2378024999999999,0.7576485000000001,0.0077295,0.1856275,0.7986285000000001,-0.0028945,-0.0639155,-0.0008994999999999,0.0034105,0.0639155,0.0008994999999999,-0.0034105,-0.1361325,-0.3726414999999999,-0.0156085,0.1266475,-0.3751215,-0.0256275,-0.2042725,-0.7547415,-0.0115184999999999,0.1805475,-0.7593115,-0.0186385,0
198,0.005282,0.6492979999999999,0.0710935,-0.143503,0.439808,0.0594325,-0.319413,0.5089779999999999,0.0142454999999999,0.154547,0.464258,0.0491795,0.302797,0.6053280000000001,-0.0275735,-0.238573,0.714518,-0.0082155,0.175097,0.7777080000000001,-0.0157885,-0.064132,-0.000646,0.0031734999999999,0.064132,0.0006459999999999,-0.0031735,-0.136493,-0.370032,-0.0155905,0.126757,-0.373212,-0.0254425,-0.204883,-0.752092,-0.0114254999999999,0.181007,-0.757342,-0.0185885,0
199,0.0072405,0.652911,0.072113,-0.1435275,0.434231,0.0587559999999999,-0.3239975,0.4689609999999999,0.0112329999999999,0.1545825,0.4620809999999999,0.050572,0.3036425,0.591101,-0.040952,-0.2367775,0.666051,-0.027939,0.1643925,0.755801,-0.030253,-0.0642745,-0.0003609999999999,0.0028919999999999,0.0642745,0.000361,-0.002892,-0.1368275,-0.367149,-0.015556,0.1267925,-0.370949,-0.025189,-0.2054375,-0.749169,-0.011403,0.1813925,-0.755019,-0.018562,0
200,0.0091825,0.6563125000000001,0.072717,-0.1425965,0.4297525,0.057434,-0.3240665,0.4287125,0.011479,0.1545335,0.4601125,0.051265,0.3029835,0.5788025000000001,-0.054167,-0.2342165,0.6140325,-0.048795,0.1551335,0.7360625000000001,-0.0454889999999999,-0.0643644999999999,-0.0001124999999999,0.002664,0.0643644999999999,0.0001125,-0.0026639999999999,-0.1370565,-0.3634875,-0.0155379999999999,0.1267235,-0.3677775,-0.024943,-0.2056265,-0.7455175,-0.011456,0.1814835,-0.7518175,-0.0185839999999999,0
201,0.011145,0.6595300000000001,0.073043,-0.140872,0.42497,0.055831,-0.324052,0.38741,0.011708,0.154538,0.45743,0.051506,0.302388,0.56589,-0.067843,-0.235162,0.5564600000000001,-0.069122,0.147578,0.7187,-0.061418,-0.0643789999999999,0.000167,0.002435,0.0643789999999999,-0.000167,-0.0024349999999999,-0.137262,-0.35971,-0.0155,0.126738,-0.3639,-0.024714,-0.205772,-0.7417699999999999,-0.0115469999999999,0.181508,-0.7479,-0.018617,0
202,0.0131265,0.662549,0.073182,-0.1388495,0.420329,0.054081,-0.3239895,0.349329,0.011931,0.1545004999999999,0.454359,0.051733,0.3018505,0.5530090000000001,-0.081442,-0.2346495,0.501109,-0.0863319999999999,0.1414905,0.703149,-0.076033,-0.0644445,0.0004339999999999,0.002139,0.0644445,-0.000434,-0.0021389999999999,-0.1374595,-0.355911,-0.0154049999999999,0.1268004999999999,-0.359541,-0.024491,-0.2058795,-0.737961,-0.0115989999999999,0.1815705,-0.743521,-0.0186469999999999,0
203,0.0150379999999999,0.6647515,0.0732194999999999,-0.135647,0.4159015,0.0520525,-0.315167,0.3119915,0.0133025,0.1542929999999999,0.4515814999999999,0.0517955,0.299713,0.5403515,-0.0949065,-0.233397,0.4521115,-0.0993665,0.135983,0.6897515000000001,-0.0897065,-0.064557,0.0006194999999999,0.0018015,0.064557,-0.0006195,-0.0018015,-0.137707,-0.3527685,-0.0153645,0.126753,-0.3557785,-0.0243215,-0.205977,-0.7348285,-0.0115055,0.181673,-0.7397585,-0.0185315,0
204,0.0168965,0.6667795,0.073262,-0.1332505,0.4152595,0.05083,-0.3029205,0.2804295,0.0149819999999999,0.1538795,0.4485195,0.051884,0.2960795,0.5282195,-0.107233,-0.2315505,0.3852595,-0.107743,0.1322395,0.6795194999999999,-0.101233,-0.0647055,0.0007775,0.001565,0.0647055,-0.0007775,-0.001565,-0.1380005,-0.3508205,-0.015282,0.1266795,-0.3520905,-0.024166,-0.2059305,-0.7325005,-0.011383,0.1819095,-0.7360705000000001,-0.018417,0
205,0.018382,0.668806,0.073402,-0.130771,0.414716,0.04962,-0.287411,0.2546259999999999,0.017074,0.153339,0.4476259999999999,0.051868,0.291199,0.517156,-0.118646,-0.229501,0.320506,-0.1105559999999999,0.130669,0.671016,-0.111036,-0.064863,0.000834,0.001425,0.064863,-0.000834,-0.0014249999999999,-0.138191,-0.349194,-0.0151139999999999,0.126679,-0.348654,-0.0240389999999999,-0.205731,-0.729404,-0.011191,0.182219,-0.732624,-0.0183209999999999,0
206,0.019311,0.6712995,0.073391,-0.128383,0.4142395,0.048396,-0.271733,0.2321895,0.02008,0.152467,0.4466195,0.051376,0.285877,0.5073095,-0.127614,-0.226043,0.2602395,-0.1104839999999999,0.129517,0.6644995,-0.118744,-0.065042,0.0008644999999999,0.001237,0.065042,-0.0008644999999999,-0.0012369999999999,-0.138313,-0.3466805,-0.0149599999999999,0.126767,-0.3446105,-0.0238209999999999,-0.205193,-0.7252605,-0.0109919999999999,0.1823169999999999,-0.7285405,-0.0182209999999999,0
207,0.0202764999999999,0.673764,0.073407,-0.1261045,0.4140439999999999,0.047194,-0.2576345,0.217574,0.02435,0.1513855,0.445604,0.050251,0.2809454999999999,0.4991139999999999,-0.1352149999999999,-0.2230745,0.205264,-0.110365,0.1287255,0.659914,-0.124045,-0.0652795,0.0008229999999999,0.0010089999999999,0.0652795,-0.000823,-0.0010089999999999,-0.1382745,-0.344376,-0.014789,0.1270555,-0.340566,-0.023586,-0.2045445,-0.721436,-0.0107239999999999,0.1825955,-0.724476,-0.018035,0
208,0.021564,0.675956,0.073533,-0.123791,0.414356,0.0457889999999999,-0.2453209999999999,0.2070459999999999,0.029997,0.149809,0.444146,0.047765,0.2765789999999999,0.492836,-0.141401,-0.220211,0.1550359999999999,-0.110101,0.128559,0.6565660000000001,-0.126521,-0.065617,0.0007729999999999,0.000753,0.065617,-0.000773,-0.000753,-0.138161,-0.341924,-0.014716,0.127359,-0.336454,-0.0232439999999999,-0.203621,-0.717444,-0.0102499999999999,0.183099,-0.7203339999999999,-0.017782,0
209,0.02287,0.6776475000000001,0.0736025,-0.122424,0.4145975,0.0449545,-0.235474,0.2016875,0.0359965,0.148686,0.4435675,0.0452055,0.273516,0.4872275,-0.1471295,-0.217484,0.1117874999999999,-0.1073895,0.129356,0.6536375,-0.1274495,-0.065926,0.0007695,0.0005735,0.065926,-0.0007694999999999,-0.0005734999999999,-0.138004,-0.3404124999999999,-0.0147634999999999,0.127636,-0.3332225,-0.0229575,-0.203124,-0.7154325,-0.0098935,0.183516,-0.7170624999999999,-0.0175525,0
210,0.0241475,0.679098,0.07369,-0.1213875,0.415308,0.0444429999999999,-0.2260375,0.199228,0.042801,0.1478325,0.442838,0.042616,0.2718525,0.482728,-0.151685,-0.2148875,0.07566,-0.098675,0.1302325,0.650518,-0.127035,-0.0662435,0.0006669999999999,0.0004489999999999,0.0662435,-0.000667,-0.000449,-0.1377575,-0.339402,-0.014838,0.1279525,-0.330572,-0.022645,-0.2026275,-0.714132,-0.0094619999999999,0.1839525,-0.714392,-0.017314,0
