sb224sc-HT22-VT27/4dt907/src/data/labeled_files/A4_kinect.csv
FrameNo,nose_3d_x,nose_3d_y,nose_3d_z,left_shoulder_3d_x,left_shoulder_3d_y,left_shoulder_3d_z,left_elbow_3d_x,left_elbow_3d_y,left_elbow_3d_z,right_shoulder_3d_x,right_shoulder_3d_y,right_shoulder_3d_z,right_elbow_3d_x,right_elbow_3d_y,right_elbow_3d_z,left_wrist_3d_x,left_wrist_3d_y,left_wrist_3d_z,right_wrist_3d_x,right_wrist_3d_y,right_wrist_3d_z,left_hip_3d_x,left_hip_3d_y,left_hip_3d_z,right_hip_3d_x,right_hip_3d_y,right_hip_3d_z,left_knee_3d_x,left_knee_3d_y,left_knee_3d_z,right_knee_3d_x,right_knee_3d_y,right_knee_3d_z,left_ankle_3d_x,left_ankle_3d_y,left_ankle_3d_z,right_ankle_3d_x,right_ankle_3d_y,right_ankle_3d_z,activity_label
0,0.0011219999999999,0.770904,0.050548,-0.156257,0.467364,0.039948,-0.182367,0.214554,0.04761,0.151253,0.4667739999999999,0.054715,0.185963,0.214164,0.076043,-0.195777,0.012351,-0.0243019999999999,0.199483,0.013389,-0.0056319999999999,-0.073194,0.000967,0.000279,0.073194,-0.000967,-0.0002789999999999,-0.128767,-0.380116,-0.0155589999999999,0.1211629999999999,-0.412326,0.022804,-0.132657,-0.731006,-0.0300349999999999,0.137093,-0.741156,4.700000000000537e-05,0
1,0.0011485,0.770785,0.0506294999999999,-0.1562905,0.467585,0.0401985,-0.1823305,0.214635,0.0474695,0.1517695,0.466895,0.0552214999999999,0.1858995,0.214215,0.0760515,-0.1941505,0.013542,-0.0282325,0.1992594999999999,0.013449,-0.0049915,-0.0731955,0.000901,0.0004264999999999,0.0731955,-0.0009009999999999,-0.0004265,-0.1287205,-0.379005,-0.0155535,0.1211695,-0.412635,0.0226024999999999,-0.1321005,-0.732435,-0.0278835,0.1373095,-0.740935,0.0001564999999999,0
2,0.0010009999999999,0.770803,0.050698,-0.155837,0.4674129999999999,0.039693,-0.182397,0.214673,0.047392,0.152643,0.466823,0.0549599999999999,0.185823,0.214163,0.075943,-0.196587,0.012776,-0.025343,0.199203,0.013409,-0.00506,-0.073206,0.0009099999999999,0.000251,0.073206,-0.00091,-0.000251,-0.128817,-0.379007,-0.015592,0.1209629999999999,-0.412847,0.0225889999999999,-0.132067,-0.732167,-0.028023,0.1371129999999999,-0.740517,-0.000273,0
3,0.000919,0.7706645,0.050577,-0.156765,0.4672645,0.039862,-0.1824549999999999,0.2145245,0.047437,0.151615,0.4666745,0.05547,0.1857349999999999,0.2139944999999999,0.07605,-0.194625,0.0075375,-0.030677,0.199035,0.0134665,-0.0048449999999999,-0.073203,0.0008755,0.0001729999999999,0.073203,-0.0008755,-0.0001729999999999,-0.128905,-0.3802554999999999,-0.0153109999999999,0.120735,-0.4126855,0.022609,-0.133315,-0.7320655,-0.0321539999999999,0.137045,-0.7406455000000001,-0.0003429999999999,0
4,0.000579,0.770717,0.0510659999999999,-0.1559809999999999,0.467127,0.0391299999999999,-0.1824509999999999,0.214447,0.0473839999999999,0.1513689999999999,0.466967,0.055365,0.185589,0.213977,0.076295,-0.194031,0.008468,-0.031579,0.199079,0.013641,-0.004259,-0.073176,0.000855,0.0001559999999999,0.073176,-0.0008549999999999,-0.000156,-0.128991,-0.379263,-0.015442,0.120609,-0.412653,0.0225679999999999,-0.1323909999999999,-0.730833,-0.03065,0.137019,-0.740613,-0.000162,0
5,0.0005275,0.7706485,0.051003,-0.1568215,0.4668685,0.03924,-0.1824115,0.2148084999999999,0.04736,0.1506285,0.4665585,0.055621,0.1855385,0.2138785,0.076308,-0.1928815,0.0140034999999999,-0.0294559999999999,0.1989085,0.0135825,-0.004143,-0.0731675,0.0008404999999999,0.000126,0.0731675,-0.0008405,-0.000126,-0.1288315,-0.3808715,-0.015319,0.1206285,-0.4127415,0.022569,-0.1325015,-0.7301915,-0.0310489999999999,0.1370185,-0.7406415000000001,-0.0004289999999999,0
6,0.0004264999999999,0.7706645,0.0508305,-0.1565905,0.4669345,0.0388385,-0.1825004999999999,0.2150544999999999,0.0471485,0.1492995,0.4660045,0.0553625,0.1854395,0.2139144999999999,0.0761135,-0.1931205,0.0141855,-0.0297734999999999,0.1988295,0.0135815,-0.0039755,-0.0732095,0.0008885,-7.249999999999618e-05,0.0732095,-0.0008885,7.250000000000312e-05,-0.1289104999999999,-0.3806454999999999,-0.0156064999999999,0.1203795,-0.4120355,0.0225115,-0.1325705,-0.7301354999999999,-0.0312304999999999,0.1366295,-0.7407255,-0.0005094999999999,0
7,0.0005515,0.7708755,0.050508,-0.1567405,0.4673255,0.039089,-0.1830805,0.2151355,0.044729,0.1500495,0.4664055,0.054228,0.1861795,0.2141755,0.072134,-0.1942305,0.0145095,-0.033538,0.2000595,0.0135675,-0.00712,-0.0731755,0.0009235,4.199999999999343e-05,0.0731755,-0.0009235,-4.200000000000037e-05,-0.1290105,-0.3801245,-0.015151,0.1204995,-0.4130244999999999,0.0230549999999999,-0.1325605,-0.7298445,-0.028591,0.1368194999999999,-0.7407745,0.0001879999999999,0
8,0.0004885,0.770933,0.050612,-0.1568015,0.467383,0.039071,-0.1841414999999999,0.216213,0.041768,0.1497585,0.466383,0.054066,0.1871985,0.215303,0.068317,-0.1953514999999999,0.0160459999999999,-0.038533,0.2022985,0.014073,-0.0115969999999999,-0.0731715,0.0009419999999999,2.9000000000001247e-05,0.0731715,-0.0009419999999999,-2.9000000000001247e-05,-0.1290415,-0.379917,-0.0150729999999999,0.1204585,-0.413087,0.02318,-0.1325015,-0.729817,-0.0284639999999999,0.1367285,-0.7407870000000001,0.000358,0
9,0.000465,0.7709214999999999,0.0506845,-0.1567589999999999,0.4673814999999999,0.0390335,-0.185689,0.2190015,0.0368605,0.149441,0.4663215,0.0537775,0.189121,0.2179215,0.0628775,-0.197909,0.0206685,-0.0472814999999999,0.206121,0.0158505,-0.0196205,-0.073165,0.0009555,-3.499999999996561e-06,0.073165,-0.0009555,3.5000000000035003e-06,-0.1290589999999999,-0.3798685,-0.0149924999999999,0.120431,-0.4130985,0.0234005,-0.132489,-0.7295285,-0.0283754999999999,0.136651,-0.7408485,0.0005095,0
10,0.0004525,0.7708645,0.0511454999999999,-0.1566265,0.4675645,0.0389935,-0.1882764999999999,0.2241844999999999,0.0276855,0.1487435,0.4663145,0.0532645,0.1937035,0.2244045,0.0537825,-0.2020465,0.0301065,-0.0651984999999999,0.2136735,0.0254405,-0.0355584999999999,-0.0731755,0.0009515,-8.84999999999983e-05,0.0731755,-0.0009515,8.84999999999983e-05,-0.1290165,-0.3795155,-0.0147744999999999,0.1205135,-0.4131155,0.0236785,-0.1323565,-0.7293355,-0.0283005,0.1366335,-0.7409155000000001,0.0006565,0
11,0.000398,0.7708135,0.051884,-0.156387,0.4677635,0.038936,-0.191737,0.2313035,0.0161329999999999,0.147883,0.4663735,0.05244,0.199643,0.2324435,0.042218,-0.2074269999999999,0.0440044999999999,-0.08642,0.223113,0.0389665,-0.054856,-0.073198,0.0009545,-0.00017,0.073198,-0.0009544999999999,0.0001699999999999,-0.129037,-0.3787165,-0.014328,0.120623,-0.4131464999999999,0.023958,-0.1321169999999999,-0.7291465,-0.027928,0.136633,-0.7409765,0.0008149999999999,0
12,0.0002884999999999,0.7707155,0.0527495,-0.1562385,0.4682255,0.0388295,-0.1958985,0.2398255,0.0027585,0.1469415,0.4665154999999999,0.0514915,0.2067415,0.2418555,0.0288195,-0.2141785,0.0623535,-0.1115075,0.2343815,0.0568905,-0.0785075,-0.0732655,0.0009515,-0.0002924999999999,0.0732655,-0.0009514999999999,0.0002925,-0.1290885,-0.3777145,-0.0138174999999999,0.1207115,-0.4131045,0.0242355,-0.1318585,-0.7287545,-0.0278085,0.1365115,-0.7410245,0.0009815,0
13,0.000131,0.7706305,0.053802,-0.1559229999999999,0.4687405,0.038579,-0.2012129999999999,0.2511105,-0.0136579999999999,0.145947,0.4668704999999999,0.050594,0.214727,0.2528705,0.014474,-0.2217529999999999,0.0822285,-0.139177,0.247647,0.0814935,-0.1057669999999999,-0.073353,0.0009375,-0.0005039999999999,0.073353,-0.0009375,0.0005039999999999,-0.129123,-0.3760995,-0.0133339999999999,0.120707,-0.4123495,0.024397,-0.131793,-0.7284295000000001,-0.0274249999999999,0.136377,-0.7410595,0.000989,0
14,-3.1500000000001e-05,0.7705375,0.0550264999999999,-0.1555365,0.4693775,0.0383024999999999,-0.2072665,0.2639375,-0.0311074999999999,0.1446934999999999,0.4673175,0.0496804999999999,0.2243135,0.2665275,-0.0013734999999999,-0.2290364999999999,0.1081274999999999,-0.1727274999999999,0.2621235,0.1114474999999999,-0.1357775,-0.0734655,0.0009074999999999,-0.0006985,0.0734655,-0.0009075,0.0006984999999999,-0.1291165,-0.3744425,-0.0128205,0.1207335,-0.4115425,0.0245574999999999,-0.1315965,-0.7275925,-0.0266175,0.1362935,-0.7410925,0.0009324999999999,0
15,-7.549999999999926e-05,0.7705375,0.0564569999999999,-0.1549805,0.4696375,0.037894,-0.2143405,0.2814375,-0.050654,0.1443694999999999,0.4679375,0.049094,0.2354395,0.2849275,-0.018956,-0.2375205,0.1384975,-0.2082069999999999,0.2784795,0.1426875,-0.1683569999999999,-0.0735795,0.0009074999999999,-0.000907,0.0735795,-0.0009075,0.0009069999999999,-0.1291505,-0.3729525,-0.0124,0.1207695,-0.4115025,0.0246289999999999,-0.1315204999999999,-0.7275925,-0.0261,0.1362295,-0.7410925,0.0006789999999999,0
16,-0.000173,0.7705165,0.058116,-0.154319,0.4699865,0.037376,-0.221489,0.3005465,-0.070115,0.144091,0.4689264999999999,0.048455,0.246801,0.3050465,-0.035637,-0.247569,0.1753765,-0.243505,0.294351,0.1820665,-0.200005,-0.073673,0.0009234999999999,-0.0010979999999999,0.073673,-0.0009235,0.001098,-0.129209,-0.3715635,-0.0119849999999999,0.120791,-0.4115335,0.024581,-0.131459,-0.7277435,-0.0257729999999999,0.1361409999999999,-0.7410635,0.000369,0
17,-0.0003249999999999,0.7703565,0.0597344999999999,-0.153665,0.4706365,0.0367365,-0.2286149999999999,0.3202565,-0.0875405,0.143915,0.4699865,0.0477095,0.258015,0.3264265,-0.0508945,-0.257195,0.2189765,-0.2775205,0.309345,0.2263764999999999,-0.2296505,-0.073729,0.0008805,-0.0013345,0.073729,-0.0008804999999999,0.0013344999999999,-0.129325,-0.3701735,-0.0116785,0.120755,-0.4116735,0.0244064999999999,-0.131485,-0.7277135,-0.0254225,0.136065,-0.7411535,-0.0001355,0
18,-0.0005364999999999,0.7694500000000001,0.0615985,-0.1527025,0.4713299999999999,0.0358825,-0.2371525,0.34734,-0.1036845,0.1438775,0.47117,0.0467675,0.2687475,0.35119,-0.0651015,-0.2657025,0.26966,-0.3084645,0.3237875,0.27956,-0.2587445,-0.0737485,0.000806,-0.0015224999999999,0.0737485,-0.0008059999999999,0.0015224999999999,-0.1294324999999999,-0.36888,-0.0115604999999999,0.1205675,-0.41154,0.0239815,-0.1316225,-0.72768,-0.0252125,0.1355875,-0.74178,-0.0009025,0
19,-0.000741,0.7684989999999999,0.0630594999999999,-0.15217,0.471769,0.0348715,-0.24515,0.372559,-0.1159635,0.14393,0.472759,0.0458895,0.27681,0.376169,-0.0750234999999999,-0.27213,0.321479,-0.3281035,0.3345,0.330209,-0.2777335,-0.0738399999999999,0.0007109999999999,-0.0016715,0.0738399999999999,-0.000711,0.0016714999999999,-0.12949,-0.368351,-0.0116475,0.1203499999999999,-0.411311,0.0234934999999999,-0.1318,-0.727601,-0.0248595,0.1350799999999999,-0.742351,-0.0016845,0
20,-0.000976,0.767491,0.0641905,-0.151679,0.472311,0.0335455,-0.252879,0.397711,-0.1255215,0.143891,0.474831,0.0450195,0.2835209999999999,0.402091,-0.0825114999999999,-0.277189,0.372981,-0.3432115,0.343341,0.382451,-0.2917814999999999,-0.073949,0.000628,-0.0019284999999999,0.073949,-0.000628,0.0019284999999999,-0.129579,-0.368249,-0.0120404999999999,0.120081,-0.411169,0.0229345,-0.132079,-0.7276189999999999,-0.0246074999999999,0.1345509999999999,-0.7430289999999999,-0.0025904999999999,0
21,-0.0011884999999999,0.7662505,0.0650965,-0.1514395,0.4727004999999999,0.0322705,-0.2604495,0.4242705,-0.1331915,0.1438305,0.4768604999999999,0.0442204999999999,0.2894405,0.4293105,-0.0886515,-0.2806995,0.4254905,-0.3509515,0.3494804999999999,0.4351104999999999,-0.2994615,-0.0740754999999999,0.0004965,-0.0022155,0.0740754999999999,-0.0004965,0.0022154999999999,-0.1296895,-0.3686495,-0.0124465,0.1197805,-0.4112995,0.0223335,-0.1323895,-0.7276695000000001,-0.0245285,0.1340905,-0.7439595,-0.0033925,0
22,-0.0013925,0.7643225,0.065783,-0.1513445,0.4734325,0.030854,-0.2655345,0.4524424999999999,-0.1369159999999999,0.1445354999999999,0.4790124999999999,0.04394,0.2939955,0.4592624999999999,-0.092086,-0.2834244999999999,0.4847324999999999,-0.354966,0.3527755,0.4893524999999999,-0.302106,-0.0742085,0.0004115,-0.0024429999999999,0.0742085,-0.0004114999999999,0.002443,-0.1298445,-0.3697675,-0.0129489999999999,0.1195155,-0.4121475,0.021706,-0.1327345,-0.7290875,-0.025372,0.1335255,-0.7455775,-0.0041729999999999,0
23,-0.0015515,0.762203,0.066376,-0.1513145,0.474063,0.02958,-0.2694745,0.481273,-0.138906,0.1457755,0.481003,0.044051,0.2967855,0.487123,-0.093226,-0.2852645,0.540213,-0.357596,0.3546255,0.541513,-0.302726,-0.0742945,0.0003509999999999,-0.0026429999999999,0.0742945,-0.000351,0.0026429999999999,-0.1299345,-0.3711069999999999,-0.0134399999999999,0.1192455,-0.413257,0.021115,-0.1329745,-0.7300869999999999,-0.0258179999999999,0.1329555,-0.747367,-0.0048769999999999,0
24,-0.0015969999999999,0.7598835,0.0667625,-0.151312,0.4747135,0.0284185,-0.271882,0.5072535,-0.1400025,0.146918,0.4828834999999999,0.0443045,0.298168,0.5128135,-0.0938325,-0.285742,0.5928635000000001,-0.3584425,0.3545379999999999,0.5948035,-0.3035225,-0.0743129999999999,0.0003075,-0.0028165,0.0743129999999999,-0.0003075,0.0028164999999999,-0.129942,-0.3726865,-0.0139055,0.119038,-0.4147865,0.0205885,-0.133232,-0.7318965,-0.0265195,0.132458,-0.7493565,-0.0055215,0
25,-0.0015774999999999,0.7574409999999999,0.0670574999999999,-0.1512955,0.475321,0.0273295,-0.2737155,0.534551,-0.1409055,0.1484345,0.484641,0.0446764999999999,0.2988445,0.538991,-0.0944055,-0.2857955,0.640601,-0.3591155,0.3544845,0.642581,-0.3041955,-0.0742745,0.00025,-0.0030015,0.0742745,-0.0002499999999999,0.0030014999999999,-0.1298955,-0.3747689999999999,-0.0143975,0.1188945,-0.4170689999999999,0.0201774999999999,-0.1334455,-0.7340690000000001,-0.0271775,0.1320744999999999,-0.7515390000000001,-0.0060905,0
26,-0.001544,0.7548435,0.067272,-0.151315,0.4760735,0.026439,-0.276095,0.5615935,-0.1417719999999999,0.150415,0.4863735,0.045148,0.298785,0.5653134999999999,-0.094972,-0.286825,0.6869934999999999,-0.352182,0.353955,0.6873735,-0.301122,-0.074191,0.0002125,-0.0031409999999999,0.074191,-0.0002124999999999,0.003141,-0.129885,-0.3770465,-0.014816,0.1187749999999999,-0.4195965,0.019836,-0.133515,-0.7360465,-0.027644,0.131675,-0.7538465000000001,-0.0065479999999999,0
27,-0.0015345,0.7527315000000001,0.067131,-0.1513775,0.4770215,0.025944,-0.2763575,0.5809915000000001,-0.139996,0.1517125,0.4880815,0.045579,0.2984625,0.5878414999999999,-0.0926559999999999,-0.2872275,0.7241115,-0.349246,0.3522125,0.7230215,-0.288346,-0.0741485,0.0002225,-0.003269,0.0741485,-0.0002224999999999,0.003269,-0.1297875,-0.3793685,-0.014966,0.1187625,-0.4217885,0.019735,-0.1335475,-0.7381584999999999,-0.027649,0.1316725,-0.7559985,-0.006758,0
28,-0.001512,0.7505065000000001,0.0669299999999999,-0.151487,0.4781865,0.025626,-0.276717,0.6012865000000001,-0.137319,0.153093,0.4893965,0.045962,0.2979929999999999,0.6071765,-0.089109,-0.285467,0.7577665,-0.341729,0.3504629999999999,0.7577765000000001,-0.277729,-0.074116,0.0002475,-0.003396,0.074116,-0.0002474999999999,0.0033959999999999,-0.129757,-0.3816035,-0.015074,0.118763,-0.4240135,0.0196389999999999,-0.133547,-0.7401435,-0.027516,0.131553,-0.7582234999999999,-0.006797,0
29,-0.001487,0.7481905000000001,0.066827,-0.151716,0.4791904999999999,0.025458,-0.277136,0.6206005,-0.134185,0.154324,0.4901205,0.046332,0.296944,0.6253105,-0.084855,-0.284656,0.7884405,-0.331895,0.347834,0.7895305,-0.266135,-0.074101,0.0002554999999999,-0.003411,0.074101,-0.0002555,0.003411,-0.129746,-0.3839195,-0.0150859999999999,0.118754,-0.4263295,0.019596,-0.133666,-0.7424594999999999,-0.027571,0.1314239999999999,-0.7605394999999999,-0.0067319999999999,0
30,-0.0013874999999999,0.745834,0.0667565,-0.1521035,0.480574,0.0253245,-0.2763535,0.638804,-0.1295315,0.1552665,0.490744,0.0467355,0.2949565,0.642054,-0.0785915,-0.2829035,0.8171240000000001,-0.3170115,0.3437465,0.819114,-0.2513815,-0.0740665,0.000345,-0.0033464999999999,0.0740665,-0.0003449999999999,0.0033464999999999,-0.1296935,-0.386296,-0.0150665,0.1188964999999999,-0.4286259999999999,0.0195795,-0.1336135,-0.744606,-0.0272975,0.1313865,-0.762786,-0.0066095,0
31,-0.0012139999999999,0.7440535,0.0666285,-0.151996,0.4819034999999999,0.0252375,-0.274446,0.6540435,-0.1236684999999999,0.155734,0.4912434999999999,0.0469165,0.292684,0.6557835,-0.0712955,-0.280986,0.8425435,-0.3008685,0.338274,0.8435035,-0.2321784999999999,-0.073968,0.0004034999999999,-0.0032835,0.073968,-0.0004035,0.0032834999999999,-0.129586,-0.3881365,-0.0150655,0.119184,-0.4302465,0.0195585,-0.1335059999999999,-0.7463565,-0.0271474999999999,0.131504,-0.7646065,-0.0065785,0
32,-0.0009034999999999,0.7423865,0.0662555,-0.1517965,0.4834465,0.0252515,-0.2718264999999999,0.6675065,-0.1173045,0.1560735,0.4918964999999999,0.0470615,0.2909535,0.6692365,-0.0637135,-0.2792665,0.8658865,-0.2857345,0.3326335,0.8647065,-0.2143245,-0.0738505,0.0004475,-0.0032084999999999,0.0738505,-0.0004475,0.0032084999999999,-0.1293865,-0.3902635,-0.0150865,0.1195635,-0.4318035,0.0195525,-0.1332964999999999,-0.7483835,-0.0271905,0.1317235,-0.7664135,-0.0065845,0
33,-0.0004289999999999,0.740833,0.065692,-0.151528,0.485263,0.025294,-0.268418,0.6800229999999999,-0.1096309999999999,0.156322,0.492753,0.0472999999999999,0.288312,0.681373,-0.055166,-0.277748,0.888463,-0.270881,0.327032,0.8852329999999999,-0.196071,-0.073772,0.0005499999999999,-0.003088,0.073772,-0.00055,0.003088,-0.1290879999999999,-0.392017,-0.015205,0.120032,-0.433027,0.019554,-0.1329979999999999,-0.750557,-0.027521,0.132072,-0.768267,-0.006732,0
34,5.199999999999411e-05,0.739378,0.0650785,-0.151275,0.487178,0.0253574999999999,-0.266075,0.690048,-0.1023255,0.156555,0.493478,0.0476115,0.2856849999999999,0.6911579999999999,-0.0473305,-0.276585,0.909578,-0.2547655,0.321905,0.903528,-0.1780755,-0.073692,0.0006679999999999,-0.0029164999999999,0.073692,-0.0006679999999999,0.0029164999999999,-0.128845,-0.393652,-0.0153344999999999,0.120505,-0.4342519999999999,0.0195705,-0.132705,-0.7527820000000001,-0.0277985,0.132435,-0.770042,-0.0068884999999999,0
35,0.0005904999999999,0.7380945,0.0643645,-0.1510725,0.4891945,0.0255365,-0.2640425,0.6993745,-0.0950465,0.1568175,0.4940545,0.0479325,0.2827874999999999,0.6997045,-0.0393405,-0.2759425,0.9250745,-0.2380965,0.3174375,0.9201645,-0.1618764999999999,-0.0736365,0.0008005,-0.0027545,0.0736365,-0.0008004999999999,0.0027545,-0.1285825,-0.3951754999999999,-0.0154534999999999,0.1210175,-0.4353455,0.0196025,-0.1325125,-0.7549555,-0.0279775,0.1328174999999999,-0.7717355,-0.0071025,0
36,0.0011445,0.7369635,0.0636075,-0.1508175,0.4911535,0.0257424999999999,-0.2623775,0.7074435,-0.0875254999999999,0.1570325,0.4944435,0.0482645,0.2800025,0.7074735,-0.0315805,-0.2755975,0.9398435,-0.2207655,0.3136725,0.9365535,-0.1464555,-0.0736115,0.0009165,-0.0025775,0.0736115,-0.0009165,0.0025775,-0.1283274999999999,-0.3965765,-0.0155775,0.1215325,-0.4362965,0.0196355,-0.1323375,-0.7570265,-0.0280235,0.1331625,-0.7733465,-0.0073385,0
37,0.0017149999999999,0.7359805,0.0628215,-0.150679,0.4931805,0.0260645,-0.260829,0.7139105,-0.0795085,0.157071,0.4947804999999999,0.0485975,0.277441,0.7153105,-0.0241224999999999,-0.275659,0.9521205,-0.2044485,0.310241,0.9490305,-0.1312685,-0.073597,0.0010334999999999,-0.0024064999999999,0.073597,-0.0010334999999999,0.0024064999999999,-0.128099,-0.3978395,-0.0156415,0.1220209999999999,-0.4370995,0.0196845,-0.132039,-0.7587295000000001,-0.0281415,0.1334709999999999,-0.7748295,-0.0073944999999999,0
38,0.0023389999999999,0.735082,0.0619959999999999,-0.1505099999999999,0.495322,0.026462,-0.25924,0.7193620000000001,-0.0716779999999999,0.1569499999999999,0.495132,0.048857,0.27526,0.721472,-0.0174569999999999,-0.27589,0.962802,-0.187984,0.30712,0.958892,-0.1158739999999999,-0.073573,0.0011679999999999,-0.002262,0.073573,-0.001168,0.002262,-0.1278099999999999,-0.399078,-0.015712,0.12254,-0.437868,0.019721,-0.13191,-0.760478,-0.0283929999999999,0.1338499999999999,-0.776188,-0.0074749999999999,0
39,0.0028655,0.7344124999999999,0.0612345,-0.1504535,0.4975825,0.0271945,-0.2583935,0.7230125000000001,-0.0639704999999999,0.1564965,0.4954924999999999,0.0490745,0.2733665,0.7260525,-0.0112174999999999,-0.2768934999999999,0.9696425,-0.1706435,0.3043465,0.9660425,-0.0998435,-0.0735265,0.0012215,-0.0021304999999999,0.0735265,-0.0012215,0.0021305,-0.1276035,-0.4000975,-0.0157464999999999,0.1229665,-0.4383375,0.0197715,-0.1318235,-0.7619975000000001,-0.0285414999999999,0.1341564999999999,-0.7773475000000001,-0.0075164999999999,0
40,0.0034124999999999,0.7337785,0.060521,-0.1503925,0.4996085,0.028006,-0.2579525,0.7251285,-0.056735,0.1559375,0.4957884999999999,0.049255,0.2716975,0.7293785,-0.004376,-0.2783425,0.9715085,-0.155823,0.3026775,0.9702085,-0.087183,-0.0734775,0.0012225,-0.00202,0.0734775,-0.0012225,0.00202,-0.1274025,-0.4012715,-0.0157649999999999,0.1233175,-0.4389815,0.019806,-0.1318425,-0.7639415,-0.028874,0.1344375,-0.7784415,-0.00747,0
41,0.0038915,0.7332085,0.059964,-0.1503815,0.5012285,0.028838,-0.2577015,0.7268985,-0.0495589999999999,0.1553085,0.4960685,0.049463,0.2701185,0.7322985,0.002097,-0.2795415,0.9736585,-0.140969,0.3008685,0.9742585,-0.074327,-0.0734365,0.0012365,-0.0018949999999999,0.0734365,-0.0012365,0.001895,-0.1272315,-0.4022215,-0.0158079999999999,0.1236385,-0.4394915,0.019823,-0.1318915,-0.7654915,-0.029299,0.1347085,-0.7792815,-0.007403,0
42,0.004139,0.732683,0.059544,-0.150362,0.5024529999999999,0.029385,-0.257802,0.7278129999999999,-0.043241,0.154778,0.496263,0.049325,0.268808,0.7348129999999999,0.0077269999999999,-0.280422,0.975353,-0.128573,0.299128,0.976753,-0.063468,-0.073417,0.001197,-0.001823,0.073417,-0.0011969999999999,0.0018229999999999,-0.127102,-0.4027969999999999,-0.015812,0.123868,-0.440207,0.019899,-0.1317219999999999,-0.766337,-0.02958,0.134878,-0.7800170000000001,-0.007256,0
43,0.0043615,0.7321540000000001,0.059169,-0.1503255,0.503654,0.029933,-0.2579555,0.7282240000000001,-0.036799,0.1543145,0.4963639999999999,0.049223,0.2676045,0.737314,0.013054,-0.2812255,0.976464,-0.116982,0.2974145,0.979164,-0.05306,-0.0733925,0.0011569999999999,-0.0017779999999999,0.0733925,-0.0011569999999999,0.001778,-0.1269755,-0.403376,-0.015735,0.1240645,-0.440886,0.019981,-0.1316255,-0.767126,-0.0296099999999999,0.1350945,-0.7807259999999999,-0.0071269999999999,0
44,0.0044904999999999,0.7317055,0.0588275,-0.1503364999999999,0.5045455,0.0303485,-0.2580865,0.7283455,-0.0301354999999999,0.1538935,0.4966155,0.0491235,0.2662434999999999,0.7387155,0.0181745,-0.2823065,0.9780655,-0.1045465,0.2955635,0.9811655,-0.0422925,-0.0733805,0.0011075,-0.0017304999999999,0.0733805,-0.0011074999999999,0.0017305,-0.1269064999999999,-0.4040145,-0.0156634999999999,0.1241635,-0.4414345,0.0200495,-0.1316465,-0.7678245,-0.0298745,0.1352034999999999,-0.7814045,-0.0070735,0
45,0.0045549999999999,0.731526,0.058161,-0.1505659999999999,0.504396,0.030706,-0.258276,0.727766,-0.023479,0.153474,0.496526,0.048922,0.264404,0.738866,0.023125,-0.283776,0.979346,-0.09201,0.293874,0.982946,-0.0325159999999999,-0.07338,0.0010249999999999,-0.0016649999999999,0.07338,-0.0010249999999999,0.0016649999999999,-0.126916,-0.404994,-0.0155159999999999,0.1242139999999999,-0.442004,0.020217,-0.131606,-0.769244,-0.030065,0.1351939999999999,-0.782134,-0.006924,0
46,0.0045785,0.7313965,0.0575575,-0.1508475,0.5040265,0.0309945,-0.2583975,0.7271765,-0.0172025,0.1531325,0.4964065,0.0486495,0.2630325,0.7387565,0.0276625,-0.2854575,0.9806865,-0.0801805,0.2923625,0.9841865,-0.0236635,-0.0733915,0.0009465,-0.0015785,0.0733915,-0.0009465,0.0015785,-0.1269475,-0.4057735,-0.0153204999999999,0.1242524999999999,-0.4424335,0.0203905,-0.1316075,-0.7705035,-0.0300555,0.1351824999999999,-0.7827835,-0.0066844999999999,0
47,0.0045825,0.7313775,0.057034,-0.1510544999999999,0.5035375000000001,0.0312409999999999,-0.2584445,0.7266975,-0.011318,0.1528755,0.4962975,0.048381,0.2616455,0.7388475,0.0320919999999999,-0.2871845,0.9824475,-0.06916,0.2909255,0.9855475,-0.015774,-0.0734045,0.0008564999999999,-0.001476,0.0734045,-0.0008565,0.0014759999999999,-0.1269745,-0.4064225,-0.015073,0.1243055,-0.4428525,0.020551,-0.1316145,-0.7714624999999999,-0.029998,0.1351554999999999,-0.7832925,-0.006357,0
48,0.0045499999999999,0.731524,0.056646,-0.151103,0.502604,0.031386,-0.258483,0.726334,-0.006536,0.152717,0.496114,0.048102,0.260107,0.739174,0.035605,-0.288413,0.984044,-0.062346,0.289597,0.987244,-0.010438,-0.073419,0.000793,-0.0013319999999999,0.073419,-0.0007929999999999,0.0013319999999999,-0.126963,-0.406946,-0.0147659999999999,0.1243669999999999,-0.443156,0.020756,-0.131443,-0.771856,-0.029534,0.135087,-0.783626,-0.005911,0
49,0.0044394999999999,0.731781,0.0563694999999999,-0.1511964999999999,0.501691,0.0315615,-0.2585965,0.7258209999999999,-0.0024445,0.1525535,0.495991,0.0477745,0.2588135,0.738571,0.0372534999999999,-0.2897165,0.985631,-0.0556505,0.2881935,0.988931,-0.0056505,-0.0734555,0.0007489999999999,-0.0011605,0.0734555,-0.0007489999999999,0.0011604999999999,-0.1269664999999999,-0.407319,-0.0144475,0.1243934999999999,-0.443529,0.0209824999999999,-0.1313365,-0.7719790000000001,-0.0291105,0.1350035,-0.783849,-0.0057015,0
50,0.004195,0.7321344999999999,0.056127,-0.151387,0.5007545,0.031734,-0.2588169999999999,0.7250945,0.001301,0.152333,0.4956744999999999,0.047433,0.257503,0.7378144999999999,0.038748,-0.2911169999999999,0.9865945,-0.0490409999999999,0.286733,0.9897945,-0.0014429999999999,-0.073489,0.0006824999999999,-0.0010009999999999,0.073489,-0.0006825,0.001001,-0.127057,-0.4076455,-0.0141319999999999,0.124333,-0.4438054999999999,0.021159,-0.131317,-0.7716955000000001,-0.02858,0.134813,-0.7840255,-0.005503,0
51,0.0038309999999999,0.7326205,0.0559615,-0.15164,0.4999405,0.0317955,-0.2590699999999999,0.7247505,0.0046505,0.1520399999999999,0.4952504999999999,0.0470445,0.25651,0.7374005,0.0402265,-0.29246,0.9866805,-0.0425335,0.28514,0.9915805,0.0022065,-0.0735609999999999,0.0006135,-0.0008414999999999,0.0735609999999999,-0.0006135,0.0008415,-0.12719,-0.4079795,-0.0138114999999999,0.1242099999999999,-0.4441794999999999,0.0213115,-0.13133,-0.7710395,-0.0280874999999999,0.13457,-0.7841495,-0.0053664999999999,0
52,0.0033669999999999,0.7328405,0.056029,-0.151966,0.4999405,0.032034,-0.259406,0.7247505,0.0075,0.151674,0.4952504999999999,0.046819,0.255264,0.7375605,0.041537,-0.293636,0.9882805,-0.0365749999999999,0.283574,0.9929805,0.00506,-0.0736449999999999,0.0006135,-0.0006659999999999,0.0736449999999999,-0.0006135,0.0006659999999999,-0.127296,-0.4079795,-0.013698,0.124084,-0.4441794999999999,0.021423,-0.131266,-0.7710195000000001,-0.0278269999999999,0.134354,-0.7841495,-0.005267,0
53,0.0028809999999999,0.7330504999999999,0.0561035,-0.152335,0.4998405,0.0322775,-0.259815,0.7247505,0.0097165,0.151255,0.4952504999999999,0.0466614999999999,0.2546549999999999,0.7392004999999999,0.0424935,-0.294505,0.9893805,-0.0327895,0.282265,0.9936805,0.0065865,-0.0737309999999999,0.0006135,-0.0004895,0.0737309999999999,-0.0006135,0.0004895,-0.127365,-0.4081795,-0.0135705,0.123975,-0.4441794999999999,0.0215465,-0.131225,-0.7706095000000001,-0.0274855,0.134145,-0.7841495,-0.0051565,0
54,0.0024879999999999,0.7331905,0.0561045,-0.15262,0.4995204999999999,0.0323345,-0.26024,0.7247405,0.0112504999999999,0.1508499999999999,0.4952305,0.0466555,0.25417,0.7404204999999999,0.0431234999999999,-0.29517,0.9894805,-0.0301715,0.28163,0.9938805,0.0077564999999999,-0.0737879999999999,0.0006135,-0.0004085,0.0737879999999999,-0.0006135,0.0004084999999999,-0.12742,-0.4085094999999999,-0.0135255,0.12389,-0.4441895,0.0214935,-0.13147,-0.7706095000000001,-0.0274655,0.1339999999999999,-0.7841495,-0.0051715,0
55,0.0020139999999999,0.7336495000000001,0.0563505,-0.152908,0.4995095,0.0323124999999999,-0.260758,0.7246195000000001,0.0130574999999999,0.1504619999999999,0.4947594999999999,0.0466155,0.253602,0.7415295000000001,0.0443815,-0.2958579999999999,0.9897995,-0.0271635,0.281042,0.9942995,0.0096404999999999,-0.073837,0.0005194999999999,-0.0004015,0.073837,-0.0005194999999999,0.0004014999999999,-0.127418,-0.4085205,-0.0135825,0.123832,-0.4445905,0.0211264999999999,-0.131768,-0.7702905,-0.0274945,0.133842,-0.7843205,-0.0056875,0
56,0.0015534999999999,0.7339985,0.0566145,-0.1532724999999999,0.4995685,0.0329865,-0.2612525,0.7243085,0.0146845,0.1500774999999999,0.4943184999999999,0.0465555,0.2530575,0.7425385,0.0456305,-0.2968325,0.9902085,-0.0245885,0.2805375,0.9947085,0.0114075,-0.0738655,0.0004325,-0.0003944999999999,0.0738655,-0.0004324999999999,0.0003944999999999,-0.1273625,-0.4085115,-0.0137955,0.1238075,-0.4449715,0.0205885,-0.1320025,-0.7699815,-0.0275354999999999,0.1337074999999999,-0.7844915,-0.0062364999999999,1
57,0.001108,0.734299,0.0571555,-0.153601,0.500519,0.0339435,-0.261601,0.724039,0.0158615,0.149729,0.494419,0.0465475,0.252969,0.744619,0.0468345,-0.2977809999999999,0.990759,-0.0227314999999999,0.280119,0.995259,0.0130125,-0.073868,0.0003919999999999,-0.0002774999999999,0.073868,-0.000392,0.0002774999999999,-0.127101,-0.4092409999999999,-0.0143035,0.123889,-0.4455409999999999,0.0195465,-0.132101,-0.770151,-0.0284245,0.133739,-0.784741,-0.0070665,1
58,0.000683,0.734511,0.057668,-0.1539029999999999,0.501391,0.034846,-0.261893,0.723721,0.016849,0.149397,0.494611,0.046526,0.252977,0.745991,0.047958,-0.298523,0.991131,-0.021279,0.279717,0.995731,0.014671,-0.073859,0.000355,-9.99999999999994e-05,0.073859,-0.000355,0.0001,-0.126803,-0.409949,-0.0149009999999999,0.124007,-0.446219,0.018296,-0.131933,-0.770349,-0.029424,0.133787,-0.785079,-0.008027,1
59,0.000331,0.7345404999999999,0.0580759999999999,-0.154158,0.5021105,0.035635,-0.2621079999999999,0.7232405,0.017599,0.149132,0.4950105,0.046437,0.253072,0.7467104999999999,0.048954,-0.299068,0.9911505,-0.020153,0.279502,0.9959505,0.016293,-0.073859,0.0003685,4.099999999999937e-05,0.073859,-0.0003685,-4.099999999999937e-05,-0.126418,-0.4106295,-0.015647,0.124192,-0.4469595,0.0168159999999999,-0.131818,-0.7707895,-0.030391,0.1339219999999999,-0.7855895,-0.009027,1
60,3.1000000000001946e-05,0.734468,0.0582075,-0.154405,0.502998,0.0365744999999999,-0.262285,0.722738,0.0179375,0.148845,0.495398,0.0464375,0.253265,0.7473879999999999,0.0495725,-0.299425,0.991028,-0.0196135,0.2795249999999999,0.996028,0.0176734999999999,-0.073861,0.000386,0.0001854999999999,0.073861,-0.0003859999999999,-0.0001855,-0.126005,-0.411772,-0.0166415,0.1244349999999999,-0.447752,0.0150195,-0.131755,-0.771702,-0.0315835,0.134055,-0.786122,-0.0103685,1
61,-0.000212,0.7343315,0.058063,-0.154608,0.5039315,0.037289,-0.262408,0.7223415,0.0179569999999999,0.148552,0.4958815,0.046386,0.253032,0.7466215,0.050414,-0.299688,0.9909715,-0.019441,0.279662,0.9959715,0.0188549999999999,-0.073843,0.0004025,0.0003129999999999,0.073843,-0.0004025,-0.000313,-0.125528,-0.4129585,-0.017931,0.124712,-0.4484485,0.0128629999999999,-0.131648,-0.7726985,-0.033348,0.134132,-0.7866985,-0.011956,1
62,-0.0004325,0.7340895,0.057468,-0.1548355,0.5051395,0.037772,-0.2625055,0.7219595,0.0174269999999999,0.1483045,0.4964295,0.046112,0.2527945,0.7471395,0.050999,-0.2998755,0.9908495,-0.019894,0.2800045,0.9959495,0.019665,-0.0737765,0.0004215,0.000559,0.0737765,-0.0004214999999999,-0.000559,-0.1250155,-0.4142805,-0.01976,0.1250445,-0.4491405,0.010124,-0.1315555,-0.7740705,-0.035503,0.1342445,-0.7873705000000001,-0.0141,1
63,-0.0006395,0.7338155,0.0565175,-0.1551405,0.5065655,0.0381895,-0.2626105,0.7217155,0.0164675,0.1480395,0.4970255,0.0456364999999999,0.2529295,0.7466955,0.0511975,-0.3000005,0.9908455,-0.0209275,0.2803795,0.9960455,0.0200825,-0.0736745,0.0004475,0.0007234999999999,0.0736745,-0.0004474999999999,-0.0007235,-0.1245005,-0.4154445,-0.0220175,0.1253395,-0.4496545,0.0070584999999999,-0.1314705,-0.7752945,-0.0385025,0.1343195,-0.7879945,-0.0165885,1
64,-0.0007799999999999,0.7338155,0.054882,-0.155416,0.5074355,0.038187,-0.262746,0.7217155,0.014834,0.147814,0.4970255,0.044844,0.252954,0.7469555,0.050516,-0.300106,0.9908455,-0.02286,0.280884,0.9960455,0.01947,-0.073585,0.0004475,0.000889,0.073585,-0.0004474999999999,-0.000889,-0.1240459999999999,-0.4160845,-0.024355,0.125584,-0.4496545,0.004017,-0.131306,-0.7761745,-0.041497,0.134404,-0.7879945,-0.018874,1
65,-0.0008729999999999,0.7337555,0.0530065,-0.155626,0.5083255,0.0375594999999999,-0.262826,0.7217155,0.0130114999999999,0.147604,0.4970255,0.0439395,0.253404,0.7476055,0.0496065,-0.300166,0.9908455,-0.0250685,0.281494,0.9960455,0.0186225,-0.0734829999999999,0.0004475,0.0010565,0.0734829999999999,-0.0004474999999999,-0.0010565,-0.123636,-0.4166745,-0.0268645,0.125894,-0.4496545,0.0007774999999999,-0.131236,-0.7765745,-0.0446315,0.134504,-0.7879945,-0.0214395,1
66,-0.001025,0.7339205,0.05106,-0.155909,0.5086805,0.036834,-0.262929,0.7219504999999999,0.010611,0.147311,0.4971405,0.043083,0.254011,0.7463505,0.048557,-0.300259,0.9910805,-0.027468,0.282101,0.9962805,0.01747,-0.073391,0.0003635,0.001242,0.073391,-0.0003634999999999,-0.001242,-0.123379,-0.4165195,-0.029495,0.126131,-0.4494195,-0.0023309999999999,-0.131189,-0.7768295000000001,-0.047638,0.134511,-0.7877595000000001,-0.0242039999999999,1
67,-0.001245,0.733823,0.0488279999999999,-0.156256,0.508713,0.03611,-0.263046,0.7218330000000001,0.008248,0.1469339999999999,0.497853,0.0420629999999999,0.254534,0.746253,0.0471269999999999,-0.300326,0.990983,-0.03039,0.282704,0.996483,0.015805,-0.073275,0.000304,0.001443,0.073275,-0.0003039999999999,-0.0014429999999999,-0.123196,-0.416797,-0.03259,0.126404,-0.449117,-0.005703,-0.131106,-0.777357,-0.051064,0.134514,-0.787627,-0.027344,1
68,-0.001545,0.733823,0.0464415,-0.156563,0.508563,0.0352815,-0.263253,0.722373,0.0050034999999999,0.146617,0.498113,0.0410265,0.2548769999999999,0.745073,0.0456415,-0.300443,0.991183,-0.0338064999999999,0.2833469999999999,0.996783,0.0137974999999999,-0.0731739999999999,0.000304,0.0015954999999999,0.0731739999999999,-0.0003039999999999,-0.0015955,-0.123183,-0.416797,-0.0361555,0.126677,-0.448557,-0.0094885,-0.131113,-0.777757,-0.0548975,0.134507,-0.7874369999999999,-0.0310145,1
69,-0.0019194999999999,0.733213,0.0440915,-0.1568864999999999,0.508563,0.0341665,-0.2636365,0.7230530000000001,0.0014665,0.1461435,0.498113,0.0399465,0.2551135,0.743783,0.0441215,-0.3006465,0.991183,-0.0375244999999999,0.2840735,0.996983,0.0116575,-0.0730925,0.000304,0.0017035,0.0730925,-0.0003039999999999,-0.0017035,-0.1232665,-0.416537,-0.0405055,0.1270635,-0.447407,-0.0145495,-0.1313565,-0.777757,-0.0591434999999999,0.1344535,-0.787337,-0.0353244999999999,1
70,-0.002394,0.732243,0.0419695,-0.157282,0.508563,0.0333055,-0.264042,0.722983,-0.0014835,0.145618,0.498113,0.0390615,0.255318,0.7424930000000001,0.0422245,-0.300912,0.991183,-0.0410745,0.284778,0.996983,0.0096545,-0.0730359999999999,0.000304,0.0017805,0.0730359999999999,-0.0003039999999999,-0.0017805,-0.123462,-0.416277,-0.0451105,0.127338,-0.445897,-0.0199715,-0.131732,-0.777927,-0.0630105,0.134418,-0.787177,-0.0394415,1
71,-0.0028705,0.730725,0.0403899999999999,-0.1576795,0.508475,0.032796,-0.2644495,0.723015,-0.003953,0.1451405,0.498235,0.038701,0.2555005,0.740915,0.040567,-0.3011795,0.991305,-0.044241,0.2853105,0.997105,0.007942,-0.0730405,0.000223,0.001741,0.0730405,-0.000223,-0.0017409999999999,-0.1235495,-0.415385,-0.050829,0.1275705,-0.444025,-0.025776,-0.1321294999999999,-0.7780750000000001,-0.066589,0.1343705,-0.786915,-0.043196,1
72,-0.0032919999999999,0.7292015000000001,0.0391305,-0.158058,0.5076915000000001,0.0323964999999999,-0.264848,0.7221915,-0.0055565,0.144752,0.4983015,0.0387874999999999,0.255652,0.7392815,0.0392714999999999,-0.3013679999999999,0.9910415,-0.0472185,0.285802,0.9976415,0.0063434999999999,-0.073091,0.0001174999999999,0.0017605,0.073091,-0.0001174999999999,-0.0017605,-0.123588,-0.4138985,-0.0568485,0.127802,-0.4417184999999999,-0.0318405,-0.132408,-0.7780985,-0.0708835,0.134322,-0.7863585,-0.0466845,1
73,-0.003704,0.7276065,0.038044,-0.158321,0.5066865,0.0315099999999999,-0.265181,0.7205965000000001,-0.007026,0.144529,0.4981165,0.03822,0.255849,0.7377665,0.0381359999999999,-0.301241,0.9899765,-0.05002,0.286289,0.9985765,0.004853,-0.073139,-1.9499999999998685e-05,0.001756,0.073139,1.9499999999998685e-05,-0.001756,-0.123551,-0.4118835,-0.063299,0.128079,-0.4389435,-0.038405,-0.132541,-0.7782435,-0.074791,0.134299,-0.7853835,-0.050004,1
74,-0.0041465,0.726121,0.0370985,-0.1585615,0.505531,0.0301115,-0.2656215,0.7193309999999999,-0.0084025,0.1443285,0.497541,0.0371635,0.2555985,0.737451,0.0371245,-0.3011115,0.989251,-0.0526745,0.2866785,0.999851,0.0033795,-0.0732305,-0.0001729999999999,0.0017145,0.0732305,0.000173,-0.0017145,-0.1235215,-0.409219,-0.0699225,0.1282585,-0.4357189999999999,-0.0451095,-0.1326315,-0.777509,-0.0790275,0.1342185,-0.783859,-0.0531935,1
75,-0.0045179999999999,0.724487,0.036178,-0.1587279999999999,0.504287,0.028817,-0.266038,0.718387,-0.0096729999999999,0.144232,0.497027,0.035849,0.255202,0.737477,0.036285,-0.300848,0.988767,-0.055177,0.287082,1.001467,0.001934,-0.0733159999999999,-0.000348,0.001596,0.0733159999999999,0.000348,-0.0015959999999999,-0.123478,-0.406253,-0.07672,0.128532,-0.432283,-0.0520159999999999,-0.132798,-0.776533,-0.082811,0.134132,-0.7820429999999999,-0.056314,1
76,-0.0048189999999999,0.722732,0.035571,-0.158926,0.503152,0.02828,-0.266316,0.7168420000000001,-0.010605,0.144094,0.4962519999999999,0.036128,0.254874,0.737352,0.035828,-0.3003659999999999,0.987822,-0.057228,0.287494,1.002522,0.000923,-0.073391,-0.000486,0.001426,0.073391,0.000486,-0.001426,-0.1234659999999999,-0.403228,-0.083456,0.128724,-0.428968,-0.05884,-0.133276,-0.775488,-0.0864139999999999,0.133784,-0.779998,-0.059023,1
77,-0.0050234999999999,0.7207705,0.0351789999999999,-0.1591005,0.5022304999999999,0.027947,-0.2664705,0.7153404999999999,-0.011118,0.1440095,0.4955205,0.036516,0.2547095,0.7369005,0.035448,-0.2997505,0.9869805,-0.058731,0.2878495,1.0036805,0.0002259999999999,-0.0734775,-0.0006255,0.0012899999999999,0.0734775,0.0006255,-0.00129,-0.1234005,-0.4000995,-0.090117,0.1289995,-0.4253395,-0.065409,-0.1336105,-0.7739295,-0.089389,0.1335095,-0.7775395,-0.061296,1
78,-0.0050885,0.7189435,0.034793,-0.1592665,0.5019534999999999,0.027798,-0.2664465,0.7135935,-0.0114029999999999,0.1440435,0.4951335,0.036987,0.2548635,0.7356834999999999,0.035174,-0.2989065,0.9860335,-0.059911,0.2882435,1.0042335,-0.0003269999999999,-0.0735175,-0.0006484999999999,0.001121,0.0735175,0.0006485,-0.0011209999999999,-0.1232465,-0.3970964999999999,-0.0967119999999999,0.1293335,-0.4218865,-0.071247,-0.1336264999999999,-0.7719665,-0.0918499999999999,0.1333235,-0.7748165,-0.063098,1
79,-0.0048955,0.7174455,0.0342865,-0.1590185,0.5007955,0.0276855,-0.2660585,0.7115055,-0.0116664999999999,0.1442315,0.4938755,0.0373675,0.2549315,0.7341555,0.0348155,-0.2976885,0.9852055,-0.0610874999999999,0.2887915,1.0043055,-0.0009954999999999,-0.0735595,-0.0006245,0.0009595,0.0735595,0.0006245,-0.0009594999999999,-0.1232385,-0.3935445,-0.1037015,0.1296115,-0.4182545,-0.0769285,-0.1335685,-0.7693045000000001,-0.0939305,0.1330915,-0.7716745,-0.0649375,1
80,-0.0046034999999999,0.7164855,0.033625,-0.1586855,0.5000255,0.027562,-0.2656655,0.7095855,-0.011978,0.1443745,0.4929255,0.037856,0.2551245,0.7330455,0.034331,-0.2963055,0.9843555,-0.062169,0.2894945,1.0044555,-0.001968,-0.0735275,-0.0006164999999999,0.0008879999999999,0.0735275,0.0006164999999999,-0.0008879999999999,-0.1232755,-0.3882045,-0.109578,0.1302145,-0.4138945,-0.082269,-0.1337955,-0.7652545000000001,-0.096372,0.1332145,-0.7676245,-0.066629,1
81,-0.0043714999999999,0.715691,0.0329235,-0.1583805,0.499661,0.0274635,-0.2653605,0.709691,-0.0129145,0.1444695,0.4922809999999999,0.0382585,0.2555595,0.732451,0.0337784999999999,-0.2956005,0.984591,-0.0632755,0.2902195,1.004891,-0.0029075,-0.0735115,-0.000589,0.0007425,0.0735115,0.0005889999999999,-0.0007425,-0.1234005,-0.3837689999999999,-0.1155585,0.1302395,-0.4094589999999999,-0.0875114999999999,-0.1339205,-0.761439,-0.0976195,0.1328895,-0.763189,-0.0680844999999999,1
82,-0.0041894999999999,0.7161355,0.0314425,-0.1579885,0.5007355,0.0267565,-0.2654085,0.7118355000000001,-0.0146435,0.1447215,0.4929555,0.0378285,0.2562515,0.7333555,0.0321555,-0.2950085,0.9868555,-0.0650925,0.2910515,1.0063555,-0.0045114999999999,-0.0734725,-0.0006005,0.0007664999999999,0.0734725,0.0006005,-0.0007664999999999,-0.1234385,-0.3778045,-0.1220845,0.1303514999999999,-0.4034945,-0.0931375,-0.1339985,-0.7562144999999999,-0.0993415,0.1327215,-0.7575445,-0.0704405,1
83,-0.0038299999999999,0.7165885000000001,0.029815,-0.157376,0.5006385000000001,0.025879,-0.265196,0.7134885000000001,-0.01629,0.145144,0.4942085,0.037295,0.257184,0.7318385000000001,0.030602,-0.294366,0.9886085,-0.066855,0.292274,1.0033985,-0.0065149999999999,-0.073456,-0.0007505,0.000644,0.073456,0.0007504999999999,-0.0006439999999999,-0.123106,-0.3725015,-0.129956,0.130974,-0.3974015,-0.100318,-0.134036,-0.7504114999999999,-0.101826,0.132724,-0.7516714999999999,-0.072689,1
84,-0.0035764999999999,0.7167015,0.028219,-0.1566995,0.5004215,0.024942,-0.2649895,0.7146715,-0.0178919999999999,0.1455805,0.4952815,0.036487,0.2580604999999999,0.7302314999999999,0.029087,-0.2937695,0.9851515,-0.069721,0.2933905,0.9996915,-0.0087459999999999,-0.0734425,-0.0008485,0.000536,0.0734425,0.0008484999999999,-0.0005359999999999,-0.1230695,-0.3683785,-0.1381679999999999,0.1316905,-0.3920984999999999,-0.107526,-0.1337795,-0.7444185,-0.103351,0.1326905,-0.7460385,-0.075093,1
85,-0.0033629999999999,0.7149465,0.0265674999999999,-0.1565959999999999,0.4998264999999999,0.0236625,-0.264746,0.7149865000000001,-0.0198215,0.145754,0.4968165,0.0351524999999999,0.2589639999999999,0.7277865,0.0274915,-0.293366,0.9821265,-0.0728235,0.2946539999999999,0.9958665,-0.0115785,-0.073448,-0.0009984999999999,0.0005805,0.073448,0.0009985,-0.0005805,-0.123316,-0.3648234999999999,-0.1471295,0.132494,-0.3864835,-0.1153605,-0.1335059999999999,-0.7377334999999999,-0.1045235,0.132664,-0.7398334999999999,-0.0777165,1
86,-0.0030834999999999,0.7130195,0.0247695,-0.1563765,0.4995394999999999,0.0220365,-0.2646765,0.7151695,-0.0227225,0.1460235,0.4962695,0.0334395,0.2593035,0.7258495,0.0252265,-0.2928465,0.9799995,-0.0765005,0.2955435,0.9928095,-0.0153995,-0.0734134999999999,-0.0010745,0.0005565,0.0734134999999999,0.0010744999999999,-0.0005565,-0.1235665,-0.3602605,-0.1557275,0.1335335,-0.3794705,-0.1231905,-0.1332465,-0.7288205,-0.1061705,0.1328935,-0.7318605,-0.0803665,1
87,-0.0027489999999999,0.71128,0.0227649999999999,-0.156098,0.49961,0.0201169999999999,-0.264738,0.7154600000000001,-0.0259,0.146352,0.49573,0.0314899999999999,0.259712,0.7249500000000001,0.0225999999999999,-0.292238,0.9781,-0.080564,0.296192,0.98877,-0.019781,-0.0733979999999999,-0.001194,0.0004469999999999,0.0733979999999999,0.001194,-0.000447,-0.123898,-0.35613,-0.163966,0.134622,-0.37236,-0.131058,-0.132928,-0.71863,-0.108053,0.1331719999999999,-0.72383,-0.083447,1
88,-0.0023954999999999,0.710215,0.0205185,-0.1556355,0.498515,0.0183225,-0.2649555,0.715425,-0.0294024999999999,0.1465445,0.494865,0.0296605,0.2603445,0.725205,0.0195125,-0.2916054999999999,0.977435,-0.0853424999999999,0.2971045,0.980285,-0.0250654999999999,-0.0734605,-0.001494,0.0002075,0.0734605,0.0014939999999999,-0.0002074999999999,-0.1240155,-0.350745,-0.1720005,0.1359245,-0.364105,-0.1393705,-0.1327855,-0.706535,-0.1105324999999999,0.1338445,-0.714675,-0.0871525,1
89,-0.002443,0.7090995,0.017953,-0.155517,0.4974695,0.016493,-0.2650969999999999,0.7137095,-0.0331739999999999,0.146443,0.4945595,0.027802,0.260873,0.7228794999999999,0.016234,-0.2920169999999999,0.9693395,-0.092095,0.298123,0.9723895,-0.030278,-0.073547,-0.0017324999999999,-0.000119,0.073547,0.0017324999999999,0.000119,-0.123997,-0.3439605,-0.180201,0.137373,-0.3546505,-0.147101,-0.1329969999999999,-0.6924904999999999,-0.113652,0.134683,-0.7033905,-0.090981,1
90,-0.002742,0.7074845,0.0150539999999999,-0.155491,0.4968345,0.0145339999999999,-0.265321,0.7118445,-0.037488,0.1461989999999999,0.4944445,0.0258079999999999,0.261159,0.7206245,0.0125909999999999,-0.292591,0.9620345,-0.099129,0.299259,0.9649145,-0.03658,-0.073655,-0.0019915,-0.0003309999999999,0.073655,0.0019915,0.0003309999999999,-0.124041,-0.3364755,-0.188432,0.139199,-0.3451355,-0.155362,-0.133071,-0.6779755,-0.117408,0.135619,-0.6913355,-0.095153,1
91,-0.0034819999999999,0.7050974999999999,0.0125149999999999,-0.156,0.4942474999999999,0.0129149999999999,-0.26497,0.7096075,-0.041749,0.14537,0.4921875,0.0243189999999999,0.26107,0.7183775,0.0088909999999999,-0.29362,0.9555275,-0.10625,0.29984,0.9578875,-0.043148,-0.074006,-0.0021395,-0.000686,0.074006,0.0021395,0.0006859999999999,-0.1244499999999999,-0.3251125,-0.196742,0.14126,-0.3322325,-0.163682,-0.13316,-0.6628925,-0.120092,0.13668,-0.6788425,-0.098724,1
92,-0.0044779999999999,0.7021665,0.0094889999999999,-0.156461,0.4927665,0.010636,-0.264571,0.7075965,-0.046758,0.144379,0.4892965,0.022356,0.260719,0.7178165,0.0042749999999999,-0.294961,0.9505565,-0.114344,0.300019,0.9559265,-0.049901,-0.074316,-0.0022664999999999,-0.001025,0.074316,0.0022665,0.0010249999999999,-0.125131,-0.3126135,-0.2044329999999999,0.143209,-0.3184535,-0.170883,-0.133231,-0.6477735,-0.122768,0.137729,-0.6654935,-0.102674,1
93,-0.0055115,0.699478,0.0049619999999999,-0.1567595,0.491678,0.0067529999999999,-0.2640095,0.705048,-0.053275,0.1432805,0.487098,0.0186829999999999,0.2603205,0.717518,-0.002016,-0.2957095,0.951608,-0.123298,0.2999605,0.955418,-0.058317,-0.0745995,-0.0024019999999999,-0.000857,0.0745995,0.002402,0.0008569999999999,-0.1255895,-0.297512,-0.213892,0.1458805,-0.302542,-0.179572,-0.1334195,-0.631722,-0.127158,0.1391505,-0.650432,-0.107615,1
94,-0.0062114999999999,0.70062,-0.0005289999999999,-0.1569984999999999,0.49031,0.001295,-0.2640785,0.70229,-0.060267,0.1424615,0.4853499999999999,0.014226,0.2596715,0.7183,-0.0092999999999999,-0.2962085,0.95147,-0.1330049999999999,0.2995315,0.95728,-0.067861,-0.0748295,-0.00256,-0.0015879999999999,0.0748295,0.0025599999999999,0.0015879999999999,-0.1255585,-0.27961,-0.226809,0.1496315,-0.28417,-0.193189,-0.1330385,-0.61212,-0.132124,0.1398315,-0.63133,-0.1113099999999999,1
95,-0.0067805,0.7018899999999999,-0.0081255,-0.1571584999999999,0.4885899999999999,-0.0063785,-0.2642184999999999,0.6999899999999999,-0.0686995,0.1418515,0.48584,0.0076304999999999,0.2593415,0.7188699999999999,-0.0184395,-0.2966585,0.9505,-0.1448465,0.2989315,0.95847,-0.0791365,-0.0750055,-0.00278,-0.0019074999999999,0.0750055,0.00278,0.0019074999999999,-0.1253584999999999,-0.26343,-0.2421775,0.1521414999999999,-0.26762,-0.2076575,-0.1325485,-0.5962400000000001,-0.1373475,0.1399315,-0.61392,-0.1153955,1
96,-0.0074225,0.70298,-0.016229,-0.1572495,0.48644,-0.014695,-0.2644395,0.69696,-0.077736,0.1411805,0.48636,0.000384,0.2588605,0.71899,-0.028106,-0.2971995,0.94873,-0.157192,0.2979805,0.95864,-0.090792,-0.0751445,-0.0031199999999999,-0.0023889999999999,0.0751445,0.00312,0.002389,-0.1251595,-0.24816,-0.257862,0.1561505,-0.25186,-0.224132,-0.1318095,-0.57928,-0.145036,0.1408404999999999,-0.59676,-0.1224,1
97,-0.0081775,0.703025,-0.0248735,-0.1568255,0.486745,-0.0235035,-0.2645855,0.6958249999999999,-0.0876245,0.1406945,0.486405,-0.0075695,0.2580145,0.718955,-0.0385415,-0.2987554999999999,0.944545,-0.1708705,0.2969644999999999,0.964435,-0.1024785,-0.0753225,-0.003145,-0.0030645,0.0753225,0.0031449999999999,0.0030644999999999,-0.1250955,-0.232425,-0.2743305,0.1605645,-0.235305,-0.2415805,-0.1305855,-0.561005,-0.1536635,0.1418144999999999,-0.5779050000000001,-0.1301975,1
98,-0.0087375,0.702885,-0.0330209999999999,-0.1561274999999999,0.487385,-0.0317509999999999,-0.2651475,0.6963950000000001,-0.0971769999999999,0.1403225,0.486015,-0.0150449999999999,0.2577825,0.721325,-0.0486709999999999,-0.2994374999999999,0.948205,-0.182261,0.2959225,0.968955,-0.114064,-0.0756165,-0.0030749999999999,-0.0036039999999999,0.0756165,0.0030749999999999,0.003604,-0.1252875,-0.218505,-0.2900009999999999,0.1645825,-0.2205349999999999,-0.257961,-0.1295675,-0.5447850000000001,-0.161725,0.1426625,-0.5606850000000001,-0.1374969999999999,1
99,-0.0090279999999999,0.70377,-0.0411895,-0.155301,0.48605,-0.0404574999999999,-0.266001,0.69554,-0.1065265,0.140179,0.48575,-0.0226754999999999,0.257609,0.72369,-0.0588514999999999,-0.300041,0.95179,-0.1935645,0.295089,0.97326,-0.1251304999999999,-0.075811,-0.0032399999999999,-0.0039934999999999,0.075811,0.00324,0.0039935,-0.125241,-0.20343,-0.3056145,0.168599,-0.20503,-0.2740845,-0.1283909999999999,-0.5282,-0.1694395,0.143689,-0.54245,-0.1449794999999999,1
100,-0.0091209999999999,0.7036100000000001,-0.0494105,-0.1543119999999999,0.48564,-0.0491985,-0.266852,0.69506,-0.1160425,0.140038,0.48608,-0.0306895,0.257618,0.72556,-0.0687695,-0.300902,0.95446,-0.2054225,0.294468,0.97663,-0.1352945,-0.0760339999999999,-0.00338,-0.0045695,0.0760339999999999,0.0033799999999999,0.0045694999999999,-0.1249919999999999,-0.18774,-0.3205525,0.172298,-0.1891,-0.2894925,-0.127182,-0.51221,-0.1771325,0.144728,-0.52366,-0.1520725,1
101,-0.0089955,0.7040200000000001,-0.057503,-0.1533625,0.48527,-0.057768,-0.2678824999999999,0.69489,-0.125256,0.1401075,0.48696,-0.03874,0.2578575,0.72806,-0.078188,-0.3016425,0.95616,-0.216688,0.2940875,0.9778,-0.145024,-0.0762255,-0.0034799999999999,-0.005191,0.0762255,0.00348,0.005191,-0.1246425,-0.17251,-0.334598,0.1758575,-0.17356,-0.304198,-0.1254825,-0.49809,-0.184548,0.1453175,-0.5057099999999999,-0.158804,1
102,-0.008485,0.70479,-0.0656475,-0.152241,0.48417,-0.0664144999999999,-0.269271,0.6966,-0.1351615,0.140359,0.48654,-0.0469504999999999,0.2583189999999999,0.72953,-0.0877135,-0.302531,0.95291,-0.2278484999999999,0.293909,0.97787,-0.1544145,-0.076325,-0.00354,-0.0056814999999999,0.076325,0.0035399999999999,0.0056815,-0.1241509999999999,-0.15718,-0.3475385,0.179429,-0.15775,-0.3183785,-0.1237109999999999,-0.48394,-0.1917785,0.145979,-0.4883699999999999,-0.1654995,1
103,-0.00874,0.703705,-0.0690075,-0.151676,0.483415,-0.0700075,-0.2712759999999999,0.700385,-0.1407995,0.139734,0.485815,-0.0506395,0.258244,0.7314050000000001,-0.0921275,-0.304196,0.951295,-0.2343935,0.293274,0.976235,-0.1585585,-0.076473,-0.0035949999999999,-0.0059665,0.076473,0.003595,0.0059665,-0.124466,-0.143235,-0.3520535,0.180684,-0.1438649999999999,-0.3228135,-0.122626,-0.4724849999999999,-0.1937705,0.145664,-0.4737749999999999,-0.1667075,1
104,-0.0088939999999999,0.702755,-0.0723305,-0.151038,0.4824549999999999,-0.0736335,-0.272848,0.7036849999999999,-0.1466915,0.139042,0.484965,-0.0543575,0.257832,0.730555,-0.0966435,-0.305548,0.949655,-0.2407435,0.292772,0.974245,-0.1624865,-0.07656,-0.003665,-0.0061765,0.07656,0.0036649999999999,0.0061764999999999,-0.1245879999999999,-0.129465,-0.3563835,0.1818719999999999,-0.130095,-0.3270935,-0.1215079999999999,-0.460565,-0.1964205,0.145452,-0.460065,-0.1688605,1
105,-0.0088884999999999,0.7014,-0.0759494999999999,-0.1501795,0.4816499999999999,-0.0774245,-0.2741595,0.70658,-0.1531064999999999,0.1384105,0.48249,-0.0585624999999999,0.2572505,0.7293499999999999,-0.1011435,-0.3067595,0.94901,-0.2472065,0.2925105,0.97393,-0.1666554999999999,-0.0766584999999999,-0.00347,-0.0064934999999999,0.0766584999999999,0.0034699999999999,0.0064935,-0.1246994999999999,-0.11452,-0.3608065,0.1830405,-0.11515,-0.3312564999999999,-0.1207494999999999,-0.44713,-0.1974095,0.1450705,-0.4452600000000001,-0.1718715,1
106,-0.0082969999999999,0.7005049999999999,-0.079303,-0.149438,0.4801449999999999,-0.081125,-0.275078,0.7081649999999999,-0.158826,0.138402,0.4822949999999999,-0.062356,0.257012,0.7275849999999999,-0.104835,-0.306548,0.949885,-0.252095,0.292532,0.972545,-0.170445,-0.0768679999999999,-0.003505,-0.006805,0.0768679999999999,0.0035049999999999,0.0068049999999999,-0.1241479999999999,-0.105445,-0.364215,0.183962,-0.106175,-0.334155,-0.120258,-0.436355,-0.198854,0.145292,-0.4329050000000001,-0.173742,1
107,-0.0076339999999999,0.699745,-0.082819,-0.148695,0.4786749999999999,-0.085011,-0.2757349999999999,0.709205,-0.164577,0.138365,0.482275,-0.066268,0.256665,0.7249749999999999,-0.10855,-0.306415,0.949895,-0.25732,0.292655,0.971705,-0.174341,-0.077102,-0.003655,-0.0070999999999999,0.077102,0.0036549999999999,0.0071,-0.123585,-0.095675,-0.3676199999999999,0.184785,-0.096355,-0.33704,-0.119415,-0.424465,-0.2007439999999999,0.144605,-0.420675,-0.176097,1
108,-0.006937,0.69773,-0.086273,-0.147996,0.4774999999999999,-0.088573,-0.274956,0.71146,-0.169562,0.138464,0.48139,-0.070049,0.256304,0.72224,-0.111872,-0.305916,0.94973,-0.261985,0.292814,0.97111,-0.177934,-0.0773389999999999,-0.00358,-0.007445,0.0773389999999999,0.0035799999999999,0.0074449999999999,-0.122956,-0.08605,-0.370425,0.185424,-0.08698,-0.339335,-0.118926,-0.41278,-0.2024989999999999,0.142154,-0.41369,-0.184692,1
109,-0.0063804999999999,0.6961550000000001,-0.089456,-0.1472834999999999,0.475835,-0.09192,-0.2742535,0.711795,-0.173712,0.1388365,0.480815,-0.073366,0.2557565,0.718575,-0.115183,-0.3053335,0.949085,-0.265345,0.2928565,0.969935,-0.181567,-0.0776294999999999,-0.0035949999999999,-0.007585,0.0776294999999999,0.003595,0.0075849999999999,-0.1225034999999999,-0.0763749999999999,-0.372645,0.1858765,-0.0780949999999999,-0.341445,-0.1180034999999999,-0.4021549999999999,-0.204413,0.1380965,-0.4075649999999999,-0.190545,1
110,-0.005985,0.694585,-0.092448,-0.146726,0.474385,-0.095205,-0.273686,0.710865,-0.177678,0.138974,0.479965,-0.0766189999999999,0.255074,0.714955,-0.1182489999999999,-0.305296,0.948165,-0.2688549999999999,0.2928139999999999,0.970465,-0.184883,-0.077933,-0.003545,-0.0077249999999999,0.077933,0.0035449999999999,0.007725,-0.122196,-0.065765,-0.374595,0.186184,-0.068655,-0.343375,-0.1173159999999999,-0.391225,-0.205759,0.133764,-0.4011249999999999,-0.19573,1
111,-0.005565,0.692245,-0.094989,-0.146085,0.473125,-0.098027,-0.273275,0.7067950000000001,-0.18082,0.139275,0.479995,-0.079333,0.254545,0.711545,-0.120723,-0.305235,0.949335,-0.271465,0.2929049999999999,0.971075,-0.187756,-0.078047,-0.0036049999999999,-0.007805,0.078047,0.003605,0.0078049999999999,-0.121865,-0.0556849999999999,-0.3760449999999999,0.186515,-0.0599549999999999,-0.344945,-0.116865,-0.380715,-0.208294,0.129445,-0.395505,-0.200517,1
112,-0.0050785,0.690105,-0.097463,-0.1455235,0.471512,-0.1006529999999999,-0.2727234999999999,0.702465,-0.183057,0.1395265,0.479335,-0.0818889999999999,0.2542665,0.708035,-0.123095,-0.3048835,0.950355,-0.273655,0.2930665,0.970235,-0.190329,-0.0781175,-0.0036149999999999,-0.0078349999999999,0.0781175,0.003615,0.0078349999999999,-0.1214435,-0.0452549999999999,-0.3770949999999999,0.1867565,-0.051035,-0.346255,-0.1173235,-0.3709749999999999,-0.210125,0.1241565,-0.391455,-0.2094909999999999,1
113,-0.0047374999999999,0.6880149999999999,-0.0999169999999999,-0.1451835,0.4699699999999999,-0.1030779999999999,-0.2733435,0.698145,-0.1855109999999999,0.1396365,0.477834,-0.084507,0.2544565,0.707135,-0.1253,-0.3050535,0.947785,-0.27583,0.2931964999999999,0.969525,-0.192824,-0.0782095,-0.003615,-0.0078899999999999,0.0782095,0.0036149999999999,0.0078899999999999,-0.1210535,-0.034485,-0.3782,0.1867565,-0.041525,-0.34758,-0.1181634999999999,-0.360855,-0.2123959999999999,0.1184765,-0.387025,-0.21848,1
114,-0.0045905,0.686895,-0.1020919999999999,-0.1449785,0.468049,-0.1053389999999999,-0.2724085,0.6955549999999999,-0.1870419999999999,0.1395215,0.477126,-0.086595,0.2545515,0.706925,-0.127598,-0.3049484999999999,0.945585,-0.277775,0.2931615,0.968695,-0.195188,-0.0784095,-0.003705,-0.007925,0.0784095,0.0037049999999999,0.007925,-0.1205685,-0.024465,-0.379285,0.1864414999999999,-0.0324949999999999,-0.3490649999999999,-0.1197585,-0.352055,-0.214397,0.1128925,-0.383055,-0.227385,1
115,-0.00469,0.68468,-0.103963,-0.145098,0.466484,-0.107372,-0.271478,0.69165,-0.1884549999999999,0.1392719999999999,0.475584,-0.088514,0.253892,0.70697,-0.12959,-0.305098,0.94424,-0.27963,0.292862,0.96826,-0.197292,-0.0788,-0.0037599999999999,-0.00784,0.0788,0.0037599999999999,0.00784,-0.120158,-0.01338,-0.38007,0.185662,-0.0221799999999999,-0.35044,-0.121648,-0.34246,-0.2164869999999999,0.107131,-0.37816,-0.23603,1
116,-0.004905,0.6823049999999999,-0.105572,-0.145338,0.463949,-0.109184,-0.270748,0.6856450000000001,-0.189761,0.138962,0.4737639999999999,-0.090237,0.253692,0.708125,-0.131765,-0.305378,0.941585,-0.28135,0.292552,0.967445,-0.199357,-0.079222,-0.003865,-0.00773,0.079222,0.003865,0.00773,-0.119848,-0.002365,-0.38069,0.184672,-0.011945,-0.35152,-0.123498,-0.332995,-0.219158,0.101207,-0.371645,-0.2378,1
117,-0.0054709999999999,0.68076,-0.106829,-0.1459369999999999,0.4628509999999999,-0.11043,-0.271177,0.67999,-0.191066,0.1384429999999999,0.4727179999999999,-0.091683,0.253133,0.70924,-0.134076,-0.306197,0.93846,-0.2832949999999999,0.291873,0.96494,-0.201169,-0.079628,-0.00396,-0.007565,0.079628,0.0039599999999999,0.0075649999999999,-0.119887,0.0083999999999999,-0.380795,0.183243,-0.00184,-0.352495,-0.126477,-0.32289,-0.219321,0.100291,-0.3615400000000001,-0.238705,1
118,-0.0059814999999999,0.67896,-0.108006,-0.1466155,0.461649,-0.111243,-0.2717055,0.67557,-0.192353,0.1379445,0.471579,-0.092802,0.2527145,0.70804,-0.135966,-0.3071655,0.93484,-0.285445,0.2912645,0.96157,-0.202944,-0.0799955,-0.0040399999999999,-0.007465,0.0799955,0.00404,0.0074649999999999,-0.1199655,0.0178,-0.380495,0.1817345,0.007,-0.353345,-0.1294055,-0.31453,-0.221749,0.0996725,-0.3527,-0.239435,1
119,-0.0064675,0.6771,-0.10914,-0.1473485,0.460204,-0.112042,-0.2721785,0.67263,-0.194121,0.1375314999999999,0.470367,-0.093589,0.2526215,0.70391,-0.13792,-0.3086685,0.92753,-0.288225,0.2907515,0.95773,-0.205133,-0.0803005,-0.00417,-0.0072549999999999,0.0803005,0.00417,0.0072549999999999,-0.1199885,0.0274999999999999,-0.3798149999999999,0.1801015,0.0154599999999999,-0.354255,-0.1323185,-0.30656,-0.2234499999999999,0.0990854999999999,-0.34431,-0.240255,1
120,-0.0069215,0.67575,-0.11012,-0.1481894999999999,0.459406,-0.1128349999999999,-0.2726095,0.67319,-0.1960239999999999,0.1370704999999999,0.469001,-0.094335,0.2526105,0.70126,-0.139779,-0.3102195,0.92338,-0.291135,0.2903705,0.95434,-0.207675,-0.0805215,-0.0042099999999999,-0.0070449999999999,0.0805215,0.0042099999999999,0.0070449999999999,-0.1198995,0.03813,-0.378555,0.1784505,0.0247499999999999,-0.354825,-0.1356595,-0.29791,-0.226885,0.0975215,-0.33198,-0.233405,1
121,-0.0073389999999999,0.673535,-0.1109179999999999,-0.149026,0.45937,-0.1135259999999999,-0.2735059999999999,0.672885,-0.1980589999999999,0.136604,0.468131,-0.0949769999999999,0.252724,0.6988449999999999,-0.1413299999999999,-0.311676,0.919605,-0.293965,0.290104,0.951565,-0.2103709999999999,-0.080754,-0.004215,-0.0068549999999999,0.080754,0.004215,0.006855,-0.1197859999999999,0.0484149999999999,-0.377115,0.176694,0.034355,-0.3550149999999999,-0.138676,-0.290245,-0.229345,0.098564,-0.319795,-0.227175,1
122,-0.0075285,0.67162,-0.111246,-0.1497055,0.459104,-0.113536,-0.2740855,0.673,-0.19989,0.1365045,0.468049,-0.095294,0.2529445,0.69701,-0.142465,-0.3127755,0.91994,-0.29692,0.2900145,0.94927,-0.212803,-0.0808005,-0.0042599999999999,-0.00662,0.0808005,0.0042599999999999,0.0066199999999999,-0.1193855,0.0593699999999999,-0.37495,0.1749445,0.0453699999999999,-0.35436,-0.1411155,-0.28195,-0.23219,0.1006455,-0.30673,-0.220545,1
123,-0.0075634999999999,0.6691199999999999,-0.111398,-0.1502675,0.4592159999999999,-0.113311,-0.2754375,0.67263,-0.2019079999999999,0.1364725,0.4686079999999999,-0.0954069999999999,0.2532225,0.69512,-0.14338,-0.3135775,0.91957,-0.299585,0.2900325,0.94696,-0.214857,-0.0807825,-0.00435,-0.0064749999999999,0.0807825,0.0043499999999999,0.006475,-0.1189375,0.0700099999999999,-0.372575,0.1733025,0.0564999999999999,-0.353345,-0.1434975,-0.2737200000000001,-0.2337449999999999,0.1027685,-0.2938200000000001,-0.213743,1
124,-0.0073585,0.667545,-0.11139,-0.1505615,0.45942,-0.112699,-0.2765315,0.673455,-0.203537,0.1365985,0.469395,-0.095266,0.2535985,0.6924049999999999,-0.144021,-0.3141715,0.918305,-0.30192,0.2902085,0.944245,-0.21666,-0.0805785,-0.0043849999999999,-0.00643,0.0805785,0.004385,0.0064299999999999,-0.1184315,0.0795549999999999,-0.37014,0.1718985,0.066945,-0.35189,-0.1461215,-0.265505,-0.23545,0.1036875,-0.283425,-0.211059,1
125,-0.0070214999999999,0.6663899999999999,-0.111107,-0.1508284999999999,0.4602739999999999,-0.111997,-0.2775185,0.6772,-0.205376,0.1369115,0.4705229999999999,-0.09507,0.2538615,0.6896199999999999,-0.144354,-0.3146285,0.91932,-0.30422,0.2903615,0.94296,-0.218107,-0.0804015,-0.00435,-0.0064099999999999,0.0804015,0.0043499999999999,0.0064099999999999,-0.1180484999999999,0.0897099999999999,-0.36732,0.1703315,0.0786799999999999,-0.34985,-0.1488085,-0.25776,-0.23713,0.1045875,-0.27195,-0.208316,1
126,-0.0065745,0.6647850000000001,-0.1105829999999999,-0.1509565,0.460884,-0.1112549999999999,-0.2783965,0.6804250000000001,-0.207116,0.1374235,0.4709730000000001,-0.094623,0.2541535,0.6857850000000001,-0.144393,-0.3147864999999999,0.919975,-0.306025,0.2906735,0.942335,-0.219526,-0.0803805,-0.0041449999999999,-0.0063349999999999,0.0803805,0.004145,0.006335,-0.1179165,0.097965,-0.365635,0.1689535,0.0898750000000001,-0.347555,-0.1495765,-0.2510449999999999,-0.240985,0.1048745,-0.2610649999999999,-0.205566,1
127,-0.006083,0.664085,-0.110096,-0.150975,0.4613319999999999,-0.110411,-0.279195,0.683675,-0.208622,0.138025,0.4721309999999999,-0.093978,0.254475,0.685325,-0.144421,-0.314745,0.921315,-0.30731,0.291055,0.942765,-0.220774,-0.080384,-0.004075,-0.00623,0.080384,0.0040749999999999,0.0062299999999999,-0.117945,0.1067949999999999,-0.36395,0.167625,0.1019649999999999,-0.3447,-0.150885,-0.242745,-0.24462,0.106632,-0.2476249999999999,-0.198563,1
128,-0.0055754999999999,0.663395,-0.1093899999999999,-0.1509335,0.4623009999999999,-0.109509,-0.2787035,0.6866049999999999,-0.208645,0.1386565,0.4730669999999999,-0.093216,0.2546965,0.6875749999999999,-0.144307,-0.3146434999999999,0.926385,-0.30784,0.2913765,0.943395,-0.22157,-0.0803265,-0.003925,-0.00608,0.0803265,0.0039249999999999,0.00608,-0.1179035,0.1158049999999999,-0.36244,0.1664165,0.1140649999999999,-0.3415399999999999,-0.1520834999999999,-0.234735,-0.2474299999999999,0.1094265,-0.234435,-0.197525,1
129,-0.004987,0.66282,-0.1085469999999999,-0.150807,0.4626409999999999,-0.1084619999999999,-0.278847,0.68834,-0.209229,0.139373,0.4741299999999999,-0.0923819999999999,0.2549929999999999,0.68902,-0.144009,-0.314547,0.93037,-0.3082549999999999,0.291863,0.94357,-0.2219249999999999,-0.08012,-0.00385,-0.0059949999999999,0.08012,0.0038499999999999,0.005995,-0.1176869999999999,0.1212499999999999,-0.361185,0.165353,0.1252499999999999,-0.338255,-0.153017,-0.22732,-0.2494849999999999,0.1102829999999999,-0.2246100000000001,-0.1968329999999999,1
130,-0.004463,0.663045,-0.107344,-0.150521,0.463314,-0.107304,-0.278631,0.691165,-0.2087439999999999,0.139969,0.474968,-0.09139,0.255529,0.6904250000000001,-0.143651,-0.314331,0.933985,-0.30777,0.2926589999999999,0.944455,-0.221863,-0.079965,-0.0037049999999999,-0.006,0.079965,0.003705,0.006,-0.116931,0.126515,-0.36063,0.164109,0.136615,-0.33426,-0.152411,-0.2201149999999999,-0.25209,0.110989,-0.2148149999999999,-0.196284,1
131,-0.004123,0.660795,-0.105991,-0.150146,0.462134,-0.10637,-0.278456,0.6912149999999999,-0.208109,0.1403439999999999,0.4735779999999999,-0.090425,0.255704,0.688815,-0.143016,-0.313846,0.934835,-0.307085,0.293464,0.942765,-0.221682,-0.080204,-0.003615,-0.006135,0.080204,0.0036149999999999,0.006135,-0.116176,0.1276449999999999,-0.359915,0.1640039999999999,0.1439949999999999,-0.333665,-0.151806,-0.216845,-0.254745,0.1118639999999999,-0.208775,-0.195559,1
132,-0.0034425,0.660495,-0.104492,-0.1495135,0.461997,-0.10533,-0.2780235,0.691965,-0.208131,0.1408565,0.473703,-0.089308,0.2566165,0.6886350000000001,-0.14233,-0.3132135,0.937235,-0.30688,0.2949064999999999,0.943765,-0.221323,-0.0802205,-0.0034349999999999,-0.00632,0.0802205,0.003435,0.0063199999999999,-0.1150635,0.129995,-0.35904,0.1645565,0.153085,-0.33286,-0.1506835,-0.212225,-0.25834,0.1123565,-0.2022549999999999,-0.194334,1
133,-0.0034339999999999,0.660537,-0.1014289999999999,-0.149467,0.462055,-0.102718,-0.278167,0.692235,-0.206716,0.140783,0.474236,-0.086618,0.256923,0.689325,-0.140031,-0.313197,0.939335,-0.304645,0.295813,0.945335,-0.219393,-0.079873,-0.0033149999999999,-0.0065749999999999,0.079873,0.003315,0.0065749999999999,-0.102117,0.117885,-0.373175,0.164523,0.159315,-0.330465,-0.1328669999999999,-0.210615,-0.279485,0.112923,-0.196025,-0.1911749999999999,1
134,-0.0035655,0.6608499999999999,-0.0967819999999999,-0.1495295,0.46228,-0.0984849999999999,-0.2785594999999999,0.69257,-0.2039619999999999,0.1406804999999999,0.474821,-0.0822799999999999,0.2571905,0.6904,-0.135924,-0.3132195,0.94128,-0.300925,0.2967404999999999,0.94643,-0.215745,-0.0794325,-0.0030999999999999,-0.0064649999999999,0.0794325,0.0030999999999999,0.0064649999999999,-0.0892835,0.09869,-0.387225,0.1640305,0.16757,-0.323125,-0.1159495,-0.20528,-0.299385,0.1128905,-0.19069,-0.187089,1
135,-0.0041039999999999,0.661918,-0.0909919999999999,-0.149981,0.462895,-0.093011,-0.278571,0.693535,-0.198571,0.140149,0.475975,-0.0767149999999999,0.257029,0.6925950000000001,-0.130552,-0.3133309999999999,0.943565,-0.2955149999999999,0.297259,0.947995,-0.210787,-0.079194,-0.002645,-0.0067149999999999,0.079194,0.002645,0.006715,-0.076526,0.076135,-0.400265,0.163749,0.175545,-0.315305,-0.098591,-0.2056449999999999,-0.319305,0.112789,-0.1872349999999999,-0.182161,1
136,-0.0046845,0.663069,-0.0841465,-0.1505365,0.464535,-0.0863705,-0.2782065,0.692005,-0.1922595,0.1394935,0.477075,-0.0699275,0.2568535,0.694445,-0.1241285,-0.3135565,0.943915,-0.2896395,0.2977235,0.949735,-0.2045865,-0.0788745,-0.0025049999999999,-0.0068405,0.0788745,0.0025049999999999,0.0068404999999999,-0.0637885,0.0519549999999999,-0.4125295,0.1642235,0.182765,-0.3087295,-0.0815715,-0.215955,-0.3385395,0.1133035,-0.184825,-0.1801685,1
137,-0.0054965,0.664942,-0.0773325,-0.1513235,0.466405,-0.0797595,-0.2781535,0.691095,-0.1856855,0.1384365,0.4791250000000001,-0.0632365,0.2564365,0.696945,-0.1177085,-0.3141035,0.944975,-0.2838475,0.2979865,0.952085,-0.1983475,-0.0782585,-0.0025949999999999,-0.0068425,0.0782585,0.002595,0.0068425,-0.0513285,0.027425,-0.4253174999999999,0.1648565,0.189715,-0.3030075,-0.0644925,-0.2324949999999999,-0.3577774999999999,0.1168365,-0.1833749999999999,-0.1778905,1
138,-0.0063059999999999,0.667566,-0.0705214999999999,-0.1521,0.46923,-0.0731854999999999,-0.27807,0.6906760000000001,-0.1791364999999999,0.13735,0.48183,-0.0565505,0.25602,0.69989,-0.1112295,-0.31467,0.94647,-0.2780344999999999,0.29832,0.95521,-0.1921745,-0.077654,-0.0026899999999999,-0.0067984999999999,0.077654,0.00269,0.0067984999999999,-0.038995,0.0068799999999999,-0.4381445,0.1656,0.19666,-0.2975545,-0.0430549999999999,-0.2276899999999999,-0.4117944999999999,0.12035,-0.1844699999999999,-0.1756665,1
139,-0.0071959999999999,0.669957,-0.0637894999999999,-0.15336,0.471735,-0.0665345,-0.27852,0.6901889999999999,-0.1729834999999999,0.13594,0.484415,-0.0498854999999999,0.25542,0.702535,-0.1045845,-0.31559,0.948225,-0.2722335,0.29846,0.958625,-0.1858234999999999,-0.077027,-0.0027449999999999,-0.0066954999999999,0.077027,0.0027449999999999,0.0066955,-0.0267559999999999,-0.0148049999999999,-0.4512135,0.16643,0.202255,-0.2926935,-0.0221239999999999,-0.223595,-0.4657035,0.12399,-0.186855,-0.1737675,1
140,-0.0081094999999999,0.6718310000000001,-0.0570735,-0.1546345,0.473385,-0.0598555,-0.2792645,0.689644,-0.1670154999999999,0.1346055,0.486195,-0.0432905,0.2547855,0.704455,-0.0979185,-0.3166645,0.949685,-0.2664085,0.2985255,0.961285,-0.1793485,-0.0763355,-0.0029049999999999,-0.0065894999999999,0.0763355,0.002905,0.0065894999999999,-0.0146534999999999,-0.0373049999999999,-0.4642385,0.1674055,0.206675,-0.2880685,-0.0013644999999999,-0.2162849999999999,-0.5196985000000001,0.1277255,-0.190125,-0.1716835,1
141,-0.0092465,0.6745669999999999,-0.050538,-0.1560925,0.4761899999999999,-0.05332,-0.2803425,0.690847,-0.16123,0.1330375,0.48854,-0.036812,0.2539075,0.70715,-0.091349,-0.3179325,0.952,-0.260855,0.2981875,0.96437,-0.172865,-0.0757444999999999,-0.00316,-0.006416,0.0757444999999999,0.0031599999999999,0.0064159999999999,-0.0015525,-0.0589399999999999,-0.477165,0.1682874999999999,0.2111499999999999,-0.2840749999999999,0.0159465,-0.23736,-0.537925,0.1266575,-0.19097,-0.16514,1
142,-0.010631,0.6769290000000001,-0.0456655,-0.157777,0.478245,-0.0484675,-0.281327,0.691914,-0.1567795,0.131163,0.4904450000000001,-0.0320024999999999,0.252783,0.7091350000000001,-0.0863375,-0.319497,0.953955,-0.2571934999999999,0.2975029999999999,0.966475,-0.1679835,-0.075087,-0.0033849999999999,-0.0060544999999999,0.075087,0.003385,0.0060545,-0.001777,-0.0669249999999999,-0.4747835,0.169013,0.214915,-0.2823434999999999,0.0171279999999999,-0.2594949999999999,-0.5382835,0.124693,-0.192125,-0.1552055,1
143,-0.0118439999999999,0.67886,-0.0426035,-0.159256,0.47974,-0.0454275,-0.282686,0.692286,-0.1535115,0.129454,0.4919,-0.0290045,0.251824,0.7108099999999999,-0.0830895,-0.320816,0.95518,-0.2554205,0.296944,0.96795,-0.1648905,-0.074349,-0.00377,-0.0060525,0.074349,0.0037699999999999,0.0060525,-0.0022009999999999,-0.06976,-0.4732305,0.169454,0.2174999999999999,-0.2826905,0.017962,-0.28244,-0.5400805,0.122844,-0.19413,-0.1472495,1
144,-0.0126995,0.680445,-0.0407629999999999,-0.1602645,0.4807149999999999,-0.043668,-0.2830645,0.6927989999999999,-0.152022,0.1283155,0.4930649999999999,-0.0274109999999999,0.2512155,0.7121949999999999,-0.0811139999999999,-0.3216345,0.956235,-0.254723,0.2967255,0.969045,-0.163063,-0.0738665,-0.004565,-0.005767,0.0738665,0.0045649999999999,0.005767,-0.0023115,-0.0696350000000001,-0.473083,0.1694955,0.2194749999999999,-0.283873,0.0185094999999999,-0.306045,-0.539133,0.1210155,-0.193775,-0.14051,1
145,-0.0130555,0.68137,-0.0401134999999999,-0.1607655,0.4810999999999999,-0.0430225,-0.2839955,0.694987,-0.1522975,0.1276945,0.49371,-0.0269174999999999,0.2510945,0.7131,-0.0802374999999999,-0.3221355,0.9584,-0.2548845,0.2968845,0.96956,-0.1624145,-0.0733505,-0.0049099999999999,-0.0054844999999999,0.0733505,0.0049099999999999,0.0054844999999999,-0.0024395,-0.0688299999999999,-0.4739545,0.1693445,0.22068,-0.2841145,0.0182414999999999,-0.30949,-0.5388845,0.1194544999999999,-0.19381,-0.1341024999999999,1
146,-0.0130754999999999,0.6817650000000001,-0.040175,-0.1609185,0.481125,-0.043058,-0.2845185,0.6966650000000001,-0.1532339999999999,0.1274615,0.493965,-0.02717,0.2513415,0.713515,-0.080044,-0.3222785,0.960105,-0.2557,0.2973515,0.969615,-0.1624499999999999,-0.0730615,-0.005085,-0.005448,0.0730615,0.005085,0.0054479999999999,-0.0016084999999999,-0.0685049999999999,-0.47539,0.1694115,0.221075,-0.28392,0.0193215,-0.3196949999999999,-0.53913,0.1169415,-0.1939149999999999,-0.124311,1
147,-0.0132665,0.6818500000000001,-0.040123,-0.1611785,0.480775,-0.042976,-0.2842385,0.6966720000000001,-0.153072,0.1271415,0.4939950000000001,-0.027267,0.2514715,0.713535,-0.079731,-0.3222985,0.960125,-0.256346,0.2976415,0.969445,-0.162456,-0.0729725,-0.0051049999999999,-0.005339,0.0729725,0.005105,0.005339,-0.0013465,-0.0676149999999999,-0.476066,0.1693615,0.221645,-0.283596,0.0146094999999999,-0.3401649999999999,-0.5039859999999999,0.1169014999999999,-0.1939149999999999,-0.123923,1
148,-0.0134604999999999,0.6821740000000001,-0.0401355,-0.1612185,0.4805250000000001,-0.0430005,-0.2838985,0.6966720000000001,-0.1530465,0.1271215,0.4939950000000001,-0.0274255,0.2516515,0.713535,-0.0797274999999999,-0.3223985,0.960125,-0.2570604999999999,0.2979215,0.969405,-0.1625705,-0.0728975,-0.0051049999999999,-0.0052574999999999,0.0728975,0.005105,0.0052574999999999,-0.0014744999999999,-0.0667649999999999,-0.4763305,0.1689715,0.222495,-0.2833005,0.0099385,-0.3617549999999999,-0.4687504999999999,0.1155115,-0.1914249999999999,-0.1241225,1
149,-0.0135905,0.6819320000000001,-0.0398505,-0.1611715,0.4798800000000001,-0.0427594999999999,-0.2837715,0.6960270000000001,-0.1527945,0.1272285,0.49335,-0.0272864999999999,0.2519185,0.7131400000000001,-0.0794574999999999,-0.3224515,0.95948,-0.2575685,0.2982284999999999,0.96876,-0.1624585,-0.0729035,-0.0051699999999998,-0.0051634999999999,0.0729035,0.00517,0.0051635,-0.0010405,-0.06677,-0.4760385,0.1688285,0.22158,-0.2835685,0.0066144999999999,-0.3909799999999999,-0.4330085,0.1094284999999999,-0.1920699999999999,-0.1144615,1
150,-0.0137795,0.6824300000000001,-0.039806,-0.1611655,0.48002,-0.042715,-0.2845255,0.6973720000000001,-0.153694,0.1273345,0.49335,-0.02735,0.2521245,0.7138,-0.079387,-0.3228555,0.96082,-0.258274,0.2984445,0.96876,-0.162494,-0.0729684999999999,-0.0051699999999998,-0.005129,0.0729684999999999,0.00517,0.005129,-0.0009984999999999,-0.06677,-0.475994,0.1689745,0.22068,-0.283944,0.0067985,-0.3902899999999999,-0.432944,0.1032744999999999,-0.1920699999999999,-0.105005,1
151,-0.0140524999999999,0.683353,-0.0399814999999999,-0.1612664999999999,0.4797049999999999,-0.0427815,-0.2849565,0.6983189999999999,-0.1541615,0.1273234999999999,0.493625,-0.0274454999999999,0.2526035,0.7153849999999999,-0.0794835,-0.3231365,0.961635,-0.2588065,0.2985435,0.968425,-0.1625865,-0.0730035,-0.0053549999999999,-0.0051334999999999,0.0730035,0.0053549999999999,0.0051334999999999,-0.0012144999999999,-0.067105,-0.4760165,0.1687135,0.2197549999999999,-0.2844365,0.0059085,-0.3683850000000001,-0.4330565,0.0970775,-0.1903949999999999,-0.0955655,1
152,-0.0143925,0.6840430000000001,-0.04019,-0.1614425,0.4788650000000001,-0.042938,-0.2853225,0.700007,-0.1553749999999999,0.1272175,0.493705,-0.027641,0.2531075,0.7168150000000001,-0.079817,-0.3232625,0.961555,-0.259553,0.2985875,0.967615,-0.1629229999999999,-0.0730305,-0.0054849999999999,-0.005137,0.0730305,0.005485,0.005137,-0.0009345,-0.0667949999999999,-0.475803,0.1665675,0.217545,-0.285583,0.0063224999999999,-0.3658949999999999,-0.432973,0.0907615,-0.1888449999999999,-0.085848,1
153,-0.0146494999999999,0.684592,-0.040463,-0.1616765,0.477865,-0.043204,-0.2858064999999999,0.701506,-0.156782,0.1271235,0.4935349999999999,-0.0279719999999999,0.2536735,0.718235,-0.080377,-0.3234464999999999,0.961165,-0.260625,0.2986135,0.966495,-0.163435,-0.0730545,-0.005595,-0.005058,0.0730545,0.005595,0.005058,-0.0005364999999999,-0.066135,-0.475375,0.1640735,0.2145049999999999,-0.285985,0.0074915,-0.386125,-0.432245,0.0905105,-0.189895,-0.085962,1
154,-0.014702,0.683809,-0.0411355,-0.162036,0.4779949999999999,-0.0442765,-0.2862159999999999,0.7019329999999999,-0.1587875,0.127134,0.4924949999999999,-0.0287745,0.254354,0.718515,-0.0815275,-0.323546,0.959185,-0.2623275,0.298764,0.964285,-0.1647175,-0.073115,-0.0054549999999999,-0.0050775,0.073115,0.0054549999999999,0.0050774999999999,-0.00053,-0.065525,-0.4737475,0.162204,0.2096549999999999,-0.2888374999999999,0.0074289999999999,-0.389125,-0.4301775,0.090441,-0.192635,-0.0865045,1
155,-0.0147725,0.682999,-0.0437715,-0.1624085,0.477615,-0.0472294999999999,-0.2862685,0.7023550000000001,-0.1627895,0.1271815,0.490935,-0.0313905,0.2550914999999999,0.717975,-0.0846875,-0.3234185,0.956725,-0.2661465,0.2989615,0.961625,-0.1680765,-0.0733135,-0.005255,-0.0053995,0.0733135,0.005255,0.0053995,-0.0004625,-0.0665449999999999,-0.4743165,0.1602215,0.203875,-0.2935164999999999,0.0072434999999999,-0.393355,-0.4282665,0.0897335,-0.1960849999999999,-0.0879554999999999,1
156,-0.0149744999999999,0.681856,-0.0474315,-0.1631055,0.4771250000000001,-0.0513445,-0.2860355,0.702335,-0.1677565,0.1271645,0.489195,-0.0349895,0.2556545,0.7173250000000001,-0.0888875,-0.3234355,0.953925,-0.2710765,0.2988845,0.958755,-0.1726765,-0.0738225,-0.0052349999999999,-0.0049965,0.0738225,0.0052350000000001,0.0049965,-0.0013364999999999,-0.0666649999999999,-0.4749465,0.1578345,0.196855,-0.2980565,0.0061955,-0.3932549999999999,-0.4275065,0.0888265,-0.1994849999999999,-0.0907835,1
157,-0.0141744999999999,0.680906,-0.0526004999999999,-0.1624995,0.476245,-0.0566975,-0.2851295,0.702175,-0.1741875,0.1281605,0.486725,-0.0398805,0.2571605,0.716105,-0.0945415,-0.3224595,0.950465,-0.2776274999999999,0.2998005,0.955495,-0.1787774999999999,-0.0738385,-0.005525,-0.0050265,0.0738385,0.005525,0.0050265,-0.0013474999999999,-0.067655,-0.4765875,0.1562605,0.187565,-0.3028775,0.0060095,-0.394015,-0.4277074999999999,0.0888905,-0.203685,-0.0946545,1
158,-0.013248,0.6798550000000001,-0.0584299999999999,-0.16163,0.4767450000000001,-0.0629199999999999,-0.2841599999999999,0.7012850000000002,-0.181004,0.12918,0.4849850000000001,-0.045311,0.25875,0.7148650000000001,-0.100905,-0.3213399999999999,0.946325,-0.285034,0.30074,0.951445,-0.185364,-0.073909,-0.0051949999999999,-0.0051309999999999,0.073909,0.005195,0.005131,-0.013257,-0.0462049999999999,-0.465514,0.15485,0.1771350000000001,-0.307914,-0.0001719999999999,-0.3784049999999999,-0.4190439999999999,0.089542,-0.2063449999999999,-0.099742,1
159,-0.0120835,0.6789689999999999,-0.0652345,-0.1606535,0.4763849999999999,-0.0697045,-0.2828135,0.699705,-0.1881555,0.1305565,0.483221,-0.0512555,0.2605065,0.713075,-0.1080155,-0.3199134999999999,0.940655,-0.2932455,0.3017465,0.948935,-0.1931955,-0.0740825,-0.004815,-0.0054084999999999,0.0740825,0.004815,0.0054084999999999,-0.0256435,-0.026405,-0.4525755,0.1538365,0.164655,-0.3136955,-0.0129065,-0.362995,-0.4086255,0.0905644999999999,-0.210775,-0.1069095,1
160,-0.0100564999999999,0.676735,-0.0743284999999999,-0.1588834999999999,0.474315,-0.0787235,-0.2808735,0.698095,-0.1975905,0.1326965,0.479535,-0.0593775,0.2626365,0.708035,-0.1170025,-0.3175135,0.932645,-0.3035705,0.3034865,0.946075,-0.2034105,-0.0747444999999999,-0.0038749999999999,-0.0052315,0.0747444999999999,0.0038749999999999,0.0052315,-0.0376925,-0.0092149999999999,-0.4417005,0.1541565,0.149105,-0.3220105,-0.0264844999999999,-0.3487049999999999,-0.3937805,0.0927355,-0.217295,-0.1173235,1
161,-0.0077444999999999,0.6762600000000001,-0.083167,-0.1568705,0.472942,-0.087479,-0.2786305,0.6944600000000001,-0.204877,0.1351295,0.476849,-0.06716,0.2648195,0.7071500000000001,-0.125864,-0.3149605,0.93028,-0.312617,0.3053395,0.94352,-0.212687,-0.0755494999999999,-0.0033499999999999,-0.005223,0.0755494999999999,0.00335,0.0052229999999999,-0.0494784999999999,0.0062499999999999,-0.431307,0.1560895,0.1347,-0.330107,-0.0397364999999999,-0.33553,-0.378297,0.0948475,-0.22702,-0.130242,1
162,-0.0053795,0.67456,-0.091948,-0.1545295,0.47097,-0.096096,-0.2758495,0.6891,-0.21246,0.1375805,0.474039,-0.074738,0.2667305,0.7057,-0.134126,-0.3123995,0.92614,-0.32128,0.3071205,0.94072,-0.22178,-0.0763745,-0.0030799999999999,-0.0052299999999999,0.0763745,0.00308,0.0052299999999999,-0.0613395,0.01936,-0.42091,0.1579605,0.11899,-0.33803,-0.0535125,-0.32228,-0.35744,0.0967695,-0.2384399999999999,-0.14411,1
163,-0.0030495,0.677,-0.100234,-0.1522275,0.468686,-0.103967,-0.2729575,0.68716,-0.21949,0.1399125,0.471758,-0.081986,0.2685225,0.70445,-0.141582,-0.3098875,0.92264,-0.32915,0.3086624999999999,0.9402,-0.23014,-0.0771574999999999,-0.00285,-0.00511,0.0771574999999999,0.00285,0.0051099999999999,-0.0731655,0.0309,-0.41134,0.1597725,0.10244,-0.34569,-0.0672135,-0.3111199999999999,-0.33625,0.0984505,-0.25175,-0.158005,1
164,-0.0009934999999999,0.6772,-0.106415,-0.1501655,0.467281,-0.109516,-0.2699655,0.68332,-0.224075,0.1419445,0.470912,-0.08718,0.2699745,0.70331,-0.146664,-0.3074855,0.91732,-0.334155,0.3097545,0.93909,-0.2359149999999999,-0.0779435,-0.0027199999999999,-0.0048249999999999,0.0779435,0.00272,0.0048249999999999,-0.0852055,0.03845,-0.400215,0.1617345,0.0834,-0.349005,-0.0800775,-0.30364,-0.314355,0.1012265,-0.2642799999999999,-0.168723,1
165,0.000684,0.6779949999999999,-0.110854,-0.1483129999999999,0.4662709999999999,-0.1134879999999999,-0.267233,0.6834749999999999,-0.22741,0.143687,0.4704509999999999,-0.091039,0.271197,0.702135,-0.150214,-0.3053229999999999,0.918245,-0.3375599999999999,0.310517,0.941645,-0.23961,-0.078538,-0.0023549999999999,-0.0052699999999999,0.078538,0.0023549999999999,0.0052699999999999,-0.0975429999999999,0.0444049999999999,-0.38863,0.1639769999999999,0.0641549999999999,-0.35092,-0.093333,-0.2974150000000001,-0.2912599999999999,0.104072,-0.278005,-0.1784379999999999,1
166,0.0018644999999999,0.679245,-0.113185,-0.1465025,0.465883,-0.1155969999999999,-0.2653325,0.682565,-0.229095,0.1449175,0.470671,-0.0933399999999999,0.2719775,0.701925,-0.152178,-0.3035825,0.919035,-0.339395,0.3108575,0.943565,-0.2416249999999999,-0.0790144999999999,-0.0016349999999999,-0.0051449999999999,0.0790144999999999,0.0016349999999999,0.0051449999999999,-0.0969825,0.026005,-0.388355,0.1659574999999999,0.045585,-0.352265,-0.0935125,-0.3109649999999999,-0.277555,0.1087595,-0.292685,-0.1864569999999999,1
167,0.0030974999999999,0.68045,-0.114448,-0.1446645,0.464067,-0.116782,-0.2636245,0.68263,-0.229595,0.1465655,0.469773,-0.0946379999999999,0.2729455,0.70133,-0.153658,-0.3016145,0.91954,-0.340565,0.3115255,0.94532,-0.242965,-0.0793375,-0.00156,-0.0048949999999999,0.0793375,0.00156,0.0048949999999999,-0.1094945,0.0302999999999999,-0.3743749999999999,0.1686855,0.0266099999999999,-0.352935,-0.1075445,-0.30662,-0.2531549999999999,0.1140325,-0.30798,-0.193448,1
168,0.004498,0.68192,-0.1148159999999999,-0.1427149999999999,0.463422,-0.1170799999999999,-0.261635,0.6829700000000001,-0.22887,0.148075,0.469473,-0.095024,0.274345,0.70277,-0.154129,-0.299695,0.92102,-0.34055,0.312485,0.94504,-0.24339,-0.079494,-0.0015999999999999,-0.0045199999999999,0.079494,0.0015999999999999,0.0045199999999999,-0.1090549999999999,0.0124199999999999,-0.37427,0.171635,0.0081499999999999,-0.3531999999999999,-0.114475,-0.31926,-0.23692,0.118355,-0.3255099999999999,-0.193253,1
169,0.004615,0.685055,-0.114799,-0.142264,0.465265,-0.117019,-0.260714,0.686315,-0.22748,0.148136,0.470939,-0.0950139999999999,0.274686,0.705425,-0.154084,-0.299404,0.924005,-0.33938,0.311876,0.947025,-0.24234,-0.079433,-0.0021349999999999,-0.00451,0.079433,0.0021349999999999,0.00451,-0.109624,-0.0043849999999999,-0.37367,0.173176,-0.0094049999999999,-0.35237,-0.116274,-0.3337249999999999,-0.2284,0.121136,-0.3430649999999999,-0.191361,1
170,0.0047145,0.6871400000000001,-0.1145979999999999,-0.1418305,0.466573,-0.1166049999999999,-0.2598605,0.68962,-0.225995,0.1482595,0.472204,-0.094999,0.2745295,0.70715,-0.153691,-0.2991605,0.92048,-0.337075,0.3112895,0.94808,-0.240945,-0.0793095,-0.00228,-0.0044949999999999,0.0793095,0.00228,0.0044949999999999,-0.1097605,-0.0222699999999999,-0.372675,0.1747695,-0.0277399999999999,-0.3514049999999999,-0.1172705,-0.34893,-0.2197259999999999,0.1263795,-0.35647,-0.1942559999999999,1
171,0.0047709999999999,0.69045,-0.11384,-0.141678,0.4691369999999999,-0.115912,-0.259048,0.6939,-0.223845,0.1484019999999999,0.473703,-0.094951,0.274242,0.70914,-0.15293,-0.298898,0.9243,-0.3336449999999999,0.3105819999999999,0.95265,-0.238395,-0.079255,-0.00226,-0.004485,0.079255,0.0022599999999999,0.0044849999999999,-0.109448,-0.0406199999999999,-0.371735,0.176092,-0.04609,-0.349905,-0.116128,-0.36592,-0.216583,0.131122,-0.3727,-0.19597,1
172,0.0040319999999999,0.69128,-0.110766,-0.142387,0.471192,-0.113015,-0.259357,0.6944699999999999,-0.219123,0.147863,0.475531,-0.093071,0.273323,0.71208,-0.150243,-0.299767,0.92856,-0.32788,0.309173,0.95457,-0.23346,-0.079035,-0.0023299999999999,-0.00451,0.079035,0.0023299999999999,0.0045099999999999,-0.110027,-0.05734,-0.36988,0.1761529999999999,-0.0622599999999999,-0.34797,-0.115777,-0.38226,-0.213446,0.135173,-0.38494,-0.193517,1
173,0.0033185,0.69419,-0.106561,-0.1428384999999999,0.47333,-0.109508,-0.2595584999999999,0.69781,-0.212769,0.1475715,0.47606,-0.090334,0.2722215,0.71488,-0.145918,-0.3005285,0.93313,-0.321355,0.3079815,0.95792,-0.227565,-0.0789685,-0.0022,-0.004315,0.0789685,0.0021999999999999,0.0043149999999999,-0.1102985,-0.07349,-0.367745,0.1761115,-0.07839,-0.345805,-0.1164784999999999,-0.3991100000000001,-0.210219,0.1385915,-0.40015,-0.190905,1
174,0.0024514999999999,0.697955,-0.1024089999999999,-0.1435465,0.475095,-0.1057309999999999,-0.2606965,0.6971350000000001,-0.20655,0.1472035,0.475345,-0.0874149999999999,0.2708135,0.717475,-0.141179,-0.3015565,0.931185,-0.314015,0.3066334999999999,0.957825,-0.2214749999999999,-0.0787295,-0.002035,-0.0041449999999999,0.0787295,0.002035,0.004145,-0.1107064999999999,-0.0886049999999999,-0.365255,0.1756435,-0.093235,-0.342815,-0.1162364999999999,-0.415855,-0.2079599999999999,0.1422735,-0.4156849999999999,-0.189272,1
175,0.0016045,0.7006399999999999,-0.097586,-0.1444325,0.4769799999999999,-0.101422,-0.2623925,0.69755,-0.199975,0.1468275,0.4781499999999999,-0.083319,0.2694275,0.71905,-0.136178,-0.3027025,0.93321,-0.30576,0.3051575,0.95621,-0.214522,-0.0785065,-0.0022699999999999,-0.00402,0.0785065,0.0022699999999999,0.0040199999999999,-0.1111625,-0.10408,-0.36148,0.1749775,-0.10843,-0.33824,-0.1162024999999999,-0.4327899999999999,-0.206525,0.1417875,-0.43543,-0.186063,1
176,0.0005154999999999,0.703875,-0.0922859999999999,-0.1451955,0.478995,-0.09739,-0.2637655,0.697155,-0.1937809999999999,0.1464244999999999,0.480265,-0.07937,0.2682145,0.721595,-0.131116,-0.3037855,0.935315,-0.297905,0.3039445,0.961035,-0.207928,-0.0783585,-0.0022849999999999,-0.0038549999999999,0.0783585,0.0022849999999999,0.0038549999999999,-0.1115655,-0.118055,-0.357035,0.1744245,-0.122365,-0.333485,-0.1163955,-0.4490749999999999,-0.204568,0.1428545,-0.451305,-0.183427,1
177,-0.0005845,0.7065250000000001,-0.086436,-0.1461585,0.481755,-0.092585,-0.2646185,0.701635,-0.186836,0.1459315,0.481735,-0.074503,0.2670615,0.723385,-0.125225,-0.3050584999999999,0.938495,-0.289335,0.3027715,0.963695,-0.2013,-0.0781505,-0.0021049999999999,-0.003725,0.0781505,0.002105,0.0037249999999999,-0.1120185,-0.133075,-0.351215,0.1736915,-0.1376449999999999,-0.327085,-0.1164985,-0.468005,-0.202157,0.1441714999999999,-0.4697449999999999,-0.180285,1
178,-0.0016894999999999,0.7091449999999999,-0.080737,-0.1469825,0.4835049999999999,-0.088146,-0.2655025,0.702795,-0.179836,0.1453375,0.4837049999999999,-0.069589,0.2659674999999999,0.726075,-0.119132,-0.3062525,0.942135,-0.281005,0.3018475,0.965715,-0.195159,-0.0778795,-0.002035,-0.003645,0.0778795,0.0020349999999999,0.0036449999999999,-0.1122325,-0.146635,-0.345305,0.1729975,-0.151905,-0.320525,-0.1164724999999999,-0.485815,-0.199165,0.1452474999999999,-0.487385,-0.177027,1
179,-0.0027195,0.711705,-0.0747309999999999,-0.1476575,0.485395,-0.0832989999999999,-0.2663575,0.702305,-0.17167,0.1448225,0.485605,-0.0642219999999999,0.2647624999999999,0.724845,-0.1119569999999999,-0.3074775,0.946415,-0.272117,0.3009225,0.967945,-0.188222,-0.0775184999999999,-0.0021049999999999,-0.0034629999999999,0.0775184999999999,0.0021049999999999,0.003463,-0.1126274999999999,-0.160205,-0.338477,0.1721625,-0.1661049999999999,-0.313177,-0.1169175,-0.504805,-0.197035,0.1463525,-0.506285,-0.1738179999999999,1
180,-0.003703,0.714995,-0.0687015,-0.148212,0.486145,-0.0784695,-0.267382,0.702465,-0.1637455,0.144398,0.488065,-0.0587265,0.263468,0.724085,-0.1048275,-0.308682,0.947685,-0.2637465,0.299918,0.967715,-0.1814665,-0.077117,-0.0021349999999999,-0.0032535,0.077117,0.002135,0.0032534999999999,-0.112962,-0.173215,-0.3313465,0.171268,-0.179695,-0.3056365,-0.1173019999999999,-0.523295,-0.1941385,0.147518,-0.5250049999999999,-0.1704945,1
181,-0.004726,0.7173700000000001,-0.062455,-0.148732,0.48648,-0.073554,-0.268042,0.70272,-0.155869,0.144138,0.48992,-0.052754,0.262268,0.7226600000000001,-0.097304,-0.309902,0.94799,-0.254816,0.299158,0.96812,-0.17418,-0.07675,-0.0021899999999999,-0.003149,0.07675,0.0021899999999999,0.0031489999999999,-0.113332,-0.18695,-0.323396,0.170148,-0.19312,-0.297316,-0.117742,-0.54139,-0.191028,0.148818,-0.5434699999999999,-0.166308,1
182,-0.0055949999999999,0.720455,-0.056853,-0.149291,0.485705,-0.068976,-0.268061,0.703125,-0.149519,0.143849,0.492275,-0.047245,0.261199,0.725575,-0.090758,-0.310981,0.951385,-0.24684,0.298569,0.968755,-0.167489,-0.076426,-0.002435,-0.00313,0.076426,0.0024349999999999,0.0031299999999999,-0.1136409999999999,-0.198535,-0.31609,0.169339,-0.203935,-0.28956,-0.117691,-0.556145,-0.186921,0.150209,-0.558395,-0.162759,1
183,-0.00621,0.7219,-0.0508424999999999,-0.149601,0.48651,-0.0638165,-0.268451,0.70356,-0.1423035,0.1438289999999999,0.4955199999999999,-0.0411664999999999,0.260769,0.7272299999999999,-0.0840305,-0.311731,0.95408,-0.2389754999999999,0.298369,0.96887,-0.1604074999999999,-0.07607,-0.00265,-0.0030844999999999,0.07607,0.0026499999999999,0.0030845,-0.113781,-0.21094,-0.3076055,0.168769,-0.21576,-0.2806254999999999,-0.117621,-0.5713900000000001,-0.1820804999999999,0.151809,-0.57398,-0.1588454999999999,1
184,-0.0067935,0.7245550000000001,-0.044498,-0.1498525,0.488625,-0.058732,-0.2691325,0.706585,-0.135326,0.1440575,0.495495,-0.035762,0.2604875,0.729045,-0.077371,-0.3125825,0.954685,-0.230425,0.2983175,0.973035,-0.153075,-0.0755985,-0.0023849999999999,-0.003174,0.0755985,0.0023849999999999,0.0031739999999999,-0.1139625,-0.2224349999999999,-0.298595,0.1683675,-0.2267049999999999,-0.271315,-0.1174325,-0.5858949999999999,-0.178377,0.1531375,-0.5883649999999999,-0.154667,1
185,-0.0073319999999999,0.726435,-0.038529,-0.1501579999999999,0.489875,-0.053488,-0.270428,0.709615,-0.127687,0.144092,0.497815,-0.030129,0.260062,0.7303550000000001,-0.070741,-0.313708,0.955345,-0.22157,0.2980819999999999,0.970605,-0.145386,-0.075006,-0.0024549999999999,-0.003008,0.075006,0.0024549999999999,0.0030079999999999,-0.114538,-0.234045,-0.28903,0.167822,-0.237445,-0.26149,-0.117668,-0.6002149999999999,-0.175147,0.154402,-0.602615,-0.150313,1
186,-0.0076899999999999,0.728115,-0.033453,-0.150346,0.490035,-0.048861,-0.2716059999999999,0.707645,-0.120898,0.144244,0.500035,-0.025743,0.259814,0.730675,-0.064811,-0.3146359999999999,0.955065,-0.213624,0.297954,0.972095,-0.138021,-0.074465,-0.002665,-0.002768,0.074465,0.002665,0.0027679999999999,-0.114836,-0.2445049999999999,-0.280184,0.167134,-0.249855,-0.252834,-0.117516,-0.613225,-0.170761,0.154644,-0.615135,-0.145916,1
187,-0.0080485,0.730919,-0.0283775,-0.1505545,0.490649,-0.0441815,-0.2728645,0.705939,-0.1142295,0.1441555,0.501639,-0.0214875,0.2595355,0.731459,-0.0588395,-0.3157745,0.954739,-0.2055795,0.2979854999999999,0.972589,-0.1308015,-0.0739815,-0.0027839999999999,-0.0025835,0.0739815,0.002784,0.0025834999999999,-0.1152745,-0.255461,-0.2709495,0.1663755,-0.2628709999999999,-0.2438495,-0.1173845,-0.626571,-0.1664765,0.1548955,-0.6282909999999999,-0.1416155,1
188,-0.00837,0.7328359999999999,-0.0237114999999999,-0.150796,0.490576,-0.0399464999999999,-0.274076,0.709396,-0.1086195,0.144074,0.502376,-0.0176144999999999,0.259344,0.7334459999999999,-0.0538735,-0.3170659999999999,0.954806,-0.1982345,0.2977039999999999,0.973776,-0.1243225,-0.073614,-0.0028089999999999,-0.0025535,0.073614,0.002809,0.0025535,-0.115696,-0.2651139999999999,-0.2624045,0.1656439999999999,-0.2752639999999999,-0.2353745,-0.117296,-0.6384340000000001,-0.1625815,0.155104,-0.639594,-0.1377054999999999,1
189,-0.0093755,0.7338595,-0.0132649999999999,-0.1525915,0.4926395,-0.030171,-0.2748115,0.7098595,-0.09728,0.1433985,0.5027895,-0.0078119999999999,0.2585584999999999,0.7353095000000001,-0.042144,-0.3195615,0.9483595,-0.183274,0.2968185,0.9764395,-0.110863,-0.0730555,-0.0027164999999999,-0.002451,0.0730555,0.0027164999999999,0.002451,-0.1159915,-0.2808505,-0.241214,0.1624585,-0.2938505,-0.213194,-0.1184214999999999,-0.6562705,-0.150197,0.1540885,-0.6569905,-0.124253,1
190,-0.0102264999999999,0.734741,-0.0032965,-0.1543995,0.494941,-0.0208975,-0.2757295,0.711331,-0.0869905,0.1426805,0.503231,0.0013084999999999,0.2576905,0.737951,-0.0309285,-0.3218895,0.942921,-0.1691835,0.2960205,0.979901,-0.0980335,-0.0724915,-0.0025699999999999,-0.0023434999999999,0.0724915,0.00257,0.0023434999999999,-0.1159695,-0.2956089999999999,-0.2208635,0.1592805,-0.309469,-0.1919435,-0.1193694999999999,-0.671959,-0.1378255,0.1531205,-0.672679,-0.1113445,1
191,-0.011104,0.7347144999999999,0.0065539999999999,-0.156253,0.4974845,-0.011902,-0.277473,0.7126045,-0.077029,0.1419669999999999,0.5032545,0.0101129999999999,0.256897,0.7367645,-0.01972,-0.324213,0.9364745,-0.155199,0.295407,0.9822945,-0.085289,-0.071966,-0.0023374999999999,-0.0022259999999999,0.071966,0.0023375,0.0022259999999999,-0.115783,-0.3102355,-0.200469,0.156007,-0.3249155,-0.170589,-0.120223,-0.6874055,-0.125987,0.151997,-0.6881255000000001,-0.09823,1
192,-0.012092,0.7351179999999999,0.0161515,-0.158181,0.498518,-0.0034075,-0.279771,0.7140479999999999,-0.0680865,0.141239,0.503738,0.0184255,0.256059,0.737108,-0.0089405,-0.326661,0.931228,-0.1419255,0.294829,0.985388,-0.0728365,-0.071646,-0.002196,-0.0020634999999999,0.071646,0.002196,0.0020634999999999,-0.115551,-0.323712,-0.1808054999999999,0.152679,-0.338482,-0.1501855,-0.1211209999999999,-0.700972,-0.1147515,0.150579,-0.7016920000000001,-0.0857695,1
193,-0.0130969999999999,0.7342525,0.024954,-0.160041,0.4978425,0.005018,-0.282121,0.7143725,-0.059703,0.140519,0.5039125,0.026551,0.255149,0.7377024999999999,0.001211,-0.329111,0.9329625,-0.130471,0.294009,0.9867025,-0.0615109999999999,-0.071513,-0.0021715,-0.001718,0.071513,0.0021715,0.001718,-0.115481,-0.3355375,-0.161831,0.1491589999999999,-0.3524275,-0.130711,-0.122141,-0.7138775,-0.104009,0.148789,-0.7145675,-0.073932,1
194,-0.0142095,0.733684,0.0333765,-0.1619645,0.497884,0.0129575,-0.2844545,0.715264,-0.0521015,0.1396555,0.502794,0.0341995,0.2539955,0.737784,0.0108905,-0.3314844999999999,0.935114,-0.1196194999999999,0.2930355,0.988894,-0.0506804999999999,-0.0714125,-0.0019569999999999,-0.0016194999999999,0.0714125,0.0019569999999999,0.0016195,-0.1153945,-0.346246,-0.1432795,0.1454254999999999,-0.365816,-0.1116925,-0.1231945,-0.725966,-0.0935375,0.1468555,-0.726706,-0.0626205,1
195,-0.0154675,0.733792,0.041593,-0.1639815,0.497922,0.020651,-0.2870215,0.716842,-0.044711,0.1386985,0.501922,0.041395,0.2527385,0.7383919999999999,0.0201989999999999,-0.3337414999999999,0.937482,-0.109247,0.2917685,0.989682,-0.040415,-0.0713845,-0.001792,-0.001573,0.0713845,0.0017919999999999,0.0015729999999999,-0.1153715,-0.356128,-0.125037,0.1415185,-0.378928,-0.092972,-0.1244915,-0.737948,-0.083426,0.1446885,-0.738648,-0.051572,1
196,-0.016675,0.732402,0.0494715,-0.165938,0.4978419999999999,0.0281014999999999,-0.289388,0.718692,-0.0374575,0.137712,0.5013920000000001,0.0485355,0.251592,0.738862,0.0290764999999999,-0.335698,0.940122,-0.0993035,0.290532,0.990052,-0.0306145,-0.071385,-0.001638,-0.0014715,0.071385,0.001638,0.0014715,-0.115308,-0.366078,-0.1070735,0.137662,-0.392318,-0.0745385,-0.125678,-0.7495679999999999,-0.0728805,0.142592,-0.750728,-0.0407354999999999,1
197,-0.0177809999999999,0.7313805,0.0568635,-0.167833,0.4984004999999999,0.0352085,-0.291633,0.7177705,-0.0304975,0.136787,0.5012605,0.0551855,0.250447,0.7389705000000001,0.0374735,-0.337303,0.9427005,-0.0899495,0.289377,0.9903605,-0.0213495,-0.071436,-0.0015055,-0.0013185,0.071436,0.0015055,0.0013185,-0.115203,-0.3759095,-0.0894585,0.133717,-0.4060795,-0.0562665,-0.126833,-0.7610294999999999,-0.0627535,0.140357,-0.7629595,-0.0302004999999999,1
198,-0.0180089999999999,0.7303755,0.057977,-0.16793,0.4974355,0.036155,-0.29297,0.7201655,-0.029697,0.1366399999999999,0.5010555,0.055858,0.25022,0.7389055,0.0387879999999999,-0.33746,0.9493155,-0.088563,0.28908,0.9885555,-0.019471,-0.071483,-0.0014335,-0.00115,0.071483,0.0014334999999999,0.00115,-0.11541,-0.3789145,-0.08481,0.13287,-0.4101445,-0.051883,-0.1269699999999999,-0.7643845,-0.061031,0.13989,-0.7677445,-0.029163,1
199,-0.0181479999999999,0.729643,0.058935,-0.167983,0.4966129999999999,0.037124,-0.294023,0.722353,-0.028846,0.136547,0.501133,0.0565009999999999,0.249967,0.738553,0.040026,-0.337553,0.955803,-0.087275,0.288717,0.986743,-0.017731,-0.071578,-0.0013989999999999,-0.000965,0.071578,0.0013989999999999,0.0009649999999999,-0.115673,-0.381727,-0.080092,0.132127,-0.413897,-0.047546,-0.126913,-0.767547,-0.059297,0.139507,-0.772107,-0.028099,1
200,-0.018284,0.729244,0.0598055,-0.168068,0.496244,0.0380045,-0.2945379999999999,0.7235039999999999,-0.0279685,0.136462,0.5015339999999999,0.0570424999999999,0.249712,0.738204,0.0410165,-0.3376679999999999,0.962044,-0.0861725,0.288312,0.985244,-0.0163415,-0.071626,-0.0013659999999999,-0.0008155,0.071626,0.0013659999999999,0.0008155,-0.115978,-0.3842959999999999,-0.0755405,0.131412,-0.4170359999999999,-0.0433755,-0.126888,-0.770406,-0.0576545,0.139202,-0.775966,-0.0271425,1
201,-0.0185365,0.728739,0.0605875,-0.1681885,0.4959089999999999,0.0387195,-0.2957285,0.724729,-0.0273095,0.1362515,0.501559,0.0576745,0.2492715,0.737649,0.0417985,-0.3377985,0.968169,-0.0851425,0.2877915,0.983469,-0.0154575,-0.0718195,-0.0013729999999999,-0.0007165,0.0718195,0.0013729999999999,0.0007164999999999,-0.1164685,-0.386911,-0.0712075,0.1306415,-0.419861,-0.0392215,-0.1272485,-0.7730710000000001,-0.0562704999999999,0.1389215,-0.779211,-0.0263645,1
202,-0.0187764999999999,0.7287235,0.0614265,-0.1683105,0.4957835,0.0394835,-0.2963305,0.7247835,-0.0265154999999999,0.1360395,0.5017135,0.0581695,0.2489895,0.7372835,0.0426325,-0.3378905,0.9661335,-0.0839625,0.2872995,0.9820335,-0.0145875,-0.0720085,-0.0013675,-0.0006014999999999,0.0720085,0.0013675,0.0006015,-0.1169304999999999,-0.3891265,-0.0673844999999999,0.1299595,-0.4222364999999999,-0.0352795,-0.1275905,-0.7752065,-0.0549505,0.1386395,-0.7819564999999999,-0.0255304999999999,1
203,-0.019014,0.7286064999999999,0.06225,-0.168411,0.4956264999999999,0.040237,-0.296761,0.7247465,-0.0256939999999999,0.135829,0.5017564999999999,0.058626,0.248729,0.7370065,0.043478,-0.337781,0.9644865,-0.082649,0.286879,0.9807865,-0.0136879999999999,-0.072207,-0.0013954999999999,-0.0004149999999999,0.072207,0.0013955,0.000415,-0.117371,-0.3911735,-0.063763,0.129269,-0.4245835,-0.031303,-0.127961,-0.7771535,-0.053462,0.138349,-0.7844535,-0.024642,1
204,-0.019318,0.7281960000000001,0.0627389999999999,-0.168534,0.495536,0.040869,-0.297174,0.7248560000000001,-0.024911,0.135536,0.5017360000000001,0.058938,0.248406,0.736376,0.044152,-0.337824,0.963006,-0.081509,0.286366,0.979806,-0.012783,-0.072354,-0.001354,-0.000261,0.072354,0.001354,0.0002609999999999,-0.117934,-0.392514,-0.060439,0.128546,-0.4266939999999999,-0.027417,-0.128204,-0.7784139999999999,-0.051956,0.138016,-0.786504,-0.023699,1
205,-0.0196305,0.7278384999999999,0.0633735,-0.1686905,0.4948285,0.0417074999999999,-0.2975505,0.7249985,-0.0238445,0.1352495,0.5016685,0.0593545,0.2480695,0.7364585,0.0449674999999999,-0.3374905,0.9621985,-0.0800135,0.2858495,0.9791985,-0.0117985,-0.0724715,-0.0013504999999999,-0.0001004999999999,0.0724715,0.0013504999999999,0.0001004999999999,-0.1184804999999999,-0.3935214999999999,-0.0573515,0.1278295,-0.4282114999999999,-0.0236745,-0.1283305,-0.7792815000000001,-0.0496375,0.1377195,-0.7879315,-0.0227465,1
206,-0.019879,0.7275765,0.063935,-0.1688069999999999,0.4941765,0.0424859999999999,-0.297887,0.7253165,-0.022708,0.135013,0.5016864999999999,0.059799,0.2478329999999999,0.7365665,0.045731,-0.337157,0.9618465,-0.0784219999999999,0.285413,0.9790465,-0.010713,-0.072536,-0.0013535,-1.000000000001e-06,0.072536,0.0013535,1.000000000001e-06,-0.118957,-0.3941735,-0.0543589999999999,0.127293,-0.4293935,-0.020273,-0.128347,-0.7799335000000001,-0.0473549999999999,0.137453,-0.7888335,-0.021741,1
207,-0.0200585,0.7275130000000001,0.0644725,-0.1689135,0.493783,0.0431995,-0.2982134999999999,0.725573,-0.0215125,0.1347964999999999,0.501673,0.0602685,0.2477364999999999,0.737533,0.0465305,-0.3369135,0.961653,-0.0767554999999999,0.2850065,0.979053,-0.0095625,-0.0726015,-0.0013619999999999,9.349999999999983e-05,0.0726015,0.001362,-9.349999999999983e-05,-0.1195135,-0.394567,-0.0513364999999999,0.1269365,-0.430677,-0.0168085,-0.1281935,-0.7799269999999999,-0.0449735,0.1372065,-0.789357,-0.0206925,1
208,-0.0203015,0.727439,0.064978,-0.1690775,0.493569,0.04393,-0.2986375,0.7258789999999999,-0.019952,0.1344725,0.501669,0.0607879999999999,0.2476425,0.738359,0.04736,-0.3369275,0.961739,-0.074587,0.2844125,0.979339,-0.007956,-0.0726655,-0.001389,0.0001899999999999,0.0726655,0.0013889999999999,-0.0001899999999999,-0.1202075,-0.395231,-0.047844,0.1267125,-0.432741,-0.013166,-0.1280975,-0.779751,-0.04259,0.1369025,-0.790061,-0.019665,1
209,-0.020532,0.7274364999999999,0.0655405,-0.169285,0.4934465,0.0446625,-0.299045,0.7262365,-0.0183925,0.134155,0.5016565,0.0613615,0.247455,0.7391065,0.0482495,-0.337025,0.9618865,-0.0724335,0.283815,0.9795865,-0.0062704999999999,-0.07273,-0.0014404999999999,0.0002835,0.07273,0.0014404999999999,-0.0002834999999999,-0.1209649999999999,-0.3960035,-0.0438685,0.126535,-0.4344135,-0.0096014999999999,-0.128005,-0.7794535,-0.0402025,0.136515,-0.7906235,-0.0185725,1
