sb224sc-HT22-VT27/4dt907/src/data/labeled_files/A54_kinect.csv
FrameNo,nose_3d_x,nose_3d_y,nose_3d_z,left_shoulder_3d_x,left_shoulder_3d_y,left_shoulder_3d_z,left_elbow_3d_x,left_elbow_3d_y,left_elbow_3d_z,right_shoulder_3d_x,right_shoulder_3d_y,right_shoulder_3d_z,right_elbow_3d_x,right_elbow_3d_y,right_elbow_3d_z,left_wrist_3d_x,left_wrist_3d_y,left_wrist_3d_z,right_wrist_3d_x,right_wrist_3d_y,right_wrist_3d_z,left_hip_3d_x,left_hip_3d_y,left_hip_3d_z,right_hip_3d_x,right_hip_3d_y,right_hip_3d_z,left_knee_3d_x,left_knee_3d_y,left_knee_3d_z,right_knee_3d_x,right_knee_3d_y,right_knee_3d_z,left_ankle_3d_x,left_ankle_3d_y,left_ankle_3d_z,right_ankle_3d_x,right_ankle_3d_y,right_ankle_3d_z,activity_label
0,-0.0031275,0.6411335,0.054104,-0.1500825,0.4633335,0.067159,-0.2168825,0.6589435,0.039402,0.1352175,0.4427635,0.030227,0.2139675,0.6559935,0.016531,-0.2562725,0.9160635,0.048683,0.2634474999999999,0.9131335,0.012408,-0.0604564999999999,0.0021025,-0.001307,0.0604564999999999,-0.0021025,0.0013069999999999,-0.1235525,-0.4304265,-0.0176059999999999,0.1119175,-0.4444665,-0.0203259999999999,-0.1649525,-0.8753065,-0.0645679999999999,0.1365975,-0.8877265,-0.092319,0
1,-0.0030774999999999,0.6418195,0.054076,-0.1501555,0.4639795,0.067062,-0.2169355,0.6596895,0.039221,0.1351645,0.4433995,0.030143,0.2139145,0.6565495,0.016526,-0.2564754999999999,0.9169895,0.048476,0.2633744999999999,0.9136895,0.012307,-0.0605885,0.0022595,-0.0017039999999999,0.0605885,-0.0022595,0.001704,-0.1236154999999999,-0.4297705,-0.017651,0.1119345,-0.4447505,-0.020226,-0.1650955,-0.8746605,-0.064366,0.1418145,-0.8891405,-0.079765,0
2,-0.0030599999999999,0.642319,0.054181,-0.150119,0.4643089999999999,0.067002,-0.216869,0.659939,0.039305,0.135181,0.443829,0.030211,0.214001,0.657029,0.016656,-0.256429,0.917449,0.048305,0.263401,0.914179,0.012638,-0.060682,0.002013,-0.0021079999999999,0.060682,-0.002013,0.002108,-0.123599,-0.429121,-0.0174949999999999,0.112011,-0.444521,-0.0200869999999999,-0.165039,-0.874001,-0.0642889999999999,0.1418309999999999,-0.888881,-0.0798379999999999,0
3,-0.003046,0.6422675,0.0541414999999999,-0.1501559999999999,0.4641975,0.0669095,-0.216696,0.6598175000000001,0.0390245,0.135184,0.4438775,0.0302364999999999,0.213854,0.6569375000000001,0.0166864999999999,-0.256286,0.9172775,0.0481565,0.2633339999999999,0.9140675,0.0128824999999999,-0.06071,0.0019725,-0.0023444999999999,0.06071,-0.0019725,0.0023444999999999,-0.123706,-0.4292525,-0.0174725,0.111914,-0.4445525,-0.0201075,-0.165106,-0.8741525,-0.0641045,0.137674,-0.8885725,-0.0853454999999999,0
4,-0.0028155,0.64121,0.053915,-0.1498965,0.46285,0.066465,-0.2164565,0.65877,0.038713,0.1354535,0.44294,0.030107,0.2139535,0.6557499999999999,0.0165639999999999,-0.2557565,0.91571,0.047478,0.2634235,0.91289,0.0128079999999999,-0.0604915,0.002094,-0.00128,0.0604915,-0.002094,0.0012799999999999,-0.1236465,-0.43054,-0.017658,0.1116735,-0.44412,-0.020173,-0.1640265,-0.87574,-0.061347,0.1372235,-0.88798,-0.08694,0
5,-0.0025865,0.640945,0.0538725,-0.1496295,0.462265,0.0663175,-0.2152494999999999,0.6564949999999999,0.0382944999999999,0.1356405,0.4426549999999999,0.0300544999999999,0.2140405,0.655545,0.0166245,-0.2550995,0.914905,0.0472795,0.2636104999999999,0.912655,0.0129174999999999,-0.0604385,0.002115,-0.0008415,0.0604385,-0.002115,0.0008414999999999,-0.1235095,-0.431015,-0.0176715,0.1117905,-0.444305,-0.0202105,-0.1638995,-0.876225,-0.0610855,0.1396805,-0.888745,-0.0804894999999999,0
6,-0.002234,0.6400064999999999,0.0539275,-0.149444,0.4615965,0.0663914999999999,-0.2147939999999999,0.6558765,0.0378875,0.1360259999999999,0.4419865,0.0302775,0.214146,0.6546465,0.0167975,-0.254664,0.9138965,0.0468275,0.263756,0.9117265,0.0136615,-0.060252,0.0017855,-0.0005915,0.060252,-0.0017855,0.0005915,-0.123404,-0.4320635,-0.0175425,0.111946,-0.4451635,-0.0201275,-0.163904,-0.8772535,-0.0610525,0.139996,-0.8896735,-0.0796524999999999,0
7,-0.0021749999999999,0.6406775,0.0542455,-0.149524,0.4620375,0.0663955,-0.215124,0.6579375000000001,0.0378335,0.135996,0.4426575,0.0306555,0.213966,0.6552875,0.0173245,-0.254364,0.9143075,0.0463355,0.263586,0.9123975,0.0138994999999999,-0.060434,0.0019685,-0.0014645,0.060434,-0.0019685,0.0014644999999999,-0.1235439999999999,-0.4315724999999999,-0.0171485,0.111886,-0.4455425,-0.0195605,-0.164344,-0.8765125,-0.0631075,0.138966,-0.8897625,-0.0815535,0
8,-0.0020059999999999,0.640638,0.054303,-0.149471,0.461788,0.066277,-0.214831,0.658258,0.037517,0.136119,0.442708,0.030783,0.213939,0.655278,0.017514,-0.254031,0.913858,0.045898,0.263609,0.912358,0.014298,-0.060443,0.001957,-0.001543,0.060443,-0.001957,0.0015429999999999,-0.123561,-0.431802,-0.01706,0.111869,-0.445762,-0.019429,-0.164341,-0.876732,-0.062862,0.138959,-0.890112,-0.081523,0
9,-0.001827,0.6405675000000001,0.0544265,-0.149387,0.4614675,0.0662244999999999,-0.214497,0.6584775,0.0372544999999999,0.136233,0.4427175,0.0309514999999999,0.213953,0.6552775,0.0177924999999999,-0.2537169999999999,0.9133575,0.0455475,0.263643,0.9123375,0.0147634999999999,-0.060417,0.0019535,-0.0015445,0.060417,-0.0019535,0.0015444999999999,-0.123567,-0.4320925,-0.0169305,0.111873,-0.4459925,-0.0192525,-0.164317,-0.8770325,-0.0624935,0.138843,-0.8903925,-0.0819355,0
10,-0.0016259999999999,0.6404995,0.054506,-0.149316,0.4611595,0.066132,-0.214256,0.6586995,0.036978,0.136384,0.4427695,0.031102,0.213974,0.6553395000000001,0.018064,-0.253456,0.9128795,0.045073,0.263704,0.9123795,0.015224,-0.060374,0.0019265,-0.001506,0.060374,-0.0019265,0.001506,-0.1235559999999999,-0.4324105,-0.016855,0.111864,-0.4462205,-0.019155,-0.164336,-0.8773504999999999,-0.0621049999999999,0.138854,-0.8905605,-0.081801,0
11,-0.001455,0.6404920000000001,0.0545999999999999,-0.14928,0.460902,0.066048,-0.21406,0.658702,0.036761,0.13648,0.4428419999999999,0.031244,0.21397,0.655472,0.018348,-0.25327,0.912462,0.044662,0.2637299999999999,0.912492,0.015664,-0.060355,0.00194,-0.0014829999999999,0.060355,-0.0019399999999999,0.0014829999999999,-0.12358,-0.432658,-0.016773,0.11184,-0.446428,-0.0190709999999999,-0.16444,-0.877628,-0.06166,0.13901,-0.890668,-0.081537,0
12,-0.0012864999999999,0.6405385,0.0547705,-0.1492295,0.4607285,0.0660545,-0.2138894999999999,0.6587585,0.0366355,0.1365905,0.4429885,0.0314835,0.2139805,0.6557185,0.0187395,-0.2531595,0.9121485,0.0444025,0.2637805,0.9127185,0.0161655,-0.0603425,0.0019334999999999,-0.0015615,0.0603425,-0.0019334999999999,0.0015615,-0.1235794999999999,-0.4328415,-0.0166105,0.1118105,-0.4465314999999999,-0.0189015,-0.1644995,-0.8777915,-0.0615905,0.1392905,-0.8907615,-0.0804745,0
13,-0.0011649999999999,0.6406595,0.0548985,-0.149204,0.4606295,0.0660095,-0.213764,0.6590595,0.0364755,0.136646,0.4431895,0.0316785,0.213966,0.6560495000000001,0.0190815,-0.253144,0.9120295,0.0441235,0.263806,0.9130395,0.0165905,-0.060336,0.0019495,-0.0016834999999999,0.060336,-0.0019494999999999,0.0016835,-0.1236139999999999,-0.4329305,-0.0165054999999999,0.111726,-0.4463405,-0.0187794999999999,-0.1645039999999999,-0.8778605,-0.0617065,0.139166,-0.8905705,-0.0803924999999999,0
14,-0.0010759999999999,0.640603,0.0550195,-0.1492089999999999,0.460543,0.0660245,-0.213659,0.659353,0.0364215,0.136661,0.443223,0.0318665,0.213921,0.656193,0.0194095,-0.253189,0.912073,0.0439645,0.263811,0.913173,0.0170104999999999,-0.060344,0.001929,-0.0018285,0.060344,-0.001929,0.0018285,-0.1236789999999999,-0.433017,-0.0164285,0.111591,-0.4460369999999999,-0.0186855,-0.164509,-0.877947,-0.0616985,0.138991,-0.890247,-0.0803855,0
15,-0.0010129999999999,0.6405425,0.055222,-0.149231,0.4604425,0.0661279999999999,-0.213561,0.6592625,0.036514,0.136679,0.4432325,0.032127,0.213869,0.6563224999999999,0.01969,-0.253281,0.9121025,0.043935,0.263809,0.9132925,0.017477,-0.0603439999999999,0.0018964999999999,-0.001951,0.0603439999999999,-0.0018965,0.001951,-0.1237509999999999,-0.4331175,-0.0162819999999999,0.111449,-0.4457375,-0.018534,-0.164481,-0.8780475000000001,-0.0615579999999999,0.139149,-0.8899375,-0.079379,0
16,-0.001013,0.640461,0.0553285,-0.1492919999999999,0.460461,0.0661475,-0.213592,0.659171,0.0365435,0.136648,0.443251,0.0322695,0.213778,0.656451,0.0199605,-0.253402,0.912121,0.0438985,0.263778,0.913401,0.0178545,-0.060353,0.00187,-0.0019985,0.060353,-0.00187,0.0019985,-0.123872,-0.433219,-0.0162194999999999,0.111248,-0.445469,-0.0184645,-0.164412,-0.8781490000000001,-0.0617525,0.139068,-0.889619,-0.0788755,0
17,-0.001006,0.6403955,0.0554645,-0.149347,0.4603655,0.0661785,-0.213637,0.6590855,0.0365915,0.136613,0.4432755,0.0324335,0.213693,0.6565455,0.0201875,-0.253527,0.9120255,0.0438645,0.263733,0.9134855,0.0180705,-0.060348,0.0018514999999999,-0.0019374999999999,0.060348,-0.0018515,0.0019375,-0.123967,-0.4333645,-0.0161694999999999,0.111073,-0.4451945,-0.0184335,-0.164327,-0.8783545,-0.0623175,0.138893,-0.8893145,-0.0795355,0
18,-0.0009955,0.6404110000000001,0.0555795,-0.1494134999999999,0.460261,0.0662315,-0.2137035,0.658721,0.0366635,0.1365865,0.443411,0.0325875,0.2137965,0.657091,0.0203835,-0.2536735,0.911921,0.0439235,0.2638565,0.914031,0.0182335,-0.0603485,0.0018249999999999,-0.0019574999999999,0.0603485,-0.0018249999999999,0.0019575,-0.1240635,-0.433419,-0.0161404999999999,0.1108965,-0.445119,-0.0184114999999999,-0.1643335,-0.878429,-0.0624234999999999,0.1385664999999999,-0.889219,-0.0799785,0
19,-0.0010154999999999,0.6404545,0.0556295,-0.1493924999999999,0.4601945,0.0662175,-0.2137625,0.6586245,0.0366555,0.1368775,0.4438045,0.0331065,0.2138575,0.6575245,0.0204825,-0.2538825,0.9118945,0.0438685,0.2639475,0.9144445,0.0183135,-0.0603335,0.0018174999999999,-0.0019705,0.0603335,-0.0018175,0.0019705,-0.1241624999999999,-0.4334455,-0.0161745,0.1107475,-0.4450855,-0.0184625,-0.1645025,-0.8784755,-0.0621354999999999,0.1385575,-0.8891755,-0.0799825,0
20,-0.001045,0.6404695,0.0556905,-0.149376,0.4601095,0.0662224999999999,-0.213846,0.6585095,0.0366675,0.1371339999999999,0.4441095,0.0336065,0.213894,0.6577295,0.0205815,-0.254096,0.9118195,0.0438755,0.2640139999999999,0.9146395,0.0184215,-0.0603309999999999,0.0018095,-0.0019865,0.0603309999999999,-0.0018095,0.0019865,-0.124246,-0.4335205,-0.0161914999999999,0.110604,-0.4450705,-0.0185075,-0.164586,-0.8785305,-0.0621325,0.1384439999999999,-0.8892905,-0.0799685,1
21,-0.001063,0.6402295,0.055843,-0.149367,0.4598394999999999,0.06624,-0.213947,0.6585095,0.036683,0.137353,0.4442695,0.034027,0.213913,0.6577295,0.020657,-0.254337,0.9117195,0.043861,0.264053,0.9146395,0.01848,-0.060329,0.0018095,-0.0019949999999999,0.060329,-0.0018095,0.001995,-0.124327,-0.4338305,-0.016241,0.110483,-0.4451005,-0.018581,-0.164687,-0.8788005,-0.062117,0.137823,-0.8892905,-0.081493,1
22,-0.0010569999999999,0.6400279999999999,0.0559824999999999,-0.149345,0.459588,0.0662504999999999,-0.214035,0.658558,0.0366714999999999,0.137535,0.444418,0.0344124999999999,0.213945,0.657778,0.0206594999999999,-0.254605,0.911648,0.0438475,0.264105,0.914688,0.0184784999999999,-0.060335,0.001785,-0.0019805,0.060335,-0.001785,0.0019804999999999,-0.124395,-0.434082,-0.0163185,0.110385,-0.445102,-0.0186585,-0.164795,-0.879032,-0.0621085,0.137145,-0.889242,-0.0830455,1
23,-0.0010414999999999,0.639898,0.0561035,-0.1493114999999999,0.459408,0.0662455,-0.2141115,0.658678,0.0366545,0.1376985,0.444598,0.0347475,0.2139685,0.657898,0.0206395,-0.2548614999999999,0.911648,0.0438135,0.2641785,0.914808,0.0184545,-0.0603415,0.0017859999999999,-0.0018945,0.0603415,-0.001786,0.0018945,-0.1244515,-0.434272,-0.0164165,0.1102585,-0.445002,-0.0187574999999999,-0.1646315,-0.879202,-0.0624555,0.1377384999999999,-0.889272,-0.0814685,1
24,-0.0010039999999999,0.6399085,0.0561869999999999,-0.149229,0.4593685,0.0662349999999999,-0.214429,0.6592485,0.0365599999999999,0.137841,0.4448485,0.0350049999999999,0.214031,0.6581184999999999,0.0205849999999999,-0.255079,0.9117485,0.0437709999999999,0.264301,0.9150285,0.0184149999999999,-0.060357,0.0018495,-0.001876,0.060357,-0.0018494999999999,0.0018759999999999,-0.124469,-0.4343115,-0.016521,0.110191,-0.4449415,-0.018868,-0.164599,-0.8792315,-0.062914,0.137971,-0.8891715,-0.080847,1
25,-0.0009615,0.6399775,0.056213,-0.1491545,0.4593474999999999,0.066167,-0.2147545,0.6599875,0.036401,0.1379755,0.4451374999999999,0.035186,0.2140955,0.6582675,0.020439,-0.2552645,0.9118675,0.04367,0.2644655,0.9151675,0.018252,-0.0603695,0.0018894999999999,-0.0019279999999999,0.0603695,-0.0018895,0.001928,-0.1244645,-0.4343025,-0.016675,0.1101855,-0.4451325,-0.0190229999999999,-0.1646245,-0.8791825,-0.063438,0.1381855,-0.8893025,-0.079938,1
26,-0.0009174999999999,0.640015,0.0562035,-0.1490735,0.459295,0.0660584999999999,-0.2151735,0.660675,0.0362025,0.1380964999999999,0.445385,0.0353005,0.2141664999999999,0.658325,0.0202375,-0.2554535,0.911865,0.0434375,0.2646265,0.915225,0.0179845,-0.0603675,0.001938,-0.0018955,0.0603675,-0.001938,0.0018955,-0.1244735,-0.434305,-0.0168665,0.1101865,-0.445455,-0.0192005,-0.1646535,-0.8791749999999999,-0.0637514999999999,0.1375865,-0.889485,-0.0813305,1
27,-0.00088,0.639879,0.0561315,-0.148999,0.459369,0.0658735,-0.215569,0.661109,0.0359195,0.138281,0.445689,0.0355575,0.2141509999999999,0.6581889999999999,0.0199364999999999,-0.255629,0.911669,0.0430995,0.264661,0.915079,0.0176194999999999,-0.0603589999999999,0.002028,-0.0017754999999999,0.0603589999999999,-0.002028,0.0017754999999999,-0.124489,-0.434481,-0.0171035,0.110161,-0.445891,-0.0194435,-0.164619,-0.879321,-0.0643855,0.136811,-0.889791,-0.0833485,1
28,-0.0008139999999999,0.6398325,0.0561365,-0.1489639999999999,0.4595525,0.0657585,-0.215914,0.6614325000000001,0.0356705,0.138346,0.4460125,0.0355815,0.214156,0.6581225,0.0196695,-0.255774,0.9115125,0.0427875,0.264706,0.9150125,0.0172365,-0.06035,0.0020805,-0.0016254999999999,0.06035,-0.0020805,0.0016255,-0.124474,-0.4345775,-0.0172774999999999,0.110166,-0.4461675,-0.0196825,-0.164524,-0.8793675,-0.0649575,0.136256,-0.8899075,-0.0851094999999999,1
29,-0.0007359999999999,0.6397550000000001,0.0561054999999999,-0.148928,0.459685,0.0656065,-0.216228,0.661605,0.0353755,0.138472,0.4464349999999999,0.0356374999999999,0.214172,0.657985,0.0193614999999999,-0.255908,0.911305,0.0424004999999999,0.2647319999999999,0.914855,0.0166934999999999,-0.060349,0.002133,-0.0014855,0.060349,-0.002133,0.0014854999999999,-0.124448,-0.434695,-0.0174825,0.110182,-0.446635,-0.0199485,-0.164448,-0.8794749999999999,-0.0654035,0.136712,-0.8902749999999999,-0.0855995,1
30,-0.0006555,0.640005,0.0558474999999999,-0.1488205,0.460055,0.0652925,-0.2164704999999999,0.661815,0.0349304999999999,0.1385895,0.446945,0.0355515,0.2141095,0.6575650000000001,0.0190235,-0.2560105,0.911425,0.0417975,0.2646895,0.914435,0.0158685,-0.0603454999999999,0.002184,-0.0012604999999999,0.0603454999999999,-0.002184,0.0012604999999999,-0.1244005,-0.434455,-0.0178205,0.1102195,-0.446675,-0.0203474999999999,-0.1644005,-0.879235,-0.0658965,0.1362795,-0.890305,-0.0878375,1
31,-0.00057,0.6402705000000001,0.055496,-0.148694,0.4603205,0.06493,-0.216604,0.6617405000000001,0.034385,0.138456,0.4470705,0.03503,0.214056,0.6571905,0.018489,-0.256034,0.9116105,0.041035,0.2646659999999999,0.9140905,0.014861,-0.060369,0.0022675,-0.0011349999999999,0.060369,-0.0022675,0.001135,-0.124334,-0.4341895,-0.018235,0.110286,-0.4466095,-0.0208039999999999,-0.1643939999999999,-0.8789994999999999,-0.066307,0.136566,-0.8902795,-0.087712,1
32,-0.0004834999999999,0.640456,0.0550695,-0.1485825,0.460536,0.0644905,-0.2168624999999999,0.662256,0.0337565,0.1383475,0.447086,0.0343545,0.2141175,0.657376,0.0178635,-0.2560125,0.911656,0.0400325,0.2646374999999999,0.914276,0.0137715,-0.0603995,0.002278,-0.0009274999999999,0.0603995,-0.0022779999999999,0.0009275,-0.1242724999999999,-0.434004,-0.0187255,0.1103375,-0.446634,-0.0213304999999999,-0.1644125,-0.878814,-0.0664005,0.1371875,-0.890334,-0.0862634999999999,1
33,-0.0003915,0.6407395,0.05452,-0.1484435,0.4610895,0.06389,-0.2170135,0.6634895,0.0330549999999999,0.1383964999999999,0.4472494999999999,0.0337629999999999,0.2141865,0.6575394999999999,0.0170409999999999,-0.2559635,0.9116895,0.038887,0.2645965,0.9144395,0.0122279999999999,-0.0604375,0.0023315,-0.000779,0.0604375,-0.0023315,0.0007789999999999,-0.1241935,-0.4338005,-0.019282,0.1103865,-0.4467005,-0.021934,-0.1644135,-0.8786105,-0.066937,0.1376264999999999,-0.8904205000000001,-0.086088,1
34,-0.0003094999999999,0.6409305000000001,0.053847,-0.1483024999999999,0.4616005,0.063189,-0.2170925,0.6643705,0.032141,0.1384775,0.4473205,0.033107,0.2142475,0.6576105,0.016069,-0.2559225,0.9116305,0.037508,0.2645375,0.9145105,0.010508,-0.0604865,0.0024025,-0.0007699999999999,0.0604865,-0.0024025,0.0007699999999999,-0.1241324999999999,-0.4336894999999999,-0.0198949999999999,0.1103975,-0.4468195,-0.0226159999999999,-0.1643625,-0.8784995,-0.067763,0.1371475,-0.8905295,-0.088015,1
35,-0.0002125,0.6412075,0.0531195,-0.1481755,0.4622274999999999,0.0624565,-0.2170355,0.6645175,0.0308915,0.1384745,0.4475774999999999,0.0322355,0.2142244999999999,0.6576575,0.0146465,-0.2558955,0.9115775,0.0357925,0.2644345,0.9146475,0.0086335,-0.0605244999999999,0.0024815,-0.0007454999999999,0.0605244999999999,-0.0024815,0.0007455,-0.1240455,-0.4334225,-0.0204654999999999,0.1104445,-0.4468325,-0.0233144999999999,-0.1643055,-0.8782625,-0.0685504999999999,0.1374845,-0.8907225,-0.0875425,1
36,-0.0001635,0.6414165,0.0521444999999999,-0.1481165,0.4628064999999999,0.0614614999999999,-0.2169865,0.6637865,0.0291824999999999,0.1384335,0.4478965,0.0311484999999999,0.2141435,0.6576164999999999,0.0128444999999999,-0.2559165,0.9113965,0.0333155,0.2642835,0.9146965,0.0062434999999999,-0.0605445,0.0025575,-0.0005225,0.0605445,-0.0025575,0.0005224999999999,-0.1240265,-0.4331635,-0.0212295,0.1104435,-0.4469135,-0.0242485,-0.1644965,-0.8780135,-0.0691875,0.1377135,-0.8908835,-0.0873984999999999,1
37,-0.0001469999999999,0.6416215,0.0509235,-0.148078,0.4633615,0.0601615,-0.216988,0.6630815,0.0270875,0.138392,0.4482015,0.0298355,0.213982,0.6575115,0.0106085,-0.2559579999999999,0.9111715,0.0302545,0.263892,0.9145815,0.0031734999999999,-0.060562,0.0026125,-0.0001864999999999,0.060562,-0.0026125,0.0001864999999999,-0.124038,-0.4328385,-0.0221964999999999,0.1104219999999999,-0.4468685,-0.0254145,-0.164688,-0.8776585,-0.0700795,0.137932,-0.8908685000000001,-0.0879105,1
38,-0.000174,0.6418375000000001,0.049464,-0.148071,0.4639075,0.058656,-0.216891,0.6621575000000001,0.024491,0.138319,0.4485275,0.02834,0.213799,0.6574875,0.007982,-0.2560309999999999,0.9110075,0.02623,0.263409,0.9145575,-0.0002859999999999,-0.060589,0.0026544999999999,-3.299999999999831e-05,0.060589,-0.0026544999999999,3.300000000000178e-05,-0.124101,-0.4324725,-0.0233369999999999,0.110409,-0.4468425,-0.0267509999999999,-0.164691,-0.8772725,-0.0715109999999999,0.137469,-0.8908524999999999,-0.090175,1
39,-0.0002559999999999,0.6421015,0.047888,-0.1480759999999999,0.4642314999999999,0.057075,-0.216836,0.6612615000000001,0.0216729999999999,0.138284,0.4487715,0.0268029999999999,0.213564,0.6575215,0.0050919999999999,-0.256126,0.9109015,0.021639,0.262814,0.9146015,-0.004079,-0.06063,0.0026955,7.199999999999915e-05,0.06063,-0.0026955,-7.200000000000262e-05,-0.124196,-0.4319785,-0.024494,0.110354,-0.4467385,-0.028098,-0.164676,-0.8767585,-0.072971,0.137174,-0.8907284999999999,-0.0923529999999999,1
40,-0.0004034999999999,0.6422979999999999,0.046043,-0.1480915,0.4644779999999999,0.0552919999999999,-0.2167515,0.660578,0.0184979999999999,0.1382285,0.448918,0.0250069999999999,0.2132385,0.657528,0.0018329999999999,-0.2562415,0.910758,0.0163149999999999,0.2617985,0.913478,-0.009767,-0.0606475,0.002754,0.0003869999999999,0.0606475,-0.002754,-0.000387,-0.1243415,-0.431462,-0.025754,0.1103085,-0.446592,-0.0296,-0.1647315,-0.8762220000000001,-0.074438,0.1367085,-0.8903920000000001,-0.0958,1
41,-0.000599,0.6425299999999999,0.04393,-0.148129,0.4647099999999999,0.053381,-0.216829,0.65964,0.0147409999999999,0.138151,0.44915,0.023044,0.212931,0.65744,-0.001768,-0.256289,0.9107,0.0103789999999999,0.260741,0.91237,-0.015913,-0.060673,0.002744,0.0006059999999999,0.060673,-0.002744,-0.000606,-0.124489,-0.43089,-0.027088,0.110291,-0.44636,-0.031212,-0.164829,-0.87565,-0.076149,0.137151,-0.8901600000000001,-0.096927,1
42,-0.0008694999999999,0.6428339999999999,0.041467,-0.1482765,0.465014,0.051203,-0.2170365,0.659944,0.010553,0.1379235,0.449394,0.020538,0.2126635,0.6574139999999999,-0.005746,-0.2563565,0.910594,0.0036159999999999,0.2596635,0.910024,-0.022025,-0.0606915,0.00267,0.0007339999999999,0.0606915,-0.00267,-0.0007339999999999,-0.1246865,-0.430276,-0.02866,0.1102435,-0.445986,-0.033088,-0.1649864999999999,-0.875046,-0.077612,0.1374735,-0.889776,-0.098496,1
43,-0.0012319999999999,0.643161,0.038792,-0.148465,0.4653409999999999,0.048817,-0.217345,0.660841,0.0061119999999999,0.137675,0.4497009999999999,0.017882,0.2124249999999999,0.6574610000000001,-0.010114,-0.256505,0.910431,-0.0037899999999999,0.258585,0.907961,-0.029018,-0.060696,0.002601,0.0010629999999999,0.060696,-0.002601,-0.001063,-0.124925,-0.429699,-0.030458,0.110185,-0.445659,-0.035111,-0.165205,-0.874479,-0.079307,0.137595,-0.8894489999999999,-0.10075,1
44,-0.001696,0.643506,0.0358635,-0.148716,0.465596,0.0462485,-0.217776,0.6619160000000001,0.0010515,0.1373339999999999,0.4498459999999999,0.0149515,0.212244,0.657436,-0.0145165,-0.2568459999999999,0.910466,-0.0114755,0.257654,0.906176,-0.0363895,-0.060737,0.0024549999999999,0.0012805,0.060737,-0.002455,-0.0012805,-0.125226,-0.429174,-0.0325455,0.1100739999999999,-0.445064,-0.0373574999999999,-0.165316,-0.873914,-0.0814754999999999,0.137104,-0.888764,-0.1041555,1
45,-0.0022535,0.643723,0.0327285,-0.1489485,0.465753,0.0437675,-0.2196885,0.666853,-0.0064514999999999,0.1370515,0.449993,0.0121675,0.2121414999999999,0.657423,-0.0190644999999999,-0.2573284999999999,0.910543,-0.0192794999999999,0.2570015,0.904733,-0.0435915,-0.0607595,0.0023049999999999,0.0013785,0.0607595,-0.0023049999999999,-0.0013784999999999,-0.1254985,-0.428737,-0.0346885,0.1099815,-0.444217,-0.0396455,-0.1653985,-0.873537,-0.0832364999999999,0.1371415,-0.887907,-0.1064524999999999,1
46,-0.0028395,0.643955,0.029365,-0.1491775,0.465935,0.04122,-0.2207275,0.666605,-0.013942,0.1367025,0.450125,0.009189,0.2120925,0.657455,-0.023905,-0.2578375,0.910635,-0.027502,0.2565725,0.903275,-0.050612,-0.0607874999999999,0.002107,0.001159,0.0607874999999999,-0.002107,-0.001159,-0.1257775,-0.428235,-0.037048,0.1099525,-0.443245,-0.042023,-0.1653675,-0.873035,-0.085667,0.1367425,-0.886745,-0.110105,1
47,-0.0033849999999999,0.6441605,0.0258154999999999,-0.1493999999999999,0.4661405,0.0385625,-0.22252,0.6693005000000001,-0.0211985,0.13634,0.4502505,0.0060885,0.21183,0.6569705,-0.0289485,-0.25833,0.9106805,-0.0353765,0.2561299999999999,0.9012505,-0.0577074999999999,-0.060792,0.0019025,0.0010474999999999,0.060792,-0.0019024999999999,-0.0010474999999999,-0.12605,-0.4276795,-0.0394814999999999,0.11,-0.4421995,-0.0444785,-0.16536,-0.8724795,-0.0882545,0.1364199999999999,-0.8855894999999999,-0.1138095,1
48,-0.0039875,0.64438,0.0218195,-0.1496205,0.4663899999999999,0.0356065,-0.2242705,0.67141,-0.0286375,0.1358795,0.4502,0.0027225,0.2114995,0.65651,-0.0343455,-0.2588605,0.91076,-0.0435065,0.2556595,0.89886,-0.0651805,-0.0607685,0.0016409999999999,0.0010934999999999,0.0607685,-0.001641,-0.0010934999999999,-0.1263705,-0.4269,-0.0421365,0.1102195,-0.44134,-0.0471805,-0.1655105,-0.8717,-0.0909345,0.1361895,-0.88464,-0.1178175,1
49,-0.0045829999999999,0.644404,0.0175675,-0.149833,0.466704,0.0325435,-0.226053,0.673664,-0.0359834999999999,0.135407,0.450144,-0.0007435,0.2112669999999999,0.656134,-0.0398474999999999,-0.259543,0.910584,-0.0516154999999999,0.255357,0.897954,-0.0713965,-0.060735,0.0013799999999999,0.0011474999999999,0.060735,-0.00138,-0.0011475,-0.126753,-0.426166,-0.0448845,0.110627,-0.4402359999999999,-0.0501384999999999,-0.165733,-0.8710359999999999,-0.0936675,0.1359469999999999,-0.883496,-0.1217545,1
50,-0.005135,0.6441129999999999,0.0131554999999999,-0.150023,0.466993,0.0294045,-0.228043,0.6769229999999999,-0.0441925,0.1349769999999999,0.4500429999999999,-0.0042334999999999,0.211217,0.655803,-0.0454915,-0.260423,0.910143,-0.0597415,0.2552169999999999,0.896753,-0.0778945,-0.060694,0.001103,0.0012345,0.060694,-0.0011029999999999,-0.0012345,-0.127193,-0.425447,-0.0478645,0.111147,-0.438867,-0.0533235,-0.165863,-0.870387,-0.0968275,0.135847,-0.882007,-0.1256875,1
51,-0.0056135,0.6434425,0.0089035,-0.1502285,0.4670924999999999,0.0263575,-0.2299185,0.6801225000000001,-0.0520325,0.1347215,0.4498224999999999,-0.0076085,0.2113715,0.6550725000000001,-0.0510835,-0.2615285,0.9091725,-0.0676124999999999,0.2552014999999999,0.8963425,-0.0844974999999999,-0.0606755,0.0009055,0.0015015,0.0606755,-0.0009055,-0.0015014999999999,-0.1277285,-0.4246875,-0.0510705,0.1118214999999999,-0.4369375,-0.0567605,-0.1660685,-0.8696875,-0.1001195,0.1357114999999999,-0.8800175,-0.1296815,1
52,-0.0060229999999999,0.6426855,0.0042939999999999,-0.150464,0.4672655,0.023163,-0.231744,0.6832055,-0.060129,0.134476,0.4497055,-0.011126,0.211686,0.6542255,-0.057041,-0.262744,0.9080955,-0.075527,0.254746,0.8980755,-0.090954,-0.060651,0.0006664999999999,0.001816,0.060651,-0.0006665,-0.001816,-0.128394,-0.4237545,-0.054766,0.112656,-0.4345745,-0.060605,-0.166314,-0.8687845,-0.103628,0.135566,-0.8776845,-0.1336439999999999,1
53,-0.006489,0.64175,-0.000573,-0.150768,0.4673699999999999,0.019794,-0.233488,0.68622,-0.06794,0.134132,0.4495099999999999,-0.014781,0.211792,0.6533100000000001,-0.063205,-0.2642179999999999,0.90669,-0.083718,0.254962,0.89798,-0.097887,-0.06062,0.0004939999999999,0.0022439999999999,0.06062,-0.000494,-0.002244,-0.129288,-0.42266,-0.058947,0.113522,-0.43222,-0.064775,-0.166728,-0.86779,-0.1066609999999999,0.135292,-0.87552,-0.137742,1
54,-0.007058,0.6411545,-0.0057559999999999,-0.1508169999999999,0.4670145,0.014914,-0.234517,0.6887845,-0.073725,0.133683,0.4496945,-0.018931,0.211933,0.6526245,-0.0698169999999999,-0.265877,0.9054945,-0.092208,0.255083,0.8980945,-0.105659,-0.060581,0.0003695,0.002451,0.060581,-0.0003695,-0.002451,-0.130377,-0.4208555,-0.06373,0.114423,-0.4296555,-0.069559,-0.1672469999999999,-0.8660555,-0.1103609999999999,0.134993,-0.8729555,-0.141916,1
55,-0.007616,0.640391,-0.011106,-0.15067,0.466591,0.00954,-0.23522,0.691621,-0.080047,0.13333,0.449541,-0.023385,0.21187,0.651491,-0.07652,-0.2676099999999999,0.904361,-0.100697,0.25516,0.8989510000000001,-0.114735,-0.06056,0.0002229999999999,0.002803,0.06056,-0.000223,-0.002803,-0.13164,-0.4188389999999999,-0.068811,0.11541,-0.426819,-0.074512,-0.16781,-0.864149,-0.114281,0.13472,-0.870119,-0.14605,1
56,-0.008246,0.6394540000000001,-0.01666,-0.150545,0.465744,0.003831,-0.235945,0.694534,-0.086946,0.132945,0.449324,-0.0280769999999999,0.211415,0.648984,-0.083742,-0.269395,0.903114,-0.109916,0.254935,0.8980140000000001,-0.124775,-0.060504,1.900000000000165e-05,0.003345,0.060504,-1.8999999999998185e-05,-0.003345,-0.133295,-0.416916,-0.074552,0.116415,-0.423756,-0.079757,-0.168435,-0.862406,-0.1186499999999999,0.134235,-0.867146,-0.150385,1
57,-0.0089754999999999,0.6384894999999999,-0.023127,-0.1505575,0.4646895,-0.002891,-0.2364175,0.6927595,-0.095605,0.1324125,0.4498495,-0.033414,0.2107025,0.6476495,-0.092206,-0.2710675,0.9022095,-0.121237,0.2544225,0.8955595,-0.135419,-0.0603895,-0.0001485,0.0037559999999999,0.0603895,0.0001484999999999,-0.003756,-0.1353375,-0.4140105,-0.081234,0.1175625,-0.4196804999999999,-0.086104,-0.1692275,-0.8596605,-0.123559,0.1337925,-0.8631505,-0.155619,1
58,-0.0097815,0.6372615,-0.0296739999999999,-0.1505165,0.4638315,-0.0095259999999999,-0.2364764999999999,0.6929115,-0.1044139999999999,0.1320235,0.4508215,-0.038577,0.2098735,0.6442815,-0.101315,-0.2727665,0.9010715,-0.133097,0.2533235,0.8919914999999999,-0.146137,-0.0602665,-0.0003144999999999,0.004026,0.0602665,0.0003145,-0.0040259999999999,-0.1373865,-0.4107185,-0.0879379999999999,0.1186335,-0.4156685,-0.092733,-0.1700565,-0.8565385,-0.128347,0.1335135,-0.8593985000000001,-0.1609169999999999,1
59,-0.0105019999999999,0.636635,-0.0365585,-0.150185,0.462325,-0.0167745,-0.236315,0.689115,-0.1124055,0.1316649999999999,0.450535,-0.0451455,0.208985,0.640975,-0.1105475,-0.274045,0.900805,-0.1456145,0.252305,0.888455,-0.1572744999999999,-0.060057,-0.0004699999999999,0.0043834999999999,0.060057,0.00047,-0.0043835,-0.1394449999999999,-0.406565,-0.0951015,0.119855,-0.411335,-0.1000815,-0.170925,-0.852525,-0.1343445,0.1334449999999999,-0.855345,-0.1666845,1
60,-0.0112354999999999,0.6362015000000001,-0.043849,-0.1498855,0.4607414999999999,-0.0243429999999999,-0.2353855,0.6805915,-0.120715,0.1312045,0.4500915,-0.051899,0.2081045,0.6380915,-0.12003,-0.2754855,0.8973614999999999,-0.158159,0.2508145,0.8849015,-0.169079,-0.0598755,-0.0005675,0.004684,0.0598755,0.0005674999999999,-0.0046839999999999,-0.1416955,-0.4022885,-0.102532,0.1209345,-0.4068785,-0.107367,-0.1719455,-0.8482985000000001,-0.1417689999999999,0.1333245,-0.8511785000000001,-0.172189,1
61,-0.0120414999999999,0.6345705,-0.051026,-0.1495314999999999,0.4593405,-0.031624,-0.2353315,0.6749105000000001,-0.128363,0.1307585,0.4497704999999999,-0.058394,0.2072685,0.6345505,-0.129354,-0.2769315,0.8937905,-0.171031,0.2492285,0.8761905,-0.181951,-0.0597445,-0.0006264999999999,0.0048829999999999,0.0597445,0.0006265,-0.0048829999999999,-0.1438815,-0.3984795,-0.109786,0.1220285,-0.4030895,-0.114707,-0.1728914999999999,-0.8445995,-0.148891,0.1332485,-0.8476195,-0.1783509999999999,1
62,-0.0128714999999999,0.633428,-0.058198,-0.1491985,0.4567779999999999,-0.039449,-0.2344585,0.664898,-0.136214,0.1302915,0.4486279999999999,-0.065335,0.2066115,0.630058,-0.138774,-0.2783785,0.889328,-0.184085,0.2476915,0.8688180000000001,-0.194345,-0.0596475,-0.000622,0.0051,0.0596475,0.0006219999999999,-0.0051,-0.1459785,-0.394032,-0.117283,0.1231714999999999,-0.398832,-0.122365,-0.1737685,-0.840212,-0.156215,0.1332815,-0.843572,-0.184645,1
63,-0.013595,0.6322015,-0.0650755,-0.1492119999999999,0.4545215,-0.0461005,-0.233872,0.6553915,-0.1439425,0.129778,0.4465915,-0.0721815,0.205688,0.6262215,-0.1481045,-0.279712,0.8853015,-0.1971945,0.246068,0.8614915,-0.2064845,-0.059589,-0.0006965,0.0054535,0.059589,0.0006964999999999,-0.0054535,-0.1478819999999999,-0.3889984999999999,-0.1245025,0.124368,-0.3934685,-0.1298975,-0.174422,-0.8353285,-0.1632345,0.133428,-0.8385684999999999,-0.1903045,1
64,-0.0143929999999999,0.6300914999999999,-0.0720109999999999,-0.149384,0.4518115,-0.052551,-0.2330839999999999,0.6457714999999999,-0.1514619999999999,0.129316,0.4449115,-0.078739,0.204636,0.6224814999999999,-0.157422,-0.2810539999999999,0.8809315,-0.210242,0.244466,0.8566115,-0.217842,-0.0595659999999999,-0.0006555,0.0057839999999999,0.0595659999999999,0.0006555,-0.0057839999999999,-0.149594,-0.3840985,-0.131548,0.125526,-0.3887385,-0.137328,-0.175124,-0.8304685,-0.170282,0.133596,-0.8340585,-0.196262,1
65,-0.015238,0.6274395,-0.078608,-0.14971,0.4496195,-0.058725,-0.23253,0.6367795,-0.158879,0.12888,0.4430595,-0.085009,0.2033499999999999,0.6202095,-0.1665289999999999,-0.28236,0.8766995,-0.222969,0.24305,0.8518995,-0.228389,-0.05955,-0.0005875,0.0060069999999999,0.05955,0.0005875,-0.0060069999999999,-0.15101,-0.3791905,-0.138048,0.1266399999999999,-0.3848304999999999,-0.144557,-0.17578,-0.8255605,-0.177119,0.1339399999999999,-0.8302904999999999,-0.199659,1
66,-0.016049,0.6256405,-0.0843305,-0.149839,0.4474405,-0.0638445,-0.231639,0.6283505,-0.1652265,0.128431,0.4405304999999999,-0.0905185,0.202231,0.6161205000000001,-0.1746565,-0.2835189999999999,0.8724505,-0.2339065,0.241481,0.8485405,-0.2388265,-0.059435,-0.0004795,0.0061075,0.059435,0.0004794999999999,-0.0061075,-0.152039,-0.3727195,-0.1435155,0.127591,-0.3783594999999999,-0.1501985,-0.176239,-0.8190895,-0.1831665,0.134481,-0.8238194999999999,-0.2022264999999999,1
67,-0.0168665,0.6232614999999999,-0.0898549999999999,-0.1499715,0.4440415,-0.069494,-0.2318415,0.6164215,-0.1712759999999999,0.1276585,0.4369315,-0.0965369999999999,0.2012785,0.6137714999999999,-0.181886,-0.2845615,0.8652115,-0.2438159999999999,0.2409085,0.8472915000000001,-0.249296,-0.0592925,-0.0003554999999999,0.006178,0.0592925,0.0003555,-0.0061779999999999,-0.1540014999999999,-0.3665985,-0.1513769999999999,0.1289185,-0.3722384999999999,-0.157366,-0.1765115,-0.8129685,-0.1894159999999999,0.1351785,-0.8176984999999999,-0.204726,1
68,-0.0176465,0.6209180000000001,-0.0980505,-0.1501115,0.4414979999999999,-0.0781245,-0.2320915,0.609458,-0.1803665,0.1268185,0.4344179999999999,-0.1046615,0.2003585,0.6120680000000001,-0.1922265,-0.2856614999999999,0.857458,-0.2578465,0.2394484999999999,0.8446480000000001,-0.2629565,-0.0591745,-0.0002209999999999,0.0059464999999999,0.0591745,0.0002209999999999,-0.0059465,-0.1557615,-0.360042,-0.1617275,0.1301485,-0.3656819999999999,-0.1668765,-0.1767515,-0.806412,-0.1982565,0.1363685,-0.8111419999999999,-0.2091665,1
69,-0.0181275,0.61778,-0.1084085,-0.1500584999999999,0.4398,-0.0899095,-0.2320085,0.6105700000000001,-0.1917075,0.1259815,0.43567,-0.1153175,0.1996115,0.61487,-0.2050775,-0.2864385,0.8523000000000001,-0.2739675,0.2382015,0.84074,-0.2789875,-0.0589565,-0.00021,0.0059415,0.0589565,0.00021,-0.0059415,-0.1579885,-0.34726,-0.1761575,0.1320315,-0.35153,-0.1792375,-0.1764185,-0.79376,-0.2075575,0.1379415,-0.79728,-0.2154075,1
70,-0.018486,0.6157349999999999,-0.118355,-0.149828,0.437815,-0.1016,-0.232068,0.610665,-0.205284,0.1251719999999999,0.436725,-0.125819,0.1989119999999999,0.617165,-0.217734,-0.287228,0.847445,-0.288964,0.238082,0.844135,-0.293104,-0.058748,-0.0002049999999999,0.005902,0.058748,0.0002049999999999,-0.005902,-0.160068,-0.335775,-0.190114,0.133792,-0.337625,-0.191274,-0.176108,-0.7823950000000001,-0.217034,0.139512,-0.783495,-0.221174,1
71,-0.018868,0.612385,-0.1279575,-0.149718,0.436915,-0.1127755,-0.2325979999999999,0.611845,-0.2183145,0.123742,0.436605,-0.1362015,0.198162,0.620035,-0.2300444999999999,-0.287918,0.843955,-0.3034445,0.237852,0.846245,-0.3073745,-0.058612,-0.000255,0.0058814999999999,0.058612,0.000255,-0.0058814999999999,-0.162078,-0.324885,-0.2032645,0.135422,-0.324285,-0.2029145,-0.175948,-0.771655,-0.2260945,0.141112,-0.770205,-0.2264045,1
72,-0.0193025,0.60824,-0.137587,-0.1496495,0.4356799999999999,-0.12388,-0.2340995,0.61209,-0.230943,0.1223305,0.43667,-0.146465,0.1977305,0.62175,-0.242423,-0.2889195,0.8400799999999999,-0.317523,0.2376805,0.84811,-0.321413,-0.0584885,-0.00026,0.0058659999999999,0.0584885,0.00026,-0.005866,-0.1641295,-0.31379,-0.216033,0.1369305,-0.3114,-0.214023,-0.1756295,-0.76029,-0.233083,0.1428405,-0.75746,-0.231293,1
73,-0.019691,0.60468,-0.1470354999999999,-0.14965,0.43416,-0.1350855,-0.2358199999999999,0.61264,-0.2437264999999999,0.12072,0.43631,-0.1568044999999999,0.19757,0.62298,-0.2547764999999999,-0.29007,0.83711,-0.3318565,0.2377099999999999,0.85048,-0.3359965,-0.05835,-0.0003599999999999,0.0059335,0.05835,0.0003599999999999,-0.0059334999999999,-0.16638,-0.3020199999999999,-0.2284665,0.1383599999999999,-0.2979499999999999,-0.2250764999999999,-0.1754399999999999,-0.7482099999999999,-0.2399365,0.1446299999999999,-0.7442099999999999,-0.2354665,1
74,-0.0200055,0.6018950000000001,-0.156966,-0.1498415,0.432585,-0.14657,-0.2377115,0.613675,-0.256731,0.1189585,0.435225,-0.167784,0.1973285,0.624915,-0.266971,-0.2912815,0.835365,-0.346151,0.2378185,0.853865,-0.350071,-0.0581035,-0.0002949999999999,0.0060489999999999,0.0581035,0.0002949999999999,-0.0060489999999999,-0.1685615,-0.288695,-0.240681,0.1398285,-0.283615,-0.236231,-0.1752015,-0.734525,-0.246891,0.1464484999999999,-0.730015,-0.240261,1
75,-0.0204279999999999,0.598125,-0.166937,-0.14997,0.4311549999999999,-0.158009,-0.23999,0.614675,-0.26966,0.11728,0.434685,-0.178473,0.19678,0.627805,-0.27889,-0.2925,0.8338049999999999,-0.35998,0.2374,0.857415,-0.36264,-0.057871,-0.000345,0.0062299999999999,0.057871,0.0003449999999999,-0.0062299999999999,-0.17074,-0.275555,-0.25262,0.14119,-0.269485,-0.24752,-0.1750499999999999,-0.720985,-0.2498,0.14798,-0.716075,-0.24629,1
76,-0.0211759999999999,0.59517,-0.177239,-0.150141,0.43063,-0.169022,-0.242541,0.61919,-0.28335,0.115859,0.43557,-0.188607,0.196379,0.6311800000000001,-0.2913,-0.293531,0.83644,-0.37393,0.237379,0.86173,-0.37477,-0.057592,-0.00042,0.00645,0.057592,0.00042,-0.0064499999999999,-0.171871,-0.26165,-0.26189,0.142179,-0.255,-0.25684,-0.174911,-0.70666,-0.25261,0.149329,-0.70173,-0.25272,1
77,-0.0219985,0.589755,-0.184342,-0.1503135,0.429625,-0.1771559999999999,-0.2451635,0.623605,-0.29439,0.1140965,0.433495,-0.1970799999999999,0.1960164999999999,0.634215,-0.30027,-0.2944535,0.840185,-0.38306,0.2375165,0.865235,-0.38289,-0.0573204999999999,-0.0002649999999999,0.0069099999999999,0.0573204999999999,0.000265,-0.0069099999999999,-0.1732335,-0.248805,-0.26831,0.1433765,-0.242855,-0.26354,-0.1747435,-0.6932449999999999,-0.25217,0.1497464999999999,-0.6895849999999999,-0.2556,1
78,-0.0231625,0.585685,-0.189444,-0.1505935,0.425805,-0.182398,-0.2478735,0.621675,-0.30293,0.1123565,0.428955,-0.202881,0.1950565,0.6257250000000001,-0.30619,-0.2953035,0.844225,-0.38948,0.2378165,0.862185,-0.388,-0.0571775,-0.0003049999999999,0.0072099999999999,0.0571775,0.0003049999999999,-0.00721,-0.1739135,-0.240825,-0.27024,0.1440564999999999,-0.235705,-0.26758,-0.1748434999999999,-0.685265,-0.24934,0.1499865,-0.6824250000000001,-0.25592,1
79,-0.02446,0.5818300000000001,-0.1951409999999999,-0.150908,0.42267,-0.187716,-0.249778,0.61801,-0.30948,0.110802,0.4247,-0.2089089999999999,0.194472,0.61911,-0.31182,-0.296298,0.84555,-0.39614,0.2379919999999999,0.85982,-0.39364,-0.057034,-0.0003199999999999,0.00753,0.057034,0.00032,-0.0075299999999999,-0.174698,-0.23174,-0.27237,0.144792,-0.22662,-0.2714799999999999,-0.174648,-0.67618,-0.2459799999999999,0.150222,-0.67334,-0.25734,1
80,-0.025631,0.57875,-0.201456,-0.151451,0.41895,-0.193164,-0.251741,0.61536,-0.315795,0.110359,0.41986,-0.215243,0.1941389999999999,0.61328,-0.318065,-0.297211,0.84774,-0.402325,0.2380489999999999,0.85729,-0.3992549999999999,-0.0568049999999999,-0.0001899999999999,0.007885,0.0568049999999999,0.0001899999999999,-0.0078849999999999,-0.175811,-0.22165,-0.274915,0.145499,-0.21653,-0.275125,-0.174481,-0.66609,-0.241665,0.1499889999999999,-0.66325,-0.260525,1
81,-0.0266095,0.57679,-0.208476,-0.1519695,0.41641,-0.198155,-0.2535995,0.61307,-0.322305,0.1101505,0.41583,-0.221144,0.1941105,0.6076699999999999,-0.323645,-0.2977895,0.84974,-0.408345,0.2387504999999999,0.85446,-0.404585,-0.0564734999999999,-0.00014,0.0082249999999999,0.0564734999999999,0.00014,-0.008225,-0.1770295,-0.21386,-0.277855,0.1462804999999999,-0.2123899999999999,-0.278835,-0.1742795,-0.65752,-0.237455,0.1503104999999999,-0.65899,-0.261745,1
82,-0.027529,0.57624,-0.215568,-0.152513,0.41233,-0.203489,-0.255403,0.6119399999999999,-0.32878,0.109987,0.41242,-0.227119,0.194187,0.60182,-0.32939,-0.298513,0.8524700000000001,-0.41379,0.2394869999999999,0.85019,-0.40874,-0.056139,-3.0000000000002247e-05,0.0084599999999999,0.056139,3.0000000000002247e-05,-0.00846,-0.178283,-0.20475,-0.28145,0.147067,-0.20692,-0.28281,-0.174203,-0.64781,-0.23336,0.1506769999999999,-0.6535200000000001,-0.26273,1
83,-0.0282555,0.5742050000000001,-0.223232,-0.1528064999999999,0.407865,-0.20873,-0.2580865,0.608315,-0.33559,0.1098035,0.409135,-0.23284,0.1943635,0.595035,-0.33582,-0.2991665,0.850705,-0.41854,0.2398135,0.844175,-0.4155,-0.0559594999999999,-0.0001249999999999,0.0086699999999999,0.0559594999999999,0.000125,-0.00867,-0.1797165,-0.1949049999999999,-0.28554,0.1479035,-0.2003949999999999,-0.28746,-0.1741665,-0.636755,-0.229126,0.1509635,-0.646955,-0.26294,1
84,-0.0286804999999999,0.570925,-0.230698,-0.1529195,0.404675,-0.21366,-0.2604595,0.603935,-0.341515,0.1096705,0.405765,-0.238565,0.1946205,0.588395,-0.342695,-0.2998695,0.848035,-0.423525,0.2400705,0.837995,-0.423985,-0.0558484999999999,4.500000000001725e-05,0.0087849999999999,0.0558484999999999,-4.500000000001725e-05,-0.008785,-0.1810795,-0.1853449999999999,-0.290095,0.1487004999999999,-0.1937749999999999,-0.292305,-0.1739895,-0.624975,-0.230217,0.1512905,-0.639855,-0.262645,1
85,-0.0291045,0.56793,-0.23823,-0.1533705,0.40209,-0.218557,-0.2632005,0.59921,-0.34681,0.1095095,0.4027,-0.24441,0.1950595,0.58262,-0.35059,-0.3008005,0.84348,-0.42872,0.2401495,0.83153,-0.43456,-0.0557005,4.999999999999449e-05,0.0087399999999999,0.0557005,-4.999999999999449e-05,-0.00874,-0.1826005,-0.1748799999999999,-0.29491,0.1492795,-0.18638,-0.29716,-0.1740805,-0.61186,-0.231284,0.1508995,-0.63161,-0.26369,1
86,-0.0294644999999999,0.567395,-0.2460149999999999,-0.1535875,0.39659,-0.223735,-0.2656975,0.593675,-0.351305,0.1097425,0.399288,-0.2494549999999999,0.1958625,0.578125,-0.359785,-0.3018275,0.839885,-0.433705,0.2402725,0.8264450000000001,-0.446445,-0.0555885,-2.4999999999997247e-05,0.008335,0.0555885,2.4999999999997247e-05,-0.0083349999999999,-0.1838275,-0.163545,-0.299795,0.1494725,-0.179085,-0.301455,-0.1740675,-0.597475,-0.2323319999999999,0.1505625,-0.621335,-0.264715,1
87,-0.029759,0.5654,-0.253615,-0.153683,0.393546,-0.228487,-0.267203,0.58819,-0.355835,0.110047,0.394689,-0.254415,0.196527,0.57656,-0.369645,-0.302533,0.8349,-0.438765,0.240157,0.82442,-0.458135,-0.055515,0.00013,0.007865,0.055515,-0.00013,-0.007865,-0.1848929999999999,-0.15286,-0.304865,0.149897,-0.17193,-0.305345,-0.173983,-0.58379,-0.234186,0.150447,-0.61074,-0.264335,1
88,-0.0297095,0.5623,-0.26092,-0.1538235,0.388939,-0.23352,-0.2687335,0.58678,-0.36034,0.1103165,0.388603,-0.25951,0.1969365,0.57612,-0.37959,-0.3029135,0.8271200000000001,-0.44348,0.2402265,0.8236600000000001,-0.47011,-0.0553885,0.0002199999999999,0.00742,0.0553885,-0.0002199999999999,-0.0074199999999999,-0.1858535,-0.14142,-0.30989,0.1502865,-0.1634299999999999,-0.3096799999999999,-0.1739035,-0.56948,-0.236223,0.1502665,-0.59877,-0.26339,1
89,-0.0296045,0.55848,-0.26779,-0.1540484999999999,0.385827,-0.237993,-0.2699885,0.58354,-0.3649799999999999,0.1109915,0.385932,-0.26368,0.1976514999999999,0.5754900000000001,-0.3884,-0.3031685,0.8190999999999999,-0.44811,0.2395215,0.8229,-0.48143,-0.0553315,0.00018,0.0069599999999999,0.0553315,-0.00018,-0.0069599999999999,-0.1867484999999999,-0.1308599999999999,-0.31504,0.1504615,-0.15481,-0.31417,-0.1739685,-0.55552,-0.23825,0.1501515,-0.58514,-0.26183,1
90,-0.0289295,0.55431,-0.2737549999999999,-0.1538765,0.379724,-0.242945,-0.2707265,0.5747,-0.369235,0.1119435,0.381679,-0.268215,0.1993734999999999,0.57046,-0.397625,-0.3030465,0.8102199999999999,-0.4524849999999999,0.2400334999999999,0.81775,-0.493825,-0.0552275,0.0001599999999999,0.0064649999999999,0.0552275,-0.0001599999999999,-0.0064649999999999,-0.1874065,-0.11862,-0.320045,0.1508535,-0.14452,-0.318685,-0.1738465,-0.53963,-0.240265,0.1504134999999999,-0.5692299999999999,-0.259245,1
91,-0.0279585,0.54863,-0.279585,-0.1535294999999999,0.37664,-0.2470649999999999,-0.2713994999999999,0.56557,-0.373025,0.1128805,0.377421,-0.272315,0.2009205,0.56752,-0.405975,-0.3030595,0.8009,-0.4570649999999999,0.2407405,0.81328,-0.506975,-0.0551945,0.00017,0.005945,0.0551945,-0.00017,-0.005945,-0.1879795,-0.10631,-0.3245949999999999,0.1512204999999999,-0.13486,-0.322845,-0.1736895,-0.52433,-0.242585,0.1507204999999999,-0.55365,-0.257375,1
92,-0.0270185,0.543925,-0.284475,-0.1527625,0.374108,-0.250895,-0.2714825,0.557995,-0.3759949999999999,0.1132575,0.373985,-0.275835,0.2023775,0.5658650000000001,-0.413505,-0.3031225,0.794185,-0.462925,0.2418275,0.805755,-0.517985,-0.0552234999999999,0.000165,0.0053549999999999,0.0552234999999999,-0.0001649999999999,-0.0053549999999999,-0.1885625,-0.094855,-0.328765,0.1516475,-0.1266049999999999,-0.3259849999999999,-0.1734325,-0.510235,-0.245175,0.1511675,-0.5385949999999999,-0.255415,1
93,-0.0257515,0.5397500000000001,-0.289145,-0.1517545,0.371132,-0.2548249999999999,-0.2711845,0.55049,-0.379275,0.1137255,0.371135,-0.279315,0.2038655,0.56308,-0.419415,-0.3029245,0.7848200000000001,-0.469535,0.2432554999999999,0.79922,-0.527485,-0.0552265,-3.999999999998449e-05,0.004795,0.0552265,4.000000000004e-05,-0.0047949999999999,-0.1889745,-0.0827399999999999,-0.3325249999999999,0.1522155,-0.1178,-0.328895,-0.1729545,-0.4965699999999999,-0.248025,0.1517755,-0.5231199999999999,-0.254755,1
94,-0.0243825,0.536144,-0.29331,-0.1505115,0.365621,-0.25836,-0.2708215,0.54464,-0.38268,0.1143884999999999,0.364294,-0.28258,0.2050485,0.56011,-0.42364,-0.3025615,0.77827,-0.47628,0.2449385,0.79111,-0.53478,-0.0553095,0.0002499999999999,0.0045499999999999,0.0553095,-0.00025,-0.0045499999999999,-0.1894414999999999,-0.07016,-0.3361,0.1530085,-0.10867,-0.33193,-0.1723915,-0.48238,-0.25069,0.1523185,-0.50704,-0.25465,1
95,-0.0231355,0.532135,-0.297065,-0.1493745,0.364145,-0.260655,-0.2701245,0.538774,-0.386575,0.1151755,0.362165,-0.284535,0.2059355,0.554315,-0.427895,-0.3014845,0.7712,-0.483605,0.2467255,0.78303,-0.540505,-0.0555505,0.0002099999999999,0.0045649999999999,0.0555505,-0.0002099999999999,-0.004565,-0.1898045,-0.05884,-0.339265,0.1538355,-0.09908,-0.334705,-0.1718644999999999,-0.47027,-0.253705,0.1528554999999999,-0.49227,-0.254735,1
96,-0.0220305,0.52898,-0.299935,-0.1482454999999999,0.3619699999999999,-0.262295,-0.2693955,0.535643,-0.3910949999999999,0.1156545,0.36027,-0.285765,0.2068745,0.549488,-0.4301549999999999,-0.3013555,0.7662599999999999,-0.492235,0.2481645,0.77386,-0.545985,-0.0558685,0.0001799999999999,0.004665,0.0558685,-0.00018,-0.004665,-0.1902355,-0.04686,-0.341885,0.1543445,-0.08899,-0.337665,-0.1716455,-0.45806,-0.256945,0.1531345,-0.47702,-0.255065,1
97,-0.0210139999999999,0.526596,-0.30257,-0.147195,0.3608049999999999,-0.26353,-0.268075,0.5316449999999999,-0.3958,0.116165,0.3597249999999999,-0.2868199999999999,0.207895,0.5417599999999999,-0.4322,-0.300385,0.767195,-0.50099,0.249885,0.760755,-0.55101,-0.056239,0.0002849999999999,0.00467,0.056239,-0.000285,-0.00467,-0.190475,-0.035495,-0.34358,0.155075,-0.0794950000000001,-0.34004,-0.171325,-0.445955,-0.26011,0.153575,-0.4620850000000001,-0.25567,1
98,-0.0199355,0.524158,-0.304765,-0.1459595,0.35971,-0.264605,-0.2664595,0.526245,-0.400415,0.1167705,0.35929,-0.287845,0.2091005,0.534424,-0.434225,-0.2996295,0.76549,-0.510065,0.2515805,0.74798,-0.556325,-0.0564685,0.0002299999999999,0.004635,0.0564685,-0.0002299999999999,-0.004635,-0.1904495,-0.02371,-0.344615,0.1558205,-0.0687499999999999,-0.342015,-0.1707995,-0.43371,-0.263305,0.1541505,-0.44706,-0.256225,1
99,-0.0195855,0.522428,-0.30644,-0.1455775,0.360065,-0.2656,-0.2660875,0.528486,-0.40496,0.1168625,0.359645,-0.2888199999999999,0.2101525,0.530753,-0.43855,-0.2996075,0.766325,-0.51912,0.2525325,0.741425,-0.5604,-0.0566305,0.0001649999999999,0.00461,0.0566305,-0.0001649999999999,-0.00461,-0.1907974999999999,-0.011695,-0.34556,0.1559425,-0.0577449999999999,-0.34387,-0.1707475,-0.422465,-0.26645,0.1541225,-0.432095,-0.25681,1
100,-0.0191475,0.5209309999999999,-0.30762,-0.1451545,0.36027,-0.26642,-0.2656845,0.5305249999999999,-0.40942,0.1171055,0.3603099999999999,-0.28946,0.2117554999999999,0.527076,-0.44317,-0.2997545,0.76589,-0.5283899999999999,0.2536155,0.7353,-0.56443,-0.0568155,-2.000000000002e-05,0.00469,0.0568155,1.999999999990898e-05,-0.00469,-0.1910045,-0.00153,-0.34635,0.1561654999999999,-0.047,-0.3455,-0.1704345,-0.4109,-0.26904,0.1541954999999999,-0.4174,-0.25729,1
101,-0.0186285,0.5201960000000001,-0.308355,-0.1448614999999999,0.36106,-0.267035,-0.2653615,0.533645,-0.413525,0.1173985,0.36201,-0.289875,0.2132184999999999,0.523595,-0.446775,-0.2999815,0.7647100000000001,-0.536165,0.2546685,0.7339800000000001,-0.567975,-0.0571305,-0.0002799999999999,0.0048049999999999,0.0571305,0.00028,-0.004805,-0.1909615,0.00897,-0.347055,0.1563784999999999,-0.0353599999999999,-0.347045,-0.1699815,-0.3992199999999999,-0.271335,0.1544785,-0.4027799999999999,-0.257815,1
102,-0.0185555,0.5211040000000001,-0.30903,-0.1446985,0.3600000000000001,-0.26654,-0.2647085,0.537321,-0.4179299999999999,0.1172915,0.3617800000000001,-0.28941,0.2147215,0.5230290000000001,-0.45072,-0.3002985,0.7680600000000001,-0.54243,0.2556015,0.7331400000000001,-0.57109,-0.0573695,-0.0004699999999999,0.0049899999999999,0.0573695,0.00047,-0.0049899999999999,-0.1909785,0.0205400000000001,-0.34707,0.1564515,-0.0225799999999999,-0.34772,-0.1696785,-0.3864199999999999,-0.27351,0.1544115,-0.3866699999999999,-0.25815,1
103,-0.018516,0.520717,-0.3094949999999999,-0.144679,0.361825,-0.265725,-0.263999,0.539288,-0.4212249999999999,0.117171,0.365185,-0.288655,0.216331,0.522417,-0.454555,-0.300609,0.768405,-0.547825,0.256471,0.7332650000000001,-0.573625,-0.057616,-0.0011949999999999,0.004795,0.057616,0.001195,-0.0047949999999999,-0.191019,0.030905,-0.3465249999999999,0.156441,-0.0079449999999999,-0.3490149999999999,-0.169339,-0.3748349999999999,-0.275605,0.154221,-0.3720249999999999,-0.258245,1
104,-0.0186165,0.520624,-0.309915,-0.1446485,0.3619399999999999,-0.264355,-0.2629785,0.540311,-0.422745,0.1168815,0.3672399999999999,-0.287495,0.2177915,0.523137,-0.458065,-0.3009285,0.7670699999999999,-0.551625,0.2573915,0.7331399999999999,-0.575505,-0.0577705,-0.00199,0.0047649999999999,0.0577705,0.0019899999999999,-0.0047649999999999,-0.1912384999999999,0.0416099999999999,-0.346025,0.1562015,0.0067199999999999,-0.350195,-0.1694685,-0.36285,-0.276375,0.1538115,-0.35735,-0.258415,1
105,-0.0189164999999999,0.5197930000000001,-0.308605,-0.1448365,0.363065,-0.262135,-0.2622565,0.542008,-0.422805,0.1163835,0.370335,-0.285645,0.2176235,0.527879,-0.4565749999999999,-0.3010365,0.766795,-0.552495,0.2583035,0.738975,-0.576605,-0.0580385,-0.0024049999999999,0.004775,0.0580385,0.0024049999999999,-0.004775,-0.1916165,0.053095,-0.344825,0.1552535,0.021645,-0.3507249999999999,-0.1697365,-0.350135,-0.276385,0.1533235,-0.341985,-0.254625,1
106,-0.0193715,0.5203699999999999,-0.306875,-0.1454215,0.3643499999999999,-0.259845,-0.2612514999999999,0.543623,-0.422885,0.1157785,0.3744099999999999,-0.283825,0.2180285,0.5343979999999999,-0.456645,-0.3015615,0.76698,-0.5535950000000001,0.2591085,0.7475299999999999,-0.5770850000000001,-0.0582875,-0.00337,0.0047949999999999,0.0582875,0.0033699999999999,-0.0047949999999999,-0.1919715,0.0646699999999999,-0.343645,0.1540485,0.0339399999999999,-0.350645,-0.1700815,-0.33808,-0.276485,0.1532784999999999,-0.32766,-0.25076,1
107,-0.0201505,0.521445,-0.305125,-0.1461725,0.3626750000000001,-0.256775,-0.2597824999999999,0.5457430000000001,-0.423165,0.1149875,0.3782250000000001,-0.2820249999999999,0.2172174999999999,0.540918,-0.4547449999999999,-0.3025425,0.7676550000000001,-0.554205,0.2598175,0.7553150000000001,-0.577315,-0.0584215,-0.0042249999999999,0.004525,0.0584215,0.004225,-0.004525,-0.1924625,0.075715,-0.342495,0.1527075,0.0473650000000001,-0.350725,-0.1711725,-0.3254549999999999,-0.2765849999999999,0.1530075,-0.311785,-0.247064,1
108,-0.021501,0.5251399999999999,-0.302285,-0.147655,0.36539,-0.253365,-0.258685,0.54979,-0.422775,0.113635,0.38515,-0.279785,0.216965,0.55229,-0.456005,-0.303775,0.77055,-0.554365,0.259895,0.76663,-0.577565,-0.058645,-0.00514,0.004165,0.058645,0.00514,-0.004165,-0.193545,0.09023,-0.341485,0.150985,0.0650699999999999,-0.350465,-0.172855,-0.3080199999999999,-0.276535,0.152465,-0.29083,-0.242983,1
109,-0.022812,0.52871,-0.2994449999999999,-0.149007,0.3672499999999999,-0.249997,-0.257547,0.55258,-0.421955,0.112243,0.39124,-0.277485,0.216653,0.5619999999999999,-0.456885,-0.304787,0.7732049999999999,-0.554555,0.2597629999999999,0.7764599999999999,-0.577815,-0.0588,-0.0060299999999999,0.0036849999999999,0.0588,0.0060299999999999,-0.0036849999999999,-0.194627,0.1053199999999999,-0.341325,0.149603,0.0817899999999999,-0.350375,-0.1744969999999999,-0.29183,-0.276595,0.152023,-0.27107,-0.238845,1
110,-0.0240095,0.5316449999999999,-0.296535,-0.1502785,0.3681649999999999,-0.247029,-0.2562385,0.5543849999999999,-0.421195,0.1109115,0.3964849999999999,-0.275445,0.2153815,0.570425,-0.455075,-0.3057285,0.777175,-0.554965,0.2595715,0.7847139999999999,-0.5780050000000001,-0.0590075,-0.006635,0.0032649999999999,0.0590075,0.0066349999999999,-0.003265,-0.1956785,0.1189249999999999,-0.341435,0.1486815,0.0974149999999999,-0.350505,-0.1760585,-0.277125,-0.276955,0.1517515,-0.252485,-0.23539,1
111,-0.0251025,0.53359,-0.29347,-0.1513005,0.36781,-0.2443509999999999,-0.2551705,0.5545800000000001,-0.41938,0.1095095,0.40227,-0.27371,0.2150794999999999,0.5764800000000001,-0.45551,-0.3065705,0.778194,-0.55442,0.2593395,0.791015,-0.5777300000000001,-0.0591975,-0.0072899999999999,0.0027399999999999,0.0591975,0.00729,-0.0027399999999999,-0.1967105,0.13065,-0.34182,0.1477994999999999,0.1115599999999999,-0.35063,-0.1777004999999999,-0.26432,-0.27676,0.1516394999999999,-0.2358,-0.232659,1
112,-0.0262419999999999,0.5363,-0.2903799999999999,-0.1523499999999999,0.36667,-0.24159,-0.25447,0.5551200000000001,-0.41663,0.10796,0.4072,-0.27177,0.21442,0.58179,-0.45582,-0.30718,0.780626,-0.55267,0.2591,0.797243,-0.5762400000000001,-0.059253,-0.0078699999999999,0.0020899999999999,0.059253,0.00787,-0.00209,-0.19766,0.14173,-0.34182,0.14685,0.12535,-0.3506599999999999,-0.1781599999999999,-0.25215,-0.27678,0.15156,-0.2200899999999999,-0.229835,1
113,-0.0273314999999999,0.5387149999999999,-0.2867699999999999,-0.1532965,0.3663949999999999,-0.2387679999999999,-0.2541465,0.556755,-0.4133099999999999,0.1064934999999999,0.4123549999999999,-0.26963,0.2136435,0.587065,-0.4555099999999999,-0.3074165,0.783277,-0.5501,0.2588435,0.801983,-0.57334,-0.0593005,-0.008325,0.0018499999999999,0.0593005,0.0083249999999999,-0.0018499999999999,-0.1985465,0.151505,-0.3412,0.1459534999999999,0.1378749999999999,-0.35042,-0.1783365,-0.241935,-0.27614,0.1519935,-0.205535,-0.226429,1
114,-0.0282705,0.542345,-0.283755,-0.1540005,0.365405,-0.235995,-0.2537405,0.5575049999999999,-0.409865,0.1051994999999999,0.4169949999999999,-0.267235,0.2128195,0.591865,-0.452495,-0.3070104999999999,0.7851629999999999,-0.546405,0.2588695,0.805758,-0.5695250000000001,-0.0595005,-0.009465,0.0014849999999999,0.0595005,0.0094649999999999,-0.001485,-0.1992805,0.1601249999999999,-0.340245,0.1456595,0.1490349999999999,-0.349735,-0.1777905,-0.233175,-0.275335,0.1530695,-0.192105,-0.225846,1
115,-0.0294464999999999,0.54521,-0.28078,-0.1550045,0.3645199999999999,-0.233611,-0.2537345,0.5585699999999999,-0.4056,0.1036655,0.4212699999999999,-0.26487,0.2116055,0.5956899999999999,-0.44714,-0.3064945,0.786851,-0.54249,0.2586755,0.8095479999999999,-0.56538,-0.0595655,-0.01036,0.0012199999999999,0.0595655,0.0103599999999999,-0.0012199999999999,-0.1977845,0.1641899999999999,-0.33957,0.1452055,0.1596699999999999,-0.34899,-0.1772345,-0.2271700000000001,-0.27437,0.1538155,-0.18003,-0.225326,1
116,-0.030869,0.5480900000000001,-0.276915,-0.156419,0.3664700000000001,-0.232038,-0.254829,0.5621200000000001,-0.402085,0.101851,0.42584,-0.262525,0.210301,0.59996,-0.441625,-0.306389,0.790775,-0.538825,0.2581509999999999,0.814474,-0.561235,-0.059486,-0.01149,0.0008749999999999,0.059486,0.01149,-0.000875,-0.1992789999999999,0.17248,-0.339105,0.144581,0.17312,-0.348405,-0.1798489999999999,-0.2182299999999999,-0.273555,0.153471,-0.1683299999999999,-0.224658,1
117,-0.031649,0.5481900000000001,-0.27339,-0.157206,0.36563,-0.230501,-0.255296,0.5625300000000001,-0.39863,0.1006939999999999,0.4284800000000001,-0.26039,0.2095039999999999,0.60104,-0.43668,-0.305826,0.7916470000000001,-0.5348200000000001,0.258394,0.814544,-0.5563100000000001,-0.059421,-0.0114799999999999,0.0012299999999999,0.059421,0.01148,-0.00123,-0.200006,0.17604,-0.33793,0.1451239999999999,0.1788200000000001,-0.34738,-0.182516,-0.2129499999999998,-0.27193,0.1541239999999999,-0.1634099999999999,-0.222665,1
118,-0.0323715,0.548955,-0.269545,-0.1579125,0.365345,-0.2286979999999999,-0.2557325,0.563805,-0.394875,0.0996975,0.4318649999999999,-0.2579849999999999,0.2088775,0.603115,-0.431355,-0.3055025,0.7935559999999999,-0.530685,0.2586475,0.815948,-0.551115,-0.0593685,-0.010965,0.001975,0.0593685,0.010965,-0.0019749999999999,-0.2006824999999999,0.1799549999999999,-0.336535,0.1457275,0.181365,-0.345375,-0.1845824999999999,-0.207795,-0.270045,0.1541175,-0.158005,-0.2202269999999999,1
119,-0.032847,0.5502099999999999,-0.264975,-0.158445,0.3655199999999999,-0.225825,-0.256395,0.56534,-0.390075,0.098945,0.4353699999999999,-0.254515,0.208455,0.6054899999999999,-0.424835,-0.305255,0.7956429999999999,-0.525925,0.2590449999999999,0.8180999999999999,-0.545095,-0.059341,-0.01087,0.002165,0.059341,0.0108699999999999,-0.002165,-0.202385,0.1839699999999999,-0.334265,0.146485,0.1864399999999999,-0.342425,-0.186535,-0.20373,-0.267885,0.154255,-0.15326,-0.2174,1
120,-0.033501,0.551715,-0.261555,-0.158988,0.367965,-0.2239999999999999,-0.257648,0.568585,-0.387045,0.098162,0.439275,-0.252155,0.207652,0.606635,-0.418465,-0.305618,0.79939,-0.523035,0.259212,0.820329,-0.540095,-0.0592869999999999,-0.010835,0.0020249999999999,0.0592869999999999,0.010835,-0.0020249999999999,-0.204298,0.188025,-0.333315,0.146912,0.191525,-0.3404049999999999,-0.188608,-0.199585,-0.266995,0.154202,-0.148275,-0.21547,1
121,-0.0342284999999999,0.553125,-0.25815,-0.1595085,0.370345,-0.2221,-0.2589185,0.571785,-0.3840599999999999,0.0974815,0.443405,-0.2498099999999999,0.2067515,0.608085,-0.41242,-0.3059785,0.802955,-0.51964,0.2593115,0.822207,-0.5351699999999999,-0.0592195,-0.010695,0.00178,0.0592195,0.010695,-0.0017799999999999,-0.2061885,0.1919649999999999,-0.3323899999999999,0.1470915,0.1970049999999999,-0.33857,-0.1906185,-0.195555,-0.2661,0.1540515,-0.142795,-0.2130119999999999,1
122,-0.0349035,0.55316,-0.253345,-0.1600835,0.37287,-0.219738,-0.2601934999999999,0.57508,-0.380665,0.0968265,0.44761,-0.247005,0.2058465,0.60985,-0.406325,-0.3063835,0.806362,-0.5167649999999999,0.2593365,0.823904,-0.530265,-0.0591095,-0.0103999999999999,0.001585,0.0591095,0.0104,-0.001585,-0.2080735,0.1954599999999999,-0.331065,0.1470565,0.20233,-0.3362549999999999,-0.1926135,-0.19203,-0.264845,0.1536765,-0.1378399999999999,-0.210724,1
123,-0.035431,0.5500700000000001,-0.24712,-0.160828,0.37576,-0.217421,-0.261878,0.57842,-0.37795,0.0962219999999999,0.45151,-0.24405,0.205002,0.61158,-0.40032,-0.306758,0.809554,-0.51414,0.259282,0.826233,-0.52647,-0.058976,-0.00978,0.00139,0.058976,0.00978,-0.00139,-0.209938,0.19848,-0.3295,0.146752,0.20714,-0.33368,-0.194558,-0.1889799999999999,-0.26334,0.1533719999999999,-0.1333599999999999,-0.208165,1
124,-0.035813,0.5466199999999999,-0.2408799999999999,-0.161399,0.3783099999999999,-0.2149609999999999,-0.263069,0.5811,-0.3750799999999999,0.095801,0.4546499999999999,-0.2409799999999999,0.204231,0.6138299999999999,-0.39663,-0.307439,0.8102919999999999,-0.5113,0.259191,0.827862,-0.52323,-0.058847,-0.0089300000000001,0.00143,0.058847,0.0089299999999999,-0.0014299999999999,-0.2117389999999999,0.2016199999999999,-0.32785,0.146631,0.2109599999999999,-0.33089,-0.196439,-0.18585,-0.26174,0.153381,-0.13028,-0.2053279999999999,1
125,-0.0360019999999999,0.5437900000000001,-0.23589,-0.161728,0.3801300000000001,-0.2129999999999999,-0.263808,0.5828600000000002,-0.3727,0.095622,0.4568400000000001,-0.2384199999999999,0.203232,0.6144700000000001,-0.3931699999999999,-0.3080079999999999,0.8105150000000001,-0.50893,0.259292,0.8289300000000001,-0.5201899999999999,-0.0587479999999999,-0.0078399999999999,0.00124,0.0587479999999999,0.00784,-0.0012399999999999,-0.213308,0.2042300000000001,-0.3266,0.146782,0.2138200000000001,-0.3284899999999999,-0.198088,-0.1832399999999999,-0.2606,0.153522,-0.1279999999999999,-0.202559,1
126,-0.036234,0.539755,-0.231555,-0.162046,0.3814049999999999,-0.2115659999999999,-0.264376,0.583405,-0.371005,0.095454,0.4583149999999999,-0.2365749999999999,0.202534,0.6150549999999999,-0.391265,-0.308886,0.810093,-0.5077149999999999,0.259364,0.829171,-0.5178050000000001,-0.0587069999999999,-0.007775,0.000445,0.0587069999999999,0.0077749999999999,-0.000445,-0.215016,0.2061549999999999,-0.325975,0.146954,0.2157349999999999,-0.326545,-0.199856,-0.181335,-0.260065,0.153254,-0.126475,-0.199857,1
127,-0.0365314999999999,0.535225,-0.227847,-0.1623155,0.382405,-0.210642,-0.2650055,0.583465,-0.370485,0.0952345,0.459375,-0.235445,0.2019445,0.615455,-0.3901449999999999,-0.3097555,0.808963,-0.507575,0.2593645,0.828782,-0.515995,-0.0586705,-0.0081649999999999,-0.0005249999999999,0.0586705,0.0081649999999999,0.0005249999999999,-0.2193355,0.210415,-0.3262549999999999,0.1471245,0.2171649999999999,-0.325225,-0.2041255,-0.177145,-0.260405,0.1529745,-0.125165,-0.197768,1
128,-0.0368625,0.531155,-0.22585,-0.1625484999999999,0.382835,-0.210494,-0.2650985,0.5828850000000001,-0.37132,0.0950215,0.459895,-0.23518,0.2015715,0.6157050000000001,-0.38987,-0.3103085,0.807239,-0.509,0.2594614999999999,0.826806,-0.51575,-0.0586175,-0.0082249999999999,-0.00067,0.0586175,0.008225,0.0006699999999999,-0.2196285,0.211515,-0.32661,0.1473415,0.217885,-0.32464,-0.2044185,-0.176045,-0.2608,0.1527015,-0.1248049999999999,-0.196493,1
129,-0.037148,0.52881,-0.224986,-0.162616,0.38315,-0.210374,-0.265186,0.5818300000000001,-0.372605,0.0948639999999999,0.46033,-0.235015,0.200934,0.61478,-0.389675,-0.310666,0.804884,-0.5111950000000001,0.259514,0.8249580000000001,-0.5158050000000001,-0.058432,-0.00822,-0.000715,0.058432,0.00822,0.0007149999999999,-0.219686,0.2123,-0.3267649999999999,0.147484,0.21819,-0.324135,-0.204486,-0.1752599999999999,-0.261015,0.1525439999999999,-0.1243499999999999,-0.196172,1
130,-0.0373989999999999,0.5271,-0.22446,-0.162615,0.38325,-0.210239,-0.265285,0.58045,-0.374,0.094665,0.46043,-0.23487,0.200435,0.61378,-0.38949,-0.310875,0.802253,-0.51405,0.2594849999999999,0.823138,-0.51607,-0.058268,-0.0081599999999999,-0.00074,0.058268,0.00816,0.0007399999999999,-0.219685,0.2128499999999999,-0.32669,0.147495,0.21804,-0.32364,-0.204495,-0.17471,-0.26098,0.152205,-0.1243999999999999,-0.195836,1
131,-0.0376655,0.5271,-0.224198,-0.1626465,0.38325,-0.2099929999999999,-0.2653665,0.57987,-0.375395,0.0944235,0.46043,-0.234715,0.1999635,0.6127,-0.389135,-0.3111565,0.799309,-0.5173949999999999,0.2592335,0.8211740000000001,-0.519145,-0.0582365,-0.0081599999999999,-0.000835,0.0582365,0.00816,0.000835,-0.2196765,0.2128499999999999,-0.326445,0.1472335,0.21749,-0.323065,-0.2044764999999999,-0.17471,-0.260745,0.1518735,-0.12458,-0.195419,1
132,-0.03779,0.5271,-0.223777,-0.162539,0.38325,-0.209588,-0.264559,0.57987,-0.3773499999999999,0.0943109999999999,0.46043,-0.23456,0.199871,0.61239,-0.3895499999999999,-0.3113189999999999,0.796091,-0.52092,0.259081,0.819698,-0.5224,-0.0581649999999999,-0.0081599999999999,-0.0009399999999999,0.0581649999999999,0.00816,0.0009399999999999,-0.219469,0.2128499999999999,-0.3261,0.147321,0.21749,-0.32226,-0.204269,-0.17471,-0.26039,0.151991,-0.1247699999999999,-0.194844,1
133,-0.0378735,0.5271,-0.223343,-0.1624355,0.38336,-0.209222,-0.2634755,0.57987,-0.37931,0.0941745,0.46071,-0.23459,0.1998245,0.61227,-0.38967,-0.3111355,0.796091,-0.5245500000000001,0.2586545,0.818899,-0.5252,-0.0581015,-0.0081599999999999,-0.0012399999999999,0.0581015,0.00816,0.0012399999999999,-0.2191155,0.21287,-0.3257,0.1474444999999999,0.21749,-0.32138,-0.2039155,-0.17469,-0.25999,0.1521144999999999,-0.1249799999999999,-0.194303,1
134,-0.0380294999999999,0.527615,-0.223758,-0.1623705,0.3833749999999999,-0.208738,-0.2622705,0.578965,-0.38104,0.0940295,0.460385,-0.23455,0.2000795,0.611875,-0.39005,-0.3107305,0.795186,-0.52772,0.2586495,0.817994,-0.52858,-0.0580404999999999,-0.0080649999999999,-0.00155,0.0580404999999999,0.0080649999999999,0.0015499999999999,-0.2185805,0.212295,-0.3250699999999999,0.1474995,0.216585,-0.32053,-0.2034005,-0.175275,-0.25941,0.1520795,-0.126105,-0.193625,1
135,-0.037908,0.53359,-0.2275,-0.161772,0.38106,-0.208029,-0.261732,0.5751600000000001,-0.3817899999999999,0.094348,0.45749,-0.23479,0.201218,0.6087,-0.39022,-0.310132,0.790911,-0.53069,0.259258,0.8139970000000001,-0.53177,-0.0580689999999999,-0.0086899999999999,-0.00168,0.0580689999999999,0.00869,0.0016799999999999,-0.217452,0.2084100000000001,-0.32423,0.1476279999999999,0.21293,-0.3196799999999999,-0.202272,-0.1791699999999999,-0.25862,0.152358,-0.13066,-0.192831,1
136,-0.0376465,0.538135,-0.23119,-0.1609705,0.378145,-0.207156,-0.2608505,0.570705,-0.38257,0.0948094999999999,0.453205,-0.23491,0.2022695,0.603605,-0.39076,-0.3090305,0.788268,-0.53343,0.2601394999999999,0.808953,-0.53482,-0.0582475,-0.0095049999999999,-0.00177,0.0582475,0.0095049999999999,0.00177,-0.2157905,0.204625,-0.32257,0.1487195,0.2074949999999999,-0.31879,-0.2002005,-0.1810549999999999,-0.25502,0.1531895,-0.136915,-0.191975,1
137,-0.03733,0.5423199999999999,-0.23614,-0.160253,0.3768199999999999,-0.207672,-0.260233,0.56761,-0.38487,0.095187,0.4486699999999999,-0.23621,0.203037,0.6021699999999999,-0.39397,-0.3082129999999999,0.7855869999999999,-0.53764,0.262087,0.807299,-0.54047,-0.058413,-0.01003,-0.00179,0.058413,0.0100299999999999,0.0017899999999999,-0.213953,0.2007499999999999,-0.32192,0.149507,0.2015899999999999,-0.31889,-0.197883,-0.18283,-0.24974,0.153427,-0.1440800000000001,-0.192036,1
138,-0.036772,0.545125,-0.241845,-0.1591189999999999,0.377675,-0.209565,-0.259359,0.5650649999999999,-0.388585,0.095891,0.443175,-0.238525,0.204201,0.5969249999999999,-0.397825,-0.307409,0.782748,-0.542205,0.264331,0.8007989999999999,-0.544985,-0.0585479999999999,-0.011005,-0.001775,0.0585479999999999,0.0110049999999999,0.0017749999999999,-0.211539,0.192215,-0.321235,0.150751,0.1899849999999999,-0.319485,-0.1951389999999999,-0.190905,-0.247785,0.153981,-0.156305,-0.192193,1
139,-0.0362555,0.548525,-0.2476749999999999,-0.1581755,0.378155,-0.211445,-0.2585754999999999,0.563145,-0.392655,0.0965845,0.437645,-0.240915,0.2058345,0.594445,-0.401765,-0.3065055,0.780849,-0.5453250000000001,0.2667345,0.79533,-0.549255,-0.0584525,-0.012255,-0.0017949999999999,0.0584525,0.012255,0.001795,-0.2090455,0.183385,-0.3205249999999999,0.1519545,0.177865,-0.320245,-0.1921955,-0.1993249999999999,-0.2458749999999999,0.1542645,-0.169045,-0.193888,1
140,-0.03527,0.55057,-0.25465,-0.15686,0.37661,-0.214685,-0.2575,0.55978,-0.3978,0.0978,0.43072,-0.2445999999999999,0.20847,0.5903200000000001,-0.4076999999999999,-0.30507,0.7772220000000001,-0.54867,0.27018,0.789996,-0.55204,-0.05829,-0.01107,-0.00081,0.05829,0.01107,0.00081,-0.20588,0.17219,-0.32098,0.15269,0.16209,-0.32125,-0.18786,-0.21109,-0.24538,0.15494,-0.1855299999999999,-0.197028,1
141,-0.0341815,0.55182,-0.26097,-0.1553085,0.37655,-0.218592,-0.2568685,0.55764,-0.40145,0.0991814999999999,0.42578,-0.24859,0.2110515,0.58664,-0.41369,-0.3035585,0.7740710000000001,-0.55088,0.2733415,0.787999,-0.55402,-0.0581104999999999,-0.0101299999999999,0.0001799999999999,0.0581104999999999,0.0101299999999999,-0.00018,-0.2027385,0.16017,-0.32152,0.1532415,0.14558,-0.32162,-0.1836585,-0.22358,-0.24507,0.1553515,-0.2029299999999999,-0.201065,1
142,-0.0328765,0.5523399999999999,-0.267065,-0.1537585,0.3778899999999999,-0.222719,-0.2568985,0.55736,-0.404645,0.1005115,0.4201999999999999,-0.252315,0.2134215,0.58385,-0.418075,-0.3026385,0.7720609999999999,-0.552445,0.2765415,0.7852859999999999,-0.556685,-0.0579205,-0.00887,0.0011649999999999,0.0579205,0.0088699999999999,-0.0011649999999999,-0.1997885,0.1466099999999999,-0.322205,0.1537415,0.12827,-0.322085,-0.1798085,-0.23736,-0.244745,0.1558215,-0.22162,-0.205241,1
143,-0.0315374999999999,0.548165,-0.27539,-0.1522335,0.374025,-0.2296229999999999,-0.2561935,0.552355,-0.4090999999999999,0.1018165,0.4103150000000001,-0.25864,0.2156765,0.5764250000000001,-0.42463,-0.3022235,0.767109,-0.55689,0.2798465,0.7789250000000001,-0.56203,-0.0576015,-0.0088149999999999,0.0017,0.0576015,0.008815,-0.0016999999999999,-0.1969435,0.128225,-0.32589,0.1540965,0.106585,-0.3254,-0.1761835,-0.2558849999999999,-0.2473199999999999,0.1562365,-0.2451949999999999,-0.2124499999999999,1
144,-0.0303904999999999,0.54228,-0.28161,-0.1511615,0.37232,-0.236756,-0.2546115,0.54975,-0.4141,0.1027355,0.4039799999999999,-0.26482,0.2180385,0.57419,-0.43203,-0.3012415,0.765424,-0.56185,0.2827685,0.7760159999999999,-0.5671200000000001,-0.0572145,-0.008,0.0023199999999999,0.0572145,0.008,-0.00232,-0.1945715,0.1121099999999999,-0.33005,0.1537785,0.0871499999999999,-0.32908,-0.1731214999999999,-0.27233,-0.25033,0.1563485,-0.26663,-0.220392,1
145,-0.0290925,0.53812,-0.288045,-0.1498255,0.37278,-0.243811,-0.2530055,0.54683,-0.419645,0.1037965,0.39837,-0.271305,0.2210345,0.574999,-0.440905,-0.3006555,0.76302,-0.566585,0.2858945,0.77737,-0.572875,-0.0565335,-0.00656,0.003055,0.0565335,0.00656,-0.003055,-0.1923655,0.0940199999999999,-0.335415,0.1537145,0.06716,-0.3330849999999999,-0.1705954999999999,-0.2922699999999999,-0.255805,0.1567745,-0.2888699999999999,-0.22901,1
146,-0.0277,0.5339849999999999,-0.294765,-0.148357,0.3702399999999999,-0.250986,-0.253667,0.5408029999999999,-0.424665,0.104812,0.3933399999999999,-0.278165,0.222443,0.5696279999999999,-0.447325,-0.301077,0.75827,-0.5697650000000001,0.2876829999999999,0.77221,-0.579245,-0.0557769999999999,-0.006,0.0036049999999999,0.0557769999999999,0.006,-0.0036049999999999,-0.190277,0.07443,-0.3415749999999999,0.154023,0.0467099999999999,-0.337065,-0.168177,-0.31266,-0.261495,0.157603,-0.31217,-0.238375,1
147,-0.026438,0.5320290000000001,-0.30147,-0.146906,0.36475,-0.257707,-0.254306,0.5353300000000001,-0.42763,0.105844,0.38867,-0.28486,0.224594,0.5676840000000001,-0.4541,-0.301096,0.75266,-0.5729299999999999,0.289174,0.7707900000000001,-0.5855,-0.055259,-0.0048799999999999,0.0043699999999999,0.055259,0.0048799999999999,-0.00437,-0.188376,0.05817,-0.348,0.154794,0.02965,-0.34214,-0.166056,-0.3298599999999999,-0.26742,0.158394,-0.33211,-0.248442,1
148,-0.0253504999999999,0.52835,-0.308235,-0.1462495,0.359955,-0.264439,-0.2546095,0.527825,-0.430355,0.1065015,0.384135,-0.291585,0.2255705,0.561136,-0.460855,-0.3014395,0.744655,-0.574785,0.2908104999999999,0.766405,-0.592305,-0.0547145,-0.003495,0.0053449999999999,0.0547145,0.003495,-0.0053449999999999,-0.1867795,0.039035,-0.354495,0.1555405,0.0091849999999999,-0.347245,-0.1645895,-0.3525749999999999,-0.276615,0.1590305,-0.355175,-0.257159,1
149,-0.024303,0.526291,-0.31313,-0.145496,0.35688,-0.26931,-0.253306,0.522604,-0.4303,0.107115,0.3807,-0.29645,0.227354,0.557055,-0.4641699999999999,-0.300436,0.73887,-0.57361,0.292494,0.76311,-0.59467,-0.054521,-0.00392,0.005,0.054521,0.00392,-0.005,-0.185396,0.02078,-0.35921,0.157134,-0.0117099999999999,-0.3495,-0.163616,-0.3734699999999999,-0.2815,0.159634,-0.3761299999999999,-0.263804,1
150,-0.0233339999999999,0.5236410000000001,-0.317575,-0.14461,0.3518250000000001,-0.273549,-0.25331,0.5170540000000001,-0.428575,0.107706,0.3745150000000001,-0.300675,0.22784,0.5520950000000001,-0.466485,-0.30078,0.7339950000000002,-0.5713550000000001,0.29377,0.7568450000000001,-0.596745,-0.05427,-0.0044149999999999,0.004515,0.05427,0.004415,-0.0045149999999999,-0.18418,0.002215,-0.3639949999999999,0.1587,-0.0332149999999998,-0.350925,-0.16264,-0.3949749999999998,-0.2864649999999999,0.16029,-0.3976349999999998,-0.269914,1
151,-0.022505,0.521089,-0.321525,-0.143859,0.348035,-0.277268,-0.253559,0.508928,-0.426155,0.108275,0.370015,-0.303995,0.228821,0.5496,-0.468255,-0.301129,0.727565,-0.569135,0.294781,0.757215,-0.598175,-0.05419,-0.005055,0.0040149999999999,0.05419,0.005055,-0.004015,-0.183049,-0.016745,-0.368465,0.158831,-0.052235,-0.351885,-0.161639,-0.415235,-0.290845,0.160821,-0.419765,-0.276002,1
152,-0.021715,0.5233760000000001,-0.32122,-0.143221,0.34864,-0.277901,-0.253751,0.5082120000000001,-0.42111,0.10887,0.37196,-0.30396,0.229989,0.5520600000000001,-0.4662499999999999,-0.301201,0.7254400000000001,-0.56202,0.295829,0.76125,-0.59671,-0.054381,-0.0046699999999999,0.00414,0.054381,0.00467,-0.00414,-0.181951,-0.0314699999999998,-0.36978,0.159719,-0.0670399999999999,-0.35175,-0.160871,-0.4322199999999999,-0.29293,0.161489,-0.43821,-0.279026,1
153,-0.0209115,0.525136,-0.3199,-0.1429035,0.34847,-0.277365,-0.2510135,0.510467,-0.41621,0.1094774999999999,0.3717,-0.30308,0.2310465,0.554703,-0.46281,-0.3001435,0.72231,-0.55406,0.2966965,0.76586,-0.5929800000000001,-0.0546565,-0.00423,0.0042599999999999,0.0546565,0.00423,-0.00426,-0.1809235,-0.0471199999999999,-0.37054,0.1602865,-0.0810299999999999,-0.35131,-0.1600835,-0.44858,-0.29336,0.1620665,-0.4572099999999999,-0.281618,1
154,-0.0202579999999999,0.527866,-0.3174099999999999,-0.142565,0.35069,-0.275636,-0.247745,0.512103,-0.40996,0.109773,0.374349,-0.30111,0.230655,0.554244,-0.4589499999999999,-0.299245,0.71756,-0.54593,0.297405,0.7662,-0.58786,-0.054955,-0.00419,0.00421,0.054955,0.0041899999999999,-0.0042099999999999,-0.180035,-0.06181,-0.37051,0.160485,-0.0943899999999999,-0.35044,-0.159505,-0.4647099999999999,-0.29301,0.162465,-0.47572,-0.2837619999999999,1
155,-0.0193329999999999,0.5306580000000001,-0.31365,-0.1421899999999999,0.353443,-0.272926,-0.2469599999999999,0.5146430000000001,-0.4053799999999999,0.1105879999999999,0.375376,-0.29828,0.23096,0.55633,-0.45437,-0.29905,0.72109,-0.53947,0.29838,0.7683500000000001,-0.58223,-0.055168,-0.0034199999999999,0.00435,0.055168,0.00342,-0.0043499999999999,-0.1787399999999999,-0.0773699999999999,-0.3692499999999999,0.16081,-0.1059899999999999,-0.3494199999999999,-0.1586199999999999,-0.48134,-0.29152,0.16321,-0.4948199999999999,-0.28537,1
156,-0.0187099999999999,0.534455,-0.309655,-0.142561,0.3576729999999999,-0.269845,-0.246521,0.519566,-0.400705,0.1112269999999999,0.3777029999999999,-0.294875,0.230909,0.5586249999999999,-0.447665,-0.298911,0.726755,-0.531575,0.298979,0.770905,-0.575325,-0.055377,-0.002765,0.004365,0.055377,0.0027649999999999,-0.004365,-0.177511,-0.0927149999999999,-0.367525,0.160869,-0.115035,-0.348305,-0.1579009999999999,-0.498005,-0.289805,0.163799,-0.512935,-0.286565,1
157,-0.0182134999999999,0.54021,-0.305315,-0.1426605,0.3623659999999999,-0.26724,-0.2457605,0.52603,-0.3954649999999999,0.1121355,0.3803809999999999,-0.291405,0.2311194999999999,0.56269,-0.440075,-0.2983305,0.735,-0.523755,0.2992395,0.77817,-0.565805,-0.0556674999999999,-0.00202,0.004385,0.0556674999999999,0.0020199999999999,-0.004385,-0.1759105,-0.10526,-0.365395,0.1612795,-0.12302,-0.3472349999999999,-0.1569005,-0.51356,-0.288375,0.1644894999999999,-0.5289,-0.2873549999999999,1
158,-0.0179264999999999,0.54512,-0.30023,-0.1432554999999999,0.368447,-0.264112,-0.2464354999999999,0.5327,-0.38981,0.1129695,0.384703,-0.28723,0.2308845,0.56702,-0.43337,-0.2992255,0.74322,-0.51532,0.2990045,0.78433,-0.55644,-0.0559175,-0.0018,0.0046499999999999,0.0559175,0.0018,-0.00465,-0.1743954999999999,-0.1187599999999999,-0.36264,0.1617845,-0.13197,-0.34556,-0.1562055,-0.5307,-0.28733,0.1648145,-0.54492,-0.2882,1
159,-0.0175944999999999,0.55137,-0.294055,-0.1438134999999999,0.374304,-0.260299,-0.2488834999999999,0.54084,-0.383555,0.1137005,0.389479,-0.282339,0.2300565,0.57542,-0.425935,-0.3006235,0.74956,-0.504505,0.2987965,0.78989,-0.5453950000000001,-0.0561575,-0.0014799999999999,0.0049949999999999,0.0561575,0.0014799999999999,-0.0049949999999999,-0.1727235,-0.13172,-0.358915,0.1622465,-0.1400999999999999,-0.343045,-0.1554935,-0.54731,-0.285715,0.1652365,-0.5597099999999999,-0.287535,1
160,-0.017061,0.55713,-0.286545,-0.143653,0.380646,-0.254889,-0.251113,0.55051,-0.3763149999999999,0.114536,0.396447,-0.2766079999999999,0.230227,0.5786500000000001,-0.417405,-0.3014929999999999,0.7611100000000001,-0.492295,0.299967,0.79504,-0.533245,-0.056316,-0.0012399999999999,0.0051049999999999,0.056316,0.00124,-0.0051049999999999,-0.170633,-0.1434399999999999,-0.353855,0.162427,-0.14764,-0.3387949999999999,-0.154593,-0.56341,-0.2829049999999999,0.165937,-0.57365,-0.285915,1
161,-0.0166815,0.56221,-0.278381,-0.1435314999999999,0.387694,-0.249276,-0.2520515,0.55746,-0.367535,0.1153255,0.4013259999999999,-0.270885,0.2312785,0.58173,-0.406995,-0.3017715,0.77332,-0.480235,0.3010385,0.80019,-0.5201450000000001,-0.0565235,-0.00089,0.005255,0.0565235,0.00089,-0.005255,-0.1683515,-0.15434,-0.348255,0.1622685,-0.15484,-0.334275,-0.1536815,-0.57858,-0.280135,0.1661385,-0.58691,-0.285125,1
162,-0.0161389999999999,0.567445,-0.268631,-0.143173,0.396205,-0.242723,-0.251003,0.560715,-0.35687,0.116273,0.407488,-0.26386,0.231797,0.5829850000000001,-0.3956,-0.301643,0.785945,-0.4678,0.302257,0.803615,-0.50653,-0.0567509999999999,-0.000585,0.0056399999999999,0.0567509999999999,0.000585,-0.00564,-0.166013,-0.165655,-0.34179,0.161967,-0.1625849999999999,-0.3286,-0.152833,-0.594265,-0.27647,0.166407,-0.600085,-0.28313,1
163,-0.0155995,0.5720850000000001,-0.2584639999999999,-0.1428404999999999,0.400915,-0.2358179999999999,-0.2521905,0.571385,-0.346345,0.1170964999999999,0.410935,-0.25648,0.2324995,0.592735,-0.384255,-0.3021705,0.805485,-0.4546449999999999,0.3030894999999999,0.813065,-0.4923749999999999,-0.0570265,-0.0003249999999999,0.005815,0.0570265,0.000325,-0.0058149999999999,-0.1638705,-0.1776549999999999,-0.334765,0.1613195,-0.1699249999999999,-0.322365,-0.1520805,-0.609675,-0.2724879999999999,0.1665795,-0.6124449999999999,-0.281265,1
164,-0.0150595,0.57656,-0.247158,-0.1424085,0.40561,-0.2291059999999999,-0.2533385,0.58213,-0.335275,0.1177725,0.41571,-0.24899,0.2323515,0.6000300000000001,-0.372275,-0.3034685,0.8171700000000001,-0.440395,0.3036815,0.82237,-0.477805,-0.0573184999999999,-0.0003699999999999,0.0057949999999999,0.0573184999999999,0.00037,-0.0057949999999999,-0.1619585,-0.18771,-0.327845,0.1604115,-0.17812,-0.3160349999999999,-0.1513885,-0.62342,-0.268546,0.1666415,-0.62291,-0.279525,1
165,-0.014605,0.5816250000000001,-0.235545,-0.142556,0.413195,-0.2202009999999999,-0.253816,0.590085,-0.3230849999999999,0.117973,0.420165,-0.240469,0.232354,0.6064849999999999,-0.361205,-0.304786,0.825415,-0.424135,0.304074,0.829535,-0.462715,-0.05755,-0.0001149999999999,0.005645,0.05755,0.000115,-0.0056449999999999,-0.1602559999999999,-0.1993349999999999,-0.320215,0.159224,-0.188405,-0.307695,-0.150836,-0.638275,-0.263896,0.166614,-0.633555,-0.276815,1
166,-0.0137535,0.586335,-0.223478,-0.1422675,0.419165,-0.211305,-0.2541475,0.5977049999999999,-0.310905,0.1185555,0.425035,-0.231789,0.2338125,0.612795,-0.349725,-0.3060475,0.832765,-0.407375,0.3048825,0.833935,-0.449325,-0.0577265,-9.500000000001174e-05,0.005555,0.0577265,9.500000000001174e-05,-0.005555,-0.1583275,-0.2117049999999999,-0.312655,0.1584525,-0.197905,-0.298945,-0.1499775,-0.652225,-0.259101,0.1672925,-0.643535,-0.272175,1
167,-0.0130794999999999,0.591065,-0.2112149999999999,-0.1422125,0.424515,-0.2023869999999999,-0.2546225,0.605855,-0.298065,0.1188005,0.428615,-0.223353,0.2341275,0.619165,-0.337205,-0.3069624999999999,0.838635,-0.390615,0.3051275,0.8395250000000001,-0.434765,-0.0578185,-0.0002149999999999,0.005335,0.0578185,0.000215,-0.005335,-0.1567725,-0.2224649999999999,-0.3052249999999999,0.1574974999999999,-0.2063049999999999,-0.2903449999999999,-0.1495325,-0.6644950000000001,-0.254205,0.1677575,-0.6524049999999999,-0.267405,1
168,-0.0123135,0.593515,-0.197822,-0.1421234999999999,0.430785,-0.192157,-0.2544035,0.613215,-0.28409,0.1191995,0.434455,-0.213443,0.2343965,0.620135,-0.32335,-0.3073734999999999,0.8435549999999999,-0.37307,0.3053165,0.8449949999999999,-0.41995,-0.0579635,-0.000205,0.00531,0.0579635,0.000205,-0.00531,-0.1553334999999999,-0.234145,-0.29707,0.1565165,-0.2166149999999999,-0.28101,-0.1492534999999999,-0.677525,-0.248778,0.1681365,-0.662995,-0.26078,1
169,-0.0115584999999999,0.596905,-0.184868,-0.1420084999999999,0.435265,-0.182794,-0.2539685,0.620795,-0.2704,0.1197885,0.436405,-0.204523,0.2351915,0.627815,-0.31032,-0.3074584999999999,0.8486549999999999,-0.35584,0.3056715,0.844665,-0.40558,-0.0579994999999999,-0.0002049999999999,0.0052199999999999,0.0579994999999999,0.000205,-0.00522,-0.1540685,-0.2454049999999999,-0.28895,0.1556715,-0.2256249999999999,-0.27303,-0.1491385,-0.689225,-0.243879,0.1682015,-0.6723649999999999,-0.25432,1
170,-0.010693,0.60015,-0.172017,-0.141879,0.43939,-0.173374,-0.253959,0.62843,-0.257035,0.120234,0.43839,-0.195561,0.234991,0.6351100000000001,-0.298895,-0.306889,0.85234,-0.340355,0.305521,0.84524,-0.391035,-0.05801,-0.0001499999999999,0.005195,0.05801,0.00015,-0.005195,-0.152989,-0.25704,-0.281235,0.154841,-0.2342099999999999,-0.265085,-0.148969,-0.7011499999999999,-0.238447,0.1684709999999999,-0.68086,-0.247945,1
171,-0.009722,0.6023700000000001,-0.158478,-0.1420159999999999,0.445,-0.162284,-0.253016,0.63591,-0.242965,0.120833,0.44183,-0.185056,0.234694,0.64324,-0.285575,-0.305706,0.85712,-0.323605,0.305624,0.84603,-0.375665,-0.058015,-0.00016,0.0050949999999999,0.058015,0.0001599999999999,-0.005095,-0.151836,-0.26722,-0.273135,0.153934,-0.24163,-0.256885,-0.148876,-0.71161,-0.232811,0.168684,-0.68835,-0.241105,1
172,-0.0086025,0.604285,-0.14465,-0.1419095,0.4490449999999999,-0.151028,-0.2526695,0.637015,-0.22805,0.1217975,0.445185,-0.174281,0.2344105,0.643645,-0.27193,-0.3048495,0.8545149999999999,-0.30607,0.3048905,0.8415250000000001,-0.36004,-0.0580165,-0.000125,0.00497,0.0580165,0.0001249999999999,-0.00497,-0.1506095,-0.275855,-0.26469,0.1527905,-0.249105,-0.24794,-0.1486595,-0.720505,-0.226598,0.1688405,-0.695935,-0.23527,1
173,-0.007549,0.610105,-0.131938,-0.141823,0.453565,-0.13929,-0.252223,0.641625,-0.213135,0.1227999999999999,0.448365,-0.163251,0.235617,0.643235,-0.257785,-0.303963,0.8520650000000001,-0.288215,0.305567,0.836705,-0.343955,-0.057967,5.499999999999949e-05,0.004805,0.057967,-5.499999999999949e-05,-0.004805,-0.1493529999999999,-0.284515,-0.255875,0.151267,-0.261355,-0.239365,-0.1481529999999999,-0.7294350000000001,-0.219634,0.169117,-0.7081850000000001,-0.226805,1
174,-0.0066365,0.61401,-0.118946,-0.1416335,0.45441,-0.1294539999999999,-0.2521135,0.64571,-0.200838,0.1235105,0.45071,-0.1531239999999999,0.2374865,0.6430899999999999,-0.2441549999999999,-0.3029035,0.85917,-0.273155,0.3054265,0.8330500000000001,-0.3284249999999999,-0.0579745,-1.000000000001e-05,0.004695,0.0579745,9.999999999982244e-06,-0.0046949999999999,-0.1481735,-0.28782,-0.2459049999999999,0.1498765,-0.27144,-0.2316349999999999,-0.1480735,-0.7331799999999999,-0.2133479999999999,0.1690765,-0.71827,-0.219655,1
175,-0.005728,0.616995,-0.10601,-0.141352,0.458605,-0.118283,-0.251032,0.654285,-0.188592,0.1243129999999999,0.454875,-0.141715,0.238088,0.642575,-0.23087,-0.3009719999999999,0.870355,-0.25858,0.303738,0.8288150000000001,-0.31288,-0.057981,6.50000000000095e-05,0.0046099999999999,0.057981,-6.50000000000095e-05,-0.00461,-0.146852,-0.298075,-0.23519,0.148558,-0.281695,-0.2235,-0.147952,-0.743435,-0.206924,0.168948,-0.728525,-0.21307,1
176,-0.0048545,0.61917,-0.093574,-0.1410245,0.46128,-0.107259,-0.2498045,0.6603899999999999,-0.176291,0.1251475,0.45797,-0.130478,0.2387255,0.64901,-0.218105,-0.2986645,0.88144,-0.243465,0.3020354999999999,0.83366,-0.298325,-0.0579934999999999,0.0005799999999999,0.0044249999999999,0.0579934999999999,-0.0005799999999999,-0.0044249999999999,-0.1453845,-0.30827,-0.2240849999999999,0.1470955,-0.29225,-0.215305,-0.1477745,-0.75363,-0.200824,0.1689055,-0.73902,-0.204985,1
177,-0.003627,0.624315,-0.076488,-0.140799,0.465155,-0.089897,-0.2488989999999999,0.664425,-0.158943,0.126554,0.457045,-0.1143349999999999,0.2394609999999999,0.653995,-0.2006899999999999,-0.297599,0.892605,-0.22451,0.300761,0.835655,-0.27684,-0.058,0.0004249999999999,0.004526,0.0579999999999999,-0.000425,-0.004526,-0.143589,-0.319925,-0.20731,0.145871,-0.307145,-0.2017499999999999,-0.147519,-0.765285,-0.18943,0.168711,-0.753795,-0.19422,1
178,-0.0024349999999999,0.6293575,-0.060194,-0.140623,0.4676275,-0.0732859999999999,-0.248123,0.6683475,-0.14192,0.127997,0.4569175,-0.0982919999999999,0.240057,0.6541475,-0.183189,-0.294353,0.9009775,-0.205749,0.2995669999999999,0.8384174999999999,-0.256339,-0.0580559999999999,0.0002194999999999,0.004816,0.0580559999999999,-0.0002194999999999,-0.004816,-0.141923,-0.3313825,-0.191179,0.144547,-0.3220225,-0.188199,-0.147443,-0.7771325,-0.178539,0.168707,-0.7685825000000001,-0.181389,1
179,-0.0013469999999999,0.63437,-0.0444975,-0.14045,0.47028,-0.0567395,-0.24705,0.67237,-0.1253935,0.12934,0.45718,-0.0822915,0.24087,0.65481,-0.1653565,-0.29044,0.91035,-0.1851365,0.29829,0.84088,-0.2361965,-0.058196,2.9000000000001247e-05,0.0051464999999999,0.058196,-2.9000000000001247e-05,-0.0051465,-0.14022,-0.34316,-0.1744865,0.14324,-0.3370499999999999,-0.1746265,-0.14733,-0.78929,-0.1680365,0.16845,-0.78347,-0.1694265,1
180,-0.000274,0.6397029999999999,-0.0305695,-0.139997,0.470643,-0.0420725,-0.245787,0.6772130000000001,-0.1108524999999999,0.130423,0.455373,-0.0684345,0.241863,0.6554329999999999,-0.1501085,-0.2867269999999999,0.919103,-0.1664775,0.297003,0.843353,-0.2179975,-0.058366,-4.099999999999937e-05,0.0054335,0.058366,4.099999999999937e-05,-0.0054335,-0.138627,-0.355657,-0.1584475,0.141953,-0.352367,-0.1613375,-0.147237,-0.8021670000000001,-0.1569674999999999,0.168033,-0.7986169999999999,-0.1581275,1
181,0.0007285,0.644172,-0.0171139999999999,-0.1396605,0.4729819999999999,-0.0275529999999999,-0.2448004999999999,0.681982,-0.097009,0.1314894999999999,0.454092,-0.054991,0.2420695,0.656602,-0.1349759999999999,-0.2833505,0.928882,-0.14888,0.2959795,0.845472,-0.20036,-0.0584444999999999,-5.700000000000149e-05,0.005879,0.0584444999999999,5.700000000000149e-05,-0.0058789999999999,-0.1372105,-0.371068,-0.14311,0.1408095,-0.367598,-0.14798,-0.1471604999999999,-0.8176680000000001,-0.14617,0.1668595,-0.813828,-0.14971,1
182,0.0016095,0.645284,-0.003837,-0.1395364999999999,0.475604,-0.013402,-0.2438564999999999,0.684434,-0.083406,0.1323235,0.452814,-0.041975,0.2421235,0.659164,-0.120443,-0.2807765,0.939324,-0.132226,0.2957835,0.848204,-0.183056,-0.0585555,-7.599999999999968e-05,0.006516,0.0585555,7.599999999999968e-05,-0.006516,-0.1353365,-0.384246,-0.1266,0.1395835,-0.3823459999999999,-0.134846,-0.1472764999999999,-0.8309460000000001,-0.135406,0.1653935,-0.8284560000000001,-0.142156,1
183,0.0025414999999999,0.646193,0.008676,-0.1392415,0.4786129999999999,0.00058,-0.2429615,0.6867329999999999,-0.069937,0.1332684999999999,0.4518729999999999,-0.029245,0.2424785,0.661843,-0.106049,-0.2777315,0.941933,-0.115319,0.2948985,0.850973,-0.165821,-0.0586745,-0.000164,0.007287,0.0586745,0.0001639999999999,-0.0072869999999999,-0.1334015,-0.396577,-0.1119179999999999,0.1382185,-0.396037,-0.121591,-0.1473715,-0.843337,-0.1245209999999999,0.1641085,-0.842087,-0.134241,1
184,0.0033989999999999,0.647793,0.0203135,-0.13906,0.4791829999999999,0.0130914999999999,-0.24206,0.684833,-0.0567185,0.13394,0.4484329999999999,-0.0183175,0.24275,0.664923,-0.0927424999999999,-0.27458,0.940293,-0.0986315,0.29404,0.855593,-0.1493905,-0.058864,-0.000182,0.0079625,0.058864,0.0001819999999999,-0.0079625,-0.13149,-0.407457,-0.0980515,0.1366,-0.409967,-0.1085785,-0.1475699999999999,-0.854267,-0.1141305,0.16283,-0.855997,-0.1254205,1
185,0.0041335,0.6499955000000001,0.031404,-0.1389045,0.4810755,0.025167,-0.2405845,0.6843655000000001,-0.0443999999999999,0.1346255,0.4462355,-0.007917,0.2426955,0.6611655000000001,-0.08012,-0.2716645,0.9404055,-0.08296,0.2942055,0.8514555,-0.1315579999999999,-0.0590605,-0.0005894999999999,0.008793,0.0590605,0.0005894999999999,-0.008793,-0.1293545,-0.4159645,-0.084809,0.1349755,-0.4180145,-0.095771,-0.1479245,-0.8628545,-0.104518,0.1615055,-0.8641044999999999,-0.116758,1
186,0.0046105,0.6499765000000001,0.036283,-0.1389045,0.4819065,0.029747,-0.2395844999999999,0.6850065000000001,-0.037871,0.1352455,0.4463765,-0.0038859999999999,0.2424755,0.6603965,-0.073409,-0.2686345,0.9423465,-0.072956,0.2940055,0.8529265,-0.122613,-0.0591835,-0.0002724999999999,0.009196,0.0591835,0.0002725,-0.009196,-0.1274145,-0.4262535,-0.077717,0.1332155,-0.4218835,-0.088536,-0.1481845,-0.8729534999999999,-0.100283,0.1599255,-0.8677334999999999,-0.115333,1
187,0.0049955,0.64954,0.0410245,-0.1389175,0.48291,0.0342705,-0.2377275,0.6850799999999999,-0.0315275,0.1359625,0.44628,8.950000000000017e-05,0.2423225,0.65952,-0.0667785,-0.2657875,0.94279,-0.0638775,0.2929724999999999,0.8520899999999999,-0.1137315,-0.0592304999999999,3.399999999999931e-05,0.0095205,0.0592304999999999,-3.399999999999931e-05,-0.0095205,-0.1255875,-0.42988,-0.0710735,0.1315025,-0.42551,-0.0812325,-0.1485875,-0.87658,-0.0964315,0.1589425,-0.87136,-0.1128715,1
188,0.0054314999999999,0.6491034999999999,0.045362,-0.1388515,0.4842735,0.038602,-0.2359715,0.6850035,-0.025543,0.1368085,0.4463735,0.0038599999999999,0.2421285,0.6588134999999999,-0.060437,-0.2637615,0.9427635,-0.056683,0.2917785,0.8472035,-0.1048419999999999,-0.0592275,0.0003294999999999,0.009688,0.0592275,-0.0003294999999999,-0.009688,-0.1236915,-0.4344765,-0.0651809999999999,0.1298585,-0.4288165,-0.073656,-0.1492615,-0.8809965000000001,-0.094832,0.1576285,-0.8746665,-0.111132,1
189,0.005925,0.6488845000000001,0.0492405,-0.138292,0.4855745,0.0423595,-0.234322,0.6847144999999999,-0.0200624999999999,0.137628,0.4467745,0.0072735,0.241718,0.6584645,-0.0547524999999999,-0.2616719999999999,0.9421345,-0.0495915,0.290798,0.8473145,-0.0964325,-0.0592329999999999,0.0005365,0.0099455,0.0592329999999999,-0.0005365,-0.0099455,-0.1217519999999999,-0.4377155,-0.0596125,0.128328,-0.4312755,-0.0665275,-0.149502,-0.8840155000000001,-0.0910525,0.156738,-0.8770754999999999,-0.1087425,1
190,0.0062789999999999,0.648972,0.05258,-0.1378899999999999,0.485862,0.045455,-0.2329899999999999,0.684992,-0.015155,0.13813,0.446902,0.0101809999999999,0.24126,0.658822,-0.049559,-0.25959,0.941172,-0.042534,0.2897,0.848032,-0.089029,-0.0592689999999999,0.0006849999999999,0.0102529999999999,0.0592689999999999,-0.0006849999999999,-0.010253,-0.11989,-0.4396279999999999,-0.054339,0.12705,-0.432988,-0.059917,-0.1497399999999999,-0.885698,-0.086779,0.15605,-0.878538,-0.106239,1
191,0.0066135,0.6488395,0.0556414999999999,-0.1375585,0.4859794999999999,0.0482965,-0.2318885,0.6848995,-0.0107205,0.1384915,0.4468994999999999,0.0128754999999999,0.2408914999999999,0.6588094999999999,-0.0448165,-0.2574885,0.9399495,-0.0357595,0.2897615,0.8540694999999999,-0.0821274999999999,-0.0592905,0.0008444999999999,0.0105204999999999,0.0592905,-0.0008444999999999,-0.0105205,-0.1184585,-0.4399905,-0.0495305,0.1261115,-0.4349005,-0.0539435,-0.1499385,-0.8858805000000001,-0.0826755,0.1553314999999999,-0.8801905,-0.1037714999999999,1
192,0.006647,0.6486999999999999,0.0585845,-0.137818,0.48513,0.0508085,-0.2311579999999999,0.68485,-0.0063915,0.1383619999999999,0.4464,0.0155055,0.240372,0.65882,-0.0401185,-0.255998,0.93843,-0.0293965,0.289852,0.8605999999999999,-0.0757404999999999,-0.059227,0.001134,0.0102604999999999,0.059227,-0.0011339999999999,-0.0102604999999999,-0.117428,-0.44154,-0.0449125,0.125122,-0.4366899999999999,-0.0482705,-0.150358,-0.8872,-0.0789084999999999,0.155012,-0.88181,-0.0995465,1
193,0.006638,0.6485730000000001,0.061263,-0.138197,0.484023,0.053106,-0.230607,0.684803,-0.002455,0.138043,0.445663,0.0179679999999999,0.2399029999999999,0.658953,-0.035613,-0.254797,0.937173,-0.023604,0.290553,0.867163,-0.069793,-0.059183,0.001373,0.010119,0.059183,-0.0013729999999999,-0.010119,-0.116607,-0.442797,-0.040522,0.124363,-0.438297,-0.043114,-0.150747,-0.8884569999999999,-0.07631,0.153723,-0.883077,-0.098099,1
194,0.0065214999999999,0.6484825,0.063793,-0.1388125,0.4830225,0.05541,-0.2303725,0.6846125,0.0012279999999999,0.1374875,0.4448825,0.0204279999999999,0.2392975,0.6590725,-0.0313289999999999,-0.2540325,0.9360725,-0.018119,0.2911975,0.8729625,-0.06546,-0.0590765,0.0015925,0.0096329999999999,0.0590765,-0.0015925,-0.009633,-0.1163725,-0.4423275,-0.036371,0.1234975,-0.4399775,-0.038276,-0.1512225,-0.8878875,-0.073694,0.1529775,-0.8845175000000001,-0.095065,1
195,0.006267,0.6482190000000001,0.0661195,-0.13957,0.482059,0.0575954999999999,-0.23043,0.683929,0.0045834999999999,0.13691,0.444289,0.0227904999999999,0.23865,0.6588790000000001,-0.0271695,-0.25388,0.935109,-0.0133205,0.2918699999999999,0.878799,-0.0612145,-0.058939,0.0018079999999999,0.0089784999999999,0.058939,-0.001808,-0.0089785,-0.11635,-0.441761,-0.0327735,0.12256,-0.441511,-0.0341765,-0.15172,-0.887231,-0.0711634999999999,0.15212,-0.8858309999999999,-0.0920365,1
196,0.0059814999999999,0.6481699999999999,0.068347,-0.1404294999999999,0.4815,0.059683,-0.2305995,0.6833699999999999,0.007747,0.1363105,0.44409,0.025075,0.2380304999999999,0.65903,-0.02324,-0.2540894999999999,0.93409,-0.0090059999999999,0.2926005,0.88481,-0.0570219999999999,-0.0588615,0.001963,0.008483,0.0588615,-0.001963,-0.008483,-0.1163294999999999,-0.44114,-0.0293349999999999,0.1216405,-0.44232,-0.0305009999999999,-0.1522095,-0.88671,-0.069036,0.1513804999999999,-0.8865200000000001,-0.0890799999999999,1
197,0.0055475,0.648024,0.0704839999999999,-0.1414285,0.480734,0.061589,-0.2308885,0.682924,0.010799,0.1355315,0.443944,0.027329,0.2373215,0.659044,-0.0194999999999999,-0.2547385,0.932384,-0.005067,0.2922515,0.8844540000000001,-0.053339,-0.0587575,0.002035,0.007887,0.0587575,-0.002035,-0.0078869999999999,-0.1165085,-0.4406359999999999,-0.025997,0.1209015,-0.4431859999999999,-0.027155,-0.1527485,-0.8860859999999999,-0.06695,0.1506915,-0.887336,-0.086035,1
198,0.0049424999999999,0.6476149999999999,0.0725305,-0.1425225,0.479465,0.0633175,-0.2312825,0.6824049999999999,0.0137284999999999,0.1347175,0.443835,0.0296244999999999,0.2365074999999999,0.658755,-0.0159305,-0.2557025,0.930125,-0.0014745,0.2928775,0.890425,-0.0498035,-0.0586315,0.0021119999999999,0.0072154999999999,0.0586315,-0.002112,-0.0072155,-0.1168525,-0.4403249999999999,-0.0228505,0.1201375,-0.4433149999999999,-0.0243705,-0.1533625,-0.885745,-0.0650455,0.1496275,-0.8874850000000001,-0.0834115,1
199,0.004316,0.647596,0.0745155,-0.143608,0.4783659999999999,0.0650435,-0.231718,0.682316,0.0165895,0.133922,0.443916,0.0318565,0.235632,0.658736,-0.0124874999999999,-0.256718,0.928016,0.0016805,0.2935419999999999,0.896706,-0.0462355,-0.058567,0.0021309999999999,0.0066845,0.058567,-0.002131,-0.0066844999999999,-0.1171379999999999,-0.439944,-0.0198905,0.119462,-0.443244,-0.0219305,-0.154008,-0.8853340000000001,-0.0630845,0.148672,-0.887464,-0.0815255,1
200,0.003681,0.647596,0.076451,-0.144654,0.477066,0.066713,-0.232144,0.681926,0.019375,0.133186,0.443746,0.033995,0.234776,0.658736,-0.0090929999999999,-0.257684,0.925696,0.004671,0.293076,0.896546,-0.0429079999999999,-0.058473,0.0021309999999999,0.00605,0.058473,-0.002131,-0.00605,-0.117684,-0.439694,-0.0179019999999999,0.118826,-0.443174,-0.0196939999999999,-0.154694,-0.884974,-0.0613229999999999,0.147856,-0.887454,-0.0796409999999999,1
201,0.0031634999999999,0.647596,0.0780255,-0.1455375,0.4757159999999999,0.0680235,-0.2325175,0.681326,0.0217015,0.1326625,0.443416,0.0358595,0.2340425,0.658736,-0.0062714999999999,-0.2585475,0.924066,0.0067795,0.2923025,0.897316,-0.0396604999999999,-0.0584844999999999,0.0021309999999999,0.0057924999999999,0.0584844999999999,-0.002131,-0.0057924999999999,-0.1181975,-0.439944,-0.0163685,0.1183825,-0.443454,-0.0180434999999999,-0.1552875,-0.8851640000000001,-0.0599955,0.1469525,-0.887764,-0.0780765,1
202,0.0025835,0.647371,0.0797,-0.1464805,0.474321,0.069462,-0.2328805,0.680131,0.0241689999999999,0.1320795,0.443171,0.037793,0.2333295,0.6585110000000001,-0.003428,-0.2597305,0.922901,0.0090109999999999,0.2932695,0.903571,-0.036664,-0.0585155,0.002156,0.0055939999999999,0.0585155,-0.002156,-0.005594,-0.1187204999999999,-0.439969,-0.014866,0.1177795,-0.443819,-0.016529,-0.1560305,-0.885189,-0.058639,0.1461295,-0.888139,-0.076426,1
203,0.0020695,0.6471155,0.0812094999999999,-0.1473235,0.4731255,0.0707875,-0.2331835,0.6787255,0.0264934999999999,0.1315165,0.4430155,0.0395434999999999,0.2326765,0.6581455,-0.0008275,-0.2610234999999999,0.9218555,0.0110204999999999,0.2926065,0.9038055,-0.0340525,-0.0586225,0.0021985,0.0057385,0.0586225,-0.0021985,-0.0057385,-0.1191334999999999,-0.4393745,-0.0135424999999999,0.1171465,-0.4439845,-0.0151905,-0.1568635,-0.8845745,-0.0571454999999999,0.1455965,-0.8883345,-0.0745025,1
204,0.0015645,0.6471105,0.08265,-0.1481495,0.4724205,0.072072,-0.2335195,0.6774805,0.028669,0.1309205,0.4432405,0.041244,0.2320505,0.6580505,0.001501,-0.2626195,0.9212505,0.0129699999999999,0.2919505,0.9042905,-0.031553,-0.0587074999999999,0.0021395,0.005919,0.0587074999999999,-0.0021395,-0.005919,-0.1195194999999999,-0.4385095,-0.012289,0.1165505,-0.4437295,-0.0139219999999999,-0.1575495,-0.8836895,-0.0561,0.1448305,-0.8880795,-0.073308,1
205,0.0010589999999999,0.6470395,0.0839185,-0.148966,0.4718994999999999,0.0731735,-0.233866,0.6761895,0.0306334999999999,0.130484,0.4434595,0.0428215,0.231424,0.6579795,0.0035844999999999,-0.264366,0.9206895,0.0147974999999999,0.291314,0.9048095,-0.0292235,-0.058732,0.0020944999999999,0.0058775,0.058732,-0.0020945,-0.0058775,-0.119846,-0.4378005,-0.0113075,0.116004,-0.4434605,-0.0128525,-0.158286,-0.8829705,-0.0550035,0.1437739999999999,-0.8878005,-0.0727665,1
206,0.0006319999999999,0.6469455,0.085034,-0.149712,0.4714854999999999,0.074117,-0.234152,0.6748655,0.032428,0.130238,0.4437655,0.044272,0.230938,0.6580055,0.005401,-0.266142,0.9200755,0.016366,0.290708,0.9052655,-0.027155,-0.058786,0.0020525,0.006006,0.058786,-0.0020524999999999,-0.0060059999999999,-0.120172,-0.4372045,-0.0105349999999999,0.115478,-0.4432145,-0.0120179999999999,-0.158982,-0.8823745000000001,-0.053756,0.143008,-0.8875645,-0.072213,1
207,0.000286,0.646857,0.0859985,-0.150316,0.471187,0.0749675,-0.234416,0.6737470000000001,0.0340295,0.129954,0.444137,0.0453315,0.2306139999999999,0.6580370000000001,0.0070265,-0.267876,0.919527,0.0177915,0.290234,0.905637,-0.0254105,-0.058837,0.002003,0.0062665,0.058837,-0.0020029999999999,-0.0062664999999999,-0.1203959999999999,-0.436683,-0.0099594999999999,0.115054,-0.442873,-0.0113684999999999,-0.159586,-0.881853,-0.0527015,0.1422139999999999,-0.8872129999999999,-0.0721945,1
208,-1.3000000000000858e-05,0.6467735,0.0867449999999999,-0.1508509999999999,0.4709635,0.0756479999999999,-0.234671,0.6727335,0.035389,0.129699,0.4445035,0.046157,0.230369,0.6580735,0.0083399999999999,-0.269571,0.9191035,0.0190799999999999,0.289929,0.9060035,-0.0239899999999999,-0.058841,0.0019254999999999,0.0063939999999999,0.058841,-0.0019255,-0.006394,-0.120621,-0.4361465,-0.009644,0.114729,-0.4425265,-0.010973,-0.160181,-0.8813065,-0.052152,0.141619,-0.8868465,-0.071646,1
209,-0.0003024999999999,0.6464655,0.0872995,-0.1513574999999999,0.4710554999999999,0.0761975,-0.2349775,0.6716455,0.0364875,0.1294825,0.4448255,0.0468205,0.2301425,0.6579754999999999,0.0093805,-0.2712575,0.9185355,0.0201804999999999,0.2897125,0.9061655,-0.0228655,-0.0588545,0.0018715,0.0065425,0.0588545,-0.0018715,-0.0065425,-0.1208274999999999,-0.4360745,-0.0094824999999999,0.1144225,-0.4423145,-0.0107885,-0.1607475,-0.8811545000000001,-0.0522045,0.1412425,-0.8866845,-0.0706415,1
210,-0.0005739999999999,0.646255,0.0877665,-0.1518199999999999,0.471165,0.0766875,-0.23526,0.670685,0.0375135,0.12917,0.445075,0.0472635,0.22998,0.658095,0.0102935,-0.27292,0.918205,0.0212365,0.28958,0.906315,-0.0218864999999999,-0.058892,0.0018089999999999,0.0067835,0.058892,-0.0018089999999999,-0.0067834999999999,-0.12101,-0.435855,-0.0094174999999999,0.11413,-0.442015,-0.0106814999999999,-0.16125,-0.880865,-0.0523774999999999,0.1408,-0.886445,-0.0700045,1
211,-0.000781,0.646184,0.0879804999999999,-0.152194,0.471024,0.0769715,-0.235524,0.6700039999999999,0.0382825,0.128866,0.445224,0.0474155,0.229866,0.6581739999999999,0.0109104999999999,-0.274474,0.917984,0.0220295,0.2895859999999999,0.906294,-0.0212185,-0.0588709999999999,0.0017919999999999,0.0068534999999999,0.0588709999999999,-0.001792,-0.0068534999999999,-0.121084,-0.435816,-0.0094985,0.113946,-0.441916,-0.0106955,-0.161724,-0.8807860000000001,-0.0522725,0.140276,-0.886286,-0.0703495,1
212,-0.0010265,0.6460995,0.0881619999999999,-0.1522155,0.4709395,0.077641,-0.2358855,0.6694695,0.038978,0.1290345,0.4453495,0.047915,0.2297745,0.6582795,0.011573,-0.2760555,0.9178395,0.022781,0.2895945,0.9062895,-0.020605,-0.0588075,0.0017755,0.0068789999999999,0.0588075,-0.0017755,-0.006879,-0.1212455,-0.4358705,-0.009574,0.1137045,-0.4418005,-0.010728,-0.1621655,-0.8807505,-0.052437,0.1398845,-0.8861705,-0.070291,1
