sb224sc-HT22-VT27/4dt907/src/data/labeled_files/A61_kinect.csv
FrameNo,nose_3d_x,nose_3d_y,nose_3d_z,left_shoulder_3d_x,left_shoulder_3d_y,left_shoulder_3d_z,left_elbow_3d_x,left_elbow_3d_y,left_elbow_3d_z,right_shoulder_3d_x,right_shoulder_3d_y,right_shoulder_3d_z,right_elbow_3d_x,right_elbow_3d_y,right_elbow_3d_z,left_wrist_3d_x,left_wrist_3d_y,left_wrist_3d_z,right_wrist_3d_x,right_wrist_3d_y,right_wrist_3d_z,left_hip_3d_x,left_hip_3d_y,left_hip_3d_z,right_hip_3d_x,right_hip_3d_y,right_hip_3d_z,left_knee_3d_x,left_knee_3d_y,left_knee_3d_z,right_knee_3d_x,right_knee_3d_y,right_knee_3d_z,left_ankle_3d_x,left_ankle_3d_y,left_ankle_3d_z,right_ankle_3d_x,right_ankle_3d_y,right_ankle_3d_z,activity_label
0,-0.0333134999999999,0.7138095,0.0639835,-0.1785485,0.5273395,0.0445415,-0.2472984999999999,0.7329895,-0.0387545,0.1198915,0.5622395,0.0253465,0.1608014999999999,0.8255195,-0.0799595,-0.2364485,1.0004895,-0.1324395,0.1573915,1.0446295,-0.1410595,-0.0774455,-0.0039345,-0.0014474999999999,0.0774455,0.0039345,0.0014475,-0.1271284999999999,-0.4447205,-0.0017404999999999,0.1282415,-0.4457505,0.0120575,-0.1577084999999999,-0.9637805,0.0380585,0.1846114999999999,-0.9588005,0.0358025,0
1,-0.0332599999999999,0.7132685,0.064511,-0.178555,0.5225185,0.044336,-0.247425,0.7319384999999999,-0.0367869999999999,0.119905,0.5624285,0.0263979999999999,0.160475,0.8259785,-0.07827,-0.237225,0.9991385,-0.13158,0.157395,1.0446085,-0.1400499999999999,-0.077452,-0.0041855,-0.001138,0.077452,0.0041855,0.001138,-0.127435,-0.4458315,-0.0011699999999999,0.128125,-0.4454715,0.012145,-0.158415,-0.9635815,0.03943,0.186365,-0.9599215,0.035139,0
2,-0.0334155,0.713136,0.0645565,-0.1789065,0.523536,0.0454515,-0.2477865,0.732316,-0.0366694999999999,0.1197535,0.562706,0.0267535,0.1605035,0.826366,-0.0774595,-0.2377564999999999,0.999486,-0.1315295,0.1574335,1.045906,-0.1390895,-0.0775245,-0.004237,-0.0011124999999999,0.0775245,0.004237,0.0011125,-0.1276565,-0.447074,-0.0010514999999999,0.1278535,-0.445424,0.0124615,-0.1584665,-0.963744,0.0397475,0.1824735,-0.959384,0.0352565,0
3,-0.0333814999999999,0.71357,0.064636,-0.1790025,0.5233300000000001,0.04527,-0.2478725,0.73321,-0.0366119999999999,0.1192875,0.55915,0.027183,0.1600175,0.82326,-0.075723,-0.2382024999999999,1.00028,-0.131863,0.1574475,1.04637,-0.1387129999999999,-0.0775385,-0.004187,-0.0011719999999999,0.0775385,0.004187,0.001172,-0.1257925,-0.45613,-0.0013679999999999,0.1282275,-0.4454599999999999,0.012259,-0.1583024999999999,-0.96283,0.039638,0.1774675,-0.95694,0.036716,0
4,-0.0333695,0.7136465,0.064634,-0.1790014999999999,0.5229364999999999,0.045,-0.2480815,0.7336665,-0.036764,0.1192185,0.5596264999999999,0.0272,0.1600185,0.8238865,-0.075182,-0.2383915,1.0006865,-0.132152,0.1574385,1.0458965,-0.1385219999999999,-0.0775645,-0.0042625,-0.001182,0.0775645,0.0042625,0.001182,-0.1283814999999999,-0.4559735,-0.00171,0.1281985,-0.4454035,0.0121789999999999,-0.1579414999999999,-0.9627035,0.039522,0.1760985,-0.9573435,0.034752,0
5,-0.0333905,0.712876,0.0645475,-0.1786495,0.522736,0.0451105,-0.2479694999999999,0.731906,-0.0361984999999999,0.1191105,0.559186,0.0274415,0.1599905,0.823366,-0.0751545,-0.2384895,0.998806,-0.1320445,0.1575105,1.046016,-0.1377245,-0.0774735,-0.003997,-0.0007244999999999,0.0774735,0.003997,0.0007245,-0.1285494999999999,-0.455724,-0.0015154999999999,0.1282205,-0.445644,0.0118765,-0.1576395,-0.964094,0.0397115,0.1760005,-0.958134,0.0344735,0
6,-0.0335375,0.7131095000000001,0.0646465,-0.1789494999999999,0.5206895,0.0442305,-0.2481495,0.7326495000000001,-0.0364434999999999,0.1188505,0.5579295000000001,0.0275875,0.1611604999999999,0.8223495000000001,-0.0735275,-0.2385495,0.9994095,-0.1327074999999999,0.1574505,1.0451195,-0.1367175,-0.0774285,-0.0040985,-0.0004824999999999,0.0774285,0.0040985,0.0004825,-0.1286795,-0.4557905,-0.0012464999999999,0.1292605,-0.4453605,0.0119795,-0.1579795,-0.9637305,0.0385435,0.1789905,-0.9688105,0.0491315,0
7,-0.0335325,0.7133525,0.064542,-0.1788745,0.5209725,0.043931,-0.2477645,0.7353525,-0.038036,0.1193355,0.5584825,0.0277259999999999,0.1620154999999999,0.8077825,-0.067575,-0.2376545,1.0010125,-0.133635,0.1580555,1.0458225,-0.136575,-0.0773925,-0.0038155,-0.000418,0.0773925,0.0038155,0.0004179999999999,-0.1290545,-0.4547875,-0.002044,0.1283455,-0.4458675,0.0112229999999999,-0.1594445,-0.9651175,0.0344639999999999,0.1767455,-0.9635375,0.0335209999999999,0
8,-0.0336995,0.713357,0.0644395,-0.1789465,0.520447,0.0435954999999999,-0.2478064999999999,0.736287,-0.0383385,0.1191734999999999,0.558147,0.0278254999999999,0.1622435,0.802637,-0.0654395,-0.2376665,1.001617,-0.1341494999999999,0.1581035,1.046137,-0.1361494999999999,-0.0773715,-0.003759,-0.0002945,0.0773715,0.003759,0.0002944999999999,-0.1293564999999999,-0.454673,-0.0022955,0.1282935,-0.445913,0.0109854999999999,-0.1598564999999999,-0.965243,0.0332654999999999,0.1757235,-0.964063,0.0327364999999999,0
9,-0.0339165,0.7134585,0.0642585,-0.1790985,0.5203085000000001,0.0431585,-0.2478485,0.7372385,-0.0387374999999999,0.1189715,0.5579885,0.0278695,0.1624515,0.7986185,-0.0635154999999999,-0.2376285,1.0023485,-0.1347304999999999,0.1581115,1.0464485,-0.1358305,-0.0773804999999999,-0.0036965,-0.0002464999999999,0.0773804999999999,0.0036965,0.0002465,-0.1296185,-0.4545615,-0.0025694999999999,0.1281915,-0.4459715,0.0107135,-0.1603185,-0.9654915,0.0319875,0.1750915,-0.9636815,0.0322705,0
10,-0.0341604999999999,0.713513,0.064077,-0.1792585,0.519963,0.0427219999999999,-0.2478885,0.737983,-0.039146,0.1187415,0.557953,0.027846,0.1626415,0.794323,-0.061536,-0.2375685,1.0028830000000002,-0.135336,0.1581215,1.046483,-0.135566,-0.0774185,-0.003658,-0.0002899999999999,0.0774185,0.003658,0.0002899999999999,-0.1298685,-0.454527,-0.002815,0.1280615,-0.445997,0.0104569999999999,-0.1608085,-0.965887,0.030791,0.1745015,-0.963467,0.031757,0
11,-0.034433,0.7136100000000001,0.063837,-0.179452,0.5197200000000001,0.042243,-0.247912,0.7387,-0.039619,0.1185479999999999,0.55766,0.027768,0.162938,0.7898700000000001,-0.059791,-0.237462,1.00337,-0.135928,0.1581179999999999,1.04657,-0.135468,-0.077438,-0.0035719999999999,-0.0003209999999999,0.077438,0.0035719999999999,0.000321,-0.130142,-0.45417,-0.0031369999999999,0.1280279999999999,-0.44609,0.010215,-0.161252,-0.96637,0.029674,0.173918,-0.96338,0.031059,0
12,-0.034813,0.713764,0.063473,-0.179666,0.5194639999999999,0.041779,-0.2479859999999999,0.7393839999999999,-0.0400979999999999,0.1183039999999999,0.557434,0.0275079999999999,0.163074,0.7866339999999999,-0.058408,-0.2373259999999999,1.003914,-0.136486,0.158024,1.046914,-0.135536,-0.0774479999999999,-0.0035589999999999,-0.000364,0.0774479999999999,0.003559,0.0003639999999999,-0.130426,-0.453736,-0.003428,0.127994,-0.4461159999999999,0.010179,-0.161706,-0.966546,0.028226,0.173124,-0.962816,0.030187,0
13,-0.0352329999999999,0.7139034999999999,0.0630405,-0.179911,0.5192235,0.0412695,-0.2480709999999999,0.7400534999999999,-0.0406085,0.118039,0.5574334999999999,0.0271785,0.163159,0.7832034999999999,-0.0575214999999999,-0.237331,1.0045435,-0.1370895,0.157919,1.0472435,-0.1356395,-0.077431,-0.0036195,-0.0002715,0.077431,0.0036195,0.0002715,-0.1307309999999999,-0.4534565,-0.0038294999999999,0.127959,-0.4460665,0.0101405,-0.162191,-0.9664265,0.0270605,0.172969,-0.9632365,0.0295905,0
14,-0.035637,0.714007,0.0626805,-0.180132,0.519247,0.0408085,-0.248132,0.7405769999999999,-0.0410395,0.117778,0.5575169999999999,0.0268225,0.163118,0.782347,-0.0580365,-0.237322,1.004927,-0.1376204999999999,0.157818,1.047627,-0.1358005,-0.077426,-0.003703,-0.0002314999999999,0.077426,0.003703,0.0002315,-0.131012,-0.453233,-0.0041994999999999,0.127858,-0.445983,0.0100745,-0.162652,-0.966343,0.0262535,0.172618,-0.962523,0.0286445,0
15,-0.0361295,0.7141940000000001,0.062023,-0.1803525,0.5191840000000001,0.04026,-0.2482525,0.741194,-0.041781,0.1174975,0.557454,0.026313,0.1630575,0.7822840000000001,-0.058745,-0.2373425,1.005564,-0.138463,0.1577174999999999,1.047964,-0.136483,-0.0774115,-0.00364,-0.0001039999999999,0.0774115,0.00364,0.0001039999999999,-0.1312125,-0.452966,-0.0046199999999999,0.1278274999999999,-0.446046,0.009946,-0.1630925,-0.966406,0.025532,0.1730574999999999,-0.961056,0.02785,0
16,-0.0365595,0.7142325,0.061417,-0.1805545,0.5190725,0.039828,-0.2483045,0.7420225,-0.042456,0.1173154999999999,0.5575125,0.025845,0.1627855,0.7821025,-0.059425,-0.2374845,1.0056825,-0.139243,0.1576455,1.0481825,-0.137133,-0.0774334999999999,-0.0036155,-1.2000000000001593e-05,0.0774334999999999,0.0036155,1.1999999999998123e-05,-0.1313645,-0.4528875,-0.0049589999999999,0.1278355,-0.4460575,0.0098919999999999,-0.1633645,-0.9663375,0.0249859999999999,0.1737255,-0.9606175,0.027093,0
17,-0.0369605,0.714269,0.0608365,-0.1807085,0.519019,0.0395105,-0.2483585,0.742699,-0.0430025,0.1171315,0.557509,0.0253415,0.1628115,0.783469,-0.0601035,-0.2376085,1.005649,-0.1399475,0.1576015,1.048349,-0.1377575,-0.0774095,-0.003583,0.0001594999999999,0.0774095,0.003583,-0.0001594999999999,-0.1314785,-0.452851,-0.0052595,0.1278515,-0.446111,0.0098374999999999,-0.1635285,-0.966281,0.0247695,0.1742415,-0.959971,0.0265504999999999,0
18,-0.037319,0.714437,0.060312,-0.180802,0.519457,0.039315,-0.248372,0.741377,-0.0433049999999999,0.117028,0.557717,0.024842,0.162908,0.7838269999999999,-0.060603,-0.237732,1.005197,-0.140917,0.157608,1.048397,-0.138347,-0.077334,-0.003711,0.000406,0.077334,0.003711,-0.000406,-0.131522,-0.4529729999999999,-0.005391,0.127968,-0.4459729999999999,0.009797,-0.163702,-0.966203,0.02481,0.174918,-0.960893,0.026167,0
19,-0.037657,0.7146435,0.059861,-0.180903,0.5198134999999999,0.039087,-0.248373,0.7401034999999999,-0.0435869999999999,0.1169369999999999,0.5577934999999999,0.024318,0.163067,0.7842334999999999,-0.061007,-0.237803,1.0046935,-0.141588,0.157617,1.0485935,-0.1388579999999999,-0.07723,-0.0038855,0.000703,0.07723,0.0038855,-0.0007029999999999,-0.1315629999999999,-0.4530765,-0.0055029999999999,0.128097,-0.4458165,0.009777,-0.163853,-0.9661065,0.024998,0.174477,-0.9608365,0.027222,0
20,-0.0379395,0.7148334999999999,0.059491,-0.1809505,0.5202435,0.038911,-0.2483205,0.7391135,-0.043807,0.1168895,0.5576635,0.023906,0.1632495,0.7847934999999999,-0.061366,-0.2378404999999999,1.0041735,-0.142074,0.1576595,1.0486735,-0.139214,-0.0771495,-0.0040295,0.000954,0.0771495,0.0040295,-0.000954,-0.1315605,-0.4532065,-0.005547,0.1281095,-0.4456765,0.009761,-0.1639505,-0.9660965,0.025427,0.1754595,-0.9613165,0.028153,0
21,-0.0380945,0.714944,0.05931,-0.1809595,0.520774,0.038798,-0.2482395,0.738324,-0.043834,0.1168705,0.557714,0.023726,0.1633005,0.784594,-0.061581,-0.2378595,1.003534,-0.142413,0.1577704999999999,1.048834,-0.139323,-0.0770815,-0.004182,0.001146,0.0770815,0.004182,-0.0011459999999999,-0.1315295,-0.453366,-0.005496,0.1281405,-0.445516,0.009636,-0.1640094999999999,-0.966096,0.025913,0.1771205,-0.961966,0.029115,0
22,-0.03821,0.714939,0.0591845,-0.180934,0.520999,0.0387505,-0.248164,0.737569,-0.0437895,0.116916,0.5578989999999999,0.0236194999999999,0.163366,0.7840889999999999,-0.0617185,-0.237854,1.002809,-0.1426095,0.157876,1.048809,-0.1393795,-0.077042,-0.004262,0.0012094999999999,0.077042,0.004262,-0.0012095,-0.131474,-0.453601,-0.0053865,0.128186,-0.445451,0.0095605,-0.164004,-0.966141,0.0265105,0.178656,-0.962911,0.0300665,0
23,-0.038323,0.7149715000000001,0.0590595,-0.1808969999999999,0.5213815,0.0387585,-0.248057,0.7368515,-0.0437225,0.116963,0.5580915000000001,0.0235475,0.163453,0.7833715,-0.0618384999999999,-0.237827,1.0021315,-0.1427825,0.158053,1.0489315,-0.1394125,-0.077011,-0.0043915,0.0012894999999999,0.077011,0.0043915,-0.0012894999999999,-0.1313969999999999,-0.4537585,-0.0052295,0.128153,-0.4453285,0.0095135,-0.163957,-0.9661185,0.0272595,0.179923,-0.9636985,0.0307335,0
24,-0.038423,0.7149545,0.0588685,-0.1808469999999999,0.5214545,0.0387395,-0.2479569999999999,0.7360045,-0.0437215,0.1170529999999999,0.5581245,0.0234615,0.163573,0.7822745,-0.0617415,-0.237807,1.0013745,-0.1430585,0.158333,1.0489745,-0.1394685,-0.076988,-0.0044275,0.0013305,0.076988,0.0044275,-0.0013304999999999,-0.131317,-0.4540055,-0.0050434999999999,0.128153,-0.4453155,0.0094695,-0.163907,-0.9661655,0.0279825,0.1807829999999999,-0.9652955,0.0311425,0
25,-0.038515,0.71507,0.0586675,-0.180779,0.52186,0.0387654999999999,-0.247879,0.73541,-0.0436724999999999,0.117141,0.55815,0.0233034999999999,0.163681,0.78175,-0.0620635,-0.2377889999999999,1.00076,-0.1433434999999999,0.1585909999999999,1.04916,-0.1397235,-0.076959,-0.004532,0.0013214999999999,0.076959,0.004532,-0.0013214999999999,-0.1312289999999999,-0.45413,-0.0048585,0.128181,-0.44523,0.0094234999999999,-0.163849,-0.96611,0.0286345,0.180871,-0.96664,0.0315994999999999,0
26,-0.0385885,0.715078,0.0583985,-0.1806215,0.522108,0.0387275,-0.2477915,0.7348880000000001,-0.0436875,0.1172585,0.558308,0.0232245,0.1638085,0.780858,-0.0623455,-0.2377515,1.000288,-0.1436745,0.1589085,1.049288,-0.1399345,-0.0769305,-0.0045039999999999,0.0013065,0.0769305,0.004504,-0.0013064999999999,-0.1311315,-0.454292,-0.0046835,0.1281985,-0.445262,0.0093905,-0.1637914999999999,-0.966232,0.0292165,0.1809285,-0.967912,0.0319885,0
27,-0.038633,0.7149935000000001,0.058217,-0.180476,0.5218935,0.038557,-0.247686,0.7347735000000001,-0.043736,0.1173239999999999,0.5582435,0.023045,0.163984,0.7804635000000001,-0.062244,-0.237686,1.0001735,-0.143856,0.159244,1.0494735,-0.140126,-0.076882,-0.0043875,0.0012399999999999,0.076882,0.0043874999999999,-0.00124,-0.131016,-0.4544165,-0.004678,0.128224,-0.4453965,0.009335,-0.163716,-0.9661765,0.029588,0.181164,-0.9681265,0.032048,0
28,-0.0386724999999999,0.7150219999999999,0.058062,-0.1803705,0.5218119999999999,0.038422,-0.2476005,0.734772,-0.0438569999999999,0.1173595,0.5581619999999999,0.022723,0.1640995,0.780382,-0.0622709999999999,-0.2376205,1.000192,-0.143986,0.1595794999999999,1.049592,-0.140286,-0.0768425,-0.004306,0.001152,0.0768425,0.0043059999999999,-0.001152,-0.1309205,-0.454438,-0.004652,0.1282595,-0.445478,0.009314,-0.1636105,-0.966258,0.029788,0.1802295,-0.967288,0.032115,0
29,-0.038722,0.715109,0.057913,-0.180338,0.521799,0.038112,-0.247548,0.734789,-0.044003,0.117392,0.558149,0.02242,0.164222,0.7803690000000001,-0.062388,-0.237578,1.000179,-0.144097,0.159902,1.049679,-0.140417,-0.07681,-0.0042929999999999,0.001038,0.07681,0.004293,-0.001038,-0.130838,-0.454401,-0.0046219999999999,0.128352,-0.445491,0.009293,-0.163528,-0.966101,0.029814,0.180302,-0.967081,0.032338,0
30,-0.0387385,0.715109,0.057924,-0.1802095,0.5213190000000001,0.037849,-0.2474595,0.7346790000000001,-0.0439289999999999,0.1175005,0.5580090000000001,0.022496,0.1643305,0.7801290000000001,-0.0621899999999999,-0.2375094999999999,1.000079,-0.143988,0.1602005,1.049679,-0.140178,-0.0767835,-0.0042929999999999,0.000949,0.0767835,0.004293,-0.0009489999999999,-0.1307995,-0.454401,-0.0046889999999999,0.1283605,-0.445501,0.009103,-0.1634995,-0.966151,0.029703,0.1802305,-0.967751,0.032235,0
31,-0.038747,0.7151244999999999,0.0579309999999999,-0.180066,0.5208245,0.037589,-0.247356,0.7345444999999999,-0.043848,0.117604,0.5577245,0.02258,0.164454,0.7797245,-0.06206,-0.237426,0.9999945,-0.143874,0.1605039999999999,1.0496945000000002,-0.139914,-0.07677,-0.0042794999999999,0.0008809999999999,0.07677,0.0042795,-0.0008809999999999,-0.1307559999999999,-0.4543855,-0.004739,0.128374,-0.4455355,0.0089319999999999,-0.163456,-0.9661755,0.0296069999999999,0.1797039999999999,-0.9676155,0.031583,0
32,-0.038782,0.7151565,0.0579505,-0.1799339999999999,0.5202865,0.0373875,-0.247284,0.7344765,-0.0438315,0.117716,0.5573665,0.0226725,0.1645459999999999,0.7792165,-0.0619355,-0.237374,0.9999265,-0.1438305,0.1607259999999999,1.0497265,-0.1397105,-0.076749,-0.0042515,0.0008045,0.076749,0.0042515,-0.0008044999999999,-0.130734,-0.4543534999999999,-0.0047894999999999,0.1283059999999999,-0.4455834999999999,0.0088575,-0.163464,-0.9662935,0.0294725,0.1793659999999999,-0.9675935,0.0308755,1
33,-0.038844,0.715246,0.058162,-0.179928,0.519656,0.037134,-0.247268,0.734626,-0.043765,0.1177419999999999,0.557346,0.022763,0.164672,0.779826,-0.062,-0.237208,1.000136,-0.143434,0.160882,1.050236,-0.139404,-0.0767539999999999,-0.0041699999999999,0.0007419999999999,0.0767539999999999,0.00417,-0.0007419999999999,-0.130768,-0.454324,-0.004822,0.128252,-0.445674,0.008773,-0.163518,-0.966174,0.029312,0.178622,-0.966544,0.030104,1
34,-0.038905,0.7153185,0.058348,-0.179932,0.5192185,0.036944,-0.247272,0.7348685,-0.0438129999999999,0.1177479999999999,0.5574085,0.022869,0.164788,0.7806585,-0.0620649999999999,-0.237042,1.0004285,-0.143132,0.161038,1.0506285,-0.139102,-0.0767579999999999,-0.0041214999999999,0.000687,0.0767579999999999,0.0041215,-0.000687,-0.130822,-0.4543315,-0.0048489999999999,0.128248,-0.4457514999999999,0.008666,-0.163642,-0.9660715,0.029041,0.178388,-0.9658515,0.029296,1
35,-0.0389455,0.7154164999999999,0.0585305,-0.1799434999999999,0.5187164999999999,0.0366635,-0.2472835,0.7352065,-0.0438345,0.1177465,0.5575564999999999,0.0228955,0.1649065,0.7814865,-0.0620965,-0.2369135,1.0008565,-0.1429835,0.1611564999999999,1.0509565,-0.1387935,-0.0767635,-0.0040944999999999,0.0006285,0.0767635,0.0040945,-0.0006285,-0.1309035,-0.4544335,-0.0048554999999999,0.1282364999999999,-0.4457935,0.0085575,-0.1637635,-0.9660735,0.0286475,0.1772265,-0.9646035,0.0286355,1
36,-0.0390125,0.715631,0.0586065,-0.1800235,0.5180710000000001,0.0362405,-0.2473435,0.735491,-0.0438694999999999,0.1176164999999999,0.5575910000000001,0.0228015,0.1649564999999999,0.782581,-0.0622864999999999,-0.2368535,1.001241,-0.1428605,0.1612265,1.051341,-0.1386204999999999,-0.0767775,-0.0041649999999999,0.0005885,0.0767775,0.004165,-0.0005884999999999,-0.1310235,-0.454389,-0.0048874999999999,0.1280764999999999,-0.445789,0.0082855,-0.1639335,-0.965909,0.0282305,0.1760364999999999,-0.963169,0.0280425,1
37,-0.0390355,0.7158800000000001,0.0585495,-0.1800324999999999,0.5176200000000001,0.0358205,-0.2473925,0.7357800000000001,-0.0439545,0.1175575,0.5575100000000001,0.0226395,0.1650674999999999,0.7838700000000001,-0.0626055,-0.2367625,1.0016500000000002,-0.1429165,0.1613474999999999,1.05175,-0.1386365,-0.0767765,-0.004234,0.0005434999999999,0.0767765,0.004234,-0.0005434999999999,-0.1310325,-0.45436,-0.0049524999999999,0.1279874999999999,-0.4458,0.0079255,-0.1640525,-0.96581,0.0277705,0.1754775,-0.96216,0.0275295,1
38,-0.039058,0.7161839999999999,0.058453,-0.1801269999999999,0.517124,0.035365,-0.247487,0.7361639999999999,-0.044169,0.117473,0.557434,0.022429,0.165173,0.785604,-0.062986,-0.2367469999999999,1.002044,-0.142973,0.161453,1.051944,-0.1386929999999999,-0.076781,-0.004339,0.0005159999999999,0.076781,0.004339,-0.0005159999999999,-0.131097,-0.454246,-0.0050359999999999,0.127873,-0.445756,0.007434,-0.1641969999999999,-0.965626,0.027274,0.175203,-0.961066,0.027014,1
39,-0.039109,0.716431,0.058358,-0.180237,0.516761,0.035088,-0.247637,0.7365710000000001,-0.044425,0.117343,0.557521,0.022147,0.165263,0.787401,-0.06351,-0.236747,1.002531,-0.143057,0.1615629999999999,1.052031,-0.138837,-0.076798,-0.004431,0.000486,0.076798,0.004431,-0.000486,-0.131087,-0.454199,-0.0051669999999999,0.1277029999999999,-0.445719,0.006602,-0.164347,-0.965389,0.026762,0.174983,-0.960539,0.026563,1
40,-0.0391325,0.716632,0.0580295,-0.1803344999999999,0.5163920000000001,0.0345135,-0.2477845,0.7369020000000001,-0.0450505,0.1172455,0.5575220000000001,0.0216285,0.1654355,0.788432,-0.0640475,-0.2367145,1.002962,-0.1433695,0.1617155,1.052062,-0.1390995,-0.0768504999999999,-0.004555,0.0005735,0.0768504999999999,0.004555,-0.0005734999999999,-0.1311245,-0.454518,-0.0055144999999999,0.1271055,-0.445828,0.0047375,-0.1645045,-0.965128,0.0255245,0.1748955,-0.959798,0.0257265,1
41,-0.039016,0.716839,0.056517,-0.180216,0.516069,0.032949,-0.247716,0.7365689999999999,-0.046747,0.1173539999999999,0.557469,0.020146,0.165974,0.788289,-0.0664049999999999,-0.236476,1.002699,-0.14477,0.162144,1.052299,-0.14082,-0.0768929999999999,-0.004746,0.00086,0.0768929999999999,0.004746,-0.0008599999999999,-0.130926,-0.455101,-0.0067509999999999,0.126204,-0.4460309999999999,0.000566,-0.164406,-0.964561,0.023481,0.175154,-0.959261,0.024052,1
42,-0.0388595,0.7169985000000001,0.054336,-0.1800245,0.5159385000000001,0.030981,-0.2476245,0.7357385000000001,-0.049216,0.1175555,0.5571385000000001,0.01831,0.1665454999999999,0.7878485000000001,-0.069719,-0.2361445,1.0018985,-0.147015,0.1625555,1.0521985,-0.143415,-0.0769775,-0.0049955,0.001071,0.0769775,0.0049955,-0.0010709999999999,-0.1307645,-0.4557415,-0.009574,0.1252655,-0.4462215,-0.0044169999999999,-0.1641845,-0.9639815,0.021272,0.1750354999999999,-0.9588815,0.022084,1
43,-0.038625,0.7172895,0.05106,-0.179692,0.5162595,0.028228,-0.247562,0.7349395,-0.052956,0.117898,0.5573595,0.015583,0.167248,0.7880495,-0.0743849999999999,-0.235712,1.0010095,-0.150592,0.163028,1.0520095,-0.147672,-0.077031,-0.0053095,0.001683,0.077031,0.0053095,-0.001683,-0.130652,-0.4564205,-0.013654,0.124328,-0.4463205,-0.0108599999999999,-0.163842,-0.9628605,0.01822,0.175338,-0.9575705,0.019145,1
44,-0.0382975,0.71747,0.0467155,-0.1792145,0.51693,0.0247855,-0.2474644999999999,0.73426,-0.0577754999999999,0.1183555,0.55777,0.0120834999999999,0.1681055,0.78688,-0.0801375,-0.2352245,1.00032,-0.1553555,0.1633855,1.0508,-0.1534755,-0.0769905,-0.0055499999999999,0.0024595,0.0769905,0.0055499999999999,-0.0024595,-0.1306545,-0.45668,-0.0187845,0.1235655,-0.4464499999999999,-0.0186565,-0.1633744999999999,-0.96107,0.0144854999999999,0.1754055,-0.95547,0.0158125,1
45,-0.0379705,0.7170905,0.0411949999999999,-0.1786935,0.5179705,0.0207879999999999,-0.2475135,0.7334505,-0.063748,0.1188065,0.5584005,0.0078059999999999,0.1690364999999999,0.7866105,-0.086327,-0.2348035,0.9994405,-0.161681,0.1637165,1.0496505,-0.160471,-0.0769335,-0.0057555,0.0033759999999999,0.0769335,0.0057555,-0.003376,-0.1307134999999999,-0.4567095,-0.02448,0.1228865,-0.4465395,-0.02778,-0.1627934999999999,-0.9588295,0.0103379999999999,0.1755565,-0.9526095,0.0118299999999999,1
46,-0.037603,0.716334,0.0348835,-0.1780489999999999,0.518834,0.0163395,-0.247619,0.732394,-0.0704475,0.119311,0.558844,0.0030454999999999,0.169971,0.786324,-0.0933755,-0.234349,0.998344,-0.1685555,0.164051,1.0483239999999998,-0.1684655,-0.076857,-0.005814,0.0043104999999999,0.076857,0.005814,-0.0043105,-0.131319,-0.4567859999999999,-0.0316315,0.1224909999999999,-0.446616,-0.0375935,-0.162259,-0.956416,0.0052615,0.175701,-0.949886,0.0074185,1
47,-0.0371555,0.715326,0.0274255,-0.1774365,0.518826,0.0107375,-0.2479365,0.731186,-0.0784175,0.1194735,0.557396,-0.0042924999999999,0.1708934999999999,0.785636,-0.1017474999999999,-0.2339264999999999,0.997116,-0.1766875,0.1643035,1.046586,-0.1777274999999999,-0.0768345,-0.005884,0.0052565,0.0768345,0.005884,-0.0052565,-0.1320164999999999,-0.456924,-0.0391775,0.1223935,-0.446744,-0.0478745,-0.1616865,-0.953774,-0.0001415,0.1760634999999999,-0.946114,0.0026775,1
48,-0.0365775,0.713778,0.0192865,-0.1766605,0.518938,0.0050595,-0.2482705,0.7295780000000001,-0.0871535,0.1198394999999999,0.5560280000000001,-0.0117995,0.1719095,0.7834380000000001,-0.1108495,-0.2333205,0.995358,-0.1857895,0.1645194999999999,1.043998,-0.1876695,-0.0768015,-0.0059139999999999,0.0061495,0.0768015,0.005914,-0.0061495,-0.1326905,-0.457072,-0.0471285,0.1227095,-0.446832,-0.0583635,-0.1609605,-0.950252,-0.0056635,0.1766194999999999,-0.942322,-0.0022574999999999,1
49,-0.0363389999999999,0.7124145000000001,0.0105125,-0.1761519999999999,0.5193245000000001,-0.0011935,-0.248892,0.7284045,-0.0965085,0.120098,0.5539645000000001,-0.0205315,0.172638,0.7813245000000001,-0.1208035,-0.232782,0.9939645,-0.1956235,0.164258,1.0417645,-0.1983635,-0.076875,-0.0058475,0.0070685,0.076875,0.0058475,-0.0070685,-0.1339119999999999,-0.4561455,-0.0556925,0.122838,-0.4466455,-0.0687784999999999,-0.160572,-0.9452055,-0.0106755,0.176868,-0.9372555,-0.0071625,1
50,-0.0366745,0.710409,0.0021654999999999,-0.1762265,0.519619,-0.0069405,-0.2500564999999999,0.727689,-0.1056825,0.1197935,0.552279,-0.0285925,0.1726434999999999,0.7784989999999999,-0.1300125,-0.2326165,0.993119,-0.2049524999999999,0.1632535,1.039969,-0.2081424999999999,-0.0769845,-0.005593,0.0076855,0.0769845,0.0055929999999999,-0.0076855,-0.1359265,-0.454241,-0.0639035,0.1224734999999999,-0.446351,-0.0775055,-0.1610065,-0.939131,-0.0150075,0.1763035,-0.932031,-0.0110365,1
51,-0.0372035,0.7078005,-0.0058064999999999,-0.1764815,0.5196105,-0.0123334999999999,-0.2513614999999999,0.7264105,-0.1147525,0.1192985,0.5510105,-0.0360855,0.1724685,0.7750205,-0.1389125,-0.2322615,0.9915305,-0.2145925,0.1618285,1.0382205,-0.2174125,-0.0770675,-0.0053805,0.0082185,0.0770675,0.0053805,-0.0082185,-0.1383215,-0.4517695,-0.0708735,0.1219185,-0.4458495,-0.0857155,-0.1616415,-0.9326495,-0.0187745,0.1757185,-0.9268595,-0.0145134999999999,1
52,-0.037791,0.705096,-0.013037,-0.176822,0.515526,-0.018058,-0.252552,0.726016,-0.1234099999999999,0.118758,0.549086,-0.043634,0.172278,0.771166,-0.14736,-0.231502,0.990836,-0.22367,0.159958,1.037236,-0.22558,-0.077064,-0.005162,0.0083319999999999,0.077064,0.005162,-0.008332,-0.140872,-0.447694,-0.077361,0.1219079999999999,-0.444104,-0.093077,-0.162292,-0.924674,-0.021515,0.174508,-0.919784,-0.016506,1
53,-0.038122,0.702025,-0.0195345,-0.177094,0.5117849999999999,-0.0228405,-0.253374,0.726175,-0.1315915,0.1185459999999999,0.547525,-0.0503175,0.1721059999999999,0.770485,-0.1551015,-0.230524,0.990285,-0.2318615,0.1575359999999999,1.033725,-0.2335615,-0.077078,-0.0051199999999999,0.0081625,0.077078,0.0051199999999999,-0.0081625,-0.143304,-0.443295,-0.0833525,0.122586,-0.441365,-0.0996095,-0.162904,-0.916035,-0.0232315,0.173456,-0.912295,-0.0174595,1
54,-0.038313,0.698875,-0.025518,-0.177392,0.507995,-0.027312,-0.254102,0.7267250000000001,-0.139727,0.118428,0.5460250000000001,-0.056637,0.171838,0.768915,-0.162767,-0.229442,0.989355,-0.239487,0.1550379999999999,1.031795,-0.240467,-0.077149,-0.005072,0.007952,0.077149,0.005072,-0.007952,-0.145662,-0.438225,-0.089252,0.123608,-0.437515,-0.1053659999999999,-0.163472,-0.907555,-0.024245,0.172518,-0.904265,-0.017793,1
55,-0.0386085,0.695724,-0.0312705,-0.1778295,0.504924,-0.0318775,-0.2551495,0.727924,-0.1480965,0.1181204999999999,0.542994,-0.0628195,0.1715105,0.767684,-0.1703765,-0.2283794999999999,0.981994,-0.2467365,0.1521505,1.031414,-0.2466165,-0.0773965,-0.0051719999999999,0.0079725,0.0773965,0.005172,-0.0079725,-0.1477195,-0.432056,-0.0944995,0.1247505,-0.432526,-0.1114995,-0.1641794999999999,-0.898266,-0.0254515,0.1715605,-0.895496,-0.0179475,1
56,-0.039346,0.6915115000000001,-0.0369375,-0.178714,0.5015115,-0.0366905,-0.256594,0.7286115000000001,-0.1561145,0.117626,0.5428515,-0.0671814999999999,0.170686,0.7668315,-0.1779745,-0.227724,0.9745215,-0.2529645,0.148726,1.0318915,-0.2521645,-0.077703,-0.0052915,0.0079975,0.077703,0.0052914999999999,-0.0079975,-0.150364,-0.4253485,-0.1006825,0.125476,-0.4265485,-0.1182845,-0.165324,-0.8879484999999999,-0.0271505,0.1701359999999999,-0.8858284999999999,-0.0181145,1
57,-0.040415,0.68968,-0.042652,-0.179876,0.49996,-0.042115,-0.258366,0.73162,-0.164144,0.116644,0.5395,-0.073513,0.169564,0.76762,-0.185264,-0.227216,0.97059,-0.258614,0.144804,1.03395,-0.257504,-0.078267,-0.005094,0.008044,0.078267,0.005094,-0.0080439999999999,-0.153716,-0.41569,-0.108086,0.126014,-0.4170399999999999,-0.125404,-0.166716,-0.87401,-0.0297699999999999,0.168424,-0.87192,-0.017974,1
58,-0.0414309999999999,0.686834,-0.0477925,-0.1811559999999999,0.498134,-0.0468955,-0.260086,0.728054,-0.1713755,0.115674,0.5374939999999999,-0.0784135,0.168314,0.7682739999999999,-0.1925155,-0.2270259999999999,0.966604,-0.2641354999999999,0.140724,1.035704,-0.2627655,-0.078906,-0.005107,0.0077434999999999,0.078906,0.005107,-0.0077434999999999,-0.1570059999999999,-0.406516,-0.1151254999999999,0.126234,-0.407526,-0.1323855,-0.1679659999999999,-0.8606959999999999,-0.0298195,0.166384,-0.858846,-0.0177335,1
59,-0.0425775,0.683992,-0.0524629999999999,-0.1826445,0.4947519999999999,-0.051815,-0.2615645,0.725852,-0.177422,0.1150255,0.536372,-0.082828,0.1668755,0.770062,-0.199622,-0.2269945,0.963582,-0.269472,0.1366655,1.037972,-0.267812,-0.0794365,-0.005358,0.007484,0.0794365,0.005358,-0.0074839999999999,-0.1602144999999999,-0.3968779999999999,-0.1213819999999999,0.1260055,-0.397018,-0.138602,-0.1695345,-0.8474379999999999,-0.0314669999999999,0.1642955,-0.846198,-0.0180989999999999,1
60,-0.0438755,0.68179,-0.0571114999999999,-0.1842475,0.49209,-0.0565615,-0.2631274999999999,0.72404,-0.1828275,0.1140225,0.53369,-0.0883485,0.1654824999999999,0.7659699999999999,-0.2062175,-0.2276775,0.95619,-0.2750674999999999,0.1324525,1.03273,-0.2733474999999999,-0.0801305,-0.0054899999999999,0.0072375,0.0801305,0.0054899999999999,-0.0072374999999999,-0.1634475,-0.38508,-0.1272275,0.1252325,-0.3841300000000001,-0.1445475,-0.1712575,-0.83107,-0.0311285,0.1618524999999999,-0.83064,-0.0173245,1
61,-0.0452235,0.67872,-0.0641839999999999,-0.1858874999999999,0.49278,-0.062759,-0.2647775,0.7210000000000001,-0.190707,0.1127525,0.5314099999999999,-0.095553,0.1639225,0.7622500000000001,-0.214167,-0.2283875,0.94906,-0.282607,0.1285125,1.02792,-0.280577,-0.0806755,-0.0054899999999999,0.007149,0.0806755,0.0054899999999999,-0.0071489999999999,-0.1665875,-0.37411,-0.134657,0.1241125,-0.37198,-0.152617,-0.1731774999999999,-0.81612,-0.0344169999999999,0.1593025,-0.8159700000000001,-0.0188979999999999,1
62,-0.046381,0.6758299999999999,-0.071079,-0.187169,0.49254,-0.069404,-0.266249,0.71733,-0.198511,0.110851,0.52879,-0.103011,0.162161,0.75878,-0.2221209999999999,-0.229039,0.94285,-0.290161,0.126431,1.0271,-0.286721,-0.0811699999999999,-0.00545,0.007101,0.0811699999999999,0.0054499999999999,-0.0071009999999999,-0.169399,-0.36239,-0.1413509999999999,0.123191,-0.35984,-0.1601409999999999,-0.174579,-0.80202,-0.037968,0.156861,-0.8003100000000001,-0.02036,1
63,-0.047254,0.673315,-0.0779425,-0.187741,0.4903149999999999,-0.0763445,-0.267381,0.7138450000000001,-0.2058934999999999,0.109179,0.526755,-0.1106234999999999,0.160889,0.757825,-0.2302435,-0.2290809999999999,0.938655,-0.2976835,0.1245889999999999,1.025615,-0.2938135,-0.081067,-0.0054649999999999,0.0070274999999999,0.081067,0.0054649999999999,-0.0070274999999999,-0.171831,-0.3494849999999999,-0.1475435,0.122529,-0.347415,-0.1672535,-0.1755709999999999,-0.7849849999999999,-0.0407075,0.154679,-0.783605,-0.0219115,1
64,-0.0478575,0.67102,-0.0848709999999999,-0.1881355,0.4886999999999999,-0.083272,-0.2684655,0.7100299999999999,-0.213589,0.1077045,0.5281,-0.118299,0.1594944999999999,0.75515,-0.239359,-0.2291055,0.94188,-0.3066689999999999,0.1227344999999999,1.02327,-0.3020489999999999,-0.0804695,-0.00567,0.006847,0.0804695,0.0056699999999999,-0.006847,-0.1749455,-0.33601,-0.156929,0.1217444999999999,-0.33436,-0.174569,-0.1763155,-0.76967,-0.044192,0.1523945,-0.7668,-0.024108,1
65,-0.047388,0.672175,-0.0933814999999999,-0.18818,0.489825,-0.0920435,-0.26856,0.711355,-0.2225255,0.10649,0.526965,-0.1287555,0.15876,0.758295,-0.2494255,-0.22875,0.948655,-0.3184055,0.1212399999999999,1.022185,-0.3133655,-0.079918,-0.005995,0.0066195,0.079918,0.005995,-0.0066194999999999,-0.17826,-0.313945,-0.1718555,0.1216899999999999,-0.3130549999999999,-0.1899854999999999,-0.17656,-0.746345,-0.0497265,0.15047,-0.741715,-0.0287984999999999,1
66,-0.0467215,0.67115,-0.102882,-0.1882825,0.48957,-0.1016799999999999,-0.2687124999999999,0.7106600000000001,-0.233192,0.1056574999999999,0.5294099999999999,-0.138662,0.1579374999999999,0.7597100000000001,-0.261642,-0.2288025,0.94987,-0.332122,0.1199575,1.01991,-0.326202,-0.0794775,-0.0063999999999999,0.006572,0.0794775,0.0063999999999999,-0.006572,-0.1810725,-0.29449,-0.186972,0.1215574999999999,-0.29485,-0.206462,-0.1763025,-0.7263900000000001,-0.054593,0.1485475,-0.71997,-0.035015,1
67,-0.0460805,0.66923,-0.112519,-0.1885735,0.48938,-0.111525,-0.2690335,0.71572,-0.24488,0.1047065,0.52935,-0.14913,0.1570264999999999,0.75935,-0.2732599999999999,-0.2287135,0.95106,-0.3457099999999999,0.1189065,1.01775,-0.33894,-0.0794545,-0.00645,0.0067669999999999,0.0794545,0.0064499999999999,-0.006767,-0.1840235,-0.27449,-0.20165,0.1215765,-0.27595,-0.22226,-0.1762135,-0.7053200000000001,-0.059162,0.1474965,-0.6976,-0.041022,1
68,-0.046294,0.66784,-0.1231345,-0.189473,0.49024,-0.1216705,-0.270263,0.7147300000000001,-0.2571715,0.102607,0.52808,-0.1603915,0.155417,0.7576700000000001,-0.2856615,-0.229293,0.95038,-0.3603415,0.118397,1.0103300000000002,-0.3533915,-0.079304,-0.0063099999999999,0.0070274999999999,0.079304,0.0063099999999999,-0.0070274999999999,-0.187723,-0.2550599999999999,-0.2174415,0.1209669999999999,-0.25746,-0.2388515,-0.177043,-0.68451,-0.0645645,0.145727,-0.67602,-0.0468984999999999,1
69,-0.0465315,0.667315,-0.1333245,-0.1903555,0.490575,-0.1314245,-0.2715355,0.715285,-0.2689245,0.1010245,0.527655,-0.1703444999999999,0.1538445,0.761555,-0.2979545,-0.2296755,0.955765,-0.3739245,0.1184645,1.011675,-0.3664945,-0.0789745,-0.006145,0.0070845,0.0789745,0.006145,-0.0070845,-0.1912155,-0.236695,-0.2331244999999999,0.1207745,-0.240595,-0.2552445,-0.1780355,-0.665815,-0.0703025,0.1440245,-0.656385,-0.0531495,1
70,-0.0469685,0.66832,-0.145259,-0.1911815,0.4908599999999999,-0.141239,-0.2725815,0.71503,-0.281389,0.0994085,0.52664,-0.180379,0.1522784999999999,0.7629699999999999,-0.3113789999999999,-0.2302715,0.95849,-0.389449,0.1190484999999999,1.01144,-0.381129,-0.0786345,-0.0059299999999999,0.0072569999999999,0.0786345,0.0059299999999999,-0.007257,-0.1946715,-0.21767,-0.249909,0.1206685,-0.22296,-0.272349,-0.1790715,-0.64621,-0.07619,0.1417485,-0.63593,-0.058366,1
71,-0.04739,0.67043,-0.1568835,-0.191878,0.4898,-0.1516735,-0.273638,0.71564,-0.2941135,0.0979019999999999,0.52401,-0.1906535,0.150872,0.76274,-0.3245135,-0.230518,0.96105,-0.4053135,0.1198419999999999,1.01156,-0.3960835,-0.078481,-0.00617,0.0073044999999999,0.078481,0.00617,-0.0073045,-0.198048,-0.19788,-0.2666735,0.1205819999999999,-0.2040699999999999,-0.2893835,-0.180178,-0.62608,-0.0824615,0.139892,-0.61416,-0.0645165,1
72,-0.0474535,0.6699649999999999,-0.1686555,-0.1924885,0.4905549999999999,-0.1619955,-0.2744085,0.7163649999999999,-0.3072855,0.0968115,0.5201549999999999,-0.2010255,0.1498815,0.761365,-0.3373155,-0.2305185,0.962295,-0.4216054999999999,0.1211315,1.011555,-0.4108455,-0.0783295,-0.006215,0.0072244999999999,0.0783295,0.0062149999999999,-0.0072245,-0.2012885,-0.1787349999999999,-0.2837055,0.1212014999999999,-0.185245,-0.3067855,-0.1807885,-0.6058250000000001,-0.0887185,0.1388714999999999,-0.594055,-0.0719285,1
73,-0.0472294999999999,0.670655,-0.177183,-0.1925985,0.490345,-0.169033,-0.2747385,0.716515,-0.316983,0.0959515,0.515025,-0.2081329999999999,0.1495815,0.761045,-0.345823,-0.2299285,0.962745,-0.433813,0.1230215,1.011105,-0.421853,-0.0783195,-0.006095,0.007077,0.0783195,0.0060949999999999,-0.007077,-0.2032085,-0.160745,-0.294243,0.1224915,-0.1673649999999999,-0.3202129999999999,-0.1810385,-0.585895,-0.091426,0.1384615,-0.575455,-0.074388,1
74,-0.047314,0.669905,-0.184472,-0.192461,0.489102,-0.173432,-0.275471,0.712075,-0.325132,0.095229,0.511645,-0.212212,0.149609,0.7549049999999999,-0.352952,-0.2291409999999999,0.959285,-0.444302,0.124259,1.009065,-0.429952,-0.078272,-0.005765,0.0070329999999999,0.078272,0.0057649999999999,-0.0070329999999999,-0.204251,-0.150855,-0.299172,0.123319,-0.157825,-0.3255019999999999,-0.1811009999999999,-0.573955,-0.092307,0.138279,-0.566415,-0.077843,1
75,-0.0476945,0.67004,-0.1911385,-0.1920335,0.484797,-0.1780585,-0.2759035,0.70669,-0.3322085,0.0945165,0.50605,-0.2159685,0.1498565,0.74898,-0.3582385,-0.2281335,0.95777,-0.4535885,0.1255265,1.00662,-0.4371685,-0.0781275,-0.00573,0.0070215,0.0781275,0.00573,-0.0070215,-0.2053635,-0.1388999999999999,-0.3043485,0.1243565,-0.14672,-0.3307685,-0.1813335,-0.56006,-0.0924685,0.1381465,-0.55515,-0.0819555,1
76,-0.0480175,0.671765,-0.197706,-0.1910655,0.481303,-0.182436,-0.2759955,0.7018850000000001,-0.338506,0.0940845,0.502274,-0.219326,0.1501845,0.744235,-0.3635859999999999,-0.2283855,0.956115,-0.4624959999999999,0.1271344999999999,1.003575,-0.443976,-0.0782935,-0.0058849999999999,0.007035,0.0782935,0.005885,-0.007035,-0.2063155,-0.1247549999999999,-0.309986,0.1254644999999999,-0.134575,-0.336486,-0.1812855,-0.5459149999999999,-0.092491,0.1387644999999999,-0.544235,-0.085982,1
77,-0.048074,0.672995,-0.203614,-0.18994,0.479168,-0.1863739999999999,-0.27602,0.702025,-0.345964,0.09456,0.499017,-0.222594,0.1513999999999999,0.740075,-0.368394,-0.2279,0.955575,-0.471124,0.12922,0.998005,-0.4502939999999999,-0.078389,-0.005875,0.007043,0.078389,0.005875,-0.0070429999999999,-0.20666,-0.1133049999999999,-0.315374,0.12675,-0.1234049999999999,-0.342184,-0.18105,-0.531735,-0.09251,0.13968,-0.533715,-0.089832,1
78,-0.048752,0.673805,-0.208558,-0.189551,0.475202,-0.1897579999999999,-0.276541,0.6988350000000001,-0.353188,0.094369,0.496102,-0.224858,0.152029,0.736505,-0.371978,-0.228301,0.952485,-0.477978,0.130579,0.992935,-0.455678,-0.079105,-0.006305,0.006932,0.079105,0.006305,-0.006932,-0.207631,-0.1014249999999999,-0.319778,0.1271489999999999,-0.112335,-0.346828,-0.181671,-0.517825,-0.092816,0.139789,-0.522915,-0.09264,1
79,-0.0493145,0.673065,-0.2111279999999999,-0.1892215,0.472095,-0.192438,-0.2773415,0.6973450000000001,-0.358298,0.0942685,0.49344,-0.226298,0.1528985,0.7333850000000001,-0.374498,-0.2288315,0.947785,-0.483768,0.1316685,0.989085,-0.459418,-0.0796985,-0.0067649999999999,0.006778,0.0796985,0.006765,-0.0067779999999999,-0.2086215,-0.0901649999999999,-0.322698,0.1272985,-0.1013949999999999,-0.3501879999999999,-0.1822315,-0.5044449999999999,-0.092816,0.1401285,-0.5129349999999999,-0.094969,1
80,-0.049342,0.671345,-0.2138615,-0.188504,0.47058,-0.1944015,-0.277734,0.694855,-0.3630915,0.0948759999999999,0.4926359999999999,-0.2271615,0.154306,0.732245,-0.3768315,-0.229244,0.943345,-0.4889415,0.133246,0.984985,-0.4628615,-0.079716,-0.006725,0.0065785,0.079716,0.0067249999999999,-0.0065784999999999,-0.2092439999999999,-0.0802749999999999,-0.3257715,0.128156,-0.091835,-0.3535815,-0.182214,-0.491865,-0.0928415,0.140856,-0.503555,-0.0965485,1
81,-0.0494575,0.672525,-0.216575,-0.1878795,0.469066,-0.196525,-0.2779594999999999,0.691645,-0.367655,0.0954605,0.492405,-0.228045,0.1558405,0.730615,-0.379435,-0.2296795,0.939055,-0.494295,0.1347604999999999,0.981225,-0.466405,-0.0797414999999999,-0.006915,0.0062899999999999,0.0797414999999999,0.0069149999999999,-0.00629,-0.2099495,-0.070755,-0.328885,0.1289904999999999,-0.0823749999999999,-0.356765,-0.1821995,-0.479205,-0.093007,0.1410205,-0.494285,-0.099007,1
82,-0.0496454999999999,0.67198,-0.2196595,-0.1873125,0.468179,-0.1989095,-0.2782925,0.68792,-0.3728095,0.0959975,0.491799,-0.2292294999999999,0.1573075,0.7281500000000001,-0.3824495,-0.2302024999999999,0.93431,-0.5005895,0.1361375,0.97711,-0.4705495,-0.0797705,-0.0068799999999999,0.0059444999999999,0.0797705,0.0068799999999999,-0.0059444999999999,-0.2105925,-0.0617799999999999,-0.3319995,0.1298975,-0.0734899999999999,-0.3601395,-0.1821025,-0.46702,-0.0937585,0.1408275,-0.4842499999999999,-0.1013475,1
83,-0.049407,0.6702049999999999,-0.2215245,-0.18642,0.4672449999999999,-0.2005645,-0.27825,0.684125,-0.3770245,0.09703,0.491959,-0.2295545,0.1593699999999999,0.724495,-0.3843344999999999,-0.23051,0.928645,-0.5067245,0.13784,0.972975,-0.4743544999999999,-0.080167,-0.0069949999999999,0.0058785,0.080167,0.0069949999999999,-0.0058785,-0.21097,-0.0516849999999999,-0.3337544999999999,0.13126,-0.0639049999999999,-0.3623045,-0.18144,-0.454515,-0.0942415,0.14171,-0.471835,-0.1002115,1
84,-0.048979,0.668245,-0.223455,-0.1857059999999999,0.466674,-0.201785,-0.278016,0.6807350000000001,-0.381335,0.098084,0.492185,-0.229665,0.1615039999999999,0.7215750000000001,-0.386895,-0.231066,0.924265,-0.513025,0.139384,0.967945,-0.478745,-0.080471,-0.0071649999999999,0.005975,0.080471,0.007165,-0.005975,-0.2111259999999999,-0.0418849999999999,-0.3345749999999999,0.132554,-0.0545049999999999,-0.363985,-0.180566,-0.442685,-0.0955469999999999,0.143284,-0.4577749999999999,-0.095841,1
85,-0.04856,0.666825,-0.22514,-0.185253,0.4660040000000001,-0.20294,-0.277843,0.6778550000000001,-0.3852299999999999,0.099047,0.492747,-0.2296,0.163297,0.7198850000000001,-0.38924,-0.2320229999999999,0.920435,-0.5184,0.140757,0.964725,-0.48273,-0.080695,-0.0073449999999999,0.006111,0.080695,0.007345,-0.0061109999999999,-0.211343,-0.0318249999999999,-0.3349999999999999,0.133817,-0.0447449999999999,-0.36532,-0.179833,-0.431245,-0.0975439999999999,0.1444369999999999,-0.4467949999999999,-0.100451,1
86,-0.048153,0.665465,-0.22659,-0.184679,0.464603,-0.2039699999999999,-0.277659,0.674755,-0.3876699999999999,0.099891,0.492835,-0.2296,0.164611,0.718105,-0.3910099999999999,-0.233169,0.916545,-0.52279,0.141181,0.968725,-0.4854,-0.080901,-0.0076749999999999,0.0062219999999999,0.080901,0.0076749999999999,-0.0062219999999999,-0.211609,-0.022065,-0.33532,0.135251,-0.035385,-0.36628,-0.179099,-0.419855,-0.099949,0.145731,-0.434245,-0.103412,1
87,-0.047973,0.6633720000000001,-0.22742,-0.184353,0.46575,-0.20429,-0.278063,0.67432,-0.38902,0.100437,0.4931,-0.22956,0.165567,0.71663,-0.39252,-0.234543,0.91508,-0.5265500000000001,0.141557,0.97217,-0.4878,-0.081049,-0.00761,0.0062069999999999,0.081049,0.00761,-0.006207,-0.212213,-0.01295,-0.33519,0.136827,-0.0264499999999999,-0.36679,-0.178353,-0.4087999999999999,-0.101637,0.147347,-0.42125,-0.105375,1
88,-0.04772,0.66224,-0.227696,-0.183854,0.4659750000000001,-0.204256,-0.278594,0.6729130000000001,-0.388906,0.101076,0.4932860000000001,-0.229536,0.166106,0.7167850000000001,-0.393456,-0.235724,0.916415,-0.527016,0.141916,0.975345,-0.4910259999999999,-0.0811149999999999,-0.0077149999999999,0.006258,0.0811149999999999,0.007715,-0.006258,-0.212784,-0.0037149999999999,-0.335066,0.138626,-0.0177349999999999,-0.367046,-0.1776039999999999,-0.3979349999999999,-0.103132,0.149166,-0.4100549999999999,-0.106823,1
89,-0.047464,0.661534,-0.227651,-0.183387,0.4661899999999999,-0.204231,-0.279337,0.6720449999999999,-0.388781,0.101743,0.4931199999999999,-0.229521,0.166633,0.71675,-0.394551,-0.236837,0.917,-0.527551,0.142123,0.9781,-0.4938909999999999,-0.0812259999999999,-0.00781,0.0063129999999999,0.0812259999999999,0.0078099999999999,-0.006313,-0.2133469999999999,0.0056499999999999,-0.334951,0.140723,-0.01022,-0.367251,-0.177117,-0.38773,-0.104658,0.150903,-0.3988,-0.106901,1
90,-0.0469445,0.6609280000000001,-0.2277485,-0.1824204999999999,0.46664,-0.2043585,-0.2799605,0.671563,-0.3887784999999999,0.1026295,0.4928100000000001,-0.2293585,0.1674195,0.7166300000000001,-0.3949985,-0.2377505,0.91758,-0.5275185,0.1425495,0.98033,-0.4964085,-0.0812455,-0.0078999999999999,0.0063655,0.0812455,0.0079,-0.0063654999999999,-0.2139005,0.01465,-0.3348885,0.1429395,-0.0033299999999999,-0.3674785,-0.1763605,-0.37844,-0.1063255,0.1528295,-0.3890099999999999,-0.1072465,1
91,-0.0467355,0.660965,-0.227927,-0.1817995,0.46663,-0.2045769999999999,-0.2807495,0.67068,-0.388377,0.1033305,0.49272,-0.229107,0.1679605,0.7180000000000001,-0.395207,-0.2392695,0.91681,-0.527567,0.1426204999999999,0.98162,-0.498647,-0.0812775,-0.0080999999999999,0.0064359999999999,0.0812775,0.0080999999999999,-0.0064359999999999,-0.2148995,0.0237399999999999,-0.334617,0.1448505,0.00429,-0.367807,-0.1758695,-0.36939,-0.108092,0.1551405,-0.37927,-0.108111,1
92,-0.046958,0.6611809999999999,-0.2281745,-0.181576,0.4660899999999999,-0.2044845,-0.281886,0.67028,-0.3872744999999999,0.103494,0.4913099999999999,-0.2287644999999999,0.167964,0.720428,-0.3956245,-0.241486,0.91714,-0.5277045,0.1423839999999999,0.98292,-0.5007345,-0.081239,-0.00818,0.0065435,0.081239,0.0081799999999999,-0.0065435,-0.216496,0.0309299999999999,-0.3339645,0.146234,0.0104199999999998,-0.3681645,-0.175826,-0.3620300000000001,-0.1098475,0.1569239999999999,-0.37182,-0.1098405,1
93,-0.047278,0.66082,-0.227872,-0.181544,0.46818,-0.203902,-0.283114,0.67137,-0.385592,0.103546,0.49119,-0.227812,0.167276,0.721484,-0.396162,-0.244394,0.91655,-0.527152,0.142016,0.98516,-0.502732,-0.081211,-0.00806,0.00673,0.081211,0.0080599999999999,-0.00673,-0.218364,0.0365299999999999,-0.333062,0.147596,0.0148199999999999,-0.368292,-0.175974,-0.35695,-0.111755,0.158536,-0.3661799999999999,-0.111971,1
94,-0.0475595,0.659793,-0.2272625,-0.1815895,0.469415,-0.2033225,-0.2841395,0.673193,-0.3833325,0.1035504999999999,0.4905549999999999,-0.2270825,0.1663005,0.721454,-0.3967725,-0.2471495,0.914375,-0.5254624999999999,0.1416805,0.985005,-0.5047024999999999,-0.0811935,-0.007955,0.0069444999999999,0.0811935,0.007955,-0.0069444999999999,-0.2202695,0.0404949999999999,-0.3321125,0.1492205,0.0174849999999999,-0.3683525,-0.1762895,-0.353735,-0.1134525,0.1597205,-0.3626349999999999,-0.1139014999999999,1
95,-0.047781,0.6595960000000001,-0.226402,-0.181707,0.470205,-0.202872,-0.284757,0.674733,-0.380982,0.103543,0.490145,-0.226642,0.165103,0.721467,-0.397612,-0.248607,0.915975,-0.523142,0.1413829999999999,0.982075,-0.5069319999999999,-0.081136,-0.007865,0.007157,0.081136,0.007865,-0.0071569999999999,-0.221837,0.043085,-0.331072,0.1509329999999999,0.019055,-0.368222,-0.1766869999999999,-0.3523849999999999,-0.115247,0.1596929999999999,-0.3587849999999999,-0.1147209999999999,1
96,-0.047893,0.6600509999999999,-0.2256975,-0.181927,0.4695,-0.2024774999999999,-0.2852369999999999,0.674891,-0.3787275,0.103423,0.48906,-0.2265174999999999,0.163883,0.720554,-0.3982075,-0.2494469999999999,0.91615,-0.5204775,0.141033,0.98104,-0.5075875,-0.081114,-0.0078899999999999,0.0073215,0.081114,0.0078899999999999,-0.0073215,-0.2230269999999999,0.0433,-0.3302975,0.152303,0.01853,-0.3680175,-0.177167,-0.35383,-0.1166675,0.1600929999999999,-0.3583299999999999,-0.1155725,1
97,-0.047922,0.6600509999999999,-0.2252255,-0.182107,0.4695,-0.2025954999999999,-0.285547,0.674891,-0.3770455,0.103383,0.48906,-0.2269355,0.1628929999999999,0.720554,-0.3990455,-0.249667,0.91615,-0.5191555,0.1408329999999999,0.98104,-0.5086054999999999,-0.0809979999999999,-0.0078899999999999,0.0074595,0.0809979999999999,0.0078899999999999,-0.0074595,-0.224147,0.0433,-0.3298255,0.1529829999999999,0.01853,-0.3677755,-0.177437,-0.354,-0.1178645,0.161003,-0.3581299999999999,-0.1163185,1
98,-0.048082,0.6600509999999999,-0.2250935,-0.182296,0.4695,-0.2030635,-0.285466,0.674891,-0.3764535,0.103274,0.48906,-0.2279035,0.1620839999999999,0.720554,-0.4004335,-0.250056,0.91615,-0.5183435,0.140794,0.98104,-0.5099334999999999,-0.0809209999999999,-0.0078899999999999,0.0076174999999999,0.0809209999999999,0.0078899999999999,-0.0076174999999999,-0.225106,0.0433,-0.3296135,0.1530639999999999,0.01853,-0.3677435,-0.177926,-0.35401,-0.1195975,0.1613339999999999,-0.35743,-0.1172584999999999,1
99,-0.048496,0.660202,-0.225484,-0.1825709999999999,0.4695,-0.203924,-0.285851,0.674891,-0.376634,0.1029789999999999,0.48906,-0.229374,0.161269,0.720554,-0.402584,-0.250381,0.91615,-0.518504,0.140589,0.98104,-0.512224,-0.080811,-0.0078899999999999,0.007717,0.080811,0.0078899999999999,-0.007717,-0.225681,0.0433,-0.329814,0.153049,0.01853,-0.367724,-0.178571,-0.35401,-0.121978,0.160609,-0.35743,-0.119769,1
100,-0.0487844999999999,0.660272,-0.22637,-0.1826715,0.4699149999999999,-0.20521,-0.2862814999999999,0.675534,-0.37896,0.1024785,0.4886049999999999,-0.23122,0.1606285,0.719827,-0.40487,-0.2510115,0.916445,-0.52013,0.1404485,0.979835,-0.51505,-0.0808115,-0.007635,0.007806,0.0808115,0.0076349999999999,-0.007806,-0.2256215,0.0414849999999999,-0.33023,0.1531384999999999,0.0168649999999999,-0.36777,-0.1790015,-0.3565750000000001,-0.123345,0.1606685,-0.357955,-0.120333,1
101,-0.0490105,0.661046,-0.227834,-0.1823385,0.46893,-0.206954,-0.2865485,0.675656,-0.381254,0.1020715,0.48646,-0.233844,0.1601015,0.7179800000000001,-0.4072639999999999,-0.2518785,0.91631,-0.522624,0.1403915,0.97726,-0.518734,-0.0807155,-0.0071399999999999,0.007874,0.0807155,0.00714,-0.0078739999999999,-0.2254285,0.03773,-0.3308839999999999,0.1531615,0.01472,-0.3681839999999999,-0.1791885,-0.3616199999999999,-0.1254839999999999,0.1604115,-0.3614999999999999,-0.119206,1
102,-0.049409,0.6609820000000001,-0.2296545,-0.182213,0.4691350000000001,-0.2086145,-0.286913,0.6755030000000001,-0.3838145,0.101527,0.486145,-0.2365445,0.159687,0.717263,-0.4099545,-0.253293,0.915595,-0.5257045,0.140637,0.974535,-0.5229444999999999,-0.080585,-0.0068849999999999,0.0077915,0.080585,0.006885,-0.0077915,-0.225333,0.031195,-0.3314045,0.152507,0.009615,-0.3687345,-0.179483,-0.3699749999999999,-0.1278455,0.159707,-0.3676349999999999,-0.1180895,1
103,-0.049666,0.661507,-0.2308624999999999,-0.182327,0.468275,-0.2100024999999999,-0.287007,0.67709,-0.3853225,0.101073,0.484525,-0.2389624999999999,0.159333,0.715656,-0.4118425,-0.254437,0.916765,-0.5274125,0.141693,0.971795,-0.5247125,-0.080486,-0.006425,0.0077855,0.080486,0.006425,-0.0077854999999999,-0.225097,0.0226349999999999,-0.3318025,0.151483,0.0020949999999999,-0.3692225,-0.179577,-0.380705,-0.1300755,0.158883,-0.376095,-0.1166915,1
104,-0.049815,0.662195,-0.2320085,-0.182613,0.4694999999999999,-0.2115985,-0.287003,0.6800069999999999,-0.3865985,0.100627,0.4820799999999999,-0.2413285,0.158987,0.7142,-0.4123685,-0.255223,0.91742,-0.5280585,0.143117,0.97145,-0.5246885,-0.080355,-0.00558,0.0078944999999999,0.080355,0.0055799999999999,-0.0078944999999999,-0.223743,0.0121199999999999,-0.3321785,0.149787,-0.00725,-0.3697785,-0.179373,-0.3932300000000001,-0.1324295,0.158257,-0.38661,-0.1153595,1
105,-0.049986,0.662868,-0.232796,-0.182883,0.468755,-0.2131259999999999,-0.286963,0.681881,-0.386966,0.100117,0.4797949999999999,-0.243386,0.1588169999999999,0.7128249999999999,-0.412926,-0.255043,0.917625,-0.5274760000000001,0.1446069999999999,0.970265,-0.5247459999999999,-0.080233,-0.005085,0.0078789999999999,0.080233,0.005085,-0.0078789999999999,-0.221543,-0.0007949999999999,-0.332556,0.146957,-0.018225,-0.369496,-0.179023,-0.407675,-0.1346149999999999,0.157587,-0.399735,-0.1144689999999999,1
106,-0.050103,0.664529,-0.233932,-0.183144,0.468424,-0.214482,-0.287124,0.68226,-0.387602,0.099266,0.479133,-0.245352,0.158676,0.71277,-0.413662,-0.255324,0.91779,-0.525822,0.145896,0.97085,-0.525402,-0.080099,-0.0047,0.007925,0.080099,0.0047,-0.007925,-0.218254,-0.01499,-0.332642,0.143446,-0.0305699999999999,-0.368892,-0.1786039999999999,-0.42359,-0.137049,0.156466,-0.41514,-0.1147,1
107,-0.050009,0.66588,-0.2352755,-0.183835,0.4684619999999999,-0.2157855,-0.287145,0.68355,-0.3871154999999999,0.098335,0.477687,-0.2474155,0.158735,0.71246,-0.4136455,-0.255195,0.91294,-0.5232655,0.147255,0.97282,-0.5256855,-0.080049,-0.0043199999999999,0.0079645,0.080049,0.0043199999999999,-0.0079645,-0.2143949999999999,-0.03072,-0.3326155,0.139445,-0.04398,-0.3679354999999999,-0.1780149999999999,-0.44126,-0.1397765,0.155235,-0.43388,-0.1182205,1
108,-0.0496395,0.66649,-0.236112,-0.1846115,0.468684,-0.216732,-0.2872515,0.6850999999999999,-0.385952,0.0977484999999999,0.479058,-0.248972,0.1591584999999999,0.71324,-0.412862,-0.2550215,0.90865,-0.5187120000000001,0.1491785,0.97382,-0.523782,-0.0798784999999999,-0.00412,0.0080179999999999,0.0798784999999999,0.00412,-0.008018,-0.2096615,-0.04764,-0.331632,0.1355185,-0.05871,-0.366672,-0.1763415,-0.45943,-0.141889,0.1546685,-0.45348,-0.121518,1
109,-0.0493295,0.66833,-0.2359055,-0.1854414999999999,0.4678319999999999,-0.2173855,-0.2872814999999999,0.68665,-0.3828155,0.0974184999999999,0.478535,-0.2503655,0.1595885,0.7139899999999999,-0.4111255,-0.2547015,0.9043,-0.5129055,0.1505485,0.97511,-0.5203855000000001,-0.0797374999999999,-0.00404,0.0079744999999999,0.0797374999999999,0.0040399999999999,-0.0079744999999999,-0.2046214999999999,-0.06453,-0.3300955,0.1314585,-0.0735299999999999,-0.3638655,-0.1749315,-0.4789,-0.1459995,0.1542985,-0.47247,-0.1247705,1
110,-0.0490785,0.66839,-0.2350634999999999,-0.1861765,0.470981,-0.2176435,-0.2875265,0.69061,-0.3799535,0.0969435,0.479877,-0.2508935,0.1600435,0.7158,-0.4091734999999999,-0.2559565,0.90564,-0.5073835,0.1517735,0.97743,-0.5166735,-0.0796065,-0.00378,0.0081465,0.0796065,0.00378,-0.0081465,-0.1993265,-0.0824499999999999,-0.3283435,0.1274735,-0.0896499999999999,-0.3611435,-0.1735865,-0.4995599999999999,-0.1506065,0.1539335,-0.49271,-0.1302735,1
111,-0.0488145,0.668555,-0.2334999999999999,-0.1869914999999999,0.4712349999999999,-0.2183999999999999,-0.2875514999999999,0.693465,-0.3769399999999999,0.0964484999999999,0.479966,-0.2515,0.1602485,0.717805,-0.40628,-0.2575715,0.907455,-0.5002,0.1531485,0.978715,-0.5129,-0.0794605,-0.0037349999999999,0.00815,0.0794605,0.0037349999999999,-0.0081499999999999,-0.1941215,-0.099815,-0.32638,0.1237285,-0.104555,-0.35751,-0.1723615,-0.519695,-0.155443,0.1534585,-0.512915,-0.136459,1
112,-0.0486345,0.667195,-0.232345,-0.1879415,0.4713549999999999,-0.2199769999999999,-0.2871915,0.696375,-0.3738749999999999,0.0958185,0.481057,-0.252585,0.1604785,0.7207749999999999,-0.403705,-0.2591015,0.912225,-0.4939949999999999,0.1546585,0.984355,-0.508005,-0.0791895,-0.003825,0.0081149999999999,0.0791895,0.003825,-0.0081149999999999,-0.1890615,-0.116035,-0.323745,0.1200785,-0.118045,-0.352775,-0.1711215,-0.5380849999999999,-0.1601139999999999,0.1528084999999999,-0.532805,-0.143102,1
113,-0.0488205,0.66829,-0.230865,-0.1889825,0.472285,-0.219709,-0.2866725,0.70024,-0.370735,0.0950274999999999,0.484385,-0.252365,0.1603675,0.72419,-0.4015849999999999,-0.2608925,0.91488,-0.488545,0.1558275,0.9879,-0.504665,-0.0788234999999999,-0.0040399999999999,0.008055,0.0788234999999999,0.0040399999999999,-0.0080549999999999,-0.1849225,-0.13298,-0.320605,0.1169675,-0.13262,-0.3476749999999999,-0.1702425,-0.5577799999999999,-0.164424,0.1520175,-0.5532699999999999,-0.148536,1
114,-0.0488894999999999,0.668415,-0.228929,-0.1898475,0.474179,-0.219312,-0.2860175,0.703815,-0.368125,0.0943425,0.488025,-0.252475,0.1600825,0.7289049999999999,-0.398875,-0.2621875,0.917875,-0.482905,0.1559525,0.992825,-0.500915,-0.0783845,-0.0042349999999999,0.0079849999999999,0.0783845,0.0042349999999999,-0.007985,-0.1810574999999999,-0.148125,-0.316515,0.1152025,-0.146725,-0.342835,-0.1694475,-0.576705,-0.168619,0.1516925,-0.572735,-0.154384,1
115,-0.048837,0.6668350000000001,-0.2257509999999999,-0.190331,0.474685,-0.219414,-0.285221,0.7074750000000001,-0.363765,0.094149,0.489935,-0.252835,0.1598089999999999,0.732845,-0.394775,-0.2628709999999999,0.921515,-0.477145,0.155839,0.995645,-0.495585,-0.077959,-0.0042849999999999,0.007915,0.077959,0.004285,-0.007915,-0.177881,-0.162605,-0.312265,0.114169,-0.1593149999999999,-0.337515,-0.168931,-0.5948249999999999,-0.172813,0.151419,-0.590855,-0.160154,1
116,-0.0487095,0.665985,-0.221518,-0.1901505,0.473765,-0.219401,-0.2840205,0.709485,-0.358425,0.0943795,0.496575,-0.251145,0.1596195,0.738335,-0.389795,-0.2635004999999999,0.926595,-0.470415,0.1559095,0.999095,-0.487865,-0.0774425,-0.0050749999999999,0.007615,0.0774425,0.0050749999999999,-0.007615,-0.1750104999999999,-0.174945,-0.307215,0.1138795,-0.170695,-0.332185,-0.1684604999999999,-0.611815,-0.175916,0.1512295,-0.609725,-0.164454,1
117,-0.0485625,0.66467,-0.216271,-0.1903475,0.47263,-0.219534,-0.2842375,0.71218,-0.35167,0.0944325,0.5002599999999999,-0.249564,0.1591425,0.7454799999999999,-0.38397,-0.2643175,0.93194,-0.4638,0.1554925,1.00651,-0.4805999999999999,-0.0769425,-0.00559,0.0073199999999999,0.0769425,0.0055899999999999,-0.0073199999999999,-0.1729375,-0.18479,-0.30218,0.1136025,-0.17964,-0.3262899999999999,-0.1686675,-0.62731,-0.179244,0.1508825,-0.6260100000000001,-0.169558,1
118,-0.048327,0.6620250000000001,-0.2101599999999999,-0.190751,0.473585,-0.215829,-0.284061,0.715485,-0.344885,0.0941589999999999,0.5076350000000001,-0.246713,0.158629,0.7524850000000001,-0.3780949999999999,-0.265491,0.938685,-0.455805,0.155049,1.013275,-0.473455,-0.076305,-0.0062749999999999,0.007265,0.076305,0.006275,-0.0072649999999999,-0.1713609999999999,-0.1934949999999999,-0.297515,0.1139289999999999,-0.1886749999999999,-0.321175,-0.168991,-0.642125,-0.1820159999999999,0.1505889999999999,-0.641895,-0.17454,1
119,-0.04786,0.659715,-0.202822,-0.1910619999999999,0.4710149999999999,-0.211776,-0.283602,0.716175,-0.33658,0.093918,0.5138149999999999,-0.2441439999999999,0.158158,0.761535,-0.37098,-0.266522,0.939835,-0.44531,0.154718,1.019565,-0.46434,-0.075767,-0.007375,0.00715,0.075767,0.0073749999999999,-0.0071499999999999,-0.170042,-0.200935,-0.29232,0.114348,-0.195845,-0.31444,-0.1692219999999999,-0.655305,-0.183195,0.150248,-0.656755,-0.177089,1
120,-0.0472515,0.65669,-0.194658,-0.1911895,0.47316,-0.20661,-0.2829795,0.7209,-0.32731,0.0937305,0.51663,-0.2410089999999999,0.1578605,0.76665,-0.36253,-0.2670094999999999,0.93956,-0.43409,0.1546104999999999,1.02512,-0.45342,-0.0752745,-0.00729,0.00737,0.0752745,0.00729,-0.0073699999999999,-0.1682895,-0.2080199999999999,-0.28518,0.1148105,-0.2031899999999999,-0.3064099999999999,-0.1695495,-0.67035,-0.1833639999999999,0.1499204999999999,-0.67271,-0.1776489999999999,1
121,-0.0464875,0.65408,-0.1858039999999999,-0.1910835,0.4820799999999999,-0.20051,-0.2822035,0.72725,-0.318025,0.0930965,0.51716,-0.23685,0.1569665,0.77004,-0.352925,-0.2652535,0.94004,-0.422195,0.1547065,1.02879,-0.442575,-0.0746845,-0.00674,0.007485,0.0746845,0.0067399999999999,-0.0074849999999999,-0.1663835,-0.21455,-0.2781949999999999,0.1154265,-0.21103,-0.2993749999999999,-0.1694735,-0.6864100000000001,-0.182881,0.1498465,-0.6891700000000001,-0.1789819999999999,1
122,-0.0450305,0.649675,-0.175971,-0.1906515,0.488495,-0.195028,-0.2807715,0.730505,-0.308225,0.0929585,0.515995,-0.233154,0.1544985,0.771655,-0.341455,-0.2646715,0.942065,-0.409045,0.1541985,1.030635,-0.427105,-0.0738595,-0.005815,0.0074149999999999,0.0738595,0.005815,-0.007415,-0.1640815,-0.217935,-0.271315,0.1168184999999999,-0.2173749999999999,-0.291985,-0.1690215,-0.700615,-0.18156,0.1510985,-0.7039150000000001,-0.179081,1
123,-0.0429804999999999,0.6485650000000001,-0.167341,-0.1897565,0.496005,-0.189385,-0.2786665,0.739485,-0.2987849999999999,0.0939735,0.512375,-0.229784,0.1529734999999999,0.770215,-0.330465,-0.2632065,0.948635,-0.3973649999999999,0.1546335,1.029435,-0.411105,-0.0726175,-0.004505,0.0073149999999999,0.0726175,0.004505,-0.0073149999999999,-0.1613365,-0.222625,-0.264755,0.1189035,-0.224335,-0.285295,-0.1681965,-0.716005,-0.180307,0.1525235,-0.720375,-0.179204,1
124,-0.0411015,0.64811,-0.159719,-0.1887315,0.50473,-0.183801,-0.2764515,0.74848,-0.2908699999999999,0.0949985,0.51047,-0.22633,0.1516985,0.76913,-0.32009,-0.2624215,0.9597,-0.38632,0.1553385,1.02996,-0.39554,-0.0714205,-0.0030999999999999,0.00722,0.0714205,0.0030999999999999,-0.00722,-0.1592414999999999,-0.22633,-0.259115,0.1218485,-0.22968,-0.27961,-0.1677515,-0.73071,-0.180342,0.1554785,-0.73722,-0.180627,1
125,-0.0393324999999999,0.64583,-0.152379,-0.1874605,0.51361,-0.178562,-0.2741805,0.7575000000000001,-0.283585,0.0958795,0.5038,-0.224071,0.1518995,0.76765,-0.3099349999999999,-0.2616205,0.96876,-0.374065,0.1570295,1.03217,-0.381495,-0.0707545,-0.0012,0.007305,0.0707545,0.0012,-0.007305,-0.1575205,-0.23137,-0.253619,0.1230894999999999,-0.23648,-0.273735,-0.1675205,-0.74559,-0.180095,0.1582195,-0.7549,-0.180549,1
126,-0.0374855,0.6435599999999999,-0.145037,-0.1860135,0.52227,-0.172373,-0.2719335,0.7667900000000001,-0.275785,0.0970065,0.49822,-0.220363,0.1508665,0.7645299999999999,-0.299055,-0.2609235,0.97713,-0.362045,0.1576865,1.02826,-0.367875,-0.0700905,0.0006599999999999,0.0074049999999999,0.0700905,-0.00066,-0.0074049999999999,-0.1553635,-0.23831,-0.247383,0.1240965,-0.2446,-0.267765,-0.1671735,-0.76064,-0.178875,0.1607465,-0.77311,-0.179226,1
127,-0.03591,0.64185,-0.137784,-0.184938,0.52857,-0.168835,-0.269708,0.77487,-0.26744,0.098742,0.49242,-0.215679,0.151352,0.76237,-0.28752,-0.260368,0.98553,-0.35064,0.159322,1.02489,-0.35365,-0.069624,0.00231,0.0074999999999999,0.069624,-0.0023099999999999,-0.0075,-0.153048,-0.2458499999999999,-0.239996,0.125082,-0.2520799999999999,-0.26131,-0.1674479999999999,-0.7774699999999999,-0.176047,0.162902,-0.79051,-0.177659,1
128,-0.0344494999999999,0.64202,-0.130265,-0.1841975,0.5346500000000001,-0.163849,-0.2678775,0.7823899999999999,-0.2579599999999999,0.1009025,0.48845,-0.209169,0.1505524999999999,0.7591300000000001,-0.2753299999999999,-0.2590675,0.99327,-0.33831,0.1603824999999999,1.02228,-0.33907,-0.0691375,0.00359,0.00792,0.0691375,-0.00359,-0.0079199999999999,-0.1506375,-0.25391,-0.2314159999999999,0.1263325,-0.26085,-0.251666,-0.1675975,-0.79447,-0.1721009999999999,0.1642624999999999,-0.8042199999999999,-0.17396,1
129,-0.0331665,0.64347,-0.1230209999999999,-0.1837575,0.53765,-0.15857,-0.2666775,0.7871,-0.247599,0.1029825,0.4874,-0.202727,0.1509525,0.75927,-0.26335,-0.2577075,1.00261,-0.32637,0.1618125,1.02233,-0.32582,-0.0691525,0.00422,0.00828,0.0691525,-0.00422,-0.0082799999999999,-0.1482675,-0.26232,-0.222274,0.1272124999999999,-0.26937,-0.242259,-0.1676375,-0.8095600000000001,-0.166882,0.1655225,-0.81493,-0.169958,1
130,-0.03225,0.646845,-0.1175029999999999,-0.183055,0.533705,-0.1526949999999999,-0.266085,0.788595,-0.2370029999999999,0.1023149999999999,0.487255,-0.195901,0.152315,0.760135,-0.25233,-0.256535,1.008555,-0.3142,0.164105,1.021935,-0.31274,-0.069589,0.004055,0.00861,0.069589,-0.004055,-0.0086099999999999,-0.145635,-0.2731949999999999,-0.2122,0.128005,-0.2802449999999999,-0.2308299999999999,-0.1668349999999999,-0.821245,-0.161068,0.167655,-0.825965,-0.1650439999999999,1
131,-0.0313969999999999,0.6498750000000001,-0.1124389999999999,-0.182645,0.528865,-0.1468219999999999,-0.265675,0.7905150000000001,-0.226259,0.102655,0.488455,-0.187908,0.153525,0.762255,-0.242985,-0.255255,1.018325,-0.301895,0.166155,1.024225,-0.303265,-0.070009,0.003185,0.008805,0.070009,-0.0031849999999999,-0.0088049999999999,-0.1428749999999999,-0.2827849999999999,-0.2012219999999999,0.128545,-0.2898349999999999,-0.216905,-0.166145,-0.8320949999999999,-0.154864,0.169825,-0.8341449999999999,-0.159216,1
132,-0.030063,0.64985,-0.101568,-0.181803,0.5232,-0.135546,-0.2637629999999999,0.7863600000000001,-0.2100489999999999,0.103707,0.4899,-0.1745,0.155157,0.76539,-0.228458,-0.253633,1.02299,-0.28427,0.169037,1.02835,-0.28779,-0.070449,0.00234,0.0088099999999999,0.070449,-0.0023399999999999,-0.0088099999999999,-0.139713,-0.2904799999999999,-0.184049,0.129717,-0.2975299999999999,-0.195439,-0.165023,-0.84027,-0.142896,0.172457,-0.84139,-0.147087,1
133,-0.0293509999999999,0.6562950000000001,-0.0853,-0.1802349999999999,0.515085,-0.11905,-0.261555,0.778665,-0.1887599999999999,0.106345,0.493975,-0.155517,0.157975,0.769095,-0.2097689999999999,-0.251625,1.013565,-0.26192,0.172365,1.026895,-0.26889,-0.071014,0.000835,0.0082799999999999,0.071014,-0.000835,-0.0082799999999999,-0.1361349999999999,-0.307805,-0.158623,0.130715,-0.314405,-0.167263,-0.163655,-0.858185,-0.125306,0.175185,-0.858105,-0.129324,1
134,-0.0292339999999999,0.662291,-0.0693175,-0.1788509999999999,0.5106310000000001,-0.1021995,-0.259851,0.771301,-0.1690475,0.109429,0.501021,-0.1369925,0.163549,0.7724409999999999,-0.1923945,-0.2497909999999999,1.005741,-0.2433985,0.177339,1.029181,-0.2509985,-0.071798,-0.000445,0.0077614999999999,0.071798,0.000445,-0.0077615,-0.1332009999999999,-0.326379,-0.1349165,0.131369,-0.330509,-0.1406305,-0.1625609999999999,-0.875799,-0.1089055,0.177759,-0.874799,-0.1127365,1
135,-0.0297425,0.668535,-0.0536289999999999,-0.1780935,0.509095,-0.084851,-0.2584135,0.7631950000000001,-0.1506279999999999,0.1114565,0.507475,-0.1186209999999999,0.1683764999999999,0.774655,-0.1759399999999999,-0.2488135,0.997505,-0.225455,0.1819365,1.032655,-0.2340249999999999,-0.0729365,-0.001384,0.007295,0.0729365,0.0013839999999999,-0.0072949999999999,-0.1306034999999999,-0.3406249999999999,-0.113353,0.1318065,-0.347725,-0.114564,-0.1616935,-0.892295,-0.0916669999999999,0.1790365,-0.890555,-0.096468,1
136,-0.030251,0.674424,-0.0386764999999999,-0.17731,0.507984,-0.0678074999999999,-0.25694,0.7554040000000001,-0.1332175,0.11347,0.512494,-0.1008275,0.17296,0.7756040000000001,-0.1604845,-0.2483699999999999,0.985004,-0.2082675,0.18633,1.035424,-0.2179175,-0.074018,-0.001994,0.0068135,0.074018,0.001994,-0.0068135,-0.12868,-0.359076,-0.0919234999999999,0.13138,-0.366336,-0.0890634999999999,-0.16083,-0.908196,-0.0761324999999999,0.1806999999999999,-0.903236,-0.0769345,1
137,-0.030646,0.6787955,-0.0249214999999999,-0.1764619999999999,0.5080855,-0.0509704999999999,-0.255222,0.7486655,-0.1178974999999999,0.115468,0.5161654999999999,-0.0834115,0.177518,0.7757655,-0.1466335,-0.247532,0.9774755,-0.1939425,0.190578,1.0378254999999998,-0.2033324999999999,-0.074828,-0.0022145,0.0060645,0.074828,0.0022144999999999,-0.0060644999999999,-0.126322,-0.3734245,-0.0721594999999999,0.132178,-0.3835945,-0.0675124999999999,-0.1595619999999999,-0.9228245,-0.0613194999999999,0.182158,-0.9144845,-0.0593974999999999,1
138,-0.030981,0.683156,-0.011454,-0.175648,0.507466,-0.034023,-0.2537379999999999,0.7420359999999999,-0.103531,0.117272,0.519906,-0.066425,0.182012,0.775666,-0.13272,-0.2469879999999999,0.967066,-0.1791,0.194592,1.039476,-0.18919,-0.075588,-0.002489,0.0053379999999999,0.075588,0.002489,-0.005338,-0.124278,-0.391524,-0.054151,0.1331919999999999,-0.400634,-0.047016,-0.1581179999999999,-0.937944,-0.046917,0.183942,-0.926364,-0.042127,1
139,-0.0313745,0.687407,0.0009459999999999,-0.1750845,0.508697,-0.017335,-0.2527145,0.7366670000000001,-0.089896,0.1184355,0.5232370000000001,-0.0499359999999999,0.1856255,0.7748970000000001,-0.119298,-0.2464245,0.959887,-0.165423,0.1973655,1.040197,-0.175693,-0.0762745,-0.0025699999999999,0.004676,0.0762745,0.00257,-0.004676,-0.1222945,-0.4077929999999999,-0.0374209999999999,0.1340655,-0.416173,-0.028565,-0.1560945,-0.949023,-0.031037,0.1857155,-0.937593,-0.02618,1
140,-0.031729,0.6916735,0.0128624999999999,-0.174613,0.5104635000000001,-0.0012745,-0.252283,0.7314935,-0.0764875,0.118947,0.5275535,-0.0342765,0.1890369999999999,0.7735335,-0.1061355,-0.245753,0.9488835,-0.1520335,0.2003569999999999,1.0389435,-0.1624935,-0.076984,-0.0026194999999999,0.0040534999999999,0.076984,0.0026194999999999,-0.0040535,-0.119913,-0.4198065,-0.0221415,0.1348869999999999,-0.4310465,-0.0130295,-0.154173,-0.9595065,-0.0159465,0.187057,-0.9484565,-0.0120635,1
141,-0.0327965,0.6973885,0.0182005,-0.1747805,0.5134185,0.0081995,-0.2531704999999999,0.7264885,-0.0693545,0.1189694999999999,0.5330185,-0.0249954999999999,0.1915994999999999,0.7703485,-0.1001915,-0.2463105,0.9413285,-0.1452975,0.2022295,1.0358385,-0.1575375,-0.0774885,-0.0030825,0.0034905,0.0774885,0.0030824999999999,-0.0034904999999999,-0.1186705,-0.4301515,-0.0146974999999999,0.1347795,-0.4439115,-0.0059604999999999,-0.1530805,-0.9673615,-0.0082685,0.1876895,-0.9581315,-0.0045964999999999,1
142,-0.0331889999999999,0.7001364999999999,0.019126,-0.175389,0.5185965,0.012308,-0.254319,0.7264765,-0.068284,0.119781,0.5380465,-0.020879,0.193471,0.7703365,-0.099615,-0.247559,0.9443965,-0.1452,0.203871,1.0358265000000002,-0.15669,-0.077967,-0.0030945,0.003472,0.077967,0.0030945,-0.003472,-0.118539,-0.4344735,-0.013021,0.1347809999999999,-0.4448535,-0.004272,-0.152439,-0.9671935,-0.006265,0.187851,-0.9577535,-0.002497,1
143,-0.0334029999999999,0.7025965,0.020134,-0.176053,0.5197165,0.015462,-0.256903,0.7264765,-0.06844,0.120607,0.5380465,-0.017574,0.195597,0.7703365,-0.099331,-0.2490029999999999,0.9438865,-0.145861,0.206127,1.0358265000000002,-0.158581,-0.078317,-0.0030945,0.0033559999999999,0.078317,0.0030945,-0.0033559999999999,-0.117933,-0.4347935,-0.011325,0.134937,-0.4457535,-0.0025399999999999,-0.151743,-0.9670635,-0.0044139999999999,0.188557,-0.9586435,-0.0005179999999999,1
144,-0.033787,0.7048465,0.021283,-0.1768429999999999,0.5197165,0.017603,-0.261473,0.7264765,-0.06945,0.121157,0.5380465,-0.014861,0.1999369999999999,0.7703365,-0.099469,-0.250703,0.9424565,-0.148517,0.208527,1.0358265000000002,-0.161187,-0.077925,-0.0030945,0.003258,0.077925,0.0030945,-0.0032579999999999,-0.117503,-0.4339135,-0.009648,0.135077,-0.4466535,-0.0009269999999999,-0.151353,-0.9670635,-0.0027329999999999,0.189037,-0.9590835,0.001204,0
145,-0.0336905,0.705783,0.0232505,-0.1771955,0.5198130000000001,0.0196775,-0.2676055,0.7235830000000001,-0.0709305,0.1224745,0.538143,-0.0120705,0.2073645,0.7657930000000001,-0.0992654999999999,-0.2526155,0.941153,-0.1520125,0.2120245,1.030023,-0.1663825,-0.0778515,-0.003191,0.0032034999999999,0.0778515,0.003191,-0.0032035,-0.1175355,-0.433817,-0.0104725,0.1355444999999999,-0.446557,-0.0013755,-0.1507855,-0.967807,-0.0013475,0.1892845,-0.959387,0.0029785,0
146,-0.033799,0.7072959999999999,0.025296,-0.178005,0.520806,0.02179,-0.275845,0.7191059999999999,-0.073433,0.124605,0.5385759999999999,-0.008985,0.217405,0.7549359999999999,-0.09822,-0.255005,0.940176,-0.157035,0.215475,1.0248160000000002,-0.172605,-0.077804,-0.003293,0.003303,0.077804,0.003293,-0.003303,-0.117875,-0.432984,-0.011231,0.1359749999999999,-0.446364,-0.001413,-0.150395,-0.967034,0.0002739999999999,0.189115,-0.958534,0.004757,0
147,-0.0340615,0.710197,0.0276529999999999,-0.1790945,0.520917,0.024166,-0.2873945,0.710727,-0.076745,0.1270455,0.5388369999999999,-0.005497,0.2298655,0.742007,-0.097025,-0.2581345,0.936157,-0.1644759999999999,0.2215154999999999,1.0050869999999998,-0.180726,-0.0777875,-0.003708,0.003364,0.0777875,0.003708,-0.003364,-0.1175845,-0.430473,-0.010789,0.1362455,-0.445843,-0.00129,-0.1502144999999999,-0.964633,0.0021089999999999,0.1894155,-0.956763,0.00663,0
148,-0.0344415,0.7135525,0.03003,-0.1803125,0.5201425,0.02675,-0.3009225,0.7003625,-0.078326,0.1295875,0.5390625,-0.0020359999999999,0.2443274999999999,0.7248425000000001,-0.09584,-0.2617525,0.9290225,-0.174159,0.2276375,0.9807025,-0.192159,-0.0778375,-0.0039195,0.003407,0.0778375,0.0039195,-0.003407,-0.1180125,-0.4302775,-0.010431,0.1363675,-0.4454875,-0.0009119999999999,-0.1501325,-0.9615675,0.003923,0.1894175,-0.9544175,0.008692,0
149,-0.0349075,0.7181755,0.032015,-0.1817435,0.5196955,0.028908,-0.3145935,0.6835654999999999,-0.078064,0.1322065,0.5380355,0.001214,0.2594165,0.7030455,-0.095135,-0.2688735,0.9091355,-0.1858649999999999,0.2343565,0.9487255,-0.2039049999999999,-0.0778395,-0.0041665,0.003379,0.0778395,0.0041664999999999,-0.003379,-0.1177735,-0.4279445,-0.0104109999999999,0.1363965,-0.4450945,-0.0005459999999999,-0.1499535,-0.9579745,0.00605,0.1887665,-0.9502645,0.010868,0
150,-0.035362,0.723481,0.0341225,-0.183375,0.5187309999999999,0.0310355,-0.326055,0.661171,-0.0750515,0.134825,0.537141,0.0044165,0.272835,0.676651,-0.0933285,-0.277625,0.882971,-0.1986885,0.242295,0.907401,-0.2123384999999999,-0.077835,-0.004514,0.0034375,0.077835,0.004514,-0.0034374999999999,-0.118485,-0.431189,-0.0097605,0.136535,-0.444569,-1.0500000000000093e-05,-0.149785,-0.953759,0.0081045,0.188145,-0.945519,0.0132614999999999,0
151,-0.0355975,0.728758,0.0364315,-0.1849565,0.517258,0.0330505,-0.3336365,0.6336579999999999,-0.0722474999999999,0.1373835,0.5356879999999999,0.0071955,0.2856035,0.644888,-0.0886415,-0.2871964999999999,0.847828,-0.2085025,0.2515335,0.8552379999999999,-0.2199125,-0.0778264999999999,-0.0049069999999999,0.0035344999999999,0.0778264999999999,0.004907,-0.0035345,-0.1185065,-0.431372,-0.0090285,0.1368635,-0.443972,0.0006484999999999,-0.1496265,-0.948792,0.0100775,0.1876535,-0.939222,0.0157205,0
152,-0.0359499999999999,0.7343505,0.038978,-0.186315,0.5154305,0.03494,-0.340255,0.6006604999999999,-0.069456,0.139785,0.5339705,0.009527,0.294815,0.6090905,-0.080262,-0.297925,0.7956004999999999,-0.21292,0.259795,0.7907305,-0.22593,-0.077914,-0.0052464999999999,0.003655,0.077914,0.0052465,-0.0036549999999999,-0.118855,-0.4354694999999999,-0.007861,0.1372249999999999,-0.4434295,0.001401,-0.149495,-0.9435195,0.012127,0.186935,-0.9322495,0.019089,0
153,-0.0364424999999999,0.7401310000000001,0.041609,-0.1875715,0.513181,0.036742,-0.3422515,0.5636110000000001,-0.066954,0.1417485,0.5314310000000001,0.011515,0.3007284999999999,0.571351,-0.0682329999999999,-0.3032515,0.739121,-0.21748,0.2679685,0.726661,-0.2244499999999999,-0.0780145,-0.0053999999999999,0.003766,0.0780145,0.0053999999999999,-0.0037659999999999,-0.1183215,-0.430349,-0.007081,0.1374485,-0.443089,0.00209,-0.1495715,-0.937739,0.014246,0.1860585,-0.922659,0.0225189999999999,0
154,-0.0370335,0.7436670000000001,0.0445675,-0.1888645,0.510027,0.0383755,-0.3419845,0.522037,-0.0580454999999999,0.1434555,0.5280670000000001,0.0133075,0.3020055,0.5348269999999999,-0.0557355,-0.3091645,0.669627,-0.2150615,0.2754755,0.6639569999999999,-0.2231314999999999,-0.0781274999999999,-0.005386,0.0038355,0.0781274999999999,0.0053859999999999,-0.0038354999999999,-0.1185644999999999,-0.432423,-0.0064674999999999,0.1375555,-0.442943,0.0026775,-0.1497345,-0.932473,0.0160595,0.1852055,-0.913943,0.0259985,0
155,-0.037729,0.7472255,0.047181,-0.189647,0.5075155,0.039841,-0.341737,0.4823455,-0.047993,0.144123,0.5249555,0.015108,0.3025029999999999,0.4986455,-0.042766,-0.312677,0.5992255,-0.212922,0.279383,0.5841555,-0.221602,-0.078271,-0.0053075,0.003856,0.078271,0.0053075,-0.0038559999999999,-0.118777,-0.4319545,-0.0060759999999999,0.137543,-0.4429045,0.00316,-0.149977,-0.9273745,0.01786,0.184313,-0.9056445,0.029319,0
156,-0.0384654999999999,0.7506005,0.0493959999999999,-0.1902404999999999,0.5053705000000001,0.041281,-0.3413405,0.4450405,-0.035884,0.1442095,0.5215105,0.016491,0.3029795,0.4618405,-0.029568,-0.3140705,0.5211105,-0.211024,0.2793394999999999,0.5062205,-0.214774,-0.0783765,-0.0052584999999999,0.004005,0.0783765,0.0052584999999999,-0.0040049999999999,-0.1190105,-0.4286795,-0.0058719999999999,0.1374395,-0.4428195,0.003624,-0.1502405,-0.9226595,0.019477,0.1836195,-0.8977695,0.032614,0
157,-0.039086,0.7537185,0.051044,-0.190676,0.5036885,0.042258,-0.339266,0.4088385,-0.0221409999999999,0.144084,0.5181085000000001,0.017416,0.303584,0.4249285,-0.0159449999999999,-0.314036,0.4405485,-0.204265,0.279744,0.4255285,-0.203515,-0.0785,-0.0053324999999999,0.004187,0.0785,0.0053325,-0.004187,-0.118626,-0.4234115,-0.006258,0.136954,-0.4384715,0.004011,-0.150456,-0.9184515,0.020846,0.1825439999999999,-0.8896815,0.034958,0
158,-0.0395924999999999,0.7567980000000001,0.05263,-0.1911334999999999,0.5018279999999999,0.042967,-0.3335435,0.3757479999999999,-0.0070919999999999,0.1436865,0.516008,0.016784,0.3002964999999999,0.391168,-0.0022769999999999,-0.3135734999999999,0.363518,-0.1924,0.2807665,0.349118,-0.18502,-0.0786105,-0.005322,0.004432,0.0786105,0.005322,-0.0044319999999999,-0.1187334999999999,-0.420512,-0.0062119999999999,0.1368865,-0.438572,0.004491,-0.1506335,-0.914472,0.022404,0.1820165,-0.8830119999999999,0.038,0
159,-0.039865,0.7592955,0.0539755,-0.191486,0.5005555,0.0433035,-0.322646,0.3446655,0.0093275,0.143344,0.5139155,0.0152165,0.291564,0.3587154999999999,0.0112715,-0.312086,0.2909255,-0.1741845,0.281504,0.2776155,-0.1610545,-0.078685,-0.0052354999999999,0.0046155,0.078685,0.0052355,-0.0046154999999999,-0.118696,-0.4175045,-0.0064084999999999,0.136894,-0.4390345,0.0048685,-0.150676,-0.9112245,0.0239385,0.181864,-0.8769644999999999,0.0408445,0
160,-0.0400735,0.761386,0.054828,-0.1916175,0.499826,0.043151,-0.3084774999999999,0.3175559999999999,0.024344,0.1431025,0.512356,0.012938,0.2798425,0.331246,0.022342,-0.3089075,0.223006,-0.15033,0.2808625,0.217116,-0.12986,-0.0787175,-0.005125,0.00477,0.0787175,0.0051249999999999,-0.00477,-0.1178874999999999,-0.412464,-0.007318,0.1366125,-0.4362939999999999,0.00482,-0.1506374999999999,-0.908774,0.02517,0.1816825,-0.874264,0.041908,0
161,-0.0402174999999999,0.7631945,0.0548825,-0.1918085,0.4993745,0.0425205,-0.2921984999999999,0.2949145,0.0383665,0.1430815,0.5108745,0.0103245,0.2666215,0.3090545,0.0307265,-0.2996685,0.1699844999999999,-0.1204575,0.2789415,0.1701745,-0.0966875,-0.0787195,-0.0050115,0.0049005,0.0787195,0.0050114999999999,-0.0049004999999999,-0.1169684999999999,-0.4072755,-0.0084515,0.1367215,-0.4366655,0.0045775,-0.1506584999999999,-0.9065855,0.0261855,0.1817814999999999,-0.8687655,0.0434425,0
162,-0.040308,0.7646735,0.05419,-0.191547,0.4991835,0.041239,-0.277177,0.2770735,0.050402,0.143123,0.5097235,0.0075239999999999,0.254623,0.2913535,0.036394,-0.286967,0.1244945,-0.0841119999999999,0.274123,0.1254675,-0.0629,-0.078701,-0.0048425,0.005028,0.078701,0.0048425,-0.005028,-0.116837,-0.4059065,-0.0085889999999999,0.136633,-0.4349865,0.004223,-0.150587,-0.9049365,0.027085,0.181773,-0.8670865,0.044118,0
163,-0.0402405,0.7659644999999999,0.0528525,-0.1912275,0.4994245,0.0398065,-0.2650375,0.2653145,0.0577084999999999,0.1434125,0.5088045,0.0047955,0.2433624999999999,0.2747045,0.0428205,-0.2732974999999999,0.0896215,-0.0492014999999999,0.2698925,0.0815095,-0.0303304999999999,-0.0786805,-0.0047104999999999,0.0051595,0.0786805,0.0047105,-0.0051594999999999,-0.1158375,-0.3999555,-0.0098825,0.1369125,-0.4343755,0.0035024999999999,-0.1504575,-0.9034855,0.0279775,0.1814825,-0.8628955,0.0447385,0
164,-0.0400975,0.7669015,0.0506355,-0.1909375,0.4998015,0.0383625,-0.2537075,0.2535215,0.0654695,0.1438124999999999,0.5082215,0.0022704999999999,0.2354125,0.2618915,0.0491495,-0.2590775,0.0561595,-0.0172055,0.2655825,0.0556195,0.0008335,-0.0786645,-0.0046345,0.0053024999999999,0.0786645,0.0046345,-0.0053024999999999,-0.1155974999999999,-0.3989785,-0.0101384999999999,0.1373225,-0.4346185,0.0031134999999999,-0.1503975,-0.9023485,0.0279834999999999,0.1818525,-0.8607484999999999,0.0459665,0
165,-0.039958,0.767432,0.0479104999999999,-0.190683,0.500182,0.0368735,-0.246123,0.2441519999999999,0.0725445,0.1442169999999999,0.507772,5.1499999999995993e-05,0.229267,0.252532,0.0543214999999999,-0.2505529999999999,0.03422,0.0112134999999999,0.261747,0.03832,0.0172094999999999,-0.078651,-0.004514,0.0054064999999999,0.078651,0.004514,-0.0054065,-0.114703,-0.392738,-0.0112895,0.1376969999999999,-0.434668,0.0026564999999999,-0.150403,-0.901548,0.0279204999999999,0.1826269999999999,-0.860188,0.0464565,0
166,-0.0397525,0.767432,0.044855,-0.1905645,0.500182,0.035564,-0.2410245,0.236792,0.077702,0.1447055,0.507772,-0.0018759999999999,0.2257255,0.248382,0.056829,-0.2454045,0.018095,0.027715,0.2597354999999999,0.026401,0.026048,-0.0786165,-0.004514,0.0054629999999999,0.0786165,0.004514,-0.0054629999999999,-0.1146745,-0.392328,-0.011125,0.1380555,-0.434258,0.002482,-0.1503745,-0.901398,0.028508,0.1831255,-0.860188,0.047638,0
167,-0.039505,0.767432,0.04169,-0.190501,0.500182,0.034404,-0.238481,0.233152,0.0805,0.145279,0.507772,-0.0032619999999999,0.2243689999999999,0.246072,0.05699,-0.242721,0.010087,0.037571,0.259739,0.020706,0.026098,-0.0785889999999999,-0.004514,0.005506,0.0785889999999999,0.004514,-0.005506,-0.114671,-0.392328,-0.0110749999999999,0.138449,-0.433488,0.002221,-0.150281,-0.901228,0.028939,0.183649,-0.8591479999999999,0.048723,0
168,-0.0392669999999999,0.767432,0.0385575,-0.190506,0.500182,0.0334255,-0.238406,0.233152,0.0811715,0.145864,0.507772,-0.0042594999999999,0.2243339999999999,0.246072,0.0569925,-0.242496,0.007654,0.0406985,0.259704,0.020648,0.0261005,-0.078566,-0.004514,0.0055045,0.078566,0.004514,-0.0055045,-0.114686,-0.392328,-0.0108645,0.1388039999999999,-0.432418,0.0020184999999999,-0.150186,-0.900778,0.0293175,0.183994,-0.857908,0.0496645,0
169,-0.039035,0.767662,0.0353809999999999,-0.190547,0.500872,0.032545,-0.238437,0.232672,0.081174,0.146453,0.5074919999999999,-0.004734,0.2243029999999999,0.2455919999999999,0.056995,-0.242527,0.0071739999999999,0.0407009999999999,0.259673,0.0201679999999999,0.0261029999999999,-0.078546,-0.004403,0.0055029999999999,0.078546,0.0044029999999999,-0.005503,-0.114717,-0.392808,-0.010862,0.1391529999999999,-0.431538,0.0019889999999999,-0.150057,-0.899688,0.0296349999999999,0.184073,-0.856888,0.0506409999999999,0
170,-0.0388115,0.7677525,0.0325995,-0.1905775,0.5015125,0.0318675,-0.2384775,0.2320325,0.0811775,0.1470225,0.5074225,-0.0048365,0.2242124999999999,0.2449525,0.0563405,-0.2425675,0.0065344999999999,0.0407045,0.2597925,0.0195284999999999,0.0257105,-0.0785325,-0.0043365,0.0055014999999999,0.0785325,0.0043364999999999,-0.0055014999999999,-0.1147075,-0.3934475,-0.0102835,0.1394825,-0.4307875,0.0019624999999999,-0.1499875,-0.8987575,0.0299145,0.1843925,-0.8575875000000001,0.0499225,0
171,-0.0385795,0.76767,0.030292,-0.1905764999999999,0.50213,0.031408,-0.2385065,0.2315499999999999,0.0811129999999999,0.1475735,0.50741,-0.004948,0.2255335,0.24611,0.053371,-0.2429164999999999,0.0057919999999999,0.0406659999999999,0.2621135,0.0191129999999999,0.0175569999999999,-0.0785105,-0.004275,0.0055099999999999,0.0785105,0.004275,-0.00551,-0.1147065,-0.3946,-0.009598,0.1398435,-0.43059,0.0018659999999999,-0.1498565,-0.89794,0.0303139999999999,0.1846435,-0.85682,0.0508389999999999,0
172,-0.0383504999999999,0.767463,0.0283875,-0.1905915,0.502693,0.0311205,-0.2402715,0.232393,0.0794914999999999,0.1480685,0.507493,-0.0051345,0.2274785,0.247933,0.0490625,-0.2462715,0.0081509999999999,0.0370785,0.2648185,0.024238,0.0030175,-0.0784815,-0.004182,0.0054805,0.0784815,0.0041819999999999,-0.0054804999999999,-0.1154715,-0.4001869999999999,-0.0083584999999999,0.1401484999999999,-0.431747,0.0025975,-0.1497515,-0.897267,0.0307645,0.1849085,-0.857977,0.0522935,0
173,-0.0382135,0.7672195,0.027211,-0.1906715,0.5031495,0.0309,-0.2441115,0.2345595,0.075781,0.1484185,0.5076195,-0.005391,0.2297685,0.2505395,0.04272,-0.2522615,0.0116344999999999,0.02618,0.2675285,0.0319875,-0.01528,-0.0784695,-0.0040935,0.0054109999999999,0.0784695,0.0040935,-0.0054109999999999,-0.1162914999999999,-0.4060405,-0.006787,0.1400485,-0.4319805,0.00269,-0.1498115,-0.8966105,0.031042,0.1848885,-0.8574404999999999,0.053041,0
174,-0.0381445,0.7669400000000001,0.026222,-0.1908595,0.50351,0.030585,-0.2489495,0.23748,0.070188,0.1486505,0.50773,-0.0054899999999999,0.2319605,0.25372,0.034582,-0.2594495,0.017665,0.008921,0.2706605,0.03728,-0.0390369999999999,-0.0784904999999999,-0.0040369999999999,0.005308,0.0784904999999999,0.004037,-0.005308,-0.1172095,-0.41181,-0.005072,0.1398805,-0.4325199999999999,0.00293,-0.1500195,-0.89605,0.031161,0.1860705,-0.8612,0.051795,0
175,-0.03818,0.766686,0.025623,-0.191141,0.503856,0.030189,-0.254451,0.241006,0.062718,0.148689,0.507846,-0.0055009999999999,0.233759,0.257626,0.024925,-0.266651,0.0251689999999999,-0.0115769999999999,0.270569,0.044036,-0.064082,-0.078527,-0.0039809999999999,0.00519,0.078527,0.0039809999999999,-0.00519,-0.117401,-0.411584,-0.0042719999999999,0.139769,-0.4339639999999999,0.00334,-0.150351,-0.895444,0.031191,0.185259,-0.8613540000000001,0.051444,0
176,-0.038257,0.7665175,0.025115,-0.191439,0.5041775,0.029761,-0.259629,0.2456375,0.0539759999999999,0.148671,0.5079675,-0.005467,0.234821,0.2617275,0.0146039999999999,-0.273409,0.0336645,-0.034936,0.269831,0.0519365,-0.088763,-0.0785569999999999,-0.0039244999999999,0.005068,0.0785569999999999,0.0039244999999999,-0.005068,-0.117519,-0.4112325,-0.003544,0.139631,-0.4348425,0.0037459999999999,-0.150709,-0.8948525,0.0312029999999999,0.185661,-0.8645725,0.050164,0
177,-0.0383709999999999,0.7662975,0.0245799999999999,-0.1917589999999999,0.5044675,0.0294159999999999,-0.264139,0.2506475,0.0443309999999999,0.148581,0.5081074999999999,-0.0053999999999999,0.234911,0.2666775,0.0048249999999999,-0.278099,0.0433885,-0.05739,0.267761,0.0621935,-0.1109619999999999,-0.078583,-0.0038865,0.004951,0.078583,0.0038865,-0.004951,-0.117679,-0.4108525,-0.002857,0.139521,-0.4362525,0.0042199999999999,-0.151139,-0.8945325000000001,0.031125,0.185231,-0.8654425,0.049655,0
178,-0.0384749999999999,0.7662235,0.021951,-0.192197,0.5043335,0.028071,-0.270467,0.2534735,0.028459,0.148863,0.5077035,-0.0048809999999999,0.235433,0.2734435,-0.0119639999999999,-0.288217,0.0566445,-0.085173,0.278533,0.0773824999999999,-0.1373829999999999,-0.078735,-0.0037324999999999,0.004547,0.078735,0.0037324999999999,-0.0045469999999999,-0.1229069999999999,-0.4438465,0.00438,0.139253,-0.4358565,0.004333,-0.151027,-0.8950165,0.031722,0.182953,-0.8580365,0.053254,0
179,-0.038617,0.7662225,0.022135,-0.192355,0.5047425,0.0282139999999999,-0.272625,0.2602925,0.0223699999999999,0.148335,0.5080225,-0.005051,0.234005,0.2804625,-0.017341,-0.2894049999999999,0.0722005,-0.1088919999999999,0.270505,0.0928705,-0.160252,-0.078797,-0.0037914999999999,0.0043519999999999,0.078797,0.0037915,-0.004352,-0.123525,-0.4433775,0.0037029999999999,0.138815,-0.4357974999999999,0.0042199999999999,-0.151815,-0.8949075000000001,0.0309459999999999,0.181805,-0.8582775,0.051637,0
180,-0.0386975,0.7662715,0.0232335,-0.1926375,0.5048615,0.0286695,-0.2738575,0.2718115,0.0185155,0.1479725,0.5081015,-0.0052754999999999,0.2333124999999999,0.2825315,-0.0195545,-0.2900475,0.0829324999999999,-0.1260385,0.2656925,0.1052645,-0.1674284999999999,-0.0787195,-0.0039005,0.0044335,0.0787195,0.0039004999999999,-0.0044335,-0.1238975,-0.4434484999999999,0.0033345,0.1386425,-0.4359685,0.0044925,-0.1527175,-0.8943384999999999,0.0299965,0.1811225,-0.8584385,0.0522775,0
181,-0.038754,0.7661105,0.0235105,-0.192801,0.5047705,0.0288735,-0.275891,0.2757604999999999,0.0154495,0.147749,0.5082504999999999,-0.0054015,0.231279,0.2906005,-0.0221444999999999,-0.290471,0.0956265,-0.1416145,0.255619,0.1282005,-0.1921745,-0.07866,-0.0039655,0.0044785,0.07866,0.0039654999999999,-0.0044785,-0.124141,-0.4433295,0.0031275,0.138919,-0.4380295,0.0051455,-0.153291,-0.8947395,0.0298035,0.194049,-0.8954595,0.0308545,0
182,-0.039122,0.7663225,0.0243025,-0.193135,0.5048325,0.0286895,-0.277155,0.2830025,0.0130785,0.147365,0.5084025,-0.0058145,0.229875,0.2940525,-0.0230405,-0.290775,0.1042785,-0.1454855,0.248935,0.1448635,-0.1811455,-0.078641,-0.0039404999999999,0.0044944999999999,0.078641,0.0039404999999999,-0.0044944999999999,-0.1162349999999999,-0.3885075,-0.0053085,0.138705,-0.4385875,0.0050125,-0.153915,-0.8941175,0.0301035,0.1887249999999999,-0.8881575,0.0303715,0
183,-0.0394235,0.7663110000000001,0.0249695,-0.1934725,0.504701,0.0285365,-0.2775825,0.288041,0.0104264999999999,0.1469774999999999,0.508481,-0.0060765,0.2293775,0.294641,-0.0236395,-0.2926225,0.129324,-0.1384245,0.2484875,0.140958,-0.1771545,-0.0786245,-0.003935,0.0045095,0.0786245,0.003935,-0.0045095,-0.1165925,-0.388639,-0.0055715,0.1383075,-0.438509,0.0047674999999999,-0.1547325,-0.8938889999999999,0.0309834999999999,0.1876275,-0.8875489999999999,0.0295595,0
184,-0.0397619999999999,0.766041,0.0254395,-0.193857,0.504721,0.0284885,-0.277187,0.291061,0.0089715,0.146603,0.508671,-0.0062305,0.228873,0.294741,-0.0241805,-0.288057,0.125406,-0.1521575,0.245993,0.139657,-0.1764875,-0.078576,-0.004104,0.0046365,0.078576,0.0041039999999999,-0.0046364999999999,-0.116817,-0.3884689999999999,-0.0058564999999999,0.137973,-0.4383289999999999,0.0045665,-0.155337,-0.893319,0.0308345,0.190083,-0.889599,0.0294255,0
