sb224sc-HT22-VT27/4dt907/src/data/labeled_files/A62_kinect.csv
FrameNo,nose_3d_x,nose_3d_y,nose_3d_z,left_shoulder_3d_x,left_shoulder_3d_y,left_shoulder_3d_z,left_elbow_3d_x,left_elbow_3d_y,left_elbow_3d_z,right_shoulder_3d_x,right_shoulder_3d_y,right_shoulder_3d_z,right_elbow_3d_x,right_elbow_3d_y,right_elbow_3d_z,left_wrist_3d_x,left_wrist_3d_y,left_wrist_3d_z,right_wrist_3d_x,right_wrist_3d_y,right_wrist_3d_z,left_hip_3d_x,left_hip_3d_y,left_hip_3d_z,right_hip_3d_x,right_hip_3d_y,right_hip_3d_z,left_knee_3d_x,left_knee_3d_y,left_knee_3d_z,right_knee_3d_x,right_knee_3d_y,right_knee_3d_z,left_ankle_3d_x,left_ankle_3d_y,left_ankle_3d_z,right_ankle_3d_x,right_ankle_3d_y,right_ankle_3d_z,activity_label
0,-0.032119,0.768656,0.031091,-0.2020519999999999,0.505966,0.015128,-0.252242,0.243876,0.022817,0.145498,0.499676,0.005435,0.208028,0.225486,0.021083,-0.237572,0.016731,-0.064529,0.220768,-0.027052,-0.072719,-0.077631,-0.003643,-0.000965,0.077631,0.003643,0.000965,-0.1243819999999999,-0.390094,-0.0130239999999999,0.129978,-0.442814,0.017155,-0.165562,-0.900014,0.035678,0.167908,-0.888314,0.038772,0
1,-0.032143,0.768757,0.031091,-0.202113,0.506007,0.015295,-0.252293,0.243867,0.022769,0.145537,0.499747,0.005437,0.208027,0.225527,0.021058,-0.237093,0.01496,-0.06472,0.221337,-0.024981,-0.07259,-0.077628,-0.0037,-0.0009679999999999,0.077628,0.0037,0.000968,-0.124333,-0.3900929999999999,-0.0130179999999999,0.124617,-0.3975129999999999,0.009831,-0.165523,-0.899253,0.036155,0.170287,-0.884523,0.037744,0
2,-0.0322145,0.76871,0.0309855,-0.2021244999999999,0.50601,0.0153145,-0.2522845,0.24386,0.0228005,0.1456055,0.4998,0.0055914999999999,0.2081055,0.22542,0.0209375,-0.2362445,0.013568,-0.0652254999999999,0.2221455,-0.024232,-0.0734654999999999,-0.0776265,-0.003703,-0.0009725,0.0776265,0.003703,0.0009725,-0.1243645,-0.3902,-0.0129765,0.1293055,-0.43494,0.0144195,-0.1657445,-0.89912,0.0357335,0.1699255,-0.88378,0.0373725,0
3,-0.0323105,0.7686355,0.0309925,-0.2021495,0.5059955,0.0153845,-0.2522995,0.2437055,0.0228135,0.1456205,0.4997655,0.0056555,0.2081605,0.2256254999999999,0.0209715,-0.2349195,0.0116445,-0.0661144999999999,0.2249205,-0.0042055,-0.0720944999999999,-0.0776275,-0.0036915,-0.0009944999999999,0.0776275,0.0036915,0.0009945,-0.1243595,-0.3902445,-0.0129694999999999,0.1294105,-0.4352945,0.0145205,-0.1657695,-0.9005845,0.0351645,0.1719305,-0.8951445,0.0338205,0
4,-0.0324135,0.768612,0.0301299999999999,-0.2021845,0.505962,0.0149849999999999,-0.2523245,0.2436019999999999,0.022619,0.1456155,0.499792,0.0052239999999999,0.2083855,0.226302,0.021193,-0.2341545,0.010558,-0.066,0.2250055,-0.0045179999999999,-0.0722599999999999,-0.0776375,-0.003685,-0.0010319999999999,0.0776375,0.003685,0.0010319999999999,-0.1243944999999999,-0.390198,-0.012555,0.1294455,-0.437308,0.0156369999999999,-0.1676445,-0.891748,0.038773,0.1609755,-0.900818,0.053963,0
5,-0.032554,0.7685230000000001,0.0301365,-0.202378,0.5058630000000001,0.0149705,-0.252418,0.2434629999999999,0.0226335,0.1455219999999999,0.499823,0.0054035,0.208482,0.226653,0.0211785,-0.233808,0.011466,-0.0656665,0.224872,-0.001803,-0.0709964999999999,-0.077649,-0.003686,-0.0010454999999999,0.077649,0.003686,0.0010455,-0.124468,-0.3900869999999999,-0.0125694999999999,0.1293019999999999,-0.441167,0.0164045,-0.1666579999999999,-0.896447,0.0395495,0.164472,-0.895127,0.0472055,0
6,-0.032653,0.7685115,0.0302469999999999,-0.202532,0.5058215,0.0152219999999999,-0.252702,0.2430415,0.022854,0.1454379999999999,0.4998415,0.0055869999999999,0.2086279999999999,0.2265515,0.0212179999999999,-0.232902,0.0111435,-0.06501,0.2237579999999999,-0.0085375,-0.07188,-0.0776459999999999,-0.0036724999999999,-0.001119,0.0776459999999999,0.0036725,0.0011189999999999,-0.124582,-0.3897285,-0.012613,0.1241479999999999,-0.4034284999999999,0.0111009999999999,-0.166822,-0.8958984999999999,0.0395289999999999,0.163288,-0.8927885,0.045672,0
7,-0.0332485,0.7684805,0.031427,-0.2026595,0.5056704999999999,0.0153209999999999,-0.2520595,0.2439505,0.021778,0.1451805,0.4999405,0.005496,0.2088105,0.2269604999999999,0.0194459999999999,-0.2314595,0.0122975,-0.065461,0.2224404999999999,-0.0082205,-0.072331,-0.0776775,-0.0037935,-0.001043,0.0776775,0.0037935,0.001043,-0.1246395,-0.3898695,-0.012742,0.1284905,-0.4364294999999999,0.0157999999999999,-0.1671795,-0.8966395,0.0382399999999999,0.1672505,-0.8936595,0.041149,0
8,-0.0336985,0.768563,0.0322065,-0.2027135,0.505433,0.0152874999999999,-0.2514135,0.244913,0.0198885,0.1450265,0.5001329999999999,0.0054494999999999,0.2090065,0.2280829999999999,0.0164465,-0.2308835,0.012358,-0.0674255,0.2228065,-0.005615,-0.0736855,-0.0776975,-0.003886,-0.0010285,0.0776975,0.003886,0.0010285,-0.1246934999999999,-0.389747,-0.0127145,0.1284265,-0.436697,0.0158274999999999,-0.1674834999999999,-0.896047,0.0385085,0.1669465,-0.893927,0.0411875,0
9,-0.0342484999999999,0.7687470000000001,0.033509,-0.2027635,0.5053770000000001,0.015137,-0.2510834999999999,0.246447,0.01603,0.1447765,0.500317,0.005357,0.2091065,0.2309169999999999,0.01109,-0.2311835,0.013297,-0.0732,0.2233465,-0.000353,-0.0786299999999999,-0.0777315,-0.00389,-0.0009899999999999,0.0777315,0.00389,0.00099,-0.1247535,-0.389683,-0.0127279999999999,0.1283564999999999,-0.436753,0.016246,-0.1676735,-0.895593,0.038546,0.1661965,-0.893983,0.041327,0
10,-0.0348184999999999,0.7689579999999999,0.0353005,-0.2027755,0.505308,0.0148275,-0.2514055,0.249008,0.0099015,0.1444245,0.5005679999999999,0.0051194999999999,0.2091945,0.235998,0.0035864999999999,-0.2317054999999999,0.018218,-0.0843735,0.2245245,0.006406,-0.0893635,-0.0777295,-0.003891,-0.0009414999999999,0.0777295,0.003891,0.0009414999999999,-0.1247954999999999,-0.389632,-0.0127504999999999,0.1283645,-0.437232,0.0163405,-0.1678655,-0.895302,0.0383295,0.1658045,-0.8940520000000001,0.0412515,0
11,-0.0354375,0.7691534999999999,0.0376255,-0.2027925,0.5053235,0.0143685,-0.2518725,0.2534635,0.0005724999999999,0.1439475,0.5009235,0.0047724999999999,0.2092475,0.2439134999999999,-0.0062844999999999,-0.2324925,0.0264335,-0.1011624999999999,0.2260275,0.0156165,-0.1068524999999999,-0.0777255,-0.0039085,-0.0008454999999999,0.0777255,0.0039085,0.0008454999999999,-0.1248325,-0.3896865,-0.0127545,0.1283675,-0.4375965,0.0163475,-0.1680725,-0.8953565,0.0379695,0.1651975,-0.8933465,0.0409105,0
12,-0.0360194999999999,0.769373,0.040447,-0.2027564999999999,0.505283,0.013812,-0.2524565,0.260773,-0.011281,0.1432935,0.501413,0.004323,0.2096235,0.2537629999999999,-0.018815,-0.2339965,0.042589,-0.1215479999999999,0.2272335,0.028467,-0.131948,-0.0777325,-0.003939,-0.0007459999999999,0.0777325,0.003939,0.000746,-0.1248864999999999,-0.389517,-0.0127709999999999,0.1283635,-0.437187,0.016135,-0.1682364999999999,-0.895397,0.037505,0.1657535,-0.892427,0.039494,0
13,-0.0365525,0.769628,0.043474,-0.2025635,0.5052380000000001,0.01296,-0.2536535,0.270128,-0.0265239999999999,0.1424765,0.502038,0.003722,0.2104865,0.265548,-0.033763,-0.2375634999999999,0.064229,-0.147264,0.2286865,0.048369,-0.1611439999999999,-0.0778105,-0.00397,-0.0006429999999999,0.0778105,0.00397,0.000643,-0.1248735,-0.3895619999999999,-0.0129149999999999,0.1284765,-0.435922,0.016269,-0.1684235,-0.8950319999999999,0.036629,0.1660964999999999,-0.891512,0.037891,0
14,-0.037023,0.7698885000000001,0.0466025,-0.202125,0.5051885,0.0117725,-0.2554349999999999,0.2808785,-0.0434904999999999,0.141455,0.5028185000000001,0.0029935,0.212035,0.2801484999999999,-0.0517744999999999,-0.240175,0.0947845,-0.1782595,0.230045,0.0792585,-0.1930195,-0.077928,-0.0040185,-0.0006315,0.077928,0.0040184999999999,0.0006315,-0.125015,-0.3893615,-0.0123964999999999,0.1291449999999999,-0.4388015,0.0161525,-0.168615,-0.8947315,0.0354465,0.166655,-0.8907915,0.0364425,0
15,-0.037421,0.770034,0.0495795,-0.201674,0.5045839999999999,0.0103975,-0.257504,0.300014,-0.0669595,0.140246,0.503814,0.0021805,0.213916,0.297394,-0.0715675,-0.242854,0.130334,-0.2146375,0.230596,0.115694,-0.2313475,-0.078031,-0.004074,-0.0006245,0.078031,0.0040739999999999,0.0006245,-0.125374,-0.390246,-0.0117024999999999,0.129346,-0.4396859999999999,0.0158555,-0.168804,-0.894956,0.0341705,0.167106,-0.890186,0.0349105,0
16,-0.0377374999999999,0.7700945,0.052594,-0.2008045,0.5039945,0.009129,-0.2598945,0.3189245,-0.089989,0.1387755,0.5050545,0.0015259999999999,0.2158055,0.3191545,-0.0934789999999999,-0.2453145,0.1656745,-0.251199,0.2299655,0.1516944999999999,-0.270669,-0.0781314999999999,-0.0041335,-0.0006029999999999,0.0781314999999999,0.0041335,0.0006029999999999,-0.1258145,-0.3908955,-0.0112589999999999,0.1295555,-0.4405955,0.015432,-0.1689545,-0.8951955,0.032802,0.1671855,-0.8896355,0.033388,0
17,-0.0378625,0.7700655,0.0553614999999999,-0.1993715,0.5035455,0.0082024999999999,-0.2623215,0.3408455,-0.1123785,0.1371485,0.5065555,0.0012174999999999,0.2175284999999999,0.3455755,-0.1142785,-0.2476815,0.2136255,-0.2931485,0.2281785,0.2037455,-0.3124185,-0.0782255,-0.0042085,-0.0006525,0.0782255,0.0042085,0.0006524999999999,-0.1262515,-0.3916044999999999,-0.0109775,0.1297785,-0.4399645,0.0149174999999999,-0.1690515,-0.8953544999999999,0.0312785,0.1672685,-0.8893044999999999,0.0317685,0
18,-0.0377845,0.7697415,0.057675,-0.1976095,0.5029915,0.007532,-0.2655495,0.3662615,-0.133877,0.1355305,0.5080515,0.001257,0.2189505,0.3739015,-0.134917,-0.2503195,0.2703715,-0.329767,0.2266405,0.2621815,-0.350207,-0.0783455,-0.0043015,-0.0006659999999999,0.0783455,0.0043015,0.0006659999999999,-0.1269095,-0.3958285,-0.010086,0.1300405,-0.4394085,0.014358,-0.1690895,-0.8958385,0.029797,0.1674005,-0.8888885,0.030132,0
19,-0.037591,0.7692845,0.059526,-0.195542,0.5025745,0.007081,-0.269792,0.3958145,-0.153183,0.133938,0.5098245,0.001781,0.2199279999999999,0.4039645,-0.154113,-0.253442,0.3323345,-0.356723,0.225568,0.3291245,-0.3786629999999999,-0.07848,-0.0043964999999999,-0.0006649999999999,0.07848,0.0043965,0.0006649999999999,-0.127002,-0.3964655,-0.0102029999999999,0.130278,-0.4389855,0.013849,-0.169072,-0.8963155,0.02847,0.166798,-0.8884855,0.028685,0
20,-0.0372205,0.7685379999999999,0.060922,-0.1934334999999999,0.502718,0.007008,-0.2737835,0.426858,-0.167845,0.1323765,0.511808,0.00283,0.2205365,0.436568,-0.168785,-0.2562635,0.399988,-0.373745,0.2249365,0.401908,-0.396195,-0.0785895,-0.004472,-0.0006969999999999,0.0785895,0.004472,0.0006969999999999,-0.1269134999999999,-0.397312,-0.0103599999999999,0.1305965,-0.438692,0.013453,-0.1689535,-0.897142,0.027327,0.1664865,-0.8888820000000001,0.027486,0
21,-0.0367674999999999,0.767474,0.061976,-0.1914065,0.503144,0.007421,-0.2768765,0.458524,-0.177672,0.1308635,0.514414,0.004386,0.2204835,0.4716639999999999,-0.178482,-0.2571365,0.466304,-0.385912,0.2229335,0.4783239999999999,-0.402492,-0.0786795,-0.004506,-0.0008289999999999,0.0786795,0.004506,0.0008289999999999,-0.1274665,-0.402546,-0.0097079999999999,0.1309835,-0.438546,0.013205,-0.1687065,-0.898306,0.026562,0.1660835,-0.889816,0.0268419999999999,0
22,-0.036271,0.7660429999999999,0.062745,-0.189377,0.5041829999999999,0.0084539999999999,-0.278547,0.493633,-0.183134,0.129643,0.516913,0.0062519999999999,0.220663,0.507763,-0.184384,-0.256837,0.532033,-0.3893839999999999,0.2197029999999999,0.554063,-0.402784,-0.078734,-0.004564,-0.000927,0.078734,0.0045639999999999,0.0009269999999999,-0.1279469999999999,-0.408177,-0.0087129999999999,0.1313929999999999,-0.438637,0.0127439999999999,-0.1683569999999999,-0.8997470000000001,0.0264249999999999,0.1658029999999999,-0.8910870000000001,0.0267649999999999,0
23,-0.0358065,0.764432,0.063004,-0.1875365,0.5052220000000001,0.010003,-0.2792865,0.5290520000000001,-0.185355,0.1286635,0.5194120000000001,0.008282,0.2210735,0.543602,-0.185275,-0.2564465,0.592932,-0.389405,0.2145135,0.624132,-0.402555,-0.0787705,-0.004593,-0.0009149999999999,0.0787705,0.004593,0.000915,-0.1274964999999999,-0.409728,-0.0087439999999999,0.1317235,-0.439188,0.012719,-0.1680164999999999,-0.901628,0.026399,0.1657435,-0.892578,0.027122,0
24,-0.0352895,0.762366,0.06298,-0.1857425,0.5062460000000001,0.011571,-0.2797524999999999,0.558336,-0.185337,0.1278875,0.521736,0.010177,0.2211975,0.579306,-0.185277,-0.2561124999999999,0.655926,-0.389427,0.2090275,0.691976,-0.402297,-0.0788355,-0.004561,-0.0009119999999999,0.0788355,0.0045609999999999,0.0009119999999999,-0.1270325,-0.410834,-0.0087659999999999,0.1321874999999999,-0.441374,0.012697,-0.1676325,-0.903334,0.026378,0.1657975,-0.894284,0.027371,0
25,-0.034512,0.75976,0.0629435,-0.184269,0.50832,0.0128445,-0.279609,0.5894,-0.1853445,0.127421,0.52468,0.0116475,0.220381,0.6116400000000001,-0.1852345,-0.253949,0.72246,-0.3895245,0.203731,0.76281,-0.3976945,-0.078904,-0.004628,-0.0009084999999999,0.078904,0.004628,0.0009085,-0.126459,-0.41239,-0.0087925,0.132401,-0.4420099999999999,0.0125295,-0.167129,-0.90579,0.0264855,0.1665009999999999,-0.89718,0.0276865,0
26,-0.033662,0.7569855,0.062926,-0.183299,0.5104955,0.013784,-0.279079,0.6192255,-0.185341,0.127161,0.5275555,0.012732,0.218231,0.6400155,-0.185111,-0.252419,0.7786255,-0.3857509999999999,0.198131,0.8182955,-0.3925209999999999,-0.07899,-0.0046474999999999,-0.0008819999999999,0.07899,0.0046474999999999,0.000882,-0.125269,-0.4077145,-0.0102519999999999,0.132501,-0.4426845,0.012253,-0.166599,-0.9087645,0.026656,0.167321,-0.9004245,0.027876,0
27,-0.0328335,0.754081,0.0629685,-0.1824035,0.5128609999999999,0.0148495,-0.2781235,0.645721,-0.1790764999999999,0.1268965,0.530361,0.0135925,0.2155165,0.665551,-0.1820365,-0.2511335,0.8276209999999999,-0.3722765,0.1931565,0.8664909999999999,-0.3748665,-0.0789835,-0.004523,-0.0008654999999999,0.0789835,0.0045229999999999,0.0008655,-0.1246734999999999,-0.408389,-0.0105564999999999,0.1325764999999999,-0.443399,0.0120015,-0.1660135,-0.912289,0.0271125,0.1679965,-0.904329,0.0282555,0
28,-0.0322275,0.7509319999999999,0.062475,-0.1816865,0.5151519999999999,0.016082,-0.2770865,0.6677719999999999,-0.170847,0.1266635,0.5327719999999999,0.014191,0.2124935,0.6881219999999999,-0.174387,-0.2497064999999999,0.868502,-0.355877,0.1897835,0.906022,-0.349417,-0.0789485,-0.004369,-0.0009279999999999,0.0789485,0.0043689999999999,0.000928,-0.1233465,-0.404628,-0.011124,0.1326235,-0.444048,0.011845,-0.1653265,-0.915998,0.027803,0.1685935,-0.908678,0.028964,0
29,-0.0316975,0.7479955,0.0616899999999999,-0.1810554999999999,0.5170955,0.017384,-0.2760255,0.6870855,-0.1604809999999999,0.1265545,0.5348755000000001,0.014991,0.2093944999999999,0.7065055,-0.164771,-0.2481855,0.9005255,-0.329921,0.1872444999999999,0.9380855,-0.325531,-0.0789025,-0.0043115,-0.000941,0.0789025,0.0043114999999999,0.000941,-0.1226655,-0.4042845,-0.0113179999999999,0.1325545,-0.4443145,0.011878,-0.1647055,-0.9197045,0.02864,0.1690445,-0.9124545,0.0298119999999999,0
30,-0.0312365,0.74526,0.0606545,-0.1804764999999999,0.51867,0.0188895,-0.2738465,0.7029700000000001,-0.1471525,0.1263735,0.5366200000000001,0.0160745,0.2065334999999999,0.7210000000000001,-0.1517425,-0.2472665,0.92628,-0.3021225,0.1858735,0.96349,-0.2958825,-0.0788325,-0.0043149999999999,-0.0010924999999999,0.0788325,0.0043149999999999,0.0010924999999999,-0.1215665,-0.40087,-0.0113324999999999,0.1323735,-0.44441,0.0121005,-0.1641365,-0.92396,0.0299185,0.1696734999999999,-0.9171,0.0310375,0
31,-0.0309894999999999,0.7424229999999999,0.0595145,-0.1802975,0.519473,0.0205645,-0.2708975,0.713343,-0.1326435,0.1256225,0.539083,0.0173774999999999,0.2036724999999999,0.732483,-0.1370135,-0.2469275,0.946503,-0.2747935,0.1844525,0.982533,-0.2679535,-0.0787215,-0.004345,-0.0013465,0.0787215,0.004345,0.0013464999999999,-0.1210575,-0.401317,-0.0109404999999999,0.1320724999999999,-0.444477,0.0125064999999999,-0.1635575,-0.928517,0.0313414999999999,0.1704325,-0.921867,0.0323935,0
32,-0.030842,0.7393405000000001,0.058214,-0.180173,0.5201205000000001,0.022222,-0.268113,0.7220605,-0.1185519999999999,0.124817,0.5418805000000001,0.018332,0.200957,0.7420705000000001,-0.123502,-0.2469529999999999,0.9636105,-0.250592,0.183307,0.9976105,-0.242972,-0.078572,-0.0043304999999999,-0.001652,0.078572,0.0043305,0.001652,-0.120563,-0.4021595,-0.010545,0.131777,-0.4446195,0.012853,-0.1629729999999999,-0.9333595,0.032717,0.171317,-0.9268695,0.033719,0
33,-0.0307595,0.7366130000000001,0.056802,-0.1800335,0.520973,0.0237269999999999,-0.2655335,0.7289030000000001,-0.105866,0.1239765,0.545073,0.0189659999999999,0.1983365,0.751383,-0.111736,-0.2468735,0.973763,-0.225706,0.1823165,1.010163,-0.220096,-0.0783435,-0.004319,-0.001908,0.0783435,0.0043189999999999,0.001908,-0.1202235,-0.406887,-0.009409,0.1314765,-0.444737,0.013169,-0.1623935,-0.937947,0.033964,0.1720165,-0.931717,0.034863,0
34,-0.0307825,0.734201,0.0553645,-0.1799645,0.5204909999999999,0.0250355,-0.2629645,0.733991,-0.0935894999999999,0.1231355,0.547581,0.0194605,0.1959255,0.759721,-0.1007995,-0.2473545,0.980071,-0.2039495,0.1815254999999999,1.021071,-0.2000395,-0.0781625,-0.004324,-0.0021974999999999,0.0781625,0.004324,0.0021975,-0.1201345,-0.407089,-0.0089725,0.1311855,-0.444839,0.0133765,-0.1619345,-0.942049,0.0349285,0.1725054999999999,-0.936109,0.0358595,0
35,-0.03082,0.731917,0.054187,-0.179922,0.519637,0.0261879999999999,-0.260592,0.737167,-0.082337,0.122358,0.5497770000000001,0.0199679999999999,0.193778,0.767077,-0.091617,-0.247452,0.983507,-0.184277,0.180928,1.0305069999999998,-0.1826269999999999,-0.0780049999999999,-0.004403,-0.002499,0.0780049999999999,0.0044029999999999,0.0024989999999999,-0.120352,-0.411193,-0.007806,0.130998,-0.444863,0.0135479999999999,-0.161482,-0.945813,0.035779,0.172928,-0.939853,0.0368569999999999,0
36,-0.0309534999999999,0.7297229999999999,0.053241,-0.1799525,0.5184629999999999,0.0270979999999999,-0.2584825,0.739463,-0.072559,0.1217075,0.5518529999999999,0.0204099999999999,0.1917875,0.7738130000000001,-0.084029,-0.2480024999999999,0.986283,-0.167179,0.1805075,1.038083,-0.168529,-0.0779045,-0.0045829999999999,-0.0028019999999999,0.0779045,0.004583,0.0028019999999999,-0.1201925,-0.414807,-0.00707,0.1307975,-0.444787,0.013648,-0.1610725,-0.949087,0.036528,0.1733675,-0.942857,0.037736,0
37,-0.0312184999999999,0.7278445,0.052561,-0.1800125,0.5171444999999999,0.0278079999999999,-0.2566425,0.7412245,-0.064384,0.1210875,0.5539645,0.0208419999999999,0.1898975,0.7798544999999999,-0.078005,-0.2487125,0.9895845,-0.153115,0.1800575,1.0442844999999998,-0.157175,-0.0777684999999999,-0.0048224999999999,-0.003033,0.0777684999999999,0.0048225,0.0030329999999999,-0.1199125,-0.4136755,-0.007206,0.1305675,-0.4446355,0.0137169999999999,-0.1608125,-0.9521355,0.037112,0.1734375,-0.9457155,0.038466,0
38,-0.0315234999999999,0.726084,0.0520435,-0.1801005,0.5155339999999999,0.0283555,-0.2551905,0.742324,-0.0576395,0.1204295,0.556144,0.0211804999999999,0.1881495,0.784804,-0.0732545,-0.2501505,0.989484,-0.1412145,0.1796895,1.049084,-0.1475745,-0.0776175,-0.0050089999999999,-0.0032635,0.0776175,0.0050089999999999,0.0032634999999999,-0.1201005,-0.415726,-0.0067885,0.1303095,-0.444556,0.0136785,-0.1605505,-0.955106,0.0376965,0.1734395,-0.948526,0.0389155,0
39,-0.0318555,0.724548,0.0517035,-0.1802405,0.513978,0.0286524999999999,-0.2542205,0.743378,-0.0526635,0.1199495,0.557908,0.0213854999999999,0.1864695,0.789248,-0.0696585,-0.2514105,0.988868,-0.1326784999999999,0.1793894999999999,1.053268,-0.1405485,-0.0774845,-0.005169,-0.0034385,0.0774845,0.0051689999999999,0.0034384999999999,-0.1203405,-0.416822,-0.0066104999999999,0.1300095,-0.444482,0.0135024999999999,-0.1603405,-0.957342,0.0380295,0.1733695,-0.950652,0.0392285,0
40,-0.0319469999999999,0.7235185,0.051463,-0.18032,0.5126685,0.028738,-0.2533,0.7445085,-0.0486849999999999,0.11987,0.5589185000000001,0.021389,0.18516,0.7937485,-0.067048,-0.25183,0.9920885,-0.128305,0.1795,1.0570885,-0.135205,-0.077339,-0.0052605,-0.0034449999999999,0.077339,0.0052605,0.003445,-0.12076,-0.4204515,-0.0058989999999999,0.12976,-0.4444715,0.013224,-0.16039,-0.9590015,0.038202,0.17267,-0.9517615,0.039206,0
41,-0.0320465,0.722962,0.0514245,-0.1804075,0.5115219999999999,0.0288645,-0.2526575,0.745632,-0.0455695,0.1197725,0.559422,0.0213935,0.1841425,0.7975519999999999,-0.0652305,-0.2520375,0.994502,-0.1250605,0.1795825,1.060202,-0.1312305,-0.0771995,-0.0053799999999999,-0.0034515,0.0771995,0.00538,0.0034514999999999,-0.1211375,-0.423888,-0.0051865,0.1294925,-0.444428,0.0130085,-0.1604375,-0.960288,0.0383715,0.1725725,-0.952858,0.0392105,0
42,-0.0321385,0.722604,0.0514279999999999,-0.1804895,0.5105440000000001,0.0289909999999999,-0.2523195,0.7461439999999999,-0.043205,0.1196805,0.559474,0.0214149999999999,0.1837305,0.7991539999999999,-0.063904,-0.2522095,0.997024,-0.123877,0.1796305,1.062424,-0.128577,-0.0770665,-0.0055249999999999,-0.003458,0.0770665,0.005525,0.0034579999999999,-0.1215495,-0.4273659999999999,-0.004467,0.1292705,-0.444366,0.0128429999999999,-0.1604995,-0.961366,0.038465,0.1725705,-0.953466,0.0392099999999999,0
43,-0.032117,0.722517,0.051318,-0.1804819999999999,0.509837,0.0290339999999999,-0.252082,0.7463770000000001,-0.041527,0.119718,0.559307,0.0214749999999999,0.183568,0.800237,-0.063229,-0.251472,0.999827,-0.123076,0.1797079999999999,1.063227,-0.127016,-0.077028,-0.0055499999999999,-0.003528,0.077028,0.0055499999999999,0.003528,-0.122212,-0.430923,-0.003528,0.129168,-0.444403,0.0126019999999999,-0.1604519999999999,-0.962163,0.038425,0.172408,-0.953663,0.0390239999999999,0
44,-0.0320705,0.722517,0.0509805,-0.1804275,0.509837,0.0288375,-0.2519174999999999,0.7463770000000001,-0.0405175,0.1197825,0.559307,0.0213845,0.1835824999999999,0.800237,-0.0629575,-0.2513775,1.000227,-0.1218025,0.1799025,1.063227,-0.1261425,-0.0769985,-0.0055499999999999,-0.0035434999999999,0.0769985,0.0055499999999999,0.0035435,-0.1228975,-0.434753,-0.0031734999999999,0.1290825,-0.444403,0.0121755,-0.1603975,-0.962263,0.0380865,0.1724925,-0.953773,0.0385685,0
45,-0.032025,0.722517,0.050553,-0.1803809999999999,0.509837,0.028443,-0.251771,0.7463770000000001,-0.039907,0.119839,0.559307,0.021078,0.183609,0.800237,-0.06298,-0.250531,1.000227,-0.1220369999999999,0.180239,1.063227,-0.125737,-0.076963,-0.0055499999999999,-0.0034519999999999,0.076963,0.0055499999999999,0.003452,-0.123611,-0.438833,-0.0032159999999999,0.128959,-0.444403,0.011463,-0.160351,-0.962313,0.03754,0.172489,-0.953773,0.037703,0
46,-0.0319424999999999,0.722517,0.049784,-0.1802625,0.509837,0.02762,-0.2515725,0.7463770000000001,-0.040105,0.1199475,0.559307,0.020295,0.1837075,0.800237,-0.063498,-0.2504625,0.998427,-0.12303,0.1806675,1.063227,-0.1261,-0.0768475,-0.0055499999999999,-0.003447,0.0768475,0.0055499999999999,0.003447,-0.1242625,-0.443183,-0.0039829999999999,0.1287975,-0.444403,0.010104,-0.1602825,-0.962383,0.036547,0.1723375,-0.953773,0.036308,0
47,-0.0317525,0.7222025000000001,0.049164,-0.1800865,0.5090224999999999,0.0268239999999999,-0.2513265,0.7460225,-0.040714,0.1200835,0.5589525,0.0194979999999999,0.1838435,0.8007424999999999,-0.063886,-0.2503665,0.9969225000000002,-0.124459,0.1811035,1.0635225,-0.126999,-0.0767465,-0.0053884999999999,-0.003402,0.0767465,0.0053885,0.0034019999999999,-0.1249065,-0.4472975,-0.005378,0.1284935,-0.4448074999999999,0.0076459999999999,-0.1602365,-0.9618375,0.034355,0.1723934999999999,-0.9546175,0.0343539999999999,0
48,-0.0314474999999999,0.7219245000000001,0.0478144999999999,-0.1797505,0.5084945000000001,0.0254245,-0.2509705,0.7458045,-0.0423965,0.1203595,0.5587645,0.0180584999999999,0.1841495,0.8009145000000001,-0.0653015,-0.2492504999999999,0.9985145,-0.1271495,0.1816495,1.0637145,-0.1290495,-0.0766955,-0.0052364999999999,-0.0032095,0.0766955,0.0052365,0.0032095,-0.1251205,-0.4467554999999999,-0.0081115,0.1281395,-0.4452755,0.0039795,-0.1600204999999999,-0.9622455,0.0315525,0.1730695,-0.9557155,0.0310555,0
49,-0.0310924999999999,0.7214215,0.0457265,-0.1793565,0.5082015,0.0235365,-0.2504665,0.7452215,-0.0449134999999999,0.1206935,0.5587215,0.0159885,0.1847635,0.7981115,-0.0676145,-0.2471365,0.9998615,-0.1310025,0.1822235,1.0623615,-0.1315925,-0.0766945,-0.0050074999999999,-0.0032214999999999,0.0766945,0.0050074999999999,0.0032214999999999,-0.1256065,-0.4508185,-0.0106074999999999,0.1278135,-0.4458685,-0.0008354999999999,-0.1598665,-0.9613685,0.0269005,0.1736035,-0.9562685,0.0272885,0
50,-0.0306965,0.7210305,0.0428795,-0.1788934999999999,0.5084405,0.0211245,-0.2498835,0.7448605,-0.0479535,0.1210965,0.5589605,0.0132264999999999,0.1854965,0.7953105,-0.0706615,-0.2455335,1.0018805,-0.1354215,0.1829965,1.0608805,-0.1346415,-0.0767704999999999,-0.0049405,-0.0029175,0.0767704999999999,0.0049405,0.0029175,-0.1259434999999999,-0.4498595,-0.0145185,0.1276965,-0.4463295,-0.0071795,-0.1596735,-0.9602695,0.0217175,0.1741665,-0.9558895,0.0229825,0
51,-0.0303375,0.7204969999999999,0.0390685,-0.1784224999999999,0.5091669999999999,0.0179555,-0.2492324999999999,0.7443869999999999,-0.0517775,0.1214575,0.559577,0.0094145,0.1863475,0.792387,-0.0744954999999999,-0.2439825,1.000787,-0.1408915,0.1837475,1.059187,-0.1385715,-0.0768385,-0.004912,-0.0023534999999999,0.0768385,0.004912,0.0023535,-0.1264525,-0.448633,-0.0193855,0.1277575,-0.446693,-0.0150975,-0.1596725,-0.959333,0.0155405,0.1751674999999999,-0.955303,0.0176865,0
52,-0.0300244999999999,0.71978,0.03479,-0.1779975,0.5103800000000001,0.014311,-0.2485775,0.74377,-0.056072,0.1217525,0.56036,0.0051369999999999,0.1872125,0.78913,-0.078799,-0.2423374999999999,1.00002,-0.147109,0.1843925,1.0571199999999998,-0.1431289999999999,-0.0769155,-0.004901,-0.001768,0.0769155,0.004901,0.001768,-0.1266275,-0.44852,-0.024164,0.1278225,-0.44695,-0.0242,-0.1599075,-0.9582,0.008246,0.1758525,-0.95371,0.011998,0
53,-0.0297399999999999,0.718724,0.0298105,-0.1774299999999999,0.512034,0.0102185,-0.24792,0.743464,-0.0614515,0.12204,0.560314,0.0001574999999999,0.18812,0.786284,-0.0839785,-0.24053,1.002624,-0.1538884999999999,0.18496,1.055424,-0.1493785,-0.07699,-0.004923,-0.0010054999999999,0.07699,0.0049229999999999,0.0010055,-0.12762,-0.449646,-0.0306315,0.12785,-0.447046,-0.0344975,-0.16019,-0.955746,0.0006585,0.17645,-0.949586,0.0057635,0
54,-0.0295505,0.7179495,0.0240675,-0.1768455,0.5138095,0.0054925,-0.2473854999999999,0.7435495,-0.0679965,0.1222145,0.5575495,-0.0062565,0.1889745,0.7833195,-0.0904115,-0.2387654999999999,1.0055295,-0.1618675,0.1850945,1.0537295,-0.1566275,-0.0770945,-0.0048635,-0.0002075,0.0770945,0.0048634999999999,0.0002074999999999,-0.1288655,-0.4504005,-0.0378765,0.1277545,-0.4470505,-0.0458285,-0.1605355,-0.9522105,-0.0071505,0.1771145,-0.9443705,-0.0010555,0
55,-0.0295565,0.716265,0.0175575,-0.1764055,0.515855,0.0005525,-0.2470955,0.743545,-0.0752974999999999,0.1221345,0.554975,-0.0130275,0.1895845,0.779965,-0.0975265,-0.2371455,1.005985,-0.1703955,0.1852145,1.051485,-0.1646355,-0.0772325,-0.00486,0.0008085,0.0772325,0.00486,-0.0008084999999999,-0.1306055,-0.450855,-0.0465255,0.1274845,-0.446865,-0.0574545,-0.1611355,-0.947505,-0.0148785,0.1774545,-0.938355,-0.0081795,1
56,-0.0295035,0.7142175,0.010684,-0.1759965,0.5185275,-0.005186,-0.2468165,0.7434075,-0.083087,0.1222034999999999,0.5525975,-0.019898,0.1902735,0.7762575,-0.1051329999999999,-0.2354165,1.0056175,-0.179282,0.1853135,1.0479175,-0.173632,-0.0773965,-0.0050165,0.001936,0.0773965,0.0050165,-0.001936,-0.1323865,-0.4509625,-0.055061,0.1274035,-0.4462225,-0.0688469999999999,-0.1616865,-0.9436225,-0.021747,0.1768235,-0.9334325,-0.015879,1
57,-0.0294429999999999,0.712031,0.0033405,-0.175642,0.520961,-0.0109595,-0.246622,0.7436309999999999,-0.0915585,0.122158,0.549461,-0.0273015,0.190968,0.773041,-0.1134795,-0.233642,1.006261,-0.1887734999999999,0.185028,1.039961,-0.1831634999999999,-0.077485,-0.005013,0.0028885,0.077485,0.0050129999999999,-0.0028885,-0.134432,-0.450119,-0.0637425,0.127688,-0.444619,-0.0802395,-0.162402,-0.938339,-0.0292465,0.176088,-0.927829,-0.0230305,1
58,-0.0293524999999999,0.7083634999999999,-0.0041739999999999,-0.1752955,0.5234435,-0.016281,-0.2465155,0.7431535,-0.1003199999999999,0.1222545,0.5464135,-0.034265,0.1913945,0.7711635,-0.122132,-0.2325755,1.0058635,-0.198482,0.1847145,1.0328635,-0.192232,-0.0775355,-0.0050205,0.004043,0.0775355,0.0050204999999999,-0.004043,-0.1365755,-0.4491965,-0.072005,0.1283345,-0.4426765,-0.091554,-0.1631055,-0.9325865,-0.035064,0.1758745,-0.9223365,-0.029779,1
59,-0.0293495,0.7048125000000001,-0.0126034999999999,-0.1745844999999999,0.5244625,-0.0215724999999999,-0.2464744999999999,0.7431525,-0.1098615,0.1223255,0.5425725,-0.0420995,0.1917955,0.7695525000000001,-0.1319135,-0.2315545,1.0062325,-0.2083835,0.1843455,1.0286324999999998,-0.2013835,-0.0775955,-0.0048065,0.0048015,0.0775955,0.0048065,-0.0048015,-0.1388944999999999,-0.4457275,-0.0802365,0.1291655,-0.4375475,-0.1020735,-0.1637545,-0.9244075,-0.0401935,0.1754255,-0.9135775,-0.0361925,1
60,-0.029481,0.700688,-0.0204684999999999,-0.174017,0.5250480000000001,-0.0262994999999999,-0.246667,0.743448,-0.1191494999999999,0.122293,0.537678,-0.0492914999999999,0.192053,0.767928,-0.1413385,-0.230687,1.009238,-0.2175785,0.183813,1.024538,-0.2102185,-0.0776729999999999,-0.004468,0.0053085,0.0776729999999999,0.004468,-0.0053084999999999,-0.141407,-0.441652,-0.0880025,0.130133,-0.432812,-0.1114014999999999,-0.164357,-0.915362,-0.0447054999999999,0.174543,-0.903852,-0.0418215,1
61,-0.0295315,0.696525,-0.028386,-0.1732535,0.523295,-0.031392,-0.2469735,0.7445649999999999,-0.128733,0.1221565,0.530525,-0.05738,0.1922865,0.7666649999999999,-0.150354,-0.2297535,1.002525,-0.226354,0.1832165,1.021725,-0.218694,-0.0778025,-0.004384,0.00572,0.0778025,0.0043839999999999,-0.0057199999999999,-0.1440535,-0.436735,-0.095725,0.1311965,-0.426755,-0.120144,-0.1647935,-0.904505,-0.047938,0.1737564999999999,-0.8929750000000001,-0.04707,1
62,-0.029751,0.6930265,-0.0363925,-0.172752,0.5212865,-0.0366795,-0.247432,0.7457265,-0.1381585,0.121928,0.5244265,-0.0649845,0.192298,0.7645165,-0.1595685,-0.229002,0.9952765,-0.2346085,0.182208,1.0182464999999998,-0.2264284999999999,-0.077983,-0.0042515,0.0059424999999999,0.077983,0.0042515,-0.0059425,-0.146242,-0.4302835,-0.1018495,0.1320279999999999,-0.4204335,-0.1275965,-0.165302,-0.8948535,-0.0510935,0.172758,-0.8827834999999999,-0.0517055,1
63,-0.03,0.6882485,-0.044131,-0.172535,0.5197984999999999,-0.041358,-0.247905,0.7396385,-0.146946,0.121595,0.5208985,-0.070926,0.192085,0.7624585,-0.168706,-0.228335,0.9885385,-0.242186,0.180865,1.0148285,-0.233376,-0.078295,-0.0040665,0.006057,0.078295,0.0040665,-0.006057,-0.148525,-0.4233215,-0.107526,0.132655,-0.4142515,-0.134506,-0.165945,-0.8841715,-0.053158,0.171395,-0.8728215,-0.055592,1
64,-0.0302694999999999,0.6837225,-0.0513654999999999,-0.1724975,0.5188425,-0.0456294999999999,-0.2484675,0.7345525,-0.1547625,0.1212425,0.5182425,-0.0763595,0.1919025,0.7610425000000001,-0.1772825,-0.2277875,0.9818225,-0.2495425,0.1792625,1.0126625,-0.2397424999999999,-0.0786495,-0.0039315,0.0060745,0.0786495,0.0039315,-0.0060744999999999,-0.1507875,-0.4157075,-0.1128815,0.1333225,-0.4074175,-0.1413955,-0.1666975,-0.8743274999999999,-0.0553674999999999,0.1704625,-0.8626975,-0.0584914999999999,1
65,-0.030793,0.6813389999999999,-0.0586664999999999,-0.172917,0.515319,-0.0513575,-0.249547,0.7318389999999999,-0.1625835,0.120333,0.5142789999999999,-0.0828454999999999,0.191213,0.760229,-0.1856034999999999,-0.227487,0.977459,-0.2573035,0.177083,1.013239,-0.2454535,-0.0790319999999999,-0.003832,0.0061045,0.0790319999999999,0.0038319999999999,-0.0061044999999999,-0.153937,-0.405391,-0.1190825,0.1333929999999999,-0.397111,-0.1478335,-0.167957,-0.8616809999999999,-0.0578665,0.1691929999999999,-0.850611,-0.0607655,1
66,-0.031411,0.677526,-0.065527,-0.173366,0.511386,-0.056825,-0.250616,0.7287359999999999,-0.170314,0.119734,0.511186,-0.088448,0.189894,0.7558159999999999,-0.193554,-0.226966,0.972526,-0.264564,0.174804,1.014616,-0.250994,-0.079372,-0.003886,0.0060279999999999,0.079372,0.0038859999999999,-0.0060279999999999,-0.156986,-0.395334,-0.124989,0.133204,-0.388064,-0.1536239999999999,-0.169136,-0.849104,-0.059461,0.1673839999999999,-0.839464,-0.062809,1
67,-0.032304,0.675406,-0.0724585,-0.173861,0.507176,-0.0628645,-0.251851,0.724356,-0.1785655,0.118889,0.5076459999999999,-0.0946434999999999,0.188349,0.753996,-0.2011755,-0.2254209999999999,0.968386,-0.2711255,0.173259,1.017456,-0.2574155,-0.07986,-0.003983,0.0059034999999999,0.07986,0.003983,-0.0059034999999999,-0.160171,-0.383104,-0.1311005,0.132569,-0.377104,-0.1586255,-0.1704709999999999,-0.834844,-0.0611504999999999,0.1654089999999999,-0.826694,-0.0648025,1
68,-0.0333195,0.6730769999999999,-0.0789595,-0.1748845,0.504177,-0.0684175,-0.2532445,0.720227,-0.1862075,0.1177955,0.504347,-0.1002095,0.1867455,0.750377,-0.2086275,-0.2238745,0.963707,-0.2798375,0.1709955,1.017877,-0.2638875,-0.0803735,-0.004046,0.0058775,0.0803735,0.004046,-0.0058775,-0.1632545,-0.370843,-0.1366465,0.1317955,-0.366123,-0.1632375,-0.1717445,-0.820573,-0.0625355,0.1635055,-0.8141830000000001,-0.0663505,1
69,-0.034633,0.675581,-0.0909445,-0.176006,0.501131,-0.0808474999999999,-0.254726,0.7202609999999999,-0.1996475,0.116264,0.503711,-0.1118204999999999,0.184364,0.751891,-0.2213175,-0.223126,0.963371,-0.2944775,0.168184,1.022281,-0.2750775,-0.081437,-0.0041399999999999,0.0057255,0.081437,0.00414,-0.0057254999999999,-0.166916,-0.350349,-0.1520475,0.130654,-0.346259,-0.1777774999999999,-0.173826,-0.798079,-0.0693345,0.160794,-0.793729,-0.0729554999999999,1
70,-0.0371785,0.6778885,-0.102931,-0.1786395,0.5002185,-0.092839,-0.2574595,0.7191885,-0.213766,0.1134705,0.5056185,-0.122311,0.1809204999999999,0.7526285,-0.2347759999999999,-0.2236995,0.9697285,-0.309946,0.1635505,1.0212785,-0.291106,-0.0821725,-0.0043414999999999,0.0057539999999999,0.0821725,0.0043415,-0.005754,-0.1713095,-0.3315015,-0.1672259999999999,0.1281204999999999,-0.3283014999999999,-0.192076,-0.1772095,-0.7767815,-0.076529,0.1568105,-0.7745215,-0.079681,1
71,-0.0400935,0.677925,-0.114741,-0.1815574999999999,0.498895,-0.105174,-0.2604575,0.7174250000000001,-0.228432,0.1102325,0.507985,-0.133557,0.1770425,0.754345,-0.248382,-0.2246275,0.976065,-0.326462,0.1588125,1.021665,-0.3076419999999999,-0.0825434999999999,-0.005065,0.0058889999999999,0.0825434999999999,0.005065,-0.005889,-0.1760074999999999,-0.311745,-0.183062,0.1249224999999999,-0.309595,-0.207282,-0.1811475,-0.755355,-0.084376,0.1521725,-0.754195,-0.087325,1
72,-0.0427629999999999,0.6780849999999999,-0.127706,-0.184287,0.495715,-0.118083,-0.263367,0.721065,-0.243947,0.107273,0.508125,-0.145839,0.173223,0.754695,-0.261897,-0.225597,0.979925,-0.343987,0.154213,1.019275,-0.324827,-0.082815,-0.0057149999999999,0.006009,0.082815,0.0057149999999999,-0.006009,-0.180587,-0.2929049999999999,-0.198887,0.121753,-0.2916649999999999,-0.222227,-0.184837,-0.734705,-0.092088,0.147603,-0.734695,-0.095042,1
73,-0.0449615,0.6790750000000001,-0.140661,-0.1864714999999999,0.490345,-0.131572,-0.2658915,0.7180249999999999,-0.259741,0.1046785,0.507225,-0.158385,0.1698085,0.7544249999999999,-0.276351,-0.2259815,0.978235,-0.3608909999999999,0.1500585,1.015695,-0.342331,-0.0826695,-0.0061449999999999,0.006022,0.0826695,0.006145,-0.006022,-0.1847415,-0.2745249999999999,-0.214451,0.1186885,-0.2735849999999999,-0.236451,-0.1881315,-0.7148950000000001,-0.099881,0.1432385,-0.7158249999999999,-0.103049,1
74,-0.0470315,0.67777,-0.1535075,-0.1883515,0.48742,-0.1438535,-0.2680715,0.7134,-0.2750985,0.1020385,0.50766,-0.1698664999999999,0.1665785,0.75353,-0.2911985,-0.2264915,0.97467,-0.3776885,0.1460785,1.00777,-0.3606985,-0.0821185,-0.0064499999999999,0.0058225,0.0821185,0.00645,-0.0058224999999999,-0.1885715,-0.2592,-0.2287185,0.1158184999999999,-0.25816,-0.2506585,-0.1911115,-0.69799,-0.1079285,0.1391785,-0.69965,-0.1110324999999999,1
75,-0.048876,0.678975,-0.1669815,-0.189755,0.484815,-0.1569944999999999,-0.270135,0.7103250000000001,-0.2912464999999999,0.0999549999999999,0.506815,-0.1824085,0.163495,0.7552350000000001,-0.3061764999999999,-0.227205,0.972895,-0.3952865,0.142405,1.005015,-0.3789465,-0.081565,-0.0072849999999999,0.0057835,0.081565,0.007285,-0.0057834999999999,-0.192075,-0.241925,-0.2430065,0.112905,-0.240495,-0.2647465,-0.193875,-0.678985,-0.1162894999999999,0.135135,-0.6814149999999999,-0.1187474999999999,1
76,-0.050364,0.68041,-0.182182,-0.19093,0.48322,-0.17173,-0.27202,0.7095,-0.30916,0.09827,0.50771,-0.196425,0.1607,0.7560100000000001,-0.32367,-0.22907,0.97131,-0.41568,0.13909,1.00119,-0.39928,-0.08087,-0.0073799999999999,0.0054599999999999,0.08087,0.0073799999999999,-0.00546,-0.19502,-0.22492,-0.2587,0.11019,-0.2233399999999999,-0.28048,-0.19641,-0.66031,-0.12622,0.13128,-0.66405,-0.129071,1
77,-0.0516695,0.68141,-0.197906,-0.1919265,0.48141,-0.1863349999999999,-0.2737065,0.7070799999999999,-0.328275,0.0966935,0.5087200000000001,-0.210392,0.1584034999999999,0.75786,-0.341855,-0.2309265,0.96688,-0.436915,0.1360235,0.99888,-0.420535,-0.0803235,-0.0075,0.0051749999999999,0.0803235,0.0074999999999999,-0.0051749999999999,-0.1973065,-0.20838,-0.274355,0.1074135,-0.2072,-0.296135,-0.1987965,-0.6422300000000001,-0.136068,0.1278534999999999,-0.64653,-0.1394959999999999,1
78,-0.0526585,0.67719,-0.208665,-0.1921875,0.47761,-0.195735,-0.2753975,0.69913,-0.342445,0.0954425,0.50546,-0.219692,0.1563025,0.75314,-0.354935,-0.2320175,0.95748,-0.452925,0.1336625,0.99041,-0.437785,-0.0791325,-0.00773,0.005065,0.0791325,0.0077299999999999,-0.005065,-0.1986575,-0.20046,-0.280005,0.1052225,-0.19982,-0.301945,-0.2004575,-0.63299,-0.140911,0.1252025,-0.63793,-0.145029,1
79,-0.05294,0.67266,-0.219436,-0.1915339999999999,0.47314,-0.20512,-0.276234,0.69139,-0.356475,0.0950259999999999,0.50132,-0.229325,0.1554559999999999,0.74644,-0.3677249999999999,-0.2322239999999999,0.94827,-0.4692849999999999,0.132506,0.98826,-0.451125,-0.078596,-0.00766,0.0048549999999999,0.078596,0.00766,-0.004855,-0.199294,-0.19122,-0.285325,0.103956,-0.1913099999999999,-0.307575,-0.2011939999999999,-0.62291,-0.145385,0.123566,-0.62848,-0.150221,1
80,-0.0527365,0.66909,-0.230848,-0.1905585,0.46708,-0.214476,-0.2763385,0.68204,-0.370805,0.0952214999999999,0.49529,-0.239005,0.1551515,0.73874,-0.380955,-0.2321885,0.93719,-0.487985,0.1316215,0.98377,-0.465505,-0.0783814999999999,-0.00716,0.004675,0.0783814999999999,0.00716,-0.0046749999999999,-0.1995685,-0.1812099999999999,-0.290485,0.1032015,-0.1821299999999999,-0.312825,-0.2013785,-0.61206,-0.148803,0.1227014999999999,-0.61808,-0.154294,1
81,-0.0523835,0.6659999999999999,-0.241025,-0.1892585,0.46313,-0.223156,-0.2760984999999999,0.67382,-0.385185,0.0958215,0.49243,-0.247505,0.1558115,0.73165,-0.393955,-0.2318185,0.92764,-0.505745,0.1310015,0.97839,-0.479895,-0.0782114999999999,-0.00679,0.0045749999999999,0.0782114999999999,0.00679,-0.004575,-0.1999485,-0.1731099999999999,-0.295095,0.1024215,-0.1741599999999999,-0.317975,-0.2011285,-0.60092,-0.151857,0.1223515,-0.60747,-0.158006,1
82,-0.0519015,0.663095,-0.251155,-0.1878024999999999,0.458995,-0.232157,-0.2754125,0.670865,-0.399175,0.0967775,0.485795,-0.256365,0.1565775,0.723785,-0.405605,-0.2312924999999999,0.923105,-0.523695,0.1303675,0.972655,-0.494195,-0.0779975,-0.006475,0.0045349999999999,0.0779975,0.006475,-0.004535,-0.2000025,-0.163445,-0.300045,0.1020175,-0.165115,-0.323475,-0.2005025,-0.588495,-0.154485,0.1218974999999999,-0.5970249999999999,-0.161667,1
83,-0.0511255,0.660255,-0.2609599999999999,-0.1859024999999999,0.455545,-0.2406559999999999,-0.2747025,0.667665,-0.41351,0.0980475,0.479595,-0.26453,0.1577974999999999,0.716445,-0.41672,-0.2303325,0.918635,-0.54118,0.1306175,0.971275,-0.50701,-0.0778175,-0.0059249999999999,0.00453,0.0778175,0.005925,-0.0045299999999999,-0.1994524999999999,-0.1529849999999999,-0.30469,0.1021774999999999,-0.155605,-0.32885,-0.1996625,-0.576125,-0.1571,0.1222575,-0.5859249999999999,-0.165048,1
84,-0.0507975,0.656385,-0.26995,-0.1846835,0.452955,-0.24796,-0.2742934999999999,0.662845,-0.42678,0.0983365,0.475005,-0.2712,0.1587865,0.709605,-0.42748,-0.2306635,0.912475,-0.55795,0.1308065,0.967775,-0.51988,-0.0773565,-0.0048549999999999,0.0045499999999999,0.0773565,0.0048549999999999,-0.0045499999999999,-0.1991735,-0.143905,-0.30864,0.1020565,-0.147405,-0.33389,-0.1991135,-0.565015,-0.159068,0.1227665,-0.574425,-0.167052,1
85,-0.0507215,0.6523249999999999,-0.276985,-0.1838535,0.4476849999999999,-0.254065,-0.2740435,0.656965,-0.437235,0.0983464999999999,0.468255,-0.276135,0.1594265,0.701805,-0.435675,-0.2310435,0.905715,-0.571285,0.1308365,0.963395,-0.5307649999999999,-0.0771165,-0.004615,0.004535,0.0771165,0.0046149999999999,-0.0045349999999999,-0.1998435,-0.135165,-0.311125,0.1017064999999999,-0.139245,-0.337505,-0.1987634999999999,-0.553895,-0.159088,0.1225965,-0.563015,-0.167886,1
86,-0.0504925,0.648395,-0.28387,-0.1831785,0.4424749999999999,-0.2603499999999999,-0.2738985,0.650125,-0.44798,0.0982815,0.4616449999999999,-0.28168,0.1598514999999999,0.694055,-0.44358,-0.2313485,0.9001549999999999,-0.58205,0.1305815,0.953805,-0.54202,-0.0769215,-0.004495,0.00453,0.0769215,0.0044949999999999,-0.00453,-0.2009085,-0.126315,-0.31379,0.1010315,-0.131165,-0.34132,-0.1985885,-0.542195,-0.159633,0.1224515,-0.551345,-0.168444,1
87,-0.05045,0.6450199999999999,-0.29056,-0.183064,0.438842,-0.2656,-0.273564,0.6445000000000001,-0.45739,0.098406,0.4571,-0.28664,0.160226,0.68729,-0.45183,-0.231844,0.8912,-0.59432,0.130316,0.94593,-0.5520700000000001,-0.077136,-0.0043199999999999,0.00454,0.077136,0.0043199999999999,-0.0045399999999999,-0.202034,-0.1170299999999999,-0.31666,0.100356,-0.1229,-0.34517,-0.198234,-0.53013,-0.160053,0.122916,-0.53935,-0.169123,1
88,-0.050384,0.641185,-0.29638,-0.182958,0.435637,-0.27051,-0.273248,0.6388050000000001,-0.46552,0.098442,0.453103,-0.29108,0.160192,0.683055,-0.45974,-0.232788,0.883165,-0.60495,0.130012,0.937955,-0.56134,-0.077362,-0.004105,0.00492,0.077362,0.004105,-0.00492,-0.203848,-0.107955,-0.31961,0.099482,-0.115105,-0.34952,-0.197898,-0.5180450000000001,-0.16009,0.123272,-0.527285,-0.168743,1
89,-0.0502685,0.6383099999999999,-0.30075,-0.1828035,0.4332239999999999,-0.27397,-0.2732235,0.63393,-0.47181,0.0984464999999999,0.4507489999999999,-0.29445,0.1602065,0.67948,-0.46626,-0.2327635,0.8775499999999999,-0.61242,0.1298564999999999,0.93098,-0.56852,-0.0776165,-0.00415,0.00519,0.0776165,0.0041499999999999,-0.00519,-0.2060535,-0.09987,-0.32199,0.0985264999999999,-0.1079,-0.35312,-0.1973535,-0.50787,-0.160207,0.1234365,-0.51687,-0.169108,1
90,-0.0514139999999999,0.6349549999999999,-0.30505,-0.1828499999999999,0.430155,-0.27712,-0.27324,0.629515,-0.47648,0.09766,0.447163,-0.29752,0.16016,0.676105,-0.47186,-0.23314,0.871615,-0.61978,0.12963,0.924315,-0.57525,-0.07796,-0.004145,0.00551,0.07796,0.004145,-0.0055099999999999,-0.20857,-0.091445,-0.32377,0.09718,-0.1003149999999999,-0.3564,-0.1969199999999999,-0.497335,-0.159584,0.12353,-0.506685,-0.169071,1
91,-0.0523695,0.6314,-0.30824,-0.1830195,0.428551,-0.27877,-0.2732495,0.62521,-0.48104,0.0971805,0.447533,-0.2994,0.1600905,0.6738,-0.47748,-0.2339294999999999,0.86607,-0.62678,0.1295205,0.91861,-0.58168,-0.0783405,-0.0041999999999999,0.00586,0.0783405,0.0041999999999999,-0.00586,-0.2113495,-0.0837899999999999,-0.32499,0.0954005,-0.0932799999999999,-0.35906,-0.1965095,-0.4879699999999999,-0.158632,0.1232105,-0.4977299999999999,-0.169266,1
92,-0.053521,0.628475,-0.310765,-0.183525,0.425361,-0.280315,-0.273665,0.620045,-0.484685,0.0968349999999999,0.447278,-0.301505,0.159825,0.670845,-0.483105,-0.235065,0.859575,-0.6331150000000001,0.129265,0.912605,-0.588485,-0.078565,-0.0046049999999999,0.0061449999999999,0.078565,0.004605,-0.006145,-0.214225,-0.0767849999999999,-0.325605,0.093265,-0.0867749999999999,-0.361265,-0.1961949999999999,-0.479425,-0.157705,0.1215849999999999,-0.491695,-0.169981,1
93,-0.0546425,0.62596,-0.31298,-0.1840145,0.42161,-0.28193,-0.2738845,0.61479,-0.48782,0.0959655,0.4461799999999999,-0.30412,0.1594554999999999,0.6675899999999999,-0.48825,-0.2363445,0.85056,-0.63954,0.1288055,0.90707,-0.5952200000000001,-0.0786655,-0.0050499999999999,0.00656,0.0786655,0.0050499999999999,-0.00656,-0.2170645,-0.06961,-0.3258,0.0905955,-0.08036,-0.36344,-0.1957545,-0.4710500000000001,-0.156893,0.1198854999999999,-0.48577,-0.170655,1
94,-0.0559465,0.6229199999999999,-0.31509,-0.1845585,0.4201959999999999,-0.2826,-0.2746085,0.61027,-0.49145,0.0943314999999999,0.4456799999999999,-0.30664,0.1588915,0.66442,-0.49376,-0.2379485,0.8424499999999999,-0.64636,0.1278715,0.90273,-0.60143,-0.0787315,-0.00508,0.00697,0.0787315,0.0050799999999999,-0.00697,-0.2199085,-0.063,-0.32549,0.0873615,-0.07495,-0.36557,-0.1956385,-0.46414,-0.156701,0.1182115,-0.48002,-0.171653,1
95,-0.0572719999999999,0.619895,-0.31689,-0.185204,0.4180629999999999,-0.28389,-0.274874,0.606985,-0.49406,0.092756,0.4449309999999999,-0.30933,0.158226,0.661215,-0.49922,-0.239484,0.836025,-0.65313,0.126796,0.903895,-0.60715,-0.078826,-0.005265,0.0074,0.078826,0.0052649999999999,-0.0073999999999999,-0.222764,-0.056215,-0.32503,0.084046,-0.069025,-0.36776,-0.195404,-0.456805,-0.156416,0.116536,-0.474215,-0.173157,1
96,-0.05859,0.617145,-0.318805,-0.185971,0.41711,-0.285155,-0.2755309999999999,0.6036250000000001,-0.4976549999999999,0.090959,0.444557,-0.311675,0.157159,0.6585650000000001,-0.504265,-0.241361,0.8311850000000001,-0.658565,0.125629,0.904465,-0.613405,-0.078899,-0.0053649999999999,0.0079549999999999,0.078899,0.005365,-0.007955,-0.225631,-0.0483949999999999,-0.324235,0.080519,-0.0620449999999999,-0.369915,-0.195561,-0.4486749999999999,-0.156585,0.1147189999999999,-0.4676549999999999,-0.175121,1
97,-0.060133,0.61563,-0.321435,-0.186861,0.41592,-0.286695,-0.276481,0.5999099999999999,-0.501495,0.089109,0.443664,-0.313995,0.155899,0.6551899999999999,-0.509215,-0.2434009999999999,0.82542,-0.664385,0.124209,0.90406,-0.620055,-0.078969,-0.0054199999999999,0.008445,0.078969,0.0054199999999999,-0.0084449999999999,-0.228411,-0.04113,-0.323615,0.076709,-0.05562,-0.371885,-0.195871,-0.44146,-0.1571739999999999,0.1127389999999999,-0.4616699999999999,-0.1775919999999999,1
98,-0.0615249999999999,0.6132500000000001,-0.32387,-0.187791,0.41569,-0.28844,-0.278021,0.59618,-0.5060100000000001,0.087339,0.44041,-0.31603,0.1541789999999999,0.65,-0.51383,-0.245571,0.81816,-0.6704000000000001,0.122409,0.90158,-0.62622,-0.079069,-0.0049899999999999,0.0087899999999999,0.079069,0.0049899999999999,-0.00879,-0.230911,-0.0344099999999999,-0.32316,0.072959,-0.04956,-0.37354,-0.195951,-0.4342899999999999,-0.157775,0.110719,-0.4565899999999999,-0.180478,1
99,-0.0620035,0.6109899999999999,-0.325575,-0.1886035,0.4152889999999999,-0.290375,-0.2800435,0.59055,-0.5107550000000001,0.0854365,0.437562,-0.318145,0.1524665,0.64467,-0.5185649999999999,-0.2473335,0.8103499999999999,-0.6763950000000001,0.1203265,0.89514,-0.636125,-0.0791665,-0.00456,0.008825,0.0791665,0.00456,-0.008825,-0.2329735,-0.02843,-0.3230349999999999,0.0695535,-0.0437599999999999,-0.374595,-0.1960735,-0.42865,-0.159355,0.1087465,-0.45174,-0.182825,1
100,-0.062373,0.607525,-0.32747,-0.189461,0.414974,-0.29249,-0.282131,0.5849150000000001,-0.5154000000000001,0.083129,0.434249,-0.32021,0.150749,0.638455,-0.52357,-0.249191,0.801615,-0.68314,0.118279,0.887765,-0.64528,-0.079299,-0.004135,0.0089799999999999,0.079299,0.004135,-0.00898,-0.234611,-0.022845,-0.32261,0.066805,-0.0382749999999999,-0.37523,-0.196091,-0.423705,-0.161202,0.107219,-0.445245,-0.183863,1
101,-0.0627985,0.60354,-0.32964,-0.1902715,0.4151559999999999,-0.29501,-0.2842315,0.5793699999999999,-0.52066,0.0809085,0.4307999999999999,-0.32206,0.1491285,0.6318,-0.5286,-0.2514315,0.7923899999999999,-0.69058,0.1162685,0.87952,-0.65447,-0.0794485,-0.00359,0.00936,0.0794485,0.0035899999999999,-0.0093599999999999,-0.2359415,-0.0173,-0.32182,0.0652485,-0.03263,-0.37576,-0.1962915,-0.41864,-0.163049,0.1065885,-0.43889,-0.184991,1
102,-0.0629125,0.5991299999999999,-0.3321349999999999,-0.1909905,0.4151269999999999,-0.297645,-0.2861005,0.573203,-0.526815,0.0792495,0.427628,-0.323935,0.1474794999999999,0.62466,-0.534375,-0.2534305,0.78421,-0.698645,0.1143795,0.8700600000000001,-0.664175,-0.0795995,-0.00301,0.010055,0.0795995,0.00301,-0.0100549999999999,-0.2365005,-0.01199,-0.320825,0.0649795,-0.0269499999999999,-0.3764349999999999,-0.1965505,-0.4139299999999999,-0.165233,0.1061994999999999,-0.4330799999999999,-0.185575,1
103,-0.0630815,0.5950449999999999,-0.33493,-0.1916965,0.414864,-0.3006999999999999,-0.2879065,0.566294,-0.53315,0.0776635,0.4248949999999999,-0.3260699999999999,0.1459035,0.617285,-0.5407299999999999,-0.2554165,0.774075,-0.70776,0.1123634999999999,0.859245,-0.6749799999999999,-0.0796335,-0.002705,0.01081,0.0796335,0.0027049999999999,-0.01081,-0.2367365,-0.006725,-0.31982,0.0646434999999999,-0.021125,-0.3775699999999999,-0.1967165,-0.408535,-0.1665319999999999,0.1058334999999999,-0.427455,-0.187359,1
104,-0.063239,0.590229,-0.33796,-0.1921749999999999,0.415692,-0.3035,-0.289125,0.558922,-0.5364,0.076325,0.422838,-0.32799,0.144555,0.609645,-0.547,-0.257365,0.762965,-0.71635,0.110735,0.8474349999999999,-0.68643,-0.079685,-0.0021749999999999,0.01152,0.079685,0.0021749999999999,-0.01152,-0.236875,-0.0016749999999999,-0.31908,0.0644049999999999,-0.015545,-0.37894,-0.196895,-0.403965,-0.168002,0.105625,-0.422135,-0.189486,1
105,-0.0631465,0.585529,-0.34189,-0.1923784999999999,0.413338,-0.30703,-0.2899785,0.5515599999999999,-0.53984,0.0756715,0.418892,-0.33105,0.1437215,0.601305,-0.55429,-0.2580985,0.7533449999999999,-0.72541,0.1094815,0.835235,-0.69961,-0.0797015,-0.0019049999999999,0.0120299999999999,0.0797015,0.0019049999999999,-0.01203,-0.2368884999999999,0.003025,-0.3186,0.0643845,-0.0103849999999999,-0.38015,-0.1970184999999999,-0.399255,-0.170253,0.1056115,-0.416715,-0.191449,1
106,-0.0630765,0.580636,-0.34561,-0.1926054999999999,0.411571,-0.31064,-0.2906955,0.544628,-0.54315,0.0751544999999999,0.415699,-0.3343,0.1432445,0.593566,-0.56148,-0.2588955,0.74387,-0.7346400000000001,0.1087245,0.82394,-0.71314,-0.0797445,-0.00175,0.01238,0.0797445,0.00175,-0.01238,-0.2368855,0.00833,-0.3183399999999999,0.0654025,-0.00463,-0.3808,-0.1971955,-0.39479,-0.172617,0.1055445,-0.41068,-0.193217,1
107,-0.062824,0.5767410000000001,-0.34963,-0.192777,0.409594,-0.31417,-0.290847,0.534218,-0.5459700000000001,0.0747729999999999,0.413355,-0.33753,0.142913,0.586595,-0.56847,-0.259927,0.73196,-0.7430700000000001,0.1080729999999999,0.81311,-0.72706,-0.079773,-0.0017099999999999,0.0126699999999999,0.079773,0.0017099999999999,-0.01267,-0.236567,0.0136,-0.3184,0.0676259999999999,0.00092,-0.38125,-0.197317,-0.3899399999999999,-0.175117,0.105443,-0.40491,-0.196412,1
108,-0.062439,0.573501,-0.353515,-0.192797,0.407525,-0.317425,-0.2909069999999999,0.526143,-0.548875,0.074493,0.410755,-0.340535,0.142693,0.579828,-0.574925,-0.260777,0.721395,-0.750725,0.107713,0.806125,-0.736515,-0.079853,-0.0017249999999999,0.0128049999999999,0.079853,0.001725,-0.012805,-0.235987,0.019245,-0.318905,0.0709529999999999,0.0065049999999999,-0.381415,-0.197347,-0.3845649999999999,-0.177582,0.105403,-0.399215,-0.198877,1
109,-0.061871,0.57128,-0.35736,-0.192539,0.405165,-0.32049,-0.290909,0.518533,-0.5518400000000001,0.0744209999999999,0.4082449999999999,-0.34335,0.142561,0.573484,-0.58081,-0.261579,0.711835,-0.75732,0.107401,0.799805,-0.7462300000000001,-0.079991,-0.0017249999999999,0.0127799999999999,0.079991,0.0017249999999999,-0.01278,-0.235159,0.0247049999999999,-0.31976,0.075291,0.011965,-0.38142,-0.196789,-0.379575,-0.179738,0.105131,-0.393355,-0.201069,1
110,-0.0611695,0.5698380000000001,-0.361075,-0.1919385,0.402515,-0.322955,-0.2908285,0.511708,-0.554735,0.0744515,0.405875,-0.346055,0.1430215,0.5679230000000001,-0.585975,-0.2621585,0.703535,-0.762955,0.1075614999999999,0.7941150000000001,-0.7552350000000001,-0.0801615,-0.0018049999999999,0.0127049999999999,0.0801615,0.001805,-0.012705,-0.2342885,0.030085,-0.320815,0.0803515,0.017375,-0.381315,-0.1960385,-0.3743849999999999,-0.181511,0.1053215,-0.3880849999999999,-0.203978,1
111,-0.0602819999999999,0.568836,-0.364415,-0.190964,0.40036,-0.325215,-0.290104,0.506281,-0.557095,0.074686,0.40397,-0.348265,0.143896,0.563442,-0.590155,-0.262604,0.69735,-0.7670250000000001,0.1085759999999999,0.7895300000000001,-0.762805,-0.080356,-0.00204,0.0124549999999999,0.080356,0.00204,-0.0124549999999999,-0.233374,0.0357699999999999,-0.3221549999999999,0.085856,0.02302,-0.381065,-0.1951639999999999,-0.3687,-0.182284,0.106226,-0.38305,-0.206415,1
112,-0.059125,0.5680200000000001,-0.36744,-0.189613,0.397745,-0.3274,-0.289093,0.5019520000000001,-0.5591200000000001,0.075597,0.401745,-0.35043,0.145457,0.5593910000000001,-0.5932999999999999,-0.262843,0.6930850000000001,-0.77043,0.1100569999999999,0.785675,-0.76911,-0.080547,-0.0023249999999999,0.0120599999999999,0.080547,0.002325,-0.0120599999999999,-0.232163,0.041385,-0.32364,0.0916869999999999,0.0286050000000001,-0.3807899999999999,-0.194003,-0.3641149999999999,-0.183986,0.1071469999999999,-0.3750449999999999,-0.205657,1
113,-0.057915,0.5682740000000001,-0.370235,-0.188168,0.39465,-0.329425,-0.288028,0.498819,-0.5601750000000001,0.076442,0.39933,-0.352425,0.147342,0.5560080000000001,-0.5956250000000001,-0.262938,0.68986,-0.773475,0.1119419999999999,0.7825,-0.773715,-0.080702,-0.0026899999999999,0.0115749999999999,0.080702,0.0026899999999999,-0.011575,-0.230918,0.04686,-0.325195,0.0969519999999999,0.0340899999999999,-0.380455,-0.192878,-0.3596,-0.185512,0.1084519999999999,-0.36873,-0.206337,1
114,-0.0568745,0.5686889999999999,-0.371695,-0.1866585,0.3940649999999999,-0.330285,-0.2870085,0.4957289999999999,-0.559185,0.0776215,0.3985649999999999,-0.353515,0.1492915,0.5532609999999999,-0.596765,-0.2631585,0.6873849999999999,-0.775425,0.1142715,0.779565,-0.776135,-0.0808514999999999,-0.002875,0.011115,0.0808514999999999,0.0028749999999999,-0.0111149999999999,-0.2299485,0.0510549999999999,-0.326285,0.1016015,0.0383949999999999,-0.3801949999999999,-0.1919485,-0.3562750000000001,-0.186825,0.1100115,-0.3628350000000001,-0.2040679999999999,1
115,-0.0562515,0.5692039999999999,-0.37266,-0.1852145,0.3929349999999999,-0.33081,-0.2861245,0.4928769999999999,-0.55745,0.0787455,0.3974949999999999,-0.35431,0.1512254999999999,0.55086,-0.59775,-0.2634645,0.684925,-0.77687,0.1168855,0.7766949999999999,-0.77738,-0.0810355,-0.002985,0.01076,0.0810355,0.002985,-0.0107599999999999,-0.2290745,0.0546049999999999,-0.3272199999999999,0.1056455,0.0420549999999999,-0.38014,-0.1911645,-0.353465,-0.1877509999999999,0.1111155,-0.360035,-0.2052099999999999,1
116,-0.05558,0.569905,-0.37342,-0.183986,0.3925850000000001,-0.33126,-0.285666,0.495023,-0.5576000000000001,0.079844,0.397645,-0.35466,0.152884,0.549671,-0.59848,-0.263366,0.6865450000000001,-0.7776500000000001,0.119464,0.775655,-0.77823,-0.081164,-0.0031849999999999,0.0104099999999999,0.081164,0.0031849999999999,-0.01041,-0.228306,0.058215,-0.32796,0.1088939999999999,0.0457549999999999,-0.38015,-0.190406,-0.350595,-0.188356,0.1126139999999999,-0.354665,-0.202761,1
117,-0.0551855,0.570899,-0.374095,-0.1830775,0.3928750000000001,-0.331535,-0.2853275,0.4972500000000001,-0.557575,0.0805925,0.398505,-0.354585,0.1543825,0.5498480000000001,-0.599205,-0.2633975,0.688405,-0.7775850000000001,0.1217924999999999,0.776155,-0.778995,-0.0812625,-0.0034549999999999,0.010075,0.0812625,0.003455,-0.010075,-0.2276975,0.061495,-0.328925,0.1113624999999999,0.049015,-0.380185,-0.1895474999999999,-0.348035,-0.187651,0.1138524999999999,-0.3519749999999999,-0.203641,1
118,-0.0549665,0.572196,-0.374665,-0.1824985,0.393725,-0.331615,-0.2850785,0.499958,-0.557445,0.0811814999999999,0.399765,-0.3541849999999999,0.1555215,0.551335,-0.5993550000000001,-0.2634685,0.691075,-0.777015,0.1237615,0.778205,-0.779645,-0.0812815,-0.0036049999999999,0.0098449999999999,0.0812815,0.0036049999999999,-0.0098449999999999,-0.2271584999999999,0.064495,-0.329885,0.1131615,0.051985,-0.380255,-0.1891285,-0.345145,-0.18737,0.1147515,-0.3493849999999999,-0.203947,1
119,-0.054854,0.573526,-0.374665,-0.182282,0.396025,-0.3314249999999999,-0.285182,0.502688,-0.557985,0.081618,0.401735,-0.353585,0.156218,0.554062,-0.599275,-0.263872,0.693805,-0.777555,0.125258,0.780935,-0.779575,-0.081178,-0.0036349999999999,0.009665,0.081178,0.003635,-0.009665,-0.226752,0.066955,-0.330705,0.114348,0.054315,-0.3804349999999999,-0.189022,-0.343985,-0.18743,0.1150479999999999,-0.343935,-0.200202,1
120,-0.054749,0.5747009999999999,-0.3740949999999999,-0.18218,0.3971999999999999,-0.330885,-0.28545,0.503863,-0.557845,0.08201,0.4029099999999999,-0.3527249999999999,0.1566799999999999,0.555237,-0.598555,-0.26458,0.6949799999999999,-0.7778349999999999,0.12633,0.78211,-0.778605,-0.0811,-0.00362,0.009635,0.0811,0.0036199999999999,-0.009635,-0.22639,0.0680699999999999,-0.3313049999999999,0.11517,0.0550899999999999,-0.380685,-0.18897,-0.34445,-0.188085,0.1146299999999999,-0.34276,-0.199282,1
121,-0.054764,0.5761859999999999,-0.372825,-0.182058,0.3986849999999999,-0.329965,-0.285868,0.5053479999999999,-0.557105,0.082132,0.4043949999999999,-0.351695,0.156822,0.5567219999999999,-0.597075,-0.265698,0.6964649999999999,-0.776915,0.127072,0.7835949999999999,-0.776545,-0.081092,-0.003515,0.0097949999999999,0.081092,0.0035149999999999,-0.0097949999999999,-0.2261179999999999,0.0692949999999998,-0.332215,0.115742,0.0562049999999999,-0.3810449999999999,-0.189198,-0.3441750000000001,-0.188679,0.114612,-0.345335,-0.200601,1
122,-0.0550915,0.5761859999999999,-0.37053,-0.1819495,0.3986849999999999,-0.32858,-0.2868595,0.5075479999999999,-0.55602,0.0821705,0.4043949999999999,-0.35004,0.1573205,0.5567219999999999,-0.5947,-0.2675695,0.6976849999999999,-0.7747299999999999,0.1273905,0.7843749999999999,-0.7733300000000001,-0.0810305,-0.003515,0.0100499999999999,0.0810305,0.0035149999999999,-0.01005,-0.2258895,0.0690149999999998,-0.33309,0.1161504999999999,0.0558349999999998,-0.38145,-0.1895395,-0.346065,-0.191041,0.1150505,-0.3464750000000001,-0.199881,1
123,-0.05513,0.5762349999999999,-0.367745,-0.181487,0.3997949999999999,-0.327005,-0.287927,0.5110389999999999,-0.555055,0.082463,0.4050149999999999,-0.3483849999999999,0.157883,0.5586689999999999,-0.5919049999999999,-0.269427,0.7026749999999999,-0.772405,0.127763,0.7870949999999999,-0.769835,-0.080963,-0.003515,0.010195,0.080963,0.0035149999999999,-0.0101949999999999,-0.225517,0.0688049999999999,-0.334315,0.116713,0.0554849999999998,-0.3821549999999999,-0.189687,-0.3480150000000001,-0.194066,0.115533,-0.3481350000000001,-0.2001519999999999,1
124,-0.0553135,0.576799,-0.36367,-0.1811565,0.4024449999999999,-0.3249999999999999,-0.2892165,0.5166749999999999,-0.5536,0.0827135,0.4065649999999999,-0.34657,0.1582235,0.5625089999999999,-0.5886899999999999,-0.2714465,0.7083249999999999,-0.7696799999999999,0.1281535,0.7916949999999999,-0.7652300000000001,-0.0808335,-0.003515,0.01034,0.0808335,0.0035149999999999,-0.0103399999999999,-0.2251665,0.0683949999999999,-0.3353899999999999,0.1172335,0.0545849999999998,-0.38276,-0.1899964999999999,-0.3498450000000001,-0.196302,0.1157935,-0.353045,-0.2037689999999999,1
125,-0.0552224999999999,0.5788890000000001,-0.35938,-0.1808175,0.40526,-0.32275,-0.2901075,0.5233150000000001,-0.55189,0.0828625,0.4125000000000001,-0.34509,0.1583125,0.5690700000000001,-0.58563,-0.2734775,0.7159800000000001,-0.7663199999999999,0.1285724999999999,0.79874,-0.76111,-0.0807025,-0.0039799999999999,0.0102099999999999,0.0807025,0.00398,-0.0102099999999999,-0.2245975,0.06676,-0.33662,0.1178525,0.05246,-0.3835699999999999,-0.1903975,-0.3514499999999999,-0.198519,0.1159625,-0.35495,-0.203241,1
126,-0.055025,0.581679,-0.355205,-0.180605,0.406925,-0.320415,-0.2912149999999999,0.52878,-0.549225,0.083505,0.415525,-0.343735,0.158525,0.574614,-0.581865,-0.2754749999999999,0.7234149999999999,-0.7617849999999999,0.129235,0.804715,-0.7554350000000001,-0.080785,-0.0036549999999999,0.0100149999999999,0.080785,0.0036549999999999,-0.0100149999999999,-0.223605,0.0613949999999999,-0.337585,0.118875,0.047095,-0.3840949999999999,-0.190435,-0.356815,-0.20026,0.116425,-0.360805,-0.202924,1
127,-0.054924,0.586514,-0.35021,-0.180483,0.40832,-0.3183,-0.292133,0.536176,-0.54567,0.084157,0.41869,-0.34236,0.158627,0.582681,-0.5766100000000001,-0.2774629999999999,0.73263,-0.7562800000000001,0.129687,0.8132299999999999,-0.7484299999999999,-0.080777,-0.0037,0.0096099999999999,0.080777,0.0036999999999999,-0.00961,-0.222563,0.0550899999999999,-0.33857,0.1197869999999999,0.0407899999999999,-0.38451,-0.190633,-0.36202,-0.201229,0.117257,-0.3674,-0.203739,1
128,-0.054385,0.592267,-0.34485,-0.179968,0.408435,-0.3164599999999999,-0.293098,0.545032,-0.54131,0.084652,0.4213849999999999,-0.34096,0.158822,0.590896,-0.57082,-0.279158,0.7440249999999999,-0.74881,0.1297819999999999,0.8235049999999999,-0.73942,-0.080742,-0.003955,0.0091699999999999,0.080742,0.0039549999999999,-0.00917,-0.221358,0.0469149999999999,-0.33973,0.1206619999999999,0.0324849999999999,-0.3850099999999999,-0.190868,-0.368855,-0.202449,0.1181919999999999,-0.374855,-0.202973,1
129,-0.0535485,0.598434,-0.33854,-0.1794994999999999,0.41296,-0.31289,-0.2938095,0.555013,-0.5369,0.0860805,0.42667,-0.33716,0.1591805,0.600082,-0.56435,-0.2805295,0.75659,-0.7417900000000001,0.1299305,0.83335,-0.73092,-0.0807505,-0.00355,0.00858,0.0807505,0.00355,-0.00858,-0.2197695,0.03587,-0.3408,0.1216805,0.02107,-0.38534,-0.1908895,-0.3785699999999999,-0.202658,0.1189704999999999,-0.38614,-0.204747,1
130,-0.0526135,0.603715,-0.331935,-0.1789335,0.41544,-0.309505,-0.2931535,0.565051,-0.531895,0.0877264999999999,0.4299829999999999,-0.333525,0.1596165,0.608784,-0.556515,-0.2814535,0.76915,-0.734395,0.1302865,0.84392,-0.719925,-0.0806165,-0.00361,0.0079449999999999,0.0806165,0.00361,-0.007945,-0.2177435,0.0238199999999999,-0.341435,0.1227465,0.00834,-0.385335,-0.1908534999999999,-0.38992,-0.202799,0.1208965,-0.39534,-0.204153,1
131,-0.0515999999999999,0.610365,-0.325065,-0.177985,0.418495,-0.305145,-0.293305,0.5731010000000001,-0.526015,0.089665,0.432889,-0.328765,0.160705,0.6164350000000001,-0.548035,-0.281185,0.779815,-0.726015,0.130525,0.852905,-0.709105,-0.080505,-0.0034849999999999,0.0074049999999999,0.080505,0.003485,-0.007405,-0.215505,0.008875,-0.341405,0.123895,-0.006645,-0.384085,-0.190905,-0.4041549999999999,-0.202545,0.122255,-0.4115949999999999,-0.206156,1
132,-0.0505265,0.616825,-0.31765,-0.1768595,0.419834,-0.3003099999999999,-0.2932095,0.580612,-0.51816,0.0917105,0.436289,-0.3236099999999999,0.1615405,0.624535,-0.53893,-0.2805694999999999,0.790365,-0.7144199999999999,0.1310905,0.862985,-0.69654,-0.0801405,-0.003655,0.00692,0.0801405,0.0036549999999999,-0.0069199999999999,-0.2131095,-0.0080749999999999,-0.3404,0.1250505,-0.0234149999999999,-0.38151,-0.1908995,-0.420555,-0.202714,0.1237405,-0.427495,-0.2050809999999999,1
133,-0.049577,0.62638,-0.31005,-0.175858,0.420428,-0.29556,-0.293228,0.58948,-0.5088999999999999,0.093422,0.44004,-0.31811,0.1622819999999999,0.63335,-0.52872,-0.280168,0.8027,-0.70149,0.1318619999999999,0.87398,-0.68294,-0.079552,-0.0038599999999999,0.00647,0.079552,0.00386,-0.00647,-0.210588,-0.0242999999999999,-0.33857,0.126002,-0.03944,-0.37797,-0.190908,-0.4379999999999999,-0.2031319999999999,0.1253119999999999,-0.4430499999999999,-0.203644,1
134,-0.048341,0.6358349999999999,-0.3029,-0.174779,0.427401,-0.29131,-0.293039,0.600625,-0.49973,0.095161,0.443216,-0.31265,0.163371,0.642715,-0.51954,-0.279699,0.817465,-0.68816,0.133081,0.886335,-0.6685099999999999,-0.079281,-0.002875,0.0063,0.079281,0.002875,-0.0063,-0.208059,-0.040935,-0.3370499999999999,0.1270109999999999,-0.0549149999999999,-0.37433,-0.190879,-0.4545949999999999,-0.20349,0.1265109999999999,-0.462925,-0.204848,1
135,-0.0470945,0.64586,-0.295115,-0.1741115,0.4354389999999999,-0.287185,-0.2928015,0.61439,-0.491005,0.0966585,0.449887,-0.307175,0.1641584999999999,0.65473,-0.509745,-0.2790115,0.83161,-0.675465,0.1337585,0.90089,-0.655535,-0.0790885,-0.0029899999999999,0.0062149999999999,0.0790885,0.0029899999999999,-0.0062149999999999,-0.2056615,-0.05567,-0.335465,0.1280285,-0.06806,-0.370745,-0.1908615,-0.46962,-0.2035529999999999,0.1277685,-0.48117,-0.205974,1
136,-0.0458635,0.655135,-0.287805,-0.1734445,0.4462199999999999,-0.282685,-0.2924345,0.628295,-0.483035,0.0982855,0.4566289999999999,-0.301735,0.1649655,0.664715,-0.500965,-0.2783145,0.847155,-0.6614949999999999,0.1344955,0.913885,-0.642325,-0.0788254999999999,-0.002445,0.0061949999999999,0.0788254999999999,0.0024449999999999,-0.006195,-0.2033145,-0.070885,-0.333685,0.1290855,-0.081555,-0.367355,-0.1907745,-0.485425,-0.203509,0.1288554999999999,-0.495805,-0.205384,1
137,-0.0449315,0.65945,-0.280593,-0.1729405,0.453177,-0.278015,-0.2925304999999999,0.6364799999999999,-0.4751149999999999,0.0995595,0.4605329999999999,-0.296325,0.1651495,0.6707099999999999,-0.492275,-0.2775304999999999,0.85558,-0.648755,0.1353995,0.92041,-0.630685,-0.0785305,-0.00191,0.006245,0.0785305,0.0019099999999999,-0.006245,-0.2008705,-0.09066,-0.3310349999999999,0.1301395,-0.09925,-0.362885,-0.1905205,-0.5075000000000001,-0.203097,0.1303794999999999,-0.51573,-0.204262,1
138,-0.044373,0.6659200000000001,-0.273507,-0.173275,0.456779,-0.27433,-0.292295,0.64506,-0.4662,0.0996249999999999,0.46314,-0.29307,0.165125,0.67834,-0.48267,-0.277275,0.8659100000000001,-0.6335200000000001,0.136005,0.93098,-0.61599,-0.078154,-0.0020599999999999,0.0062299999999999,0.078154,0.00206,-0.00623,-0.198735,-0.1078899999999999,-0.32721,0.130805,-0.1144799999999999,-0.3577599999999999,-0.190695,-0.52826,-0.202991,0.131435,-0.53408,-0.202994,1
139,-0.044274,0.674275,-0.266471,-0.173744,0.462925,-0.270208,-0.291514,0.655385,-0.456955,0.099706,0.4673049999999999,-0.289415,0.164926,0.685675,-0.474205,-0.276994,0.875545,-0.618045,0.136326,0.939725,-0.604175,-0.077922,-0.0018349999999999,0.006255,0.077922,0.0018349999999999,-0.006255,-0.196994,-0.125265,-0.3229349999999999,0.131376,-0.128925,-0.3522349999999999,-0.190964,-0.548855,-0.203417,0.131786,-0.555735,-0.203462,1
140,-0.0440665,0.680695,-0.259083,-0.1737075,0.468385,-0.266183,-0.2924675,0.6657850000000001,-0.4473399999999999,0.0999724999999999,0.471995,-0.2861599999999999,0.1653325,0.694195,-0.46526,-0.2766175,0.889285,-0.6021,0.1372225,0.949775,-0.59193,-0.0777065,-0.001865,0.0063799999999999,0.0777065,0.001865,-0.0063799999999999,-0.1950375,-0.1400349999999999,-0.31737,0.1317325,-0.141305,-0.346,-0.1911574999999999,-0.568255,-0.202532,0.1321025,-0.576395,-0.2029909999999999,1
141,-0.043859,0.6887049999999999,-0.251442,-0.173118,0.473545,-0.262505,-0.292998,0.676415,-0.43697,0.099792,0.474255,-0.283053,0.165382,0.7007950000000001,-0.4553,-0.277028,0.899185,-0.5869800000000001,0.1386619999999999,0.956845,-0.5799799999999999,-0.077494,-0.001565,0.0063999999999999,0.077494,0.0015649999999999,-0.0064,-0.193208,-0.153225,-0.31172,0.1318619999999999,-0.152315,-0.33977,-0.191328,-0.586935,-0.20159,0.1323919999999999,-0.595745,-0.202632,1
142,-0.0434574999999999,0.693075,-0.2436009999999999,-0.1728245,0.477955,-0.258221,-0.2933445,0.684125,-0.426285,0.0995855,0.475035,-0.279346,0.1659655,0.705665,-0.445255,-0.2771345,0.906925,-0.5704549999999999,0.1404855,0.963325,-0.5660149999999999,-0.0771365,-0.0011249999999999,0.006395,0.0771365,0.0011249999999999,-0.0063949999999999,-0.1913645,-0.167495,-0.305635,0.1321755,-0.1636449999999999,-0.333095,-0.1912245,-0.606475,-0.2000759999999999,0.1324455,-0.615155,-0.2022399999999999,1
143,-0.0429,0.69141,-0.234742,-0.1729639999999999,0.48001,-0.253159,-0.293594,0.69038,-0.415915,0.099746,0.47707,-0.275386,0.166996,0.70987,-0.434165,-0.277014,0.90757,-0.554115,0.142706,0.96842,-0.552405,-0.076803,-0.00142,0.006225,0.076803,0.00142,-0.006225,-0.189544,-0.1847299999999999,-0.298995,0.132626,-0.17842,-0.326135,-0.190934,-0.62937,-0.198142,0.132636,-0.63795,-0.201048,1
144,-0.042654,0.6885950000000001,-0.225937,-0.1729909999999999,0.481785,-0.24807,-0.294091,0.6956249999999999,-0.405585,0.099699,0.478375,-0.271227,0.167419,0.714585,-0.423935,-0.2765309999999999,0.909835,-0.5368649999999999,0.144679,0.973985,-0.5388649999999999,-0.076635,-0.0013749999999999,0.006125,0.076635,0.001375,-0.0061249999999999,-0.1879509999999999,-0.1961449999999999,-0.291675,0.132859,-0.1914449999999999,-0.318725,-0.190721,-0.6508149999999999,-0.195563,0.132769,-0.658995,-0.1999949999999999,1
145,-0.0422354999999999,0.68714,-0.217242,-0.1728375,0.4845199999999999,-0.24284,-0.2939775,0.70158,-0.3949899999999999,0.0997225,0.48009,-0.266721,0.1679925,0.71951,-0.41345,-0.2760075,0.9161,-0.52136,0.1471525,0.97702,-0.52542,-0.0765025,-0.0012699999999999,0.00597,0.0765025,0.0012699999999999,-0.00597,-0.1858475,-0.20796,-0.2832099999999999,0.1330825,-0.205,-0.31026,-0.1902875,-0.67362,-0.192572,0.1332624999999999,-0.68338,-0.198741,1
146,-0.0420575,0.6876,-0.20816,-0.1734345,0.4911299999999999,-0.237527,-0.2940244999999999,0.7117100000000001,-0.38452,0.0998455,0.48622,-0.261751,0.1678855,0.7290399999999999,-0.40348,-0.2763945,0.92626,-0.50602,0.1500455,0.98347,-0.51149,-0.0764085,-0.00109,0.00595,0.0764085,0.0010899999999999,-0.00595,-0.1838845,-0.21549,-0.2745579999999999,0.1323555,-0.21371,-0.30175,-0.1899945,-0.69235,-0.189188,0.1336454999999999,-0.7033,-0.197095,1
147,-0.0419545,0.68612,-0.199454,-0.1743215,0.49608,-0.232143,-0.2938515,0.71996,-0.3745699999999999,0.0995985,0.48941,-0.2566029999999999,0.1676685,0.73447,-0.39352,-0.2768915,0.93712,-0.4908899999999999,0.1507385,0.9845,-0.49881,-0.0764104999999999,-0.00079,0.0059099999999999,0.0764104999999999,0.00079,-0.0059099999999999,-0.1819214999999999,-0.22441,-0.2658459999999999,0.1320285,-0.22258,-0.29344,-0.1896115,-0.71219,-0.185435,0.1339185,-0.7243,-0.1949219999999999,1
148,-0.0417069999999999,0.68249,-0.190112,-0.175283,0.50029,-0.226581,-0.292703,0.7268699999999999,-0.364135,0.099327,0.49282,-0.251418,0.1675269999999999,0.7404299999999999,-0.382485,-0.277263,0.947,-0.475995,0.1515969999999999,0.98944,-0.484425,-0.076515,-0.0004699999999999,0.0059249999999999,0.076515,0.0004699999999999,-0.005925,-0.179823,-0.23386,-0.256687,0.1311169999999999,-0.23342,-0.285105,-0.189363,-0.73289,-0.182493,0.135137,-0.7458100000000001,-0.193885,1
149,-0.0410055,0.67868,-0.178891,-0.1755614999999999,0.5042,-0.219068,-0.2908415,0.73418,-0.351195,0.0995185,0.49562,-0.244333,0.1675185,0.7459899999999999,-0.369305,-0.2770515,0.95275,-0.4586949999999999,0.1527485,0.99324,-0.468145,-0.0762515,-9.9999999999989e-05,0.0058249999999999,0.0762515,0.0001,-0.0058249999999999,-0.1775215,-0.2438199999999999,-0.245585,0.1306985,-0.24474,-0.275115,-0.1886715,-0.75126,-0.177849,0.1371784999999999,-0.76491,-0.191075,1
150,-0.0401335,0.6719900000000001,-0.167388,-0.1754795,0.5079400000000001,-0.21088,-0.2885695,0.74187,-0.338265,0.1000205,0.49876,-0.236765,0.1655405,0.7519800000000001,-0.354755,-0.2766695,0.95913,-0.440685,0.1545905,0.99729,-0.447455,-0.0757165,0.0003599999999999,0.005695,0.0757165,-0.0003599999999999,-0.005695,-0.1747795,-0.25479,-0.2334939999999999,0.1300805,-0.25673,-0.264755,-0.1877695,-0.76919,-0.1728869999999999,0.1393805,-0.78365,-0.187548,1
151,-0.0386249999999999,0.667592,-0.155404,-0.175075,0.514262,-0.202428,-0.286355,0.7497119999999999,-0.32441,0.101305,0.502682,-0.229276,0.164035,0.758132,-0.33981,-0.275675,0.971902,-0.42294,0.156755,1.000312,-0.42869,-0.0753399999999999,0.0008399999999999,0.0055699999999999,0.0753399999999999,-0.00084,-0.00557,-0.171035,-0.264888,-0.220664,0.1291749999999999,-0.268478,-0.251652,-0.186805,-0.789718,-0.167356,0.141905,-0.803548,-0.182794,1
152,-0.036992,0.6684775,-0.14541,-0.1744589999999999,0.5171675,-0.195857,-0.283049,0.7567275,-0.31067,0.103021,0.5019675,-0.223461,0.162711,0.7624575,-0.32597,-0.273889,0.9886475,-0.40668,0.159121,1.0025275,-0.41077,-0.074893,0.0014134999999999,0.0056499999999999,0.074893,-0.0014134999999999,-0.00565,-0.1668589999999999,-0.2690225,-0.208771,0.128371,-0.2749225,-0.239748,-0.1857889999999999,-0.8058025,-0.162305,0.143731,-0.8143125,-0.178348,1
153,-0.035224,0.6691815,-0.135715,-0.173714,0.5203415,-0.1890119999999999,-0.2797639999999999,0.7636115,-0.29573,0.104936,0.5016015,-0.217739,0.161746,0.7648014999999999,-0.31157,-0.271624,1.0048015,-0.3901,0.1605359999999999,1.0032315,-0.3916699999999999,-0.0744519999999999,0.0019985,0.00562,0.0744519999999999,-0.0019985,-0.0056199999999999,-0.161834,-0.2791285,-0.196637,0.127576,-0.2827385,-0.227428,-0.184634,-0.8217785000000001,-0.156656,0.145746,-0.8246385,-0.173902,1
154,-0.0339335,0.6708235,-0.126134,-0.1737365,0.5201135,-0.181179,-0.2787165,0.7680834999999999,-0.2806849999999999,0.1062434999999999,0.5014535,-0.2123,0.1639635,0.7670935,-0.298145,-0.2690065,1.0143035,-0.373195,0.1635335,1.0051635,-0.374275,-0.0743035,0.0018555,0.0057649999999999,0.0743035,-0.0018554999999999,-0.0057649999999999,-0.1571065,-0.2881165,-0.1853489999999999,0.1265535,-0.2903064999999999,-0.214493,-0.1831865,-0.8316065,-0.151288,0.1474135,-0.8335165,-0.169622,1
155,-0.032747,0.6741715,-0.117582,-0.1740809999999999,0.5208915000000001,-0.17385,-0.276351,0.7727315,-0.266775,0.107199,0.4993315,-0.207784,0.165239,0.7677815,-0.285195,-0.265741,1.0249815,-0.357055,0.166189,1.0068315,-0.358085,-0.074198,0.0018355,0.005665,0.074198,-0.0018354999999999,-0.005665,-0.152571,-0.2960785,-0.174673,0.125509,-0.2982185,-0.201365,-0.181671,-0.8405785,-0.1463,0.149049,-0.8417684999999999,-0.164284,1
156,-0.0314124999999999,0.676763,-0.105262,-0.1739965,0.521613,-0.162747,-0.2741665,0.777033,-0.249135,0.1082935,0.498503,-0.199195,0.1666935,0.769003,-0.2695849999999999,-0.2623665,1.031293,-0.3375749999999999,0.1686335,1.009293,-0.339075,-0.0740645,0.001584,0.0054849999999999,0.0740645,-0.0015839999999999,-0.0054849999999999,-0.1480365,-0.302257,-0.160082,0.1249435,-0.303587,-0.183603,-0.1802165,-0.8476170000000001,-0.137572,0.1508835,-0.848727,-0.154567,1
157,-0.030834,0.681755,-0.087069,-0.174081,0.522235,-0.143036,-0.271811,0.773285,-0.2259749999999999,0.110109,0.503875,-0.178776,0.168519,0.770055,-0.248335,-0.259201,1.031465,-0.310325,0.170879,1.006955,-0.314695,-0.073988,0.0011109999999999,0.0047449999999999,0.073988,-0.001111,-0.0047449999999999,-0.143011,-0.320615,-0.138822,0.1247089999999999,-0.320855,-0.15741,-0.178471,-0.865865,-0.121242,0.152989,-0.866135,-0.137803,1
158,-0.030587,0.6874755,-0.069459,-0.174394,0.5230855,-0.123906,-0.269694,0.7694755,-0.203788,0.111466,0.5093055,-0.158841,0.170466,0.7702855,-0.22846,-0.256714,1.0323955,-0.28502,0.172756,1.0061955,-0.29046,-0.074082,0.0005384999999999,0.0040499999999999,0.074082,-0.0005385,-0.0040499999999999,-0.138324,-0.3388445,-0.119027,0.124146,-0.3372445,-0.132101,-0.1769339999999999,-0.8831745,-0.105378,0.155386,-0.8829245,-0.120162,1
159,-0.0307759999999999,0.693696,-0.0528875,-0.1749549999999999,0.5241359999999999,-0.1053385,-0.267905,0.764656,-0.1831885,0.112955,0.515316,-0.1393615,0.172095,0.7699159999999999,-0.2113035,-0.255675,1.033336,-0.2619635,0.174435,1.0060360000000002,-0.2720935,-0.074352,-0.0001659999999999,0.0034364999999999,0.074352,0.000166,-0.0034364999999999,-0.134285,-0.354584,-0.1024315,0.123515,-0.354364,-0.1087675,-0.175605,-0.899854,-0.0899335,0.157445,-0.899004,-0.1030115,1
160,-0.031832,0.6988234999999999,-0.037399,-0.176095,0.5236635,-0.08705,-0.267165,0.7600034999999999,-0.164107,0.113745,0.5216635,-0.120317,0.173035,0.7690834999999999,-0.194987,-0.255545,1.0290335000000002,-0.240537,0.175375,1.0050335,-0.255757,-0.074432,-0.0010124999999999,0.002752,0.074432,0.0010125,-0.002752,-0.131355,-0.3728165,-0.086872,0.122885,-0.3711565,-0.088722,-0.174815,-0.9158265,-0.075331,0.158075,-0.9119365,-0.084596,1
161,-0.0330059999999999,0.7044235,-0.0219365,-0.1773539999999999,0.5235335,-0.0686055,-0.2667739999999999,0.7540835,-0.1458295,0.114456,0.5281435,-0.1011725,0.173866,0.7674335,-0.1787905,-0.2551339999999999,1.0231935,-0.2205005,0.176146,1.0038935,-0.2409905,-0.074518,-0.0018654999999999,0.0019784999999999,0.074518,0.0018654999999999,-0.0019785,-0.128434,-0.3904964999999999,-0.0717255,0.122446,-0.3874165,-0.0690615,-0.174054,-0.9311965,-0.0606465,0.158346,-0.9244765,-0.0662825,1
162,-0.034201,0.710618,-0.0066179999999999,-0.17858,0.5225380000000001,-0.0503819999999999,-0.2668399999999999,0.746838,-0.128999,0.1155,0.534218,-0.0816389999999999,0.17761,0.763798,-0.163401,-0.2542,1.016018,-0.203301,0.17903,1.003218,-0.227321,-0.074642,-0.002674,0.00127,0.074642,0.0026739999999999,-0.00127,-0.12616,-0.407352,-0.0575909999999999,0.1230499999999999,-0.402892,-0.0515119999999999,-0.17324,-0.945972,-0.046195,0.15868,-0.936232,-0.04827,1
163,-0.035285,0.71352,0.0081725,-0.179493,0.52164,-0.0333915,-0.268023,0.73719,-0.1135915,0.1165269999999999,0.53973,-0.0623025,0.182087,0.75744,-0.1479905,-0.2543229999999999,1.006,-0.1893305,0.183007,0.9995,-0.2139505,-0.074799,-0.0031609999999999,0.0004004999999999,0.074799,0.0031609999999999,-0.0004004999999999,-0.124403,-0.42281,-0.0439025,0.123517,-0.41677,-0.0356865,-0.171703,-0.95583,-0.0308235,0.1591769999999999,-0.94455,-0.0313785,1
164,-0.0364575,0.716682,0.0230775,-0.1801735,0.5213220000000001,-0.0163504999999999,-0.2707735,0.726302,-0.0988085,0.1174264999999999,0.543842,-0.0427074999999999,0.1878665,0.747602,-0.1321895,-0.2560635,0.995112,-0.1755995,0.1880965,0.991012,-0.2005394999999999,-0.0751294999999999,-0.0036769999999999,-0.0003304999999999,0.0751294999999999,0.0036769999999999,0.0003305,-0.1230835,-0.4361279999999999,-0.0303145,0.1238865,-0.428828,-0.0212965,-0.1703835,-0.963438,-0.0157245,0.1597065,-0.954918,-0.0160825,1
165,-0.03786,0.719944,0.033982,-0.1815189999999999,0.5213340000000001,-0.002791,-0.275559,0.716334,-0.089188,0.118231,0.5482440000000001,-0.025863,0.196171,0.737634,-0.120361,-0.259279,0.985144,-0.166051,0.195101,0.981044,-0.193481,-0.075417,-0.004069,-0.000661,0.075417,0.004069,0.0006609999999999,-0.121949,-0.446046,-0.020971,0.124091,-0.440116,-0.011909,-0.1692789999999999,-0.970326,-0.005552,0.160131,-0.964746,-0.005782,1
166,-0.0387949999999999,0.719944,0.037673,-0.182834,0.5213340000000001,0.001683,-0.280794,0.716334,-0.086921,0.118726,0.5482440000000001,-0.021311,0.203046,0.737634,-0.115959,-0.264554,0.985144,-0.163779,0.202656,0.981044,-0.196609,-0.075492,-0.004069,-0.000354,0.075492,0.004069,0.000354,-0.1216339999999999,-0.446346,-0.019151,0.1240159999999999,-0.442116,-0.009884,-0.169124,-0.970266,-0.0035369999999999,0.160176,-0.964446,-0.0029699999999999,1
167,-0.0397105,0.719944,0.04177,-0.1840575,0.5213340000000001,0.0063139999999999,-0.2873774999999999,0.715554,-0.084373,0.1201425,0.5482440000000001,-0.014982,0.2123624999999999,0.7374940000000001,-0.110601,-0.2712175,0.983544,-0.1626409999999999,0.2129125,0.981044,-0.201401,-0.0755295,-0.004069,-0.000122,0.0755295,0.004069,0.0001219999999999,-0.1214175,-0.446996,-0.017878,0.1240724999999999,-0.444786,-0.007646,-0.1689275,-0.970206,-0.001306,0.1606925,-0.964246,-0.000608,1
168,-0.040576,0.719944,0.046466,-0.185231,0.5213340000000001,0.011113,-0.296211,0.711474,-0.082839,0.121699,0.5482440000000001,-0.008224,0.223449,0.735824,-0.105029,-0.279631,0.977744,-0.165984,0.225129,0.977444,-0.2077439999999999,-0.0755329999999999,-0.004069,4.6000000000000034e-05,0.0755329999999999,0.004069,-4.6000000000000034e-05,-0.121321,-0.447446,-0.018115,0.124089,-0.447686,-0.0057929999999999,-0.168821,-0.970106,0.001211,0.161049,-0.963966,0.001999,1
169,-0.041177,0.722139,0.0514339999999999,-0.186143,0.521649,0.0159319999999999,-0.306083,0.702069,-0.080921,0.123557,0.546229,-0.001027,0.236607,0.719519,-0.099336,-0.291503,0.961449,-0.1730259999999999,0.238747,0.959849,-0.2160059999999999,-0.075663,-0.004321,0.0002799999999999,0.075663,0.004321,-0.00028,-0.1215429999999999,-0.444881,-0.017925,0.124587,-0.447331,-0.005689,-0.1684729999999999,-0.966811,0.0035989999999999,0.161577,-0.959731,0.004688,1
170,-0.041821,0.7244440000000001,0.0564729999999999,-0.187095,0.521684,0.020545,-0.3172049999999999,0.685824,-0.079045,0.1258149999999999,0.543504,0.005871,0.251285,0.698644,-0.094958,-0.303455,0.942594,-0.182748,0.253865,0.9333939999999998,-0.226738,-0.075847,-0.004543,0.0006169999999999,0.075847,0.004543,-0.0006169999999999,-0.1213549999999999,-0.440206,-0.0185159999999999,0.125105,-0.446956,-0.005776,-0.168215,-0.962976,0.005874,0.162125,-0.955306,0.006638,1
171,-0.0423015,0.727475,0.0617075,-0.1882175,0.520935,0.0256595,-0.3282975,0.6654950000000001,-0.0773535,0.1280725,0.539675,0.0125414999999999,0.2661925,0.674605,-0.0898815,-0.3153175,0.917055,-0.1963235,0.2698125,0.8981250000000001,-0.2378935,-0.0761395,-0.004782,0.0009144999999999,0.0761395,0.0047819999999999,-0.0009145,-0.1210275,-0.436125,-0.0174805,0.1254225,-0.446625,-0.0048575,-0.1679075,-0.958145,0.0081965,0.1629325,-0.949915,0.0086415,0
172,-0.0426905,0.731142,0.0668005,-0.1896495,0.5181520000000001,0.0304014999999999,-0.3372595,0.640532,-0.0740845,0.1303305,0.536112,0.0187285,0.2793905,0.646852,-0.0849385,-0.3277494999999999,0.880522,-0.2102435,0.2853705,0.8552420000000001,-0.2482734999999999,-0.0764435,-0.004969,0.0012594999999999,0.0764435,0.004969,-0.0012595,-0.1207895,-0.431738,-0.0166105,0.1258004999999999,-0.446218,-0.0039905,-0.1676395,-0.952398,0.0104035,0.1635705,-0.943638,0.0105745,0
173,-0.042982,0.735077,0.0714925,-0.191008,0.5154770000000001,0.0346625,-0.343508,0.611017,-0.0712615,0.132622,0.531977,0.0241214999999999,0.289502,0.6145470000000001,-0.0798025,-0.336488,0.838187,-0.2267075,0.297422,0.8084370000000001,-0.2555475,-0.0767299999999999,-0.0049879999999999,0.0014834999999999,0.0767299999999999,0.004988,-0.0014835,-0.120588,-0.426613,-0.0161125,0.126192,-0.4459729999999999,-0.0033275,-0.167378,-0.946263,0.0124055,0.164132,-0.937233,0.0122665,0
174,-0.0432245,0.7386860000000001,0.075621,-0.1917945,0.513586,0.037332,-0.3477945,0.579066,-0.0689549999999999,0.1344955,0.528336,0.027359,0.2958555,0.580006,-0.0691239999999999,-0.3451445,0.785966,-0.238605,0.3066755,0.745766,-0.258095,-0.0769785,-0.005077,0.0014409999999999,0.0769785,0.0050769999999999,-0.0014409999999999,-0.1207945,-0.422404,-0.015848,0.1264655,-0.445774,-0.0022159999999999,-0.1671745,-0.940194,0.014133,0.1646555,-0.931064,0.013556,0
175,-0.0432695,0.7423955,0.078973,-0.1923484999999999,0.5116655,0.039173,-0.3482685,0.5441055,-0.067176,0.1363114999999999,0.5241955,0.029976,0.2988015,0.5452355,-0.057523,-0.3518985,0.7248355,-0.236777,0.3146115,0.6764155,-0.256947,-0.0771935,-0.0049815,0.001372,0.0771935,0.0049815,-0.001372,-0.1210085,-0.4170645,-0.0160669999999999,0.1267015,-0.4456645,-0.0012779999999999,-0.1669985,-0.9340745,0.015602,0.1652015,-0.9249245,0.014631,0
176,-0.0431379999999999,0.7461415,0.081403,-0.19287,0.5089515,0.040496,-0.3479799999999999,0.5067415,-0.061262,0.13721,0.5219515,0.031232,0.29936,0.5115115,-0.045884,-0.3534699999999999,0.6570415,-0.235402,0.31609,0.6054014999999999,-0.255722,-0.0773679999999999,-0.0048604999999999,0.0013729999999999,0.0773679999999999,0.0048605,-0.0013729999999999,-0.12128,-0.4117385,-0.016445,0.12687,-0.4456084999999999,-0.000332,-0.16692,-0.9284585,0.016871,0.16541,-0.9190085,0.0156509999999999,0
177,-0.0431045,0.7499429999999999,0.082539,-0.1933125,0.506003,0.041531,-0.3475625,0.4704429999999999,-0.052097,0.1380075,0.519253,0.032209,0.2998975,0.4774729999999999,-0.033998,-0.3534425,0.5852229999999999,-0.234389,0.3161175,0.5313129999999999,-0.254709,-0.0775085,-0.004694,0.0014,0.0775085,0.0046939999999999,-0.0014,-0.1214325,-0.406687,-0.016748,0.1268975,-0.4455369999999999,0.0006739999999999,-0.1670325,-0.923327,0.017777,0.1656675,-0.913697,0.016483,0
178,-0.0431655,0.7533865000000001,0.0832675,-0.1937135,0.5027265000000001,0.0421695,-0.3471835,0.4345765,-0.0419125,0.1386865,0.5165565000000001,0.0329035,0.3003765,0.4429865,-0.0217215,-0.3534535,0.5124065,-0.2326805,0.3166465,0.4553665,-0.2415205,-0.0776044999999999,-0.0045574999999999,0.0013965,0.0776044999999999,0.0045574999999999,-0.0013965,-0.1215935,-0.4019735,-0.0163755,0.1269265,-0.4454935,0.0013985,-0.1672135,-0.9187435,0.0185105,0.1660165,-0.9093435,0.0170405,0
179,-0.043226,0.7569265,0.083823,-0.193988,0.4994465,0.042733,-0.345078,0.4042765,-0.030978,0.1390219999999999,0.5145765,0.032671,0.298812,0.4104865,-0.0088789999999999,-0.3532579999999999,0.4374165,-0.226183,0.317372,0.3807965,-0.223463,-0.077714,-0.0043924999999999,0.001411,0.077714,0.0043925,-0.0014109999999999,-0.121698,-0.3975935,-0.016109,0.126932,-0.4455135,0.001945,-0.167388,-0.9143835,0.019072,0.165932,-0.9056335,0.017598,0
180,-0.043008,0.7597665,0.0839205,-0.194126,0.4968565,0.0425375,-0.339026,0.3748265,-0.0177895,0.139374,0.5136965,0.0314384999999999,0.292574,0.3789165,0.0043844999999999,-0.349996,0.3621765,-0.2148805,0.314644,0.3122365,-0.1990805,-0.077832,-0.0041885,0.0015204999999999,0.077832,0.0041884999999999,-0.0015205,-0.121816,-0.3961435,-0.0161165,0.1269139999999999,-0.4455635,0.0022564999999999,-0.167506,-0.9108635,0.0190695,0.165264,-0.9020435,0.0178424999999999,0
181,-0.0426909999999999,0.7620615,0.0831404999999999,-0.194289,0.4970915,0.0419854999999999,-0.329789,0.3464615,-0.0044685,0.139751,0.5124314999999999,0.0292214999999999,0.281951,0.3482415,0.0178065,-0.342479,0.2941415,-0.1973135,0.308061,0.2453814999999999,-0.1679735,-0.077971,-0.0039605,0.0015274999999999,0.077971,0.0039604999999999,-0.0015275,-0.121959,-0.3953085,-0.0161835,0.126891,-0.4455585,0.0024144999999999,-0.167649,-0.9081085,0.0190765,0.164681,-0.8993485,0.0180115,0
182,-0.042518,0.7639325,0.081217,-0.194771,0.4971624999999999,0.0411,-0.318071,0.3220625,0.008386,0.139899,0.5114325,0.026503,0.2691989999999999,0.3235125,0.030811,-0.332611,0.2270424999999999,-0.1734869999999999,0.2982289999999999,0.1813825,-0.1313969999999999,-0.078045,-0.0038974999999999,0.001531,0.078045,0.0038975,-0.0015309999999999,-0.122281,-0.3938175,-0.016168,0.1266789999999999,-0.4453775,0.002544,-0.168011,-0.9060475,0.019089,0.1640789999999999,-0.8976475,0.018196,0
183,-0.042458,0.765608,0.0783715,-0.195434,0.4974879999999999,0.0394155,-0.304114,0.2991979999999999,0.0222064999999999,0.139896,0.510638,0.0237085,0.255136,0.303398,0.0383805,-0.3203539999999999,0.168608,-0.1430685,0.286126,0.137018,-0.0940085,-0.078026,-0.0038399999999999,0.0015294999999999,0.078026,0.0038399999999999,-0.0015295,-0.122474,-0.392662,-0.0161595,0.1264759999999999,-0.445082,0.0027494999999999,-0.168324,-0.904322,0.0187764999999999,0.1636059999999999,-0.895622,0.0185285,0
184,-0.0426019999999999,0.7669284999999999,0.0744415,-0.1958619999999999,0.4979885,0.0372095,-0.290822,0.2816585,0.0339755,0.139888,0.5099484999999999,0.0208975,0.2418779999999999,0.2858985,0.0459095,-0.305702,0.1218485,-0.1104634999999999,0.274638,0.1026185,-0.0563445,-0.077989,-0.0039055,0.0015945,0.077989,0.0039054999999999,-0.0015945,-0.122572,-0.3910515,-0.0162385,0.126068,-0.4434715,0.0026844999999999,-0.168632,-0.9027815,0.0184195,0.163158,-0.8940115,0.0188424999999999,0
185,-0.042879,0.7679849999999999,0.069531,-0.196371,0.498605,0.034827,-0.279641,0.268375,0.042505,0.139949,0.5094650000000001,0.018094,0.230609,0.271445,0.053305,-0.291061,0.083705,-0.072413,0.265279,0.071849,-0.0171349999999999,-0.077903,-0.0039279999999999,0.001662,0.077903,0.003928,-0.001662,-0.122631,-0.390595,-0.016422,0.125809,-0.442245,0.002552,-0.168921,-0.901625,0.018065,0.162769,-0.8925749999999999,0.01898,0
186,-0.043271,0.7687864999999999,0.0636859999999999,-0.196843,0.4992665,0.032324,-0.270243,0.2568065,0.048662,0.139947,0.5091565,0.0151599999999999,0.221517,0.2594565,0.06061,-0.277983,0.0527794999999999,-0.036798,0.256807,0.0488575,0.0176869999999999,-0.077798,-0.0040085,0.0016989999999999,0.077798,0.0040084999999999,-0.001699,-0.122613,-0.3904235,-0.016677,0.125577,-0.4413634999999999,0.0021349999999999,-0.169213,-0.9005835000000001,0.017526,0.162437,-0.8916835000000001,0.01866,0
187,-0.0436564999999999,0.7693685,0.0571179999999999,-0.1971524999999999,0.5000285,0.029661,-0.2638925,0.2476485,0.0539899999999999,0.1399475,0.5089985,0.012268,0.2149875,0.2520985,0.066293,-0.2680524999999999,0.0291505,-0.016354,0.2499175,0.0338635,0.035728,-0.0777055,-0.0040624999999999,0.001683,0.0777055,0.0040625,-0.001683,-0.1224925,-0.3901314999999999,-0.017194,0.1255975,-0.4409114999999999,0.0014029999999999,-0.1693525,-0.8997815,0.016721,0.1616075,-0.8907014999999999,0.018542,0
188,-0.044061,0.7696785,0.050104,-0.197414,0.5007185000000001,0.026864,-0.259384,0.2392085,0.057276,0.139956,0.5088685000000001,0.009378,0.211756,0.2474685,0.068562,-0.262524,0.0135635,-0.0020659999999999,0.248366,0.0219735,0.044653,-0.077631,-0.0041774999999999,0.001647,0.077631,0.0041774999999999,-0.0016469999999999,-0.1222439999999999,-0.3903715,-0.017811,0.125866,-0.4409215,0.001026,-0.169404,-0.8991914999999999,0.015534,0.160876,-0.8897014999999999,0.017394,0
189,-0.0444055,0.769894,0.0431065,-0.1977545,0.501314,0.0239965,-0.2571544999999999,0.234224,0.0577995,0.1399254999999999,0.508844,0.0066655,0.2116855,0.2462939999999999,0.0677455,-0.2609645,0.006081,0.0087875,0.2483854999999999,0.015048,0.0454075,-0.0776155,-0.0042959999999999,0.0016085,0.0776155,0.0042959999999999,-0.0016084999999999,-0.1221245,-0.390746,-0.0184534999999999,0.1261854999999999,-0.440986,0.0006045,-0.1694345,-0.898636,0.0141035,0.1600555,-0.888666,0.0172915,0
190,-0.044734,0.7699824999999999,0.036087,-0.1981899999999999,0.5018825,0.020995,-0.25722,0.2330225,0.056266,0.13981,0.5091325,0.004217,0.21161,0.2469425,0.06613,-0.2608399999999999,0.0021435,0.011451,0.2483099999999999,0.0156965,0.043792,-0.077616,-0.0044015,0.001605,0.077616,0.0044015,-0.001605,-0.12207,-0.3910975,-0.019165,0.1265299999999999,-0.4408575,7.200000000000002e-05,-0.16946,-0.8981175,0.0124289999999999,0.15999,-0.8872975000000001,0.015929,0
191,-0.0451185,0.769962,0.0293915,-0.1987525,0.502492,0.0180115,-0.2572925,0.233282,0.0544635,0.1397175,0.509642,0.0020185,0.2115375,0.247552,0.0643275,-0.2609125,0.0016769999999999,0.0096485,0.2482375,0.016306,0.0419895,-0.0776065,-0.0044359999999999,0.0015494999999999,0.0776065,0.0044359999999999,-0.0015494999999999,-0.1220824999999999,-0.391458,-0.0196485,0.1269375,-0.440688,-0.0001904999999999,-0.1695124999999999,-0.897508,0.0106255,0.1602575,-0.887018,0.0146305,0
192,-0.0456069999999999,0.76979,0.0231325,-0.199404,0.5031599999999999,0.0152045,-0.257334,0.2338799999999999,0.0525385,0.139666,0.5102099999999999,-0.0001084999999999,0.211496,0.2481499999999999,0.0624025,-0.2609539999999999,0.0016169999999999,0.0077235,0.250176,0.016904,0.0399724999999999,-0.077563,-0.004437,0.0014315,0.077563,0.004437,-0.0014314999999999,-0.122054,-0.39158,-0.0200254999999999,0.127376,-0.4406,-0.0004224999999999,-0.169544,-0.89672,0.0088195,0.160486,-0.88662,0.0130915,0
193,-0.046043,0.7696305,0.0172235,-0.19999,0.5038805000000001,0.0122175,-0.25726,0.2345904999999999,0.0502585,0.13974,0.5108705,-0.0025275,0.21391,0.2510505,0.0584565,-0.26198,0.0023275,0.0054955,0.25461,0.0197465,0.0319265,-0.077563,-0.0043954999999999,0.0013015,0.077563,0.0043955,-0.0013015,-0.12187,-0.3916295,-0.0205995,0.12796,-0.4404295,-0.0008935,-0.16937,-0.8962395,0.0065485,0.16077,-0.8858294999999999,0.0111385,0
194,-0.0462604999999999,0.76951,0.0116985,-0.2003305,0.50463,0.0091595,-0.2585605,0.23534,0.0466485,0.1399495,0.5116,-0.0051455,0.2165695,0.25392,0.0525665,-0.2649605,0.003965,0.0001145,0.2599695,0.026576,0.0168875,-0.0776735,-0.004379,0.0012325,0.0776735,0.0043789999999999,-0.0012325,-0.1215105,-0.39088,-0.0211695,0.1288195,-0.44016,-0.0014315,-0.1689605,-0.8958699999999999,0.0040225,0.1618995,-0.88505,0.0081965,0
195,-0.0464275,0.7694230000000001,0.006693,-0.2004715,0.505403,0.006139,-0.2621215,0.238243,0.040384,0.1402185,0.5123730000000001,-0.007837,0.2197684999999999,0.256873,0.04447,-0.2701115,0.009342,-0.012865,0.2645785,0.034222,-0.0008699999999999,-0.0778345,-0.004323,0.001197,0.0778345,0.004323,-0.0011969999999999,-0.1216315,-0.390107,-0.0204989999999999,0.1298085,-0.439857,-0.0020079999999999,-0.1685015,-0.8950969999999999,0.00191,0.1636484999999999,-0.884267,0.005553,0
196,-0.0464625,0.769393,0.002416,-0.2004475,0.506233,0.0032979999999999,-0.2667575,0.241553,0.032575,0.1405124999999999,0.5132030000000001,-0.010561,0.2230025,0.260453,0.0342549999999999,-0.2759875,0.014316,-0.029405,0.2684924999999999,0.042974,-0.022385,-0.0780265,-0.004281,0.0012339999999999,0.0780265,0.004281,-0.0012339999999999,-0.1217175,-0.3899769999999999,-0.019876,0.1308524999999999,-0.4395469999999999,-0.002456,-0.1679475,-0.8942869999999999,-0.000255,0.1652325,-0.883437,0.003149,0
197,-0.0465015,0.769343,-0.0012019999999999,-0.2003214999999999,0.506993,0.000654,-0.2715015,0.245243,0.022766,0.1407885,0.514013,-0.0132189999999999,0.2256685,0.264343,0.02254,-0.2818815,0.0230319999999999,-0.049988,0.2708285,0.051265,-0.049321,-0.0782384999999999,-0.004207,0.001341,0.0782384999999999,0.0042069999999999,-0.0013409999999999,-0.1224715,-0.394957,-0.019018,0.1318085,-0.439287,-0.0034349999999999,-0.1673214999999999,-0.893517,-0.0025239999999999,0.1668785,-0.882437,0.000824,0
198,-0.046524,0.7693690000000001,-0.004368,-0.200176,0.5076890000000001,-0.0018519999999999,-0.275716,0.249709,0.011375,0.141054,0.514789,-0.015883,0.227534,0.268499,0.009652,-0.286806,0.032784,-0.07414,0.271534,0.059643,-0.0775059999999999,-0.078461,-0.0041289999999999,0.0014879999999999,0.078461,0.004129,-0.0014879999999999,-0.122496,-0.394191,-0.018653,0.1328039999999999,-0.439101,-0.004493,-0.166736,-0.8928309999999999,-0.004695,0.168174,-0.881411,-0.0015539999999999,0
199,-0.04624,0.7694035,-0.0090065,-0.199726,0.5087235,-0.0057175,-0.281476,0.2501735,-0.0082715,0.141624,0.5155235,-0.0196205,0.232694,0.2721635,-0.0133545,-0.295156,0.0217605,-0.1220015,0.288634,0.0735135,-0.1159715,-0.078818,-0.0039145,0.0010864999999999,0.078818,0.0039145,-0.0010865,-0.130616,-0.4422165,-0.0097185,0.1339739999999999,-0.4390865,-0.0067785,-0.166296,-0.8899265,-0.0072635,0.169484,-0.8809365,-0.0049635,0
200,-0.046087,0.7696515,-0.011224,-0.199287,0.5092615,-0.007966,-0.283337,0.2565515,-0.018273,0.141803,0.5163515000000001,-0.02218,0.232393,0.2799815,-0.024239,-0.296517,0.0359195,-0.135482,0.285103,0.0837245,-0.141942,-0.079105,-0.0041795,0.0015349999999999,0.079105,0.0041794999999999,-0.001535,-0.1297869999999999,-0.4414985,-0.011641,0.135213,-0.4387385,-0.007646,-0.163517,-0.8966985,-0.010084,0.170143,-0.8802384999999999,-0.00743,0
201,-0.046679,0.769258,-0.0133245,-0.1992709999999999,0.509308,-0.0099605,-0.285761,0.262478,-0.0259985,0.141579,0.516778,-0.0244815,0.231729,0.283248,-0.0298825,-0.299811,0.072417,-0.1490385,0.280539,0.094021,-0.1548485,-0.079305,-0.004032,0.0020864999999999,0.079305,0.004032,-0.0020865,-0.1229509999999999,-0.382492,-0.0171325,0.136039,-0.4390619999999999,-0.0086385,-0.163951,-0.895632,-0.0126435,0.174259,-0.883102,-0.0078665,0
202,-0.046865,0.769203,-0.014548,-0.19974,0.509073,-0.010925,-0.28836,0.271903,-0.032167,0.14128,0.5171129999999999,-0.025734,0.23092,0.286983,-0.0343,-0.29765,0.0829319999999999,-0.166352,0.2716699999999999,0.113303,-0.176562,-0.079385,-0.003988,0.0023499999999999,0.079385,0.0039879999999999,-0.00235,-0.1226,-0.3823769999999999,-0.018286,0.13667,-0.438917,-0.009242,-0.16388,-0.892587,-0.01156,0.17479,-0.882897,-0.009284,0
203,-0.047681,0.7688595,-0.0150435,-0.20029,0.5087195,-0.0112345,-0.28833,0.2779795,-0.0367835,0.14088,0.5173095000000001,-0.0268235,0.2288,0.2954394999999999,-0.0383555,-0.29611,0.0926285,-0.1917655,0.26461,0.1355995,-0.1816755,-0.079419,-0.0040215,0.0025064999999999,0.079419,0.0040215,-0.0025065,-0.12882,-0.4354305,-0.0104425,0.1371,-0.4386405,-0.0095635,-0.16357,-0.8925305,-0.0123925,0.1749,-0.8828305,-0.0102855,0
204,-0.048275,0.7686345,-0.0149905,-0.200442,0.5088045,-0.0115145,-0.288232,0.2844445,-0.0402145,0.140248,0.5176645,-0.0272535,0.225398,0.3020045,-0.0394505,-0.294552,0.0978945,-0.1973395,0.257078,0.1499945,-0.1925195,-0.079433,-0.0039594999999999,0.0025375,0.079433,0.0039595,-0.0025374999999999,-0.128652,-0.4353255,-0.0107335,0.137328,-0.4388654999999999,-0.0095345,-0.164032,-0.8915555000000001,-0.0128065,0.173598,-0.8811455,-0.0124114999999999,0
205,-0.0486935,0.768276,-0.0148235,-0.2011095,0.508826,-0.0115275,-0.2870895,0.288026,-0.0414125,0.1396804999999999,0.517756,-0.0276065,0.2250005,0.302676,-0.0397925,-0.2928995,0.106636,-0.1997575,0.2513505,0.148136,-0.1912974999999999,-0.0794705,-0.004097,0.0025974999999999,0.0794705,0.004097,-0.0025974999999999,-0.1213095,-0.3811839999999999,-0.0197165,0.1375404999999999,-0.4386839999999999,-0.0095985,-0.1639095,-0.891554,-0.0125125,0.1690805,-0.875894,-0.0119565,0
