sb224sc-HT22-VT27/4dt907/src/data/labeled_files/A63_kinect.csv
FrameNo,nose_3d_x,nose_3d_y,nose_3d_z,left_shoulder_3d_x,left_shoulder_3d_y,left_shoulder_3d_z,left_elbow_3d_x,left_elbow_3d_y,left_elbow_3d_z,right_shoulder_3d_x,right_shoulder_3d_y,right_shoulder_3d_z,right_elbow_3d_x,right_elbow_3d_y,right_elbow_3d_z,left_wrist_3d_x,left_wrist_3d_y,left_wrist_3d_z,right_wrist_3d_x,right_wrist_3d_y,right_wrist_3d_z,left_hip_3d_x,left_hip_3d_y,left_hip_3d_z,right_hip_3d_x,right_hip_3d_y,right_hip_3d_z,left_knee_3d_x,left_knee_3d_y,left_knee_3d_z,right_knee_3d_x,right_knee_3d_y,right_knee_3d_z,left_ankle_3d_x,left_ankle_3d_y,left_ankle_3d_z,right_ankle_3d_x,right_ankle_3d_y,right_ankle_3d_z,activity_label
0,-0.046217,0.77537,0.026794,-0.204568,0.51303,0.016484,-0.255288,0.2655,0.0101489999999999,0.1377419999999999,0.50947,0.0007939999999999,0.195072,0.23936,-0.012139,-0.2394379999999999,0.032817,-0.081021,0.200092,0.01462,-0.111511,-0.078836,-0.003351,-0.0009629999999999,0.078836,0.003351,0.0009629999999999,-0.123308,-0.37926,-0.015414,0.1266419999999999,-0.38942,0.00594,-0.161048,-0.8885200000000001,0.029171,0.171342,-0.88088,0.0301309999999999,0
1,-0.0461354999999999,0.775404,0.0267719999999999,-0.2046175,0.513104,0.0165789999999999,-0.2552175,0.265544,0.0102559999999999,0.1376625,0.509474,0.0008609999999999,0.1950225,0.239414,-0.012044,-0.2393775,0.032927,-0.080776,0.2000525,0.0147319999999999,-0.111276,-0.0788485,-0.003326,-0.000909,0.0788485,0.003326,0.000909,-0.1233775,-0.379046,-0.015377,0.1309125,-0.425006,0.0118069999999999,-0.1612875,-0.8870859999999999,0.0295259999999999,0.1722625,-0.884856,0.027947,0
2,-0.0460635,0.7754599999999999,0.0267894999999999,-0.2046015,0.51315,0.0165914999999999,-0.2552215,0.26554,0.0103774999999999,0.1377085,0.50944,0.0009244999999999,0.1950085,0.23946,-0.0119455,-0.2393915,0.033066,-0.0807385,0.2000285,0.0147029999999999,-0.1111185,-0.0788495,-0.0033309999999999,-0.0009195,0.0788495,0.0033309999999999,0.0009194999999999,-0.1233715,-0.37904,-0.0153355,0.1310785,-0.4256299999999999,0.0119364999999999,-0.1611415,-0.88743,0.0299164999999999,0.1724885,-0.88398,0.0277004999999999,0
3,-0.0460705,0.7754660000000001,0.0268105,-0.2046484999999999,0.513186,0.0165715,-0.2551185,0.265536,0.0103645,0.1377015,0.509436,0.0009425,0.1949715,0.239456,-0.0118884999999999,-0.2393785,0.03329,-0.0803575,0.1999515,0.0146249999999999,-0.1107275,-0.0788615,-0.003303,-0.0009724999999999,0.0788615,0.003303,0.0009725,-0.1234085,-0.379014,-0.0153314999999999,0.1311015,-0.426884,0.0124105,-0.1612485,-0.8872439999999999,0.0298485,0.1726115,-0.882474,0.0265905,0
4,-0.0459895,0.7754105,0.026828,-0.2047095,0.5132105,0.016607,-0.2550095,0.2656005,0.010675,0.1377604999999999,0.5095105,0.001096,0.1949405,0.2394804999999999,-0.0119319999999999,-0.2392695,0.0334245,-0.0796979999999999,0.1999205,0.0146425,-0.110688,-0.0788794999999999,-0.0032795,-0.0009909999999999,0.0788794999999999,0.0032795,0.000991,-0.1234395,-0.3789495,-0.01534,0.1261505,-0.3887295,0.007635,-0.1611595,-0.8862695,0.03022,0.1738505,-0.8821395000000001,0.026416,0
5,-0.0459805,0.775397,0.0268329999999999,-0.2047455,0.5131770000000001,0.0166419999999999,-0.2550055,0.265517,0.0108099999999999,0.1377445,0.5095270000000001,0.0011049999999999,0.1949344999999999,0.239607,-0.011609,-0.2392755,0.033532,-0.079603,0.1998845,0.014638,-0.110583,-0.0788945,-0.0032719999999999,-0.000959,0.0788945,0.0032719999999999,0.0009589999999999,-0.1234655,-0.378913,-0.015281,0.1315945,-0.427803,0.0122809999999999,-0.1626955,-0.886683,0.0216709999999999,0.1735545,-0.8820129999999999,0.0265949999999999,0
6,-0.0458845,0.775486,0.0269115,-0.2048124999999999,0.513146,0.0169105,-0.2548424999999999,0.265636,0.0110745,0.1377475,0.5095660000000001,0.0012305,0.1948475,0.239526,-0.0113714999999999,-0.2392525,0.033175,-0.0798764999999999,0.1998675,0.014711,-0.1103265,-0.0788955,-0.003277,-0.0009684999999999,0.0788955,0.003277,0.0009685,-0.1234925,-0.378924,-0.0152904999999999,0.1315775,-0.4278039999999999,0.0122505,-0.1622825,-0.888034,0.0223105,0.1740075,-0.882504,0.0278155,0
7,-0.045887,0.7754624999999999,0.026787,-0.204782,0.5131924999999999,0.016716,-0.254932,0.2655625,0.010828,0.137678,0.5095324999999999,0.001187,0.1948879999999999,0.2394925,-0.0113359999999999,-0.239232,0.0331755,-0.0801379999999999,0.200098,0.0148535,-0.110568,-0.078885,-0.0033115,-0.0009359999999999,0.078885,0.0033115,0.0009359999999999,-0.123452,-0.3789275,-0.015285,0.1313879999999999,-0.4261575,0.012144,-0.161602,-0.8870675,0.025876,0.173898,-0.8822675,0.028236,0
8,-0.04587,0.7754690000000001,0.026773,-0.20486,0.513209,0.016728,-0.25492,0.2655389999999999,0.010907,0.1376399999999999,0.509569,0.001245,0.19485,0.2395489999999999,-0.0111809999999999,-0.2392,0.033179,-0.0801009999999999,0.20019,0.014983,-0.110531,-0.078887,-0.003321,-0.0009239999999999,0.078887,0.003321,0.000924,-0.12342,-0.378911,-0.0152619999999999,0.13156,-0.426651,0.012218,-0.16163,-0.887011,0.025864,0.17384,-0.8822409999999999,0.028182,0
9,-0.0458395,0.7754715,0.026752,-0.2049245,0.5132215,0.01672,-0.2549245,0.2655115,0.010935,0.1376155,0.5096215,0.001284,0.1948155,0.2395815,-0.011026,-0.2391645,0.0331805,-0.080114,0.2003355,0.0151305,-0.110534,-0.0788875,-0.0033345,-0.0009119999999999,0.0788875,0.0033345,0.000912,-0.1233745,-0.3788985,-0.0152489999999999,0.1317154999999999,-0.4269885,0.012288,-0.1615945,-0.8868985,0.025751,0.1735755,-0.8815985,0.028621,0
10,-0.0457845,0.7754455,0.0267465,-0.2049975,0.5132355000000001,0.0166975,-0.2549275,0.2655055,0.0109544999999999,0.1375825,0.5096855,0.0013205,0.1947825,0.2396154999999999,-0.0109034999999999,-0.2391174999999999,0.0331755,-0.0801275,0.2004825,0.0152874999999999,-0.1105075,-0.0788855,-0.0033495,-0.0008965,0.0788855,0.0033495,0.0008965,-0.1233274999999999,-0.3788845,-0.0152375,0.1318625,-0.4272345,0.0123545,-0.1615575,-0.8868645,0.0256865,0.1734225,-0.8805744999999999,0.0292655,0
11,-0.0457105,0.7754265,0.0267269999999999,-0.2050695,0.5132465,0.016654,-0.2549595,0.2654865,0.0109459999999999,0.1375404999999999,0.5097365,0.0013409999999999,0.1947505,0.2396765,-0.010801,-0.2390795,0.0331405,-0.080142,0.2006504999999999,0.0155065,-0.110482,-0.0788845,-0.0033685,-0.000882,0.0788845,0.0033685,0.0008819999999999,-0.1232794999999999,-0.3788635,-0.015227,0.1319604999999999,-0.4273535,0.0123739999999999,-0.1614195,-0.8869635,0.0256329999999999,0.1730605,-0.8795135,0.0302099999999999,0
12,-0.0456219999999999,0.7754155,0.0267145,-0.205138,0.5132455,0.0166215,-0.254978,0.2654755,0.0109505,0.137512,0.5097955000000001,0.0013545,0.194712,0.2397255,-0.0106954999999999,-0.239038,0.0331065,-0.0801765,0.2008619999999999,0.0156815,-0.1104564999999999,-0.078882,-0.0033905,-0.0008634999999999,0.078882,0.0033905,0.0008635,-0.123218,-0.3788545,-0.0152194999999999,0.132042,-0.4277045,0.0124165,-0.161238,-0.8872445,0.0255875,0.173402,-0.8796545,0.0307905,0
13,-0.0454959999999999,0.7754015,0.0266884999999999,-0.20521,0.5132614999999999,0.0165754999999999,-0.255,0.2654815,0.0109564999999999,0.13748,0.5098514999999999,0.0013524999999999,0.19467,0.2397615,-0.0106055,-0.239,0.0330715,-0.0802345,0.20106,0.0158345,-0.1104545,-0.078878,-0.0034135,-0.0008415,0.078878,0.0034135,0.0008414999999999,-0.12317,-0.3788384999999999,-0.0152295,0.13211,-0.4277785,0.0124514999999999,-0.1609199999999999,-0.8874885,0.0262104999999999,0.17282,-0.8760485,0.0319685,0
14,-0.0453515,0.7753685,0.026662,-0.2052795,0.5132785,0.016498,-0.2550295,0.2654685,0.010965,0.1374305,0.5099085,0.001345,0.1946405,0.2398185,-0.0105149999999999,-0.2389595,0.0330375,-0.0802539999999999,0.2012405,0.0159695,-0.1104439999999999,-0.0788755,-0.0034355,-0.0008179999999999,0.0788755,0.0034355,0.000818,-0.1231195,-0.3788315,-0.0152399999999999,0.1321705,-0.4278515,0.012458,-0.1606595,-0.8876615,0.026836,0.1723905,-0.8741515,0.032325,0
15,-0.0451815,0.77534,0.0266459999999999,-0.2053444999999999,0.51328,0.0164159999999999,-0.2550545,0.26546,0.0109709999999999,0.1374055,0.50998,0.0013259999999999,0.1946255,0.2399099999999999,-0.010443,-0.2389545,0.032973,-0.080293,0.2014155,0.016078,-0.110503,-0.0788795,-0.003463,-0.000813,0.0788795,0.003463,0.0008129999999999,-0.1230645,-0.37882,-0.01526,0.1321455,-0.42753,0.0123779999999999,-0.1603345,-0.88784,0.0275809999999999,0.1718454999999999,-0.87241,0.032046,0
16,-0.0450075,0.7753,0.0266339999999999,-0.2054145,0.51327,0.0163239999999999,-0.2550745,0.26542,0.0109779999999999,0.1373754999999999,0.51005,0.0012939999999999,0.1946155,0.23999,-0.010379,-0.2389645,0.032903,-0.08029,0.2015255,0.016058,-0.11056,-0.0788825,-0.003486,-0.000805,0.0788825,0.003486,0.000805,-0.1230145,-0.37883,-0.0152909999999999,0.1321155,-0.42697,0.0122239999999999,-0.1600445,-0.88786,0.028294,0.1717855,-0.87222,0.031162,0
17,-0.0448155,0.7752995,0.026601,-0.2054565,0.5132695,0.0162119999999999,-0.2550665,0.2654095,0.010986,0.1373734999999999,0.5100995,0.0012459999999999,0.1946235,0.2400595,-0.0103299999999999,-0.2389565,0.0328365,-0.080238,0.2016435,0.0160575,-0.110498,-0.0788815,-0.0034904999999999,-0.000792,0.0788815,0.0034904999999999,0.000792,-0.1230165,-0.3788404999999999,-0.015322,0.1316535,-0.4226405,0.0117829999999999,-0.1596865,-0.8880905,0.0290059999999999,0.1717535,-0.8717505,0.0305749999999999,0
18,-0.0446435,0.7752914999999999,0.026536,-0.2055005,0.5132715,0.016074,-0.2550805,0.2654015,0.01098,0.1373494999999999,0.5101515,0.001171,0.1946294999999999,0.2401114999999999,-0.0102629999999999,-0.2389505,0.0327805,-0.0801839999999999,0.2017195,0.0160594999999999,-0.110374,-0.0788804999999999,-0.0034975,-0.0007589999999999,0.0788804999999999,0.0034975,0.000759,-0.1230205,-0.3788384999999999,-0.0153739999999999,0.1321294999999999,-0.4268085,0.012149,-0.1590905,-0.8884785000000001,0.029911,0.1726895,-0.8723685,0.029885,0
19,-0.0444965,0.775295,0.026453,-0.2055544999999999,0.513275,0.015933,-0.2551144999999999,0.265375,0.010962,0.1373355,0.510215,0.0010949999999999,0.1946255,0.240165,-0.010221,-0.2389545,0.03272,-0.080119,0.2017755,0.0160529999999999,-0.110199,-0.0788785,-0.003506,-0.0007249999999999,0.0788785,0.003506,0.000725,-0.1230145,-0.378815,-0.015426,0.1320855,-0.427255,0.012257,-0.1587644999999999,-0.889225,0.030159,0.1734355,-0.872895,0.029281,0
20,-0.0443649999999999,0.7752735,0.0263764999999999,-0.205611,0.5132835,0.0157654999999999,-0.255151,0.2653635,0.0109184999999999,0.137329,0.5102935,0.0010254999999999,0.194639,0.2402235,-0.0102075,-0.238941,0.0326645,-0.0799995,0.201819,0.0159965,-0.1100795,-0.078878,-0.0035185,-0.0006885,0.078878,0.0035185,0.0006885,-0.123001,-0.3787864999999999,-0.0154745,0.131359,-0.4230564999999999,0.0118384999999999,-0.158751,-0.8892565,0.0303235,0.173529,-0.8726965,0.0292844999999999,0
21,-0.0443084999999999,0.7752615,0.0263055,-0.2056805,0.5132715,0.0155745,-0.2551905,0.2653615,0.0108765,0.1373194999999999,0.5103515000000001,0.0009375,0.1946295,0.2402715,-0.0102304999999999,-0.2389505,0.0325475,-0.0798875,0.2018295,0.0159285,-0.1099574999999999,-0.0788765,-0.0035205,-0.0006525,0.0788765,0.0035205,0.0006525,-0.1229905,-0.3787684999999999,-0.0155205,0.1312595,-0.4225985,0.0116815,-0.1586905,-0.8892585,0.0305475,0.1736795,-0.8724284999999999,0.0292255,0
22,-0.0442949999999999,0.7752585000000001,0.0262324999999999,-0.205769,0.5132685,0.0153904999999999,-0.255259,0.2653085,0.0108324999999999,0.137291,0.5104185,0.0008394999999999,0.194631,0.2403285,-0.0102775,-0.238959,0.0324035,-0.0797645,0.201841,0.0158605,-0.1099245,-0.078876,-0.0035235,-0.0006225,0.078876,0.0035235,0.0006224999999999,-0.1229789999999999,-0.3787515,-0.0155475,0.131171,-0.4220715,0.0115494999999999,-0.1586489999999999,-0.8892614999999999,0.0307534999999999,0.173711,-0.8721614999999999,0.0291774999999999,0
23,-0.0442894999999999,0.7752545000000001,0.0261219999999999,-0.2058594999999999,0.5132645,0.0151709999999999,-0.2553395,0.2652545,0.0107929999999999,0.1372605,0.5104945000000001,0.0007339999999999,0.1946205,0.2403745,-0.01032,-0.2389494999999999,0.0322654999999999,-0.079678,0.2018404999999999,0.0157235,-0.109968,-0.0788755,-0.0035275,-0.000593,0.0788755,0.0035275,0.0005929999999999,-0.1229695,-0.3787355,-0.015574,0.1306905,-0.4174555,0.0110409999999999,-0.1584895,-0.8893555,0.0307029999999999,0.1737604999999999,-0.8721855,0.0301979999999999,0
24,-0.04428,0.7752295,0.025981,-0.205984,0.5132395,0.014915,-0.255424,0.2651795,0.010765,0.1371859999999999,0.5105895,0.000608,0.194626,0.2404494999999999,-0.010352,-0.238954,0.0321395,-0.0796299999999999,0.201836,0.0156105,-0.1099999999999999,-0.078875,-0.0035525,-0.0005609999999999,0.078875,0.0035525,0.000561,-0.122904,-0.3787505,-0.0155859999999999,0.1306959999999999,-0.4175305,0.011066,-0.158204,-0.8898305,0.030657,0.174976,-0.8755505,0.030083,0
25,-0.0442575,0.7751899999999999,0.0258384999999999,-0.2060815,0.51322,0.0146454999999999,-0.2555015,0.26508,0.0107274999999999,0.1370985,0.5106999999999999,0.0004614999999999,0.1946285,0.24056,-0.0104105,-0.2389514999999999,0.0320159999999999,-0.0795725,0.2018385,0.01551,-0.1100225,-0.0788764999999999,-0.003576,-0.0005385,0.0788764999999999,0.003576,0.0005384999999999,-0.1228215,-0.37875,-0.0155995,0.1307185,-0.41773,0.0112374999999999,-0.1579015,-0.89017,0.0306204999999999,0.1758885,-0.8769600000000001,0.0287904999999999,0
26,-0.044239,0.775169,0.025691,-0.206179,0.513189,0.0143529999999999,-0.255569,0.264999,0.010681,0.137011,0.5108590000000001,0.0003029999999999,0.194631,0.240709,-0.010525,-0.238949,0.0319259999999999,-0.079566,0.201821,0.015384,-0.110086,-0.078877,-0.003608,-0.000516,0.078877,0.003608,0.0005159999999999,-0.122759,-0.378741,-0.015615,0.130741,-0.417961,0.0114109999999999,-0.157589,-0.8905909999999999,0.0305669999999999,0.175871,-0.878131,0.028184,0
27,-0.0442414999999999,0.7751444999999999,0.0255354999999999,-0.2062805,0.5131545,0.0140764999999999,-0.2556505,0.2648945,0.0106344999999999,0.1369195,0.5109944999999999,0.0001644999999999,0.1946295,0.2408545,-0.0106795,-0.2389405,0.0318345,-0.0795665,0.2017895,0.0152615,-0.1102964999999999,-0.0788775,-0.0036395,-0.0005095,0.0788775,0.0036395,0.0005094999999999,-0.1226805,-0.3787155,-0.0156135,0.1308095,-0.4188255,0.0115655,-0.1572305,-0.8908955000000001,0.0304344999999999,0.1749595,-0.8780655,0.0281365,0
28,-0.04425,0.7751285,0.0253435,-0.20636,0.5131085,0.0137865,-0.2557199999999999,0.2648284999999999,0.0105375,0.13683,0.5111384999999999,1.3499999999999623e-05,0.19462,0.2410085,-0.0108665,-0.23894,0.0317745,-0.0795625,0.20174,0.0151685,-0.1106824999999999,-0.078881,-0.0036725,-0.0005044999999999,0.078881,0.0036725,0.0005045,-0.12262,-0.3786815,-0.0156064999999999,0.13089,-0.4194315,0.0116955,-0.15696,-0.8907415000000001,0.0305275,0.1752,-0.8782415,0.0277735,0
29,-0.044262,0.7750975,0.0251605,-0.206431,0.5130675,0.0135025,-0.255811,0.2647474999999999,0.0103954999999999,0.136749,0.5112574999999999,-0.0001434999999999,0.194619,0.2411575,-0.0111145,-0.238931,0.0316815,-0.0795585,0.201659,0.0150675,-0.1111885,-0.078884,-0.0036995,-0.0004984999999999,0.078884,0.0036995,0.0004984999999999,-0.122561,-0.3786425,-0.0156055,0.130979,-0.4198725,0.0118314999999999,-0.156671,-0.8909425000000001,0.0302244999999999,0.175509,-0.8785625,0.0275554999999999,0
30,-0.044284,0.7750630000000001,0.0249759999999999,-0.206492,0.513013,0.0132049999999999,-0.255882,0.264673,0.0102389999999999,0.136658,0.511393,-0.0002979999999999,0.194618,0.241313,-0.011428,-0.238902,0.031605,-0.079575,0.201558,0.014959,-0.1118349999999999,-0.078886,-0.003725,-0.000493,0.078886,0.003725,0.000493,-0.122492,-0.378617,-0.0155949999999999,0.1312479999999999,-0.419717,0.0117659999999999,-0.1566719999999999,-0.890977,0.0300509999999999,0.175928,-0.879057,0.0275489999999999,0
31,-0.0443075,0.7750295,0.024814,-0.2065435,0.5129695,0.012923,-0.2559335,0.2646395,0.0100829999999999,0.1365765,0.5115195,-0.000434,0.1946164999999999,0.2414494999999999,-0.01173,-0.2388735,0.0315335,-0.0796409999999999,0.2014464999999999,0.0148485,-0.112571,-0.0788875,-0.0037515,-0.000488,0.0788875,0.0037515,0.000488,-0.1224335,-0.3786104999999999,-0.015583,0.1317065,-0.4239104999999999,0.012149,-0.1566735,-0.8910105,0.029921,0.1753865,-0.8790804999999999,0.028307,0
32,-0.04434,0.7749874999999999,0.024671,-0.206595,0.5129275,0.012681,-0.2559749999999999,0.2646075,0.009942,0.136485,0.5116375,-0.0005719999999999,0.194615,0.2415875,-0.0120539999999999,-0.238815,0.0314775,-0.0798099999999999,0.201335,0.0147515,-0.1132499999999999,-0.078889,-0.0037765,-0.0004869999999999,0.078889,0.0037765,0.000487,-0.122375,-0.3785825,-0.0155749999999999,0.132205,-0.4284325,0.012621,-0.1567049999999999,-0.8910125,0.02952,0.174815,-0.8797225,0.029504,0
33,-0.044349,0.774976,0.024544,-0.206619,0.512896,0.012448,-0.255999,0.264596,0.009796,0.136451,0.5117160000000001,-0.0006919999999999,0.194601,0.241696,-0.012364,-0.238769,0.031448,-0.08,0.2012209999999999,0.014678,-0.11394,-0.07889,-0.003781,-0.000483,0.07889,0.003781,0.0004829999999999,-0.122359,-0.378554,-0.015565,0.1318909999999999,-0.423984,0.011816,-0.156749,-0.8907339999999999,0.0293399999999999,0.174771,-0.880594,0.0307309999999999,0
34,-0.0443615,0.7749665,0.0244175,-0.2066375,0.5128665,0.0122385,-0.2560274999999999,0.2645965,0.0096375,0.1364225,0.5117765000000001,-0.0007904999999999,0.1945925,0.2417365,-0.0126374999999999,-0.2387275,0.0314334999999999,-0.0801814999999999,0.2011025,0.0147065,-0.1144615,-0.0788915,-0.0037845,-0.0004815,0.0788915,0.0037845,0.0004815,-0.1223575,-0.3785235,-0.0155565,0.1315625,-0.4194035,0.0109935,-0.1566475,-0.8903135,0.0293415,0.1747025,-0.8817235,0.0316595,0
35,-0.044377,0.77495,0.0242775,-0.20666,0.51283,0.0120555,-0.2560699999999999,0.26458,0.0094785,0.13639,0.5118,-0.0008885,0.19457,0.2417699999999999,-0.0128734999999999,-0.2387,0.031434,-0.0803224999999999,0.201,0.0147219999999999,-0.1149025,-0.078891,-0.003788,-0.0004844999999999,0.078891,0.003788,0.0004845,-0.12236,-0.37849,-0.0155494999999999,0.13206,-0.4238599999999999,0.0117375,-0.15666,-0.89032,0.0292245,0.17441,-0.88222,0.0323935,0
36,-0.0443675,0.774932,0.0241445,-0.2066635,0.512802,0.0118774999999999,-0.2560735,0.264572,0.0093164999999999,0.1363565,0.511822,-0.0010155,0.1945765,0.241822,-0.0130805,-0.2386535,0.031444,-0.0804645,0.2009565,0.0147219999999999,-0.1152045,-0.0788945,-0.003796,-0.0004865,0.0788945,0.003796,0.0004864999999999,-0.1223435,-0.3784679999999999,-0.0155505,0.1322165,-0.424378,0.0119354999999999,-0.1566634999999999,-0.890318,0.0290094999999999,0.1741665,-0.882928,0.0328254999999999,0
37,-0.0443735,0.77493,0.0240425,-0.2066735,0.5128,0.0116995,-0.2561035,0.26459,0.0092005,0.1363165,0.5118400000000001,-0.0011524999999999,0.1945765,0.24187,-0.0132574999999999,-0.2386235,0.03145,-0.0806175,0.2009465,0.0147199999999999,-0.1153674999999999,-0.0788945,-0.003797,-0.0004864999999999,0.0788945,0.003797,0.0004865,-0.1223435,-0.3784499999999999,-0.0155444999999999,0.1323765,-0.4231399999999999,0.0122345,-0.1565534999999999,-0.89032,0.0290105,0.1739465,-0.88293,0.0336105,0
38,-0.044378,0.7749275,0.0239489999999999,-0.206683,0.5128075,0.011549,-0.256123,0.2645975,0.0090669999999999,0.1362769999999999,0.5118575,-0.0012949999999999,0.194567,0.2419075,-0.013377,-0.238583,0.0314565,-0.080758,0.2009369999999999,0.0147265,-0.115548,-0.0788939999999999,-0.0037995,-0.000482,0.0788939999999999,0.0037995,0.0004819999999999,-0.122343,-0.3784225,-0.015535,0.132857,-0.4259325,0.0130499999999999,-0.156393,-0.8901725,0.029426,0.1741069999999999,-0.8816325,0.033431,0
39,-0.044382,0.774924,0.02386,-0.206702,0.5128039999999999,0.011448,-0.2561319999999999,0.264604,0.008926,0.136238,0.5118739999999999,-0.0014219999999999,0.194548,0.241944,-0.013476,-0.238542,0.0315029999999999,-0.080894,0.200928,0.014724,-0.115664,-0.0788939999999999,-0.003803,-0.0004769999999999,0.0788939999999999,0.003803,0.0004769999999999,-0.122332,-0.3784059999999999,-0.015521,0.1328879999999999,-0.423266,0.0130629999999999,-0.156252,-0.889776,0.029919,0.173778,-0.881016,0.03333,0
40,-0.044476,0.7748999999999999,0.0231589999999999,-0.2068189999999999,0.51273,0.0109649999999999,-0.256159,0.26449,0.0085879999999999,0.136141,0.5119,-0.001938,0.194541,0.24201,-0.01376,-0.238499,0.031367,-0.081,0.200921,0.014668,-0.11576,-0.078891,-0.0038209999999999,-0.000461,0.078891,0.0038209999999999,0.0004609999999999,-0.122269,-0.37842,-0.015234,0.132411,-0.41972,0.0123879999999999,-0.1560889999999999,-0.8896000000000001,0.0307829999999999,0.173421,-0.88064,0.0341049999999999,0
41,-0.044564,0.774878,0.0224099999999999,-0.206931,0.512658,0.0104929999999999,-0.256171,0.2643479999999999,0.0082599999999999,0.136039,0.511918,-0.002444,0.194529,0.242068,-0.014003,-0.238481,0.031201,-0.081032,0.200979,0.014684,-0.115822,-0.078886,-0.0038299999999999,-0.000447,0.078886,0.00383,0.0004469999999999,-0.122211,-0.378442,-0.014943,0.132409,-0.418972,0.0124319999999999,-0.156061,-0.889572,0.031472,0.173439,-0.880462,0.0346089999999999,0
42,-0.0446415,0.774876,0.021648,-0.2070525,0.5125959999999999,0.0100539999999999,-0.2561825,0.264216,0.0079239999999999,0.1359575,0.511936,-0.0029199999999999,0.1945175,0.242126,-0.014244,-0.2384625,0.031042,-0.081062,0.2010575,0.014736,-0.115862,-0.0788804999999999,-0.003841,-0.000434,0.0788804999999999,0.003841,0.0004339999999999,-0.1221425,-0.378484,-0.01465,0.1324075,-0.418924,0.012499,-0.1560925,-0.889634,0.0318699999999999,0.1734475,-0.880354,0.0350199999999999,0
43,-0.0447105,0.7748655,0.02087,-0.2071675,0.5125455,0.009624,-0.2561675,0.2640754999999999,0.0076,0.1358725,0.5119555,-0.0033889999999999,0.1945124999999999,0.2421855,-0.014481,-0.2384375,0.0308585,-0.0810999999999999,0.2011625,0.0148245,-0.1158699999999999,-0.0788785,-0.0038524999999999,-0.0004179999999999,0.0788785,0.0038525,0.000418,-0.1220775,-0.3785245,-0.0143599999999999,0.1323925,-0.4190645,0.01258,-0.1559175,-0.8898645000000001,0.032543,0.1734025,-0.8805645,0.03513,0
44,-0.0447685,0.774857,0.0200884999999999,-0.2072715,0.5124770000000001,0.0091954999999999,-0.2561415,0.263927,0.0072704999999999,0.1357885,0.511977,-0.0038425,0.1944985,0.242247,-0.0147145,-0.2384315,0.030681,-0.0811355,0.2012885,0.014941,-0.1159154999999999,-0.0788765,-0.003865,-0.0004045,0.0788765,0.003865,0.0004044999999999,-0.1220115,-0.378573,-0.0140705,0.1323985,-0.4192929999999999,0.0126714999999999,-0.1556315,-0.8900129999999999,0.0334214999999999,0.1731585,-0.880243,0.0353965,0
45,-0.0448245,0.7748695,0.0192925,-0.2073665,0.5124195,0.0087635,-0.2561165,0.2637795,0.0069435,0.1357235,0.5119895,-0.0042625,0.1944735,0.2423095,-0.0149504999999999,-0.2384065,0.0305054999999999,-0.0811725,0.2014335,0.0150644999999999,-0.1159325,-0.0788745,-0.0038805,-0.0003895,0.0788745,0.0038805,0.0003895,-0.1219565,-0.3786305,-0.0137885,0.1328734999999999,-0.4238905,0.0134485,-0.1556265,-0.8903505,0.0339035,0.1727834999999999,-0.8792805,0.0351885,0
46,-0.044886,0.774894,0.018492,-0.207477,0.512364,0.008363,-0.256087,0.263624,0.006629,0.135653,0.512004,-0.0046509999999999,0.194453,0.242364,-0.0151709999999999,-0.238397,0.030331,-0.0812,0.201583,0.01515,-0.11596,-0.07887,-0.0038969999999999,-0.00039,0.07887,0.003897,0.00039,-0.121897,-0.3786859999999999,-0.013502,0.132963,-0.4244759999999999,0.013839,-0.1557869999999999,-0.890416,0.034599,0.172443,-0.879176,0.035247,0
47,-0.0449505,0.774918,0.0176779999999999,-0.2075805,0.512328,0.0079339999999999,-0.2560705,0.263428,0.0063649999999999,0.1355895,0.512018,-0.005001,0.1944094999999999,0.2424079999999999,-0.01537,-0.2383505,0.0301379999999999,-0.081273,0.2017195,0.015174,-0.115933,-0.0788665,-0.003913,-0.000395,0.0788665,0.003913,0.0003949999999999,-0.1218505,-0.378722,-0.013219,0.1330194999999999,-0.426242,0.0141499999999999,-0.1558405,-0.8905620000000001,0.035432,0.1722095,-0.878352,0.0351589999999999,0
48,-0.0450179999999999,0.7749385,0.0168625,-0.207691,0.5122785,0.0075074999999999,-0.256051,0.2631885,0.0061114999999999,0.135539,0.5120385,-0.0053445,0.194359,0.2424584999999999,-0.0155665,-0.2383009999999999,0.0299305,-0.0814075,0.201809,0.0151885,-0.1158675,-0.0788619999999999,-0.0039285,-0.0004084999999999,0.0788619999999999,0.0039284999999999,0.0004084999999999,-0.121811,-0.3787715,-0.0129365,0.133039,-0.4282415,0.0143475,-0.155881,-0.8906715000000001,0.0362705,0.171849,-0.8777515,0.0350204999999999,0
49,-0.0450355,0.7749809999999999,0.01667,-0.2077285,0.5122709999999999,0.007472,-0.2559985,0.263241,0.006063,0.1355115,0.512041,-0.0053199999999999,0.1943115,0.242471,-0.0155949999999999,-0.2382585,0.029974,-0.081553,0.2018315,0.015181,-0.115873,-0.0788605,-0.003935,-0.000432,0.0788605,0.0039349999999999,0.000432,-0.1218285,-0.378749,-0.012912,0.1330515,-0.428479,0.014507,-0.1558285,-0.890299,0.036609,0.1718215,-0.877329,0.034924,0
50,-0.0450374999999999,0.77501,0.0166615,-0.2077704999999999,0.5122599999999999,0.0074414999999999,-0.2558804999999999,0.26331,0.0059904999999999,0.1354795,0.5120399999999999,-0.0052955,0.1942595,0.2425,-0.0156185,-0.2382004999999999,0.030006,-0.0817185,0.2018595,0.01517,-0.1159684999999999,-0.0788595,-0.0039379999999999,-0.0004555,0.0788595,0.003938,0.0004554999999999,-0.1218505,-0.3787399999999999,-0.0128834999999999,0.1330595,-0.42845,0.0145624999999999,-0.1557405,-0.88993,0.0367235,0.1718195,-0.8770300000000001,0.0348575,0
51,-0.045035,0.7750379999999999,0.0166615,-0.207823,0.5122479999999999,0.0073925,-0.2556029999999999,0.263388,0.0057364999999999,0.135437,0.512048,-0.0052935,0.194217,0.242518,-0.0156634999999999,-0.238113,0.030036,-0.0819565,0.201877,0.015262,-0.1160865,-0.078855,-0.003941,-0.0004554999999999,0.078855,0.003941,0.0004554999999999,-0.1218829999999999,-0.378722,-0.0128655,0.133047,-0.428462,0.0146195,-0.155763,-0.8895120000000001,0.0368055,0.1717769999999999,-0.8768520000000001,0.0348955,0
52,-0.0449759999999999,0.7750715,0.0166565,-0.2078549999999999,0.5122215,0.0073455,-0.255105,0.2633815,0.0050095,0.135485,0.5120815000000001,-0.0052574999999999,0.194205,0.2425815,-0.0157394999999999,-0.2378849999999999,0.0300295,-0.0823865,0.201895,0.0153265,-0.1161765,-0.07885,-0.0039465,-0.0004585,0.07885,0.0039464999999999,0.0004585,-0.121905,-0.3786785,-0.0128665,0.133005,-0.4286185,0.0146195,-0.155815,-0.8894885,0.0368335,0.171635,-0.8768984999999999,0.0348125,0
53,-0.044939,0.775083,0.0166375,-0.2079,0.512223,0.0073305,-0.25433,0.2634229999999999,0.0038715,0.13553,0.512083,-0.0052074999999999,0.19417,0.242903,-0.0161525,-0.23736,0.030413,-0.0834405,0.20188,0.0154189999999999,-0.1168405,-0.078847,-0.003944,-0.0004754999999999,0.078847,0.003944,0.0004754999999999,-0.12196,-0.378687,-0.0128805,0.13295,-0.428717,0.0145635,-0.1559299999999999,-0.889877,0.0367565,0.17136,-0.876907,0.0345695,0
54,-0.044909,0.775086,0.016874,-0.207955,0.512216,0.007265,-0.253055,0.263986,0.001238,0.135495,0.512096,-0.005192,0.194215,0.244316,-0.0181619999999999,-0.236615,0.031148,-0.086431,0.202115,0.015818,-0.118961,-0.078847,-0.0039419999999999,-0.0005029999999999,0.078847,0.003942,0.000503,-0.122025,-0.378694,-0.0129159999999999,0.132885,-0.428824,0.014523,-0.156055,-0.8901939999999999,0.036692,0.170975,-0.876894,0.03431,0
55,-0.0448625,0.775091,0.0174314999999999,-0.2079845,0.5122009999999999,0.0071294999999999,-0.2519045,0.264871,-0.0026435,0.1354355,0.5121009999999999,-0.0052305,0.1943355,0.248021,-0.0220795,-0.2358645,0.032094,-0.0932554999999999,0.2030255,0.0202979999999999,-0.1254455,-0.0788625,-0.003947,-0.0005205,0.0788625,0.0039469999999999,0.0005205,-0.1220745,-0.378709,-0.0129265,0.1328655,-0.429019,0.0144604999999999,-0.1560845,-0.8905689999999999,0.0363775,0.1712755,-0.8772390000000001,0.0341975,0
56,-0.0447345,0.775146,0.0186534999999999,-0.2079265,0.512046,0.0069384999999999,-0.2510865,0.267316,-0.0086335,0.1354234999999999,0.512506,-0.0052005,0.1946534999999999,0.252576,-0.0274505,-0.2365065,0.037515,-0.1060624999999999,0.2046035,0.027612,-0.1350625,-0.0788755,-0.0040079999999999,-0.0005305,0.0788755,0.004008,0.0005304999999999,-0.1220865,-0.3788539999999999,-0.0130025,0.1328835,-0.429374,0.0143104999999999,-0.1561765,-0.8902140000000001,0.0360495,0.1716234999999999,-0.877154,0.0337694999999999,0
57,-0.044539,0.7750865,0.0202725,-0.20777,0.5121265,0.0066564999999999,-0.25127,0.2715665,-0.0182374999999999,0.1354199999999999,0.5128765000000001,-0.0051905,0.1952999999999999,0.2603065,-0.0362025,-0.2374399999999999,0.0449004999999999,-0.1250764999999999,0.20595,0.0379395,-0.1521564999999999,-0.078876,-0.0040915,-0.0005324999999999,0.078876,0.0040915,0.0005324999999999,-0.12209,-0.3790635,-0.0130165,0.1329199999999999,-0.4294235,0.0140685,-0.1561199999999999,-0.8898834999999999,0.0357715,0.17181,-0.8770834999999999,0.0332825,0
58,-0.0443185,0.774887,0.022419,-0.2075005,0.512307,0.006284,-0.2516805,0.277787,-0.030655,0.1353595,0.5131669999999999,-0.0052079999999999,0.1959395,0.269907,-0.046654,-0.2387405,0.055667,-0.151621,0.2076195,0.054859,-0.176101,-0.0788745,-0.0041969999999999,-0.0005099999999999,0.0788745,0.0041969999999999,0.00051,-0.1220805,-0.379073,-0.013051,0.1329595,-0.429423,0.013709,-0.1561605,-0.8896630000000001,0.035216,0.1722595,-0.8775930000000001,0.032709,0
59,-0.044013,0.7746395,0.0247674999999999,-0.2069409999999999,0.5121095,0.0060504999999999,-0.252251,0.2865095,-0.0460495,0.135089,0.5134295,-0.0053155,0.197409,0.2823195,-0.0606095,-0.240721,0.0783375,-0.1790205,0.209359,0.0819294999999999,-0.2007605,-0.078914,-0.0043205,-0.0005215,0.078914,0.0043205,0.0005215,-0.1220509999999999,-0.3794205,-0.0132475,0.133049,-0.4293805,0.0129904999999999,-0.156171,-0.8895205,0.0341394999999999,0.172259,-0.8787405,0.0318995,0
60,-0.043628,0.774258,0.0274594999999999,-0.205943,0.5117780000000001,0.0057134999999999,-0.253083,0.299718,-0.0639985,0.134707,0.5135780000000001,-0.0050725,0.199127,0.2968679999999999,-0.0765335,-0.240813,0.106478,-0.2092335,0.210727,0.112698,-0.2337535,-0.078979,-0.004392,-0.0006165,0.078979,0.004392,0.0006164999999999,-0.121983,-0.379902,-0.0127565,0.133187,-0.429432,0.0122104999999999,-0.156293,-0.889412,0.0328954999999999,0.1721569999999999,-0.8801319999999999,0.0309314999999999,0
61,-0.043197,0.773773,0.0304615,-0.204562,0.511453,0.0057635,-0.2539519999999999,0.313403,-0.0824565,0.134258,0.513753,-0.0047034999999999,0.200958,0.315723,-0.0949564999999999,-0.242002,0.134893,-0.2401565,0.2109079999999999,0.150763,-0.2673665,-0.079078,-0.004418,-0.0007775,0.079078,0.004418,0.0007775,-0.121972,-0.380567,-0.0122764999999999,0.1333379999999999,-0.429617,0.0112485,-0.156402,-0.889697,0.0313815,0.1723579999999999,-0.8815769999999999,0.0299235,0
62,-0.0427095,0.7732745,0.0335195,-0.2028585,0.5114045,0.0062175,-0.2548285,0.3271045,-0.1016075,0.1332715,0.5146745,-0.0038104999999999,0.2029415,0.3410145,-0.1148574999999999,-0.2417284999999999,0.1631145,-0.2715875,0.2100915,0.1989445,-0.3050175,-0.0791805,-0.0044514999999999,-0.0009415,0.0791805,0.0044515,0.0009415,-0.1219485,-0.3809754999999999,-0.0119264999999999,0.1335115,-0.4299055,0.0102525,-0.1564185,-0.8901855,0.0298525,0.1725015,-0.8824655,0.0293775,0
63,-0.0421794999999999,0.7727315,0.036538,-0.2007914999999999,0.5113415,0.0066739999999999,-0.2566715,0.3501815,-0.123656,0.1320985,0.5158415,-0.0026419999999999,0.2042285,0.3699515,-0.135346,-0.2421115,0.2146114999999999,-0.310706,0.2084385,0.2577715,-0.340616,-0.0792635,-0.0044835,-0.0010659999999999,0.0792635,0.0044835,0.001066,-0.1218215,-0.3811585,-0.011769,0.1337685,-0.4301885,0.009224,-0.1564015,-0.8902485,0.028197,0.1726885,-0.8830385000000001,0.028433,0
64,-0.0416545,0.7720445,0.0393005,-0.1984225,0.5111545000000001,0.0072035,-0.2592425,0.3782845,-0.1444975,0.1307575,0.5174645,-0.0010054999999999,0.2045475,0.4020445,-0.1543175,-0.2426825,0.2742945,-0.3438675,0.2071275,0.3235145,-0.3693875,-0.0793455,-0.0044985,-0.0011584999999999,0.0793455,0.0044984999999999,0.0011584999999999,-0.1218225,-0.3822855,-0.0116044999999999,0.1340475,-0.4304555,0.0081985,-0.1565625,-0.8904055,0.0255385,0.1730075,-0.8841855,0.0273265,0
65,-0.041125,0.7716419999999999,0.041485,-0.195925,0.510882,0.007933,-0.261935,0.410402,-0.1622839999999999,0.129195,0.519652,0.000875,0.204155,0.439352,-0.169744,-0.243385,0.341602,-0.368694,0.2061849999999999,0.396382,-0.391354,-0.079426,-0.004546,-0.0011879999999999,0.079426,0.0045459999999999,0.001188,-0.121705,-0.382668,-0.012247,0.134275,-0.430838,0.007336,-0.156855,-0.8907280000000001,0.023262,0.173335,-0.8854780000000001,0.026207,0
66,-0.0406269999999999,0.7709175,0.0432005,-0.193459,0.5110275000000001,0.0088724999999999,-0.264849,0.4437275,-0.1738914999999999,0.1275109999999999,0.5228575000000001,0.0031214999999999,0.203821,0.4775375,-0.1796815,-0.244309,0.4136275,-0.3827215,0.205151,0.4735475,-0.4015215,-0.079492,-0.0046675,-0.0013274999999999,0.079492,0.0046674999999999,0.0013274999999999,-0.121999,-0.3876125,-0.0117025,0.134411,-0.4315625,0.0065915,-0.157109,-0.8914525,0.0212525,0.173731,-0.8872025,0.0249565,0
67,-0.0401269999999999,0.76951,0.0443309999999999,-0.191098,0.51173,0.010051,-0.267438,0.48018,-0.1813199999999999,0.125822,0.52605,0.005533,0.203652,0.5170600000000001,-0.1865099999999999,-0.245478,0.4891699999999999,-0.3852399999999999,0.202912,0.55186,-0.4023899999999999,-0.079543,-0.004678,-0.001618,0.079543,0.004678,0.001618,-0.122268,-0.39383,-0.01093,0.134562,-0.43297,0.006065,-0.157198,-0.8929199999999999,0.020034,0.174322,-0.88896,0.023767,0
68,-0.0396619999999999,0.7672795,0.0452805,-0.1889219999999999,0.5129095,0.0112854999999999,-0.269252,0.5157895,-0.1839315,0.1242979999999999,0.5297395,0.0081374999999999,0.203738,0.5556095000000001,-0.1877315,-0.245772,0.5583995,-0.3857215,0.199508,0.6244795000000001,-0.4027214999999999,-0.079572,-0.0047674999999999,-0.0019095,0.079572,0.0047675,0.0019094999999999,-0.122592,-0.4007105,-0.0101175,0.134688,-0.4342905,0.0057774999999999,-0.1574519999999999,-0.8952804999999999,0.0190904999999999,0.174608,-0.8921304999999999,0.0231205,0
69,-0.039273,0.7643735,0.0456805,-0.187156,0.5141235000000001,0.0127765,-0.269876,0.5496235,-0.1841215,0.122804,0.5332435,0.0104245,0.203014,0.5944335000000001,-0.1879115,-0.2468159999999999,0.6267535000000001,-0.3858815,0.194694,0.6975535,-0.4027015,-0.079597,-0.0048635,-0.0021214999999999,0.079597,0.0048635,0.0021215,-0.122956,-0.4081365,-0.0093675,0.134824,-0.4359265,0.0056545,-0.1576759999999999,-0.8985565,0.0181305,0.174894,-0.8958364999999999,0.0226055,0
70,-0.038931,0.7614315,0.0456245,-0.185766,0.5161815,0.0138304999999999,-0.270316,0.5854715,-0.1841375,0.121324,0.5371315,0.0124975,0.201894,0.6312715,-0.1878975,-0.2484759999999999,0.6992615,-0.3853175,0.190464,0.7673815,-0.4007975,-0.07961,-0.0047554999999999,-0.0021604999999999,0.07961,0.0047554999999999,0.0021604999999999,-0.123056,-0.4110485,-0.0094015,0.134924,-0.4376985,0.0056795,-0.158086,-0.9022685,0.0173784999999999,0.174384,-0.8996485,0.0237255,0
71,-0.038515,0.7583025,0.0455955,-0.184624,0.5182625000000001,0.0144715,-0.270564,0.6224425,-0.1841344999999999,0.120306,0.5402625,0.0135065,0.199576,0.6619925,-0.1877944999999999,-0.248054,0.7743425,-0.3828145,0.185516,0.8286525,-0.3946745,-0.079567,-0.0045934999999999,-0.0021715,0.079567,0.0045935,0.0021715,-0.123464,-0.4177174999999999,-0.0090314999999999,0.134796,-0.4394475,0.0056765,-0.158484,-0.9064075,0.0164775,0.1735259999999999,-0.9031575,0.0249835,0
72,-0.038138,0.755132,0.045578,-0.183831,0.520582,0.015048,-0.270261,0.651012,-0.180229,0.119249,0.543172,0.014057,0.196639,0.689542,-0.184739,-0.247421,0.828102,-0.372239,0.181069,0.881162,-0.3766089999999999,-0.079497,-0.004563,-0.0021759999999999,0.079497,0.0045629999999999,0.002176,-0.123381,-0.418958,-0.0096429999999999,0.134429,-0.441108,0.005696,-0.158871,-0.910698,0.015609,0.172739,-0.907368,0.026071,0
73,-0.0378045,0.7521945,0.045552,-0.1834205,0.5226745,0.015595,-0.2699305,0.6755345,-0.175014,0.1183095,0.5455345,0.014232,0.1929795,0.7152245,-0.177484,-0.2467005,0.8753545,-0.359054,0.1778095,0.9248645,-0.351234,-0.0794304999999999,-0.0045924999999999,-0.0023079999999999,0.0794304999999999,0.0045924999999999,0.002308,-0.1238304999999999,-0.4247255,-0.009492,0.1339695,-0.4425155,0.005847,-0.1590504999999999,-0.9149855,0.015096,0.1728295,-0.9116855,0.026482,0
74,-0.0375504999999999,0.748735,0.045329,-0.1831185,0.5247850000000001,0.016225,-0.2695585,0.6946950000000001,-0.169176,0.1177015,0.549125,0.014658,0.1894315,0.736135,-0.168236,-0.2458885,0.911165,-0.344176,0.1751015,0.959695,-0.328686,-0.0793675,-0.004469,-0.0026269999999999,0.0793675,0.004469,0.002627,-0.1237485,-0.426305,-0.0097469999999999,0.1334515,-0.443965,0.006172,-0.1591985,-0.919955,0.015092,0.1739015,-0.916315,0.02537,0
75,-0.0373975,0.7477715,0.0444,-0.1828235,0.5261615,0.017182,-0.2682135,0.7109615,-0.155923,0.1173865,0.5516315,0.015492,0.1863264999999999,0.7530915,-0.156053,-0.2462835,0.9407815,-0.315683,0.1737965,0.9874815,-0.300063,-0.0793115,-0.0044144999999999,-0.002932,0.0793115,0.0044145,0.002932,-0.1237335,-0.4300885,-0.009297,0.1328165,-0.4448985,0.006734,-0.1592735,-0.9250985,0.015794,0.1749665,-0.9218485,0.025075,0
76,-0.037257,0.7471345,0.043495,-0.18259,0.5266845,0.018361,-0.26621,0.7224845000000001,-0.141345,0.11724,0.5539145000000001,0.016553,0.18394,0.7660845000000001,-0.142535,-0.24587,0.9641845,-0.287195,0.17313,1.0081845,-0.272195,-0.0793,-0.0045185,-0.0033049999999999,0.0793,0.0045185,0.0033049999999999,-0.12432,-0.4339055,-0.009089,0.13208,-0.4450755,0.0073499999999999,-0.15938,-0.9293255,0.01692,0.17529,-0.9269255,0.024981,0
77,-0.0371245,0.7468950000000001,0.042773,-0.1824235,0.5267050000000001,0.01956,-0.2640935,0.7322350000000001,-0.126751,0.1171565,0.555335,0.017471,0.1819865,0.776675,-0.130081,-0.2462135,0.981815,-0.260211,0.1725865,1.024715,-0.246691,-0.0792985,-0.0045579999999999,-0.003652,0.0792985,0.0045579999999999,0.0036519999999999,-0.1245735,-0.434905,-0.008834,0.1313965,-0.445175,0.0079459999999999,-0.1594235,-0.933365,0.018223,0.1755965,-0.931875,0.025009,0
78,-0.037058,0.7472485,0.042376,-0.182333,0.5264785,0.020759,-0.262093,0.7394485,-0.113764,0.1171369999999999,0.5569185,0.018126,0.1804069999999999,0.7844485,-0.119224,-0.2464029999999999,0.9951385,-0.2363839999999999,0.172377,1.0369385000000002,-0.2249939999999999,-0.079291,-0.0045914999999999,-0.00391,0.079291,0.0045915,0.00391,-0.124753,-0.4350615,-0.0085069999999999,0.130767,-0.4452315,0.00853,-0.159363,-0.9372415,0.019524,0.1756269999999999,-0.9366515,0.025905,0
79,-0.037029,0.7474215,0.0422905,-0.182285,0.5252515,0.0219055,-0.260235,0.7442715,-0.1014985,0.117085,0.5579715,0.0187825,0.1786849999999999,0.7895615,-0.1081184999999999,-0.246835,1.0001315000000002,-0.2159785,0.172175,1.0452315,-0.2065985,-0.079208,-0.0048185,-0.0040225,0.079208,0.0048185,0.0040225,-0.124725,-0.4308085,-0.0090155,0.130125,-0.4450585,0.0090175,-0.159325,-0.9409685,0.0208105,0.174675,-0.9408785,0.0268465,0
80,-0.037007,0.7477754999999999,0.0425485,-0.18231,0.5239054999999999,0.0230825,-0.2587399999999999,0.7479355,-0.0904955,0.1170099999999999,0.5590455,0.0194915,0.1771299999999999,0.7937654999999999,-0.0989454999999999,-0.24739,1.0024355,-0.1986355,0.1719699999999999,1.0515355,-0.1915855,-0.07911,-0.0050525,-0.0041404999999999,0.07911,0.0050525,0.0041405,-0.1248,-0.4332845,-0.0085814999999999,0.12967,-0.4449045,0.0096395,-0.15936,-0.9437045,0.0220935,0.17428,-0.9441245,0.0276485,0
81,-0.0370425,0.74828,0.0433615,-0.1822925,0.52223,0.0242685,-0.2574825,0.75032,-0.0810545,0.1169975,0.56015,0.0202705,0.1758275,0.79632,-0.0914244999999999,-0.2477224999999999,1.00258,-0.1842645,0.1717675,1.05558,-0.1797145,-0.0790315,-0.005234,-0.0041754999999999,0.0790315,0.005234,0.0041755,-0.1247824999999999,-0.4277,-0.0092784999999999,0.1293575,-0.44476,0.0102395,-0.1593725,-0.94629,0.0232895,0.1738375,-0.94703,0.0286045,0
82,-0.0371434999999999,0.748745,0.0444305,-0.1823535,0.520625,0.0255754999999999,-0.2565435,0.751505,-0.0735755,0.1170065,0.5613349999999999,0.0211844999999999,0.1748865,0.795115,-0.0855255,-0.2484135,1.000855,-0.1717055,0.1715765,1.057255,-0.1703155,-0.0788995,-0.005366,-0.0042145,0.0788995,0.0053659999999999,0.0042144999999999,-0.1248234999999999,-0.4232249999999999,-0.0100065,0.1289865,-0.444675,0.0108764999999999,-0.1594735,-0.948715,0.0243584999999999,0.1735265,-0.949255,0.0296734999999999,0
83,-0.0373455,0.750016,0.0454845,-0.1824555,0.519336,0.0268375,-0.2558355,0.7528159999999999,-0.0670975,0.1168745,0.560716,0.0222355,0.1741245,0.793826,-0.0795434999999999,-0.2489455,0.999866,-0.1614135,0.1714045,1.0580660000000002,-0.1627934999999999,-0.0788145,-0.0055969999999999,-0.0042234999999999,0.0788145,0.005597,0.0042235,-0.1247755,-0.418884,-0.0105245,0.1286545,-0.444454,0.0114455,-0.1595755,-0.950124,0.0254195,0.1737245,-0.951184,0.0307085,0
84,-0.0374325,0.7495745,0.0463165,-0.1825695,0.5188945,0.0279765,-0.2553694999999999,0.7542345,-0.0617265,0.1171005,0.5602745,0.0230525,0.1739105,0.7933845,-0.0741795,-0.2487395,1.0032245,-0.1538594999999999,0.1715304999999999,1.0584245,-0.1568795,-0.0787684999999999,-0.0056385,-0.0043305,0.0787684999999999,0.0056385,0.0043305,-0.1250995,-0.4185855,-0.0104164999999999,0.1284005,-0.4444555,0.0118535,-0.1597495,-0.9508755,0.0263535,0.1735304999999999,-0.9524755,0.0315455,0
85,-0.037515,0.749383,0.047375,-0.182681,0.518703,0.028998,-0.255081,0.755153,-0.0575469999999999,0.1173289999999999,0.560083,0.023826,0.1738589999999999,0.793193,-0.0696779999999999,-0.248631,1.007133,-0.148448,0.1715789999999999,1.058233,-0.152638,-0.078731,-0.0056029999999999,-0.0044179999999999,0.078731,0.0056029999999999,0.004418,-0.125651,-0.423357,-0.0097459999999999,0.128189,-0.444527,0.01225,-0.159971,-0.951147,0.027244,0.173749,-0.952587,0.031709,0
86,-0.037558,0.749245,0.048789,-0.182738,0.518435,0.0299869999999999,-0.254978,0.755745,-0.054139,0.117552,0.559945,0.0249059999999999,0.1738819999999999,0.792095,-0.066093,-0.248548,1.010295,-0.143663,0.171572,1.058095,-0.149603,-0.078697,-0.005546,-0.004554,0.078697,0.0055459999999999,0.0045539999999999,-0.1259779999999999,-0.422905,-0.009699,0.127992,-0.444615,0.0125869999999999,-0.160078,-0.951515,0.0281349999999999,0.173632,-0.953495,0.0317989999999999,0
87,-0.037155,0.748905,0.0511285,-0.182487,0.517875,0.0309045,-0.254477,0.756135,-0.0515285,0.118063,0.559805,0.0259075,0.173893,0.790015,-0.0629725,-0.247527,1.012595,-0.1404444999999999,0.172033,1.058095,-0.1470544999999999,-0.078668,-0.005546,-0.0046515,0.078668,0.0055459999999999,0.0046514999999999,-0.1261669999999999,-0.422905,-0.0091214999999999,0.127603,-0.444615,0.0127625,-0.160727,-0.951745,0.0287495,0.1735729999999999,-0.954185,0.0317015,0
88,-0.036667,0.7485765,0.0534535,-0.1821999999999999,0.5173165,0.0316775,-0.2539599999999999,0.7562265,-0.0495265,0.11855,0.5594065,0.0267464999999999,0.17386,0.7883165,-0.0614945,-0.24646,1.0138765,-0.1378105,0.1726099999999999,1.0578765,-0.1452805,-0.078655,-0.0055275,-0.0047765,0.078655,0.0055275,0.0047764999999999,-0.12634,-0.4229235,-0.0086795,0.12728,-0.4446335,0.0128854999999999,-0.16147,-0.9517235,0.0292694999999999,0.17293,-0.9534335,0.0316725,0
89,-0.035946,0.7483245000000001,0.055589,-0.181896,0.5167945,0.032265,-0.253476,0.7562345,-0.0481049999999999,0.1190239999999999,0.5591045,0.027384,0.173894,0.7882045,-0.06077,-0.2453759999999999,1.0147545,-0.136484,0.173334,1.0569544999999998,-0.144074,-0.078658,-0.0055055,-0.004871,0.078658,0.0055054999999999,0.004871,-0.125996,-0.4183755,-0.0089679999999999,0.127014,-0.4446555,0.012872,-0.162186,-0.9515655,0.02967,0.172384,-0.9529155,0.031479,0
90,-0.0352549999999999,0.748043,0.0573365,-0.181605,0.516313,0.0326375,-0.253045,0.756233,-0.0471185,0.119455,0.558983,0.0277875,0.174045,0.788183,-0.0606865,-0.244775,1.011233,-0.1363795,0.174045,1.055833,-0.1432595,-0.0786729999999999,-0.0054329999999999,-0.0049605,0.0786729999999999,0.005433,0.0049605,-0.126525,-0.422977,-0.0083145,0.126765,-0.444797,0.0127075,-0.162815,-0.951627,0.0297465,0.171635,-0.952277,0.0311644999999999,0
91,-0.0345995,0.7479264999999999,0.0588859999999999,-0.1813475,0.5159765,0.032899,-0.2526375,0.7563465,-0.04635,0.1198125,0.5588664999999999,0.028051,0.1745525,0.7882764999999999,-0.060712,-0.2442075,1.0074265,-0.136314,0.1747524999999999,1.0546265,-0.142604,-0.0786835,-0.0053114999999999,-0.0049599999999999,0.0786835,0.0053115,0.0049599999999999,-0.1267375,-0.4240935,-0.008304,0.1265525,-0.4450134999999999,0.0125139999999999,-0.1634775,-0.9517635,0.0297789999999999,0.1708624999999999,-0.9516635,0.030801,0
92,-0.0339544999999999,0.7477965,0.0601769999999999,-0.1810905,0.5156765000000001,0.033134,-0.2522204999999999,0.7564265000000001,-0.045784,0.1201895,0.5586665,0.0283019999999999,0.1750795,0.7883564999999999,-0.060738,-0.2432105,1.0070065,-0.136359,0.1754795,1.0538065,-0.142139,-0.0786515,-0.0052175,-0.004962,0.0786515,0.0052175,0.0049619999999999,-0.1271705,-0.4279135,-0.007614,0.1263095,-0.4452835,0.0123519999999999,-0.1642704999999999,-0.9518735,0.0297049999999999,0.1699895,-0.9511035,0.0306089999999999,1
93,-0.0332414999999999,0.7477705,0.061116,-0.1807915,0.5155204999999999,0.033323,-0.2517715,0.7564805,-0.045544,0.1205985,0.5585405,0.028515,0.1756785,0.7914804999999999,-0.0616499999999999,-0.2422115,1.0066005,-0.136415,0.1762584999999999,1.0531005,-0.142015,-0.0786014999999999,-0.0050984999999999,-0.0049729999999999,0.0786014999999999,0.0050985,0.004973,-0.1276615,-0.4320994999999999,-0.0070769999999999,0.1259985,-0.4456194999999999,0.012173,-0.1651015,-0.9519595,0.029457,0.1692285,-0.9496295,0.029958,1
94,-0.0325415,0.7477649999999999,0.061554,-0.1804615,0.5154449999999999,0.033274,-0.2512715,0.756525,-0.0457739999999999,0.1210285,0.558425,0.028501,0.1762685,0.794755,-0.0628509999999999,-0.2404115,1.010345,-0.138231,0.1771185,1.052645,-0.142261,-0.0786025,-0.004968,-0.0049909999999999,0.0786025,0.004968,0.004991,-0.1281514999999999,-0.436705,-0.0070449999999999,0.1257085,-0.445925,0.01161,-0.1660815,-0.951715,0.028742,0.1690285,-0.948835,0.029134,1
95,-0.0318745,0.7479505,0.060951,-0.1801565,0.5155805,0.032656,-0.2507765,0.7567005,-0.0465379999999999,0.1213934999999999,0.5584604999999999,0.02792,0.1768535,0.7983304999999999,-0.064749,-0.2384365,1.0139605,-0.141169,0.1779635,1.0523605,-0.1430489999999999,-0.0785974999999999,-0.0048974999999999,-0.004864,0.0785974999999999,0.0048974999999999,0.004864,-0.1287464999999999,-0.4412295,-0.007778,0.1253535,-0.4460395,0.010086,-0.1671564999999999,-0.9510195,0.027399,0.1681735,-0.9477795,0.02798,1
96,-0.0316624999999999,0.748139,0.0598915,-0.1801695,0.515759,0.0316075,-0.2506395,0.756749,-0.0475944999999999,0.1214105,0.558659,0.0269105,0.1769205,0.801399,-0.0670365,-0.2376595,1.016399,-0.1438865,0.1782205,1.052199,-0.1441065,-0.0785815,-0.0049349999999999,-0.0048284999999999,0.0785815,0.0049349999999999,0.0048285,-0.1294394999999999,-0.446021,-0.0087934999999999,0.1247905,-0.446001,0.0072395,-0.1674995,-0.950711,0.0258755,0.1673805,-0.947051,0.0267015,1
97,-0.0314245,0.7472865,0.058466,-0.1801395,0.5159065,0.0301929999999999,-0.2503995,0.7567365,-0.0491049999999999,0.1214605,0.5588465,0.0254949999999999,0.1771005,0.8041765,-0.0699,-0.2367894999999999,1.0183365000000002,-0.14705,0.1785804999999999,1.0518364999999998,-0.1456,-0.0785305,-0.0050005,-0.004838,0.0785305,0.0050005,0.0048379999999999,-0.1296195,-0.4465035,-0.010197,0.1243705,-0.4460735,0.0030969999999999,-0.1677894999999999,-0.9504035,0.0239959999999999,0.1666504999999999,-0.9467335,0.024692,1
98,-0.031112,0.746541,0.0563655,-0.179941,0.516111,0.0280985,-0.249921,0.756441,-0.0518495,0.121629,0.559081,0.0234015,0.177579,0.803991,-0.0737135,-0.236121,1.018691,-0.1510635,0.179169,1.051291,-0.1479935,-0.078562,-0.0050399999999999,-0.0044944999999999,0.078562,0.00504,0.0044944999999999,-0.129661,-0.447519,-0.0126985,0.124289,-0.446339,-0.0025444999999999,-0.167911,-0.950049,0.0214245,0.165989,-0.945219,0.0219714999999999,1
99,-0.0308505,0.7461059999999999,0.053022,-0.1795395,0.5165360000000001,0.025309,-0.2495195,0.755636,-0.0558679999999999,0.1219205,0.5595159999999999,0.020677,0.1781805,0.8047759999999999,-0.078438,-0.2354895,1.016526,-0.155798,0.1798505,1.050926,-0.151478,-0.0786035,-0.0050979999999999,-0.003823,0.0786035,0.005098,0.003823,-0.1295195,-0.448104,-0.0174889999999999,0.1245105,-0.446604,-0.00972,-0.1676495,-0.948944,0.018196,0.1657805,-0.942954,0.018668,1
100,-0.0303425,0.745134,0.0486915,-0.1790045,0.517504,0.0218055,-0.2490945,0.754984,-0.0608994999999999,0.1223055,0.560184,0.0172665,0.1790355,0.806164,-0.0840045,-0.2345545,1.014744,-0.1613945,0.1807554999999999,1.050244,-0.1559245,-0.0786495,-0.0051129999999999,-0.0030924999999999,0.0786495,0.005113,0.0030925,-0.1300645,-0.449396,-0.0248945,0.1247954999999999,-0.446816,-0.0180424999999999,-0.1672945,-0.947406,0.0140845,0.1661255,-0.940856,0.0147265,1
101,-0.0294535,0.7427115,0.0434025,-0.1781645,0.5191815000000001,0.0176355,-0.2483445,0.7545115,-0.0670844999999999,0.1224655,0.5574415,0.0115414999999999,0.1808854999999999,0.8055815000000001,-0.0899824999999999,-0.2332345,1.0129715,-0.1682225,0.1822355,1.0498715,-0.1610925,-0.0787175,-0.0048705,-0.0023645,0.0787175,0.0048705,0.0023644999999999,-0.1302845,-0.4502485,-0.0331225,0.1254355,-0.4469585,-0.0276085,-0.1665944999999999,-0.9448185,0.0093644999999999,0.1668355,-0.9377585,0.0100685,1
102,-0.028461,0.7401775,0.0368635,-0.177123,0.5207675,0.0124205,-0.247513,0.7536675,-0.0746145,0.123057,0.5540075,0.0049155,0.183197,0.8040875000000001,-0.0955865,-0.231773,1.0112375,-0.1754265,0.183957,1.0484375,-0.1675365,-0.0787519999999999,-0.0046114999999999,-0.0017264999999999,0.0787519999999999,0.0046115,0.0017265,-0.1306729999999999,-0.4499525,-0.0421795,0.126507,-0.4473324999999999,-0.0380095,-0.165663,-0.9412125,0.0040725,0.167697,-0.9344725,0.0048425,1
103,-0.027374,0.7370435,0.029484,-0.175986,0.5227634999999999,0.0068879999999999,-0.2465959999999999,0.7525435,-0.083106,0.123724,0.5509335,-0.002152,0.185694,0.8029335,-0.101631,-0.230086,1.0101535,-0.183651,0.1857039999999999,1.0466535,-0.174861,-0.078812,-0.0043575,-0.001146,0.078812,0.0043575,0.0011459999999999,-0.131016,-0.4495065,-0.05177,0.127734,-0.4474165,-0.04881,-0.164676,-0.9369965,-0.001399,0.168654,-0.9305965,-0.000673,1
104,-0.02626,0.7333605,0.0216654999999999,-0.1747469999999999,0.5252405,0.0013324999999999,-0.245557,0.7513805,-0.0920405,0.124663,0.5483505,-0.0092185,0.188003,0.7999005,-0.1081635,-0.228647,1.0093104999999998,-0.1914934999999999,0.187823,1.0418105,-0.1829434999999999,-0.078914,-0.0041465,-0.0006085,0.078914,0.0041464999999999,0.0006084999999999,-0.131577,-0.4500195,-0.0610705,0.1289529999999999,-0.4472495,-0.0596405,-0.163647,-0.9318095,-0.0069765,0.169563,-0.9263995,-0.0061455,1
105,-0.025018,0.729575,0.0129115,-0.1734029999999999,0.526335,-0.0055715,-0.244623,0.7508349999999999,-0.1019255,0.125577,0.5456749999999999,-0.0171075,0.1907869999999999,0.794495,-0.1154755,-0.2269729999999999,1.013095,-0.2002254999999999,0.1898969999999999,1.037095,-0.1912454999999999,-0.079138,-0.004008,0.0001545,0.079138,0.0040079999999999,-0.0001544999999999,-0.132353,-0.448785,-0.0712355,0.130057,-0.445505,-0.0699455,-0.162613,-0.925075,-0.0128514999999999,0.170547,-0.921015,-0.0119704999999999,1
106,-0.0239129999999999,0.725738,0.0036625,-0.172223,0.5280180000000001,-0.0123685,-0.2438429999999999,0.749708,-0.1124075,0.126397,0.5433680000000001,-0.0249215,0.193507,0.788288,-0.1232475,-0.224993,1.016338,-0.2090175,0.191757,1.031838,-0.1995475,-0.0794729999999999,-0.0037589999999999,0.0009195,0.0794729999999999,0.0037589999999999,-0.0009195,-0.133483,-0.447092,-0.0810625,0.130927,-0.443142,-0.0796035,-0.1615029999999999,-0.917742,-0.0186055,0.171117,-0.914812,-0.0174055,1
107,-0.0228615,0.7207875,-0.0055035,-0.1704195,0.5261475,-0.0199775,-0.2431095,0.7486475,-0.1228995,0.1273905,0.5412775000000001,-0.0335805,0.1961905,0.7815775,-0.1312095,-0.2225395,1.0156275,-0.2178995,0.1935204999999999,1.0273275,-0.2081394999999999,-0.0796645,-0.0035655,0.0013544999999999,0.0796645,0.0035654999999999,-0.0013545,-0.1349195,-0.4448824999999999,-0.0902195,0.1318305,-0.4400524999999999,-0.0886605,-0.1604595,-0.9098525,-0.0238345,0.1716605,-0.9083225,-0.0223055,1
108,-0.0219444999999999,0.714256,-0.0145915,-0.1689815,0.524866,-0.0271115,-0.2423715,0.748136,-0.1338055,0.1283285,0.539926,-0.0418315,0.1986985,0.774076,-0.1396254999999999,-0.2196214999999999,1.015366,-0.2271355,0.1953585,1.022666,-0.2159955,-0.0799285,-0.0033439999999999,0.0013255,0.0799285,0.0033439999999999,-0.0013255,-0.1364615,-0.442114,-0.0984975,0.1331585,-0.4361239999999999,-0.0968835,-0.1596314999999999,-0.903314,-0.0285655,0.1725185,-0.901644,-0.0268135,1
109,-0.0211885,0.7109005,-0.0238309999999999,-0.1676845,0.5253705000000001,-0.034885,-0.2421545,0.7501405,-0.1451869999999999,0.1291755,0.5334705000000001,-0.050979,0.2010555,0.7676605000000001,-0.148207,-0.2162245,1.0175605,-0.236827,0.1970255,1.0219604999999998,-0.223847,-0.0803105,-0.0030175,0.0012659999999999,0.0803105,0.0030174999999999,-0.0012659999999999,-0.1375745,-0.4344695,-0.1050509999999999,0.1344155,-0.4282195,-0.1047459999999999,-0.1587745,-0.8930095,-0.03263,0.1733454999999999,-0.8907895,-0.030926,1
110,-0.0207049999999999,0.707217,-0.0331565,-0.166576,0.525717,-0.0419115,-0.2425159999999999,0.751527,-0.1564485,0.129734,0.530887,-0.0577515,0.202384,0.766327,-0.1573085,-0.213006,1.019137,-0.2455784999999999,0.197254,1.015137,-0.2328984999999999,-0.0806939999999999,-0.002866,0.0013175,0.0806939999999999,0.0028659999999999,-0.0013174999999999,-0.139146,-0.426773,-0.1110984999999999,0.135114,-0.420283,-0.1121014999999999,-0.158226,-0.882913,-0.0359445,0.174144,-0.880573,-0.0346105,1
111,-0.0201424999999999,0.70384,-0.0414515,-0.1655785,0.5241,-0.0487575,-0.2429985,0.7530399999999999,-0.1664555,0.1302815,0.52835,-0.0643555,0.2036515,0.76554,-0.1660455,-0.2099285,1.02087,-0.2533355,0.1978915,1.01067,-0.2408255,-0.0810385,-0.002831,0.0014324999999999,0.0810385,0.002831,-0.0014324999999999,-0.1411185,-0.41837,-0.1174725,0.1354415,-0.41056,-0.1188144999999999,-0.1578785,-0.87121,-0.0392795,0.1747915,-0.86868,-0.0373825,1
112,-0.0197769999999999,0.7005715,-0.0491469999999999,-0.164601,0.5224115,-0.055033,-0.243401,0.7478115000000001,-0.175234,0.130729,0.5252115,-0.070334,0.204709,0.7620615000000001,-0.175084,-0.209411,1.0159815,-0.259704,0.198989,1.0080415,-0.248144,-0.0813349999999999,-0.0027425,0.001634,0.0813349999999999,0.0027425,-0.001634,-0.143171,-0.4087885,-0.1229939999999999,0.135799,-0.3997885,-0.125054,-0.157541,-0.8582485,-0.042003,0.175479,-0.8556684999999999,-0.039456,1
113,-0.019911,0.6979145,-0.0575825,-0.164207,0.5191845,-0.0625395,-0.244067,0.7448345,-0.1841915,0.131513,0.5215845,-0.0776205,0.205293,0.7607145,-0.1843915,-0.206507,1.0132045,-0.2664315,0.199673,1.0097045,-0.2560615,-0.081347,-0.0025515,0.0016254999999999,0.081347,0.0025514999999999,-0.0016255,-0.145497,-0.3974355,-0.1290915,0.136143,-0.3876555,-0.1324715,-0.157537,-0.8435655,-0.0449755,0.175653,-0.8409455,-0.0415325,1
114,-0.0200145,0.6949475,-0.06573,-0.1637825,0.5174875,-0.0690379999999999,-0.2444325,0.7430275,-0.193126,0.1319374999999999,0.5177475,-0.0848879999999999,0.2049575,0.7583975,-0.193746,-0.2070425,1.0082075,-0.275306,0.1994775,1.0100375,-0.265496,-0.0814495,-0.0023035,0.001507,0.0814495,0.0023035,-0.0015069999999999,-0.1478025,-0.3842725,-0.134816,0.1366375,-0.3745925,-0.139836,-0.1578325,-0.8285225,-0.047765,0.1756875,-0.8263925,-0.0435819999999999,1
115,-0.0202695,0.6926620000000001,-0.0740075,-0.1634845,0.514892,-0.0762795,-0.2450945,0.7392320000000001,-0.2020325,0.1321255,0.5136620000000001,-0.0927595,0.2042855,0.7555019999999999,-0.2031524999999999,-0.2075945,1.002822,-0.2842625,0.1986055,1.002882,-0.2749525,-0.0816675,-0.0021819999999999,0.0012215,0.0816675,0.002182,-0.0012214999999999,-0.1501345,-0.371588,-0.1408625,0.1370655,-0.361258,-0.1475624999999999,-0.1581745,-0.8129580000000001,-0.0505614999999999,0.1749855,-0.8104880000000001,-0.0454985,1
116,-0.0208875,0.6913645,-0.0850065,-0.1640465,0.5162045,-0.0855414999999999,-0.2459965,0.7368445,-0.2133525,0.1312635,0.5099845,-0.1025935,0.2033235,0.7541645,-0.2149525,-0.2082265,0.9932445,-0.2961225,0.1976735,0.9968345,-0.2861025,-0.0819894999999999,-0.0020624999999999,0.0015694999999999,0.0819894999999999,0.0020625,-0.0015695,-0.1526665,-0.3573054999999999,-0.1497725,0.1372135,-0.3472355,-0.1581825,-0.1587665,-0.7961855,-0.0561445,0.1738835,-0.7934454999999999,-0.0500755,1
117,-0.0230785,0.6918464999999999,-0.0955065,-0.1665345,0.5159265,-0.0967445,-0.2489245,0.7384364999999999,-0.2237345,0.1283055,0.5074365,-0.1136075,0.2003454999999999,0.7575765,-0.2266045,-0.2106545,0.9863065,-0.3073845,0.1941254999999999,0.9982465,-0.2983245,-0.0814955,-0.0026035,0.0018034999999999,0.0814955,0.0026034999999999,-0.0018034999999999,-0.1583445,-0.3359535,-0.1645745,0.1360055,-0.3263034999999999,-0.1760445,-0.1613945,-0.7724635000000001,-0.0622475,0.1706455,-0.7688735,-0.0548764999999999,1
118,-0.0253885,0.6904250000000001,-0.106622,-0.1691755,0.514265,-0.107886,-0.2522155,0.737495,-0.235393,0.1252445,0.510525,-0.124289,0.1971145,0.7595449999999999,-0.239143,-0.2131855,0.977645,-0.319273,0.1903145,0.997835,-0.3113129999999999,-0.0810335,-0.002975,0.001993,0.0810335,0.0029749999999999,-0.001993,-0.1636555,-0.316295,-0.181073,0.1341745,-0.307485,-0.195063,-0.1641255,-0.7511350000000001,-0.069115,0.1669845,-0.7467649999999999,-0.06158,1
119,-0.0275275,0.687785,-0.1168174999999999,-0.1717805,0.511725,-0.1194144999999999,-0.2555004999999999,0.736505,-0.2466435,0.1221795,0.511185,-0.1364465,0.1939894999999999,0.760895,-0.2506135,-0.2158905,0.970255,-0.3307235,0.1866995,1.004985,-0.3229435,-0.0806524999999999,-0.0033249999999999,0.0022785,0.0806524999999999,0.0033249999999999,-0.0022784999999999,-0.1684005,-0.2957849999999999,-0.1970735,0.1325895,-0.287505,-0.2129335,-0.1667905,-0.728745,-0.0756785,0.1637995,-0.723485,-0.0677345,1
120,-0.029761,0.685535,-0.127259,-0.173867,0.509885,-0.130393,-0.258897,0.7297549999999999,-0.257675,0.119083,0.5115149999999999,-0.147655,0.190513,0.761475,-0.262175,-0.2196469999999999,0.962245,-0.343105,0.182463,1.009705,-0.334395,-0.080481,-0.0036049999999999,0.0027799999999999,0.080481,0.0036049999999999,-0.00278,-0.172787,-0.276205,-0.211535,0.131063,-0.268375,-0.229925,-0.1693569999999999,-0.707585,-0.080257,0.160383,-0.701495,-0.073431,1
121,-0.032366,0.6841200000000001,-0.138012,-0.176231,0.5074000000000001,-0.1408269999999999,-0.2627009999999999,0.72965,-0.268155,0.115809,0.51203,-0.158265,0.187069,0.76345,-0.273035,-0.224321,0.96095,-0.355845,0.177409,1.01235,-0.345395,-0.080163,-0.00395,0.0032869999999999,0.080163,0.00395,-0.0032869999999999,-0.177501,-0.2572,-0.225555,0.129209,-0.25085,-0.245915,-0.172001,-0.68669,-0.084219,0.157059,-0.68052,-0.078614,1
122,-0.0350744999999999,0.682565,-0.149484,-0.1786195,0.505965,-0.150931,-0.2667195,0.725965,-0.279854,0.1123405,0.512465,-0.168444,0.1831005,0.762845,-0.284924,-0.2296795,0.957015,-0.370124,0.1710205,1.012895,-0.356624,-0.0800454999999999,-0.004345,0.0039119999999999,0.0800454999999999,0.0043449999999999,-0.0039119999999999,-0.1824395,-0.239885,-0.2396839999999999,0.1269905,-0.235375,-0.261244,-0.1748095,-0.6674249999999999,-0.0882739999999999,0.1533705,-0.661505,-0.083608,1
123,-0.037737,0.681875,-0.1609175,-0.180501,0.5020450000000001,-0.1621274999999999,-0.270791,0.721255,-0.2913675,0.108959,0.510985,-0.1795975,0.179469,0.7617849999999999,-0.2972074999999999,-0.234981,0.953265,-0.3833775,0.164479,1.013915,-0.3664075,-0.07999,-0.0046849999999999,0.0046745,0.07999,0.0046849999999999,-0.0046744999999999,-0.187561,-0.222505,-0.2544575,0.1245389999999999,-0.219915,-0.2772375,-0.177661,-0.646835,-0.0919145,0.149189,-0.6420349999999999,-0.0888134999999999,1
124,-0.039229,0.6808799999999999,-0.1735835,-0.181149,0.4994699999999999,-0.1737935,-0.273939,0.71871,-0.3045434999999999,0.106891,0.51016,-0.1914935,0.176601,0.7601800000000001,-0.3106635,-0.239319,0.95082,-0.3984835,0.1596209999999999,1.02127,-0.3778935,-0.078966,-0.00506,0.0049354999999999,0.078966,0.00506,-0.0049355,-0.191349,-0.20555,-0.2705735,0.122921,-0.20466,-0.2942335,-0.179729,-0.62707,-0.0971285,0.1456609999999999,-0.6226499999999999,-0.0948255,1
125,-0.039861,0.6795100000000001,-0.1832949999999999,-0.1809009999999999,0.49495,-0.182645,-0.276381,0.71516,-0.315295,0.105899,0.50799,-0.200415,0.174399,0.75795,-0.321325,-0.2417309999999999,0.95269,-0.411275,0.156219,1.02715,-0.387395,-0.07818,-0.0054899999999999,0.0047519999999999,0.07818,0.00549,-0.004752,-0.194371,-0.1896499999999999,-0.283505,0.122079,-0.1895799999999999,-0.307815,-0.181111,-0.60831,-0.099263,0.142889,-0.60405,-0.098059,1
126,-0.039135,0.6780649999999999,-0.1935505,-0.179109,0.491965,-0.1898705,-0.276989,0.708325,-0.3270305,0.106681,0.503675,-0.2086305,0.173861,0.752135,-0.3322505,-0.242479,0.951955,-0.4257805,0.154021,1.026075,-0.3967705,-0.078225,-0.005615,0.0045544999999999,0.078225,0.0056149999999999,-0.0045545,-0.195359,-0.179535,-0.2901705,0.122751,-0.180405,-0.3136805,-0.180849,-0.595005,-0.1009345,0.1418509999999999,-0.591805,-0.0994995,1
127,-0.0384195,0.67676,-0.20444,-0.1771525,0.4897399999999999,-0.1979,-0.2773925,0.70293,-0.33868,0.1075675,0.4996699999999999,-0.2176799999999999,0.1733975,0.7478400000000001,-0.3437699999999999,-0.2422325,0.95103,-0.44121,0.1519575,1.02385,-0.40963,-0.0782745,-0.00487,0.004431,0.0782745,0.0048699999999999,-0.0044309999999999,-0.1964125,-0.16804,-0.2959,0.1238474999999999,-0.1702,-0.31927,-0.1807824999999999,-0.58087,-0.1031469999999999,0.1415675,-0.57884,-0.104516,1
128,-0.037624,0.677485,-0.214589,-0.175221,0.4877849999999999,-0.204629,-0.277481,0.6965049999999999,-0.3496089999999999,0.1085589999999999,0.4970549999999999,-0.2243389999999999,0.173029,0.742745,-0.3546289999999999,-0.243481,0.949305,-0.4562589999999999,0.150609,1.018485,-0.4216189999999999,-0.078285,-0.004305,0.0042179999999999,0.078285,0.004305,-0.0042179999999999,-0.197551,-0.157635,-0.300849,0.125159,-0.160955,-0.324489,-0.180631,-0.568195,-0.104766,0.141419,-0.566495,-0.1075219999999999,1
129,-0.03555,0.677,-0.222361,-0.172581,0.48435,-0.209781,-0.276711,0.6951,-0.358371,0.1110789999999999,0.49387,-0.229331,0.1748289999999999,0.73841,-0.362931,-0.242611,0.94803,-0.468971,0.1511489999999999,1.01379,-0.431561,-0.0775889999999999,-0.0039599999999999,0.004298,0.0775889999999999,0.00396,-0.0042979999999999,-0.196541,-0.14658,-0.304741,0.1276989999999999,-0.1512299999999999,-0.328581,-0.179321,-0.55521,-0.1049239999999999,0.142559,-0.55388,-0.1086869999999999,1
130,-0.034194,0.67645,-0.2295724999999999,-0.170525,0.48167,-0.2152224999999999,-0.276225,0.6942900000000001,-0.3681225,0.113095,0.49108,-0.2346425,0.176055,0.73506,-0.3712425,-0.242245,0.94699,-0.4820025,0.1512049999999999,1.0099900000000002,-0.4419125,-0.0775899999999999,-0.0036599999999999,0.0041735,0.0775899999999999,0.00366,-0.0041734999999999,-0.196215,-0.1345099999999999,-0.3094225,0.129575,-0.1396899999999999,-0.3329825,-0.178795,-0.54137,-0.1055504999999999,0.143365,-0.54025,-0.1102124999999999,1
131,-0.0330545,0.675755,-0.2348159999999999,-0.1688305,0.479275,-0.2196059999999999,-0.2758104999999999,0.693695,-0.376756,0.1149994999999999,0.488245,-0.238916,0.1771394999999999,0.732405,-0.377556,-0.2419205,0.940795,-0.492506,0.1511694999999999,1.006525,-0.4517259999999999,-0.0777964999999999,-0.0032949999999999,0.004496,0.0777964999999999,0.0032949999999999,-0.0044959999999999,-0.1959705,-0.121365,-0.313406,0.1321794999999999,-0.127095,-0.336696,-0.1783305,-0.526595,-0.1050609999999999,0.1448995,-0.525085,-0.110266,1
132,-0.0317165,0.67446,-0.2391289999999999,-0.1674695,0.4795799999999999,-0.2223589999999999,-0.2747895,0.69341,-0.384279,0.1168205,0.4878999999999999,-0.2411189999999999,0.1784805,0.7308399999999999,-0.382739,-0.2411895,0.93749,-0.500539,0.1514105,1.0042,-0.460549,-0.0778855,-0.00298,0.0047589999999999,0.0778855,0.0029799999999999,-0.0047589999999999,-0.1961795,-0.10877,-0.316839,0.1357205,-0.11461,-0.339619,-0.1776095,-0.5125000000000001,-0.104244,0.1465305,-0.5107900000000001,-0.109072,1
133,-0.0304379999999999,0.673295,-0.242764,-0.166128,0.479655,-0.225024,-0.273608,0.6931750000000001,-0.390964,0.118542,0.487405,-0.243194,0.179952,0.731245,-0.388144,-0.240148,0.934165,-0.508114,0.153192,0.998745,-0.469444,-0.0777569999999999,-0.0025949999999999,0.004899,0.0777569999999999,0.002595,-0.004899,-0.1967179999999999,-0.0966249999999999,-0.320084,0.139672,-0.1027349999999999,-0.342224,-0.1770679999999999,-0.4990249999999999,-0.104204,0.148242,-0.496985,-0.108381,1
134,-0.029378,0.6725349999999999,-0.2462645,-0.16506,0.4788199999999999,-0.2275744999999999,-0.2721099999999999,0.691695,-0.3967545,0.11982,0.487123,-0.2453644999999999,0.1813,0.730675,-0.3937644999999999,-0.23942,0.930995,-0.5152445,0.15516,0.993395,-0.4779245,-0.077484,-0.002455,0.0047515,0.077484,0.0024549999999999,-0.0047514999999999,-0.1977,-0.085055,-0.3235544999999999,0.14342,-0.091175,-0.3449445,-0.17674,-0.4860650000000001,-0.1043534999999999,0.14985,-0.484905,-0.1088845,1
135,-0.0282189999999999,0.6710849999999999,-0.249469,-0.163908,0.477441,-0.230249,-0.270238,0.6894750000000001,-0.4020789999999999,0.1212719999999999,0.487041,-0.247769,0.182732,0.729225,-0.398879,-0.237848,0.928075,-0.521379,0.157492,0.988155,-0.486229,-0.076933,-0.001865,0.0043809999999999,0.076933,0.001865,-0.004381,-0.198558,-0.074495,-0.327459,0.147242,-0.080665,-0.348159,-0.176438,-0.473765,-0.104683,0.151622,-0.4744649999999999,-0.110834,1
136,-0.027734,0.6686650000000001,-0.252357,-0.163617,0.47456,-0.2328469999999999,-0.268987,0.685735,-0.407017,0.1220229999999999,0.485892,-0.250007,0.1833729999999999,0.726905,-0.403767,-0.236667,0.925055,-0.527027,0.158883,0.982575,-0.491717,-0.0771439999999999,-0.0024949999999999,0.0041889999999999,0.0771439999999999,0.002495,-0.0041889999999999,-0.200097,-0.065865,-0.331557,0.1499029999999999,-0.072075,-0.351677,-0.176357,-0.463615,-0.104837,0.152633,-0.466325,-0.1130549999999999,1
137,-0.02743,0.6669849999999999,-0.254739,-0.163497,0.471563,-0.235339,-0.267777,0.682955,-0.411359,0.122543,0.485232,-0.252069,0.1838929999999999,0.726005,-0.408029,-0.235427,0.922025,-0.532339,0.159903,0.978535,-0.496899,-0.077194,-0.0031149999999999,0.003851,0.077194,0.0031149999999999,-0.003851,-0.2016069999999999,-0.0567449999999999,-0.335289,0.1522529999999999,-0.063085,-0.354719,-0.176317,-0.452875,-0.104521,0.153383,-0.457225,-0.115293,1
138,-0.0271565,0.665425,-0.2566525,-0.1633835,0.471871,-0.2365924999999999,-0.2669635,0.680915,-0.4156325,0.1227764999999999,0.486172,-0.2535425,0.1843864999999999,0.724735,-0.4124825,-0.2344235,0.919165,-0.5371225,0.1607465,0.974255,-0.5023025,-0.0772144999999999,-0.003365,0.0034244999999999,0.0772144999999999,0.003365,-0.0034245,-0.2031435,-0.048655,-0.3382925,0.1542065,-0.0555049999999999,-0.3570125,-0.1763335,-0.4432149999999999,-0.1049375,0.1544465,-0.446775,-0.1150405,1
139,-0.026783,0.66309,-0.2565695,-0.163263,0.472436,-0.2361395,-0.266233,0.67824,-0.4179294999999999,0.1229669999999999,0.486998,-0.2533395,0.185057,0.72204,-0.4149595,-0.233303,0.91642,-0.5393795,0.161647,0.9701,-0.5057995,-0.077495,-0.0035199999999999,0.0033035,0.077495,0.00352,-0.0033034999999999,-0.2045529999999999,-0.04103,-0.3390594999999999,0.155687,-0.04935,-0.3578395,-0.176343,-0.4344399999999999,-0.1040295,0.154867,-0.4403399999999999,-0.1133655,1
140,-0.026057,0.66065,-0.2563925,-0.162845,0.4703619999999999,-0.2360225,-0.264675,0.6765,-0.4195325,0.1231749999999999,0.487969,-0.2535225,0.185965,0.7208,-0.4177125,-0.231945,0.91912,-0.5425025,0.162825,0.96815,-0.5084725,-0.077702,-0.00412,0.0031034999999999,0.077702,0.0041199999999999,-0.0031035,-0.205535,-0.03278,-0.3395725,0.156945,-0.0423299999999999,-0.3584625,-0.176095,-0.42502,-0.1033205,0.1554749999999999,-0.4331400000000001,-0.1126395,1
141,-0.025321,0.65915,-0.256789,-0.162467,0.468684,-0.236349,-0.263117,0.67422,-0.4217889999999999,0.123383,0.489085,-0.254349,0.186943,0.7197,-0.420749,-0.230607,0.9164,-0.546799,0.163993,0.9664,-0.512029,-0.0778629999999999,-0.00468,0.002867,0.0778629999999999,0.00468,-0.002867,-0.206277,-0.02462,-0.3398489999999999,0.157903,-0.03524,-0.358879,-0.175757,-0.41684,-0.102369,0.156103,-0.42368,-0.1127239999999999,1
142,-0.024525,0.6587799999999999,-0.2574815,-0.161957,0.466153,-0.2371714999999999,-0.261527,0.6721699999999999,-0.4238915,0.1236529999999999,0.4896799999999999,-0.2554215,0.187773,0.7178199999999999,-0.4231915,-0.229367,0.91383,-0.5509715000000001,0.164373,0.9695,-0.5149915,-0.077915,-0.00531,0.0026884999999999,0.077915,0.0053099999999999,-0.0026885,-0.207157,-0.01698,-0.3398715,0.158763,-0.0282999999999999,-0.3593814999999999,-0.175227,-0.40903,-0.1019185,0.156993,-0.41247,-0.1103575,1
143,-0.023767,0.657115,-0.2582465,-0.1616179999999999,0.466987,-0.2378965,-0.260368,0.672115,-0.4262665,0.123762,0.489795,-0.2563065,0.188352,0.717075,-0.4252665,-0.228128,0.912865,-0.5547265,0.164712,0.972775,-0.5179565,-0.077881,-0.005155,0.0026614999999999,0.077881,0.0051549999999999,-0.0026615,-0.2080179999999999,-0.008555,-0.3395964999999999,0.159272,-0.0207749999999999,-0.3598265,-0.175338,-0.398925,-0.1013955,0.1576119999999999,-0.404525,-0.1113225,1
144,-0.0231285,0.6559349999999999,-0.2588245,-0.1613665,0.467677,-0.2384745,-0.2593565,0.671935,-0.4282944999999999,0.1237934999999999,0.489811,-0.2567545,0.1888435,0.716625,-0.4271045,-0.2271365,0.912615,-0.5580345,0.1650035,0.975425,-0.5206245,-0.0777855,-0.005035,0.0026344999999999,0.0777855,0.005035,-0.0026344999999999,-0.2090365,-0.001155,-0.3392644999999999,0.1596135,-0.014295,-0.3601045,-0.1753465,-0.391325,-0.1015375,0.1587735,-0.397625,-0.1129235,1
145,-0.0225615,0.6552749999999999,-0.2595245,-0.1612095,0.4683719999999999,-0.2388645,-0.2586995,0.6716249999999999,-0.4302045,0.1237305,0.4899269999999999,-0.2570945,0.1892005,0.7158449999999998,-0.4286745,-0.2264094999999999,0.911945,-0.5610445,0.1649305,0.977805,-0.5227845,-0.0777525,-0.004855,0.0026135,0.0777525,0.0048549999999999,-0.0026134999999999,-0.2102895,0.0056549999999998,-0.3389445,0.1598405,-0.0084450000000001,-0.3602445,-0.1754995,-0.3844050000000001,-0.1020365,0.1598205,-0.3915950000000001,-0.1148184999999999,1
146,-0.0216729999999999,0.65506,-0.2602275,-0.160736,0.469348,-0.2390675,-0.257746,0.67199,-0.4315675,0.1239339999999999,0.4902189999999999,-0.2572975,0.189884,0.7151299999999999,-0.4301375,-0.225326,0.91138,-0.5636175,0.165194,0.9802,-0.5245975,-0.0776959999999999,-0.00463,0.0025594999999999,0.0776959999999999,0.00463,-0.0025594999999999,-0.211436,0.0121599999999999,-0.3385975,0.160414,-0.00308,-0.3603874999999999,-0.175166,-0.37771,-0.1025975,0.161404,-0.38328,-0.1146115,1
147,-0.0210975,0.65519,-0.2608924999999999,-0.1605605,0.469866,-0.2393225,-0.2573705,0.67239,-0.4329225,0.1237395,0.490388,-0.2575225,0.1902095,0.71495,-0.4313525,-0.2245005,0.91165,-0.5661225,0.1653095,0.98024,-0.5276824999999999,-0.0776465,-0.00446,0.0026095,0.0776465,0.00446,-0.0026095,-0.2131105,0.01853,-0.3380525,0.1607795,0.00277,-0.3604625,-0.1748705,-0.37254,-0.1042825,0.1627895,-0.37524,-0.1145105,1
148,-0.0204929999999999,0.65581,-0.2614729999999999,-0.1602879999999999,0.469711,-0.239583,-0.256978,0.6731,-0.433873,0.123582,0.490373,-0.257673,0.190462,0.71596,-0.432383,-0.2236479999999999,0.9119,-0.568313,0.165542,0.98016,-0.5302830000000001,-0.0775899999999999,-0.0043699999999999,0.00264,0.0775899999999999,0.0043699999999999,-0.0026399999999999,-0.214728,0.02429,-0.337443,0.161382,0.0084,-0.360353,-0.174338,-0.36778,-0.1062009999999999,0.164152,-0.3689,-0.1161309999999999,1
149,-0.0197655,0.65667,-0.26197,-0.1598255,0.4719649999999999,-0.23971,-0.2566355,0.67419,-0.4346799999999999,0.1236645,0.4902579999999999,-0.2577,0.1909245,0.71556,-0.43344,-0.2227655,0.91258,-0.5699500000000001,0.1660944999999999,0.9784,-0.53267,-0.0775405,-0.0039099999999999,0.002709,0.0775405,0.0039099999999999,-0.0027089999999999,-0.2162954999999999,0.02832,-0.33686,0.1622245,0.0120299999999999,-0.36033,-0.1736355,-0.36554,-0.108501,0.1660045,-0.36436,-0.117561,1
150,-0.0190745,0.65675,-0.2624595,-0.1593765,0.473429,-0.2398395,-0.2562465,0.6751799999999999,-0.4349094999999999,0.1238235,0.4896529999999999,-0.2577095,0.1912935,0.7150299999999999,-0.4342895,-0.2224165,0.91661,-0.5704095,0.1667435,0.97624,-0.5349095,-0.0774965,-0.0034899999999999,0.0027065,0.0774965,0.0034899999999999,-0.0027065,-0.2177965,0.03142,-0.3360795,0.1631535,0.0145899999999999,-0.3603695,-0.1729165,-0.3642700000000001,-0.1107875,0.1679535,-0.3598300000000001,-0.1180025,1
151,-0.0184634999999999,0.656945,-0.262406,-0.1589355,0.4748039999999999,-0.239896,-0.2558255,0.676685,-0.434776,0.1239945,0.488712,-0.257756,0.1916945,0.7153149999999999,-0.4346959999999999,-0.2225655,0.919745,-0.570446,0.1674945,0.974165,-0.536896,-0.0774455,-0.002955,0.002685,0.0774455,0.0029549999999999,-0.002685,-0.2191455,0.034065,-0.335236,0.1640745,0.0164949999999999,-0.360456,-0.1722255,-0.362735,-0.1132749999999999,0.1696445,-0.356225,-0.118528,1
152,-0.0184634999999999,0.656945,-0.262406,-0.1589954999999999,0.4745279999999999,-0.239896,-0.2562055,0.676685,-0.434766,0.1239945,0.488712,-0.257756,0.1916845,0.7151449999999999,-0.434846,-0.2233055,0.919745,-0.570406,0.1678745,0.970295,-0.538276,-0.0774455,-0.002955,0.002685,0.0774455,0.0029549999999999,-0.002685,-0.2208055,0.034065,-0.334386,0.1645545,0.0158149999999999,-0.360406,-0.1719554999999999,-0.363885,-0.11488,0.1705845,-0.355765,-0.118891,1
153,-0.0184695,0.656945,-0.262524,-0.1590415,0.4745279999999999,-0.240014,-0.2565815,0.676685,-0.434864,0.1239385,0.488712,-0.257784,0.1916785,0.7151449999999999,-0.434964,-0.2233115,0.919745,-0.570524,0.1682985,0.970295,-0.538374,-0.0774415,-0.002955,0.002762,0.0774415,0.0029549999999999,-0.0027619999999999,-0.2223215,0.034065,-0.333404,0.1648985,0.0158149999999999,-0.360274,-0.1720315,-0.362345,-0.113762,0.1711585,-0.355215,-0.119189,1
154,-0.0184589999999999,0.656945,-0.262318,-0.1591119999999999,0.4745279999999999,-0.240388,-0.257012,0.676685,-0.434868,0.123918,0.488712,-0.258078,0.191658,0.7151449999999999,-0.435388,-0.2233319999999999,0.919745,-0.570868,0.1687179999999999,0.970295,-0.538398,-0.077432,-0.002955,0.0029599999999999,0.077432,0.0029549999999999,-0.00296,-0.223702,0.034065,-0.332538,0.1651679999999999,0.0158149999999999,-0.360318,-0.172472,-0.362345,-0.113787,0.171558,-0.354545,-0.119263,1
155,-0.0188969999999999,0.658055,-0.2628165,-0.1595309999999999,0.4741879999999999,-0.2403965,-0.258001,0.676395,-0.4341865,0.123619,0.4886149999999999,-0.2583465,0.191209,0.7148049999999999,-0.4358965,-0.2239809999999999,0.920145,-0.5704864999999999,0.168759,0.969955,-0.5387565000000001,-0.0774229999999999,-0.003205,0.0031375,0.0774229999999999,0.0032049999999999,-0.0031375,-0.225191,0.0337949999999999,-0.3316365,0.164789,0.0154749999999999,-0.3604165,-0.173031,-0.361345,-0.1117165,0.171529,-0.3542350000000001,-0.1197145,1
156,-0.0195704999999999,0.658855,-0.2630949999999999,-0.1600935,0.4731549999999999,-0.240155,-0.2591035,0.6760949999999999,-0.432745,0.1231865,0.4884209999999999,-0.258755,0.1905465,0.714065,-0.436075,-0.2264334999999999,0.918925,-0.567235,0.1688565,0.969265,-0.5389550000000001,-0.0773655,-0.003295,0.0033329999999999,0.0773655,0.0032949999999999,-0.003333,-0.2261534999999999,0.0321449999999998,-0.330875,0.1643065,0.0138849999999999,-0.360605,-0.1739335,-0.3622550000000001,-0.112466,0.1714565,-0.355635,-0.119573,1
157,-0.020382,0.65928,-0.263052,-0.160775,0.472561,-0.2398519999999999,-0.260185,0.67642,-0.4310319999999999,0.122925,0.488158,-0.259002,0.1900649999999999,0.71333,-0.435572,-0.228895,0.91536,-0.563612,0.1690849999999999,0.96734,-0.539582,-0.077475,-0.0033499999999999,0.0035449999999999,0.077475,0.0033499999999999,-0.0035449999999999,-0.226535,0.02864,-0.330192,0.164015,0.0106699999999999,-0.3609819999999999,-0.174535,-0.3646,-0.112324,0.171645,-0.3600099999999999,-0.120144,1
158,-0.0210784999999999,0.6596299999999999,-0.2626305,-0.1612925,0.471305,-0.2396205,-0.2611525,0.67656,-0.4287204999999999,0.1228674999999999,0.487212,-0.2592105,0.1895375,0.71349,-0.4343205,-0.2313025,0.91378,-0.5599005,0.1695975,0.9659,-0.5392605,-0.0775165,-0.0033499999999999,0.0037444999999999,0.0775165,0.0033499999999999,-0.0037444999999999,-0.2265625,0.02298,-0.3296504999999999,0.1639075,0.00592,-0.3611904999999999,-0.1746125,-0.3712299999999999,-0.1131205,0.1719575,-0.36456,-0.1187584999999999,1
159,-0.0217935,0.66028,-0.2622985,-0.1618665,0.471146,-0.2395085,-0.2618465,0.6782,-0.4260085,0.1228535,0.486356,-0.2595885,0.1888534999999999,0.7141,-0.4327185,-0.2341565,0.90995,-0.5556985,0.1702535,0.96636,-0.5367485000000001,-0.0775095,-0.0032699999999999,0.0038785,0.0775095,0.0032699999999999,-0.0038785,-0.2265465,0.01607,-0.3294285,0.1635734999999999,2.000000000002e-05,-0.3613885,-0.1746365,-0.37776,-0.1136395,0.1720035,-0.3709599999999999,-0.1178515,1
160,-0.0229635,0.6609849999999999,-0.261608,-0.1629055,0.470383,-0.239268,-0.2629755,0.6795249999999999,-0.423078,0.1223845,0.484882,-0.259738,0.1873845,0.714785,-0.430058,-0.2375255,0.904295,-0.550218,0.1705545,0.969515,-0.5323180000000001,-0.0774645,-0.003075,0.0040199999999999,0.0774645,0.003075,-0.00402,-0.2269955,0.0069749999999999,-0.329278,0.1625245,-0.007565,-0.361318,-0.1749955,-0.385255,-0.111843,0.1715945,-0.379295,-0.117093,1
161,-0.0241694999999999,0.6622750000000001,-0.260806,-0.1639785,0.470241,-0.239146,-0.2641985,0.681525,-0.420066,0.1217515,0.483822,-0.2599559999999999,0.1860015,0.715705,-0.427436,-0.2408384999999999,0.905095,-0.544676,0.1708815,0.972775,-0.528026,-0.0774255,-0.0028049999999999,0.0042579999999999,0.0774255,0.002805,-0.004258,-0.2268784999999999,-0.0034349999999999,-0.329126,0.1614215,-0.0160649999999999,-0.361156,-0.1754685,-0.394475,-0.110676,0.1709515,-0.391205,-0.119616,1
162,-0.025623,0.66401,-0.260121,-0.1651979999999999,0.469357,-0.239531,-0.265448,0.68379,-0.416251,0.120942,0.481899,-0.260541,0.184542,0.71633,-0.4244409999999999,-0.243688,0.90466,-0.539781,0.171052,0.97546,-0.524341,-0.077343,-0.0024499999999999,0.0046,0.077343,0.00245,-0.0045999999999999,-0.226258,-0.0151099999999999,-0.328881,0.160062,-0.0248599999999999,-0.3609409999999999,-0.176108,-0.40535,-0.110249,0.170202,-0.40466,-0.1227949999999999,1
163,-0.0271415,0.66414,-0.2593625,-0.1665154999999999,0.467761,-0.2404825,-0.2670855,0.6846099999999999,-0.4136925,0.1199645,0.479286,-0.2616225,0.1830945,0.7162200000000001,-0.4221625,-0.2463555,0.90271,-0.5347824999999999,0.1711145,0.97737,-0.5213725,-0.0773385,-0.00261,0.0045914999999999,0.0773385,0.00261,-0.0045914999999999,-0.2250455,-0.02843,-0.3285225,0.1584345,-0.0353599999999999,-0.3601625,-0.1767055,-0.4181399999999999,-0.1107364999999999,0.1691645,-0.4185,-0.1242065,1
164,-0.0284395,0.665775,-0.258926,-0.1676025,0.469125,-0.240816,-0.2688824999999999,0.687295,-0.411816,0.1189274999999999,0.479975,-0.2619059999999999,0.1816374999999999,0.718475,-0.4195959999999999,-0.2485525,0.901975,-0.529976,0.1708775,0.979355,-0.5187660000000001,-0.0770225,-0.0022249999999999,0.004722,0.0770225,0.0022249999999999,-0.0047219999999999,-0.2230325,-0.042115,-0.327576,0.1569374999999999,-0.0465849999999999,-0.358846,-0.1770925,-0.432245,-0.111732,0.1683375,-0.432395,-0.125448,1
165,-0.029491,0.66706,-0.2592225,-0.168562,0.470785,-0.2421625,-0.270802,0.68955,-0.4109825,0.118048,0.47951,-0.2625925,0.180388,0.7200599999999999,-0.4181625,-0.249192,0.90825,-0.5287525,0.170708,0.97544,-0.5182725,-0.076925,-0.0019899999999999,0.0048445,0.076925,0.0019899999999999,-0.0048445,-0.220192,-0.0564399999999999,-0.3261225,0.155708,-0.0591099999999999,-0.3572425,-0.177562,-0.4495599999999999,-0.1147675,0.167788,-0.44772,-0.1269965,1
166,-0.0302285,0.6660999999999999,-0.259451,-0.1691515,0.471546,-0.244191,-0.2722615,0.6901299999999999,-0.4100509999999999,0.1170285,0.479578,-0.263731,0.1792185,0.7212099999999999,-0.4178809999999999,-0.2498215,0.91481,-0.528211,0.1706685,0.97008,-0.517361,-0.0768395,-0.0020499999999999,0.004828,0.0768395,0.0020499999999999,-0.0048279999999999,-0.2165115,-0.07156,-0.324411,0.1545785,-0.07279,-0.355271,-0.1780215,-0.4687,-0.119533,0.1666485,-0.46459,-0.1283979999999999,1
167,-0.0306595,0.66435,-0.2600145,-0.1695525,0.474521,-0.2462145,-0.2734025,0.69179,-0.4092545,0.1161474999999999,0.481434,-0.2651245,0.1784375,0.72384,-0.4175945,-0.2502725,0.91907,-0.5280644999999999,0.1708775,0.97341,-0.5153445,-0.0767735,-0.0019799999999999,0.0048455,0.0767735,0.00198,-0.0048455,-0.2124625,-0.0854699999999999,-0.3225745,0.1539074999999999,-0.08465,-0.3522345,-0.1784325,-0.4868599999999999,-0.1244355,0.1657475,-0.4805,-0.1301635,1
168,-0.0310445,0.664995,-0.2605195,-0.1700025,0.474745,-0.2480795,-0.2743125,0.690815,-0.4088495,0.1153575,0.481785,-0.2664995,0.1778775,0.7245950000000001,-0.4177195,-0.2507125,0.923725,-0.5275795,0.1702274999999999,0.974655,-0.5138095,-0.0767994999999999,-0.0019849999999999,0.0048504999999999,0.0767994999999999,0.001985,-0.0048505,-0.2082625,-0.1012549999999999,-0.3199795,0.1531275,-0.0986949999999999,-0.3482595,-0.1788425,-0.507595,-0.1294795,0.1647674999999999,-0.501285,-0.1345805,1
169,-0.031375,0.66658,-0.261765,-0.170453,0.47559,-0.250345,-0.274823,0.69214,-0.409105,0.114587,0.48313,-0.268405,0.177697,0.7262500000000001,-0.418445,-0.251153,0.92936,-0.528725,0.170447,0.97602,-0.515135,-0.077054,-0.0021599999999999,0.0048549999999999,0.077054,0.0021599999999999,-0.0048549999999999,-0.204083,-0.1154799999999999,-0.316795,0.152417,-0.11142,-0.344345,-0.179053,-0.52837,-0.13542,0.163507,-0.52222,-0.139275,1
170,-0.0315854999999999,0.6683399999999999,-0.263295,-0.1707575,0.47643,-0.252325,-0.2751675,0.6928099999999999,-0.409225,0.1142325,0.4851999999999999,-0.269785,0.1775525,0.72828,-0.419335,-0.2515275,0.92753,-0.529505,0.1707525,0.97735,-0.516505,-0.0772245,-0.00242,0.004815,0.0772245,0.0024199999999999,-0.004815,-0.2001274999999999,-0.12929,-0.312775,0.1517325,-0.12424,-0.339965,-0.1790675,-0.5489,-0.140951,0.1623625,-0.54334,-0.143901,1
171,-0.0322564999999999,0.670425,-0.264205,-0.1718285,0.478175,-0.253225,-0.2754685,0.694585,-0.409575,0.1132514999999999,0.487985,-0.270225,0.1769715,0.7309350000000001,-0.419505,-0.2524585,0.931055,-0.529245,0.1704415,0.977725,-0.517165,-0.0772405,-0.0027249999999999,0.0046949999999999,0.0772405,0.002725,-0.004695,-0.1973085,-0.1429649999999999,-0.308105,0.1503415,-0.1376149999999999,-0.334765,-0.1797984999999999,-0.569545,-0.145861,0.1606515,-0.565255,-0.147866,1
172,-0.0332305,0.67428,-0.26475,-0.1732675,0.47936,-0.25352,-0.2760475,0.6966399999999999,-0.40831,0.1119825,0.4904199999999999,-0.27015,0.1759025,0.73373,-0.4176,-0.2532375,0.93498,-0.52906,0.1699625,0.97866,-0.51576,-0.0770125,-0.0026599999999999,0.00479,0.0770125,0.0026599999999999,-0.00479,-0.1952575,-0.15557,-0.303,0.1488025,-0.14989,-0.32938,-0.1808775,-0.5890900000000001,-0.149746,0.1586525,-0.5860799999999999,-0.151095,1
173,-0.0340445,0.6759999999999999,-0.26403,-0.1745505,0.47851,-0.25426,-0.2759804999999999,0.69842,-0.40611,0.1110095,0.48795,-0.27088,0.1749595,0.7331300000000001,-0.41491,-0.2543005,0.93777,-0.52727,0.1685695,0.97947,-0.51364,-0.0766744999999999,-0.00229,0.0047999999999999,0.0766744999999999,0.0022899999999999,-0.0048,-0.1936905,-0.16721,-0.29764,0.1472895,-0.16109,-0.32404,-0.1818505,-0.60737,-0.153613,0.1568695,-0.60616,-0.154327,1
174,-0.0341444999999999,0.67572,-0.2600449999999999,-0.1752055,0.4754899999999999,-0.253225,-0.2756154999999999,0.69858,-0.4007849999999999,0.1103645,0.49261,-0.269555,0.1744945,0.73699,-0.411205,-0.2546454999999999,0.93329,-0.522745,0.1689545,0.98105,-0.510045,-0.0766785,-0.00359,0.004725,0.0766785,0.0035899999999999,-0.004725,-0.1919855,-0.17859,-0.2920549999999999,0.1460745,-0.17159,-0.317165,-0.1822355,-0.62538,-0.1564579999999999,0.1558044999999999,-0.6255999999999999,-0.156641,1
175,-0.0337765,0.6770499999999999,-0.255235,-0.1754325,0.47205,-0.251305,-0.2751825,0.69972,-0.394215,0.1092674999999999,0.49582,-0.267665,0.1745475,0.74208,-0.405385,-0.2543125,0.9347,-0.516295,0.1686175,0.98504,-0.505165,-0.0765525,-0.0041899999999999,0.004865,0.0765525,0.0041899999999999,-0.004865,-0.1904325,-0.18805,-0.285745,0.1450175,-0.17979,-0.309135,-0.1820024999999999,-0.64141,-0.158217,0.1560375,-0.64306,-0.15835,1
176,-0.0333115,0.6782050000000001,-0.24938,-0.1753085,0.465785,-0.24921,-0.2740885,0.699635,-0.38736,0.1080915,0.4969449999999999,-0.2654999999999999,0.1738614999999999,0.744395,-0.39924,-0.2528185,0.935965,-0.50865,0.1682814999999999,0.984915,-0.49982,-0.0764375,-0.0051049999999999,0.00501,0.0764375,0.0051049999999999,-0.0050099999999999,-0.1890085,-0.197645,-0.27884,0.1440814999999999,-0.188795,-0.30155,-0.1816485,-0.657485,-0.1593629999999999,0.1563514999999999,-0.660995,-0.1606249999999999,1
177,-0.0322285,0.678,-0.242415,-0.1755324999999999,0.47197,-0.2436849999999999,-0.2727025,0.70337,-0.3790449999999999,0.1063274999999999,0.4952,-0.262115,0.1729675,0.74444,-0.391015,-0.2525425,0.9399,-0.499215,0.1683575,0.98396,-0.492545,-0.0755115,-0.0036499999999999,0.0052849999999999,0.0755115,0.00365,-0.005285,-0.1866525,-0.20522,-0.270225,0.1438075,-0.19879,-0.293605,-0.1809224999999999,-0.67432,-0.158779,0.1572375,-0.67973,-0.16124,1
178,-0.0310415,0.676285,-0.234563,-0.1755934999999999,0.477505,-0.23832,-0.2713935,0.7113750000000001,-0.37063,0.1041665,0.492295,-0.25873,0.1718165,0.7434449999999999,-0.38188,-0.2517835,0.945675,-0.48985,0.1683465,0.981235,-0.48134,-0.0747305,-0.002555,0.0052799999999999,0.0747305,0.002555,-0.00528,-0.1842935,-0.2130449999999999,-0.26222,0.1437765,-0.208165,-0.286,-0.1805334999999999,-0.6917850000000001,-0.15884,0.1581165,-0.697435,-0.161331,1
179,-0.0297115,0.6729550000000001,-0.225994,-0.1755334999999999,0.482395,-0.233197,-0.2698035,0.719345,-0.36272,0.1025565,0.487715,-0.2559,0.1687765,0.7414550000000001,-0.37212,-0.2508435,0.955725,-0.48051,0.1689165,0.978575,-0.46956,-0.0741405,-0.001305,0.0052599999999999,0.0741405,0.001305,-0.00526,-0.1816835,-0.220535,-0.2546,0.1440665,-0.216855,-0.27913,-0.1797234999999999,-0.708225,-0.15888,0.1608965,-0.7170449999999999,-0.163521,1
180,-0.0282415,0.6710900000000001,-0.218078,-0.1752165,0.48936,-0.227583,-0.2679865,0.72666,-0.355445,0.1008935,0.48583,-0.253665,0.1657535,0.74205,-0.363395,-0.2500664999999999,0.96164,-0.4695249999999999,0.1685135,0.97856,-0.4578449999999999,-0.0733945,-0.0006099999999999,0.0052149999999999,0.0733945,0.0006099999999999,-0.0052149999999999,-0.1783065,-0.23054,-0.246225,0.1444035,-0.22872,-0.271515,-0.1788165,-0.72592,-0.158885,0.1630435,-0.73868,-0.164032,1
181,-0.0267644999999999,0.6681,-0.2091319999999999,-0.1748854999999999,0.49716,-0.220998,-0.2660855,0.73523,-0.34752,0.1006745,0.48579,-0.25067,0.1631445,0.74265,-0.35429,-0.2491855,0.97204,-0.45823,0.1686145,0.97898,-0.44493,-0.0726135,0.00014,0.0058,0.0726135,-0.00014,-0.0058,-0.1747854999999999,-0.2408699999999999,-0.237111,0.1445845,-0.2404899999999999,-0.26281,-0.1783854999999999,-0.7467199999999999,-0.157775,0.1654745,-0.7593799999999999,-0.163928,1
182,-0.0251785,0.6655880000000001,-0.200048,-0.1743644999999999,0.5044379999999999,-0.214339,-0.2644045,0.743098,-0.33832,0.0988755,0.486788,-0.24589,0.1619355,0.7452080000000001,-0.3448299999999999,-0.2482444999999999,0.983588,-0.44792,0.1702755,0.980488,-0.43167,-0.0718235,0.000381,0.0060399999999999,0.0718235,-0.0003809999999999,-0.0060399999999999,-0.1708144999999999,-0.250682,-0.227559,0.1451354999999999,-0.2515219999999999,-0.25327,-0.1771444999999999,-0.7671319999999999,-0.15529,0.1669255,-0.776292,-0.161968,1
183,-0.0236105,0.665324,-0.192205,-0.1738205,0.514224,-0.2078479999999999,-0.2627205,0.753024,-0.32954,0.0969594999999999,0.481904,-0.24179,0.1597195,0.744444,-0.33416,-0.2473604999999999,0.997614,-0.43678,0.1703894999999999,0.984024,-0.41786,-0.0710065,0.002305,0.00618,0.0710065,-0.002305,-0.0061799999999999,-0.1661405,-0.258506,-0.216675,0.1449295,-0.259976,-0.24156,-0.1757105,-0.784546,-0.152244,0.1685295,-0.791136,-0.15966,1
184,-0.0217565,0.665387,-0.184039,-0.1730525,0.525137,-0.201027,-0.2611325,0.763257,-0.320055,0.0981475,0.478657,-0.236985,0.1576675,0.743727,-0.323495,-0.2462425,1.007597,-0.425515,0.1696774999999999,0.988877,-0.404365,-0.0699045,0.0037109999999999,0.0062949999999999,0.0699045,-0.0037109999999999,-0.0062949999999999,-0.1604825,-0.266483,-0.204929,0.1449375,-0.2690829999999999,-0.22969,-0.1739525,-0.802463,-0.148639,0.1703775,-0.8053130000000001,-0.156774,1
185,-0.0211295,0.6687665,-0.176978,-0.1737845,0.5370265000000001,-0.192697,-0.2605145,0.7751965000000001,-0.30999,0.0988354999999999,0.4767465,-0.2308,0.1585454999999999,0.7436164999999999,-0.31331,-0.2455245,1.0159365,-0.4123799999999999,0.1692054999999999,0.9900765,-0.3918,-0.0697285,0.0051724999999999,0.0065099999999999,0.0697285,-0.0051725,-0.00651,-0.1553045,-0.2749435,-0.191598,0.1436655,-0.2787635,-0.215293,-0.1731945,-0.8177235,-0.143611,0.1716855,-0.8196734999999999,-0.151739,1
186,-0.0200149999999999,0.668758,-0.166955,-0.173616,0.544188,-0.181942,-0.260866,0.783948,-0.2970399999999999,0.099894,0.476168,-0.22184,0.159764,0.745058,-0.30115,-0.244376,1.022038,-0.39678,0.170234,0.993098,-0.37668,-0.070344,0.0046669999999999,0.0066499999999999,0.070344,-0.0046669999999999,-0.00665,-0.149776,-0.286242,-0.175393,0.142964,-0.288002,-0.19574,-0.171846,-0.831192,-0.13557,0.173414,-0.8321820000000001,-0.143705,1
187,-0.0188185,0.6695635,-0.15097,-0.1731385,0.5516435,-0.164518,-0.2602485,0.7866935,-0.276985,0.1014815,0.4772235,-0.205379,0.1612415,0.7469635,-0.283795,-0.2434085,1.0253335,-0.373815,0.1716015,0.9959935,-0.358295,-0.0709445,0.0046045,0.0067149999999999,0.0709445,-0.0046044999999999,-0.0067149999999999,-0.1437284999999999,-0.2945965,-0.1533479999999999,0.1424715,-0.2976865,-0.1687779999999999,-0.1700384999999999,-0.8445265,-0.120338,0.1755315,-0.8441765,-0.129126,1
188,-0.0185149999999999,0.6750225000000001,-0.1329275,-0.172834,0.5510425,-0.1444285,-0.259754,0.7810425000000001,-0.2543925,0.103556,0.4890224999999999,-0.1833115,0.163156,0.7535625,-0.2642224999999999,-0.242194,1.0181325,-0.3473624999999999,0.172866,0.9995125,-0.3377925,-0.0713979999999999,0.0031024999999999,0.0063234999999999,0.0713979999999999,-0.0031025,-0.0063234999999999,-0.137874,-0.3114775,-0.1296365,0.141786,-0.3160075,-0.1396895,-0.168264,-0.8664474999999999,-0.1028085,0.177556,-0.8634875,-0.1119075,1
189,-0.0193204999999999,0.678729,-0.1154995,-0.1732875,0.548439,-0.1263455,-0.2600074999999999,0.7747590000000001,-0.2328615,0.1065825,0.497899,-0.1623534999999999,0.1651325,0.7575090000000001,-0.2455014999999999,-0.2419375,1.011729,-0.3241115,0.1733725,1.002229,-0.3179715,-0.0719515,0.00216,0.0057585,0.0719515,-0.0021599999999999,-0.0057585,-0.1333775,-0.324931,-0.1087615,0.1403125,-0.331511,-0.1137094999999999,-0.1673275,-0.8853009999999999,-0.0862605,0.1787925,-0.879671,-0.0955884999999999,1
190,-0.0203295,0.6831305,-0.0991135,-0.1736645,0.5466505,-0.1086895,-0.2600345,0.7682605,-0.2121605,0.1096154999999999,0.5064305,-0.1417965,0.1696654999999999,0.7621105,-0.2284505,-0.2416345,1.0050305,-0.3008705,0.1751455,1.0051305,-0.3000905,-0.0726575,0.0012464999999999,0.0049354999999999,0.0726575,-0.0012465,-0.0049355,-0.1290245,-0.3378894999999999,-0.0891565,0.1388355,-0.3464294999999999,-0.0896965,-0.1663744999999999,-0.9011095,-0.0701575,0.1801654999999999,-0.8951295,-0.0796365,1
191,-0.0214035,0.6880915000000001,-0.083118,-0.1738724999999999,0.5452915,-0.091289,-0.2601925,0.7626215000000001,-0.193091,0.1123774999999999,0.5153814999999999,-0.122588,0.1742775,0.7645815,-0.2123709999999999,-0.2414224999999999,0.9959615,-0.278261,0.1770475,1.0085615,-0.282781,-0.0736515,0.0003925,0.004331,0.0736515,-0.0003924999999999,-0.004331,-0.1249224999999999,-0.3506585,-0.070867,0.1371875,-0.3614684999999999,-0.067463,-0.1653325,-0.9162985,-0.054579,0.1798875,-0.9071585,-0.060439,1
192,-0.022983,0.6932005,-0.0672335,-0.174452,0.5427905,-0.0738325,-0.2607919999999999,0.7570505,-0.1751405,0.115648,0.5242405,-0.1033875,0.1761879999999999,0.7674205,-0.1966205,-0.241202,0.9897905,-0.2574504999999999,0.177428,1.0101905,-0.2661505,-0.074855,-0.0004865,0.0037804999999999,0.074855,0.0004865,-0.0037804999999999,-0.122102,-0.3640995,-0.0539705,0.136378,-0.3771295,-0.0490865,-0.164672,-0.9306995,-0.0391895,0.1799079999999999,-0.9197595,-0.0429185,1
193,-0.0244975,0.699051,-0.051197,-0.1748914999999999,0.541551,-0.056266,-0.2613215,0.7517010000000001,-0.158417,0.1182085,0.532321,-0.0844709999999999,0.1806285,0.7686810000000001,-0.180257,-0.2410815,0.983731,-0.236897,0.1794485,1.013931,-0.249637,-0.0757984999999999,-0.0013169999999999,0.0032119999999999,0.0757984999999999,0.0013169999999999,-0.003212,-0.1198515,-0.375969,-0.038543,0.1355485,-0.392239,-0.031533,-0.1631615,-0.942089,-0.022348,0.1801385,-0.931689,-0.025852,1
194,-0.0260615,0.7023995,-0.0359005,-0.1748215,0.5396995,-0.0396855,-0.2618815,0.7449995,-0.1421455,0.1205885,0.5398695,-0.0663035,0.1848485,0.7695495,-0.1643755,-0.2409915,0.9787095,-0.2184055,0.1814585,1.0146095000000002,-0.2340355,-0.0766785,-0.0020135,0.0024365,0.0766785,0.0020135,-0.0024365,-0.1184015,-0.3865705,-0.0248294999999999,0.1345685,-0.4057205,-0.0166335,-0.1621915,-0.9521905,-0.0069004999999999,0.1805884999999999,-0.9436005,-0.0117145,1
195,-0.0277354999999999,0.70789,-0.0235525,-0.1747275,0.53172,-0.0281014999999999,-0.2622375,0.7390100000000001,-0.1291515,0.1221325,0.54978,-0.0513505,0.1889325,0.77302,-0.1514115,-0.2416875,0.97277,-0.2036415,0.1832425,1.01717,-0.2212415,-0.0775175,-0.00313,0.0018295,0.0775175,0.0031299999999999,-0.0018295,-0.1177275,-0.3938399999999999,-0.0138795,0.1338425,-0.41498,-0.0053215,-0.1616475,-0.95964,0.0046595,0.1809825,-0.95274,-0.0007505,1
196,-0.0296649999999999,0.713455,-0.018554,-0.1749799999999999,0.524275,-0.023153,-0.26293,0.732545,-0.12348,0.12283,0.559775,-0.0434279999999999,0.19162,0.775425,-0.1454,-0.24297,0.964225,-0.19656,0.18359,1.018225,-0.21566,-0.078332,-0.004268,0.0011179999999999,0.078332,0.0042679999999999,-0.001118,-0.11767,-0.401405,-0.009668,0.13299,-0.423525,-0.000763,-0.16159,-0.967425,0.0089089999999999,0.1810399999999999,-0.961285,0.0034609999999999,1
197,-0.030507,0.714275,-0.016052,-0.1747719999999999,0.524275,-0.020961,-0.263382,0.732545,-0.120512,0.123248,0.559775,-0.04102,0.192178,0.775425,-0.1415719999999999,-0.244302,0.967625,-0.194322,0.183968,1.018225,-0.213522,-0.078626,-0.004268,0.000766,0.078626,0.0042679999999999,-0.0007659999999999,-0.117352,-0.401405,-0.007913,0.132578,-0.423795,0.001041,-0.161272,-0.967295,0.010677,0.181698,-0.962505,0.005212,1
198,-0.031128,0.714435,-0.01388,-0.174817,0.524275,-0.018643,-0.264437,0.732545,-0.118303,0.123413,0.559775,-0.038388,0.1926729999999999,0.775425,-0.138033,-0.2456169999999999,0.969825,-0.192043,0.184443,1.018225,-0.212493,-0.07867,-0.004268,0.0004479999999999,0.07867,0.0042679999999999,-0.000448,-0.117397,-0.401485,-0.007769,0.1318829999999999,-0.424935,0.0011919999999999,-0.161297,-0.967125,0.0125899999999999,0.1820129999999999,-0.963715,0.0070619999999999,1
199,-0.031363,0.714435,-0.0116385,-0.174846,0.524275,-0.0163215,-0.266226,0.732545,-0.1162774999999999,0.123584,0.559775,-0.0356275,0.194054,0.775425,-0.1352375,-0.246776,0.969625,-0.1900475,0.185444,1.018225,-0.2121875,-0.078706,-0.004268,0.0001995,0.078706,0.0042679999999999,-0.0001995,-0.117496,-0.401485,-0.0073384999999999,0.131234,-0.425885,0.0003464999999999,-0.161236,-0.967125,0.0143915,0.182264,-0.964945,0.0089995,1
200,-0.0308825,0.7155495000000001,-0.0078085,-0.1745445,0.5250995,-0.0141305,-0.2692645,0.7328795,-0.1143225,0.1240955,0.5599595,-0.0329045,0.1976855,0.7714295,-0.1312025,-0.2473545,0.9707395,-0.1882125,0.1874755,1.0171395,-0.2104825,-0.0787925,-0.0041294999999999,6.749999999999812e-05,0.0787925,0.0041295,-6.750000000000159e-05,-0.1173945,-0.4016905,-0.0071345,0.1311755,-0.4274205,-0.0005695,-0.1609345,-0.9667105,0.0160564999999999,0.1826955,-0.9648805,0.0107174999999999,1
201,-0.0305179999999999,0.7171470000000001,-0.0040719999999999,-0.174827,0.525807,-0.0117269999999999,-0.274747,0.7312970000000001,-0.1124759999999999,0.125813,0.558197,-0.028357,0.203793,0.7649870000000001,-0.127596,-0.249627,0.966937,-0.186526,0.189853,1.010237,-0.209016,-0.078829,-0.0039359999999999,4.000000000000531e-06,0.078829,0.0039359999999999,-3.9999999999970615e-06,-0.117227,-0.400093,-0.0072819999999999,0.131123,-0.428693,-0.0013769999999999,-0.160807,-0.965773,0.017471,0.182953,-0.964303,0.012187,1
202,-0.0303299999999999,0.719051,-0.0002239999999999,-0.175526,0.526141,-0.0092219999999999,-0.282726,0.728131,-0.110028,0.127724,0.556551,-0.023825,0.212844,0.755991,-0.124738,-0.2512259999999999,0.969171,-0.186958,0.192184,1.001871,-0.209618,-0.078831,-0.0037549999999999,-2.8999999999997778e-05,0.078831,0.0037549999999999,2.9000000000001247e-05,-0.117536,-0.399109,-0.0075019999999999,0.131114,-0.429409,-0.0014819999999999,-0.160766,-0.964149,0.018492,0.183004,-0.963079,0.013336,1
203,-0.030137,0.7211000000000001,0.0037204999999999,-0.176414,0.526,-0.0066465,-0.294384,0.7184200000000001,-0.1076515,0.130266,0.5549299999999999,-0.0191175,0.224526,0.7448300000000001,-0.1234115,-0.256254,0.95723,-0.1872515,0.195646,0.99093,-0.2125814999999999,-0.078828,-0.0036329999999999,2.3499999999999216e-05,0.078828,0.0036329999999999,-2.3499999999999216e-05,-0.117804,-0.39783,-0.0077454999999999,0.131116,-0.42833,-0.0014815,-0.160774,-0.9619,0.0191815,0.182996,-0.96129,0.0143644999999999,1
204,-0.0298125,0.7235115000000001,0.0075915,-0.1774845,0.5256115,-0.0041665,-0.3081645,0.7056215,-0.1055515,0.1329655,0.5524815000000001,-0.0147455,0.2378154999999999,0.7303915000000001,-0.1221314999999999,-0.2617745,0.9404215,-0.1893715,0.2007255,0.9704215,-0.2163215,-0.0788205,-0.0034135,0.0001805,0.0788205,0.0034135,-0.0001805,-0.1180045,-0.3975985,-0.0082875,0.1311255,-0.4264185,-0.0013764999999999,-0.1607845,-0.9586985,0.0196385,0.1829754999999999,-0.9587885,0.0150705,1
205,-0.029366,0.7262540000000001,0.011337,-0.178719,0.524754,-0.0017919999999999,-0.320959,0.6863140000000001,-0.103808,0.135641,0.549564,-0.010734,0.252711,0.710654,-0.119748,-0.267979,0.916884,-0.193448,0.206591,0.9434240000000002,-0.220618,-0.078824,-0.003262,0.0003839999999999,0.078824,0.003262,-0.0003839999999999,-0.118199,-0.396696,-0.009219,0.131711,-0.424916,-0.0008519999999999,-0.160849,-0.954726,0.019775,0.182851,-0.954976,0.015561,1
206,-0.0289224999999999,0.7298330000000001,0.014837,-0.1801075,0.524143,0.000571,-0.3317275,0.661733,-0.101571,0.1380325,0.545743,-0.0071829999999999,0.2679625,0.6883130000000001,-0.117641,-0.2739475,0.889273,-0.200111,0.2118025,0.909353,-0.225731,-0.0788425,-0.003203,0.00062,0.0788425,0.0032029999999999,-0.0006199999999999,-0.1185175,-0.395107,-0.0098979999999999,0.1325025,-0.419497,-0.0013319999999999,-0.1610474999999999,-0.949767,0.019636,0.1826125,-0.950237,0.015832,0
207,-0.0285635,0.7338295,0.0182945,-0.1817905,0.5232695,0.0027205,-0.3386405,0.6322195,-0.0976565,0.1395995,0.5419995000000001,-0.0046464999999999,0.2825495,0.6597495,-0.1126465,-0.2837105,0.8470895,-0.2050265,0.2171795,0.8654995000000001,-0.2320364999999999,-0.0788745,-0.0032184999999999,0.0007795,0.0788745,0.0032184999999999,-0.0007794999999999,-0.1190005,-0.3930605,-0.0105455,0.1329295,-0.4155505,-0.0018064999999999,-0.1614705,-0.9444005,0.0193635,0.1822795,-0.9449805,0.0159115,0
208,-0.0283135,0.738879,0.0213375,-0.1835545,0.522349,0.0044864999999999,-0.3458144999999999,0.597949,-0.0914325,0.1411754999999999,0.538299,-0.0026225,0.2958955,0.627899,-0.1066625,-0.2944345,0.796189,-0.2107825,0.2234555,0.814719,-0.2347525,-0.0789135,-0.0032729999999999,0.0007845,0.0789135,0.0032729999999999,-0.0007845,-0.1194845,-0.391931,-0.0109505,0.1332555,-0.410671,-0.0022164999999999,-0.1618945,-0.938781,0.0192805,0.1819454999999999,-0.939401,0.0159545,0
209,-0.028119,0.7439555,0.0240455,-0.185323,0.5212755,0.0062205,-0.348143,0.5606655,-0.0825295,0.142837,0.5337155,-0.0007534999999999,0.305707,0.5925655000000001,-0.0988995,-0.299803,0.7355155,-0.2122295,0.229427,0.7613655,-0.2350395,-0.078972,-0.0034724999999999,0.0007875,0.078972,0.0034725,-0.0007875,-0.119983,-0.3906945,-0.0111944999999999,0.1335469999999999,-0.4060745,-0.0025435,-0.162373,-0.9332245,0.0191625,0.1815569999999999,-0.9339345,0.0160715,0
