sb224sc-HT22-VT27/4dt907/src/data/labeled_files/A65_kinect.csv
FrameNo,nose_3d_x,nose_3d_y,nose_3d_z,left_shoulder_3d_x,left_shoulder_3d_y,left_shoulder_3d_z,left_elbow_3d_x,left_elbow_3d_y,left_elbow_3d_z,right_shoulder_3d_x,right_shoulder_3d_y,right_shoulder_3d_z,right_elbow_3d_x,right_elbow_3d_y,right_elbow_3d_z,left_wrist_3d_x,left_wrist_3d_y,left_wrist_3d_z,right_wrist_3d_x,right_wrist_3d_y,right_wrist_3d_z,left_hip_3d_x,left_hip_3d_y,left_hip_3d_z,right_hip_3d_x,right_hip_3d_y,right_hip_3d_z,left_knee_3d_x,left_knee_3d_y,left_knee_3d_z,right_knee_3d_x,right_knee_3d_y,right_knee_3d_z,left_ankle_3d_x,left_ankle_3d_y,left_ankle_3d_z,right_ankle_3d_x,right_ankle_3d_y,right_ankle_3d_z,activity_label
0,-0.037274,0.7337815,0.0853405,-0.1850119999999999,0.5173615,0.0574135,-0.259412,0.7444315,-0.0096795,0.119638,0.5437715,0.0369655,0.181558,0.7866515,-0.0537125,-0.255312,0.9599815,-0.0760975,0.178968,1.0765515,-0.1139575,-0.058938,-0.0035564999999999,-0.0014914999999999,0.058938,0.0035564999999999,0.0014914999999999,-0.124942,-0.3596385,-0.0121744999999999,0.119968,-0.3522185,-0.0078314999999999,-0.196012,-0.8561185,0.0230725,0.175968,-0.8542185,0.0332855,0
1,-0.0371545,0.733846,0.0853174999999999,-0.1848505,0.5175460000000001,0.0574294999999999,-0.2593204999999999,0.7449260000000001,-0.0098234999999999,0.1191795,0.543196,0.0364415,0.1816795,0.786706,-0.0536785,-0.2468205,1.023236,-0.0853675,0.1789295,1.076536,-0.1139975,-0.0589675,-0.003582,-0.0015225,0.0589675,0.003582,0.0015225,-0.1248405,-0.359684,-0.0121765,0.1200295,-0.352184,-0.0078425,-0.1947704999999999,-0.8562639999999999,0.0236345,0.1774095,-0.855864,0.0328435,0
2,-0.0371445,0.733756,0.085319,-0.1847555,0.517466,0.05748,-0.2592055,0.744896,-0.0098529999999999,0.1191945,0.544576,0.036972,0.1816745,0.786536,-0.0535839999999999,-0.2467955,1.022806,-0.085689,0.1788345,1.076406,-0.1140689999999999,-0.0589535,-0.003624,-0.0015339999999999,0.0589535,0.003624,0.001534,-0.1247455,-0.359734,-0.012162,0.1196945,-0.352164,-0.007306,-0.1991355,-0.855924,0.021241,0.1777445,-0.857534,0.03265,0
3,-0.0371345,0.7336269999999999,0.0851,-0.1847295,0.5173369999999999,0.057421,-0.2591595,0.7448469999999999,-0.0101289999999999,0.1189805,0.543917,0.0366,0.1816205,0.786387,-0.0535929999999999,-0.2504095,0.989977,-0.0817219999999999,0.1785705,1.076067,-0.114832,-0.0589795,-0.003604,-0.0016849999999999,0.0589795,0.003604,0.0016849999999999,-0.1246694999999999,-0.3597329999999999,-0.012187,0.1203305,-0.352153,-0.0082069999999999,-0.1967595,-0.8564430000000001,0.0192509999999999,0.1779805,-0.8561230000000001,0.031691,0
4,-0.0372379999999999,0.7334594999999999,0.0848635,-0.184694,0.5173095,0.0574475,-0.2589639999999999,0.7445995,-0.0100115,0.119276,0.5455694999999999,0.0370994999999999,0.181466,0.7866694999999999,-0.0538535,-0.2507939999999999,0.9886595,-0.0811655,0.178366,1.0762995,-0.1151055,-0.059,-0.0036105,-0.0016905,0.059,0.0036105,0.0016904999999999,-0.124654,-0.3597404999999999,-0.0121845,0.120006,-0.3522105,-0.0081305,-0.196284,-0.8563605000000001,0.0208714999999999,0.178736,-0.8582705,0.0318795,0
5,-0.0372635,0.7335054999999999,0.084619,-0.1846275,0.5172955,0.057438,-0.2589975,0.7447954999999999,-0.010264,0.1192125,0.5463055,0.037258,0.1814425,0.7868955,-0.053916,-0.2482074999999999,1.0102455,-0.085156,0.1780625,1.0765455000000002,-0.115506,-0.0589765,-0.0036214999999999,-0.0016919999999999,0.0589765,0.0036214999999999,0.0016919999999999,-0.1246674999999999,-0.3597444999999999,-0.012199,0.1198825,-0.3522245,-0.008194,-0.1929074999999999,-0.8569945,0.019271,0.1792925,-0.8593345,0.031504,0
6,-0.037209,0.7334194999999999,0.0845559999999999,-0.184521,0.5171195,0.057683,-0.258941,0.7446495,-0.010121,0.119249,0.5466994999999999,0.037558,0.181339,0.7867795,-0.053807,-0.250551,0.9906895,-0.081939,0.177889,1.0763595,-0.115669,-0.058978,-0.0036145,-0.001816,0.058978,0.0036145,0.0018159999999999,-0.124501,-0.3597805,-0.012319,0.1197189999999999,-0.3522605,-0.008026,-0.193711,-0.8569105,0.0189769999999999,0.1790489999999999,-0.8573805000000001,0.030577,0
7,-0.0374575,0.7333660000000001,0.083337,-0.1846875,0.517096,0.0570549999999999,-0.2592575,0.7442660000000001,-0.0111399999999999,0.1189925,0.545686,0.036747,0.1808125,0.7871560000000001,-0.055162,-0.2492174999999999,1.005896,-0.086641,0.1771425,1.076596,-0.117381,-0.0590305,-0.003616,-0.0019469999999999,0.0590305,0.003616,0.0019469999999999,-0.1241174999999999,-0.359844,-0.011469,0.1202125,-0.352204,-0.0071029999999999,-0.1947674999999999,-0.856594,0.021959,0.1775125,-0.853394,0.033892,0
8,-0.037492,0.7332535,0.0829385,-0.184634,0.5170135,0.0570135,-0.259244,0.7441035,-0.0113424999999999,0.1188859999999999,0.5456635,0.0366625,0.180646,0.7872135,-0.0554095,-0.2491639999999999,1.0047835,-0.0870214999999999,0.176776,1.0766835,-0.1179015,-0.0590689999999999,-0.0036025,-0.0020784999999999,0.0590689999999999,0.0036025,0.0020785,-0.123944,-0.3598565,-0.0112204999999999,0.120296,-0.3522165,-0.0068134999999999,-0.194744,-0.8566265000000001,0.0222875,0.177646,-0.8528365,0.0342115,1
9,-0.037524,0.733156,0.082536,-0.184596,0.5169360000000001,0.0569719999999999,-0.259246,0.7439260000000001,-0.0116,0.118774,0.5456460000000001,0.036576,0.1804639999999999,0.7872560000000001,-0.055656,-0.249516,0.999876,-0.086831,0.176424,1.076676,-0.118371,-0.059101,-0.0035859999999999,-0.002216,0.059101,0.003586,0.0022159999999999,-0.123776,-0.359864,-0.010975,0.120364,-0.352224,-0.006511,-0.194716,-0.856634,0.0225739999999999,0.177894,-0.852814,0.0346529999999999,1
10,-0.037561,0.7330455,0.0821295,-0.184556,0.5168655000000001,0.0569145,-0.259246,0.7437455000000001,-0.0118375,0.118644,0.5454955,0.0364245,0.180274,0.7872855000000001,-0.0558995,-0.250156,0.9941655,-0.0865465,0.1761039999999999,1.0765654999999998,-0.1188164999999999,-0.059142,-0.0035715,-0.0023574999999999,0.059142,0.0035715,0.0023574999999999,-0.123606,-0.3598745,-0.0107454999999999,0.120504,-0.3522245,-0.0062964999999999,-0.194596,-0.8566045,0.0231375,0.1781539999999999,-0.8539545,0.0348095,1
11,-0.0375864999999999,0.7329355,0.0817075,-0.1845075,0.5168255,0.0568245,-0.2592575,0.7435955,-0.0121334999999999,0.1185125,0.5454255,0.0362865,0.1800925,0.7873455,-0.0561755,-0.2506974999999999,0.9910355,-0.0863345,0.1757925,1.0766755,-0.1192444999999999,-0.0591815,-0.0035565,-0.0024785,0.0591815,0.0035564999999999,0.0024785,-0.1234475,-0.3598745,-0.0105444999999999,0.1206025,-0.3522245,-0.0060315,-0.1945275,-0.8565245,0.0237334999999999,0.1782125,-0.8548645,0.0350255,1
12,-0.037633,0.7327994999999999,0.0812635,-0.184482,0.5167795,0.0567045,-0.259292,0.7434495,-0.0124765,0.118368,0.5453494999999999,0.0360825,0.179928,0.7873294999999999,-0.0563935,-0.251022,0.9890095,-0.0865845,0.175498,1.0765695,-0.1196344999999999,-0.059209,-0.0035405,-0.0025874999999999,0.059209,0.0035405,0.0025874999999999,-0.1232919999999999,-0.3598805,-0.0103525,0.120698,-0.3522205,-0.0057854999999999,-0.194152,-0.8564805000000001,0.0244105,0.178108,-0.8547105,0.0352335,1
13,-0.0375925,0.732669,0.08111,-0.1844174999999999,0.516759,0.056792,-0.2592575,0.743399,-0.0125679999999999,0.1182925,0.545479,0.036063,0.1798525,0.787249,-0.0562749999999999,-0.2510075,0.990379,-0.087084,0.1753725,1.076519,-0.1195639999999999,-0.0592325,-0.0035119999999999,-0.0026969999999999,0.0592325,0.0035119999999999,0.002697,-0.1232175,-0.359861,-0.0101869999999999,0.1208125,-0.352231,-0.0055279999999999,-0.1940375,-0.856441,0.02527,0.1777725,-0.852631,0.035818,1
14,-0.037559,0.73255,0.0810045,-0.18436,0.51672,0.0568645,-0.25922,0.74336,-0.0126825,0.1181899999999999,0.54551,0.0360335,0.17975,0.7871900000000001,-0.0561745,-0.2507,0.99438,-0.0876205,0.17525,1.07648,-0.1194605,-0.059251,-0.003487,-0.0028035,0.059251,0.003487,0.0028035,-0.12314,-0.35984,-0.0099915,0.1209099999999999,-0.35224,-0.0052724999999999,-0.19393,-0.85642,0.0261045,0.17745,-0.8508,0.0364825,1
15,-0.0375599999999999,0.732485,0.0807799999999999,-0.1843419999999999,0.516735,0.056871,-0.259222,0.743375,-0.012873,0.118068,0.545655,0.035954,0.179628,0.787185,-0.056142,-0.251152,0.992085,-0.088007,0.175118,1.076485,-0.119387,-0.059245,-0.0034609999999999,-0.002923,0.059245,0.003461,0.002923,-0.1231019999999999,-0.359815,-0.0098779999999999,0.1209379999999999,-0.352255,-0.005038,-0.193602,-0.8563649999999999,0.026511,0.177118,-0.8494649999999999,0.037188,1
16,-0.0375635,0.7324615,0.0804624999999999,-0.1843225,0.5167815,0.0567765,-0.2592125,0.7434415,-0.0131475,0.1179575,0.5456115,0.0357845,0.1794974999999999,0.7872115000000001,-0.0562085,-0.2510525,0.9921315,-0.0881204999999999,0.1750074999999999,1.0764315,-0.1194204999999999,-0.0592354999999999,-0.0034495,-0.0029775,0.0592354999999999,0.0034494999999999,0.0029775,-0.1230625,-0.3598085,-0.0099244999999999,0.1209575,-0.3522585,-0.0049804999999999,-0.1932825,-0.8563585,0.0266895,0.1766974999999999,-0.8480885,0.0379075,1
17,-0.03756,0.7324615,0.0801585,-0.184296,0.5167815,0.0566975,-0.259206,0.7434315,-0.0133935,0.117924,0.5453715,0.0357275,0.179384,0.7872115000000001,-0.0562164999999999,-0.250916,0.9918315,-0.0885495,0.174954,1.0764315,-0.1194095,-0.059229,-0.0034495,-0.0030395,0.059229,0.0034494999999999,0.0030395,-0.123026,-0.3598085,-0.0099735,0.120974,-0.3522585,-0.0048995,-0.192916,-0.8563585,0.0267405,0.176304,-0.8476485,0.0376905,1
18,-0.0375445,0.7324515,0.0798405,-0.1842745,0.5167815,0.0565965,-0.2592045,0.7434115,-0.0136484999999999,0.1179355,0.5452215,0.0357295,0.1792955,0.7872115000000001,-0.0562385,-0.2509544999999999,0.9894315,-0.0888725,0.1749154999999999,1.0764315,-0.1194425,-0.0592184999999999,-0.0034495,-0.0030894999999999,0.0592184999999999,0.0034494999999999,0.0030895,-0.1230045,-0.3598085,-0.0100394999999999,0.1210355,-0.3522585,-0.0048364999999999,-0.1927045,-0.8563585,0.0269215,0.1766055,-0.8488785,0.0376775,1
19,-0.0375485,0.73244,0.0795275,-0.1842855,0.51679,0.0565004999999999,-0.2592255,0.74342,-0.0139065,0.1179145,0.5451199999999999,0.0357344999999999,0.1792145,0.78722,-0.0562995,-0.2504455,0.99074,-0.0897115,0.1748645,1.07644,-0.1194715,-0.0591845,-0.0034519999999999,-0.0031385,0.0591845,0.003452,0.0031384999999999,-0.1230054999999999,-0.3598,-0.0101055,0.1210845,-0.35225,-0.0047535,-0.1922955,-0.8563500000000001,0.0269914999999999,0.1768845,-0.85012,0.0373764999999999,1
20,-0.037557,0.7325345,0.0792005,-0.184299,0.5168944999999999,0.0563995,-0.2592489999999999,0.7435345,-0.0141364999999999,0.117891,0.5453445,0.0356975,0.179141,0.7873445,-0.0563555,-0.249779,0.9938345,-0.0911034999999999,0.174841,1.0766345000000002,-0.1195135,-0.059155,-0.0034474999999999,-0.0031744999999999,0.059155,0.0034475,0.0031745,-0.123039,-0.3597855,-0.0101585,0.121111,-0.3522055,-0.0046775,-0.192459,-0.8563155,0.0270495,0.177191,-0.8517855000000001,0.0369245,1
21,-0.0375584999999999,0.7326729999999999,0.0788649999999999,-0.1843195,0.5169929999999999,0.05626,-0.2592495,0.7436029999999999,-0.014364,0.1179005,0.5456629999999999,0.0356019999999999,0.1791105,0.7875129999999999,-0.056464,-0.2497494999999999,0.992733,-0.0917409999999999,0.1748005,1.0768330000000002,-0.119621,-0.0591244999999999,-0.003438,-0.0031769999999999,0.0591244999999999,0.003438,0.0031769999999999,-0.1230695,-0.3596769999999999,-0.010156,0.1211105,-0.352167,-0.004579,-0.1927994999999999,-0.856307,0.027316,0.1779705,-0.8548570000000001,0.035799,1
22,-0.03752,0.7328165000000001,0.0784775,-0.184328,0.5170865,0.0561475,-0.259228,0.7436765000000001,-0.0145334999999999,0.117922,0.5459265000000001,0.0355335,0.1790719999999999,0.7877665,-0.0565624999999999,-0.250048,0.9902965,-0.0923495,0.174762,1.0770465,-0.1197495,-0.0590959999999999,-0.0034265,-0.0031795,0.0590959999999999,0.0034264999999999,0.0031795,-0.123098,-0.3596035,-0.0101545,0.121102,-0.3521335,-0.0046264999999999,-0.192648,-0.8563335,0.0270445,0.178812,-0.8587235,0.0345985,1
23,-0.03747,0.732909,0.0779215,-0.184348,0.5171789999999999,0.0560165,-0.259188,0.743719,-0.0147815,0.117922,0.546239,0.0354664999999999,0.179022,0.787979,-0.0567655,-0.249288,0.994959,-0.0936775,0.1747419999999999,1.0772590000000002,-0.1198975,-0.0590659999999999,-0.0034229999999999,-0.0031815,0.0590659999999999,0.003423,0.0031814999999999,-0.123128,-0.359581,-0.0101525,0.121072,-0.352121,-0.0046845,-0.192428,-0.856401,0.0267344999999999,0.178982,-0.860411,0.0332894999999999,1
24,-0.037388,0.7330295,0.077345,-0.1843369999999999,0.5172694999999999,0.055816,-0.259107,0.7437794999999999,-0.0151489999999999,0.117893,0.5464295,0.035331,0.179003,0.7882294999999999,-0.0571139999999999,-0.248447,0.9997995,-0.094896,0.174773,1.0775995,-0.120156,-0.059059,-0.0034105,-0.003171,0.059059,0.0034105,0.003171,-0.1231669999999999,-0.3595605,-0.0099879999999999,0.121063,-0.3521304999999999,-0.0048409999999999,-0.192637,-0.8564305,0.026681,0.178883,-0.8614405,0.031759,1
25,-0.0373055,0.733109,0.076567,-0.1843435,0.517349,0.055496,-0.2590134999999999,0.743779,-0.0156509999999999,0.1178765,0.546669,0.03508,0.1790365,0.788289,-0.0576529999999999,-0.2481435,1.000049,-0.0961399999999999,0.1748365,1.077649,-0.1205899999999999,-0.0590535,-0.003402,-0.0031829999999999,0.0590535,0.003402,0.0031829999999999,-0.1233335,-0.359531,-0.0098969999999999,0.1209765,-0.352171,-0.005155,-0.1926335,-0.856471,0.026735,0.1782865,-0.858881,0.030576,1
26,-0.0372385,0.7331835,0.075334,-0.1843615,0.5174235,0.054753,-0.2589215,0.7437435,-0.0166039999999999,0.1178185,0.5467035,0.034419,0.1790784999999999,0.7885935,-0.0586769999999999,-0.2478115,1.0028135,-0.098241,0.1749085,1.0777135,-0.121471,-0.0590384999999999,-0.0033944999999999,-0.0030129999999999,0.0590384999999999,0.0033945,0.003013,-0.1235515,-0.3595065,-0.0103419999999999,0.1207485,-0.3522565,-0.0062749999999999,-0.1938215,-0.8647265000000001,0.026826,0.1782985,-0.8577665,0.029012,1
27,-0.0371615,0.7332305,0.0732505,-0.1843275,0.5176204999999999,0.0534115,-0.2587275,0.7437104999999999,-0.0182654999999999,0.1177725,0.5467704999999999,0.0329085,0.1792325,0.7890205,-0.0603494999999999,-0.2475375,1.0047105,-0.1008625,0.1750625,1.0778105,-0.1230024999999999,-0.0590234999999999,-0.0034335,-0.0028655,0.0590234999999999,0.0034335,0.0028655,-0.1237775,-0.3596094999999999,-0.0113465,0.1202325,-0.3524795,-0.0100615,-0.1956375,-0.8732595000000001,0.0260755,0.1798325,-0.8620995,0.0257545,1
28,-0.036995,0.7329975,0.069716,-0.1841819999999999,0.5180375,0.050835,-0.258412,0.7435875000000001,-0.021561,0.117878,0.5465675,0.029788,0.180038,0.7894775,-0.06402,-0.247502,1.0042075,-0.1045,0.175668,1.0719075,-0.12683,-0.059028,-0.0034915,-0.002257,0.059028,0.0034915,0.0022569999999999,-0.1244019999999999,-0.3596824999999999,-0.013614,0.119768,-0.3526225,-0.01527,-0.197442,-0.8815025,0.0241049999999999,0.182088,-0.8711924999999999,0.0204979999999999,1
29,-0.036848,0.7321715,0.0653084999999999,-0.184001,0.5186015,0.0476365,-0.258231,0.7434315,-0.0257895,0.118059,0.5462015,0.0259945,0.181169,0.7899115,-0.0694735,-0.247231,1.0032015,-0.1097944999999999,0.175899,1.0658015,-0.1319545,-0.0590119999999999,-0.0034955,-0.0015794999999999,0.0590119999999999,0.0034955,0.0015795,-0.125161,-0.3597585,-0.0164855,0.119189,-0.3527885,-0.0215495,-0.199241,-0.8895385,0.0215165,0.184359,-0.8803385,0.0150795,1
30,-0.0367939999999999,0.731064,0.0600535,-0.1838479999999999,0.5193340000000001,0.0437395,-0.258168,0.7430340000000001,-0.0309744999999999,0.118232,0.545864,0.0213785,0.182412,0.788514,-0.0757255,-0.246588,1.004524,-0.1160254999999999,0.175902,1.058924,-0.1377355,-0.058998,-0.003496,-0.0007224999999999,0.058998,0.0034959999999999,0.0007225,-0.126048,-0.359776,-0.0200505,0.118382,-0.352956,-0.0292465,-0.2007479999999999,-0.897446,0.0179545,0.186142,-0.889076,0.0100765,1
31,-0.03676,0.7298180000000001,0.054007,-0.183714,0.5201880000000001,0.039076,-0.258154,0.7422880000000001,-0.037224,0.1185259999999999,0.544678,0.015101,0.183746,0.785398,-0.082709,-0.246094,1.003368,-0.1228389999999999,0.175926,1.052668,-0.143999,-0.059009,-0.003536,0.000291,0.059009,0.003536,-0.0002909999999999,-0.127144,-0.359702,-0.024076,0.117556,-0.353042,-0.037368,-0.202404,-0.904792,0.013782,0.187886,-0.8969419999999999,0.004473,1
32,-0.036748,0.72833,0.0473195,-0.1835909999999999,0.52139,0.0339735,-0.258171,0.74121,-0.0444125,0.118789,0.544,0.0082395,0.185079,0.78279,-0.0902055,-0.2455009999999999,1.0032,-0.1306554999999999,0.175909,1.0468,-0.1510155,-0.059037,-0.00356,0.0012655,0.059037,0.00356,-0.0012654999999999,-0.1284509999999999,-0.35953,-0.0286125,0.116799,-0.35306,-0.0461455,-0.203731,-0.91182,0.0092625,0.189569,-0.9045,-0.0015184999999999,1
33,-0.036706,0.7267605,0.039644,-0.183438,0.5224905,0.0279,-0.258168,0.7401105,-0.052563,0.119172,0.5431805,0.0003759999999999,0.186502,0.7805305,-0.098207,-0.245548,1.0047005,-0.1396669999999999,0.175732,1.0414005,-0.158857,-0.0591089999999999,-0.0034415,0.002023,0.0591089999999999,0.0034415,-0.002023,-0.130008,-0.3591094999999999,-0.033838,0.116362,-0.3530695,-0.055329,-0.204928,-0.9182195,0.004075,0.191262,-0.9105795,-0.008184,1
34,-0.0367975,0.7243855,0.031316,-0.1832845,0.5235655,0.021529,-0.2584445,0.7386855,-0.061544,0.1194455,0.5425355000000001,-0.0077209999999999,0.1879355,0.7780055,-0.1068979999999999,-0.2458645,1.0040355,-0.149278,0.1751355,1.0359355,-0.167168,-0.0591875,-0.0033464999999999,0.00288,0.0591875,0.0033465,-0.0028799999999999,-0.1317245,-0.3586245,-0.0394319999999999,0.1160955,-0.3529945,-0.064527,-0.2060844999999999,-0.9243645,-0.001205,0.1912955,-0.9090145,-0.014925,1
35,-0.0368064999999999,0.7216295,0.02259,-0.1829625,0.5247495,0.015146,-0.2588525,0.7371895,-0.071015,0.1195875,0.5419395,-0.015953,0.1893574999999999,0.7752395,-0.1159569999999999,-0.2458324999999999,1.0059395,-0.158707,0.1742175,1.0315995,-0.175507,-0.0592915,-0.0032455,0.003595,0.0592915,0.0032454999999999,-0.003595,-0.1334325,-0.3580405,-0.045199,0.1162575,-0.3527504999999999,-0.0735209999999999,-0.2058225,-0.9210105,-0.0066089999999999,0.1918175,-0.9101105,-0.0221159999999999,1
36,-0.0369275,0.7186319999999999,0.0140694999999999,-0.1832285,0.522282,0.0074015,-0.2598085,0.734762,-0.0809945,0.1197015,0.541782,-0.0237225,0.1908315,0.772162,-0.1254095,-0.2461285,0.997242,-0.1679695,0.1728114999999999,1.027632,-0.1837895,-0.0594544999999999,-0.0031909999999999,0.0044364999999999,0.0594544999999999,0.0031909999999999,-0.0044365,-0.1353685,-0.357348,-0.0510785,0.1165715,-0.352198,-0.0802104999999999,-0.2053785,-0.916648,-0.0125935,0.1932614999999999,-0.912398,-0.0282775,1
37,-0.03728,0.7151455,0.0060915,-0.183632,0.5198355,0.0005265,-0.261162,0.7320055,-0.0904005,0.119748,0.5417855,-0.0303535,0.191638,0.7682855,-0.1340395,-0.2459319999999999,0.9895655,-0.1763795,0.1708879999999999,1.0291555,-0.1904195,-0.059629,-0.0030965,0.0048555,0.059629,0.0030964999999999,-0.0048555,-0.137102,-0.3565645,-0.0562014999999999,0.116808,-0.3516645,-0.0857955,-0.205062,-0.9120245,-0.0170485,0.193528,-0.9089545,-0.0335735,1
38,-0.0374285,0.7127315000000001,-0.0023985,-0.1839595,0.5183715,-0.0070485,-0.2626294999999999,0.7307915,-0.1004225,0.1195305,0.5358715000000001,-0.0400175,0.1919505,0.7649515,-0.1421195,-0.2455495,0.9818415,-0.1841195,0.1689604999999999,1.0328215,-0.1965095,-0.0599465,-0.0030304999999999,0.0052824999999999,0.0599465,0.0030305,-0.0052825,-0.1390095,-0.3556085,-0.0615305,0.1175905,-0.3508885,-0.0910645,-0.2045095,-0.9054585,-0.0217605,0.1958705,-0.9105385,-0.0391645,1
39,-0.037578,0.7104685000000001,-0.0108399999999999,-0.184319,0.5161985,-0.014848,-0.264159,0.7301185,-0.110592,0.119251,0.5308085,-0.049179,0.192221,0.7642185,-0.150576,-0.245039,0.9742185,-0.191906,0.166651,1.0376185,-0.202586,-0.060297,-0.0029255,0.005488,0.060297,0.0029255,-0.005488,-0.141189,-0.3544914999999999,-0.066623,0.119071,-0.3500014999999999,-0.095448,-0.203789,-0.8977315,-0.026652,0.196651,-0.9030415,-0.044184,1
40,-0.0376905,0.707992,-0.0194135,-0.1846374999999999,0.513712,-0.0224925,-0.2656975,0.7297819999999999,-0.1209565,0.1191925,0.527442,-0.0568805,0.1924625,0.765602,-0.1592665,-0.2441375,0.969102,-0.2002865,0.1636025,1.044272,-0.2089265,-0.0606335,-0.0027939999999999,0.0055655,0.0606335,0.0027939999999999,-0.0055654999999999,-0.1435874999999999,-0.3532079999999999,-0.0715135,0.1208424999999999,-0.348998,-0.0997965,-0.2030374999999999,-0.889348,-0.0311065,0.1972625,-0.8950480000000001,-0.0485795,1
41,-0.037717,0.705669,-0.0278484999999999,-0.184822,0.510869,-0.0302785,-0.266982,0.727719,-0.1307025,0.1192179999999999,0.5232289999999999,-0.0648265,0.193168,0.766759,-0.1680925,-0.243722,0.962399,-0.2084425,0.161668,1.0487289999999998,-0.2150625,-0.061021,-0.0026769999999999,0.0057614999999999,0.061021,0.0026769999999999,-0.0057614999999999,-0.146332,-0.351711,-0.0765245,0.1230879999999999,-0.347761,-0.1044775,-0.202182,-0.879651,-0.0352375,0.197938,-0.886111,-0.0526075,1
42,-0.0375205,0.703595,-0.03573,-0.1847775,0.5087050000000001,-0.037358,-0.2681375,0.726725,-0.13974,0.1193425,0.5182450000000001,-0.072469,0.1937625,0.767005,-0.17644,-0.2432975,0.956025,-0.21624,0.1600925,1.052105,-0.22083,-0.0614085,-0.002506,0.0060629999999999,0.0614085,0.002506,-0.006063,-0.1493575,-0.349985,-0.08131,0.1260925,-0.346135,-0.109184,-0.2013175,-0.869345,-0.038505,0.1988325,-0.875815,-0.055943,1
43,-0.0374754999999999,0.7013064999999999,-0.0431615,-0.1848354999999999,0.5066665,-0.0440615,-0.2692155,0.7234565,-0.1482135,0.1190945,0.5134565,-0.0797365,0.1939745,0.7676465,-0.1845435,-0.2434255,0.9503665,-0.2237835,0.1585345,1.0556665,-0.2261834999999999,-0.0617785,-0.0023954999999999,0.0063145,0.0617785,0.0023954999999999,-0.0063145,-0.1527555,-0.3481435,-0.0862855,0.1289145,-0.3443235,-0.1139554999999999,-0.2006755,-0.8582835,-0.0411505,0.1993345,-0.8648535,-0.0588065,1
44,-0.037684,0.69945,-0.050157,-0.185074,0.50502,-0.050405,-0.270274,0.72091,-0.156015,0.118706,0.50927,-0.086412,0.194566,0.76163,-0.192295,-0.243614,0.9447,-0.231535,0.157156,1.05147,-0.231205,-0.0620519999999999,-0.002263,0.0065549999999999,0.0620519999999999,0.002263,-0.006555,-0.156434,-0.34603,-0.091382,0.131546,-0.3424,-0.1189139999999999,-0.200314,-0.84703,-0.043178,0.199706,-0.85375,-0.060756,1
45,-0.0378655,0.6973355,-0.0566705,-0.1851665,0.5053455,-0.0556055,-0.2707765,0.7197155,-0.1633525,0.1183734999999999,0.5031955,-0.0931135,0.1952035,0.7571555,-0.1988825,-0.2439065,0.9485555,-0.2396424999999999,0.1563335,1.0479855,-0.2359824999999999,-0.0623275,-0.0020575,0.0066514999999999,0.0623275,0.0020574999999999,-0.0066515,-0.1601565,-0.3435645,-0.0965925,0.1341035,-0.3404445,-0.1242085,-0.1999265,-0.8343245,-0.0443985,0.2001635,-0.8422945000000001,-0.0626665,1
46,-0.03822,0.6957300000000001,-0.0637625,-0.185563,0.50547,-0.0615345,-0.271333,0.7184400000000001,-0.1714564999999999,0.117867,0.4979099999999999,-0.1005605,0.195627,0.7536700000000001,-0.2058664999999999,-0.244603,0.95096,-0.2497164999999999,0.155687,1.04461,-0.2416164999999999,-0.062352,-0.0020199999999999,0.0066275,0.062352,0.00202,-0.0066274999999999,-0.164283,-0.34092,-0.1031735,0.1364469999999999,-0.3380999999999999,-0.1309934999999999,-0.199873,-0.82111,-0.0460995,0.200337,-0.8297599999999999,-0.0650515,1
47,-0.0385285,0.69281,-0.070518,-0.1859865,0.50488,-0.066755,-0.2719465,0.7152900000000001,-0.179348,0.1175134999999999,0.4988599999999999,-0.10488,0.1954335,0.7490300000000001,-0.212678,-0.2453864999999999,0.95298,-0.2600179999999999,0.1552035,1.03999,-0.247668,-0.0624105,-0.0020099999999999,0.0065419999999999,0.0624105,0.0020099999999999,-0.0065419999999999,-0.1680164999999999,-0.33327,-0.109649,0.1386135,-0.32978,-0.138048,-0.1998165,-0.8079299999999999,-0.047321,0.2001535,-0.81704,-0.0669599999999999,1
48,-0.038785,0.69035,-0.0772735,-0.1858679999999999,0.50426,-0.0721595,-0.272628,0.7120200000000001,-0.1873245,0.117042,0.49861,-0.1097875,0.195222,0.74411,-0.2194045,-0.244868,0.95475,-0.2713345,0.1546719999999999,1.03515,-0.2536145,-0.062531,-0.0019299999999999,0.0064444999999999,0.062531,0.00193,-0.0064445,-0.171538,-0.3239999999999999,-0.1165345,0.140672,-0.31981,-0.1455045,-0.200008,-0.7941099999999999,-0.0490845,0.199902,-0.8034999999999999,-0.0688915,1
49,-0.038806,0.687745,-0.0850005,-0.185753,0.504035,-0.0793405,-0.273433,0.709425,-0.1969024999999999,0.116447,0.497925,-0.1169765,0.194877,0.739485,-0.2280225,-0.244793,0.957035,-0.2847025,0.153937,1.030635,-0.2614225,-0.062724,-0.001985,0.0062605,0.062724,0.0019849999999999,-0.0062604999999999,-0.174863,-0.313115,-0.1253165,0.142297,-0.309075,-0.1547724999999999,-0.200283,-0.7795749999999999,-0.0528395,0.199447,-0.7892950000000001,-0.0726715,1
50,-0.039131,0.6840999999999999,-0.0930719999999999,-0.185525,0.50349,-0.087679,-0.274775,0.71198,-0.207341,0.115875,0.50036,-0.124122,0.193905,0.73541,-0.2368309999999999,-0.245805,0.96251,-0.298361,0.153325,1.02631,-0.273871,-0.0627389999999999,-0.00209,0.0061319999999999,0.0627389999999999,0.00209,-0.0061319999999999,-0.1788249999999999,-0.29788,-0.136809,0.143005,-0.29298,-0.166771,-0.201335,-0.76032,-0.056704,0.197665,-0.77009,-0.076296,1
51,-0.0393485,0.68031,-0.100593,-0.1853745,0.5023799999999999,-0.0956569999999999,-0.2763245,0.7126,-0.2180639999999999,0.1152455,0.50274,-0.130755,0.1927655,0.7314499999999999,-0.245684,-0.2469445,0.96213,-0.312224,0.1526755,1.02211,-0.285944,-0.0626305,-0.0022999999999999,0.006123,0.0626305,0.0022999999999999,-0.0061229999999999,-0.1821345,-0.28303,-0.1478539999999999,0.1431855,-0.27834,-0.1780939999999999,-0.2025445,-0.74111,-0.0604979999999999,0.1957155,-0.7524200000000001,-0.079425,1
52,-0.0398624999999999,0.67804,-0.1090155,-0.1851055,0.49943,-0.1047095,-0.2783155,0.7151099999999999,-0.2297365,0.1141145,0.5025,-0.1388135,0.1914345,0.7270399999999999,-0.2547165,-0.2484954999999999,0.95878,-0.3258865,0.1520045,1.01742,-0.2986865,-0.0622445,-0.00274,0.0059654999999999,0.0622445,0.0027399999999999,-0.0059654999999999,-0.1853555,-0.26871,-0.1587164999999999,0.1429645,-0.26465,-0.1899165,-0.2040355,-0.7213,-0.0645825,0.1933745,-0.73457,-0.0826065,1
53,-0.0400419999999999,0.673575,-0.116988,-0.1848969999999999,0.496755,-0.113999,-0.280007,0.714555,-0.241425,0.112943,0.502115,-0.147225,0.189813,0.728605,-0.264115,-0.250057,0.956025,-0.339055,0.150663,1.018715,-0.311915,-0.061795,-0.003275,0.0057929999999999,0.061795,0.003275,-0.0057929999999999,-0.1883369999999999,-0.254335,-0.169855,0.142603,-0.250865,-0.201435,-0.205597,-0.701055,-0.068864,0.190983,-0.716875,-0.085662,1
54,-0.0402575,0.6706,-0.125492,-0.1847514999999999,0.49456,-0.122466,-0.2815915,0.71242,-0.25235,0.1118585,0.5027,-0.1552899999999999,0.1882585,0.72886,-0.27404,-0.2513515,0.95192,-0.35176,0.1492485,1.01871,-0.32529,-0.0613125,-0.0037099999999999,0.005823,0.0613125,0.0037099999999999,-0.005823,-0.1909315,-0.24099,-0.18078,0.1421685,-0.23831,-0.2127399999999999,-0.2070215,-0.68235,-0.072801,0.1885285,-0.6999000000000001,-0.088137,1
55,-0.0409675,0.6691100000000001,-0.137309,-0.1852805,0.49319,-0.133879,-0.2837705,0.71206,-0.265694,0.1102694999999999,0.50378,-0.166144,0.1859795,0.72749,-0.287024,-0.2532204999999999,0.95028,-0.367284,0.1470695,1.0172,-0.341264,-0.0609655,-0.0036299999999999,0.005801,0.0609655,0.00363,-0.005801,-0.1939405,-0.2263099999999999,-0.194474,0.1409095,-0.2251499999999999,-0.226054,-0.2090705,-0.66213,-0.0793109999999999,0.1854994999999999,-0.68147,-0.093009,1
56,-0.0417419999999999,0.6679949999999999,-0.149424,-0.1858399999999999,0.4916549999999999,-0.14499,-0.28583,0.7102849999999999,-0.279051,0.1086,0.5047649999999999,-0.176651,0.18352,0.7257049999999999,-0.299851,-0.25492,0.946885,-0.382671,0.14485,1.015175,-0.357461,-0.060619,-0.003555,0.0057359999999999,0.060619,0.0035549999999999,-0.0057359999999999,-0.19688,-0.211815,-0.208191,0.13948,-0.212205,-0.239241,-0.21114,-0.643085,-0.0859019999999999,0.182,-0.664065,-0.098257,1
57,-0.042396,0.66735,-0.1615455,-0.186273,0.49078,-0.1553285,-0.2877829999999999,0.7076899999999999,-0.2918505,0.106927,0.50684,-0.1862504999999999,0.1811769999999999,0.72296,-0.3124905,-0.2563829999999999,0.9432,-0.3976605,0.142677,1.01216,-0.3737705,-0.0601,-0.0036899999999999,0.0057605,0.0601,0.00369,-0.0057605,-0.199763,-0.19733,-0.2213705,0.137767,-0.1989099999999999,-0.2532505,-0.213113,-0.62428,-0.0918075,0.178317,-0.64687,-0.1031955,1
58,-0.042616,0.66767,-0.1717955,-0.185901,0.48782,-0.1646145,-0.289061,0.70486,-0.3021055,0.106189,0.50534,-0.1948955,0.179359,0.72061,-0.3229855,-0.257171,0.93755,-0.4105955,0.141199,1.00954,-0.3879855,-0.059631,-0.00384,0.0059175,0.059631,0.00384,-0.0059174999999999,-0.202061,-0.1814799999999999,-0.2325055,0.136469,-0.18427,-0.2646455,-0.214541,-0.60574,-0.0951244999999999,0.175259,-0.62948,-0.1058184999999999,1
59,-0.042771,0.6681250000000001,-0.1813855,-0.185546,0.485005,-0.1721055,-0.289766,0.698435,-0.3117355,0.106034,0.501735,-0.2025555,0.178044,0.716065,-0.3334355,-0.257266,0.927925,-0.4225255,0.140084,1.005105,-0.3975855,-0.0592339999999999,-0.0041549999999999,0.0060334999999999,0.0592339999999999,0.004155,-0.0060334999999999,-0.203696,-0.1706949999999999,-0.2402655,0.135274,-0.173815,-0.2724155,-0.215526,-0.592515,-0.0977234999999999,0.173014,-0.617505,-0.1079325,1
60,-0.0428724999999999,0.669105,-0.1913415,-0.1848495,0.482765,-0.1798015,-0.2901694999999999,0.6933849999999999,-0.3217215,0.1060705,0.4986849999999999,-0.2105715,0.1769905,0.712795,-0.3440715,-0.2567395,0.924965,-0.4341815,0.1393505,1.0018349999999998,-0.4079015,-0.0589455,-0.004115,0.0061414999999999,0.0589455,0.0041149999999999,-0.0061415,-0.2050695,-0.158605,-0.2487015,0.1343505,-0.161685,-0.2806015,-0.2162395,-0.578675,-0.1003175,0.1711505,-0.603905,-0.1097185,1
61,-0.0424835,0.66906,-0.2002815,-0.1840535,0.4817099999999999,-0.1864115,-0.2900935,0.68919,-0.3309615,0.1068565,0.49666,-0.2173815,0.1764165,0.70933,-0.3543914999999999,-0.2550935,0.92547,-0.4462414999999999,0.1392364999999999,0.99852,-0.4173314999999999,-0.0588955,-0.0037,0.0062574999999999,0.0588955,0.0036999999999999,-0.0062574999999999,-0.2059835,-0.14669,-0.2565115,0.1339165,-0.14932,-0.2878115,-0.2164935,-0.5651200000000001,-0.1024094999999999,0.1697065,-0.59035,-0.1108194999999999,1
62,-0.042294,0.671305,-0.209621,-0.183199,0.480345,-0.192981,-0.2903489999999999,0.687485,-0.340941,0.107721,0.494545,-0.224101,0.1765709999999999,0.7065049999999999,-0.364991,-0.254469,0.926755,-0.458551,0.139371,0.992215,-0.431801,-0.058882,-0.0032849999999999,0.006455,0.058882,0.0032849999999999,-0.006455,-0.206509,-0.138535,-0.263881,0.133681,-0.143205,-0.295031,-0.216619,-0.551505,-0.104127,0.168481,-0.577685,-0.111494,1
63,-0.0422205,0.6717299999999999,-0.217488,-0.1822795,0.47949,-0.198628,-0.2905995,0.68685,-0.350358,0.1085505,0.49264,-0.2298279999999999,0.1766204999999999,0.70347,-0.3746379999999999,-0.2534495,0.92906,-0.470578,0.1397605,0.98715,-0.4446279999999999,-0.0588815,-0.0029,0.006462,0.0588815,0.0029,-0.0064619999999999,-0.2069395,-0.13006,-0.2699479999999999,0.1335205,-0.1361499999999999,-0.3009079999999999,-0.2166895,-0.53817,-0.105153,0.1673805,-0.5644899999999999,-0.1115159999999999,1
64,-0.0416155,0.670715,-0.224393,-0.1807675,0.4776359999999999,-0.203933,-0.2901574999999999,0.685005,-0.360013,0.1098524999999999,0.4889749999999999,-0.235333,0.1772225,0.701495,-0.3839829999999999,-0.2518975,0.930975,-0.4815629999999999,0.1407324999999999,0.977955,-0.4577529999999999,-0.0586734999999999,-0.002735,0.006609,0.0586734999999999,0.0027349999999999,-0.0066089999999999,-0.2065275,-0.1220149999999999,-0.275363,0.1341225,-0.129265,-0.306513,-0.2162275,-0.526575,-0.106103,0.1668325,-0.552805,-0.1116399999999999,1
65,-0.0408735,0.67006,-0.230923,-0.1792195,0.475473,-0.209883,-0.2895695,0.68484,-0.369203,0.1113005,0.485316,-0.241413,0.1776705,0.7003900000000001,-0.393783,-0.2503395,0.92517,-0.4921029999999999,0.1417905,0.97074,-0.4702329999999999,-0.0586435,-0.0026399999999999,0.006607,0.0586435,0.00264,-0.006607,-0.2060395,-0.11273,-0.280783,0.1349105,-0.12104,-0.312293,-0.2156095,-0.51412,-0.107125,0.1668405,-0.53949,-0.11209,1
66,-0.040484,0.668675,-0.2369109999999999,-0.177957,0.473213,-0.215671,-0.289137,0.681065,-0.377901,0.112623,0.481121,-0.247751,0.177803,0.700445,-0.403371,-0.249557,0.920895,-0.501331,0.142603,0.964865,-0.482461,-0.05849,-0.002415,0.006596,0.05849,0.002415,-0.006596,-0.206007,-0.1027849999999999,-0.286261,0.1357229999999999,-0.1104949999999999,-0.316981,-0.215107,-0.501185,-0.10819,0.166423,-0.5259750000000001,-0.112765,1
67,-0.0407509999999999,0.6666150000000001,-0.2396365,-0.1775749999999999,0.47219,-0.2169665,-0.289255,0.677845,-0.3829765,0.113005,0.479818,-0.2493365,0.177505,0.698485,-0.4092065,-0.2498149999999999,0.918255,-0.5064664999999999,0.142475,0.958215,-0.4913465,-0.0584009999999999,-0.0020649999999999,0.0067474999999999,0.0584009999999999,0.002065,-0.0067475,-0.206805,-0.093465,-0.2884565,0.136265,-0.101225,-0.3188465,-0.2147049999999999,-0.489135,-0.1062365,0.165515,-0.513605,-0.1106715,1
68,-0.0412359999999999,0.66536,-0.242338,-0.177851,0.470603,-0.218388,-0.289711,0.67511,-0.387788,0.112669,0.478049,-0.251258,0.176839,0.698,-0.414438,-0.250481,0.91474,-0.512528,0.1417489999999999,0.95309,-0.500358,-0.0583289999999999,-0.0017599999999999,0.0065869999999999,0.0583289999999999,0.0017599999999999,-0.006587,-0.208161,-0.08386,-0.290748,0.136519,-0.0918099999999999,-0.320698,-0.214881,-0.47705,-0.104495,0.163689,-0.50205,-0.108261,1
69,-0.0417655,0.663105,-0.245568,-0.1782385,0.467699,-0.220478,-0.2901585,0.671575,-0.393188,0.1122715,0.476227,-0.253318,0.1760815,0.696505,-0.420268,-0.2508485,0.907445,-0.519638,0.1407815,0.947095,-0.509818,-0.0582775,-0.0019549999999999,0.006223,0.0582775,0.0019549999999999,-0.0062229999999999,-0.2096785,-0.074905,-0.293228,0.1368415,-0.083055,-0.322828,-0.2151585,-0.465485,-0.103212,0.1615214999999999,-0.491255,-0.1061179999999999,1
70,-0.0416625,0.660965,-0.2487595,-0.1778315,0.465779,-0.2226794999999999,-0.2897315,0.6673450000000001,-0.3989895,0.1124785,0.475921,-0.2552595,0.1757685,0.6947450000000001,-0.4261494999999999,-0.2494615,0.8966050000000001,-0.5262295,0.1404785,0.941545,-0.5200895,-0.0582895,-0.0022149999999999,0.0058524999999999,0.0582895,0.002215,-0.0058525,-0.2105715,-0.0659549999999999,-0.2960895,0.1378785,-0.0747749999999999,-0.3252295,-0.2146615,-0.455955,-0.1022175,0.1602585,-0.480575,-0.1045215,1
71,-0.0416695,0.65863,-0.2522525,-0.1774545,0.4630869999999999,-0.2254725,-0.2890945,0.6631,-0.4053025,0.1129255,0.474424,-0.2573725,0.1757755,0.69367,-0.4317925,-0.2480745,0.88552,-0.5328225,0.1405955,0.94009,-0.5258025,-0.0582695,-0.00241,0.0055444999999999,0.0582695,0.0024099999999999,-0.0055445,-0.2112845,-0.05727,-0.2990125,0.1389655,-0.0670199999999999,-0.3279025,-0.2140845,-0.44706,-0.1021235,0.1584755,-0.47035,-0.1034475,1
72,-0.041758,0.65649,-0.255826,-0.177083,0.460013,-0.228636,-0.288203,0.65796,-0.412166,0.113357,0.473239,-0.259716,0.175777,0.69216,-0.437746,-0.2468729999999999,0.87416,-0.539666,0.140747,0.9378,-0.5321859999999999,-0.0583039999999999,-0.0027299999999999,0.0053829999999999,0.0583039999999999,0.00273,-0.0053829999999999,-0.2119029999999999,-0.0489899999999999,-0.302186,0.140057,-0.05969,-0.330726,-0.213473,-0.4390299999999999,-0.102073,0.156637,-0.46016,-0.103335,1
73,-0.0419555,0.6539,-0.2594635,-0.1767435,0.456707,-0.2319735,-0.2870735,0.6521,-0.4190935,0.1137364999999999,0.472229,-0.2622135,0.1759165,0.68983,-0.4434935,-0.2462335,0.86206,-0.5486135,0.1406665,0.94074,-0.5381135,-0.0583085,-0.00319,0.0052714999999999,0.0583085,0.00319,-0.0052715,-0.2122735,-0.0412299999999999,-0.3049935,0.1409564999999999,-0.0529899999999999,-0.3335835,-0.2127635,-0.43106,-0.1027775,0.1548765,-0.45126,-0.1043165,1
74,-0.042238,0.6507400000000001,-0.2629815,-0.1764609999999999,0.4531510000000001,-0.2351515,-0.286061,0.6459100000000001,-0.4267915,0.114039,0.470782,-0.2646215,0.175949,0.6867400000000001,-0.4489614999999999,-0.245941,0.8578100000000001,-0.5585415,0.138539,0.94222,-0.5444615,-0.05837,-0.0035699999999999,0.0052765,0.05837,0.00357,-0.0052764999999999,-0.212561,-0.0338599999999998,-0.3071715,0.141559,-0.0465299999999999,-0.3359614999999999,-0.211831,-0.42389,-0.1036054999999999,0.153099,-0.4429799999999999,-0.1054664999999999,1
75,-0.0425515,0.6466949999999999,-0.266348,-0.1760465,0.4484979999999999,-0.2380479999999999,-0.2851964999999999,0.642145,-0.4345279999999999,0.1142235,0.4685729999999999,-0.266768,0.1759335,0.6828649999999999,-0.4541179999999999,-0.2460965,0.8499049999999999,-0.568438,0.1379335,0.943395,-0.550928,-0.0584495,-0.003955,0.0052819999999999,0.0584495,0.0039549999999999,-0.005282,-0.2129565,-0.026785,-0.308348,0.1420934999999999,-0.040295,-0.337688,-0.2107665,-0.417275,-0.103681,0.1512735,-0.4350250000000001,-0.106885,1
76,-0.0428975,0.6426000000000001,-0.269446,-0.1756985,0.44451,-0.240746,-0.2844185,0.6373,-0.442026,0.1141015,0.466372,-0.268576,0.1758015,0.67975,-0.459366,-0.2463785,0.8419099999999999,-0.577806,0.1374315,0.94216,-0.559056,-0.0585345,-0.00426,0.005213,0.0585345,0.00426,-0.005213,-0.2133585,-0.0198899999999999,-0.308576,0.1426115,-0.03493,-0.338976,-0.2093885,-0.41108,-0.103854,0.1497115,-0.4276299999999999,-0.109037,1
77,-0.0434075,0.638094,-0.272196,-0.1755075,0.4406300000000001,-0.243726,-0.2841175,0.630268,-0.4497359999999999,0.1136225,0.463681,-0.270856,0.1757425,0.67615,-0.4649859999999999,-0.2456875,0.8341700000000001,-0.587166,0.1371325,0.9415,-0.567176,-0.0586234999999999,-0.0042999999999999,0.0050709999999999,0.0586234999999999,0.0043,-0.0050709999999999,-0.2143375,-0.0136099999999999,-0.309246,0.1428825,-0.0302399999999999,-0.340796,-0.2080775,-0.4058299999999999,-0.104683,0.1482725,-0.4206099999999999,-0.112105,1
78,-0.044091,0.633498,-0.275563,-0.17563,0.4374599999999999,-0.246993,-0.28428,0.623359,-0.457113,0.1126,0.461061,-0.273393,0.17543,0.67117,-0.470873,-0.2457099999999999,0.82845,-0.596393,0.13665,0.93233,-0.575563,-0.058743,-0.00426,0.0049579999999999,0.058743,0.00426,-0.0049579999999999,-0.21586,-0.00766,-0.310743,0.14259,-0.02556,-0.343193,-0.20681,-0.40091,-0.1059779999999999,0.14763,-0.41384,-0.1161919999999999,1
79,-0.0447899999999999,0.628694,-0.279078,-0.175812,0.4339699999999999,-0.250328,-0.284702,0.6163179999999999,-0.463648,0.111478,0.4582699999999999,-0.276088,0.175068,0.6663899999999999,-0.476668,-0.2464519999999999,0.82484,-0.6062080000000001,0.136118,0.92309,-0.5835980000000001,-0.058799,-0.00422,0.0047949999999999,0.058799,0.00422,-0.004795,-0.2177319999999999,-0.0022199999999999,-0.312668,0.141598,-0.02135,-0.345688,-0.2057119999999999,-0.39487,-0.10711,0.146558,-0.40795,-0.121042,1
80,-0.0450565,0.6230529999999999,-0.282703,-0.1755265,0.4308049999999999,-0.253593,-0.2847065,0.6099519999999999,-0.469593,0.1107635,0.4562449999999999,-0.279373,0.1750635,0.6617519999999999,-0.482593,-0.2470865,0.8213249999999999,-0.616173,0.1359735,0.9147649999999998,-0.5915429999999999,-0.0589694999999999,-0.004195,0.004927,0.0589694999999999,0.0041949999999999,-0.0049269999999999,-0.2194064999999999,0.0034749999999998,-0.314623,0.1404935,-0.0164450000000001,-0.3485229999999999,-0.2038865,-0.3883950000000001,-0.108581,0.1463535,-0.401295,-0.125384,1
81,-0.044964,0.618665,-0.2860585,-0.17494,0.42845,-0.2564085,-0.28432,0.60456,-0.4744385,0.11031,0.45353,-0.2823485,0.1755999999999999,0.657249,-0.4879385,-0.24726,0.81775,-0.6251185,0.1365199999999999,0.90579,-0.5994885,-0.0591369999999999,-0.004,0.0051225,0.0591369999999999,0.004,-0.0051225,-0.2209,0.00907,-0.3156085,0.1391,-0.01145,-0.3510585,-0.20136,-0.38187,-0.1090155,0.1467899999999999,-0.39456,-0.1295125,1
82,-0.0446359999999999,0.6147790000000001,-0.289238,-0.174288,0.42664,-0.259228,-0.283818,0.5993580000000001,-0.478208,0.109872,0.45113,-0.285138,0.1763819999999999,0.653545,-0.493208,-0.246878,0.8140400000000001,-0.632038,0.1375819999999999,0.89666,-0.6076280000000001,-0.0593319999999999,-0.0038199999999999,0.005332,0.0593319999999999,0.00382,-0.005332,-0.222298,0.01425,-0.315808,0.137632,-0.0068599999999999,-0.353728,-0.198638,-0.3759599999999999,-0.108899,0.1473519999999999,-0.3887999999999999,-0.133983,1
83,-0.044279,0.6114269999999999,-0.292066,-0.17367,0.42517,-0.262076,-0.28357,0.594624,-0.4810259999999999,0.1094,0.44914,-0.287906,0.17701,0.6501669999999999,-0.497866,-0.24646,0.81045,-0.6380359999999999,0.1389999999999999,0.88798,-0.615256,-0.0595679999999999,-0.0036399999999999,0.005552,0.0595679999999999,0.0036399999999999,-0.005552,-0.22387,0.01907,-0.315346,0.13573,-0.0026699999999999,-0.356396,-0.19612,-0.37019,-0.108846,0.14804,-0.3832,-0.139038,1
84,-0.0440695,0.6088399999999999,-0.2946335,-0.1733124999999999,0.4245799999999999,-0.2646635,-0.2839425,0.5913849999999999,-0.4835635,0.1090375,0.4476499999999999,-0.2904434999999999,0.1773775,0.646817,-0.5016134999999999,-0.2467825,0.8088299999999999,-0.6434534999999999,0.1406075,0.8788099999999999,-0.6221835,-0.0597675,-0.00346,0.0056495,0.0597675,0.0034599999999999,-0.0056495,-0.2255724999999999,0.0231899999999999,-0.3137735,0.1333675,0.0009799999999999,-0.3587835,-0.1939924999999999,-0.3655400000000001,-0.1086165,0.1489875,-0.3784900000000001,-0.1431474999999999,1
85,-0.0441575,0.6065499999999999,-0.297142,-0.1733415,0.4237499999999999,-0.266962,-0.2849015,0.5879409999999999,-0.486002,0.1084685,0.4461899999999998,-0.292912,0.1774585,0.6434599999999999,-0.504482,-0.2488015,0.8068699999999999,-0.648042,0.1423885,0.8716499999999999,-0.626722,-0.0599115,-0.00333,0.005732,0.0599115,0.0033299999999999,-0.005732,-0.2275115,0.0269099999999998,-0.311572,0.1307385,0.0048399999999999,-0.361042,-0.1924315,-0.3616800000000001,-0.108755,0.1493385,-0.3746600000000001,-0.145684,1
86,-0.0443805,0.6052379999999999,-0.2998385,-0.1733595,0.4235299999999999,-0.2686585,-0.2860595,0.587016,-0.4881284999999999,0.1075405,0.4438899999999999,-0.2946485,0.1774005,0.640358,-0.5073385,-0.2514995,0.80453,-0.6518185,0.1442005,0.8639399999999999,-0.6315284999999999,-0.0600305,-0.00313,0.0057704999999999,0.0600305,0.0031299999999999,-0.0057704999999999,-0.2293395,0.0299999999999999,-0.3095585,0.1278905,0.0079299999999999,-0.3633985,-0.1909795,-0.35819,-0.1090905,0.1498705,-0.37157,-0.1486445,1
87,-0.0447075,0.6045470000000001,-0.302294,-0.1734385,0.4234799999999999,-0.270264,-0.2873085,0.586505,-0.489854,0.1065615,0.4417,-0.296334,0.1774015,0.63803,-0.510424,-0.2542185,0.80342,-0.6547040000000001,0.1445015,0.86463,-0.636124,-0.0600585,-0.00292,0.005792,0.0600585,0.00292,-0.005792,-0.2311485,0.0318399999999999,-0.307734,0.1246815,0.00977,-0.365774,-0.1900885,-0.3558099999999999,-0.110027,0.1499315,-0.3711299999999999,-0.153267,1
88,-0.0450745,0.6046919999999999,-0.3049875,-0.1734805,0.4234449999999999,-0.2717675,-0.2886404999999999,0.586938,-0.4915474999999999,0.1054995,0.4395449999999999,-0.2984275,0.1770395,0.6374509999999999,-0.5140875,-0.2571305,0.803765,-0.6581875,0.1447095,0.8649349999999999,-0.6409075000000001,-0.0600555,-0.002735,0.0058404999999999,0.0600555,0.0027349999999999,-0.0058404999999999,-0.2327605,0.0326749999999999,-0.3061975,0.1214795,0.0106949999999998,-0.3684774999999999,-0.1897805,-0.353805,-0.1119054999999999,0.1509095,-0.3695250000000001,-0.1570835,1
89,-0.0453665,0.6046919999999999,-0.3073075,-0.1735415,0.4234449999999999,-0.2729975,-0.2899515,0.586938,-0.4925374999999999,0.1046985,0.4391449999999999,-0.3000075,0.1767185,0.6374509999999999,-0.5174175,-0.2600415,0.803765,-0.6614875,0.1448285,0.8649349999999999,-0.6445475,-0.0600545,-0.002735,0.0060154999999999,0.0600545,0.0027349999999999,-0.0060155,-0.2341315,0.0331249999999999,-0.3044975,0.1186885,0.0115749999999998,-0.3707175,-0.1899815,-0.352675,-0.1144965,0.1512985,-0.3692850000000001,-0.1606195,1
90,-0.0456209999999999,0.6046919999999999,-0.309661,-0.17379,0.4234449999999999,-0.274301,-0.29133,0.586938,-0.493041,0.10408,0.4391449999999999,-0.301761,0.17633,0.6374509999999999,-0.5210710000000001,-0.2629999999999999,0.803765,-0.665091,0.1447399999999999,0.8649349999999999,-0.648611,-0.06006,-0.002735,0.0062289999999999,0.06006,0.0027349999999999,-0.006229,-0.23533,0.0340749999999999,-0.303541,0.11666,0.0126349999999999,-0.373201,-0.19041,-0.3520150000000001,-0.118532,0.15164,-0.3682550000000001,-0.164118,1
91,-0.0459005,0.6046919999999999,-0.3116465,-0.1741595,0.4234449999999999,-0.2756965,-0.2926695,0.586938,-0.4928665,0.1036005,0.4391449999999999,-0.3036665,0.1756105,0.6374509999999999,-0.5237665,-0.2657795,0.803765,-0.6673365,0.1446005,0.8649349999999999,-0.6527265,-0.0600635,-0.002735,0.0064134999999999,0.0600635,0.0027349999999999,-0.0064135,-0.2364295,0.0352749999999999,-0.3030365,0.1150705,0.0139449999999998,-0.3756165,-0.1908395,-0.350635,-0.1226275,0.1521104999999999,-0.3668850000000001,-0.1665475,1
92,-0.0464555,0.6058429999999999,-0.313355,-0.1749295,0.4232899999999999,-0.276865,-0.2944695,0.5862689999999999,-0.492345,0.1029205,0.4368699999999998,-0.305585,0.1746905,0.6366809999999999,-0.526205,-0.2684195,0.8031699999999999,-0.668215,0.1437505,0.8640599999999998,-0.6570849999999999,-0.0600264999999999,-0.0025,0.0065049999999999,0.0600264999999999,0.0024999999999999,-0.0065049999999999,-0.2374295,0.0344799999999998,-0.302865,0.1141505,0.0131199999999999,-0.377945,-0.1916895,-0.3512200000000001,-0.126986,0.1521605,-0.36784,-0.1690559999999999,1
93,-0.047265,0.606803,-0.31421,-0.175725,0.424435,-0.27756,-0.296765,0.585817,-0.49207,0.102105,0.437415,-0.30655,0.1734649999999999,0.6373489999999999,-0.52847,-0.271045,0.802775,-0.66843,0.142795,0.863845,-0.66058,-0.059992,-0.0025049999999999,0.00651,0.059992,0.0025049999999999,-0.00651,-0.238235,0.032305,-0.3036,0.113245,0.0109049999999999,-0.3802,-0.193375,-0.3530149999999999,-0.132093,0.1517349999999999,-0.370235,-0.171929,1
94,-0.047869,0.608193,-0.31486,-0.1764119999999999,0.4255,-0.27797,-0.298882,0.587649,-0.49194,0.1014279999999999,0.43746,-0.30745,0.172528,0.6380490000000001,-0.52977,-0.2728919999999999,0.8050200000000001,-0.6682,0.142208,0.86374,-0.66297,-0.059941,-0.0022699999999999,0.00654,0.059941,0.0022699999999999,-0.00654,-0.238982,0.02863,-0.305,0.112438,0.0073699999999999,-0.3823999999999999,-0.195112,-0.35649,-0.137626,0.152198,-0.37388,-0.175182,1
95,-0.0480569999999999,0.610744,-0.314555,-0.177126,0.4267249999999999,-0.278025,-0.299706,0.5896399999999999,-0.4914949999999999,0.100744,0.4376649999999999,-0.308145,0.171814,0.639481,-0.529755,-0.274166,0.8075349999999999,-0.6666850000000001,0.141674,0.8702449999999999,-0.663145,-0.059828,-0.002075,0.0066149999999999,0.059828,0.0020749999999999,-0.0066149999999999,-0.239786,0.0231649999999998,-0.306245,0.111664,0.0023849999999999,-0.3833149999999999,-0.196886,-0.362215,-0.142835,0.151974,-0.3795950000000001,-0.177943,1
96,-0.04808,0.6140110000000001,-0.31355,-0.177837,0.428285,-0.2775499999999999,-0.300397,0.593268,-0.49073,0.100423,0.437835,-0.30798,0.170953,0.642074,-0.52835,-0.275367,0.8099350000000001,-0.66364,0.141123,0.875765,-0.66234,-0.059739,-0.0017949999999999,0.0066599999999999,0.059739,0.0017949999999999,-0.0066599999999999,-0.2405669999999999,0.016315,-0.30737,0.111393,-0.0041649999999999,-0.38356,-0.198787,-0.3695649999999999,-0.1478449999999999,0.151443,-0.3872649999999999,-0.179997,1
97,-0.0479044999999999,0.6180720000000001,-0.311685,-0.1784305,0.42941,-0.276485,-0.3010405,0.597375,-0.4891149999999999,0.1003594999999999,0.43822,-0.307045,0.1703695,0.6454040000000001,-0.525845,-0.2762905,0.8157000000000001,-0.659165,0.1407495,0.88107,-0.659485,-0.0596864999999999,-0.00173,0.006605,0.0596864999999999,0.00173,-0.006605,-0.2407305,0.0077599999999999,-0.308455,0.1117295,-0.0123299999999999,-0.383205,-0.2006905,-0.37825,-0.152513,0.1509995,-0.3969699999999999,-0.181464,1
98,-0.047427,0.6219790000000001,-0.309195,-0.178801,0.43248,-0.2750249999999999,-0.301711,0.602634,-0.485125,0.100849,0.43971,-0.305515,0.169949,0.64876,-0.522375,-0.277081,0.82176,-0.654295,0.141039,0.8856200000000001,-0.6549349999999999,-0.059626,-0.0014999999999999,0.0065949999999999,0.059626,0.0015,-0.006595,-0.240621,-0.0032299999999999,-0.309435,0.112819,-0.0224299999999999,-0.381575,-0.203101,-0.3894999999999999,-0.156781,0.150689,-0.4094899999999999,-0.183097,1
99,-0.046496,0.626775,-0.30586,-0.178763,0.4355139999999999,-0.27295,-0.302663,0.6075849999999999,-0.48077,0.1018669999999999,0.4415559999999999,-0.30322,0.170147,0.6541899999999999,-0.51678,-0.277053,0.82745,-0.64819,0.1419369999999999,0.89094,-0.6485000000000001,-0.059567,-0.00136,0.00656,0.059567,0.0013599999999999,-0.00656,-0.239543,-0.01507,-0.30943,0.114837,-0.03322,-0.37898,-0.204963,-0.40115,-0.160188,0.150807,-0.42325,-0.183543,1
100,-0.045483,0.63137,-0.301745,-0.178725,0.437338,-0.270495,-0.303845,0.61516,-0.476555,0.1030049999999999,0.442971,-0.300345,0.170425,0.6583600000000001,-0.5113650000000001,-0.277095,0.83365,-0.6412150000000001,0.1429349999999999,0.89662,-0.641025,-0.059566,-0.0011299999999999,0.006475,0.059566,0.0011299999999999,-0.006475,-0.238185,-0.0281899999999999,-0.309255,0.1174649999999999,-0.04452,-0.375255,-0.207015,-0.4149899999999999,-0.163303,0.1507949999999999,-0.43835,-0.183798,1
101,-0.0442135,0.636425,-0.297115,-0.1781694999999999,0.441309,-0.266955,-0.3035295,0.6219250000000001,-0.471775,0.1041705,0.447763,-0.296185,0.1711805,0.662965,-0.505005,-0.2768495,0.8382050000000001,-0.633175,0.1444605,0.901605,-0.632545,-0.0595175,-0.0011749999999999,0.0064149999999999,0.0595175,0.0011749999999999,-0.006415,-0.2362795,-0.042385,-0.308535,0.1203705,-0.0570249999999999,-0.370735,-0.2085795,-0.430855,-0.165342,0.1509405,-0.455315,-0.18344,1
102,-0.0429265,0.64141,-0.293015,-0.1775145,0.444333,-0.2640949999999999,-0.3028845,0.62904,-0.466425,0.1044954999999999,0.450283,-0.293025,0.1714755,0.66703,-0.498005,-0.2763144999999999,0.84628,-0.624705,0.1459455,0.90808,-0.624575,-0.0594795,-0.0008799999999999,0.0064649999999999,0.0594795,0.0008799999999999,-0.0064649999999999,-0.2338245,-0.05688,-0.307235,0.1231555,-0.06955,-0.365345,-0.2100345,-0.4479299999999999,-0.1670579999999999,0.1509355,-0.4728099999999999,-0.18303,1
103,-0.0414124999999999,0.64669,-0.288405,-0.1769974999999999,0.446681,-0.2614849999999999,-0.3015175,0.63514,-0.459715,0.1051425,0.451404,-0.289865,0.1727425,0.6716500000000001,-0.490365,-0.2751575,0.85233,-0.615885,0.1479225,0.9191,-0.615355,-0.0594284999999999,-0.0008699999999999,0.006475,0.0594284999999999,0.00087,-0.0064749999999999,-0.2307574999999999,-0.07135,-0.305175,0.1259425,-0.0805199999999999,-0.359155,-0.2109974999999999,-0.46507,-0.1684059999999999,0.1509425,-0.4922099999999999,-0.1822059999999999,1
104,-0.0404895,0.6514,-0.28362,-0.1769915,0.4516409999999999,-0.25864,-0.2999214999999999,0.6427,-0.45194,0.1052385,0.455793,-0.28619,0.1738085,0.67469,-0.48235,-0.2737015,0.86027,-0.60595,0.1499885,0.92198,-0.60686,-0.0593925,-0.0009,0.0064499999999999,0.0593925,0.0009,-0.00645,-0.2277915,-0.0868499999999999,-0.30249,0.1280085,-0.09277,-0.35323,-0.2120115,-0.4837,-0.169274,0.1509385,-0.51309,-0.181462,1
105,-0.039903,0.655815,-0.278775,-0.17678,0.455354,-0.256075,-0.29868,0.648615,-0.443785,0.1053399999999999,0.459107,-0.282985,0.17461,0.679455,-0.474435,-0.27203,0.867495,-0.595575,0.15219,0.925125,-0.598125,-0.059372,-0.0010749999999999,0.0063949999999999,0.059372,0.0010749999999999,-0.006395,-0.22485,-0.102415,-0.299415,0.1297,-0.1046949999999999,-0.346875,-0.21287,-0.502375,-0.169795,0.15115,-0.5345449999999999,-0.181314,1
106,-0.03952,0.6599299999999999,-0.27362,-0.1767849999999999,0.459933,-0.25313,-0.2966149999999999,0.65479,-0.43481,0.105375,0.461924,-0.27948,0.175345,0.68241,-0.46617,-0.271395,0.87271,-0.58364,0.154575,0.92757,-0.5889,-0.059308,-0.00089,0.0062599999999999,0.059308,0.00089,-0.00626,-0.2219249999999999,-0.11802,-0.29495,0.130915,-0.11774,-0.34015,-0.2137649999999999,-0.52205,-0.170013,0.1508149999999999,-0.55682,-0.18095,1
107,-0.039337,0.6651450000000001,-0.268425,-0.176747,0.461633,-0.250045,-0.294617,0.663045,-0.427255,0.105043,0.465817,-0.276225,0.175953,0.6891050000000001,-0.457895,-0.269787,0.8827550000000001,-0.571705,0.1571729999999999,0.932555,-0.578955,-0.05921,-0.0011449999999999,0.0061649999999999,0.05921,0.001145,-0.006165,-0.218567,-0.1334249999999999,-0.289175,0.131653,-0.1305549999999999,-0.332835,-0.214077,-0.542735,-0.17008,0.150503,-0.578705,-0.180554,1
108,-0.039136,0.668415,-0.262245,-0.176836,0.462055,-0.247075,-0.292776,0.670675,-0.419435,0.104264,0.468815,-0.273235,0.176354,0.694625,-0.449685,-0.268246,0.891475,-0.5606949999999999,0.159514,0.939345,-0.5693349999999999,-0.059077,-0.0013849999999999,0.0061549999999999,0.059077,0.001385,-0.0061549999999999,-0.215596,-0.1486849999999999,-0.282975,0.131974,-0.1434549999999999,-0.324945,-0.214376,-0.5641649999999999,-0.1700549999999999,0.149974,-0.6003649999999999,-0.180033,1
109,-0.038947,0.669825,-0.254895,-0.177219,0.462245,-0.243175,-0.292009,0.6746650000000001,-0.409305,0.103531,0.477975,-0.269685,0.176891,0.701265,-0.440905,-0.267219,0.897005,-0.548045,0.160631,0.944665,-0.559845,-0.058744,-0.0025049999999999,0.006135,0.058744,0.0025049999999999,-0.006135,-0.211909,-0.158065,-0.274935,0.132181,-0.1563049999999999,-0.3173749999999999,-0.214689,-0.585235,-0.169747,0.149381,-0.621225,-0.179529,1
110,-0.03879,0.669355,-0.247085,-0.17799,0.458375,-0.239208,-0.2914299999999999,0.678965,-0.398645,0.10277,0.482445,-0.266475,0.17743,0.707865,-0.4314449999999999,-0.26652,0.908895,-0.535795,0.16268,0.949705,-0.549645,-0.058429,-0.0030349999999999,0.0059349999999999,0.058429,0.003035,-0.0059349999999999,-0.20849,-0.1669749999999999,-0.266695,0.13252,-0.1672349999999999,-0.308605,-0.2147,-0.605055,-0.168856,0.14919,-0.639775,-0.178501,1
111,-0.0385694999999999,0.667725,-0.2385239999999999,-0.1785705,0.454465,-0.2348319999999999,-0.2911805,0.682955,-0.38837,0.1016995,0.488375,-0.26352,0.1779494999999999,0.7153149999999999,-0.42261,-0.2656805,0.916965,-0.5241199999999999,0.1645095,0.952395,-0.53826,-0.0580715,-0.003875,0.00553,0.0580715,0.003875,-0.0055299999999999,-0.2054105,-0.176205,-0.25848,0.1326895,-0.175835,-0.29928,-0.2145105,-0.624465,-0.167517,0.1489395,-0.654965,-0.177252,1
112,-0.0384665,0.6614150000000001,-0.227971,-0.1796645,0.460345,-0.228692,-0.2911845,0.690175,-0.377715,0.1005155,0.494065,-0.258855,0.1786355,0.723565,-0.412725,-0.2647545,0.923075,-0.510885,0.1670255,0.956505,-0.526245,-0.0576525,-0.003755,0.005275,0.0576525,0.003755,-0.005275,-0.2022145,-0.188695,-0.2484549999999999,0.1326855,-0.189305,-0.288595,-0.2137945,-0.6470049999999999,-0.164517,0.1488455,-0.672875,-0.174318,1
113,-0.038334,0.654405,-0.217155,-0.18093,0.463605,-0.2227409999999999,-0.29047,0.699605,-0.368345,0.09932,0.496175,-0.254955,0.17907,0.732615,-0.403835,-0.2637,0.929855,-0.497735,0.16967,0.966725,-0.5130250000000001,-0.057198,-0.003625,0.005005,0.057198,0.0036249999999999,-0.0050049999999999,-0.19893,-0.198295,-0.2382349999999999,0.13256,-0.200305,-0.2778049999999999,-0.21285,-0.666025,-0.161488,0.14907,-0.687485,-0.1719939999999999,1
114,-0.038223,0.6491800000000001,-0.2063259999999999,-0.182274,0.46981,-0.2168399999999999,-0.289404,0.7107700000000001,-0.3589,0.096486,0.49874,-0.2505799999999999,0.178806,0.73875,-0.39372,-0.2629039999999999,0.93845,-0.48536,0.172636,0.97675,-0.4997399999999999,-0.056777,-0.0031799999999999,0.00473,0.056777,0.00318,-0.0047299999999999,-0.195334,-0.2067399999999999,-0.227648,0.132296,-0.2087799999999999,-0.26582,-0.211704,-0.68367,-0.1583699999999999,0.149596,-0.6986399999999999,-0.169205,1
115,-0.0375885,0.6431199999999999,-0.194991,-0.1829325,0.47617,-0.210051,-0.2877324999999999,0.7219199999999999,-0.349175,0.0973375,0.50038,-0.2459549999999999,0.1790875,0.7449600000000001,-0.382075,-0.2621725,0.9467,-0.473145,0.1760575,0.98655,-0.486775,-0.0559485,-0.00279,0.004555,0.0559485,0.0027899999999999,-0.0045549999999999,-0.1914225,-0.21436,-0.2167569999999999,0.1323375,-0.21605,-0.253255,-0.2095225,-0.69977,-0.153854,0.1507475,-0.70834,-0.165818,1
116,-0.037071,0.6408,-0.1835379999999999,-0.1834609999999999,0.48407,-0.2030209999999999,-0.286721,0.72995,-0.339925,0.0984189999999999,0.5001599999999999,-0.2406249999999999,0.1792389999999999,0.74705,-0.369835,-0.261681,0.95049,-0.460345,0.179139,0.99321,-0.474935,-0.055256,-0.0020199999999999,0.004415,0.055256,0.00202,-0.0044149999999999,-0.186641,-0.2182799999999999,-0.2040469999999999,0.1318389999999999,-0.2232699999999999,-0.239775,-0.206981,-0.7109099999999999,-0.1491569999999999,0.151859,-0.71734,-0.1621889999999999,1
117,-0.036211,0.637475,-0.171658,-0.183619,0.491055,-0.19442,-0.285269,0.738355,-0.328295,0.099811,0.499035,-0.233685,0.179581,0.748275,-0.356095,-0.2600789999999999,0.955145,-0.444615,0.182451,0.996905,-0.460415,-0.054589,-0.001695,0.0048449999999999,0.054589,0.001695,-0.004845,-0.181719,-0.223465,-0.190394,0.131391,-0.231345,-0.224755,-0.203749,-0.722515,-0.14241,0.153201,-0.726985,-0.156879,1
118,-0.0357804999999999,0.636015,-0.160995,-0.1839674999999999,0.499175,-0.186745,-0.2839075,0.7483249999999999,-0.31767,0.1009825,0.493515,-0.22612,0.1797825,0.7505649999999999,-0.34225,-0.2589375,0.962745,-0.43008,0.1854325,1.005035,-0.44528,-0.0539075,-0.0005549999999999,0.0055,0.0539075,0.0005549999999999,-0.0055,-0.1777675,-0.232925,-0.178416,0.1305425,-0.2388549999999999,-0.210119,-0.2006275,-0.731625,-0.135629,0.1543025,-0.7358450000000001,-0.151456,1
119,-0.035488,0.63594,-0.150332,-0.184334,0.5091100000000001,-0.1795439999999999,-0.2828839999999999,0.75942,-0.306315,0.1024259999999999,0.48971,-0.2184849999999999,0.180346,0.75228,-0.328075,-0.2586839999999999,0.97221,-0.415205,0.188116,1.01431,-0.430525,-0.053037,0.0002199999999999,0.006205,0.053037,-0.0002199999999999,-0.006205,-0.173614,-0.24064,-0.166063,0.128526,-0.24582,-0.195213,-0.197474,-0.7378,-0.1288,0.155116,-0.7438400000000001,-0.144602,1
120,-0.0349514999999999,0.63651,-0.1408665,-0.1844305,0.51907,-0.1721855,-0.2813704999999999,0.77032,-0.2937475,0.1044295,0.48427,-0.2106475,0.1820695,0.75289,-0.3129375,-0.2579005,0.98198,-0.4000875,0.1906395,1.02424,-0.4158075,-0.0524245,0.00107,0.0069124999999999,0.0524245,-0.00107,-0.0069125,-0.1686405,-0.24731,-0.1535955,0.1272195,-0.25163,-0.1814155,-0.1939705,-0.74258,-0.1214215,0.1559295,-0.75054,-0.1378035,1
121,-0.0343155,0.6425050000000001,-0.1330815,-0.1838325,0.521655,-0.1657675,-0.2805225,0.7771649999999999,-0.2813995,0.1061475,0.481925,-0.2032295,0.1839275,0.752815,-0.2988695,-0.2563025,0.993965,-0.3852595,0.1929875,1.028835,-0.4022394999999999,-0.0523675,0.0008849999999999,0.0075005,0.0523675,-0.000885,-0.0075004999999999,-0.1634025,-0.249585,-0.1431895,0.1259875,-0.253075,-0.1686855,-0.1862025,-0.7300150000000001,-0.1113745,0.1568475,-0.752705,-0.1324275,1
122,-0.033405,0.6505270000000001,-0.1214605,-0.183196,0.523847,-0.1538595,-0.279156,0.7795970000000001,-0.2640705,0.108754,0.482487,-0.1891785,0.186234,0.755447,-0.2804505,-0.2549659999999999,1.003507,-0.3665505,0.195494,1.029247,-0.3856205,-0.052498,0.0004919999999999,0.0077865,0.052498,-0.000492,-0.0077865,-0.157586,-0.252803,-0.1299035,0.125134,-0.255213,-0.1523255,-0.178246,-0.7182230000000001,-0.0971435,0.158114,-0.7554130000000001,-0.1228345,1
123,-0.0317215,0.6603305,-0.1021379999999999,-0.1819985,0.5242905,-0.131108,-0.2768885,0.7745905,-0.239806,0.1126915,0.4875305,-0.164655,0.1893314999999999,0.7532605,-0.256016,-0.2527185,1.0001905,-0.339906,0.1986015,1.0273505,-0.3602959999999999,-0.0534575,-8.049999999999724e-05,0.007719,0.0534575,8.049999999999724e-05,-0.0077189999999999,-0.1502685,-0.2661894999999999,-0.1102099999999999,0.1241015,-0.2689495,-0.130214,-0.1690884999999999,-0.7163295,-0.074472,0.1606415,-0.7690395,-0.106122,1
124,-0.0302345,0.6706774999999999,-0.0831455,-0.1808415,0.5237475,-0.1094074999999999,-0.2744515,0.7693774999999999,-0.2151604999999999,0.1161485,0.4937975,-0.1411704999999999,0.1919885,0.7526475,-0.2332405,-0.2505315,0.9994975,-0.3147005,0.2016585,1.0267075,-0.3356605,-0.0544785,-0.0008094999999999,0.0076174999999999,0.0544785,0.0008095,-0.0076174999999999,-0.1433915,-0.2786524999999999,-0.0920085,0.1230785,-0.2811625,-0.1088835,-0.1604215,-0.7137325,-0.0526834999999999,0.1629785,-0.7810925,-0.0893294999999999,1
125,-0.0288025,0.6760514999999999,-0.06487,-0.1797065,0.5234615,-0.088381,-0.2723865,0.7637714999999999,-0.191642,0.1195035,0.5011615,-0.118196,0.1945235,0.7527315,-0.211832,-0.2484565,0.9984115,-0.290382,0.2044735,1.0272615,-0.311892,-0.0554575,-0.0017434999999999,0.007528,0.0554575,0.0017435,-0.007528,-0.1378565,-0.2919285,-0.076364,0.1222935,-0.2921785,-0.090951,-0.1521765,-0.7122885,-0.031229,0.1649334999999999,-0.7921085,-0.072242,1
126,-0.0275555,0.683605,-0.0476595,-0.1786885,0.524905,-0.0683215,-0.2702885,0.7586149999999999,-0.1699225,0.1260015,0.510185,-0.0956465,0.1980414999999999,0.753675,-0.1926925,-0.2469985,0.997585,-0.2672225,0.2069015,1.028495,-0.2905725,-0.0564104999999999,-0.002139,0.0068994999999999,0.0564104999999999,0.0021389999999999,-0.0068994999999999,-0.1324785,-0.303435,-0.0617375,0.1215614999999999,-0.301345,-0.0749915,-0.1431585,-0.708785,-0.0097775,0.1673315,-0.803125,-0.0557695,1
127,-0.0266205,0.6916209999999999,-0.0311845,-0.1779515,0.526361,-0.0484605,-0.2688815,0.7530009999999999,-0.1496775,0.1289684999999999,0.5178809999999999,-0.0747605,0.2015185,0.752991,-0.1746575,-0.2459615,0.996041,-0.2459175,0.2089185,1.027071,-0.2706375,-0.0574014999999999,-0.002551,0.0061224999999999,0.0574014999999999,0.002551,-0.0061225,-0.1278215,-0.314779,-0.0471975,0.1206685,-0.310529,-0.0596295,-0.1346415,-0.7052590000000001,0.0118384999999999,0.1694485,-0.814389,-0.0393325,1
128,-0.0257069999999999,0.6997755,-0.0145624999999999,-0.177245,0.5258855,-0.0284955,-0.267535,0.7469655000000001,-0.1306725,0.131825,0.5255555000000001,-0.0540395,0.204895,0.7522255000000001,-0.1578225,-0.244995,0.9885155,-0.2258225,0.210895,1.0256455,-0.2516325,-0.05837,-0.0029145,0.0053365,0.05837,0.0029145,-0.0053365,-0.1236049999999999,-0.3267545,-0.0338625,0.120975,-0.3220045,-0.0448785,-0.126405,-0.7025545,0.0335984999999999,0.171355,-0.8274144999999999,-0.0231124999999999,1
129,-0.024925,0.708104,0.0018145,-0.176677,0.525414,-0.0088694999999999,-0.266467,0.740654,-0.1126694999999999,0.134513,0.533314,-0.0336515,0.208073,0.751254,-0.1419295,-0.244107,0.980934,-0.2067695,0.212753,1.024224,-0.2338495,-0.059269,-0.0032569999999999,0.0045855,0.059269,0.003257,-0.0045854999999999,-0.120027,-0.338216,-0.0209465,0.121223,-0.3332859999999999,-0.0304124999999999,-0.119947,-0.700476,0.0523485,0.173493,-0.840106,-0.0066524999999999,1
130,-0.0241385,0.715146,0.0179165,-0.1761895,0.527096,0.0102435,-0.2659095,0.733106,-0.0958715,0.1369405,0.540076,-0.0144135,0.2109805,0.749036,-0.1270015,-0.2433894999999999,0.970886,-0.1894915,0.2144205,1.021276,-0.2180115,-0.0600644999999999,-0.003532,0.0037794999999999,0.0600644999999999,0.0035319999999999,-0.0037794999999999,-0.1170394999999999,-0.349174,-0.0086634999999999,0.1214705,-0.344254,-0.0162775,-0.1172095,-0.710444,0.0684434999999999,0.1755705,-0.852814,0.0092625,1
131,-0.023652,0.720717,0.0296024999999999,-0.175947,0.529347,0.0236484999999999,-0.266157,0.724917,-0.0839865,0.138633,0.543967,-0.0014555,0.213303,0.742977,-0.1164465,-0.243597,0.961467,-0.1777865,0.215723,1.016957,-0.2083965,-0.060628,-0.003472,0.0032634999999999,0.060628,0.0034719999999999,-0.0032635,-0.114967,-0.359143,-0.0012235,0.121383,-0.352453,-0.0077135,-0.114907,-0.719793,0.0801865,0.1771829999999999,-0.8624229999999999,0.0205524999999999,1
132,-0.0240234999999999,0.721437,0.033362,-0.1762584999999999,0.529347,0.026233,-0.2675185,0.724917,-0.0808099999999999,0.1388615,0.543967,0.000703,0.2139515,0.742977,-0.11431,-0.2451984999999999,0.961467,-0.17603,0.2160115,1.016957,-0.20678,-0.0606655,-0.003472,0.003125,0.0606655,0.0034719999999999,-0.003125,-0.1149484999999999,-0.359603,-0.002118,0.1213715,-0.352453,-0.007462,-0.1137685,-0.719793,0.0838329999999999,0.1776015,-0.862433,0.023831,1
133,-0.0243425,0.721707,0.036739,-0.1766335,0.529347,0.028962,-0.2698035,0.724917,-0.078634,0.1391165,0.543967,0.003235,0.2154265,0.742977,-0.1119439999999999,-0.2489735,0.960137,-0.174064,0.2162165,1.016957,-0.205094,-0.0607115,-0.003472,0.002987,0.0607115,0.0034719999999999,-0.0029869999999999,-0.1148235,-0.360313,-0.0029089999999999,0.1211965,-0.352453,-0.0077839999999999,-0.1121435,-0.719913,0.087976,0.1781165,-0.8620129999999999,0.026636,1
134,-0.0246249999999999,0.721707,0.0400649999999999,-0.1770769999999999,0.529347,0.0316539999999999,-0.273467,0.724917,-0.076745,0.139423,0.543967,0.0059419999999999,0.218543,0.742977,-0.110185,-0.254877,0.955327,-0.172015,0.217033,1.016957,-0.203705,-0.0608019999999999,-0.003472,0.0028219999999999,0.0608019999999999,0.0034719999999999,-0.002822,-0.114707,-0.361333,-0.003182,0.121013,-0.352453,-0.007971,-0.110597,-0.7199829999999999,0.0919929999999999,0.178343,-0.861393,0.0294929999999999,1
135,-0.024985,0.7231464999999999,0.0439195,-0.177667,0.5290965,0.0342055,-0.278667,0.7216064999999999,-0.0748784999999999,0.139673,0.5432564999999999,0.0087395,0.223553,0.7397864999999999,-0.1084385,-0.260177,0.9491265,-0.1706385,0.219813,1.0091965,-0.2055285,-0.060762,-0.0034995,0.0026195,0.060762,0.0034995,-0.0026194999999999,-0.114857,-0.3613535,-0.0030694999999999,0.1209129999999999,-0.3523934999999999,-0.0079454999999999,-0.109207,-0.7185435,0.0956985,0.178723,-0.8619335,0.0330995,0
136,-0.0253615,0.7250595,0.047453,-0.1783185,0.5284595,0.03673,-0.2857585,0.7161095000000001,-0.072306,0.1402415,0.5419795000000001,0.011548,0.2307515,0.7319495,-0.106846,-0.2667885,0.9420995,-0.171626,0.2238814999999999,0.9969095,-0.209006,-0.0607325,-0.0034885,0.002512,0.0607325,0.0034885,-0.002512,-0.1150485,-0.3613405,-0.0030099999999999,0.1208015,-0.3523604999999999,-0.0078439999999999,-0.1093085,-0.7168605,0.096991,0.1790115,-0.8619805,0.036528,0
137,-0.025772,0.7272865000000001,0.0507274999999999,-0.179043,0.5272465000000001,0.0390755,-0.294633,0.7086865,-0.0697005,0.141057,0.5406765,0.0144954999999999,0.2392869999999999,0.7216665,-0.1054605,-0.274153,0.9337565,-0.1753905,0.228877,0.9796965,-0.2150004999999999,-0.060694,-0.0035315,0.0024194999999999,0.060694,0.0035315,-0.0024195,-0.115243,-0.3613735,-0.0027315,0.120727,-0.3523535,-0.0073995,-0.109443,-0.7151435,0.0980765,0.179097,-0.8616135,0.0390094999999999,0
138,-0.026214,0.730123,0.0537675,-0.179819,0.525253,0.0412485,-0.306199,0.691083,-0.0671445,0.1419309999999999,0.538423,0.0174145,0.251421,0.7033429999999999,-0.1055145,-0.284969,0.916103,-0.1845345,0.2346909999999999,0.949493,-0.2253244999999999,-0.060668,-0.0035549999999999,0.0023765,0.060668,0.003555,-0.0023764999999999,-0.115419,-0.361287,-0.0025074999999999,0.120681,-0.352317,-0.0069594999999999,-0.109589,-0.713757,0.1008355,0.178641,-0.8583270000000001,0.0403945,0
139,-0.026666,0.732875,0.0565899999999999,-0.180751,0.523005,0.0432409999999999,-0.317141,0.667265,-0.064968,0.1429289999999999,0.535635,0.0200879999999999,0.263299,0.678565,-0.104758,-0.299321,0.883215,-0.1953679999999999,0.2406789999999999,0.911075,-0.2381479999999999,-0.060639,-0.003587,0.0023699999999999,0.060639,0.003587,-0.00237,-0.115671,-0.361185,-0.002341,0.120639,-0.3521849999999999,-0.006457,-0.1108509999999999,-0.713575,0.1011209999999999,0.1785189999999999,-0.855255,0.041422,0
140,-0.0271005,0.736079,0.0591424999999999,-0.1816355,0.5202990000000001,0.0444694999999999,-0.3259455,0.6381290000000001,-0.0629555,0.1437845,0.532909,0.0220254999999999,0.2734945,0.647989,-0.1032555,-0.3131255,0.844229,-0.1994855,0.2468645,0.868859,-0.2497755,-0.0606265,-0.003574,0.0023404999999999,0.0606265,0.003574,-0.0023405,-0.1160954999999999,-0.3610009999999999,-0.0020935,0.1206545,-0.3520709999999999,-0.0059595,-0.1122355,-0.713121,0.1010175,0.1785344999999999,-0.851801,0.0420235,0
141,-0.0275049999999999,0.7395365,0.0612075,-0.182498,0.5176265,0.0452045,-0.3329879999999999,0.6053565000000001,-0.0612895,0.144612,0.5294065,0.0235325,0.280742,0.6118665000000001,-0.0998295,-0.327698,0.7894965,-0.2013994999999999,0.253592,0.8114765,-0.2554295,-0.060642,-0.0035564999999999,0.0022864999999999,0.060642,0.0035565,-0.0022864999999999,-0.116618,-0.3608035,-0.0018325,0.120652,-0.3519535,-0.0056584999999999,-0.112368,-0.7121934999999999,0.1027945,0.178242,-0.8476634999999999,0.0426685,0
142,-0.027972,0.7431385,0.062679,-0.1833479999999999,0.5148885,0.045486,-0.335708,0.5676785,-0.0556219999999999,0.145402,0.5260385,0.024283,0.286392,0.5719685,-0.0892419999999999,-0.335268,0.7310785,-0.205512,0.260942,0.7408285,-0.2558319999999999,-0.0606769999999999,-0.0035404999999999,0.002225,0.0606769999999999,0.0035405,-0.0022249999999999,-0.117288,-0.3605915,-0.0016629999999999,0.120642,-0.3518615,-0.0055349999999999,-0.112518,-0.7109415,0.10445,0.177712,-0.8423715,0.043139,0
143,-0.028437,0.7466499999999999,0.0635555,-0.184227,0.51176,0.0455545,-0.335687,0.5274599999999999,-0.0478435,0.1459829999999999,0.52272,0.0242725,0.2887329999999999,0.5314,-0.0771424999999999,-0.339637,0.65967,-0.2052025,0.267613,0.66985,-0.2563025,-0.060694,-0.003608,0.0022205,0.060694,0.003608,-0.0022205,-0.118017,-0.36046,-0.0016055,0.1206629999999999,-0.35169,-0.0053925,-0.112547,-0.7099300000000001,0.1061275,0.177313,-0.8376600000000001,0.0435555,0
144,-0.0289455,0.7501145,0.063598,-0.1849914999999999,0.5085945000000001,0.045616,-0.3351715,0.4869345,-0.037731,0.1464085,0.5198545,0.024249,0.2894684999999999,0.4904445,-0.0638219999999999,-0.3425715,0.5889345,-0.204982,0.2702385,0.5897645,-0.256482,-0.0607545,-0.0035844999999999,0.002219,0.0607545,0.0035845,-0.0022189999999999,-0.1188014999999999,-0.3602455,-0.0015429999999999,0.1206985,-0.3516255,-0.0051069999999999,-0.1127514999999999,-0.7091255,0.106148,0.1768885,-0.8330355,0.043832,0
145,-0.0294635,0.7534785,0.063635,-0.1856735,0.5057285,0.045664,-0.3345734999999999,0.4457985,-0.026517,0.1465165,0.5174385,0.024241,0.2902465,0.4499285,-0.0500979999999999,-0.3427735,0.5095385,-0.204968,0.2705765,0.5052985,-0.248878,-0.0608085,-0.0036004999999999,0.002223,0.0608085,0.0036004999999999,-0.0022229999999999,-0.1195735,-0.3599914999999999,-0.0014799999999999,0.1207765,-0.3515014999999999,-0.0046749999999999,-0.1130235,-0.7086715,0.108413,0.1763565,-0.8279415,0.044152,0
146,-0.0299185,0.756772,0.063616,-0.1861805,0.503482,0.045437,-0.3338704999999999,0.404792,-0.014151,0.1464394999999999,0.514892,0.024195,0.2911095,0.409582,-0.0353569999999999,-0.3426504999999999,0.422652,-0.200756,0.2714395,0.4202519999999999,-0.234226,-0.0608724999999999,-0.0035589999999999,0.0021699999999999,0.0608724999999999,0.0035589999999999,-0.0021699999999999,-0.1202805,-0.359728,-0.0014129999999999,0.1208195,-0.351418,-0.004193,-0.1122705,-0.708318,0.111773,0.1758594999999999,-0.823168,0.044308,0
147,-0.0303349999999999,0.759245,0.0634545,-0.1866719999999999,0.502095,0.0446395,-0.329692,0.370975,0.0001804999999999,0.146288,0.513105,0.0234144999999999,0.289398,0.375425,-0.0190765,-0.341772,0.344215,-0.1855425,0.272848,0.344405,-0.2116425,-0.060949,-0.0035559999999999,0.0021154999999999,0.060949,0.003556,-0.0021155,-0.120992,-0.359535,-0.0013445,0.120808,-0.351325,-0.0038215,-0.111682,-0.707895,0.1148744999999999,0.175388,-0.819585,0.0442075,0
148,-0.0307555,0.761524,0.062422,-0.1870595,0.501254,0.043317,-0.3221695,0.340554,0.015597,0.1460905,0.511734,0.022152,0.2840305,0.345234,-0.0011079999999999,-0.3392995,0.273334,-0.163754,0.2736605,0.273594,-0.183154,-0.0610315,-0.0034949999999999,0.002071,0.0610315,0.003495,-0.0020709999999999,-0.1216095,-0.3593159999999999,-0.001146,0.1209605,-0.351306,-0.0035379999999999,-0.1132794999999999,-0.706906,0.112247,0.1749705,-0.816536,0.044061,0
149,-0.0311784999999999,0.7634105,0.0606255,-0.1874495,0.5009105,0.0413915,-0.3114595,0.3144105,0.0318555,0.1458805,0.5104305,0.0202235,0.2760005,0.3192905,0.0174485,-0.3332295,0.2061905,-0.1343504999999999,0.2723805,0.2042205,-0.1478605,-0.0611035,-0.0034655,0.0020405,0.0611035,0.0034655,-0.0020405,-0.1221394999999999,-0.3591495,-0.0010615,0.1210904999999999,-0.3512495,-0.0033354999999999,-0.1141994999999999,-0.7064095,0.1121475,0.1748305,-0.8143895,0.0437575,0
150,-0.0316405,0.7649425,0.05796,-0.1879095,0.5008325,0.039145,-0.2963995,0.2910825,0.04806,0.1455905,0.5097225,0.017699,0.2637905,0.2986325,0.035193,-0.3212095,0.1527525,-0.09589,0.2687205,0.1501325,-0.1061,-0.0611235,-0.0034585,0.0020159999999999,0.0611235,0.0034584999999999,-0.0020159999999999,-0.1226195,-0.3590175,-0.0010119999999999,0.1211805,-0.3511875,-0.003164,-0.1158594999999999,-0.7059875,0.109576,0.1746605,-0.8123975,0.043515,0
151,-0.0320619999999999,0.766174,0.0547115,-0.188366,0.500914,0.0367045,-0.2815459999999999,0.274114,0.0607255,0.1452439999999999,0.509094,0.0149935,0.250954,0.282434,0.0465305,-0.305106,0.105469,-0.0576975,0.263214,0.110262,-0.0579074999999999,-0.061135,-0.0034249999999999,0.0019915,0.061135,0.0034249999999999,-0.0019915,-0.122976,-0.358896,-0.0010155,0.121294,-0.351156,-0.0029635,-0.1162459999999999,-0.7064360000000001,0.1094735,0.174484,-0.810966,0.0432995,0
152,-0.0324535,0.767111,0.0510495,-0.1887444999999999,0.501431,0.0346994999999999,-0.2684845,0.260861,0.0722595,0.1449355,0.508611,0.0124675,0.2397355,0.268511,0.0573905,-0.2891145,0.074511,-0.0225365,0.2606255,0.070964,-0.0107815,-0.0611405,-0.0033499999999999,0.0019614999999999,0.0611405,0.0033499999999999,-0.0019615,-0.1232444999999999,-0.358769,-0.0011045,0.1214254999999999,-0.351179,-0.0028085,-0.1171545,-0.707239,0.1093705,0.1740755,-0.810029,0.0435565,0
153,-0.0327955,0.767767,0.047164,-0.1889975,0.501957,0.032913,-0.2576374999999999,0.249627,0.082183,0.1446825,0.508217,0.010269,0.2316425,0.257317,0.067756,-0.2731174999999999,0.043632,0.011541,0.2587225,0.046636,0.029299,-0.0611175,-0.003301,0.001965,0.0611175,0.0033009999999999,-0.001965,-0.1234075,-0.358683,-0.0011709999999999,0.1215525,-0.351163,-0.0026969999999999,-0.1215775,-0.709033,0.103157,0.1739925,-0.809803,0.04347,0
154,-0.033186,0.768207,0.04331,-0.189321,0.502537,0.031293,-0.251131,0.241257,0.089888,0.144459,0.507907,0.008375,0.225499,0.249737,0.077036,-0.2639809999999999,0.021786,0.041093,0.255659,0.032284,0.053248,-0.061058,-0.003289,0.0020009999999999,0.061058,0.003289,-0.002001,-0.123531,-0.358643,-0.00123,0.121639,-0.351133,-0.0026569999999999,-0.124711,-0.710733,0.0992349999999999,0.173699,-0.808873,0.0437629999999999,0
155,-0.033552,0.7685839999999999,0.0396445,-0.189725,0.502914,0.0298525,-0.246955,0.234984,0.0948634999999999,0.144335,0.507894,0.0068695,0.221915,0.244784,0.0826345,-0.257295,0.009987,0.0608395,0.255105,0.021942,0.0664085,-0.060994,-0.0032219999999999,0.0020114999999999,0.060994,0.003222,-0.0020114999999999,-0.123645,-0.358566,-0.0012855,0.1217149999999999,-0.351166,-0.0026974999999999,-0.127905,-0.712256,0.0952375,0.1736049999999999,-0.808486,0.0439355,0
156,-0.0338225,0.768878,0.0364525,-0.1901294999999999,0.503208,0.0287724999999999,-0.2460895,0.231768,0.0957575,0.1443605,0.508038,0.0058214999999999,0.2208805,0.242498,0.0841915,-0.2541495,0.0041169999999999,0.0670475,0.2551905,0.015675,0.0689275,-0.0609355,-0.003179,0.0020114999999999,0.0609355,0.003179,-0.0020115,-0.1237395,-0.358532,-0.0014305,0.1218105,-0.351172,-0.0027465,-0.1331794999999999,-0.714302,0.0873465,0.1736105,-0.808352,0.0437184999999999,0
157,-0.0339595,0.7690365,0.033714,-0.1903975,0.5034165,0.027955,-0.2461875,0.2313265,0.095499,0.1444524999999999,0.5080665,0.004963,0.2207825,0.2425764999999999,0.083933,-0.2542474999999999,0.0037214999999999,0.066789,0.2550925,0.0122894999999999,0.068669,-0.0608925,-0.0031875,0.001967,0.0608925,0.0031874999999999,-0.0019669999999999,-0.1238575,-0.3585335,-0.0016559999999999,0.1219225,-0.3511335,-0.002811,-0.1383375,-0.7164735,0.079836,0.1738925,-0.8085735000000001,0.043326,0
158,-0.0340505,0.7691760000000001,0.0312415,-0.1906835,0.503936,0.0273585,-0.2462935,0.231516,0.0950555,0.1445965,0.508086,0.0042845,0.2206765,0.2427659999999999,0.0834895,-0.2543535,0.0039109999999999,0.0663455,0.2549865,0.0124789999999999,0.0682255,-0.0608605,-0.0031839999999999,0.0018835,0.0608605,0.0031839999999999,-0.0018834999999999,-0.1239835,-0.358504,-0.0020174999999999,0.1220665,-0.351124,-0.0027574999999999,-0.1428135,-0.7182139999999999,0.0734195,0.1741365,-0.808554,0.0428325,0
159,-0.0340339999999999,0.7693285000000001,0.029337,-0.191007,0.5045085,0.026765,-0.246367,0.2317185,0.094445,0.144783,0.5081085,0.0036549999999999,0.220603,0.2429684999999999,0.082879,-0.2544269999999999,0.0041134999999999,0.065735,0.255523,0.0126814999999999,0.067571,-0.060872,-0.0031494999999999,0.0017549999999999,0.060872,0.0031494999999999,-0.0017549999999999,-0.124057,-0.3584815,-0.002457,0.122263,-0.3511315,-0.0027159999999999,-0.145967,-0.7193415,0.068671,0.174493,-0.8088615,0.04218,0
160,-0.033987,0.7695135000000001,0.0278065,-0.19135,0.5050935,0.0259925,-0.24731,0.2319735,0.0920565,0.14497,0.5082535,0.0028445,0.2212,0.2432234999999999,0.0805925,-0.25497,0.0043685,0.0625565,0.25891,0.0129365,0.0600285,-0.060883,-0.0030474999999999,0.0016065,0.060883,0.0030475,-0.0016064999999999,-0.12412,-0.3583865,-0.0029584999999999,0.12256,-0.3511665,-0.0026084999999999,-0.15207,-0.7309365,0.0615045,0.17492,-0.8089765,0.0415205,0
161,-0.0339385,0.7697155,0.026602,-0.1916955,0.5056155,0.025084,-0.2500855,0.2333354999999999,0.086289,0.1451345,0.5084455,0.0018999999999999,0.2230445,0.2456855,0.075328,-0.2591855,0.0070954999999999,0.049654,0.2624145,0.0155534999999999,0.0422779999999999,-0.0609095,-0.0029155,0.0014419999999999,0.0609095,0.0029155,-0.0014419999999999,-0.1241954999999999,-0.3582645,-0.003359,0.1229244999999999,-0.3511545,-0.0019259999999999,-0.1555254999999999,-0.7319045000000001,0.057221,0.1752945,-0.8086745000000001,0.040401,0
162,-0.0339374999999999,0.7699370000000001,0.025478,-0.1919904999999999,0.505987,0.024041,-0.2548105,0.236887,0.078025,0.1453095,0.508797,0.00101,0.2254795,0.248887,0.06752,-0.2657305,0.0144419999999999,0.029746,0.2665095,0.0242,0.021181,-0.0609275,-0.002774,0.001227,0.0609275,0.0027739999999999,-0.0012269999999999,-0.1243205,-0.358123,-0.0037589999999999,0.1232695,-0.351163,-0.001298,-0.1580705,-0.741633,0.0555,0.1757195,-0.808303,0.039172,0
163,-0.0340005,0.7702225,0.0242574999999999,-0.1922525,0.5064025,0.0231124999999999,-0.2602525,0.2421425,0.0675534999999999,0.1455074999999999,0.5091825,0.0003444999999999,0.2282575,0.2518325,0.0575554999999999,-0.2735825,0.0241494999999999,0.0058254999999999,0.2719075,0.0322095,-0.0052765,-0.0609694999999999,-0.0026295,0.0009724999999999,0.0609694999999999,0.0026295,-0.0009725,-0.1244525,-0.3579775,-0.0041605,0.1235875,-0.3511975,-0.0007585,-0.1606125,-0.7513875000000001,0.0536624999999999,0.1760675,-0.8078875000000001,0.0378875,0
164,-0.0341375,0.7704975,0.0230115,-0.1925125,0.5068475,0.0221915,-0.2660524999999999,0.2483675,0.0550195,0.1456875,0.5095375,-0.0001774999999999,0.2308375,0.2541575,0.0456355,-0.2822624999999999,0.0353425,-0.0248305,0.2747375,0.0424424999999999,-0.0359515,-0.0610085,-0.0024955,0.0007515,0.0610085,0.0024954999999999,-0.0007515,-0.1246025,-0.3578325,-0.0045214999999999,0.1238674999999999,-0.3512324999999999,-0.0002595,-0.1613225,-0.7514325000000001,0.0524305,0.1762775,-0.8066625000000001,0.0365675,0
165,-0.034284,0.770757,0.021956,-0.192736,0.5072369999999999,0.021311,-0.271206,0.2549369999999999,0.041324,0.145794,0.509877,-0.000736,0.2330539999999999,0.256257,0.032387,-0.2895959999999999,0.048008,-0.055567,0.276614,0.052278,-0.066452,-0.061043,-0.002381,0.000557,0.061043,0.002381,-0.000557,-0.124746,-0.357713,-0.0048769999999999,0.124084,-0.351283,0.0001169999999999,-0.161896,-0.751473,0.051162,0.1765739999999999,-0.8055329999999999,0.03529,0
166,-0.0343845,0.7709115,0.021384,-0.1929565,0.5074815,0.02052,-0.2753465,0.2619715,0.028229,0.1457935,0.5102114999999999,-0.0012769999999999,0.2357435,0.2582615,0.016438,-0.2948564999999999,0.0638395,-0.083412,0.2760335,0.0620015,-0.0980619999999999,-0.0610935,-0.0022665,0.000414,0.0610935,0.0022664999999999,-0.0004139999999999,-0.1248965,-0.3575985,-0.0052209999999999,0.1242534999999999,-0.3513385,0.000386,-0.1620465,-0.7514185,0.049882,0.1765035,-0.8042185,0.034105,0
167,-0.0344475,0.770982,0.021186,-0.1931525,0.507592,0.019961,-0.2783625,0.268802,0.0167319999999999,0.1457475,0.510452,-0.001582,0.2372475,0.259762,0.0017939999999999,-0.2982725,0.079629,-0.108876,0.2739775,0.073521,-0.126226,-0.0611485,-0.002198,0.0003389999999999,0.0611485,0.0021979999999999,-0.0003389999999999,-0.1250224999999999,-0.357528,-0.005471,0.1243775,-0.351338,0.0005449999999999,-0.1622025,-0.751408,0.048846,0.1766375,-0.803448,0.032581,0
168,-0.0345344999999999,0.7710595,0.02132,-0.1933895,0.5076295,0.019636,-0.2804195,0.2753795,0.007586,0.1456805,0.5106895,-0.0017799999999999,0.2380205,0.2601894999999999,-0.0109259999999999,-0.2999795,0.0942845,-0.1307019999999999,0.2723305,0.0822675,-0.148662,-0.0612034999999999,-0.0021605,0.000313,0.0612034999999999,0.0021604999999999,-0.000313,-0.1251695,-0.3574705,-0.005689,0.1244405,-0.3513405,0.000625,-0.1623195,-0.7510604999999999,0.04792,0.1768705,-0.8031105000000001,0.031227,0
169,-0.0346605,0.7710685,0.0217745,-0.1936505,0.5075284999999999,0.0195085,-0.2819305,0.2775885,0.0002845,0.1456395,0.5108685,-0.0017754999999999,0.2383495,0.2604585,-0.0217384999999999,-0.3012804999999999,0.1029165,-0.1484565,0.2709395,0.0906484999999999,-0.1676365,-0.0612545,-0.0021654999999999,0.0003195,0.0612545,0.0021655,-0.0003194999999999,-0.1253005,-0.3574715,-0.0058874999999999,0.1243794999999999,-0.3513415,0.0003795,-0.1642005,-0.7608115,0.0471575,0.1771095,-0.8037115,0.0300605,0
170,-0.034791,0.7708630000000001,0.0224285,-0.193984,0.507063,0.0196135,-0.282984,0.2785229999999999,-0.0049014999999999,0.145636,0.510953,-0.0015734999999999,0.238216,0.260673,-0.0309964999999999,-0.3022439999999999,0.107596,-0.1617215,0.264986,0.096082,-0.1806015,-0.061281,-0.002197,0.0003455,0.061281,0.0021969999999999,-0.0003454999999999,-0.125414,-0.3574969999999999,-0.0062694999999999,0.124316,-0.3513969999999999,-0.0001754999999999,-0.166624,-0.775067,0.0450925,0.177296,-0.804177,0.0290855,0
171,-0.03494,0.7706325,0.0232375,-0.194335,0.5064925,0.0199405,-0.283165,0.2812025,-0.0075225,0.145645,0.5110125,-0.0011564999999999,0.2381049999999999,0.2616225,-0.0326995,-0.302645,0.1119624999999999,-0.1674095,0.258615,0.0989895,-0.1866895,-0.061291,-0.0022425,0.0004315,0.061291,0.0022425,-0.0004315,-0.125445,-0.3575475,-0.0065355,0.124305,-0.3514475,-0.0004434999999999,-0.166625,-0.7754475,0.0448155,0.1774849999999999,-0.8049575,0.0284624999999999,0
172,-0.0351665,0.7704075,0.0241545,-0.1947225,0.5058875,0.0203605,-0.2832225,0.2829775,-0.0084155,0.1456075,0.5110475,-0.0006345,0.2380975,0.2620475,-0.0329195,-0.3008325,0.1128695,-0.1686585,0.2506975,0.0991045,-0.1887585,-0.0612935,-0.0022905,0.0005005,0.0612935,0.0022904999999999,-0.0005005,-0.1254525,-0.3576025,-0.0066044999999999,0.1242875,-0.3515125,-0.0005114999999999,-0.1688225,-0.7903025,0.0427914999999999,0.1774675,-0.8058025,0.0280634999999999,0
173,-0.035479,0.770128,0.0252135,-0.195178,0.505288,0.0208765,-0.2832179999999999,0.283698,-0.0084155,0.145532,0.511078,-9.15000000000013e-05,0.238102,0.261888,-0.0329855,-0.297118,0.11359,-0.1689185,0.243472,0.099825,-0.1882485,-0.061298,-0.002339,0.0005005,0.061298,0.002339,-0.0005005,-0.125458,-0.357652,-0.0066034999999999,0.124142,-0.351562,-0.0009535,-0.171018,-0.805182,0.0408395,0.177442,-0.804452,0.0276595,0
174,-0.035861,0.7698425,0.0260014999999999,-0.195678,0.5047425,0.0212185,-0.281748,0.2844025,-0.0085195,0.1453819999999999,0.5110625,0.0002785,0.234952,0.2608425,-0.0327765,-0.292838,0.1142945,-0.1692285,0.236282,0.1000035,-0.1877385,-0.061298,-0.0023844999999999,0.0005005,0.061298,0.0023844999999999,-0.0005005,-0.125478,-0.3577175,-0.0066594999999999,0.123902,-0.3516275,-0.0015884999999999,-0.171418,-0.8103874999999999,0.0392555,0.177202,-0.8037475,0.0276765,0
175,-0.036276,0.7696605,0.0265294999999999,-0.196141,0.5042705,0.0214515,-0.279861,0.2835505,-0.0086245,0.145209,0.5110005,0.0005644999999999,0.231769,0.2598805,-0.0325205,-0.288411,0.1150025,-0.1695125,0.2294189999999999,0.0992214999999999,-0.1872125,-0.061294,-0.0024295,0.0005304999999999,0.061294,0.0024295,-0.0005305,-0.125471,-0.3577694999999999,-0.0067905,0.123879,-0.3516694999999999,-0.0022655,-0.171811,-0.8155595,0.0377544999999999,0.177229,-0.8030395,0.0272614999999999,0
176,-0.0367035,0.7694785,0.026971,-0.1965525,0.5038585,0.02169,-0.2775925,0.2811585,-0.0084189999999999,0.1449575,0.5108185000000001,0.0007489999999999,0.2284375,0.2582685,-0.031503,-0.2832325,0.1091505,-0.164348,0.2238775,0.0924975,-0.183738,-0.0612775,-0.0024855,0.0006299999999999,0.0612775,0.0024854999999999,-0.0006299999999999,-0.1254125,-0.3578415,-0.006939,0.1238975,-0.3516915,-0.002935,-0.1739425,-0.8304915,0.035696,0.1772675,-0.8041915000000001,0.027574,0
177,-0.037145,0.7693335,0.02739,-0.19694,0.5035235,0.022007,-0.27484,0.2780335,-0.0072829999999999,0.14464,0.5105635000000001,0.001062,0.2250599999999999,0.2564935,-0.029751,-0.2781,0.1013334999999999,-0.15655,0.21921,0.0812215,-0.17718,-0.061258,-0.0025405,0.0007209999999999,0.061258,0.0025405,-0.0007209999999999,-0.12534,-0.3579065,-0.007078,0.12397,-0.3516565,-0.0035509999999999,-0.1742,-0.8359065,0.034281,0.17759,-0.8049364999999999,0.027523,0
178,-0.037553,0.76922,0.0279154999999999,-0.197268,0.5032800000000001,0.0225275,-0.271838,0.27321,-0.0050155,0.144382,0.51026,0.0015764999999999,0.220502,0.25412,-0.0243725,-0.273118,0.0866769999999999,-0.1448884999999999,0.216412,0.0695129999999999,-0.1621584999999999,-0.061216,-0.002619,0.0008194999999999,0.061216,0.0026189999999999,-0.0008195,-0.1252579999999999,-0.358,-0.0071585,0.124042,-0.35158,-0.0045065,-0.1744379999999999,-0.84123,0.0331355,0.178032,-0.81042,0.0273924999999999,0
179,-0.0379474999999999,0.7691195,0.0285805,-0.1975095,0.5031995,0.0231815,-0.2686595,0.2673295,-0.0015034999999999,0.1441605,0.5098395,0.0022294999999999,0.2165705,0.2512895,-0.0175735,-0.2688595,0.0694925,-0.1306695,0.2180004999999999,0.0577255,-0.1427295,-0.0611645,-0.0027024999999999,0.0009525,0.0611645,0.0027025,-0.0009525,-0.1251495,-0.3581204999999999,-0.0072585,0.1241305,-0.3514805,-0.0053295,-0.1764795,-0.8561705000000001,0.0315685,0.1776605,-0.8098305,0.0277835,0
180,-0.0383045,0.7690100000000001,0.029373,-0.1977085,0.50317,0.023914,-0.2654285,0.26071,0.003332,0.1439315,0.50933,0.002844,0.2134215,0.2482,-0.0094919999999999,-0.2652385,0.050724,-0.113652,0.2198415,0.046484,-0.1201019999999999,-0.0610995,-0.002785,0.001094,0.0610995,0.002785,-0.0010939999999999,-0.1250185,-0.35824,-0.0073849999999999,0.1239415,-0.3514199999999999,-0.0059039999999999,-0.1764285,-0.8562299999999999,0.032083,0.1770215,-0.80917,0.027189,0
181,-0.0385995,0.768939,0.030082,-0.1979095,0.503189,0.024663,-0.2622795,0.256079,0.009319,0.1437505,0.508829,0.003408,0.2111105,0.245429,-0.000279,-0.2634295,0.036945,-0.093776,0.2218205,0.036246,-0.095726,-0.0610325,-0.002862,0.00121,0.0610325,0.0028619999999999,-0.00121,-0.1248695,-0.358351,-0.007445,0.1237605,-0.351301,-0.006182,-0.1763495,-0.856261,0.032697,0.1756505,-0.808561,0.027242,0
182,-0.0387965,0.7689415000000001,0.0306994999999999,-0.1981125,0.5031915,0.0253104999999999,-0.2591525,0.2513815,0.0167944999999999,0.1436175,0.5083915,0.0038754999999999,0.2097575,0.2425415,0.0104574999999999,-0.2616325,0.0233655,-0.0725625,0.2248875,0.0259675,-0.0706825,-0.0609535,-0.0028644999999999,0.0013294999999999,0.0609535,0.0028644999999999,-0.0013295,-0.1246825,-0.3583985,-0.0073515,0.1236375,-0.3512984999999999,-0.0062145,-0.1762225,-0.8562585,0.0333655,0.1735475,-0.8000585,0.0272525,0
183,-0.038936,0.7689415000000001,0.0310985,-0.198276,0.5031915,0.0260115,-0.257976,0.2479414999999999,0.0239555,0.143574,0.5080215,0.0042565,0.210474,0.2402115,0.0158855,-0.259986,0.0119324999999999,-0.0541325,0.229194,0.0169975,-0.0495385,-0.060889,-0.0028644999999999,0.0014195,0.060889,0.0028644999999999,-0.0014194999999999,-0.124426,-0.3583985,-0.0072304999999999,0.123474,-0.3512984999999999,-0.0061354999999999,-0.175836,-0.8562585,0.0341105,0.173454,-0.8001185,0.0278615,0
184,-0.0390195,0.7689315,0.0313785,-0.1984295,0.5031915,0.0267545,-0.2571095,0.2447814999999999,0.0314085,0.1435805,0.5077214999999999,0.0045655,0.2112205,0.2382214999999999,0.0218045,-0.2584295,0.0019815,-0.0369154999999999,0.2329304999999999,0.0090095,-0.0310184999999999,-0.0608205,-0.0028644999999999,0.0015105,0.0608205,0.0028644999999999,-0.0015104999999999,-0.1241695,-0.3583985,-0.0071154999999999,0.1234804999999999,-0.3512984999999999,-0.0060124999999999,-0.1755095,-0.8562585,0.0349155,0.1726504999999999,-0.8014785,0.0289175,0
185,-0.0390055,0.7688925,0.031319,-0.1985545,0.5032525,0.0274729999999999,-0.2562445,0.2422925,0.038729,0.1437255,0.5075325,0.0047439999999999,0.2119855,0.2376924999999999,0.027715,-0.2587445,-0.0026685,-0.021649,0.2378655,0.0049475,-0.016163,-0.0607535,-0.0029235,0.001582,0.0607535,0.0029234999999999,-0.001582,-0.1238945,-0.3584575,-0.007017,0.1234155,-0.3511875,-0.005825,-0.1751445,-0.8562675000000001,0.035879,0.1727155,-0.8021775,0.031079,0
186,-0.039302,0.769216,0.0315779999999999,-0.1992689999999999,0.503726,0.0280919999999999,-0.251349,0.234576,0.0517599999999999,0.143491,0.506676,0.0049079999999999,0.211481,0.230566,0.042453,-0.256619,-0.023988,0.0039629999999999,0.245151,0.0018589999999999,0.0195689999999999,-0.060564,-0.003127,0.0018689999999999,0.060564,0.0031269999999999,-0.001869,-0.123739,-0.358694,-0.006941,0.125781,-0.350614,-0.006464,-0.1746589999999999,-0.856244,0.037244,0.173341,-0.793294,0.033301,0
187,-0.0389445,0.7688955,0.0306489999999999,-0.1989135,0.5036255000000001,0.0289739999999999,-0.2520835,0.2339855,0.0585479999999999,0.1441265,0.5065755000000001,0.0052409999999999,0.2156765,0.2312055,0.047212,-0.2602635,-0.0203335,0.0156959999999999,0.2492964999999999,0.0023545,0.0271329999999999,-0.0606685,-0.0031715,0.0017449999999999,0.0606685,0.0031715,-0.001745,-0.1230435,-0.3588445,-0.00666,0.1225065,-0.3509645,-0.003846,-0.1749635,-0.8563845,0.036938,0.1597765,-0.7182145,0.0267209999999999,0
188,-0.0386385,0.768849,0.0305505,-0.1987725,0.503559,0.0299115,-0.2536425,0.234279,0.0655075,0.1445575,0.506569,0.0055424999999999,0.2198375,0.233389,0.0520005,-0.2630525,-0.0164529999999999,0.0249255,0.2554975,-0.0041799999999999,0.0327625,-0.0606795,-0.0031399999999999,0.0016625,0.0606795,0.00314,-0.0016624999999999,-0.1228325,-0.3588309999999999,-0.0063994999999999,0.1227475,-0.350921,-0.0033064999999999,-0.1751125,-0.856271,0.0379125,0.1579175,-0.717811,0.0318345,0
189,-0.038089,0.76872,0.0302765,-0.198485,0.5037,0.0305935,-0.254705,0.23485,0.0683925,0.1452449999999999,0.50661,0.0057455,0.223825,0.23613,0.0555965,-0.265305,-0.015324,0.0282005,0.259075,-0.006536,0.0339795,-0.060632,-0.0030649999999999,0.0016205,0.060632,0.0030649999999999,-0.0016204999999999,-0.1223249999999999,-0.35882,-0.0062044999999999,0.123205,-0.35085,-0.0027944999999999,-0.174285,-0.85621,0.0389165,0.157945,-0.71802,0.0307095,0
190,-0.037908,0.7682775000000001,0.030533,-0.1983589999999999,0.5038075,0.031316,-0.255569,0.2354775,0.070498,0.145541,0.5066275,0.0060699999999999,0.225481,0.2362475,0.056409,-0.268379,-0.0122064999999999,0.029684,0.261961,0.0030615,0.033021,-0.06073,-0.0029655,0.0015319999999999,0.06073,0.0029655,-0.0015319999999999,-0.122159,-0.3587225,-0.0057079999999999,0.123381,-0.3508925,-0.002265,-0.1739089999999999,-0.8560924999999999,0.039773,0.179491,-0.8074024999999999,0.036078,0
191,-0.037703,0.768131,0.0298505,-0.198274,0.503941,0.0315855,-0.257044,0.235821,0.0710145,0.145826,0.506701,0.0061034999999999,0.226696,0.237541,0.0565675,-0.272574,-0.004948,0.0295754999999999,0.264046,0.0077819999999999,0.0277874999999999,-0.060836,-0.0028779999999999,0.0014855,0.060836,0.0028779999999999,-0.0014855,-0.122004,-0.358659,-0.0055704999999999,0.124186,-0.351209,-0.0056335,-0.173704,-0.856029,0.0399454999999999,0.175176,-0.818089,0.0601115,0
192,-0.0376235,0.7682224999999999,0.029496,-0.1983825,0.5042925,0.03205,-0.2593825,0.2370525,0.069538,0.1460375,0.5069325,0.006059,0.2281274999999999,0.2391025,0.053413,-0.2781625,0.0014644999999999,0.024347,0.2632775,0.0122314999999999,0.011731,-0.0608845,-0.0028205,0.001463,0.0608845,0.0028204999999999,-0.0014629999999999,-0.1219025,-0.3586175,-0.0054789999999999,0.1243875,-0.3512375,-0.0055549999999999,-0.1743725,-0.8559475000000001,0.039694,0.1805375,-0.8153675,0.047776,0
