sb224sc-HT22-VT27/4dt907/src/data/labeled_files/A67_kinect.csv
FrameNo,nose_3d_x,nose_3d_y,nose_3d_z,left_shoulder_3d_x,left_shoulder_3d_y,left_shoulder_3d_z,left_elbow_3d_x,left_elbow_3d_y,left_elbow_3d_z,right_shoulder_3d_x,right_shoulder_3d_y,right_shoulder_3d_z,right_elbow_3d_x,right_elbow_3d_y,right_elbow_3d_z,left_wrist_3d_x,left_wrist_3d_y,left_wrist_3d_z,right_wrist_3d_x,right_wrist_3d_y,right_wrist_3d_z,left_hip_3d_x,left_hip_3d_y,left_hip_3d_z,right_hip_3d_x,right_hip_3d_y,right_hip_3d_z,left_knee_3d_x,left_knee_3d_y,left_knee_3d_z,right_knee_3d_x,right_knee_3d_y,right_knee_3d_z,left_ankle_3d_x,left_ankle_3d_y,left_ankle_3d_z,right_ankle_3d_x,right_ankle_3d_y,right_ankle_3d_z,activity_label
0,-0.0374074999999999,0.76911,0.0386144999999999,-0.2012775,0.50497,0.0227404999999999,-0.2462375,0.26081,0.0183494999999999,0.1422725,0.504,0.0094754999999999,0.2013625,0.23402,0.0008634999999999,-0.2261274999999999,0.0230919999999999,-0.0679225,0.2061025,0.0206939999999999,-0.0787525,-0.0619065,-0.003448,-0.0013245,0.0619065,0.003448,0.0013244999999999,-0.1240575,-0.35918,-0.0067645,0.1185725,-0.35073,0.0094644999999999,-0.1732874999999999,-0.85776,0.0359484999999999,0.1884325,-0.87744,0.0250714999999999,0
1,-0.039956,0.7688805,0.040196,-0.202898,0.5042805,0.02362,-0.247138,0.2599605,0.018845,0.140652,0.5044105,0.010547,0.200622,0.2344605,0.0019979999999999,-0.226198,0.0223435,-0.067893,0.205832,0.0212395,-0.078543,-0.06188,-0.0036544999999999,-0.0012959999999999,0.06188,0.0036544999999999,0.0012959999999999,-0.122808,-0.3595795,-0.0075889999999999,0.118972,-0.3508394999999999,0.005916,-0.165668,-0.8580795,0.040237,0.172322,-0.8800095,0.0389,0
2,-0.0399015,0.768834,0.0396655,-0.2028595,0.504344,0.0232785,-0.2471594999999999,0.259864,0.0187635,0.1406704999999999,0.504374,0.0104365,0.2006204999999999,0.234974,0.0022175,-0.2263695,0.022674,-0.0678975,0.2058705,0.021558,-0.0786075,-0.0618635,-0.003679,-0.0012775,0.0618635,0.003679,0.0012775,-0.1228095,-0.359616,-0.0076335,0.1189905,-0.3508059999999999,0.0058855,-0.1650495,-0.858206,0.0398375,0.1804505,-0.8794259999999999,0.0320735,0
3,-0.039784,0.7687275,0.03931,-0.202657,0.5043775,0.023063,-0.247197,0.2599875,0.018549,0.140883,0.5043675000000001,0.010442,0.200683,0.2349175,0.0022289999999999,-0.226837,0.0243875,-0.067472,0.205933,0.0217845,-0.078712,-0.06182,-0.0037095,-0.00136,0.06182,0.0037095,0.00136,-0.122747,-0.3596525,-0.0077899999999999,0.1191629999999999,-0.3504425,0.008298,-0.164917,-0.8581624999999999,0.040383,0.181373,-0.8815424999999999,0.031659,0
4,-0.0397835,0.7687055,0.0392435,-0.2026875,0.5043855,0.0228725,-0.2473774999999999,0.2605555,0.0181625,0.1409024999999999,0.5043655,0.0103345,0.2006425,0.2348354999999999,0.0022215,-0.2273974999999999,0.0259605,-0.0678054999999999,0.2056325,0.0217665,-0.0786755,-0.0618215,-0.0037035,-0.0013904999999999,0.0618215,0.0037035,0.0013905,-0.1227775,-0.3596345,-0.0077154999999999,0.1191425,-0.3504545,0.0082695,-0.1651875,-0.8583345,0.0387645,0.1826924999999999,-0.8822844999999999,0.0295375,0
5,-0.0397065,0.7684960000000001,0.038839,-0.2024814999999999,0.504346,0.022489,-0.2475715,0.260606,0.017126,0.1409885,0.504346,0.010132,0.2006885,0.234736,0.002047,-0.2272914999999999,0.026234,-0.0683049999999999,0.2051485,0.021178,-0.079555,-0.0618095,-0.003735,-0.0014659999999999,0.0618095,0.0037349999999999,0.001466,-0.1227215,-0.3596839999999999,-0.0079189999999999,0.1191885,-0.350444,0.008117,-0.1633814999999999,-0.858484,0.038939,0.1891785,-0.8865839999999999,0.031031,0
6,-0.0396025,0.7684045,0.0387135,-0.2023424999999999,0.5044045,0.0222134999999999,-0.2475525,0.2604745,0.0169604999999999,0.1410975,0.5043045,0.0100395,0.2007475,0.2346745,0.0019574999999999,-0.2272525,0.0271235,-0.0685675,0.2050274999999999,0.0210395,-0.0810275,-0.0617925,-0.0037714999999999,-0.0015155,0.0617925,0.0037715,0.0015154999999999,-0.1225825,-0.3597355,-0.0079425,0.1192075,-0.3504155,0.0080474999999999,-0.1644625,-0.8585155,0.0383304999999999,0.1881675,-0.8870454999999999,0.0302074999999999,0
7,-0.0394615,0.768508,0.03848,-0.2021595,0.504618,0.021803,-0.2475695,0.260838,0.016681,0.1411405,0.504388,0.009982,0.2006905,0.2349679999999999,0.001647,-0.2274895,0.027489,-0.069037,0.2049405,0.021237,-0.081607,-0.0618075,-0.0037159999999999,-0.0015289999999999,0.0618075,0.003716,0.001529,-0.1226395,-0.359682,-0.007938,0.1192805,-0.3504819999999999,0.007757,-0.1655595,-0.858382,0.037932,0.1866904999999999,-0.885412,0.030089,0
8,-0.039464,0.7685085,0.038449,-0.202166,0.5045784999999999,0.0216929999999999,-0.247636,0.2607085,0.0164329999999999,0.1411339999999999,0.5043785,0.0099089999999999,0.2006639999999999,0.2349085,0.0015879999999999,-0.227626,0.0272935,-0.069269,0.2047739999999999,0.0211775,-0.082229,-0.06181,-0.0037155,-0.001566,0.06181,0.0037155,0.0015659999999999,-0.122646,-0.3596715,-0.008089,0.1192739999999999,-0.3504815,0.0076159999999999,-0.165566,-0.8583815,0.0378299999999999,0.186574,-0.8864315,0.030166,0
9,-0.0393745,0.7684785,0.038334,-0.2020795,0.5045784999999999,0.021517,-0.2476695,0.2607085,0.016171,0.1411905,0.5043785,0.009836,0.2006505,0.2349085,0.001522,-0.2276794999999999,0.0272935,-0.069548,0.2046005,0.0211395,-0.0830279999999999,-0.0618075,-0.0037155,-0.0016009999999999,0.0618075,0.0037155,0.001601,-0.1226395,-0.3596715,-0.008181,0.1193705,-0.3504815,0.007511,-0.1658195,-0.8584115,0.037589,0.1865505,-0.8864315,0.029608,0
10,-0.0392885,0.7684685,0.0382325,-0.2020075,0.5045784999999999,0.0213725,-0.2476775,0.2607085,0.0160435,0.1412425,0.5043785,0.0097825,0.2006224999999999,0.2348985,0.0014404999999999,-0.2277374999999999,0.0272935,-0.0698075,0.2044825,0.0209985,-0.0838075,-0.0618075,-0.0037155,-0.0016284999999999,0.0618075,0.0037155,0.0016284999999999,-0.1226375,-0.3596715,-0.0082605,0.1193725,-0.3504815,0.0075204999999999,-0.1661975,-0.8584315,0.0373155,0.1869825,-0.8873515,0.0291485,0
11,-0.039119,0.7684245,0.038144,-0.201885,0.5046444999999999,0.021247,-0.247675,0.2608245,0.015939,0.141335,0.5043745,0.0097969999999999,0.200605,0.2349045,0.0013599999999999,-0.227785,0.0275695,-0.070038,0.204365,0.0208005,-0.084418,-0.061805,-0.0037045,-0.00165,0.061805,0.0037045,0.0016499999999999,-0.1226749999999999,-0.3596655,-0.008328,0.119355,-0.3505155,0.0073519999999999,-0.166625,-0.8584155000000001,0.037058,0.186945,-0.8870755,0.028398,0
12,-0.038947,0.768373,0.03806,-0.201798,0.504703,0.021157,-0.247678,0.260873,0.015879,0.141442,0.5043529999999999,0.0098369999999999,0.200572,0.2349329999999999,0.001282,-0.227788,0.0278259999999999,-0.0702079999999999,0.204232,0.020557,-0.084928,-0.061805,-0.0036939999999999,-0.0016629999999999,0.061805,0.003694,0.001663,-0.122728,-0.359647,-0.008397,0.119312,-0.350547,0.007179,-0.166898,-0.858387,0.03692,0.186902,-0.883577,0.02779,0
13,-0.0387815,0.7683344999999999,0.0379805,-0.2017105,0.5047545,0.0210795,-0.2476805,0.2609145,0.0158245,0.1415294999999999,0.5043445,0.0098835,0.2005394999999999,0.2349445,0.0012065,-0.2277905,0.0280284999999999,-0.0702825,0.2041295,0.0203585,-0.0853724999999999,-0.0618045,-0.0036784999999999,-0.0016714999999999,0.0618045,0.0036785,0.0016715,-0.1227605,-0.3596255,-0.0084645,0.1192594999999999,-0.3505955,0.0067845,-0.1672705,-0.8583555,0.0367365,0.1859195,-0.8795955000000001,0.0272915,0
14,-0.0386209999999999,0.7683065,0.037909,-0.201639,0.5047965,0.021019,-0.2476789999999999,0.2609665,0.015784,0.141631,0.5043365,0.009942,0.2004909999999999,0.2349665,0.001148,-0.2277989999999999,0.0281335,-0.0703419999999999,0.204021,0.0202205,-0.085732,-0.061806,-0.0036595,-0.001686,0.061806,0.0036595,0.001686,-0.122759,-0.3595635,-0.0084759999999999,0.119201,-0.3506634999999999,0.006404,-0.1677489999999999,-0.8583135,0.036726,0.184941,-0.8755335,0.026784,0
15,-0.0384435,0.7682690000000001,0.037835,-0.2015745,0.5048090000000001,0.020984,-0.2476545,0.260999,0.015755,0.1417155,0.5043190000000001,0.010014,0.2004455,0.234989,0.001106,-0.2277745,0.027911,-0.0703709999999999,0.2039355,0.020098,-0.0859909999999999,-0.0618045,-0.0036439999999999,-0.0016899999999999,0.0618045,0.003644,0.00169,-0.1228045,-0.359541,-0.0085389999999999,0.1192955,-0.350691,0.006361,-0.1677545,-0.858231,0.036697,0.1849155,-0.875671,0.026438,0
16,-0.0382795,0.7682435000000001,0.0377835,-0.2014985,0.5048135,0.0209605,-0.2475985,0.2609435,0.0158164999999999,0.1418215,0.5043035,0.0101064999999999,0.2003915,0.2349834999999999,0.0010814999999999,-0.2276985,0.0275835,-0.0703985,0.2038714999999999,0.0200235,-0.0862085,-0.0618025,-0.0036294999999999,-0.0016865,0.0618025,0.0036295,0.0016864999999999,-0.1228485,-0.3595164999999999,-0.0085895,0.1193015,-0.3507364999999999,0.0064394999999999,-0.1677585,-0.8581565,0.0366975,0.1854114999999999,-0.8797564999999999,0.0268565,0
17,-0.0381245,0.7682195,0.037738,-0.2014294999999999,0.5048095,0.020948,-0.2474795,0.2607795,0.015935,0.1419205,0.5042895000000001,0.010192,0.2003605,0.2349795,0.0010499999999999,-0.2275795,0.0270855,-0.070421,0.2038005,0.0198785,-0.086391,-0.0618025,-0.0036095,-0.001682,0.0618025,0.0036095,0.0016819999999999,-0.1228795,-0.3594905,-0.0086489999999999,0.1192505,-0.3507905,0.006192,-0.1677594999999999,-0.8580705,0.036801,0.1854005,-0.8801905,0.026822,0
18,-0.0379739999999999,0.768196,0.0376945,-0.201367,0.504816,0.0209395,-0.247287,0.260526,0.0160745,0.142003,0.504256,0.0102785,0.200333,0.234956,0.0010215,-0.227467,0.026658,-0.0704225,0.203763,0.019731,-0.0864524999999999,-0.061805,-0.0035899999999999,-0.0016774999999999,0.061805,0.00359,0.0016775,-0.1229369999999999,-0.359464,-0.0087574999999999,0.119183,-0.350834,0.0061835,-0.1676669999999999,-0.858004,0.0371665,0.185313,-0.8803639999999999,0.0267465,0
19,-0.0378065,0.7681790000000001,0.037656,-0.2013005,0.504819,0.020941,-0.2470605,0.260289,0.016234,0.1420895,0.504239,0.010368,0.2002995,0.234929,0.000998,-0.2273605,0.026256,-0.07044,0.2037195,0.019676,-0.08651,-0.0618085,-0.003561,-0.0016719999999999,0.0618085,0.003561,0.001672,-0.1229804999999999,-0.359431,-0.008874,0.1190695,-0.350861,0.006327,-0.1675505,-0.857931,0.037529,0.1849695,-0.880681,0.026149,0
20,-0.0377135,0.76818,0.037628,-0.2012885,0.5048,0.020942,-0.2468085,0.25999,0.016373,0.1421214999999999,0.50425,0.010402,0.2002715,0.23492,0.000981,-0.2272685,0.025812,-0.070407,0.2036915,0.019623,-0.086567,-0.0618125,-0.003544,-0.001667,0.0618125,0.003544,0.001667,-0.1230285,-0.35945,-0.0089889999999999,0.1190715,-0.35089,0.005959,-0.1674785,-0.85791,0.037916,0.1839915,-0.87671,0.025211,0
21,-0.037638,0.7681855,0.037606,-0.201284,0.5047855,0.0209429999999999,-0.246554,0.2596254999999999,0.0165069999999999,0.142146,0.5042555,0.0104269999999999,0.200236,0.2349055,0.0009709999999999,-0.227174,0.0253915,-0.070381,0.203626,0.0195805,-0.086611,-0.061819,-0.0035245,-0.001667,0.061819,0.0035245,0.0016669999999999,-0.123084,-0.3594345,-0.009066,0.119096,-0.3509044999999999,0.0059079999999999,-0.167484,-0.8579045000000001,0.0380459999999999,0.183736,-0.8773845,0.0241449999999999,0
22,-0.037567,0.768189,0.037589,-0.201293,0.5047590000000001,0.020945,-0.246233,0.259139,0.016616,0.1421569999999999,0.504269,0.010454,0.2001969999999999,0.2349089999999999,0.000968,-0.227083,0.0249759999999999,-0.070364,0.203587,0.0195219999999999,-0.0866239999999999,-0.061825,-0.0035069999999999,-0.0016679999999999,0.061825,0.0035069999999999,0.001668,-0.123123,-0.359401,-0.009069,0.119117,-0.350911,0.005865,-0.167653,-0.857901,0.038249,0.183857,-0.877261,0.02351,0
23,-0.0375145,0.7681935000000001,0.0375105,-0.2013144999999999,0.5047435,0.0209234999999999,-0.2459144999999999,0.2586235,0.0167205,0.1421855,0.5042835,0.0104924999999999,0.2001455,0.2349235,0.0009244999999999,-0.2270045,0.0245575,-0.0703565,0.2035355,0.0194125,-0.0866165,-0.0618355,-0.0034874999999999,-0.0016725,0.0618355,0.0034875,0.0016725,-0.1231345,-0.3593865,-0.0091424999999999,0.1191555,-0.3509165,0.0058364999999999,-0.1675944999999999,-0.8578865,0.0383045,0.1836955,-0.8771264999999999,0.0226805,0
24,-0.03747,0.7681925000000001,0.037429,-0.201342,0.5047425,0.0209049999999999,-0.245622,0.2582725,0.0167869999999999,0.142198,0.5042825,0.0104849999999999,0.200098,0.2349225,0.0008799999999999,-0.226962,0.0245565,-0.070359,0.203518,0.0194795,-0.086629,-0.061843,-0.0034865,-0.001673,0.061843,0.0034865,0.0016729999999999,-0.123032,-0.3593874999999999,-0.009221,0.119118,-0.3509175,0.0061769999999999,-0.167522,-0.8578574999999999,0.0384819999999999,0.184398,-0.8813075,0.022382,0
25,-0.0374255,0.768201,0.0373465,-0.2013595,0.504741,0.0208875,-0.2453595,0.257891,0.0168115,0.1422105,0.504281,0.0104805,0.2000505,0.234921,0.0008215,-0.2268995,0.024555,-0.0703695,0.2035105,0.019541,-0.0866194999999999,-0.0618504999999999,-0.003485,-0.0016714999999999,0.0618504999999999,0.0034849999999999,0.0016715,-0.1229095,-0.359359,-0.0092934999999999,0.1191704999999999,-0.350919,0.0061915,-0.1675295,-0.857819,0.0385755,0.1843205,-0.880799,0.0218625,0
26,-0.0373905,0.768201,0.0372705,-0.2014085,0.504741,0.0208765,-0.2451385,0.257611,0.0168045,0.1422115,0.504281,0.0104835,0.1999915,0.234931,0.0007465,-0.2268485,0.024555,-0.0703724999999999,0.2035015,0.0196249999999999,-0.0865824999999999,-0.0618564999999999,-0.003485,-0.0016734999999999,0.0618564999999999,0.0034849999999999,0.0016735,-0.1228385,-0.359319,-0.0094574999999999,0.1192115,-0.350879,0.0062605,-0.1675685,-0.857789,0.0386715,0.1842915,-0.880799,0.0219205,0
27,-0.037367,0.768171,0.037098,-0.201454,0.504701,0.020825,-0.244964,0.257081,0.0168,0.142216,0.5042909999999999,0.010482,0.199936,0.234911,0.000654,-0.226814,0.024361,-0.0703979999999999,0.203486,0.01944,-0.086528,-0.061859,-0.003477,-0.001673,0.061859,0.003477,0.001673,-0.122774,-0.359359,-0.009624,0.119186,-0.350869,0.0066149999999999,-0.1675839999999999,-0.8577589999999999,0.038816,0.185006,-0.8851289999999999,0.022288,0
28,-0.0373535,0.7681405,0.036912,-0.2015144999999999,0.5046505,0.0207749999999999,-0.2448345,0.2565505,0.0167969999999999,0.1422155,0.5043005,0.0104909999999999,0.1998855,0.2348805,0.000562,-0.2267745,0.0241605,-0.070415,0.2034455,0.0193475,-0.086485,-0.0618615,-0.0034704999999999,-0.001673,0.0618615,0.0034704999999999,0.0016729999999999,-0.1227245,-0.3593895,-0.009741,0.1191855,-0.3508295,0.0070869999999999,-0.1674244999999999,-0.8577195,0.039047,0.1855855,-0.8893095,0.0219159999999999,0
29,-0.0373615,0.768089,0.0367285,-0.2015915,0.504609,0.0207504999999999,-0.2447215,0.255979,0.0168065,0.1422085,0.504299,0.0105115,0.1998185,0.234859,0.0005005,-0.2267315,0.023996,-0.0704555,0.2033785,0.019163,-0.0864455,-0.0618625,-0.003468,-0.0016735,0.0618625,0.003468,0.0016734999999999,-0.1229015,-0.359451,-0.0097944999999999,0.1191485,-0.350801,0.0075255,-0.1672615,-0.857701,0.0392155,0.1857485,-0.889611,0.0218604999999999,0
30,-0.037367,0.7680445,0.036533,-0.201659,0.5045545,0.020746,-0.244609,0.2554445,0.01681,0.142201,0.5043045,0.010534,0.199751,0.2348144999999999,0.000482,-0.2266689999999999,0.0238335,-0.070476,0.203321,0.0188815,-0.0863459999999999,-0.061864,-0.0034675,-0.0016709999999999,0.061864,0.0034674999999999,0.001671,-0.122919,-0.3594755,-0.0098479999999999,0.119061,-0.3508455,0.00726,-0.167459,-0.8577254999999999,0.039144,0.185301,-0.8894854999999999,0.021894,0
31,-0.0373805,0.76802,0.0363355,-0.2017285,0.50451,0.0207395,-0.2445485,0.2549,0.0168075,0.1421915,0.5043,0.0105685,0.1996815,0.23478,0.0004745,-0.2266185,0.023629,-0.0704895,0.2032415,0.018512,-0.0861895,-0.0618635,-0.00347,-0.0016684999999999,0.0618635,0.0034699999999999,0.0016684999999999,-0.1229285,-0.3595,-0.0098984999999999,0.1190015,-0.35085,0.0074395,-0.1676485,-0.85774,0.0389725,0.1844015,-0.88915,0.0219525,0
32,-0.037392,0.767993,0.036128,-0.2018059999999999,0.504463,0.020737,-0.244476,0.254373,0.016804,0.142164,0.5043030000000001,0.010598,0.199614,0.234773,0.000479,-0.226546,0.023411,-0.070495,0.203154,0.017927,-0.085965,-0.061864,-0.0034739999999999,-0.001667,0.061864,0.003474,0.0016669999999999,-0.122956,-0.359517,-0.009946,0.1189939999999999,-0.350827,0.007827,-0.167716,-0.8577469999999999,0.038889,0.183674,-0.888957,0.021997,0
33,-0.0374194999999999,0.7679590000000001,0.0359289999999999,-0.2018984999999999,0.5044190000000001,0.0207539999999999,-0.2444084999999999,0.253859,0.0168009999999999,0.1421215,0.504299,0.0106279999999999,0.1995315,0.234759,0.0004849999999999,-0.2264985,0.0232,-0.0705,0.2030415,0.01729,-0.08576,-0.0618645,-0.003483,-0.0016649999999999,0.0618645,0.0034829999999999,0.0016649999999999,-0.1230085,-0.359531,-0.00995,0.1189915,-0.350841,0.0075589999999999,-0.1680384999999999,-0.857761,0.0386269999999999,0.1831315,-0.888961,0.0224249999999999,0
34,-0.037458,0.767933,0.0357315,-0.201982,0.504383,0.0207595,-0.244342,0.253393,0.0168045,0.1420779999999999,0.504293,0.0106574999999999,0.1994179999999999,0.234733,0.0004894999999999,-0.226482,0.022976,-0.0704984999999999,0.202918,0.016534,-0.0855185,-0.0618639999999999,-0.003491,-0.0016634999999999,0.0618639999999999,0.003491,0.0016634999999999,-0.123072,-0.359547,-0.0099544999999999,0.118948,-0.350847,0.0074774999999999,-0.168362,-0.857787,0.0383395,0.182998,-0.889007,0.0239225,0
35,-0.037494,0.767898,0.035537,-0.202067,0.504358,0.020765,-0.244277,0.252958,0.016818,0.142043,0.504288,0.010675,0.1993029999999999,0.234708,0.000504,-0.226447,0.022716,-0.070496,0.202683,0.015831,-0.0852459999999999,-0.061863,-0.0034989999999999,-0.0016619999999999,0.061863,0.0034989999999999,0.001662,-0.123117,-0.359602,-0.0099519999999999,0.118903,-0.350832,0.007671,-0.168817,-0.857822,0.038017,0.183393,-0.890022,0.025676,0
36,-0.037536,0.7679075,0.035438,-0.202146,0.5043475,0.020763,-0.244226,0.2528775,0.016831,0.142004,0.5042774999999999,0.01068,0.199184,0.2347275,0.000539,-0.226396,0.0227055,-0.07044,0.202494,0.0157915,-0.08506,-0.061862,-0.0035034999999999,-0.0016549999999999,0.061862,0.0035035,0.001655,-0.123166,-0.3595725,-0.0099559999999999,0.1189139999999999,-0.3508325,0.007576,-0.168916,-0.8578225,0.038048,0.182764,-0.8893425,0.0266,0
37,-0.0375869999999999,0.7678955000000001,0.0353705,-0.2022229999999999,0.5043355,0.0207605,-0.2441829999999999,0.2528255,0.0168415,0.141967,0.5042655,0.0106794999999999,0.199067,0.2347354999999999,0.0006144999999999,-0.226333,0.0226935,-0.0703445,0.202227,0.0154485,-0.0849445,-0.06186,-0.0035115,-0.0016484999999999,0.06186,0.0035115,0.0016485,-0.1233229999999999,-0.3595445,-0.0099954999999999,0.118927,-0.3508445,0.0073284999999999,-0.168983,-0.8578344999999999,0.0376385,0.181977,-0.8885845,0.0272145,0
38,-0.0376325,0.767884,0.0353095,-0.2022945,0.504324,0.0207605,-0.2441645,0.252764,0.0168845,0.1419255,0.504264,0.0106815,0.1989355,0.234754,0.0007664999999999,-0.2262644999999999,0.022682,-0.0702295,0.2019555,0.015013,-0.0848694999999999,-0.0618585,-0.003519,-0.0016395,0.0618585,0.003519,0.0016395,-0.1234545,-0.359526,-0.0099375,0.1188655,-0.350826,0.0073885,-0.1692044999999999,-0.857846,0.0374405,0.1817355,-0.888596,0.0281115,0
39,-0.0376689999999999,0.7678769999999999,0.0352955,-0.202371,0.504317,0.0208175,-0.2441809999999999,0.252587,0.0169715,0.141889,0.504257,0.0107355,0.198819,0.234747,0.0009355,-0.2262209999999999,0.022545,-0.0701034999999999,0.201689,0.014078,-0.0848035,-0.061854,-0.003519,-0.0016284999999999,0.061854,0.0035189999999999,0.0016285,-0.123561,-0.359523,-0.0099344999999999,0.118829,-0.350843,0.0073495,-0.169351,-0.857843,0.0369455,0.181709,-0.888703,0.0285935,0
40,-0.037719,0.7678685,0.035277,-0.202463,0.5043185,0.020883,-0.244193,0.2524385,0.01706,0.141867,0.5042584999999999,0.010767,0.198697,0.2347485,0.001101,-0.2261729999999999,0.0224055,-0.069983,0.201517,0.0129575,-0.084703,-0.061852,-0.0035175,-0.0016209999999999,0.061852,0.0035175,0.001621,-0.123583,-0.3595215,-0.0098639999999999,0.118797,-0.3508715,0.007318,-0.169643,-0.8578915,0.036575,0.181677,-0.8889615000000001,0.029039,0
41,-0.0377885,0.7678515,0.0352545,-0.2025805,0.5042915,0.0209485,-0.2442305,0.2523815,0.0171395,0.1418195,0.5042515000000001,0.0107995,0.1985695,0.2347215,0.0012544999999999,-0.2261705,0.0222905,-0.0698574999999999,0.2013795,0.0118585,-0.0846575,-0.0618485,-0.0035175,-0.0016135,0.0618485,0.0035175,0.0016135,-0.1236205,-0.3595185,-0.0097975,0.1187095,-0.3508685,0.0075625,-0.1697604999999999,-0.8579384999999999,0.0359465,0.1823695,-0.8898284999999999,0.0292595,0
42,-0.037978,0.7678195,0.03525,-0.202762,0.5041995,0.02108,-0.244262,0.2522595,0.017308,0.141718,0.5042495,0.010917,0.198438,0.2347495,0.001398,-0.226202,0.0224744999999999,-0.069658,0.201278,0.0112255,-0.084618,-0.061846,-0.0035404999999999,-0.0016139999999999,0.061846,0.0035405,0.001614,-0.123662,-0.3594504999999999,-0.0097639999999999,0.118688,-0.3508705,0.007369,-0.170142,-0.8580105,0.03522,0.182318,-0.8900305,0.029301,0
43,-0.0381675,0.7677675,0.035244,-0.2029415,0.5041075,0.0212429999999999,-0.2443115,0.2521375,0.01748,0.1415985,0.5042475000000001,0.0110169999999999,0.1983184999999999,0.2347375,0.00153,-0.2262415,0.0227724999999999,-0.069439,0.2011385,0.0105675,-0.084659,-0.0618445,-0.0035684999999999,-0.0016149999999999,0.0618445,0.0035684999999999,0.0016149999999999,-0.1236015,-0.3594725,-0.0097319999999999,0.1186985,-0.3508925,0.007085,-0.1704815,-0.8581025,0.0344239999999999,0.1815785,-0.8892424999999999,0.029313,0
44,-0.0383685,0.7677405,0.0352535,-0.2031615,0.5039805,0.0214475,-0.2443615,0.2519805,0.0176685,0.1414685,0.5042505,0.0111305,0.1981985,0.2347205,0.0016574999999999,-0.2262715,0.0230655,-0.0692165,0.2010485,0.0103345,-0.0847665,-0.0618414999999999,-0.0035954999999999,-0.0016144999999999,0.0618414999999999,0.0035955,0.0016145,-0.1235315,-0.3594995,-0.0096974999999999,0.1187185,-0.3508795,0.0069714999999999,-0.1708215,-0.8581995,0.0337135,0.1815285,-0.8894795,0.0292855,0
45,-0.0385765,0.7677035,0.035276,-0.2033875,0.5038535,0.021648,-0.2444275,0.2518135,0.017865,0.1413325,0.5042535,0.011245,0.1980825,0.2346935,0.001764,-0.2262974999999999,0.0233584999999999,-0.068932,0.2009025,0.0100415,-0.084852,-0.0618405,-0.0036255,-0.0016139999999999,0.0618405,0.0036255,0.001614,-0.1234575,-0.3595264999999999,-0.0096619999999999,0.1186325,-0.3508465,0.006949,-0.1708875,-0.8582664999999999,0.033285,0.1814225,-0.8856364999999999,0.028335,0
46,-0.0387895,0.7676655,0.03531,-0.2036045,0.5037255,0.021852,-0.2444845,0.2516355,0.018077,0.1412054999999999,0.5042555,0.011359,0.1979854999999999,0.2346255,0.00185,-0.2263845,0.0237725,-0.0684979999999999,0.2007755,0.0098874999999999,-0.084968,-0.0618385,-0.0036515,-0.0016089999999999,0.0618385,0.0036514999999999,0.001609,-0.1233845,-0.3595545,-0.0096289999999999,0.1186154999999999,-0.3508245,0.006921,-0.1709645,-0.8583345,0.03308,0.1819355,-0.8861045000000001,0.027555,0
47,-0.039012,0.7676375000000001,0.0353535,-0.203835,0.5035975,0.0220755,-0.2445449999999999,0.2514375,0.0182775,0.141065,0.5042675,0.0114805,0.197895,0.2345575,0.0018805,-0.2264749999999999,0.0242095,-0.0680795,0.200655,0.0097305,-0.0850954999999999,-0.061834,-0.0036784999999999,-0.0016004999999999,0.061834,0.0036785,0.0016005,-0.123315,-0.3595825,-0.0095874999999999,0.1186049999999999,-0.3507825,0.0068915,-0.171015,-0.8583925,0.0330425,0.182365,-0.8864325,0.0268915,0
48,-0.0392455,0.7676175,0.0354149999999999,-0.2040755,0.5034474999999999,0.0223159999999999,-0.2446155,0.2511875,0.0184669999999999,0.1409245,0.5042675,0.0115989999999999,0.1977945,0.2344875,0.0019179999999999,-0.2265755,0.0246385,-0.067635,0.2005945,0.0094615,-0.085187,-0.0618305,-0.0037064999999999,-0.001596,0.0618305,0.0037065,0.0015959999999999,-0.1232555,-0.3596125,-0.009578,0.1185845,-0.3507325,0.0070179999999999,-0.1708455,-0.8584425,0.033122,0.1819645,-0.8822825000000001,0.0262799999999999,0
49,-0.0394865,0.7675915,0.035482,-0.2043115,0.5032915,0.022548,-0.2446915,0.2509115,0.018645,0.1407785,0.5042915,0.011703,0.1976985,0.2344115,0.001949,-0.2266615,0.0250965,-0.0671819999999999,0.2005485,0.0092924999999999,-0.085296,-0.0618265,-0.0037324999999999,-0.0015879999999999,0.0618265,0.0037324999999999,0.001588,-0.1232115,-0.3596485,-0.0095789999999999,0.1185985,-0.3506685,0.006956,-0.1707815,-0.8584385,0.033017,0.1814085,-0.8776685,0.025788,0
50,-0.0397229999999999,0.76756,0.035544,-0.204517,0.50315,0.022773,-0.244727,0.2506,0.018812,0.140633,0.50431,0.011792,0.1976129999999999,0.23433,0.001973,-0.226737,0.025578,-0.066732,0.200493,0.009282,-0.085331,-0.061822,-0.003759,-0.001582,0.061822,0.003759,0.001582,-0.123147,-0.35967,-0.0095729999999999,0.118643,-0.3505999999999999,0.006901,-0.170727,-0.85844,0.03295,0.180883,-0.8729600000000001,0.025237,0
51,-0.0398559999999999,0.76756,0.035549,-0.204655,0.50309,0.022907,-0.244755,0.2504,0.018889,0.1405549999999999,0.50431,0.011786,0.197565,0.23431,0.0019589999999999,-0.226745,0.025781,-0.066337,0.200495,0.00904,-0.085348,-0.061819,-0.003759,-0.001576,0.061819,0.003759,0.001576,-0.123085,-0.3596999999999999,-0.009568,0.118695,-0.3505999999999999,0.007035,-0.170745,-0.85845,0.032913,0.1816849999999999,-0.87758,0.025127,0
52,-0.0400089999999999,0.76756,0.035547,-0.204803,0.50304,0.023045,-0.244773,0.25017,0.018935,0.140467,0.50431,0.011769,0.197507,0.23431,0.001947,-0.226753,0.025962,-0.0659479999999999,0.200507,0.008849,-0.0853029999999999,-0.061814,-0.003759,-0.0015609999999999,0.061814,0.003759,0.001561,-0.123113,-0.3596999999999999,-0.009568,0.118687,-0.3505999999999999,0.007058,-0.170593,-0.85845,0.033124,0.181847,-0.87758,0.024566,0
53,-0.040177,0.76756,0.035535,-0.2049389999999999,0.50301,0.023139,-0.244809,0.24996,0.0189359999999999,0.1403809999999999,0.50431,0.011725,0.197451,0.23431,0.0019189999999999,-0.226759,0.02614,-0.065583,0.2005009999999999,0.008617,-0.085304,-0.061813,-0.003759,-0.001552,0.061813,0.003759,0.0015519999999999,-0.123139,-0.3596999999999999,-0.009581,0.118711,-0.3505999999999999,0.0070759999999999,-0.170449,-0.85845,0.033357,0.182031,-0.87775,0.0244689999999999,0
54,-0.0403485,0.767558,0.0354619999999999,-0.2050875,0.502968,0.023125,-0.2448175,0.249918,0.0189009999999999,0.1402824999999999,0.504318,0.0116589999999999,0.1973724999999999,0.234268,0.0018549999999999,-0.2267675,0.0263349999999999,-0.065292,0.2004625,0.008766,-0.085324,-0.0618135,-0.00377,-0.0015399999999999,0.0618135,0.0037699999999999,0.0015399999999999,-0.1231675,-0.359702,-0.009599,0.1186925,-0.350582,0.0070039999999999,-0.1698675,-0.858452,0.033793,0.1813225,-0.8731720000000001,0.0240059999999999,0
55,-0.0405255,0.767571,0.0353785,-0.2052415,0.502931,0.0231234999999999,-0.2448415,0.249881,0.0188455,0.1401685,0.504331,0.0115824999999999,0.1972885,0.234241,0.0017884999999999,-0.2267915,0.026355,-0.0651575,0.2003385,0.008734,-0.0854045,-0.0618154999999999,-0.003778,-0.0015365,0.0618154999999999,0.0037779999999999,0.0015364999999999,-0.1232915,-0.359739,-0.0096745,0.1187685,-0.350539,0.0070475,-0.1694115,-0.858449,0.0340915,0.1812885,-0.872699,0.0239245,0
56,-0.040707,0.767572,0.0352885,-0.205392,0.502892,0.0230995,-0.244882,0.249852,0.0187575,0.140068,0.504342,0.0114985,0.197198,0.2342219999999999,0.0017025,-0.2267819999999999,0.026373,-0.0652244999999999,0.200268,0.00877,-0.0855825,-0.061819,-0.00379,-0.0015405,0.061819,0.00379,0.0015405,-0.123362,-0.3597479999999999,-0.0097024999999999,0.118838,-0.350498,0.0071225,-0.168912,-0.858448,0.0345585,0.181278,-0.872288,0.0238345,0
57,-0.0408665,0.7675675,0.0352074999999999,-0.2055354999999999,0.5028275,0.0230495,-0.2449154999999999,0.2495975,0.0186705,0.1399545,0.5043475,0.0113505,0.1971645,0.2342375,0.0016154999999999,-0.2267555,0.0260224999999999,-0.0653155,0.2002245,0.0078355,-0.0858695,-0.0618195,-0.0038014999999999,-0.0015475,0.0618195,0.0038015,0.0015474999999999,-0.1234655,-0.3597425,-0.0096555,0.1188345,-0.3505325,0.0069814999999999,-0.1688055,-0.8584325,0.0349434999999999,0.1806045,-0.8683425,0.0232934999999999,0
58,-0.0409895,0.767573,0.035176,-0.2056555,0.502763,0.0230039999999999,-0.2449255,0.249373,0.018588,0.1398745,0.504353,0.011274,0.1971545,0.234263,0.0015329999999999,-0.2266455,0.025818,-0.0654049999999999,0.2002045,0.00757,-0.086122,-0.0618145,-0.003812,-0.001556,0.0618145,0.003812,0.0015559999999999,-0.1235455,-0.359737,-0.009569,0.1188345,-0.350567,0.006914,-0.1686655,-0.858427,0.035324,0.1807145,-0.868907,0.023278,0
59,-0.041055,0.7675545,0.0351285,-0.2057419999999999,0.5027045,0.0229184999999999,-0.2450719999999999,0.2497045,0.0184494999999999,0.139788,0.5043645,0.0111814999999999,0.197148,0.2342945,0.0013514999999999,-0.226652,0.0257125,-0.0655034999999999,0.200178,0.0073875,-0.0864505,-0.061814,-0.0038215,-0.0015534999999999,0.061814,0.0038215,0.0015534999999999,-0.123592,-0.3597455,-0.0094904999999999,0.118798,-0.3505955,0.0070024999999999,-0.168512,-0.8584355,0.0356335,0.180768,-0.8690154999999999,0.0234235,0
60,-0.0410595,0.7675455,0.035053,-0.2057494999999999,0.5026855,0.0227929999999999,-0.2453894999999999,0.2508455,0.0178889999999999,0.1397105,0.5044055000000001,0.0110619999999999,0.1972005,0.2347655,0.0005649999999999,-0.2267095,0.0256635,-0.066417,0.2005604999999999,0.0076154999999999,-0.0876059999999999,-0.0618145,-0.0038205,-0.001555,0.0618145,0.0038204999999999,0.0015549999999999,-0.1236195,-0.3597445,-0.009432,0.1188105,-0.3506245,0.0071659999999999,-0.1685395,-0.8584544999999999,0.035747,0.1816205,-0.8735445,0.0237999999999999,0
61,-0.041052,0.7675525,0.0350605,-0.205755,0.5026625,0.0225785,-0.245805,0.2523525,0.0160315,0.1396349999999999,0.5044625,0.0108645,0.197385,0.2363725,-0.0014794999999999,-0.226895,0.0256524999999999,-0.0695805,0.201745,0.0103115,-0.0904605,-0.061809,-0.0038065,-0.0015785,0.061809,0.0038064999999999,0.0015785,-0.123635,-0.3597275,-0.0094135,0.118765,-0.3506675,0.0071035,-0.168525,-0.8584375,0.0358205,0.181785,-0.8736175,0.0237905,0
62,-0.0410065,0.767572,0.0353439999999999,-0.2057445,0.5026820000000001,0.0222669999999999,-0.2464345,0.254362,0.0125559999999999,0.1395455,0.504552,0.0106159999999999,0.1976055,0.241192,-0.005388,-0.2273145,0.027423,-0.076713,0.2040555,0.016383,-0.0964329999999999,-0.0617975,-0.003785,-0.001583,0.0617975,0.003785,0.0015829999999999,-0.1236144999999999,-0.359708,-0.009395,0.1186754999999999,-0.350728,0.0070459999999999,-0.1685845,-0.858408,0.035799,0.1817754999999999,-0.874148,0.0238319999999999,0
63,-0.040898,0.7675735,0.036219,-0.205674,0.5026735,0.021885,-0.2473439999999999,0.2586635,0.005813,0.139466,0.5046235,0.010345,0.197916,0.2471035,-0.011338,-0.228634,0.0312455,-0.090614,0.207596,0.0248795,-0.107504,-0.061793,-0.0037714999999999,-0.0015609999999999,0.061793,0.0037715,0.0015609999999999,-0.123554,-0.3596965,-0.0093909999999999,0.118726,-0.3507765,0.007013,-0.1685539999999999,-0.8590064999999999,0.03587,0.182576,-0.8788864999999999,0.024044,0
64,-0.040669,0.7675394999999999,0.0375519999999999,-0.205395,0.5026595,0.0214539999999999,-0.248665,0.2640095,-0.003872,0.139405,0.5047495,0.0100649999999999,0.198905,0.2550695,-0.020461,-0.231045,0.0384255,-0.111075,0.212175,0.0352015,-0.126055,-0.061784,-0.0037485,-0.001525,0.061784,0.0037484999999999,0.0015249999999999,-0.123435,-0.3597105,-0.009447,0.118805,-0.3508305,0.0069069999999999,-0.168445,-0.8596305,0.035705,0.183435,-0.8841805,0.024029,0
65,-0.0402695,0.7674875,0.0393535,-0.2048865,0.5026174999999999,0.0208595,-0.2514265,0.2715575,-0.0172604999999999,0.1393134999999999,0.5049475,0.0097795,0.2010235,0.2650275,-0.0326165,-0.2350165,0.0549995,-0.1350075,0.2163535,0.0496225,-0.1540175,-0.0617604999999999,-0.0037115,-0.0015154999999999,0.0617604999999999,0.0037115,0.0015155,-0.1232465,-0.3597225,-0.0095514999999999,0.1189835,-0.3508925,0.0066615,-0.1682665,-0.8602825000000001,0.0355025,0.1842135,-0.8893725,0.0240815,0
66,-0.039733,0.7674300000000001,0.0417345,-0.204049,0.5026,0.0200284999999999,-0.254849,0.28214,-0.0343744999999999,0.139061,0.5053300000000001,0.0096704999999999,0.2041309999999999,0.27791,-0.0476325,-0.239889,0.078465,-0.1651335,0.2205909999999999,0.074666,-0.1854535,-0.06173,-0.003672,-0.0015645,0.06173,0.003672,0.0015645,-0.122809,-0.35968,-0.0088275,0.119221,-0.35091,0.0060965,-0.169109,-0.86381,0.0351055,0.184171,-0.8894799999999999,0.0233135,0
67,-0.039117,0.767361,0.0445195,-0.202796,0.502591,0.0191105,-0.2587259999999999,0.295431,-0.0529684999999999,0.1388039999999999,0.505861,0.0094465,0.207774,0.293931,-0.0652725,-0.242286,0.110501,-0.1993045,0.225064,0.107131,-0.2204845,-0.061702,-0.003621,-0.0016774999999999,0.061702,0.003621,0.0016775,-0.122586,-0.359639,-0.0089724999999999,0.119534,-0.350939,0.0055515,-0.169396,-0.863299,0.0342315,0.1849839999999999,-0.894089,0.0225765,0
68,-0.0384319999999999,0.767245,0.047732,-0.201282,0.502575,0.018843,-0.2625119999999999,0.308615,-0.072006,0.138288,0.506695,0.009659,0.211028,0.316015,-0.085053,-0.2440119999999999,0.142915,-0.234053,0.228208,0.149515,-0.256453,-0.061675,-0.003544,-0.0017959999999999,0.061675,0.003544,0.001796,-0.122332,-0.359575,-0.008576,0.119878,-0.350995,0.004911,-0.1701919999999999,-0.866705,0.033591,0.184828,-0.893645,0.021811,0
69,-0.0376115,0.7670560000000001,0.051383,-0.1996935,0.5026560000000001,0.019047,-0.2663934999999999,0.331666,-0.0933789999999999,0.1376065,0.5078860000000001,0.010463,0.2145564999999999,0.342606,-0.1052289999999999,-0.2463335,0.183976,-0.269829,0.2296564999999999,0.201476,-0.291509,-0.0616505,-0.003458,-0.0019069999999999,0.0616505,0.003458,0.001907,-0.1218835,-0.359524,-0.0091759999999999,0.1202265,-0.351064,0.003757,-0.1700435,-0.8669439999999999,0.032177,0.1850765,-0.893894,0.02112,0
70,-0.0367835,0.7666525000000001,0.055012,-0.1974415,0.5026725000000001,0.0195009999999999,-0.2703315,0.3582325,-0.114223,0.1368985,0.5093225,0.0115869999999999,0.2174485,0.3734425,-0.125493,-0.2489914999999999,0.2418025,-0.309453,0.2292085,0.2617525,-0.325803,-0.0616365,-0.0033425,-0.002027,0.0616365,0.0033425,0.0020269999999999,-0.1214415,-0.3594175,-0.009846,0.1203585,-0.3512475,0.0025169999999999,-0.1698715,-0.8674175,0.0306859999999999,0.1849485,-0.8941975,0.020163,0
71,-0.0359215,0.7660455,0.0584575,-0.1951784999999999,0.5025155,0.0201455,-0.2737084999999999,0.3900955,-0.1324435,0.1360615,0.5112955,0.0129255,0.2194614999999999,0.4050654999999999,-0.1434135,-0.2504085,0.3088355,-0.3384835,0.2277215,0.3305754999999999,-0.3541035,-0.0616214999999999,-0.0032045,-0.0020864999999999,0.0616214999999999,0.0032045,0.0020865,-0.1210185,-0.3593045,-0.0104934999999999,0.1204215,-0.3514745,0.0013595,-0.1696785,-0.8679545,0.0293545,0.1848015,-0.8949645,0.0188815,0
72,-0.0351304999999999,0.7649555,0.061438,-0.1927275,0.5036055,0.020991,-0.2762475,0.4234354999999999,-0.145435,0.1350925,0.5139355,0.014553,0.2208325,0.4430654999999999,-0.157295,-0.2512375,0.3821854999999999,-0.357245,0.2267825,0.4065155,-0.373235,-0.0615924999999999,-0.0030245,-0.002174,0.0615924999999999,0.0030245,0.0021739999999999,-0.1206675,-0.3592845,-0.01102,0.1205125,-0.3517445,0.0005439999999999,-0.1694775,-0.8679745,0.028426,0.1850025,-0.8964845,0.01806,0
73,-0.034366,0.7636435,0.0639329999999999,-0.1903159999999999,0.5045035,0.022206,-0.278146,0.4611635,-0.15384,0.134104,0.5167335,0.0162749999999999,0.220954,0.4826935,-0.1656399999999999,-0.251406,0.4527135,-0.36536,0.226534,0.4880535,-0.38072,-0.0615639999999999,-0.0028875,-0.002344,0.0615639999999999,0.0028875,0.0023439999999999,-0.120176,-0.3592964999999999,-0.010736,0.120594,-0.3519665,8.599999999999927e-05,-0.169966,-0.8735364999999999,0.028177,0.185524,-0.8988565,0.017574,0
74,-0.0336795,0.761837,0.0656885,-0.1878165,0.505257,0.0236155,-0.2783265,0.4990469999999999,-0.1566815,0.1331635,0.5194169999999999,0.0179965,0.2209635,0.523057,-0.1689215,-0.2506065,0.529457,-0.3654915,0.2256735,0.572707,-0.3807515,-0.0615555,-0.0027439999999999,-0.0023774999999999,0.0615555,0.002744,0.0023775,-0.1196764999999999,-0.359313,-0.0102565,0.1207735,-0.3522329999999999,-0.0002694999999999,-0.1704864999999999,-0.8794930000000001,0.0281965,0.1859535,-0.901463,0.0169785,0
75,-0.032972,0.759396,0.0662695,-0.185437,0.507516,0.0251974999999999,-0.278047,0.5377759999999999,-0.1566985,0.132373,0.5223859999999999,0.0193505,0.221243,0.563176,-0.1689385,-0.249197,0.603726,-0.3655785,0.222663,0.6520459999999999,-0.3805685,-0.0615379999999999,-0.002548,-0.0023785,0.0615379999999999,0.002548,0.0023784999999999,-0.1193969999999999,-0.3593139999999999,-0.0102725,0.120913,-0.352564,-0.0006235,-0.170107,-0.8807740000000001,0.0281725,0.185963,-0.904494,0.0179965,0
76,-0.032211,0.756554,0.066222,-0.183355,0.509944,0.0264149999999999,-0.2776849999999999,0.575174,-0.156721,0.1316449999999999,0.526074,0.0206099999999999,0.221605,0.601584,-0.168961,-0.247055,0.673674,-0.365711,0.217435,0.727214,-0.380241,-0.061548,-0.002311,-0.002378,0.061548,0.0023109999999999,0.0023779999999999,-0.118725,-0.359256,-0.009962,0.120805,-0.352976,-0.001004,-0.170415,-0.888136,0.0285059999999999,0.185445,-0.901916,0.0191449999999999,0
77,-0.0313254999999999,0.753576,0.0661675,-0.1813465,0.5126459999999999,0.0268275,-0.2772064999999999,0.614016,-0.1567505,0.1311435,0.529636,0.0211175,0.2207435,0.634966,-0.1689105,-0.2436364999999999,0.746626,-0.3658205,0.2113135,0.794916,-0.3729705,-0.0615775,-0.0021329999999999,-0.0023764999999999,0.0615775,0.0021329999999999,0.0023765,-0.1182865,-0.359274,-0.0099894999999999,0.1206735,-0.353344,-0.0015614999999999,-0.1698464999999999,-0.889974,0.0284705,0.1850035,-0.899374,0.0204155,0
78,-0.0304945,0.750673,0.0663495,-0.1793015,0.515443,0.0270065,-0.2760315,0.642653,-0.1540885,0.1307585,0.532863,0.0213755,0.2184285,0.664873,-0.1678285,-0.2392115,0.812543,-0.3558985,0.2058785,0.855213,-0.3591185,-0.0616015,-0.001941,-0.0023894999999999,0.0616015,0.0019409999999999,0.0023894999999999,-0.1176815,-0.359277,-0.0105315,0.1203385,-0.353737,-0.0019155,-0.1696315,-0.894357,0.0286965,0.1837885,-0.896367,0.0210685,0
79,-0.0297095,0.74796,0.066251,-0.1781655,0.51847,0.0274219999999999,-0.2739255,0.66855,-0.147678,0.1304045,0.53603,0.0218439999999999,0.2153745,0.6899799999999999,-0.1627279999999999,-0.2370755,0.86335,-0.338248,0.2006045,0.90604,-0.336928,-0.0616354999999999,-0.001791,-0.002399,0.0616354999999999,0.001791,0.0023989999999999,-0.1173655,-0.3593599999999999,-0.011059,0.1200445,-0.35405,-0.002296,-0.1682955,-0.8925500000000001,0.0286409999999999,0.1828945,-0.8935700000000001,0.0221649999999999,0
80,-0.0291395,0.745306,0.0652585,-0.1770025,0.5217959999999999,0.0279605,-0.2714725,0.689306,-0.1405065,0.1300875,0.5388259999999999,0.0224735,0.2123274999999999,0.7120059999999999,-0.1543365,-0.2349725,0.904326,-0.3188865,0.1961975,0.941826,-0.3138165,-0.0616515,-0.001676,-0.0024155,0.0616515,0.0016759999999999,0.0024155,-0.1170325,-0.3594739999999999,-0.0110654999999999,0.1196675,-0.354324,-0.0024554999999999,-0.1669325,-0.888914,0.0285414999999999,0.1813975,-0.8895040000000001,0.0239925,0
81,-0.0286689999999999,0.7428835,0.0634375,-0.176124,0.5235835,0.0286695,-0.268404,0.7068535,-0.1295115,0.129936,0.5410235,0.0230165,0.209356,0.7266835,-0.1441615,-0.232794,0.9377035,-0.2956915,0.1933659999999999,0.9677235,-0.2873414999999999,-0.061678,-0.0016015,-0.0024425,0.061678,0.0016014999999999,0.0024425,-0.116644,-0.3595165,-0.0108645,0.119296,-0.3545165,-0.0022404999999999,-0.165614,-0.8841964999999999,0.0285255,0.180116,-0.8848465,0.0270405,0
82,-0.028181,0.739987,0.0611785,-0.175437,0.5261469999999999,0.0292834999999999,-0.265087,0.719227,-0.1169475,0.129823,0.5430969999999999,0.0230875,0.206243,0.737487,-0.1318875,-0.230257,0.971007,-0.2649475,0.191893,0.985507,-0.2563175,-0.061679,-0.0015469999999999,-0.0024985,0.061679,0.0015469999999999,0.0024984999999999,-0.115907,-0.359523,-0.0104954999999999,0.118893,-0.3547129999999999,-0.0019085,-0.164597,-0.883073,0.0287464999999999,0.178913,-0.880993,0.0301595,0
83,-0.0277785,0.7375010000000001,0.0584465,-0.1748345,0.528941,0.0297834999999999,-0.2618845,0.729601,-0.1049755,0.1296855,0.5450710000000001,0.0228834999999999,0.2037455,0.745981,-0.1195455,-0.2288245,0.989201,-0.2400955,0.1913855,0.996201,-0.2279955,-0.0616665,-0.0015229999999999,-0.0025815,0.0616665,0.001523,0.0025815,-0.1152545,-0.359549,-0.0103135,0.1184855,-0.354869,-0.0016024999999999,-0.1629145,-0.877289,0.0287674999999999,0.1778354999999999,-0.876549,0.0327845,0
84,-0.0274,0.7354240000000001,0.055292,-0.1744939999999999,0.529664,0.029951,-0.259244,0.735874,-0.094669,0.129686,0.546694,0.022167,0.201826,0.751394,-0.108929,-0.226634,1.0029439999999998,-0.218159,0.191526,1.002044,-0.203869,-0.061618,-0.0015519999999999,-0.0027079999999999,0.061618,0.001552,0.002708,-0.1150539999999999,-0.359666,-0.009903,0.1181359999999999,-0.354966,-0.0010709999999999,-0.162024,-0.8758859999999999,0.028998,0.176456,-0.8716959999999999,0.035368,0
85,-0.027267,0.733782,0.0519145,-0.173912,0.530512,0.0297845,-0.256922,0.740802,-0.0857774999999999,0.129588,0.547722,0.0213095,0.200448,0.755522,-0.1004174999999999,-0.224842,1.012222,-0.1996775,0.192208,1.004122,-0.1839174999999999,-0.061519,-0.001645,-0.0027445,0.061519,0.001645,0.0027445,-0.115022,-0.359868,-0.0097014999999999,0.117958,-0.354958,-0.0008454999999999,-0.161682,-0.874108,0.0286265,0.175538,-0.872648,0.0376885,0
86,-0.0272715,0.7321745000000001,0.0487525,-0.1735075,0.5309945,0.0295635,-0.2548975,0.7438745,-0.0785705,0.1295025,0.5485845,0.0204634999999999,0.1993625,0.7585145,-0.0938705,-0.2240975,1.0179545,-0.1855405,0.1933325,1.0033545,-0.1687305,-0.0613994999999999,-0.0016824999999999,-0.0027745,0.0613994999999999,0.0016825,0.0027744999999999,-0.1150475,-0.3600155,-0.0095965,0.1177425,-0.3550155,-0.0008095,-0.1614175,-0.8723855,0.0281584999999999,0.1746525,-0.8736555,0.0403405,0
87,-0.0273375,0.730395,0.045793,-0.1732405,0.530625,0.029278,-0.2530305,0.746645,-0.073039,0.1295095,0.549145,0.019615,0.1986494999999999,0.760085,-0.088553,-0.2234705,1.022025,-0.175153,0.1942895,1.000425,-0.156613,-0.0612785,-0.0017299999999999,-0.0027819999999999,0.0612785,0.00173,0.0027819999999999,-0.1147105,-0.360125,-0.009264,0.1174395,-0.355045,-0.000762,-0.1610605,-0.870785,0.027784,0.1748595,-0.878695,0.040328,0
88,-0.0274545,0.72859,0.0433729999999999,-0.1730905,0.53011,0.02899,-0.2515605,0.74838,-0.069252,0.1295595,0.5494,0.018832,0.1980895,0.76119,-0.084593,-0.2228805,1.0245,-0.167943,0.1949695,0.998,-0.148133,-0.0611515,-0.0017959999999999,-0.00279,0.0611515,0.001796,0.00279,-0.1145505,-0.36027,-0.009275,0.1171494999999999,-0.35508,-0.000709,-0.1609405,-0.8739,0.027776,0.1750094999999999,-0.88222,0.040318,0
89,-0.0276015,0.72685,0.041357,-0.1730465,0.52956,0.028707,-0.2504465,0.7494700000000001,-0.066606,0.1296334999999999,0.5493999999999999,0.018144,0.1978935,0.7615799999999999,-0.081869,-0.2224765,1.02584,-0.1633089999999999,0.1954135,0.99844,-0.142729,-0.0610475,-0.0018419999999999,-0.0028959999999999,0.0610475,0.0018419999999999,0.0028959999999999,-0.1143365,-0.36031,-0.009388,0.1168734999999999,-0.35512,-0.0005939999999999,-0.1595065,-0.8648899999999999,0.026868,0.1751134999999999,-0.8852800000000001,0.040212,1
90,-0.0277175,0.7251935,0.0395295,-0.1730775,0.5292935,0.0281475,-0.2495774999999999,0.7499535,-0.0650465,0.1296725,0.5491935,0.0172575,0.1980525,0.7618635,-0.0806125,-0.2222075,1.0264035,-0.1604425,0.1961925,0.9954035,-0.1401425,-0.0609595,-0.0018584999999999,-0.0029924999999999,0.0609595,0.0018584999999999,0.0029924999999999,-0.1137475,-0.3603564999999999,-0.0085584999999999,0.1166125,-0.3552265,-0.0006395,-0.1590475,-0.8637465,0.0265085,0.1759025,-0.8928265,0.0385395,1
91,-0.027796,0.724088,0.0376695,-0.173091,0.528538,0.0273255,-0.249021,0.750038,-0.0647895,0.129639,0.548768,0.0162645,0.198099,0.762638,-0.0806175,-0.2221409999999999,1.025478,-0.1598975,0.197099,0.991078,-0.1408575,-0.060917,-0.0018589999999999,-0.0029094999999999,0.060917,0.0018589999999999,0.0029094999999999,-0.113661,-0.360462,-0.0083295,0.116389,-0.355372,-0.0010284999999999,-0.1586409999999999,-0.8628520000000001,0.0258285,0.1766789999999999,-0.901132,0.0365905,1
92,-0.0279439999999999,0.722874,0.0356505,-0.1731829999999999,0.527884,0.0262125,-0.2487229999999999,0.749824,-0.0657325,0.129667,0.548264,0.0149365,0.198017,0.762854,-0.0815714999999999,-0.221783,1.024204,-0.1606815,0.1985469999999999,0.985704,-0.1419014999999999,-0.06088,-0.001895,-0.0026855,0.06088,0.0018949999999999,0.0026855,-0.113233,-0.360626,-0.0077724999999999,0.116147,-0.3555359999999999,-0.0017945,-0.158323,-0.863016,0.0252995,0.178087,-0.911146,0.0336915,1
93,-0.0281185,0.7220665,0.0334055,-0.1733075,0.5279665,0.0247795,-0.2484374999999999,0.7496365,-0.0670325,0.1297125,0.5475565,0.0135105,0.1979025,0.7632265,-0.0828464999999999,-0.2211875,1.0235965,-0.1619965,0.2005725,0.9848964999999998,-0.1433065,-0.0608265,-0.0019594999999999,-0.0023954999999999,0.0608265,0.0019595,0.0023955,-0.1133175,-0.3607935,-0.0078014999999999,0.1160225,-0.3557035,-0.0030894999999999,-0.1580075,-0.8627635,0.0239975,0.1778225,-0.9112435,0.0306475,1
94,-0.028298,0.721799,0.0304995,-0.173231,0.527949,0.0227495,-0.2481509999999999,0.749369,-0.0688375,0.129689,0.547289,0.0115025,0.198189,0.763369,-0.0846515,-0.220541,1.0233290000000002,-0.1638214999999999,0.202479,0.983429,-0.1460215,-0.060717,-0.0020529999999999,-0.0019715,0.060717,0.0020529999999999,0.0019715,-0.113051,-0.360971,-0.0078385,0.115829,-0.3558209999999999,-0.0048645,-0.1579809999999999,-0.862861,0.0225865,0.178989,-0.919371,0.0267665,1
95,-0.028345,0.721799,0.026792,-0.1731889999999999,0.527949,0.020253,-0.2478289999999999,0.749369,-0.071087,0.129651,0.547289,0.008887,0.198791,0.763369,-0.087355,-0.219779,1.0233290000000002,-0.166095,0.204361,0.983329,-0.149815,-0.060585,-0.0020529999999999,-0.0014239999999999,0.060585,0.0020529999999999,0.001424,-0.112899,-0.360971,-0.0081409999999999,0.115581,-0.3558209999999999,-0.0071369999999999,-0.158079,-0.862861,0.020907,0.180391,-0.928171,0.022482,1
96,-0.0284274999999999,0.721509,0.0222105,-0.1733005,0.527949,0.0173455,-0.2478005,0.749369,-0.0746045,0.1293695,0.547289,0.0057205,0.1992595,0.763369,-0.0912085,-0.2193805,1.0233290000000002,-0.1695685,0.2057695,0.984429,-0.1555885,-0.0605965,-0.0020529999999999,-0.0009064999999999,0.0605965,0.0020529999999999,0.0009064999999999,-0.1131605,-0.360971,-0.0088055,0.1153795,-0.3558209999999999,-0.0110805,-0.1586205,-0.862861,0.0183095,0.1813895,-0.936671,0.0178925,1
97,-0.0285699999999999,0.720449,0.0163649999999999,-0.173559,0.527949,0.01377,-0.247889,0.749329,-0.07941,0.129101,0.5457489999999999,-0.000142,0.199791,0.763369,-0.0966289999999999,-0.219029,1.022929,-0.174689,0.207371,0.987929,-0.162579,-0.060645,-0.0020529999999999,-0.000221,0.060645,0.0020529999999999,0.0002209999999999,-0.113709,-0.360971,-0.011082,0.115311,-0.3558209999999999,-0.015848,-0.159589,-0.863511,0.015503,0.182261,-0.945521,0.0128259999999999,1
98,-0.0289505,0.7188595,0.0091379999999999,-0.1738095,0.5275894999999999,0.008402,-0.2483294999999999,0.7491795000000001,-0.085945,0.1285705,0.5441995,-0.007154,0.2002405,0.7635495000000001,-0.103917,-0.2190495,1.0228595,-0.181257,0.2084505,0.9917595,-0.170557,-0.0606894999999999,-0.0021884999999999,0.0003239999999999,0.0606894999999999,0.0021884999999999,-0.000324,-0.1146595,-0.3611105,-0.014375,0.1152005,-0.3558405,-0.021611,-0.1623795,-0.8733405000000001,0.011805,0.1826405,-0.9530705,0.0068739999999999,1
99,-0.0296205,0.7169800000000001,0.0006305,-0.1741435,0.52781,0.0019895,-0.2489935,0.74832,-0.0938855,0.1278965,0.54229,-0.0155005,0.2006365,0.76364,-0.1123165,-0.2193735,1.02178,-0.1892265,0.2090465,0.99488,-0.1799765,-0.0606585,-0.002403,0.0010344999999999,0.0606585,0.002403,-0.0010344999999999,-0.1157935,-0.36127,-0.0187245,0.1155265,-0.35563,-0.0288515,-0.1652435,-0.88245,0.0073395,0.1831865,-0.95982,0.0019684999999999,1
100,-0.0303915,0.7147825000000001,-0.0088125,-0.1743795,0.5281425,-0.0053445,-0.2498895,0.7474624999999999,-0.1029014999999999,0.1272605,0.5401125,-0.0248675,0.2009305,0.7631625,-0.1218515,-0.2199895,1.0211825,-0.1978115,0.2093105,0.9971825,-0.1898315,-0.0606055,-0.0026155,0.0017605,0.0606055,0.0026154999999999,-0.0017605,-0.1174295,-0.3612275,-0.0233864999999999,0.1160905,-0.3552775,-0.0369415,-0.1676095,-0.8907875000000001,0.0027235,0.1820005,-0.9573075,-0.0031875,1
101,-0.0311865,0.7122465,-0.0189184999999999,-0.1745965,0.5283565,-0.0131505,-0.2509464999999999,0.7463164999999999,-0.1127175,0.1266034999999999,0.5374665,-0.0349425,0.2012335,0.7625465,-0.1319875,-0.2209465,1.0192865,-0.2075575,0.2089535,0.9995865,-0.1989675,-0.0606255,-0.0027485,0.0023654999999999,0.0606255,0.0027485,-0.0023655,-0.1193365,-0.3610635,-0.0280995,0.1168435,-0.3548735,-0.0454985,-0.1702865,-0.8984735,-0.0021625,0.1805835,-0.9543635,-0.0083495,1
102,-0.0321759999999999,0.7091925,-0.029684,-0.175045,0.5287025,-0.0210419999999999,-0.252335,0.7444624999999999,-0.123219,0.125715,0.5354525,-0.044835,0.201375,0.7610325,-0.142679,-0.222175,1.0170325,-0.217669,0.207735,1.0016325,-0.208509,-0.060667,-0.0028175,0.0030089999999999,0.060667,0.0028175,-0.003009,-0.121755,-0.3606775,-0.033311,0.117695,-0.3544075,-0.054436,-0.173305,-0.9061575,-0.006657,0.178855,-0.9505875,-0.013429,1
103,-0.033736,0.7061705,-0.039656,-0.176013,0.5287305,-0.028609,-0.254363,0.7431205000000001,-0.1336399999999999,0.1245469999999999,0.5330705,-0.054833,0.2009169999999999,0.7591105,-0.1534299999999999,-0.224253,1.0161405,-0.2272799999999999,0.206057,1.0059405,-0.2177899999999999,-0.0607479999999999,-0.0028515,0.003582,0.0607479999999999,0.0028515,-0.003582,-0.124923,-0.3600095,-0.038678,0.1187169999999999,-0.3536795,-0.063726,-0.175233,-0.8996495,-0.011557,0.176127,-0.9439695,-0.01802,1
104,-0.0356915,0.70279,-0.0496,-0.1772475,0.52561,-0.03633,-0.2568575,0.74185,-0.144045,0.1229425,0.53178,-0.06462,0.2000925,0.75751,-0.163805,-0.2268675,1.01499,-0.236975,0.2036825,1.00639,-0.228015,-0.0608245,-0.002937,0.004156,0.0608245,0.002937,-0.004156,-0.1285275,-0.35912,-0.04453,0.1198625,-0.3527,-0.072992,-0.1790875,-0.90344,-0.014984,0.1730825,-0.93621,-0.021993,1
105,-0.0377445,0.6982229999999999,-0.0587965,-0.1785855,0.522563,-0.0435824999999999,-0.2596855,0.7402329999999999,-0.1543175,0.1214244999999999,0.530593,-0.0741935,0.1990745,0.754933,-0.1740775,-0.2294755,1.012893,-0.2469275,0.2012745,1.010593,-0.2367475,-0.0608145,-0.0029969999999999,0.0048705,0.0608145,0.0029969999999999,-0.0048705,-0.1323055,-0.358047,-0.0505725,0.1208944999999999,-0.351597,-0.0806545,-0.1831455,-0.906527,-0.0181915,0.1699044999999999,-0.927937,-0.0255025,1
106,-0.039746,0.6926764999999999,-0.0672955,-0.1796589999999999,0.5180165,-0.0510445,-0.262419,0.7384565,-0.1645855,0.119721,0.5311064999999999,-0.0828145,0.197901,0.7518265,-0.1838755,-0.231949,1.0027365,-0.2563855,0.198551,1.0139365,-0.2446655,-0.0609279999999999,-0.0031315,0.0053974999999999,0.0609279999999999,0.0031315,-0.0053974999999999,-0.136089,-0.3568535,-0.0569075,0.121941,-0.3503234999999999,-0.0881545,-0.1875389999999999,-0.9082635,-0.0210845,0.167111,-0.9191435,-0.0284015,1
107,-0.041466,0.6892809999999999,-0.0747055,-0.180642,0.515721,-0.0571285,-0.264872,0.7380709999999999,-0.1742975,0.118238,0.5261709999999999,-0.0902385,0.196818,0.750941,-0.1927775,-0.234092,0.994241,-0.2647475,0.196048,1.019841,-0.2522275,-0.0611219999999999,-0.0029249999999999,0.0061104999999999,0.0611219999999999,0.002925,-0.0061105,-0.1402219999999999,-0.3550589999999999,-0.0633595,0.1236979999999999,-0.3490689999999999,-0.0955645,-0.191382,-0.906379,-0.0232555,0.164708,-0.907369,-0.0303645,1
108,-0.042841,0.685596,-0.081219,-0.1814879999999999,0.513086,-0.062287,-0.2670079999999999,0.7399560000000001,-0.183491,0.117002,0.522856,-0.0961809999999999,0.195982,0.750186,-0.201341,-0.235738,0.988456,-0.272231,0.193522,1.013426,-0.260021,-0.061375,-0.002726,0.0065369999999999,0.061375,0.0027259999999999,-0.006537,-0.144338,-0.353004,-0.069982,0.125512,-0.3477139999999999,-0.1022349999999999,-0.193488,-0.893944,-0.02426,0.162932,-0.895074,-0.031372,1
109,-0.044038,0.6823115000000001,-0.0873755,-0.182511,0.5100315000000001,-0.0670315,-0.2690309999999999,0.7362315,-0.1916395,0.115739,0.5195115,-0.1018015,0.195149,0.7474815,-0.2096795,-0.237311,0.9819915,-0.2797294999999999,0.191349,1.0119515,-0.2678195,-0.061684,-0.0026084999999999,0.0065565,0.061684,0.0026084999999999,-0.0065565,-0.148331,-0.3507785,-0.0764245,0.1274189999999999,-0.3460885,-0.1089055,-0.195511,-0.8806084999999999,-0.0251465,0.160719,-0.8813685,-0.0327425,1
110,-0.045229,0.6792345,-0.09425,-0.183466,0.5067545,-0.072902,-0.2709359999999999,0.7319045,-0.200204,0.114364,0.5164645,-0.108197,0.194084,0.7452945,-0.218724,-0.237866,0.9775945,-0.288764,0.189164,1.0100445,-0.277354,-0.06198,-0.0025305,0.0064899999999999,0.06198,0.0025304999999999,-0.0064899999999999,-0.152706,-0.3481155,-0.0851,0.129374,-0.3439955,-0.117447,-0.197546,-0.8661255,-0.026919,0.158474,-0.8665955000000001,-0.034928,1
111,-0.046157,0.6760794999999999,-0.1008655,-0.184156,0.5050295,-0.0784305,-0.272536,0.7276695,-0.2081495,0.112774,0.5134995,-0.1147745,0.192404,0.7407695,-0.2272995,-0.2380459999999999,0.9714995,-0.2984394999999999,0.187334,1.0058495,-0.2868394999999999,-0.062154,-0.0024105,0.0063695,0.062154,0.0024104999999999,-0.0063695,-0.157076,-0.3434405,-0.0942175,0.131454,-0.3391005,-0.1263895,-0.198866,-0.8501105,-0.0285904999999999,0.156514,-0.8501005,-0.0370355,1
112,-0.04649,0.673929,-0.10774,-0.1843429999999999,0.501369,-0.085155,-0.273513,0.724289,-0.216069,0.111317,0.510339,-0.121544,0.191177,0.738549,-0.235479,-0.2372729999999999,0.967479,-0.307959,0.186127,0.994169,-0.2983889999999999,-0.0621279999999999,-0.0024059999999999,0.0062679999999999,0.0621279999999999,0.0024059999999999,-0.0062679999999999,-0.1616129999999999,-0.335991,-0.103548,0.133507,-0.331361,-0.136289,-0.199653,-0.833131,-0.0298949999999999,0.154767,-0.832561,-0.038895,1
113,-0.0464105,0.6718615,-0.1149999999999999,-0.1841745,0.5015715,-0.092578,-0.2738445,0.7208115,-0.2253129999999999,0.1103055,0.5068115,-0.129423,0.1902955,0.7361115,-0.2454329999999999,-0.2359645,0.9640315,-0.319193,0.1853855,0.9854715,-0.309493,-0.0619735,-0.0022895,0.006696,0.0619735,0.0022895,-0.006696,-0.1656745,-0.3271885,-0.114191,0.1356355,-0.3227485,-0.146873,-0.1999545,-0.8156585,-0.032533,0.1535355,-0.8154485,-0.042101,1
114,-0.0462895,0.6761039999999999,-0.1267265,-0.1837154999999999,0.501064,-0.1056575,-0.2745155,0.7232139999999999,-0.2390315,0.1092045,0.505314,-0.1422614999999999,0.1892645,0.737154,-0.2593215,-0.2346855,0.963064,-0.3358915,0.1840145,0.981034,-0.3245615,-0.0617724999999999,-0.0022419999999999,0.0066135,0.0617724999999999,0.0022419999999999,-0.0066134999999999,-0.1707155,-0.312106,-0.1328965,0.1373245,-0.307786,-0.1648615,-0.2003255,-0.7912560000000001,-0.0400525,0.1523245,-0.791566,-0.0501635,1
115,-0.04589,0.6755950000000001,-0.1375055,-0.1834589999999999,0.502055,-0.1173075,-0.275349,0.7254250000000001,-0.2520885,0.108281,0.502445,-0.1526785,0.188241,0.7391850000000001,-0.2721085,-0.233429,0.971085,-0.3515585,0.183131,0.978075,-0.3398885,-0.061508,-0.0020349999999999,0.0065375,0.061508,0.0020349999999999,-0.0065375,-0.175649,-0.296295,-0.1502784999999999,0.138801,-0.292755,-0.1816085,-0.200669,-0.765775,-0.0468795,0.151211,-0.7676649999999999,-0.0574045,1
116,-0.0453929999999999,0.673635,-0.14736,-0.183144,0.500485,-0.128553,-0.275954,0.7241650000000001,-0.26433,0.107516,0.504015,-0.1631,0.1874859999999999,0.7388750000000001,-0.28463,-0.231924,0.977395,-0.36749,0.181996,0.971455,-0.35494,-0.061396,-0.002225,0.006421,0.061396,0.002225,-0.006421,-0.179754,-0.279535,-0.16708,0.1396659999999999,-0.276135,-0.19805,-0.200934,-0.742165,-0.053247,0.150606,-0.745625,-0.064289,1
117,-0.0449245,0.673845,-0.1584255,-0.1828025,0.499335,-0.1396065,-0.2763224999999999,0.716855,-0.2750355,0.1064775,0.5039549999999999,-0.1736055,0.1867575,0.7363649999999999,-0.2963255,-0.2303125,0.977575,-0.3823054999999999,0.1809575,0.973155,-0.3696855,-0.0613255,-0.002375,0.0063985,0.0613255,0.0023749999999999,-0.0063985,-0.1835625,-0.263055,-0.1839454999999999,0.1401575,-0.259725,-0.2141255,-0.2011625,-0.718645,-0.0597285,0.1500875,-0.724065,-0.0710655,1
118,-0.0441929999999999,0.6747799999999999,-0.1689645,-0.182089,0.49862,-0.1497725,-0.2763389999999999,0.7157899999999999,-0.2855645,0.105581,0.50552,-0.1828145,0.186491,0.7349300000000001,-0.3069945,-0.228179,0.97844,-0.3967945,0.180211,0.97072,-0.3838545,-0.061234,-0.0025499999999999,0.0062734999999999,0.061234,0.0025499999999999,-0.0062735,-0.186629,-0.24625,-0.1999945,0.140511,-0.24351,-0.2294844999999999,-0.201239,-0.69634,-0.0654925,0.149821,-0.70336,-0.0764815,1
119,-0.0436985,0.67664,-0.1786365,-0.1818915,0.49655,-0.1597265,-0.2765215,0.71683,-0.2962165,0.1047085,0.50497,-0.1919765,0.1861985,0.7347400000000001,-0.3171064999999999,-0.2271215,0.97985,-0.4089564999999999,0.1801685,0.97103,-0.3962065,-0.0608115,-0.0026099999999999,0.0059965,0.0608115,0.00261,-0.0059964999999999,-0.1891914999999999,-0.2268399999999999,-0.2154464999999999,0.1402885,-0.2253199999999999,-0.2439565,-0.2012315,-0.6723,-0.0710095,0.1492785,-0.6804399999999999,-0.0812075,1
120,-0.0432555,0.679025,-0.1877569999999999,-0.1816595,0.493855,-0.169657,-0.2770995,0.718465,-0.307347,0.1039505,0.505055,-0.200737,0.1858604999999999,0.735185,-0.326437,-0.2261995,0.980925,-0.422447,0.1798205,0.971515,-0.407757,-0.0603195,-0.0027249999999999,0.0055269999999999,0.0603195,0.002725,-0.0055269999999999,-0.1913195,-0.207415,-0.2304969999999999,0.1397205,-0.207065,-0.258527,-0.2013495,-0.648325,-0.076177,0.1486605,-0.6572149999999999,-0.08563,1
121,-0.04299,0.67988,-0.1966435,-0.181411,0.49384,-0.1778235,-0.277431,0.7184699999999999,-0.3181834999999999,0.1031089999999999,0.50708,-0.2080535,0.1853489999999999,0.7338199999999999,-0.3351834999999999,-0.225751,0.98021,-0.4353935,0.179649,0.97926,-0.4166335,-0.060003,-0.00296,0.0051505,0.060003,0.0029599999999999,-0.0051504999999999,-0.192791,-0.18945,-0.2452534999999999,0.1388889999999999,-0.19003,-0.2714235,-0.201651,-0.62617,-0.0810255,0.1476589999999999,-0.63534,-0.0897895,1
122,-0.0427285,0.6811050000000001,-0.20324,-0.1812464999999999,0.490745,-0.18404,-0.2777365,0.719165,-0.32667,0.1024435,0.5071650000000001,-0.21323,0.1848035,0.7330350000000001,-0.34108,-0.2252364999999999,0.979275,-0.44571,0.1800435,0.977565,-0.42503,-0.0598424999999999,-0.0032749999999999,0.0047009999999999,0.0598424999999999,0.003275,-0.004701,-0.1943464999999999,-0.1714649999999999,-0.25749,0.1380435,-0.1729449999999999,-0.28291,-0.2019764999999999,-0.603775,-0.083315,0.1466735,-0.613125,-0.09138,1
123,-0.0426275,0.67827,-0.2092995,-0.1813925,0.48978,-0.1884795,-0.2779125,0.71538,-0.3346595,0.1020175,0.50494,-0.2173695,0.1843774999999999,0.7305600000000001,-0.3470595,-0.2241725,0.97805,-0.4544795,0.1804374999999999,0.97305,-0.4330395,-0.0597015,-0.0034199999999999,0.0046925,0.0597015,0.00342,-0.0046924999999999,-0.1952525,-0.1576099999999999,-0.2661595,0.1375874999999999,-0.1595399999999999,-0.2908895,-0.2022324999999999,-0.58592,-0.0846315,0.1460675,-0.59636,-0.0918745,1
124,-0.042743,0.67981,-0.21528,-0.181501,0.48807,-0.19318,-0.277971,0.71168,-0.3424,0.1016089999999999,0.50275,-0.22164,0.1840389999999999,0.72708,-0.3533,-0.223331,0.97403,-0.46447,0.1795189999999999,0.96987,-0.4401,-0.059553,-0.0035399999999999,0.0046829999999999,0.059553,0.0035399999999999,-0.004683,-0.196311,-0.1417,-0.27536,0.137129,-0.1437,-0.29945,-0.202601,-0.56734,-0.085892,0.145869,-0.57938,-0.092568,1
125,-0.0425885,0.6810700000000001,-0.2214605,-0.1810705,0.48609,-0.1976905,-0.2778505,0.7095899999999999,-0.3497405,0.1013494999999999,0.50141,-0.2254505,0.1841195,0.72447,-0.3590805,-0.2222205,0.97077,-0.4738405,0.1797395,0.96747,-0.4469705,-0.0592705,-0.0037699999999999,0.0044865,0.0592705,0.0037699999999999,-0.0044865,-0.1974105,-0.1264,-0.2849705,0.1367795,-0.12812,-0.3076405,-0.2028505,-0.54871,-0.0869235,0.1455894999999999,-0.56262,-0.0935265,1
126,-0.042024,0.68119,-0.221167,-0.18029,0.485,-0.1972269999999999,-0.27779,0.71219,-0.3532269999999999,0.10153,0.5007900000000001,-0.224387,0.18524,0.7248,-0.360357,-0.22121,0.97269,-0.478357,0.1802,0.96594,-0.447607,-0.059034,-0.0039399999999999,0.004336,0.059034,0.0039399999999999,-0.004336,-0.19821,-0.1140399999999999,-0.289127,0.13646,-0.11613,-0.310907,-0.20298,-0.53062,-0.083493,0.14562,-0.54578,-0.090261,1
127,-0.0414205,0.6800200000000001,-0.2206185,-0.1794675,0.4844,-0.1967085,-0.2777775,0.71199,-0.3566185,0.1016924999999999,0.49944,-0.2235285,0.1865025,0.7260800000000001,-0.3617385,-0.2206675,0.97236,-0.4821285,0.1804425,0.96759,-0.4490685,-0.0589185,-0.0040099999999999,0.0042175,0.0589185,0.00401,-0.0042174999999999,-0.1990575,-0.1017299999999999,-0.2928084999999999,0.1364025,-0.1041999999999999,-0.3143885,-0.2030975,-0.5134799999999999,-0.0807585,0.1455325,-0.5296599999999999,-0.0877405,1
128,-0.0409475,0.678255,-0.220419,-0.1785864999999999,0.4845389999999999,-0.1960589999999999,-0.2777765,0.7119249999999999,-0.359559,0.1021135,0.499305,-0.222379,0.1876735,0.724035,-0.363219,-0.2202365,0.971855,-0.4861189999999999,0.1806535,0.964455,-0.451139,-0.0588775,-0.004065,0.0041899999999999,0.0588775,0.0040649999999999,-0.0041899999999999,-0.2003964999999999,-0.089775,-0.296029,0.1366935,-0.092875,-0.318189,-0.2033065,-0.498625,-0.078209,0.1451635,-0.514425,-0.085826,1
129,-0.040406,0.676795,-0.2203145,-0.177771,0.484025,-0.1957045,-0.277711,0.710235,-0.3617545,0.102599,0.498522,-0.2214045,0.1887889999999999,0.7250449999999999,-0.3648345,-0.2195309999999999,0.972415,-0.4871245,0.1811289999999999,0.961875,-0.4530345,-0.058808,-0.004305,0.0039205,0.058808,0.004305,-0.0039205,-0.202031,-0.077795,-0.2993845,0.137379,-0.081025,-0.3216545,-0.203591,-0.483885,-0.0757695,0.144889,-0.499255,-0.0844965,1
130,-0.039968,0.6757949999999999,-0.2205174999999999,-0.176897,0.4823929999999999,-0.1958975,-0.277727,0.708965,-0.3639075,0.103013,0.4964449999999999,-0.2211274999999999,0.189823,0.724285,-0.3668275,-0.219107,0.969025,-0.4903375,0.1814229999999999,0.959535,-0.4554475,-0.058774,-0.004445,0.0037035,0.058774,0.0044449999999999,-0.0037034999999999,-0.203917,-0.065345,-0.3024875,0.1381329999999999,-0.069055,-0.3253075,-0.204007,-0.468515,-0.0740934999999999,0.1446629999999999,-0.483885,-0.0834765,1
131,-0.039699,0.6736,-0.2212644999999999,-0.176237,0.483876,-0.1957145,-0.277877,0.70618,-0.3661645,0.1033929999999999,0.496528,-0.2205645,0.1905629999999999,0.72199,-0.3688645,-0.219157,0.96588,-0.4933245,0.1815429999999999,0.96626,-0.4573845,-0.058724,-0.0044599999999999,0.0034855,0.058724,0.00446,-0.0034855,-0.205927,-0.0540399999999999,-0.3057845,0.138843,-0.0581699999999999,-0.3284545,-0.204527,-0.4543399999999999,-0.0726644999999999,0.1446029999999999,-0.4690999999999999,-0.0804365,1
132,-0.0394135,0.67075,-0.2220845,-0.1753625,0.480527,-0.1964445,-0.2782225,0.7027,-0.3680845,0.1037174999999999,0.495547,-0.2205444999999999,0.1913675,0.7199500000000001,-0.3711144999999999,-0.2200625,0.96253,-0.4966244999999999,0.1808575,0.97189,-0.4604145,-0.0587455,-0.00483,0.0033265,0.0587455,0.00483,-0.0033264999999999,-0.2079225,-0.0424699999999999,-0.3082844999999999,0.1397375,-0.04746,-0.3314045,-0.2044425,-0.44042,-0.0712154999999999,0.1445975,-0.45208,-0.0792005,1
133,-0.0392085,0.66899,-0.2235905,-0.1747345,0.4789699999999999,-0.1971705,-0.2791045,0.6995899999999999,-0.3711305,0.1040454999999999,0.4946,-0.2209905,0.1923455,0.71815,-0.3743705,-0.2210045,0.96085,-0.5005605,0.1803354999999999,0.97632,-0.4645705,-0.0587385,-0.00511,0.0031394999999999,0.0587385,0.00511,-0.0031395,-0.2101145,-0.03009,-0.3109705,0.1408855,-0.03649,-0.3335504999999999,-0.2039145,-0.42602,-0.0706565,0.1447355,-0.4372400000000001,-0.0798055,1
134,-0.0391144999999999,0.66675,-0.225871,-0.1745125,0.478238,-0.1982709999999999,-0.2799925,0.69618,-0.375331,0.1041074999999999,0.493463,-0.2220909999999999,0.1933274999999999,0.7151,-0.378611,-0.2220125,0.95662,-0.506801,0.1799875,0.97908,-0.469741,-0.0589245,-0.00523,0.002963,0.0589245,0.00523,-0.002963,-0.2122625,-0.01738,-0.313061,0.1423975,-0.0256899999999999,-0.334861,-0.2035625,-0.4122599999999999,-0.070812,0.1452175,-0.42069,-0.078111,1
135,-0.039351,0.6641549999999999,-0.228907,-0.174347,0.4762869999999999,-0.200227,-0.280817,0.6920149999999999,-0.379747,0.104243,0.4919869999999999,-0.223937,0.194503,0.711495,-0.383957,-0.224197,0.947415,-0.513737,0.179943,0.980205,-0.478357,-0.059015,-0.005395,0.0027679999999999,0.059015,0.0053949999999999,-0.0027679999999999,-0.214137,-0.005615,-0.315557,0.143933,-0.016055,-0.336397,-0.203007,-0.3990250000000001,-0.071481,0.146513,-0.4037050000000001,-0.075322,1
136,-0.0398005,0.661905,-0.2322615,-0.1743215,0.4735709999999999,-0.2026115,-0.2821215,0.688325,-0.3848215,0.1048284999999999,0.4888099999999999,-0.2261415,0.1955585,0.7080649999999999,-0.3897015,-0.2272815,0.939145,-0.5211615,0.1813685,0.974675,-0.4866515,-0.0591815,-0.005595,0.0025365,0.0591815,0.0055949999999999,-0.0025365,-0.2153615,0.0062749999999999,-0.3181015,0.1454185,-0.006345,-0.3369115,-0.2022515,-0.385405,-0.0717474999999999,0.1479885,-0.3879950000000001,-0.0742285,1
137,-0.04036,0.659075,-0.2356245,-0.1745109999999999,0.4721229999999999,-0.2045145,-0.284211,0.680985,-0.3898445,0.1051889999999999,0.4868719999999999,-0.2278845,0.1967789999999999,0.704175,-0.3955245,-0.2314609999999999,0.928375,-0.5288244999999999,0.182829,0.971355,-0.4949345,-0.059405,-0.005955,0.0022784999999999,0.059405,0.005955,-0.0022785,-0.216081,0.017305,-0.3201445,0.146729,0.0019949999999999,-0.3362945,-0.201631,-0.372675,-0.0722505,0.148619,-0.375455,-0.0774725,1
138,-0.041331,0.656625,-0.23872,-0.175107,0.469016,-0.20625,-0.286487,0.6765950000000001,-0.39486,0.105213,0.4849070000000001,-0.22937,0.1976929999999999,0.7004950000000001,-0.40121,-0.236627,0.919335,-0.5370100000000001,0.184143,0.967275,-0.50336,-0.059634,-0.0062749999999999,0.0021,0.059634,0.006275,-0.0020999999999999,-0.217067,0.027865,-0.3216799999999999,0.1474929999999999,0.010295,-0.3358899999999999,-0.201477,-0.3618549999999999,-0.074275,0.149853,-0.3613949999999999,-0.079801,1
139,-0.0424175,0.654315,-0.2417375,-0.1758865,0.466505,-0.2080275,-0.2890065,0.6724450000000001,-0.3998975,0.1052334999999999,0.482718,-0.2308175,0.1985335,0.6981550000000001,-0.4067475,-0.2421165,0.913365,-0.5436975000000001,0.1855035,0.962845,-0.5120775000000001,-0.0599085,-0.006425,0.0019724999999999,0.0599084999999999,0.006425,-0.0019725,-0.2181065,0.037345,-0.3232075,0.1479835,0.017745,-0.3357775,-0.2016665,-0.3519949999999999,-0.0766155,0.1508535,-0.347915,-0.0781585,1
140,-0.043432,0.653254,-0.24451,-0.176671,0.462905,-0.20993,-0.291521,0.668883,-0.40424,0.105269,0.479685,-0.23224,0.199439,0.696705,-0.41187,-0.247961,0.906815,-0.55013,0.186989,0.958545,-0.52005,-0.060145,-0.0066249999999999,0.0019869999999999,0.060145,0.0066249999999999,-0.001987,-0.218881,0.0465149999999999,-0.32422,0.148379,0.0250249999999999,-0.33559,-0.201791,-0.343195,-0.079063,0.150749,-0.335715,-0.0774779999999999,1
141,-0.044255,0.651801,-0.2470005,-0.17732,0.46233,-0.2110205,-0.29401,0.665073,-0.4079104999999999,0.10549,0.47784,-0.2327605,0.20042,0.6942699999999999,-0.4159305,-0.25383,0.89901,-0.5554905,0.1886499999999999,0.95299,-0.5269604999999999,-0.06036,-0.0065899999999999,0.0020004999999999,0.06036,0.0065899999999999,-0.0020004999999999,-0.21898,0.0535299999999999,-0.3251505,0.1489,0.0303499999999999,-0.3342005,-0.20242,-0.3367799999999999,-0.0824845,0.15189,-0.3253,-0.0748135,1
142,-0.044821,0.650792,-0.2489245,-0.177712,0.46059,-0.2119945,-0.296382,0.661313,-0.4099245,0.1058979999999999,0.47639,-0.2329245,0.201198,0.692283,-0.4186245,-0.259072,0.8913800000000001,-0.5590245,0.190268,0.94792,-0.5328945,-0.060466,-0.0066699999999999,0.0019754999999999,0.060466,0.00667,-0.0019755,-0.218572,0.0589199999999999,-0.3257245,0.149658,0.0340399999999999,-0.3314345,-0.203022,-0.3286599999999999,-0.0824785,0.152068,-0.3156599999999999,-0.0717125,1
143,-0.0452005,0.650138,-0.2504955,-0.1780475,0.4592249999999999,-0.2127755,-0.2985475,0.6583239999999999,-0.4106355,0.1064624999999999,0.4748849999999999,-0.2331955,0.2018325,0.690819,-0.4203154999999999,-0.2642775,0.885215,-0.5600655,0.1916624999999999,0.943475,-0.5379055,-0.0604715,-0.006695,0.0017574999999999,0.0604715,0.006695,-0.0017575,-0.2179075,0.0631749999999999,-0.3264855,0.1504125,0.0368049999999999,-0.3284154999999999,-0.2034475,-0.3234950000000001,-0.0825055,0.1522725,-0.306995,-0.0682005,1
144,-0.0454655,0.6495380000000001,-0.2517175,-0.1782985,0.4584750000000001,-0.2133475,-0.3001685,0.6559210000000001,-0.4109275,0.1072315,0.473825,-0.2336275,0.2020815,0.6892780000000001,-0.4208975,-0.2680485,0.8836350000000001,-0.5607175,0.1928315,0.939805,-0.5397875,-0.0604955,-0.0067149999999999,0.0015875,0.0604955,0.006715,-0.0015874999999999,-0.2174185,0.066475,-0.3273775,0.1514115,0.038735,-0.3252575,-0.2037884999999999,-0.3213749999999999,-0.0845235,0.1527115,-0.300955,-0.0638015,1
145,-0.0455215,0.6492140000000001,-0.252624,-0.1783275,0.457805,-0.213974,-0.3006175,0.6554570000000001,-0.411524,0.1076725,0.474035,-0.234284,0.2021725,0.6881170000000001,-0.421524,-0.2710375,0.883405,-0.561164,0.1927625,0.943115,-0.541004,-0.0605084999999999,-0.0065949999999999,0.001374,0.0605085,0.006595,-0.001374,-0.2171175,0.068855,-0.328474,0.1524425,0.040305,-0.322754,-0.2043175,-0.3216049999999999,-0.0875509999999999,0.1536725,-0.2971549999999999,-0.060946,1
146,-0.04537,0.649367,-0.253352,-0.1782119999999999,0.456895,-0.214702,-0.3006419999999999,0.657537,-0.412242,0.107968,0.474135,-0.234762,0.202148,0.689063,-0.422242,-0.273572,0.884765,-0.561722,0.192718,0.946125,-0.5419320000000001,-0.060541,-0.0064149999999999,0.001167,0.060541,0.006415,-0.001167,-0.217162,0.0705949999999999,-0.3295019999999999,0.153368,0.041825,-0.3207319999999999,-0.204752,-0.3185949999999999,-0.087966,0.154578,-0.2941249999999999,-0.0608019999999999,1
147,-0.0452385,0.6490819999999999,-0.253971,-0.1782695,0.45747,-0.215311,-0.3006595,0.658725,-0.412631,0.1080604999999999,0.47372,-0.234731,0.2021105,0.689442,-0.422851,-0.2758095,0.8861399999999999,-0.562191,0.1926804999999999,0.94773,-0.542541,-0.0605475,-0.0060999999999999,0.0010619999999999,0.0605475,0.0060999999999999,-0.001062,-0.2172195,0.0713,-0.330421,0.1544904999999999,0.04205,-0.318741,-0.2053094999999999,-0.31699,-0.088347,0.1552704999999999,-0.2934800000000001,-0.058906,1
148,-0.0448705,0.649357,-0.254571,-0.1781295,0.457745,-0.215521,-0.3004995,0.659,-0.411141,0.1082005,0.473995,-0.234611,0.2022105,0.689717,-0.422751,-0.2774594999999999,0.886415,-0.5618810000000001,0.1925705,0.948005,-0.543111,-0.0605384999999999,-0.0058249999999999,0.0009809999999999,0.0605385,0.0058249999999999,-0.0009809999999999,-0.2171895,0.071575,-0.331401,0.1564205,0.042325,-0.317111,-0.2067495,-0.3167649999999999,-0.088485,0.1559404999999999,-0.293205,-0.0595249999999999,1
149,-0.04425,0.649627,-0.2548885,-0.177781,0.458015,-0.2155385,-0.300141,0.65927,-0.4096485,0.108409,0.474265,-0.2342685,0.202249,0.689987,-0.4219785,-0.278611,0.886685,-0.5603284999999999,0.192519,0.948275,-0.5436884999999999,-0.0604819999999999,-0.005785,0.0009035,0.060482,0.005785,-0.0009035,-0.217001,0.071845,-0.3323085,0.158819,0.042595,-0.3160585,-0.206871,-0.3148849999999999,-0.0858215,0.155079,-0.293845,-0.0625405,1
150,-0.043132,0.6498990000000001,-0.2547244999999999,-0.177003,0.4583150000000001,-0.2153045,-0.2993329999999999,0.6595700000000001,-0.4074645,0.109197,0.474565,-0.2338945,0.202527,0.6902870000000001,-0.4208245,-0.279093,0.8869850000000001,-0.5577844999999999,0.192697,0.949065,-0.5436445,-0.060393,-0.0056549999999999,0.0008284999999999,0.060393,0.005655,-0.0008284999999999,-0.216943,0.0721450000000001,-0.3332045,0.162107,0.0428950000000001,-0.3152645,-0.207123,-0.314175,-0.0849485,0.154247,-0.2959749999999999,-0.0685195,1
151,-0.0418535,0.6501690000000001,-0.2539515,-0.1760614999999999,0.459395,-0.2145515,-0.2983515,0.6612480000000001,-0.4047415,0.1101485,0.474835,-0.2331415,0.2025385,0.691385,-0.4192515,-0.2793115,0.8892150000000001,-0.5543515,0.1926585,0.951585,-0.5428514999999999,-0.0602975,-0.0054849999999999,0.0007544999999999,0.0602975,0.005485,-0.0007545,-0.2170415,0.073165,-0.3340114999999999,0.1656585,0.043595,-0.3155314999999999,-0.2072715,-0.3128949999999999,-0.0838555,0.1537585,-0.300855,-0.0760605,1
152,-0.0404385,0.650868,-0.2526345,-0.1748904999999999,0.460955,-0.2136344999999999,-0.2971005,0.663729,-0.4015445,0.1113195,0.475585,-0.2321645,0.2023695,0.693025,-0.4172445,-0.2793005,0.891845,-0.5502145,0.1925795,0.954635,-0.5411445,-0.0602054999999999,-0.0052949999999999,0.0007365,0.0602054999999999,0.005295,-0.0007364999999999,-0.2173405,0.074155,-0.3345845,0.1693995,0.044525,-0.3161545,-0.2066805,-0.3132049999999999,-0.0837195,0.1542195,-0.303145,-0.0817924999999999,1
153,-0.0390625,0.651791,-0.2509435,-0.1735875,0.4628,-0.2126235,-0.2956875,0.666619,-0.3981035,0.1124925,0.47656,-0.2310635,0.2020825,0.6949019999999999,-0.4149635,-0.2791675,0.8947099999999999,-0.5454635000000001,0.1924925,0.95805,-0.5388435,-0.0600625,-0.00508,0.0007335,0.0600625,0.0050799999999999,-0.0007334999999999,-0.2178275,0.0751799999999999,-0.3350135,0.1730125,0.0454499999999999,-0.3167535,-0.2062775,-0.30972,-0.0791785,0.1553325,-0.3067000000000001,-0.0837285,1
154,-0.0376995,0.652739,-0.24863,-0.1723704999999999,0.4646799999999999,-0.21125,-0.2942905,0.669669,-0.39409,0.1135495,0.4776499999999999,-0.22951,0.2016595,0.6967789999999999,-0.4120499999999999,-0.2789605,0.89754,-0.54008,0.1923695,0.96141,-0.5358400000000001,-0.0599615,-0.00486,0.000779,0.0599615,0.0048599999999999,-0.000779,-0.2185805,0.0761699999999999,-0.33509,0.1761094999999999,0.0467999999999999,-0.31708,-0.2055705,-0.3091100000000001,-0.079355,0.1566695,-0.3059700000000001,-0.0840279999999999,1
155,-0.036344,0.653712,-0.246083,-0.171261,0.4662199999999999,-0.209643,-0.2930009999999999,0.6726139999999999,-0.3901829999999999,0.114489,0.4787599999999999,-0.227803,0.201219,0.6986979999999999,-0.4090129999999999,-0.2784709999999999,0.90042,-0.5347529999999999,0.192229,0.96473,-0.532463,-0.059875,-0.00473,0.000813,0.059875,0.00473,-0.0008129999999999,-0.219581,0.07689,-0.3350729999999999,0.178529,0.0479799999999999,-0.317393,-0.205401,-0.30493,-0.0750039999999999,0.158219,-0.30864,-0.08787,1
156,-0.0350479999999999,0.654757,-0.243662,-0.170351,0.467705,-0.208152,-0.291941,0.6754260000000001,-0.386752,0.115189,0.4797450000000001,-0.2261719999999999,0.2007489999999999,0.700482,-0.406262,-0.277951,0.902995,-0.529922,0.1921189999999999,0.967695,-0.529122,-0.059771,-0.004525,0.000794,0.059771,0.004525,-0.0007939999999999,-0.220381,0.077575,-0.335192,0.180279,0.049065,-0.318002,-0.204431,-0.3033249999999999,-0.075243,0.159379,-0.3081549999999999,-0.088656,1
157,-0.0340935,0.6558660000000001,-0.2413799999999999,-0.1698434999999999,0.46914,-0.20697,-0.2923935,0.677869,-0.38462,0.1156165,0.48066,-0.22462,0.2001565,0.7023280000000001,-0.40423,-0.2777934999999999,0.90533,-0.52654,0.1919865,0.97013,-0.526,-0.0595915,-0.0043699999999999,0.000722,0.0595915,0.0043699999999999,-0.000722,-0.2211334999999999,0.07822,-0.33519,0.1812365,0.04988,-0.31875,-0.2020735,-0.30387,-0.073287,0.1609665,-0.3093899999999999,-0.091742,1
158,-0.033579,0.6577439999999999,-0.239491,-0.169741,0.4714649999999999,-0.205891,-0.2931809999999999,0.6808639999999999,-0.383071,0.1158589999999999,0.4818949999999999,-0.223421,0.199439,0.7043579999999999,-0.402721,-0.277911,0.907735,-0.524251,0.191479,0.973695,-0.5233410000000001,-0.059356,-0.004345,0.0007039999999999,0.059356,0.0043449999999999,-0.000704,-0.221801,0.0786849999999999,-0.334721,0.182119,0.0505049999999999,-0.319761,-0.201051,-0.302695,-0.072183,0.162289,-0.310135,-0.094952,1
159,-0.033252,0.659009,-0.2384125,-0.169677,0.473005,-0.2054524999999999,-0.293837,0.682804,-0.3821925,0.1154729999999999,0.482935,-0.2228725,0.198433,0.707351,-0.4017825,-0.278027,0.908865,-0.5229125,0.1909529999999999,0.977395,-0.5216725,-0.059273,-0.004005,0.0009394999999999,0.059273,0.004005,-0.0009395,-0.222047,0.077435,-0.3338725,0.183173,0.049575,-0.3215525,-0.199697,-0.302185,-0.0690435,0.1630629999999999,-0.312565,-0.0973365,1
160,-0.0332735,0.658764,-0.238045,-0.1697675,0.4738,-0.205355,-0.2945375,0.6838329999999999,-0.381945,0.1151025,0.4828,-0.223095,0.1977125,0.708545,-0.4015849999999999,-0.2780975,0.90978,-0.522445,0.1904725,0.97938,-0.520505,-0.0591624999999999,-0.00402,0.0012459999999999,0.0591624999999999,0.00402,-0.0012459999999999,-0.2223075,0.0741499999999999,-0.332595,0.1838325,0.0458399999999999,-0.3232549999999999,-0.1982074999999999,-0.30364,-0.06655,0.1630425,-0.31575,-0.1003699999999999,1
161,-0.033786,0.65888,-0.2384775,-0.170104,0.474575,-0.2058775,-0.295434,0.684855,-0.3826275,0.114556,0.482405,-0.2239475,0.196956,0.708985,-0.4024275,-0.278284,0.909385,-0.5224675,0.189766,0.980865,-0.5203675,-0.058982,-0.0037449999999999,0.0016704999999999,0.058982,0.0037449999999999,-0.0016705,-0.222794,0.068675,-0.3313375,0.183746,0.040355,-0.3253175,-0.196914,-0.308555,-0.0679825,0.162686,-0.321225,-0.1032905,1
162,-0.034538,0.658288,-0.239614,-0.170668,0.47497,-0.2068539999999999,-0.296708,0.684643,-0.383924,0.113842,0.48169,-0.225564,0.196102,0.70839,-0.404184,-0.278758,0.90698,-0.523594,0.188712,0.98136,-0.521034,-0.0588189999999999,-0.0034999999999999,0.002227,0.0588189999999999,0.0035,-0.002227,-0.2236079999999999,0.06044,-0.329584,0.182792,0.03346,-0.328074,-0.195718,-0.31696,-0.069914,0.162532,-0.32996,-0.10633,1
163,-0.035415,0.65914,-0.240976,-0.171194,0.47572,-0.207996,-0.298114,0.68542,-0.385436,0.1130759999999999,0.481751,-0.227436,0.195206,0.7084699999999999,-0.405906,-0.279254,0.90779,-0.525276,0.187656,0.98223,-0.522136,-0.05862,-0.00333,0.0026559999999999,0.05862,0.0033299999999999,-0.0026559999999999,-0.224644,0.05159,-0.326926,0.181316,0.0262799999999999,-0.3308359999999999,-0.194744,-0.3251,-0.069235,0.1631159999999999,-0.3374399999999999,-0.105294,1
164,-0.036599,0.659697,-0.2428805,-0.1719109999999999,0.475859,-0.2092405,-0.298981,0.68538,-0.3869205,0.1121289999999999,0.482232,-0.2295605,0.193859,0.7091,-0.4077105,-0.279941,0.90845,-0.5277605,0.1864489999999999,0.9835,-0.5239205,-0.058311,-0.00314,0.0031225,0.058311,0.0031399999999999,-0.0031225,-0.225791,0.0401199999999999,-0.3236805,0.179499,0.0167399999999999,-0.3337704999999999,-0.1950009999999999,-0.3383400000000001,-0.0737295,0.164929,-0.34303,-0.0972055,1
165,-0.037922,0.65967,-0.2447835,-0.172892,0.476772,-0.2108635,-0.3001419999999999,0.6856099999999999,-0.3887935,0.111068,0.481529,-0.2319335,0.192388,0.70941,-0.4097535,-0.280852,0.90882,-0.5297835,0.1850379999999999,0.98275,-0.5263534999999999,-0.057938,-0.00268,0.0037355,0.057938,0.00268,-0.0037354999999999,-0.226782,0.02649,-0.3203135,0.177468,0.0057199999999999,-0.3362335,-0.194862,-0.35433,-0.0782605,0.166578,-0.35506,-0.0974174999999999,1
166,-0.0393595,0.6603350000000001,-0.2465735,-0.1739325,0.4771790000000001,-0.2128135,-0.3007225,0.686575,-0.3908035,0.1099375,0.4815330000000001,-0.2343835,0.1908975,0.7112250000000001,-0.4117535,-0.2818425,0.909585,-0.5309435,0.1833475,0.985685,-0.5276735,-0.0575935,-0.0024649999999999,0.0041944999999999,0.0575935,0.002465,-0.0041945,-0.2274225,0.011115,-0.3171235,0.1754975,-0.0070149999999998,-0.3383435,-0.1949825,-0.3720149999999999,-0.0835725,0.1679175,-0.3702149999999999,-0.0983185,1
167,-0.0405745,0.66083,-0.2484445,-0.1747085,0.477628,-0.2149944999999999,-0.3014585,0.68882,-0.3922645,0.1086515,0.481136,-0.2374244999999999,0.1893415,0.71229,-0.4143645,-0.2827385,0.91257,-0.5318645,0.1819515,0.98715,-0.5287445,-0.0573785,-0.0023699999999999,0.0044565,0.0573785,0.0023699999999999,-0.0044565,-0.2273685,-0.0053999999999999,-0.3145145,0.1739515,-0.0209,-0.3395745,-0.1958385,-0.39164,-0.0882985,0.1693715,-0.38937,-0.1015765,1
168,-0.0416835,0.662275,-0.2491505,-0.1754125,0.47869,-0.2160905,-0.3020124999999999,0.691815,-0.3927005,0.1079375,0.479425,-0.2398505,0.1883175,0.711775,-0.4151005,-0.2836424999999999,0.914835,-0.5318705,0.1807274999999999,0.987505,-0.5285405,-0.0573155,-0.002085,0.0047845,0.0573155,0.002085,-0.0047844999999999,-0.2271525,-0.0214749999999999,-0.3116704999999999,0.1725074999999999,-0.034685,-0.3396705,-0.1963225,-0.411925,-0.0934914999999999,0.1692475,-0.408775,-0.1042205,1
169,-0.0423125,0.66441,-0.2495774999999999,-0.1757034999999999,0.479507,-0.2173675,-0.3021635,0.6928300000000001,-0.3923975,0.1068465,0.481083,-0.2413275,0.1874165,0.7118,-0.4155475,-0.2843835,0.91596,-0.5317175000000001,0.1799465,0.98818,-0.5283875,-0.0574075,-0.0022099999999999,0.0048045,0.0574075,0.0022099999999999,-0.0048044999999999,-0.2267835,-0.03898,-0.3092475,0.1715865,-0.049,-0.3391975,-0.1972134999999999,-0.43328,-0.0981824999999999,0.1691565,-0.43057,-0.1091574999999999,1
170,-0.0428065,0.666935,-0.2486934999999999,-0.1759534999999999,0.481075,-0.2176435,-0.3014735,0.694615,-0.3895635,0.1056965,0.481896,-0.2421734999999999,0.1866265,0.712595,-0.4140535,-0.2849435,0.920185,-0.5283935,0.1793365,0.989175,-0.5261235,-0.0575755,-0.002235,0.0046594999999999,0.0575755,0.0022349999999999,-0.0046594999999999,-0.2264034999999999,-0.056255,-0.3056235,0.1708965,-0.062595,-0.3373035,-0.1973234999999999,-0.454975,-0.1024305,0.1697465,-0.452025,-0.1127615,1
171,-0.0431,0.671315,-0.246984,-0.17618,0.4823929999999999,-0.217774,-0.30087,0.699855,-0.384924,0.10433,0.481853,-0.242744,0.18606,0.7161649999999999,-0.410464,-0.28511,0.928585,-0.523304,0.1790699999999999,0.992215,-0.523544,-0.057418,-0.002165,0.004524,0.057418,0.0021649999999999,-0.004524,-0.22578,-0.071285,-0.301894,0.17056,-0.073075,-0.333304,-0.19833,-0.474415,-0.106276,0.1698899999999999,-0.472985,-0.116877,1
172,-0.0434355,0.674375,-0.243695,-0.1768035,0.485575,-0.215475,-0.3003635,0.7042550000000001,-0.379405,0.1033265,0.484662,-0.2410149999999999,0.1851665,0.719265,-0.406565,-0.2847335,0.932235,-0.515665,0.1791165,0.994255,-0.5190250000000001,-0.0569805,-0.0021849999999999,0.00464,0.0569805,0.0021849999999999,-0.0046399999999999,-0.2243135,-0.087305,-0.296465,0.1702365,-0.0864849999999999,-0.328005,-0.1997735,-0.496655,-0.10976,0.1700965,-0.495735,-0.1195139999999999,1
173,-0.043636,0.6793549999999999,-0.2399639999999999,-0.17742,0.488075,-0.2137839999999999,-0.30004,0.710935,-0.373394,0.10238,0.485695,-0.239674,0.1845699999999999,0.723795,-0.401294,-0.2843,0.937845,-0.506794,0.17958,0.999275,-0.511964,-0.056537,-0.0019649999999999,0.004642,0.056537,0.0019649999999999,-0.0046419999999999,-0.2223,-0.101435,-0.291474,0.16999,-0.097965,-0.322164,-0.20057,-0.517285,-0.1130509999999999,0.1706099999999999,-0.5167950000000001,-0.1223249999999999,1
174,-0.0437915,0.68408,-0.235922,-0.1777965,0.49199,-0.211202,-0.2999065,0.71674,-0.367112,0.1011034999999999,0.48756,-0.237712,0.1840435,0.72745,-0.396042,-0.2842265,0.94022,-0.497282,0.1801134999999999,1.00523,-0.504462,-0.0564305,-0.0018199999999999,0.004607,0.0564305,0.00182,-0.004607,-0.2197065,-0.1165899999999999,-0.286342,0.1695735,-0.1104299999999999,-0.3157919999999999,-0.2007965,-0.53965,-0.115981,0.1717535,-0.5380199999999999,-0.125032,1
175,-0.0436199999999999,0.689065,-0.2290364999999999,-0.17806,0.5003949999999999,-0.2072465,-0.29916,0.7259549999999999,-0.3577365,0.0999,0.4937749999999999,-0.2347064999999999,0.18372,0.733845,-0.3877365,-0.28397,0.952115,-0.4862464999999999,0.18027,1.006145,-0.4953765,-0.056329,-0.001505,0.0047395,0.056329,0.0015049999999999,-0.0047394999999999,-0.21616,-0.129995,-0.2793765,0.16868,-0.121825,-0.3074964999999999,-0.20082,-0.562615,-0.1185264999999999,0.17176,-0.560295,-0.1274825,1
176,-0.043242,0.6905349999999999,-0.221539,-0.178047,0.5048349999999999,-0.203449,-0.298257,0.733475,-0.348659,0.099013,0.4972749999999999,-0.231349,0.183763,0.740475,-0.378149,-0.282957,0.959205,-0.474929,0.180483,1.004935,-0.484789,-0.056202,-0.001285,0.005015,0.056202,0.0012849999999999,-0.005015,-0.2120369999999999,-0.144725,-0.271729,0.167543,-0.134175,-0.298079,-0.2006569999999999,-0.586775,-0.120847,0.171933,-0.583025,-0.129562,1
177,-0.0431914999999999,0.685775,-0.2128025,-0.1792305,0.508725,-0.1986925,-0.2972105,0.7380850000000001,-0.3398825,0.0972795,0.496475,-0.2281725,0.1832595,0.7424550000000001,-0.3691725,-0.2828005,0.962395,-0.4618124999999999,0.1808695,1.002115,-0.4743225,-0.0558894999999999,-0.0013849999999999,0.0048674999999999,0.0558894999999999,0.001385,-0.0048675,-0.2076905,-0.1590749999999999,-0.2627724999999999,0.1656095,-0.149775,-0.2884625,-0.2011505,-0.6107049999999999,-0.1237295,0.1716495,-0.608675,-0.1318475,1
178,-0.043117,0.68313,-0.20303,-0.180453,0.5133300000000001,-0.1933269999999999,-0.296253,0.74766,-0.33002,0.093157,0.49235,-0.2252499999999999,0.180737,0.7444200000000001,-0.35707,-0.282603,0.96806,-0.44816,0.181687,1.00422,-0.45932,-0.055505,-0.00054,0.0051,0.055505,0.0005399999999999,-0.0050999999999999,-0.203453,-0.1710499999999999,-0.25304,0.163447,-0.16315,-0.27807,-0.201523,-0.6316600000000001,-0.125322,0.171157,-0.63117,-0.133157,1
179,-0.0423845,0.67908,-0.192561,-0.1810545,0.5166200000000001,-0.187905,-0.2952845,0.75616,-0.320273,0.0938055,0.49345,-0.221403,0.1802955,0.74905,-0.345263,-0.2818845,0.97733,-0.434893,0.1833055,1.0057,-0.444723,-0.0548975,0.0001599999999999,0.0053069999999999,0.0548975,-0.0001599999999999,-0.005307,-0.1987645,-0.18128,-0.242613,0.1613355,-0.1738299999999999,-0.266333,-0.2009345,-0.65087,-0.126253,0.1709755,-0.64999,-0.133971,1
180,-0.041099,0.676515,-0.181748,-0.1814879999999999,0.525345,-0.180257,-0.293658,0.765185,-0.311091,0.094992,0.494945,-0.216691,0.180082,0.751725,-0.333211,-0.2804979999999999,0.985125,-0.419471,0.185832,1.009585,-0.4277809999999999,-0.054138,0.000925,0.005529,0.054138,-0.0009249999999999,-0.005529,-0.1934779999999999,-0.191735,-0.231651,0.159282,-0.187245,-0.255461,-0.200068,-0.6698949999999999,-0.127488,0.170902,-0.668515,-0.134732,1
181,-0.0397625,0.67347,-0.17108,-0.1815115,0.53147,-0.174109,-0.2914915,0.7755399999999999,-0.3009469999999999,0.0966485,0.4920899999999999,-0.213447,0.1798585,0.75441,-0.319987,-0.2786315,0.99569,-0.404487,0.1886585,1.01408,-0.411257,-0.0533945,0.0018399999999999,0.005873,0.0533945,-0.00184,-0.005873,-0.1887915,-0.20107,-0.221767,0.1566385,-0.19684,-0.242827,-0.1987315,-0.6854,-0.127992,0.1706585,-0.68313,-0.135185,1
182,-0.0383435,0.6696,-0.1606525,-0.1816855,0.53678,-0.1665345,-0.2893255,0.78154,-0.2903215,0.0990945,0.4915,-0.2068215,0.1794845,0.75647,-0.3069815,-0.2762855,0.99957,-0.3897915,0.1913945,1.0168,-0.3949515,-0.0526695,0.0021899999999999,0.0062185,0.0526695,-0.0021899999999999,-0.0062185,-0.1836455,-0.21392,-0.2105515,0.1537445,-0.2110699999999999,-0.2307115,-0.1971554999999999,-0.7038,-0.1278345,0.1702045,-0.70137,-0.1354555,1
183,-0.0370085,0.66539,-0.150048,-0.1818995,0.53822,-0.159575,-0.2868895,0.78854,-0.27837,0.0998205,0.49015,-0.200592,0.1786505,0.7587700000000001,-0.29263,-0.2743195,1.0074,-0.37483,0.1942605,1.01957,-0.37815,-0.0521265,0.00238,0.0065099999999999,0.0521265,-0.0023799999999999,-0.00651,-0.1771295,-0.2236499999999999,-0.196096,0.1506705,-0.22429,-0.21609,-0.1952694999999999,-0.71828,-0.126694,0.1696305,-0.71824,-0.135274,1
184,-0.0359595,0.6600170000000001,-0.141697,-0.1823105,0.535187,-0.153599,-0.2847805,0.791787,-0.2685,0.0994095,0.483487,-0.195374,0.1774195,0.756777,-0.28025,-0.2726404999999999,1.006037,-0.3608099999999999,0.1955895,1.022027,-0.36277,-0.0514975,0.0025099999999999,0.00673,0.0514975,-0.0025099999999999,-0.00673,-0.1712205,-0.233543,-0.183365,0.1469995,-0.236683,-0.202984,-0.1933505,-0.7293430000000001,-0.124916,0.1687295,-0.7327729999999999,-0.133755,1
185,-0.034996,0.6582589999999999,-0.133051,-0.182725,0.534929,-0.14696,-0.283205,0.7947089999999999,-0.25712,0.097045,0.480289,-0.189387,0.176165,0.755889,-0.26724,-0.270985,1.013349,-0.34501,0.1972249999999999,1.028439,-0.34771,-0.050879,0.0022969999999999,0.00669,0.050879,-0.002297,-0.00669,-0.165515,-0.2405209999999999,-0.170035,0.143395,-0.246671,-0.190695,-0.191495,-0.733941,-0.122359,0.167595,-0.7444409999999999,-0.131405,1
186,-0.0343025,0.6622115,-0.126336,-0.1828865,0.5375115,-0.141561,-0.2813265,0.8006415,-0.24487,0.0990735,0.4831514999999999,-0.183643,0.1765135,0.7602814999999999,-0.25427,-0.2689764999999999,1.0257515,-0.33149,0.1995835,1.0373715,-0.33222,-0.0503254999999999,0.0025444999999999,0.00662,0.0503254999999999,-0.0025445,-0.00662,-0.1605765,-0.2451485,-0.15803,0.1397135,-0.2504085,-0.177688,-0.1893165,-0.7366185000000001,-0.118529,0.1672635,-0.7543685,-0.128418,1
187,-0.0337705,0.665242,-0.120438,-0.1831565,0.541352,-0.136723,-0.2795265,0.803112,-0.233835,0.0999235,0.4869819999999999,-0.178187,0.1775235,0.765612,-0.244005,-0.2675865,1.036022,-0.318125,0.2012035,1.0416919999999998,-0.318065,-0.0503805,0.0025019999999999,0.0066249999999999,0.0503805,-0.002502,-0.006625,-0.1555565,-0.248908,-0.146417,0.1359935,-0.253878,-0.164425,-0.1828765,-0.729088,-0.11129,0.1678535,-0.763948,-0.125856,1
188,-0.0327135,0.670105,-0.1114834999999999,-0.1832645,0.545595,-0.1264015,-0.2773245,0.805955,-0.2184795,0.1013455,0.488385,-0.1691385,0.1792655,0.769585,-0.2298995,-0.2654845,1.041315,-0.3010895,0.2032755,1.046845,-0.2998294999999999,-0.0501445,0.002022,0.0069505,0.0501445,-0.0020219999999999,-0.0069504999999999,-0.1499444999999999,-0.252705,-0.1309275,0.1335355,-0.257115,-0.1475695,-0.1786945,-0.7295849999999999,-0.0998704999999999,0.1691655,-0.7727949999999999,-0.1189284999999999,1
189,-0.032211,0.674423,-0.0976514999999999,-0.182833,0.541833,-0.1106045,-0.274653,0.797633,-0.1980934999999999,0.104127,0.4961129999999999,-0.1497254999999999,0.181537,0.770683,-0.2118835,-0.262413,1.038333,-0.2803235,0.205497,1.048433,-0.2786235,-0.051144,0.0010759999999999,0.0066065,0.051144,-0.001076,-0.0066064999999999,-0.143643,-0.268067,-0.1107414999999999,0.129507,-0.271627,-0.1249395,-0.173963,-0.7411869999999999,-0.0832094999999999,0.170017,-0.7875869999999999,-0.1078485,1
190,-0.0321585,0.6797205,-0.083995,-0.1825524999999999,0.5388105,-0.094774,-0.2725725,0.7882604999999999,-0.179068,0.1102875,0.5049205,-0.130564,0.1854075,0.7721605,-0.195087,-0.2596725,1.0345805,-0.260067,0.2086775,1.0505805,-0.258057,-0.0519685,0.0002044999999999,0.006098,0.0519685,-0.0002044999999999,-0.0060979999999999,-0.1378925,-0.2826395,-0.091403,0.1259575,-0.2858895,-0.1048419999999999,-0.1704524999999999,-0.7561195,-0.0701799999999999,0.1706975,-0.8012495000000001,-0.096941,1
191,-0.0321175,0.68367,-0.0708509999999999,-0.1820385,0.53898,-0.0804329999999999,-0.2707985,0.78157,-0.1610249999999999,0.1162614999999999,0.51258,-0.1147619999999999,0.1891014999999999,0.77217,-0.179803,-0.2576585,1.03557,-0.241163,0.2112615,1.0522699999999998,-0.2399929999999999,-0.0528695,-0.000294,0.005419,0.0528695,0.000294,-0.0054189999999999,-0.1329085,-0.29316,-0.0745749999999999,0.1228414999999999,-0.2954,-0.0856049999999999,-0.1672885,-0.7667499999999999,-0.0580009999999999,0.1715414999999999,-0.81021,-0.0862669999999999,1
192,-0.0319325,0.6877935,-0.05794,-0.1813395,0.5387434999999999,-0.06595,-0.2684195,0.7736535,-0.143782,0.1204605,0.5205635,-0.098739,0.1924305,0.7725535,-0.165386,-0.2551195,1.0355735,-0.223276,0.2137905,1.0533735000000002,-0.222366,-0.0540215,-0.0003214999999999,0.004775,0.0540215,0.0003215,-0.004775,-0.1291995,-0.3037964999999999,-0.062144,0.1204104999999999,-0.3047165,-0.070001,-0.1635995,-0.7780065,-0.046718,0.1723805,-0.8188065,-0.075725,1
193,-0.0320055,0.6922919999999999,-0.045853,-0.1807665,0.538802,-0.051386,-0.2661865,0.766172,-0.127244,0.1230334999999999,0.528932,-0.082573,0.1958135,0.7730319999999999,-0.151777,-0.2528665,1.034942,-0.206521,0.2160534999999999,1.054942,-0.205831,-0.0552804999999999,-0.0007379999999999,0.0040989999999999,0.0552804999999999,0.0007379999999999,-0.0040989999999999,-0.1256565,-0.314418,-0.050293,0.1188935,-0.315498,-0.055119,-0.1603965,-0.789918,-0.0358649999999999,0.1730335,-0.8297680000000001,-0.0657109999999999,1
194,-0.0321265,0.6968285,-0.0341605,-0.1802115,0.5351885,-0.0370085,-0.2640515,0.7582885,-0.1121145,0.1239784999999999,0.5372185,-0.0663665,0.1976185,0.7732785,-0.1391105,-0.2507615,1.0285085,-0.1919515,0.2178285,1.0563085,-0.1904115,-0.0565134999999999,-0.0011615,0.0035684999999999,0.0565134999999999,0.0011614999999999,-0.0035685,-0.1222515,-0.3250415,-0.0397035,0.1175685,-0.3257815,-0.0409085,-0.1573115,-0.8024715,-0.0255405,0.1737085,-0.8401915,-0.0558755,1
195,-0.0323794999999999,0.7018530000000001,-0.0218814999999999,-0.1796065,0.531643,-0.0224534999999999,-0.2621765,0.750513,-0.0975335,0.1259735,0.544943,-0.0498275,0.1997034999999999,0.773093,-0.1266205,-0.2485565,1.022313,-0.1770295,0.2198135,1.057613,-0.1754095,-0.0576465,-0.001631,0.0027545,0.0576465,0.001631,-0.0027545,-0.1190664999999999,-0.337727,-0.0295804999999999,0.1165635,-0.3385269999999999,-0.0281744999999999,-0.1548465,-0.816817,-0.0159084999999999,0.1744234999999999,-0.852867,-0.0461515,1
196,-0.032215,0.7054609999999999,-0.009766,-0.178896,0.5301009999999999,-0.007991,-0.2603459999999999,0.7423010000000001,-0.083649,0.1280339999999999,0.551831,-0.033275,0.202374,0.7719210000000001,-0.1145849999999999,-0.246326,1.015971,-0.162612,0.221914,1.058571,-0.163292,-0.058705,-0.002062,0.001961,0.058705,0.0020619999999999,-0.001961,-0.116156,-0.350349,-0.019993,0.115804,-0.347149,-0.016954,-0.152536,-0.831299,-0.006283,0.175614,-0.861329,-0.0366859999999999,1
197,-0.0322615,0.707889,-0.0020375,-0.1780505,0.530179,0.0003954999999999,-0.2594805,0.7347189999999999,-0.0752775,0.1297895,0.556969,-0.0217555,0.2051195,0.769339,-0.1075685,-0.2450005,1.009209,-0.1539805,0.2236995,1.059109,-0.1565805,-0.0597405,-0.002225,0.0011124999999999,0.0597405,0.002225,-0.0011125,-0.1139005,-0.361801,-0.0151875,0.1148895,-0.355691,-0.0119525,-0.1508605,-0.843561,-0.0014425,0.1767895,-0.869791,-0.0323385,1
198,-0.032697,0.709209,0.000957,-0.178138,0.530179,0.002271,-0.259788,0.7348790000000001,-0.071323,0.130222,0.556969,-0.0202079999999999,0.205812,0.7696890000000001,-0.104773,-0.245058,1.009209,-0.151148,0.224192,1.059309,-0.154078,-0.05967,-0.002225,0.001102,0.05967,0.002225,-0.0011019999999999,-0.113448,-0.361801,-0.0147109999999999,0.115252,-0.355691,-0.0114699999999999,-0.150468,-0.843561,-0.0010549999999999,0.176722,-0.865691,-0.0330909999999999,1
199,-0.0330325,0.710369,0.0037675,-0.1782135,0.530179,0.0042095,-0.2601234999999999,0.7348790000000001,-0.0674245,0.1306564999999999,0.556969,-0.0185605,0.2064965,0.7696890000000001,-0.1018895,-0.2451335,1.009209,-0.1482895,0.2249064999999999,1.059309,-0.1519295,-0.0596075,-0.002225,0.0011094999999999,0.0596075,0.002225,-0.0011094999999999,-0.1130535,-0.361801,-0.0142735,0.1153965,-0.355691,-0.0109385,-0.1539035,-0.8557710000000001,-0.0045695,0.1766164999999999,-0.861861,-0.0341324999999999,1
200,-0.033259,0.7110590000000001,0.006365,-0.178336,0.530179,0.006144,-0.260596,0.7348790000000001,-0.0641559999999999,0.131124,0.556969,-0.016915,0.2071339999999999,0.7696890000000001,-0.0991,-0.245256,1.009209,-0.145638,0.2257839999999999,1.059309,-0.151038,-0.059572,-0.002225,0.001121,0.059572,0.002225,-0.001121,-0.112816,-0.361801,-0.0148979999999999,0.115574,-0.355691,-0.010459,-0.154656,-0.860201,-0.0083579999999999,0.1764839999999999,-0.8578410000000001,-0.0354229999999999,1
201,-0.0333554999999999,0.7112825,0.0095015,-0.1784575,0.5301125,0.0079885,-0.2611875,0.7351025,-0.0618585,0.1313725,0.5566625,-0.0152804999999999,0.2076325,0.7699125,-0.0965275,-0.2465475,1.0087325,-0.1448005,0.2266025,1.0595325000000002,-0.1505405,-0.0595684999999999,-0.0020955,0.0011195,0.0595684999999999,0.0020955,-0.0011194999999999,-0.1126974999999999,-0.3617675,-0.0161165,0.1157725,-0.3557875,-0.0109314999999999,-0.1554475,-0.8641175,-0.0119494999999999,0.1767225,-0.8576175,-0.0353015,1
202,-0.03332,0.7110945000000001,0.0125074999999999,-0.178682,0.5301045,0.0096884999999999,-0.262222,0.7351945000000001,-0.0605705,0.131568,0.5564145,-0.0136825,0.208298,0.7701145,-0.0946495,-0.247862,1.0084545,-0.1440185,0.227728,1.0595545,-0.1500285,-0.059649,-0.0020024999999999,0.0011394999999999,0.059649,0.0020025,-0.0011395,-0.112702,-0.3617654999999999,-0.0172485,0.115868,-0.3558755,-0.0114575,-0.155692,-0.8642455,-0.0119655,0.176818,-0.8572955,-0.0352075,1
203,-0.0331699999999999,0.7109455,0.0153485,-0.1792059999999999,0.5298755,0.0125685,-0.263916,0.7345355,-0.0598775,0.131714,0.5555655,-0.0113365,0.209404,0.7697355,-0.0927965,-0.250456,1.0052055,-0.1432625,0.229684,1.0588055,-0.1495625,-0.059646,-0.0018625,0.0011905,0.059646,0.0018625,-0.0011905,-0.112756,-0.3617245,-0.0180465,0.115904,-0.3560245,-0.0118915,-0.156026,-0.8642145,-0.0116934999999999,0.176844,-0.8567445,-0.0348264999999999,1
204,-0.0330095,0.711057,0.017936,-0.1793995,0.5297369999999999,0.0151449999999999,-0.2662195,0.7332069999999999,-0.059143,0.1318505,0.554867,-0.009041,0.2118905,0.7681070000000001,-0.091413,-0.2533195,0.999797,-0.142494,0.2326605,1.056397,-0.151064,-0.0596345,-0.0018789999999999,0.0013719999999999,0.0596345,0.001879,-0.001372,-0.1127495,-0.3617329999999999,-0.018183,0.1160005,-0.355973,-0.01227,-0.1564094999999999,-0.864193,-0.011276,0.1773505,-0.856643,-0.034326,1
205,-0.0328485,0.71177,0.0205284999999999,-0.1792955,0.52942,0.0177355,-0.2699355,0.73058,-0.0582015,0.1322845,0.55416,-0.0063995,0.2163445,0.7646299999999999,-0.0909785,-0.2561255,0.99275,-0.1417255,0.2363045,1.05185,-0.1542355,-0.0596215,-0.001958,0.0015765,0.0596215,0.001958,-0.0015764999999999,-0.1127055,-0.36178,-0.0179225,0.1162845,-0.35583,-0.0124545,-0.1565155,-0.86419,-0.0105585,0.1778845,-0.85651,-0.0337564999999999,1
206,-0.0328065,0.713186,0.023052,-0.1792575,0.5291659999999999,0.020194,-0.2753075,0.7266159999999999,-0.0575949999999999,0.1331225,0.553036,-0.0035859999999999,0.2225725,0.759176,-0.090692,-0.2599775,0.985766,-0.144098,0.2406325,1.044766,-0.159818,-0.0597095,-0.00203,0.00175,0.0597095,0.00203,-0.0017499999999999,-0.1127475,-0.361804,-0.017695,0.1166725,-0.355704,-0.0126089999999999,-0.1565975,-0.864144,-0.0100799999999999,0.1782525,-0.856384,-0.033107,1
207,-0.0326365,0.7150940000000001,0.025834,-0.1794215,0.529374,0.0227509999999999,-0.2830315,0.7203839999999999,-0.0585249999999999,0.1341385,0.551504,-0.000634,0.2311785,0.749064,-0.09053,-0.2649615,0.976314,-0.147705,0.2459385,1.031914,-0.168435,-0.0598045,-0.0020239999999999,0.002002,0.0598045,0.002024,-0.002002,-0.1129915,-0.3617559999999999,-0.017473,0.1169785,-0.355626,-0.01266,-0.1573514999999999,-0.8639760000000001,-0.009497,0.1783385,-0.8563160000000001,-0.032408,1
208,-0.0326145,0.719123,0.0288625,-0.1799845,0.527463,0.0251505,-0.2926944999999999,0.712163,-0.0599755,0.1351355,0.550503,0.0025295,0.2454855,0.739363,-0.0933975,-0.2704445,0.966593,-0.1553775,0.2532255,1.012593,-0.1797675,-0.0598825,-0.002185,0.0022075,0.0598825,0.0021849999999999,-0.0022074999999999,-0.1134445,-0.361757,-0.0172165,0.1172354999999999,-0.355337,-0.0124764999999999,-0.1581945,-0.8638170000000001,-0.0084785,0.1784955,-0.855997,-0.0314515,1
209,-0.0326105,0.7229180000000001,0.032017,-0.1808725,0.525358,0.027715,-0.3039624999999999,0.696778,-0.061891,0.1361075,0.547598,0.005721,0.2606075,0.7252080000000001,-0.0927559999999999,-0.2788624999999999,0.948178,-0.165622,0.2607175,0.988578,-0.194972,-0.0600104999999999,-0.002341,0.0023269999999999,0.0600104999999999,0.002341,-0.002327,-0.1138325,-0.361792,-0.017035,0.1175575,-0.355032,-0.011875,-0.1592625,-0.8637619999999999,-0.007257,0.1784675,-0.855692,-0.030295,1
210,-0.0327024999999999,0.7259589999999999,0.035511,-0.1818924999999999,0.523069,0.0302759999999999,-0.3157525,0.678269,-0.063538,0.1370675,0.5451389999999999,0.008982,0.2760174999999999,0.705139,-0.0954029999999999,-0.2889525,0.924869,-0.179981,0.2696674999999999,0.956529,-0.213431,-0.0601474999999999,-0.0025229999999999,0.0024089999999999,0.0601474999999999,0.002523,-0.0024089999999999,-0.1144225,-0.361791,-0.016685,0.1178275,-0.354691,-0.011109,-0.1605224999999999,-0.863591,-0.005794,0.1783875,-0.855321,-0.028629,0
211,-0.0328139999999999,0.729262,0.0389395,-0.183075,0.520482,0.0328655,-0.328065,0.656252,-0.0655095,0.137995,0.541942,0.0123705,0.288995,0.681752,-0.0944455,-0.302635,0.890512,-0.1946445,0.279335,0.917742,-0.2260945,-0.060321,-0.0026729999999999,0.0024675,0.060321,0.002673,-0.0024674999999999,-0.115165,-0.361818,-0.0161814999999999,0.1179849999999999,-0.354398,-0.0100635,-0.1618649999999999,-0.863418,-0.0038974999999999,0.178495,-0.855058,-0.0260795,0
