sb224sc-HT22-VT27/4dt907/src/data/labeled_files/A6_kinect.csv
FrameNo,nose_3d_x,nose_3d_y,nose_3d_z,left_shoulder_3d_x,left_shoulder_3d_y,left_shoulder_3d_z,left_elbow_3d_x,left_elbow_3d_y,left_elbow_3d_z,right_shoulder_3d_x,right_shoulder_3d_y,right_shoulder_3d_z,right_elbow_3d_x,right_elbow_3d_y,right_elbow_3d_z,left_wrist_3d_x,left_wrist_3d_y,left_wrist_3d_z,right_wrist_3d_x,right_wrist_3d_y,right_wrist_3d_z,left_hip_3d_x,left_hip_3d_y,left_hip_3d_z,right_hip_3d_x,right_hip_3d_y,right_hip_3d_z,left_knee_3d_x,left_knee_3d_y,left_knee_3d_z,right_knee_3d_x,right_knee_3d_y,right_knee_3d_z,left_ankle_3d_x,left_ankle_3d_y,left_ankle_3d_z,right_ankle_3d_x,right_ankle_3d_y,right_ankle_3d_z,activity_label
0,0.0069339999999999,0.7615755000000001,0.067352,-0.146539,0.4582155,0.052693,-0.1807889999999999,0.2015555,0.06766,0.160231,0.4637954999999999,0.0580129999999999,0.187131,0.2102755,0.065623,-0.206639,-0.0392785,-0.025109,0.199791,-0.0002975,-0.0048209999999999,-0.071244,0.0022145,0.000972,0.071244,-0.0022145,-0.000972,-0.130439,-0.3725445,-0.016957,0.118631,-0.4130045,0.01209,-0.142029,-0.7415944999999999,-0.015349,0.138201,-0.7460245,-0.009547,0
1,0.0061465,0.7616729999999999,0.06572,-0.1461575,0.458243,0.052202,-0.1806275,0.2016029999999999,0.067088,0.1605325,0.463703,0.058109,0.1872725,0.210023,0.065748,-0.2060075,-0.038709,-0.0251689999999999,0.2038325,-0.00102,-0.0020159999999999,-0.0711975,0.002339,0.00084,0.0711975,-0.002339,-0.0008399999999999,-0.1301474999999999,-0.372037,-0.0166869999999999,0.1189225,-0.413697,0.012212,-0.1418875,-0.741407,-0.0154389999999999,0.1388924999999999,-0.745247,-0.0093109999999999,0
2,0.0055794999999999,0.7617855,0.0645075,-0.1459204999999999,0.4582555,0.0517155,-0.1809005,0.2018855,0.0663755,0.1609195,0.4638354999999999,0.0579105,0.1874795,0.2104555,0.0650985,-0.2078005,-0.0043505,-0.0123795,0.2034895,0.0005945,-0.0068295,-0.0712655,0.0022424999999999,0.0011605,0.0712655,-0.0022425,-0.0011605,-0.1298905,-0.3715145,-0.0166754999999999,0.1194595,-0.4135045,0.0120635,-0.1416405,-0.7404545,-0.0158185,0.1392595,-0.7445845,-0.0100205,0
3,0.0052354999999999,0.761934,0.0638934999999999,-0.1457775,0.458304,0.0517445,-0.1854875,0.202894,0.0617394999999999,0.1613525,0.463844,0.0575904999999999,0.1903625,0.212674,0.0574284999999999,-0.2118975,-0.005724,-0.0377815,0.2035425,0.002049,-0.0159565,-0.0711805,0.002236,0.0012215,0.0711805,-0.0022359999999999,-0.0012215,-0.1299575,-0.372316,-0.0163145,0.1200725,-0.413316,0.0120414999999999,-0.1409175,-0.742956,-0.0159395,0.1400525,-0.744926,-0.0103365,0
4,0.0055394999999999,0.762047,0.0636365,-0.1457075,0.458407,0.0516825,-0.1886575,0.2059669999999999,0.0554685,0.1618625,0.4640269999999999,0.0574555,0.1954425,0.221577,0.0472655,-0.2189674999999999,0.002729,-0.0531415,0.2136525,0.005884,-0.0383964999999999,-0.0711084999999999,0.0023829999999999,0.0011154999999999,0.0711084999999999,-0.0023829999999999,-0.0011154999999999,-0.1297675,-0.372103,-0.0161545,0.1207024999999999,-0.412993,0.0120644999999999,-0.1392975,-0.742593,-0.0139735,0.1400625,-0.7462329999999999,-0.0106165,0
5,0.0054039999999999,0.7618060000000001,0.0637415,-0.14998,0.458306,0.0554594999999999,-0.2034099999999999,0.236366,0.0294515,0.1624,0.4644459999999999,0.0571585,0.21447,0.248226,0.0263625,-0.2456499999999999,0.0583889999999999,-0.1000335,0.24325,0.0286969999999999,-0.1015635,-0.07124,0.0024259999999999,0.0014015,0.07124,-0.0024259999999999,-0.0014015,-0.1301,-0.367064,-0.0159745,0.1212,-0.412084,0.0121824999999999,-0.13776,-0.7414839999999999,-0.0122784999999999,0.14053,-0.7468739999999999,-0.0110735,0
6,0.005364,0.7616145,0.064139,-0.1495149999999999,0.4583045,0.0553069999999999,-0.213525,0.2467945,0.0175959999999999,0.162655,0.4643445,0.056885,0.222575,0.2515545,0.0139049999999999,-0.254465,0.0805255,-0.127753,0.255465,0.0712725,-0.115793,-0.071347,0.0024025,0.0013819999999999,0.071347,-0.0024024999999999,-0.001382,-0.129935,-0.3661355,-0.015106,0.121625,-0.4081955,0.0127049999999999,-0.137455,-0.7429555,-0.012904,0.141155,-0.7470755,-0.011313,0
7,0.0035255,0.759146,0.0697639999999999,-0.1473614999999999,0.4596159999999999,0.054298,-0.2401615,0.291286,-0.01975,0.1567585,0.4657159999999999,0.054368,0.2438785,0.292896,-0.024668,-0.2831015,0.177126,-0.1853119999999999,0.2719985,0.163796,-0.181802,-0.0718475,0.0020329999999999,0.002179,0.0718475,-0.002033,-0.002179,-0.1294114999999999,-0.366624,-0.014983,0.1219185,-0.409284,0.0120149999999999,-0.1370315,-0.7447539999999999,-0.016133,0.1420485,-0.749174,-0.01204,0
8,0.0029529999999999,0.7581760000000001,0.071168,-0.147479,0.459746,0.05433,-0.253389,0.3208459999999999,-0.037703,0.154891,0.4663159999999999,0.05322,0.255841,0.3209459999999999,-0.043394,-0.300579,0.236016,-0.217766,0.286751,0.219516,-0.2198159999999999,-0.07203,0.0020329999999999,0.002522,0.07203,-0.002033,-0.002522,-0.129189,-0.365814,-0.014734,0.122221,-0.408464,0.0119639999999999,-0.136399,-0.745034,-0.016454,0.142501,-0.750004,-0.012669,0
9,0.0022604999999999,0.7572260000000001,0.072839,-0.1475945,0.460196,0.0544,-0.2666045,0.3536359999999999,-0.054675,0.1529955,0.467016,0.0520599999999999,0.2672955,0.3486059999999999,-0.0613859999999999,-0.3174945,0.298906,-0.248046,0.3004455,0.279306,-0.255096,-0.0722125,0.0020329999999999,0.00281,0.0722125,-0.002033,-0.00281,-0.1289845,-0.364954,-0.014504,0.1224455,-0.407294,0.011837,-0.1358545,-0.745784,-0.016825,0.1428855,-0.7507539999999999,-0.0133539999999999,0
10,0.0015275,0.756253,0.0747615,-0.1473785,0.461103,0.0541285,-0.2780884999999999,0.383513,-0.0698775,0.1511015,0.467993,0.0509425,0.2772815,0.375533,-0.0770565,-0.3314785,0.360123,-0.2721765,0.3106315,0.342133,-0.2821565,-0.0723635,0.00198,0.0030195,0.0723635,-0.00198,-0.0030195,-0.1287285,-0.364207,-0.0142704999999999,0.1226215,-0.406147,0.0116685,-0.1352884999999999,-0.7458370000000001,-0.0170135,0.1432315,-0.751407,-0.0139154999999999,0
11,0.0007599999999999,0.755994,0.0766745,-0.147288,0.462314,0.0536455,-0.288718,0.414384,-0.0805515,0.150022,0.469124,0.0499805,0.2861619999999999,0.404434,-0.0896414999999999,-0.343928,0.423544,-0.2863414999999999,0.317322,0.404354,-0.3013615,-0.072501,0.001856,0.0031095,0.072501,-0.001856,-0.0031095,-0.128508,-0.363916,-0.0139974999999999,0.122802,-0.405156,0.0116115,-0.134848,-0.745976,-0.0166974999999999,0.143532,-0.751666,-0.0143294999999999,0
12,5.100000000000243e-05,0.7554825,0.0785455,-0.14733,0.4635925,0.0531625,-0.29765,0.4465525,-0.0875705,0.1489899999999999,0.4701525,0.0490815,0.29278,0.4352325,-0.0993004999999999,-0.35317,0.4874725,-0.2927605,0.32122,0.4689325,-0.3112305,-0.0725909999999999,0.0017295,0.0031555,0.0725909999999999,-0.0017295,-0.0031554999999999,-0.12826,-0.3639275,-0.0137045,0.12296,-0.4044875,0.0116265,-0.13437,-0.7460375,-0.0162215,0.1438299999999999,-0.7521775,-0.0146075,0
13,-0.000358,0.75467,0.079709,-0.147405,0.4649,0.053384,-0.301635,0.48001,-0.087994,0.148195,0.47101,0.048748,0.294285,0.46636,-0.099364,-0.356715,0.5504399999999999,-0.293164,0.321735,0.53106,-0.3113539999999999,-0.07262,0.001602,0.0030399999999999,0.07262,-0.001602,-0.00304,-0.128005,-0.3643,-0.013254,0.123095,-0.40452,0.0119219999999999,-0.133905,-0.7464900000000001,-0.01559,0.144155,-0.7529800000000001,-0.014499,0
14,-0.0006355,0.7522639999999999,0.080408,-0.1476745,0.466414,0.053676,-0.3012245,0.510184,-0.088084,0.1484855,0.472764,0.048651,0.2946955,0.498294,-0.0994539999999999,-0.3563044999999999,0.6075539999999999,-0.293254,0.3221455,0.5948939999999999,-0.311444,-0.0725545,0.001488,0.002928,0.0725545,-0.001488,-0.002928,-0.1276845,-0.3655359999999999,-0.0128789999999999,0.1233255,-0.405506,0.011948,-0.1333745,-0.7478760000000001,-0.014827,0.1445355,-0.755096,-0.014078,0
15,-0.0007315,0.7494225,0.080543,-0.1483665,0.4688525,0.053867,-0.3008165,0.5382725,-0.088118,0.1487435,0.4744225,0.048607,0.2951034999999999,0.5297925,-0.099488,-0.3558964999999999,0.6580625,-0.293288,0.3225535,0.6492225,-0.311478,-0.0724345,0.0013565,0.0028749999999999,0.0724345,-0.0013565,-0.0028749999999999,-0.1273365,-0.3673375,-0.012667,0.1236835,-0.4069875,0.0119259999999999,-0.1328965,-0.7500875,-0.014278,0.1448935,-0.7575375,-0.013543,0
16,-0.0006869999999999,0.7460914999999999,0.080509,-0.149329,0.4711815,0.054052,-0.300389,0.5668415,-0.08642,0.1489609999999999,0.4754415,0.048584,0.295581,0.5600814999999999,-0.09848,-0.355959,0.7083415,-0.28401,0.322051,0.7004414999999999,-0.30472,-0.072248,0.0012665,0.00285,0.072248,-0.0012664999999999,-0.0028499999999999,-0.126839,-0.3706685,-0.0125469999999999,0.124181,-0.4099285,0.011932,-0.132279,-0.7525285,-0.0131789999999999,0.1453009999999999,-0.7607885000000001,-0.0130049999999999,0
17,-0.0005959999999999,0.742502,0.0806959999999999,-0.1501509999999999,0.474092,0.0544999999999999,-0.298821,0.591702,-0.078143,0.149199,0.476412,0.049024,0.291759,0.585582,-0.091123,-0.356111,0.751922,-0.2628629999999999,0.320549,0.750312,-0.286543,-0.072029,0.001212,0.0026799999999999,0.072029,-0.0012119999999999,-0.00268,-0.1262809999999999,-0.374288,-0.012279,0.124639,-0.412628,0.0121429999999999,-0.1316109999999999,-0.755018,-0.011797,0.145689,-0.764288,-0.012263,0
18,-0.0004285,0.7390395000000001,0.0810145,-0.1508375,0.4769795,0.0551414999999999,-0.2963075,0.6137595,-0.0676155,0.1498024999999999,0.4774494999999999,0.0497485,0.2875425,0.6107695000000001,-0.0792485,-0.3534675,0.7918495000000001,-0.2381085,0.3137324999999999,0.7963195000000001,-0.2601885,-0.0718135,0.0011874999999999,0.0023824999999999,0.0718135,-0.0011875,-0.0023824999999999,-0.1256775,-0.3778805,-0.0119325,0.1251625,-0.4154305,0.0123234999999999,-0.1309475,-0.7574204999999999,-0.0102805,0.1461025,-0.7676805,-0.0114315,0
19,-0.0002354999999999,0.735672,0.081452,-0.1514405,0.479792,0.0559019999999999,-0.2928305,0.636112,-0.05571,0.1504095,0.478412,0.050583,0.2826695,0.635362,-0.06648,-0.3495104999999999,0.827742,-0.210412,0.3064694999999999,0.839222,-0.230782,-0.0715755,0.001181,0.0019379999999999,0.0715755,-0.0011809999999999,-0.001938,-0.1250804999999999,-0.381448,-0.011435,0.1256695,-0.418198,0.0126179999999999,-0.1303105,-0.760238,-0.008833,0.1464895,-0.771258,-0.010523,0
20,2.0499999999996216e-05,0.73253,0.0815935,-0.1518475,0.48263,0.0567895,-0.2886375,0.65652,-0.0435894999999999,0.1509725,0.4792499999999999,0.0513575,0.2776324999999999,0.65772,-0.0529035,-0.3438775,0.8589399999999999,-0.1806395,0.2988325,0.87841,-0.2003595,-0.0713075,0.0012099999999999,0.0014415,0.0713075,-0.0012099999999999,-0.0014414999999999,-0.1244675,-0.38485,-0.0109304999999999,0.1261924999999999,-0.42081,0.0128485,-0.1296675,-0.76331,-0.0076465,0.1468825,-0.77471,-0.0096105,0
21,0.0003265,0.729629,0.0815785,-0.1519815,0.485579,0.0578194999999999,-0.2846415,0.674889,-0.0309314999999999,0.1515185,0.480179,0.0521775,0.2720384999999999,0.677499,-0.0389215,-0.3382915,0.8876189999999999,-0.1498985,0.2915284999999999,0.911399,-0.1695585,-0.0710395,0.001233,0.0010154999999999,0.0710395,-0.0012329999999999,-0.0010154999999999,-0.1239314999999999,-0.388061,-0.0103884999999999,0.1266884999999999,-0.423251,0.0131265,-0.1291014999999999,-0.767611,-0.0070755,0.1472685,-0.7780710000000001,-0.0086425,0
22,0.000649,0.7269129999999999,0.081322,-0.151964,0.488733,0.058912,-0.280154,0.689963,-0.018106,0.152046,0.481213,0.052882,0.265576,0.694823,-0.02471,-0.3323339999999999,0.911523,-0.1186909999999999,0.284366,0.941103,-0.137121,-0.070786,0.0012879999999999,0.0006899999999999,0.070786,-0.001288,-0.0006899999999999,-0.123414,-0.391117,-0.009949,0.127146,-0.425587,0.0133399999999999,-0.1286439999999999,-0.771907,-0.006834,0.147626,-0.781377,-0.007867,0
23,0.0008995,0.724948,0.080997,-0.1518445,0.491908,0.0599149999999999,-0.2754545,0.699878,-0.0058199999999999,0.1523355,0.481318,0.053485,0.2593554999999999,0.7033780000000001,-0.010799,-0.3265845,0.927788,-0.090254,0.2792755,0.957218,-0.1057839999999999,-0.0705635,0.0013509999999999,0.0004649999999999,0.0705635,-0.0013509999999999,-0.000465,-0.1230444999999999,-0.393302,-0.009652,0.1274555,-0.427072,0.0134829999999999,-0.1283945,-0.774562,-0.006621,0.1478455,-0.784032,-0.0075199999999999,0
24,0.0011589999999999,0.7234205,0.08047,-0.151519,0.4944305,0.06095,-0.271189,0.7094205,0.006187,0.152531,0.4813904999999999,0.053989,0.254341,0.7077405,0.002901,-0.321489,0.9394605,-0.064721,0.275621,0.9667505,-0.079717,-0.070411,0.0014865,0.000334,0.070411,-0.0014865,-0.000334,-0.1226589999999999,-0.3951795,-0.009463,0.1277309999999999,-0.4278095,0.013608,-0.128069,-0.7761495,-0.0059099999999999,0.147961,-0.7864995,-0.0072589999999999,0
25,0.0013369999999999,0.7226285,0.0799065,-0.151301,0.4965485,0.0619225,-0.269261,0.7154885,0.0144935,0.1525089999999999,0.4811085,0.0542455,0.252269,0.7130785000000001,0.0119175,-0.318391,0.9454685,-0.0459934999999999,0.273959,0.9726485,-0.0608414999999999,-0.070311,0.0016805,0.0003095,0.070311,-0.0016804999999999,-0.0003094999999999,-0.1223909999999999,-0.3961915,-0.0094454999999999,0.127909,-0.4277815,0.0136125,-0.127911,-0.7776315,-0.0060694999999999,0.148029,-0.7882015,-0.0071264999999999,0
26,0.0015069999999999,0.7222405,0.0793775,-0.151117,0.4981305,0.0628285,-0.267637,0.7200605,0.0215815,0.151693,0.4807804999999999,0.0542805,0.251183,0.7183905,0.0194235,-0.315967,0.9517605,-0.0291765,0.273153,0.9744505,-0.0444645,-0.07024,0.0018615,0.0003515,0.07024,-0.0018615,-0.0003514999999999,-0.1221169999999999,-0.3969095,-0.0094904999999999,0.128123,-0.4279795,0.0136635,-0.127737,-0.7791095,-0.0059584999999999,0.1481029999999999,-0.7897095,-0.0070734999999999,0
27,0.0016675,0.7219304999999999,0.0789334999999999,-0.1507465,0.4994904999999999,0.0637435,-0.2663065,0.7250105,0.0283794999999999,0.1509235,0.4804604999999999,0.0543154999999999,0.2505035,0.7234404999999999,0.0262754999999999,-0.3139565,0.9574405,-0.0134245,0.2723335,0.9735405,-0.0283645,-0.0701415,0.0020434999999999,0.0003844999999999,0.0701415,-0.0020435,-0.0003845,-0.1218765,-0.3976395,-0.0094645,0.1283135,-0.4280695,0.0137224999999999,-0.1276665,-0.7813095,-0.0061435,0.1481935,-0.7911795,-0.0070095,0
28,0.0018195,0.721841,0.078574,-0.1500115,0.500711,0.064661,-0.2652815,0.727931,0.033972,0.1502685,0.4801609999999999,0.054377,0.2503285,0.7270209999999999,0.032042,-0.3126115,0.962761,-0.0002309999999999,0.2716285,0.975261,-0.0142689999999999,-0.0700725,0.002194,0.000413,0.0700725,-0.002194,-0.0004129999999999,-0.1216515,-0.3981789999999999,-0.0094159999999999,0.1284985,-0.4279389999999999,0.013774,-0.1276315,-0.783309,-0.0063349999999999,0.1482785,-0.792359,-0.0069629999999999,0
29,0.001889,0.7212930000000001,0.0784175,-0.149602,0.5008630000000001,0.0652975,-0.264432,0.7300530000000001,0.0399724999999999,0.1496579999999999,0.479783,0.0544324999999999,0.249738,0.7282730000000001,0.0378535,-0.311552,0.968293,0.0121524999999999,0.272408,0.975993,0.0025174999999999,-0.070018,0.0023199999999999,0.0004655,0.070018,-0.00232,-0.0004655,-0.121452,-0.398727,-0.0093685,0.128648,-0.427837,0.0139594999999999,-0.127622,-0.785067,-0.0064825,0.1483779999999999,-0.793527,-0.0069185,0
30,0.0019105,0.7207410000000001,0.0783265,-0.1493405,0.500641,0.0657995,-0.2641105,0.733951,0.0454335,0.1492495,0.4793209999999999,0.0544605,0.2491795,0.7292310000000001,0.0434705,-0.3107005,0.973551,0.0237905,0.2741694999999999,0.976651,0.0181765,-0.0699915,0.0024409999999999,0.0005205,0.0699915,-0.002441,-0.0005205,-0.1212605,-0.399249,-0.0093344999999999,0.1287795,-0.427849,0.0141065,-0.1275705,-0.786419,-0.0063774999999999,0.1484395,-0.794569,-0.0068734999999999,1
31,0.0019684999999999,0.720542,0.0782124999999999,-0.1491134999999999,0.500412,0.0662804999999999,-0.2639435,0.7374919999999999,0.0507885,0.1490265,0.478762,0.0544285,0.2487065,0.729702,0.0487125,-0.3099935,0.978322,0.0342004999999999,0.2765465,0.977022,0.0330055,-0.0699845,0.0025069999999999,0.0006944999999999,0.0699845,-0.002507,-0.0006945,-0.1210534999999999,-0.3997279999999999,-0.0093465,0.1289365,-0.427768,0.0142055,-0.1274835,-0.787998,-0.0069045,0.1485565,-0.795438,-0.0068264999999999,1
32,0.0020105,0.720418,0.078149,-0.1489305,0.499958,0.066492,-0.2635905,0.7380979999999999,0.05461,0.1488995,0.478428,0.054423,0.2488595,0.732838,0.054089,-0.3100305,0.980188,0.040546,0.2791995,0.976988,0.042748,-0.0699785,0.002554,0.0008409999999999,0.0699785,-0.002554,-0.000841,-0.1208505,-0.400232,-0.009258,0.1291295,-0.427432,0.0144,-0.1272605,-0.789332,-0.007355,0.1487395,-0.796212,-0.006669,1
33,0.0020054999999999,0.720266,0.078132,-0.1488035,0.499606,0.066644,-0.2630735,0.737536,0.05757,0.1488165,0.478216,0.054519,0.2493465,0.736176,0.058415,-0.3102335,0.981626,0.045893,0.2816864999999999,0.977326,0.052243,-0.0699565,0.002558,0.000992,0.0699565,-0.0025579999999999,-0.0009919999999999,-0.1207135,-0.400634,-0.009145,0.1292565,-0.427504,0.01465,-0.1270534999999999,-0.7899539999999999,-0.007258,0.1488765,-0.796684,-0.0064969999999999,1
34,0.0019264999999999,0.720365,0.0781495,-0.1486695,0.499305,0.0667655,-0.2630895,0.739575,0.0600005,0.1488305,0.478135,0.0546325,0.2497105,0.7358750000000001,0.0622285,-0.3103795,0.982825,0.0503695,0.2841105,0.977025,0.0611105,-0.0699615,0.002533,0.0011044999999999,0.0699615,-0.002533,-0.0011045,-0.1205495,-0.400845,-0.0090195,0.1293905,-0.427565,0.0148884999999999,-0.1269095,-0.7902549999999999,-0.0071934999999999,0.1490105,-0.796885,-0.0064245,1
35,0.0017099999999999,0.720289,0.078238,-0.148663,0.498839,0.066926,-0.263413,0.7416290000000001,0.062149,0.1489369999999999,0.477859,0.054899,0.249797,0.735409,0.065738,-0.310433,0.983559,0.05353,0.286217,0.976559,0.068422,-0.069976,0.0024959999999999,0.001264,0.069976,-0.002496,-0.001264,-0.1203129999999999,-0.400891,-0.0088439999999999,0.129637,-0.427861,0.015133,-0.126753,-0.790931,-0.0073,0.149277,-0.797021,-0.00619,1
36,0.0014735,0.7202689999999999,0.0784315,-0.1487175,0.498399,0.0672475,-0.2636775,0.742719,0.0641775,0.1489925,0.4776289999999999,0.0551335,0.2503725,0.737999,0.0690715,-0.3104874999999999,0.983959,0.0557924999999999,0.2881525,0.977959,0.0748445,-0.0700325,0.002443,0.0014785,0.0700325,-0.002443,-0.0014785,-0.1200374999999999,-0.400871,-0.0087054999999999,0.1299025,-0.428081,0.0152705,-0.1263175,-0.790621,-0.0068295,0.1497025,-0.797071,-0.0059705,1
37,0.001265,0.72011,0.078666,-0.148858,0.49793,0.067478,-0.263598,0.74161,0.066027,0.149052,0.4773699999999999,0.055395,0.250682,0.7360099999999999,0.0722319999999999,-0.310648,0.98423,0.057699,0.289912,0.97933,0.0800879999999999,-0.07011,0.002409,0.0016679999999999,0.07011,-0.002409,-0.0016679999999999,-0.119748,-0.40088,-0.008536,0.130162,-0.4285099999999999,0.015438,-0.1258679999999999,-0.7903100000000001,-0.006314,0.150132,-0.7972400000000001,-0.0056459999999999,1
38,0.0010924999999999,0.719962,0.078859,-0.1489355,0.4974919999999999,0.067607,-0.2632955,0.739802,0.067019,0.1491145,0.477112,0.055596,0.2508944999999999,0.732862,0.074377,-0.3109155,0.984352,0.058928,0.2905545,0.980652,0.081293,-0.0701965,0.0024049999999999,0.001802,0.0701965,-0.002405,-0.0018019999999999,-0.1194655,-0.400848,-0.0084529999999999,0.1304045,-0.428888,0.015535,-0.1254255,-0.789958,-0.005918,0.1505445,-0.797388,-0.005467,1
39,0.0009169999999999,0.7198125,0.079025,-0.149007,0.4970924999999999,0.0678479999999999,-0.262837,0.7373425,0.068004,0.149193,0.4768424999999999,0.055911,0.251723,0.7324625,0.076414,-0.311117,0.9841525,0.059377,0.290593,0.9817525,0.082298,-0.070295,0.0024095,0.001796,0.070295,-0.0024095,-0.0017959999999999,-0.119207,-0.4009975,-0.008487,0.130623,-0.4293975,0.015038,-0.125127,-0.7910875,-0.0062229999999999,0.150913,-0.7977075,-0.0054429999999999,1
40,0.000942,0.71983,0.079221,-0.148915,0.4969499999999999,0.068412,-0.262075,0.73458,0.068872,0.149305,0.47688,0.056431,0.252345,0.7293799999999999,0.0784,-0.311175,0.98441,0.059578,0.290865,0.98261,0.082489,-0.070334,0.0024409999999999,0.001793,0.070334,-0.002441,-0.0017929999999999,-0.1189549999999999,-0.40114,-0.0085599999999999,0.130805,-0.42975,0.01427,-0.125025,-0.79165,-0.006217,0.151185,-0.79785,-0.0054619999999999,1
41,0.0009415,0.7197899999999999,0.079447,-0.1488594999999999,0.49699,0.069077,-0.2616695,0.7333700000000001,0.069667,0.1494405,0.47706,0.057115,0.2527205,0.7263999999999999,0.079361,-0.3112095,0.98451,0.05978,0.2911405,0.98351,0.08268,-0.0704025,0.0024409999999999,0.001789,0.0704025,-0.002441,-0.0017889999999999,-0.1187095,-0.40114,-0.008764,0.1309905,-0.4302,0.013103,-0.1249795,-0.7924199999999999,-0.006482,0.1514305,-0.79785,-0.0054849999999999,1
42,0.000966,0.7195800000000001,0.0797555,-0.14881,0.49698,0.0699545,-0.26089,0.7310700000000001,0.0705595,0.14955,0.47718,0.0587365,0.2531,0.72342,0.0801715,-0.31123,0.98461,0.0598365,0.29125,0.98441,0.0826325,-0.07046,0.0024409999999999,0.0017464999999999,0.07046,-0.002441,-0.0017464999999999,-0.11851,-0.40114,-0.0093934999999999,0.13123,-0.43078,0.0112955,-0.12485,-0.79284,-0.0072025,0.15161,-0.79785,-0.0058165,1
43,0.001064,0.7193195,0.080071,-0.14884,0.4967995,0.071197,-0.26059,0.7301695,0.070931,0.1499,0.4771195,0.060457,0.25348,0.7204495000000001,0.08089,-0.31118,0.9847695,0.059215,0.29181,0.9849695,0.081394,-0.070524,0.0024285,0.001653,0.070524,-0.0024285,-0.001653,-0.11817,-0.4025505,-0.012045,0.1315899999999999,-0.4322105,0.007612,-0.12461,-0.7934405,-0.0093639999999999,0.15186,-0.7979605,-0.0076999999999999,1
44,0.0011704999999999,0.7194235,0.080249,-0.1487765,0.4971834999999999,0.0725669999999999,-0.2605665,0.7297035000000001,0.070786,0.1503334999999999,0.4771935,0.0621769999999999,0.2545335,0.7194735,0.0813919999999999,-0.3110465,0.9848735,0.058216,0.2928235,0.9850735,0.0798059999999999,-0.0705835,0.0024184999999999,0.0015549999999999,0.0705835,-0.0024185,-0.001555,-0.1178465,-0.4044565,-0.015324,0.1319835,-0.4341465,0.0032099999999999,-0.1243264999999999,-0.7940265,-0.011959,0.1522035,-0.7979965,-0.010043,1
45,0.0012325,0.719613,0.080411,-0.1487635,0.4974229999999999,0.07398,-0.2599235,0.727083,0.070786,0.1508064999999999,0.477383,0.06412,0.2556065,0.7186629999999999,0.081659,-0.3109135,0.985063,0.056925,0.2941964999999999,0.985263,0.077829,-0.0706315,0.002377,0.001512,0.0706315,-0.0023769999999999,-0.0015119999999999,-0.1174934999999999,-0.406837,-0.0192789999999999,0.1323965,-0.436077,-0.0017019999999999,-0.1240635,-0.794597,-0.01505,0.1525264999999999,-0.798147,-0.0128319999999999,1
46,0.0012964999999999,0.719772,0.080453,-0.1488265,0.497822,0.075253,-0.2593764999999999,0.724462,0.070469,0.1513035,0.477832,0.066046,0.2565835,0.718492,0.081301,-0.3107864999999999,0.985512,0.055243,0.2957935,0.985712,0.075321,-0.0706905,0.0023129999999999,0.0014399999999999,0.0706905,-0.002313,-0.00144,-0.1171065,-0.409298,-0.023928,0.1328535,-0.437838,-0.007204,-0.1237865,-0.795208,-0.018889,0.1528334999999999,-0.798148,-0.016313,1
47,0.001569,0.7199135,0.080137,-0.148579,0.4987235,0.076322,-0.259449,0.7242835000000001,0.069536,0.151951,0.4785935,0.0677069999999999,0.256971,0.7158935000000001,0.080163,-0.310489,0.9863335,0.05303,0.297851,0.9865335,0.072079,-0.07072,0.0022745,0.001322,0.07072,-0.0022744999999999,-0.001322,-0.116719,-0.4111165,-0.029425,0.133281,-0.4392764999999999,-0.0136239999999999,-0.123639,-0.7956365,-0.023719,0.153141,-0.7978565,-0.02053,1
48,0.00176,0.7200829999999999,0.07974,-0.148377,0.499683,0.07693,-0.259637,0.724193,0.0682369999999999,0.152543,0.479333,0.0691529999999999,0.257143,0.715363,0.078933,-0.310297,0.987153,0.0508639999999999,0.299923,0.987053,0.068528,-0.070787,0.0022019999999999,0.0011319999999999,0.070787,-0.002202,-0.001132,-0.116367,-0.413227,-0.035672,0.133743,-0.440787,-0.019848,-0.1235969999999999,-0.7964870000000001,-0.028834,0.153443,-0.797477,-0.024793,1
49,0.0019349999999999,0.720055,0.079251,-0.148335,0.5007550000000001,0.077115,-0.259305,0.7225750000000001,0.066273,0.153065,0.4800150000000001,0.070328,0.258165,0.715265,0.076905,-0.310125,0.988275,0.048292,0.302015,0.987575,0.064682,-0.070819,0.002119,0.000956,0.070819,-0.002119,-0.0009559999999999,-0.116085,-0.414335,-0.042158,0.134155,-0.441565,-0.026248,-0.123635,-0.797335,-0.034066,0.153635,-0.796955,-0.0290459999999999,1
50,0.00217,0.7198405,0.0785125,-0.148305,0.5020505000000001,0.0768605,-0.259075,0.7210005,0.0638485,0.153565,0.4806605,0.0712205,0.258995,0.7152705,0.0744015,-0.309935,0.9894705,0.0452474999999999,0.304185,0.9879705,0.0605555,-0.070822,0.0019745,0.0008884999999999,0.070822,-0.0019744999999999,-0.0008885,-0.115845,-0.4148995,-0.0492235,0.134575,-0.4408895,-0.0328015,-0.123645,-0.7978695,-0.0391515,0.153865,-0.7963494999999999,-0.0335624999999999,1
51,0.0023499999999999,0.7194535,0.0774125,-0.148341,0.5026235,0.0762785,-0.258921,0.7196435,0.0608805,0.1540889999999999,0.4810535,0.0709955,0.259319,0.7148034999999999,0.0717405,-0.309881,0.9908035,0.0422465,0.306349,0.9882035,0.0563415,-0.070893,0.0017995,0.0009234999999999,0.070893,-0.0017995,-0.0009235,-0.115711,-0.4144365,-0.0563014999999999,0.1349389999999999,-0.4388165,-0.0394575,-0.123721,-0.7970765000000001,-0.0437875,0.153949,-0.7954265,-0.0378255,1
52,0.0024474999999999,0.7185765,0.0758135,-0.1482495,0.5025365,0.0747755,-0.2588395,0.7185265,0.0586865,0.1544205,0.4809065,0.0703165,0.2600405,0.7139665,0.0695875,-0.3098995,0.9921565,0.0400455,0.3082705,0.9882565,0.0525325,-0.0709455,0.0016024999999999,0.0009964999999999,0.0709455,-0.0016024999999999,-0.0009965,-0.1157295,-0.4118835,-0.0626915,0.1354605,-0.4362635,-0.0455735,-0.1235895,-0.7955735,-0.0473825,0.1540004999999999,-0.7940135,-0.0411345,1
53,0.002496,0.7176505000000001,0.0738495,-0.148163,0.5018205,0.0729315,-0.258863,0.7173505,0.0564955,0.154617,0.4806204999999999,0.0692295,0.260667,0.7133105000000001,0.0674385,-0.309903,0.9932005,0.0377425,0.309807,0.9882005,0.0482275,-0.071056,0.0014194999999999,0.0010645,0.071056,-0.0014195,-0.0010645,-0.1159329999999999,-0.4087395,-0.0694395,0.136167,-0.4331195,-0.0524095,-0.123533,-0.7933994999999999,-0.0509375,0.153997,-0.7919995,-0.0445015,1
54,0.0025409999999999,0.7167885,0.071786,-0.147945,0.5011785000000001,0.070879,-0.258905,0.7160885,0.054426,0.154775,0.4800685,0.067185,0.260785,0.7128785000000001,0.06538,-0.309895,0.9940785,0.0351999999999999,0.311045,0.9880785,0.043541,-0.0711219999999999,0.0012474999999999,0.001173,0.0711219999999999,-0.0012474999999999,-0.001173,-0.1161849999999999,-0.4058815,-0.076263,0.136915,-0.4306215,-0.05946,-0.123495,-0.7907015,-0.054253,0.153965,-0.7896215,-0.047711,1
55,0.002408,0.715335,0.06981,-0.1481509999999999,0.5004550000000001,0.068898,-0.259301,0.714655,0.051489,0.154779,0.479705,0.0653,0.261499,0.7116849999999999,0.062067,-0.309991,0.994225,0.0318839999999999,0.311949,0.987825,0.038742,-0.071184,0.001121,0.001258,0.071184,-0.0011209999999999,-0.001258,-0.1166209999999999,-0.403365,-0.082936,0.137639,-0.427105,-0.0665299999999999,-0.123631,-0.787795,-0.057033,0.153739,-0.787145,-0.050515,1
56,0.0021635,0.7135335,0.068179,-0.1484825,0.4999435,0.067261,-0.2598125,0.7129435,0.048623,0.1546175,0.4794135,0.063674,0.2620475,0.7105435,0.058779,-0.3101825,0.9938535,0.02852,0.3126075,0.9877535,0.034296,-0.0712405,0.0009424999999999,0.001464,0.0712405,-0.0009424999999999,-0.001464,-0.1172925,-0.4011365,-0.08961,0.1382575,-0.4231364999999999,-0.0734359999999999,-0.1238624999999999,-0.7846165,-0.059122,0.1533675,-0.7845965,-0.052848,1
57,0.0016824999999999,0.7123855,0.065879,-0.1489535,0.4983055,0.06518,-0.2604235,0.7128055000000001,0.045052,0.1543564999999999,0.4781954999999999,0.061767,0.2627065,0.7109155,0.054638,-0.3104835,0.9949255,0.024146,0.3131164999999999,0.9894255,0.029397,-0.0713885,0.0007834999999999,0.001646,0.0713885,-0.0007835,-0.001646,-0.1182335,-0.3964645,-0.096676,0.1387864999999999,-0.4183545,-0.081167,-0.1241935,-0.7794445,-0.0614969999999999,0.1529164999999999,-0.7800644999999999,-0.0555719999999999,1
58,0.0010705,0.7114215,0.063272,-0.1494645,0.4969715,0.06263,-0.2610745,0.7127315000000001,0.041109,0.1539955,0.4774915,0.059494,0.2634855,0.7121715000000001,0.050206,-0.3108645,0.9957515,0.0193659999999999,0.3136255,0.9885515,0.022222,-0.0715775,0.0006835,0.001696,0.0715775,-0.0006835,-0.001696,-0.1192645,-0.3904384999999999,-0.104064,0.1392554999999999,-0.4128285,-0.0893009999999999,-0.1246044999999999,-0.7736085,-0.06403,0.1523755,-0.7748785,-0.058459,1
59,0.0004815,0.710213,0.0601415,-0.1499615,0.495973,0.0598154999999999,-0.2616815,0.712313,0.0365464999999999,0.1536185,0.476933,0.0568314999999999,0.2645785,0.713093,0.0449615,-0.3111515,0.996063,0.0138264999999999,0.3141485,0.984673,0.0144485,-0.0717205,0.000588,0.0017394999999999,0.0717205,-0.000588,-0.0017395,-0.1202115,-0.383227,-0.1120855,0.1397285,-0.405737,-0.0979435,-0.1249715,-0.766387,-0.0670275,0.1517485,-0.7684470000000001,-0.0614625,1
60,2.9500000000001747e-05,0.7089605,0.056849,-0.1504415,0.4952305,0.056952,-0.2621415,0.7118605,0.0319,0.1531684999999999,0.4765605,0.054143,0.2655185,0.7143305,0.039539,-0.3111715,0.9945605,0.007136,0.3147284999999999,0.9810005,0.006599,-0.0718185,0.0005355,0.001811,0.0718185,-0.0005355,-0.001811,-0.1210415,-0.3770695,-0.1200239999999999,0.1403085,-0.3987394999999999,-0.106552,-0.1252515,-0.7593495,-0.069871,0.1512885,-0.7616094999999999,-0.064403,1
61,-0.0003094999999999,0.707481,0.053617,-0.1507445,0.495021,0.054265,-0.2624845,0.711271,0.027527,0.1528855,0.4765709999999999,0.051604,0.2666455,0.7159110000000001,0.034379,-0.3111545,0.992351,0.000307,0.3151955,0.977501,-0.000852,-0.0719235,0.000542,0.001784,0.0719235,-0.000542,-0.001784,-0.1216645,-0.371149,-0.127212,0.1407855,-0.392169,-0.1140819999999999,-0.1253645,-0.7525189999999999,-0.072474,0.1509355,-0.755019,-0.067052,1
62,-0.000471,0.7058145,0.050484,-0.150849,0.4951945,0.051957,-0.262659,0.7102345,0.023291,0.152801,0.4766045,0.0492439999999999,0.267271,0.7167745000000001,0.029365,-0.311019,0.9896345,-0.0063459999999999,0.3158709999999999,0.9734945,-0.0080799999999999,-0.072059,0.0005625,0.001669,0.072059,-0.0005625,-0.0016689999999999,-0.121949,-0.3667655,-0.133879,0.141281,-0.3865555,-0.120429,-0.125379,-0.7463455,-0.074847,0.150551,-0.7490555,-0.069357,1
63,-0.0005289999999999,0.7041179999999999,0.0471604999999999,-0.1508789999999999,0.494098,0.0493155,-0.262669,0.7093879999999999,0.0186405,0.152871,0.476498,0.0467235,0.268391,0.7165279999999999,0.0240764999999999,-0.310699,0.987938,-0.0132055,0.316881,0.970138,-0.0157615,-0.072146,0.000524,0.0015744999999999,0.072146,-0.000524,-0.0015745,-0.1219889999999999,-0.361452,-0.1407285,0.142021,-0.379552,-0.1272985,-0.125309,-0.7385820000000001,-0.0774125,0.150341,-0.7416820000000001,-0.0721405,1
64,-0.0006495,0.7032554999999999,0.0435815,-0.1507465,0.4932955,0.0464565,-0.2628065,0.7097555,0.0134985,0.1529635,0.4760755,0.0440225,0.2696135,0.7178255,0.0189024999999999,-0.3102865,0.9878155,-0.0202335,0.3179035,0.9683955,-0.0233425,-0.0721765,0.0005784999999999,0.0012544999999999,0.0721765,-0.0005785,-0.0012545,-0.1220365,-0.3561845,-0.1479465,0.1427735,-0.3717945,-0.1344665,-0.1251765,-0.7291745000000001,-0.0802345,0.1501634999999999,-0.7326145000000001,-0.0751035,1
65,-0.0007764999999999,0.702471,0.039752,-0.1505615,0.4910609999999999,0.043203,-0.2626215,0.710681,0.007861,0.1530985,0.475531,0.041245,0.2702985,0.716571,0.013769,-0.3101715,0.983621,-0.028845,0.3189085,0.964711,-0.030947,-0.0721505,0.0005789999999999,0.000853,0.0721505,-0.000579,-0.0008529999999999,-0.1220015,-0.350509,-0.155186,0.1435785,-0.364359,-0.141696,-0.1249715,-0.718529,-0.083396,0.1500685,-0.722269,-0.0783919999999999,1
66,-0.000903,0.701333,0.036431,-0.150303,0.4903229999999999,0.040293,-0.262323,0.7096629999999999,0.00246,0.153117,0.475493,0.038982,0.270857,0.7140029999999999,0.009045,-0.310033,0.973303,-0.037519,0.319907,0.959703,-0.038092,-0.072188,0.000583,0.000403,0.072188,-0.000583,-0.000403,-0.121833,-0.345787,-0.161491,0.1443569999999999,-0.358017,-0.148141,-0.124713,-0.709207,-0.0863029999999999,0.149977,-0.713227,-0.081403,1
67,-0.0009334999999999,0.7003765000000001,0.0331675,-0.1501125,0.4892565,0.0372715,-0.2619625,0.7092665,-0.0028765,0.1531475,0.4751864999999999,0.0367145,0.2713875,0.7106865,0.0043745,-0.3098525,0.9636865,-0.0459835,0.3208175,0.9578065,-0.0429854999999999,-0.0723165,0.0004774999999999,2.4500000000000216e-05,0.0723165,-0.0004774999999999,-2.4500000000000216e-05,-0.1216325,-0.3407035,-0.1677795,0.1451775,-0.3515035,-0.1541795,-0.1248124999999999,-0.6995135,-0.0894075,0.1499675,-0.7040535,-0.0844445,1
68,-0.0008054999999999,0.699168,0.029677,-0.1498505,0.4887979999999999,0.034166,-0.2614505,0.7053579999999999,-0.00801,0.1533395,0.475048,0.034245,0.2719895,0.7069179999999999,-2.500000000000072e-05,-0.3097105,0.952508,-0.0537789999999999,0.3218495,0.959628,-0.047652,-0.0725355,0.0004959999999999,-0.000459,0.0725355,-0.000496,0.000459,-0.1213605,-0.335712,-0.173488,0.1463995,-0.346192,-0.160578,-0.1250804999999999,-0.689612,-0.0927559999999999,0.1500495,-0.694852,-0.087714,1
69,-0.0005814999999999,0.6987760000000001,0.0259775,-0.1496795,0.488176,0.0308625,-0.2610095,0.7029960000000001,-0.0130275,0.1533505,0.474606,0.0312245,0.2726905,0.704296,-0.0042304999999999,-0.3096494999999999,0.944386,-0.0605485,0.3230205,0.954996,-0.0537235,-0.0727865,0.000417,-0.0009254999999999,0.0727865,-0.000417,0.0009254999999999,-0.1210595,-0.329314,-0.1791525,0.1476005,-0.339344,-0.1666425,-0.1253595,-0.678774,-0.0965024999999999,0.1501905,-0.6845939999999999,-0.0912405,1
70,0.000165,0.6984684999999999,0.022482,-0.148914,0.4871884999999999,0.027515,-0.260154,0.7013885,-0.017835,0.153576,0.4739485,0.028146,0.273316,0.7017385,-0.008178,-0.309304,0.9371285,-0.067145,0.324376,0.9508185,-0.0595519999999999,-0.072923,0.0003195,-0.0013319999999999,0.072923,-0.0003195,0.0013319999999999,-0.120644,-0.3195515,-0.184425,0.148996,-0.3291315,-0.172655,-0.125554,-0.6676515,-0.100219,0.150466,-0.6740915,-0.093993,1
71,0.0010095,0.6981675,0.019111,-0.1480614999999999,0.4858774999999999,0.0240169999999999,-0.2592315,0.7003575000000001,-0.022405,0.1538485,0.4730675,0.024986,0.2736885,0.6997175,-0.012013,-0.3088115,0.9311275,-0.073602,0.3254785,0.9475175,-0.065012,-0.0730955,0.0002525,-0.0017299999999999,0.0730955,-0.0002525,0.0017299999999999,-0.1202115,-0.3096824999999999,-0.189451,0.1504285,-0.3184125,-0.178751,-0.1255315,-0.6563924999999999,-0.103914,0.1509785,-0.6628824999999999,-0.096339,1
72,0.0018539999999999,0.697675,0.015589,-0.147193,0.485175,0.020271,-0.258313,0.700315,-0.026957,0.154207,0.472615,0.021713,0.274217,0.699395,-0.015993,-0.307943,0.926025,-0.080204,0.326437,0.945145,-0.070178,-0.073361,0.0001549999999999,-0.0021869999999999,0.073361,-0.000155,0.0021869999999999,-0.120003,-0.299575,-0.194644,0.151767,-0.3073249999999999,-0.184094,-0.125503,-0.644935,-0.1075639999999999,0.151377,-0.651315,-0.0983329999999999,1
73,0.0030155,0.69927,0.007557,-0.1455425,0.48477,0.01171,-0.2570225,0.70077,-0.035826,0.1546375,0.47135,0.013283,0.2753275,0.69769,-0.0247739999999999,-0.3068325,0.92368,-0.091361,0.3277075,0.94459,-0.0798639999999999,-0.0736835,7.000000000000062e-05,-0.002707,0.0736835,-7.000000000000062e-05,0.002707,-0.1204325,-0.28686,-0.208511,0.1542275,-0.29353,-0.197201,-0.1251825,-0.63077,-0.115569,0.1517475,-0.63637,-0.1045329999999999,1
74,0.0042169999999999,0.70022,-0.000405,-0.143699,0.4858099999999999,0.003462,-0.255519,0.69994,-0.044205,0.155111,0.4709,0.0048479999999999,0.276481,0.69824,-0.03362,-0.305829,0.92614,-0.1014,0.329051,0.94504,-0.089537,-0.073929,0.0001899999999999,-0.0032949999999999,0.073929,-0.00019,0.0032949999999999,-0.120979,-0.27433,-0.222346,0.156771,-0.28051,-0.210266,-0.1248489999999999,-0.617,-0.123206,0.152061,-0.62109,-0.110741,1
75,0.0053949999999999,0.701385,-0.0084945,-0.141617,0.4863349999999999,-0.0049955,-0.254027,0.697825,-0.0524445,0.155663,0.470935,-0.0037155,0.277603,0.698875,-0.0423575,-0.304767,0.932855,-0.1107525,0.330363,0.946135,-0.0991525,-0.074151,0.0002549999999999,-0.0039235,0.074151,-0.000255,0.0039234999999999,-0.1216869999999999,-0.260885,-0.2368664999999999,0.159373,-0.266925,-0.2235565,-0.124527,-0.602545,-0.1310494999999999,0.152403,-0.6049950000000001,-0.1170185,1
76,0.0065525,0.7021000000000001,-0.016706,-0.1396684999999999,0.48651,-0.0134569999999999,-0.2524585,0.69604,-0.060469,0.1560214999999999,0.47057,-0.0123889999999999,0.2785815,0.70028,-0.050985,-0.3037785,0.93904,-0.120762,0.3315015,0.94251,-0.108608,-0.0743545,0.0003799999999999,-0.004517,0.0743545,-0.0003799999999999,0.004517,-0.1224985,-0.2462799999999999,-0.251644,0.1620214999999999,-0.2521099999999999,-0.237064,-0.1236884999999999,-0.58698,-0.138366,0.1525415,-0.5877899999999999,-0.123276,1
77,0.007355,0.7033499999999999,-0.0244315,-0.138034,0.48585,-0.0217735,-0.2515139999999999,0.69855,-0.0680995,0.1560959999999999,0.4697699999999999,-0.0207045,0.279796,0.7023600000000001,-0.0591235,-0.303044,0.94806,-0.1306585,0.332456,0.93791,-0.1176865,-0.074474,0.0004499999999999,-0.0050715,0.074474,-0.00045,0.0050715,-0.123604,-0.23196,-0.2660215,0.1642259999999999,-0.23747,-0.2493614999999999,-0.1231139999999999,-0.5716399999999999,-0.1448955,0.152476,-0.57097,-0.1290745,1
78,0.0080665,0.704515,-0.0320459999999999,-0.1363515,0.485555,-0.0297869999999999,-0.2502515,0.699425,-0.0759919999999999,0.1562885,0.469415,-0.0283999999999999,0.2808785,0.703265,-0.0673139999999999,-0.3022015,0.955835,-0.140262,0.3333585,0.939715,-0.1251489999999999,-0.0746334999999999,0.000565,-0.0055729999999999,0.0746334999999999,-0.0005649999999999,0.005573,-0.1246115,-0.2186249999999999,-0.280146,0.1664584999999999,-0.2240149999999999,-0.261416,-0.1225415,-0.557165,-0.151038,0.1521585,-0.5552549999999999,-0.134975,1
79,0.0087464999999999,0.70537,-0.039735,-0.1347305,0.48461,-0.0380579999999999,-0.2490805,0.70038,-0.0841089999999999,0.1562795,0.4674899999999999,-0.0366919999999999,0.2817595,0.7048099999999999,-0.075824,-0.3014705,0.96361,-0.14982,0.3343994999999999,0.94158,-0.132716,-0.0748755,0.0007099999999999,-0.006052,0.0748755,-0.00071,0.006052,-0.1254305,-0.20473,-0.294576,0.1687595,-0.21029,-0.273806,-0.1220405,-0.5425900000000001,-0.156968,0.1517195,-0.5390600000000001,-0.140824,1
80,0.0091064999999999,0.70613,-0.0477405,-0.1334595,0.48392,-0.0465355,-0.2484694999999999,0.70228,-0.0932025,0.1561104999999999,0.46689,-0.0451285,0.2833305,0.70719,-0.0851315,-0.3009995,0.96783,-0.1611415,0.3348905,0.9437,-0.1411605,-0.0750285,0.0007199999999999,-0.0064475,0.0750285,-0.0007199999999999,0.0064474999999999,-0.1264095,-0.18818,-0.3096755,0.1710605,-0.19409,-0.2868055,-0.1215195,-0.52655,-0.1629805,0.1510105,-0.52139,-0.1463075,1
81,0.0094185,0.707205,-0.055381,-0.1322334999999999,0.483755,-0.054486,-0.2480834999999999,0.700285,-0.101815,0.1560565,0.465895,-0.05326,0.2849264999999999,0.708845,-0.094241,-0.3005735,0.971025,-0.171879,0.3355165,0.944355,-0.14949,-0.0751475,0.0009049999999999,-0.006851,0.0751475,-0.0009049999999999,0.0068509999999999,-0.1272335,-0.172815,-0.324018,0.1733365,-0.178115,-0.299648,-0.1208535,-0.5116850000000001,-0.168845,0.1502765,-0.504625,-0.151439,1
82,0.0093729999999999,0.7058500000000001,-0.0583755,-0.132218,0.48301,-0.0575404999999999,-0.248028,0.6972200000000001,-0.1058475,0.1558719999999999,0.46606,-0.0562105,0.2850519999999999,0.7109700000000001,-0.0988135,-0.300448,0.9706,-0.1776344999999999,0.335442,0.94217,-0.1534485,-0.07532,0.00097,-0.0069014999999999,0.07532,-0.0009699999999999,0.0069015,-0.127398,-0.1614099999999999,-0.3290545,0.174482,-0.1659899999999999,-0.3041144999999999,-0.120448,-0.50061,-0.1702294999999999,0.149612,-0.4921999999999999,-0.1528675,1
83,0.0092389999999999,0.706445,-0.0620195,-0.132229,0.481325,-0.0609565,-0.248189,0.695835,-0.1104624999999999,0.155601,0.466375,-0.0594055,0.285061,0.713665,-0.1045794999999999,-0.300849,0.970265,-0.1836785,0.335271,0.938765,-0.1595085,-0.075517,0.0008449999999999,-0.0067654999999999,0.075517,-0.0008449999999999,0.0067654999999999,-0.127629,-0.149515,-0.3337405,0.175361,-0.153415,-0.3084504999999999,-0.120289,-0.489085,-0.1716885,0.148551,-0.4796149999999999,-0.1545355,1
84,0.0092704999999999,0.7047950000000001,-0.0659179999999999,-0.1322045,0.480105,-0.064632,-0.2480545,0.6960850000000001,-0.1162299999999999,0.1556054999999999,0.465565,-0.0629439999999999,0.2851155,0.715535,-0.1104299999999999,-0.3011645,0.969295,-0.1911689999999999,0.3352155,0.933815,-0.166094,-0.0757475,0.000765,-0.0066109999999999,0.0757475,-0.0007649999999999,0.006611,-0.1276745,-0.136455,-0.338159,0.1763354999999999,-0.140355,-0.3127689999999999,-0.1199245,-0.477195,-0.1731019999999999,0.1475755,-0.4665549999999999,-0.1563709999999999,1
85,0.008589,0.702995,-0.069746,-0.132604,0.478985,-0.068273,-0.2488539999999999,0.696555,-0.122319,0.155026,0.465095,-0.066307,0.284836,0.712395,-0.115974,-0.302134,0.968535,-0.197995,0.334676,0.932405,-0.172862,-0.075914,0.000645,-0.006516,0.075914,-0.000645,0.0065159999999999,-0.128074,-0.1266149999999999,-0.342075,0.176766,-0.131035,-0.316725,-0.1196239999999999,-0.4660649999999999,-0.173891,0.146286,-0.4543549999999999,-0.158186,1
86,0.0076209999999999,0.7016100000000001,-0.073267,-0.133331,0.47752,-0.07214,-0.250081,0.69558,-0.128596,0.154209,0.4651499999999999,-0.069766,0.284259,0.71019,-0.121423,-0.303431,0.96259,-0.20566,0.3341989999999999,0.93199,-0.179449,-0.076142,0.0004899999999999,-0.0064019999999999,0.076142,-0.0004899999999999,0.006402,-0.1286209999999999,-0.11659,-0.34577,0.176919,-0.12123,-0.3207299999999999,-0.119501,-0.4545499999999999,-0.1745249999999999,0.144719,-0.44242,-0.160383,1
87,0.0066125,0.699165,-0.0766545,-0.1341855,0.4760949999999999,-0.0761395,-0.2515455,0.695275,-0.1346975,0.1533945,0.4647549999999999,-0.0734005,0.2834045,0.7082849999999999,-0.1269025,-0.3048255,0.957865,-0.2135165,0.3334745,0.932185,-0.1864595,-0.0763065,0.0003849999999999,-0.0064035,0.0763065,-0.000385,0.0064035,-0.1291155,-0.105895,-0.3495865,0.1769244999999999,-0.110575,-0.3247465,-0.1193655,-0.442525,-0.1753055,0.1433645,-0.4299550000000001,-0.1623015,1
88,0.0055574999999999,0.6973400000000001,-0.0798675,-0.1349935,0.4751000000000001,-0.0800135,-0.2532335,0.6946000000000001,-0.1407054999999999,0.1523965,0.46533,-0.0766345,0.2822265,0.7061200000000001,-0.1324065,-0.3062235,0.95382,-0.2212065,0.3325865,0.93224,-0.1936075,-0.0764585,0.00025,-0.0064634999999999,0.0764585,-0.0002499999999999,0.0064634999999999,-0.1295235,-0.0954799999999999,-0.3531165,0.1767264999999999,-0.0996499999999999,-0.3284665,-0.1192935,-0.43065,-0.1761905,0.1418365,-0.4178799999999999,-0.1646685,1
89,0.0047424999999999,0.6952400000000001,-0.0826765,-0.1358815,0.47402,-0.0836125,-0.2545314999999999,0.6939500000000001,-0.1449524999999999,0.1516885,0.46481,-0.0798185,0.2808585,0.70335,-0.1369874999999999,-0.3076115,0.95388,-0.2259485,0.3313985,0.93272,-0.2001185,-0.0766585,0.0001599999999999,-0.0065915,0.0766585,-0.0001599999999999,0.0065915,-0.1295015,-0.0854499999999999,-0.3560385,0.1763485,-0.0890799999999999,-0.3312184999999999,-0.1185015,-0.4194199999999999,-0.1770045,0.1403085,-0.40655,-0.1667905,1
90,0.0040144999999999,0.69299,-0.085187,-0.1367175,0.47251,-0.087,-0.2556875,0.69555,-0.148896,0.1510725,0.46464,-0.082849,0.2793125,0.70001,-0.141141,-0.3090875,0.95347,-0.2313799999999999,0.3291825,0.92927,-0.2061899999999999,-0.0769025,-4.999999999999449e-05,-0.00675,0.0769025,4.999999999999449e-05,0.00675,-0.1293274999999999,-0.0753699999999999,-0.35865,0.1760425,-0.07829,-0.3336,-0.1175875,-0.40823,-0.177572,0.1385825,-0.39564,-0.168741,1
91,0.003428,0.6907749999999999,-0.0872255,-0.1376369999999999,0.471045,-0.0900465,-0.256647,0.6938949999999999,-0.1524255,0.150813,0.46442,-0.0856135,0.2778529999999999,0.696635,-0.1446235,-0.310567,0.951685,-0.2365014999999999,0.326883,0.926135,-0.2115415,-0.077165,-0.0002449999999999,-0.0070184999999999,0.077165,0.0002449999999999,0.0070184999999999,-0.128957,-0.065085,-0.3610215,0.175873,-0.067085,-0.3356715,-0.116807,-0.397115,-0.1779975,0.136953,-0.384665,-0.1704844999999999,1
92,0.002687,0.68684,-0.088933,-0.138532,0.469188,-0.092721,-0.257862,0.68878,-0.155608,0.150678,0.462439,-0.088287,0.276398,0.69321,-0.147206,-0.311942,0.9464,-0.240771,0.324898,0.92476,-0.214731,-0.077386,-0.0003199999999999,-0.007339,0.077386,0.0003199999999999,0.0073389999999999,-0.128292,-0.0528199999999999,-0.363371,0.175728,-0.0537099999999999,-0.337511,-0.1163219999999999,-0.38493,-0.1784649999999999,0.135248,-0.3726899999999999,-0.171447,1
93,0.0020244999999999,0.684815,-0.0903345,-0.1393145,0.4672789999999999,-0.0947895,-0.2588145,0.684255,-0.1575575,0.1505755,0.4613529999999999,-0.0902075,0.2751154999999999,0.6905049999999999,-0.1494575,-0.3142945,0.942085,-0.2432955,0.3231355,0.924465,-0.2167555,-0.0775395,-0.000385,-0.0076045,0.0775395,0.0003849999999999,0.0076045,-0.1275645,-0.041545,-0.3650854999999999,0.1756155,-0.041495,-0.3388755,-0.1160845,-0.373745,-0.1792615,0.1351755,-0.362435,-0.1730384999999999,1
94,0.0014819999999999,0.683165,-0.0916495,-0.140035,0.46567,-0.0965945,-0.259605,0.6790849999999999,-0.1593665,0.1505449999999999,0.460101,-0.0918805,0.2751949999999999,0.6923349999999999,-0.1515555,-0.316715,0.937915,-0.2455335,0.321895,0.924555,-0.2184535,-0.07758,-0.0003549999999999,-0.0078064999999999,0.07758,0.0003549999999999,0.0078065,-0.126805,-0.030685,-0.3664435,0.175585,-0.029685,-0.3401635,-0.116055,-0.3630949999999999,-0.1805395,0.1352249999999999,-0.352635,-0.1745675,1
95,0.001013,0.681155,-0.092198,-0.1407209999999999,0.464183,-0.098076,-0.260361,0.6754249999999999,-0.16138,0.150609,0.458689,-0.093246,0.2753489999999999,0.693875,-0.153546,-0.319311,0.938595,-0.247632,0.3208189999999999,0.925005,-0.219752,-0.077663,-0.000375,-0.008108,0.077663,0.0003749999999999,0.0081079999999999,-0.125991,-0.019665,-0.367662,0.175509,-0.017635,-0.341392,-0.115951,-0.352385,-0.181758,0.135359,-0.343465,-0.176249,1
96,0.000531,0.679125,-0.0926869999999999,-0.1413859999999999,0.462443,-0.0991669999999999,-0.261106,0.671515,-0.163123,0.150614,0.457665,-0.0942839999999999,0.275544,0.695055,-0.154845,-0.322096,0.938315,-0.2488,0.320044,0.923765,-0.2207299999999999,-0.077763,-0.000435,-0.0084199999999999,0.077763,0.0004349999999999,0.0084199999999999,-0.125076,-0.009165,-0.3686,0.175364,-0.006335,-0.34222,-0.115786,-0.342165,-0.182676,0.1362239999999999,-0.335715,-0.183197,1
97,9.099999999999732e-05,0.67734,-0.092793,-0.14193,0.46062,-0.099945,-0.26178,0.66779,-0.164583,0.15064,0.457498,-0.095025,0.27596,0.6961900000000001,-0.156249,-0.32513,0.93708,-0.249805,0.31955,0.92271,-0.221505,-0.077969,-0.0005399999999999,-0.008775,0.077969,0.00054,0.008775,-0.12405,0.00145,-0.369345,0.17522,0.00454,-0.342505,-0.11559,-0.3321499999999999,-0.183808,0.1355299999999999,-0.32841,-0.184409,1
98,-0.0002094999999999,0.676005,-0.092472,-0.1420205,0.458686,-0.100407,-0.2626705,0.663455,-0.165567,0.1508195,0.457155,-0.09547,0.2766595,0.6975450000000001,-0.15709,-0.3279305,0.935035,-0.2505199999999999,0.3195195,0.919195,-0.22195,-0.0782305,-0.0006049999999999,-0.00911,0.0782305,0.000605,0.0091099999999999,-0.1231505,0.011045,-0.36977,0.1750795,0.014055,-0.34221,-0.1157105,-0.323415,-0.185202,0.1350695,-0.322585,-0.18534,1
99,-0.0002424999999999,0.674775,-0.091864,-0.1421055,0.4572799999999999,-0.100692,-0.2636755,0.660225,-0.166479,0.1511145,0.456646,-0.09573,0.2766245,0.699575,-0.157372,-0.3307555,0.932705,-0.25105,0.3197945,0.920175,-0.22187,-0.0785255,-0.000595,-0.00941,0.0785255,0.0005949999999999,0.00941,-0.1224055,0.020175,-0.37001,0.1749045,0.023455,-0.34174,-0.1159854999999999,-0.314855,-0.186554,0.1340845,-0.3165449999999999,-0.184825,1
100,-0.0001329999999999,0.67333,-0.091168,-0.142161,0.456133,-0.10075,-0.264921,0.66028,-0.167166,0.151389,0.455693,-0.095703,0.276789,0.70145,-0.157519,-0.333291,0.92898,-0.25143,0.320049,0.92096,-0.22152,-0.0788949999999999,-0.0005499999999999,-0.00959,0.0788949999999999,0.0005499999999999,0.00959,-0.121791,0.0290199999999999,-0.37024,0.1746889999999999,0.0326,-0.34103,-0.1163609999999999,-0.3065,-0.187786,0.133389,-0.31063,-0.18428,1
101,6.250000000000352e-05,0.6726449999999999,-0.090298,-0.1421105,0.456041,-0.10057,-0.2659505,0.663615,-0.167334,0.1517395,0.455269,-0.095366,0.2774195,0.7025049999999999,-0.15748,-0.3355605,0.928635,-0.251575,0.3202494999999999,0.922565,-0.220775,-0.0791455,-0.000555,-0.009605,0.0791455,0.0005549999999999,0.009605,-0.1214905,0.0352949999999999,-0.370225,0.1746095,0.0393649999999999,-0.3403549999999999,-0.1176704999999999,-0.300245,-0.1895089999999999,0.1330695,-0.306945,-0.183604,1
102,0.000173,0.67136,-0.089299,-0.142067,0.455428,-0.100017,-0.267127,0.66698,-0.167411,0.152033,0.454984,-0.0947129999999999,0.278803,0.70013,-0.157709,-0.336677,0.92917,-0.251625,0.321453,0.91896,-0.219905,-0.079319,-0.00057,-0.009635,0.079319,0.00057,0.009635,-0.121227,0.0418899999999999,-0.370185,0.174623,0.04631,-0.339835,-0.119617,-0.2937899999999999,-0.191952,0.135413,-0.30116,-0.189716,1
103,0.0002935,0.66994,-0.088248,-0.1419755,0.454721,-0.0993469999999999,-0.2689055,0.6700200000000001,-0.167926,0.1524745,0.4544,-0.0939499999999999,0.2801245,0.69694,-0.156837,-0.3374454999999999,0.92613,-0.252,0.3226445,0.91591,-0.21908,-0.0795005,-0.00063,-0.0097499999999999,0.0795005,0.00063,0.00975,-0.1208855,0.0483899999999999,-0.3700599999999999,0.1747245,0.0531699999999999,-0.33921,-0.1213855,-0.28754,-0.194699,0.1373445,-0.29611,-0.1905899999999999,1
104,0.0004799999999999,0.6680649999999999,-0.0868375,-0.142029,0.4540209999999999,-0.0981135,-0.270899,0.6729149999999999,-0.1686715,0.1527009999999999,0.4538139999999999,-0.0927895,0.281271,0.6931449999999999,-0.1553095,-0.338109,0.922775,-0.2521915,0.323631,0.911875,-0.2178415,-0.0796439999999999,-0.000655,-0.0100185,0.0796439999999999,0.0006549999999999,0.0100185,-0.1206989999999999,0.0539049999999999,-0.3696115,0.1746909999999999,0.0592749999999999,-0.3382315,-0.123179,-0.282345,-0.1978865,0.136931,-0.291805,-0.1895455,1
105,0.0006205,0.66682,-0.084983,-0.1422604999999999,0.4531899999999999,-0.096478,-0.2728805,0.6760599999999999,-0.169163,0.1527495,0.4537319999999999,-0.091336,0.2821495,0.6894699999999999,-0.153372,-0.3385905,0.91963,-0.251944,0.3251195,0.90911,-0.2165139999999999,-0.0799215,-0.00073,-0.010186,0.0799215,0.0007299999999999,0.010186,-0.1207105,0.0596899999999999,-0.368684,0.1744795,0.0658599999999999,-0.336954,-0.1251205,-0.27681,-0.200208,0.1380495,-0.28771,-0.191629,1
106,0.0008079999999999,0.6654599999999999,-0.0829095,-0.142493,0.4524879999999999,-0.0946845,-0.274883,0.67902,-0.1694905,0.152967,0.452742,-0.0895605,0.282787,0.68302,-0.1513585,-0.338773,0.9162,-0.2517534999999999,0.326807,0.90529,-0.2149835,-0.080119,-0.00075,-0.0103464999999999,0.080119,0.0007499999999999,0.0103464999999999,-0.120743,0.0649599999999999,-0.3676935,0.1742369999999999,0.0721299999999999,-0.3357535,-0.127143,-0.27182,-0.2024135,0.138757,-0.28384,-0.1925155,1
107,0.001169,0.66447,-0.080817,-0.142693,0.4525639999999999,-0.092723,-0.275283,0.6816599999999999,-0.168994,0.153367,0.4511259999999999,-0.087643,0.2833569999999999,0.67648,-0.149156,-0.338923,0.91223,-0.25148,0.328677,0.90299,-0.21333,-0.080265,-0.00063,-0.0104199999999999,0.080265,0.00063,0.0104199999999999,-0.120633,0.0700599999999999,-0.36657,0.174197,0.0782699999999999,-0.33445,-0.128803,-0.26685,-0.203994,0.138557,-0.27982,-0.191452,1
108,0.0017319999999999,0.6624950000000001,-0.078587,-0.142633,0.45201,-0.090675,-0.276023,0.684615,-0.168816,0.1538169999999999,0.450167,-0.085571,0.283637,0.670855,-0.14698,-0.339083,0.908925,-0.251392,0.330787,0.901035,-0.2117919999999999,-0.080431,-0.0003149999999999,-0.010328,0.080431,0.0003149999999999,0.010328,-0.120523,0.075695,-0.365512,0.174117,0.0854349999999999,-0.332762,-0.1306129999999999,-0.2613649999999999,-0.205384,0.136117,-0.2751949999999999,-0.184008,1
109,0.0024825,0.66075,-0.0764525,-0.1424985,0.4519439999999999,-0.0887655,-0.2767785,0.68773,-0.1687895,0.1542015,0.449603,-0.0835455,0.2837615,0.66492,-0.1443385,-0.3389385,0.90856,-0.2514935,0.3332414999999999,0.89948,-0.2102635,-0.0806185,0.0003099999999999,-0.0101265,0.0806185,-0.00031,0.0101264999999999,-0.1203585,0.0823599999999999,-0.3641835,0.1740215,0.0935999999999999,-0.3303335,-0.1321784999999999,-0.25514,-0.2067135,0.1335115,-0.2698400000000001,-0.1758815,1
110,0.0032829999999999,0.65884,-0.0743834999999999,-0.1423559999999999,0.4517459999999999,-0.0868245,-0.277376,0.6875899999999999,-0.1689665,0.154574,0.4491429999999999,-0.0814564999999999,0.283684,0.65928,-0.1416425,-0.338496,0.90795,-0.2515905,0.335794,0.8968099999999999,-0.2086805,-0.080816,0.0009599999999999,-0.0098395,0.080816,-0.00096,0.0098395,-0.120216,0.0891399999999999,-0.3626305,0.1739339999999999,0.1018499999999999,-0.3278105,-0.1335259999999999,-0.24909,-0.2078805,0.131094,-0.2656400000000001,-0.1722235,1
111,0.0038159999999999,0.6577250000000001,-0.0724775,-0.142131,0.450366,-0.0852354999999999,-0.277851,0.6884250000000001,-0.1699284999999999,0.1548989999999999,0.4491200000000001,-0.0796525,0.283449,0.657205,-0.1388625,-0.337491,0.907225,-0.2519455,0.337889,0.8998250000000001,-0.2072554999999999,-0.081005,0.001485,-0.0094545,0.081005,-0.0014849999999999,0.0094545,-0.120161,0.096575,-0.3603355,0.173809,0.110555,-0.3248455,-0.134331,-0.2425749999999998,-0.2088355,0.129129,-0.2607449999999999,-0.1674175,1
112,0.00417,0.6567449999999999,-0.0707869999999999,-0.141987,0.4493809999999999,-0.0838569999999999,-0.278117,0.6893749999999998,-0.169182,0.155143,0.4494489999999999,-0.077917,0.283173,0.6559349999999999,-0.13702,-0.336947,0.909105,-0.252181,0.339973,0.900345,-0.206041,-0.08111,0.0020749999999999,-0.0090289999999999,0.08111,-0.002075,0.009029,-0.120197,0.1039249999999999,-0.357961,0.173693,0.1190049999999999,-0.321821,-0.136297,-0.2372050000000001,-0.211781,0.127873,-0.255345,-0.1631659999999999,1
113,0.0044754999999999,0.6560149999999999,-0.069362,-0.1418405,0.4487109999999999,-0.082764,-0.2783205,0.6900149999999999,-0.168588,0.1554595,0.4496189999999999,-0.076336,0.2829795,0.6543349999999999,-0.13578,-0.3365305,0.910295,-0.252907,0.3420295,0.9004549999999999,-0.205227,-0.0811834999999999,0.0026849999999999,-0.0086429999999999,0.0811834999999999,-0.002685,0.0086429999999999,-0.1201704999999999,0.1110049999999999,-0.355687,0.1735795,0.1270349999999999,-0.318987,-0.1380704999999999,-0.2320050000000001,-0.214547,0.1266094999999999,-0.2485050000000001,-0.158706,1
114,0.0047589999999999,0.65533,-0.0684665,-0.141523,0.4483399999999999,-0.0820215,-0.277623,0.68889,-0.1682115,0.155907,0.44949,-0.0750055,0.283297,0.652412,-0.1347875,-0.335703,0.91074,-0.2542795,0.343757,0.8996599999999999,-0.2053694999999999,-0.081161,0.00331,-0.0083504999999999,0.081161,-0.00331,0.0083504999999999,-0.119903,0.1179699999999999,-0.3534495,0.1734669999999999,0.1342899999999999,-0.3163295,-0.139513,-0.2272,-0.2174695,0.126027,-0.24207,-0.1554685,1
115,0.004956,0.6545930000000001,-0.0678155,-0.141161,0.448215,-0.0813865,-0.276191,0.6828550000000001,-0.1678325,0.1561789999999999,0.4501550000000001,-0.0740115,0.284029,0.652722,-0.1338425,-0.335031,0.910695,-0.2558344999999999,0.345379,0.8990450000000001,-0.2055145,-0.081179,0.003915,-0.0080654999999999,0.081179,-0.0039149999999998,0.0080655,-0.119591,0.124715,-0.3510744999999999,0.1733589999999999,0.141165,-0.3136845,-0.140801,-0.2224349999999999,-0.2203844999999999,0.125299,-0.235695,-0.1514905,1
116,0.0050774999999999,0.653644,-0.0672855,-0.1408765,0.447605,-0.0808725,-0.2746365,0.676955,-0.1674575,0.1562635,0.4513549999999999,-0.0731495,0.2847535,0.6528339999999999,-0.1329985,-0.3343865,0.910865,-0.2576195,0.3470735,0.898125,-0.2056695,-0.0811945,0.004425,-0.0078605,0.0811945,-0.004425,0.0078604999999999,-0.1192565,0.1310849999999999,-0.3486995,0.1732235,0.1475849999999999,-0.3109595,-0.1419065,-0.217755,-0.2233495,0.1240935,-0.229725,-0.1470475,1
117,0.005161,0.653671,-0.0671385,-0.1406629999999999,0.447475,-0.0805905,-0.2725729999999999,0.6681900000000001,-0.1661475,0.156327,0.452065,-0.0725585,0.284787,0.651854,-0.1325225,-0.333823,0.908215,-0.2594745,0.348917,0.896135,-0.2055845,-0.081163,0.004715,-0.0076755,0.081163,-0.004715,0.0076754999999999,-0.1187729999999999,0.136485,-0.3464945,0.173167,0.152635,-0.3086845,-0.142783,-0.2142149999999999,-0.2263145,0.121757,-0.225345,-0.1412935,1
118,0.0052344999999999,0.6537200000000001,-0.0670395,-0.1405695,0.44667,-0.0803764999999999,-0.2703895,0.658914,-0.1648804999999999,0.1563905,0.45276,-0.0720855,0.2854804999999999,0.6513610000000001,-0.1323685,-0.3334395,0.90497,-0.2613185,0.3505505,0.89319,-0.2057385,-0.0811375,0.0046599999999999,-0.0074414999999999,0.0811375,-0.0046599999999999,0.0074415,-0.1183195,0.14042,-0.3446785,0.1731405,0.15617,-0.3072185,-0.1436695,-0.21204,-0.2293285,0.1208605,-0.22231,-0.1378235,1
119,0.0053875,0.6538470000000001,-0.0670715,-0.1404285,0.44594,-0.0803565,-0.2685485,0.654514,-0.1649575,0.1564915,0.4535,-0.0718385,0.2862915,0.651262,-0.1323575,-0.3332385,0.90337,-0.2632355,0.3521815,0.89062,-0.2062555,-0.0811524999999999,0.0045899999999999,-0.0072345,0.0811524999999999,-0.0045899999999999,0.0072344999999999,-0.1175185,0.14405,-0.3430855,0.1730114999999999,0.15904,-0.3060655,-0.1444185,-0.21026,-0.2326255,0.1204415,-0.2194199999999999,-0.1378995,1
120,0.0055955,0.6536810000000001,-0.067134,-0.1403025,0.44686,-0.080375,-0.2669324999999999,0.647105,-0.164254,0.1565975,0.45387,-0.0716219999999999,0.2871675,0.6514420000000001,-0.132343,-0.3328325,0.8994500000000001,-0.264941,0.3536175,0.8869100000000001,-0.207011,-0.0811735,0.00464,-0.007149,0.0811735,-0.0046399999999999,0.007149,-0.1166524999999999,0.14597,-0.3423509999999999,0.1729975,0.16024,-0.305481,-0.1452625,-0.2101299999999999,-0.235591,0.1197275,-0.2163999999999999,-0.134825,1
121,0.005758,0.6535400000000001,-0.0672545,-0.140172,0.44727,-0.0803815,-0.2663419999999999,0.644333,-0.1650555,0.156688,0.45422,-0.0714644999999999,0.288318,0.6518520000000001,-0.1324595,-0.332642,0.8977400000000001,-0.2664505,0.354838,0.88517,-0.2079605,-0.081208,0.00463,-0.0071194999999999,0.081208,-0.0046299999999999,0.0071195,-0.115752,0.14723,-0.3418805,0.173018,0.16088,-0.3051104999999999,-0.145262,-0.2098199999999999,-0.2362705,0.119818,-0.2162799999999999,-0.1348345,1
122,0.005809,0.6535400000000001,-0.0674895,-0.140129,0.44727,-0.0804204999999999,-0.266799,0.646086,-0.1668575,0.156721,0.45422,-0.0713415,0.289691,0.6518520000000001,-0.1328185,-0.332719,0.89663,-0.2681265,0.355891,0.8834200000000001,-0.2091565,-0.08124,0.00463,-0.0071034999999999,0.08124,-0.0046299999999999,0.0071034999999999,-0.114909,0.148,-0.3416765,0.173001,0.16108,-0.3049565,-0.145279,-0.2098499999999998,-0.2366165,0.119821,-0.2160799999999999,-0.1348504999999999,1
123,0.0058074999999999,0.6535400000000001,-0.067862,-0.1401575,0.44734,-0.080406,-0.2654674999999999,0.6432970000000001,-0.166729,0.1567825,0.45422,-0.071247,0.2913925,0.6518520000000001,-0.133575,-0.3331975,0.8962800000000001,-0.269652,0.3565425,0.8820400000000002,-0.210332,-0.0812525,0.00463,-0.007088,0.0812525,-0.0046299999999999,0.0070879999999999,-0.1142074999999999,0.14867,-0.341612,0.1729725,0.16132,-0.304942,-0.1453075,-0.2098499999999998,-0.236602,0.1197925,-0.2159499999999999,-0.134836,1
124,0.0058859999999999,0.6535400000000001,-0.068271,-0.140169,0.4476500000000001,-0.080424,-0.265419,0.6432970000000001,-0.1667449999999999,0.1568709999999999,0.45422,-0.0712149999999999,0.293261,0.652131,-0.134629,-0.333409,0.8962800000000001,-0.271352,0.356941,0.8820400000000002,-0.211552,-0.081284,0.00463,-0.0070979999999999,0.081284,-0.0046299999999999,0.007098,-0.113629,0.1491,-0.341582,0.1729409999999999,0.1614000000000001,-0.304952,-0.145139,-0.2092099999999999,-0.2366019999999999,0.1193009999999999,-0.2159499999999999,-0.1371099999999999,1
125,0.0060165,0.653782,-0.06883,-0.1401504999999999,0.4482049999999999,-0.0804489999999999,-0.2654305,0.643242,-0.16697,0.1569995,0.4544049999999999,-0.071209,0.2945595,0.653721,-0.135655,-0.3335305,0.8962249999999999,-0.273027,0.3570394999999999,0.881985,-0.2125969999999999,-0.0813055,0.0046049999999999,-0.0071029999999999,0.0813055,-0.004605,0.0071029999999999,-0.1132505,0.1491949999999999,-0.341557,0.1729195,0.1613449999999999,-0.304957,-0.1448505,-0.208535,-0.236587,0.1185895,-0.214015,-0.135426,1
126,0.0061424999999999,0.6541279999999999,-0.069311,-0.1401055,0.4488899999999999,-0.080541,-0.2654455,0.6428119999999999,-0.1676079999999999,0.1570745,0.4541499999999999,-0.071118,0.2957845,0.655837,-0.1366399999999999,-0.3336955,0.8954799999999999,-0.274686,0.3569845,0.88124,-0.2132359999999999,-0.0813325,0.0045499999999999,-0.007234,0.0813325,-0.00455,0.007234,-0.1130455,0.1484499999999999,-0.3418259999999999,0.1729345,0.1605999999999999,-0.305226,-0.1443755,-0.2075300000000001,-0.234426,0.1202845,-0.21357,-0.139973,1
127,0.005997,0.65475,-0.0700425,-0.140306,0.44924,-0.0807965,-0.266656,0.649373,-0.1707405,0.156884,0.45367,-0.0711485,0.296704,0.65841,-0.1377375,-0.334146,0.89512,-0.2765495,0.356674,0.8836,-0.2143695,-0.081385,0.00435,-0.0072504999999999,0.081385,-0.0043499999999999,0.0072505,-0.113116,0.14721,-0.3424995,0.172724,0.15936,-0.3060295,-0.144166,-0.2070299999999999,-0.2321895,0.122374,-0.21255,-0.1466825,1
128,0.0057119999999999,0.655136,-0.0708605,-0.140693,0.449795,-0.0811295,-0.268123,0.655189,-0.1740654999999999,0.156597,0.452765,-0.0713345,0.2974969999999999,0.663173,-0.1397595,-0.334683,0.894175,-0.2784025,0.356247,0.885605,-0.2155425,-0.081479,0.003995,-0.0072674999999999,0.081479,-0.0039949999999999,0.0072674999999999,-0.113353,0.144975,-0.3435125,0.172317,0.157085,-0.3075725,-0.1441029999999999,-0.2081449999999999,-0.2299225,0.124157,-0.2146849999999999,-0.1518455,1
129,0.005393,0.65554,-0.0717694999999999,-0.141076,0.44982,-0.0816335,-0.269796,0.662655,-0.1780505,0.156394,0.4527299999999999,-0.0718925,0.297934,0.66808,-0.1418075,-0.335526,0.89488,-0.2805904999999999,0.355354,0.88722,-0.2168705,-0.08147,0.00339,-0.0073994999999999,0.08147,-0.00339,0.0073995,-0.113676,0.1412999999999999,-0.3446805,0.171854,0.15335,-0.3093605,-0.143826,-0.21101,-0.2274105,0.125824,-0.2191199999999999,-0.1577204999999999,1
130,0.0051199999999999,0.655896,-0.073045,-0.141285,0.449895,-0.082499,-0.2711449999999999,0.669745,-0.182159,0.1559849999999999,0.452145,-0.072731,0.2983949999999999,0.672175,-0.144124,-0.336345,0.8950450000000001,-0.282991,0.354305,0.8885350000000001,-0.218481,-0.081401,0.0028249999999999,-0.007619,0.081401,-0.0028249999999999,0.007619,-0.1139149999999999,0.136195,-0.346071,0.171495,0.148305,-0.311241,-0.143365,-0.2148949999999999,-0.225021,0.127595,-0.224535,-0.163868,1
131,0.0051064999999999,0.657262,-0.0751675,-0.1412685,0.4497299999999999,-0.0840855,-0.2717585,0.67623,-0.1860425,0.1559014999999999,0.45078,-0.0742875,0.2984715,0.67682,-0.1471305,-0.3369385,0.89619,-0.2857484999999999,0.3534914999999999,0.88974,-0.2207485,-0.0813575,0.0024199999999999,-0.0077514999999999,0.0813575,-0.0024199999999999,0.0077514999999999,-0.1138185,0.1293699999999999,-0.3481685,0.1714315,0.14187,-0.3138585,-0.1426085,-0.2200999999999999,-0.2227285,0.1305414999999999,-0.23012,-0.1730035,1
132,0.0050515,0.658775,-0.077726,-0.1412655,0.450215,-0.086286,-0.2721655,0.6814749999999999,-0.189503,0.1558145,0.4500649999999999,-0.07631,0.2992145,0.6814749999999999,-0.150555,-0.3372954999999999,0.897685,-0.288566,0.3528345,0.8917649999999999,-0.223686,-0.0812165,0.0018549999999999,-0.007984,0.0812165,-0.001855,0.007984,-0.1137654999999999,0.1215549999999999,-0.350326,0.1710945,0.1342549999999999,-0.316826,-0.1417455,-0.225315,-0.220866,0.1334045,-0.2353549999999999,-0.181355,1
133,0.0048435,0.6602199999999999,-0.081042,-0.1415085,0.4506429999999999,-0.089103,-0.2725685,0.6821299999999999,-0.192084,0.1555815,0.4498749999999999,-0.079192,0.2993815,0.6847599999999999,-0.154614,-0.3377785,0.89899,-0.291741,0.3519415,0.8943099999999999,-0.227421,-0.0810195,0.0012699999999999,-0.008359,0.0810195,-0.0012700000000001,0.0083589999999999,-0.1138685,0.1125699999999999,-0.352781,0.1705615,0.1251899999999999,-0.320401,-0.1403885,-0.23158,-0.217831,0.1333315,-0.24312,-0.185394,1
134,0.0046949999999999,0.661955,-0.084958,-0.141684,0.4516949999999999,-0.092562,-0.272804,0.681815,-0.194658,0.155376,0.4480139999999999,-0.082488,0.299276,0.687155,-0.159235,-0.337974,0.899545,-0.295355,0.351136,0.8979349999999999,-0.232535,-0.080767,0.0010449999999999,-0.008595,0.080767,-0.0010449999999999,0.0085949999999999,-0.1142239999999999,0.102395,-0.355355,0.170326,0.114865,-0.324075,-0.138124,-0.238975,-0.2141549999999999,0.1344759999999999,-0.250855,-0.189579,1
135,0.0046064999999999,0.6631999999999999,-0.089281,-0.1417525,0.4517359999999999,-0.096192,-0.2740425,0.6778199999999999,-0.199033,0.1550975,0.4483339999999999,-0.08633,0.2992675,0.6897899999999999,-0.163855,-0.3384925,0.89957,-0.2991749999999999,0.3504475,0.90158,-0.238145,-0.0804785,0.0005699999999999,-0.008675,0.0804785,-0.00057,0.0086749999999999,-0.1145225,0.0913899999999999,-0.358265,0.1703375,0.1029999999999999,-0.327695,-0.1358625,-0.2470000000000001,-0.213105,0.1363075,-0.2594600000000001,-0.19358,1
136,0.0043924999999999,0.664315,-0.093637,-0.1419045,0.452237,-0.099833,-0.2745045,0.6728149999999999,-0.202669,0.1548055,0.4483089999999999,-0.090273,0.2988055,0.691645,-0.168266,-0.3388345,0.899305,-0.302945,0.3497355,0.900245,-0.242925,-0.0801834999999999,0.000225,-0.008595,0.0801834999999999,-0.000225,0.0085949999999999,-0.1148645,0.079975,-0.361195,0.1703555,0.090565,-0.330885,-0.1335744999999999,-0.255765,-0.212224,0.1354755,-0.266295,-0.193447,1
137,0.0038899999999999,0.66653,-0.0976409999999999,-0.142266,0.453042,-0.1029649999999999,-0.274606,0.66637,-0.205079,0.154314,0.4494579999999999,-0.0940459999999999,0.2978039999999999,0.69042,-0.171589,-0.339396,0.89867,-0.3059199999999999,0.3480339999999999,0.90198,-0.24647,-0.079935,-1.0000000000065512e-05,-0.0083599999999999,0.079935,9.99999999995449e-06,0.00836,-0.115226,0.0642999999999999,-0.36315,0.170394,0.0736999999999999,-0.33338,-0.131036,-0.26936,-0.2111239999999999,0.134814,-0.27824,-0.192593,1
138,0.0032045,0.6690400000000001,-0.100691,-0.1430265,0.454672,-0.105136,-0.2756465,0.66591,-0.206987,0.1536235,0.449461,-0.09698,0.2967835,0.6895600000000001,-0.173819,-0.3404765,0.9002300000000001,-0.307825,0.3463035,0.9042,-0.248425,-0.0796985,-2.999999999997449e-05,-0.007805,0.0796985,3.0000000000030003e-05,0.007805,-0.1157665,0.04743,-0.3641149999999999,0.1704035,0.05645,-0.335215,-0.1287565,-0.28623,-0.209497,0.1348335,-0.29155,-0.191806,1
139,0.0026084999999999,0.672175,-0.1028419999999999,-0.1435785,0.456279,-0.1065669999999999,-0.2758685,0.665365,-0.2070459999999999,0.1530214999999999,0.449933,-0.0990279999999999,0.2956215,0.689725,-0.1749649999999999,-0.3415685,0.902225,-0.3089699999999999,0.3448815,0.906405,-0.2495899999999999,-0.0793155,4.999999999977245e-06,-0.0072999999999999,0.0793155,-4.999999999977245e-06,0.0073,-0.1161485,0.0299349999999999,-0.3639599999999999,0.1705815,0.038955,-0.33628,-0.1263785,-0.3036449999999999,-0.207164,0.1364915,-0.3054249999999999,-0.1928039999999999,1
140,0.0020364999999999,0.6743600000000001,-0.10368,-0.1443285,0.458591,-0.1067119999999999,-0.2758785,0.66578,-0.205322,0.1523614999999999,0.452108,-0.1002309999999999,0.2944515,0.69218,-0.175138,-0.3428485,0.90184,-0.30915,0.3437814999999999,0.90986,-0.2497599999999999,-0.0787615,-0.0001799999999999,-0.0071699999999999,0.0787615,0.00018,0.00717,-0.1165285,0.0094,-0.3621299999999999,0.1707015,0.01842,-0.33572,-0.1240385,-0.32384,-0.2040779999999999,0.1377315,-0.3227099999999999,-0.192821,1
141,0.001327,0.67786,-0.1038139999999999,-0.145027,0.4601739999999999,-0.1067579999999999,-0.276017,0.66429,-0.2038599999999999,0.151553,0.4530389999999999,-0.101335,0.293103,0.69304,-0.175112,-0.344287,0.90252,-0.308195,0.343203,0.91347,-0.249795,-0.078457,-0.0002199999999999,-0.0071449999999999,0.078457,0.0002199999999999,0.0071449999999999,-0.116827,-0.0150799999999999,-0.359585,0.171063,-0.0076499999999999,-0.334295,-0.121827,-0.3484899999999999,-0.200905,0.138913,-0.3438,-0.190516,1
142,0.000532,0.681205,-0.103865,-0.145825,0.4617019999999999,-0.106801,-0.276165,0.664865,-0.202021,0.150745,0.454966,-0.1015929999999999,0.291715,0.693935,-0.175199,-0.345875,0.901985,-0.306975,0.342635,0.915405,-0.249385,-0.078142,-0.000315,-0.0071249999999999,0.078142,0.0003149999999999,0.0071249999999999,-0.1174149999999999,-0.039205,-0.357005,0.171135,-0.033555,-0.332895,-0.120515,-0.373915,-0.199352,0.138895,-0.367155,-0.188427,1
143,-0.0001325,0.685385,-0.1035649999999999,-0.1465575,0.464294,-0.106353,-0.2755975,0.6677649999999999,-0.199149,0.1499725,0.458828,-0.101536,0.2902125,0.695535,-0.173569,-0.3474575,0.905715,-0.304295,0.3420725,0.917325,-0.247615,-0.0779305,-0.0007349999999999,-0.0067649999999999,0.0779305,0.0007349999999999,0.0067649999999999,-0.1181675,-0.063645,-0.353565,0.1714925,-0.059875,-0.330495,-0.1202575,-0.400985,-0.198992,0.1400025,-0.3909749999999999,-0.185947,1
144,-0.0008425,0.69017,-0.1023449999999999,-0.1473645,0.4676,-0.104488,-0.2761445,0.67353,-0.195079,0.1493055,0.46007,-0.1003139999999999,0.2886455,0.69699,-0.1709669999999999,-0.3489645,0.90952,-0.3000049999999999,0.3410154999999999,0.92279,-0.244855,-0.0775545,-0.0007399999999999,-0.0060449999999999,0.0775545,0.00074,0.006045,-0.1192745,-0.0867,-0.349105,0.1719055,-0.0850399999999999,-0.326855,-0.1200745,-0.4283199999999999,-0.197183,0.1412255,-0.4155799999999999,-0.182251,1
145,-0.001696,0.694665,-0.099547,-0.1480969999999999,0.4701849999999999,-0.100902,-0.277187,0.676885,-0.188815,0.1485929999999999,0.463445,-0.097646,0.287523,0.698745,-0.1658,-0.350667,0.912185,-0.29352,0.339893,0.927035,-0.23951,-0.077153,-0.000875,-0.0050499999999999,0.077153,0.0008749999999999,0.0050499999999999,-0.120667,-0.111035,-0.34251,0.172263,-0.110965,-0.32124,-0.1198969999999999,-0.457325,-0.19374,0.1424329999999999,-0.444225,-0.177717,1
146,-0.0023749999999999,0.6991050000000001,-0.095554,-0.148607,0.473045,-0.0963789999999999,-0.2790169999999999,0.681595,-0.18203,0.147943,0.465435,-0.094389,0.286613,0.701675,-0.159379,-0.352637,0.916075,-0.2859,0.339043,0.928805,-0.2321,-0.076781,-0.0007649999999999,-0.00433,0.076781,0.000765,0.00433,-0.1217069999999999,-0.1301649999999999,-0.3359,0.172333,-0.131295,-0.31502,-0.119757,-0.4812349999999999,-0.1896169999999999,0.142503,-0.4683849999999999,-0.173011,1
147,-0.002966,0.703325,-0.089951,-0.148866,0.475345,-0.090793,-0.280346,0.684755,-0.174159,0.147724,0.468115,-0.089784,0.285914,0.707175,-0.151846,-0.354206,0.920155,-0.27581,0.3381039999999999,0.932165,-0.2220099999999999,-0.0762279999999999,-0.000805,-0.00379,0.0762279999999999,0.000805,0.0037899999999999,-0.122306,-0.1489849999999999,-0.32731,0.172214,-0.150665,-0.30669,-0.119536,-0.506025,-0.184111,0.142554,-0.492915,-0.167261,1
148,-0.003568,0.707315,-0.0837745,-0.149183,0.477285,-0.0848465,-0.281573,0.687625,-0.1658825,0.147447,0.470775,-0.0848035,0.285167,0.712125,-0.1439985,-0.355743,0.923655,-0.2653505,0.337167,0.934855,-0.2115205,-0.075627,-0.0009749999999999,-0.0033294999999999,0.075627,0.000975,0.0033294999999999,-0.122523,-0.1675249999999999,-0.3179605,0.1720769999999999,-0.1692849999999999,-0.2977305,-0.119153,-0.5304949999999999,-0.1783635,0.143867,-0.517255,-0.1625465,1
149,-0.003904,0.7117450000000001,-0.0772615,-0.149188,0.4780549999999999,-0.0789405,-0.282778,0.689135,-0.1583555,0.147152,0.4716249999999999,-0.0794795,0.2845519999999999,0.713365,-0.1359845,-0.356758,0.928575,-0.2545255,0.337262,0.935845,-0.2007654999999999,-0.075228,-0.001095,-0.0029145,0.075228,0.0010949999999999,0.0029145,-0.122528,-0.183505,-0.3085255,0.172102,-0.185115,-0.2888055,-0.119198,-0.5524150000000001,-0.1737415,0.145132,-0.539355,-0.1576515,1
150,-0.00391,0.71423,-0.0710835,-0.149076,0.47986,-0.0730405,-0.2839859999999999,0.69145,-0.1505324999999999,0.147014,0.47716,-0.0738534999999999,0.284094,0.71582,-0.1277505,-0.357846,0.93166,-0.2444734999999999,0.337574,0.93957,-0.1904104999999999,-0.074782,-0.0013799999999999,-0.0024784999999999,0.074782,0.0013799999999999,0.0024785,-0.122486,-0.19746,-0.2989935,0.171844,-0.19816,-0.2798235,-0.119216,-0.57125,-0.1681805,0.146004,-0.55908,-0.1524585,1
151,-0.0037874999999999,0.7165750000000001,-0.064223,-0.1488594999999999,0.482345,-0.0664579999999999,-0.2848695,0.694535,-0.141598,0.1474405,0.478575,-0.067414,0.2839005,0.7186950000000001,-0.118202,-0.3587195,0.934055,-0.233398,0.3378305,0.942395,-0.179313,-0.0740925,-0.0013249999999999,-0.0019599999999999,0.0740925,0.0013249999999999,0.00196,-0.1223794999999999,-0.212385,-0.2875379999999999,0.1713605,-0.212335,-0.269098,-0.1191195,-0.590635,-0.161572,0.1469205,-0.579635,-0.146562,1
152,-0.003496,0.7188,-0.057684,-0.1484309999999999,0.48341,-0.060551,-0.284981,0.6964600000000001,-0.133411,0.1478689999999999,0.47985,-0.061122,0.283579,0.7213700000000001,-0.109595,-0.3593409999999999,0.93697,-0.223305,0.338219,0.94995,-0.169012,-0.07328,-0.00114,-0.001652,0.07328,0.00114,0.001652,-0.122251,-0.2255299999999999,-0.275905,0.1704689999999999,-0.2249199999999999,-0.258295,-0.119131,-0.60766,-0.154989,0.1477089999999999,-0.59819,-0.141006,1
153,-0.0031469999999999,0.7215950000000001,-0.051805,-0.1479589999999999,0.4848449999999999,-0.055369,-0.285169,0.6982550000000001,-0.125767,0.148381,0.4823949999999999,-0.055187,0.283311,0.7246750000000001,-0.101222,-0.360029,0.939835,-0.213996,0.338381,0.954655,-0.159384,-0.072481,-0.001085,-0.001516,0.072481,0.001085,0.001516,-0.1221189999999999,-0.237935,-0.264336,0.169281,-0.236355,-0.247396,-0.119189,-0.6228849999999999,-0.148788,0.148491,-0.6150049999999999,-0.135657,1
154,-0.0028434999999999,0.7240885,-0.0468095,-0.1478205,0.4866785,-0.0502855,-0.2854204999999999,0.7028785,-0.1193525,0.1487795,0.4847884999999999,-0.0499875,0.2830795,0.7276285,-0.0937665,-0.3606205,0.9431485,-0.2053905,0.3385995,0.9605485,-0.1506185,-0.0717575,-0.0009014999999999,-0.0014185,0.0717575,0.0009014999999999,0.0014185,-0.1217004999999999,-0.2525714999999999,-0.2532305,0.1680295,-0.2532315,-0.2367305,-0.1188605,-0.6383615,-0.1430115,0.1491895,-0.6309415,-0.1307055,1
155,-0.002692,0.726631,-0.0415364999999999,-0.14783,0.487551,-0.0448364999999999,-0.28589,0.707531,-0.1123644999999999,0.14921,0.487741,-0.0444804999999999,0.28264,0.730571,-0.0860414999999999,-0.36146,0.945431,-0.1958635,0.33821,0.967331,-0.1409605,-0.071234,-0.000934,-0.0011734999999999,0.071234,0.0009339999999999,0.0011735,-0.12143,-0.268139,-0.2398835,0.16608,-0.270579,-0.2241334999999999,-0.11879,-0.655009,-0.1369604999999999,0.14972,-0.648529,-0.1251875,1
156,-0.0029444999999999,0.727222,-0.0327264999999999,-0.1483435,0.486992,-0.0354565,-0.2865935,0.706282,-0.1014075,0.1494665,0.4882519999999999,-0.0352824999999999,0.2817765,0.729282,-0.0746505,-0.3626035,0.945302,-0.1829345,0.3374365,0.970412,-0.1287015,-0.0707305,-0.000746,-0.0009124999999999,0.0707305,0.0007459999999999,0.0009125,-0.1211534999999999,-0.283488,-0.2225444999999999,0.1635964999999999,-0.286978,-0.2075345,-0.1191135,-0.670538,-0.1274885,0.1497865,-0.665108,-0.1157634999999999,1
157,-0.0030569999999999,0.72844,-0.023893,-0.1495159999999999,0.48908,-0.0259889999999999,-0.287386,0.7066899999999999,-0.090348,0.149714,0.49046,-0.0259889999999999,0.281344,0.72963,-0.06312,-0.363876,0.94831,-0.1685579999999999,0.336734,0.97433,-0.11638,-0.070386,-0.0006759999999999,-0.0006029999999999,0.070386,0.000676,0.0006029999999999,-0.119766,-0.29918,-0.2016379999999999,0.160204,-0.30306,-0.186968,-0.119356,-0.6866500000000001,-0.116883,0.150004,-0.68217,-0.105654,1
158,-0.0032219999999999,0.7286954999999999,-0.0145525,-0.150675,0.4911554999999999,-0.0161555,-0.2881649999999999,0.7077355,-0.0787085,0.149955,0.4932255,-0.0161165,0.281055,0.7303755,-0.0515675,-0.365075,0.9497655,-0.1534265,0.336015,0.9784155,-0.1037495,-0.069967,-0.0003924999999999,-0.0002554999999999,0.069967,0.0003925,0.0002554999999999,-0.118455,-0.3165545,-0.1799265,0.156515,-0.3201245,-0.1652664999999999,-0.119415,-0.7040445000000001,-0.1053804999999999,0.150195,-0.7003245,-0.0954865,1
159,-0.0034035,0.7293565000000001,-0.005599,-0.1520165,0.4920565,-0.00667,-0.2883965,0.7094765000000001,-0.067563,0.1502835,0.4917865,-0.006997,0.2806435,0.7332465,-0.040549,-0.3658065,0.9500765,-0.139057,0.3353035,0.9787465,-0.091836,-0.0695555,6.149999999999906e-05,-4.500000000000337e-05,0.0695555,-6.149999999999906e-05,4.499999999999643e-05,-0.1173965,-0.3318835,-0.159127,0.1530835,-0.3363835,-0.144527,-0.1195265,-0.7194635,-0.094558,0.1503235,-0.7166935,-0.086134,1
160,-0.0036709999999999,0.7301765,0.0025825,-0.1535579999999999,0.4923065,0.0021035,-0.288858,0.7098065,-0.0572105,0.1504619999999999,0.4928465,0.0013195,0.280092,0.7362365,-0.0309774999999999,-0.366638,0.9521465,-0.1251705,0.334482,0.9808865,-0.0805325,-0.069344,0.0002515,0.0001985,0.069344,-0.0002515,-0.0001984999999999,-0.116908,-0.3439235,-0.1396265,0.149542,-0.3499535,-0.1249185,-0.1197879999999999,-0.7317235000000001,-0.0848895,0.1501819999999999,-0.7289535,-0.0768875,1
161,-0.00398,0.7297395,0.0102429999999999,-0.155202,0.4924095,0.0106589999999999,-0.289592,0.7097694999999999,-0.04684,0.1503779999999999,0.4937695,0.009245,0.279568,0.7388895,-0.02162,-0.367462,0.9500495,-0.1110589999999999,0.333918,0.9773795,-0.068861,-0.069219,0.0003195,0.00066,0.069219,-0.0003194999999999,-0.00066,-0.116412,-0.3539604999999999,-0.121113,0.146168,-0.3618004999999999,-0.106001,-0.120192,-0.7421305,-0.075632,0.149928,-0.7397905,-0.06774,1
162,-0.0041395,0.728503,0.0177035,-0.1566175,0.492233,0.0191334999999999,-0.2900875,0.708283,-0.0365525,0.1503725,0.494083,0.0169855,0.2792925,0.740733,-0.0126765,-0.3679575,0.948633,-0.0969065,0.3334725,0.974233,-0.0569965,-0.0691485,0.00038,0.0011444999999999,0.0691485,-0.0003799999999999,-0.0011445,-0.1159075,-0.364137,-0.1030205,0.1429725,-0.374027,-0.0874695,-0.1204675,-0.752147,-0.0663785,0.1499424999999999,-0.7508670000000001,-0.0591885,1
163,-0.004249,0.7274579999999999,0.024886,-0.158,0.492288,0.027225,-0.29022,0.7066479999999999,-0.0263879999999999,0.1503399999999999,0.492708,0.024414,0.27895,0.742448,-0.004069,-0.36838,0.948038,-0.083037,0.33308,0.971618,-0.045399,-0.069188,0.000487,0.001536,0.069188,-0.0004869999999999,-0.0015359999999999,-0.11559,-0.374552,-0.085467,0.14003,-0.386852,-0.069646,-0.12068,-0.761842,-0.057455,0.1499599999999999,-0.7619520000000001,-0.050548,1
164,-0.004506,0.7254659999999999,0.031633,-0.159436,0.492356,0.034993,-0.290426,0.7055859999999999,-0.0168709999999999,0.150174,0.491486,0.03145,0.278604,0.743236,0.003935,-0.368826,0.948396,-0.070132,0.332144,0.967896,-0.03507,-0.069218,0.000594,0.001896,0.069218,-0.0005939999999999,-0.001896,-0.115376,-0.384824,-0.070067,0.137574,-0.399444,-0.053534,-0.120896,-0.771104,-0.048909,0.149844,-0.772234,-0.042115,1
165,-0.0046134999999999,0.725162,0.034193,-0.1606535,0.4938819999999999,0.038398,-0.2902635,0.706162,-0.0115179999999999,0.1501664999999999,0.492012,0.034123,0.2784965,0.7454419999999999,0.007614,-0.3691635,0.949132,-0.06162,0.3313665,0.966052,-0.028929,-0.0693855,0.000654,0.002224,0.0693855,-0.0006539999999999,-0.002224,-0.1152135,-0.392978,-0.0593809999999999,0.1356065,-0.410238,-0.042514,-0.1210734999999999,-0.778278,-0.043734,0.1498765,-0.780548,-0.038357,1
166,-0.0047085,0.7238564999999999,0.0367025,-0.1609644999999999,0.4930365,0.0415124999999999,-0.2901345,0.7057065,-0.0062644999999999,0.1500655,0.4907364999999999,0.0364955,0.2784755,0.7462165000000001,0.0112865,-0.3695045,0.9477665,-0.0542565,0.3305455,0.9642265,-0.0231365,-0.0696084999999999,0.0008525,0.0024505,0.0696084999999999,-0.0008524999999999,-0.0024504999999999,-0.1155245,-0.3969035,-0.0522065,0.1347954999999999,-0.4146235,-0.0355034999999999,-0.1211845,-0.7822035,-0.0393685,0.1499255,-0.7860834999999999,-0.0353605,1
167,-0.0046959999999999,0.723035,0.0385245,-0.161096,0.492895,0.0438605,-0.290156,0.7049249999999999,-0.0019384999999999,0.150214,0.489685,0.0380895,0.278424,0.7452949999999999,0.0142575,-0.369686,0.947735,-0.0481265,0.329934,0.963075,-0.0186945,-0.069949,0.0008509999999999,0.0025585,0.069949,-0.000851,-0.0025585,-0.1156459999999999,-0.398855,-0.0462965,0.134464,-0.417055,-0.0299534999999999,-0.1211459999999999,-0.784155,-0.0355845,0.150104,-0.788745,-0.0330265,1
168,-0.0046525,0.7223900000000001,0.0402875,-0.1611815,0.49282,0.0461515,-0.2902114999999999,0.7044300000000001,0.0023325,0.1503785,0.48878,0.0395025,0.2785284999999999,0.74502,0.0168965,-0.3697215,0.94781,-0.0419615,0.3293085,0.9622000000000002,-0.0143235,-0.0702825,0.000827,0.0027255,0.0702825,-0.0008269999999999,-0.0027254999999999,-0.1157914999999999,-0.40033,-0.0402355,0.1342185,-0.41894,-0.0242404999999999,-0.1211415,-0.78563,-0.0316025,0.1503385,-0.79091,-0.0306665,1
169,-0.00467,0.7220034999999999,0.041819,-0.161332,0.4927535,0.047973,-0.290312,0.7036534999999999,0.005982,0.150308,0.4880334999999999,0.040418,0.2787079999999999,0.7442835,0.019022,-0.369532,0.9479935,-0.0366579999999999,0.328738,0.9616635,-0.0106409999999999,-0.070515,0.0008184999999999,0.002762,0.070515,-0.0008184999999999,-0.002762,-0.116342,-0.4006665,-0.035193,0.1340579999999999,-0.4199265,-0.019141,-0.1212419999999999,-0.7864665000000001,-0.0279129999999999,0.150518,-0.7925465,-0.0285089999999999,1
170,-0.0046849999999999,0.7216724999999999,0.043186,-0.161356,0.4921924999999999,0.04938,-0.290176,0.7030425,0.008963,0.150224,0.4871924999999999,0.0412649999999999,0.278724,0.7439125,0.020736,-0.369486,0.9483725,-0.032308,0.328284,0.9613225,-0.0077389999999999,-0.070641,0.0007855,0.002744,0.070641,-0.0007855,-0.002744,-0.116956,-0.4008475,-0.0304779999999999,0.133874,-0.4204274999999999,-0.014363,-0.1213559999999999,-0.7868275,-0.024321,0.150634,-0.7933875,-0.0264529999999999,1
171,-0.0047115,0.7212784999999999,0.0443095,-0.1614455,0.4916585,0.0505815,-0.2902455,0.7024185,0.0114515,0.1501144999999999,0.4864885,0.0418905,0.2787245,0.7433985,0.0222045,-0.3696155,0.9481485,-0.0292375,0.3278645,0.9609585,-0.0051555,-0.0707085,0.0007824999999999,0.0027225,0.0707085,-0.0007824999999999,-0.0027224999999999,-0.1175855,-0.4009315,-0.0261865,0.1336645,-0.4208015,-0.0100484999999999,-0.1215454999999999,-0.7871315,-0.0209475,0.1507045,-0.7941515,-0.0245125,1
172,-0.0048109999999999,0.7210850000000001,0.0454295,-0.161678,0.4912249999999999,0.0516925,-0.290368,0.701855,0.0133495,0.149932,0.485965,0.0423485,0.2785019999999999,0.742345,0.0235905,-0.369758,0.947765,-0.0269795,0.3274519999999999,0.960595,-0.0028205,-0.070708,0.000773,0.0027205,0.070708,-0.0007729999999999,-0.0027205,-0.118148,-0.401015,-0.0224895,0.133492,-0.420975,-0.0060265,-0.1217679999999999,-0.7870849999999999,-0.0178055,0.150712,-0.794715,-0.0226604999999999,1
173,-0.0049455,0.7211195,0.0463014999999999,-0.1618045,0.4907694999999999,0.0526805,-0.2904745,0.7016395,0.0149314999999999,0.1497554999999999,0.4855095,0.0427844999999999,0.2782555,0.7416294999999999,0.0249684999999999,-0.3698845,0.9479495,-0.0252585,0.3270855,0.9608395,-0.0006895,-0.0707165,0.0007484999999999,0.0027214999999999,0.0707165,-0.0007484999999999,-0.0027215,-0.1187045,-0.4004205,-0.0189435,0.1335255,-0.4211305,-0.0021605,-0.1219945,-0.7861605,-0.0148315,0.1507355,-0.7948605,-0.0207485,0
174,-0.0051994999999999,0.7213545,0.0468565,-0.1620255,0.4906545,0.0532315,-0.2906055,0.7015245,0.0158895,0.1494845,0.4853945,0.0428625,0.2777745,0.7411045,0.0259935,-0.3700555,0.9481145,-0.0243025,0.3267445,0.9610245,0.0006995,-0.0707875,0.0007025,0.0027445,0.0707875,-0.0007024999999999,-0.0027445,-0.1191754999999999,-0.3995654999999999,-0.0164325,0.1337045,-0.4210454999999999,0.0012685,-0.1221754999999999,-0.7854355,-0.0128994999999999,0.1507445,-0.7946155,-0.0191304999999999,0
175,-0.0055405,0.7215945,0.0472574999999999,-0.1621535,0.4904445,0.0533735,-0.2909035,0.7015245,0.0167285,0.1491265,0.4850744999999999,0.0429465,0.2776465,0.7402645,0.0268445,-0.3704435,0.9481145,-0.0234695,0.3264265,0.9610245,0.0015384999999999,-0.0708835,0.0007025,0.0026694999999999,0.0708835,-0.0007024999999999,-0.0026695,-0.1195435,-0.3987254999999999,-0.0152575,0.1339165,-0.4214055,0.0041984999999999,-0.1223035,-0.7849555,-0.0115175,0.1507365,-0.7943155,-0.0177495,0
176,-0.0060554999999999,0.7217645,0.0476339999999999,-0.1624025,0.4898745,0.0534719999999999,-0.2915025,0.7015245,0.0176339999999999,0.1487075,0.4848945,0.043139,0.2774675,0.7394945,0.0277759999999999,-0.3710325,0.9481145,-0.022564,0.3259375,0.9610245,0.0024509999999999,-0.0709965,0.0007025,0.0025689999999999,0.0709965,-0.0007024999999999,-0.002569,-0.1199025,-0.3979654999999999,-0.014337,0.1339675,-0.4218055,0.0069219999999999,-0.1224925,-0.7843755,-0.00998,0.1506475,-0.7939955,-0.016339,0
177,-0.0068105,0.7218745,0.047697,-0.1626395,0.4889945,0.053496,-0.2925995,0.7013745,0.017792,0.1482905,0.4849145,0.043422,0.2772205,0.7375945,0.028704,-0.3718495,0.9480945,-0.022339,0.3252905,0.9610245,0.0033519999999999,-0.0710705,0.0007025,0.002397,0.0710705,-0.0007024999999999,-0.002397,-0.1201895,-0.3974654999999999,-0.013412,0.1339305,-0.4222154999999999,0.0089949999999999,-0.1227695,-0.7838355,-0.008617,0.1505205,-0.7936854999999999,-0.015166,0
178,-0.007968,0.7220329999999999,0.047282,-0.162767,0.487753,0.053385,-0.295707,0.699673,0.016121,0.147973,0.485023,0.043956,0.277703,0.735543,0.02937,-0.373027,0.946413,-0.0242599999999999,0.324353,0.960233,0.003591,-0.071113,0.000613,0.002135,0.071113,-0.000613,-0.0021349999999999,-0.120377,-0.396807,-0.0123679999999999,0.133923,-0.4226069999999999,0.010455,-0.122917,-0.7827770000000001,-0.0071759999999999,0.150493,-0.793267,-0.013987,0
179,-0.0093619999999999,0.7221865,0.046572,-0.16333,0.4864865,0.052435,-0.30025,0.6953065,0.01356,0.14756,0.4851765,0.044531,0.27878,0.7287065,0.029848,-0.3748599999999999,0.9392865,-0.028933,0.32327,0.9578865,0.002725,-0.071093,0.0005105,0.001823,0.071093,-0.0005104999999999,-0.0018229999999999,-0.12054,-0.3961035,-0.011462,0.13385,-0.4229435,0.011586,-0.12296,-0.7816735,-0.0056819999999999,0.15045,-0.7928335,-0.01276,0
180,-0.0110995,0.7223305,0.0455875,-0.1644315,0.4851705,0.0510435,-0.3066515,0.6872905,0.0104145,0.1470585,0.4848805,0.0451805,0.2804785,0.7197705,0.0302615,-0.3783015,0.9257105,-0.0349634999999999,0.3222085,0.9524605,0.0003744999999999,-0.0710755,0.0004014999999999,0.0015515,0.0710755,-0.0004014999999999,-0.0015515,-0.1207314999999999,-0.3953795,-0.0113485,0.1337685,-0.4231995,0.0128495,-0.1229315,-0.7808095,-0.0043305,0.1504085,-0.7923095,-0.0114395,0
181,-0.0130764999999999,0.7225865,0.0444465,-0.1660775,0.4836065,0.0493355,-0.3149475,0.6753665000000001,0.0070595,0.1465024999999999,0.4845765,0.0460924999999999,0.2832325,0.7079165000000001,0.0308285,-0.3819975,0.9086065,-0.0414065,0.3211925,0.9448465,-0.0027155,-0.0710795,0.0002645,0.0011954999999999,0.0710795,-0.0002645,-0.0011955,-0.1209475,-0.3945735,-0.0115865,0.1337025,-0.4228335,0.0142814999999999,-0.1230174999999999,-0.7803935,-0.0029145,0.1503425,-0.7918434999999999,-0.0100075,0
182,-0.015171,0.723086,0.043315,-0.168275,0.482086,0.0476879999999999,-0.324525,0.659316,0.0038949999999999,0.146025,0.484436,0.0472299999999999,0.287905,0.696326,0.0312079999999999,-0.3856549999999999,0.887556,-0.047922,0.319935,0.929896,-0.007022,-0.071154,8.199999999999874e-05,0.0007279999999999,0.071154,-8.199999999999874e-05,-0.000728,-0.1209949999999999,-0.393684,-0.012232,0.133735,-0.422604,0.0157869999999999,-0.1229349999999999,-0.779894,-0.001229,0.150455,-0.7913439999999999,-0.008288,0
183,-0.0173555,0.7241915000000001,0.041647,-0.1703144999999999,0.4800215,0.04617,-0.3323745,0.6357415,0.001677,0.1452155,0.4850115,0.048534,0.2910755,0.6772315,0.032562,-0.3866145,0.8579915,-0.0564839999999999,0.3194255,0.9080315,-0.0128659999999999,-0.0712975,-0.0001664999999999,0.000182,0.0712975,0.0001664999999999,-0.0001819999999999,-0.1206344999999999,-0.3918885,-0.0131039999999999,0.1339455,-0.4215485,0.017055,-0.1221645,-0.7785785000000001,0.001248,0.1512555,-0.7900285,-0.0055909999999999,0
184,-0.019004,0.7258985,0.0387865,-0.171361,0.4775885,0.0445124999999999,-0.330771,0.6024984999999999,0.0008815,0.144279,0.4858285,0.0495175,0.292639,0.6492184999999999,0.0354805,-0.383751,0.8170784999999999,-0.0681644999999999,0.315159,0.8756984999999999,-0.0213385,-0.07146,-0.0004344999999999,-0.0002634999999999,0.07146,0.0004344999999999,0.0002634999999999,-0.119741,-0.3897915,-0.0141794999999999,0.134469,-0.4197615,0.0182785,-0.1203109999999999,-0.7764815,0.0038385,0.152969,-0.7879315,-0.0019745,0
185,-0.019539,0.727349,0.0354824999999999,-0.171483,0.4756689999999999,0.0434924999999999,-0.327863,0.5640390000000001,0.0002264999999999,0.143487,0.486729,0.0504834999999999,0.294927,0.6182190000000001,0.0396845,-0.380083,0.769509,-0.0805845,0.312227,0.838009,-0.0319525,-0.0716209999999999,-0.000696,-0.0008835,0.0716209999999999,0.0006959999999999,0.0008834999999999,-0.118423,-0.387451,-0.0150355,0.135027,-0.418291,0.0183994999999999,-0.117833,-0.774381,0.0067634999999999,0.155637,-0.785721,0.0020524999999999,0
186,-0.0182694999999999,0.7288125000000001,0.0310175,-0.1704485,0.4737324999999999,0.0415235,-0.3242685,0.5155425,0.0004405,0.1427315,0.4871625,0.0517705,0.2977215,0.5778825000000001,0.0450155,-0.3754085,0.7069924999999999,-0.0971524999999999,0.3107515,0.7873725,-0.0445394999999999,-0.0716735,-0.0008975,-0.0017534999999999,0.0716735,0.0008975,0.0017535,-0.1171485,-0.3845975,-0.0150384999999999,0.1375715,-0.4162275,0.0155655,-0.1148585,-0.7724675000000001,0.0103714999999999,0.1590915,-0.7834475000000001,0.0057455,0
187,-0.0157375,0.7306885000000001,0.0251594999999999,-0.1691035,0.4713584999999999,0.0371385,-0.3211935,0.4641585,0.0027314999999999,0.1417665,0.4865084999999999,0.0523675,0.2992765,0.5342484999999999,0.0514945,-0.3698935,0.6308085000000001,-0.1117835,0.3101865,0.7260685,-0.0574635,-0.0715995,-0.0009575,-0.0028935,0.0715995,0.0009575,0.0028935,-0.1163435,-0.3815715,-0.0135525,0.1411764999999999,-0.4125415,0.0096025,-0.1124035,-0.7697415000000001,0.0151504999999999,0.1625164999999999,-0.7801514999999999,0.0042984999999999,0
188,-0.012898,0.7327480000000001,0.0190035,-0.167512,0.4690479999999999,0.0331884999999999,-0.317462,0.4146579999999999,0.0063474999999999,0.140898,0.4863679999999999,0.0532194999999999,0.298758,0.4946179999999999,0.0586065,-0.362492,0.554098,-0.1231305,0.309538,0.6629280000000001,-0.0689605,-0.071542,-0.0009869999999999,-0.0040894999999999,0.071542,0.0009869999999999,0.0040894999999999,-0.115712,-0.378752,-0.0114505,0.144138,-0.408502,0.0016385,-0.1107819999999999,-0.7670819999999999,0.0204774999999999,0.168188,-0.7761119999999999,-0.0023425,0
189,-0.0111565,0.7348925,0.012516,-0.1659135,0.4667925,0.028954,-0.3113135,0.3695925,0.011275,0.1402765,0.4862425,0.0539479999999999,0.2952065,0.4558625,0.066698,-0.3523035,0.4777325,-0.1314159999999999,0.3090965,0.5963825,-0.078086,-0.0714035,-0.0010334999999999,-0.005538,0.0714035,0.0010334999999999,0.005538,-0.1156934999999999,-0.3767875,-0.008635,0.1461065,-0.4041775,-0.0083769999999999,-0.1103134999999999,-0.7643875,0.0264379999999999,0.1740365,-0.7717875,-0.009913,0
190,-0.01061,0.7368439999999999,0.0058695,-0.165503,0.464514,0.0244765,-0.302193,0.328084,0.0164765,0.139787,0.485984,0.0546735,0.289087,0.419684,0.0753055,-0.337993,0.400654,-0.1400035,0.309627,0.528724,-0.0844234999999999,-0.071243,-0.0010039999999999,-0.0071694999999999,0.071243,0.001004,0.0071695,-0.116233,-0.374486,-0.0051954999999999,0.146957,-0.399486,-0.0195894999999999,-0.111093,-0.762036,0.0329205,0.181767,-0.767306,-0.0211475,0
191,-0.0096835,0.73829,-0.0009904999999999,-0.1652155,0.46219,0.0200054999999999,-0.2902154999999999,0.2908099999999999,0.0222065,0.1397445,0.4848099999999999,0.0553495,0.2833044999999999,0.37865,0.0834955,-0.3210555,0.3247899999999999,-0.1476135,0.3099645,0.46836,-0.0896535,-0.0711555,-0.000917,-0.0085004999999999,0.0711555,0.0009169999999999,0.0085005,-0.1164755,-0.37267,-0.0015145,0.1498344999999999,-0.39425,-0.0324735,-0.1119854999999999,-0.75934,0.0403685,0.1928145,-0.7605000000000001,-0.0368735,0
192,-0.0068809999999999,0.7390205,-0.007541,-0.164709,0.4602305,0.015153,-0.274369,0.2609305,0.0267049999999999,0.139711,0.4824205,0.05576,0.278071,0.3441105,0.0921999999999999,-0.2988989999999999,0.2551205,-0.150521,0.310121,0.4093005,-0.092081,-0.071064,-0.0007655,-0.009921,0.071064,0.0007654999999999,0.009921,-0.116769,-0.3714195,0.0030159999999999,0.1544309999999999,-0.3891195,-0.045531,-0.112649,-0.7568095,0.0487599999999999,0.206191,-0.7522995,-0.055871,0
193,-0.0021664999999999,0.738734,-0.0130365,-0.1625645,0.458524,0.0105335,-0.2549945,0.241144,0.0305755,0.1396555,0.479794,0.0566615,0.2755355,0.317914,0.1009045,-0.2724645,0.193814,-0.1480365,0.3107555,0.356374,-0.0904965,-0.0709705,-0.000707,-0.0113665,0.0709705,0.0007069999999999,0.0113665,-0.1170645,-0.3707959999999999,0.0076935,0.1607055,-0.383256,-0.0589865,-0.1132845,-0.753426,0.0586345,0.2225055,-0.7423460000000001,-0.0783865,0
194,0.0034974999999999,0.73828,-0.0181999999999999,-0.1594235,0.45664,0.00499,-0.2334735,0.22688,0.033707,0.1396265,0.47712,0.056944,0.2754365,0.29593,0.111538,-0.2470635,0.13951,-0.1429699999999999,0.3104965,0.30868,-0.08513,-0.0708215,-0.000722,-0.01259,0.0708215,0.0007219999999999,0.01259,-0.1183435,-0.37013,0.0124,0.1668464999999999,-0.3767,-0.0713999999999999,-0.1153735,-0.74966,0.069548,0.2398664999999999,-0.73076,-0.1023299999999999,0
195,0.0099784999999999,0.7376050000000001,-0.021925,-0.1565775,0.4550349999999999,0.0006649999999999,-0.2133475,0.222565,0.036068,0.1403725,0.474635,0.0573139999999999,0.2711125,0.2840749999999999,0.123512,-0.2242375,0.1001949999999999,-0.133445,0.3102525,0.2743049999999999,-0.076825,-0.0706865,-0.000788,-0.0134249999999999,0.0706865,0.000788,0.0134249999999999,-0.1206875,-0.368955,0.0174249999999999,0.1726725,-0.370815,-0.080995,-0.1197075,-0.746085,0.0816949999999999,0.2573824999999999,-0.720175,-0.126725,0
196,0.0174894999999999,0.7360549999999999,-0.02487,-0.1542075,0.454105,-0.00184,-0.2021774999999999,0.222185,0.0361899999999999,0.1425525,0.472805,0.0573309999999999,0.2646125,0.275475,0.131994,-0.2038974999999999,0.0733989999999999,-0.12484,0.3177724999999999,0.251885,-0.07008,-0.0705235,-0.000863,-0.01385,0.0705235,0.000863,0.0138499999999999,-0.1239575,-0.3669449999999999,0.0214599999999999,0.1788425,-0.365765,-0.08848,-0.1261975,-0.7431150000000001,0.0935939999999999,0.2738825,-0.7100650000000001,-0.14638,0
197,0.0276225,0.7336775,-0.029155,-0.1499494999999999,0.4536775,-0.006155,-0.1921695,0.2221675,0.0350249999999999,0.1476205,0.4708075,0.0554149999999999,0.2559305,0.2675675,0.134564,-0.1904195,0.0527575,-0.113075,0.3275405,0.2298974999999999,-0.065515,-0.0703054999999999,-0.0005425,-0.014035,0.0703054999999999,0.0005425,0.0140349999999999,-0.1292094999999999,-0.3638725,0.0263949999999999,0.1848205,-0.3598525,-0.094645,-0.1369195,-0.7400425,0.1080999999999999,0.2859505,-0.6994725,-0.160745,0
198,0.0386329999999999,0.7303495,-0.03489,-0.145482,0.4539895,-0.01052,-0.186272,0.2235595,0.0330699999999999,0.154648,0.4679895,0.0514399999999999,0.252988,0.2599195,0.1321119999999999,-0.181202,0.0390085,-0.10206,0.3386679999999999,0.2133095,-0.06417,-0.070315,0.0007235,-0.01371,0.070315,-0.0007235,0.01371,-0.135222,-0.3616405,0.0312999999999999,0.188348,-0.3545605,-0.0988199999999999,-0.150022,-0.7372305,0.12308,0.2950979999999999,-0.6892705,-0.17426,0
199,0.0502089999999999,0.726168,-0.041585,-0.1389719999999999,0.454908,-0.016075,-0.181462,0.224778,0.0302149999999999,0.162708,0.464188,0.046295,0.253948,0.251608,0.128529,-0.176112,0.027241,-0.0903449999999999,0.352188,0.196648,-0.0683049999999999,-0.070412,0.001942,-0.0130949999999999,0.070412,-0.001942,0.0130949999999999,-0.142062,-0.3604219999999999,0.0363449999999999,0.1904179999999999,-0.350552,-0.1019549999999999,-0.165082,-0.735152,0.137776,0.2994279999999999,-0.679882,-0.1834849999999999,0
200,0.0634015,0.7219255,-0.0503299999999999,-0.1310545,0.4559755,-0.0228399999999999,-0.1771585,0.2264055,0.02644,0.1724515,0.4604355,0.03843,0.2619415,0.2491155,0.116898,-0.1743984999999999,0.0236675,-0.0772799999999999,0.3662515,0.1791055,-0.07538,-0.0704015,0.0030095,-0.0128399999999999,0.0704015,-0.0030095,0.01284,-0.1489185,-0.3585945,0.04106,0.1906415,-0.3472945,-0.1035399999999999,-0.1815284999999999,-0.7308344999999999,0.151551,0.2989715,-0.6741945,-0.1875899999999999,0
201,0.0796725,0.7176779999999999,-0.06236,-0.1195205,0.456748,-0.0320999999999999,-0.1717875,0.228208,0.02298,0.1841025,0.456878,0.02787,0.2734625,0.246418,0.1000699999999999,-0.1755975,0.0240529999999999,-0.06774,0.3828925,0.166538,-0.08608,-0.0704125,0.0037819999999999,-0.01269,0.0704125,-0.003782,0.01269,-0.1562085,-0.354182,0.04504,0.1893125,-0.3444419999999999,-0.1043599999999999,-0.2010275,-0.724422,0.163982,0.2936825,-0.6706620000000001,-0.18736,0
202,0.0982305,0.713231,-0.0771,-0.1056665,0.456741,-0.04307,-0.1652354999999999,0.230081,0.01904,0.1970104999999999,0.452661,0.01449,0.2887105,0.243171,0.0777,-0.1822535,0.0240459999999999,-0.06051,0.4014405,0.159611,-0.1048399999999999,-0.0705504999999999,0.004427,-0.0125699999999999,0.0705505,-0.004427,0.0125699999999999,-0.1640055,-0.349949,0.04863,0.1859805,-0.343119,-0.10391,-0.2218395,-0.718699,0.172558,0.2825105,-0.669949,-0.1819899999999999,0
203,0.1173509999999999,0.708825,-0.0927699999999999,-0.090705,0.456725,-0.0546499999999999,-0.159485,0.231925,0.01609,0.210811,0.448255,-7.999999999996898e-05,0.306191,0.2411049999999999,0.05273,-0.185842,0.02355,-0.05323,0.4227409999999999,0.150715,-0.1271499999999999,-0.070691,0.005127,-0.01249,0.070691,-0.005127,0.01249,-0.171208,-0.346055,0.05163,0.1820409999999999,-0.342415,-0.1028999999999999,-0.240529,-0.7137049999999999,0.178879,0.269261,-0.6704049999999999,-0.1747599999999999,0
204,0.1368805,0.7043495000000001,-0.10923,-0.0748114999999999,0.4570395,-0.0668,-0.1537385,0.2338895,0.0136499999999999,0.2243204999999999,0.4435695,-0.01544,0.3239405,0.2382995,0.0260599999999999,-0.1901195,0.0225445,-0.04642,0.4450305,0.1414695,-0.15209,-0.0707204999999999,0.0061325,-0.01239,0.0707204999999999,-0.0061325,0.0123899999999999,-0.1787675,-0.3426005,0.0541199999999999,0.1771305,-0.3423105,-0.1012,-0.2591495,-0.7092704999999999,0.1830559999999999,0.2532305,-0.6714104999999999,-0.16561,0
205,0.1576749999999999,0.6992385,-0.126585,-0.056955,0.4578285,-0.079475,-0.146815,0.2392885,0.0115649999999999,0.238695,0.4384585,-0.031845,0.340815,0.2358085,-0.000115,-0.192915,0.0257835,-0.036315,0.4636749999999999,0.1315985,-0.175615,-0.070765,0.0079635,-0.011975,0.070765,-0.0079635,0.0119749999999999,-0.186407,-0.3391315,0.0560249999999999,0.169045,-0.3430815,-0.096675,-0.2770249999999999,-0.7053214999999999,0.1861849999999999,0.233835,-0.6732414999999999,-0.153805,0
206,0.1754849999999999,0.6945830000000001,-0.1421949999999999,-0.0422349999999999,0.458773,-0.0896549999999999,-0.141374,0.244983,0.009965,0.250495,0.433323,-0.0468149999999999,0.3566249999999999,0.232583,-0.0263849999999999,-0.192306,0.027974,-0.0298249999999999,0.4804349999999999,0.124603,-0.1989949999999999,-0.070735,0.010139,-0.0116249999999999,0.070735,-0.010139,0.0116249999999999,-0.192603,-0.335157,0.056205,0.1608349999999999,-0.3444569999999999,-0.091505,-0.290083,-0.695487,0.186535,0.2141249999999999,-0.676237,-0.1418849999999999,0
207,0.1921999999999999,0.6894535,-0.156625,-0.02694,0.4598435,-0.100395,-0.135747,0.2512235,0.0077249999999999,0.2608999999999999,0.4273835,-0.060595,0.3703299999999999,0.2290335,-0.0503649999999999,-0.191935,0.0298104999999999,-0.0248649999999999,0.49497,0.1218435,-0.219825,-0.07054,0.0125395,-0.0114049999999999,0.0705399999999999,-0.0125395,0.0114049999999999,-0.198341,-0.3319964999999999,0.0559149999999999,0.1523699999999999,-0.3467765,-0.0858749999999999,-0.301922,-0.6860365,0.185715,0.1941699999999999,-0.6797465,-0.129435,0
208,0.208135,0.683851,-0.1703449999999999,-0.013965,0.4610309999999999,-0.1095249999999999,-0.130235,0.259011,0.005205,0.270255,0.4211109999999999,-0.073735,0.384905,0.225681,-0.0757249999999999,-0.19391,0.032489,-0.0202949999999999,0.505595,0.118671,-0.2347249999999999,-0.070445,0.014931,-0.0110049999999999,0.070445,-0.014931,0.011005,-0.203009,-0.329669,0.054675,0.143545,-0.349589,-0.0796249999999999,-0.312128,-0.6763290000000001,0.184005,0.175175,-0.683349,-0.1171049999999999,0
