sb224sc-HT22-VT27/4dt907/src/data/labeled_files/A71_kinect.csv
FrameNo,nose_3d_x,nose_3d_y,nose_3d_z,left_shoulder_3d_x,left_shoulder_3d_y,left_shoulder_3d_z,left_elbow_3d_x,left_elbow_3d_y,left_elbow_3d_z,right_shoulder_3d_x,right_shoulder_3d_y,right_shoulder_3d_z,right_elbow_3d_x,right_elbow_3d_y,right_elbow_3d_z,left_wrist_3d_x,left_wrist_3d_y,left_wrist_3d_z,right_wrist_3d_x,right_wrist_3d_y,right_wrist_3d_z,left_hip_3d_x,left_hip_3d_y,left_hip_3d_z,right_hip_3d_x,right_hip_3d_y,right_hip_3d_z,left_knee_3d_x,left_knee_3d_y,left_knee_3d_z,right_knee_3d_x,right_knee_3d_y,right_knee_3d_z,left_ankle_3d_x,left_ankle_3d_y,left_ankle_3d_z,right_ankle_3d_x,right_ankle_3d_y,right_ankle_3d_z,activity_label
0,-0.038525,0.7618,0.0180065,-0.198607,0.50552,0.0273585,-0.249617,0.2516,0.0355705,0.146013,0.50425,0.0141515,0.214953,0.2380399999999999,0.0249455,-0.2368569999999999,0.021334,-0.0561204999999999,0.228763,0.016423,-0.0653084999999999,-0.061009,-0.003165,-0.0006424999999999,0.061009,0.003165,0.0006425,-0.118727,-0.36066,-0.0102004999999999,0.122903,-0.35203,0.0027725,-0.1532869999999999,-0.8618,0.0205255,0.191273,-0.90093,0.0389815,0
1,-0.0387664999999999,0.7618020000000001,0.0177564999999999,-0.1988835,0.5055620000000001,0.0270884999999999,-0.2493034999999999,0.2514619999999999,0.0360875,0.1458365,0.504452,0.0140684999999999,0.2151465,0.238262,0.0253424999999999,-0.2363535,0.023126,-0.0540645,0.2289065,0.0167749999999999,-0.0634085,-0.0610725,-0.003215,-0.0005585,0.0610725,0.003215,0.0005584999999999,-0.1188535,-0.360768,-0.0109275,0.1226965,-0.352048,0.0025255,-0.1552035,-0.861938,0.0181145,0.1858665,-0.8983479999999999,0.0321925,0
2,-0.039051,0.7617630000000001,0.017364,-0.199069,0.5055430000000001,0.026652,-0.248669,0.251633,0.03653,0.145691,0.5045630000000001,0.013735,0.215331,0.238123,0.026039,-0.235809,0.027024,-0.0502959999999999,0.229311,0.017154,-0.0583179999999999,-0.061072,-0.003194,-0.0005669999999999,0.061072,0.003194,0.0005669999999999,-0.118989,-0.360757,-0.0113629999999999,0.1224109999999999,-0.352127,0.002485,-0.155359,-0.8618269999999999,0.018778,0.186711,-0.8988069999999999,0.03345,0
3,-0.039559,0.761808,0.0166675,-0.1996119999999999,0.505668,0.0259394999999999,-0.247862,0.251238,0.0375825,0.145328,0.504908,0.0131905,0.215158,0.238028,0.0266155,-0.2355519999999999,0.027351,-0.0487675,0.229378,0.017528,-0.0539825,-0.061106,-0.003335,-0.0005705,0.061106,0.003335,0.0005705,-0.119352,-0.360892,-0.0120065,0.121978,-0.352122,0.0019985,-0.156612,-0.862212,0.0144455,0.179408,-0.899802,0.0372215,0
4,-0.039717,0.761851,0.016318,-0.1997219999999999,0.505741,0.025326,-0.247482,0.251001,0.037883,0.145208,0.505041,0.012983,0.215198,0.237921,0.028499,-0.2350219999999999,0.02874,-0.04604,0.228518,0.015738,-0.0520169999999999,-0.061187,-0.003384,-0.0007159999999999,0.061187,0.003384,0.000716,-0.119482,-0.3609489999999999,-0.0124029999999999,0.1218279999999999,-0.3521289999999999,0.001965,-0.1567619999999999,-0.8622690000000001,0.014112,0.181078,-0.895169,0.031521,0
5,-0.0397535,0.761705,0.0160249999999999,-0.1997565,0.505825,0.0247939999999999,-0.2471465,0.250685,0.038123,0.1451035,0.505135,0.0127089999999999,0.2152335,0.237775,0.02907,-0.2349265,0.028709,-0.045313,0.2279435,0.014888,-0.050472,-0.0612395,-0.003436,-0.000826,0.0612395,0.003436,0.0008259999999999,-0.1195364999999999,-0.361025,-0.01275,0.1217135,-0.352145,0.0017729999999999,-0.1564065,-0.862395,0.0133849999999999,0.1858334999999999,-0.896085,0.027488,0
6,-0.039977,0.761587,0.0157559999999999,-0.199901,0.505817,0.0242559999999999,-0.246901,0.250297,0.03859,0.145039,0.505267,0.0125679999999999,0.215109,0.237357,0.0294689999999999,-0.235081,0.030447,-0.043309,0.227359,0.014621,-0.048765,-0.0613019999999999,-0.003384,-0.001039,0.0613019999999999,0.003384,0.0010389999999999,-0.119741,-0.360963,-0.013112,0.123569,-0.352143,-0.000443,-0.158321,-0.862263,0.0123119999999999,0.1785189999999999,-0.851973,0.0231749999999999,0
7,-0.0401244999999999,0.7616015,0.01559,-0.2002595,0.5056815,0.023816,-0.2473795,0.2507815,0.036852,0.1448905,0.5051515,0.012135,0.2149505,0.2376615,0.028277,-0.2350295,0.0284654999999999,-0.046021,0.2273705,0.0141924999999999,-0.049998,-0.0612665,-0.0032995,-0.001093,0.0612665,0.0032995,0.001093,-0.1195794999999999,-0.3608985,-0.013228,0.1225005,-0.3521185,0.001707,-0.1572895,-0.8620585,0.0145619999999999,0.1835505,-0.8951385,0.029091,0
8,-0.040277,0.7615609999999999,0.0152945,-0.2004889999999999,0.5056309999999999,0.0231535,-0.247429,0.2506009999999999,0.0365055,0.144701,0.505261,0.0117935,0.2148209999999999,0.237581,0.0279335,-0.234889,0.028426,-0.0463745,0.227211,0.013966,-0.0503405,-0.061276,-0.003343,-0.0011885,0.061276,0.003343,0.0011884999999999,-0.119559,-0.360969,-0.0135775,0.122541,-0.352129,0.0016755,-0.157629,-0.862119,0.0141155,0.183211,-0.8945690000000001,0.0280675,0
9,-0.040427,0.7616040000000001,0.0152344999999999,-0.200746,0.505514,0.0224455,-0.247406,0.250654,0.0357485,0.1444939999999999,0.505364,0.0114375,0.214884,0.237504,0.0275674999999999,-0.234646,0.0281189999999999,-0.0467475,0.227164,0.013732,-0.0507035,-0.061271,-0.003372,-0.0012525,0.061271,0.003372,0.0012525,-0.119546,-0.361026,-0.0138495,0.122584,-0.352156,0.0016564999999999,-0.157916,-0.8621559999999999,0.0137655,0.183284,-0.894386,0.0274375,0
10,-0.040561,0.761683,0.0153875,-0.201067,0.5053730000000001,0.0216275,-0.247207,0.250843,0.0329725,0.1442129999999999,0.5054730000000001,0.0110375,0.214903,0.237893,0.0259955,-0.234047,0.028124,-0.0484144999999999,0.227903,0.0137209999999999,-0.0514134999999999,-0.061253,-0.003399,-0.0013045,0.061253,0.003399,0.0013045,-0.119567,-0.361077,-0.0141325,0.122583,-0.352177,0.0016245,-0.158227,-0.862197,0.0133675,0.1832329999999999,-0.894687,0.0269305,0
11,-0.04053,0.7618389999999999,0.0160645,-0.201356,0.5051789999999999,0.0208155,-0.246716,0.251679,0.0283595,0.143914,0.505559,0.0106434999999999,0.214884,0.239689,0.0219674999999999,-0.233196,0.028037,-0.0538035,0.229134,0.015214,-0.0556905,-0.06123,-0.003402,-0.0013235,0.06123,0.003402,0.0013234999999999,-0.119546,-0.361131,-0.0143975,0.122394,-0.352221,0.0015994999999999,-0.1584259999999999,-0.862221,0.0133544999999999,0.183594,-0.8949910000000001,0.0265184999999999,0
12,-0.0403795,0.762032,0.0172515,-0.2015265,0.505012,0.0198435,-0.2464765,0.253262,0.0211454999999999,0.1436135,0.505632,0.0103065,0.2148035,0.243992,0.0156644999999999,-0.2325165,0.0279419999999999,-0.0663874999999999,0.2311435,0.019058,-0.0655155,-0.0612155,-0.003395,-0.0013255,0.0612155,0.003395,0.0013255,-0.1194865,-0.361158,-0.0146185,0.1222435,-0.3522679999999999,0.0015814999999999,-0.1585865,-0.862218,0.0133334999999999,0.1840135,-0.895568,0.0261624999999999,0
13,-0.0401665,0.7622344999999999,0.0191184999999999,-0.2015935,0.5049144999999999,0.0187065,-0.2468435,0.2572345,0.0112694999999999,0.1433065,0.5056745,0.0099084999999999,0.2147365,0.2495345,0.0071845,-0.2320335,0.0299255,-0.0845905,0.2337165,0.0265615,-0.0793805,-0.0612005,-0.0034015,-0.0012755,0.0612005,0.0034015,0.0012754999999999,-0.1194234999999999,-0.3612155,-0.0148595,0.1220765,-0.3523255,0.0013144999999999,-0.1586935,-0.8622455,0.0134424999999999,0.1835564999999999,-0.8959055,0.0262545,0
14,-0.0398865,0.7625475,0.0217005,-0.2015665,0.5048375,0.0174665,-0.2476265,0.2625875,-0.0018944999999999,0.1430035,0.5057375000000001,0.0094665,0.2147135,0.2570075,-0.0053124999999999,-0.2332165,0.0359965,-0.1082264999999999,0.2352935,0.0360235,-0.1010765,-0.0612005,-0.0034065,-0.0012474999999999,0.0612005,0.0034065,0.0012475,-0.1193265,-0.3612525,-0.0150754999999999,0.1219534999999999,-0.3523725,0.0011045,-0.1588465,-0.8622725,0.0133265,0.1832835,-0.8968825,0.0265555,0
15,-0.0394999999999999,0.7628699999999999,0.0251014999999999,-0.2013899999999999,0.50478,0.0163404999999999,-0.24842,0.26968,-0.0183335,0.14264,0.50589,0.0089164999999999,0.2149,0.26628,-0.0202855,-0.23471,0.044868,-0.1403915,0.23623,0.054248,-0.1264414999999999,-0.0612189999999999,-0.00341,-0.0012645,0.0612189999999999,0.00341,0.0012644999999999,-0.11922,-0.36127,-0.0152985,0.12183,-0.3524,0.0009354999999999,-0.1590299999999999,-0.86228,0.0131004999999999,0.18302,-0.8978,0.0264014999999999,0
16,-0.039062,0.7632725,0.028964,-0.200753,0.5044425,0.015587,-0.248643,0.2790525,-0.037669,0.142087,0.5061925,0.008448,0.215357,0.2774925,-0.037782,-0.236313,0.0629585,-0.174849,0.238787,0.0796475,-0.157899,-0.061262,-0.0034154999999999,-0.001322,0.061262,0.0034155,0.001322,-0.1191229999999999,-0.3612875,-0.015521,0.121737,-0.3524275,0.000702,-0.159263,-0.8622875,0.012516,0.182477,-0.8979374999999999,0.026524,0
17,-0.0385425,0.763628,0.0332849999999999,-0.1998495,0.504378,0.0147059999999999,-0.2497695,0.291888,-0.060188,0.1413505,0.506598,0.0081529999999999,0.2159005,0.291738,-0.058294,-0.2395195,0.090462,-0.211764,0.2395505,0.109028,-0.197144,-0.0613145,-0.003406,-0.001401,0.0613145,0.003406,0.0014009999999999,-0.1190794999999999,-0.361302,-0.015865,0.1215805,-0.352432,0.0003749999999999,-0.1595695,-0.862302,0.0117379999999999,0.1821904999999999,-0.898372,0.0263769999999999,0
18,-0.0379415,0.7639015,0.0379995,-0.1981675,0.5043715,0.0137145,-0.2509375,0.3095115,-0.0838405,0.1404725,0.5071815,0.0081325,0.2164625,0.3101615,-0.0803305,-0.2395175,0.1224115,-0.2524705,0.2394625,0.1465015,-0.2384905,-0.0613724999999999,-0.0033795,-0.0015055,0.0613724999999999,0.0033795,0.0015055,-0.1190575,-0.3613085,-0.0162665,0.1214524999999999,-0.3525185,-2.1499999999997216e-05,-0.1598675,-0.8623085,0.0109445,0.1817125,-0.8990685,0.0261195,0
19,-0.0372924999999999,0.76421,0.042877,-0.1948474999999999,0.5043799999999999,0.013055,-0.2520275,0.32745,-0.10585,0.1395325,0.50783,0.00824,0.2172225,0.33341,-0.10379,-0.2400074999999999,0.1556999999999999,-0.29178,0.2377325,0.18958,-0.27809,-0.0614384999999999,-0.003332,-0.0015879999999999,0.0614384999999999,0.003332,0.0015879999999999,-0.1189875,-0.36129,-0.016605,0.1213524999999999,-0.3525999999999999,-0.0004429999999999,-0.1601175,-0.86231,0.010163,0.1808825,-0.8988900000000001,0.02551,0
20,-0.0366789999999999,0.7644755,0.047483,-0.1915059999999999,0.5042755,0.012665,-0.253136,0.3511555,-0.126904,0.138494,0.5085655,0.008549,0.218124,0.3596255,-0.125144,-0.239956,0.1940754999999999,-0.331364,0.236074,0.2404755,-0.315594,-0.061496,-0.0033015,-0.00167,0.061496,0.0033014999999999,0.0016699999999999,-0.118956,-0.3612945,-0.016954,0.121264,-0.3527345,-0.000927,-0.160516,-0.8623245,0.009248,0.180474,-0.8990645,0.024627,0
21,-0.036099,0.7646685,0.0517915,-0.188238,0.5041785,0.0125844999999999,-0.254868,0.3777985,-0.1463235,0.137362,0.5096185,0.0092134999999999,0.219152,0.3874085,-0.1437034999999999,-0.239728,0.2503085,-0.3637635,0.234562,0.2983285,-0.3494935,-0.061565,-0.0032745,-0.0017015,0.061565,0.0032745,0.0017014999999999,-0.1189379999999999,-0.3613015,-0.0172145,0.121062,-0.3528715,-0.0013435,-0.1607579999999999,-0.8623415,0.0085604999999999,0.180252,-0.8992915,0.0244574999999999,0
22,-0.035455,0.7646740000000001,0.0556085,-0.185053,0.5041140000000001,0.0129985,-0.2568629999999999,0.4061539999999999,-0.1612425,0.136217,0.5110140000000001,0.0103705,0.2193169999999999,0.4173639999999999,-0.1626225,-0.238783,0.312084,-0.3871425,0.232867,0.362824,-0.3771925,-0.061624,-0.003168,-0.0017224999999999,0.061624,0.003168,0.0017225,-0.118883,-0.361236,-0.0172524999999999,0.121007,-0.353076,-0.0015244999999999,-0.160903,-0.862286,0.0081165,0.179507,-0.899656,0.0249635,0
23,-0.0346895,0.7644725,0.0589964999999999,-0.1818565,0.5042325000000001,0.0138105,-0.2585165,0.4368424999999999,-0.1725095,0.1352035,0.5128925000000001,0.0118615,0.2192635,0.4510425,-0.1755695,-0.2380465,0.3798225,-0.4007595,0.2302535,0.4342225,-0.3923795,-0.0616645,-0.0030555,-0.0016975,0.0616645,0.0030555,0.0016975,-0.1187865,-0.3611475,-0.0170315,0.1209935,-0.3532875,-0.0015755,-0.1608665,-0.8622074999999999,0.0079475,0.1789335,-0.9002175,0.0257165,0
24,-0.0339655,0.763903,0.0616505,-0.1787265,0.505053,0.0148265,-0.2597764999999999,0.468693,-0.1795295,0.1343035,0.5150629999999999,0.0133225,0.2189434999999999,0.485383,-0.1839095,-0.2372765,0.451643,-0.4043595,0.2259035,0.5030629999999999,-0.4019995,-0.0616645,-0.0029179999999999,-0.0016975,0.0616645,0.0029179999999999,0.0016975,-0.1185465,-0.3610669999999999,-0.0170404999999999,0.1209935,-0.3535169999999999,-0.0015755,-0.1607265,-0.862147,0.0080005,0.1785535,-0.900747,0.0265815,0
25,-0.033176,0.7629315,0.0634535,-0.176012,0.5061515,0.0158995,-0.260472,0.5010515,-0.1816295,0.133548,0.5173115,0.0144605,0.218788,0.5226115,-0.1878294999999999,-0.235322,0.5207315,-0.4044295,0.220368,0.5719715,-0.4017895,-0.06167,-0.0028545,-0.0016975,0.06167,0.0028544999999999,0.0016975,-0.118322,-0.3610785,-0.0170495,0.120988,-0.3536385,-0.0015755,-0.160952,-0.8621885,0.0078285,0.178088,-0.9011285,0.0267104999999999,0
26,-0.0323845,0.7615095000000001,0.0645255,-0.1735025,0.5073995,0.0169805,-0.2606325,0.5347195,-0.1816195,0.1328974999999999,0.5196395,0.0151185,0.2187875,0.5583895000000001,-0.1878294999999999,-0.2335925,0.5847595,-0.4044995,0.2142474999999999,0.6405795000000001,-0.4015595,-0.0616695,-0.0026995,-0.0016975,0.0616695,0.0026995,0.0016975,-0.1179725,-0.3610405,-0.0170624999999999,0.1209875,-0.3538105,-0.0015755,-0.1610625,-0.8621504999999999,0.0076595,0.1776974999999999,-0.9021905,0.0269145,0
27,-0.0315275,0.7594805,0.0647945,-0.1717995,0.5094105000000001,0.0179595,-0.2608495,0.5637705000000001,-0.1813185,0.1323504999999999,0.5216105000000001,0.0154405,0.2184805,0.5916505000000001,-0.1875185,-0.2327595,0.6498405,-0.4042285,0.2086205,0.7066105,-0.4010485,-0.0616655,-0.0024674999999999,-0.0018235,0.0616655,0.0024675,0.0018234999999999,-0.1176094999999999,-0.3609095,-0.0167805,0.1211105,-0.3540495,-0.0013575,-0.1610694999999999,-0.8620194999999999,0.0077384999999999,0.1772405,-0.9038095,0.0281795,0
28,-0.0306015,0.757228,0.0654045,-0.1716895,0.5114380000000001,0.0186005,-0.2608995,0.596458,-0.1806625,0.1318705,0.523818,0.0161045,0.2172705,0.621328,-0.1868225,-0.2338295,0.718848,-0.4013825,0.2027105,0.769478,-0.3995625,-0.0616284999999999,-0.002228,-0.0019705,0.0616284999999999,0.002228,0.0019705,-0.1172894999999999,-0.360782,-0.0164554999999999,0.1210305,-0.354312,-0.0009415,-0.1610994999999999,-0.8618819999999999,0.0079445,0.1765805,-0.906042,0.0297955,0
29,-0.02966,0.754862,0.066354,-0.171568,0.5138320000000001,0.019581,-0.260628,0.623912,-0.1774379999999999,0.131502,0.526462,0.017104,0.2156819999999999,0.648742,-0.184948,-0.230318,0.785712,-0.3916779999999999,0.197722,0.826052,-0.386488,-0.06161,-0.002099,-0.0020109999999999,0.06161,0.002099,0.0020109999999999,-0.116928,-0.3607579999999999,-0.0159419999999999,0.120912,-0.354448,-0.000372,-0.161018,-0.861858,0.0085539999999999,0.175982,-0.908568,0.031816,0
30,-0.028537,0.7523325000000001,0.0676565,-0.171437,0.5159225000000001,0.0210475,-0.260327,0.6492825000000001,-0.1694075,0.131383,0.5294725,0.0183605,0.213523,0.6729225000000001,-0.1789675,-0.229647,0.8376825,-0.3726975,0.193023,0.8751125000000001,-0.3679475,-0.061616,-0.0020025,-0.0020195,0.061616,0.0020024999999999,0.0020195,-0.116567,-0.3607675,-0.0151155,0.120973,-0.3545275,0.0001824999999999,-0.160917,-0.8618574999999999,0.0096575,0.175103,-0.9111375,0.0335235,0
31,-0.027518,0.7498859999999999,0.068428,-0.171286,0.5184559999999999,0.022688,-0.260006,0.6715559999999999,-0.160036,0.131384,0.532266,0.019562,0.211924,0.694836,-0.168546,-0.228816,0.883706,-0.350136,0.190424,0.915146,-0.3442759999999999,-0.061632,-0.0019269999999999,-0.002117,0.061632,0.001927,0.002117,-0.116176,-0.360784,-0.014186,0.1207439999999999,-0.354634,0.0008559999999999,-0.160716,-0.8618640000000001,0.011037,0.174754,-0.914844,0.036274,0
32,-0.0266445,0.747551,0.0687935,-0.1711505,0.520791,0.0243595,-0.2585505,0.690841,-0.1488315,0.1313895,0.5346609999999999,0.0207315,0.2098495,0.712261,-0.1564315,-0.2277205,0.920761,-0.3201515,0.1887795,0.946181,-0.3178114999999999,-0.0616415,-0.0019659999999999,-0.0021294999999999,0.0616415,0.001966,0.0021294999999999,-0.1157905,-0.360909,-0.0131055,0.1204895,-0.354619,0.0017665,-0.1603705,-0.861969,0.0127705,0.1744095,-0.918819,0.0392725,0
33,-0.0259285,0.744646,0.0687035,-0.1711325,0.522246,0.0259604999999999,-0.2575525,0.706686,-0.1341075,0.1312875,0.537916,0.0215444999999999,0.2073475,0.727566,-0.1409475,-0.2273524999999999,0.950676,-0.2877475,0.1883575,0.970376,-0.2867575,-0.0615695,-0.0019549999999999,-0.0023125,0.0615695,0.001955,0.0023124999999999,-0.1154525,-0.360924,-0.0119845,0.1201274999999999,-0.354664,0.0026704999999999,-0.1598524999999999,-0.861974,0.0148044999999999,0.1743675,-0.922844,0.0415534999999999,0
34,-0.025499,0.7418389999999999,0.0683395,-0.1712489999999999,0.523369,0.0273075,-0.255899,0.7201289999999999,-0.1197395,0.131091,0.541109,0.0220595,0.205251,0.7386389999999999,-0.1264595,-0.227139,0.974979,-0.2556695,0.188771,0.987279,-0.2539995,-0.061493,-0.0018719999999999,-0.0026335,0.061493,0.0018719999999999,0.0026335,-0.115229,-0.3608409999999999,-0.0109394999999999,0.119661,-0.3548509999999999,0.0035075,-0.159419,-0.8618610000000001,0.0167954999999999,0.174471,-0.926461,0.0432735,0
35,-0.0252545,0.7394999999999999,0.0676364999999999,-0.1714385,0.52435,0.0284905,-0.2545485,0.7290899999999999,-0.1047335,0.1309614999999999,0.54416,0.0226084999999999,0.2031915,0.74847,-0.1122735,-0.2290385,0.99567,-0.2265934999999999,0.1890615,1.00107,-0.2253135,-0.0614404999999999,-0.00195,-0.0028555,0.0614404999999999,0.0019499999999999,0.0028554999999999,-0.1151985,-0.36085,-0.0099875,0.1191414999999999,-0.3548699999999999,0.0043184999999999,-0.1589285,-0.8618800000000001,0.0187395,0.1747215,-0.9301,0.0446895,0
36,-0.025319,0.737738,0.066467,-0.17165,0.524648,0.0295789999999999,-0.25329,0.7378779999999999,-0.0899309999999999,0.13072,0.5476979999999999,0.0231469999999999,0.20121,0.757158,-0.0988209999999999,-0.23096,1.010998,-0.197981,0.18966,1.009298,-0.1976409999999999,-0.061374,-0.002147,-0.002818,0.061374,0.0021469999999999,0.002818,-0.1153,-0.360992,-0.009016,0.11857,-0.354772,0.0048799999999999,-0.15852,-0.8620220000000001,0.0201769999999999,0.17494,-0.933462,0.044929,0
37,-0.025609,0.735726,0.0654125,-0.17197,0.524746,0.0309325,-0.25223,0.742716,-0.0769615,0.13034,0.551126,0.0240855,0.19945,0.764796,-0.0872014999999999,-0.23298,1.020396,-0.1721315,0.19003,1.014096,-0.1741214999999999,-0.061307,-0.002357,-0.0026934999999999,0.061307,0.002357,0.0026935,-0.11543,-0.361124,-0.0080284999999999,0.11798,-0.354664,0.0053555,-0.15821,-0.862144,0.0217985,0.17432,-0.936674,0.0456735,0
38,-0.026113,0.733795,0.0644909999999999,-0.172385,0.524365,0.0323419999999999,-0.251405,0.7465149999999999,-0.064581,0.129895,0.554095,0.0252709999999999,0.197645,0.7704249999999999,-0.076961,-0.234995,1.026395,-0.1498209999999999,0.190155,1.015895,-0.153621,-0.061233,-0.002449,-0.002649,0.061233,0.0024489999999999,0.0026489999999999,-0.1156949999999999,-0.361155,-0.007058,0.1173549999999999,-0.3546749999999999,0.0058619999999999,-0.157985,-0.862155,0.0233709999999999,0.173635,-0.939815,0.046443,0
39,-0.026785,0.732188,0.063901,-0.172879,0.5238079999999999,0.0337619999999999,-0.250689,0.748798,-0.053594,0.129401,0.556478,0.0267369999999999,0.195631,0.775228,-0.068101,-0.237839,1.029568,-0.131161,0.190281,1.016168,-0.135851,-0.061176,-0.0025209999999999,-0.002662,0.061176,0.0025209999999999,0.0026619999999999,-0.115959,-0.361162,-0.006306,0.116671,-0.354742,0.0065049999999999,-0.157889,-0.862132,0.0245569999999999,0.172931,-0.942312,0.047462,0
40,-0.027435,0.730675,0.0635729999999999,-0.173365,0.523525,0.035091,-0.249995,0.7501249999999999,-0.04416,0.128935,0.558815,0.0280929999999999,0.193545,0.778895,-0.06023,-0.240165,1.030645,-0.11585,0.1905349999999999,1.0153450000000002,-0.12194,-0.061115,-0.002631,-0.002649,0.061115,0.0026309999999999,0.0026489999999999,-0.116215,-0.361225,-0.005817,0.116015,-0.354705,0.0070429999999999,-0.157805,-0.8621650000000001,0.0258929999999999,0.1726549999999999,-0.945495,0.048178,0
41,-0.0280694999999999,0.7292745,0.063484,-0.1738635,0.5233145,0.036205,-0.2495235,0.7507545,-0.0361019999999999,0.1285265,0.5610345,0.029203,0.1915865,0.7814145,-0.0535569999999999,-0.2421035,1.0303545,-0.103533,0.1907164999999999,1.0147545,-0.109773,-0.0610345,-0.0026395,-0.0027049999999999,0.0610345,0.0026395,0.002705,-0.1164834999999999,-0.3611955,-0.005585,0.1153764999999999,-0.3547855,0.007347,-0.1577435,-0.8621055,0.026776,0.1727365,-0.9484255,0.04862,0
42,-0.0287249999999999,0.7289885,0.0635935,-0.174285,0.5235385,0.0369354999999999,-0.249075,0.7518085,-0.0298295,0.128105,0.5619885,0.0299685,0.190075,0.7835885,-0.0481205,-0.243455,1.0302085,-0.0939324999999999,0.190845,1.0150085,-0.1003825,-0.060991,-0.0026855,-0.0025734999999999,0.060991,0.0026854999999999,0.0025734999999999,-0.116715,-0.3612315,-0.0055835,0.114895,-0.3548115,0.0075504999999999,-0.157795,-0.8621215,0.0273295,0.173725,-0.9510615,0.0481165,0
43,-0.0292245,0.728966,0.0637865,-0.1745625,0.5239560000000001,0.0374365,-0.2488025,0.7524759999999999,-0.0250785,0.1278375,0.5627260000000001,0.0307635,0.1888975,0.7851459999999999,-0.0435425,-0.2443125,1.029896,-0.0876015,0.1907475,1.014896,-0.0950315,-0.0609525,-0.0027159999999999,-0.0023695,0.0609525,0.0027159999999999,0.0023694999999999,-0.1168625,-0.361294,-0.0057504999999999,0.1146075,-0.354804,0.0077144999999999,-0.1578325,-0.8621540000000001,0.0276705,0.1741474999999999,-0.952604,0.0473625,0
44,-0.029677,0.729088,0.063996,-0.174826,0.5243979999999999,0.037714,-0.248606,0.752668,-0.021436,0.127634,0.563318,0.031542,0.187964,0.786308,-0.039823,-0.245006,1.029638,-0.082745,0.190704,1.0146380000000002,-0.090235,-0.060892,-0.002712,-0.002262,0.060892,0.0027119999999999,0.002262,-0.1169559999999999,-0.361322,-0.006168,0.114374,-0.3548219999999999,0.007678,-0.157916,-0.862162,0.027779,0.174414,-0.954162,0.047309,0
45,-0.0301344999999999,0.7290485,0.064025,-0.1750585,0.5247385,0.03847,-0.2484585,0.7526585,-0.0189219999999999,0.1274615,0.5636185,0.032544,0.1873115,0.7867885,-0.037057,-0.2456285,1.0293685,-0.079316,0.1906515,1.0143685,-0.086436,-0.0608245,-0.0027014999999999,-0.0022529999999999,0.0608245,0.0027014999999999,0.0022529999999999,-0.1170084999999999,-0.3613515,-0.00671,0.1141415,-0.3548715,0.0075829999999999,-0.1580485,-0.8621814999999999,0.0275909999999999,0.1747314999999999,-0.9564815,0.046946,0
46,-0.03062,0.7288965000000001,0.064044,-0.175252,0.5248965,0.039328,-0.248372,0.7526565000000001,-0.016805,0.1272279999999999,0.5639165,0.0336459999999999,0.186808,0.7869765,-0.034433,-0.245962,1.0298165,-0.0771689999999999,0.190238,1.0149165,-0.082999,-0.06076,-0.0027024999999999,-0.002256,0.06076,0.0027024999999999,0.002256,-0.117062,-0.3613834999999999,-0.007147,0.1139379999999999,-0.3548935,0.007591,-0.158142,-0.8621935,0.02752,0.175318,-0.9578935,0.046202,0
47,-0.0311005,0.7286684999999999,0.0640625,-0.1753964999999999,0.5249385,0.0402495,-0.2483465,0.7527485,-0.0152325,0.1269735,0.5643885,0.0346795,0.1864135,0.7872585,-0.0323115,-0.2462665,1.0292884999999998,-0.0760425,0.1898135,1.0154885,-0.0801625,-0.0606855,-0.0026655,-0.0022585,0.0606855,0.0026654999999999,0.0022584999999999,-0.1171064999999999,-0.3613815,-0.0074265,0.1137335,-0.3550015,0.0075985,-0.1582065,-0.8621715,0.0273724999999999,0.1758335,-0.9592015,0.0456815,0
48,-0.0315595,0.7283075,0.064259,-0.1754805,0.5247575,0.041141,-0.2483705,0.7531774999999999,-0.014132,0.1266795,0.5646074999999999,0.035668,0.1861394999999999,0.7879075,-0.030277,-0.2463805,1.0284075,-0.075894,0.1894595,1.0166075,-0.077684,-0.0606195,-0.0026445,-0.002255,0.0606195,0.0026444999999999,0.002255,-0.1171305,-0.3614125,-0.007478,0.1135595,-0.3550425,0.0075989999999999,-0.1582705,-0.8621625,0.0271529999999999,0.1761595,-0.9611525,0.0456429999999999,0
49,-0.0320135,0.7281415,0.0642305,-0.1755545,0.5243815000000001,0.0414855,-0.2484144999999999,0.7534814999999999,-0.0139894999999999,0.1263455,0.5647015,0.0361465,0.1859555,0.7885614999999999,-0.0290694999999999,-0.2464744999999999,1.0273115,-0.0761805,0.1892155,1.0176115,-0.0763605,-0.0605425,-0.0026685,-0.0022215,0.0605425,0.0026684999999999,0.0022215,-0.1171445,-0.3613885,-0.0077674999999999,0.1134054999999999,-0.3549885,0.0074595,-0.1582545,-0.8621485,0.0267405,0.1766655,-0.9612585,0.0452625,0
50,-0.0324435,0.7279260000000001,0.0638605,-0.1756345,0.523946,0.0414934999999999,-0.2484845,0.753736,-0.0144685,0.1259855,0.564576,0.0362025,0.1859155,0.7886660000000001,-0.0284564999999999,-0.2465645,1.027596,-0.0767815,0.1891355,1.018296,-0.0758215,-0.0604775,-0.0026719999999999,-0.0022805,0.0604775,0.002672,0.0022804999999999,-0.1171645,-0.361354,-0.0083705,0.1132655,-0.354954,0.0069884999999999,-0.1581945,-0.862134,0.0260964999999999,0.1768255,-0.961634,0.0448805,0
51,-0.0328255,0.7277085,0.0629455,-0.1756815,0.5233085,0.0408275,-0.2485215,0.7538185,-0.0156554999999999,0.1255985,0.5640284999999999,0.0355595,0.1858885,0.7885584999999999,-0.0288394999999999,-0.2464015,1.0269885,-0.0779784999999999,0.1890885,1.0183885,-0.0766685,-0.0604675,-0.0026795,-0.0023354999999999,0.0604675,0.0026795,0.0023355,-0.1171815,-0.3613115,-0.0095594999999999,0.1131285,-0.3550115,0.0056725,-0.1580915,-0.8621215,0.0249035,0.1770685,-0.9615615,0.0436825,0
52,-0.0332235,0.7278755,0.061506,-0.1757425,0.5229155,0.0396889999999999,-0.2485625,0.7539855,-0.017274,0.1252375,0.5636955,0.034344,0.1858375,0.7887255,-0.0300949999999999,-0.2461525,1.0264555,-0.080536,0.1890275,1.0185555,-0.078286,-0.0604645,-0.0026434999999999,-0.00227,0.0604645,0.0026435,0.0022699999999999,-0.1171724999999999,-0.3613145,-0.010967,0.1129475,-0.3551845,0.0040129999999999,-0.1581525,-0.8622145,0.0233839999999999,0.1772875,-0.9618045,0.0415199999999999,0
53,-0.0335484999999999,0.72809,0.0595135,-0.1757865,0.5223800000000001,0.0381075,-0.2485565,0.75422,-0.0192794999999999,0.1249235,0.5630000000000001,0.0326025,0.1858334999999999,0.78896,-0.0320994999999999,-0.2455865,1.02609,-0.0842405,0.1890234999999999,1.01879,-0.0802905,-0.0603935,-0.0025869999999999,-0.0022904999999999,0.0603935,0.002587,0.0022905,-0.1170964999999999,-0.36132,-0.0127084999999999,0.1126235,-0.35545,0.0019765,-0.1581465,-0.8623099999999999,0.0215015,0.1774234999999999,-0.96196,0.0389515,0
54,-0.033783,0.728259,0.057133,-0.175786,0.521739,0.035718,-0.2484859999999999,0.7544989999999999,-0.022015,0.124674,0.562179,0.030366,0.186044,0.789149,-0.034497,-0.2449859999999999,1.0259390000000002,-0.088961,0.189264,1.019139,-0.082691,-0.0602759999999999,-0.0025089999999999,-0.002402,0.0602759999999999,0.0025089999999999,0.002402,-0.116966,-0.3613309999999999,-0.0148859999999999,0.1121239999999999,-0.355801,-0.000405,-0.158126,-0.8624310000000001,0.019211,0.177674,-0.961981,0.036017,1
55,-0.034165,0.728316,0.054268,-0.175906,0.521096,0.032843,-0.248586,0.754596,-0.025761,0.124384,0.561216,0.0274979999999999,0.1862639999999999,0.789336,-0.037385,-0.244436,1.0261460000000002,-0.094976,0.189654,1.0204460000000002,-0.086096,-0.0601509999999999,-0.0024759999999999,-0.0024279999999999,0.0601509999999999,0.002476,0.0024279999999999,-0.116766,-0.361514,-0.017789,0.111404,-0.356184,-0.003584,-0.159196,-0.872274,0.0166939999999999,0.177154,-0.961474,0.033158,1
56,-0.034557,0.7283865,0.0506405,-0.1761039999999999,0.5205965,0.0292465,-0.2487639999999999,0.7545265,-0.0307595,0.123996,0.5603665,0.0239095,0.186416,0.7896164999999999,-0.0410995,-0.2439039999999999,1.0256665,-0.1025625,0.190016,1.0219665,-0.0913225,-0.060075,-0.0024935,-0.0022754999999999,0.060075,0.0024934999999999,0.0022755,-0.116614,-0.3617235,-0.0213975,0.110796,-0.3565235,-0.0075684999999999,-0.160344,-0.8816335,0.0133895,0.176806,-0.9606635,0.0294995,1
57,-0.0349629999999999,0.727796,0.046241,-0.176262,0.5195960000000001,0.025154,-0.248932,0.754216,-0.036858,0.123598,0.5594260000000001,0.0199489999999999,0.186678,0.789486,-0.045893,-0.243372,1.025386,-0.111118,0.190248,1.023686,-0.098298,-0.060047,-0.0025419999999999,-0.002188,0.060047,0.002542,0.0021879999999999,-0.1164019999999999,-0.361934,-0.025381,0.110528,-0.3568439999999999,-0.011973,-0.161622,-0.890944,0.009463,0.176278,-0.959434,0.0256419999999999,1
58,-0.0353795,0.7269639999999999,0.0407945,-0.1764315,0.518884,0.0204285,-0.2490715,0.753814,-0.0441455,0.1231984999999999,0.5582039999999999,0.0153714999999999,0.1870885,0.788714,-0.0523765,-0.2426615,1.025444,-0.1210265,0.1905585,1.024844,-0.1077965,-0.0600205,-0.0026489999999999,-0.0018974999999999,0.0600205,0.0026489999999999,0.0018974999999999,-0.1162415,-0.362156,-0.0301955,0.1102684999999999,-0.3570959999999999,-0.0172055,-0.1628815,-0.899726,0.0048814999999999,0.1757885,-0.957696,0.0210925,1
59,-0.0357955,0.7257145,0.034583,-0.1766204999999999,0.5185645,0.015371,-0.2492705,0.7532045,-0.052649,0.1228595,0.5561745,0.00991,0.1876295,0.7875645,-0.060042,-0.2418705,1.0255744999999998,-0.131946,0.1904095,1.0259745,-0.118376,-0.0599785,-0.0027375,-0.001419,0.0599785,0.0027374999999999,0.001419,-0.1161104999999999,-0.3623055,-0.03536,0.1099795,-0.3572955,-0.0231709999999999,-0.1643005,-0.9080655,-5.199999999999996e-05,0.1753895,-0.9559455,0.016208,1
60,-0.0361045,0.724156,0.027906,-0.1767755,0.518796,0.010431,-0.2494355,0.751996,-0.06171,0.1225945,0.554476,0.004305,0.1884445,0.7858160000000001,-0.0685569999999999,-0.2411255,1.025696,-0.143537,0.1901544999999999,1.026396,-0.1300069999999999,-0.0599265,-0.0028469999999999,-0.0008459999999999,0.0599265,0.002847,0.000846,-0.1162455,-0.362404,-0.040541,0.1097245,-0.357244,-0.0307399999999999,-0.1654055,-0.915894,-0.0048589999999999,0.1746045,-0.954064,0.011369,1
61,-0.036428,0.7222325,0.0209925,-0.1769629999999999,0.5192425,0.0054425,-0.2496129999999999,0.7502825,-0.0713505,0.122307,0.5528025,-0.0015844999999999,0.189407,0.7834325,-0.0779005,-0.240273,1.0242025,-0.1558185,0.189597,1.0269025,-0.1431684999999999,-0.059906,-0.0028865,-0.0003625,0.059906,0.0028865,0.0003625,-0.116513,-0.3623775,-0.0458475,0.109577,-0.3571875,-0.0384895,-0.166683,-0.9230375,-0.0096325,0.173277,-0.9519575,0.0071145,1
62,-0.036777,0.7198825,0.0133175,-0.17708,0.5202525,4.25e-05,-0.24983,0.7487825,-0.0819185,0.1219899999999999,0.5506525,-0.0084845,0.19041,0.7811125,-0.0880605,-0.23941,1.0186725,-0.1683375,0.1894,1.0281725,-0.1577875,-0.059917,-0.0029325,0.0001434999999999,0.059917,0.0029324999999999,-0.0001435,-0.11683,-0.3622475,-0.0515515,0.10954,-0.3570075,-0.0463644999999999,-0.16805,-0.9289775,-0.0144755,0.17229,-0.9490075,0.0024314999999999,1
63,-0.0371715,0.7171350000000001,0.0049735,-0.1771795,0.5215150000000001,-0.0056735,-0.2501095,0.747615,-0.0928875,0.1215705,0.548335,-0.0156615,0.1912605,0.7786850000000001,-0.0986975,-0.2385095,1.013835,-0.1814625,0.1889904999999999,1.029435,-0.1717625,-0.0600125,-0.0029969999999999,0.0007025,0.0600125,0.0029969999999999,-0.0007025,-0.1172595,-0.361905,-0.0578415,0.1095505,-0.356665,-0.0537965,-0.1694895,-0.933765,-0.0193115,0.1711605,-0.945045,-0.0023175,1
64,-0.0376055,0.7140960000000001,-0.0033645,-0.1773414999999999,0.522656,-0.0114445,-0.2504515,0.746326,-0.1038955,0.1211284999999999,0.5459259999999999,-0.0228665,0.1919685,0.776036,-0.1096495,-0.2376015,1.009876,-0.1939195,0.1883484999999999,1.026376,-0.1852595,-0.0601275,-0.0030309999999999,0.0012164999999999,0.0601275,0.0030309999999999,-0.0012165,-0.1178215,-0.361294,-0.0640825,0.1096584999999999,-0.356214,-0.0607905,-0.1702215,-0.929344,-0.0238455,0.1701785,-0.940604,-0.0065275,1
65,-0.0380745,0.710162,-0.0113955,-0.1774455,0.5234219999999999,-0.0167515,-0.2508355,0.745172,-0.1143235,0.1208045,0.542742,-0.0297545,0.1925545,0.772902,-0.1202835,-0.2368154999999999,1.005642,-0.2056035,0.1874945,1.024542,-0.1978935,-0.0603235,-0.0028909999999999,0.0016085,0.0603235,0.0028909999999999,-0.0016085,-0.1186955,-0.3603679999999999,-0.0696715,0.1101345,-0.355778,-0.0673585,-0.1710654999999999,-0.924288,-0.0275675,0.1691745,-0.935318,-0.0101555,1
66,-0.0384775,0.706883,-0.019148,-0.1776124999999999,0.521093,-0.023036,-0.2514425,0.744503,-0.124438,0.1201574999999999,0.540153,-0.036689,0.1927775,0.769973,-0.130718,-0.2362725,0.997133,-0.216548,0.1862975,1.019433,-0.2089579999999999,-0.0605695,-0.002957,0.002014,0.0605695,0.002957,-0.002014,-0.1202425,-0.359437,-0.07541,0.1109075,-0.354987,-0.074061,-0.1720725,-0.918007,-0.030917,0.1680175,-0.928937,-0.012944,1
67,-0.038744,0.7031555,-0.0260615,-0.177689,0.5187155,-0.0284495,-0.252019,0.7436655,-0.1339925,0.1195809999999999,0.5373055,-0.0428155,0.192901,0.7672655,-0.1402425,-0.235899,0.9883955,-0.2255825,0.184791,1.0134955,-0.2182425,-0.060807,-0.0028224999999999,0.0021554999999999,0.060807,0.0028224999999999,-0.0021554999999999,-0.122359,-0.3582045,-0.0801315,0.111951,-0.3542745,-0.0803475,-0.172829,-0.9104845,-0.0336485,0.166871,-0.9219845,-0.0152385,1
68,-0.038859,0.699098,-0.0325074999999999,-0.177725,0.517178,-0.0331265,-0.252515,0.7430479999999999,-0.1427565,0.119085,0.535888,-0.0478065,0.192935,0.7644179999999999,-0.1491565,-0.2354149999999999,0.979828,-0.2335065,0.183245,1.010528,-0.2265565,-0.061149,-0.002739,0.0023285,0.061149,0.0027389999999999,-0.0023284999999999,-0.124615,-0.356842,-0.0847305,0.113135,-0.353372,-0.0865225,-0.173795,-0.902112,-0.0355495,0.166145,-0.914202,-0.0167095,1
69,-0.0386205,0.6965825,-0.0384745,-0.1774825,0.5156025000000001,-0.0381525,-0.2526224999999999,0.7395125,-0.1505345,0.1188074999999999,0.5316525,-0.0541095,0.1930174999999999,0.7630825,-0.1577645,-0.2346625,0.9712825,-0.2408545,0.1818275,1.0075025,-0.2356945,-0.0615225,-0.0027775,0.0024104999999999,0.0615225,0.0027774999999999,-0.0024105,-0.1273525,-0.3552975,-0.0897335,0.1144075,-0.3521474999999999,-0.0915865,-0.1745525,-0.8913375,-0.0367395,0.1657175,-0.9042175,-0.0177765,1
70,-0.0382045,0.6931215000000001,-0.044357,-0.1770615,0.5142015000000001,-0.042644,-0.2525215,0.7362515000000001,-0.157358,0.1187185,0.5271215,-0.05993,0.1932984999999999,0.7613315,-0.166158,-0.2336015,0.9625115,-0.247378,0.1803084999999999,1.0010815,-0.242668,-0.0617255,-0.0028724999999999,0.002573,0.0617255,0.0028725,-0.002573,-0.1302515,-0.3537185,-0.094638,0.1158985,-0.3506885,-0.0974439999999999,-0.1751115,-0.8806984999999999,-0.03775,0.1654884999999999,-0.8947385,-0.018413,1
71,-0.0374209999999999,0.690526,-0.0500015,-0.176501,0.512116,-0.0473575,-0.2521609999999999,0.732256,-0.1636985,0.118879,0.523096,-0.0657165,0.193809,0.760366,-0.1746484999999999,-0.232191,0.959386,-0.2539185,0.179079,0.999476,-0.2500385,-0.0617459999999999,-0.0028249999999999,0.0025735,0.0617459999999999,0.002825,-0.0025735,-0.133371,-0.351894,-0.0996804999999999,0.1176089999999999,-0.349214,-0.1035575,-0.175561,-0.869044,-0.0386635,0.165559,-0.883524,-0.0194145,1
72,-0.0367254999999999,0.688387,-0.0557929999999999,-0.1760465,0.509807,-0.051931,-0.2517865,0.728027,-0.169999,0.1190234999999999,0.519427,-0.071687,0.1942134999999999,0.7600269999999999,-0.183689,-0.2306165,0.956137,-0.260539,0.1767834999999999,0.994077,-0.258079,-0.0617505,-0.002748,0.002574,0.0617505,0.002748,-0.002574,-0.1367565,-0.350003,-0.1046759999999999,0.1192935,-0.347673,-0.110376,-0.1760864999999999,-0.8570730000000001,-0.039649,0.1659135,-0.873403,-0.0214649999999999,1
73,-0.03587,0.6861765,-0.0618655,-0.17551,0.5085265,-0.0562495,-0.25135,0.7237365,-0.1760235,0.11928,0.5160965,-0.0775125,0.19464,0.7596765,-0.1927635,-0.22912,0.9499965,-0.2677635,0.17463,0.9936265,-0.2658034999999999,-0.061867,-0.0025625,0.0025785,0.061867,0.0025624999999999,-0.0025785,-0.14028,-0.3478335,-0.1103275,0.12098,-0.3460735,-0.1175735,-0.17648,-0.8451635,-0.0406505,0.16595,-0.8622535,-0.0235545,1
74,-0.034704,0.6848895,-0.067367,-0.1748299999999999,0.5067995000000001,-0.06058,-0.25067,0.7197695,-0.181392,0.11979,0.5132395,-0.082738,0.19537,0.7598995,-0.201242,-0.227,0.9461595,-0.274372,0.17278,0.9917995,-0.273972,-0.062188,-0.0024645,0.002848,0.062188,0.0024645,-0.002848,-0.14384,-0.3456405,-0.1160219999999999,0.12272,-0.3441905,-0.1248219999999999,-0.17654,-0.8331205,-0.041116,0.16629,-0.8502205,-0.024958,1
75,-0.0335795,0.683458,-0.0723525,-0.1740745,0.508618,-0.0632095,-0.2498445,0.7161080000000001,-0.1859795,0.1203755,0.509698,-0.0874645,0.1962855,0.757358,-0.2087395,-0.2243744999999999,0.947878,-0.2808095,0.1711754999999999,0.993758,-0.2816895,-0.0624875,-0.002169,0.0031735,0.0624875,0.0021689999999999,-0.0031735,-0.1471445,-0.343172,-0.1212295,0.1246055,-0.342372,-0.1317695,-0.1762645,-0.821222,-0.0410025,0.1668454999999999,-0.838592,-0.0256065,1
76,-0.0322864999999999,0.6824435000000001,-0.0769555,-0.1730975,0.5101035,-0.0658695,-0.2489575,0.7123335000000001,-0.1898745,0.1211825,0.5065035,-0.0919725,0.1974325,0.7540435000000001,-0.2151045,-0.2214775,0.9499935,-0.2876145,0.1699625,0.9966835,-0.2885445,-0.0627615,-0.0020034999999999,0.0034674999999999,0.0627615,0.0020035,-0.0034675,-0.1503175,-0.3407665,-0.1263545,0.1267025,-0.3402965,-0.1384044999999999,-0.1757774999999999,-0.8090364999999999,-0.0404255,0.1676225,-0.8267665,-0.0255875,1
77,-0.031035,0.6821895,-0.0810605,-0.172061,0.5105595,-0.0686725,-0.248061,0.7087295,-0.1932255,0.121899,0.5027595,-0.0964895,0.198629,0.7512795000000001,-0.2206955,-0.219921,0.9530595,-0.2947855,0.168909,0.9998895,-0.2948854999999999,-0.0630479999999999,-0.0019004999999999,0.0036714999999999,0.0630479999999999,0.0019004999999999,-0.0036715,-0.153381,-0.3383505,-0.1312255,0.128729,-0.3380005,-0.1444755,-0.175171,-0.7967605,-0.0395455,0.168469,-0.8148004999999999,-0.0252415,1
78,-0.029805,0.6806610000000001,-0.087254,-0.171007,0.510811,-0.073234,-0.2471269999999999,0.708391,-0.199029,0.122713,0.501951,-0.101397,0.199793,0.747341,-0.227879,-0.216857,0.956001,-0.303979,0.1680729999999999,1.000961,-0.302299,-0.063332,-0.001611,0.003682,0.063332,0.001611,-0.0036819999999999,-0.155507,-0.335779,-0.137999,0.1306129999999999,-0.335599,-0.152029,-0.174417,-0.786009,-0.041399,0.169273,-0.804199,-0.026885,1
79,-0.0285935,0.679638,-0.093369,-0.1699314999999999,0.511458,-0.0778079999999999,-0.2463014999999999,0.707998,-0.20554,0.1235285,0.502038,-0.106246,0.2006085,0.743548,-0.23452,-0.2159015,0.958868,-0.3131,0.1675385,1.001448,-0.31056,-0.0637765,-0.001249,0.0036989999999999,0.0637765,0.001249,-0.003699,-0.1575915,-0.327652,-0.14486,0.1323285,-0.328472,-0.15877,-0.1737515,-0.774752,-0.042971,0.1697485,-0.793172,-0.0283819999999999,1
80,-0.027207,0.678384,-0.099213,-0.168536,0.5114540000000001,-0.082768,-0.2452059999999999,0.708294,-0.2122659999999999,0.124614,0.502424,-0.110736,0.201724,0.739544,-0.240756,-0.213646,0.959864,-0.322036,0.169684,1.003804,-0.317396,-0.063923,-0.0011459999999999,0.003679,0.063923,0.001146,-0.003679,-0.159026,-0.318666,-0.1516259999999999,0.134204,-0.320206,-0.1656159999999999,-0.172656,-0.763766,-0.044584,0.170554,-0.782416,-0.0295819999999999,1
81,-0.026003,0.677275,-0.1045504999999999,-0.167314,0.512245,-0.0881575,-0.244324,0.709335,-0.2191175,0.125616,0.501895,-0.1158775,0.202696,0.735715,-0.2466075,-0.211914,0.955795,-0.3312975,0.170626,1.006595,-0.3241875,-0.0639499999999999,-0.001015,0.0039475,0.0639499999999999,0.001015,-0.0039475,-0.160124,-0.309035,-0.1586675,0.135816,-0.3112749999999999,-0.1729775,-0.171594,-0.752335,-0.0462735,0.1711659999999999,-0.770845,-0.0306935,1
82,-0.0250515,0.676705,-0.11196,-0.1663825,0.510695,-0.097094,-0.2434825,0.715885,-0.228527,0.1263274999999999,0.504695,-0.123117,0.2028174999999999,0.736005,-0.254007,-0.2107525,0.959025,-0.342477,0.1713075,1.0127350000000002,-0.333007,-0.0640715,-0.0011049999999999,0.00394,0.0640715,0.001105,-0.00394,-0.1614925,-0.293965,-0.172027,0.1370374999999999,-0.296205,-0.185397,-0.1707825,-0.734985,-0.050346,0.1716275,-0.753155,-0.034816,1
83,-0.0243295,0.67616,-0.1192225,-0.1657015,0.51004,-0.1054065,-0.2429015,0.72151,-0.2387625,0.1268085,0.50764,-0.1303125,0.2023884999999999,0.73527,-0.2612025,-0.2097514999999999,0.95984,-0.3536824999999999,0.1733084999999999,1.00968,-0.3425324999999999,-0.0642055,-0.00112,0.0037625,0.0642055,0.00112,-0.0037625,-0.1625714999999999,-0.28107,-0.1848625,0.1379385,-0.28263,-0.1971825,-0.1702215,-0.7182299999999999,-0.0549105,0.1717385,-0.7368,-0.0395105,1
84,-0.0235155,0.6768749999999999,-0.1275455,-0.1650135,0.509845,-0.1145664999999999,-0.2424535,0.727225,-0.2503255,0.1269665,0.511015,-0.1382655,0.2018265,0.737465,-0.2694555,-0.2083735,0.959145,-0.3654955,0.1739165,1.006405,-0.3530955,-0.0640825,-0.001335,0.0036794999999999,0.0640825,0.001335,-0.0036794999999999,-0.1632235,-0.268645,-0.1984755,0.1383764999999999,-0.269615,-0.2096454999999999,-0.1695635,-0.701495,-0.0606475,0.1715765,-0.720475,-0.0454305,1
85,-0.0227214999999999,0.6790200000000001,-0.136922,-0.1644025,0.50747,-0.124502,-0.2414525,0.73184,-0.261802,0.1270475,0.51234,-0.146982,0.2012575,0.74049,-0.2782719999999999,-0.2070325,0.95825,-0.376722,0.1743775,1.00304,-0.363872,-0.0638575,-0.00137,0.003501,0.0638575,0.00137,-0.003501,-0.1636024999999999,-0.2553499999999999,-0.211942,0.1387675,-0.2557199999999999,-0.221852,-0.1689324999999999,-0.68421,-0.066565,0.1718475,-0.70355,-0.051679,1
86,-0.0224324999999999,0.68166,-0.1463505,-0.1642894999999999,0.50543,-0.1342505,-0.2415594999999999,0.73644,-0.2735805,0.1268905,0.51422,-0.1554805,0.2004504999999999,0.7427900000000001,-0.2870205,-0.2058694999999999,0.95669,-0.3877405,0.1757405,0.9998,-0.3751605,-0.0635675,-0.0014299999999999,0.0033294999999999,0.0635675,0.00143,-0.0033294999999999,-0.1641495,-0.2421899999999999,-0.2260605,0.1389705,-0.2424199999999999,-0.2337805,-0.1686295,-0.6671699999999999,-0.0726614999999999,0.1717105,-0.6868099999999999,-0.0584885,1
87,-0.022054,0.68375,-0.15591,-0.1642499999999999,0.50373,-0.14385,-0.24181,0.74092,-0.28597,0.12669,0.51658,-0.16403,0.19953,0.74144,-0.29561,-0.20512,0.95506,-0.39914,0.17675,0.99668,-0.38605,-0.063177,-0.00168,0.003109,0.063177,0.0016799999999999,-0.0031089999999999,-0.16484,-0.22867,-0.23997,0.13903,-0.22897,-0.24596,-0.16846,-0.65042,-0.0784229999999999,0.1715,-0.67047,-0.065825,1
88,-0.0215854999999999,0.68609,-0.1649489999999999,-0.1640285,0.50149,-0.153709,-0.2419885,0.7451800000000001,-0.297869,0.1265815,0.51862,-0.1727189999999999,0.1986915,0.74105,-0.303829,-0.2045485,0.95437,-0.410809,0.1775315,0.99406,-0.396959,-0.0628165,-0.0019099999999999,0.002949,0.0628165,0.0019099999999999,-0.002949,-0.1655685,-0.21456,-0.253909,0.1389314999999999,-0.21522,-0.257999,-0.1682584999999999,-0.63349,-0.084252,0.1713515,-0.6540699999999999,-0.073172,1
89,-0.0211225,0.6870350000000001,-0.1745635,-0.1638755,0.499355,-0.1636535,-0.2421454999999999,0.744495,-0.3095635,0.1263345,0.519265,-0.1815635,0.1977745,0.741345,-0.3124935,-0.2040555,0.954095,-0.4234435,0.1781345,0.991895,-0.4083035,-0.0624684999999999,-0.002105,0.0028234999999999,0.0624684999999999,0.0021049999999999,-0.0028234999999999,-0.1663255,-0.199155,-0.2681135,0.1383145,-0.200255,-0.2701334999999999,-0.1681055,-0.616195,-0.0903974999999999,0.1711045,-0.637875,-0.0810885,1
90,-0.020562,0.68753,-0.1826824999999999,-0.163718,0.49699,-0.1710225,-0.242188,0.7442300000000001,-0.3186724999999999,0.126002,0.5202500000000001,-0.1876824999999999,0.197052,0.74115,-0.3189625,-0.203258,0.95884,-0.4330525,0.178652,0.98974,-0.4175224999999999,-0.062137,-0.0022499999999999,0.0026235,0.062137,0.00225,-0.0026234999999999,-0.167088,-0.1834399999999999,-0.2799225,0.137722,-0.1853799999999999,-0.2793525,-0.167918,-0.5991599999999999,-0.0943205,0.170922,-0.6218199999999999,-0.0864625,1
91,-0.019901,0.688445,-0.188007,-0.1633629999999999,0.4966049999999999,-0.174257,-0.2417929999999999,0.738415,-0.324447,0.125997,0.517675,-0.191247,0.197137,0.736505,-0.323177,-0.202263,0.957715,-0.440247,0.179217,0.983415,-0.424667,-0.0618139999999999,-0.0021249999999999,0.002626,0.0618139999999999,0.0021249999999999,-0.0026259999999999,-0.167373,-0.173565,-0.284257,0.137717,-0.1759049999999999,-0.282877,-0.1676629999999999,-0.5884450000000001,-0.095621,0.171057,-0.611515,-0.088291,1
92,-0.0195365,0.68919,-0.193346,-0.1630485,0.49673,-0.177556,-0.2413485,0.73299,-0.329716,0.1258715,0.5156499999999999,-0.1948059999999999,0.1973414999999999,0.73239,-0.327636,-0.2003085,0.95769,-0.447696,0.1795614999999999,0.98662,-0.430426,-0.0615235,-0.00219,0.0026429999999999,0.0615235,0.0021899999999999,-0.0026429999999999,-0.1678685,-0.1628,-0.288836,0.1378615,-0.16549,-0.286636,-0.1675085,-0.57748,-0.096787,0.1712415,-0.60075,-0.090459,1
93,-0.019214,0.6884300000000001,-0.197943,-0.162724,0.49596,-0.180433,-0.240834,0.7271700000000001,-0.334423,0.125796,0.5139100000000001,-0.197713,0.197486,0.7281200000000001,-0.331753,-0.199464,0.95816,-0.455433,0.179836,0.98897,-0.436253,-0.061435,-0.00211,0.0026119999999999,0.061435,0.00211,-0.002612,-0.168594,-0.15231,-0.292803,0.138336,-0.1549999999999999,-0.289733,-0.167584,-0.5669899999999999,-0.097453,0.171686,-0.59022,-0.091827,1
94,-0.0186835,0.6877949999999999,-0.201488,-0.1625495,0.4937549999999999,-0.183438,-0.2405495,0.723765,-0.339608,0.1259004999999999,0.512195,-0.200488,0.1977705,0.725155,-0.336058,-0.1972795,0.959445,-0.463678,0.1802705,0.991645,-0.442298,-0.0612805,-0.002255,0.0026059999999999,0.0612805,0.0022549999999999,-0.002606,-0.1694195,-0.145165,-0.296518,0.1388904999999999,-0.148185,-0.292918,-0.1677394999999999,-0.555805,-0.098069,0.1723305,-0.5793550000000001,-0.092641,1
95,-0.018304,0.685905,-0.205012,-0.162425,0.492005,-0.186262,-0.240195,0.720485,-0.3449219999999999,0.125965,0.510395,-0.203182,0.197995,0.7228749999999999,-0.340742,-0.195125,0.959495,-0.472402,0.1792949999999999,0.994105,-0.4482819999999999,-0.060999,-0.002315,0.002595,0.060999,0.002315,-0.002595,-0.170425,-0.136795,-0.2992319999999999,0.139475,-0.141085,-0.296052,-0.168385,-0.544575,-0.098606,0.172955,-0.568525,-0.092948,1
96,-0.017745,0.6843899999999999,-0.2075155,-0.16196,0.49022,-0.1883755,-0.2390499999999999,0.7173099999999999,-0.3491555,0.12616,0.5080199999999999,-0.2051755,0.19851,0.7244299999999999,-0.3451055,-0.19277,0.95981,-0.4799455,0.17961,0.99678,-0.4535255,-0.060872,-0.00225,0.0025454999999999,0.060872,0.0022499999999999,-0.0025454999999999,-0.17132,-0.12787,-0.3010955,0.1404099999999999,-0.13308,-0.2986655,-0.1704,-0.53429,-0.0983795,0.17428,-0.55718,-0.0923555,1
97,-0.017214,0.68304,-0.20993,-0.161451,0.48862,-0.19002,-0.238711,0.71302,-0.35362,0.126299,0.50606,-0.20668,0.198949,0.7249099999999999,-0.34943,-0.190621,0.95775,-0.48617,0.1801589999999999,0.99898,-0.45788,-0.060686,-0.00229,0.0024139999999999,0.060686,0.00229,-0.0024139999999999,-0.172521,-0.11868,-0.30245,0.1419689999999999,-0.1249,-0.30112,-0.172301,-0.5239400000000001,-0.097374,0.176319,-0.5457799999999999,-0.0915,1
98,-0.0166389999999999,0.68301,-0.2118749999999999,-0.160818,0.48685,-0.190915,-0.2380379999999999,0.71363,-0.358055,0.126492,0.50447,-0.207635,0.199512,0.7242999999999999,-0.353265,-0.188988,0.95651,-0.491455,0.180912,1.00039,-0.461545,-0.060543,-0.0022699999999999,0.002277,0.060543,0.0022699999999999,-0.002277,-0.1739279999999999,-0.11005,-0.303755,0.144382,-0.11712,-0.303595,-0.174018,-0.5143,-0.096261,0.178982,-0.53485,-0.090413,1
99,-0.016007,0.68316,-0.21313,-0.160104,0.4847599999999999,-0.1918399999999999,-0.237134,0.7132799999999999,-0.3621,0.126806,0.5023299999999999,-0.2080499999999999,0.200076,0.72401,-0.3566899999999999,-0.187524,0.9553,-0.49659,0.181706,0.99515,-0.46519,-0.060397,-0.0022699999999999,0.002097,0.060397,0.0022699999999999,-0.0020969999999999,-0.175584,-0.10141,-0.30511,0.147666,-0.10949,-0.30613,-0.175684,-0.50481,-0.094858,0.182176,-0.5242100000000001,-0.090028,1
100,-0.0153734999999999,0.68301,-0.2139335,-0.1593785,0.48216,-0.1928335,-0.2361485,0.7133,-0.3661635,0.1272415,0.50061,-0.2081735,0.2006814999999999,0.72496,-0.3596635,-0.1863585,0.95486,-0.5013434999999999,0.1825314999999999,0.99132,-0.4679235,-0.0602765,-0.0025199999999999,0.0018565,0.0602765,0.00252,-0.0018564999999999,-0.1775585,-0.09232,-0.3066035,0.1517615,-0.1008899999999999,-0.3087835,-0.1775885,-0.4945699999999999,-0.0930475,0.1863815,-0.51324,-0.0898575,1
101,-0.0145919999999999,0.682635,-0.214559,-0.158647,0.479105,-0.193799,-0.234797,0.7130449999999999,-0.370549,0.127683,0.498005,-0.2080489999999999,0.201263,0.7262949999999999,-0.362459,-0.185347,0.951175,-0.505409,0.183413,0.987855,-0.469969,-0.060263,-0.0026349999999999,0.0016579999999999,0.060263,0.0026349999999999,-0.0016579999999999,-0.179637,-0.083355,-0.308239,0.156583,-0.092295,-0.311619,-0.178927,-0.484165,-0.091205,0.190743,-0.5020950000000001,-0.089667,1
102,-0.0141019999999999,0.682265,-0.2151095,-0.158038,0.476379,-0.1946995,-0.233858,0.712715,-0.3743694999999999,0.128022,0.495775,-0.2077594999999999,0.201932,0.7251050000000001,-0.3646795,-0.1844279999999999,0.947645,-0.5086995,0.184212,0.984495,-0.4717595,-0.06031,-0.0028449999999999,0.0013384999999999,0.06031,0.002845,-0.0013384999999999,-0.1815979999999999,-0.0747049999999999,-0.3099895,0.161262,-0.0839349999999999,-0.3146195,-0.178278,-0.4742449999999999,-0.0899794999999999,0.195332,-0.4911649999999999,-0.0892235,1
103,-0.0142755,0.6805950000000001,-0.215636,-0.1577975,0.476316,-0.194786,-0.2337175,0.7108650000000001,-0.3773959999999999,0.1278925,0.495434,-0.207026,0.2020525,0.723095,-0.366236,-0.1842975,0.943645,-0.511866,0.1845625,0.980475,-0.473336,-0.0602535,-0.0030149999999999,0.0011969999999999,0.0602535,0.003015,-0.001197,-0.1839275,-0.0670449999999999,-0.312026,0.1647325,-0.0764149999999999,-0.317706,-0.1780975,-0.4651449999999999,-0.088415,0.1986224999999999,-0.480955,-0.089151,1
104,-0.0144649999999999,0.6793899999999999,-0.2160045,-0.157943,0.4753809999999999,-0.1951045,-0.2337429999999999,0.7085699999999999,-0.3799145,0.127537,0.49448,-0.2065044999999999,0.202157,0.72061,-0.3674044999999999,-0.184423,0.93978,-0.5146545,0.185077,0.97701,-0.4747444999999999,-0.060285,-0.0032,0.0009875,0.060285,0.0031999999999999,-0.0009874999999999,-0.185913,-0.05973,-0.3140544999999999,0.167757,-0.06903,-0.3207744999999999,-0.177893,-0.45644,-0.0868134999999999,0.202157,-0.4705,-0.0880175,1
105,-0.0146765,0.6785950000000001,-0.2167505,-0.1582285,0.474311,-0.1957005,-0.2340285,0.705625,-0.3826405,0.1272415,0.49388,-0.2062905,0.2021015,0.7184550000000001,-0.3688504999999999,-0.1851384999999999,0.935755,-0.5177705,0.1856715,0.973825,-0.4763205,-0.0602935,-0.003435,0.0007764999999999,0.0602935,0.003435,-0.0007764999999999,-0.1876085,-0.052285,-0.3161805,0.1701415,-0.0611749999999999,-0.3233605,-0.1778584999999999,-0.447605,-0.0859055,0.2043015,-0.460375,-0.0879885,1
106,-0.0149375,0.677295,-0.2180745,-0.1585355,0.473102,-0.1968645,-0.2346655,0.703665,-0.3851145,0.1270045,0.492481,-0.2066045,0.2020445,0.7154050000000001,-0.3704545,-0.1863955,0.933325,-0.5222945,0.1863245,0.970665,-0.4785745,-0.0602995,-0.0036249999999999,0.0006095,0.0602995,0.0036249999999999,-0.0006094999999999,-0.1888655,-0.044715,-0.3182745,0.1719545,-0.053215,-0.3261645,-0.1777555,-0.4392549999999999,-0.0833995,0.2058645,-0.450545,-0.0882255,1
107,-0.0151969999999999,0.67529,-0.2209225,-0.158927,0.471975,-0.1988925,-0.235687,0.70096,-0.3887124999999999,0.126603,0.491535,-0.2084825,0.202043,0.71202,-0.3733424999999999,-0.187827,0.92995,-0.5286425,0.187303,0.96693,-0.4827925,-0.060305,-0.0039,0.0004655,0.060305,0.0039,-0.0004655,-0.189677,-0.03703,-0.3209825,0.173093,-0.04509,-0.3297225,-0.176987,-0.43081,-0.0815685,0.2071629999999999,-0.44037,-0.0883815,1
108,-0.0157485,0.6726,-0.2244985,-0.1593365,0.4714649999999999,-0.2010085,-0.2372765,0.69707,-0.3936185,0.1259835,0.492384,-0.2106385,0.2020735,0.70788,-0.3773984999999999,-0.1896064999999999,0.92526,-0.5360285,0.1875935,0.96893,-0.4876884999999999,-0.0603325,-0.0041999999999999,0.0003314999999999,0.0603325,0.0041999999999999,-0.0003315,-0.1903465,-0.0298499999999999,-0.3235584999999999,0.1734735,-0.03727,-0.3337685,-0.1748265,-0.42296,-0.0828185,0.2076535,-0.43177,-0.0905225,1
109,-0.0168155,0.66849,-0.2288035,-0.1602385,0.471625,-0.2031135,-0.2384985,0.6921900000000001,-0.3990535,0.1250715,0.493598,-0.2129835,0.2021815,0.70267,-0.3825435,-0.1924885,0.9182,-0.5442135,0.1876215,0.96939,-0.4938535,-0.0603574999999999,-0.0043499999999999,0.0002965,0.0603574999999999,0.00435,-0.0002964999999999,-0.1912585,-0.0228699999999999,-0.3257434999999999,0.1727215,-0.0296899999999999,-0.3373535,-0.1721585,-0.4162199999999999,-0.0820495,0.2067215,-0.4240199999999999,-0.0941714999999999,1
110,-0.0185014999999999,0.66464,-0.2333339999999999,-0.1616534999999999,0.468395,-0.206284,-0.2409134999999999,0.68753,-0.403544,0.1236065,0.4923889999999999,-0.216994,0.2023865,0.69798,-0.388484,-0.1960635,0.91446,-0.552704,0.1885165,0.96632,-0.501934,-0.0604625,-0.00468,0.0002299999999999,0.0604625,0.0046799999999999,-0.00023,-0.1926135,-0.01482,-0.3272839999999999,0.1716365,-0.02093,-0.340404,-0.1693635,-0.40866,-0.083662,0.2053065,-0.41542,-0.098038,1
111,-0.020363,0.661505,-0.2382435,-0.163287,0.465522,-0.2094135,-0.244587,0.682515,-0.4082535,0.122063,0.489909,-0.2210635,0.202723,0.696445,-0.3955435,-0.201467,0.907635,-0.5611934999999999,0.189073,0.962225,-0.5098635,-0.060672,-0.0047249999999999,0.0002155,0.060672,0.004725,-0.0002154999999999,-0.194157,-0.0061049999999999,-0.3276935,0.170383,-0.0126649999999999,-0.3430335,-0.165577,-0.400115,-0.0827435,0.203653,-0.4060149999999999,-0.1014625,1
112,-0.0222769999999999,0.658095,-0.243293,-0.164939,0.4640689999999999,-0.212163,-0.248709,0.676015,-0.413143,0.120581,0.4878019999999999,-0.224693,0.203141,0.6934049999999999,-0.403033,-0.207039,0.900685,-0.569313,0.189631,0.958355,-0.519213,-0.060878,-0.004735,0.00021,0.060878,0.0047349999999999,-0.0002099999999999,-0.195319,0.0023549999999999,-0.327683,0.169151,-0.0047949999999999,-0.345273,-0.161929,-0.392595,-0.085673,0.201851,-0.397445,-0.104797,1
113,-0.024066,0.654455,-0.248008,-0.16647,0.462135,-0.214678,-0.25322,0.670635,-0.417698,0.11921,0.485255,-0.228038,0.20367,0.690465,-0.410518,-0.21291,0.894495,-0.5767979999999999,0.19066,0.953945,-0.528598,-0.0610939999999999,-0.004765,0.000196,0.0610939999999999,0.004765,-0.0001959999999999,-0.19598,0.010565,-0.327728,0.16766,0.0027949999999999,-0.346958,-0.1580399999999999,-0.384055,-0.085702,0.19995,-0.386795,-0.104748,1
114,-0.0257179999999999,0.6508100000000001,-0.2524455,-0.167933,0.4601930000000001,-0.2167955,-0.2575429999999999,0.6649500000000002,-0.4215955,0.1180269999999999,0.482105,-0.2309355,0.204337,0.6866700000000001,-0.4174355,-0.219343,0.8872300000000001,-0.5841655,0.193017,0.94548,-0.5374855,-0.061352,-0.0047199999999999,0.0001735,0.061352,0.00472,-0.0001735,-0.196223,0.01765,-0.3278155,0.166107,0.00997,-0.3482455,-0.156073,-0.3765199999999999,-0.0880175,0.198227,-0.3765299999999999,-0.1047765,1
115,-0.027095,0.647435,-0.256669,-0.169142,0.457977,-0.218789,-0.261642,0.6596150000000001,-0.425249,0.117128,0.478999,-0.233609,0.2051079999999999,0.684305,-0.4242789999999999,-0.225602,0.8807750000000001,-0.590729,0.1954479999999999,0.938375,-0.546019,-0.061577,-0.0046849999999999,0.0001409999999999,0.061577,0.004685,-0.000141,-0.196382,0.024565,-0.328329,0.164818,0.016735,-0.349389,-0.153832,-0.3688249999999999,-0.091002,0.196828,-0.366395,-0.103706,1
116,-0.0283805,0.644645,-0.2601945,-0.1704055,0.456753,-0.2207245,-0.2656155,0.6548350000000001,-0.4284445,0.1163045,0.476297,-0.2356645,0.2057945,0.682195,-0.4305545,-0.2318255,0.874555,-0.5960645,0.1974045,0.932235,-0.5535745000000001,-0.0617795,-0.004545,0.0001635,0.0617795,0.004545,-0.0001635,-0.1966255,0.0307549999999999,-0.3289245,0.1637745,0.022375,-0.3502245,-0.1524855,-0.3610949999999999,-0.0919155,0.1947345,-0.359275,-0.1052535,1
117,-0.0294915,0.6422140000000001,-0.263018,-0.1712685,0.4547480000000001,-0.222478,-0.2689685,0.651155,-0.430598,0.1156615,0.4727720000000001,-0.237558,0.2064815,0.6805650000000001,-0.435488,-0.2376985,0.8694050000000001,-0.599938,0.1993215,0.926835,-0.560148,-0.0620165,-0.0044649999999999,0.0001859999999999,0.0620165,0.004465,-0.000186,-0.1965485,0.036735,-0.329078,0.1632315,0.027695,-0.3509379999999999,-0.1518885,-0.3527049999999999,-0.090499,0.1928715,-0.3529149999999998,-0.108706,1
118,-0.030442,0.641053,-0.2653215,-0.171996,0.45198,-0.2243215,-0.271656,0.648863,-0.4322215,0.115094,0.468739,-0.2395115,0.206864,0.6795800000000001,-0.4392315,-0.242696,0.86685,-0.6026215,0.200994,0.9222,-0.5659715000000001,-0.062273,-0.0044699999999999,0.0002264999999999,0.062273,0.0044699999999999,-0.0002265,-0.196166,0.04247,-0.3292715,0.163124,0.03271,-0.3518615,-0.151706,-0.3449299999999999,-0.0892575,0.192204,-0.3442999999999999,-0.1079235,1
119,-0.0310645,0.6399540000000001,-0.2666465,-0.1720845,0.4524650000000001,-0.2247565,-0.2738144999999999,0.6469220000000001,-0.4331365,0.1151055,0.4672740000000001,-0.2399565,0.2070455,0.6780450000000001,-0.4412264999999999,-0.2469045,0.8641750000000001,-0.6043265,0.2014455,0.921005,-0.5692365,-0.0624855,-0.0043449999999999,0.0001904999999999,0.0624855,0.004345,-0.0001905,-0.1954345,0.0468450000000001,-0.3287965,0.1635555,0.035985,-0.3523465,-0.1522945,-0.3397549999999999,-0.0896725,0.1912755,-0.3393849999999999,-0.1109505,1
120,-0.031498,0.638469,-0.2668865,-0.172067,0.4522249999999999,-0.2250165,-0.274957,0.64528,-0.4333465,0.115273,0.4661449999999999,-0.2402165,0.206893,0.6761349999999999,-0.4417565,-0.249337,0.864285,-0.6053365,0.201533,0.920785,-0.5717765,-0.062595,-0.004345,0.0001904999999999,0.062595,0.0043449999999999,-0.0001905,-0.194927,0.0503149999999998,-0.3284365,0.164073,0.0393049999999999,-0.3521065,-0.152677,-0.3340050000000001,-0.0865455,0.190853,-0.3350550000000001,-0.1133325,1
121,-0.0317925,0.637288,-0.267125,-0.1720124999999999,0.4517599999999999,-0.225265,-0.2754625,0.645728,-0.433575,0.1156275,0.4647899999999999,-0.240475,0.2065275,0.675507,-0.441995,-0.2513825,0.86422,-0.605675,0.2013775,0.92006,-0.5722849999999999,-0.0626735,-0.00433,0.000189,0.0626735,0.0043299999999999,-0.0001889999999999,-0.1948025,0.0534599999999999,-0.328395,0.1646975,0.0420099999999998,-0.3519449999999999,-0.1531925,-0.32905,-0.087211,0.1903575,-0.3317000000000001,-0.11476,1
122,-0.0318979999999999,0.6369460000000001,-0.267455,-0.171824,0.4529000000000001,-0.225195,-0.276004,0.6456430000000001,-0.433885,0.116056,0.46421,-0.240055,0.205986,0.675587,-0.442305,-0.252874,0.8647600000000001,-0.605955,0.200836,0.91968,-0.572595,-0.062691,-0.0041399999999999,0.000257,0.062691,0.00414,-0.000257,-0.195044,0.05639,-0.328635,0.165356,0.04451,-0.351905,-0.154494,-0.3246899999999999,-0.089834,0.190156,-0.3277899999999999,-0.112119,1
123,-0.031833,0.6370140000000001,-0.267774,-0.171457,0.454485,-0.224854,-0.276487,0.6469130000000001,-0.433604,0.116433,0.4642050000000001,-0.239564,0.205473,0.6763250000000001,-0.442674,-0.2536069999999999,0.8666050000000001,-0.6063139999999999,0.200323,0.923055,-0.5729639999999999,-0.062658,-0.0038849999999999,0.000356,0.062658,0.003885,-0.0003559999999999,-0.195557,0.059865,-0.329004,0.1664429999999999,0.046455,-0.351914,-0.158217,-0.3185549999999999,-0.08878,0.1901429999999999,-0.325885,-0.112422,1
124,-0.0315894999999999,0.637749,-0.267426,-0.1709264999999999,0.45656,-0.224326,-0.2768665,0.648763,-0.433096,0.1168435,0.46471,-0.238906,0.2049135,0.677807,-0.442826,-0.2541764999999999,0.8691500000000001,-0.606826,0.1997535,0.92632,-0.573476,-0.0624835,-0.0034799999999999,0.0006029999999999,0.0624835,0.00348,-0.0006029999999999,-0.1961264999999999,0.06322,-0.329516,0.1676135,0.04841,-0.351996,-0.1617164999999999,-0.31457,-0.088748,0.1892935,-0.3245099999999999,-0.11391,1
125,-0.0309955,0.638493,-0.266807,-0.1703135,0.45855,-0.223647,-0.2764735,0.650662,-0.431507,0.1172165,0.46538,-0.238197,0.2043565,0.6793629999999999,-0.442477,-0.2546535,0.87172,-0.606507,0.1989864999999999,0.92907,-0.573107,-0.0622725,-0.0030999999999999,0.0008709999999999,0.0622725,0.0030999999999999,-0.000871,-0.1966235,0.0660199999999999,-0.329967,0.1693764999999999,0.0492599999999999,-0.351707,-0.1654435,-0.30991,-0.085862,0.1894565,-0.32039,-0.110407,1
126,-0.030123,0.6396540000000001,-0.265723,-0.169614,0.46059,-0.223003,-0.275634,0.6524810000000001,-0.4296029999999999,0.1176359999999999,0.4661700000000001,-0.237563,0.203906,0.6809430000000001,-0.441953,-0.254974,0.8743400000000001,-0.605153,0.197116,0.93159,-0.5728030000000001,-0.062046,-0.0025799999999999,0.0011639999999999,0.062046,0.00258,-0.0011639999999999,-0.1972539999999999,0.0686,-0.331153,0.171086,0.05049,-0.352213,-0.169514,-0.3087099999999999,-0.089362,0.190606,-0.3162999999999999,-0.1060779999999999,1
127,-0.0290719999999999,0.640988,-0.264274,-0.1691349999999999,0.461965,-0.222194,-0.274485,0.6541410000000001,-0.427414,0.118115,0.466905,-0.237004,0.203355,0.682432,-0.441244,-0.255025,0.876815,-0.602914,0.195485,0.933725,-0.572144,-0.061834,-0.0019449999999999,0.0014589999999999,0.061834,0.0019449999999999,-0.001459,-0.197865,0.071035,-0.332304,0.172835,0.051425,-0.352674,-0.172645,-0.304215,-0.088425,0.191905,-0.3125449999999999,-0.101929,1
128,-0.027861,0.6423390000000001,-0.2624885,-0.168499,0.462785,-0.2212785,-0.273059,0.6558620000000001,-0.4249785,0.1186209999999999,0.467845,-0.2363885,0.2029309999999999,0.683934,-0.4403885,-0.254629,0.8785450000000001,-0.6002785,0.1941709999999999,0.935465,-0.5712285,-0.061631,-0.0012549999999998,0.0017575,0.061631,0.001255,-0.0017575,-0.198459,0.072645,-0.3332385,0.174471,0.052235,-0.3530785,-0.177039,-0.3016649999999999,-0.0887645,0.1934509999999999,-0.3142049999999999,-0.1071854999999999,1
129,-0.0265925,0.643714,-0.2605875,-0.1677745,0.463645,-0.2203875,-0.2713945,0.657633,-0.4223275,0.1191455,0.468985,-0.2358475,0.2026355,0.685562,-0.4394275,-0.2539145,0.880055,-0.5974575,0.1931355,0.937235,-0.5700274999999999,-0.0614755,-0.0005549999999999,0.0020565,0.0614755,0.0005549999999999,-0.0020565,-0.1991145,0.074315,-0.3340675,0.1759954999999999,0.0533749999999999,-0.3539675,-0.1809045,-0.297115,-0.0878085,0.1943855,-0.315635,-0.1118435,1
130,-0.025274,0.645222,-0.2584575,-0.166732,0.464795,-0.2186675,-0.269702,0.659764,-0.4196775,0.1197679999999999,0.470115,-0.2346375,0.202588,0.687312,-0.4379475,-0.252962,0.881815,-0.5945375,0.1924779999999999,0.939315,-0.5686475,-0.061386,5.500000000002725e-05,0.0023875,0.061386,-5.500000000002725e-05,-0.0023875,-0.199812,0.076525,-0.3349875,0.177598,0.054545,-0.3537275,-0.184742,-0.292925,-0.0875674999999999,0.194518,-0.3167149999999999,-0.1171435,1
131,-0.0239654999999999,0.646201,-0.2563485,-0.1657684999999999,0.4661499999999999,-0.2171385,-0.2680685,0.661581,-0.4171085,0.1203015,0.4709599999999999,-0.2335384999999999,0.2026515,0.688673,-0.4364985,-0.2517385,0.88365,-0.5916285,0.1922315,0.94099,-0.5673085,-0.0613654999999999,0.0005499999999999,0.0026114999999999,0.0613654999999999,-0.00055,-0.0026115,-0.2007385,0.0786799999999999,-0.3356785,0.1791015,0.0551199999999999,-0.3533285,-0.1880085,-0.28901,-0.0891045,0.1962815,-0.31377,-0.1141935,1
132,-0.0228235,0.646722,-0.2543785,-0.1649634999999999,0.46773,-0.2158385,-0.2666435,0.663212,-0.4149285,0.1207365,0.47195,-0.2325785,0.2027365,0.6897070000000001,-0.4351485,-0.2504235,0.8854900000000001,-0.5889685,0.1923165,0.94244,-0.5661585,-0.0613285,0.00085,0.0027604999999999,0.0613285,-0.00085,-0.0027604999999999,-0.2015134999999999,0.08069,-0.3358185,0.1802065,0.05531,-0.3529785,-0.1902134999999999,-0.2861899999999999,-0.0898895,0.1981665,-0.3102699999999999,-0.1107235,1
133,-0.0217855,0.646877,-0.2524834999999999,-0.1643214999999999,0.46907,-0.2147535,-0.2654515,0.6645719999999999,-0.4132734999999999,0.1210785,0.47269,-0.2318135,0.2029085,0.689028,-0.4328735,-0.2491415,0.88695,-0.5867435,0.1924385,0.94351,-0.5650735,-0.0612445,0.0010599999999999,0.0026944999999999,0.0612445,-0.0010599999999999,-0.0026945,-0.2024415,0.0823,-0.3359035,0.1810985,0.05559,-0.3525835,-0.1923814999999999,-0.28336,-0.0922605,0.1991285,-0.3093,-0.1085295,1
134,-0.0208684999999999,0.647216,-0.250631,-0.1636685,0.47076,-0.213671,-0.2645085,0.665979,-0.412151,0.1214015,0.47347,-0.231051,0.2031815,0.68877,-0.430541,-0.2479285,0.88835,-0.5849610000000001,0.1925915,0.94482,-0.563941,-0.0611504999999999,0.00116,0.0026539999999999,0.0611504999999999,-0.0011599999999999,-0.002654,-0.2035685,0.08382,-0.335951,0.1815015,0.05658,-0.351861,-0.1926585,-0.28205,-0.090168,0.2005815,-0.3082899999999999,-0.107431,1
135,-0.020125,0.647429,-0.248827,-0.162997,0.47235,-0.212637,-0.263707,0.66712,-0.411387,0.121693,0.47403,-0.2302969999999999,0.2035429999999999,0.6890830000000001,-0.428097,-0.246777,0.8899100000000001,-0.583567,0.192973,0.94581,-0.562797,-0.0610809999999999,0.00109,0.00267,0.0610809999999999,-0.0010899999999999,-0.0026699999999999,-0.204857,0.0852600000000001,-0.335997,0.182033,0.057,-0.351197,-0.1934469999999999,-0.28028,-0.091068,0.202123,-0.3040699999999999,-0.10259,1
136,-0.019387,0.647706,-0.2472754999999999,-0.1621749999999999,0.473745,-0.2117055,-0.262765,0.667814,-0.4108254999999999,0.1220849999999999,0.474255,-0.2295655,0.204225,0.6897530000000001,-0.4255555,-0.245535,0.890935,-0.5827555,0.194015,0.946275,-0.5615655,-0.061084,0.000905,0.0027645,0.061084,-0.0009049999999999,-0.0027644999999999,-0.206235,0.0860349999999999,-0.3355355,0.183175,0.056915,-0.3503254999999999,-0.194215,-0.279725,-0.0914155,0.202575,-0.302845,-0.1008734999999999,1
137,-0.0188144999999999,0.647706,-0.2458455,-0.1614535,0.473875,-0.2107855,-0.2619735,0.668026,-0.4103255,0.1226965,0.474255,-0.2288655,0.2048065,0.689867,-0.4233455,-0.2444935,0.8913150000000001,-0.5823055,0.1948165,0.946515,-0.5604455,-0.0611285,0.000905,0.0028744999999999,0.0611285,-0.0009049999999999,-0.0028745,-0.2079135,0.0864949999999999,-0.3350355,0.1843165,0.056745,-0.3499455,-0.1930335,-0.280975,-0.0900035,0.2032064999999999,-0.301795,-0.1025935,1
138,-0.0184475,0.647706,-0.2444655,-0.1608885,0.473875,-0.2099955,-0.2614385,0.668268,-0.4098854999999999,0.1232414999999999,0.474255,-0.2282555,0.2050715,0.689905,-0.4212154999999999,-0.2436185,0.891605,-0.5817555,0.1950515,0.947475,-0.5594455,-0.0611395,0.000905,0.0029305,0.0611395,-0.0009049999999999,-0.0029305,-0.2097385,0.086875,-0.3343354999999999,0.1852915,0.057305,-0.3497555,-0.1928685,-0.2815649999999999,-0.0889274999999999,0.2036015,-0.299795,-0.1008795,1
139,-0.0182985,0.647706,-0.2434345,-0.1607335,0.473875,-0.2101845,-0.2609635,0.668864,-0.4092745,0.1233465,0.474255,-0.2285245,0.2052165,0.690569,-0.4202545,-0.2428835,0.892285,-0.5810145,0.1951965,0.948925,-0.5584545000000001,-0.0611365,0.000905,0.0029565,0.0611365,-0.0009049999999999,-0.0029565,-0.2115135,0.087245,-0.3337745,0.1860965,0.057695,-0.3492345,-0.1933235,-0.280925,-0.0892665,0.2038065,-0.297415,-0.0982445,1
140,-0.0182715,0.6487010000000001,-0.242817,-0.1606835,0.4735750000000001,-0.2104269999999999,-0.2606535,0.6695340000000001,-0.408987,0.1233465,0.475055,-0.228487,0.2052565,0.6919620000000001,-0.419157,-0.2422735,0.8936850000000001,-0.580117,0.1952365,0.951865,-0.557457,-0.0611325,0.000515,0.002957,0.0611325,-0.0005149999999999,-0.002957,-0.2130835,0.086745,-0.333487,0.1864865,0.0576349999999999,-0.349117,-0.1933535,-0.281655,-0.089898,0.2027065,-0.2993249999999999,-0.099921,1
141,-0.0179165,0.649638,-0.2425795,-0.1602115,0.473055,-0.2106695,-0.2599815,0.6722340000000001,-0.4086495,0.1238085,0.4757650000000001,-0.2284594999999999,0.2054885,0.693659,-0.4182895,-0.2414115,0.8943450000000001,-0.5790195,0.1953885,0.956145,-0.5562695,-0.0611515,9.500000000006724e-05,0.0030125,0.0611515,-9.499999999995624e-05,-0.0030125,-0.2140415,0.0846650000000001,-0.3334094999999999,0.1869785,0.055385,-0.3477995,-0.1930915,-0.2838949999999999,-0.0890015,0.2018785,-0.3026349999999999,-0.1016625,1
142,-0.017745,0.6506250000000001,-0.242867,-0.159705,0.4734900000000001,-0.211447,-0.259515,0.6740980000000001,-0.408647,0.124085,0.4773,-0.228937,0.205485,0.6952150000000001,-0.418897,-0.241035,0.8973900000000001,-0.578337,0.1952749999999999,0.95971,-0.555387,-0.061122,-0.0004499999999999,0.0030029999999999,0.061122,0.00045,-0.0030029999999999,-0.214385,0.0802100000000001,-0.333417,0.1872349999999999,0.0507200000000001,-0.347987,-0.192065,-0.2886599999999999,-0.08861,0.201005,-0.3078199999999998,-0.102838,1
143,-0.0177885,0.651385,-0.2434539999999999,-0.1591975,0.4718849999999999,-0.2125939999999999,-0.2592575,0.6751689999999999,-0.408944,0.1243725,0.4778549999999999,-0.2297739999999999,0.2053424999999999,0.696325,-0.420064,-0.2407475,0.899095,-0.578044,0.1949225,0.962765,-0.554844,-0.0611185,-0.001155,0.002949,0.0611185,0.0011549999999999,-0.002949,-0.2143775,0.0742649999999999,-0.333524,0.1874924999999999,0.045265,-0.348584,-0.1918775,-0.295155,-0.0896309999999999,0.2002825,-0.3114950000000001,-0.100297,1
144,-0.0181005,0.651725,-0.2444629999999999,-0.1585995,0.4730149999999999,-0.213993,-0.2591194999999999,0.676175,-0.409263,0.1246605,0.477705,-0.230653,0.2048905,0.696355,-0.421173,-0.2405995,0.899465,-0.5778829999999999,0.1941705,0.964785,-0.554603,-0.0609694999999999,-0.001025,0.0029889999999999,0.0609694999999999,0.0010249999999999,-0.002989,-0.2142295,0.064855,-0.333613,0.1875905,0.036815,-0.349743,-0.1912195,-0.305855,-0.090556,0.1988705,-0.319355,-0.099258,1
145,-0.0183525,0.653142,-0.245563,-0.1580015,0.4732659999999999,-0.215343,-0.2588715,0.67775,-0.409663,0.1251185,0.477882,-0.231203,0.2043485,0.69883,-0.422153,-0.2403215,0.90136,-0.577593,0.1934084999999999,0.96797,-0.5543330000000001,-0.0609045,-0.00116,0.0029849999999999,0.0609045,0.0011599999999999,-0.002985,-0.2139615,0.0543299999999999,-0.333423,0.1874985,0.0282099999999999,-0.3509029999999999,-0.1900915,-0.3182900000000001,-0.091886,0.1982685,-0.32991,-0.098528,1
146,-0.0186635,0.653718,-0.2465109999999999,-0.1578125,0.4732699999999999,-0.216841,-0.2588125,0.679455,-0.410041,0.1253075,0.476913,-0.231931,0.2037375,0.701065,-0.4232309999999999,-0.2402325,0.903775,-0.576731,0.1924275,0.969975,-0.554261,-0.0608075,-0.001195,0.002963,0.0608075,0.0011949999999999,-0.002963,-0.2137125,0.0419549999999999,-0.3333109999999999,0.1868775,0.0180249999999999,-0.352191,-0.1894625,-0.3330349999999999,-0.094111,0.1965975,-0.342665,-0.100967,1
147,-0.0190055,0.65553,-0.2475695,-0.1575725,0.4739299999999999,-0.2179195,-0.2602925,0.6816399999999999,-0.4104895,0.1253275,0.4780939999999999,-0.2324395,0.2030475,0.70378,-0.4237595,-0.2403725,0.90616,-0.5754595,0.1914175,0.97406,-0.5531595,-0.0607075,-0.00129,0.0029515,0.0607075,0.0012899999999999,-0.0029514999999999,-0.2133125,0.0280499999999999,-0.3326995,0.1856375,0.0066999999999999,-0.3531095,-0.1890125,-0.3490500000000001,-0.0965915,0.1951775,-0.3578,-0.1034555,1
148,-0.0196465,0.65723,-0.2486945,-0.1576315,0.474532,-0.2187645,-0.2621515,0.68381,-0.4110445,0.1250285,0.47806,-0.2330045,0.2019385,0.70503,-0.4244044999999999,-0.2410815,0.90824,-0.5737345,0.1903085,0.97708,-0.5520845,-0.0606475,-0.00117,0.0029684999999999,0.0606475,0.00117,-0.0029684999999999,-0.2125815,0.0124199999999999,-0.3315845,0.1832285,-0.0064499999999999,-0.3539545,-0.1886415,-0.36768,-0.0992835,0.1936884999999999,-0.3753299999999999,-0.1060774999999999,1
149,-0.020276,0.65927,-0.2495945,-0.157701,0.475157,-0.2195445,-0.264101,0.6860900000000001,-0.4111245,0.124729,0.47865,-0.2340944999999999,0.200919,0.70647,-0.4244945,-0.241991,0.91204,-0.5717544999999999,0.189159,0.97864,-0.5511545,-0.060562,-0.0010799999999999,0.0030255,0.060562,0.00108,-0.0030255,-0.211391,-0.0035199999999999,-0.3299945,0.180079,-0.0193399999999999,-0.3538945,-0.188751,-0.38554,-0.1024535,0.192299,-0.39322,-0.1058415,1
150,-0.0208389999999999,0.66113,-0.2502304999999999,-0.157667,0.4773449999999999,-0.2200805,-0.266107,0.68746,-0.4108505,0.124283,0.4786299999999999,-0.2351905,0.200133,0.7072499999999999,-0.4242805,-0.243277,0.91522,-0.5694605,0.188753,0.97707,-0.5505305,-0.060478,-0.00082,0.0030475,0.060478,0.0008199999999999,-0.0030475,-0.2097069999999999,-0.01992,-0.3278205,0.176633,-0.03308,-0.3534705,-0.1880369999999999,-0.40474,-0.1050765,0.191383,-0.41324,-0.1067154999999999,1
151,-0.021224,0.6630199999999999,-0.250072,-0.157741,0.478355,-0.220132,-0.267581,0.6888799999999999,-0.409362,0.124079,0.4782409999999999,-0.235542,0.1996589999999999,0.70808,-0.423192,-0.2446209999999999,0.9157,-0.565782,0.188369,0.97365,-0.5489120000000001,-0.060393,-0.0004799999999999,0.0032169999999999,0.060393,0.0004799999999999,-0.003217,-0.207621,-0.03643,-0.324922,0.173249,-0.0471599999999999,-0.352442,-0.186911,-0.4238499999999999,-0.107776,0.190579,-0.43313,-0.106448,1
152,-0.0214665,0.665895,-0.249095,-0.1580435,0.482269,-0.219615,-0.2689435,0.691725,-0.405535,0.1234765,0.479224,-0.235485,0.1993865,0.7088450000000001,-0.419465,-0.2462435,0.920215,-0.559565,0.1886965,0.975105,-0.543745,-0.0602825,5.000000000032756e-06,0.0031679999999999,0.0602825,-4.999999999977245e-06,-0.003168,-0.2049635,-0.0561149999999999,-0.321395,0.1697265,-0.0641449999999999,-0.349435,-0.1856535,-0.446835,-0.110572,0.1896364999999999,-0.4586749999999999,-0.106897,1
153,-0.0217939999999999,0.669905,-0.2476085,-0.1585919999999999,0.483059,-0.2186485,-0.270622,0.6953149999999999,-0.4007785,0.122658,0.480821,-0.2353185,0.199078,0.712425,-0.4157685,-0.248132,0.925445,-0.5526285,0.188748,0.979115,-0.5382485,-0.060459,-0.0002949999999999,0.0030874999999999,0.060459,0.0002949999999999,-0.0030875,-0.202062,-0.073025,-0.3171885,0.166108,-0.078175,-0.3449485,-0.184502,-0.467285,-0.1132685,0.189168,-0.479385,-0.1070085,1
154,-0.022156,0.67362,-0.2455544999999999,-0.159493,0.48509,-0.2171545,-0.272233,0.6997,-0.3954045,0.1227169999999999,0.4834,-0.2346345,0.198777,0.7153,-0.4118245,-0.250093,0.92948,-0.5441845000000001,0.188907,0.98256,-0.5325044999999999,-0.060585,-0.0001399999999999,0.0032135,0.060585,0.00014,-0.0032134999999999,-0.199133,-0.09043,-0.3125945,0.162727,-0.0929399999999999,-0.3399545,-0.183523,-0.48951,-0.1163255,0.188547,-0.5021599999999999,-0.1076925,1
155,-0.0226859999999999,0.6785950000000001,-0.2430835,-0.159699,0.488075,-0.2149935,-0.272169,0.7048449999999999,-0.3894735,0.122551,0.486685,-0.2336135,0.198441,0.7194050000000001,-0.4071234999999999,-0.2517189999999999,0.931865,-0.5351335,0.189141,0.987335,-0.5265135,-0.0605919999999999,-0.0003149999999999,0.0033374999999999,0.0605919999999999,0.000315,-0.0033375,-0.196189,-0.1065249999999999,-0.3071535,0.159521,-0.107595,-0.3342035,-0.182539,-0.5117149999999999,-0.1187605,0.187811,-0.525125,-0.1082535,1
156,-0.023205,0.682625,-0.239806,-0.160959,0.4895549999999999,-0.212596,-0.2736389999999999,0.709975,-0.382856,0.121611,0.4883349999999999,-0.232106,0.198261,0.722925,-0.402066,-0.253069,0.932855,-0.5250360000000001,0.189531,0.991015,-0.519166,-0.060597,-0.000345,0.003471,0.060597,0.0003449999999999,-0.003471,-0.193089,-0.122595,-0.301276,0.1567609999999999,-0.121625,-0.327456,-0.181399,-0.535195,-0.120702,0.187051,-0.5482250000000001,-0.108804,1
157,-0.0235274999999999,0.68433,-0.2349795,-0.1621804999999999,0.48873,-0.2102995,-0.2735105,0.71438,-0.3756294999999999,0.1204895,0.49134,-0.2299195,0.1983395,0.72619,-0.3958895,-0.2537305,0.93935,-0.5151095,0.1902195,0.99495,-0.5113095,-0.0606455,-0.0004399999999999,0.0035705,0.0606455,0.0004399999999999,-0.0035705,-0.1898705,-0.1388599999999999,-0.2950595,0.1546695,-0.1354499999999999,-0.3198895,-0.1801704999999999,-0.5587199999999999,-0.1223365,0.1862695,-0.5706199999999999,-0.1094475,1
158,-0.024015,0.6842349999999999,-0.2288909999999999,-0.163089,0.491765,-0.2078809999999999,-0.273219,0.718245,-0.366881,0.119971,0.497715,-0.227261,0.198901,0.731195,-0.388841,-0.254409,0.944865,-0.504561,0.191031,1.001265,-0.502601,-0.060656,-0.001075,0.00359,0.060656,0.0010749999999999,-0.0035899999999999,-0.186479,-0.153465,-0.287301,0.153101,-0.148955,-0.312421,-0.179039,-0.581415,-0.1238259999999999,0.185511,-0.591855,-0.1103889999999999,1
159,-0.0243814999999999,0.683505,-0.2223615,-0.1639364999999999,0.4958249999999999,-0.2046214999999999,-0.2726365,0.722055,-0.3576114999999999,0.1197835,0.500875,-0.2243215,0.1990735,0.735595,-0.3814014999999999,-0.2549865,0.949895,-0.4938114999999999,0.1924035,1.006405,-0.4933115,-0.0605355,-0.000805,0.0035615,0.0605355,0.000805,-0.0035614999999999,-0.1832164999999999,-0.1708049999999999,-0.2792314999999999,0.1516635,-0.164515,-0.3032715,-0.1783664999999999,-0.6066450000000001,-0.1251645,0.1847535,-0.615005,-0.1113555,1
160,-0.0250395,0.681665,-0.2143895,-0.1651875,0.500415,-0.2008095,-0.2726675,0.729495,-0.3489595,0.1192025,0.5049049999999999,-0.2209195,0.1991724999999999,0.742615,-0.3735895,-0.2555075,0.958475,-0.4818495,0.1937225,1.013885,-0.4829595,-0.0603555,-0.0007749999999999,0.0034555,0.0603555,0.0007749999999999,-0.0034555,-0.1801575,-0.187005,-0.2704395,0.1501725,-0.178435,-0.2927895,-0.1775275,-0.630645,-0.1255855,0.1840524999999999,-0.636495,-0.1119785,1
161,-0.0256145,0.6767000000000001,-0.2057425,-0.1661574999999999,0.50495,-0.1963625,-0.2727075,0.73813,-0.3419025,0.1188825,0.51004,-0.2164625,0.1990025,0.75085,-0.3675625,-0.2557975,0.96232,-0.4711725,0.1950225,1.01771,-0.4740324999999999,-0.0600375,-0.0005699999999999,0.0035564999999999,0.0600375,0.00057,-0.0035565,-0.1773074999999999,-0.20109,-0.2611925,0.1488525,-0.1904799999999999,-0.2823825,-0.1765874999999999,-0.6516,-0.1255015,0.1831125,-0.6543399999999999,-0.1122425,1
162,-0.02602,0.67029,-0.196243,-0.1668349999999999,0.50907,-0.191723,-0.272085,0.74582,-0.334903,0.118895,0.51427,-0.2118129999999999,0.199185,0.75793,-0.3595629999999999,-0.255725,0.9675,-0.458453,0.196515,1.01874,-0.464053,-0.059472,-0.00053,0.0035789999999999,0.059472,0.00053,-0.0035789999999999,-0.173565,-0.2106099999999999,-0.250513,0.147245,-0.203,-0.2708129999999999,-0.175255,-0.67015,-0.125077,0.182335,-0.6725099999999999,-0.112413,1
163,-0.0257529999999999,0.66353,-0.1861305,-0.167478,0.51541,-0.1859105,-0.270538,0.7534799999999999,-0.3273205,0.119502,0.51832,-0.2068605,0.200042,0.7650399999999999,-0.3510105,-0.255078,0.9726,-0.4464605,0.198522,1.02185,-0.4523905,-0.058655,-0.00048,0.0035474999999999,0.058655,0.00048,-0.0035475,-0.168868,-0.21941,-0.2393805,0.146082,-0.21563,-0.2586105,-0.1731079999999999,-0.68704,-0.1241315,0.182262,-0.68977,-0.1126205,1
164,-0.0253895,0.659475,-0.176576,-0.1679205,0.519775,-0.180071,-0.2686605,0.759285,-0.318671,0.1200395,0.521255,-0.201601,0.2009595,0.770195,-0.341531,-0.2543805,0.978195,-0.433111,0.2009695,1.025285,-0.439871,-0.0578915,-7.50000000000195e-05,0.0035189999999999,0.0578915,7.499999999999174e-05,-0.003519,-0.1639005,-0.229775,-0.227671,0.1442995,-0.224025,-0.243251,-0.1707505,-0.7039650000000001,-0.122339,0.1816895,-0.7037950000000001,-0.112396,1
165,-0.0252564999999999,0.655275,-0.166969,-0.1686375,0.524855,-0.174795,-0.2671475,0.766955,-0.309272,0.1200325,0.523685,-0.196772,0.2012025,0.776085,-0.331292,-0.2540675,0.991875,-0.420692,0.2028225,1.027605,-0.428962,-0.0573485,0.000325,0.0035049999999999,0.0573485,-0.000325,-0.0035049999999999,-0.1590774999999999,-0.237805,-0.215642,0.1421225,-0.232045,-0.228602,-0.1683174999999999,-0.717325,-0.120225,0.1808425,-0.716005,-0.1119469999999999,1
166,-0.0255075,0.652547,-0.157919,-0.1691814999999999,0.531397,-0.169108,-0.2664015,0.774637,-0.298632,0.1188684999999999,0.525127,-0.192152,0.1999185,0.7819069999999999,-0.319722,-0.2540515,0.999617,-0.407922,0.2036285,1.030187,-0.416822,-0.0570115,0.000632,0.003333,0.0570115,-0.0006319999999999,-0.003333,-0.1546315,-0.243993,-0.201482,0.1395785,-0.2402329999999999,-0.213502,-0.1660615,-0.729063,-0.116979,0.1799085,-0.728103,-0.111202,1
167,-0.0258025,0.650104,-0.1489095,-0.1698124999999999,0.534314,-0.1633025,-0.2660825,0.782624,-0.2877254999999999,0.1178475,0.521194,-0.1874155,0.1985675,0.7846139999999999,-0.3072955,-0.2539425,1.006414,-0.3937455,0.2042575,1.031624,-0.4025055,-0.0567395,0.0013859999999999,0.0031734999999999,0.0567395,-0.0013859999999999,-0.0031735,-0.1497925,-0.2508559999999999,-0.1872455,0.1366475,-0.246576,-0.1962155,-0.1637324999999999,-0.740186,-0.1132355,0.1788375,-0.737926,-0.1095525,1
168,-0.0259685,0.6480855,-0.139419,-0.1701725,0.5340855,-0.158069,-0.2652625,0.7890155,-0.276123,0.1169775,0.5214155,-0.182433,0.1973875,0.7875854999999999,-0.2937929999999999,-0.2533525,1.0149055,-0.3782029999999999,0.2052975,1.0354055,-0.3876929999999999,-0.0566045,0.0015014999999999,0.002874,0.0566045,-0.0015015,-0.002874,-0.1447525,-0.2537545,-0.172783,0.1342475,-0.2498445,-0.179653,-0.1611225,-0.7469545000000001,-0.108288,0.1780775,-0.7439745,-0.106919,1
169,-0.0263695,0.6510480000000001,-0.1272335,-0.1701675,0.533778,-0.1489575,-0.2643175,0.7922680000000001,-0.2589615,0.1161924999999999,0.520198,-0.1737314999999999,0.1962125,0.787678,-0.2757715,-0.2533475,1.019998,-0.3582815,0.2055625,1.040558,-0.3669615,-0.0565445,0.0013469999999999,0.0028934999999999,0.0565445,-0.001347,-0.0028935,-0.1395175,-0.256462,-0.1537775,0.1321425,-0.253242,-0.1577625,-0.1587474999999999,-0.7534219999999999,-0.0992985,0.1774325,-0.7496619999999999,-0.0995415,1
170,-0.0279225,0.6603195,-0.1122855,-0.1699695,0.5257695,-0.1355915,-0.2634695,0.7871795,-0.2373335,0.1157905,0.5234795,-0.1560395,0.1951305,0.7901095,-0.2542935,-0.2535095,1.0165595,-0.3332735,0.2056705,1.0449995,-0.3436734999999999,-0.0567915,0.0007295,0.0027814999999999,0.0567915,-0.0007295,-0.0027814999999999,-0.1341195,-0.2665105,-0.1296255,0.1290205,-0.2645805,-0.1310935,-0.1562595,-0.7671005000000001,-0.0863375,0.1781505,-0.7677205,-0.0881695,1
171,-0.029422,0.670566,-0.097777,-0.1696,0.5182260000000001,-0.122245,-0.2623,0.7823460000000001,-0.215992,0.11547,0.527356,-0.138303,0.1938,0.790976,-0.234342,-0.2534,1.015556,-0.310412,0.20539,1.050756,-0.321212,-0.056966,0.000282,0.0024109999999999,0.056966,-0.0002819999999999,-0.002411,-0.13002,-0.280854,-0.107682,0.12689,-0.275804,-0.10681,-0.1540899999999999,-0.782284,-0.073238,0.17904,-0.780204,-0.076814,1
172,-0.0311305,0.680707,-0.083824,-0.1688545,0.508127,-0.110419,-0.2614345,0.776317,-0.195173,0.1152355,0.530077,-0.121571,0.1923555,0.790857,-0.215063,-0.2533345,1.0133070000000002,-0.287543,0.2045555,1.0538070000000002,-0.300223,-0.0569645,-0.000248,0.0020389999999999,0.0569645,0.0002479999999999,-0.002039,-0.1267545,-0.294323,-0.087245,0.1251155,-0.285453,-0.083895,-0.1521545,-0.796403,-0.060231,0.1799655,-0.792823,-0.064746,1
173,-0.0328435,0.6877880000000001,-0.069777,-0.1680335,0.499318,-0.098968,-0.2606035,0.771458,-0.174955,0.1152064999999999,0.534428,-0.105132,0.1907865,0.791208,-0.196765,-0.2537534999999999,1.012718,-0.264225,0.2035364999999999,1.056018,-0.279445,-0.0569925,-0.000916,0.001604,0.0569925,0.000916,-0.001604,-0.1239135,-0.305672,-0.068294,0.1240965,-0.296872,-0.064943,-0.1504635,-0.808362,-0.0480219999999999,0.1809565,-0.806202,-0.052724,1
174,-0.0346395,0.6948405,-0.0558965,-0.1671235,0.4905905,-0.0873715,-0.2597635,0.7642205,-0.1556294999999999,0.1154265,0.5388205,-0.0886775,0.1894165,0.7901605,-0.1789895,-0.2535435,1.0073405,-0.2416094999999999,0.2021565,1.0578405,-0.2587495,-0.0572055,-0.0015415,0.0011694999999999,0.0572055,0.0015414999999999,-0.0011695,-0.1215435,-0.3176994999999999,-0.0507895,0.1230965,-0.3090695,-0.0468305,-0.1490635,-0.8209895,-0.0360885,0.1822765,-0.8188895,-0.0394265,1
175,-0.036777,0.702699,-0.0424835,-0.166245,0.482839,-0.0762205,-0.258915,0.757579,-0.1381774999999999,0.116155,0.544159,-0.0725745,0.188765,0.789539,-0.1629274999999999,-0.253725,1.002609,-0.2199074999999999,0.200185,1.0601090000000002,-0.2393575,-0.057646,-0.002145,0.0007545,0.057646,0.002145,-0.0007545,-0.119675,-0.329351,-0.0364505,0.121885,-0.320461,-0.0304484999999999,-0.148175,-0.832721,-0.0253815,0.183755,-0.8315210000000001,-0.0263284999999999,1
176,-0.03887,0.7109825000000001,-0.0296255,-0.165379,0.4747725,-0.0651475,-0.258349,0.7513125,-0.1218745,0.116911,0.5486424999999999,-0.0564845,0.1882009999999999,0.7896125,-0.1479745,-0.253969,0.9933525,-0.2004645,0.197991,1.0613525,-0.2218645,-0.058074,-0.0024555,0.0003254999999999,0.058074,0.0024554999999999,-0.0003255,-0.118769,-0.3405075,-0.0238805,0.121061,-0.3324675,-0.0167705,-0.147369,-0.8440175000000001,-0.0149295,0.1869309999999999,-0.8476475000000001,-0.0133375,1
177,-0.0410715,0.7196,-0.017393,-0.1646804999999999,0.4681499999999999,-0.054608,-0.2576704999999999,0.7456200000000001,-0.106983,0.1176794999999999,0.55452,-0.0407789999999999,0.1875295,0.7900200000000001,-0.134233,-0.2540005,0.98783,-0.183193,0.1956395,1.06263,-0.204923,-0.0584545,-0.0030949999999999,1.4000000000000123e-05,0.0584545,0.003095,-1.4000000000000123e-05,-0.1179705,-0.351,-0.0125929999999999,0.1200894999999999,-0.34366,-0.0046319999999999,-0.1468104999999999,-0.8545,-0.005717,0.1893895,-0.86279,-0.0012879999999999,1
178,-0.0430634999999999,0.7231894999999999,-0.0092725,-0.1640895,0.4622695,-0.0484255,-0.2578495,0.7396795,-0.0975035,0.1182305,0.5624195000000001,-0.0293705,0.1866705,0.7908995000000001,-0.1253234999999999,-0.2545195,0.9787795,-0.1723335,0.1944805,1.0622795,-0.1950734999999999,-0.0588335,-0.0031954999999999,-0.0006835,0.0588335,0.0031955,0.0006835,-0.1174195,-0.3612505,-0.0072625,0.1188005,-0.3539105,0.0007235,-0.1462395,-0.8647505,-0.0012685,0.1902704999999999,-0.8730404999999999,0.0033764999999999,1
179,-0.04383,0.7228265,-0.00466,-0.163623,0.4627665,-0.0469649999999999,-0.258423,0.7401765,-0.09233,0.118427,0.5625964999999999,-0.027535,0.185847,0.7906565000000001,-0.11967,-0.255213,0.9788165,-0.1658099999999999,0.1931469999999999,1.0621165,-0.1893,-0.059239,-0.0029734999999999,-0.001058,0.059239,0.0029735,0.001058,-0.116983,-0.3613335,-0.006724,0.118407,-0.3541035,0.0013299999999999,-0.145783,-0.8649635,-0.0006779999999999,0.192997,-0.8764235,0.006305,1
180,-0.04398,0.7225195,-0.0003315,-0.164103,0.4674994999999999,-0.0427275,-0.258623,0.7406595,-0.0872515,0.119207,0.5628895,-0.0257115,0.185897,0.7904795,-0.1140735,-0.255033,0.9825095,-0.1593335,0.192377,1.0619095,-0.1831635,-0.059429,-0.0028384999999999,-0.0013665,0.059429,0.0028385,0.0013664999999999,-0.1161329999999999,-0.3612205,-0.0064414999999999,0.118477,-0.3541705,0.0017035,-0.144983,-0.8648305,-0.0003934999999999,0.196437,-0.8799105,0.0087474999999999,1
181,-0.0436745,0.721501,0.0038125,-0.1661345,0.4757009999999999,-0.0349045,-0.2584745,0.7402409999999999,-0.0823305,0.1201754999999999,0.562491,-0.0219974999999999,0.1869355,0.789571,-0.1085585,-0.2543445,0.985491,-0.1534685,0.1922255,1.060991,-0.1773785,-0.0591475,-0.0025199999999999,-0.0016614999999999,0.0591475,0.0025199999999999,0.0016614999999999,-0.1154345,-0.3610989999999999,-0.0061824999999999,0.1188554999999999,-0.354449,0.0021635,-0.1438845,-0.8647090000000001,-0.0001504999999999,0.1993055,-0.883439,0.0110025,1
182,-0.042681,0.720275,0.008226,-0.167667,0.483715,-0.02717,-0.257727,0.7397050000000001,-0.07847,0.121443,0.562015,-0.0181209999999999,0.187743,0.786735,-0.103442,-0.253557,0.981265,-0.150562,0.1930029999999999,1.0600649999999998,-0.172112,-0.059056,-0.0022289999999999,-0.0018519999999999,0.059056,0.0022289999999999,0.001852,-0.114427,-0.361035,-0.007147,0.1198429999999999,-0.354695,0.0013249999999999,-0.1423269999999999,-0.864645,-1.1999999999999858e-05,0.2022229999999999,-0.8891249999999999,0.013044,1
183,-0.04157,0.718607,0.0118845,-0.169207,0.491467,-0.0195795,-0.2570469999999999,0.738927,-0.0752075,0.122643,0.561207,-0.0142034999999999,0.189023,0.784607,-0.0995295,-0.252617,0.975607,-0.1478594999999999,0.194293,1.058907,-0.1674695,-0.058984,-0.0019479999999999,-0.0019815,0.058984,0.001948,0.0019815,-0.113297,-0.361003,-0.0080425,0.1208529999999999,-0.354923,0.0007814999999999,-0.140647,-0.864613,2.650000000000048e-05,0.204153,-0.891373,0.0152615,1
184,-0.040519,0.7168625,0.014915,-0.170938,0.4993025,-0.012197,-0.256428,0.7382725000000001,-0.072244,0.123762,0.5602825,-0.010373,0.190792,0.7831825000000001,-0.096375,-0.251778,0.9705725,-0.1459849999999999,0.196062,1.0577725,-0.1641949999999999,-0.058892,-0.0017204999999999,-0.0020479999999999,0.058892,0.0017204999999999,0.002048,-0.112178,-0.3610175,-0.008825,0.1217419999999999,-0.3550875,0.000445,-0.139098,-0.8646375,-0.0001259999999999,0.207462,-0.8960174999999999,0.015072,1
185,-0.0394035,0.7162885,0.0176385,-0.1727375,0.5073885,-0.0049284999999999,-0.2557175,0.7376885000000001,-0.0700845,0.1251825,0.5596985,-0.0071584999999999,0.1924525,0.7821785,-0.0938425,-0.2508075,0.9699885,-0.1443324999999999,0.1976824999999999,1.0568885,-0.1628125,-0.0588625,-0.0014654999999999,-0.0021674999999999,0.0588625,0.0014655,0.0021675,-0.1110375,-0.3609915,-0.0093924999999999,0.1226325,-0.3552815,0.0002225,-0.1376474999999999,-0.8646315,-0.0003274999999999,0.2104625,-0.8967215,0.0133815,1
186,-0.0382555,0.7154925,0.0199885,-0.1747915,0.5156225,0.0021614999999999,-0.2552715,0.7374525000000001,-0.0689935,0.1265585,0.5594625,-0.0046875,0.1938285,0.7815125,-0.0917815,-0.2508015,0.9677525,-0.1445715,0.1989685,1.0565525,-0.1630915,-0.0588985,-0.0012295,-0.0023955,0.0588985,0.0012294999999999,0.0023954999999999,-0.1099315,-0.3609575,-0.0097875,0.1234484999999999,-0.3554675,-3.850000000000034e-05,-0.1365615,-0.8646075,-0.0008875,0.2127285,-0.8988674999999999,0.0131075,1
187,-0.037191,0.7144925,0.0218205,-0.177091,0.5224825000000001,0.0091055,-0.255321,0.7374525000000001,-0.0689095,0.127669,0.5594625,-0.0016734999999999,0.1950889999999999,0.7805125,-0.0902044999999999,-0.251831,0.9657525,-0.1448745,0.200239,1.0555525,-0.1634845,-0.059002,-0.0012295,-0.0026704999999999,0.059002,0.0012294999999999,0.0026705,-0.108981,-0.3609575,-0.0101694999999999,0.124369,-0.3554675,-0.0004194999999999,-0.135791,-0.8646075,-0.0014864999999999,0.2137089999999999,-0.8988674999999999,0.0127245,1
188,-0.036482,0.7131365,0.023186,-0.179395,0.5273065,0.015758,-0.2565949999999999,0.7367365,-0.069393,0.128435,0.5589065,0.001168,0.197565,0.7785565,-0.08927,-0.253665,0.9615665,-0.14551,0.2023249999999999,1.0540665,-0.1641,-0.059168,-0.0012154999999999,-0.0029189999999999,0.059168,0.0012155,0.002919,-0.108345,-0.3609435,-0.0107249999999999,0.125005,-0.3555435,-0.0009749999999999,-0.135315,-0.8645935,-0.0021809999999999,0.212645,-0.8961735000000001,0.01306,1
189,-0.036347,0.7117975000000001,0.024298,-0.1807,0.5273675,0.019205,-0.25966,0.7341375000000001,-0.069997,0.12863,0.5577475000000001,0.0038269999999999,0.20192,0.7737475,-0.090163,-0.25707,0.9551275,-0.146123,0.2054699999999999,1.0497275,-0.166193,-0.059268,-0.0011544999999999,-0.00314,0.059268,0.0011545,0.0031399999999999,-0.10828,-0.3609124999999999,-0.011473,0.12508,-0.3556425,-0.00145,-0.13544,-0.8645525000000001,-0.003039,0.2111299999999999,-0.8975825,0.013142,1
190,-0.036225,0.7113125,0.0251175,-0.180679,0.5281325,0.0195875,-0.265419,0.7292825,-0.0705455,0.1296709999999999,0.5545725,0.0051195,0.209201,0.7665925,-0.0911995,-0.261599,0.9477925,-0.1485595,0.209511,1.0423925,-0.1706795,-0.059266,-0.0008805,-0.0030835,0.059266,0.0008804999999999,0.0030834999999999,-0.108319,-0.3608475,-0.0123655,0.1250609999999999,-0.3558075,-0.0018445,-0.135649,-0.8644875000000001,-0.0039555,0.210071,-0.8946375000000001,0.0120495,1
191,-0.0357955,0.7118975,0.0262655,-0.1806645,0.5297475,0.0202375,-0.2735245,0.7220775,-0.0714095,0.1313355,0.5511375,0.0068835,0.2196554999999999,0.7548775,-0.0910675,-0.2674145,0.9402075,-0.1555655,0.2145554999999999,1.0294075,-0.1767655,-0.0592614999999999,-0.0006204999999999,-0.0029654999999999,0.0592614999999999,0.0006204999999999,0.0029655,-0.1077245,-0.3608525,-0.0131744999999999,0.1258254999999999,-0.3558325,-0.0020855,-0.1358645,-0.8644425,-0.0047615,0.2091555,-0.8910525,0.0113845,1
192,-0.035137,0.7129165000000001,0.027721,-0.1806559999999999,0.5317265,0.021031,-0.283786,0.7118665000000001,-0.071708,0.133314,0.5480665,0.0088449999999999,0.236574,0.7434765,-0.091304,-0.273866,0.9296665,-0.164268,0.221114,1.0113664999999998,-0.186868,-0.0592549999999999,-0.0004964999999999,-0.002803,0.0592549999999999,0.0004965,0.002803,-0.1071159999999999,-0.3608935,-0.0138059999999999,0.126614,-0.3557935,-0.002216,-0.136076,-0.8644335,-0.005475,0.208764,-0.8868134999999999,0.011164,1
193,-0.0349125,0.7156245,0.0295365,-0.1810365,0.5286045,0.0221965,-0.2959265,0.6966245,-0.0712205,0.1353335,0.5454345,0.0111795,0.2528835,0.7275645000000001,-0.0923495,-0.2814165,0.9161045,-0.1763595,0.2290535,0.9857145,-0.1982495,-0.0593664999999999,-0.0006644999999999,-0.0025375,0.0593664999999999,0.0006645,0.0025375,-0.1072164999999999,-0.3610655,-0.0142435,0.1271335,-0.3554855,-0.0024194999999999,-0.1369665,-0.8645355,-0.0059805,0.2089835,-0.8863455,0.0122675,1
194,-0.034794,0.71925,0.0315625,-0.181657,0.52566,0.0235275,-0.309057,0.6763399999999999,-0.0707235,0.137563,0.54189,0.0135285,0.269063,0.70444,-0.0919185,-0.292737,0.88874,-0.1892835,0.239793,0.94741,-0.2117235,-0.059504,-0.0007899999999999,-0.0022424999999999,0.059504,0.0007899999999999,0.0022425,-0.107507,-0.36116,-0.0146084999999999,0.127593,-0.35522,-0.0026584999999999,-0.138117,-0.86454,-0.0063334999999999,0.2070229999999999,-0.88091,0.0128055,0
195,-0.0348194999999999,0.723736,0.0336745,-0.1825075,0.522926,0.0247435,-0.3204175,0.650396,-0.0702005,0.1396725,0.538416,0.0156185,0.2825025,0.676516,-0.0912355,-0.3047275,0.8544860000000001,-0.2051125,0.2499725,0.902656,-0.2266225,-0.0596885,-0.000932,-0.0019705,0.0596885,0.000932,0.0019705,-0.1080075,-0.361214,-0.0148864999999999,0.1279925,-0.3549339999999999,-0.0029274999999999,-0.1395275,-0.8645039999999999,-0.0065454999999999,0.2048825,-0.874354,0.0135185,0
196,-0.0347689999999999,0.728599,0.0360375,-0.183363,0.519989,0.0255445,-0.329533,0.618619,-0.0689315,0.141647,0.534369,0.0172845,0.293487,0.644109,-0.0896335,-0.313103,0.813599,-0.2204875,0.259527,0.848139,-0.2371775,-0.0599129999999999,-0.001027,-0.0018375,0.0599129999999999,0.001027,0.0018374999999999,-0.108553,-0.361211,-0.0151065,0.1284269999999999,-0.354681,-0.0030575,-0.1410529999999999,-0.864381,-0.0066115,0.203387,-0.867471,0.0143054999999999,0
197,-0.034668,0.7337495,0.038613,-0.184324,0.5164495,0.026233,-0.334914,0.5824995000000001,-0.067101,0.143226,0.5304595,0.018501,0.300956,0.6053595,-0.081721,-0.319104,0.7595195,-0.230851,0.268866,0.7810895,-0.237571,-0.060148,-0.0012594999999999,-0.001792,0.060148,0.0012595,0.001792,-0.109234,-0.3613105,-0.015336,0.1287859999999999,-0.3543205,-0.003098,-0.142674,-0.8643605,-0.0065869999999999,0.201846,-0.8598505,0.014887,0
198,-0.0346645,0.7393270000000001,0.0412305,-0.1853205,0.5124770000000001,0.0266225,-0.3370605,0.543137,-0.0619765,0.1445095,0.526567,0.0190995,0.3039294999999999,0.5650569999999999,-0.0701785,-0.3253405,0.6933769999999999,-0.2304985,0.2772194999999999,0.7062870000000001,-0.2377685,-0.0603605,-0.0014929999999999,-0.0016684999999999,0.0603605,0.001493,0.0016684999999999,-0.1101404999999999,-0.361383,-0.0154995,0.1290595,-0.353953,-0.0029925,-0.1443605,-0.864303,-0.0060955,0.2004995,-0.8543829999999999,0.0152135,0
199,-0.0347475,0.7444745,0.0434725,-0.1861625,0.5088345,0.0268515,-0.3381725,0.5029245,-0.0525025,0.1449275,0.5241045,0.0192805,0.3029175,0.5245345,-0.0581315,-0.3268625,0.6213145,-0.2302455,0.2821375,0.6253345,-0.2377555,-0.0605634999999999,-0.0017355,-0.0014625,0.0605634999999999,0.0017355,0.0014624999999999,-0.1111024999999999,-0.3614555,-0.0157295,0.1291775,-0.3536154999999999,-0.0030105,-0.1460325,-0.8642455,-0.0055375,0.1988474999999999,-0.8491354999999999,0.0154735,0
200,-0.0347995,0.748198,0.0450215,-0.1871445,0.506178,0.0271845,-0.3391345,0.462558,-0.0428065,0.1450655,0.5216080000000001,0.0195715,0.3020555,0.486248,-0.0459765,-0.3281745,0.544978,-0.2299004999999999,0.2831255,0.540918,-0.2348404999999999,-0.0607085,-0.0019799999999999,-0.0011625,0.0607085,0.00198,0.0011624999999999,-0.1123344999999999,-0.361462,-0.0159805,0.1292455,-0.353282,-0.0029885,-0.1475844999999999,-0.864152,-0.0049405,0.1969355,-0.841872,0.0163994999999999,0
201,-0.0346724999999999,0.751982,0.045761,-0.1878705,0.503582,0.027627,-0.3398705,0.424002,-0.032322,0.1451695,0.518852,0.019982,0.3013895,0.442762,-0.0337009999999999,-0.3291205,0.461932,-0.2249229999999999,0.2823595,0.453632,-0.225243,-0.0608824999999999,-0.002169,-0.000911,0.0608824999999999,0.002169,0.000911,-0.1133905,-0.361428,-0.016224,0.1294595,-0.352978,-0.002907,-0.1489605,-0.864038,-0.0042399999999999,0.1951395,-0.836698,0.017528,0
202,-0.034393,0.7553580000000001,0.0463369999999999,-0.188351,0.5027680000000001,0.0274389999999999,-0.336941,0.388308,-0.020762,0.145139,0.5160680000000001,0.019965,0.299439,0.402078,-0.02063,-0.329691,0.378308,-0.214331,0.282039,0.369658,-0.208051,-0.061085,-0.002075,-0.0008029999999999,0.061085,0.002075,0.0008029999999999,-0.114221,-0.361172,-0.01624,0.129709,-0.352962,-0.0026429999999999,-0.1501509999999999,-0.8636919999999999,-0.003265,0.194189,-0.833642,0.01815,0
203,-0.034032,0.758563,0.0468515,-0.188624,0.5021629999999999,0.0263885,-0.328844,0.353473,-0.0079235,0.1448559999999999,0.5140129999999999,0.0186715,0.292236,0.365813,-0.0080404999999999,-0.325624,0.302663,-0.1961284999999999,0.282036,0.293873,-0.1842185,-0.061235,-0.002033,-0.0006835,0.061235,0.002033,0.0006835,-0.115134,-0.360977,-0.0163295,0.129846,-0.352897,-0.0023944999999999,-0.151274,-0.8633970000000001,-0.0023634999999999,0.193216,-0.830847,0.0190625,0
204,-0.033333,0.76139,0.0472545,-0.188698,0.50176,0.0247945,-0.315898,0.32281,0.0055505,0.144772,0.5120600000000001,0.0165855,0.277842,0.33412,0.0056955,-0.317698,0.23188,-0.1713725,0.280842,0.22404,-0.1521925,-0.061355,-0.0019759999999999,-0.0005404999999999,0.061355,0.001976,0.0005404999999999,-0.115858,-0.36081,-0.0165745,0.129962,-0.35288,-0.0022354999999999,-0.152158,-0.86313,-0.0015484999999999,0.192222,-0.82619,0.0201765,0
205,-0.0325745,0.7637565,0.047039,-0.1887095,0.5015665,0.022532,-0.3007195,0.2982565,0.018047,0.1447605,0.5109665,0.013628,0.2627405,0.3078465,0.02035,-0.3066895,0.1691565,-0.137907,0.2756705,0.1647365,-0.113217,-0.0614485,-0.0019524999999999,-0.000458,0.0614485,0.0019525,0.000458,-0.1164495,-0.3607135,-0.016901,0.1299905,-0.3528635,-0.002145,-0.1529095,-0.8629335,-0.000833,0.1912405,-0.8258235,0.0205559999999999,0
206,-0.0317365,0.7657039999999999,0.045873,-0.1885305,0.501734,0.019852,-0.2840904999999999,0.279004,0.0312879999999999,0.1448495,0.5098739999999999,0.0104,0.2478295,0.288614,0.03118,-0.2914305,0.120634,-0.10358,0.2659095,0.118384,-0.073019,-0.0615285,-0.001862,-0.0003739999999999,0.0615285,0.0018619999999999,0.0003739999999999,-0.1168505,-0.360586,-0.017303,0.1300395,-0.352946,-0.0021049999999999,-0.1535405,-0.862696,-0.0002599999999999,0.1898795,-0.824016,0.021754,0
207,-0.0308419999999999,0.7672445,0.043938,-0.188291,0.5021645,0.017114,-0.2695309999999999,0.2646644999999999,0.042579,0.145019,0.5089845,0.0070799999999999,0.2351889999999999,0.2735045,0.040029,-0.277151,0.0840995,-0.0599689999999999,0.257949,0.0825335,-0.028724,-0.061601,-0.0018014999999999,-0.000344,0.061601,0.0018015,0.000344,-0.117121,-0.3605055,-0.0176969999999999,0.129979,-0.3530255,-0.00217,-0.154061,-0.8625055,0.000144,0.1886689999999999,-0.8223655,0.022104,0
208,-0.029909,0.768374,0.041403,-0.188104,0.502884,0.014675,-0.2577339999999999,0.2532339999999999,0.051413,0.1452659999999999,0.508414,0.0039889999999999,0.2251159999999999,0.260584,0.049595,-0.266044,0.0541739999999999,-0.017341,0.252856,0.0548819999999999,0.0116689999999999,-0.0616289999999999,-0.001749,-0.0003189999999999,0.0616289999999999,0.0017489999999999,0.0003189999999999,-0.117314,-0.360426,-0.0180299999999999,0.129986,-0.353086,-0.002312,-0.154474,-0.862356,0.0005599999999999,0.1875659999999999,-0.819206,0.023194,0
209,-0.0290655,0.768494,0.0382235,-0.1879515,0.502884,0.0123495,-0.2496915,0.245274,0.0592414999999999,0.1455284999999999,0.508414,0.0011614999999999,0.2187384999999999,0.250314,0.0573015,-0.2575115,0.033097,0.0171755,0.2480484999999999,0.0349439999999999,0.0383705,-0.0616474999999999,-0.001749,-0.0003444999999999,0.0616474999999999,0.0017489999999999,0.0003444999999999,-0.1174615,-0.360426,-0.0183455,0.1299584999999999,-0.353086,-0.0025904999999999,-0.1548915,-0.862356,0.0009505,0.1872484999999999,-0.819206,0.0232845,0
210,-0.0283975,0.768694,0.0343805,-0.1878665,0.502884,0.0102875,-0.2447464999999999,0.238374,0.0646965,0.1458335,0.508414,-0.0012104999999999,0.2156035,0.245034,0.0627095,-0.2519465,0.020991,0.0358655,0.2450435,0.023292,0.0565105,-0.0616445,-0.001749,-0.0003524999999999,0.0616445,0.0017489999999999,0.0003525,-0.1175865,-0.360426,-0.0186625,0.1298335,-0.353086,-0.0033644999999999,-0.1552565,-0.862356,0.0013175,0.1870235,-0.818466,0.0243625,0
