sb224sc-HT22-VT27/4dt907/src/data/labeled_files/A72_kinect.csv
FrameNo,nose_3d_x,nose_3d_y,nose_3d_z,left_shoulder_3d_x,left_shoulder_3d_y,left_shoulder_3d_z,left_elbow_3d_x,left_elbow_3d_y,left_elbow_3d_z,right_shoulder_3d_x,right_shoulder_3d_y,right_shoulder_3d_z,right_elbow_3d_x,right_elbow_3d_y,right_elbow_3d_z,left_wrist_3d_x,left_wrist_3d_y,left_wrist_3d_z,right_wrist_3d_x,right_wrist_3d_y,right_wrist_3d_z,left_hip_3d_x,left_hip_3d_y,left_hip_3d_z,right_hip_3d_x,right_hip_3d_y,right_hip_3d_z,left_knee_3d_x,left_knee_3d_y,left_knee_3d_z,right_knee_3d_x,right_knee_3d_y,right_knee_3d_z,left_ankle_3d_x,left_ankle_3d_y,left_ankle_3d_z,right_ankle_3d_x,right_ankle_3d_y,right_ankle_3d_z,activity_label
0,-0.0367194999999999,0.7665335,0.0147174999999999,-0.1978915,0.5067335000000001,0.0097644999999999,-0.2461515,0.2562735,0.0033024999999999,0.1442985,0.5062435000000001,-0.0052995,0.2045585,0.2410435,-0.0140085,-0.2268915,0.0318125,-0.0892325,0.2144085,0.0058865,-0.1004125,-0.0618855,-0.0022455,-0.0006775,0.0618855,0.0022455,0.0006774999999999,-0.1186815,-0.3601365,-0.0109995,0.1285784999999999,-0.3523365,0.0014974999999999,-0.1596815,-0.8616665,0.0097024999999999,0.1814484999999999,-0.8142165,0.0348804999999999,0
1,-0.03686,0.7661825000000001,0.0143535,-0.198274,0.5066025000000001,0.0093355,-0.245364,0.2571425,0.0018234999999999,0.144026,0.5063525000000001,-0.0054395,0.204286,0.2407225,-0.0143304999999999,-0.225064,0.0297995,-0.0884214999999999,0.214176,0.0033095,-0.0971815,-0.061919,-0.0023545,-0.0006644999999999,0.061919,0.0023545,0.0006644999999999,-0.118944,-0.3602175,-0.0110405,0.128336,-0.3522575,0.0016275,-0.161644,-0.8617275,0.0078975,0.181876,-0.8152974999999999,0.0351135,0
2,-0.0371235,0.7659305000000001,0.013855,-0.1989615,0.5063105,0.008453,-0.2435915,0.2576405,-0.0035509999999999,0.1438785,0.5066205,-0.0059509999999999,0.2035384999999999,0.2410105,-0.018004,-0.2234015,0.0286795,-0.089214,0.2150385,-0.0075305,-0.101474,-0.0618905,-0.0024245,-0.0006569999999999,0.0618905,0.0024245,0.000657,-0.1192515,-0.3602395,-0.0111259999999999,0.1281385,-0.3522295,0.00158,-0.1614715,-0.8617595,0.00836,0.2014985,-0.8810494999999999,0.025563,0
3,-0.0375645,0.7659969999999999,0.0133,-0.1997615,0.5062669999999999,0.007599,-0.2419815,0.260807,-0.0132339999999999,0.1434085,0.506817,-0.0068229999999999,0.2021185,0.242027,-0.0279089999999999,-0.2209115,0.027044,-0.0986959999999999,0.2166885,-0.009129,-0.1082159999999999,-0.0618135,-0.002401,-0.0004779999999999,0.0618135,0.002401,0.000478,-0.1197315,-0.360183,-0.0115909999999999,0.1277185,-0.3523529999999999,0.001156,-0.1603915,-0.8618030000000001,0.008276,0.1781785,-0.817593,0.037634,0
4,-0.0378365,0.7660365,0.0129275,-0.2003585,0.5056465,0.0061415,-0.2400985,0.2669965,-0.0261745,0.1430315,0.5069865,-0.0074945,0.1994815,0.2512365,-0.0426584999999999,-0.2143885,0.0232535,-0.1221805,0.2186015,0.0260135,-0.1374004999999999,-0.0617735,-0.0025595,-0.0003345,0.0617735,0.0025595,0.0003345,-0.1200084999999999,-0.3603134999999999,-0.0117275,0.1274715,-0.3522435,0.0008495,-0.1608285,-0.8618835,0.0085875,0.1772715,-0.8142035000000001,0.0373715,0
5,-0.0381424999999999,0.7659465,0.0126389999999999,-0.2007795,0.5054265,0.0045619999999999,-0.2387794999999999,0.2736765,-0.041159,0.1425005,0.5070264999999999,-0.008634,0.1982505,0.2658164999999999,-0.063641,-0.2251695,0.0483065,-0.178968,0.2232305,0.0352575,-0.1680479999999999,-0.0616935,-0.0026255,-0.000143,0.0616935,0.0026255,0.0001429999999999,-0.1203395,-0.3603435,-0.011994,0.1266005,-0.3518335,0.0047769999999999,-0.1610595,-0.8619435,0.0080799999999999,0.1593705,-0.7214835,0.023104,0
6,-0.038366,0.76548,0.0131184999999999,-0.200933,0.5045700000000001,0.0025684999999999,-0.238973,0.2865,-0.0644595,0.141737,0.50716,-0.0097944999999999,0.197807,0.28421,-0.0824825,-0.228283,0.0672379999999999,-0.2276525,0.2263669999999999,0.052665,-0.2361925,-0.061697,-0.002631,-1.7500000000000154e-05,0.061697,0.002631,1.7500000000000154e-05,-0.120443,-0.3603499999999999,-0.0121054999999999,0.128587,-0.3517499999999999,0.0021804999999999,-0.1613629999999999,-0.86197,0.0074035,0.1998869999999999,-0.85063,0.0067055,0
7,-0.0373615,0.765341,0.0168255,-0.1977345,0.505861,0.0059665,-0.2497745,0.309711,-0.0944685,0.1401855,0.508851,-0.0088085,0.2048255,0.310591,-0.1098385,-0.2305845,0.137421,-0.2648985,0.2160155,0.131161,-0.2786585,-0.0618395,-0.002529,-0.0006115,0.0618395,0.002529,0.0006115,-0.1193144999999999,-0.3603789999999999,-0.0121065,0.1289455,-0.3519589999999999,0.0019135,-0.1601445,-0.8620789999999999,0.0058155,0.1815155,-0.824489,0.0241565,0
8,-0.0374045,0.765292,0.0182029999999999,-0.1966785,0.505762,0.005718,-0.2520885,0.325782,-0.113895,0.1386915,0.510092,-0.00869,0.2060115,0.335212,-0.130205,-0.2316885,0.167312,-0.300025,0.2146414999999999,0.178562,-0.315305,-0.0618545,-0.0025399999999999,-0.000746,0.0618545,0.0025399999999999,0.000746,-0.1193384999999999,-0.3603679999999999,-0.012317,0.1290715,-0.351948,0.001662,-0.1602485,-0.862078,0.0048129999999999,0.1823614999999999,-0.828558,0.0207839999999999,0
9,-0.0374225,0.7651855,0.0199314999999999,-0.1956145,0.5057755,0.0057504999999999,-0.2547045,0.3494255,-0.1341265,0.1369155,0.5115855,-0.0080184999999999,0.2069155,0.3633055,-0.1493465,-0.2341045,0.2166555,-0.3351465,0.2134055,0.2337354999999999,-0.3492365,-0.0618695,-0.0025865,-0.0008295,0.0618695,0.0025865,0.0008295,-0.1193145,-0.3604144999999999,-0.0125825,0.1291555,-0.3519245,0.0012034999999999,-0.1602445,-0.8621245,0.0039114999999999,0.1831455,-0.8325644999999999,0.0173035,0
10,-0.0373645,0.7649595,0.022185,-0.1943555,0.5057094999999999,0.006787,-0.2580955,0.3765695,-0.152787,0.1349445,0.5132295,-0.006515,0.2074445,0.3947095,-0.166947,-0.2366855,0.2748695,-0.3641069999999999,0.2122545,0.2984795,-0.379837,-0.0619025,-0.0026395,-0.0008959999999999,0.0619025,0.0026395,0.000896,-0.1192355,-0.3604704999999999,-0.0128609999999999,0.1292145,-0.3518305,0.000623,-0.1601455,-0.8622405000000001,0.00333,0.1826945,-0.8321705,0.014942,0
11,-0.0372119999999999,0.763794,0.025016,-0.192912,0.505714,0.008687,-0.261992,0.4068239999999999,-0.166958,0.133098,0.514794,-0.004533,0.208138,0.4266939999999999,-0.180748,-0.239332,0.341094,-0.382888,0.210598,0.368594,-0.398768,-0.061951,-0.002662,-0.0009219999999999,0.061951,0.002662,0.0009219999999999,-0.119082,-0.360506,-0.013093,0.129348,-0.351806,0.000392,-0.160102,-0.862336,0.002866,0.184138,-0.836116,0.012931,0
12,-0.0369735,0.76245,0.027688,-0.1912695,0.50563,0.0108259999999999,-0.2657494999999999,0.43929,-0.17611,0.1313605,0.51638,-0.0021599999999999,0.2084205,0.4618899999999999,-0.18906,-0.2414995,0.4121599999999999,-0.39244,0.2080405,0.4446799999999999,-0.4075,-0.0620135,-0.002682,-0.0009529999999999,0.0620135,0.002682,0.0009529999999999,-0.1188295,-0.36056,-0.013136,0.1295204999999999,-0.3518,0.000352,-0.1598495,-0.86244,0.002491,0.1859605,-0.84083,0.011171,0
13,-0.036735,0.760999,0.029837,-0.189735,0.506119,0.0130489999999999,-0.268715,0.475319,-0.180559,0.129695,0.5185489999999999,0.0004029999999999,0.2085449999999999,0.499459,-0.191739,-0.242725,0.481259,-0.397009,0.2039949999999999,0.5242889999999999,-0.4073489999999999,-0.062095,-0.0027289999999999,-0.00095,0.062095,0.002729,0.0009499999999999,-0.118445,-0.360721,-0.01315,0.129735,-0.351821,4.599999999999743e-05,-0.159615,-0.8626210000000001,0.0020429999999999,0.189355,-0.8475210000000001,0.009779,0
14,-0.0364839999999999,0.7592519999999999,0.0310185,-0.188579,0.506782,0.0152415,-0.270579,0.510892,-0.1804895,0.128271,0.5209619999999999,0.0027525,0.208821,0.537272,-0.1917495,-0.2438189999999999,0.549222,-0.3969695,0.198731,0.596642,-0.4071495,-0.062162,-0.002773,-0.0009475,0.062162,0.002773,0.0009475,-0.1180189999999999,-0.360888,-0.0131864999999999,0.129681,-0.351848,-0.0002574999999999,-0.1593089999999999,-0.862808,0.0015665,0.188641,-0.8462080000000001,0.0096595,0
15,-0.036175,0.7572139999999999,0.0314085,-0.187499,0.508004,0.0172055,-0.271899,0.546584,-0.1804145,0.127121,0.5235339999999999,0.0048055,0.209151,0.574464,-0.1917345,-0.245049,0.617574,-0.3968945,0.193641,0.669284,-0.4069345,-0.06221,-0.002717,-0.0009724999999999,0.06221,0.002717,0.0009725,-0.117479,-0.360986,-0.0133604999999999,0.129661,-0.351986,-0.0006724999999999,-0.1589789999999999,-0.862896,0.0011505,0.189271,-0.849786,0.0077295,0
16,-0.0359035,0.7549315,0.0316965,-0.1867345,0.5089615000000001,0.0187465,-0.2729945,0.5840315,-0.1800685,0.1261255,0.5264115,0.0067364999999999,0.2087255,0.6100015,-0.1914185,-0.2447345,0.6917415,-0.3966085,0.1888955,0.7404515,-0.4030085,-0.0622335,-0.0027304999999999,-0.0009265,0.0622335,0.0027305,0.0009265,-0.1169144999999999,-0.3611485,-0.0135215,0.1295455,-0.3520485,-0.0009844999999999,-0.1586745,-0.8630585,0.0008825,0.1887155,-0.8483285,0.0062275,0
17,-0.035566,0.7519699999999999,0.032365,-0.186144,0.5115799999999999,0.0205479999999999,-0.273054,0.6190699999999999,-0.178562,0.125306,0.52881,0.0083689999999999,0.2075159999999999,0.64077,-0.189772,-0.244024,0.7661,-0.390932,0.184546,0.8035199999999999,-0.395282,-0.062215,-0.002562,-0.000928,0.062215,0.002562,0.0009279999999999,-0.116284,-0.3611499999999999,-0.013592,0.129466,-0.35229,-0.001177,-0.158214,-0.8630500000000001,0.0010239999999999,0.189056,-0.8512900000000001,0.0055129999999999,0
18,-0.0353394999999999,0.7482665,0.0333749999999999,-0.1856685,0.5137265,0.0224129999999999,-0.2726485,0.6464965,-0.173326,0.1247014999999999,0.5316164999999999,0.0096309999999999,0.2055515,0.6678165,-0.184176,-0.2446084999999999,0.8233765,-0.374496,0.1813115,0.8581565,-0.377076,-0.0622015,-0.0023594999999999,-0.00097,0.0622015,0.0023595,0.0009699999999999,-0.1156885,-0.3611235,-0.013582,0.1294315,-0.3526135,-0.001719,-0.1577684999999999,-0.8630135,0.0014469999999999,0.1893415,-0.8549935000000001,0.0052859999999999,0
19,-0.0353455,0.7443885,0.034269,-0.1855275,0.5158685000000001,0.023943,-0.2723274999999999,0.6706185,-0.166893,0.1241325,0.5342685,0.010973,0.2029225,0.6912585,-0.175483,-0.2445775,0.8714885,-0.355323,0.1777125,0.9038285,-0.356593,-0.0621455,-0.0022024999999999,-0.0010149999999999,0.0621455,0.0022024999999999,0.001015,-0.1152775,-0.3611415,-0.0135489999999999,0.1290425,-0.3528914999999999,-0.0020869999999999,-0.1575075,-0.8630115,0.002025,0.1894325,-0.8589615,0.005318,0
20,-0.0354875,0.7404375000000001,0.0348884999999999,-0.1854575,0.5182175,0.0253704999999999,-0.2719375,0.6907175,-0.1570655,0.1232625,0.5373675,0.0125025,0.2001525,0.7127475,-0.1637255,-0.2444474999999999,0.9102375,-0.3342954999999999,0.1750025,0.9430475,-0.3308355,-0.0621295,-0.0020834999999999,-0.0010394999999999,0.0621295,0.0020835,0.0010394999999999,-0.1149275,-0.3611925,-0.0133124999999999,0.1284425,-0.3531725,-0.0020234999999999,-0.1572675,-0.8630424999999999,0.0031094999999999,0.1893725,-0.8591424999999999,0.0058984999999999,0
21,-0.0356705,0.7364090000000001,0.035126,-0.1854535,0.5202190000000001,0.027166,-0.2714335,0.7070190000000001,-0.143754,0.1226164999999999,0.5406390000000001,0.014332,0.1975164999999999,0.729149,-0.1506739999999999,-0.2434535,0.941889,-0.307914,0.1734865,0.972909,-0.302924,-0.0621335,-0.0020249999999999,-0.001132,0.0621335,0.0020249999999999,0.001132,-0.1145535,-0.361271,-0.0128539999999999,0.1278365,-0.353401,-0.0016209999999999,-0.1568635,-0.8631209999999999,0.004497,0.1881665,-0.8591709999999999,0.0066599999999999,0
22,-0.0357754999999999,0.731944,0.034921,-0.1852815,0.5215740000000001,0.028869,-0.2701015,0.7174440000000001,-0.1290069999999999,0.1221385,0.543084,0.016186,0.1949585,0.741004,-0.135937,-0.2424315,0.965734,-0.279437,0.1732585,0.994854,-0.273147,-0.0621405,-0.0019239999999999,-0.0013249999999999,0.0621405,0.001924,0.0013249999999999,-0.1142315,-0.361236,-0.0123069999999999,0.1271985,-0.353686,-0.0011,-0.1563015,-0.8630859999999999,0.005873,0.1870685,-0.859286,0.008018,0
23,-0.0359624999999999,0.7288975,0.0340675,-0.1850965,0.5225775,0.0304855,-0.2682365,0.7257574999999999,-0.1153245,0.1217835,0.5452975,0.0177694999999999,0.1916435,0.7518675,-0.1223445,-0.2422365,0.9846575,-0.2544045,0.1735635,1.0106575,-0.2462645,-0.0620885,-0.0018255,-0.0016235,0.0620885,0.0018255,0.0016235,-0.1139365,-0.3611825,-0.0117925,0.1265535,-0.3539725,-0.0005815,-0.1558365,-0.8630225,0.0071494999999999,0.1859035,-0.8580325,0.0096404999999999,0
24,-0.0362345,0.7262275,0.0332975,-0.1848985,0.5231975000000001,0.0318295,-0.2663385,0.7316975,-0.1027995,0.1214514999999999,0.5472775000000001,0.0197035,0.1890315,0.7598175,-0.1106994999999999,-0.2422585,0.9987575,-0.2304994999999999,0.1740914999999999,1.0224575,-0.2225594999999999,-0.0620155,-0.0019205,-0.0019375,0.0620155,0.0019204999999999,0.0019375,-0.1137585,-0.3612725,-0.0113014999999999,0.1257915,-0.3540925,7.449999999999818e-05,-0.1554085,-0.8631225,0.0083384999999999,0.1861515,-0.8659724999999999,0.0115754999999999,0
25,-0.036622,0.723614,0.032684,-0.185022,0.523984,0.033165,-0.264532,0.735454,-0.091269,0.121208,0.549124,0.021336,0.186618,0.765924,-0.100639,-0.242332,1.0072640000000002,-0.209839,0.174538,1.030964,-0.202919,-0.061929,-0.0019739999999999,-0.002298,0.061929,0.001974,0.002298,-0.113752,-0.361326,-0.0108409999999999,0.124958,-0.354266,0.000642,-0.155102,-0.863176,0.009511,0.184998,-0.864836,0.013505,0
26,-0.0370395,0.7213714999999999,0.03244,-0.1853425,0.5232414999999999,0.034382,-0.2631825,0.7379315,-0.0816959999999999,0.1208775,0.5510514999999999,0.022589,0.1844975,0.7702114999999999,-0.092506,-0.2425324999999999,1.0132115000000002,-0.192916,0.1747475,1.0365115,-0.187316,-0.0618475,-0.0021914999999999,-0.00261,0.0618475,0.0021914999999999,0.00261,-0.1138324999999999,-0.3614985,-0.0104889999999999,0.1240475,-0.3543084999999999,0.001168,-0.1549125,-0.8633585,0.0104859999999999,0.1827075,-0.8588385000000001,0.0146249999999999,0
27,-0.0375535,0.719594,0.0325415,-0.1858295,0.522984,0.0354505,-0.2619595,0.739794,-0.0732375,0.1204005,0.552294,0.0236575,0.1824105,0.773714,-0.0854675,-0.2432095,1.017014,-0.1797475,0.1747105,1.041814,-0.1743875,-0.0617594999999999,-0.0024209999999999,-0.0028634999999999,0.0617594999999999,0.0024209999999999,0.0028634999999999,-0.1140295,-0.361696,-0.0101115,0.1230005,-0.354316,0.0017044999999999,-0.1548895,-0.863556,0.0114175,0.1822305,-0.861936,0.0156935,0
28,-0.0380965,0.7178775,0.033093,-0.1862345,0.5225175,0.0364909999999999,-0.2609545,0.7406575,-0.066123,0.1198755,0.5534074999999999,0.0248189999999999,0.1804055,0.7756974999999999,-0.079753,-0.2442345,1.0190775,-0.169653,0.1746555,1.0450775,-0.165023,-0.0616715,-0.0026084999999999,-0.00309,0.0616715,0.0026084999999999,0.0030899999999999,-0.1142545,-0.3618425,-0.009797,0.1219355,-0.3543725,0.0022109999999999,-0.1548344999999999,-0.8636925,0.0122929999999999,0.1817055,-0.8648725,0.0167379999999999,0
29,-0.0387344999999999,0.7162875000000001,0.0338505,-0.1865685,0.5220075000000001,0.0373405,-0.2601385,0.7410275000000001,-0.0599715,0.1194215,0.5540675,0.0259574999999999,0.1785915,0.7769475,-0.0752015,-0.2452585,1.0203274999999998,-0.1611415,0.1746915,1.0474275,-0.1581715,-0.0615944999999999,-0.0027615,-0.0033415,0.0615944999999999,0.0027615,0.0033414999999999,-0.1145485,-0.3619525,-0.0096045,0.1209815,-0.3544125,0.0026664999999999,-0.1548284999999999,-0.8638125,0.0130114999999999,0.1811315,-0.8751224999999999,0.0189925,0
30,-0.039269,0.7150434999999999,0.034473,-0.186912,0.5218235,0.0380519999999999,-0.259482,0.7412535,-0.054971,0.119118,0.5544335,0.0269519999999999,0.176938,0.7777135,-0.071477,-0.246162,1.0211635,-0.154617,0.174858,1.0497635,-0.152907,-0.061507,-0.0028385,-0.00359,0.061507,0.0028384999999999,0.0035899999999999,-0.114742,-0.3619965,-0.009593,0.120238,-0.3545165,0.003019,-0.154962,-0.8638665,0.0134919999999999,0.181758,-0.8854065,0.021108,0
31,-0.0395844999999999,0.7145594999999999,0.034918,-0.1870855,0.5217295,0.038808,-0.2589255,0.7417594999999999,-0.051244,0.1190245,0.5549495,0.027935,0.1759445,0.7781794999999999,-0.068558,-0.2468155,1.0220695,-0.1499479999999999,0.1754345,1.0515695,-0.149468,-0.0614525,-0.0029344999999999,-0.0037679999999999,0.0614525,0.0029344999999999,0.003768,-0.1148555,-0.3620905,-0.0097329999999999,0.1198045,-0.3545205,0.00321,-0.1551354999999999,-0.8639405,0.01379,0.1804345,-0.8838905,0.022371,0
32,-0.0397545,0.714243,0.035254,-0.1871525,0.521793,0.03956,-0.2584125,0.742273,-0.048212,0.1193375,0.555223,0.0290519999999999,0.1757075,0.777463,-0.066096,-0.2473025,1.0227730000000002,-0.146456,0.1760075,1.053773,-0.147156,-0.0614015,-0.0030429999999999,-0.003854,0.0614015,0.003043,0.0038539999999999,-0.1148825,-0.362197,-0.009425,0.1194775,-0.354467,0.003304,-0.1552125,-0.864047,0.0139809999999999,0.1791175,-0.882267,0.0235939999999999,0
33,-0.0398484999999999,0.7141385,0.035887,-0.1872565,0.5216885,0.040254,-0.2581265,0.7426284999999999,-0.04603,0.1196335,0.5554285000000001,0.0300609999999999,0.1754635,0.7769585000000001,-0.065169,-0.2476965,1.0220785,-0.144369,0.1764534999999999,1.0553785,-0.145509,-0.0613315,-0.0030714999999999,-0.00388,0.0613315,0.0030715,0.0038799999999999,-0.1148965,-0.3622315,-0.009218,0.1192035,-0.3544715,0.003289,-0.1553965,-0.8640715000000001,0.0139769999999999,0.1784135,-0.8810515000000001,0.0242559999999999,0
34,-0.0399545,0.7141815,0.0367305,-0.1874165,0.5217115,0.0408605,-0.2579265,0.7429315,-0.0443994999999999,0.1198635,0.5553615000000001,0.0307815,0.1752735,0.7767215000000001,-0.0642765,-0.2480865,1.0215715,-0.1428165,0.1768035,1.0564715,-0.1442865,-0.0612645,-0.0030785,-0.0038894999999999,0.0612645,0.0030784999999999,0.0038894999999999,-0.1148265,-0.3622284999999999,-0.0090975,0.1190334999999999,-0.3544885,0.0033004999999999,-0.1556065,-0.8640985,0.0138025,0.1783634999999999,-0.8802584999999999,0.0244315,0
35,-0.040076,0.7142695,0.037723,-0.187608,0.5216495,0.041228,-0.2577879999999999,0.7431695,-0.043146,0.119952,0.5553595,0.031297,0.1752119999999999,0.7762895000000001,-0.0634869999999999,-0.248468,1.0211395,-0.141557,0.177062,1.0573395,-0.143277,-0.0612,-0.0031024999999999,-0.003825,0.0612,0.0031025,0.003825,-0.114798,-0.3622505,-0.0090169999999999,0.118802,-0.3544505,0.0033909999999999,-0.155838,-0.8641504999999999,0.0132559999999999,0.179832,-0.8914905,0.025373,0
36,-0.040162,0.7144165,0.03877,-0.187748,0.5215565,0.041579,-0.257648,0.7434265,-0.042158,0.1200219999999999,0.5553764999999999,0.031722,0.175182,0.7761965,-0.062641,-0.248818,1.0207365,-0.140131,0.1771019999999999,1.0574365,-0.1424309999999999,-0.061159,-0.0031295,-0.003757,0.061159,0.0031294999999999,0.0037569999999999,-0.114718,-0.3622735,-0.00895,0.1186619999999999,-0.3544135,0.0034659999999999,-0.156018,-0.8641835,0.0127909999999999,0.181522,-0.9030335,0.0260749999999999,0
37,-0.040227,0.71467,0.0398555,-0.18786,0.52162,0.0419075,-0.25754,0.7435499999999999,-0.0414115,0.12005,0.55541,0.0320705,0.17517,0.77621,-0.0618424999999999,-0.24903,1.0203600000000002,-0.1390125,0.17707,1.05756,-0.1414425,-0.061123,-0.0031379999999999,-0.0037044999999999,0.061123,0.003138,0.0037044999999999,-0.11463,-0.3622999999999999,-0.0088745,0.11869,-0.35438,0.0035835,-0.15616,-0.86421,0.0125915,0.18213,-0.90279,0.0261055,0
38,-0.0402805,0.7149885,0.0408915,-0.1879665,0.5217585,0.0421854999999999,-0.2574565,0.7436185,-0.0408555,0.1200935,0.5555885,0.0323614999999999,0.1752035,0.7763685,-0.0611065,-0.2491565,1.0196984999999998,-0.1381565,0.1770135,1.0576985,-0.1405865,-0.0611185,-0.0031624999999999,-0.0036725,0.0611185,0.0031624999999999,0.0036724999999999,-0.1145564999999999,-0.3623315,-0.0087485,0.1187935,-0.3542915,0.0037954999999999,-0.1563465,-0.8642415000000001,0.0124094999999999,0.1824735,-0.9025115,0.0259194999999999,0
39,-0.040298,0.7152695,0.04183,-0.188057,0.5219094999999999,0.0422639999999999,-0.2573769999999999,0.7438095,-0.040451,0.120073,0.5556995,0.0324299999999999,0.175233,0.7765394999999999,-0.060467,-0.249247,1.0189795,-0.137937,0.176973,1.0575795,-0.140117,-0.061113,-0.0031715,-0.003584,0.061113,0.0031714999999999,0.0035839999999999,-0.114577,-0.3623505,-0.008572,0.1187729999999999,-0.3542505,0.0037929999999999,-0.156597,-0.8642605,0.0124069999999999,0.182763,-0.9025505,0.0256839999999999,0
40,-0.040319,0.7154865,0.0425285,-0.188137,0.5220865,0.0422064999999999,-0.257257,0.7439865,-0.0402555,0.120043,0.5558565,0.0323684999999999,0.175303,0.7767465,-0.0599875,-0.249317,1.0183965,-0.1379575,0.1769529999999999,1.0578965,-0.1398075,-0.061099,-0.0031725,-0.0034705,0.061099,0.0031724999999999,0.0034704999999999,-0.114597,-0.3623335,-0.0084475,0.118703,-0.3542035,0.0039894999999999,-0.1567569999999999,-0.8642835,0.0122994999999999,0.1830629999999999,-0.9023535,0.0247994999999999,1
41,-0.040338,0.7156680000000001,0.0430944999999999,-0.188203,0.5222380000000001,0.0421184999999999,-0.257113,0.744128,-0.0401824999999999,0.120017,0.556018,0.0322605,0.175387,0.776958,-0.0595655,-0.249393,1.018118,-0.1380954999999999,0.1769669999999999,1.057818,-0.1394655,-0.06109,-0.0031529999999999,-0.0033305,0.06109,0.003153,0.0033305,-0.114633,-0.3622919999999999,-0.0083115,0.118667,-0.3542119999999999,0.0041664999999999,-0.157123,-0.864292,0.0121944999999999,0.184977,-0.914122,0.0256394999999999,1
42,-0.0403494999999999,0.7159679999999999,0.043599,-0.1882705,0.522548,0.042029,-0.2569605,0.7440979999999999,-0.040129,0.1199895,0.556338,0.032169,0.1754794999999999,0.777238,-0.059167,-0.2493205,1.017298,-0.138247,0.1769494999999999,1.057898,-0.139147,-0.0610935,-0.003143,-0.003186,0.0610935,0.0031429999999999,0.003186,-0.1147205,-0.3622919999999999,-0.008256,0.1186595,-0.354202,0.004448,-0.1574305,-0.8642920000000001,0.012102,0.1847695,-0.914592,0.025467,1
43,-0.040352,0.7162364999999999,0.0440114999999999,-0.188312,0.5228165,0.0419265,-0.256812,0.7440264999999999,-0.0401735,0.119948,0.5566065,0.0320484999999999,0.175578,0.7774865,-0.0588515,-0.249142,1.0155665,-0.1384215,0.176908,1.0580665,-0.1389415,-0.061095,-0.0031425,-0.0030255,0.061095,0.0031424999999999,0.0030254999999999,-0.114742,-0.3622935,-0.0079295,0.118638,-0.3542035,0.0048484999999999,-0.157602,-0.8642935,0.0119134999999999,0.184748,-0.9153735,0.0253014999999999,1
44,-0.040296,0.716467,0.0442365,-0.188313,0.523107,0.0416905,-0.256633,0.7438670000000001,-0.0404394999999999,0.119927,0.556847,0.0317965,0.175697,0.777597,-0.0587274999999999,-0.2487829999999999,1.014637,-0.1388075,0.176877,1.058237,-0.1389875,-0.061097,-0.003141,-0.0029295,0.061097,0.003141,0.0029295,-0.114763,-0.362293,-0.0080124999999999,0.118617,-0.354213,0.0051365,-0.157713,-0.8643029999999999,0.0115745,0.184917,-0.916473,0.0246494999999999,1
45,-0.040203,0.7166680000000001,0.044325,-0.188279,0.5234380000000001,0.041398,-0.256379,0.743638,-0.040785,0.119921,0.5570980000000001,0.031503,0.175841,0.7776480000000001,-0.0587629999999999,-0.248329,1.014048,-0.139353,0.176871,1.058348,-0.139133,-0.06109,-0.0031609999999999,-0.0028389999999999,0.06109,0.003161,0.002839,-0.114779,-0.362322,-0.008111,0.118501,-0.3542119999999999,0.005571,-0.157759,-0.864352,0.011377,0.185221,-0.917662,0.024199,1
46,-0.0400689999999999,0.7169325000000001,0.0443375,-0.188251,0.5237825,0.0410055,-0.256121,0.7434525000000001,-0.0412115,0.119919,0.5574625000000001,0.0311415,0.176019,0.7777925,-0.0589384999999999,-0.247841,1.0124624999999998,-0.1401084999999999,0.176859,1.0583625,-0.1392985,-0.061085,-0.0032034999999999,-0.0028624999999999,0.061085,0.0032034999999999,0.0028625,-0.1147909999999999,-0.3623875,-0.0082654999999999,0.118319,-0.3542175,0.0060005,-0.157771,-0.8644474999999999,0.0112175,0.185179,-0.9181475,0.0233925,1
47,-0.0399039999999999,0.717287,0.0442635,-0.188215,0.523997,0.0405385,-0.255795,0.743287,-0.0416745,0.119895,0.557917,0.0307194999999999,0.176215,0.7780170000000001,-0.0591685,-0.247195,1.010917,-0.1412385,0.176935,1.058517,-0.1395185,-0.0610809999999999,-0.0031969999999999,-0.0029474999999999,0.0610809999999999,0.003197,0.0029474999999999,-0.114835,-0.362413,-0.0084914999999999,0.118145,-0.3542929999999999,0.0061784999999999,-0.157775,-0.864433,0.0113105,0.186855,-0.930743,0.0236744999999999,1
48,-0.039735,0.7176440000000001,0.0439855,-0.188184,0.524144,0.0398415,-0.255454,0.743084,-0.0423215,0.119876,0.558384,0.0300945,0.176456,0.778174,-0.0596015,-0.246504,1.010584,-0.1431815,0.177096,1.058084,-0.1400415,-0.061072,-0.0031719999999999,-0.0029134999999999,0.061072,0.003172,0.0029134999999999,-0.114894,-0.3624259999999999,-0.0087575,0.1179559999999999,-0.354416,0.0060935,-0.157864,-0.864436,0.0111534999999999,0.188436,-0.943356,0.0244085,1
49,-0.039544,0.7179945,0.0434674999999999,-0.18811,0.5243045,0.0389005,-0.25509,0.7429245,-0.0432175,0.11987,0.5589045,0.0292254999999999,0.17678,0.7783345,-0.0603485,-0.24589,1.0095345,-0.1454985,0.17737,1.0578344999999998,-0.1409485,-0.061039,-0.0031565,-0.0028495,0.061039,0.0031564999999999,0.0028494999999999,-0.1149399999999999,-0.3624555,-0.0091085,0.11776,-0.3545455,0.0056534999999999,-0.15794,-0.8644755,0.0105554999999999,0.18991,-0.9558855,0.0250754999999999,1
50,-0.0393189999999999,0.7182945000000001,0.042718,-0.187978,0.5243845,0.037742,-0.2546879999999999,0.7427645,-0.044376,0.119842,0.5593945,0.02819,0.177152,0.7782945,-0.061324,-0.245258,1.0091845,-0.147814,0.1776819999999999,1.0575845,-0.1421339999999999,-0.061005,-0.0031214999999999,-0.0028969999999999,0.061005,0.0031214999999999,0.002897,-0.1149879999999999,-0.3624655,-0.0095499999999999,0.117532,-0.3547355,0.0051389999999999,-0.157988,-0.8644955,0.009862,0.189462,-0.9558655,0.024401,1
51,-0.0390775,0.7182945000000001,0.041629,-0.1878305,0.5243845,0.036485,-0.2542405,0.7427645,-0.045709,0.1198095,0.5593945,0.027032,0.1776295,0.7782945,-0.062442,-0.2446905,1.0088845,-0.149762,0.1780795,1.0574845,-0.143472,-0.0609515,-0.0031214999999999,-0.0029729999999999,0.0609515,0.0031214999999999,0.002973,-0.1150004999999999,-0.3624655,-0.0101469999999999,0.1172895,-0.3547355,0.004162,-0.1579405,-0.8644955,0.008921,0.1889495,-0.9559455,0.024024,1
52,-0.0388,0.7182945000000001,0.04035,-0.187653,0.5243845,0.035036,-0.253713,0.7427645,-0.047353,0.1197869999999999,0.5593945,0.025735,0.178217,0.7782945,-0.063839,-0.244203,1.0081845,-0.151839,0.1785769999999999,1.0572845,-0.144959,-0.060876,-0.0031214999999999,-0.002935,0.060876,0.0031214999999999,0.002935,-0.115003,-0.3624655,-0.0108989999999999,0.117267,-0.3547355,0.002945,-0.157883,-0.8644955,0.007885,0.188837,-0.9559455,0.023463,1
53,-0.038613,0.7182945000000001,0.038708,-0.187534,0.5243845,0.0332859999999999,-0.2531839999999999,0.7427645,-0.049517,0.1196859999999999,0.5593945,0.024196,0.178816,0.7782945,-0.065543,-0.243854,1.0082845,-0.154173,0.179006,1.0569845,-0.146663,-0.060814,-0.0031214999999999,-0.003002,0.060814,0.0031214999999999,0.0030019999999999,-0.115114,-0.3624655,-0.012353,0.117156,-0.3547355,0.0014909999999999,-0.157964,-0.8644955,0.0066599999999999,0.188726,-0.9560755,0.022009,1
54,-0.038368,0.7183705,0.0370685,-0.187414,0.5243405000000001,0.0313495,-0.252644,0.7427805000000001,-0.0522885,0.119556,0.5597905000000001,0.0225895,0.179506,0.7780605,-0.0673185,-0.2434839999999999,1.0078105000000002,-0.1568985,0.179396,1.0560105,-0.1485985,-0.0607319999999999,-0.0030964999999999,-0.0030534999999999,0.0607319999999999,0.0030965,0.0030535,-0.115044,-0.3625295,-0.0139665,0.117016,-0.3549295,-0.0001144999999999,-0.1581139999999999,-0.8645594999999999,0.0052825,0.188346,-0.9552395,0.0199845,1
55,-0.038137,0.7182784999999999,0.0350425,-0.187285,0.5243285,0.0291715,-0.252135,0.7427984999999999,-0.0556285,0.1194249999999999,0.5602685,0.0207705,0.180355,0.7776084999999999,-0.0696114999999999,-0.243085,1.0072285,-0.1601115,0.1797949999999999,1.0546285000000002,-0.1511114999999999,-0.060624,-0.0031135,-0.0028224999999999,0.060624,0.0031134999999999,0.0028224999999999,-0.114975,-0.3626515,-0.0157184999999999,0.116925,-0.3551315,-0.0032625,-0.158345,-0.8646815,0.0037965,0.189775,-0.9658615,0.0181805,1
56,-0.0376964999999999,0.717713,0.0313965,-0.1871225,0.524543,0.0262145,-0.2515925,0.742723,-0.0606285,0.1193775,0.560673,0.0178385,0.1816075,0.776823,-0.0734525,-0.2425125,1.006343,-0.1646024999999999,0.1800375,1.052443,-0.1549325,-0.0604485,-0.00326,-0.0023134999999999,0.0604485,0.0032599999999999,0.0023135,-0.1148624999999999,-0.362927,-0.0184874999999999,0.1166975,-0.3552269999999999,-0.0076265,-0.1586325,-0.864827,0.0018805,0.1894674999999999,-0.964417,0.0150155,1
57,-0.037295,0.7168085,0.0269995,-0.187086,0.5247885000000001,0.0228734999999999,-0.2512459999999999,0.7423485000000001,-0.0664785,0.1192439999999999,0.5613085,0.0146864999999999,0.182884,0.7755885,-0.0780515,-0.241946,1.0063385,-0.1697815,0.179984,1.0493385,-0.1593815,-0.0602609999999999,-0.0034145,-0.0018905,0.0602609999999999,0.0034144999999999,0.0018904999999999,-0.114946,-0.3631915,-0.0228785,0.1163439999999999,-0.3553515,-0.0134805,-0.160266,-0.8738215,-7.550000000000265e-05,0.189014,-0.9628315,0.0117584999999999,1
58,-0.0368175,0.7153125,0.021833,-0.1871055,0.5251725,0.019434,-0.2510655,0.7414324999999999,-0.0729819999999999,0.1190445,0.5613525,0.011006,0.1842045,0.7739925,-0.083322,-0.2412755,1.0062225,-0.175672,0.1799845,1.0458225,-0.164282,-0.0601165,-0.0035165,-0.0015349999999999,0.0601165,0.0035164999999999,0.001535,-0.1153355,-0.3633575,-0.027287,0.1159845,-0.3554675,-0.019635,-0.1619455,-0.8823475000000001,-0.0020299999999999,0.1885145,-0.9601475,0.008475,1
59,-0.0364935,0.714116,0.0157874999999999,-0.1868355,0.524916,0.0145784999999999,-0.2511855,0.740826,-0.0803504999999999,0.1190745,0.557946,0.0043964999999999,0.1852945,0.771636,-0.0894705,-0.2406855,1.006816,-0.1821205,0.1798145,1.042816,-0.1697505,-0.0600475,-0.0036189999999999,-0.0010105,0.0600475,0.0036189999999999,0.0010104999999999,-0.1160155,-0.363454,-0.0319095,0.1156945,-0.355474,-0.0265315,-0.1638455,-0.889174,-0.0043285,0.1874245,-0.956224,0.0052274999999999,1
60,-0.036271,0.7121385,0.0090545,-0.186608,0.5248784999999999,0.0096115,-0.251478,0.7396984999999999,-0.0882115,0.119112,0.5548285,-0.0022874999999999,0.186342,0.7689284999999999,-0.0961915,-0.239988,1.0071385000000002,-0.1892515,0.179082,1.0395385,-0.1759615,-0.059991,-0.0037345,-0.0004274999999999,0.059991,0.0037345,0.0004275,-0.116728,-0.3634815,-0.0370475,0.115442,-0.3553615,-0.0344934999999999,-0.165798,-0.8956515,-0.0066684999999999,0.186062,-0.9520415,0.0017595,1
61,-0.0361615,0.709399,0.001535,-0.1862825,0.525509,0.004614,-0.2520125,0.738449,-0.096699,0.1190975,0.552029,-0.00925,0.1872875,0.766459,-0.103539,-0.2391825,1.007559,-0.197099,0.1782575,1.032459,-0.182969,-0.0599645,-0.003716,1.6999999999999654e-05,0.0599645,0.0037159999999999,-1.6999999999999654e-05,-0.1175325,-0.363251,-0.0428589999999999,0.1153474999999999,-0.355281,-0.042864,-0.1678224999999999,-0.901261,-0.009222,0.1854175,-0.948421,-0.0006859999999999,1
62,-0.036088,0.7067899999999999,-0.0064624999999999,-0.185835,0.5255299999999999,-0.0013214999999999,-0.252775,0.7376499999999999,-0.1056064999999999,0.119495,0.5493899999999999,-0.0167545,0.1882849999999999,0.76462,-0.1115565,-0.238785,1.00807,-0.2054865,0.177435,1.02717,-0.1899265,-0.060007,-0.003757,0.0006675,0.060007,0.0037569999999999,-0.0006675,-0.118525,-0.36289,-0.0491895,0.115345,-0.3549799999999999,-0.0517835,-0.1697449999999999,-0.90543,-0.0118865,0.1838949999999999,-0.94169,-0.0040684999999999,1
63,-0.0361029999999999,0.7035604999999999,-0.014554,-0.185369,0.5259404999999999,-0.006931,-0.253679,0.7365205,-0.114704,0.119901,0.5471905,-0.023978,0.189291,0.7623004999999999,-0.120344,-0.238529,1.0081205,-0.214184,0.176441,1.0225205,-0.197844,-0.0600949999999999,-0.0037835,0.0013039999999999,0.0600949999999999,0.0037835,-0.0013039999999999,-0.1197189999999999,-0.3623395,-0.055824,0.115371,-0.3545795,-0.060752,-0.171599,-0.9089995,-0.01409,0.182301,-0.9354995,-0.006211,1
64,-0.0363825,0.701128,-0.0226555,-0.1849525,0.522068,-0.0142075,-0.2547725,0.736108,-0.1240085,0.1197575,0.544678,-0.0320145,0.1899175,0.7609779999999999,-0.1290885,-0.2383725,1.008408,-0.2229685,0.1750775,1.019308,-0.2051285,-0.0603035,-0.003812,0.0018375,0.0603035,0.003812,-0.0018375,-0.1214125,-0.361572,-0.0626925,0.1151875,-0.353922,-0.0691585,-0.1736825,-0.910392,-0.0159614999999999,0.1803875,-0.928012,-0.0076434999999999,1
65,-0.0369034999999999,0.698035,-0.030011,-0.1845825,0.518505,-0.020703,-0.2558125,0.735295,-0.132586,0.1195575,0.5428649999999999,-0.038921,0.1901975,0.759165,-0.137456,-0.2383625,1.000235,-0.230316,0.1735275,1.0166350000000002,-0.211746,-0.0605565,-0.0037039999999999,0.00211,0.0605565,0.0037039999999999,-0.00211,-0.1231724999999999,-0.360505,-0.068606,0.1150975,-0.353285,-0.076954,-0.1757125,-0.911115,-0.0175069999999999,0.1783675,-0.920185,-0.008583,1
66,-0.037282,0.6956425,-0.0368795,-0.183921,0.5153125,-0.0269665,-0.256311,0.7354425,-0.1408705,0.119519,0.5391525,-0.0463605,0.190499,0.7575025,-0.1456205,-0.238061,0.9930425,-0.2368205,0.171919,1.0154424999999998,-0.2183905,-0.061006,-0.0035544999999999,0.0023155,0.061006,0.0035544999999999,-0.0023155,-0.125271,-0.3591475,-0.0734355,0.115299,-0.3525075,-0.0835844999999999,-0.176381,-0.9018375,-0.0187525,0.1765989999999999,-0.9108775,-0.0090915,1
67,-0.037845,0.693805,-0.0434549999999999,-0.183338,0.512435,-0.033428,-0.256908,0.736955,-0.14924,0.119462,0.5333249999999999,-0.0543179999999999,0.190712,0.757325,-0.15357,-0.237838,0.987005,-0.24311,0.1699719999999999,1.016855,-0.22551,-0.061464,-0.00346,0.0025629999999999,0.061464,0.0034599999999999,-0.002563,-0.127908,-0.357585,-0.0788509999999999,0.115562,-0.351465,-0.09097,-0.177078,-0.890725,-0.019939,0.1760219999999999,-0.900985,-0.009821,1
68,-0.0382855,0.6906035,-0.0498285,-0.1830825,0.5109435,-0.0382565,-0.2575725,0.7373235,-0.1578045,0.1192574999999999,0.5312435,-0.0593095,0.1912275,0.7572935000000001,-0.1619245,-0.2375825,0.9795335,-0.2495045,0.1679375,1.0175635,-0.2327645,-0.0618785,-0.0033645,0.0025785,0.0618785,0.0033645,-0.0025784999999999,-0.1306525,-0.3559565,-0.0845995,0.1158075,-0.3503165,-0.0980645,-0.1775725,-0.8803365,-0.0209225,0.1756075,-0.8915365,-0.0100094999999999,1
69,-0.038658,0.689521,-0.0564505,-0.18283,0.509001,-0.0443445,-0.25805,0.740861,-0.1674294999999999,0.1190399999999999,0.5284610000000001,-0.0658054999999999,0.19109,0.7595310000000001,-0.1710895,-0.2373799999999999,0.975011,-0.2569495,0.16581,1.021501,-0.2405995,-0.062276,-0.003159,0.0025934999999999,0.062276,0.003159,-0.0025935,-0.13413,-0.353779,-0.0915295,0.11624,-0.348859,-0.1056594999999999,-0.17793,-0.866699,-0.0219315,0.17384,-0.8792989999999999,-0.0104815,1
70,-0.039011,0.688614,-0.0630085,-0.182698,0.506324,-0.0507884999999999,-0.259158,0.744524,-0.1765745,0.118952,0.525564,-0.0724075,0.191542,0.761594,-0.1807545,-0.237418,0.970444,-0.2642545,0.163732,1.029424,-0.2486245,-0.062674,-0.0031069999999999,0.0026084999999999,0.062674,0.0031069999999999,-0.0026084999999999,-0.137608,-0.351566,-0.0987744999999999,0.1167219999999999,-0.347186,-0.1135245,-0.178308,-0.852786,-0.0229785,0.172142,-0.866626,-0.0108725,1
71,-0.0392375,0.6871375,-0.0691455,-0.1825365,0.5041375,-0.0560494999999999,-0.2601965,0.7473775,-0.1853575,0.1188234999999999,0.5222475,-0.0785434999999999,0.1919835,0.7628275,-0.1900875,-0.2376464999999999,0.9661375,-0.2716175,0.1618135,1.0355474999999998,-0.2570575,-0.0629975,-0.0030185,0.0027505,0.0629975,0.0030185,-0.0027504999999999,-0.1408865,-0.3492425,-0.1060074999999999,0.1172335,-0.3454125,-0.1213674999999999,-0.1785465,-0.8391925,-0.0232644999999999,0.1707735,-0.8542825,-0.0106015,1
72,-0.0394425,0.6861045,-0.074772,-0.1824194999999999,0.5013945,-0.0612519999999999,-0.2611295,0.7503445,-0.192807,0.1187405,0.5182045,-0.084927,0.1923205,0.7648345,-0.198277,-0.2379395,0.9632645,-0.2786269999999999,0.1602605,1.0414145,-0.264327,-0.0633944999999999,-0.0028555,0.002989,0.0633944999999999,0.0028554999999999,-0.0029889999999999,-0.1441295,-0.3467055,-0.113057,0.1179905,-0.3434955,-0.129237,-0.1785294999999999,-0.8241655,-0.0232329999999999,0.1698505,-0.8401554999999999,-0.009933,1
73,-0.039491,0.683866,-0.081644,-0.18204,0.502576,-0.0658709999999999,-0.26175,0.745096,-0.20068,0.11902,0.514806,-0.09162,0.19278,0.761516,-0.20786,-0.23819,0.954066,-0.2865899999999999,0.1588399999999999,1.043966,-0.27286,-0.063502,-0.002617,0.00308,0.063502,0.0026169999999999,-0.0030799999999999,-0.14717,-0.344004,-0.12147,0.11869,-0.3411039999999999,-0.13752,-0.17827,-0.809874,-0.02422,0.16919,-0.826794,-0.010535,1
74,-0.0395845,0.6820364999999999,-0.08816,-0.1818255,0.5040165,-0.070281,-0.2623655,0.7409265,-0.20738,0.1188545,0.5116065000000001,-0.0980999999999999,0.1926145,0.7586465,-0.21642,-0.2385155,0.9505665,-0.2947,0.1576945,1.0460365,-0.28115,-0.0635795,-0.0024534999999999,0.003083,0.0635795,0.0024534999999999,-0.0030829999999999,-0.1504255,-0.3372635,-0.12985,0.1191944999999999,-0.3359735,-0.14632,-0.1782055,-0.7952535000000001,-0.0250599999999999,0.1686045,-0.8123635,-0.0110119999999999,1
75,-0.0394285,0.6798995000000001,-0.0950095,-0.1813875,0.5034495,-0.0762315,-0.2626875,0.7374395,-0.2141195,0.1186725,0.5088395,-0.1047295,0.1923825,0.7570595,-0.2247495,-0.2388875,0.9475495,-0.3031395,0.1570625,1.0444495,-0.2890795,-0.0636175,-0.0023804999999999,0.0030844999999999,0.0636175,0.0023805,-0.0030845,-0.1536775,-0.3284305,-0.1382895,0.1195625,-0.3284305,-0.1549395,-0.1781075,-0.7798805,-0.0261875,0.1682425,-0.7973304999999999,-0.0119085,1
76,-0.0391684999999999,0.67787,-0.1020895,-0.1807075,0.5029399999999999,-0.0826295,-0.2624675,0.73346,-0.2215695,0.1181625,0.50993,-0.1109795,0.1921725,0.7546600000000001,-0.2338795,-0.2393975,0.94316,-0.3121395,0.1564725,1.04217,-0.2971795,-0.0636625,-0.0023499999999999,0.0035685,0.0636625,0.00235,-0.0035684999999999,-0.1566575,-0.3189599999999999,-0.1474694999999999,0.1199224999999999,-0.31989,-0.1651494999999999,-0.1784875,-0.7646900000000001,-0.0279614999999999,0.1679125,-0.78224,-0.0130885,1
77,-0.0387275,0.67783,-0.1100845,-0.1806164999999999,0.50204,-0.0914345,-0.2627465,0.7348600000000001,-0.2302745,0.1170534999999999,0.50964,-0.1194544999999999,0.1911835,0.7558400000000001,-0.2437145,-0.2399164999999999,0.94465,-0.3227345,0.1551535,1.04308,-0.3087645,-0.0643155,-0.00247,0.0035005,0.0643155,0.00247,-0.0035005,-0.1610464999999999,-0.3024,-0.1616545,0.1196034999999999,-0.30438,-0.1789045,-0.1796265,-0.74236,-0.0313255,0.1669235,-0.76042,-0.0159235,1
78,-0.0378725,0.676285,-0.117452,-0.1801485,0.501395,-0.098592,-0.2631185,0.7335050000000001,-0.238172,0.1164915,0.509925,-0.126062,0.1904915,0.7541450000000001,-0.252252,-0.2401385,0.942615,-0.3325519999999999,0.1540615,1.039655,-0.320552,-0.0652465,-0.0026849999999999,0.0035179999999999,0.0652465,0.0026849999999999,-0.003518,-0.1644785,-0.286765,-0.174192,0.1192814999999999,-0.289435,-0.190772,-0.1805085,-0.7229350000000001,-0.034265,0.1661115,-0.7412650000000001,-0.02024,1
79,-0.036678,0.675,-0.1246989999999999,-0.179028,0.5001800000000001,-0.106349,-0.2630679999999999,0.7315100000000001,-0.246519,0.116702,0.50956,-0.132739,0.190252,0.7510300000000001,-0.260209,-0.239998,0.94053,-0.342689,0.154632,1.0284,-0.331199,-0.065941,-0.00276,0.0034799999999999,0.065941,0.00276,-0.00348,-0.167578,-0.2702,-0.187139,0.119332,-0.27352,-0.2029889999999999,-0.181068,-0.70248,-0.037987,0.166122,-0.7210700000000001,-0.024691,1
80,-0.03581,0.67547,-0.132397,-0.178242,0.4979,-0.113737,-0.263272,0.72872,-0.254307,0.116678,0.50963,-0.138847,0.189698,0.74361,-0.266887,-0.239642,0.93781,-0.353087,0.154918,1.01888,-0.340777,-0.066691,-0.00297,0.00338,0.066691,0.00297,-0.00338,-0.170842,-0.25366,-0.1992469999999999,0.1193279999999999,-0.25702,-0.214367,-0.182032,-0.68181,-0.04149,0.1659179999999999,-0.70091,-0.0286069999999999,1
81,-0.0348445,0.67622,-0.140473,-0.1773445,0.49604,-0.121223,-0.2639444999999999,0.7221899999999999,-0.262993,0.1167054999999999,0.50996,-0.144943,0.1890555,0.73763,-0.273673,-0.2389845,0.9351,-0.364523,0.1554255,1.01088,-0.350653,-0.0669065,-0.00311,0.003283,0.0669065,0.00311,-0.0032829999999999,-0.1741145,-0.2372699999999999,-0.211793,0.1194855,-0.24039,-0.225973,-0.1829145,-0.66086,-0.045193,0.1661555,-0.68005,-0.0334519999999999,1
82,-0.0332265,0.67641,-0.149808,-0.1760295,0.49561,-0.129688,-0.2643295,0.72271,-0.272918,0.1171005,0.50995,-0.152108,0.1888605,0.73572,-0.2819379999999999,-0.2374895,0.93748,-0.378438,0.1565505,1.00712,-0.362888,-0.0667655,-0.00322,0.003276,0.0667655,0.00322,-0.003276,-0.1768995,-0.2211,-0.225408,0.1203205,-0.2239199999999999,-0.239018,-0.1835294999999999,-0.64094,-0.0508099999999999,0.1668905,-0.65893,-0.0399299999999999,1
83,-0.031627,0.677465,-0.15964,-0.174499,0.492745,-0.13979,-0.264809,0.722995,-0.28431,0.1175209999999999,0.507465,-0.1606,0.188771,0.734875,-0.29135,-0.235969,0.942625,-0.39387,0.157941,1.004955,-0.3762,-0.06661,-0.0034549999999999,0.003326,0.06661,0.0034549999999999,-0.003326,-0.179809,-0.202975,-0.23954,0.1213209999999999,-0.205355,-0.25219,-0.183669,-0.619725,-0.056933,0.167651,-0.636555,-0.046922,1
84,-0.0301735,0.6795500000000001,-0.1697045,-0.1732065,0.49249,-0.1489645,-0.2651965,0.72336,-0.2966344999999999,0.1180235,0.5081800000000001,-0.1686745,0.1891535,0.73322,-0.3016744999999999,-0.2344065,0.94764,-0.4107845,0.1596335,1.00271,-0.3902945,-0.0665325,-0.0035499999999999,0.0032055,0.0665325,0.00355,-0.0032054999999999,-0.1825765,-0.1839799999999999,-0.2537645,0.1225135,-0.1860599999999999,-0.2667044999999999,-0.1843865,-0.59743,-0.0626915,0.1691035,-0.61365,-0.0536895,1
85,-0.0286135,0.68254,-0.178732,-0.1718385,0.49194,-0.156492,-0.2646085,0.72543,-0.307482,0.1187115,0.5066,-0.175482,0.1896314999999999,0.73304,-0.310492,-0.2319385,0.95047,-0.4263119999999999,0.1615015,1.00194,-0.4030519999999999,-0.0663325,-0.0033299999999999,0.0027759999999999,0.0663325,0.0033299999999999,-0.002776,-0.1851685,-0.1619499999999999,-0.266182,0.1237714999999999,-0.1651499999999999,-0.278022,-0.1851285,-0.5729500000000001,-0.0668639999999999,0.1704915,-0.59012,-0.059024,1
86,-0.027849,0.68303,-0.1874455,-0.170511,0.4904999999999999,-0.1625255,-0.264241,0.7217899999999999,-0.3176655,0.119329,0.50539,-0.1807455,0.190249,0.7281599999999999,-0.3190154999999999,-0.229711,0.94901,-0.4403855,0.163419,0.99677,-0.4133455,-0.066134,-0.00308,0.0025164999999999,0.066134,0.0030799999999999,-0.0025165,-0.187001,-0.14533,-0.2742155,0.125069,-0.14977,-0.2869854999999999,-0.1853409999999999,-0.55537,-0.0697235,0.172079,-0.57204,-0.0632075,1
87,-0.0267374999999999,0.6833100000000001,-0.1965535,-0.1686455,0.4891,-0.1692135,-0.2640955,0.7178800000000001,-0.3279134999999999,0.1202744999999999,0.50328,-0.1865235,0.1914044999999999,0.7236100000000001,-0.3281635,-0.2278355,0.94806,-0.4561334999999999,0.1669245,0.98797,-0.4233635,-0.0657075,-0.00279,0.0022895,0.0657075,0.00279,-0.0022895,-0.1888155,-0.12649,-0.2822834999999999,0.1266245,-0.13283,-0.2974834999999999,-0.1849855,-0.5363899999999999,-0.0726895,0.1740545,-0.5530599999999999,-0.0670515,1
88,-0.0261379999999999,0.683045,-0.20593,-0.167796,0.487475,-0.17564,-0.264456,0.711325,-0.33831,0.120664,0.501345,-0.1923399999999999,0.192364,0.7187749999999999,-0.33757,-0.227056,0.945345,-0.47131,0.168934,0.987545,-0.43413,-0.06548,-0.0026749999999999,0.0021359999999999,0.06548,0.0026749999999999,-0.002136,-0.191106,-0.108155,-0.28969,0.127514,-0.114335,-0.30758,-0.185086,-0.517055,-0.074641,0.175254,-0.533725,-0.071569,1
89,-0.0247125,0.681115,-0.2131835,-0.1661574999999999,0.487195,-0.1806434999999999,-0.2639675,0.706925,-0.3474135,0.1214325,0.499285,-0.1967835,0.1948525,0.7166250000000001,-0.3461235,-0.2265675,0.942465,-0.4842035,0.1717625,0.986725,-0.4443535,-0.0646615,-0.0023349999999999,0.0018724999999999,0.0646615,0.002335,-0.0018725,-0.1925375,-0.092995,-0.2952135,0.1290725,-0.0990749999999999,-0.3159234999999999,-0.1842975,-0.4969049999999999,-0.0757305,0.1773125,-0.514495,-0.0745205,1
90,-0.023584,0.6780700000000001,-0.220511,-0.164921,0.486113,-0.185941,-0.263671,0.70372,-0.3570009999999999,0.121919,0.4964,-0.201251,0.197439,0.71311,-0.3554509999999999,-0.226391,0.93809,-0.4971509999999999,0.174359,0.9839,-0.455101,-0.064015,-0.0021799999999999,0.001563,0.064015,0.00218,-0.001563,-0.194021,-0.0778999999999999,-0.299971,0.1302289999999999,-0.0839299999999999,-0.3236309999999999,-0.183651,-0.4771099999999999,-0.076058,0.178969,-0.4943499999999999,-0.076752,1
91,-0.022619,0.6756800000000001,-0.228092,-0.163863,0.483772,-0.191802,-0.264053,0.70143,-0.367292,0.122447,0.493126,-0.206282,0.200367,0.7092,-0.365802,-0.226193,0.93359,-0.510342,0.176587,0.98114,-0.466042,-0.063326,-0.0021799999999999,0.001283,0.063326,0.00218,-0.0012829999999999,-0.195323,-0.0620899999999999,-0.304652,0.131657,-0.0687999999999999,-0.332042,-0.182683,-0.4577599999999999,-0.076911,0.180497,-0.47526,-0.0802099999999999,1
92,-0.0219644999999999,0.672235,-0.2359505,-0.1633474999999999,0.483166,-0.1968505,-0.2650075,0.697935,-0.3781305,0.1232125,0.4913849999999999,-0.2116105,0.2030825,0.704385,-0.3766605,-0.2262575,0.926455,-0.5236805,0.1786825,0.977215,-0.4766805,-0.0627405,-0.0020149999999999,0.0012315,0.0627405,0.0020149999999999,-0.0012315,-0.1966375,-0.046345,-0.3091705,0.1328325,-0.053875,-0.3403605,-0.1813675,-0.440975,-0.0781875,0.1817425,-0.456555,-0.0842835,1
93,-0.021907,0.66708,-0.244006,-0.163406,0.480184,-0.202046,-0.266376,0.6927800000000001,-0.388566,0.123434,0.487143,-0.217266,0.205244,0.69963,-0.387736,-0.2274759999999999,0.91869,-0.5366259999999999,0.180414,0.97261,-0.487656,-0.06215,-0.0020099999999999,0.001276,0.06215,0.00201,-0.0012759999999999,-0.198366,-0.0311499999999999,-0.313806,0.133624,-0.0394599999999999,-0.348126,-0.179856,-0.42496,-0.08112,0.182054,-0.43867,-0.0891349999999999,1
94,-0.021979,0.660505,-0.250218,-0.163521,0.4774469999999999,-0.205818,-0.268181,0.685425,-0.397578,0.123499,0.4845069999999999,-0.221218,0.207109,0.691865,-0.3973179999999999,-0.230091,0.910105,-0.547868,0.1823789999999999,0.964155,-0.4996879999999999,-0.061681,-0.002085,0.001489,0.061681,0.002085,-0.001489,-0.200191,-0.018735,-0.316588,0.134929,-0.028815,-0.354278,-0.178171,-0.411505,-0.081464,0.182239,-0.424015,-0.092849,1
95,-0.0220084999999999,0.65542,-0.2555215,-0.1635855,0.474483,-0.2089514999999999,-0.2701855,0.67791,-0.4050015,0.1239545,0.4815959999999999,-0.2247414999999999,0.2088345,0.68607,-0.4056115,-0.2330755,0.90235,-0.5587715000000001,0.1853545,0.95279,-0.5104915,-0.0613535,-0.0022699999999999,0.0016084999999999,0.0613535,0.0022699999999999,-0.0016085,-0.2020455,-0.00483,-0.3184715,0.1367045,-0.0164499999999999,-0.3591115,-0.1764254999999999,-0.39668,-0.0811715,0.1822745,-0.40774,-0.0943605,1
96,-0.022169,0.6505500000000001,-0.259826,-0.163573,0.471908,-0.211216,-0.272483,0.66995,-0.411036,0.1245069999999999,0.479263,-0.227506,0.2104369999999999,0.68074,-0.413106,-0.236103,0.8946100000000001,-0.5671360000000001,0.186697,0.94855,-0.519946,-0.061119,-0.0024699999999999,0.0018029999999999,0.061119,0.00247,-0.0018029999999999,-0.203403,0.00811,-0.320126,0.139177,-0.0045999999999999,-0.362536,-0.174483,-0.3825299999999999,-0.082535,0.182447,-0.39196,-0.095534,1
97,-0.022695,0.64683,-0.263032,-0.1639509999999999,0.4702359999999999,-0.212412,-0.275091,0.6658,-0.415922,0.124739,0.477251,-0.229482,0.211469,0.6773499999999999,-0.419242,-0.2394109999999999,0.8891,-0.575382,0.187629,0.94452,-0.528842,-0.061208,-0.00247,0.002034,0.061208,0.0024699999999999,-0.0020339999999999,-0.204701,0.0207699999999999,-0.321052,0.141409,0.0070299999999999,-0.365062,-0.173041,-0.3698100000000001,-0.084212,0.182099,-0.3764,-0.09612,1
98,-0.0230929999999999,0.64398,-0.265529,-0.164284,0.468736,-0.213279,-0.2775539999999999,0.66047,-0.420129,0.124816,0.475723,-0.230939,0.212356,0.67572,-0.424689,-0.242964,0.88366,-0.582979,0.188626,0.93979,-0.536999,-0.0613149999999999,-0.00263,0.0022259999999999,0.0613149999999999,0.00263,-0.002226,-0.205874,0.0321099999999999,-0.322199,0.143706,0.01688,-0.367379,-0.173784,-0.3572499999999999,-0.0848059999999999,0.181716,-0.3625,-0.096829,1
99,-0.0237324999999999,0.6418839999999999,-0.2674725,-0.1650474999999999,0.4677709999999999,-0.2141625,-0.2797475,0.65798,-0.4232324999999999,0.1247025,0.4744779999999999,-0.2321325,0.2127825,0.6732899999999999,-0.4290825,-0.2464275,0.87917,-0.5892824999999999,0.1895425,0.93615,-0.5444125,-0.0614875,-0.00261,0.0023024999999999,0.0614875,0.00261,-0.0023024999999999,-0.2072175,0.0423399999999999,-0.3234824999999999,0.1457225,0.0258499999999999,-0.3693825,-0.1747675,-0.34447,-0.0864095,0.1812325,-0.3487800000000001,-0.0977305,1
100,-0.0241365,0.640207,-0.268809,-0.1655295,0.4666669999999999,-0.214949,-0.2815095,0.6551469999999999,-0.425749,0.1246505,0.4736249999999999,-0.232929,0.2129805,0.67133,-0.431569,-0.2493795,0.87473,-0.5940690000000001,0.1908305,0.93269,-0.551029,-0.0615775,-0.0025,0.0022889999999999,0.0615775,0.0024999999999999,-0.0022889999999999,-0.2083295,0.05125,-0.324999,0.1476305,0.0341199999999999,-0.370259,-0.1754795,-0.33432,-0.087073,0.1810405,-0.33591,-0.097565,1
101,-0.0240825,0.6395029999999999,-0.269545,-0.1658095,0.4654,-0.215585,-0.2825195,0.653297,-0.427105,0.1247204999999999,0.4728,-0.233575,0.2134805,0.6696059999999999,-0.432815,-0.2513195,0.8725499999999999,-0.597845,0.1926705,0.92936,-0.557125,-0.0617225,-0.00236,0.0023,0.0617225,0.0023599999999999,-0.0023,-0.2093595,0.05886,-0.326585,0.1497905,0.0411699999999999,-0.370975,-0.1759995,-0.32488,-0.087949,0.1812405,-0.3254600000000001,-0.09723,1
102,-0.0239215,0.639432,-0.269943,-0.1658645,0.4651,-0.215463,-0.2830844999999999,0.651487,-0.427943,0.1246855,0.4726,-0.233963,0.2140854999999999,0.66774,-0.433233,-0.2529145,0.8697600000000001,-0.600973,0.1947954999999999,0.92578,-0.562243,-0.0618364999999999,-0.0022199999999999,0.002173,0.0618364999999999,0.0022199999999999,-0.0021729999999999,-0.2102145,0.06502,-0.327973,0.1520554999999999,0.0462,-0.371453,-0.1777645,-0.3166899999999999,-0.0877729999999999,0.1831155,-0.3170299999999999,-0.097696,1
103,-0.0235925,0.6397919999999999,-0.2703825,-0.1654855,0.46429,-0.2152125,-0.2833255,0.64972,-0.4283625,0.1254845,0.4720399999999999,-0.2343225,0.2148345,0.667222,-0.4336825,-0.2536855,0.87037,-0.6038325,0.1970345,0.92433,-0.5641325,-0.0619275,-0.0023,0.0020305,0.0619275,0.0022999999999999,-0.0020305,-0.2109655,0.0710599999999999,-0.3296025,0.1544845,0.0514199999999999,-0.3718225,-0.1797355,-0.30872,-0.0879824999999999,0.1848545,-0.30981,-0.0984154999999999,1
104,-0.0231215,0.6403300000000001,-0.270604,-0.1648915,0.464565,-0.215014,-0.2833415,0.649324,-0.4288039999999999,0.1259884999999999,0.472685,-0.234014,0.2157085,0.6666420000000001,-0.434134,-0.2542515,0.8693850000000001,-0.6064740000000001,0.1983285,0.927665,-0.565474,-0.0619375,-0.002205,0.0017779999999999,0.0619375,0.002205,-0.001778,-0.2116515,0.075345,-0.331414,0.1572184999999999,0.054565,-0.3712839999999999,-0.1804315,-0.305195,-0.088576,0.1848284999999999,-0.304945,-0.099104,1
105,-0.0225785,0.641104,-0.2709209999999999,-0.1640035,0.46449,-0.214781,-0.2832535,0.6498820000000001,-0.429141,0.1266765,0.47365,-0.233361,0.2167464999999999,0.666381,-0.434261,-0.2545635,0.86895,-0.608621,0.1999165,0.93014,-0.5663009999999999,-0.0620505,-0.00217,0.001448,0.0620505,0.00217,-0.0014479999999999,-0.2117435,0.07893,-0.333501,0.1595965,0.05724,-0.370251,-0.1826035,-0.3040899999999999,-0.093615,0.1853965,-0.3039499999999999,-0.102033,1
106,-0.0220285,0.64169,-0.2707055,-0.1632275,0.464365,-0.2144655,-0.2830475,0.6498970000000001,-0.4290755,0.1274125,0.474515,-0.2325155,0.2177825,0.665824,-0.4335555,-0.2546275,0.8682650000000001,-0.6101055000000001,0.2015725,0.931815,-0.5666555000000001,-0.0621985,-0.002275,0.0011644999999999,0.0621985,0.002275,-0.0011645,-0.2116275,0.0815449999999999,-0.3356254999999999,0.1616125,0.0589349999999999,-0.3692155,-0.1845475,-0.3005949999999999,-0.0942235,0.1874725,-0.2996449999999999,-0.1002445,1
107,-0.0215785,0.641749,-0.270456,-0.1624465,0.46395,-0.214086,-0.2828565,0.650101,-0.428896,0.1281634999999999,0.47485,-0.231356,0.2188034999999999,0.665494,-0.432216,-0.2544765,0.86821,-0.610906,0.2032534999999999,0.9333,-0.566876,-0.0623895,-0.00229,0.000809,0.0623895,0.00229,-0.000809,-0.2111765,0.08368,-0.337926,0.1634435,0.06028,-0.367976,-0.1846165,-0.30128,-0.0992379999999999,0.1894235,-0.29591,-0.097799,1
108,-0.0210199999999999,0.642221,-0.269942,-0.161611,0.4636050000000001,-0.213832,-0.282111,0.650306,-0.428832,0.1289489999999999,0.475775,-0.230372,0.219839,0.6659050000000001,-0.430492,-0.254221,0.8682850000000001,-0.611162,0.204869,0.934165,-0.5670620000000001,-0.062529,-0.0024649999999999,0.000594,0.062529,0.002465,-0.000594,-0.210401,0.084965,-0.340412,0.165349,0.060985,-0.366742,-0.187631,-0.2961649999999999,-0.0964609999999999,0.190089,-0.2971449999999999,-0.100046,1
109,-0.0205205,0.642726,-0.2693979999999999,-0.1609255,0.46351,-0.213628,-0.2813855,0.650447,-0.428798,0.1296545,0.4766199999999999,-0.229398,0.2207745,0.666779,-0.428798,-0.2539655,0.8691,-0.611308,0.2061845,0.93506,-0.567008,-0.0626885,-0.0026399999999999,0.000356,0.0626885,0.0026399999999999,-0.0003559999999999,-0.2097455,0.0858799999999999,-0.342588,0.1673345,0.0613199999999999,-0.365588,-0.1907555,-0.29477,-0.09648,0.1904445,-0.29564,-0.097219,1
110,-0.0200954999999999,0.6431539999999999,-0.268833,-0.1603225,0.4635049999999999,-0.213543,-0.2806525,0.6506219999999999,-0.428863,0.1303475,0.4774249999999999,-0.228543,0.2215475,0.667604,-0.427163,-0.2536724999999999,0.869925,-0.611513,0.2072675,0.935885,-0.5663729999999999,-0.0628295,-0.002845,0.000175,0.0628295,0.0028449999999999,-0.0001749999999999,-0.2095325,0.0864949999999999,-0.344473,0.1695075,0.0612449999999998,-0.364373,-0.1940525,-0.2935850000000001,-0.097057,0.1910675,-0.2982150000000001,-0.1017019999999999,1
111,-0.0197065,0.6436160000000001,-0.2681205,-0.1598615,0.4638900000000001,-0.2134905,-0.2800514999999999,0.6511870000000001,-0.4289005,0.1310685,0.4780000000000001,-0.2275505,0.2222184999999999,0.6682390000000001,-0.4253905,-0.2532014999999999,0.8705600000000001,-0.6116005,0.2081885,0.93652,-0.5650904999999999,-0.0629385,-0.0029899999999999,-6.150000000000252e-05,0.0629385,0.00299,6.149999999999906e-05,-0.2097015,0.08742,-0.3460405,0.1714385,0.06122,-0.3633205,-0.1956715,-0.2890699999999999,-0.0935375,0.1913385,-0.3011399999999998,-0.1064015,1
112,-0.0193824999999999,0.6441229999999999,-0.26726,-0.1595335,0.4643449999999999,-0.21336,-0.2794735,0.6517719999999999,-0.42881,0.1316965,0.4785249999999999,-0.22644,0.2227465,0.668824,-0.42345,-0.2525835,0.871145,-0.61132,0.2089965,0.937105,-0.56312,-0.0630275,-0.003105,-0.000235,0.0630275,0.0031049999999999,0.0002349999999999,-0.2103835,0.0880049999999998,-0.34682,0.1726365,0.0613049999999999,-0.36246,-0.1973235,-0.2837750000000001,-0.0900239999999999,0.1918564999999999,-0.304205,-0.111,1
113,-0.019018,0.644423,-0.266252,-0.15926,0.46466,-0.213112,-0.27887,0.652157,-0.4285219999999999,0.1323599999999999,0.47875,-0.225262,0.2231999999999999,0.669417,-0.4213619999999999,-0.2522,0.87182,-0.610352,0.20969,0.93768,-0.5608420000000001,-0.063089,-0.00319,-0.00033,0.063089,0.00319,0.00033,-0.21113,0.0882699999999999,-0.347722,0.17336,0.06169,-0.362392,-0.198,-0.28235,-0.090263,0.19172,-0.31196,-0.121575,1
114,-0.018712,0.6447579999999999,-0.2652744999999999,-0.1590309999999999,0.46494,-0.2128645,-0.278361,0.652291,-0.4281045,0.132849,0.47917,-0.2242845,0.223549,0.669837,-0.4193245,-0.251971,0.87193,-0.6088944999999999,0.210279,0.9381,-0.5583545,-0.063095,-0.00329,-0.0004354999999999,0.063095,0.00329,0.0004354999999999,-0.2118709999999999,0.0886899999999999,-0.3485645,0.173839,0.06176,-0.3623045,-0.1966609999999999,-0.28413,-0.0891135,0.189819,-0.32022,-0.1328045,1
115,-0.0183189999999999,0.6451,-0.264326,-0.158714,0.465195,-0.212576,-0.277784,0.652549,-0.4274659999999999,0.133396,0.479595,-0.223356,0.223936,0.670256,-0.4173159999999999,-0.251584,0.872205,-0.606786,0.210866,0.938845,-0.555686,-0.063108,-0.0033549999999999,-0.0005649999999999,0.063108,0.0033549999999999,0.0005649999999999,-0.212414,0.0891049999999999,-0.349226,0.174406,0.0617849999999999,-0.3621959999999999,-0.194494,-0.2873949999999999,-0.093474,0.189306,-0.324825,-0.137386,1
116,-0.017994,0.6456310000000001,-0.2630875,-0.158479,0.465655,-0.2120375,-0.277259,0.653221,-0.4261475,0.133951,0.4802850000000001,-0.2222975,0.224231,0.670946,-0.4153075,-0.251229,0.8728450000000001,-0.6032675,0.211381,0.939845,-0.5527574999999999,-0.063062,-0.0033949999999999,-0.0006695,0.063062,0.003395,0.0006695,-0.212499,0.089505,-0.3496575,0.174781,0.0621950000000001,-0.3626275,-0.193709,-0.2882849999999999,-0.0926025,0.187461,-0.3318149999999999,-0.1496675,1
117,-0.017594,0.6464179999999999,-0.2615765,-0.158186,0.4662849999999999,-0.2112264999999999,-0.276636,0.655107,-0.4240665,0.134554,0.4809749999999999,-0.2210665,0.224604,0.6728879999999999,-0.4133464999999999,-0.251136,0.874805,-0.5982765,0.211944,0.942125,-0.5499265,-0.063004,-0.003395,-0.0007024999999999,0.063004,0.0033949999999999,0.0007025,-0.212216,0.0901049999999999,-0.3495064999999999,0.174924,0.063635,-0.3628765,-0.192676,-0.287725,-0.0920695,0.186824,-0.331705,-0.1500765,1
118,-0.0172135,0.647262,-0.2600525,-0.1578875,0.4669649999999999,-0.2103425,-0.2760275,0.657038,-0.4217325,0.1351224999999999,0.4816749999999999,-0.2198825,0.2249225,0.674825,-0.4115825,-0.2510175,0.877105,-0.5930124999999999,0.2124925,0.944395,-0.5474424999999999,-0.0629395,-0.0033849999999999,-0.0006945,0.0629395,0.0033849999999999,0.0006945,-0.2120274999999999,0.090855,-0.3493124999999999,0.1750125,0.064975,-0.3630525,-0.1914274999999999,-0.289705,-0.0968845,0.1854225,-0.335505,-0.1569725,1
119,-0.0168234999999999,0.6480950000000001,-0.258529,-0.1575825,0.4676,-0.209419,-0.2754025,0.658995,-0.419309,0.1357175,0.48226,-0.218719,0.2251975,0.676903,-0.410159,-0.2508725,0.87957,-0.587869,0.2130975,0.94675,-0.545369,-0.0628775,-0.0033499999999999,-0.0006619999999999,0.0628775,0.00335,0.0006619999999999,-0.2121025,0.09162,-0.348749,0.1751774999999999,0.06605,-0.363219,-0.1917825,-0.2853199999999999,-0.091477,0.1857075,-0.3347399999999999,-0.156359,1
120,-0.0164195,0.6488280000000001,-0.2569725,-0.1572635,0.46826,-0.2084625,-0.2747834999999999,0.6609430000000001,-0.4168325,0.1363065,0.48272,-0.2176225,0.2254165,0.678944,-0.4089425,-0.2506535,0.88219,-0.5830225,0.2137665,0.94908,-0.5435325000000001,-0.0628095,-0.0032699999999999,-0.0006315,0.0628095,0.0032699999999999,0.0006315,-0.2125835,0.09243,-0.3479825,0.1755864999999999,0.0673099999999999,-0.3635025,-0.1921735,-0.28074,-0.0865885,0.1847265,-0.3386699999999999,-0.1646925,1
121,-0.0159899999999999,0.649483,-0.255483,-0.156932,0.46887,-0.207503,-0.274152,0.6627980000000001,-0.414253,0.136918,0.48306,-0.216583,0.225658,0.6809280000000001,-0.4079529999999999,-0.250392,0.8847700000000001,-0.578383,0.214488,0.9512500000000002,-0.541983,-0.0627419999999999,-0.0031599999999999,-0.000594,0.0627419999999999,0.00316,0.000594,-0.213032,0.09328,-0.3474629999999999,0.176108,0.0683,-0.363933,-0.193192,-0.2789299999999999,-0.0870929999999999,0.184998,-0.3388699999999999,-0.165053,1
122,-0.0155614999999999,0.6501779999999999,-0.2540645,-0.1566104999999999,0.4695299999999999,-0.2065845,-0.2735805,0.6647159999999999,-0.4117345,0.1374995,0.4833099999999999,-0.2155745,0.2259395,0.6828329999999999,-0.4071444999999999,-0.2501305,0.88733,-0.5741245,0.2152495,0.95328,-0.5407945000000001,-0.0627015,-0.00304,-0.0005574999999999,0.0627015,0.0030399999999999,0.0005574999999999,-0.2129704999999999,0.0939199999999998,-0.3469244999999999,0.1763595,0.0692099999999998,-0.3644445,-0.1939505,-0.27541,-0.0864055,0.1852895,-0.33703,-0.1644045,1
123,-0.0151209999999999,0.65082,-0.2526565,-0.156286,0.47017,-0.2056265,-0.272966,0.666563,-0.4092465,0.138074,0.48351,-0.2145665,0.226224,0.6845,-0.4064265,-0.249866,0.8896999999999999,-0.5702564999999999,0.216064,0.95513,-0.5399664999999999,-0.06268,-0.0029099999999999,-0.0004905,0.06268,0.0029099999999999,0.0004904999999999,-0.212696,0.0945199999999999,-0.3462965,0.176594,0.0703,-0.3649765,-0.193546,-0.27339,-0.0874225,0.186114,-0.33524,-0.1637265,1
124,-0.0146435,0.65142,-0.251301,-0.1559634999999999,0.4707949999999999,-0.204681,-0.2723235,0.668322,-0.406951,0.1386164999999999,0.4836049999999999,-0.213601,0.2264965,0.685989,-0.405691,-0.2496135,0.891915,-0.567001,0.2169665,0.956855,-0.539261,-0.0626685,-0.002785,-0.000408,0.0626685,0.002785,0.0004079999999999,-0.2124235,0.0952349999999999,-0.345651,0.1768265,0.071415,-0.365361,-0.1920935,-0.272785,-0.087699,0.1876665,-0.333495,-0.163041,1
125,-0.014138,0.651951,-0.250231,-0.155636,0.47125,-0.203931,-0.271686,0.669803,-0.405361,0.138994,0.48364,-0.212841,0.226734,0.687148,-0.405041,-0.249326,0.89364,-0.5651510000000001,0.2179539999999999,0.95824,-0.538641,-0.062682,-0.0026899999999999,-0.0003669999999999,0.062682,0.0026899999999999,0.0003669999999999,-0.212196,0.09579,-0.345241,0.176904,0.07232,-0.364991,-0.1906459999999999,-0.2737199999999999,-0.088304,0.1884839999999999,-0.3295,-0.157181,1
126,-0.0136995,0.652263,-0.2494819999999999,-0.1553735,0.4715,-0.203462,-0.2711635,0.670189,-0.404642,0.1392765,0.48362,-0.212342,0.2268865,0.6872280000000001,-0.404622,-0.2491835,0.894,-0.564732,0.2187865,0.95838,-0.538242,-0.0626995,-0.00263,-0.000349,0.0626995,0.00263,0.0003489999999999,-0.2116935,0.09587,-0.345242,0.1767565,0.0723099999999999,-0.364752,-0.1905535,-0.2732599999999999,-0.0892429999999999,0.1891665,-0.3248099999999999,-0.150442,1
127,-0.0132514999999999,0.6525869999999999,-0.2487945,-0.1551094999999999,0.4716099999999999,-0.2030644999999999,-0.2706295,0.6705239999999999,-0.4042445,0.1395905,0.4834799999999999,-0.2118545,0.2270805,0.687325,-0.4043945,-0.2490395,0.8941999999999999,-0.5643245,0.2196105,0.95844,-0.5381045,-0.0627235,-0.00255,-0.0003284999999999,0.0627235,0.0025499999999999,0.0003284999999999,-0.2109295,0.0958599999999999,-0.3452545,0.1765105,0.0724199999999999,-0.3644445,-0.1898794999999999,-0.27338,-0.0887655,0.1894905,-0.3199400000000001,-0.1438344999999999,1
128,-0.012788,0.65291,-0.2480445,-0.15483,0.47164,-0.2025545,-0.27007,0.670897,-0.4037645,0.1399,0.48324,-0.2112845,0.22732,0.687478,-0.4042745,-0.24857,0.89442,-0.5638445,0.22035,0.9585,-0.5382545,-0.062764,-0.00246,-0.0003165,0.062764,0.00246,0.0003165,-0.21003,0.0956599999999999,-0.3449845,0.17622,0.0727499999999999,-0.3639245,-0.1903,-0.27296,-0.0886545,0.19029,-0.31469,-0.1359545,1
129,-0.0123385,0.6532349999999999,-0.2473805,-0.1545625,0.47156,-0.2019905,-0.2694725,0.6713969999999999,-0.4032604999999999,0.1401875,0.4829899999999999,-0.2107004999999999,0.2275375,0.687978,-0.4039705,-0.2475125,0.8954599999999999,-0.5635805,0.2209974999999999,0.959,-0.5383305,-0.0628015,-0.00238,-0.0003014999999999,0.0628015,0.0023799999999999,0.0003014999999999,-0.2090925,0.0953699999999999,-0.3446805,0.1759975,0.0728999999999999,-0.3630505,-0.1909025,-0.27248,-0.0881035,0.1912075,-0.30634,-0.1222505,1
130,-0.0118314999999999,0.6532349999999999,-0.246804,-0.1542605,0.4715399999999999,-0.201524,-0.2687405,0.6715439999999999,-0.402914,0.1405095,0.4829899999999999,-0.2102139999999999,0.2278195,0.688334,-0.403694,-0.2463605,0.89616,-0.563984,0.2216395,0.95926,-0.5385040000000001,-0.0628685,-0.00238,-0.0003119999999999,0.0628685,0.0023799999999999,0.0003119999999999,-0.2080905,0.0950899999999999,-0.344234,0.1759495,0.0727899999999999,-0.362234,-0.1915305,-0.2708100000000001,-0.0854149999999999,0.1909895,-0.30301,-0.116547,1
131,-0.0113249999999999,0.6532349999999999,-0.2461865,-0.1540359999999999,0.4715399999999999,-0.2010965,-0.267966,0.671669,-0.4026364999999999,0.140834,0.4829899999999999,-0.2096865,0.228084,0.6886979999999999,-0.4032664999999999,-0.245176,0.89667,-0.5645965000000001,0.222244,0.95949,-0.5385365,-0.062947,-0.00238,-0.0003294999999999,0.062947,0.0023799999999999,0.0003294999999999,-0.2070759999999999,0.0949999999999999,-0.3437665,0.175884,0.0728699999999999,-0.3616065,-0.191346,-0.26924,-0.0849945,0.192594,-0.2948200000000001,-0.1030455,1
132,-0.010813,0.6532349999999999,-0.245608,-0.153795,0.4715399999999999,-0.2007479999999999,-0.267145,0.6717359999999999,-0.402518,0.141125,0.4829899999999999,-0.209168,0.228355,0.6888569999999999,-0.402888,-0.244025,0.89713,-0.565388,0.222815,0.95949,-0.538508,-0.063039,-0.00238,-0.000346,0.063039,0.0023799999999999,0.0003459999999999,-0.2060749999999999,0.0949999999999999,-0.343558,0.175855,0.07304,-0.360928,-0.191305,-0.26804,-0.084613,0.193415,-0.29102,-0.095982,1
133,-0.010315,0.6534249999999999,-0.2449105,-0.1535399999999999,0.4713699999999999,-0.2004105,-0.26636,0.672106,-0.4025105,0.14145,0.48283,-0.2084605,0.22862,0.688997,-0.4025105,-0.24298,0.89696,-0.5660405,0.22332,0.95939,-0.5382804999999999,-0.063108,-0.0023,-0.0004005,0.063108,0.0022999999999999,0.0004004999999999,-0.20514,0.0948299999999999,-0.3433704999999999,0.17586,0.0729799999999999,-0.3591505,-0.1919799999999999,-0.26697,-0.0829955,0.19478,-0.28615,-0.0893015,1
134,-0.0098724999999999,0.6536320000000001,-0.2441895,-0.1533265,0.471465,-0.2001195,-0.2656464999999999,0.6725500000000001,-0.4026895,0.1417435,0.4827450000000001,-0.2077795,0.2288135,0.688918,-0.4020495,-0.2420965,0.8967750000000001,-0.5665095,0.2237935,0.959135,-0.5379594999999999,-0.0631595,-0.0022749999999999,-0.0004005,0.0631595,0.002275,0.0004004999999999,-0.2043265,0.094795,-0.3434295,0.1757834999999999,0.073085,-0.3581995,-0.1926465,-0.2659249999999999,-0.0832265,0.1956335,-0.2825549999999999,-0.0831425,1
135,-0.0094979999999999,0.6537139999999999,-0.243415,-0.153232,0.4715299999999999,-0.199855,-0.264972,0.6728789999999999,-0.402865,0.141988,0.4825599999999999,-0.207055,0.228928,0.688657,-0.401465,-0.241262,0.8966799999999999,-0.566785,0.224218,0.95866,-0.537655,-0.063205,-0.00221,-0.000394,0.063205,0.0022099999999999,0.000394,-0.203602,0.0948699999999999,-0.343665,0.175718,0.0727599999999999,-0.356725,-0.193372,-0.26502,-0.083568,0.196408,-0.2791300000000001,-0.077426,1
136,-0.0091745,0.6537820000000001,-0.242531,-0.1531095,0.471655,-0.199621,-0.2642795,0.6732060000000001,-0.402871,0.1422005,0.482435,-0.206311,0.2290605,0.6883760000000001,-0.400801,-0.2404795,0.896665,-0.566721,0.2245105,0.958095,-0.537351,-0.0632605,-0.0021349999999999,-0.000412,0.0632605,0.0021349999999999,0.0004119999999999,-0.2029995,0.094805,-0.344271,0.1756205,0.072405,-0.355161,-0.1938595,-0.2649149999999999,-0.0829189999999999,0.1964505,-0.2759349999999999,-0.072319,1
137,-0.0089255,0.653788,-0.2416325,-0.1529855,0.47214,-0.1993425,-0.2636354999999999,0.673427,-0.4026125,0.1423645,0.48232,-0.2055925,0.2292044999999999,0.688183,-0.4000325,-0.2397955,0.8965000000000001,-0.5664625,0.2246544999999999,0.95768,-0.5369824999999999,-0.0633165,-0.0020599999999999,-0.0004305,0.0633165,0.00206,0.0004305,-0.2024754999999999,0.0941699999999999,-0.3448125,0.1755145,0.07232,-0.3537025,-0.1942154999999999,-0.2647699999999999,-0.0824874999999999,0.1963444999999999,-0.27534,-0.0724755,1
138,-0.0087085,0.653797,-0.2405435,-0.1528564999999999,0.47272,-0.1989834999999999,-0.2629964999999999,0.673658,-0.4022735,0.1425735,0.48223,-0.2047935,0.2294035,0.688061,-0.3989035,-0.2391765,0.89628,-0.5661235,0.2248535,0.95737,-0.5363235,-0.0633855,-0.00197,-0.0005594999999999,0.0633855,0.00197,0.0005595,-0.2019665,0.0937399999999999,-0.3452735,0.1754735,0.07194,-0.3521835,-0.1946564999999999,-0.26452,-0.0821045,0.1959035,-0.27837,-0.0746915,1
139,-0.008412,0.653745,-0.2392045,-0.152692,0.4734,-0.1984044999999999,-0.2624019999999999,0.673884,-0.4017845,0.142858,0.48217,-0.2038344999999999,0.229508,0.687913,-0.3971645,-0.2386019999999999,0.89609,-0.5656345,0.225148,0.95706,-0.5352045000000001,-0.063441,-0.0019399999999999,-0.0006924999999999,0.063441,0.00194,0.0006925,-0.2014119999999999,0.09303,-0.3453745,0.175588,0.07161,-0.3505445,-0.195492,-0.2636099999999999,-0.0827125,0.195848,-0.2786999999999999,-0.0738585,1
140,-0.0081055,0.653788,-0.2377119999999999,-0.1525625,0.474165,-0.197822,-0.2618425,0.6743100000000001,-0.401082,0.1431374999999999,0.482205,-0.202872,0.2294574999999999,0.68855,-0.395272,-0.2381125,0.896395,-0.564742,0.2254375,0.957365,-0.5339820000000001,-0.0634815,-0.001885,-0.000833,0.0634815,0.001885,0.000833,-0.2011124999999999,0.093095,-0.345802,0.1758974999999999,0.071295,-0.349022,-0.1952225,-0.263775,-0.0822,0.1957574999999999,-0.278915,-0.072546,1
141,-0.0078655,0.6541570000000001,-0.2360755,-0.1525065,0.47507,-0.1975155,-0.2613364999999999,0.6751720000000001,-0.3999655,0.1433535,0.48238,-0.2021155,0.2292035,0.690002,-0.3933155,-0.2377264999999999,0.8973200000000001,-0.5633255,0.2254235,0.95856,-0.5324355,-0.0635095,-0.0018699999999999,-0.0009164999999999,0.0635095,0.00187,0.0009165,-0.2008565,0.0934,-0.3464855,0.1763435,0.0709400000000001,-0.3481955,-0.1939265,-0.2653399999999999,-0.0808575,0.1958435,-0.2763199999999999,-0.0689155,1
142,-0.0077949999999999,0.654775,-0.2341965,-0.152464,0.47586,-0.1970964999999999,-0.260804,0.676511,-0.3981865,0.143496,0.48244,-0.2015165,0.228666,0.6921809999999999,-0.3909165,-0.237374,0.8998999999999999,-0.5607065,0.225156,0.96077,-0.5302665,-0.063533,-0.00178,-0.0008904999999999,0.063533,0.00178,0.0008905,-0.2006339999999999,0.0936899999999999,-0.3471464999999999,0.176806,0.07103,-0.3477564999999999,-0.1936439999999999,-0.26535,-0.0800525,0.195896,-0.2767199999999999,-0.0686674999999999,1
143,-0.0078719999999999,0.655234,-0.2319755,-0.152412,0.47714,-0.1967155,-0.260302,0.677875,-0.3956754999999999,0.143668,0.48202,-0.2010355,0.227858,0.69431,-0.3880455,-0.236722,0.90344,-0.5569255000000001,0.224788,0.96299,-0.5273055,-0.063514,-0.0015399999999999,-0.0007134999999999,0.063514,0.0015399999999999,0.0007135,-0.2002519999999999,0.0932,-0.3479155,0.177368,0.07032,-0.3475955,-0.192572,-0.26641,-0.0790065,0.195998,-0.2779199999999999,-0.0686155,1
144,-0.0080645,0.6555900000000001,-0.229789,-0.1522285,0.478225,-0.196479,-0.2596285,0.6819270000000001,-0.393069,0.1439015,0.4811350000000001,-0.200829,0.2266915,0.697185,-0.385059,-0.2359785,0.906775,-0.5521590000000001,0.2239615,0.966665,-0.522409,-0.0634455,-0.0011949999999999,-0.0006649999999999,0.0634455,0.001195,0.000665,-0.1996885,0.091845,-0.348329,0.1778015,0.068775,-0.347769,-0.1920085,-0.2685349999999999,-0.07919,0.1964415,-0.2806549999999999,-0.071892,1
145,-0.0080889999999999,0.657219,-0.2272694999999999,-0.151851,0.47925,-0.1958495,-0.258721,0.685868,-0.3899395,0.143559,0.4832,-0.1997295,0.225449,0.701879,-0.3816195,-0.234991,0.90902,-0.5459495,0.223119,0.97213,-0.5170895,-0.063358,-0.0011999999999999,-0.0006685,0.063358,0.0011999999999999,0.0006685,-0.198941,0.0886299999999999,-0.3483495,0.178279,0.06544,-0.3484595,-0.191011,-0.27254,-0.0791395,0.196879,-0.28428,-0.0714895,1
146,-0.0082389999999999,0.659402,-0.224743,-0.151407,0.4809550000000001,-0.194823,-0.257717,0.6902210000000001,-0.386493,0.143263,0.4842050000000001,-0.198603,0.224163,0.705829,-0.378333,-0.234037,0.914055,-0.539223,0.222073,0.976935,-0.511783,-0.0631559999999999,-0.0010449999999999,-0.000676,0.0631559999999999,0.001045,0.0006759999999999,-0.198137,0.0835650000000001,-0.348383,0.178903,0.0600950000000001,-0.348823,-0.188987,-0.2785149999999999,-0.080823,0.196673,-0.2922049999999999,-0.073713,1
147,-0.0086704999999999,0.6615110000000001,-0.2222599999999999,-0.1510024999999999,0.481795,-0.1934199999999999,-0.2568525,0.694261,-0.38239,0.1425075,0.486935,-0.19743,0.2228075,0.709935,-0.37469,-0.2336325,0.918135,-0.53192,0.2207675,0.981875,-0.50605,-0.0629805,-0.0013149999999999,-0.0006589999999999,0.0629805,0.001315,0.0006589999999999,-0.1974824999999999,0.076635,-0.34843,0.1792775,0.054045,-0.34899,-0.1875724999999999,-0.285315,-0.082116,0.1964575,-0.301235,-0.077219,1
148,-0.009204,0.663307,-0.21999,-0.150723,0.483485,-0.19207,-0.256783,0.697335,-0.37784,0.141717,0.487705,-0.19658,0.221437,0.713145,-0.3714,-0.233363,0.923755,-0.5247299999999999,0.2193169999999999,0.985975,-0.50028,-0.062782,-0.0010649999999999,-0.000505,0.062782,0.0010649999999999,0.000505,-0.196963,0.066765,-0.34847,0.179327,0.045785,-0.34935,-0.185743,-0.295115,-0.083537,0.196187,-0.3118949999999999,-0.079714,1
149,-0.0097645,0.665551,-0.217993,-0.1504585,0.485009,-0.191193,-0.2560785,0.7014400000000001,-0.373463,0.1409715,0.488161,-0.196213,0.2199715,0.7173700000000001,-0.368203,-0.2332685,0.9285,-0.518293,0.2177715,0.99121,-0.4946629999999999,-0.0626055,-0.0011499999999999,-0.0004029999999999,0.0626055,0.0011499999999999,0.000403,-0.1963285,0.0563099999999999,-0.348223,0.1789515,0.0367399999999999,-0.349833,-0.1834885,-0.3061699999999999,-0.084706,0.1961315,-0.32287,-0.082287,1
150,-0.0101775,0.6674460000000001,-0.2166805,-0.1503685,0.4865480000000001,-0.1900405,-0.2559385,0.7054450000000001,-0.3696005,0.1402915,0.489255,-0.1959705,0.2186515,0.7200550000000001,-0.3654005,-0.2331885,0.930145,-0.5115704999999999,0.2164015,0.995015,-0.4893705,-0.0623854999999999,-0.0010149999999999,-0.0001875,0.0623854999999999,0.001015,0.0001875,-0.1955984999999999,0.043905,-0.3478805,0.1785415,0.025745,-0.3507905,-0.1809885,-0.3199649999999999,-0.0859015,0.1966915,-0.3364649999999999,-0.0850635,1
151,-0.010646,0.66973,-0.2156985,-0.150465,0.488491,-0.1890785,-0.256145,0.7093200000000001,-0.3661785,0.139515,0.489738,-0.1959885,0.217335,0.72279,-0.3630285,-0.234065,0.92947,-0.5053485,0.215105,0.99854,-0.4846785,-0.062138,-0.0008699999999999,5.7500000000002e-05,0.062138,0.00087,-5.749999999999853e-05,-0.1948649999999999,0.0305,-0.3475685,0.177755,0.014,-0.3520285,-0.1788749999999999,-0.3348899999999999,-0.0880145,0.197435,-0.3512699999999999,-0.0871484999999999,1
152,-0.0108785,0.67299,-0.215206,-0.1504464999999999,0.488506,-0.188526,-0.2565665,0.7138899999999999,-0.363786,0.1387335,0.490463,-0.1962559999999999,0.2164035,0.72687,-0.361346,-0.2356265,0.928,-0.500366,0.2139935,1.00204,-0.480796,-0.0619665,-0.00104,0.0003419999999999,0.0619665,0.0010399999999999,-0.0003419999999999,-0.1940265,0.0171899999999999,-0.346926,0.1768335,0.0028299999999999,-0.353006,-0.1778165,-0.35107,-0.090059,0.1981735,-0.36634,-0.089556,1
153,-0.0110469999999999,0.6757550000000001,-0.214608,-0.150696,0.4912250000000001,-0.186918,-0.257196,0.7163750000000001,-0.360538,0.137894,0.4922560000000001,-0.196028,0.215674,0.7298950000000001,-0.359448,-0.2371559999999999,0.931595,-0.495298,0.213214,1.0058250000000002,-0.477068,-0.0618009999999999,-0.0011049999999999,0.0004829999999999,0.0618009999999999,0.001105,-0.000483,-0.193326,0.0024250000000001,-0.345728,0.175784,-0.0096349999999999,-0.353558,-0.1769059999999999,-0.3690949999999999,-0.091626,0.199264,-0.3812449999999999,-0.089233,1
154,-0.011649,0.67851,-0.213776,-0.151266,0.4930959999999999,-0.185636,-0.258286,0.71905,-0.3575959999999999,0.137344,0.4920319999999999,-0.196166,0.214804,0.7319599999999999,-0.3579759999999999,-0.238746,0.93886,-0.489546,0.2124039999999999,1.00846,-0.4738159999999999,-0.061676,-0.00098,0.000592,0.061676,0.0009799999999999,-0.0005919999999999,-0.193016,-0.011,-0.3438659999999999,0.1744339999999999,-0.02088,-0.353616,-0.176466,-0.3865900000000001,-0.093644,0.199714,-0.39717,-0.092583,1
155,-0.0122369999999999,0.68069,-0.212413,-0.1519839999999999,0.494558,-0.184063,-0.259314,0.72173,-0.353713,0.136666,0.493126,-0.196013,0.213746,0.7346,-0.355413,-0.240884,0.94176,-0.484243,0.211816,1.01163,-0.469493,-0.0616199999999999,-0.0008499999999999,0.000663,0.0616199999999999,0.00085,-0.000663,-0.1926939999999999,-0.02466,-0.3414729999999999,0.172976,-0.03117,-0.352593,-0.176414,-0.40325,-0.095561,0.200166,-0.4132599999999999,-0.094539,1
156,-0.0126635,0.683875,-0.2101775,-0.1526965,0.49701,-0.1823374999999999,-0.2603465,0.724485,-0.3492274999999999,0.1362934999999999,0.493041,-0.1950275,0.2126434999999999,0.736335,-0.3517675,-0.2426365,0.946915,-0.4793575,0.2116335,1.013875,-0.4641475,-0.0616175,-0.000425,0.0007185,0.0616175,0.000425,-0.0007184999999999,-0.1923565,-0.038435,-0.3382374999999999,0.1717535,-0.042995,-0.3508875,-0.1765065,-0.4201749999999999,-0.0980915,0.2004735,-0.4300349999999999,-0.0962804999999999,1
157,-0.0130495,0.6868650000000001,-0.2073565,-0.1533634999999999,0.498373,-0.1799165,-0.2613035,0.728615,-0.3439665,0.1358065,0.49474,-0.1933765,0.2117465,0.7386349999999999,-0.3468665,-0.2445935,0.950925,-0.4733165,0.2117365,1.016505,-0.4580465,-0.0616185,-0.000595,0.0007004999999999,0.0616185,0.000595,-0.0007005,-0.1918235,-0.0509149999999999,-0.3343265,0.1706465,-0.0541649999999999,-0.3483965,-0.1766035,-0.4363149999999999,-0.1006255,0.2009965,-0.443845,-0.0944385,1
158,-0.0134315,0.6894750000000001,-0.2042,-0.1542245,0.50058,-0.17661,-0.2616845,0.7308049999999999,-0.33818,0.1353655,0.496541,-0.1910299999999999,0.2111255,0.7380249999999999,-0.34121,-0.2447045,0.952755,-0.46563,0.2119154999999999,1.016285,-0.45104,-0.0615775,-0.0003949999999999,0.000711,0.0615775,0.0003949999999999,-0.0007109999999999,-0.1911945,-0.0647949999999999,-0.33028,0.1698754999999999,-0.067045,-0.34532,-0.1775245,-0.4536749999999999,-0.102019,0.2014254999999999,-0.4597249999999999,-0.093692,1
159,-0.0137584999999999,0.69293,-0.200272,-0.1549145,0.50234,-0.173492,-0.2619344999999999,0.73308,-0.331562,0.1353855,0.498194,-0.188382,0.2106055,0.74203,-0.3350619999999999,-0.2455045,0.9561,-0.457002,0.2120854999999999,1.02026,-0.444412,-0.0616275,-0.00051,0.00075,0.0616275,0.00051,-0.0007499999999999,-0.1905445,-0.0779,-0.326322,0.1693255,-0.0789099999999999,-0.3417519999999999,-0.1781545,-0.47089,-0.102902,0.2013754999999999,-0.47672,-0.092853,1
160,-0.0141719999999999,0.696205,-0.195922,-0.155911,0.5045850000000001,-0.169922,-0.261881,0.7378750000000001,-0.324082,0.134969,0.500465,-0.185292,0.210009,0.743325,-0.328322,-0.246751,0.961015,-0.447802,0.212169,1.022035,-0.436162,-0.0617869999999999,-0.0006749999999999,0.0007379999999999,0.0617869999999999,0.0006749999999999,-0.0007379999999999,-0.189761,-0.0903749999999999,-0.321762,0.168919,-0.089575,-0.3368219999999999,-0.178891,-0.488235,-0.103614,0.201119,-0.494065,-0.093583,1
161,-0.014586,0.69913,-0.1906735,-0.156888,0.50746,-0.1655135,-0.262138,0.7420100000000001,-0.3157835,0.134292,0.50467,-0.1810235,0.209482,0.74672,-0.3207934999999999,-0.247378,0.97387,-0.4380535,0.212592,1.02495,-0.4274535,-0.0619269999999999,-0.00079,0.0005715,0.0619269999999999,0.00079,-0.0005714999999999,-0.188818,-0.1032699999999999,-0.3167235,0.168492,-0.1014299999999999,-0.3314235,-0.179648,-0.50637,-0.1035514999999999,0.200962,-0.5126900000000001,-0.0923355,1
162,-0.015298,0.70296,-0.1849135,-0.158306,0.50837,-0.1614135,-0.262576,0.74641,-0.3073835,0.133234,0.5075999999999999,-0.1768435,0.2087139999999999,0.74901,-0.3131434999999999,-0.248126,0.97981,-0.4271935,0.2130739999999999,1.02724,-0.4187535,-0.062098,-0.00108,0.0004404999999999,0.062098,0.0010799999999999,-0.0004404999999999,-0.188176,-0.11436,-0.3113335,0.167624,-0.11242,-0.3255234999999999,-0.180756,-0.52368,-0.1035195,0.2004739999999999,-0.53024,-0.0912895,1
163,-0.0158985,0.705605,-0.1792155,-0.1599135,0.510325,-0.1565355,-0.2631735,0.750765,-0.2985955,0.1323465,0.510105,-0.1724155,0.2080565,0.751475,-0.3044255,-0.2486135,0.981705,-0.4167754999999999,0.2137065,1.028915,-0.4099055,-0.0622704999999999,-0.001155,0.0003794999999999,0.0622704999999999,0.001155,-0.0003794999999999,-0.1876235,-0.1265649999999999,-0.3061955,0.1665665,-0.1231249999999999,-0.3188255,-0.1819134999999999,-0.5416049999999999,-0.1033755,0.1999665,-0.547585,-0.0908385,1
164,-0.0164445,0.709265,-0.172794,-0.1614395,0.512675,-0.151494,-0.2638195,0.754825,-0.289534,0.1315705,0.513525,-0.167144,0.2081005,0.7537149999999999,-0.295714,-0.2486495,0.988105,-0.405214,0.2145005,1.031435,-0.399614,-0.0624195,-0.001395,0.0003739999999999,0.0624195,0.0013949999999999,-0.0003739999999999,-0.1868195,-0.138095,-0.300434,0.1655105,-0.134155,-0.312164,-0.1828995,-0.559805,-0.1034209999999999,0.1992805,-0.5647150000000001,-0.090553,1
165,-0.0169374999999999,0.71026,-0.1669344999999999,-0.1627384999999999,0.51206,-0.1465345,-0.2638784999999999,0.7598100000000001,-0.2805545,0.1308915,0.51595,-0.1637044999999999,0.2077815,0.75712,-0.2875145,-0.2495784999999999,0.99338,-0.3929545,0.2154015,1.03469,-0.3897645,-0.0625915,-0.0015099999999999,0.0004175,0.0625915,0.00151,-0.0004175,-0.1859884999999999,-0.1488499999999999,-0.2951245,0.1644915,-0.1435099999999999,-0.3051345,-0.1837984999999999,-0.57711,-0.1036625,0.1984615,-0.58034,-0.0907975,1
166,-0.0170959999999999,0.712175,-0.1601715,-0.164075,0.5126850000000001,-0.1418815,-0.263915,0.762595,-0.2714815,0.1301749999999999,0.517835,-0.1605915,0.207405,0.763305,-0.2793015,-0.249875,0.996725,-0.3807415,0.215385,1.037135,-0.3798315,-0.062749,-0.0015349999999999,0.0005664999999999,0.062749,0.001535,-0.0005665,-0.185075,-0.1584149999999999,-0.2890615,0.1632849999999999,-0.1520349999999999,-0.2979115,-0.184665,-0.5938749999999999,-0.1035175,0.1969149999999999,-0.595225,-0.0910325,1
167,-0.0170195,0.7124649999999999,-0.1523915,-0.1650415,0.5111049999999999,-0.1365615,-0.2639715,0.765475,-0.2615415,0.1296785,0.517535,-0.1574715,0.2072185,0.768315,-0.2711515,-0.2505415,1.001445,-0.3674015,0.2156084999999999,1.040985,-0.3685215,-0.0625495,-0.001565,0.0003164999999999,0.0625495,0.0015649999999999,-0.0003165,-0.1840115,-0.167925,-0.2824615,0.1621185,-0.160285,-0.2897715,-0.1852615,-0.610785,-0.1026135,0.1954785,-0.610195,-0.0907594999999999,1
168,-0.0169985,0.711955,-0.1430295,-0.1659345,0.512915,-0.1310885,-0.2638844999999999,0.770195,-0.2504895,0.1262955,0.5165850000000001,-0.1537395,0.2051955,0.770535,-0.2617795,-0.2517545,1.007525,-0.3548995,0.2157555,1.042385,-0.3556595,-0.0622195,-0.001505,0.0002634999999999,0.0622195,0.001505,-0.0002634999999999,-0.1828245,-0.175095,-0.2750995,0.1606255,-0.166705,-0.2811795,-0.1856545,-0.625605,-0.1018685,0.1939855,-0.623025,-0.0904245,1
169,-0.0171575,0.7103200000000001,-0.1339425,-0.1666524999999999,0.51371,-0.1252464999999999,-0.2635325,0.77389,-0.2399125,0.1251575,0.5146999999999999,-0.1501925,0.2044675,0.77396,-0.2523525,-0.2516725,1.01322,-0.3414325,0.2167875,1.04462,-0.3416725,-0.0617905,-0.0013399999999999,0.0002584999999999,0.0617905,0.00134,-0.0002585,-0.1817224999999999,-0.18233,-0.2675825,0.1591775,-0.17357,-0.2727225,-0.1860524999999999,-0.6396,-0.1009805,0.1923175,-0.63472,-0.0906705,1
170,-0.0172224999999999,0.7051499999999999,-0.1250955,-0.1672044999999999,0.51868,-0.1193275,-0.2628945,0.78018,-0.2298405,0.1227154999999999,0.5096099999999999,-0.1475805,0.2041755,0.77117,-0.2434805,-0.2526945,1.0131,-0.3282805,0.2179955,1.04291,-0.3278905,-0.0613455,-0.00057,0.0001335,0.0613455,0.0005699999999999,-0.0001335,-0.1798445,-0.18907,-0.2590805,0.1576055,-0.18156,-0.2637805,-0.1864144999999999,-0.6529200000000001,-0.1004575,0.1905555,-0.64708,-0.0908385,1
171,-0.0171424999999999,0.699225,-0.1162455,-0.1673875,0.522105,-0.1141804999999999,-0.2618675,0.785305,-0.2201755,0.1209824999999999,0.5053650000000001,-0.1446454999999999,0.2036325,0.770365,-0.2341055,-0.2530675,1.014845,-0.3147655,0.2191925,1.039595,-0.3155055,-0.0606875,0.000145,9.55000000000053e-05,0.0606875,-0.0001449999999999,-9.549999999999836e-05,-0.1771174999999999,-0.1942849999999999,-0.2502054999999999,0.1560025,-0.188585,-0.2538055,-0.1866575,-0.6634249999999999,-0.1001185,0.1894725,-0.6583749999999999,-0.0912435,1
172,-0.016905,0.698555,-0.1078679999999999,-0.167319,0.523255,-0.109869,-0.260449,0.7886550000000001,-0.210071,0.119861,0.5058549999999999,-0.140421,0.203121,0.773965,-0.225281,-0.253179,1.021305,-0.302211,0.220711,1.041605,-0.302511,-0.059965,0.000255,0.000165,0.059965,-0.0002549999999999,-0.0001649999999999,-0.173529,-0.1986649999999999,-0.240461,0.154221,-0.192985,-0.2424909999999999,-0.186509,-0.6731849999999999,-0.100364,0.188671,-0.6671149999999999,-0.091395,1
173,-0.0164045,0.69357,-0.099794,-0.1671215,0.52142,-0.106166,-0.2588615,0.7891299999999999,-0.200133,0.1189585,0.50515,-0.136143,0.2024285,0.7775000000000001,-0.216853,-0.2540015,1.02136,-0.289033,0.2222985,1.04544,-0.292123,-0.0591705,0.0003299999999999,0.00025,0.0591705,-0.0003299999999999,-0.00025,-0.1688115,-0.20273,-0.2291929999999999,0.1525385,-0.1999699999999999,-0.230443,-0.1861315,-0.6826700000000001,-0.100057,0.1879985,-0.6783699999999999,-0.091375,1
174,-0.015384,0.6898249999999999,-0.091374,-0.166458,0.5202150000000001,-0.102496,-0.256758,0.789115,-0.1902039999999999,0.118752,0.504395,-0.1314779999999999,0.200272,0.7805949999999999,-0.208044,-0.254478,1.021435,-0.276284,0.221682,1.046825,-0.282194,-0.0586929999999999,0.000475,0.000361,0.0586929999999999,-0.0004749999999999,-0.000361,-0.163498,-0.2063149999999999,-0.217794,0.151422,-0.2070249999999999,-0.218134,-0.184798,-0.6910050000000001,-0.099634,0.187712,-0.6893050000000001,-0.091426,1
175,-0.0141135,0.68542,-0.083284,-0.1656534999999999,0.51884,-0.098754,-0.2538935,0.79071,-0.1805199999999999,0.1186065,0.50385,-0.126501,0.1981065,0.78104,-0.19938,-0.2548235,1.02317,-0.26365,0.2209865,1.04922,-0.27214,-0.0580655,0.0007299999999999,0.000319,0.0580655,-0.0007299999999999,-0.0003189999999999,-0.1581334999999999,-0.21115,-0.2061899999999999,0.1502965,-0.21533,-0.20538,-0.1832635,-0.69931,-0.098855,0.1874065,-0.70133,-0.091082,1
176,-0.0145065,0.6835,-0.075673,-0.1661035,0.5187,-0.095896,-0.2533135,0.79281,-0.171314,0.1182064999999999,0.50525,-0.122429,0.1978964999999999,0.78347,-0.190484,-0.2561935,1.02662,-0.252474,0.2211064999999999,1.05257,-0.2632339999999999,-0.0576895,0.0009799999999999,0.0003709999999999,0.0576895,-0.0009799999999999,-0.000371,-0.1533135,-0.21426,-0.193434,0.1471765,-0.21914,-0.190644,-0.1826435,-0.7127399999999999,-0.097658,0.1869365,-0.71476,-0.088731,1
177,-0.0148104999999999,0.6810585,-0.070279,-0.1665724999999999,0.5147885,-0.093292,-0.2529625,0.7919685000000001,-0.1637809999999999,0.1178775,0.5058385000000001,-0.118235,0.1977675,0.7845884999999999,-0.182741,-0.2571425,1.0288685,-0.241471,0.2215175,1.0538385,-0.252591,-0.0572655,0.0016285,0.0005389999999999,0.0572655,-0.0016284999999999,-0.0005389999999999,-0.1482524999999999,-0.2191415,-0.1805709999999999,0.1441675,-0.2249315,-0.1756909999999999,-0.1819124999999999,-0.7195914999999999,-0.095786,0.1856375,-0.7227014999999999,-0.085698,1
178,-0.0150414999999999,0.679496,-0.059931,-0.1669874999999999,0.5108459999999999,-0.086287,-0.2530475,0.789076,-0.151368,0.1177125,0.5067159999999999,-0.1092809999999999,0.1978625,0.7860159999999999,-0.170678,-0.2577575,1.030536,-0.227118,0.2203925,1.055686,-0.239178,-0.0569005,0.0022729999999999,0.000653,0.0569005,-0.002273,-0.0006529999999999,-0.1430175,-0.223884,-0.1624479999999999,0.1412825,-0.2311139999999999,-0.154488,-0.1806475,-0.726554,-0.088501,0.1843425,-0.730684,-0.077444,1
179,-0.0153494999999999,0.684038,-0.048281,-0.1676655,0.507768,-0.07337,-0.2531055,0.778278,-0.137197,0.1186645,0.513088,-0.094483,0.1978445,0.788378,-0.157077,-0.2581854999999999,1.022188,-0.209937,0.2203745,1.053088,-0.223977,-0.0568435,0.001424,0.0005269999999999,0.0568435,-0.001424,-0.0005269999999999,-0.1373855,-0.240172,-0.141117,0.1375645,-0.246592,-0.130207,-0.1792455,-0.742812,-0.07842,0.1835145,-0.747972,-0.067208,1
180,-0.0157365,0.6896365,-0.0371535,-0.1684895,0.5057165,-0.0603285,-0.2542195,0.7688065000000001,-0.1233445,0.1228605,0.5216565,-0.0789175,0.1998405,0.7903265,-0.1445345,-0.2584795,1.0139365,-0.1950645,0.2208004999999999,1.0504865,-0.2092445,-0.0567875,0.0006165,0.0003814999999999,0.0567875,-0.0006164999999999,-0.0003814999999999,-0.1322595,-0.2580535,-0.1201345,0.1343804999999999,-0.2615734999999999,-0.1065745,-0.1770995,-0.7603035,-0.0680725,0.1831704999999999,-0.7645735,-0.0564925,1
181,-0.016671,0.690271,-0.0259175,-0.169294,0.505831,-0.0473634999999999,-0.255004,0.7615109999999999,-0.1103005,0.125936,0.523941,-0.0660555,0.202946,0.787061,-0.1325205,-0.258554,1.002361,-0.1808705,0.222666,1.043071,-0.1942705,-0.056865,0.0004009999999999,0.0001695,0.056865,-0.000401,-0.0001694999999999,-0.1279539999999999,-0.275019,-0.1004665,0.131636,-0.277489,-0.0855475,-0.1751839999999999,-0.777099,-0.0576705,0.182726,-0.778849,-0.0453234999999999,1
182,-0.0182805,0.6943655000000001,-0.0157855,-0.1705424999999999,0.5089555,-0.0346635,-0.2554925,0.7568355,-0.0985035,0.1279874999999999,0.5263155,-0.0534355,0.2053074999999999,0.7843955,-0.1208735,-0.2590225,0.9943155,-0.1681435,0.2240475,1.0356155,-0.1794335,-0.0574625,0.0001975,3.749999999999999e-05,0.0574625,-0.0001974999999999,-3.749999999999999e-05,-0.1253625,-0.2904545,-0.0832945,0.1285575,-0.2909945,-0.0662275,-0.1734425,-0.7914844999999999,-0.0468735,0.1818274999999999,-0.7911545,-0.0345615,1
183,-0.020029,0.698923,-0.0058,-0.171823,0.511943,-0.022167,-0.256023,0.751713,-0.087536,0.129737,0.529143,-0.041109,0.205567,0.781713,-0.1100589999999999,-0.259493,0.985663,-0.155359,0.224407,1.028463,-0.164599,-0.058238,-6.500000000000256e-05,-0.000162,0.058238,6.499999999999909e-05,0.0001619999999999,-0.122963,-0.305887,-0.06623,0.125497,-0.304087,-0.047861,-0.171873,-0.806707,-0.035491,0.180677,-0.8045869999999999,-0.024154,1
184,-0.0212645,0.7037615,0.0033355,-0.1726775,0.5152515000000001,-0.0100465,-0.2563574999999999,0.7465915000000001,-0.0776235,0.1313625,0.5325215000000001,-0.0291364999999999,0.2058225,0.7793015000000001,-0.1001114999999999,-0.2598075,0.9752115,-0.1435615,0.2240025,1.0207115,-0.1506815,-0.0589274999999999,-0.0004284999999999,-0.0004325,0.0589274999999999,0.0004284999999999,0.0004325,-0.1202575,-0.3208185,-0.0503384999999999,0.1231625,-0.3165785,-0.0306125,-0.1697875,-0.8219885,-0.0244365,0.1802725,-0.8178884999999999,-0.0141024999999999,1
185,-0.0225695,0.707576,0.0120115,-0.1735385,0.518796,0.0019075,-0.2569685,0.7412759999999999,-0.0685505,0.1334815,0.536336,-0.0172555,0.2057614999999999,0.777076,-0.0907825,-0.2601685,0.967236,-0.1327625,0.2233915,1.013336,-0.1376525,-0.0593655,-0.0007859999999999,-0.0006404999999999,0.0593655,0.000786,0.0006405,-0.1182685,-0.335434,-0.0360715,0.1217715,-0.330514,-0.0163374999999999,-0.1678685,-0.836924,-0.0141804999999999,0.1800715,-0.832514,-0.0063054999999999,1
186,-0.0239849999999999,0.7120785000000001,0.020501,-0.174396,0.5231085,0.013259,-0.257796,0.7361485,-0.060089,0.135544,0.5410485,-0.0057909999999999,0.206054,0.7751085,-0.082208,-0.260416,0.9596685,-0.123238,0.223084,1.0068685,-0.127978,-0.059786,-0.0014945,-0.0011319999999999,0.059786,0.0014944999999999,0.001132,-0.116846,-0.3488814999999999,-0.023183,0.120344,-0.3432115,-0.0033749999999999,-0.166076,-0.8505015,-0.0049039999999999,0.179994,-0.8456315,0.000664,1
187,-0.025705,0.7165779999999999,0.0236105,-0.1753569999999999,0.527868,0.0191595,-0.258987,0.731298,-0.0571555,0.137133,0.546478,0.0004625,0.206433,0.773818,-0.0789675,-0.260827,0.952548,-0.1193075,0.222763,1.000948,-0.1240675,-0.060126,-0.0022389999999999,-0.0015624999999999,0.060126,0.002239,0.0015625,-0.115957,-0.361442,-0.0167405,0.118763,-0.355132,0.0017605,-0.164827,-0.863132,-0.0014064999999999,0.179783,-0.857992,0.0022135,1
188,-0.026632,0.7180715,0.0257515,-0.175477,0.5281115000000001,0.0194845,-0.259107,0.7316415000000001,-0.0550564999999999,0.137163,0.5468014999999999,0.0011695,0.206533,0.7744314999999999,-0.0764375,-0.261127,0.9538015,-0.1172775,0.222873,1.0024015,-0.1213275,-0.060126,-0.0019925,-0.0015624999999999,0.060126,0.0019924999999999,0.0015625,-0.115867,-0.3613885,-0.0144164999999999,0.1184429999999999,-0.3551785,0.0036395,-0.163597,-0.8633284999999999,0.0001495,0.180213,-0.8559885,0.0025725,1
189,-0.027422,0.7187030000000001,0.0280145,-0.1756069999999999,0.528103,0.0198835,-0.259217,0.731703,-0.0528415,0.137193,0.546813,0.0019594999999999,0.206653,0.774483,-0.0737375,-0.261977,0.953753,-0.1148875,0.223143,1.003753,-0.1185575,-0.060126,-0.001944,-0.0015624999999999,0.060126,0.001944,0.0015625,-0.115807,-0.361337,-0.0127214999999999,0.118073,-0.355227,0.0043585,-0.163217,-0.8633869999999999,0.0014615,0.180573,-0.8560369999999999,0.0025585,1
190,-0.028057,0.7190845,0.0301835,-0.175997,0.5280644999999999,0.0210365,-0.259307,0.7317445,-0.0506724999999999,0.137253,0.5467744999999999,0.0035455,0.206773,0.7744445,-0.0709625,-0.262477,0.9550145,-0.1127975,0.223413,1.0048145,-0.1168075,-0.060126,-0.0019055,-0.0015624999999999,0.060126,0.0019054999999999,0.0015625,-0.115747,-0.3613055,-0.0111075,0.1177729999999999,-0.3552655,0.0050125,-0.162897,-0.8633755,0.0026195,0.180823,-0.8560755,0.0021515,1
191,-0.027949,0.7194205,0.0315225,-0.175764,0.5280604999999999,0.0211615,-0.258874,0.7320004999999999,-0.0495904999999999,0.137516,0.5467504999999999,0.0042295,0.206966,0.7744205,-0.0694935,-0.262614,0.9560905,-0.1121605,0.224036,1.0046905,-0.1160205,-0.0599969999999999,-0.0018475,-0.0017875,0.0599969999999999,0.0018475,0.0017875,-0.115534,-0.3612895,-0.0105905,0.118356,-0.3552895,0.0046784999999999,-0.162244,-0.8633195,0.0025904999999999,0.181256,-0.8560995,0.0002225,1
192,-0.027716,0.7197155000000001,0.032517,-0.17554,0.5282555,0.0213499999999999,-0.25849,0.7313955,-0.048759,0.13781,0.5470255,0.0048099999999999,0.20746,0.7747155,-0.06833,-0.26288,0.9561855,-0.1119599999999999,0.22469,1.0049855,-0.11562,-0.059881,-0.0016344999999999,-0.001972,0.059881,0.0016344999999999,0.0019719999999999,-0.11533,-0.3610045,-0.010547,0.11873,-0.3554845,0.0042779999999999,-0.16164,-0.8631345,0.0016309999999999,0.18199,-0.8562244999999999,-0.000742,1
193,-0.0273844999999999,0.7199930000000001,0.0332505,-0.1753414999999999,0.5284530000000001,0.0217895,-0.2580415,0.730443,-0.0480075,0.1380885,0.5472729999999999,0.0056914999999999,0.2081285,0.774923,-0.0675425,-0.2628915,0.957363,-0.1116135,0.2255685,1.005163,-0.1168835,-0.0597505,-0.0014529999999999,-0.0021644999999999,0.0597505,0.0014529999999999,0.0021644999999999,-0.1150915,-0.360767,-0.0108435,0.1190485,-0.355657,0.0038615,-0.1610015,-0.862957,0.0006574999999999,0.1827185,-0.8563769999999999,-0.0018025,1
194,-0.026979,0.7202725000000001,0.033752,-0.175233,0.5286824999999999,0.022375,-0.257723,0.7295825,-0.047403,0.138337,0.5475025,0.00667,0.208797,0.7750625,-0.067128,-0.262953,0.9616425,-0.111173,0.226377,1.0060425,-0.116813,-0.0596499999999999,-0.0012825,-0.002332,0.0596499999999999,0.0012824999999999,0.002332,-0.114883,-0.3605875,-0.0113159999999999,0.119517,-0.3557875,0.0034059999999999,-0.160383,-0.8627975000000001,-0.0002899999999999,0.183087,-0.8564775,-0.0040129999999999,1
195,-0.026689,0.7207300000000001,0.0345015,-0.175386,0.52918,0.0236295,-0.257586,0.7297199999999999,-0.0465645,0.1384039999999999,0.5475300000000001,0.0080015,0.209264,0.7749600000000001,-0.0665564999999999,-0.263266,0.9669,-0.1111164999999999,0.2275539999999999,1.0074,-0.1177765,-0.059618,-0.0010659999999999,-0.0025025,0.059618,0.0010659999999999,0.0025025,-0.114826,-0.36038,-0.0118385,0.119944,-0.35599,0.0029605,-0.160306,-0.8626199999999999,-0.0011865,0.183124,-0.8566400000000001,-0.0060925,1
196,-0.0265469999999999,0.721123,0.0352145,-0.175676,0.529633,0.0249495,-0.257816,0.729993,-0.0460575,0.1383039999999999,0.547513,0.0094475,0.2095439999999999,0.774843,-0.0663125,-0.263946,0.972133,-0.1117514999999999,0.2289139999999999,1.009233,-0.1186115,-0.059631,-0.0008689999999999,-0.0026764999999999,0.059631,0.0008689999999999,0.0026765,-0.1148859999999999,-0.360197,-0.0122404999999999,0.120184,-0.3561569999999999,0.0026355,-0.160436,-0.862437,-0.0019254999999999,0.182994,-0.856817,-0.0079454999999999,1
197,-0.026528,0.721491,0.0358305,-0.176165,0.5298809999999999,0.0263085,-0.258395,0.7304309999999999,-0.0461125,0.1380749999999999,0.547411,0.0109565,0.2097049999999999,0.774701,-0.0666335,-0.264775,0.977161,-0.1124824999999999,0.230175,1.013861,-0.1194224999999999,-0.059672,-0.000698,-0.0028305,0.059672,0.0006979999999999,0.0028304999999999,-0.115075,-0.3600489999999999,-0.0126725,0.120255,-0.356299,0.0023464999999999,-0.160795,-0.8622690000000001,-0.0025915,0.1827949999999999,-0.8569490000000001,-0.0096325,1
198,-0.026486,0.721902,0.0362355,-0.176666,0.5302520000000001,0.0276385,-0.259136,0.731212,-0.0468345,0.138104,0.547342,0.0124265,0.210154,0.774402,-0.0672425,-0.265626,0.982272,-0.1132044999999999,0.232214,1.015372,-0.1205145,-0.0597459999999999,-0.0005309999999999,-0.0030174999999999,0.0597459999999999,0.000531,0.0030174999999999,-0.115086,-0.359888,-0.0131695,0.120314,-0.356448,0.0019985,-0.161126,-0.8621179999999999,-0.0034614999999999,0.183024,-0.857158,-0.0112365,1
199,-0.02647,0.7221125,0.0366585,-0.177032,0.5304725,0.0284135,-0.260392,0.7319125,-0.0474334999999999,0.138168,0.5469225,0.0132365,0.210998,0.7738625,-0.0679205,-0.266452,0.9838025,-0.1142505,0.234898,1.0169025,-0.1222105,-0.059784,-0.0004615,-0.0029944999999999,0.059784,0.0004615,0.0029945,-0.115112,-0.3598175,-0.0136114999999999,0.120488,-0.3564775,0.0016175,-0.1615519999999999,-0.8620475,-0.0040914999999999,0.183008,-0.8572775,-0.0125354999999999,1
200,-0.0264629999999999,0.7225820000000001,0.0370869999999999,-0.177442,0.530412,0.029238,-0.262662,0.732762,-0.048038,0.138228,0.546672,0.014178,0.213088,0.773022,-0.068094,-0.267962,0.981402,-0.1154309999999999,0.237998,1.018102,-0.1250109999999999,-0.0598039999999999,-0.0005359999999999,-0.002829,0.0598039999999999,0.0005359999999999,0.0028289999999999,-0.115132,-0.359868,-0.014027,0.120848,-0.356388,0.0009139999999999,-0.1619719999999999,-0.862078,-0.004766,0.182988,-0.857258,-0.013818,1
201,-0.0265424999999999,0.7233455,0.0375755,-0.1779345,0.5304154999999999,0.0301504999999999,-0.2668345,0.7320755000000001,-0.0486515,0.1382255,0.5462555,0.0152224999999999,0.2177755,0.7691055,-0.0684755,-0.2699944999999999,0.9812255,-0.1177264999999999,0.2420755,1.0198255,-0.1300465,-0.0598395,-0.0007085,-0.0025715,0.0598395,0.0007085,0.0025714999999999,-0.1152044999999999,-0.3600545,-0.0145905,0.1211855,-0.3561845,0.0001824999999999,-0.1628445,-0.8621745000000001,-0.0053955,0.1825955,-0.8571145,-0.0147215,1
202,-0.026727,0.7244659999999999,0.038162,-0.178496,0.5302859999999999,0.030934,-0.2731159999999999,0.7291759999999999,-0.04937,0.138514,0.545346,0.016212,0.224294,0.762736,-0.069394,-0.275306,0.978836,-0.122524,0.2469539999999999,1.018836,-0.136374,-0.059972,-0.000835,-0.0022019999999999,0.059972,0.000835,0.0022019999999999,-0.115366,-0.360184,-0.0151539999999999,0.121504,-0.355994,-0.000503,-0.163746,-0.862214,-0.0059869999999999,0.182384,-0.8570340000000001,-0.0154329999999999,1
203,-0.026968,0.725807,0.038941,-0.179074,0.5298470000000001,0.03182,-0.281804,0.723857,-0.049995,0.1391659999999999,0.543917,0.017349,0.2332459999999999,0.751797,-0.070371,-0.2810439999999999,0.976417,-0.128735,0.252666,1.012817,-0.143595,-0.060104,-0.000993,-0.0018429999999999,0.060104,0.000993,0.001843,-0.115534,-0.3603429999999999,-0.015722,0.121726,-0.355823,-0.0011509999999999,-0.164714,-0.8622529999999999,-0.0063539999999999,0.182166,-0.856963,-0.0160459999999999,1
204,-0.0272995,0.727262,0.039577,-0.1796995,0.528492,0.032247,-0.2928195,0.712032,-0.049751,0.1400705,0.542492,0.018575,0.2436505,0.739122,-0.0707059999999999,-0.2892395,0.964892,-0.136488,0.2607204999999999,0.999092,-0.154118,-0.0602205,-0.0012139999999999,-0.001454,0.0602205,0.0012139999999999,0.001454,-0.1156595,-0.360588,-0.01622,0.1219105,-0.355588,-0.001857,-0.1656395,-0.862368,-0.0067,0.1819005,-0.856788,-0.01668,1
205,-0.027724,0.7290300000000001,0.0404635,-0.1804089999999999,0.52647,0.0329565,-0.304769,0.6986000000000001,-0.0491615,0.141041,0.5407200000000001,0.0199904999999999,0.259571,0.72523,-0.0711775,-0.300369,0.94438,-0.1484055,0.2695309999999999,0.98078,-0.1677955,-0.060362,-0.0015169999999999,-0.0010855,0.060362,0.0015169999999999,0.0010854999999999,-0.115949,-0.36089,-0.0166905,0.1219509999999999,-0.3553,-0.0026685,-0.1666089999999999,-0.8625400000000001,-0.0071115,0.181541,-0.8565100000000001,-0.0170805,0
206,-0.028151,0.7310145,0.0416245,-0.181152,0.5246445000000001,0.0338445,-0.318282,0.6797845,-0.0485525,0.142228,0.5386545,0.0213585,0.275748,0.7052945,-0.0716025,-0.312642,0.9227345,-0.1627065,0.279528,0.9549945,-0.1825865,-0.0605079999999999,-0.0018694999999999,-0.0007465,0.0605079999999999,0.0018695,0.0007465,-0.116322,-0.3612255,-0.0171304999999999,0.121968,-0.3549655,-0.0035145,-0.167562,-0.8627454999999999,-0.0074825,0.181248,-0.8561755,-0.0174035,0
