sb224sc-HT22-VT27/4dt907/src/data/labeled_files/A73_kinect.csv
FrameNo,nose_3d_x,nose_3d_y,nose_3d_z,left_shoulder_3d_x,left_shoulder_3d_y,left_shoulder_3d_z,left_elbow_3d_x,left_elbow_3d_y,left_elbow_3d_z,right_shoulder_3d_x,right_shoulder_3d_y,right_shoulder_3d_z,right_elbow_3d_x,right_elbow_3d_y,right_elbow_3d_z,left_wrist_3d_x,left_wrist_3d_y,left_wrist_3d_z,right_wrist_3d_x,right_wrist_3d_y,right_wrist_3d_z,left_hip_3d_x,left_hip_3d_y,left_hip_3d_z,right_hip_3d_x,right_hip_3d_y,right_hip_3d_z,left_knee_3d_x,left_knee_3d_y,left_knee_3d_z,right_knee_3d_x,right_knee_3d_y,right_knee_3d_z,left_ankle_3d_x,left_ankle_3d_y,left_ankle_3d_z,right_ankle_3d_x,right_ankle_3d_y,right_ankle_3d_z,activity_label
0,-0.039254,0.7215115000000001,0.0392944999999999,-0.182242,0.5170915,0.0473295,-0.269812,0.7671915,-0.0321825,0.122388,0.5432515,0.0142334999999999,0.160218,0.8218215000000001,-0.0904495,-0.285452,1.0333115,-0.1250495,0.168118,1.0520115,-0.1621995,-0.060963,-0.0034145,-0.0015795,0.060963,0.0034145,0.0015794999999999,-0.116422,-0.3626885,-0.0062705,0.121488,-0.3533385,0.0018484999999999,-0.160432,-0.8631185,0.0307754999999999,0.182328,-0.8537285,0.0130284999999999,1
1,-0.038939,0.7212695,0.0389165,-0.182026,0.5166094999999999,0.0465155,-0.269516,0.7670095,-0.0331115,0.1226039999999999,0.5428995,0.0138454999999999,0.160964,0.8213995,-0.0908715,-0.284586,1.0328395,-0.1285215,0.1669339999999999,1.1067395,-0.1698015,-0.060915,-0.0033585,-0.0018545,0.060915,0.0033585,0.0018544999999999,-0.116446,-0.3626204999999999,-0.0065445,0.1214939999999999,-0.3534704999999999,0.0013674999999999,-0.1604459999999999,-0.8631305,0.0297264999999999,0.181284,-0.8539605,0.0131444999999999,1
2,-0.0389045,0.721303,0.038378,-0.1820975,0.517123,0.046031,-0.2693275,0.766793,-0.03442,0.1227024999999999,0.5428229999999999,0.0135179999999999,0.1616525,0.821063,-0.091735,-0.2840075,1.031423,-0.132545,0.1677225,1.067123,-0.167425,-0.0609085,-0.003265,-0.0020779999999999,0.0609085,0.003265,0.002078,-0.1164775,-0.362547,-0.007038,0.1218124999999999,-0.353597,0.00068,-0.1585775,-0.863247,0.028976,0.1821125,-0.854037,0.0121339999999999,1
3,-0.039199,0.7223295000000001,0.0369484999999999,-0.182096,0.5172795,0.0441975,-0.2689959999999999,0.7665995,-0.0367715,0.1226439999999999,0.5434295,0.0120404999999999,0.162014,0.8215695000000001,-0.0933505,-0.2833659999999999,1.0313095,-0.1387805,0.167744,1.0669095,-0.1685904999999999,-0.06102,-0.0034635,-0.0021725,0.06102,0.0034635,0.0021724999999999,-0.116236,-0.3620704999999999,-0.0005135,0.1220639999999999,-0.3534905,-0.0005235,-0.156436,-0.8637305,0.0267234999999999,0.181004,-0.8541605,0.0097764999999999,1
4,-0.039195,0.7226315,0.0352115,-0.182001,0.5172915,0.0422914999999999,-0.268571,0.7664415,-0.0406165,0.122649,0.5436615,0.0105174999999999,0.162589,0.8215815000000001,-0.0953055,-0.282941,1.0305915,-0.1436955,0.168319,1.0640915,-0.1700855,-0.0608019999999999,-0.0031225,-0.0024525,0.0608019999999999,0.0031225,0.0024525,-0.116231,-0.3618285,-0.0019635,0.119189,-0.3543285,-0.0005555,-0.155621,-0.8634585,0.0263554999999999,0.200339,-0.9660485,0.0173084999999999,1
5,-0.039276,0.7230395000000001,0.033857,-0.181992,0.5175395,0.040752,-0.268462,0.7660895,-0.043975,0.1225779999999999,0.5442095,0.0093039999999999,0.163018,0.8217895000000001,-0.097332,-0.282682,1.0309195,-0.148502,0.169048,1.0578195,-0.171682,-0.06096,-0.0030095,-0.002292,0.06096,0.0030095,0.0022919999999999,-0.116742,-0.3618705,-0.003812,0.1216879999999999,-0.3542905,-0.003578,-0.157652,-0.8632505,0.0259639999999999,0.1818779999999999,-0.8547305,0.0079129999999999,1
6,-0.0395355,0.723877,0.0318935,-0.1821655,0.517687,0.0384105,-0.2684755,0.765867,-0.0486045,0.1222945,0.5449569999999999,0.0075404999999999,0.1632445,0.822257,-0.0997285,-0.2824255,1.029827,-0.1533385,0.1689745,1.057427,-0.1738785,-0.0607105,-0.003096,-0.0020734999999999,0.0607105,0.003096,0.0020734999999999,-0.1171555,-0.362013,-0.0053215,0.1192545,-0.354993,-0.0084354999999999,-0.1540155,-0.8634430000000001,0.0272185,0.1996845,-0.965523,0.0174225,1
7,-0.0386545,0.723267,0.0269939999999999,-0.1816275,0.517337,0.0356799999999999,-0.2676375,0.7645270000000001,-0.055274,0.1224425,0.5449970000000001,0.0044729999999999,0.1652924999999999,0.820207,-0.1047,-0.2805674999999999,1.026467,-0.16002,0.1679925,1.055667,-0.17813,-0.0604315,-0.003283,-0.000784,0.0604315,0.0032829999999999,0.000784,-0.1169975,-0.362433,-0.010115,0.1189424999999999,-0.355003,-0.014196,-0.1606675,-0.863803,0.0211179999999999,0.1899525,-0.904343,0.0084319999999999,1
8,-0.038367,0.7230335,0.0239054999999999,-0.181396,0.5172034999999999,0.0334174999999999,-0.267156,0.7634035,-0.0602915,0.122484,0.5453735,0.0024884999999999,0.166344,0.8197034999999999,-0.1081305,-0.279536,1.0241035,-0.1655705,0.167904,1.0543035,-0.1810205,-0.0603729999999999,-0.0033274999999999,-0.0001615,0.0603729999999999,0.0033275,0.0001614999999999,-0.117046,-0.3626465,-0.0117085,0.118514,-0.3552765,-0.0179485,-0.160856,-0.8638965000000001,0.0195424999999999,0.191874,-0.9160865,0.0071954999999999,1
9,-0.0379845,0.722492,0.020057,-0.1811435,0.517242,0.030824,-0.2667035,0.7622220000000001,-0.065664,0.1224865,0.546102,7.800000000000168e-05,0.1673065,0.819312,-0.112049,-0.2784635,1.021642,-0.171339,0.1678365,1.051742,-0.184119,-0.0603185,-0.003433,0.000562,0.0603185,0.003433,-0.000562,-0.1172135,-0.3629179999999999,-0.0136169999999999,0.1181265,-0.355438,-0.022628,-0.1611935,-0.863988,0.017758,0.1936065,-0.927118,0.005763,1
10,-0.0375825,0.7215825,0.0156065,-0.1808745,0.5174825,0.0281245,-0.2661845,0.7605325,-0.0713615,0.1223954999999999,0.5470425,-0.0025714999999999,0.1684355,0.8187025,-0.1169455,-0.2773345,1.0191625,-0.1773455,0.1677055,1.0495625,-0.1879855,-0.0602315,-0.0035915,0.0013904999999999,0.0602315,0.0035915,-0.0013904999999999,-0.1175944999999999,-0.3631775,-0.0167434999999999,0.1176255,-0.3554774999999999,-0.0295275,-0.1629644999999999,-0.8725375000000001,0.0160515,0.1943955,-0.9371275,0.0043305,1
11,-0.0370595,0.72029,0.01064,-0.1805745,0.5179,0.025244,-0.2655745,0.75841,-0.077224,0.1222854999999999,0.54766,-0.0057779999999999,0.1695955,0.81772,-0.121989,-0.2760145,1.01675,-0.1834789999999999,0.1675355,1.04755,-0.1922589999999999,-0.0601685,-0.00375,0.002251,0.0601685,0.00375,-0.0022509999999999,-0.1181545,-0.36339,-0.020978,0.1171855,-0.35539,-0.0362119999999999,-0.1648145,-0.88062,0.014231,0.1944255,-0.9419,0.002847,1
12,-0.036528,0.7184524999999999,0.0052525,-0.180296,0.5185425,0.0223135,-0.264946,0.7562125,-0.0830325,0.122124,0.5478925,-0.0092984999999999,0.170704,0.8166025,-0.1272745,-0.274596,1.0144425,-0.1893045,0.167254,1.0457425,-0.1967345,-0.060152,-0.0038534999999999,0.0031225,0.060152,0.0038535,-0.0031225,-0.118916,-0.3634675,-0.0253794999999999,0.117054,-0.3553575,-0.0425885,-0.166346,-0.8881475,0.0122645,0.193524,-0.9364575,0.0005715,1
13,-0.0360215,0.7162155,-0.0002999999999999,-0.1801015,0.5194055,0.01935,-0.2644115,0.7535255,-0.089072,0.1219685,0.5481555,-0.012999,0.1713485,0.8163754999999999,-0.1328619999999999,-0.2732215,1.0118955,-0.195212,0.1668885,1.0440055,-0.2014719999999999,-0.0601455,-0.0039535,0.003891,0.0601455,0.0039535,-0.0038909999999999,-0.1198414999999999,-0.3634444999999999,-0.030047,0.1166985,-0.3552344999999999,-0.0490899999999999,-0.1679215,-0.8949445,0.010331,0.1944885,-0.9429745,-0.0012049999999999,1
14,-0.035611,0.7141890000000001,-0.006053,-0.179772,0.519679,0.014846,-0.263972,0.750769,-0.095299,0.121608,0.546649,-0.0187449999999999,0.172758,0.810279,-0.1383589999999999,-0.271872,1.010249,-0.2014089999999999,0.1664379999999999,1.042899,-0.2067389999999999,-0.0601889999999999,-0.003924,0.0044789999999999,0.0601889999999999,0.0039239999999999,-0.004479,-0.121022,-0.3631709999999999,-0.035273,0.116598,-0.354981,-0.0552659999999999,-0.169582,-0.900621,0.008365,0.193328,-0.937271,-0.0033439999999999,1
15,-0.03526,0.7111124999999999,-0.0122205,-0.179416,0.5204424999999999,0.0103585,-0.263586,0.7478625,-0.1016075,0.121284,0.5455424999999999,-0.0243355,0.174204,0.8043125,-0.1428475,-0.270416,1.0086525,-0.2076275,0.165934,1.0420325,-0.2122975,-0.0602319999999999,-0.0039375,0.0050785,0.0602319999999999,0.0039375,-0.0050785,-0.122346,-0.3628375,-0.0409025,0.116244,-0.3545474999999999,-0.0620075,-0.170956,-0.9057375,0.0067885,0.193814,-0.9370475,-0.0055184999999999,1
16,-0.0350505,0.708344,-0.018413,-0.1791485,0.5212439999999999,0.005231,-0.2633385,0.745394,-0.108162,0.1207515,0.5445139999999999,-0.030438,0.1752915,0.799454,-0.147662,-0.2688985,1.005854,-0.214562,0.1653115,1.042284,-0.218322,-0.0602054999999999,-0.003835,0.005497,0.0602054999999999,0.0038349999999999,-0.005497,-0.1244884999999999,-0.362086,-0.047158,0.1161315,-0.354026,-0.069383,-0.1725485,-0.909636,0.00517,0.1936314999999999,-0.933816,-0.007431,1
17,-0.034956,0.7051495,-0.0244855,-0.178833,0.5208695,-0.0002634999999999,-0.263273,0.7428895,-0.1147935,0.120307,0.5440794999999999,-0.0362615,0.176677,0.7964195,-0.1529134999999999,-0.267353,1.0040795,-0.2210734999999999,0.164617,1.0428395,-0.2246735,-0.060222,-0.0037695,0.0056915,0.060222,0.0037695,-0.0056915,-0.126793,-0.3612305,-0.0532775,0.116537,-0.3533905,-0.0767585,-0.174063,-0.9128605,0.0036835,0.192577,-0.9268405,-0.0096865,1
18,-0.035053,0.7027715,-0.030176,-0.178663,0.5191315,-0.005963,-0.263323,0.7414215000000001,-0.121373,0.119897,0.5424215,-0.042266,0.178337,0.7913315000000001,-0.158013,-0.265623,1.0041715,-0.2273329999999999,0.163897,1.0446915,-0.2305829999999999,-0.060314,-0.0035895,0.005704,0.060314,0.0035895,-0.005704,-0.1294529999999999,-0.3600685,-0.059113,0.1172069999999999,-0.3526585,-0.083859,-0.175593,-0.9140385,0.0024759999999999,0.190677,-0.9184385,-0.0113629999999999,1
19,-0.0352839999999999,0.7003605,-0.0355285,-0.17859,0.5175704999999999,-0.0114105,-0.26365,0.7408805,-0.1279105,0.11915,0.5400105,-0.0478515,0.17933,0.7859605000000001,-0.1624905,-0.26364,1.0042505,-0.2340205,0.16302,1.0467605,-0.2364905,-0.0605119999999999,-0.0034594999999999,0.0055825,0.0605119999999999,0.0034595,-0.0055825,-0.13232,-0.3587395,-0.0643125,0.11782,-0.3518195,-0.0891435,-0.17595,-0.9059395,0.0012455,0.18892,-0.9097595,-0.0127905,1
20,-0.0358534999999999,0.697756,-0.04052,-0.1787665,0.5159860000000001,-0.016541,-0.2643864999999999,0.740656,-0.1346929999999999,0.1181835,0.5383359999999999,-0.052767,0.1799635,0.780546,-0.167183,-0.2621265,1.004306,-0.2408229999999999,0.1616935,1.048826,-0.242203,-0.0606845,-0.003394,0.0053869999999999,0.0606845,0.0033939999999999,-0.0053869999999999,-0.1354365,-0.357334,-0.069788,0.1182235,-0.350814,-0.094832,-0.1765665,-0.8970640000000001,5.499999999999949e-05,0.1872134999999999,-0.900644,-0.013873,1
21,-0.0365674999999999,0.6952195,-0.0453915,-0.1790314999999999,0.5128595,-0.0220885,-0.2653415,0.7402695,-0.1419895,0.1170985,0.5371595,-0.0576055,0.1805985,0.7752895,-0.1722294999999999,-0.2608715,0.9968095,-0.2472095,0.1601185,1.0504795,-0.2481095,-0.0610015,-0.0033834999999999,0.0052864999999999,0.0610015,0.0033835,-0.0052864999999999,-0.1387715,-0.3558305,-0.0757635,0.1184885,-0.3496505,-0.1011895,-0.1772715,-0.8874705,-0.0012545,0.1859885,-0.8910505000000001,-0.0148835,1
22,-0.0372345,0.6931624999999999,-0.0504815,-0.1793045,0.5110625,-0.0275475,-0.2663844999999999,0.7411224999999999,-0.1492985,0.1160255,0.5319925000000001,-0.0640215,0.1814454999999999,0.7697425,-0.1773285,-0.2595245,0.9913325,-0.2532085,0.1586255,1.0517025,-0.2540985,-0.0613115,-0.0032394999999999,0.0052155,0.0613115,0.0032395,-0.0052155,-0.1423945,-0.3540275,-0.0819675,0.1187655,-0.3484175,-0.1080285,-0.1779045,-0.8758575,-0.0024944999999999,0.1857655,-0.8823875000000001,-0.0159415,1
23,-0.0379,0.691017,-0.0550935,-0.179677,0.509397,-0.0316205,-0.267157,0.739217,-0.1556215,0.115183,0.5292870000000001,-0.0680585,0.181333,0.7708969999999999,-0.1825215,-0.258347,0.985877,-0.2588515,0.156773,1.053187,-0.2596015,-0.0615789999999999,-0.0032099999999999,0.0052394999999999,0.0615789999999999,0.00321,-0.0052394999999999,-0.146107,-0.352193,-0.0879365,0.1188729999999999,-0.346883,-0.1148515,-0.178587,-0.863983,-0.0032945,0.184893,-0.870973,-0.0166175,1
24,-0.0384305,0.689473,-0.059313,-0.1801065,0.5077929999999999,-0.03571,-0.2678465,0.735633,-0.161426,0.1143735,0.527223,-0.072158,0.1811334999999999,0.772523,-0.188436,-0.2571165,0.980823,-0.2650559999999999,0.1540035,1.055113,-0.2660659999999999,-0.0618545,-0.003097,0.005264,0.0618545,0.003097,-0.005264,-0.1499565,-0.3499569999999999,-0.094296,0.1190135,-0.345367,-0.121466,-0.1792565,-0.851237,-0.004097,0.1842335,-0.858697,-0.017111,1
25,-0.0389985,0.68818,-0.063346,-0.1805735,0.5055700000000001,-0.039218,-0.2685535,0.73257,-0.166516,0.1136365,0.52442,-0.076009,0.1807565,0.77308,-0.193956,-0.2559935,0.97815,-0.270656,0.1512265,1.04939,-0.271546,-0.0622045,-0.00311,0.0051639999999999,0.0622045,0.00311,-0.005164,-0.1534734999999999,-0.34777,-0.100286,0.1190565,-0.34363,-0.127846,-0.1799135,-0.83837,-0.004582,0.1836065,-0.84782,-0.01804,1
26,-0.0396875,0.6870499999999999,-0.067365,-0.1811225,0.5042500000000001,-0.042442,-0.2692725,0.7298500000000001,-0.171031,0.1129575,0.52104,-0.08015,0.1800275,0.7682199999999999,-0.198651,-0.2549325,0.9758,-0.276701,0.1487075,1.04509,-0.275991,-0.0625825,-0.0031199999999999,0.005024,0.0625825,0.00312,-0.005024,-0.1571025,-0.34546,-0.106401,0.1191475,-0.34181,-0.134241,-0.1805425,-0.8251200000000001,-0.0051519999999999,0.1828575,-0.83798,-0.017705,1
27,-0.0403225,0.68479,-0.0710445,-0.1815965,0.50386,-0.0451335,-0.2699365,0.72579,-0.1751515,0.1123835,0.51842,-0.0838075,0.1793535,0.7629900000000001,-0.2030315,-0.2538965,0.97174,-0.2828815,0.1462234999999999,1.04039,-0.2801215,-0.0628795,-0.0031299999999999,0.0049264999999999,0.0628795,0.00313,-0.0049264999999999,-0.1603765,-0.3431599999999999,-0.1123515,0.1191535,-0.34006,-0.1400815,-0.1812065,-0.81264,-0.0056745,0.1816634999999999,-0.82849,-0.0174405,1
28,-0.0408185,0.682455,-0.0745305,-0.1819235,0.503295,-0.0478355,-0.2704835,0.7208350000000001,-0.1791315,0.1119265,0.516985,-0.0874585,0.1788664999999999,0.7582550000000001,-0.2068015,-0.2530235,0.967885,-0.2881815,0.1436464999999999,1.035635,-0.2835114999999999,-0.0631164999999999,-0.0031149999999999,0.0049885,0.0631164999999999,0.003115,-0.0049885,-0.1634135,-0.3408049999999999,-0.1178915,0.1191865,-0.338325,-0.1456715,-0.1818635,-0.800735,-0.0060894999999999,0.1805765,-0.818635,-0.0173385,1
29,-0.0412115,0.68069,-0.0782435,-0.1822345,0.50214,-0.0512754999999999,-0.2709145,0.71639,-0.1826625,0.1117254999999999,0.51452,-0.0919215,0.1784755,0.75408,-0.2106025,-0.2517645,0.96429,-0.2935525,0.1414055,1.03031,-0.2889125,-0.0633405,-0.00292,0.0051145,0.0633405,0.00292,-0.0051145,-0.1665345,-0.3380999999999999,-0.1234125,0.1193455,-0.33635,-0.1511424999999999,-0.1824144999999999,-0.7884800000000001,-0.0063394999999999,0.1795655,-0.80769,-0.0174185,1
30,-0.0417355,0.6788799999999999,-0.082455,-0.1825935,0.50221,-0.054942,-0.2714535,0.71202,-0.186578,0.1112765,0.5122599999999999,-0.096828,0.1778565,0.75019,-0.214858,-0.2505335,0.96816,-0.300088,0.1391165,1.0259,-0.294268,-0.0635235,-0.0029,0.005079,0.0635235,0.0028999999999999,-0.0050789999999999,-0.1695335,-0.3346,-0.128998,0.1193765,-0.33383,-0.156698,-0.1831435,-0.7766000000000001,-0.0073479999999999,0.1784464999999999,-0.797,-0.018483,1
31,-0.041704,0.676895,-0.0864175,-0.182175,0.500475,-0.0590135,-0.271315,0.7071850000000001,-0.1903625,0.111525,0.513615,-0.1001425,0.177465,0.746865,-0.2192325,-0.248755,0.970595,-0.3071824999999999,0.137745,1.022335,-0.2992725,-0.063525,-0.003055,0.0050645,0.063525,0.003055,-0.0050644999999999,-0.171505,-0.3248449999999999,-0.1340325,0.120015,-0.326465,-0.1616725,-0.183275,-0.764905,-0.0086595,0.177955,-0.785485,-0.0193255,1
32,-0.041631,0.67457,-0.090114,-0.181587,0.49859,-0.063022,-0.271377,0.70562,-0.1949759999999999,0.111813,0.51495,-0.103576,0.177093,0.7435700000000001,-0.223766,-0.246747,0.97261,-0.314836,0.136443,1.01766,-0.305376,-0.063563,-0.0031799999999999,0.005068,0.063563,0.00318,-0.005068,-0.1732169999999999,-0.3139499999999999,-0.138836,0.1208129999999999,-0.31801,-0.1663659999999999,-0.1835369999999999,-0.7529899999999999,-0.0098859999999999,0.177743,-0.77386,-0.020261,1
33,-0.0417059999999999,0.6726,-0.096566,-0.181123,0.49727,-0.069642,-0.271623,0.70639,-0.203018,0.111747,0.51615,-0.1097979999999999,0.1765769999999999,0.7399100000000001,-0.231088,-0.245143,0.97518,-0.324258,0.135897,1.01379,-0.313008,-0.063667,-0.00337,0.005389,0.063667,0.0033699999999999,-0.005389,-0.175533,-0.3025899999999999,-0.147038,0.121517,-0.30865,-0.173808,-0.184043,-0.74101,-0.013906,0.177167,-0.7621800000000001,-0.024061,1
34,-0.0420324999999999,0.672285,-0.1070885,-0.1813475,0.495365,-0.0811855,-0.2717575,0.710405,-0.2149485,0.1115525,0.5162150000000001,-0.1202085,0.1748825,0.740325,-0.2423485,-0.2446175,0.979815,-0.3382285,0.1348025,1.021385,-0.3246785,-0.0634125,-0.0031649999999999,0.0053585,0.0634125,0.003165,-0.0053585,-0.1790675,-0.2871549999999999,-0.1623385,0.1220125,-0.292865,-0.1879085,-0.1854475,-0.723385,-0.0221405,0.1756525,-0.745215,-0.0318974999999999,1
35,-0.0422675,0.67228,-0.116977,-0.1816725,0.49381,-0.092143,-0.2719225,0.7117100000000001,-0.226657,0.1113675,0.51623,-0.130077,0.1730875,0.74539,-0.253797,-0.2442925,0.98188,-0.351627,0.1340974999999999,1.02655,-0.337617,-0.0631405,-0.0028899999999999,0.0054209999999999,0.0631405,0.00289,-0.005421,-0.1823725,-0.2731399999999999,-0.177027,0.1224175,-0.2789,-0.2013069999999999,-0.1870825,-0.70638,-0.030505,0.1751575,-0.72911,-0.039329,1
36,-0.042544,0.67321,-0.127284,-0.181914,0.49287,-0.102725,-0.272054,0.71082,-0.238234,0.111026,0.51665,-0.139484,0.1711659999999999,0.74917,-0.265214,-0.244074,0.98123,-0.3648139999999999,0.1340559999999999,1.02994,-0.350914,-0.062867,-0.00272,0.005397,0.062867,0.00272,-0.0053969999999999,-0.185704,-0.25998,-0.191514,0.122746,-0.2656599999999999,-0.214584,-0.189084,-0.69018,-0.038917,0.1747659999999999,-0.71286,-0.046822,1
37,-0.04286,0.6768050000000001,-0.1368595,-0.1822119999999999,0.492675,-0.1129965,-0.272132,0.7131750000000001,-0.2486895,0.110318,0.517205,-0.1484995,0.169208,0.754545,-0.2761595,-0.244002,0.979835,-0.3768995,0.132898,1.029025,-0.3636695,-0.062571,-0.0032649999999999,0.0054964999999999,0.062571,0.003265,-0.0054965,-0.1892519999999999,-0.243645,-0.2056895,0.123208,-0.2501049999999999,-0.2271194999999999,-0.191412,-0.671145,-0.0467585,0.1741579999999999,-0.6924049999999999,-0.0528705,1
38,-0.0429075,0.679515,-0.146207,-0.1821674999999999,0.492595,-0.122639,-0.2720174999999999,0.714555,-0.258917,0.1096625,0.518115,-0.156797,0.1675125,0.758485,-0.286727,-0.2440274999999999,0.979185,-0.388287,0.1332025,1.029575,-0.374247,-0.0621905,-0.0035149999999999,0.0055729999999999,0.0621905,0.0035149999999999,-0.0055729999999999,-0.1923675,-0.2271749999999999,-0.219427,0.1241825,-0.235375,-0.240697,-0.1936874999999999,-0.652455,-0.0545429999999999,0.1738425,-0.6720550000000001,-0.059366,1
39,-0.0429865,0.6829149999999999,-0.1548405,-0.1823085,0.492405,-0.1314725,-0.2719985,0.716585,-0.2681205,0.1089415,0.518975,-0.1643505,0.1658615,0.7622249999999999,-0.2962005,-0.2442185,0.980045,-0.3989605,0.1333615,1.030395,-0.3843105,-0.0618875,-0.003445,0.0054975,0.0618875,0.0034449999999999,-0.0054974999999999,-0.1958185,-0.210175,-0.2333305,0.1251415,-0.219545,-0.2542505,-0.1966485,-0.633065,-0.0620155,0.1733915,-0.651285,-0.0654975,1
40,-0.042796,0.68615,-0.1630225,-0.182288,0.49304,-0.1397425,-0.271748,0.71845,-0.2769125,0.108662,0.51834,-0.1719425,0.1647219999999999,0.7659400000000001,-0.3050725,-0.244298,0.98097,-0.4095924999999999,0.133712,1.03187,-0.3943825,-0.061571,-0.00322,0.0053925,0.061571,0.00322,-0.0053924999999999,-0.1991279999999999,-0.1923999999999999,-0.2476025,0.1264819999999999,-0.20242,-0.2683225,-0.199208,-0.61345,-0.0688765,0.173202,-0.6306400000000001,-0.0715455,1
41,-0.0425974999999999,0.68852,-0.1707285,-0.1824845,0.49495,-0.1471184999999999,-0.2715345,0.71917,-0.2846685,0.1084354999999999,0.51782,-0.1788585,0.1637555,0.76667,-0.3130085,-0.2441944999999999,0.98103,-0.4190885,0.1340355,1.03337,-0.4028385,-0.0612375,-0.00312,0.0051775,0.0612375,0.0031199999999999,-0.0051775,-0.2023945,-0.1743,-0.2615085,0.1277455,-0.18539,-0.2818985,-0.2017745,-0.5946,-0.0753625,0.1743655,-0.61073,-0.0776265,1
42,-0.0419665,0.6920200000000001,-0.175087,-0.1819445,0.49313,-0.151537,-0.2709645,0.72096,-0.288707,0.1085955,0.51692,-0.182597,0.1635255,0.76841,-0.317077,-0.2435545,0.98195,-0.425357,0.1349354999999999,1.03458,-0.408357,-0.0609355,-0.0031799999999999,0.004893,0.0609355,0.00318,-0.004893,-0.2044745,-0.1546499999999999,-0.271317,0.1294054999999999,-0.16671,-0.292317,-0.2038945,-0.57484,-0.0784779999999999,0.1758555,-0.5910299999999999,-0.080213,1
43,-0.0415944999999999,0.693825,-0.1778995,-0.1813014999999999,0.493835,-0.1534795,-0.2710215,0.719375,-0.2919995,0.1086985,0.516965,-0.1843995,0.1631085,0.7669250000000001,-0.3201695,-0.2428815,0.980445,-0.4297694999999999,0.1359685,1.032565,-0.4129195,-0.0609285,-0.003415,0.0048925,0.0609285,0.003415,-0.0048924999999999,-0.2058414999999999,-0.140625,-0.2765295,0.1306585,-0.1531849999999999,-0.2989695,-0.2057514999999999,-0.5600750000000001,-0.0802094999999999,0.1775185,-0.575305,-0.0815855,1
44,-0.0413754999999999,0.6956450000000001,-0.1810195,-0.1807415,0.49448,-0.1554195,-0.2712315,0.721105,-0.2957895,0.1086285,0.516845,-0.1864795,0.1628285,0.766615,-0.3232895,-0.2423314999999999,0.981575,-0.4341595,0.1369485,1.032225,-0.4167794999999999,-0.0609285,-0.0037749999999999,0.0048925,0.0609285,0.003775,-0.0048924999999999,-0.2077915,-0.125105,-0.2825095,0.1319185,-0.1372949999999999,-0.3066095,-0.2079814999999999,-0.543625,-0.0814995,0.1789985,-0.558855,-0.0831285,1
45,-0.04094,0.69645,-0.183523,-0.180111,0.494791,-0.157353,-0.271411,0.72523,-0.299583,0.108779,0.515968,-0.188603,0.162599,0.7671600000000001,-0.326293,-0.241781,0.98509,-0.438333,0.137749,1.03299,-0.420193,-0.0609689999999999,-0.00408,0.0048959999999999,0.0609689999999999,0.0040799999999999,-0.0048959999999999,-0.209841,-0.1078299999999999,-0.289083,0.133449,-0.1203199999999999,-0.314913,-0.2098209999999999,-0.5258700000000001,-0.082681,0.180549,-0.5411,-0.085271,1
46,-0.040324,0.695785,-0.183056,-0.179338,0.49371,-0.156046,-0.271408,0.7268950000000001,-0.3002559999999999,0.109192,0.513116,-0.1875959999999999,0.162812,0.7654449999999999,-0.3262859999999999,-0.241308,0.989595,-0.439476,0.137902,1.037305,-0.420456,-0.061116,-0.003525,0.0048659999999999,0.061116,0.003525,-0.004866,-0.211688,-0.097565,-0.293186,0.134662,-0.110085,-0.321076,-0.2110079999999999,-0.5102850000000001,-0.080544,0.1825919999999999,-0.5248349999999999,-0.084844,1
47,-0.039666,0.695145,-0.1822925,-0.178628,0.493732,-0.1542425,-0.271428,0.729375,-0.3013725,0.109662,0.511299,-0.1862025,0.163542,0.764745,-0.3269425,-0.240578,0.988225,-0.4404825,0.138412,1.040745,-0.4217324999999999,-0.061258,-0.003425,0.0048414999999999,0.061258,0.003425,-0.0048415,-0.213528,-0.087015,-0.2972625,0.135512,-0.098595,-0.3260925,-0.211218,-0.4952049999999999,-0.0782105,0.183752,-0.508785,-0.0840005,1
48,-0.0389319999999999,0.694445,-0.181427,-0.177884,0.492933,-0.152667,-0.271484,0.729325,-0.3022269999999999,0.110386,0.508991,-0.185107,0.164486,0.764095,-0.327607,-0.239784,0.987165,-0.441087,0.139126,1.043315,-0.422967,-0.061375,-0.003415,0.004851,0.061375,0.003415,-0.0048509999999999,-0.215154,-0.075685,-0.300577,0.136186,-0.086255,-0.330277,-0.2112339999999999,-0.479205,-0.0748429999999999,0.184566,-0.492815,-0.084097,1
49,-0.03813,0.693035,-0.1810825,-0.177141,0.491953,-0.1513625,-0.271451,0.727765,-0.3031824999999999,0.111169,0.508809,-0.1837625,0.165979,0.761555,-0.3285225,-0.239461,0.985475,-0.4421225,0.140779,1.039885,-0.4248424999999999,-0.061474,-0.0035549999999999,0.0046425,0.061474,0.0035549999999999,-0.0046424999999999,-0.216551,-0.064425,-0.3040124999999999,0.136759,-0.0745349999999999,-0.3340225,-0.211191,-0.4638049999999999,-0.0716785,0.185169,-0.478135,-0.0850974999999999,1
50,-0.0373094999999999,0.691525,-0.181104,-0.1764794999999999,0.4911509999999999,-0.150014,-0.2715095,0.726375,-0.303924,0.1118605,0.5087419999999999,-0.182404,0.1677405,0.7600149999999999,-0.329464,-0.2399194999999999,0.983485,-0.443714,0.1425305,1.037175,-0.426554,-0.0615615,-0.003535,0.0045369999999999,0.0615615,0.0035349999999999,-0.0045369999999999,-0.2181195,-0.0529250000000001,-0.307274,0.1372605,-0.0633650000000001,-0.337674,-0.2112295,-0.4491050000000001,-0.0685,0.1854505,-0.464145,-0.086061,1
51,-0.036453,0.69045,-0.1817125,-0.175664,0.492038,-0.1497525,-0.271644,0.7253700000000001,-0.3056325,0.112526,0.5060800000000001,-0.1817325,0.169726,0.75756,-0.3308925,-0.240474,0.98015,-0.4467124999999999,0.144526,1.03536,-0.4287425,-0.061619,-0.0033499999999999,0.0045264999999999,0.061619,0.00335,-0.0045265,-0.219664,-0.0403899999999999,-0.3106425,0.137866,-0.0520799999999999,-0.3415825,-0.210784,-0.4337899999999999,-0.0657145,0.1856259999999999,-0.44958,-0.0882955,1
52,-0.0357259999999999,0.6887350000000001,-0.1827935,-0.174753,0.492042,-0.1499135,-0.271973,0.723545,-0.3077235,0.113347,0.505194,-0.1815135,0.171587,0.754565,-0.3323835,-0.240723,0.975955,-0.4499735,0.1468269999999999,1.031525,-0.4317735,-0.061591,-0.003475,0.0045254999999999,0.061591,0.003475,-0.0045255,-0.221083,-0.028185,-0.3141334999999999,0.1386369999999999,-0.0411549999999999,-0.3454135,-0.210083,-0.4196449999999999,-0.0630005,0.1855969999999999,-0.4350549999999999,-0.0909975,1
53,-0.0350175,0.68638,-0.1842355,-0.1738875,0.4922979999999999,-0.1505854999999999,-0.2722675,0.7209099999999999,-0.3102155,0.1141025,0.505172,-0.1814754999999999,0.1735725,0.7510999999999999,-0.3340955,-0.2411375,0.96761,-0.4534154999999999,0.1491725,1.02774,-0.4347955,-0.0616165,-0.00346,0.0045875,0.0616165,0.0034599999999999,-0.0045875,-0.2220575,-0.01595,-0.3173255,0.1392525,-0.03071,-0.3490155,-0.2093575,-0.4060300000000001,-0.0605615,0.1857725,-0.41917,-0.0910795,1
54,-0.034388,0.685195,-0.1856465,-0.172901,0.492109,-0.1514865,-0.272661,0.7186450000000001,-0.3129465,0.114949,0.504356,-0.1815965,0.175799,0.747375,-0.3359765,-0.241591,0.960945,-0.4566464999999999,0.151489,1.023755,-0.4378665,-0.061664,-0.0034449999999999,0.0046815,0.061664,0.003445,-0.0046814999999999,-0.222761,-0.0043849999999999,-0.3197865,0.139599,-0.0205149999999999,-0.3524465,-0.2091609999999999,-0.3920749999999999,-0.0592325,0.185879,-0.4033749999999999,-0.0907075,1
55,-0.0339909999999999,0.683114,-0.186808,-0.172043,0.4925279999999999,-0.151978,-0.2732529999999999,0.71649,-0.315968,0.115827,0.5051329999999999,-0.181468,0.177827,0.7444500000000001,-0.337758,-0.242093,0.95494,-0.460958,0.153527,1.02062,-0.441008,-0.061652,-0.00351,0.004815,0.061652,0.00351,-0.004815,-0.2234129999999999,0.0065499999999999,-0.320978,0.1400469999999999,-0.01088,-0.354958,-0.209973,-0.37946,-0.057992,0.185827,-0.39093,-0.093056,1
56,-0.0336485,0.68145,-0.187876,-0.1712455,0.49197,-0.152766,-0.2737354999999999,0.7142200000000001,-0.318556,0.1166444999999999,0.505131,-0.1814859999999999,0.1795645,0.74139,-0.338816,-0.2431255,0.95446,-0.465406,0.1552345,1.01745,-0.442946,-0.0616345,-0.0035499999999999,0.005042,0.0616345,0.00355,-0.005042,-0.2240755,0.0171,-0.321936,0.1403845,-0.0014499999999999,-0.357166,-0.2102655,-0.36695,-0.05707,0.1860744999999999,-0.37861,-0.095303,1
57,-0.033337,0.6790179999999999,-0.188601,-0.170399,0.4925699999999999,-0.153171,-0.274159,0.713507,-0.321131,0.117321,0.50539,-0.181031,0.1812309999999999,0.73778,-0.339761,-0.244439,0.95195,-0.469871,0.1568109999999999,1.01346,-0.445081,-0.061709,-0.00363,0.0052819999999999,0.061709,0.0036299999999999,-0.005282,-0.224629,0.0260999999999999,-0.322551,0.1408209999999999,0.0057699999999999,-0.359591,-0.210479,-0.35686,-0.055761,0.1861709999999999,-0.36885,-0.098835,1
58,-0.033179,0.67828,-0.188985,-0.1696119999999999,0.4923850000000001,-0.153445,-0.274692,0.714052,-0.323595,0.117708,0.505185,-0.180705,0.182558,0.7367250000000001,-0.340655,-0.245592,0.950475,-0.473425,0.157328,1.014915,-0.447495,-0.061759,-0.003695,0.0055339999999999,0.061759,0.003695,-0.005534,-0.225072,0.035135,-0.3232649999999999,0.141158,0.013395,-0.361935,-0.2107919999999999,-0.3469449999999999,-0.055202,0.186368,-0.3605849999999999,-0.103604,1
59,-0.0329295,0.679038,-0.1892805,-0.1684915,0.49091,-0.1541005,-0.2749514999999999,0.715103,-0.3263405,0.1182784999999999,0.50382,-0.1807105,0.1837784999999999,0.737233,-0.3420105,-0.2460615,0.94657,-0.4763005,0.1580484999999999,1.0163,-0.4507605,-0.0618094999999999,-0.0038599999999999,0.0056685,0.0618094999999999,0.00386,-0.0056685,-0.2259115,0.04421,-0.3242505,0.1420185,0.0216899999999999,-0.3644705,-0.2111415,-0.3349,-0.0546745,0.1870385,-0.3526199999999999,-0.1075975,1
60,-0.0326785,0.6784709999999999,-0.1892875,-0.1677625,0.490715,-0.1538975,-0.2750625,0.714486,-0.3284575,0.1187975,0.504765,-0.1803875,0.1846875,0.737537,-0.3434175,-0.2462025,0.942945,-0.4781975,0.1586975,1.016035,-0.4538475,-0.0619104999999999,-0.0039949999999999,0.0057945,0.0619104999999999,0.0039949999999999,-0.0057944999999999,-0.2272825,0.050875,-0.3249375,0.1431975,0.028115,-0.3670275,-0.2119625,-0.326785,-0.0540755,0.1876475,-0.346055,-0.1114324999999999,1
61,-0.032349,0.678228,-0.1891595,-0.167221,0.490365,-0.1536095,-0.2751909999999999,0.714175,-0.3302995,0.1192189999999999,0.504865,-0.1800595,0.185559,0.73788,-0.3451595,-0.246431,0.939945,-0.4797695,0.159119,1.016755,-0.4565395,-0.061984,-0.004005,0.0058945,0.061984,0.004005,-0.0058945,-0.228441,0.0566849999999999,-0.3253995,0.143719,0.0337049999999999,-0.3692395,-0.211711,-0.3200649999999999,-0.0535435,0.188489,-0.340815,-0.1153695,1
62,-0.0320035,0.678618,-0.1888465,-0.1667055,0.490205,-0.1533565,-0.2752755,0.713778,-0.3317665,0.1196445,0.5041950000000001,-0.1796865,0.1862545,0.7386060000000001,-0.3467265,-0.2468155,0.940635,-0.4813565,0.1601145,1.013035,-0.4601765,-0.0619795,-0.0039949999999999,0.0059694999999999,0.0619795,0.003995,-0.0059695,-0.2289255,0.061645,-0.3258765,0.1439245,0.038855,-0.3712265,-0.2119255,-0.3142849999999999,-0.0528825,0.1893345,-0.3369549999999999,-0.1185765,1
63,-0.031668,0.678276,-0.188691,-0.1663629999999999,0.49066,-0.153081,-0.275403,0.711603,-0.332791,0.119787,0.50468,-0.179371,0.186697,0.736897,-0.348361,-0.247443,0.93983,-0.4834509999999999,0.161087,1.00913,-0.463831,-0.061975,-0.00397,0.006026,0.061975,0.00397,-0.006026,-0.228983,0.06574,-0.3264209999999999,0.143787,0.04281,-0.3728309999999999,-0.211563,-0.30994,-0.053229,0.190727,-0.33269,-0.121701,1
64,-0.0311314999999999,0.677743,-0.1887835,-0.1659565,0.491045,-0.1527935,-0.2753565,0.708545,-0.3335535,0.1200935,0.504605,-0.1790635,0.1873635,0.734615,-0.3498735,-0.2478965,0.937845,-0.4851935,0.1623635,1.004795,-0.4679835,-0.0620725,-0.0039049999999999,0.0061044999999999,0.0620725,0.003905,-0.0061045,-0.2288465,0.068905,-0.3266635,0.1438134999999999,0.0458549999999999,-0.3742735,-0.2114065,-0.3058849999999999,-0.0547895,0.1926034999999999,-0.3298349999999999,-0.1241435,1
65,-0.0306605,0.6774609999999999,-0.189473,-0.1656834999999999,0.4910299999999999,-0.1527929999999999,-0.2754335,0.7051719999999999,-0.334483,0.1203065,0.5045199999999999,-0.1790129999999999,0.1882665,0.732107,-0.352473,-0.2480735,0.9347299999999998,-0.488013,0.1638065,1.00059,-0.473443,-0.0621415,-0.00392,0.006196,0.0621415,0.0039199999999999,-0.006196,-0.2287835,0.0716599999999999,-0.326813,0.1437365,0.0481699999999999,-0.375903,-0.2113634999999999,-0.30276,-0.0551829999999999,0.1937265,-0.32823,-0.126703,1
66,-0.030098,0.677393,-0.190915,-0.1654,0.490675,-0.153165,-0.27547,0.701854,-0.3358549999999999,0.1205999999999999,0.504185,-0.179285,0.18947,0.729482,-0.3561649999999999,-0.24847,0.931455,-0.492075,0.1660599999999999,0.995875,-0.480425,-0.062245,-0.003835,0.006205,0.062245,0.003835,-0.006205,-0.22858,0.0740349999999999,-0.326835,0.1437,0.050485,-0.3772049999999999,-0.21129,-0.3009349999999999,-0.057058,0.19437,-0.326935,-0.128235,1
67,-0.029583,0.676147,-0.1930255,-0.165166,0.4906600000000001,-0.1536255,-0.275746,0.6981410000000001,-0.3376854999999999,0.120914,0.5036600000000001,-0.1796555,0.190944,0.7251690000000001,-0.3605855,-0.250106,0.9266100000000002,-0.4970655,0.1685839999999999,0.98964,-0.4874955,-0.062359,-0.0036999999999999,0.0062155,0.062359,0.0037,-0.0062155,-0.228046,0.0751400000000001,-0.3268855,0.143324,0.05171,-0.3777054999999999,-0.210876,-0.3005199999999999,-0.0590845,0.194484,-0.3258299999999998,-0.1282455,1
68,-0.029216,0.6741619999999999,-0.195625,-0.165126,0.4907749999999999,-0.154645,-0.276616,0.694182,-0.3401949999999999,0.121444,0.502385,-0.180925,0.192574,0.7197239999999999,-0.365525,-0.252836,0.923985,-0.502965,0.171464,0.982135,-0.494755,-0.0624269999999999,-0.003545,0.006222,0.0624269999999999,0.0035449999999999,-0.006222,-0.227646,0.0755049999999999,-0.326915,0.142944,0.0526749999999999,-0.377675,-0.209926,-0.303975,-0.063161,0.194484,-0.3247649999999999,-0.128245,1
69,-0.0289105,0.671923,-0.198857,-0.1651485,0.49033,-0.155847,-0.2778285,0.689857,-0.3431769999999999,0.1219215,0.50085,-0.182387,0.1943415,0.71386,-0.370977,-0.2565085,0.92006,-0.509297,0.1745815,0.97422,-0.502597,-0.0624655,-0.0034399999999999,0.0063219999999999,0.0624655,0.0034399999999999,-0.0063219999999999,-0.2272785,0.07551,-0.327117,0.1427215,0.05327,-0.3778269999999999,-0.2071484999999999,-0.3073199999999999,-0.067303,0.1944215,-0.3243099999999999,-0.128407,1
70,-0.0285784999999999,0.669516,-0.2027095,-0.1651264999999999,0.48958,-0.1575595,-0.2793565,0.685292,-0.3466095,0.1223635,0.49916,-0.1842195,0.1962735,0.707469,-0.3768494999999999,-0.2607065,0.91566,-0.5162795,0.1779935,0.96612,-0.5111095,-0.0624635,-0.0033199999999999,0.0063474999999999,0.0624635,0.0033199999999999,-0.0063474999999999,-0.2263965,0.07511,-0.3263295,0.1426335,0.05352,-0.3783495,-0.2023865,-0.30823,-0.0682315,0.1942935,-0.3234599999999999,-0.1278794999999999,1
71,-0.02827,0.667148,-0.2072935,-0.1652529999999999,0.4884,-0.1602835,-0.2815229999999999,0.68094,-0.3507335,0.123027,0.49707,-0.1871435,0.198217,0.700958,-0.3834935,-0.265293,0.91082,-0.5238735,0.180967,0.96209,-0.5195434999999999,-0.0624519999999999,-0.0033499999999999,0.0064694999999999,0.0624519999999999,0.0033499999999999,-0.0064695,-0.225043,0.0745599999999999,-0.3255335,0.142267,0.0536499999999999,-0.3791035,-0.1982229999999999,-0.30817,-0.0704205,0.193207,-0.32234,-0.1271735,1
72,-0.0281105,0.6648350000000001,-0.2122375,-0.1654914999999999,0.48697,-0.1634175,-0.2840315,0.677991,-0.3553575,0.1236285,0.49494,-0.1903875,0.2001485,0.696319,-0.3902075,-0.2704815,0.90583,-0.5315075,0.1838185,0.95801,-0.5283175,-0.0624725,-0.0033599999999999,0.0066044999999999,0.0624725,0.00336,-0.0066044999999999,-0.2233715,0.0745299999999999,-0.3253574999999999,0.1418185,0.0536699999999999,-0.3794875,-0.1944215,-0.30808,-0.0730224999999999,0.1919685,-0.3206299999999999,-0.1274175,1
73,-0.028179,0.6627879999999999,-0.217137,-0.165815,0.4857199999999999,-0.166607,-0.286875,0.6753899999999999,-0.360147,0.124145,0.4926199999999999,-0.193807,0.201825,0.692035,-0.397017,-0.276275,0.90075,-0.5383870000000001,0.186365,0.95402,-0.536747,-0.062486,-0.00335,0.006711,0.062486,0.0033499999999999,-0.006711,-0.221905,0.0747899999999999,-0.325737,0.141555,0.05374,-0.379847,-0.192695,-0.30721,-0.075781,0.190955,-0.31677,-0.123237,1
74,-0.0286139999999999,0.660756,-0.2217015,-0.166269,0.48461,-0.1697515,-0.290079,0.6729930000000001,-0.3646715,0.124371,0.49028,-0.1972615,0.2028309999999999,0.688357,-0.4027214999999999,-0.282639,0.89618,-0.5441715,0.188341,0.95019,-0.5441515,-0.062492,-0.0032599999999999,0.0068154999999999,0.062492,0.00326,-0.0068155,-0.221169,0.07483,-0.3260214999999999,0.141051,0.05378,-0.3800715,-0.191119,-0.30769,-0.0791155,0.1902309999999999,-0.3128999999999999,-0.1176784999999999,1
75,-0.0292255,0.658858,-0.2257135,-0.1667155,0.48346,-0.1726935,-0.2933255,0.67087,-0.3687435,0.1245445,0.48811,-0.2005535,0.2034145,0.685441,-0.4072135,-0.2887855,0.8919900000000001,-0.5486635,0.1894644999999999,0.94735,-0.5497235,-0.0625044999999999,-0.0031799999999999,0.0068804999999999,0.0625044999999999,0.0031799999999999,-0.0068805,-0.2207755,0.0748999999999999,-0.3262835,0.1405845,0.0531399999999999,-0.3784935,-0.1903055,-0.30766,-0.0809455,0.1885945,-0.3127,-0.1167235,1
76,-0.030143,0.657513,-0.2288385,-0.167258,0.4815400000000001,-0.1754585,-0.296478,0.669321,-0.3721885,0.124472,0.48569,-0.2036585,0.203352,0.6838270000000001,-0.4103585,-0.294488,0.8887900000000001,-0.5519685,0.189862,0.9458,-0.5538584999999999,-0.062545,-0.0031399999999999,0.0068945,0.062545,0.00314,-0.0068944999999999,-0.220788,0.07523,-0.3268285,0.139962,0.05286,-0.3767985,-0.190998,-0.30721,-0.0831355,0.186352,-0.3124699999999999,-0.1160365,1
77,-0.031173,0.656935,-0.2304475,-0.167734,0.479615,-0.1771075,-0.299244,0.6681790000000001,-0.3742875,0.1240459999999999,0.484815,-0.2053175,0.202806,0.6837740000000001,-0.4120075,-0.299164,0.8872850000000001,-0.5532375,0.189246,0.946375,-0.5554975,-0.062609,-0.0031549999999999,0.0067945,0.062609,0.003155,-0.0067944999999999,-0.221154,0.075805,-0.3278975,0.139676,0.052685,-0.3746975,-0.191934,-0.3061849999999999,-0.0847435,0.183316,-0.3118949999999999,-0.1174564999999999,1
78,-0.032498,0.657005,-0.2316555,-0.168327,0.4777699999999999,-0.1783855,-0.301817,0.667539,-0.3753855,0.1234629999999999,0.4841899999999999,-0.2065955,0.201823,0.684569,-0.4132455,-0.303037,0.8872499999999999,-0.5542255,0.187973,0.94717,-0.5567055,-0.062646,-0.0033,0.0066855,0.062646,0.0032999999999999,-0.0066855,-0.221857,0.0766099999999999,-0.3290755,0.139843,0.0526899999999999,-0.3723555,-0.192477,-0.30188,-0.0828515,0.181413,-0.3129699999999999,-0.1164665,1
79,-0.0340315,0.657196,-0.2322845,-0.1690485,0.4761649999999999,-0.1790845,-0.3042485,0.667233,-0.3759345,0.1227315,0.483785,-0.2072945,0.2004115,0.685376,-0.4138845,-0.3062284999999999,0.887385,-0.5547045,0.1864714999999999,0.948125,-0.5573445,-0.0626454999999999,-0.003515,0.0065934999999999,0.0626454999999999,0.0035149999999999,-0.0065934999999999,-0.2229685,0.077075,-0.3297445,0.1405615,0.0526849999999999,-0.3700545,-0.1935485,-0.3052750000000001,-0.0859735,0.1790515,-0.313315,-0.1171055,1
80,-0.035529,0.657628,-0.232221,-0.169916,0.475395,-0.179161,-0.306296,0.667225,-0.375931,0.121534,0.484185,-0.207181,0.198984,0.686396,-0.413141,-0.308576,0.888225,-0.554611,0.184984,0.949405,-0.557161,-0.062656,-0.0037749999999999,0.006412,0.062656,0.0037749999999999,-0.006412,-0.2240359999999999,0.0778149999999999,-0.329831,0.142114,0.052745,-0.367731,-0.195586,-0.305845,-0.090034,0.176444,-0.3132950000000001,-0.117052,1
81,-0.0368005,0.658449,-0.2311889999999999,-0.1708995,0.4753699999999999,-0.178899,-0.3078495,0.667625,-0.375699,0.1203005,0.48513,-0.2066889999999999,0.1978005,0.687531,-0.4111889999999999,-0.3099294999999999,0.88936,-0.553549,0.1837705,0.95147,-0.555409,-0.0626475,-0.0040099999999999,0.006412,0.0626475,0.0040099999999999,-0.0064119999999999,-0.2250295,0.0786799999999999,-0.329739,0.1436605,0.05281,-0.3656689999999999,-0.1982195,-0.30117,-0.0867,0.1733005,-0.31706,-0.122094,1
82,-0.0379325,0.6599189999999999,-0.2295569999999999,-0.1717965,0.4757699999999999,-0.178607,-0.3090365,0.668666,-0.3749969999999999,0.1190934999999999,0.4866999999999999,-0.206087,0.1967935,0.689626,-0.408377,-0.3110064999999999,0.89093,-0.5515369999999999,0.1825835,0.95418,-0.552537,-0.0626465,-0.00428,0.0064119999999999,0.0626465,0.0042799999999999,-0.0064119999999999,-0.2260965,0.0801399999999999,-0.330457,0.1448835,0.0528099999999999,-0.363927,-0.2007865,-0.296,-0.083295,0.1701234999999999,-0.32159,-0.128017,1
83,-0.0388875,0.6612739999999999,-0.2272355,-0.1726005,0.476695,-0.1777255,-0.3099805,0.669711,-0.3736555,0.1181695,0.4880549999999999,-0.2045855,0.1960194999999999,0.691935,-0.4048455,-0.3118105,0.892285,-0.5487055,0.1814494999999999,0.956955,-0.5484655,-0.0626825,-0.004475,0.0064085,0.0626825,0.004475,-0.0064085,-0.2270805,0.0814749999999999,-0.3315955,0.1460395,0.0526149999999999,-0.3624055,-0.2031905,-0.293135,-0.0799825,0.1679195,-0.3295350000000001,-0.1392655,1
84,-0.039651,0.662434,-0.224221,-0.173315,0.477855,-0.176321,-0.3107149999999999,0.670832,-0.371551,0.117355,0.489575,-0.202651,0.195345,0.694924,-0.400691,-0.312395,0.893625,-0.544951,0.180475,0.959725,-0.543241,-0.062722,-0.0046549999999999,0.006249,0.062722,0.0046549999999999,-0.006249,-0.228035,0.082635,-0.332031,0.146775,0.0530549999999999,-0.362181,-0.206305,-0.2917649999999999,-0.07685,0.167395,-0.328875,-0.138541,1
85,-0.0400289999999999,0.663359,-0.220613,-0.173757,0.4787800000000001,-0.174423,-0.310927,0.671757,-0.368853,0.116943,0.4905,-0.200423,0.1949729999999999,0.6980470000000001,-0.395993,-0.3121069999999999,0.895,-0.540833,0.179803,0.96258,-0.5373129999999999,-0.062739,-0.0047999999999999,0.0061149999999999,0.062739,0.0048,-0.0061149999999999,-0.228637,0.08325,-0.3319129999999999,0.1477929999999999,0.0533300000000001,-0.3616729999999999,-0.209137,-0.29011,-0.075137,0.1671129999999999,-0.3285499999999999,-0.137513,1
86,-0.0400965,0.6643060000000001,-0.21664,-0.1739485,0.47955,-0.17247,-0.3105985,0.672527,-0.36599,0.1166715,0.49171,-0.1979,0.1948615,0.701084,-0.39103,-0.3111184999999999,0.8964,-0.5365300000000001,0.1793915,0.96544,-0.5308700000000001,-0.0627395,-0.0048899999999999,0.005954,0.0627395,0.00489,-0.005954,-0.2289585,0.0837,-0.33152,0.1489615,0.05349,-0.36094,-0.2117185,-0.28945,-0.076106,0.1672615,-0.32928,-0.13669,1
87,-0.0398429999999999,0.6652319999999999,-0.212496,-0.1738249999999999,0.4801599999999999,-0.170596,-0.309775,0.6730569999999999,-0.363106,0.116565,0.4929599999999999,-0.195416,0.195055,0.7038039999999999,-0.385966,-0.309315,0.8977899999999999,-0.5321760000000001,0.179285,0.96814,-0.5243260000000001,-0.062753,-0.00491,0.0058269999999999,0.062753,0.0049099999999999,-0.0058269999999999,-0.2290849999999999,0.0834899999999999,-0.331256,0.150195,0.0533799999999998,-0.360186,-0.213135,-0.28966,-0.074493,0.167855,-0.3287500000000001,-0.135886,1
88,-0.0394864999999999,0.666135,-0.208417,-0.1737375,0.480965,-0.168847,-0.3088575,0.673598,-0.360237,0.1164125,0.494305,-0.1930069999999999,0.1953025,0.70624,-0.381197,-0.3071575,0.8990549999999999,-0.527917,0.1792425,0.970635,-0.517857,-0.0627635,-0.004885,0.005715,0.0627635,0.004885,-0.0057149999999999,-0.2294675,0.0832049999999999,-0.330887,0.1510925,0.0530749999999999,-0.359417,-0.2140274999999999,-0.290695,-0.071797,0.1683325,-0.328435,-0.134987,1
89,-0.039181,0.6669499999999999,-0.2050125,-0.173798,0.481975,-0.1673625,-0.307998,0.674269,-0.3575025,0.116122,0.495545,-0.1911224999999999,0.195572,0.708054,-0.3775024999999999,-0.304948,0.8999349999999999,-0.5242625,0.179442,0.971995,-0.5124725,-0.06277,-0.0048249999999999,0.0056415,0.06277,0.0048249999999999,-0.0056415,-0.230008,0.0829149999999999,-0.3303625,0.1513219999999999,0.0527549999999999,-0.3586824999999999,-0.215198,-0.291455,-0.0671295,0.1666619999999999,-0.332635,-0.1406625,1
90,-0.038889,0.667858,-0.2017795,-0.17377,0.4832649999999999,-0.1660295,-0.30738,0.675198,-0.3547694999999999,0.1157499999999999,0.4969049999999999,-0.1893995,0.1958,0.70987,-0.3741295,-0.30274,0.900965,-0.5207895,0.17961,0.973265,-0.5074295,-0.062776,-0.004765,0.0055704999999999,0.062776,0.004765,-0.0055704999999999,-0.23083,0.0827649999999999,-0.3298095,0.15152,0.0524549999999999,-0.3581695,-0.21662,-0.291315,-0.0660855,0.16648,-0.3337350000000001,-0.1426795,1
91,-0.038417,0.668752,-0.1989,-0.173489,0.484585,-0.16493,-0.306259,0.676283,-0.3522099999999999,0.115851,0.497875,-0.18798,0.1961709999999999,0.71153,-0.3711199999999999,-0.300349,0.901945,-0.51778,0.1799509999999999,0.974555,-0.50281,-0.062808,-0.0047249999999999,0.005514,0.062808,0.0047249999999999,-0.0055139999999999,-0.231679,0.082615,-0.32937,0.1519209999999999,0.0525649999999999,-0.3579699999999999,-0.218179,-0.2912049999999999,-0.065476,0.165481,-0.3387249999999999,-0.15024,1
92,-0.0377445,0.669723,-0.1964015,-0.1730325,0.48599,-0.1640515,-0.3048625,0.677595,-0.3499915,0.1161675,0.49844,-0.1870015,0.1966475,0.713183,-0.3684415,-0.2977425,0.90318,-0.5151315,0.1804375,0.97598,-0.4989814999999999,-0.0628445,-0.00467,0.0055014999999999,0.0628445,0.0046699999999999,-0.0055015,-0.2325125,0.0826099999999999,-0.3289715,0.1522875,0.0527599999999999,-0.3581315,-0.2196025,-0.29101,-0.0653485,0.1662475,-0.3392300000000001,-0.1504615,1
93,-0.0369135,0.6706859999999999,-0.194114,-0.1724564999999999,0.4871999999999999,-0.163054,-0.3034765,0.678985,-0.348134,0.1167235,0.4986699999999999,-0.186214,0.1972035,0.7145489999999999,-0.365994,-0.2949965,0.90457,-0.5123340000000001,0.1809935,0.97755,-0.495784,-0.0628865,-0.0046,0.005464,0.0628865,0.0045999999999999,-0.005464,-0.2333164999999999,0.0827699999999999,-0.328794,0.1526135,0.0529899999999998,-0.358304,-0.2195165,-0.2919100000000001,-0.069794,0.1649735,-0.3438000000000001,-0.158194,1
94,-0.0360555,0.67126,-0.191979,-0.1718825,0.487915,-0.162139,-0.3021225,0.6801200000000001,-0.345889,0.1173175,0.498565,-0.185059,0.1977175,0.71529,-0.363669,-0.2921125,0.905755,-0.509359,0.1816075,0.978715,-0.492869,-0.0629285,-0.004495,0.0054209999999999,0.0629285,0.004495,-0.005421,-0.2342125,0.082405,-0.328559,0.1529675,0.0530249999999999,-0.358469,-0.2194624999999999,-0.2914949999999999,-0.0644059999999999,0.1655275,-0.343905,-0.158949,1
95,-0.035118,0.6715129999999999,-0.190125,-0.17126,0.4883599999999999,-0.161165,-0.30057,0.680954,-0.3435749999999999,0.11796,0.49853,-0.1838749999999999,0.19824,0.715658,-0.361555,-0.28917,0.90682,-0.5064150000000001,0.18225,0.97947,-0.4902849999999999,-0.062947,-0.0045,0.005421,0.062947,0.0044999999999999,-0.0054209999999999,-0.23501,0.08211,-0.328275,0.15347,0.05286,-0.358815,-0.2198999999999999,-0.2896500000000001,-0.0631299999999999,0.16804,-0.3401,-0.1527649999999999,1
96,-0.034213,0.6716960000000001,-0.1883715,-0.1704069999999999,0.488605,-0.1600315,-0.298947,0.6818090000000001,-0.3412715,0.118723,0.4984550000000001,-0.1826015,0.1987229999999999,0.7159740000000001,-0.3595815,-0.286407,0.907905,-0.5034515,0.182893,0.980195,-0.4880115,-0.062953,-0.0045149999999999,0.0054214999999999,0.062953,0.004515,-0.0054214999999999,-0.235837,0.081895,-0.3279415,0.153913,0.052735,-0.3590315,-0.219327,-0.2892649999999999,-0.0624745,0.1685229999999999,-0.3403549999999999,-0.1531915,1
97,-0.033338,0.671781,-0.186544,-0.16953,0.488765,-0.158674,-0.29739,0.68263,-0.338874,0.1196599999999999,0.498175,-0.181124,0.19918,0.716133,-0.357574,-0.28362,0.909045,-0.5002340000000001,0.1835399999999999,0.980815,-0.485844,-0.062969,-0.004525,0.005423,0.062969,0.004525,-0.005423,-0.23665,0.0818949999999999,-0.327714,0.1543999999999999,0.052625,-0.359234,-0.21814,-0.290335,-0.061047,0.1689699999999999,-0.340605,-0.1535439999999999,1
98,-0.032574,0.672307,-0.1848015,-0.168592,0.488795,-0.1572215,-0.295922,0.683789,-0.3366515,0.120628,0.497685,-0.1795815,0.199558,0.71648,-0.3556615,-0.281192,0.910555,-0.4973515,0.184078,0.981855,-0.4840415,-0.062991,-0.0044349999999999,0.0053805,0.062991,0.0044349999999999,-0.0053805,-0.237282,0.081895,-0.3274615,0.154878,0.052985,-0.3594415,-0.217742,-0.290555,-0.0600055,0.169298,-0.340905,-0.1541315,1
99,-0.0318485,0.672863,-0.1831735,-0.1676345,0.4888349999999999,-0.1556535,-0.2944745,0.68496,-0.3345935,0.1216454999999999,0.497125,-0.1779635,0.1999054999999999,0.716692,-0.3537335,-0.2789045,0.912055,-0.4946335,0.1845455,0.982785,-0.4824935,-0.0630145,-0.004305,0.0053374999999999,0.0630145,0.004305,-0.0053375,-0.2376845,0.0820149999999999,-0.3274635,0.1552555,0.053435,-0.3595735,-0.2178445,-0.289995,-0.0598505,0.1675555,-0.3470150000000001,-0.1623635,1
100,-0.031186,0.67344,-0.1816839999999999,-0.16668,0.488895,-0.154044,-0.2931499999999999,0.686084,-0.332654,0.12269,0.496515,-0.1762939999999999,0.2002199999999999,0.716888,-0.351954,-0.27681,0.913515,-0.4920339999999999,0.18497,0.983635,-0.481064,-0.0630479999999999,-0.0041449999999999,0.005326,0.0630479999999999,0.004145,-0.0053259999999999,-0.23787,0.082165,-0.327494,0.15558,0.053935,-0.359684,-0.21752,-0.2891549999999999,-0.060201,0.1660299999999999,-0.3526450000000001,-0.1707439999999999,1
101,-0.0305105,0.674037,-0.1801809999999999,-0.1657005,0.48894,-0.152361,-0.2919005,0.6870470000000001,-0.330621,0.1237995,0.49592,-0.174561,0.2005695,0.7171460000000001,-0.350291,-0.2749605,0.91482,-0.489611,0.1854295,0.98451,-0.479641,-0.0630735,-0.004,0.005318,0.0630735,0.004,-0.005318,-0.2379805,0.0824,-0.327711,0.1559095,0.0544999999999999,-0.359791,-0.2177305,-0.2871,-0.059196,0.1643495,-0.35691,-0.178361,1
102,-0.0298865,0.6746690000000001,-0.178701,-0.1649665,0.488925,-0.150951,-0.2906565,0.688054,-0.328561,0.1248934999999999,0.495295,-0.172751,0.2009235,0.7174020000000001,-0.3485709999999999,-0.2734465,0.915945,-0.487761,0.1859535,0.985315,-0.478281,-0.0631115,-0.0038449999999999,0.005321,0.0631115,0.003845,-0.0053209999999999,-0.2381065,0.082655,-0.327861,0.1561735,0.055085,-0.359991,-0.2188565,-0.2855049999999999,-0.060738,0.1630435,-0.361005,-0.185251,1
103,-0.029261,0.675391,-0.1773435,-0.1643609999999999,0.488855,-0.1497534999999999,-0.289481,0.688966,-0.3271435,0.125809,0.495155,-0.1714635,0.201329,0.717669,-0.3469335,-0.272141,0.917015,-0.4864235,0.186549,0.986135,-0.4770935,-0.063151,-0.0036849999999999,0.0053244999999999,0.063151,0.003685,-0.0053244999999999,-0.238201,0.082975,-0.3279735,0.156459,0.0557149999999999,-0.3602535,-0.2201709999999999,-0.2841249999999999,-0.0623165,0.161819,-0.3644449999999999,-0.1911935,1
104,-0.0286649999999999,0.67619,-0.1759549999999999,-0.163877,0.488695,-0.1486449999999999,-0.288527,0.689922,-0.325965,0.126553,0.495055,-0.1702949999999999,0.2016929999999999,0.717981,-0.345365,-0.271007,0.918065,-0.485255,0.187133,0.986955,-0.475775,-0.063171,-0.0035349999999999,0.005328,0.063171,0.0035349999999999,-0.0053279999999999,-0.238297,0.083195,-0.328055,0.156633,0.056385,-0.360485,-0.222407,-0.282885,-0.063762,0.162703,-0.3643449999999999,-0.191355,1
105,-0.0280595,0.6769470000000001,-0.1746785,-0.1634054999999999,0.48866,-0.1476685,-0.2875855,0.690773,-0.3248585,0.1272745,0.49499,-0.1691885,0.2020845,0.7182350000000001,-0.3438185,-0.2699255,0.91913,-0.4842685,0.1877645,0.98784,-0.4743885,-0.0632055,-0.0033999999999999,0.0053384999999999,0.0632055,0.0034,-0.0053384999999999,-0.2383755,0.0833399999999999,-0.3281585,0.1568445,0.05698,-0.3605685,-0.2239554999999999,-0.28306,-0.0637955,0.1629844999999999,-0.3642399999999999,-0.1914985,1
106,-0.0274625,0.677621,-0.1735895,-0.1629965,0.4886,-0.1468495,-0.2866965,0.691518,-0.3239195,0.1278635,0.4949,-0.1682094999999999,0.2024935,0.718434,-0.3421395,-0.2689765,0.9201,-0.4835495,0.1884335,0.98869,-0.4729395,-0.0632355,-0.0032999999999999,0.0053414999999999,0.0632355,0.0032999999999999,-0.0053414999999999,-0.2384265,0.0836299999999999,-0.3283595,0.1570635,0.05751,-0.3605895,-0.2250165,-0.28332,-0.0635685,0.1650435,-0.3602899999999999,-0.1871295,1
107,-0.0268779999999999,0.6776909999999999,-0.1724875,-0.162598,0.4885949999999999,-0.1459975,-0.285818,0.6917589999999999,-0.3228875,0.1283419999999999,0.4949349999999999,-0.1671875,0.202922,0.7184689999999999,-0.3404075,-0.267908,0.920575,-0.4825275,0.189152,0.988955,-0.4712075,-0.0632689999999999,-0.003265,0.0053425,0.0632689999999999,0.0032649999999999,-0.0053425,-0.238448,0.0839249999999999,-0.3284975,0.157332,0.0575649999999998,-0.3604475,-0.226658,-0.2835750000000001,-0.0635054999999999,0.167342,-0.356055,-0.1822575,1
108,-0.0262939999999999,0.677701,-0.17137,-0.162176,0.488545,-0.14522,-0.284906,0.692155,-0.32202,0.128784,0.4949449999999999,-0.1662,0.203394,0.718479,-0.3387799999999999,-0.266906,0.920945,-0.48156,0.189884,0.989135,-0.46945,-0.06332,-0.003255,0.005347,0.06332,0.003255,-0.0053469999999999,-0.238416,0.0841349999999999,-0.32846,0.157694,0.0576349999999999,-0.36032,-0.228596,-0.282815,-0.063382,0.169984,-0.3519449999999999,-0.17735,1
109,-0.0257865,0.677701,-0.1702374999999999,-0.1617664999999999,0.488545,-0.1443275,-0.2840465,0.692477,-0.3211975,0.1292035,0.4949449999999999,-0.1651675,0.2038335,0.718479,-0.3370875,-0.2659765,0.921305,-0.4806475,0.1905835,0.989255,-0.4676975,-0.0633735,-0.003255,0.0053775,0.0633735,0.003255,-0.0053775,-0.2384465,0.0843249999999999,-0.3285175,0.1581035,0.057675,-0.3602575,-0.2287165,-0.282815,-0.0637105,0.1700435,-0.3519449999999999,-0.1759975,1
110,-0.0252249999999999,0.677976,-0.1691695,-0.161327,0.48851,-0.1434595,-0.283117,0.693044,-0.3203495,0.129713,0.4951299999999999,-0.1641795,0.204353,0.718488,-0.3353895,-0.264997,0.92186,-0.4797295,0.1913429999999999,0.98968,-0.4660095,-0.063417,-0.0031799999999999,0.0054305,0.063417,0.0031799999999999,-0.0054305,-0.238427,0.08474,-0.3286195,0.1585329999999999,0.0578999999999999,-0.3601695,-0.228427,-0.28309,-0.0628605,0.1688629999999999,-0.3558399999999999,-0.1801994999999999,1
111,-0.0247729999999999,0.6782050000000001,-0.1680455,-0.16098,0.488445,-0.1425354999999999,-0.28225,0.693513,-0.3193454999999999,0.13013,0.495275,-0.1631955,0.20473,0.718473,-0.3338554999999999,-0.26409,0.922385,-0.4787654999999999,0.19199,0.989955,-0.4643454999999999,-0.063457,-0.0031149999999999,0.0054865,0.063457,0.0031149999999999,-0.0054864999999999,-0.23853,0.085065,-0.3286654999999999,0.15893,0.058095,-0.3600055,-0.22647,-0.2830549999999999,-0.0620045,0.17096,-0.3513649999999999,-0.1750055,1
112,-0.0243695,0.6783690000000001,-0.1668545,-0.1607225,0.48835,-0.1415445,-0.2818425,0.6940010000000001,-0.3181744999999999,0.1304374999999999,0.49545,-0.1622044999999999,0.2050175,0.7185360000000001,-0.3325045,-0.2632925,0.92295,-0.4777544999999999,0.1925575,0.99019,-0.4627745,-0.0635025,-0.0030699999999999,0.0055475,0.0635025,0.00307,-0.0055475,-0.2388525,0.08544,-0.3285645,0.1592775,0.05827,-0.3597045,-0.2277624999999999,-0.2828799999999999,-0.0626265,0.1727675,-0.3471899999999999,-0.1693644999999999,1
113,-0.023883,0.678558,-0.1658355,-0.160404,0.488275,-0.1406755,-0.281304,0.694648,-0.3171055,0.130776,0.495635,-0.1612755,0.2053859999999999,0.718594,-0.3313555,-0.262494,0.923595,-0.4768755,0.1931159999999999,0.990385,-0.4615654999999999,-0.063541,-0.0030449999999999,0.0056044999999999,0.063541,0.0030449999999999,-0.0056045,-0.239514,0.086075,-0.3286354999999999,0.1597259999999999,0.058525,-0.3593455,-0.228764,-0.282705,-0.0631375,0.174836,-0.3428949999999999,-0.1630655,1
114,-0.023412,0.6786949999999999,-0.1647894999999999,-0.160133,0.48821,-0.1397795,-0.280833,0.695325,-0.3161095,0.131067,0.4958,-0.1604394999999999,0.2056569999999999,0.71866,-0.3302695,-0.261843,0.92413,-0.4758795,0.193597,0.9907,-0.4604795,-0.063576,-0.00302,0.0056545,0.063576,0.00302,-0.0056545,-0.240273,0.0866799999999999,-0.3285395,0.1603069999999999,0.0586299999999999,-0.3590295,-0.229653,-0.28254,-0.0632085,0.175347,-0.34203,-0.1621795,1
115,-0.0230155,0.678878,-0.163721,-0.1599324999999999,0.4882199999999999,-0.138801,-0.2800525,0.6961339999999999,-0.315261,0.1312775,0.4959499999999999,-0.159711,0.2058275,0.7187899999999999,-0.329471,-0.2613825,0.92473,-0.474631,0.1940075,0.99096,-0.459591,-0.0635925,-0.00302,0.0056909999999999,0.0635925,0.0030199999999999,-0.005691,-0.2412224999999999,0.0872099999999999,-0.328381,0.1611675,0.0586899999999999,-0.358651,-0.2306125,-0.2827900000000001,-0.062531,0.1757475,-0.3418000000000001,-0.162151,1
116,-0.0227714999999999,0.678908,-0.1625745,-0.1598365,0.4882199999999999,-0.1379045,-0.2793465,0.697359,-0.3144845,0.1313935,0.4959599999999999,-0.1590845,0.2057335,0.7187899999999999,-0.3285245,-0.2610265,0.92557,-0.4733044999999999,0.1943335,0.99111,-0.4586745,-0.0635815,-0.00302,0.0057315,0.0635815,0.0030199999999999,-0.0057315,-0.2423965,0.0876199999999999,-0.3279444999999999,0.1623635,0.0586899999999999,-0.3580644999999999,-0.2314065,-0.28319,-0.0625235,0.1759735,-0.3418000000000001,-0.1622745,1
117,-0.0227735,0.6789459999999999,-0.1614625,-0.1599955,0.4882199999999999,-0.1369625,-0.2789255,0.6986819999999999,-0.3136025,0.1312045,0.4959999999999999,-0.1592925,0.2052445,0.7187899999999999,-0.3275225,-0.2606155,0.92747,-0.4715225,0.1944145,0.99123,-0.4576225,-0.0635665,-0.00302,0.0057715,0.0635665,0.0030199999999999,-0.0057714999999999,-0.2439755,0.0880199999999999,-0.3271624999999999,0.1638945,0.0587999999999999,-0.3566525,-0.2298555,-0.28366,-0.0618675,0.1755845,-0.3418000000000001,-0.1619924999999999,1
118,-0.022816,0.6789879999999999,-0.1602535,-0.160092,0.4882199999999999,-0.1364835,-0.278032,0.7012879999999999,-0.3120735,0.131048,0.4960799999999999,-0.1594935,0.204478,0.719599,-0.3266835,-0.260252,0.93,-0.4687635,0.194408,0.99265,-0.4553735,-0.063452,-0.00302,0.0057835,0.063452,0.0030199999999999,-0.0057835,-0.245682,0.0884399999999999,-0.3260635,0.1664479999999999,0.05889,-0.3543435,-0.228092,-0.2840600000000001,-0.0609215,0.1758279999999999,-0.3419000000000001,-0.1622235,1
119,-0.0230865,0.6794340000000001,-0.1590295,-0.1602525,0.48816,-0.1360695,-0.2765825,0.7046340000000001,-0.3100395,0.1308175,0.49627,-0.1597595,0.2028875,0.722944,-0.3259195,-0.2598425,0.93315,-0.4649195,0.1941675,0.99656,-0.4532494999999999,-0.0633465,-0.0030799999999999,0.0057744999999999,0.0633465,0.00308,-0.0057745,-0.2476325,0.08871,-0.3247394999999999,0.1699875,0.05889,-0.3514895,-0.2262525,-0.28459,-0.0600815,0.1739775,-0.34612,-0.1659095,1
120,-0.0238479999999999,0.680219,-0.1580895,-0.1610339999999999,0.48821,-0.1363995,-0.276094,0.708686,-0.3079295,0.128256,0.4992400000000001,-0.1600895,0.200816,0.726797,-0.3255195,-0.259344,0.94028,-0.4606395,0.193696,1.00112,-0.4512295,-0.063173,-0.0033499999999999,0.0055994999999999,0.063173,0.00335,-0.0055995,-0.249614,0.08817,-0.3236695,0.174236,0.0579900000000001,-0.3483595,-0.224444,-0.2859899999999999,-0.0586235,0.173966,-0.3473699999999999,-0.1642095,1
121,-0.0251665,0.681244,-0.15756,-0.1619185,0.4886999999999999,-0.13698,-0.2757485,0.713366,-0.30613,0.1256914999999999,0.5005299999999999,-0.16093,0.1982715,0.73029,-0.32529,-0.2589984999999999,0.94538,-0.45562,0.1930415,1.00551,-0.44865,-0.0629395,-0.0035,0.005403,0.0629395,0.0034999999999999,-0.0054029999999999,-0.2508885,0.0854099999999999,-0.32275,0.1789615,0.0556799999999999,-0.3456,-0.2229485,-0.2896000000000001,-0.0580459999999999,0.1739415,-0.35098,-0.16256,1
122,-0.026642,0.683093,-0.157675,-0.162789,0.4872499999999999,-0.138205,-0.275029,0.716725,-0.304285,0.123151,0.5011699999999999,-0.162475,0.195401,0.73425,-0.324915,-0.258679,0.94838,-0.450615,0.192211,1.01059,-0.445335,-0.062565,-0.00386,0.0051569999999999,0.062565,0.0038599999999999,-0.0051569999999999,-0.251399,0.0806099999999999,-0.322185,0.183201,0.0517399999999999,-0.343285,-0.221459,-0.2953000000000001,-0.058242,0.1738309999999999,-0.3564800000000001,-0.161645,1
123,-0.028134,0.683805,-0.158223,-0.1643359999999999,0.48864,-0.139903,-0.274356,0.720645,-0.302443,0.120504,0.50349,-0.164513,0.192554,0.737454,-0.324463,-0.258546,0.95234,-0.445823,0.191394,1.01465,-0.442453,-0.062193,-0.0038599999999999,0.0050599999999999,0.062193,0.0038599999999999,-0.0050599999999999,-0.251246,0.07147,-0.321933,0.186894,0.04425,-0.340773,-0.219996,-0.30564,-0.059168,0.174294,-0.35902,-0.156413,1
124,-0.029976,0.6855359999999999,-0.159082,-0.165962,0.4896399999999999,-0.141472,-0.274502,0.7246049999999999,-0.3006319999999999,0.117598,0.50545,-0.166752,0.1895079999999999,0.7416679999999999,-0.3241119999999999,-0.258462,0.95495,-0.439172,0.190658,1.0200399999999998,-0.438892,-0.061726,-0.00401,0.004906,0.061726,0.0040099999999999,-0.004906,-0.251182,0.0611999999999999,-0.321482,0.189768,0.0357999999999999,-0.338252,-0.219882,-0.31742,-0.060719,0.1766279999999999,-0.3590200000000001,-0.146492,1
125,-0.0320209999999999,0.686393,-0.160409,-0.167677,0.48972,-0.1433289999999999,-0.2745269999999999,0.724941,-0.297619,0.114033,0.50631,-0.169429,0.186633,0.746681,-0.324159,-0.259307,0.95466,-0.432809,0.189753,1.0235,-0.435809,-0.0612709999999999,-0.0041999999999999,0.004734,0.0612709999999999,0.0041999999999999,-0.0047339999999999,-0.251037,0.0482099999999999,-0.320939,0.191863,0.0252099999999999,-0.335479,-0.2196469999999999,-0.33202,-0.063293,0.178083,-0.36245,-0.136239,1
126,-0.0343915,0.688378,-0.162134,-0.1696385,0.4903950000000001,-0.145704,-0.2748784999999999,0.7235290000000001,-0.294964,0.1103015,0.5068950000000001,-0.172614,0.1837515,0.751395,-0.324664,-0.2603284999999999,0.953255,-0.426594,0.1889115,1.026035,-0.432284,-0.0607304999999999,-0.0042949999999999,0.0045569999999999,0.0607304999999999,0.004295,-0.0045569999999999,-0.2507585,0.033755,-0.319654,0.1927515,0.013175,-0.333414,-0.2192885,-0.3491649999999999,-0.065883,0.1787715,-0.372725,-0.133633,1
127,-0.0366974999999999,0.6902099999999999,-0.1643775,-0.1716655,0.4911249999999999,-0.1485675,-0.2746855,0.7273949999999999,-0.2934975,0.1065045,0.508825,-0.1758874999999999,0.1812445,0.7553249999999999,-0.3253175,-0.2611455,0.958225,-0.4212275,0.1883145,1.025505,-0.4298975,-0.0601855,-0.004615,0.0042914999999999,0.0601855,0.0046149999999999,-0.0042915,-0.2501555,0.0171349999999999,-0.3184675,0.1929445,-0.000485,-0.3319675,-0.2176355,-0.368955,-0.0683605,0.1797945,-0.3855550000000001,-0.1310105,1
128,-0.038888,0.6917399999999999,-0.166986,-0.174056,0.4916029999999999,-0.151436,-0.275016,0.7300199999999999,-0.2927059999999999,0.102164,0.5095209999999999,-0.179276,0.179484,0.7561599999999999,-0.325576,-0.262306,0.9614699999999998,-0.416786,0.188244,1.0274199999999998,-0.4265159999999999,-0.059722,-0.00467,0.004101,0.059722,0.0046699999999999,-0.004101,-0.249196,-0.00118,-0.3169559999999999,0.193004,-0.0159200000000001,-0.330916,-0.216036,-0.38982,-0.07152,0.180504,-0.40116,-0.128258,1
129,-0.0407789999999999,0.6929649999999999,-0.1696405,-0.176062,0.4944399999999999,-0.1541905,-0.275222,0.7323049999999999,-0.2920505,0.100278,0.5074349999999999,-0.1824005,0.178088,0.755215,-0.3250705,-0.2639019999999999,0.959165,-0.4128705,0.188268,1.027165,-0.4231905,-0.059536,-0.004395,0.0041055,0.059536,0.0043949999999999,-0.0041054999999999,-0.247872,-0.020805,-0.3146405,0.193028,-0.032515,-0.3299204999999999,-0.215662,-0.4125350000000001,-0.0748004999999999,0.1825979999999999,-0.4156550000000001,-0.1187894999999999,1
130,-0.0421465,0.694235,-0.1718815,-0.1777695,0.495186,-0.1564615,-0.2765695,0.734165,-0.2908515,0.0994505,0.508178,-0.1854415,0.1777505,0.753905,-0.3238115,-0.2655895,0.964225,-0.4097415,0.1883805,1.026285,-0.4205615,-0.0594095,-0.0043649999999999,0.0041765,0.0594095,0.004365,-0.0041765,-0.2460395,-0.040335,-0.3117315,0.1923205,-0.0483649999999999,-0.3283414999999999,-0.2154995,-0.435835,-0.0779315,0.1845705,-0.4300049999999999,-0.1089344999999999,1
131,-0.0432085,0.695465,-0.1732794999999999,-0.1793875,0.497409,-0.1579395,-0.2781075,0.736915,-0.2894695,0.0986225,0.5081,-0.1878594999999999,0.1777425,0.755275,-0.3223295,-0.2672375,0.970125,-0.4063795,0.1884925,1.027485,-0.4181694999999999,-0.0592895,-0.0040949999999999,0.0043265,0.0592895,0.0040949999999999,-0.0043264999999999,-0.2432175,-0.0584449999999999,-0.3074195,0.1904525,-0.063415,-0.3256295,-0.2154075,-0.458215,-0.0804375,0.1860325,-0.4439649999999999,-0.0989615,1
132,-0.0440555,0.6974549999999999,-0.1737449999999999,-0.1801904999999999,0.499037,-0.158295,-0.2789705,0.741045,-0.288025,0.0983895,0.506666,-0.188915,0.1777595,0.7541249999999999,-0.320675,-0.2682505,0.972495,-0.4027949999999999,0.1887195,1.026635,-0.415275,-0.0592464999999999,-0.0039549999999999,0.0044879999999999,0.0592464999999999,0.0039549999999999,-0.0044879999999999,-0.2399504999999999,-0.074355,-0.302135,0.1876995,-0.077175,-0.3223649999999999,-0.2154605,-0.4795149999999999,-0.083765,0.1858295,-0.468985,-0.101017,1
133,-0.0445515,0.69899,-0.173061,-0.1802415,0.50063,-0.157471,-0.2803815,0.74438,-0.285901,0.0982685,0.506865,-0.188871,0.1778485,0.75684,-0.318271,-0.2694115,0.97485,-0.399631,0.1890985,1.02665,-0.412251,-0.0591825,-0.00372,0.0045899999999999,0.0591825,0.00372,-0.00459,-0.2369415,-0.09027,-0.295711,0.1839785,-0.09108,-0.317681,-0.2158215,-0.5014799999999999,-0.086328,0.1855784999999999,-0.4947499999999999,-0.102383,1
134,-0.044879,0.70277,-0.1719405,-0.1805729999999999,0.501692,-0.1563505,-0.281523,0.75024,-0.2836405,0.098027,0.507387,-0.1884605,0.177717,0.758,-0.3156505,-0.270053,0.97953,-0.3957704999999999,0.189847,1.03089,-0.4077604999999999,-0.059205,-0.0035999999999999,0.0047875,0.059205,0.0035999999999999,-0.0047875,-0.234123,-0.1027999999999999,-0.2881705,0.180077,-0.10266,-0.3128105,-0.216433,-0.5217099999999999,-0.0883395,0.185057,-0.51786,-0.1034124999999999,1
135,-0.045271,0.705195,-0.1701705,-0.180943,0.5019870000000001,-0.1547994999999999,-0.282533,0.7576050000000001,-0.2807205,0.096697,0.5073650000000001,-0.1878604999999999,0.1772869999999999,0.759085,-0.3120905,-0.271043,0.991995,-0.3923505,0.190377,1.035315,-0.4042305,-0.059295,-0.0033549999999999,0.0051225,0.059295,0.003355,-0.0051224999999999,-0.2319629999999999,-0.1150449999999999,-0.2810905,0.176087,-0.1138949999999999,-0.3077605,-0.217243,-0.541875,-0.0898895,0.184207,-0.540025,-0.1046545,1
136,-0.0456265,0.7037899999999999,-0.1675475,-0.1817205,0.50557,-0.1526745,-0.2835205,0.75729,-0.2775275,0.0945794999999999,0.50786,-0.1875475,0.1767494999999999,0.76,-0.3080975,-0.2721205,0.99587,-0.3888975,0.1911095,1.04033,-0.4008775,-0.0592335,-0.00281,0.0054804999999999,0.0592335,0.0028099999999999,-0.0054805,-0.2299805,-0.13029,-0.2739375,0.1719895,-0.12749,-0.3022075,-0.2181405,-0.56494,-0.0911165,0.1832095,-0.5639500000000001,-0.1058895,1
137,-0.045596,0.7017450000000001,-0.163826,-0.182038,0.5090749999999999,-0.1507109999999999,-0.283798,0.7613449999999999,-0.273386,0.093232,0.508845,-0.186996,0.176692,0.762815,-0.304416,-0.273218,1.001305,-0.385336,0.190972,1.0418349999999998,-0.397946,-0.0589969999999999,-0.002425,0.0056869999999999,0.0589969999999999,0.002425,-0.0056869999999999,-0.228018,-0.142765,-0.266636,0.168192,-0.138455,-0.296346,-0.218478,-0.586475,-0.092385,0.182292,-0.584335,-0.107323,1
138,-0.0454185,0.698615,-0.1588265,-0.1830455,0.509865,-0.1479925,-0.2845855,0.764945,-0.2693264999999999,0.0934045,0.508885,-0.1854665,0.1768945,0.766105,-0.2993065,-0.2739755,1.008625,-0.3800365,0.1919745,1.044255,-0.3930665,-0.0590835,-0.0018549999999999,0.0057084999999999,0.0590835,0.0018549999999999,-0.0057084999999999,-0.2260855,-0.152285,-0.2581265,0.1644145,-0.147445,-0.2898165,-0.2187055,-0.6047149999999999,-0.0929115,0.1811545,-0.601925,-0.1084904999999999,1
139,-0.04488,0.69257,-0.1526185,-0.1837939999999999,0.51655,-0.1439905,-0.285184,0.772,-0.2639745,0.094646,0.5050399999999999,-0.1838445,0.177106,0.7671600000000001,-0.2944645,-0.275714,1.00964,-0.3732445,0.192806,1.0449199999999998,-0.3857145,-0.0588329999999999,-0.0007699999999999,0.0057125,0.0588329999999999,0.0007699999999999,-0.0057125,-0.224344,-0.1618,-0.2490544999999999,0.160456,-0.1562,-0.2824445,-0.2196139999999999,-0.62253,-0.0932775,0.179516,-0.61769,-0.1098865,1
140,-0.0443895,0.684865,-0.1465245,-0.1841955,0.522675,-0.1400905,-0.2857455,0.7786649999999999,-0.2582515,0.0956345,0.5015149999999999,-0.1820915,0.1774645,0.764985,-0.2896315,-0.2769755,1.012365,-0.3651315,0.1939245,1.042065,-0.3784214999999999,-0.0585575,0.0002049999999999,0.0058254999999999,0.0585575,-0.000205,-0.0058254999999999,-0.2221254999999999,-0.169025,-0.2395614999999999,0.1567845,-0.165085,-0.2753815,-0.2205955,-0.637475,-0.0932975,0.1779045,-0.632665,-0.1107545,1
141,-0.0440755,0.6804699999999999,-0.139813,-0.1848054999999999,0.52106,-0.136023,-0.2861055,0.77942,-0.251543,0.0968145,0.5045299999999999,-0.178493,0.1774245,0.76982,-0.283833,-0.2784355,1.0122,-0.355263,0.1954345,1.04737,-0.369943,-0.0582585,0.0003199999999999,0.006071,0.0582585,-0.0003199999999999,-0.006071,-0.2198854999999999,-0.18018,-0.229183,0.1530045,-0.17674,-0.2663129999999999,-0.2218655,-0.6554500000000001,-0.09255,0.1759945,-0.64974,-0.111502,1
142,-0.043399,0.67569,-0.1337269999999999,-0.1852829999999999,0.5196099999999999,-0.132378,-0.285593,0.7806299999999999,-0.243622,0.096027,0.50618,-0.176912,0.177707,0.7719199999999999,-0.278182,-0.279803,1.0142799999999998,-0.345402,0.196907,1.05259,-0.361382,-0.057548,0.0004199999999999,0.006355,0.057548,-0.00042,-0.0063549999999999,-0.216713,-0.18923,-0.218752,0.149807,-0.18669,-0.257532,-0.2227029999999999,-0.67039,-0.091859,0.174447,-0.66381,-0.111627,1
143,-0.042326,0.6695450000000001,-0.126911,-0.185456,0.5207550000000001,-0.128506,-0.2838259999999999,0.7825150000000001,-0.235254,0.095244,0.5089950000000001,-0.174704,0.177754,0.7753650000000001,-0.271484,-0.280706,1.023805,-0.335344,0.198544,1.055925,-0.353514,-0.0570149999999999,0.000625,0.006557,0.0570149999999999,-0.0006249999999999,-0.006557,-0.212816,-0.1981049999999999,-0.208414,0.146944,-0.1950349999999999,-0.247454,-0.2228359999999999,-0.683365,-0.091079,0.1732139999999999,-0.675575,-0.111223,1
144,-0.0412989999999999,0.66333,-0.120118,-0.1853969999999999,0.52246,-0.1244369999999999,-0.282467,0.7837700000000001,-0.226507,0.094053,0.51316,-0.172757,0.178083,0.77885,-0.264507,-0.281417,1.02525,-0.3245269999999999,0.200133,1.05951,-0.3451869999999999,-0.056711,0.0005999999999999,0.006559,0.056711,-0.0005999999999999,-0.006559,-0.208007,-0.20751,-0.197227,0.144673,-0.20565,-0.236457,-0.222347,-0.69618,-0.090226,0.1720729999999999,-0.68972,-0.110223,1
145,-0.0401525,0.6611750000000001,-0.1129355,-0.1851135,0.518475,-0.1201945,-0.2803035,0.785895,-0.2165875,0.0920465,0.5144150000000001,-0.1701774999999999,0.1779065,0.7827850000000001,-0.2567175,-0.2812335,1.027415,-0.3133275,0.2017365,1.063465,-0.3352175,-0.0565795,0.000365,0.0064034999999999,0.0565795,-0.0003649999999999,-0.0064034999999999,-0.2019235,-0.214075,-0.1844075,0.1427565,-0.2151949999999999,-0.2242175,-0.2211334999999999,-0.705765,-0.0886645,0.1711365,-0.702325,-0.1087095,1
146,-0.0396585,0.65837,-0.1060955,-0.1844385,0.51401,-0.1171355,-0.2783785,0.78364,-0.2067075,0.0904515,0.51558,-0.1673975,0.1770515,0.78413,-0.2477875,-0.2810585,1.0281,-0.3011975,0.2024115,1.06465,-0.3250675,-0.0568265,0.0002699999999999,0.0063464999999999,0.0568265,-0.0002699999999999,-0.0063464999999999,-0.1953685,-0.22491,-0.1711075,0.1405615,-0.227,-0.2110675,-0.2200185,-0.71894,-0.0864825,0.1695715,-0.71704,-0.1068255,1
147,-0.0388474999999999,0.6581600000000001,-0.1007985,-0.1837665,0.5102599999999999,-0.1125425,-0.2772165,0.78227,-0.1972065,0.0919035,0.51746,-0.1634565,0.1784234999999999,0.7866,-0.2400364999999999,-0.2812464999999999,1.02849,-0.2892865,0.2035934999999999,1.06616,-0.3156764999999999,-0.0564955,-0.00012,0.0063095,0.0564955,0.0001199999999999,-0.0063094999999999,-0.1880065,-0.23268,-0.1576365,0.1380935,-0.23441,-0.1962964999999999,-0.2179065,-0.7282500000000001,-0.0835875,0.1681534999999999,-0.72655,-0.1025165,1
148,-0.0377555,0.65884,-0.091579,-0.1839745,0.50354,-0.102634,-0.2753845,0.77792,-0.182371,0.0933455,0.51987,-0.1548109999999999,0.1794055,0.7901,-0.227331,-0.2802044999999999,1.02806,-0.2729709999999999,0.2044254999999999,1.06831,-0.302511,-0.0562685,-0.0010399999999999,0.006067,0.0562685,0.0010399999999999,-0.0060669999999999,-0.1805045,-0.24031,-0.139981,0.1362255,-0.24271,-0.176931,-0.2146845,-0.73738,-0.0750329999999999,0.1671754999999999,-0.73692,-0.092651,1
149,-0.0357675,0.6577635000000001,-0.0788794999999999,-0.1831645,0.4940335,-0.0898094999999999,-0.2728245,0.7701335,-0.1648315,0.0956255,0.5197235,-0.1429615,0.1809655,0.7905835,-0.2113315,-0.2787545,1.0235735,-0.2543215,0.2059455,1.0705035,-0.2835915,-0.0562045,-0.0024764999999999,0.0061035,0.0562045,0.0024765,-0.0061034999999999,-0.1721345,-0.2545865,-0.1193905,0.1340055,-0.2547165,-0.1522514999999999,-0.2104845,-0.7524365,-0.0629484999999999,0.1668155,-0.7509064999999999,-0.0793725,1
150,-0.0342714999999999,0.661097,-0.065941,-0.1821545,0.4976969999999999,-0.074686,-0.2702544999999999,0.765327,-0.147507,0.0996155,0.521177,-0.125997,0.1834855,0.790207,-0.195517,-0.2773644999999999,1.019267,-0.2361369999999999,0.2075755,1.070607,-0.264687,-0.0563545,-0.002873,0.005835,0.0563545,0.002873,-0.005835,-0.1631445,-0.268093,-0.099597,0.1308754999999999,-0.2671329999999999,-0.128867,-0.2053845,-0.766303,-0.05036,0.1678355,-0.7688229999999999,-0.0654879999999999,1
151,-0.0332215,0.664565,-0.0529555,-0.1807625,0.501945,-0.0598575,-0.2674825,0.760815,-0.1316485,0.1054975,0.522875,-0.1097325,0.1871575,0.787615,-0.1800385,-0.2749724999999999,1.0142250000000002,-0.2189185,0.2096375,1.068515,-0.2461084999999999,-0.0570134999999999,-0.003126,0.0056014999999999,0.0570134999999999,0.0031259999999999,-0.0056015,-0.1544125,-0.281985,-0.0807215,0.1279674999999999,-0.279435,-0.1056815,-0.2001625,-0.781065,-0.0378514999999999,0.1675375,-0.781085,-0.0510405,1
152,-0.032544,0.667659,-0.0404545,-0.179489,0.5052490000000001,-0.0450705,-0.264949,0.7558290000000001,-0.1176705,0.1110009999999999,0.524079,-0.0934705,0.190021,0.784559,-0.1653305,-0.272529,1.002699,-0.2013905,0.212521,1.063929,-0.2281205,-0.057849,-0.003308,0.0052415,0.057849,0.0033079999999999,-0.0052415,-0.146329,-0.296781,-0.0626875,0.1252309999999999,-0.291961,-0.0840935,-0.195069,-0.7959510000000001,-0.0251575,0.167061,-0.793531,-0.0364265,1
153,-0.0312294999999999,0.6709445,-0.0286285,-0.1774615,0.5081045,-0.0308685,-0.2616715,0.7515145,-0.1043645,0.1134685,0.5247345,-0.0785565,0.1924285,0.7819345,-0.1514745,-0.2692314999999999,0.9951645,-0.1848445,0.2138285,1.0621445,-0.2099645,-0.0582324999999999,-0.0035325,0.0048705,0.0582324999999999,0.0035325,-0.0048705,-0.1383715,-0.3110655,-0.0462795,0.1228785,-0.3039155,-0.0630225,-0.1894515,-0.8103454999999999,-0.0127994999999999,0.1676985,-0.8067955,-0.0224235,1
154,-0.0300185,0.673861,-0.0172205,-0.1755135,0.5134409999999999,-0.0167435,-0.2587635,0.7475310000000001,-0.0920565,0.1163065,0.526261,-0.0640865,0.1949265,0.778911,-0.1383464999999999,-0.2659835,0.988481,-0.1688265,0.2153365,1.061021,-0.1930664999999999,-0.0587235,-0.0035989999999999,0.0045675,0.0587235,0.003599,-0.0045674999999999,-0.1313435,-0.322959,-0.0317495,0.1210064999999999,-0.314289,-0.0438985,-0.1839235,-0.822879,-0.0009884999999999,0.1685964999999999,-0.818369,-0.0098604999999999,1
155,-0.029487,0.6780619999999999,-0.0060985,-0.174257,0.519582,-0.0024414999999999,-0.257477,0.744262,-0.0801725,0.118673,0.528592,-0.0490205,0.1970029999999999,0.777102,-0.1264025,-0.263537,0.983062,-0.1543425,0.2163429999999999,1.061162,-0.1767125,-0.059217,-0.0038399999999999,0.0041735,0.059217,0.00384,-0.0041734999999999,-0.125597,-0.334398,-0.0183465,0.119063,-0.325258,-0.0265784999999999,-0.178797,-0.8348180000000001,0.0104685,0.169683,-0.830188,0.0021395,1
156,-0.0290385,0.680913,0.0048484999999999,-0.1733205,0.525133,0.0114475,-0.2566505,0.740363,-0.0685305,0.1207794999999999,0.531153,-0.0339015,0.1987895,0.7739429999999999,-0.1152105,-0.2614405,0.977893,-0.1413805,0.2173095,1.060483,-0.1606905,-0.0597515,-0.0040909999999999,0.0037374999999999,0.0597515,0.004091,-0.0037374999999999,-0.1208805,-0.346917,-0.0068184999999999,0.1176295,-0.337147,-0.0118255,-0.1740905,-0.847647,0.0209385,0.1703895,-0.8425670000000001,0.0114075,1
157,-0.029377,0.6854055,0.0100624999999999,-0.172825,0.5295955,0.0185865,-0.256355,0.7359155000000001,-0.0630455,0.124945,0.5358855,-0.0230595,0.200215,0.7725555000000001,-0.1099255,-0.260135,0.9753355,-0.1351355,0.218165,1.0616154999999998,-0.1514855,-0.060137,-0.0041595,0.0037184999999999,0.060137,0.0041595,-0.0037184999999999,-0.117075,-0.3575345,-0.0011145,0.115575,-0.3478045,-0.0035135,-0.170595,-0.8583244999999999,0.0252364999999999,0.171125,-0.8531845,0.0146174999999999,1
158,-0.030494,0.6925275000000001,0.0122655,-0.173145,0.5379675,0.0226045,-0.256585,0.7358575,-0.0608715,0.128085,0.5444475,-0.0150005,0.201625,0.7740275,-0.1077914999999999,-0.259765,0.9766475,-0.1334415,0.219335,1.0629975,-0.1482315,-0.060246,-0.0036244999999999,0.0036245,0.060246,0.0036245,-0.0036245,-0.115245,-0.3634524999999999,0.0002694999999999,0.113965,-0.3538225,-0.0006024999999999,-0.168205,-0.8642925,0.0263725,0.171125,-0.8591125,0.0147785,1
159,-0.031074,0.6939175000000001,0.0141834999999999,-0.173598,0.5379675,0.0249025,-0.256518,0.7358575,-0.0588685,0.129242,0.5444675,-0.0126104999999999,0.203302,0.7740275,-0.1051085,-0.259298,0.9809975,-0.1334885,0.220252,1.0629975,-0.1476184999999999,-0.06023,-0.0036244999999999,0.0036235,0.06023,0.0036245,-0.0036235,-0.114258,-0.3634524999999999,0.0016274999999999,0.1135019999999999,-0.3538225,0.0019945,-0.166768,-0.8642925,0.0275014999999999,0.171442,-0.8572124999999999,0.0147895,1
160,-0.031441,0.6947275,0.0161835,-0.174152,0.5379675,0.0275135,-0.256742,0.7358575,-0.0577665,0.130498,0.5444675,-0.0098504999999999,0.205238,0.7740275,-0.1020924999999999,-0.259152,0.9848975,-0.1335025,0.221188,1.0629975,-0.1477025,-0.060271,-0.0036244999999999,0.0036264999999999,0.060271,0.0036245,-0.0036264999999999,-0.113222,-0.3634524999999999,0.0026645,0.113408,-0.3538225,0.0039295,-0.165292,-0.8642925,0.0286195,0.172228,-0.8572124999999999,0.0146435,1
161,-0.0315635,0.6947275,0.017978,-0.1746475,0.5379675,0.029848,-0.2575375,0.7358575,-0.057706,0.1319824999999999,0.5444675,-0.0074019999999999,0.2074125,0.7740275,-0.099617,-0.2595075,0.9866975,-0.133747,0.2233824999999999,1.0629975,-0.148587,-0.0602265,-0.0036244999999999,0.0033429999999999,0.0602265,0.0036245,-0.0033429999999999,-0.1120975,-0.3634524999999999,0.003117,0.1135525,-0.3538225,0.0052999999999999,-0.1638275,-0.8642925,0.029244,0.1731224999999999,-0.8572124999999999,0.0138879999999999,1
162,-0.0316339999999999,0.6957125,0.0196605,-0.175336,0.5389425,0.0315785,-0.2593459999999999,0.7365625,-0.0585965,0.133094,0.5448725,-0.0056934999999999,0.208794,0.7723125,-0.0980695,-0.261326,0.9892525,-0.1349495,0.226424,1.0606525,-0.1499095,-0.0601789999999999,-0.0034315,0.0032065,0.0601789999999999,0.0034315,-0.0032065,-0.111306,-0.3632975,0.0028784999999999,0.1140539999999999,-0.3538775,0.0049464999999999,-0.162686,-0.8642275,0.0290925,0.174334,-0.8575775,0.0129095,1
163,-0.0315995,0.6967800000000001,0.020889,-0.1761915,0.53821,0.033289,-0.2623715,0.73687,-0.059671,0.1343585,0.54576,-0.0042639999999999,0.2121084999999999,0.76879,-0.0974459999999999,-0.2656915,0.98827,-0.1387959999999999,0.2321685,1.05537,-0.1548459999999999,-0.0602275,-0.003268,0.003098,0.0602275,0.003268,-0.0030979999999999,-0.1108415,-0.36318,0.002338,0.1144385,-0.35402,0.004747,-0.1616115,-0.8642,0.028433,0.1758785,-0.85795,0.011505,1
164,-0.0314025,0.698491,0.0216695,-0.1768045,0.537241,0.0338505,-0.2668844999999999,0.736291,-0.0608525,0.1355555,0.546771,-0.0038774999999999,0.2174954999999999,0.763551,-0.0976045,-0.2719045,0.990951,-0.1471245,0.2396355,1.047751,-0.1630344999999999,-0.0603125,-0.00307,0.0031385,0.0603125,0.00307,-0.0031384999999999,-0.1106145,-0.363059,0.0013925,0.1148955,-0.354219,0.0044295,-0.1605345,-0.864159,0.0271595,0.1772755,-0.859149,0.0101975,0
165,-0.0311654999999999,0.701405,0.0224849999999999,-0.1773914999999999,0.535885,0.034379,-0.2741615,0.733375,-0.063323,0.1367585,0.5453549999999999,-0.001154,0.2255085,0.754555,-0.098478,-0.2809014999999999,0.992785,-0.159088,0.2488085,1.0348350000000002,-0.175258,-0.0603895,-0.002761,0.0030279999999999,0.0603895,0.002761,-0.003028,-0.1104714999999999,-0.362805,0.0001589999999999,0.1158685,-0.3545049999999999,0.003903,-0.1593814999999999,-0.863955,0.025852,0.1782885,-0.8549650000000001,0.008184,0
166,-0.031019,0.7048715,0.0233655,-0.178194,0.5339915,0.0350275,-0.283954,0.7277715,-0.0669565,0.1377459999999999,0.5445215,0.0014675,0.2356359999999999,0.7423315,-0.0997934999999999,-0.2930939999999999,0.9860815,-0.1755334999999999,0.259656,1.0167215,-0.1920135,-0.0604559999999999,-0.0025035,0.0028924999999999,0.0604559999999999,0.0025035,-0.0028924999999999,-0.110514,-0.3625885,-0.0012624999999999,0.116776,-0.3546185,0.0033075,-0.158374,-0.8637885000000001,0.0244135,0.1800759999999999,-0.8549585000000001,0.0059435,0
167,-0.0310635,0.708941,0.024628,-0.1791085,0.531541,0.035664,-0.2960185,0.717161,-0.068746,0.1384915,0.543821,0.004187,0.2475615,0.725481,-0.101266,-0.3082285,0.969721,-0.193146,0.2721415,0.991401,-0.208556,-0.0605254999999999,-0.002319,0.002838,0.0605254999999999,0.002319,-0.002838,-0.1107285,-0.362469,-0.002741,0.1175915,-0.354649,0.0024999999999999,-0.1578185,-0.8636689999999999,0.022976,0.1819315,-0.8548389999999999,0.0035959999999999,0
168,-0.0313045,0.7133525,0.0261365,-0.1801585,0.5289125,0.0364645,-0.3093185,0.7008325,-0.0695525,0.1392015,0.5419125,0.0067795,0.2610114999999999,0.7051625,-0.1033845,-0.3253085,0.9458925,-0.2086245,0.2854615,0.9578925,-0.2292545,-0.0605415,-0.0021794999999999,0.0028194999999999,0.0605415,0.0021795,-0.0028194999999999,-0.1110485,-0.3623475,-0.0043254999999999,0.1181915,-0.3546375,0.0017744999999999,-0.1576285,-0.8635475,0.0214614999999999,0.1827815,-0.8546775,0.0013425,0
169,-0.031786,0.7173470000000001,0.0278289999999999,-0.181447,0.525937,0.0374349999999999,-0.322907,0.6784870000000001,-0.070191,0.139753,0.539537,0.0091949999999999,0.273143,0.6796070000000001,-0.104184,-0.343697,0.911257,-0.220044,0.298693,0.911167,-0.251974,-0.060575,-0.002082,0.0028499999999999,0.060575,0.002082,-0.00285,-0.111547,-0.3622329999999999,-0.005672,0.118623,-0.354583,0.0014169999999999,-0.157607,-0.8634029999999999,0.0204279999999999,0.184243,-0.853103,-0.000371,0
170,-0.0324575,0.7214865,0.029681,-0.1829625,0.5224065,0.038831,-0.3340825,0.6500965000000001,-0.070907,0.1401975,0.5364865000000001,0.0116359999999999,0.2835675,0.6483765,-0.100992,-0.3620825,0.8652365000000001,-0.229662,0.3134475,0.8525965000000001,-0.259592,-0.0606625,-0.0019705,0.0028399999999999,0.0606625,0.0019705,-0.00284,-0.1120724999999999,-0.3620835,-0.006907,0.1188575,-0.3545635,0.0010569999999999,-0.1578425,-0.8632034999999999,0.0194659999999999,0.1852075,-0.8507435,-0.002076,0
171,-0.0332505,0.7260325,0.0318905,-0.1846364999999999,0.5183225,0.0400315,-0.3421565,0.6165225,-0.0706135,0.1405834999999999,0.5329524999999999,0.0138265,0.2903435,0.6135825,-0.0967065,-0.3780365,0.8046425,-0.2323265,0.3270134999999999,0.7850825,-0.2627365,-0.0607655,-0.0020145,0.0028015,0.0607655,0.0020144999999999,-0.0028014999999999,-0.1126365,-0.3620675,-0.0081224999999999,0.1190335,-0.3544075,0.0006885,-0.1582365,-0.8631175,0.0184055,0.1863234999999999,-0.8479275000000001,-0.0002624999999999,0
172,-0.0341804999999999,0.7320399999999999,0.0337719999999999,-0.1863004999999999,0.51533,0.0404739999999999,-0.3469405,0.57766,-0.068533,0.1409495,0.52871,0.015306,0.2938894999999999,0.5754999999999999,-0.090315,-0.3886105,0.734,-0.2331249999999999,0.3334494999999999,0.71429,-0.265065,-0.0608015,-0.002086,0.0027049999999999,0.0608015,0.0020859999999999,-0.0027049999999999,-0.1132205,-0.36201,-0.0092269999999999,0.1191795,-0.35423,-0.000123,-0.1587105,-0.8629800000000001,0.017765,0.1871595,-0.84358,0.00212,0
173,-0.0351149999999999,0.737968,0.035257,-0.187989,0.512218,0.040714,-0.347999,0.536008,-0.065083,0.141061,0.524008,0.016501,0.294631,0.5359579999999999,-0.082183,-0.393219,0.6554479999999999,-0.234255,0.334231,0.632158,-0.2666849999999999,-0.0608169999999999,-0.002236,0.0026389999999999,0.0608169999999999,0.002236,-0.0026389999999999,-0.113789,-0.3620319999999999,-0.010186,0.119391,-0.354002,-0.00084,-0.159199,-0.862942,0.017319,0.187411,-0.838302,0.0048229999999999,0
174,-0.035969,0.7423815,0.0360925,-0.18948,0.5094915,0.0404205,-0.3474199999999999,0.4938915,-0.0586224999999999,0.1409399999999999,0.5219515,0.0151425,0.29546,0.4963815,-0.0729955,-0.3933399999999999,0.5725815000000001,-0.2356135,0.33442,0.5467315,-0.2646335,-0.060805,-0.0025064999999999,0.0027915,0.060805,0.0025065,-0.0027914999999999,-0.11434,-0.3621485,-0.0109625,0.1196599999999999,-0.3536685,-0.0015545,-0.15989,-0.8629884999999999,0.0167985,0.18777,-0.8344385,0.0078745,0
175,-0.0367644999999999,0.746102,0.036293,-0.1906705,0.507132,0.039528,-0.3467205,0.453522,-0.050522,0.1407995,0.5191020000000001,0.013916,0.2962694999999999,0.455412,-0.063697,-0.3933505,0.484792,-0.23548,0.3349695,0.4583419999999999,-0.25809,-0.0608195,-0.0026889999999999,0.0029569999999999,0.0608195,0.002689,-0.002957,-0.1149205,-0.362238,-0.011458,0.1201595,-0.353398,-0.0020079999999999,-0.1607105,-0.8630279999999999,0.0163369999999999,0.1880695,-0.8307479999999999,0.011061,0
176,-0.0376284999999999,0.7493225,0.035556,-0.1919145,0.5053425,0.038508,-0.3458845,0.4143825,-0.0395289999999999,0.1404955,0.5160724999999999,0.012813,0.2953655,0.4163625,-0.052861,-0.3923745,0.4021825,-0.222818,0.3362955,0.3751425,-0.241668,-0.0608505,-0.0027835,0.00308,0.0608505,0.0027835,-0.0030799999999999,-0.1156345,-0.3621475,-0.0117749999999999,0.1205555,-0.3532075,-0.0022479999999999,-0.1616445,-0.8629175,0.015903,0.1882855,-0.8275475,0.01491,0
177,-0.038613,0.7519305000000001,0.0347535,-0.193174,0.5038305000000001,0.0377305,-0.3419339999999999,0.3775104999999999,-0.0256274999999999,0.139496,0.5141605,0.0112795,0.288886,0.3793305,-0.0396755,-0.389444,0.3212405,-0.1999655,0.333496,0.2935905,-0.2156255,-0.060875,-0.0028204999999999,0.0031165,0.060875,0.0028205,-0.0031164999999999,-0.116474,-0.3620095,-0.0118134999999999,0.120826,-0.3530995,-0.0022714999999999,-0.162674,-0.8627495,0.0157555,0.188376,-0.8244094999999999,0.0187895,0
178,-0.0394615,0.7543584999999999,0.033939,-0.1941115,0.5026985,0.036924,-0.3319515,0.3433684999999999,-0.007532,0.1387485,0.5125485,0.009157,0.2784784999999999,0.3481984999999999,-0.0254219999999999,-0.3797415,0.2465085,-0.16653,0.3253684999999999,0.2269185,-0.17914,-0.0609374999999999,-0.0028684999999999,0.0030849999999999,0.0609374999999999,0.0028685,-0.0030849999999999,-0.1171915,-0.3619015,-0.0118529999999999,0.1211785,-0.3530014999999999,-0.002125,-0.1636815,-0.8626315,0.015404,0.1881685,-0.8211715,0.022491,0
179,-0.040106,0.75663,0.0330955,-0.194809,0.50225,0.0360035,-0.317679,0.31521,0.0098935,0.1381909999999999,0.51135,0.0063365,0.2652609999999999,0.32353,-0.0130905,-0.362759,0.1826499999999999,-0.1256864999999999,0.312061,0.17297,-0.1353764999999999,-0.0609969999999999,-0.002931,0.0031025,0.0609969999999999,0.002931,-0.0031024999999999,-0.117799,-0.36184,-0.0119654999999999,0.121571,-0.35285,-0.0019684999999999,-0.164519,-0.8625700000000001,0.0149385,0.1876709999999999,-0.81788,0.0259475,0
180,-0.040661,0.7585375,0.0316105,-0.1953369999999999,0.5022175,0.0344455,-0.301357,0.2926475,0.0260595,0.137703,0.5103274999999999,0.0031125,0.249563,0.3016275,0.0006164999999999,-0.341777,0.1333245,-0.0851395,0.297213,0.1287335,-0.0892135,-0.061007,-0.0028884999999999,0.0031205,0.061007,0.0028885,-0.0031205,-0.118247,-0.3617424999999999,-0.0120785,0.121963,-0.3528024999999999,-0.0017905,-0.165207,-0.8624825,0.0145104999999999,0.186863,-0.8143425000000001,0.0262185,0
181,-0.0412319999999999,0.7601745000000001,0.029295,-0.1958269999999999,0.5024645,0.03248,-0.284237,0.2755745,0.042197,0.137163,0.5093945,-0.000262,0.235373,0.2846345,0.014631,-0.318707,0.0938435,-0.043787,0.280663,0.0901325,-0.046074,-0.060994,-0.0028305,0.003266,0.060994,0.0028304999999999,-0.003266,-0.118647,-0.3616655,-0.012273,0.122263,-0.3527855,-0.0016819999999999,-0.165817,-0.8624354999999999,0.013935,0.186443,-0.8120455,0.026574,0
182,-0.041879,0.761894,0.0264014999999999,-0.19623,0.502894,0.0303755,-0.26923,0.262394,0.0584315,0.13671,0.508954,-0.0034775,0.22321,0.270224,0.0279875,-0.29502,0.063362,-0.0027355,0.2652799999999999,0.064577,-0.0122525,-0.06098,-0.002789,0.0034204999999999,0.06098,0.002789,-0.0034205,-0.11904,-0.361586,-0.0125605,0.12251,-0.352726,-0.0016225,-0.1663899999999999,-0.862386,0.0133245,0.18641,-0.810816,0.0263715,0
183,-0.042496,0.763418,0.023089,-0.196568,0.5031680000000001,0.028647,-0.256988,0.251908,0.072522,0.136402,0.508318,-0.006097,0.215572,0.259088,0.0406669999999999,-0.274318,0.040474,0.032331,0.254122,0.04636,0.0171619999999999,-0.061013,-0.002727,0.0035369999999999,0.061013,0.002727,-0.003537,-0.1193979999999999,-0.361542,-0.01296,0.122752,-0.352692,-0.001563,-0.166648,-0.862342,0.012763,0.186892,-0.810082,0.0259229999999999,0
184,-0.0429685,0.7638265000000001,0.0199109999999999,-0.1968165,0.5033365,0.02776,-0.2484565,0.2418265,0.084704,0.1363835,0.5079965,-0.0076609999999999,0.2105635,0.2523665,0.052081,-0.2599465,0.0267284999999999,0.061706,0.2466035,0.0358614999999999,0.0429569999999999,-0.0610315,-0.0026955,0.003657,0.0610315,0.0026954999999999,-0.003657,-0.1195965,-0.3614835,-0.0135799999999999,0.1230535,-0.3526835,-0.001727,-0.1666765,-0.8622835,0.012077,0.1868235,-0.8086534999999999,0.025908,0
185,-0.0441079999999999,0.7648765,0.014524,-0.1975449999999999,0.5026865,0.023627,-0.222055,0.2296265,0.110827,0.135355,0.5076165,-0.012293,0.1863949999999999,0.2579565,0.079654,-0.2072649999999999,0.0112495,0.132127,0.207645,0.0384515,0.0861,-0.0611,-0.0028665,0.004137,0.0611,0.0028665,-0.004137,-0.119725,-0.3616935,-0.014013,0.123245,-0.3523535,-0.0017269999999999,-0.168055,-0.8624435,0.010765,0.1858449999999999,-0.8075335,0.024678,0
186,-0.0440679999999999,0.7648165,0.0118365,-0.1972529999999999,0.5042965,0.0221155,-0.2194829999999999,0.2330065,0.1215054999999999,0.135597,0.5076965,-0.0135965,0.187257,0.2619464999999999,0.0863755,-0.207543,0.0136514999999999,0.1368755,0.208647,0.0423765,0.0919115,-0.061154,-0.0027895,0.0042765,0.061154,0.0027895,-0.0042765,-0.119513,-0.3617235,-0.0150175,0.123677,-0.3524635,-0.0027385,-0.166633,-0.8625135,0.0106615,0.186397,-0.8075435000000001,0.0218615,0
187,-0.0439605,0.7639819999999999,0.008749,-0.1973165,0.505432,0.0207909999999999,-0.2200565,0.235202,0.123656,0.1357135,0.507422,-0.015117,0.1936835,0.251652,0.095561,-0.2077365,0.0154849999999999,0.1357459999999999,0.2204535,0.041856,0.1485659999999999,-0.0611305,-0.0025389999999999,0.004429,0.0611305,0.0025389999999999,-0.004429,-0.1198465,-0.361508,-0.016487,0.1238835,-0.352768,-0.0037489999999999,-0.1663165,-0.862368,0.009077,0.1865035,-0.807178,0.021025,0
188,-0.0439014999999999,0.763718,0.0067805,-0.1979304999999999,0.505808,0.0206825,-0.2212704999999999,0.235258,0.1255145,0.1358495,0.507678,-0.0158015,0.1980495,0.2492579999999999,0.0980475,-0.2157105,0.016505,0.1471945,0.2198895,0.0360739999999999,0.1412645,-0.0609555,-0.002339,0.0041785,0.0609555,0.002339,-0.0041785,-0.1200405,-0.361272,-0.0171675,0.1238895,-0.353002,-0.0041685,-0.1660505,-0.8621920000000001,0.0081645,0.1871095,-0.805192,0.0231455,0
189,-0.04394,0.763907,0.0060645,-0.1991659999999999,0.505737,0.0226725,-0.223046,0.234647,0.1260665,0.136374,0.507447,-0.0147385,0.203194,0.245517,0.0983245,-0.2178459999999999,0.0154839999999999,0.1449365,0.233804,0.0303529999999999,0.1273965,-0.060868,-0.0021429999999999,0.0038535,0.060868,0.0021429999999999,-0.0038535,-0.120426,-0.360983,-0.0170995,0.124064,-0.353153,-0.0039995,-0.166266,-0.861993,0.0072255,0.190724,-0.814523,0.0190525,0
190,-0.043289,0.7649545,0.0043805,-0.199161,0.5059145,0.0232315,-0.226851,0.2353945,0.1239835,0.137759,0.5078145000000001,-0.0139265,0.216249,0.2400845,0.0845995,-0.236681,0.0149285,0.1290335,0.256819,-0.0092275,0.0961685,-0.0606919999999999,-0.0018885,0.0036405,0.0606919999999999,0.0018885,-0.0036405,-0.120261,-0.3607155,-0.0175785,0.124939,-0.3532655,-0.0044815,-0.164651,-0.8618554999999999,0.0066675,0.1916189999999999,-0.8146154999999999,0.0188635,0
191,-0.0421425,0.7656000000000001,0.0028325,-0.1990805,0.5059400000000001,0.0252885,-0.2429805,0.23149,0.1080445,0.1396795,0.50798,-0.0127175,0.2268095,0.23773,0.0729585,-0.2595705,0.0058439999999999,0.0869915,0.2712595,-0.003839,0.0688735,-0.0603434999999999,-0.0013369999999999,0.0030305,0.0603434999999999,0.0013369999999999,-0.0030305,-0.1196704999999999,-0.3602,-0.0183435,0.1262995,-0.35357,-0.0049945,-0.1642404999999999,-0.8614299999999999,0.0044505,0.1922195,-0.76601,0.0333905,0
