sb224sc-HT22-VT27/4dt907/src/data/labeled_files/A74_kinect.csv
FrameNo,nose_3d_x,nose_3d_y,nose_3d_z,left_shoulder_3d_x,left_shoulder_3d_y,left_shoulder_3d_z,left_elbow_3d_x,left_elbow_3d_y,left_elbow_3d_z,right_shoulder_3d_x,right_shoulder_3d_y,right_shoulder_3d_z,right_elbow_3d_x,right_elbow_3d_y,right_elbow_3d_z,left_wrist_3d_x,left_wrist_3d_y,left_wrist_3d_z,right_wrist_3d_x,right_wrist_3d_y,right_wrist_3d_z,left_hip_3d_x,left_hip_3d_y,left_hip_3d_z,right_hip_3d_x,right_hip_3d_y,right_hip_3d_z,left_knee_3d_x,left_knee_3d_y,left_knee_3d_z,right_knee_3d_x,right_knee_3d_y,right_knee_3d_z,left_ankle_3d_x,left_ankle_3d_y,left_ankle_3d_z,right_ankle_3d_x,right_ankle_3d_y,right_ankle_3d_z,activity_label
0,-0.039332,0.7644315,0.032879,-0.198181,0.5052815,0.022338,-0.254711,0.2514015,0.026626,0.142789,0.5033215,0.009884,0.212809,0.2419215,0.008465,-0.244701,0.0299945,-0.067921,0.234889,0.0296525,-0.0859009999999999,-0.061197,-0.0023185,-0.0009469999999999,0.061197,0.0023185,0.000947,-0.120331,-0.3603685,-0.0133409999999999,0.130039,-0.3521984999999999,-0.0002779999999999,-0.171081,-0.8598085,0.021565,0.187659,-0.8517385,0.023237,0
1,-0.0393219999999999,0.7645895,0.0327985,-0.1983879999999999,0.5053095,0.0221535,-0.254618,0.2515394999999999,0.0263385,0.142822,0.5035895,0.0092955,0.213612,0.2414694999999999,0.0076085,-0.240338,0.0243684999999999,-0.0683945,0.235232,0.0285824999999999,-0.0834444999999999,-0.061175,-0.0023854999999999,-0.0008605,0.061175,0.0023854999999999,0.0008605,-0.1204379999999999,-0.3604105,-0.0132124999999999,0.129822,-0.3521705,-0.0003104999999999,-0.170538,-0.8599505000000001,0.0213115,0.197682,-0.8980505,0.0271465,0
2,-0.039384,0.764647,0.0330505,-0.198654,0.505177,0.0219665,-0.254224,0.252467,0.0257865,0.142776,0.5038769999999999,0.0086445,0.213686,0.241177,0.0055325,-0.239004,0.023792,-0.0680495,0.235186,0.026158,-0.0825895,-0.06112,-0.002398,-0.0007554999999999,0.06112,0.002398,0.0007554999999999,-0.120654,-0.3603929999999999,-0.0132204999999999,0.126736,-0.3521729999999999,0.0045965,-0.1683239999999999,-0.8597830000000001,0.0250075,0.197886,-0.895633,0.0252095,0
3,-0.0393295,0.764807,0.033455,-0.1989425,0.505217,0.0217179999999999,-0.2531624999999999,0.254687,0.0221769999999999,0.1427975,0.504237,0.0077949999999999,0.2129075,0.2434069999999999,-3.900000000000431e-05,-0.2356925,0.020754,-0.069193,0.2352175,0.0238519999999999,-0.084133,-0.0611525,-0.002474,-0.000775,0.0611525,0.002474,0.0007749999999999,-0.1207724999999999,-0.360453,-0.013195,0.1286975,-0.352163,0.000895,-0.1693625,-0.8598129999999999,0.0244969999999999,0.1976274999999999,-0.895833,0.02533,0
4,-0.0389105,0.765381,0.0353665,-0.1994225,0.505111,0.0208855,-0.2510225,0.2572709999999999,0.0163455,0.1426675,0.5044109999999999,0.0065705,0.2115975,0.245351,-0.0077084999999999,-0.2334025,0.0212769999999999,-0.0715875,0.2336575,0.026469,-0.0874375,-0.0612125,-0.0026179999999999,-0.0008144999999999,0.0612125,0.0026179999999999,0.0008145,-0.1210425,-0.360569,-0.0133824999999999,0.1285175,-0.352129,0.0003675,-0.1698625,-0.859989,0.0235555,0.1974074999999999,-0.895879,0.0245795,0
5,-0.0389635,0.7655495,0.0359725,-0.2000485,0.5048995000000001,0.0196504999999999,-0.2456785,0.2629695,-0.0010375,0.1424115,0.5044395,0.0055954999999999,0.2066615,0.2548195,-0.0276625,-0.2289185,0.0211695,-0.0834145,0.2302615,0.0304355,-0.1045144999999999,-0.0611504999999999,-0.0027064999999999,-0.0006265,0.0611504999999999,0.0027064999999999,0.0006264999999999,-0.1213284999999999,-0.3606505,-0.0138455,0.1282415,-0.3521205,-0.0001795,-0.1700984999999999,-0.8600504999999999,0.0232485,0.1965315,-0.8970505,0.0232104999999999,0
6,-0.038761,0.7661215,0.03863,-0.200487,0.5047615000000001,0.018536,-0.244187,0.2680015,-0.015115,0.141953,0.5045815,0.004389,0.198553,0.2720415,-0.042324,-0.2251469999999999,0.0338015,-0.121087,0.226243,0.0542285,-0.153267,-0.06116,-0.0027885,-0.0002249999999999,0.06116,0.0027885,0.0002249999999999,-0.121707,-0.3607285,-0.0143299999999999,0.126393,-0.3520185,0.002699,-0.170747,-0.8600184999999999,0.023627,0.196173,-0.8969284999999999,0.0223,0
7,-0.0378994999999999,0.7652565,0.0428195,-0.1983105,0.5049665,0.0177755,-0.2549905,0.2951665,-0.0565074999999999,0.1401695,0.5052865,0.0047075,0.2065695,0.2926165,-0.0763534999999999,-0.2431605,0.0953205,-0.2006135,0.2238995,0.1234065,-0.2178034999999999,-0.0613005,-0.0026395,-3.249999999999781e-05,0.0613005,0.0026395,3.250000000000128e-05,-0.1217705,-0.3606235,-0.0144024999999999,0.1280895,-0.3521035,0.0014585,-0.1696105,-0.8601535,0.0204775,0.1947795,-0.8960135,0.0240465,0
8,-0.0374545,0.7650100000000001,0.0454365,-0.1974334999999999,0.5049800000000001,0.0169614999999999,-0.2563335,0.3111399999999999,-0.0792335,0.1389765,0.50595,0.0039944999999999,0.2057165,0.31334,-0.0985534999999999,-0.2433735,0.12371,-0.2352635,0.2198365,0.1628399999999999,-0.2565635,-0.0613645,-0.002682,2.4500000000000216e-05,0.0613645,0.002682,-2.4500000000000216e-05,-0.1219135,-0.36066,-0.0146255,0.1278865,-0.35211,0.0011374999999999,-0.1695434999999999,-0.8602799999999999,0.0198255,0.1955165,-0.89643,0.0235955,0
9,-0.037033,0.7647035000000001,0.0480495,-0.19638,0.5049635,0.0164085,-0.25851,0.3325635,-0.1017024999999999,0.13747,0.5066335000000001,0.0036365,0.20514,0.3395435,-0.1209425,-0.24391,0.1654535,-0.2726725,0.2154,0.2133035,-0.2954825,-0.061439,-0.0027105,0.0001074999999999,0.061439,0.0027105,-0.0001074999999999,-0.12206,-0.3606965,-0.0148995,0.12771,-0.3521365,0.0006705,-0.16944,-0.8603864999999999,0.0191795,0.19541,-0.8963565,0.0229115,0
10,-0.0365319999999999,0.7642905,0.050811,-0.194825,0.5048705,0.016457,-0.260855,0.3590405,-0.123151,0.1358549999999999,0.5076005,0.003898,0.2044049999999999,0.3694405,-0.141451,-0.245285,0.2217105,-0.310061,0.211225,0.2733405,-0.330491,-0.061532,-0.0027124999999999,0.000241,0.061532,0.0027125,-0.0002409999999999,-0.122125,-0.3607194999999999,-0.0151419999999999,0.127595,-0.3521895,-0.0001549999999999,-0.169395,-0.8604895,0.018381,0.1953349999999999,-0.8966095,0.022369,0
11,-0.0359634999999999,0.7635850000000001,0.0533494999999999,-0.1928274999999999,0.504985,0.0172184999999999,-0.2632875,0.390755,-0.1415365,0.1343025,0.509015,0.0048565,0.2037125,0.402605,-0.1586865,-0.2470175,0.287925,-0.3399765,0.2067525,0.342065,-0.3571565,-0.0615514999999999,-0.0026789999999999,0.0003534999999999,0.0615514999999999,0.002679,-0.0003535,-0.1220675,-0.3607249999999999,-0.0153044999999999,0.1275425,-0.352305,-0.0007005,-0.1690974999999999,-0.860575,0.0176744999999999,0.1951425,-0.897195,0.0223785,0
12,-0.035422,0.7627565,0.0555859999999999,-0.1907579999999999,0.5050965,0.018335,-0.265418,0.4265165,-0.154661,0.132702,0.5103965,0.006233,0.202692,0.4400865,-0.169701,-0.2483979999999999,0.3637165,-0.359801,0.202232,0.4158265,-0.376021,-0.061551,-0.0026425,0.000365,0.061551,0.0026425,-0.0003649999999999,-0.121958,-0.3607335,-0.015349,0.127532,-0.3524235,-0.0009049999999999,-0.1687479999999999,-0.8606735,0.017296,0.194252,-0.8977635,0.022218,0
13,-0.034984,0.761268,0.0571465,-0.188782,0.505678,0.0198895,-0.267862,0.465428,-0.1627485,0.131118,0.5129779999999999,0.0081845,0.201928,0.480468,-0.1761785,-0.250092,0.443588,-0.3687485,0.197778,0.492678,-0.3834185,-0.061555,-0.0025989999999999,0.0002774999999999,0.061555,0.0025989999999999,-0.0002774999999999,-0.121792,-0.360782,-0.0154034999999999,0.127438,-0.352562,-0.0009874999999999,-0.168602,-0.860792,0.0170075,0.193298,-0.898852,0.0221775,0
14,-0.0346025,0.759076,0.0576675,-0.1869735,0.506986,0.0216695,-0.2703335,0.505106,-0.1666315,0.1296365,0.515796,0.0102055,0.2019264999999999,0.521076,-0.1774715,-0.2522635,0.526096,-0.3686415,0.1932865,0.571176,-0.3831915,-0.0616135,-0.002569,0.0002805,0.0616135,0.002569,-0.0002804999999999,-0.1215935,-0.360864,-0.0154134999999999,0.1274865,-0.3527139999999999,-0.0012315,-0.1684135,-0.860974,0.0166205,0.1921665,-0.900574,0.0222335,0
15,-0.0341864999999999,0.756519,0.0576465,-0.1852875,0.508739,0.0234905,-0.2720375,0.545229,-0.1665495,0.1283824999999999,0.518549,0.0121745,0.2020924999999999,0.562139,-0.1774795,-0.2541474999999999,0.601449,-0.3685495,0.1885224999999999,0.647919,-0.3829595,-0.0616985,-0.002524,0.0002845,0.0616985,0.002524,-0.0002845,-0.1212574999999999,-0.3609409999999999,-0.0154294999999999,0.1275224999999999,-0.352911,-0.0017975,-0.1680675,-0.861101,0.0162495,0.1922724999999999,-0.8958309999999999,0.0210895,0
16,-0.0337955,0.7536565000000001,0.0577079999999999,-0.1837925,0.5107865,0.0252499999999999,-0.2733724999999999,0.5803865,-0.166401,0.1272974999999999,0.5212465000000001,0.013862,0.2023374999999999,0.6013665,-0.177411,-0.2560325,0.6751865,-0.368371,0.1850274999999999,0.7233565000000001,-0.3827009999999999,-0.0617675,-0.0024045,0.0002069999999999,0.0617675,0.0024045,-0.0002069999999999,-0.1208225,-0.3609635,-0.015371,0.1275474999999999,-0.3531335,-0.002423,-0.1676325,-0.8611535,0.0163089999999999,0.1921175,-0.8912235,0.020033,0
17,-0.0335235,0.7509725,0.0579709999999999,-0.1826665,0.5131425000000001,0.0269349999999999,-0.2741165,0.6179025,-0.1660879999999999,0.1264935,0.5241425,0.0152679999999999,0.2019835,0.6362925,-0.177118,-0.2574865,0.7527725,-0.365118,0.1816535,0.7925825,-0.379258,-0.0618095,-0.0021964999999999,-5.400000000000196e-05,0.0618095,0.0021965,5.3999999999998494e-05,-0.1203964999999999,-0.3608975,-0.015371,0.1275235,-0.3534675,-0.002898,-0.1670965,-0.8611075,0.01647,0.1917935,-0.8865575,0.0189599999999999,0
18,-0.033293,0.74784,0.058026,-0.18179,0.5152,0.028696,-0.27376,0.65037,-0.163603,0.12591,0.5274,0.016662,0.20105,0.66611,-0.1734129999999999,-0.25788,0.81967,-0.355523,0.17895,0.85217,-0.366603,-0.061827,-0.002145,-0.0003829999999999,0.061827,0.002145,0.000383,-0.11999,-0.36097,-0.015273,0.12729,-0.35367,-0.0031589999999999,-0.16652,-0.86121,0.01689,0.19276,-0.89112,0.018578,0
19,-0.0331655,0.7446309999999999,0.0574405,-0.1813925,0.517691,0.0301905,-0.2732024999999999,0.679491,-0.1555655,0.1253874999999999,0.530461,0.0178705,0.1998575,0.6925209999999999,-0.1654855,-0.2569025,0.8733409999999999,-0.3388355,0.1765475,0.903391,-0.3425455,-0.0618315,-0.002137,-0.0006535,0.0618315,0.002137,0.0006535,-0.1196325,-0.361089,-0.0150595,0.1268875,-0.353839,-0.0032785,-0.1659824999999999,-0.861349,0.0174865,0.1914274999999999,-0.886669,0.0182295,0
20,-0.033038,0.7413445000000001,0.056464,-0.181061,0.5197645000000001,0.031505,-0.272481,0.7024045,-0.144465,0.124699,0.5334645,0.019063,0.197889,0.7144045,-0.153385,-0.2557709999999999,0.9176745,-0.3196949999999999,0.175029,0.9440745,-0.315115,-0.061803,-0.0021454999999999,-0.0010529999999999,0.061803,0.0021455,0.001053,-0.1192409999999999,-0.3611955,-0.0147039999999999,0.126399,-0.3539955,-0.0030729999999999,-0.1653309999999999,-0.8614855,0.018203,0.189929,-0.8822355,0.018075,0
21,-0.03304,0.7376365,0.0551225,-0.180814,0.5212165,0.0332765,-0.270924,0.7203265000000001,-0.1317215,0.124086,0.5370165,0.0208515,0.1956659999999999,0.7317965,-0.1387915,-0.254434,0.9522265,-0.2944115,0.174096,0.9758765,-0.2854815,-0.0617569999999999,-0.0022625,-0.0014674999999999,0.0617569999999999,0.0022625,0.0014675,-0.118864,-0.3614035,-0.0141654999999999,0.1259559999999999,-0.3540535,-0.0025135,-0.164614,-0.8617435,0.0191765,0.1884259999999999,-0.8773835000000001,0.0195745,0
22,-0.0331345,0.734516,0.05372,-0.1806425,0.522026,0.0350539999999999,-0.2693425,0.732386,-0.117084,0.1235375,0.539316,0.022799,0.1922475,0.750066,-0.1235739999999999,-0.2547925,0.978996,-0.266384,0.1736175,1.001896,-0.255734,-0.0616955,-0.0023579999999999,-0.001909,0.0616955,0.0023579999999999,0.0019089999999999,-0.1185925,-0.361534,-0.013486,0.1255075,-0.354124,-0.002028,-0.1639525,-0.861934,0.0203199999999999,0.1869875,-0.8714540000000001,0.0192689999999999,0
23,-0.033343,0.731891,0.052404,-0.180699,0.5221009999999999,0.036896,-0.267999,0.7422909999999999,-0.1029429999999999,0.1232409999999999,0.541431,0.024833,0.188811,0.7657609999999999,-0.1097929999999999,-0.255199,0.999241,-0.239863,0.173571,1.020941,-0.227533,-0.061715,-0.0024179999999999,-0.002401,0.061715,0.002418,0.002401,-0.118369,-0.3616089999999999,-0.01279,0.125091,-0.354249,-0.001458,-0.163489,-0.862039,0.0213679999999999,0.185751,-0.868019,0.020926,0
24,-0.0335875,0.7294339999999999,0.051349,-0.1806865,0.5215339999999999,0.038617,-0.2662164999999999,0.7483839999999999,-0.089758,0.1230735,0.5438639999999999,0.0268,0.1857035,0.778664,-0.0986979999999999,-0.2559464999999999,1.012984,-0.215278,0.1736734999999999,1.034484,-0.2017179999999999,-0.0617375,-0.0025429999999999,-0.002852,0.0617375,0.002543,0.002852,-0.1180965,-0.361726,-0.0122289999999999,0.1246635,-0.3542659999999999,-0.000966,-0.1628065,-0.862176,0.022133,0.1847935,-0.864206,0.022636,0
25,-0.0337579999999999,0.727171,0.0507015,-0.180722,0.5205010000000001,0.0402335,-0.264762,0.752551,-0.0774575,0.123128,0.5463210000000001,0.0282904999999999,0.182858,0.790581,-0.0889175,-0.256802,1.022491,-0.1936175,0.173768,1.044491,-0.1805675,-0.061741,-0.0027719999999999,-0.0032255,0.061741,0.002772,0.0032254999999999,-0.117882,-0.361939,-0.0117525,0.124258,-0.354209,-0.0004445,-0.162172,-0.8623890000000001,0.0228654999999999,0.184868,-0.867159,0.0246085,0
26,-0.034002,0.7249635,0.050554,-0.1807659999999999,0.5190435,0.041712,-0.263526,0.7541835,-0.066384,0.123084,0.5485335,0.029714,0.180134,0.8006435000000001,-0.081174,-0.257596,1.0280235,-0.175534,0.173884,1.0514234999999998,-0.163324,-0.061643,-0.0030535,-0.003498,0.061643,0.0030535,0.003498,-0.117706,-0.3621864999999999,-0.011236,0.1237839999999999,-0.3540465,2.2000000000001185e-05,-0.161676,-0.8626564999999999,0.023545,0.184834,-0.8699264999999999,0.026223,0
27,-0.0343804999999999,0.723088,0.0509035,-0.1809764999999999,0.517848,0.0429445,-0.2624465,0.7550779999999999,-0.0567265,0.1228835,0.550578,0.0311734999999999,0.1772635,0.810408,-0.0748635,-0.2583865,1.031408,-0.1603035,0.1738235,1.057708,-0.1487435,-0.0615135,-0.00316,-0.0036585,0.0615135,0.0031599999999999,0.0036584999999999,-0.1176565,-0.362262,-0.0108035,0.1232835,-0.3540419999999999,0.0005734999999999,-0.1614865,-0.8627520000000001,0.0240854999999999,0.1847335,-0.871942,0.0288964999999999,0
28,-0.0347325,0.7213855,0.0517945,-0.1812735,0.5162855000000001,0.0442145,-0.2614135,0.7535655,-0.0472015,0.1225965,0.5524655,0.0327065,0.1745765,0.8184555,-0.0699495,-0.2590135,1.0335055,-0.1476895,0.1736965,1.0628055,-0.1376695,-0.0614035,-0.0032464999999999,-0.0038014999999999,0.0614035,0.0032464999999999,0.0038014999999999,-0.1177034999999999,-0.3623245,-0.0103964999999999,0.1226765,-0.3540545,0.0009825,-0.1614435,-0.8628245,0.0245895,0.1843365,-0.8732645,0.0315485,0
29,-0.035126,0.7202235,0.0527605,-0.181627,0.5151935,0.0454115,-0.260597,0.7525335,-0.0406534999999999,0.122433,0.5539935,0.0342175,0.1719629999999999,0.8262135,-0.0661335,-0.259617,1.0339235,-0.1374335,0.173613,1.0672235,-0.1290935,-0.0612609999999999,-0.0033535,-0.0038174999999999,0.0612609999999999,0.0033534999999999,0.0038175,-0.117877,-0.3623765,-0.0101575,0.122153,-0.3540165,0.0012445,-0.161617,-0.8628965,0.0249865,0.1837629999999999,-0.8738765,0.0343795,0
30,-0.0355635,0.7193295000000001,0.0535159999999999,-0.1819744999999999,0.5142595,0.0465509999999999,-0.2601045,0.7517095,-0.034873,0.1221754999999999,0.5547095,0.0355719999999999,0.1698355,0.8329495,-0.063658,-0.2603945,1.0335895,-0.129728,0.1734755,1.0709895,-0.122388,-0.0611215,-0.0033184999999999,-0.003853,0.0611215,0.0033185,0.0038529999999999,-0.1181245,-0.3623004999999999,-0.010076,0.1215855,-0.3541205,0.0013389999999999,-0.1618445,-0.8627805,0.0251149999999999,0.1831955,-0.8733704999999999,0.0349829999999999,0
31,-0.035952,0.7185475,0.054095,-0.182223,0.5134675000000001,0.047616,-0.259753,0.7509475000000001,-0.0299059999999999,0.122107,0.5551275,0.036933,0.168877,0.8337975000000001,-0.060819,-0.261143,1.0331375,-0.1232789999999999,0.173287,1.0732374999999998,-0.117799,-0.061002,-0.0032804999999999,-0.0039179999999999,0.061002,0.0032805,0.003918,-0.1183529999999999,-0.3622125,-0.0101139999999999,0.1211569999999999,-0.3542225,0.001552,-0.162053,-0.8626824999999999,0.025097,0.182937,-0.8739524999999999,0.037394,0
32,-0.036216,0.717675,0.0548634999999999,-0.182466,0.512515,0.0486485,-0.259486,0.750475,-0.0258525,0.122364,0.555305,0.0384725,0.167964,0.834525,-0.0581065,-0.261906,1.032855,-0.1184565,0.173064,1.074855,-0.1144965,-0.060896,-0.0032489999999999,-0.0039485,0.060896,0.003249,0.0039485,-0.118596,-0.362125,-0.0102085,0.120784,-0.354265,0.0016884999999999,-0.162286,-0.862595,0.0251565,0.1826539999999999,-0.874865,0.0399365,0
33,-0.0363685,0.7172725,0.0561015,-0.1826345,0.5120525,0.0494255,-0.2593445,0.7501925,-0.0227165,0.1225555,0.5550025,0.0396534999999999,0.1672455,0.8348825,-0.0561595,-0.2624145,1.0327325,-0.1148375,0.1728555,1.0764325,-0.1126875,-0.0608085,-0.0031725,-0.0039955,0.0608085,0.0031724999999999,0.0039954999999999,-0.1189445,-0.3620075,-0.0102125,0.1206255,-0.3543875,0.0018364999999999,-0.1626145,-0.8624575,0.0255134999999999,0.1818555,-0.8727775,0.0415155,0
34,-0.036514,0.716993,0.057266,-0.18282,0.5116229999999999,0.0500749999999999,-0.25925,0.749943,-0.0204519999999999,0.12274,0.5548029999999999,0.0406539999999999,0.16652,0.834923,-0.054464,-0.26285,1.032633,-0.111997,0.17277,1.078033,-0.111227,-0.0607479999999999,-0.003052,-0.0040649999999999,0.0607479999999999,0.0030519999999999,0.0040649999999999,-0.11928,-0.361837,-0.010263,0.12037,-0.354527,0.0019649999999999,-0.1629,-0.862307,0.0256379999999999,0.18158,-0.875407,0.04387,0
35,-0.0366455,0.717143,0.0583075,-0.1830255,0.511533,0.0505625,-0.2591655,0.750123,-0.0185944999999999,0.1226845,0.554643,0.0412295,0.1658945,0.8351230000000001,-0.0528904999999999,-0.2632155,1.032823,-0.1098754999999999,0.1727544999999999,1.079623,-0.1102354999999999,-0.0607285,-0.0030019999999999,-0.0040964999999999,0.0607285,0.003002,0.0040965,-0.1195855,-0.361737,-0.0103744999999999,0.1200944999999999,-0.354617,0.0019765,-0.1631355,-0.862307,0.0256135,0.1814045,-0.877847,0.0443895,0
36,-0.036606,0.7168205,0.0592565,-0.183094,0.5112305,0.0509835,-0.259144,0.7498805,-0.0172515,0.122666,0.5548005,0.0416184999999999,0.165466,0.8352505,-0.0515785,-0.2633939999999999,1.0326005,-0.1086995,0.172896,1.0810005,-0.1093794999999999,-0.060729,-0.0029684999999999,-0.0041414999999999,0.060729,0.0029684999999999,0.0041414999999999,-0.119824,-0.3616595,-0.0103535,0.1197959999999999,-0.3546595,0.0020364999999999,-0.163364,-0.8622095,0.0256234999999999,0.181176,-0.8797895,0.0444455,0
37,-0.036588,0.7165374999999999,0.0600825,-0.183138,0.5110874999999999,0.0513155,-0.2591279999999999,0.7496674999999999,-0.0162235,0.122642,0.5549175,0.0418754999999999,0.1651119999999999,0.8353575,-0.0505495,-0.263518,1.0323175,-0.1077004999999999,0.173032,1.0821175,-0.1087205,-0.060741,-0.0029515,-0.0041404999999999,0.060741,0.0029514999999999,0.0041404999999999,-0.119998,-0.3616525,-0.0103445,0.119402,-0.3546825,0.0020565,-0.163578,-0.8621025,0.0254715,0.180722,-0.8800725,0.0444685,0
38,-0.036522,0.716275,0.0608335,-0.183137,0.510915,0.0515715,-0.259087,0.7494149999999999,-0.0154644999999999,0.122643,0.554485,0.0420075,0.164823,0.835325,-0.0495565,-0.263567,1.032145,-0.1070165,0.173233,1.083145,-0.1081765,-0.060774,-0.002949,-0.0041384999999999,0.060774,0.002949,0.0041385,-0.1201069999999999,-0.361625,-0.0103384999999999,0.1191329999999999,-0.354685,0.0021925,-0.163777,-0.862055,0.0250005,0.180533,-0.8804150000000001,0.0450235,0
39,-0.0364255,0.7165295,0.061419,-0.1830765,0.5107795,0.051705,-0.2588864999999999,0.7497395,-0.014941,0.1226935,0.5536995,0.042004,0.1646835,0.8348895000000001,-0.0487629999999999,-0.2635964999999999,1.0324595,-0.106622,0.1738435,1.0830594999999998,-0.107802,-0.0607884999999999,-0.0029785,-0.004206,0.0607884999999999,0.0029784999999999,0.004206,-0.1203365,-0.3616405,-0.010395,0.1189335,-0.3547105,0.0025089999999999,-0.1639765,-0.8621105,0.024609,0.1801135,-0.8788305,0.045577,0
40,-0.0363135,0.716834,0.0618465,-0.1829925,0.510664,0.0517205,-0.2586624999999999,0.750114,-0.0146294999999999,0.1227575,0.552924,0.0419325,0.1646775,0.834394,-0.0485975,-0.2635825,1.032744,-0.1063964999999999,0.1744775,1.083244,-0.1074764999999999,-0.0608024999999999,-0.0029819999999999,-0.0042704999999999,0.0608024999999999,0.0029819999999999,0.0042705,-0.1205425,-0.361636,-0.0104635,0.1188275,-0.354736,0.0027794999999999,-0.1641524999999999,-0.862166,0.0241815,0.1797175,-0.877716,0.0461125,0
41,-0.0362265,0.7172765,0.062061,-0.1829225,0.5106164999999999,0.051578,-0.2584425,0.7506065,-0.014469,0.1228275,0.5522064999999999,0.0417759999999999,0.1646875,0.8339565,-0.048581,-0.2635425,1.0331565,-0.106464,0.1750775,1.0835565,-0.107364,-0.0608075,-0.0029705,-0.004367,0.0608075,0.0029705,0.0043669999999999,-0.1207325,-0.3616034999999999,-0.010551,0.1187575,-0.3547635,0.0029999999999999,-0.1643225,-0.8621635000000001,0.023842,0.1794875,-0.8759135,0.045654,0
42,-0.036136,0.7177235000000001,0.0619829999999999,-0.182825,0.5105835000000001,0.051303,-0.258235,0.7510535,-0.0146709999999999,0.122915,0.5519235,0.041503,0.1646949999999999,0.8338235,-0.048876,-0.263465,1.0336235,-0.106821,0.175735,1.0838235,-0.107441,-0.060832,-0.0029705,-0.0043769999999999,0.060832,0.0029705,0.0043769999999999,-0.120895,-0.3615965,-0.0106739999999999,0.118865,-0.3547464999999999,0.002922,-0.164435,-0.8622265,0.023309,0.1795149999999999,-0.8760465,0.04581,0
43,-0.0360879999999999,0.7181655,0.0618689999999999,-0.182726,0.5105755,0.051024,-0.258036,0.7515054999999999,-0.014968,0.122944,0.5516955,0.041213,0.164744,0.8334455,-0.049125,-0.263366,1.0340055,-0.107222,0.176354,1.0837055,-0.107512,-0.060856,-0.0029755,-0.004383,0.060856,0.0029754999999999,0.0043829999999999,-0.121056,-0.3615945,-0.01079,0.118944,-0.3547145,0.0030479999999999,-0.164496,-0.8623345,0.0223979999999999,0.179554,-0.8763945000000001,0.045986,0
44,-0.036042,0.7185915,0.061699,-0.182657,0.5105915,0.050709,-0.257827,0.7519815,-0.01535,0.122973,0.5515615,0.040865,0.164803,0.8328615,-0.049418,-0.263217,1.0343715000000002,-0.107652,0.1769629999999999,1.0835715,-0.107662,-0.060896,-0.0029845,-0.004373,0.060896,0.0029845,0.0043729999999999,-0.121197,-0.3615685,-0.0108779999999999,0.118893,-0.3547285,0.0031269999999999,-0.164567,-0.8624185,0.021435,0.179833,-0.8739985,0.043354,0
45,-0.0359245,0.71902,0.0614605,-0.1825045,0.51071,0.0503875,-0.2575745,0.7524500000000001,-0.0157835,0.1231454999999999,0.5514100000000001,0.0405434999999999,0.1649354999999999,0.83226,-0.0497115,-0.2629845,1.03472,-0.1081995,0.1775155,1.08342,-0.1079995,-0.0609045,-0.003003,-0.0043614999999999,0.0609045,0.003003,0.0043614999999999,-0.1212945,-0.36156,-0.0109855,0.1188955,-0.35472,0.0031665,-0.1646945,-0.86247,0.0209665,0.1798855,-0.87471,0.0447735,0
46,-0.03576,0.7192890000000001,0.0612215,-0.182287,0.510839,0.0500215,-0.257257,0.752769,-0.0162825,0.123373,0.551309,0.0402495,0.165233,0.8270890000000001,-0.0485305,-0.262687,1.034919,-0.1088794999999999,0.178083,1.082819,-0.1083695,-0.0608859999999999,-0.003012,-0.0043454999999999,0.0608859999999999,0.003012,0.0043455,-0.121327,-0.361591,-0.0110745,0.118933,-0.3547209999999999,0.0031354999999999,-0.164717,-0.862571,0.0204845,0.179703,-0.8751709999999999,0.0448345,0
47,-0.0355889999999999,0.719465,0.060918,-0.1820739999999999,0.510915,0.049656,-0.256944,0.752965,-0.016816,0.1236159999999999,0.551355,0.039979,0.165556,0.821925,-0.047425,-0.262364,1.035005,-0.109684,0.178686,1.081905,-0.108784,-0.060887,-0.0030179999999999,-0.004331,0.060887,0.003018,0.004331,-0.121364,-0.361615,-0.011209,0.118986,-0.3547349999999999,0.0030699999999999,-0.164764,-0.862625,0.019968,0.179776,-0.8764149999999999,0.044934,0
48,-0.035372,0.719302,0.0604495,-0.181899,0.510942,0.0493085,-0.256769,0.7528020000000001,-0.0174415,0.1238509999999999,0.551272,0.0397235,0.165881,0.816102,-0.0463624999999999,-0.262219,1.034782,-0.1104975,0.178921,1.079282,-0.1094775,-0.060892,-0.0029779999999999,-0.0042724999999999,0.060892,0.002978,0.0042724999999999,-0.121249,-0.361568,-0.0114384999999999,0.119081,-0.3547979999999999,0.0026754999999999,-0.164839,-0.862598,0.0194255,0.179981,-0.8782479999999999,0.0449785,0
49,-0.035115,0.719187,0.0599435,-0.181699,0.510977,0.0489085,-0.256569,0.752697,-0.0180894999999999,0.124111,0.551117,0.0393955,0.166211,0.810167,-0.0455115,-0.2619889999999999,1.0346069999999998,-0.1114735,0.1791809999999999,1.076307,-0.1101835,-0.060878,-0.0029099999999999,-0.0042115,0.060878,0.0029099999999999,0.0042115,-0.121119,-0.361533,-0.0117014999999999,0.119181,-0.354893,0.0023025,-0.1649089999999999,-0.862553,0.0190555,0.180161,-0.878443,0.0443835,0
50,-0.034866,0.7191525,0.0593279999999999,-0.181509,0.5110325,0.0484669999999999,-0.2563689999999999,0.7526625,-0.018774,0.124361,0.5510225,0.0389109999999999,0.166711,0.8042825,-0.044886,-0.261729,1.0345125,-0.112525,0.179471,1.0735125,-0.1109349999999999,-0.060874,-0.0028605,-0.004083,0.060874,0.0028605,0.0040829999999999,-0.120919,-0.3615275,-0.011888,0.119261,-0.3549675,0.0019369999999999,-0.164699,-0.8625875,0.0190939999999999,0.180091,-0.8783475,0.0438509999999999,0
51,-0.0346615,0.7195285,0.0588295,-0.1813185,0.5111884999999999,0.0481685,-0.2561485,0.7527685,-0.0193655,0.1245515,0.5511085,0.0385225,0.1673115,0.7980885,-0.0441865,-0.2614685,1.0343585,-0.1137525,0.1798615,1.0714585,-0.1117124999999999,-0.0608615,-0.0028944999999999,-0.0040655,0.0608615,0.0028945,0.0040655,-0.1207185,-0.3615615,-0.0119734999999999,0.1192715,-0.3549415,0.0014855,-0.1645685,-0.8626215,0.0188855,0.1801315,-0.8791015,0.0433594999999999,0
52,-0.034408,0.719618,0.05824,-0.181098,0.511268,0.047748,-0.255878,0.752888,-0.0201659999999999,0.124802,0.551188,0.038027,0.167922,0.791868,-0.043761,-0.261088,1.033888,-0.11545,0.180162,1.069488,-0.1127999999999999,-0.060866,-0.002902,-0.0039949999999999,0.060866,0.002902,0.0039949999999999,-0.120478,-0.361582,-0.012004,0.119282,-0.354922,0.0009079999999999,-0.164428,-0.8626320000000001,0.018562,0.180342,-0.881502,0.042772,0
53,-0.0340945,0.7197465,0.057429,-0.1808785,0.5113865,0.04706,-0.2555785,0.7530465,-0.0212609999999999,0.1250615,0.5512265,0.037304,0.1685515,0.7908465,-0.0445009999999999,-0.2606385,1.0334565000000002,-0.1174699999999999,0.1803615,1.0677565000000002,-0.11429,-0.0608215,-0.0029175,-0.0038849999999999,0.0608215,0.0029175,0.0038849999999999,-0.1201885,-0.3616035,-0.0125189999999999,0.1192415,-0.3548835,0.0002009999999999,-0.1643684999999999,-0.8626435,0.018266,0.1805115,-0.8813335,0.041045,0
54,-0.033749,0.7198215,0.0561924999999999,-0.180655,0.5114415,0.0460885,-0.2552149999999999,0.7531414999999999,-0.0228575,0.125335,0.5511815,0.0363314999999999,0.1691949999999999,0.7897514999999999,-0.0454935,-0.260075,1.0329515,-0.1199705,0.180535,1.0656515,-0.1161305,-0.06074,-0.0029305,-0.0035895,0.06074,0.0029305,0.0035894999999999,-0.119985,-0.3616985,-0.0134895,0.119305,-0.3549285,-0.0007625,-0.164345,-0.8628085000000001,0.0176495,0.180915,-0.8830985,0.0395144999999999,1
55,-0.0334165,0.7201905,0.0545905,-0.1804405,0.5116505,0.0448905,-0.2548205,0.7531505000000001,-0.0248665,0.1255395,0.5512705,0.0351335,0.1697895,0.7900704999999999,-0.0468055,-0.2594805,1.0325605,-0.1227145,0.1806095,1.0636605,-0.1182344999999999,-0.0606315,-0.0029684999999999,-0.0031565,0.0606315,0.0029684999999999,0.0031564999999999,-0.1199105,-0.3618495,-0.0146805,0.1194295,-0.3550095,-0.0025185,-0.1644205,-0.8630095,0.0168034999999999,0.1809895,-0.8838995000000001,0.0377005,1
56,-0.0330045,0.7203175,0.0525249999999999,-0.1801995,0.5117775,0.043536,-0.2544195,0.7531975000000001,-0.027447,0.1256905,0.5513475,0.0336379999999999,0.1709105,0.7898975,-0.050622,-0.2588295,1.0315075,-0.125801,0.1805805,1.0617075,-0.120871,-0.0605175,-0.0030434999999999,-0.002626,0.0605175,0.0030435,0.0026259999999999,-0.1198995,-0.3620725,-0.016023,0.1194605,-0.3551124999999999,-0.005065,-0.1645795,-0.8631924999999999,0.0156649999999999,0.1809105,-0.8854225,0.036362,1
57,-0.0324949999999999,0.7201265,0.049829,-0.18001,0.5118064999999999,0.041821,-0.25399,0.7530365,-0.030756,0.12574,0.5513764999999999,0.031585,0.1717,0.7887865,-0.054576,-0.25797,1.0303465,-0.129637,0.18022,1.0608465,-0.1245169999999999,-0.060425,-0.0031584999999999,-0.0020219999999999,0.060425,0.0031585,0.0020219999999999,-0.12005,-0.3623235,-0.0188899999999999,0.11936,-0.3551835,-0.0086019999999999,-0.16613,-0.8725035,0.014363,0.18085,-0.8847835000000001,0.033992,1
58,-0.0318219999999999,0.719543,0.046443,-0.1798259999999999,0.5119229999999999,0.039684,-0.253486,0.752353,-0.0348019999999999,0.125714,0.551703,0.028904,0.172654,0.787963,-0.060914,-0.2570159999999999,1.029243,-0.133943,0.179684,1.059843,-0.128883,-0.060383,-0.003296,-0.0013789999999999,0.060383,0.003296,0.001379,-0.1202959999999999,-0.362557,-0.02212,0.119324,-0.355187,-0.0139269999999999,-0.167756,-0.881237,0.012801,0.180674,-0.889267,0.030221,1
59,-0.0310105,0.7185079999999999,0.0420985,-0.1796315,0.512218,0.0371985,-0.2529215,0.751508,-0.0396104999999999,0.1256585,0.5520579999999999,0.0255665,0.1737585,0.786938,-0.0684225,-0.2558615,1.027818,-0.1392865,0.1788585,1.058118,-0.1342765,-0.0603475,-0.003478,-0.0006534999999999,0.0603475,0.0034779999999999,0.0006535,-0.1207115,-0.362772,-0.0257815,0.1192685,-0.355122,-0.0198775,-0.1694014999999999,-0.889682,0.0109544999999999,0.1818085,-0.895672,0.0282365,1
60,-0.0302295,0.717273,0.036898,-0.1794085,0.512903,0.0342,-0.2523185,0.750503,-0.045372,0.1255215,0.552003,0.021051,0.1747815,0.788463,-0.077216,-0.2545885,1.026473,-0.145376,0.1780015,1.056473,-0.140516,-0.0602835,-0.0036349999999999,0.000113,0.0602835,0.0036349999999999,-0.0001129999999999,-0.1213785,-0.362847,-0.030104,0.1191914999999999,-0.355027,-0.0268679999999999,-0.1709484999999999,-0.897547,0.008626,0.1833315,-0.900787,0.023948,1
61,-0.0293955,0.715793,0.0310715,-0.1791734999999999,0.514053,0.0310165,-0.2516835,0.749023,-0.0519415,0.1253965,0.552283,0.0161875,0.1761265,0.791123,-0.0860085,-0.2532335,1.0251329999999998,-0.1521684999999999,0.1770765,1.055033,-0.1477284999999999,-0.0601905,-0.003814,0.0009125,0.0601905,0.0038139999999999,-0.0009125,-0.1224235,-0.362807,-0.0351414999999999,0.1191865,-0.354807,-0.0348215,-0.1726035,-0.904747,0.0061685,0.1847665,-0.905167,0.0190685,1
62,-0.0286624999999999,0.713433,0.0247989999999999,-0.1789265,0.515493,0.0278999999999999,-0.2510565,0.7471329999999999,-0.059041,0.1252734999999999,0.552443,0.0105479999999999,0.1774234999999999,0.792013,-0.094589,-0.2517665,1.023633,-0.159129,0.1759534999999999,1.053133,-0.155549,-0.0600925,-0.004019,0.0016249999999999,0.0600925,0.0040189999999999,-0.001625,-0.1239565,-0.3625469999999999,-0.041026,0.1191635,-0.3544469999999999,-0.043497,-0.1742765,-0.910977,0.0039669999999999,0.1859935,-0.908747,0.0143269999999999,1
63,-0.0281569999999999,0.711025,0.0185445,-0.178759,0.5164150000000001,0.0246385,-0.250669,0.745475,-0.0662345,0.124951,0.5528350000000001,0.0051224999999999,0.178311,0.7929550000000001,-0.1048574999999999,-0.249579,1.023815,-0.1658575,0.175071,1.051115,-0.1635975,-0.060084,-0.0041429999999999,0.0020964999999999,0.060084,0.004143,-0.0020965,-0.126079,-0.361975,-0.0469124999999999,0.119481,-0.353965,-0.0524925,-0.176179,-0.915575,0.0022585,0.186971,-0.911025,0.0099245,1
64,-0.027728,0.7073265,0.0118874999999999,-0.178335,0.5159165,0.0209315,-0.250375,0.7438265,-0.0737265,0.124305,0.5536565,0.0001145,0.179245,0.7906664999999999,-0.1146585,-0.247435,1.0204565,-0.1740885,0.174205,1.0493565,-0.1716784999999999,-0.060086,-0.0041855,0.0022544999999999,0.060086,0.0041855,-0.0022545,-0.128695,-0.3610435,-0.0530825,0.119985,-0.3533435,-0.0609455,-0.178085,-0.9184035,0.0011624999999999,0.187795,-0.9118835,0.0065554999999999,1
65,-0.0277665,0.703849,0.005565,-0.1778275,0.5135289999999999,0.015834,-0.2505175,0.743439,-0.081519,0.1233925,0.5504089999999999,-0.0062469999999999,0.1792725,0.7904789999999999,-0.1209889999999999,-0.2456175,1.019459,-0.181819,0.1729125,1.046859,-0.180439,-0.0603915,-0.0042379999999999,0.00243,0.0603915,0.0042379999999999,-0.0024299999999999,-0.1325275,-0.359721,-0.0596219999999999,0.1206225,-0.352421,-0.069823,-0.1805175,-0.917891,0.000612,0.1882125,-0.910231,0.003691,1
66,-0.0280319999999999,0.7008865,-0.00068,-0.177509,0.5117265,0.0106329999999999,-0.250969,0.7435164999999999,-0.089498,0.122401,0.5483564999999999,-0.0122589999999999,0.179091,0.7905264999999999,-0.127148,-0.244279,1.0197465,-0.189848,0.171481,1.0394465,-0.188758,-0.060905,-0.0042695,0.002456,0.060905,0.0042694999999999,-0.002456,-0.136739,-0.3580635,-0.065452,0.121251,-0.3513135,-0.078441,-0.181679,-0.9077135,0.0004179999999999,0.188411,-0.8999435,0.0013719999999999,1
67,-0.028113,0.698947,-0.007532,-0.176877,0.510907,0.0047939999999999,-0.251247,0.7454270000000001,-0.098345,0.121833,0.5426570000000001,-0.020446,0.1794329999999999,0.7904070000000001,-0.134045,-0.242657,1.013197,-0.197985,0.1704429999999999,1.033997,-0.1970049999999999,-0.0614279999999999,-0.004266,0.0024819999999999,0.0614279999999999,0.004266,-0.002482,-0.141177,-0.356043,-0.07269,0.122173,-0.349923,-0.087125,-0.182507,-0.894763,-0.000163,0.188553,-0.8939429999999999,-0.001046,1
68,-0.0282279999999999,0.6969835,-0.0146315,-0.1763199999999999,0.5096235,-0.0016255,-0.2512,0.7445835,-0.1073895,0.12125,0.5384234999999999,-0.0283595,0.17973,0.7863034999999999,-0.1410895,-0.2407099999999999,1.0088535,-0.2054295,0.1687,1.0303535,-0.2053195,-0.061839,-0.0040785,0.0025024999999999,0.061839,0.0040785,-0.0025025,-0.14583,-0.3535465,-0.0810095,0.12342,-0.3482965,-0.0970695,-0.18355,-0.8800465000000001,-0.0014475,0.18697,-0.8791865,-0.0023635,1
69,-0.02805,0.6945209999999999,-0.0219119999999999,-0.175321,0.508051,-0.008454,-0.250751,0.741181,-0.115889,0.121039,0.5339309999999999,-0.036161,0.180349,0.782171,-0.147899,-0.2379409999999999,1.005831,-0.212979,0.167859,1.028671,-0.213689,-0.06215,-0.003986,0.002571,0.06215,0.003986,-0.002571,-0.150501,-0.3506789999999999,-0.090699,0.125289,-0.346229,-0.107419,-0.184161,-0.8636290000000001,-0.002766,0.186669,-0.864179,-0.003376,1
70,-0.0281325,0.6926975,-0.028719,-0.1743215,0.5059475,-0.0154709999999999,-0.2503915,0.7395875000000001,-0.1236299999999999,0.1206785,0.5293575,-0.04391,0.1804285,0.7788175,-0.1550699999999999,-0.2355615,1.0035475,-0.2203099999999999,0.1670385,1.0284675,-0.2213399999999999,-0.0625065,-0.0036195,0.002454,0.0625065,0.0036194999999999,-0.0024539999999999,-0.1553614999999999,-0.3468825,-0.10038,0.1271185,-0.3438925,-0.11756,-0.1850715,-0.8455525,-0.0043439999999999,0.1861585,-0.8470725,-0.0039379999999999,1
71,-0.028494,0.690396,-0.0364725,-0.173717,0.504806,-0.0234305,-0.250387,0.737386,-0.1323794999999999,0.120013,0.525196,-0.0517904999999999,0.180453,0.778756,-0.1641095,-0.233747,0.997396,-0.2287394999999999,0.166053,1.028956,-0.2299294999999999,-0.062808,-0.003301,0.0026774999999999,0.062808,0.0033009999999999,-0.0026775,-0.160257,-0.342754,-0.1113494999999999,0.128533,-0.341314,-0.1288095,-0.186397,-0.826604,-0.0074635,0.1855429999999999,-0.829464,-0.0057385,1
72,-0.0285225,0.6882595,-0.0439844999999999,-0.1725955,0.5031195,-0.0315675,-0.2499955,0.7363995,-0.1409045,0.1195245,0.5201795,-0.0595025,0.1804445,0.7757695,-0.1709645,-0.2315555,0.9940595,-0.2377445,0.1661645,1.0292295,-0.2377045,-0.0629585,-0.0028755,0.0027895,0.0629585,0.0028755,-0.0027895,-0.1645655,-0.3339005,-0.1224845,0.1299645,-0.3336905,-0.1403444999999999,-0.1873555,-0.8049204999999999,-0.0106195,0.1846745,-0.8096304999999999,-0.0073534999999999,1
73,-0.0282319999999999,0.686521,-0.0507829999999999,-0.171379,0.5020709999999999,-0.038868,-0.249159,0.734831,-0.149392,0.119281,0.515431,-0.06702,0.180651,0.774621,-0.177342,-0.228619,0.992531,-0.2451819999999999,0.166481,1.028131,-0.245292,-0.063067,-0.0026189999999999,0.002786,0.063067,0.0026189999999999,-0.002786,-0.168559,-0.323829,-0.134092,0.1314509999999999,-0.324739,-0.153342,-0.188089,-0.782969,-0.013817,0.184431,-0.789339,-0.009135,1
74,-0.027935,0.68483,-0.058887,-0.170815,0.50476,-0.045644,-0.248295,0.73379,-0.158407,0.119105,0.51696,-0.0739259999999999,0.180705,0.77322,-0.185107,-0.225095,0.99101,-0.254997,0.166755,1.02986,-0.252767,-0.0629619999999999,-0.00245,0.002779,0.0629619999999999,0.0024499999999999,-0.002779,-0.172345,-0.31153,-0.146827,0.132375,-0.31461,-0.166297,-0.189485,-0.7609699999999999,-0.0183609999999999,0.184045,-0.76877,-0.0122189999999999,1
75,-0.0272215,0.688555,-0.0688635,-0.1700095,0.506065,-0.0559455,-0.2460795,0.7371749999999999,-0.1691195,0.1187204999999999,0.516355,-0.0841285,0.1809105,0.775665,-0.1952995,-0.2211195,0.994535,-0.2661595,0.1677505,1.034475,-0.2632295,-0.0629205,-0.0022549999999999,0.0024735,0.0629205,0.002255,-0.0024735,-0.1773795,-0.290495,-0.1659395,0.1338704999999999,-0.2953449999999999,-0.1844695,-0.1909295,-0.731055,-0.0253424999999999,0.1837105,-0.740235,-0.0181274999999999,1
76,-0.0262185,0.690145,-0.0776885,-0.1690385,0.506815,-0.0651125,-0.2436885,0.7393750000000001,-0.1785985,0.1186515,0.519775,-0.0914885,0.1811114999999999,0.7770950000000001,-0.2043585,-0.2183485,1.004885,-0.2771885,0.1687914999999999,1.037375,-0.2734685,-0.0630035,-0.002055,0.0022385,0.0630035,0.002055,-0.0022384999999999,-0.1817585,-0.2698649999999999,-0.1836285,0.1353915,-0.276545,-0.2011685,-0.1924385,-0.7033149999999999,-0.0317515,0.1836215,-0.714345,-0.0237315,1
77,-0.0250145,0.692325,-0.0855005,-0.1674265,0.506685,-0.0736365,-0.2414065,0.7435849999999999,-0.1872285,0.1188635,0.5208550000000001,-0.0989685,0.1814735,0.776685,-0.2121785,-0.2142065,1.012985,-0.2878285,0.1702835,1.040755,-0.2829785,-0.0629895,-0.002135,0.0020904999999999,0.0629895,0.0021349999999999,-0.0020905,-0.1859265,-0.246955,-0.2004685,0.1375335,-0.255415,-0.2178285,-0.1941165,-0.674415,-0.0373735,0.1840235,-0.687515,-0.0289745,1
78,-0.0237555,0.6952,-0.0924905,-0.1659035,0.50771,-0.0814225,-0.2391135,0.74712,-0.1955815,0.1192164999999999,0.5221,-0.1059815,0.1819464999999999,0.77477,-0.2191915,-0.2103135,1.01597,-0.2979415,0.1713865,1.04286,-0.2919515,-0.0628655,-0.0019699999999999,0.0020164999999999,0.0628655,0.0019699999999999,-0.0020165,-0.1898735,-0.22314,-0.2160915,0.1396065,-0.2331599999999999,-0.2336515,-0.1962635,-0.64641,-0.0428235,0.1848264999999999,-0.66084,-0.0338705,1
79,-0.0224585,0.6979549999999999,-0.0994454999999999,-0.1646625,0.508245,-0.0889725,-0.2370225,0.7516149999999999,-0.2036655,0.1196275,0.523215,-0.1126355,0.1820675,0.7761849999999999,-0.2257855,-0.2063525,1.018205,-0.3076155,0.1724675,1.044575,-0.3008855,-0.0628075,-0.002055,0.0022075,0.0628075,0.0020549999999999,-0.0022075,-0.1936025,-0.198175,-0.2317354999999999,0.1413674999999999,-0.209705,-0.2495755,-0.1984825,-0.6186250000000001,-0.0480585,0.1858475,-0.633665,-0.0396565,1
80,-0.0214115,0.70229,-0.1062849999999999,-0.1635685,0.5079,-0.0971399999999999,-0.2347885,0.75764,-0.212145,0.1199315,0.5244,-0.119625,0.1822715,0.7778,-0.2324149999999999,-0.2025385,1.02394,-0.318505,0.1733115,1.04664,-0.309765,-0.0628045,-0.0020399999999999,0.0023769999999999,0.0628045,0.0020399999999999,-0.0023769999999999,-0.1973285,-0.17289,-0.2474849999999999,0.1430315,-0.18583,-0.266115,-0.2007585,-0.59076,-0.053014,0.1870115,-0.60592,-0.046335,1
81,-0.0203894999999999,0.705325,-0.112944,-0.1625764999999999,0.505845,-0.10464,-0.2326164999999999,0.761045,-0.219974,0.1202434999999999,0.525205,-0.126474,0.1824335,0.781215,-0.239684,-0.1998365,1.027355,-0.328354,0.1740835,1.048835,-0.318944,-0.0627745,-0.0023549999999999,0.002588,0.0627745,0.0023549999999999,-0.002588,-0.2012564999999999,-0.148635,-0.263484,0.1446535,-0.162705,-0.282074,-0.2032965,-0.563955,-0.0578669999999999,0.1882335,-0.579735,-0.053119,1
82,-0.019413,0.708785,-0.1192724999999999,-0.161747,0.505865,-0.1116025,-0.230617,0.765935,-0.2275325,0.1205729999999999,0.523305,-0.1333125,0.182613,0.783785,-0.2469025,-0.198127,1.031645,-0.3383725,0.174913,1.051265,-0.3274725,-0.062712,-0.0022949999999999,0.0027065,0.062712,0.002295,-0.0027064999999999,-0.204827,-0.1249549999999999,-0.2792125,0.146263,-0.1387949999999999,-0.2966125,-0.205827,-0.536585,-0.0624795,0.189903,-0.553395,-0.0610165,1
83,-0.018268,0.7119249999999999,-0.122914,-0.160607,0.503985,-0.115844,-0.228957,0.768775,-0.2325439999999999,0.121203,0.520385,-0.137484,0.182673,0.7853049999999999,-0.251884,-0.196247,1.034905,-0.345014,0.177263,1.046675,-0.334804,-0.062618,-0.0022249999999999,0.002495,0.062618,0.0022249999999999,-0.002495,-0.207867,-0.101465,-0.291474,0.148183,-0.1158549999999999,-0.308474,-0.207927,-0.5098849999999999,-0.064094,0.191783,-0.5273650000000001,-0.066384,1
84,-0.0178235,0.70887,-0.126283,-0.1598705,0.50322,-0.118023,-0.2286705,0.76691,-0.237473,0.1218395,0.51796,-0.140233,0.1826195,0.7824800000000001,-0.256403,-0.1953305,1.0325,-0.351583,0.1781295,1.0464,-0.340263,-0.0626415,-0.00212,0.002496,0.0626415,0.00212,-0.002496,-0.2094405,-0.08555,-0.298153,0.1493295,-0.09976,-0.316413,-0.2080505,-0.48964,-0.064088,0.1932595,-0.5088299999999999,-0.070632,1
85,-0.0173474999999999,0.7074499999999999,-0.129789,-0.1589525,0.501609,-0.120389,-0.2279925,0.7642599999999999,-0.242759,0.1226575,0.51472,-0.1430489999999999,0.1827075,0.78045,-0.261169,-0.1946225,1.02545,-0.358819,0.1791175,1.04648,-0.345839,-0.0625324999999999,-0.00192,0.002491,0.0625324999999999,0.0019199999999999,-0.002491,-0.2113324999999999,-0.06814,-0.304679,0.1512275,-0.08151,-0.324659,-0.2087425,-0.46858,-0.064153,0.1943175,-0.4893200000000001,-0.074648,1
86,-0.016745,0.7058150000000001,-0.133272,-0.158028,0.501766,-0.122712,-0.227158,0.761455,-0.248372,0.1233919999999999,0.5132730000000001,-0.145542,0.183282,0.778255,-0.2663319999999999,-0.1941179999999999,1.020785,-0.366162,0.180222,1.046415,-0.351352,-0.062524,-0.0017249999999999,0.0024899999999999,0.062524,0.001725,-0.00249,-0.2129279999999999,-0.0508749999999999,-0.3104619999999999,0.153172,-0.0644849999999999,-0.331472,-0.209008,-0.448835,-0.06414,0.194442,-0.470255,-0.078645,1
87,-0.0159555,0.70338,-0.134902,-0.1570395,0.501019,-0.123042,-0.2264795,0.76276,-0.251982,0.1246505,0.5109630000000001,-0.146052,0.1845505,0.77849,-0.269412,-0.1937795,1.02017,-0.371772,0.1813805,1.04586,-0.355002,-0.0625345,-0.0015399999999999,0.002704,0.0625345,0.00154,-0.002704,-0.2140895,-0.0373299999999999,-0.313682,0.1554005,-0.0520399999999999,-0.336362,-0.2102695,-0.4303,-0.0629909999999999,0.1956805,-0.4538099999999999,-0.081184,1
88,-0.0155895,0.701225,-0.1364425,-0.1564855,0.500568,-0.1229325,-0.2261755,0.761525,-0.2555625,0.1255045,0.509776,-0.1462425,0.1854045,0.7768250000000001,-0.2725325,-0.1939455,1.020275,-0.3776125,0.1821645,1.045445,-0.3586825,-0.0625405,-0.0015749999999999,0.0029105,0.0625405,0.0015749999999999,-0.0029105,-0.2156855,-0.0245249999999999,-0.3160925,0.1571145,-0.040355,-0.3413825,-0.2107455,-0.413485,-0.0622625,0.1962345,-0.437555,-0.0830845,1
89,-0.015225,0.69945,-0.137933,-0.155826,0.498025,-0.122573,-0.226416,0.75926,-0.258473,0.126234,0.507585,-0.146123,0.1863739999999999,0.77376,-0.275183,-0.194436,1.02087,-0.382283,0.183134,1.04406,-0.362103,-0.062624,-0.0015899999999999,0.003211,0.062624,0.0015899999999999,-0.003211,-0.2172259999999999,-0.0109399999999999,-0.318163,0.1589439999999999,-0.02827,-0.345873,-0.2107859999999999,-0.3975999999999999,-0.0604399999999999,0.1965839999999999,-0.42184,-0.086646,1
90,-0.014782,0.6972700000000001,-0.139403,-0.155475,0.498888,-0.1222729999999999,-0.226155,0.7584500000000001,-0.261763,0.126985,0.506094,-0.146083,0.187495,0.7704,-0.277213,-0.194705,1.02025,-0.387613,0.184135,1.04152,-0.365433,-0.062738,-0.00139,0.003557,0.062738,0.00139,-0.003557,-0.218625,0.00195,-0.319813,0.1608049999999999,-0.01726,-0.349763,-0.210465,-0.38238,-0.058584,0.196755,-0.40685,-0.090552,1
91,-0.014537,0.696,-0.1404735,-0.155298,0.4976399999999999,-0.1218134999999999,-0.226148,0.75607,-0.2641135,0.1274819999999999,0.506891,-0.1456035,0.1885319999999999,0.7691699999999999,-0.2792935,-0.195218,1.0188199999999998,-0.3921235,0.1857519999999999,1.03837,-0.3696135,-0.062798,-0.00168,0.0038575,0.062798,0.0016799999999999,-0.0038575,-0.220098,0.0150599999999999,-0.3202035,0.1626419999999999,-0.00573,-0.3527035,-0.211428,-0.3667100000000001,-0.0580045,0.196842,-0.3927400000000001,-0.0932984999999999,1
92,-0.0145589999999999,0.694435,-0.141174,-0.155224,0.497036,-0.121304,-0.226344,0.754325,-0.266034,0.127976,0.506237,-0.145054,0.189516,0.767255,-0.280724,-0.1962239999999999,1.013375,-0.396994,0.186926,1.038025,-0.372694,-0.062817,-0.001785,0.004095,0.062817,0.001785,-0.004095,-0.2220639999999999,0.0270449999999999,-0.320494,0.164636,0.0045349999999999,-0.355534,-0.212994,-0.352835,-0.057998,0.196516,-0.380135,-0.096214,1
93,-0.0145425,0.6936149999999999,-0.1414399999999999,-0.1550115,0.4961849999999999,-0.1207,-0.2263814999999999,0.7526449999999999,-0.26713,0.1284385,0.5058569999999999,-0.14422,0.1907485,0.765755,-0.28201,-0.1969515,1.008455,-0.40119,0.1882285,1.036325,-0.37579,-0.0628215,-0.001905,0.004382,0.0628215,0.0019049999999999,-0.004382,-0.2242714999999999,0.0374149999999998,-0.32067,0.1668485,0.0138049999999999,-0.35802,-0.2151015,-0.3410250000000001,-0.058617,0.1968585,-0.3686950000000001,-0.099227,1
94,-0.0143965,0.6927449999999999,-0.1414185,-0.1547555,0.4954359999999999,-0.1199185,-0.2263355,0.7513249999999999,-0.2674685,0.1287345,0.5059619999999999,-0.1433185,0.1918745,0.764745,-0.2827485,-0.1977155,1.008605,-0.4040285,0.1894645,1.0374249999999998,-0.3784485,-0.0628425,-0.002155,0.0046925,0.0628425,0.0021549999999999,-0.0046925,-0.2258155,0.0471049999999999,-0.3205985,0.1685245,0.0228349999999999,-0.3598085,-0.2173355,-0.330285,-0.0592525,0.1983945,-0.3586450000000001,-0.1029485,1
95,-0.0143914999999999,0.691855,-0.1412325,-0.1547065,0.494354,-0.1189925,-0.2263465,0.751245,-0.2675325,0.1290435,0.505491,-0.1425025,0.1926135,0.764545,-0.2830525,-0.1984265,1.007025,-0.4069025,0.1905835,1.037535,-0.3808425,-0.0628825,-0.0022449999999999,0.0049815,0.0628825,0.002245,-0.0049815,-0.2270365,0.054955,-0.3206825,0.1698135,0.030325,-0.3612425,-0.2193165,-0.3216949999999999,-0.0603825,0.1998734999999999,-0.351005,-0.1068225,1
96,-0.0145034999999999,0.6915370000000001,-0.1406504999999999,-0.1546104999999999,0.492955,-0.1180504999999999,-0.2262805,0.750415,-0.2675705,0.1293695,0.506835,-0.1417304999999999,0.1932995,0.7637750000000001,-0.2832205,-0.1989405,1.005195,-0.4088905,0.1917195,1.037575,-0.3823805,-0.0629415,-0.0025249999999999,0.0052705,0.0629415,0.0025249999999999,-0.0052705,-0.2280105,0.0616349999999999,-0.3206005,0.1708395,0.036765,-0.3620305,-0.2207705,-0.3133849999999999,-0.0602305,0.2010795,-0.343815,-0.1099504999999999,1
97,-0.0148669999999999,0.6907449999999999,-0.1401245,-0.154747,0.49157,-0.1174144999999999,-0.226457,0.7495499999999999,-0.2679145,0.129383,0.507238,-0.1413045,0.1938129999999999,0.76336,-0.2832145,-0.199417,1.00262,-0.4102945,0.192363,1.0373,-0.3825045,-0.062947,-0.0027,0.0055225,0.062947,0.0027,-0.0055225,-0.228777,0.06662,-0.3207445,0.171703,0.0414599999999999,-0.3620145,-0.222047,-0.30749,-0.0603234999999999,0.201853,-0.3387799999999999,-0.1130045,1
98,-0.0154294999999999,0.689251,-0.1398225,-0.1551505,0.4914449999999999,-0.1170625,-0.2267405,0.748815,-0.2684324999999999,0.1290995,0.508197,-0.1412625,0.1940995,0.763355,-0.2833225,-0.2001805,0.999265,-0.4109124999999999,0.1925795,1.037355,-0.3825524999999999,-0.0630265,-0.0029649999999999,0.0056174999999999,0.0630265,0.0029649999999999,-0.0056175,-0.2295005,0.0690049999999999,-0.3206825,0.1721595,0.0440249999999999,-0.3619225,-0.2229905,-0.304015,-0.0608055,0.2008095,-0.334565,-0.1125124999999999,1
99,-0.016096,0.688979,-0.139756,-0.155709,0.490865,-0.116776,-0.227169,0.747855,-0.268996,0.128741,0.5085540000000001,-0.140976,0.1942209999999999,0.763445,-0.283436,-0.200809,0.998975,-0.411786,0.1925309999999999,1.037435,-0.382666,-0.063131,-0.0032349999999999,0.005502,0.063131,0.003235,-0.005502,-0.230079,0.069765,-0.320666,0.172481,0.045155,-0.361996,-0.223759,-0.3027249999999999,-0.061518,0.200201,-0.3332349999999999,-0.113986,1
100,-0.016123,0.688979,-0.1400475,-0.155571,0.490865,-0.1167874999999999,-0.227361,0.747855,-0.2696675,0.128929,0.5085540000000001,-0.1409875,0.194599,0.763445,-0.2836074999999999,-0.200871,0.998975,-0.4127875,0.192329,1.037435,-0.3830675,-0.063106,-0.0032349999999999,0.0055005,0.063106,0.003235,-0.0055005,-0.230111,0.068445,-0.3210075,0.173039,0.044405,-0.3624475,-0.223981,-0.3035949999999999,-0.0623055,0.200469,-0.3340349999999999,-0.1139974999999999,1
101,-0.0161695,0.688979,-0.1404315,-0.1553955,0.490865,-0.1168915,-0.2274854999999999,0.747855,-0.2703315,0.1288145,0.5085540000000001,-0.1409815,0.1948445,0.763445,-0.2839414999999999,-0.2009055,0.998975,-0.4136614999999999,0.1921845,1.037435,-0.3837815,-0.0630795,-0.0032349999999999,0.0054995,0.0630795,0.003235,-0.0054995,-0.2302255,0.067455,-0.3211214999999999,0.1729345,0.044405,-0.3621414999999999,-0.2240955,-0.3043249999999999,-0.0622995,0.2008145,-0.3340349999999999,-0.1140215,1
102,-0.0161844999999999,0.688979,-0.1411369999999999,-0.1553605,0.490865,-0.1171369999999999,-0.2276004999999999,0.747855,-0.271067,0.1287094999999999,0.5085540000000001,-0.1410269999999999,0.1947395,0.763445,-0.283977,-0.2012804999999999,0.998975,-0.413957,0.1920494999999999,1.037435,-0.384357,-0.0631655,-0.0032349999999999,0.005544,0.0631655,0.003235,-0.005544,-0.2301405,0.067455,-0.321087,0.1728495,0.044405,-0.361737,-0.2218905,-0.3048349999999999,-0.060752,0.2010394999999999,-0.3345549999999999,-0.1139469999999999,1
103,-0.016263,0.688217,-0.1429139999999999,-0.155492,0.492095,-0.118384,-0.227512,0.7464649999999999,-0.271544,0.128778,0.508656,-0.1419139999999999,0.194678,0.762365,-0.2844939999999999,-0.201592,0.997535,-0.414414,0.191708,1.037845,-0.384874,-0.06312,-0.0030449999999999,0.005098,0.06312,0.0030449999999999,-0.005098,-0.229622,0.0656649999999999,-0.321584,0.172778,0.0426149999999999,-0.361884,-0.221282,-0.305795,-0.058135,0.201148,-0.336345,-0.112034,1
104,-0.0161935,0.687878,-0.145176,-0.1555775,0.4920199999999999,-0.120246,-0.2272875,0.7457699999999999,-0.272466,0.1287325,0.508751,-0.143426,0.1946425,0.76196,-0.285316,-0.2016775,0.99822,-0.415306,0.1910925,1.0402,-0.385046,-0.0631435,-0.0028099999999999,0.004617,0.0631435,0.0028099999999999,-0.004617,-0.2286875,0.0605099999999999,-0.322196,0.1726825,0.0378799999999999,-0.362386,-0.2208475,-0.31048,-0.059071,0.2012725,-0.3411700000000001,-0.109526,1
105,-0.016327,0.688562,-0.1475495,-0.155664,0.49068,-0.1220095,-0.227424,0.7440599999999999,-0.2738695,0.128656,0.5077119999999999,-0.1455094999999999,0.194576,0.76153,-0.2866995,-0.201874,0.99875,-0.4161595,0.190436,1.04235,-0.3855395,-0.063163,-0.00278,0.0041105,0.063163,0.00278,-0.0041105,-0.227454,0.05362,-0.3232295,0.1721059999999999,0.0320699999999999,-0.3627995,-0.220504,-0.31657,-0.0609145,0.200796,-0.34717,-0.1074395,1
106,-0.0164264999999999,0.68791,-0.150341,-0.1558395,0.491504,-0.124591,-0.2276395,0.73929,-0.275621,0.1284805,0.508024,-0.1483209999999999,0.1944605,0.76022,-0.288531,-0.2024595,0.99548,-0.417581,0.1898304999999999,1.03957,-0.386561,-0.0631355,-0.0027699999999999,0.003466,0.0631355,0.00277,-0.003466,-0.2260395,0.0428,-0.324741,0.1708905,0.02309,-0.362341,-0.2179395,-0.32836,-0.061981,0.1991705,-0.3561799999999999,-0.103011,1
107,-0.0164235,0.6889500000000001,-0.1531075,-0.1558235,0.490981,-0.1277275,-0.2278235,0.7344200000000001,-0.2774775,0.1284765,0.5067820000000001,-0.1512375,0.1942364999999999,0.76043,-0.2906975,-0.2034035,0.99233,-0.4190775,0.1895565,1.0381900000000002,-0.3878575,-0.0630245,-0.00268,0.0028705,0.0630245,0.00268,-0.0028705,-0.2245835,0.0312999999999999,-0.3259775,0.1693664999999999,0.01295,-0.3621475,-0.2145435,-0.3418299999999999,-0.0632535,0.1978265,-0.3666699999999999,-0.0996025,1
108,-0.0159059999999999,0.6895200000000001,-0.1559944999999999,-0.155552,0.4906110000000001,-0.1311844999999999,-0.227752,0.73468,-0.2794345,0.128728,0.5056210000000001,-0.1544045,0.194068,0.7603900000000001,-0.2927145,-0.2040119999999999,0.99175,-0.4196445,0.189898,1.03844,-0.3895845,-0.062957,-0.0024699999999999,0.0024244999999999,0.062957,0.00247,-0.0024245,-0.222882,0.01702,-0.3266145,0.167408,0.00011,-0.3619645,-0.211032,-0.3577299999999999,-0.0654575,0.196978,-0.3803399999999999,-0.0969935,1
109,-0.0154114999999999,0.691365,-0.159206,-0.1554655,0.490649,-0.134376,-0.2279355,0.7352650000000001,-0.281296,0.1290045,0.504816,-0.157596,0.1939745,0.761395,-0.294846,-0.2049455,0.990805,-0.4194859999999999,0.1902444999999999,1.039075,-0.391866,-0.0628235,-0.0021949999999999,0.002039,0.0628235,0.002195,-0.002039,-0.2214255,0.002285,-0.326966,0.1648545,-0.0127049999999999,-0.3613059999999999,-0.2074555,-0.3749049999999999,-0.067508,0.1964145,-0.3954449999999999,-0.094067,1
110,-0.014683,0.6936749999999999,-0.1625935,-0.15511,0.493193,-0.1377334999999999,-0.22814,0.737935,-0.2820735,0.12951,0.5044959999999999,-0.1609735,0.19417,0.762075,-0.2967135,-0.2057399999999999,0.996535,-0.4190635,0.19088,1.039345,-0.3941235,-0.062738,-0.001735,0.0017195,0.062738,0.0017349999999999,-0.0017195,-0.21993,-0.013755,-0.3265135,0.16218,-0.026505,-0.3598235,-0.20445,-0.394005,-0.0704845,0.1972,-0.4127350000000001,-0.0911475,1
111,-0.0141519999999999,0.69705,-0.1661275,-0.154997,0.494019,-0.1412575,-0.228687,0.74014,-0.2826275,0.1298629999999999,0.503373,-0.1644975,0.194023,0.7632300000000001,-0.2979575,-0.206817,0.99911,-0.4181775,0.191463,1.04032,-0.3950875,-0.062693,-0.00141,0.0015035,0.062693,0.00141,-0.0015034999999999,-0.218697,-0.0296099999999999,-0.3253775,0.159053,-0.0401299999999999,-0.3575975,-0.203087,-0.4139,-0.0737434999999999,0.197903,-0.43041,-0.0895785,1
112,-0.0136914999999999,0.697845,-0.1683764999999999,-0.1548725,0.493811,-0.1438865,-0.2283625,0.741055,-0.2816265,0.1302075,0.50456,-0.1669765,0.1937475,0.766085,-0.2986065,-0.2080825,1.000545,-0.4154764999999999,0.1923274999999999,1.039555,-0.3958665,-0.0628635,-0.001365,0.0015615,0.0628635,0.001365,-0.0015615,-0.2176225,-0.047445,-0.3228565,0.1557975,-0.056415,-0.3543265,-0.2021525,-0.436515,-0.0765395,0.1983174999999999,-0.4508049999999999,-0.0892065,1
113,-0.0136055,0.700215,-0.1693875,-0.1550035,0.4950449999999999,-0.1457175,-0.2291435,0.741235,-0.2790475,0.1303565,0.505662,-0.1687375,0.1935465,0.767655,-0.2986375,-0.2094835,1.002355,-0.4123475,0.1930365,1.0423049999999998,-0.3949275,-0.0630245,-0.001315,0.0017494999999999,0.0630245,0.0013149999999999,-0.0017495,-0.2167934999999999,-0.063795,-0.3195175,0.1522865,-0.071675,-0.3502775,-0.2017335,-0.4574750000000001,-0.0788985,0.1983665,-0.473055,-0.0918255,1
114,-0.0135745,0.70207,-0.169062,-0.1551335,0.49825,-0.146442,-0.2291935,0.74186,-0.275222,0.1306265,0.5086040000000001,-0.169452,0.1933865,0.76668,-0.296522,-0.2106235,1.00397,-0.406592,0.1940365,1.0427300000000002,-0.392832,-0.0632345,-0.0011899999999999,0.001963,0.0632345,0.00119,-0.0019629999999999,-0.2155935,-0.0806699999999999,-0.314892,0.1488565,-0.08804,-0.346012,-0.2013235,-0.4796199999999999,-0.081064,0.1985665,-0.4938199999999999,-0.091594,1
115,-0.0131879999999999,0.7063949999999999,-0.166854,-0.154956,0.4987649999999999,-0.146074,-0.228526,0.749895,-0.271264,0.131174,0.508465,-0.1692739999999999,0.193424,0.7700149999999999,-0.293594,-0.210776,1.011725,-0.399864,0.195584,1.048355,-0.388774,-0.063342,-0.000835,0.002334,0.063342,0.0008349999999999,-0.0023339999999999,-0.214306,-0.094505,-0.309174,0.146084,-0.101025,-0.340994,-0.200936,-0.499035,-0.082246,0.198484,-0.5119450000000001,-0.090524,1
116,-0.0125379999999999,0.705315,-0.163398,-0.154714,0.501525,-0.144528,-0.227644,0.7588250000000001,-0.266808,0.131616,0.511225,-0.170408,0.193636,0.771575,-0.289948,-0.210524,1.015115,-0.391848,0.197386,1.052215,-0.384038,-0.063143,-0.0009549999999999,0.0026449999999999,0.063143,0.0009549999999999,-0.002645,-0.212994,-0.110715,-0.3032579999999999,0.143526,-0.114815,-0.334878,-0.200584,-0.5211950000000001,-0.083354,0.198186,-0.5323549999999999,-0.091239,1
117,-0.012025,0.70462,-0.159067,-0.154452,0.50412,-0.143237,-0.226802,0.7624,-0.2613769999999999,0.131968,0.51364,-0.171507,0.193628,0.77508,-0.285897,-0.210282,1.02298,-0.383497,0.1987179999999999,1.05555,-0.379007,-0.062863,-0.0009899999999999,0.002959,0.062863,0.0009899999999999,-0.002959,-0.211772,-0.12317,-0.297407,0.1414979999999999,-0.12549,-0.328547,-0.200612,-0.54068,-0.084703,0.1976679999999999,-0.5488200000000001,-0.09174,1
118,-0.01138,0.7012849999999999,-0.153872,-0.153888,0.504555,-0.1414419999999999,-0.226018,0.7652049999999999,-0.253872,0.132172,0.513485,-0.171752,0.193032,0.776755,-0.279912,-0.209918,1.030515,-0.375092,0.200362,1.057275,-0.372202,-0.062582,-0.0008549999999999,0.003348,0.062582,0.0008549999999999,-0.003348,-0.210508,-0.1352249999999999,-0.290882,0.139592,-0.136245,-0.3214519999999999,-0.200828,-0.560065,-0.085688,0.196422,-0.565455,-0.091671,1
119,-0.010829,0.6972499999999999,-0.1476505,-0.153164,0.50248,-0.1378505,-0.224704,0.7656799999999999,-0.2464605,0.128296,0.51301,-0.1708205,0.1917559999999999,0.7779499999999999,-0.2742305,-0.209644,1.03168,-0.3650405,0.200956,1.05866,-0.3649005,-0.062331,-0.00113,0.0036414999999999,0.062331,0.0011299999999999,-0.0036415,-0.209164,-0.14648,-0.2834205,0.138046,-0.14624,-0.3135605,-0.201224,-0.5794400000000001,-0.0867265,0.195066,-0.58138,-0.0924695,1
120,-0.0099585,0.691485,-0.1401815,-0.1527655,0.500735,-0.1345015,-0.2232655,0.765485,-0.2381915,0.1282245,0.512825,-0.1686215,0.1916044999999999,0.778465,-0.2681815,-0.2092455,1.032995,-0.3524115,0.2024045,1.059255,-0.3568615,-0.0620055,-0.001195,0.0036255,0.0620055,0.001195,-0.0036255,-0.2075055,-0.156875,-0.2747115,0.1367244999999999,-0.1558649999999999,-0.3052715,-0.2009355,-0.5982050000000001,-0.0871995,0.1934445,-0.596705,-0.0929224999999999,1
121,-0.0095779999999999,0.68981,-0.1330565,-0.153151,0.4981399999999999,-0.1318965,-0.222241,0.76745,-0.2291965,0.1276489999999999,0.51146,-0.1665765,0.190889,0.7789599999999999,-0.2621365,-0.209381,1.03602,-0.3404965,0.203009,1.06345,-0.3487865,-0.0616209999999999,-0.0012199999999999,0.0036065,0.0616209999999999,0.0012199999999999,-0.0036065,-0.205861,-0.16393,-0.2650665,0.134999,-0.16254,-0.2961165,-0.200891,-0.61351,-0.0873285,0.190969,-0.6094600000000001,-0.0933325,1
122,-0.009358,0.6861900000000001,-0.1257815,-0.153864,0.49445,-0.1295425,-0.220354,0.7683500000000001,-0.2203325,0.126776,0.51154,-0.1645125,0.189626,0.7815700000000001,-0.2553825,-0.209244,1.03859,-0.3279625,0.2031859999999999,1.0665,-0.3411725,-0.061062,-0.0015999999999999,0.0035784999999999,0.061062,0.0015999999999999,-0.0035785,-0.203604,-0.1678,-0.2544325,0.133296,-0.16791,-0.2863225,-0.201904,-0.6258699999999999,-0.0874235,0.187886,-0.6210899999999999,-0.0931795,1
123,-0.0087545,0.685745,-0.118297,-0.1541894999999999,0.487155,-0.126018,-0.2193395,0.767595,-0.21061,0.1267105,0.519085,-0.16033,0.1886205,0.793095,-0.2495899999999999,-0.2091095,1.036565,-0.3139,0.2039205,1.075345,-0.33276,-0.0603255,-0.003095,0.0037949999999999,0.0603255,0.0030949999999999,-0.003795,-0.1999294999999999,-0.172815,-0.24294,0.1324405,-0.173615,-0.27522,-0.2018795,-0.638475,-0.0869149999999999,0.1853305,-0.632735,-0.092543,1
124,-0.0079325,0.678455,-0.110958,-0.1547504999999999,0.476535,-0.122067,-0.2177504999999999,0.7588550000000001,-0.200489,0.1250695,0.522255,-0.156959,0.1869395,0.7974450000000001,-0.243109,-0.2085904999999999,1.030425,-0.299889,0.2048995,1.075435,-0.324739,-0.0599795,-0.0035649999999999,0.003917,0.0599795,0.003565,-0.003917,-0.1952404999999999,-0.1809349999999999,-0.229759,0.1319795,-0.1834349999999999,-0.2623689999999999,-0.2012105,-0.654245,-0.085997,0.1824695,-0.6483949999999999,-0.091054,1
125,-0.0072399999999999,0.67533,-0.104307,-0.155464,0.46486,-0.118949,-0.216684,0.74949,-0.190313,0.122896,0.5238,-0.154033,0.185266,0.80216,-0.236083,-0.208194,1.02896,-0.287203,0.205276,1.07585,-0.316513,-0.059458,-0.0036599999999999,0.004141,0.059458,0.0036599999999999,-0.0041409999999999,-0.190374,-0.18649,-0.216423,0.131296,-0.1916899999999999,-0.249683,-0.200644,-0.6661999999999999,-0.084813,0.180006,-0.6619600000000001,-0.09009,1
126,-0.0060274999999999,0.6741699999999999,-0.0978665,-0.1561545,0.46524,-0.1136435,-0.2151045,0.75186,-0.1803895,0.1204255,0.52381,-0.1512495,0.1840855,0.80364,-0.2284595,-0.2075044999999999,1.03164,-0.2756895,0.2056255,1.07775,-0.3052195,-0.0585865,-0.0032,0.0043935,0.0585865,0.0032,-0.0043934999999999,-0.1847045,-0.19503,-0.2024195,0.1312655,-0.2003,-0.2359795,-0.1994844999999999,-0.67986,-0.0833734999999999,0.1789755,-0.67491,-0.0891285,1
127,-0.0049209999999999,0.6741849999999999,-0.091191,-0.156888,0.4658949999999999,-0.109213,-0.213938,0.7536149999999999,-0.171642,0.118042,0.525055,-0.148052,0.182792,0.805585,-0.2211219999999999,-0.2085179999999999,1.034555,-0.262432,0.205782,1.079905,-0.294312,-0.057646,-0.002925,0.0046529999999999,0.057646,0.0029249999999999,-0.004653,-0.177778,-0.203825,-0.1871519999999999,0.131552,-0.211955,-0.2203419999999999,-0.1977779999999999,-0.6932050000000001,-0.0814759999999999,0.177712,-0.691745,-0.087374,1
128,-0.0033935,0.6737295,-0.085647,-0.1566045,0.4664895,-0.104587,-0.2119445,0.7551095,-0.162967,0.1193555,0.5249695,-0.145057,0.1840155,0.8070095,-0.213337,-0.2074244999999999,1.0366995,-0.250787,0.2063555,1.0814295,-0.283497,-0.0573725,-0.0022504999999999,0.004992,0.0573725,0.0022505,-0.004992,-0.1705144999999999,-0.2118104999999999,-0.172797,0.1315255,-0.2201105,-0.205067,-0.1955645,-0.7038805,-0.080062,0.1772855,-0.7029504999999999,-0.083905,1
129,-0.0018219999999999,0.6738230000000001,-0.0804324999999999,-0.156293,0.467223,-0.0993725,-0.2099929999999999,0.7567330000000001,-0.1554755,0.120707,0.525323,-0.1414555,0.185537,0.807833,-0.2053255,-0.208193,1.038263,-0.2406955,0.206777,1.082643,-0.2731555,-0.057204,-0.001753,0.0054375,0.057204,0.0017529999999999,-0.0054374999999999,-0.1634229999999999,-0.220777,-0.1583555,0.131797,-0.228847,-0.1885355,-0.193183,-0.715177,-0.0773885,0.178097,-0.7148570000000001,-0.0801055,1
130,-0.000218,0.672001,-0.070257,-0.155865,0.473021,-0.089253,-0.209165,0.7626609999999999,-0.143514,0.1221549999999999,0.524241,-0.132824,0.187025,0.8070609999999999,-0.192364,-0.209175,1.039801,-0.225954,0.207185,1.082471,-0.257314,-0.056993,-0.001466,0.005184,0.056993,0.001466,-0.0051839999999999,-0.156435,-0.228019,-0.139274,0.132395,-0.235279,-0.165104,-0.190085,-0.724279,-0.069773,0.179435,-0.724639,-0.071357,1
131,0.000668,0.673876,-0.057703,-0.155397,0.482896,-0.074902,-0.210417,0.763386,-0.130493,0.127683,0.5250360000000001,-0.1159029999999999,0.189223,0.807616,-0.177523,-0.208417,1.035596,-0.209753,0.207623,1.0832959999999998,-0.238543,-0.0569999999999999,-0.0014469999999999,0.005019,0.0569999999999999,0.001447,-0.005019,-0.148177,-0.250054,-0.1164429999999999,0.1314729999999999,-0.254164,-0.139983,-0.185567,-0.748044,-0.059056,0.181113,-0.746314,-0.058885,1
132,0.0011114999999999,0.6727815,-0.0457334999999999,-0.1547525,0.4933415,-0.0608655,-0.2120025,0.7675815,-0.1188875,0.1318475,0.5178214999999999,-0.1015274999999999,0.1921275,0.7993015,-0.1635375,-0.2091125,1.0383115,-0.1964175,0.2078674999999999,1.0781115,-0.2211775,-0.0571445,-0.0001824999999999,0.0049605,0.0571445,0.0001825,-0.0049605,-0.1409725,-0.2695485,-0.0955734999999999,0.1304074999999999,-0.2708685,-0.1166975,-0.1814625,-0.7687785,-0.0485135,0.1828074999999999,-0.7644085,-0.0470794999999999,1
133,0.0010865,0.6774565,-0.0340255,-0.1534045,0.5078665,-0.0468455,-0.2137445,0.7801764999999999,-0.1081585,0.1359355,0.5173865,-0.0873385,0.1945755,0.7950364999999999,-0.1499985,-0.2095845,1.0423765,-0.1838085,0.2079155,1.0788765,-0.2042185,-0.0575895,-6.950000000000012e-05,0.0047604999999999,0.0575895,6.950000000000012e-05,-0.0047604999999999,-0.1344044999999999,-0.2849135,-0.0771885,0.1295755,-0.2830935,-0.0965985,-0.1771444999999999,-0.7842435,-0.0377465,0.1848455,-0.7773635,-0.0354405,1
134,0.000721,0.682171,-0.023072,-0.151992,0.521191,-0.032714,-0.215522,0.782531,-0.097625,0.139028,0.517391,-0.073362,0.197048,0.791061,-0.137875,-0.209752,1.043321,-0.171385,0.208468,1.079721,-0.188415,-0.05823,8.99999999999998e-05,0.004586,0.05823,-8.99999999999998e-05,-0.004586,-0.128092,-0.300239,-0.060061,0.128978,-0.296199,-0.077425,-0.172652,-0.799729,-0.02621,0.186908,-0.791009,-0.023993,1
135,-0.0006514999999999,0.685449,-0.0126404999999999,-0.1513155,0.523139,-0.0192924999999999,-0.2170255,0.774409,-0.0876094999999999,0.1390745,0.518979,-0.0593144999999999,0.1972345,0.787069,-0.1252995,-0.2085955,1.033809,-0.1595295,0.2088645,1.074409,-0.1752695,-0.0589915,-0.000383,0.0042605,0.0589915,0.0003829999999999,-0.0042605,-0.1227155,-0.313721,-0.0445035,0.1275244999999999,-0.307811,-0.0594404999999999,-0.1688455,-0.813431,-0.0148845,0.1885845,-0.807021,-0.0128134999999999,1
136,-0.002475,0.689155,-0.0028175,-0.151336,0.5251349999999999,-0.0072405,-0.218916,0.766875,-0.0780675,0.138984,0.5206949999999999,-0.0449565,0.197054,0.783585,-0.1140275,-0.2096259999999999,1.025405,-0.1498975,0.208874,1.070505,-0.1629175,-0.05941,-0.001015,0.0037675,0.05941,0.001015,-0.0037675,-0.118976,-0.327525,-0.0311105,0.125514,-0.320105,-0.0436995,-0.165856,-0.8279449999999999,-0.0043065,0.190314,-0.824365,-0.0023925,1
137,-0.0050594999999999,0.6937019999999999,0.0069364999999999,-0.1522055,0.5286019999999999,0.0052275,-0.2220055,0.760802,-0.0671325,0.1384845,0.5245019999999999,-0.0300885,0.1967345,0.781412,-0.1033925,-0.2110755,1.014882,-0.1403125,0.2085145,1.068282,-0.1509325,-0.0595895,-0.0017339999999999,0.0029474999999999,0.0595895,0.0017339999999999,-0.0029474999999999,-0.1158055,-0.340288,-0.0187935,0.1240445,-0.332238,-0.0292245,-0.1633555,-0.841118,0.0060435,0.1914945,-0.8405480000000001,0.0064955,1
138,-0.0076695,0.6985125,0.0160044999999999,-0.1528605,0.5332525,0.0170265,-0.2252805,0.7557725,-0.0572955,0.1379095,0.5300425,-0.0155335,0.1963895,0.7806825000000001,-0.0927455,-0.2126605,1.0072325000000002,-0.1319855,0.2081395,1.0671325,-0.1398655,-0.0596735,-0.0022584999999999,0.0016865,0.0596735,0.0022584999999999,-0.0016865,-0.1129705,-0.3530475,-0.0082884999999999,0.1224595,-0.3439574999999999,-0.0169794999999999,-0.1609905,-0.8541875,0.0151864999999999,0.1923895,-0.8555475,0.0181315,1
139,-0.0105075,0.7039044999999999,0.019782,-0.1538945,0.5335145,0.02344,-0.2281845,0.7468644999999999,-0.053167,0.1385555,0.5365145,-0.005592,0.1969655,0.7805645,-0.087577,-0.2138445,1.0009745,-0.1294469999999999,0.2078155,1.0665745,-0.135007,-0.0597105,-0.0026245,0.0011579999999999,0.0597105,0.0026245,-0.0011579999999999,-0.1107945,-0.3628854999999999,-0.004406,0.1206555,-0.3548154999999999,-0.013281,-0.1590145,-0.8643455,0.0184159999999999,0.1934855,-0.8668055,0.0240109999999999,1
140,-0.0130085,0.7039044999999999,0.023138,-0.1552435,0.5335345,0.026847,-0.2300735,0.7469144999999999,-0.050301,0.1388665,0.5365145,-0.0009809999999999,0.1975065,0.7805645,-0.082681,-0.2164435,1.0033745,-0.1271709999999999,0.2077864999999999,1.0667745000000002,-0.1316409999999999,-0.0597545,-0.0026245,0.00116,0.0597545,0.0026245,-0.00116,-0.1105935,-0.3628854999999999,-0.0032809999999999,0.1206865,-0.3548154999999999,-0.0102239999999999,-0.1582835,-0.8643455,0.020831,0.1939965,-0.8670655,0.028914,1
141,-0.015559,0.7039044999999999,0.0267525,-0.156726,0.5335345,0.0305215,-0.2321659999999999,0.7469945,-0.0472705,0.139094,0.5365145,0.0042005,0.198174,0.7805645,-0.0776095,-0.219226,1.0045745,-0.1252395,0.207924,1.0667745000000002,-0.1281995,-0.059726,-0.0026245,0.0011584999999999,0.059726,0.0026245,-0.0011584999999999,-0.110506,-0.3628854999999999,-0.0020304999999999,0.120824,-0.3556855,-0.0068124999999999,-0.157636,-0.8643455,0.0233805,0.194114,-0.8713755000000001,0.0340795,1
142,-0.0178065,0.7039044999999999,0.0301599999999999,-0.1581695,0.5335345,0.034428,-0.2335995,0.7471844999999999,-0.04484,0.1393705,0.5365145,0.0096359999999999,0.1994505,0.7805645,-0.0727,-0.2219695,1.0054745,-0.12392,0.2088205,1.0667745000000002,-0.1253699999999999,-0.0598255,-0.0026245,0.0011639999999999,0.0598255,0.0026245,-0.001164,-0.1103995,-0.3628854999999999,-0.000587,0.1210105,-0.3556855,-0.003275,-0.1570295,-0.8643455,0.0257629999999999,0.1947405,-0.8713755000000001,0.038074,1
143,-0.019801,0.7061315,0.030809,-0.16037,0.5303115,0.035401,-0.23488,0.7433615,-0.044718,0.13809,0.5390915000000001,0.0122,0.1996099999999999,0.7774315,-0.0706219999999999,-0.22536,1.0036915,-0.126772,0.20879,1.0629915,-0.127072,-0.059875,-0.0024315,0.0005529999999999,0.059875,0.0024315,-0.0005529999999999,-0.11054,-0.3626585,-0.0018639999999999,0.12109,-0.3557685,-0.002715,-0.15688,-0.8640185,0.024416,0.19536,-0.8754284999999999,0.039909,1
144,-0.0213604999999999,0.707757,0.030311,-0.1619225,0.529637,0.03477,-0.2364125,0.7355470000000001,-0.044958,0.1372875,0.541837,0.013044,0.1996474999999999,0.776657,-0.0709989999999999,-0.2288925,1.002117,-0.130369,0.2088074999999999,1.061917,-0.130849,-0.0599585,-0.0022609999999999,-3.299999999999831e-05,0.0599585,0.0022609999999999,3.299999999999831e-05,-0.1106525,-0.362483,-0.0030499999999999,0.1211775,-0.355803,-0.0025079999999999,-0.1565325,-0.863863,0.022287,0.1958575,-0.879253,0.041349,1
145,-0.022748,0.7094065,0.029146,-0.163678,0.5292465000000001,0.034137,-0.2386279999999999,0.7327365,-0.0474359999999999,0.137162,0.5434765,0.013288,0.199622,0.7750665,-0.072004,-0.233128,1.0019465,-0.134494,0.209982,1.0599465,-0.135204,-0.060005,-0.0021884999999999,-0.0004189999999999,0.060005,0.0021884999999999,0.000419,-0.110768,-0.3623935,-0.0040899999999999,0.121352,-0.3557734999999999,-0.0029779999999999,-0.156238,-0.8638935,0.019671,0.196132,-0.8827735,0.042099,1
146,-0.0237645,0.710919,0.0276265,-0.1651595,0.529879,0.0327625,-0.2410095,0.735039,-0.0520324999999999,0.1371605,0.544659,0.0126865,0.2004405,0.773129,-0.0738395,-0.2382395,1.002789,-0.1389495,0.2129705,1.0571890000000002,-0.1400595,-0.0600475,-0.0021149999999999,-0.0006364999999999,0.0600475,0.002115,0.0006365,-0.1108595,-0.362321,-0.0051584999999999,0.1217205,-0.355761,-0.0037734999999999,-0.1560794999999999,-0.863981,0.0161645,0.1959505,-0.883841,0.0419455,1
147,-0.0246805,0.712394,0.0260895,-0.1668015,0.5306339999999999,0.0313305,-0.2448815,0.736964,-0.0568305,0.1370984999999999,0.545454,0.0119135,0.2028685,0.7726339999999999,-0.0771965,-0.2453215,1.003244,-0.1450865,0.2184385,1.056344,-0.1474764999999999,-0.0601065,-0.0020949999999999,-0.0006875,0.0601065,0.0020949999999999,0.0006875,-0.1110615,-0.362296,-0.0061454999999999,0.1223485,-0.355676,-0.0046225,-0.1562815,-0.864106,0.0125995,0.1953185,-0.8815860000000001,0.0375225,1
148,-0.0256299999999999,0.713897,0.0242065,-0.168719,0.5311269999999999,0.0298255,-0.250859,0.7381070000000001,-0.0617745,0.1368309999999999,0.5458369999999999,0.0112225,0.207751,0.769407,-0.0811824999999999,-0.254719,1.003017,-0.1539825,0.226381,1.051417,-0.1583524999999999,-0.060307,-0.0017299999999999,-0.0009214999999999,0.060307,0.00173,0.0009215,-0.1114189999999999,-0.361923,-0.0073434999999999,0.123141,-0.355923,-0.0052555,-0.156699,-0.8639030000000001,0.0086635,0.1944209999999999,-0.878873,0.0328635,1
149,-0.0263595,0.7158675,0.022092,-0.1707805,0.5316075,0.027934,-0.2595905,0.7372775,-0.068262,0.1369595,0.5454975,0.01008,0.2149895,0.7640775,-0.086079,-0.2654405,1.0012375,-0.167079,0.2363895,1.0431375,-0.173169,-0.0604964999999999,-0.0014834999999999,-0.000996,0.0604964999999999,0.0014834999999999,0.000996,-0.1119105,-0.3616725,-0.008913,0.1240695,-0.3560125,-0.006061,-0.1571705,-0.8638225,0.004204,0.1940995,-0.8766225,0.027907,1
150,-0.0269134999999999,0.7178880000000001,0.020436,-0.1726935,0.530968,0.02646,-0.2710435,0.7325480000000001,-0.073157,0.1375265,0.544448,0.009181,0.2252665,0.753808,-0.090834,-0.2775235,0.995348,-0.181554,0.2482965,1.028448,-0.190524,-0.0606245,-0.0014349999999999,-0.0008139999999999,0.0606245,0.001435,0.000814,-0.1124135,-0.361592,-0.0104399999999999,0.1249865,-0.355882,-0.006876,-0.1578935,-0.863872,-0.0001619999999999,0.1934065,-0.872352,0.023198,1
151,-0.027396,0.720017,0.019458,-0.174655,0.529767,0.025333,-0.284495,0.7219169999999999,-0.077356,0.138645,0.543397,0.009346,0.2380749999999999,0.7408969999999999,-0.095584,-0.294025,0.979457,-0.198194,0.262335,1.006957,-0.211254,-0.060749,-0.001315,-0.00072,0.060749,0.0013149999999999,0.00072,-0.1130849999999999,-0.3614429999999999,-0.011742,0.125765,-0.355843,-0.0075809999999999,-0.159515,-0.871283,-0.004084,0.1921949999999999,-0.867253,0.0191469999999999,1
152,-0.0278235,0.7226725,0.0193615,-0.1765675,0.5282925,0.0247965,-0.2997775,0.7066125000000001,-0.0809075,0.1397125,0.5412425000000001,0.0101905,0.2527925,0.7220625,-0.0992395,-0.3126975,0.9573325,-0.2128395,0.2792425,0.9759325,-0.2244995,-0.0608665,-0.0012725,-0.0006024999999999,0.0608665,0.0012724999999999,0.0006024999999999,-0.1138474999999999,-0.3613175,-0.0128135,0.1264925,-0.3557275,-0.0081375,-0.1610774999999999,-0.8780975,-0.0075185,0.1918525,-0.8637375,0.0157964999999999,1
153,-0.0283079999999999,0.7257994999999999,0.020447,-0.178763,0.5262494999999999,0.0252289999999999,-0.315293,0.6855295,-0.0843759999999999,0.140627,0.5386095,0.011787,0.267887,0.6984495,-0.100267,-0.333593,0.9245495,-0.224318,0.2983369999999999,0.9343895,-0.234048,-0.060988,-0.0012654999999999,-0.000452,0.060988,0.0012655,0.0004519999999999,-0.114813,-0.3612204999999999,-0.014367,0.126997,-0.3556405,-0.00894,-0.162713,-0.8843005,-0.010634,0.191457,-0.8595705,0.012635,0
154,-0.0288294999999999,0.729137,0.0221794999999999,-0.1806684999999999,0.5237470000000001,0.0253825,-0.3286285,0.658397,-0.0865335,0.1414415,0.535757,0.0131734999999999,0.2809315,0.669277,-0.0979235,-0.3552685,0.880127,-0.2316645,0.3178015,0.882227,-0.2394045,-0.0611515,-0.001286,-0.0003325,0.0611515,0.0012859999999999,0.0003325,-0.1158584999999999,-0.361143,-0.0161504999999999,0.1273615,-0.355543,-0.0099055,-0.1643685,-0.8900429999999999,-0.0136114999999999,0.1908715,-0.854993,0.0095815,0
155,-0.0292044999999999,0.7326495000000001,0.024293,-0.1824905,0.5210495,0.0257129999999999,-0.3390105,0.6254395,-0.086149,0.1421095,0.5324295,0.014467,0.2911195,0.6348495000000001,-0.092876,-0.3760305,0.8219495,-0.234355,0.3372995,0.8181995,-0.244095,-0.0612845,-0.0013244999999999,-0.0002999999999999,0.0612845,0.0013244999999999,0.0002999999999999,-0.1169605,-0.3610605,-0.017912,0.1277095,-0.3554305,-0.010797,-0.1662205,-0.8949805,-0.016242,0.1902695,-0.8500305,0.006836,0
156,-0.0294565,0.736309,0.0264639999999999,-0.1841015,0.518279,0.025771,-0.3458115,0.588389,-0.083434,0.1428585,0.5289090000000001,0.015445,0.2988085,0.595379,-0.084876,-0.3900015,0.753479,-0.236965,0.3491585,0.7453390000000001,-0.247975,-0.0614315,-0.00146,-0.0003969999999999,0.0614315,0.00146,0.0003969999999999,-0.1180415,-0.361061,-0.019719,0.1279985,-0.355251,-0.011644,-0.1680615,-0.8995909999999999,-0.018691,0.1896085,-0.845051,0.004451,0
157,-0.0297115,0.739889,0.028921,-0.1854795,0.515189,0.0257009999999999,-0.3494095,0.547319,-0.077489,0.1433005,0.5253789999999999,0.015893,0.3022605,0.555559,-0.075252,-0.3976295,0.676109,-0.239272,0.3554104999999999,0.6670889999999999,-0.250982,-0.0614895,-0.0017669999999999,-0.0002829999999999,0.0614895,0.0017669999999999,0.000283,-0.1190095,-0.361221,-0.021228,0.1283405,-0.354871,-0.012605,-0.1699895,-0.904001,-0.020605,0.1883005,-0.839191,0.0028649999999999,0
158,-0.0299875,0.7434179999999999,0.0314244999999999,-0.1866945,0.512228,0.0256425,-0.3495445,0.505698,-0.0696585,0.1434655,0.522308,0.0159654999999999,0.3023455,0.515018,-0.0630965,-0.3988745,0.593228,-0.2404685,0.3567455,0.5826279999999999,-0.2446885,-0.0615365,-0.0019749999999999,-0.0001904999999999,0.0615365,0.001975,0.0001904999999999,-0.1199345,-0.361292,-0.0224735,0.1286055,-0.3545919999999999,-0.0134225,-0.1718445,-0.907952,-0.0219255,0.1877255,-0.833422,0.0017225,0
159,-0.0303495,0.7469705000000001,0.033344,-0.1879144999999999,0.5100405,0.0252299999999999,-0.3495745,0.4645904999999999,-0.059641,0.1433054999999999,0.5195805,0.0153509999999999,0.3024655,0.4749305,-0.04988,-0.3992045,0.5072305,-0.2363869999999999,0.3566955,0.4960505,-0.234837,-0.0615545,-0.0021174999999999,-0.000127,0.0615545,0.0021175,0.0001269999999999,-0.1208545,-0.3613095,-0.02355,0.1287955,-0.3543895,-0.014079,-0.1732544999999999,-0.9115295,-0.023151,0.1871355,-0.8293094999999999,0.0004439999999999,0
160,-0.0306714999999999,0.750484,0.0345894999999999,-0.1888955,0.508444,0.0244654999999999,-0.3493455,0.426284,-0.0474905,0.1431345,0.516444,0.0138714999999999,0.3027945,0.4351939999999999,-0.0357325,-0.3990555,0.422404,-0.2258325,0.3571845,0.409804,-0.2174525,-0.0616135,-0.002218,-0.0001185,0.0616135,0.0022179999999999,0.0001185,-0.1215654999999999,-0.361266,-0.0246025,0.1291445,-0.354196,-0.0146624999999999,-0.1739155,-0.907696,-0.0244605,0.1866945,-0.8254159999999999,-0.0008314999999999,0
161,-0.0309595,0.7536405,0.0352055,-0.1897625,0.5068205,0.0235465,-0.3475625,0.3897305,-0.0323665,0.1430274999999999,0.5141005000000001,0.0126854999999999,0.3016675,0.3979805,-0.0205325,-0.3983525,0.3418305,-0.2052555,0.3582375,0.3300105,-0.1899455,-0.0616845,-0.0022665,-9.94999999999989e-05,0.0616845,0.0022665,9.94999999999989e-05,-0.1221925,-0.3611795,-0.0254535,0.1294975,-0.3540595,-0.0150475,-0.1744925,-0.9043695,-0.0255135,0.1869974999999999,-0.8232295,-0.0021905,0
162,-0.0311045,0.7562249999999999,0.0347009999999999,-0.1902035,0.5055649999999999,0.022779,-0.3403635,0.355255,-0.016802,0.1430565,0.511965,0.0118449999999999,0.2959665,0.363705,-0.006385,-0.3934935,0.264775,-0.176927,0.3554565,0.254825,-0.154757,-0.0617455,-0.002281,-0.000105,0.0617455,0.0022809999999999,0.0001049999999999,-0.1224435,-0.361085,-0.025953,0.1299664999999999,-0.353945,-0.015275,-0.1746535,-0.901885,-0.026345,0.1875264999999999,-0.8213550000000001,-0.003152,0
163,-0.0311695,0.7585295,0.0340419999999999,-0.1904385,0.5044394999999999,0.0221289999999999,-0.3289085,0.3250095,-0.001258,0.1428714999999999,0.5101895,0.0107789999999999,0.2853715,0.3329995,0.0073699999999999,-0.3807685,0.1971595,-0.141846,0.3476214999999999,0.1910095,-0.110904,-0.0617785,-0.0022675,-0.000127,0.0617785,0.0022674999999999,0.0001269999999999,-0.1227285,-0.3609705,-0.026328,0.1304515,-0.3538705,-0.01543,-0.1746185,-0.8995505,-0.026976,0.1878814999999999,-0.8196705,-0.003876,0
164,-0.031315,0.7605075,0.0335199999999999,-0.190555,0.5036575,0.021605,-0.313565,0.2998075,0.0139889999999999,0.142795,0.5087675,0.009263,0.272095,0.3077875,0.0202469999999999,-0.362625,0.1429975,-0.104817,0.334505,0.1396775,-0.071857,-0.06178,-0.0023064999999999,-0.0001619999999999,0.06178,0.0023064999999999,0.0001619999999999,-0.122955,-0.3609325,-0.026626,0.130875,-0.3537424999999999,-0.01557,-0.174455,-0.8976624999999999,-0.027407,0.188205,-0.8177325,-0.0044219999999999,0
165,-0.031571,0.7622795,0.033004,-0.190751,0.5030995,0.0206219999999999,-0.2972709999999999,0.2787995,0.027881,0.142689,0.5077695,0.007085,0.257389,0.2883595,0.031834,-0.339781,0.0992094999999999,-0.067673,0.315979,0.0985595,-0.033599,-0.061778,-0.0022855,-0.000122,0.061778,0.0022854999999999,0.000122,-0.123141,-0.3608905,-0.026982,0.131289,-0.3536205,-0.015772,-0.174321,-0.8957205,-0.027991,0.188489,-0.8158005,-0.004965,0
166,-0.031897,0.7637134999999999,0.0319205,-0.190934,0.5029634999999999,0.0193525,-0.281914,0.2621435,0.0399515,0.1425759999999999,0.5069134999999999,0.0045974999999999,0.244006,0.2717935,0.0435035,-0.315814,0.0641595,-0.0330325,0.296806,0.0663575,0.0003904999999999,-0.06179,-0.0022504999999999,-7.750000000000118e-05,0.06179,0.0022505,7.749999999999771e-05,-0.123294,-0.3608465,-0.0274555,0.131666,-0.3535365,-0.0160255,-0.174414,-0.8936165,-0.0285995,0.1884759999999999,-0.8141265000000001,-0.0055175,0
167,-0.032173,0.7646835000000001,0.0302935,-0.191058,0.5027135,0.0181124999999999,-0.269118,0.2480135,0.0511165,0.1425419999999999,0.5062635000000001,0.0023364999999999,0.233252,0.2578534999999999,0.0538195,-0.293898,0.0367445,-0.0062525,0.277412,0.0435205,0.0249355,-0.0618259999999999,-0.0022185,5.499999999998562e-06,0.0618259999999999,0.0022185,-5.499999999998562e-06,-0.123328,-0.3608065,-0.0278035,0.1320319999999999,-0.3534665,-0.0162425,-0.174468,-0.8920465,-0.0289565,0.1890919999999999,-0.8120664999999999,-0.0060535,0
168,-0.0324534999999999,0.765313,0.0285144999999999,-0.1911614999999999,0.502563,0.0172744999999999,-0.2599915,0.237363,0.0592924999999999,0.1426685,0.5056630000000001,0.0004414999999999,0.2252385,0.247943,0.0612494999999999,-0.2783215,0.015556,0.0152694999999999,0.2647685,0.028671,0.0452934999999999,-0.0618105,-0.0021719999999999,1.9499999999998685e-05,0.0618105,0.002172,-1.9500000000002154e-05,-0.1233414999999999,-0.360767,-0.0278585,0.1323385,-0.353437,-0.0162785,-0.1746415,-0.890627,-0.0290065,0.1897785,-0.811557,-0.0063195,0
169,-0.032684,0.7657705,0.0264915,-0.19127,0.5025205,0.0166195,-0.25345,0.2302805,0.0643475,0.14289,0.5053205,-0.0011714999999999,0.21983,0.2408405,0.0652435,-0.2690599999999999,0.0065544999999999,0.0294655,0.25599,0.0188375,0.0571625,-0.061781,-0.0021634999999999,1.8500000000001154e-05,0.061781,0.0021635,-1.8500000000001154e-05,-0.12332,-0.3607495,-0.0278595,0.13261,-0.3533795,-0.0162925,-0.17489,-0.8894095,-0.0289805,0.19057,-0.8112895,-0.0064185,0
170,-0.032871,0.76605,0.0242644999999999,-0.19143,0.5026799999999999,0.0161135,-0.25037,0.22624,0.0658245,0.14316,0.50515,-0.0025214999999999,0.21757,0.23771,0.0660284999999999,-0.26492,0.0025389999999999,0.0337755,0.25214,0.011489,0.0573545,-0.061741,-0.0021839999999999,1.6499999999999154e-05,0.061741,0.002184,-1.6499999999999154e-05,-0.12333,-0.36078,-0.0279205,0.13285,-0.35329,-0.0163045,-0.17497,-0.88898,-0.0289005,0.19158,-0.81227,-0.0066345,0
171,-0.033026,0.7662845,0.0220985,-0.191609,0.5028645,0.0156065,-0.250309,0.2267645,0.0658215,0.143401,0.5051245,-0.0035584999999999,0.2174009999999999,0.2377545,0.0660365,-0.2648589999999999,0.0030635,0.0337725,0.252201,0.0120135,0.0573515,-0.061708,-0.0021944999999999,1.4500000000000624e-05,0.061708,0.0021945,-1.4500000000000624e-05,-0.123379,-0.3607855,-0.0281195,0.133131,-0.3531855,-0.0163185,-0.175029,-0.8885055000000001,-0.0287995,0.192351,-0.8136355,-0.0063434999999999,0
172,-0.0330855,0.766379,0.0201865,-0.1917444999999999,0.503169,0.0153645,-0.2502245,0.227249,0.0659505,0.1436655,0.505199,-0.0041304999999999,0.2174855,0.238239,0.0661655,-0.2647744999999999,0.0035479999999999,0.0339015,0.2522855,0.012498,0.0574805,-0.0616715,-0.002193,-2.7499999999999747e-05,0.0616715,0.002193,2.7499999999999747e-05,-0.1234345,-0.360781,-0.0282595,0.1334455,-0.353101,-0.0162744999999999,-0.1750145,-0.888111,-0.0285475,0.1931355,-0.815921,-0.0062625,0
173,-0.033064,0.7664115,0.0186245,-0.191864,0.5034615,0.0151174999999999,-0.250114,0.2277315,0.0661705,0.143986,0.5053615,-0.0044184999999999,0.2175959999999999,0.2387215,0.0663855,-0.2646639999999999,0.0040304999999999,0.0341215,0.252346,0.0129805,0.0567164999999999,-0.061631,-0.0021694999999999,-7.749999999999771e-05,0.061631,0.0021694999999999,7.750000000000118e-05,-0.123484,-0.3607285,-0.0283524999999999,0.1337759999999999,-0.3530385,-0.0162065,-0.174924,-0.8876784999999999,-0.0281354999999999,0.193826,-0.8170885,-0.0060714999999999,0
174,-0.0330824999999999,0.766301,0.017432,-0.1919695,0.503601,0.0148829999999999,-0.2503195,0.228051,0.064785,0.1442505,0.505471,-0.0045189999999999,0.2175605,0.238911,0.064806,-0.2653195,0.006908,0.027332,0.2525805,0.016751,0.047224,-0.0616135,-0.0021459999999999,-0.000147,0.0616135,0.002146,0.000147,-0.1236295,-0.360659,-0.028456,0.1339905,-0.353039,-0.016133,-0.1746494999999999,-0.887459,-0.027604,0.1946305,-0.818549,-0.005641,0
175,-0.0330845,0.7661885,0.0166885,-0.1920655,0.5037285,0.0146995,-0.2533955,0.2316685,0.0601835,0.1444945,0.5056485000000001,-0.0044584999999999,0.2197345,0.2419585,0.0600495,-0.2700655,0.0140085,0.0129175,0.2560145,0.0246585,0.0300965,-0.0616225,-0.0021175,-0.0002474999999999,0.0616225,0.0021174999999999,0.0002475,-0.1237755,-0.3605715,-0.0285694999999999,0.1341545,-0.3530315,-0.0160104999999999,-0.1743655,-0.8871815,-0.0272485,0.1954345,-0.8202115,-0.0056124999999999,0
176,-0.0330825,0.7660575000000001,0.016325,-0.1921755,0.5038975,0.0146419999999999,-0.2589055,0.2376774999999999,0.052533,0.1447244999999999,0.5058775,-0.004114,0.2227245,0.2458474999999999,0.05339,-0.2786355,0.0237164999999999,-0.0081959999999999,0.2616645,0.0339315,0.008034,-0.0616344999999999,-0.0020885,-0.000392,0.0616344999999999,0.0020885,0.000392,-0.1239255,-0.3604825,-0.028626,0.1342644999999999,-0.3530224999999999,-0.0158439999999999,-0.1740755,-0.8867925,-0.02675,0.1961045,-0.8218825,-0.005395,0
177,-0.032974,0.7659374999999999,0.0163424999999999,-0.19229,0.5041475,0.0148164999999999,-0.26514,0.2444874999999999,0.0435305,0.14493,0.5061875,-0.0035435,0.22638,0.2474775,0.0449595,-0.29004,0.0343215,-0.0344845,0.2700599999999999,0.0425785,-0.0200895,-0.061643,-0.0020365,-0.0005735,0.061643,0.0020365,0.0005734999999999,-0.12408,-0.3603925,-0.0284935,0.13433,-0.3530225,-0.0156225,-0.1740499999999999,-0.8858725000000001,-0.0260345,0.19671,-0.8237025,-0.0049555,0
178,-0.032857,0.7658185,0.017082,-0.192432,0.5044084999999999,0.015162,-0.272252,0.2521185,0.032988,0.145098,0.5064384999999999,-0.0026459999999999,0.230208,0.2477385,0.034914,-0.301042,0.0472995,-0.063326,0.277908,0.0513805,-0.047763,-0.061627,-0.0019805,-0.0007869999999999,0.061627,0.0019805,0.0007869999999999,-0.124232,-0.3602915,-0.0282159999999999,0.134358,-0.3530415,-0.015344,-0.174102,-0.8856115000000001,-0.025377,0.196368,-0.8241515,-0.0043079999999999,0
179,-0.0328405,0.7656590000000001,0.0180275,-0.1926085,0.5046390000000001,0.0157124999999999,-0.2789185,0.259739,0.0219204999999999,0.1452115,0.5066390000000001,-0.0015845,0.2336415,0.2479489999999999,0.0241165,-0.3094285,0.061725,-0.0895245,0.2809415,0.060046,-0.0746755,-0.0616015,-0.0019399999999999,-0.0010085,0.0616015,0.0019399999999999,0.0010084999999999,-0.1243185,-0.360201,-0.0279295,0.1343214999999999,-0.353071,-0.0150735,-0.1741685,-0.885351,-0.0247175,0.1961815,-0.825761,-0.0033485,0
180,-0.0328235,0.76543,0.019153,-0.1927974999999999,0.50476,0.016405,-0.2840075,0.26703,0.012323,0.1453025,0.50681,-0.0003919999999999,0.2374725,0.2480099999999999,0.01033,-0.3156475,0.077988,-0.11392,0.2822225,0.07024,-0.103519,-0.0616065,-0.0018889999999999,-0.0011389999999999,0.0616065,0.001889,0.001139,-0.1243475,-0.36013,-0.027689,0.1343025,-0.35312,-0.0147839999999999,-0.1741275,-0.88462,-0.024061,0.1959925,-0.82639,-0.0032809999999999,0
181,-0.0327999999999999,0.7652045,0.0203874999999999,-0.193001,0.5047645,0.0171595,-0.2876209999999999,0.2748045,0.0049295,0.1453789999999999,0.5070245,0.0009034999999999,0.240219,0.2493245,-0.0008415,-0.317391,0.0915865,-0.1345724999999999,0.281999,0.0840955,-0.1293925,-0.061625,-0.0018495,-0.0012445,0.061625,0.0018495,0.0012444999999999,-0.124381,-0.3600655,-0.0276305,0.134269,-0.3531855,-0.0146245,-0.173831,-0.8833255000000001,-0.0234665,0.1959189999999999,-0.8253255,-0.0039675,0
182,-0.0323045,0.7651525,0.0191695,-0.1928845,0.5050825,0.0168364999999999,-0.2904045,0.2907025,-0.0071685,0.1457555,0.5075325,0.0012214999999999,0.2384255,0.2782325,-0.0021925,-0.3302045,0.1174225,-0.1700565,0.2939655,0.1107925,-0.1445465,-0.0617015,-0.0018225,-0.0015275,0.0617015,0.0018224999999999,0.0015274999999999,-0.1245445,-0.3600474999999999,-0.0271555,0.1346755,-0.3532175,-0.0149665,-0.1715745,-0.8808875,-0.0248955,0.2077855,-0.8521375,-0.0303435,0
183,-0.032496,0.7645845,0.0205409999999999,-0.193316,0.5047345,0.017831,-0.292036,0.2958745,-0.010383,0.145764,0.5075445000000001,0.0028499999999999,0.237544,0.2854045,-0.005674,-0.330646,0.1328345,-0.178613,0.295554,0.1318045,-0.162633,-0.0616769999999999,-0.0016964999999999,-0.001642,0.0616769999999999,0.0016965,0.0016419999999999,-0.124556,-0.3599354999999999,-0.027587,0.134394,-0.3534155,-0.015032,-0.171686,-0.8822355,-0.02288,0.201784,-0.8311255,0.0004789999999999,0
184,-0.0325364999999999,0.7644965,0.0232134999999999,-0.1936345,0.5045965,0.0198845,-0.2925145,0.3016764999999999,-0.0119945,0.1457955,0.5078865,0.0056394999999999,0.2555855,0.2498165,-0.0511185,-0.3331745,0.1556465,-0.1820975,0.3083855,0.0968565,-0.2105875,-0.0617285,-0.0017225,-0.0012715,0.0617285,0.0017225,0.0012715,-0.1245045,-0.3599635,-0.0267795,0.1341155,-0.3533335,-0.0135425,-0.1732344999999999,-0.8810935,-0.0222195,0.2005255,-0.8280635000000001,0.0023304999999999,0
185,-0.0326049999999999,0.7643945,0.028733,-0.193936,0.5044945,0.023335,-0.293126,0.3044845,-0.009986,0.145824,0.5081045,0.010183,0.255584,0.2502245,-0.0478289999999999,-0.329166,0.1595145,-0.182101,0.306794,0.1083045,-0.218101,-0.061781,-0.0018755,-0.001509,0.061781,0.0018754999999999,0.001509,-0.124606,-0.3599455,-0.027755,0.133804,-0.3531255,-0.014156,-0.1731059999999999,-0.8844655,-0.021761,0.189574,-0.8909755,-0.004216,0
186,-0.0332079999999999,0.7636605000000001,0.030816,-0.194288,0.5040105,0.0244309999999999,-0.293658,0.3040905,-0.008789,0.145682,0.5081705000000001,0.0124979999999999,0.255302,0.2503305,-0.0456749999999999,-0.327588,0.1674604999999999,-0.18827,0.2628319999999999,0.1633005,-0.25714,-0.061765,-0.0017844999999999,-0.0016519999999999,0.061765,0.0017845,0.001652,-0.124578,-0.3597995,-0.026261,0.132812,-0.3534394999999999,-0.014187,-0.173348,-0.8853495,-0.019531,0.190612,-0.8153195,-0.006088,0
187,-0.0331715,0.7631830000000001,0.0331365,-0.1943675,0.503653,0.0254704999999999,-0.2932075,0.303353,-0.0066285,0.1457325,0.5080830000000001,0.0137935,0.2550125,0.249833,-0.0423865,-0.3211375,0.165523,-0.1862535,0.2615825,0.162953,-0.2539535,-0.0616755,-0.001687,-0.0017375,0.0616755,0.001687,0.0017374999999999,-0.1237175,-0.359797,-0.0251985,0.1323425,-0.353667,-0.0146545,-0.1688975,-0.8616969999999999,-0.0180025,0.1913524999999999,-0.815357,-0.0033545,0
188,-0.033278,0.763203,0.034565,-0.194553,0.503223,0.0253839999999999,-0.292743,0.302463,-0.005084,0.1457669999999999,0.5083030000000001,0.014861,0.253407,0.249183,-0.039788,-0.303953,0.139473,-0.2620389999999999,0.258707,0.162403,-0.251509,-0.061664,-0.0019059999999999,-0.0014059999999999,0.061664,0.001906,0.001406,-0.120943,-0.360407,-0.023417,0.132067,-0.353607,-0.016447,-0.172893,-0.886577,-0.015924,0.1902869999999999,-0.814537,-0.0019459999999999,0
