sb224sc-HT22-VT27/4dt907/src/data/labeled_files/A75_kinect.csv
FrameNo,nose_3d_x,nose_3d_y,nose_3d_z,left_shoulder_3d_x,left_shoulder_3d_y,left_shoulder_3d_z,left_elbow_3d_x,left_elbow_3d_y,left_elbow_3d_z,right_shoulder_3d_x,right_shoulder_3d_y,right_shoulder_3d_z,right_elbow_3d_x,right_elbow_3d_y,right_elbow_3d_z,left_wrist_3d_x,left_wrist_3d_y,left_wrist_3d_z,right_wrist_3d_x,right_wrist_3d_y,right_wrist_3d_z,left_hip_3d_x,left_hip_3d_y,left_hip_3d_z,right_hip_3d_x,right_hip_3d_y,right_hip_3d_z,left_knee_3d_x,left_knee_3d_y,left_knee_3d_z,right_knee_3d_x,right_knee_3d_y,right_knee_3d_z,left_ankle_3d_x,left_ankle_3d_y,left_ankle_3d_z,right_ankle_3d_x,right_ankle_3d_y,right_ankle_3d_z,activity_label
0,-0.021674,0.718816,0.034157,-0.166707,0.517626,0.01609,-0.238737,0.7458760000000001,-0.069364,0.125583,0.5759960000000001,0.018463,0.178513,0.7938360000000001,-0.063546,-0.233697,0.996586,-0.146584,0.163953,1.075966,-0.1125939999999999,-0.060336,-0.001886,-0.0003739999999999,0.060336,0.001886,0.0003739999999999,-0.119127,-0.361444,-0.018455,0.116543,-0.355484,0.0069059999999999,-0.167757,-0.862404,0.006437,0.1761029999999999,-0.8555839999999999,0.025953,0
1,-0.018598,0.719673,0.0321365,-0.16543,0.517703,0.0151604999999999,-0.23884,0.746453,-0.0636965,0.12501,0.5759029999999999,0.0184494999999999,0.17739,0.796573,-0.0619075,-0.23008,1.031363,-0.1479565,0.16521,1.077963,-0.1098565,-0.06012,-0.001749,0.0001354999999999,0.06012,0.001749,-0.0001355,-0.11923,-0.361327,-0.0187955,0.11637,-0.355627,0.0064464999999999,-0.16816,-0.862177,0.0072564999999999,0.17584,-0.855777,0.0250384999999999,0
2,-0.0180935,0.7196535,0.031163,-0.1675174999999999,0.5193035,0.017801,-0.2395375,0.7459635,-0.061422,0.1243025,0.5753535,0.018459,0.1765925,0.7984835,-0.0603629999999999,-0.2308675,1.0303235,-0.147709,0.1664925,1.0804235,-0.105159,-0.0601705,-0.0018774999999999,0.0007269999999999,0.0601705,0.0018774999999999,-0.0007269999999999,-0.1193475,-0.3614965,-0.018705,0.1158625,-0.3555765,0.006196,-0.1685775,-0.8623465,0.007024,0.1730625,-0.8559465,0.025606,1
3,-0.0171114999999999,0.7197575,0.03018,-0.1659244999999999,0.5186075,0.017185,-0.2395945,0.7472975000000001,-0.060668,0.1244955,0.5762275,0.019549,0.1771355,0.8425475,-0.062042,-0.2307145,1.0317575,-0.1467,0.1677955,1.0833575,-0.10385,-0.0601245,-0.0018225,0.000722,0.0601245,0.0018225,-0.000722,-0.1190845,-0.3614925,-0.018983,0.1163655,-0.3555025,0.006455,-0.1686145,-0.8623125,0.006921,0.1734955,-0.8560625,0.023272,1
4,-0.015018,0.720781,0.0300705,-0.169478,0.512531,0.0184475,-0.239848,0.748221,-0.0609535,0.124222,0.574391,0.0185815,0.1769919999999999,0.856441,-0.0657135,-0.226358,1.032721,-0.1461225,0.1686119999999999,1.085121,-0.1048625,-0.060326,-0.001639,-0.0002864999999999,0.060326,0.001639,0.0002865,-0.1193279999999999,-0.3612889999999999,-0.0198865,0.115842,-0.355919,0.0063655,-0.168888,-0.862119,0.0056595,0.173422,-0.856459,0.0225165,1
5,-0.016499,0.7178910000000001,0.0261049999999999,-0.169819,0.513181,0.016817,-0.240549,0.7442110000000001,-0.06446,0.124551,0.570881,0.016582,0.176181,0.852591,-0.069983,-0.234309,1.025961,-0.160463,0.169491,1.081661,-0.108733,-0.059805,-0.0012849999999999,-0.001434,0.059805,0.0012849999999999,0.0014339999999999,-0.1190389999999999,-0.361049,-0.02248,0.114861,-0.3567789999999999,0.0045399999999999,-0.168969,-0.861949,0.0021849999999999,0.171121,-0.857719,0.0168489999999999,1
6,-0.0152865,0.716912,0.024551,-0.1684385,0.514012,0.015185,-0.2388585,0.743932,-0.067423,0.1263314999999999,0.569682,0.015088,0.1780515,0.850932,-0.073151,-0.2317885,1.025302,-0.164292,0.1746815,1.081302,-0.113772,-0.0597095,-0.001272,-0.0020559999999999,0.0597095,0.0012719999999999,0.002056,-0.1193284999999999,-0.360978,-0.0221229999999999,0.1137515,-0.3570879999999999,0.004494,-0.1709285,-0.8618279999999999,0.00123,0.1692014999999999,-0.8580679999999999,0.017853,1
7,-0.017912,0.7174215,0.022074,-0.169879,0.5143415,0.011595,-0.239419,0.7473215000000001,-0.073867,0.125111,0.5688115,0.010274,0.180621,0.8219415,-0.078356,-0.229789,1.0268115,-0.171376,0.176581,1.0784115,-0.1257059999999999,-0.059991,-0.0019095,-0.001388,0.059991,0.0019094999999999,0.001388,-0.119019,-0.3614685,-0.018327,0.114601,-0.3566985,0.0020379999999999,-0.170429,-0.8627484999999999,-0.000966,0.176951,-0.8987784999999999,0.019522,1
8,-0.0181759999999999,0.7174215,0.018645,-0.170259,0.5143415,0.008865,-0.239249,0.7473215000000001,-0.077165,0.125051,0.5672115000000001,0.007538,0.1817909999999999,0.8219515000000001,-0.082604,-0.229459,1.0268115,-0.178804,0.178861,1.0784115,-0.131364,-0.060015,-0.0019095,-0.0016419999999999,0.060015,0.0019094999999999,0.001642,-0.119169,-0.3614685,-0.0182109999999999,0.114311,-0.3566985,-0.0006929999999999,-0.170949,-0.8627484999999999,-0.0033719999999999,0.176211,-0.8998385,0.018334,1
9,-0.0185624999999999,0.7170115,0.014386,-0.1707565,0.5142115,0.005977,-0.2390064999999999,0.7473215000000001,-0.082047,0.1249935,0.5651215,0.004402,0.1829735,0.8219515000000001,-0.089452,-0.2291065,1.0257115,-0.186822,0.1812435,1.0777115,-0.138502,-0.0600285,-0.0019095,-0.0017819999999999,0.0600285,0.0019094999999999,0.001782,-0.1195664999999999,-0.3614685,-0.018777,0.1140235,-0.3566985,-0.003585,-0.1715165,-0.8627484999999999,-0.005909,0.1772335,-0.9129385,0.017006,1
10,-0.0190224999999999,0.715869,0.0096415,-0.1711055,0.513689,0.0030384999999999,-0.2387955,0.747429,-0.0879465,0.1247745,0.562529,0.0009385,0.1843245,0.822059,-0.0963965,-0.2285555,1.024419,-0.1949265,0.1837645,1.075619,-0.1476065,-0.0601644999999999,-0.001924,-0.0017325,0.0601644999999999,0.0019239999999999,0.0017324999999999,-0.1200654999999999,-0.361491,-0.0201335,0.1137045,-0.356861,-0.0065134999999999,-0.1721255,-0.862871,-0.0084855,0.1782845,-0.926221,0.0155545,1
11,-0.0195425,0.7149625000000001,0.0034504999999999,-0.1711455,0.5139725,-0.0017165,-0.2387855,0.7473925,-0.0957615,0.1245945,0.5582925,-0.0057585,0.1854745,0.8174025,-0.1055715,-0.2278955,1.0233124999999998,-0.2044315,0.1857445,1.0731125,-0.1584715,-0.0603594999999999,-0.0019835,-0.0016815,0.0603594999999999,0.0019835,0.0016814999999999,-0.1206555,-0.3615275,-0.0232975,0.1134444999999999,-0.3571775,-0.0112225,-0.1728255,-0.8629975,-0.0121185,0.1792445,-0.9377975,0.0129944999999999,1
12,-0.0203159999999999,0.7134765,-0.004215,-0.170909,0.5152464999999999,-0.0074789999999999,-0.238699,0.7464465,-0.104794,0.124321,0.5536464999999999,-0.0135269999999999,0.186571,0.8118265,-0.115094,-0.226709,1.0213265,-0.215364,0.187701,1.0693265,-0.170964,-0.060472,-0.0021085,-0.00145,0.060472,0.0021085,0.00145,-0.1212989999999999,-0.3615435,-0.0273599999999999,0.113371,-0.3573435,-0.0170579999999999,-0.173599,-0.8630835,-0.016179,0.180141,-0.9484635,0.009929,1
13,-0.0209084999999999,0.7115889999999999,-0.0126045,-0.1706134999999999,0.516749,-0.0135274999999999,-0.2385735,0.745589,-0.1145945,0.1240565,0.5492589999999999,-0.0218604999999999,0.1870765,0.807349,-0.1255245,-0.2247535,1.019689,-0.2272945,0.1894965,1.065489,-0.1841745,-0.0605674999999999,-0.002283,-0.0011375,0.0605674999999999,0.002283,0.0011374999999999,-0.1222035,-0.3615109999999999,-0.0314155,0.1133865,-0.357321,-0.0236275,-0.1744434999999999,-0.863091,-0.0202355,0.1812665,-0.958111,0.0062285,1
14,-0.0216014999999999,0.7092149999999999,-0.0218885,-0.1702334999999999,0.519035,-0.0198835,-0.2384135,0.744265,-0.1253305,0.1237665,0.545265,-0.0306415,0.1876864999999999,0.805075,-0.1361004999999999,-0.2220935,1.017985,-0.2378505,0.1910965,1.061085,-0.1977404999999999,-0.0606945,-0.002301,-0.0008135,0.0606945,0.002301,0.0008135,-0.1232635,-0.361265,-0.0356115,0.1137065,-0.357315,-0.0313984999999999,-0.1759835,-0.869965,-0.0242535,0.1826565,-0.964525,0.0022634999999999,1
15,-0.0221275,0.7067935000000001,-0.031405,-0.1695684999999999,0.5200735,-0.027201,-0.2383185,0.7431835,-0.13657,0.1234315,0.5379935,-0.040205,0.1883715,0.7998035,-0.14706,-0.2190585,1.0164135,-0.24918,0.1917815,1.0578135,-0.2108,-0.0609225,-0.0022205,-0.000557,0.0609225,0.0022205,0.000557,-0.1246585,-0.3605465,-0.040974,0.1144115,-0.3571764999999999,-0.0401199999999999,-0.1771885,-0.8751964999999999,-0.027812,0.1822215,-0.9571665,-0.002251,1
16,-0.022666,0.703074,-0.0410945,-0.1688029999999999,0.521404,-0.0345495,-0.238393,0.7423639999999999,-0.1479395,0.122987,0.531764,-0.0494065,0.189077,0.793974,-0.1591795,-0.215243,1.015304,-0.2601395,0.192107,1.054234,-0.2243195,-0.0612869999999999,-0.0020459999999999,-0.0001294999999999,0.0612869999999999,0.0020459999999999,0.0001294999999999,-0.1264829999999999,-0.3594859999999999,-0.0466715,0.115477,-0.356906,-0.0495215,-0.1786829999999999,-0.877986,-0.0310645,0.181947,-0.949746,-0.0053235,1
17,-0.023116,0.699285,-0.050473,-0.168338,0.522815,-0.042064,-0.238408,0.7417050000000001,-0.159395,0.122842,0.524795,-0.058626,0.189802,0.788815,-0.171125,-0.210468,1.014065,-0.271445,0.191612,1.0514949999999998,-0.238245,-0.06153,-0.0019439999999999,0.0004009999999999,0.06153,0.001944,-0.000401,-0.128708,-0.358305,-0.053902,0.1169819999999999,-0.356145,-0.059035,-0.180218,-0.8797849999999999,-0.0335359999999999,0.181762,-0.941485,-0.00778,1
18,-0.0234354999999999,0.695704,-0.0593775,-0.1677495,0.520904,-0.0502285,-0.2383694999999999,0.742174,-0.1712765,0.1226004999999999,0.518564,-0.0676915,0.1902405,0.783894,-0.1813064999999999,-0.2052794999999999,1.014104,-0.2823565,0.1918505,1.049454,-0.2518665,-0.0616484999999999,-0.001805,0.0008834999999999,0.0616484999999999,0.001805,-0.0008835,-0.1315494999999999,-0.356796,-0.0619325,0.1190504999999999,-0.355166,-0.0690045,-0.1815895,-0.879146,-0.0357985,0.1814405,-0.929076,-0.0107635,1
19,-0.0236534999999999,0.692019,-0.0675745,-0.1669494999999999,0.520089,-0.0575825,-0.2384295,0.743479,-0.1827665,0.1225905,0.511879,-0.0763264999999999,0.1906805,0.779189,-0.1913365,-0.1999194999999999,1.014229,-0.2928565,0.1918705,1.047469,-0.2639565,-0.0616614999999999,-0.00163,0.0011985,0.0616614999999999,0.0016299999999999,-0.0011985,-0.1349695,-0.354861,-0.0707305,0.1214104999999999,-0.353751,-0.0790035,-0.1829595,-0.876311,-0.0371115,0.1812005,-0.915041,-0.0129944999999999,1
20,-0.023797,0.6884779999999999,-0.0745784999999999,-0.166709,0.518288,-0.0635825,-0.238059,0.745208,-0.1930705,0.122761,0.508228,-0.0821285,0.191101,0.775368,-0.1999805,-0.194619,1.015738,-0.3022605,0.191891,1.046448,-0.2755205,-0.0618819999999999,-0.0014269999999999,0.0012624999999999,0.0618819999999999,0.0014269999999999,-0.0012624999999999,-0.138689,-0.352392,-0.0800885,0.124191,-0.351952,-0.0882915,-0.183929,-0.870712,-0.0375595,0.181191,-0.8990720000000001,-0.0143074999999999,1
21,-0.0241665,0.684378,-0.082854,-0.1665454999999999,0.516358,-0.071115,-0.2378154999999999,0.747718,-0.204136,0.1229844999999999,0.503258,-0.089602,0.1912445,0.769418,-0.210526,-0.1899855,1.018128,-0.312616,0.1919745,1.040608,-0.2881459999999999,-0.0621795,-0.0012729999999999,0.0013959999999999,0.0621795,0.0012729999999999,-0.0013959999999999,-0.1426754999999999,-0.349552,-0.091873,0.1270045,-0.3497719999999999,-0.099494,-0.1848755,-0.8630519999999999,-0.039785,0.1812745,-0.881842,-0.017106,1
22,-0.0247979999999999,0.6813855,-0.090597,-0.1666659999999999,0.5134055,-0.07896,-0.2377659999999999,0.7441355000000001,-0.2152,0.122874,0.5000255,-0.096786,0.190534,0.7618055,-0.22065,-0.186246,1.0134555,-0.32276,0.191154,1.0369155,-0.29979,-0.062648,-0.0010365,0.0015179999999999,0.062648,0.0010364999999999,-0.001518,-0.147446,-0.3424045,-0.1049519999999999,0.129494,-0.3438445,-0.111935,-0.1862359999999999,-0.8521845,-0.041712,0.180904,-0.8627144999999999,-0.01989,1
23,-0.025051,0.679195,-0.097812,-0.1663799999999999,0.510545,-0.087179,-0.23713,0.743035,-0.225296,0.12291,0.496845,-0.104411,0.1908099999999999,0.756145,-0.230266,-0.18242,1.010895,-0.332856,0.1905899999999999,1.034805,-0.310856,-0.062862,-0.0010249999999999,0.001499,0.062862,0.0010249999999999,-0.001499,-0.15197,-0.333045,-0.118526,0.13262,-0.335325,-0.124706,-0.18633,-0.832365,-0.043865,0.18133,-0.842895,-0.022551,1
24,-0.0254455,0.6764300000000001,-0.1057424999999999,-0.1663565,0.50934,-0.0952595,-0.2363965,0.7419,-0.2352655,0.1228235,0.49813,-0.1120255,0.1910035,0.75139,-0.2401454999999999,-0.1795165,1.00871,-0.3438755,0.1894634999999999,1.02912,-0.3224154999999999,-0.0630614999999999,-0.0010699999999999,0.0016154999999999,0.0630614999999999,0.00107,-0.0016154999999999,-0.1564765,-0.32171,-0.1316555,0.1356435,-0.32491,-0.1384855,-0.1864165,-0.8116300000000001,-0.0471474999999999,0.1816235,-0.8208599999999999,-0.0263095,1
25,-0.0259479999999999,0.676735,-0.1150595,-0.166181,0.5045550000000001,-0.1060465,-0.2354609999999999,0.742815,-0.2471745,0.121679,0.499235,-0.1223955,0.190659,0.754375,-0.2509145,-0.178801,1.008995,-0.3565945,0.188099,1.024965,-0.3351145,-0.063174,-0.0015049999999999,0.0017635,0.063174,0.001505,-0.0017634999999999,-0.162041,-0.302995,-0.1520845,0.139299,-0.307005,-0.1582445,-0.186631,-0.784355,-0.0535085,0.182219,-0.791655,-0.0331604999999999,1
26,-0.0267195,0.678105,-0.1239405,-0.1661695,0.500805,-0.1157775,-0.2354095,0.744105,-0.2579015,0.1202705,0.502385,-0.1316915,0.1897505,0.7562450000000001,-0.2609115,-0.1788895,1.011225,-0.3679715,0.1864805,1.020895,-0.3461315,-0.0630775,-0.001465,0.0016814999999999,0.0630775,0.0014649999999999,-0.0016815,-0.1677195,-0.285175,-0.1717615,0.1424205,-0.289335,-0.1768515,-0.1891495,-0.7537050000000001,-0.0611345,0.1825004999999999,-0.762435,-0.0397115,1
27,-0.027452,0.679235,-0.13182,-0.166701,0.500345,-0.123812,-0.235401,0.744095,-0.267169,0.118819,0.503285,-0.139719,0.188649,0.757425,-0.269339,-0.178871,1.011895,-0.378509,0.184799,1.018305,-0.355539,-0.062999,-0.001895,0.0015609999999999,0.062999,0.0018949999999999,-0.0015609999999999,-0.172971,-0.265185,-0.190459,0.145579,-0.269285,-0.194209,-0.191931,-0.723095,-0.068074,0.182779,-0.732985,-0.045235,1
28,-0.028187,0.681805,-0.1382555,-0.1671129999999999,0.498645,-0.1312125,-0.235513,0.743545,-0.2745155,0.1174569999999999,0.506445,-0.1464055,0.186527,0.760745,-0.2766355,-0.1787129999999999,1.007965,-0.3875855,0.183137,1.016645,-0.3640355,-0.062916,-0.002145,0.0013035,0.062916,0.002145,-0.0013034999999999,-0.177783,-0.2438349999999999,-0.2083255,0.149257,-0.248195,-0.2104654999999999,-0.1947229999999999,-0.692735,-0.0741565,0.183257,-0.703465,-0.0500535,1
29,-0.028901,0.68442,-0.143667,-0.167331,0.4985,-0.137243,-0.2348309999999999,0.74033,-0.280567,0.116079,0.50874,-0.152437,0.184479,0.7611300000000001,-0.282377,-0.178791,1.00455,-0.395467,0.181389,1.01521,-0.370787,-0.062839,-0.00272,0.001039,0.062839,0.00272,-0.0010389999999999,-0.182661,-0.22092,-0.226567,0.153329,-0.2253,-0.226377,-0.197841,-0.6625099999999999,-0.079706,0.183839,-0.6752499999999999,-0.0542659999999999,1
30,-0.029511,0.68805,-0.1484355,-0.167497,0.4974999999999999,-0.1429254999999999,-0.234657,0.7390399999999999,-0.2864055,0.114883,0.5116799999999999,-0.1579055,0.182603,0.7640899999999999,-0.2874355,-0.179277,1.00197,-0.4032055,0.179533,1.02014,-0.3765055,-0.062645,-0.00314,0.0008254999999999,0.062645,0.0031399999999999,-0.0008254999999999,-0.187227,-0.19751,-0.2439055,0.157543,-0.20189,-0.2417355,-0.201017,-0.63178,-0.0847605,0.184743,-0.6457700000000001,-0.0584025,1
31,-0.0304515,0.69133,-0.152494,-0.1677995,0.49736,-0.147844,-0.2346995,0.7450000000000001,-0.291334,0.1135205,0.5147,-0.162744,0.1804805,0.7695700000000001,-0.291614,-0.1807395,1.0069400000000002,-0.410414,0.1777505,1.02387,-0.381834,-0.0624495,-0.0037299999999999,0.000354,0.0624495,0.00373,-0.000354,-0.1912694999999999,-0.1742699999999999,-0.259644,0.1617805,-0.1790499999999999,-0.255254,-0.2045094999999999,-0.6021299999999999,-0.0897419999999999,0.1860705,-0.61674,-0.062015,1
32,-0.0312675,0.69431,-0.1559285,-0.1682485,0.49458,-0.1518685,-0.2347885,0.7471700000000001,-0.2959385,0.1124115,0.51822,-0.1666285,0.1782215,0.77439,-0.2953185,-0.1826685,1.00993,-0.4165085,0.1759315,1.02822,-0.3860485,-0.0620315,-0.0044099999999999,-0.0002165,0.0620315,0.00441,0.0002165,-0.1950185,-0.1512599999999999,-0.2745985,0.1660915,-0.1560599999999999,-0.2685885,-0.2083385,-0.5724199999999999,-0.0943035,0.1880215,-0.5876899999999999,-0.0658215,1
33,-0.0321495,0.698385,-0.158136,-0.1690384999999999,0.491745,-0.154686,-0.2355685,0.7487649999999999,-0.3002559999999999,0.1112015,0.5186649999999999,-0.1689359999999999,0.1762315,0.7803249999999999,-0.297726,-0.1854285,1.008785,-0.420666,0.1740215,1.035745,-0.388536,-0.0616515,-0.004785,-0.000223,0.0616515,0.0047849999999999,0.0002229999999999,-0.1987685,-0.128785,-0.288826,0.1700215,-0.134205,-0.280746,-0.2128185,-0.544815,-0.096886,0.1895215,-0.560055,-0.06858,1
34,-0.0330655,0.6989650000000001,-0.1606305,-0.1699415,0.493117,-0.1567705,-0.2365115,0.748595,-0.3042005,0.1102985,0.5199550000000001,-0.1706005,0.1750485,0.7804150000000001,-0.3003305,-0.1881815,1.002925,-0.4250204999999999,0.1720785,1.040475,-0.3911004999999999,-0.0613984999999999,-0.005135,-0.0002274999999999,0.0613984999999999,0.005135,0.0002274999999999,-0.2011515,-0.1129349999999999,-0.2993004999999999,0.1728485,-0.117825,-0.2893705,-0.2171315,-0.5237350000000001,-0.0993755,0.1910485,-0.538775,-0.0704195,1
35,-0.0336869999999999,0.6999,-0.162781,-0.1702449999999999,0.49199,-0.159221,-0.2371849999999999,0.74683,-0.308021,0.109675,0.51792,-0.172881,0.174395,0.78017,-0.303011,-0.190745,0.99853,-0.4288909999999999,0.170605,1.04068,-0.393621,-0.0611919999999999,-0.0056399999999999,-0.000231,0.0611919999999999,0.0056399999999999,0.0002309999999999,-0.2027149999999999,-0.09409,-0.310011,0.176115,-0.09923,-0.2993409999999999,-0.218685,-0.50075,-0.100039,0.193075,-0.51579,-0.071979,1
36,-0.0339275,0.70114,-0.163023,-0.1697844999999999,0.491571,-0.160013,-0.2374145,0.74589,-0.309753,0.1094255,0.519292,-0.173613,0.1741355,0.78162,-0.304413,-0.1929944999999999,0.99551,-0.431383,0.1698455,1.04098,-0.394523,-0.0610555,-0.0057999999999999,-0.000708,0.0610555,0.0058,0.000708,-0.2033645,-0.0760199999999999,-0.319073,0.1796155,-0.0817099999999999,-0.307963,-0.2197345,-0.47841,-0.099034,0.1943155,-0.4934499999999999,-0.072362,1
37,-0.033271,0.70008,-0.160251,-0.169072,0.491562,-0.157511,-0.238002,0.7445200000000001,-0.309161,0.110668,0.518643,-0.171261,0.1741579999999999,0.78105,-0.3025609999999999,-0.193982,0.99777,-0.431061,0.1698779999999999,1.04248,-0.3916309999999999,-0.060727,-0.0059899999999999,-0.0009339999999999,0.060727,0.0059899999999999,0.000934,-0.203472,-0.0621799999999999,-0.324611,0.182188,-0.06851,-0.312601,-0.2196719999999999,-0.45617,-0.094642,0.1955779999999999,-0.47198,-0.068613,1
38,-0.032802,0.6995199999999999,-0.1576435,-0.1683359999999999,0.490467,-0.1551735,-0.2385759999999999,0.74551,-0.3086135,0.1120039999999999,0.517916,-0.1689235,0.173954,0.7828999999999999,-0.3006835,-0.1950059999999999,0.99839,-0.4316335,0.169704,1.0421399999999998,-0.3888835,-0.060855,-0.00595,-0.0011844999999999,0.060855,0.00595,0.0011845,-0.2037759999999999,-0.0470399999999999,-0.3290035,0.183564,-0.05591,-0.3169335,-0.219826,-0.43706,-0.0902905,0.196284,-0.45116,-0.0655935,1
39,-0.0320155,0.6986300000000001,-0.1554045,-0.1675345,0.489286,-0.1531045,-0.2389345,0.74424,-0.3081345,0.1132555,0.5179870000000001,-0.1663745,0.1747355,0.78176,-0.2996645,-0.1963045,0.9977,-0.4322045,0.1695855,1.04309,-0.3862445,-0.0610175,-0.00595,-0.0012054999999999,0.0610175,0.00595,0.0012055,-0.2040045,-0.0326999999999999,-0.3330345,0.1843755,-0.0435099999999999,-0.3210745,-0.2199145,-0.4183899999999999,-0.0861524999999999,0.1971255,-0.43223,-0.0621935,1
40,-0.0308624999999999,0.6965749999999999,-0.1537885,-0.1667015,0.488457,-0.1512985,-0.2391215,0.7423249999999999,-0.3081885,0.1146485,0.515779,-0.1642285,0.1761585,0.7800149999999999,-0.2988585,-0.1973915,0.997065,-0.4331485,0.1695285,1.043635,-0.3847285,-0.0611154999999999,-0.005825,-0.0012745,0.0611154999999999,0.0058249999999999,0.0012744999999999,-0.2037415,-0.018755,-0.3374785,0.1848485,-0.031325,-0.3257985,-0.2192315,-0.400335,-0.0822245,0.1980085,-0.412615,-0.0592695,1
41,-0.029428,0.6944750000000001,-0.152831,-0.165847,0.489472,-0.149891,-0.239127,0.741685,-0.309011,0.116203,0.5130250000000001,-0.162381,0.178253,0.775915,-0.298871,-0.198487,0.995385,-0.436751,0.170343,1.041465,-0.384391,-0.061227,-0.0055549999999999,-0.001363,0.061227,0.0055549999999999,0.0013629999999999,-0.202287,-0.0053149999999999,-0.341441,0.184803,-0.0193649999999999,-0.329391,-0.217767,-0.384115,-0.07812,0.199013,-0.394455,-0.055891,1
42,-0.0277684999999999,0.691605,-0.1528804999999999,-0.1649265,0.489206,-0.1495004999999999,-0.2390665,0.740415,-0.3101805,0.1176635,0.5120610000000001,-0.1613105,0.1806635,0.773055,-0.2998405,-0.1991165,0.995655,-0.4410105,0.1722035,1.036625,-0.3870205,-0.0613875,-0.005525,-0.0015314999999999,0.0613875,0.005525,0.0015314999999999,-0.2003565,0.008175,-0.3455805,0.1848935,-0.007645,-0.3322105,-0.2158765,-0.369085,-0.0746385,0.1996635,-0.3766049999999999,-0.0525645,1
43,-0.0261395,0.690045,-0.154351,-0.1638355,0.487315,-0.150371,-0.2388555,0.737405,-0.312901,0.1192645,0.50969,-0.161351,0.1839345,0.769505,-0.301891,-0.1995055,0.997545,-0.446911,0.1747945,1.034305,-0.391041,-0.0615415,-0.0052849999999999,-0.001582,0.0615415,0.0052849999999999,0.001582,-0.1980755,0.022355,-0.349011,0.1851545,0.003715,-0.334211,-0.2151555,-0.352075,-0.073025,0.2003545,-0.359925,-0.050717,1
44,-0.0247015,0.6864249999999998,-0.157441,-0.1630285,0.4861899999999999,-0.152171,-0.2390385,0.7340099999999999,-0.317771,0.1204915,0.5096699999999998,-0.161941,0.1875515,0.7656799999999999,-0.305411,-0.1997085,0.99383,-0.455761,0.1778414999999999,1.0353,-0.397261,-0.0617555,-0.00533,-0.0016239999999999,0.0617555,0.0053299999999999,0.001624,-0.1957085,0.0337199999999998,-0.352521,0.1856015,0.0128799999999998,-0.335051,-0.2126985,-0.3411300000000001,-0.0734549999999999,0.1999915,-0.3462900000000001,-0.050079,1
45,-0.023897,0.682798,-0.1622755,-0.162656,0.4832799999999999,-0.1553455,-0.239096,0.7283959999999999,-0.3243155,0.121304,0.50733,-0.1639155,0.190904,0.7599499999999999,-0.3101954999999999,-0.200166,0.98742,-0.4661754999999999,0.1815739999999999,1.03312,-0.4056654999999999,-0.061927,-0.00533,-0.0018034999999999,0.061927,0.0053299999999999,0.0018034999999999,-0.193556,0.0421199999999999,-0.3560554999999999,0.1855639999999999,0.0207399999999999,-0.3359255,-0.210056,-0.33344,-0.0781294999999999,0.199244,-0.33611,-0.0493095,1
46,-0.023467,0.680824,-0.1675144999999999,-0.162126,0.47935,-0.1585444999999999,-0.238946,0.722279,-0.3307545,0.1217839999999999,0.50467,-0.1657845,0.194494,0.75439,-0.3151745,-0.1998859999999999,0.9797,-0.4775045,0.185614,1.02919,-0.4144545,-0.0620209999999999,-0.0055899999999999,-0.0018015,0.0620209999999999,0.0055899999999999,0.0018014999999999,-0.1911159999999999,0.0480399999999999,-0.3587245,0.185684,0.0254699999999999,-0.3365945,-0.206396,-0.3295099999999999,-0.0830385,0.198914,-0.32968,-0.0488185,1
47,-0.023075,0.6765760000000001,-0.173123,-0.161687,0.478175,-0.161493,-0.239047,0.7166110000000001,-0.337323,0.122253,0.503245,-0.167353,0.197943,0.746415,-0.320253,-0.199707,0.967635,-0.488623,0.189233,1.024015,-0.4246129999999999,-0.062133,-0.0055649999999999,-0.0017999999999999,0.062133,0.005565,0.0017999999999999,-0.188967,0.048885,-0.359073,0.185503,0.026145,-0.3365829999999999,-0.202547,-0.3293149999999999,-0.082847,0.198733,-0.328715,-0.048858,1
48,-0.0225169999999999,0.6741340000000001,-0.1791645,-0.161075,0.476065,-0.1642445,-0.238835,0.7115230000000001,-0.3443345,0.122885,0.5011950000000001,-0.1688245,0.200415,0.7419120000000001,-0.3250645,-0.199505,0.954725,-0.4985745,0.192705,1.018555,-0.4347945,-0.062103,-0.0055649999999999,-0.0018004999999999,0.062103,0.005565,0.0018005,-0.186935,0.0473150000000001,-0.3591045,0.185155,0.0248950000000001,-0.3365845,-0.198395,-0.3316249999999999,-0.0830045,0.197905,-0.3311149999999999,-0.0494575,1
49,-0.0213695,0.6741340000000001,-0.1859905,-0.1597245,0.476065,-0.1678105,-0.2375445,0.711187,-0.3513605,0.1239855,0.5011950000000001,-0.1711805,0.2031555,0.7419120000000001,-0.3305605,-0.1993445,0.952665,-0.5088805000000001,0.1964155,1.017715,-0.4444705,-0.0621095,-0.0055649999999999,-0.0020925,0.0621095,0.005565,0.0020924999999999,-0.1845845,0.047275,-0.3599205,0.1857355,0.0248950000000001,-0.3373605,-0.1944145,-0.3341749999999999,-0.0848545,0.1975454999999999,-0.3329649999999999,-0.0516175,1
50,-0.0199799999999999,0.6741340000000001,-0.193363,-0.1584259999999999,0.476065,-0.173383,-0.237176,0.711187,-0.359193,0.124404,0.5011950000000001,-0.174893,0.204774,0.7419120000000001,-0.335963,-0.199866,0.952665,-0.517733,0.198964,1.017715,-0.454043,-0.062096,-0.0055649999999999,-0.0024469999999999,0.062096,0.005565,0.0024469999999999,-0.1824059999999999,0.047275,-0.361553,0.186574,0.0248950000000001,-0.338113,-0.190886,-0.3357949999999999,-0.087823,0.197384,-0.3346249999999999,-0.054512,1
51,-0.018611,0.6735690000000001,-0.2011635,-0.157194,0.4755,-0.1792535,-0.236894,0.7106220000000001,-0.3659135,0.1248259999999999,0.50063,-0.1792835,0.206316,0.741347,-0.3417535,-0.201074,0.9521,-0.5264135,0.2005559999999999,1.01715,-0.4610535,-0.062137,-0.00595,-0.0029224999999999,0.062137,0.00595,0.0029224999999999,-0.180284,0.04671,-0.3632535,0.187406,0.02433,-0.3386035,-0.188014,-0.33709,-0.0915354999999999,0.1969759999999999,-0.3356,-0.0575445,1
52,-0.0176275,0.67068,-0.2089234999999999,-0.1560225,0.47369,-0.1849135,-0.2370525,0.704172,-0.3730235,0.1253874999999999,0.49821,-0.1839135,0.2082275,0.7369000000000001,-0.3481734999999999,-0.2021625,0.94565,-0.5334435,0.2022275,1.0107000000000002,-0.4695635,-0.0620275,-0.0056699999999999,-0.0031504999999999,0.0620275,0.00567,0.0031505,-0.1780425,0.04026,-0.3639535,0.1882575,0.01855,-0.3385435,-0.1862725,-0.3435399999999999,-0.0952885,0.1968774999999999,-0.3416699999999999,-0.0616744999999999,1
53,-0.0166315,0.668705,-0.21583,-0.1549905,0.471025,-0.19063,-0.2372805,0.698414,-0.3792399999999999,0.1256695,0.495715,-0.18891,0.2100595,0.734105,-0.3535999999999999,-0.2029705,0.939035,-0.53747,0.2040495,1.006545,-0.4758799999999999,-0.0618564999999999,-0.005715,-0.003349,0.0618564999999999,0.005715,0.003349,-0.1757905,0.030575,-0.3640899999999999,0.1888495,0.0108449999999999,-0.33775,-0.1857204999999999,-0.352595,-0.100084,0.1970295,-0.3502849999999999,-0.0638239999999999,1
54,-0.0154629999999999,0.6679080000000001,-0.222405,-0.153572,0.4673900000000001,-0.196545,-0.237142,0.6936450000000001,-0.384485,0.126108,0.4922200000000001,-0.1943349999999999,0.212188,0.73011,-0.358515,-0.203742,0.9327100000000002,-0.5420349999999999,0.206268,1.00415,-0.481625,-0.061634,-0.0055999999999999,-0.003428,0.061634,0.0056,0.003428,-0.173412,0.0185100000000001,-0.363535,0.189528,0.0014100000000001,-0.337055,-0.183832,-0.3653599999999999,-0.105244,0.1973379999999999,-0.3638799999999998,-0.068364,1
55,-0.0145789999999999,0.66686,-0.228073,-0.152192,0.46767,-0.202123,-0.237192,0.6921820000000001,-0.389153,0.126538,0.49097,-0.199643,0.2137079999999999,0.7281500000000001,-0.363213,-0.205122,0.92476,-0.546673,0.208258,1.00193,-0.486333,-0.061499,-0.00541,-0.003398,0.061499,0.00541,0.003398,-0.171032,0.0034399999999999,-0.362093,0.190058,-0.0109699999999999,-0.336483,-0.181812,-0.38386,-0.109506,0.197758,-0.3823799999999999,-0.071512,1
56,-0.0135784999999999,0.6668430000000001,-0.2326545,-0.1509405,0.46869,-0.2071545,-0.2374605,0.6922,-0.3937144999999999,0.1268395,0.488705,-0.2042645,0.2147695,0.72699,-0.3677944999999999,-0.2068205,0.92031,-0.5507345,0.2097095,1.00033,-0.4909145,-0.0612755,-0.0049299999999999,-0.0032154999999999,0.0612755,0.0049299999999999,0.0032155,-0.1686105,-0.0131499999999999,-0.3598745,0.1902895,-0.0246299999999999,-0.3357144999999999,-0.1804205,-0.4004599999999999,-0.1096715,0.1982695,-0.40317,-0.0750185,1
57,-0.0124869999999999,0.6677249999999999,-0.236459,-0.149891,0.4708989999999999,-0.210959,-0.2378809999999999,0.694145,-0.397489,0.127199,0.4908739999999999,-0.208059,0.215369,0.726425,-0.371589,-0.208691,0.916185,-0.551869,0.210219,0.999715,-0.494719,-0.061089,-0.004735,-0.002935,0.061089,0.0047349999999999,0.002935,-0.1662509999999999,-0.030695,-0.356729,0.190319,-0.039075,-0.3339789999999999,-0.1791809999999999,-0.419775,-0.1089789999999999,0.199619,-0.425095,-0.078324,1
58,-0.0120754999999999,0.667945,-0.2399254999999999,-0.1494975,0.4741329999999999,-0.2144355,-0.2391775,0.6963349999999999,-0.3994355,0.1272025,0.491407,-0.2115255,0.2146325,0.726055,-0.3736555,-0.2107275,0.911965,-0.5498555,0.2098825,0.999335,-0.4977555,-0.0609085,-0.004135,-0.0024944999999999,0.0609085,0.004135,0.0024945,-0.1647575,-0.0502449999999999,-0.3527455,0.1899025,-0.0554649999999999,-0.3314755,-0.1777975,-0.445495,-0.1109115,0.2003425,-0.448575,-0.0805845,1
59,-0.0119244999999999,0.67059,-0.2430514999999999,-0.1493574999999999,0.474892,-0.2177315,-0.2398975,0.69906,-0.4001615,0.1274725,0.491421,-0.2148215,0.2134325,0.72682,-0.3740914999999999,-0.2121875,0.91863,-0.5461914999999999,0.2095125,1.00013,-0.4973415,-0.0608025,-0.0039099999999999,-0.0021834999999999,0.0608025,0.00391,0.0021835,-0.1636475,-0.0680699999999999,-0.3484915,0.1892225,-0.0704299999999999,-0.3279114999999999,-0.1785475,-0.46746,-0.1136615,0.2008125,-0.4710099999999999,-0.0833805,1
60,-0.0122394999999999,0.67226,-0.2441985,-0.1500375,0.476663,-0.2204785,-0.2408375,0.7009799999999999,-0.3987385,0.1274725,0.492367,-0.2175285,0.2122225,0.73042,-0.3735885,-0.2135274999999999,0.92503,-0.5416685,0.2089725,0.99919,-0.4961885,-0.0606495,-0.00331,-0.0017765,0.0606495,0.0033099999999999,0.0017765,-0.1630575,-0.0857499999999999,-0.3441484999999999,0.1881525,-0.08525,-0.3234585,-0.1799375,-0.49007,-0.1163525,0.2011625,-0.49571,-0.0872805,1
61,-0.012663,0.67557,-0.2441125,-0.151038,0.478606,-0.2221324999999999,-0.241248,0.70714,-0.3969924999999999,0.1274219999999999,0.493421,-0.2193125,0.211082,0.73337,-0.3722625,-0.214428,0.92536,-0.5354325,0.208662,1.00471,-0.4927125,-0.060499,-0.0032099999999999,-0.0014534999999999,0.060499,0.0032099999999999,0.0014535,-0.162108,-0.10136,-0.3391725,0.187132,-0.0980499999999999,-0.3181525,-0.180988,-0.51153,-0.1189095,0.201762,-0.51771,-0.0911255,1
62,-0.013332,0.67892,-0.2431255,-0.1520429999999999,0.481773,-0.2216254999999999,-0.241693,0.71254,-0.3942354999999999,0.127637,0.49659,-0.2195154999999999,0.209957,0.73681,-0.3701255,-0.215663,0.92927,-0.5287755000000001,0.208807,1.00846,-0.4887154999999999,-0.060283,-0.0029,-0.0011504999999999,0.060283,0.0029,0.0011504999999999,-0.1617829999999999,-0.11626,-0.3340055,0.185797,-0.11055,-0.3122955,-0.182753,-0.53272,-0.1223855,0.201987,-0.53872,-0.0949425,1
63,-0.013848,0.6808,-0.2401039999999999,-0.153049,0.4868399999999999,-0.2202339999999999,-0.2421589999999999,0.7187999999999999,-0.389864,0.127651,0.5012099999999999,-0.218994,0.209071,0.7408299999999999,-0.365954,-0.216669,0.93184,-0.520274,0.209121,1.0121,-0.483934,-0.0602179999999999,-0.0028,-0.0009699999999999,0.0602179999999999,0.0027999999999999,0.00097,-0.161379,-0.1317,-0.327154,0.184571,-0.12447,-0.305904,-0.184279,-0.5548700000000001,-0.12571,0.202581,-0.56069,-0.0972,1
64,-0.014026,0.681605,-0.236611,-0.154032,0.487975,-0.219431,-0.241632,0.721705,-0.384661,0.127128,0.502805,-0.219071,0.208168,0.745365,-0.360581,-0.217072,0.942075,-0.5124609999999999,0.209238,1.016865,-0.478361,-0.0601219999999999,-0.002645,-0.000885,0.0601219999999999,0.002645,0.000885,-0.160792,-0.145565,-0.319581,0.183438,-0.136745,-0.298451,-0.184492,-0.5766450000000001,-0.128125,0.202968,-0.5811649999999999,-0.099705,1
65,-0.0140065,0.6807300000000001,-0.231876,-0.1549705,0.49171,-0.217466,-0.2418805,0.7235400000000001,-0.377296,0.1263495,0.50303,-0.218326,0.2071994999999999,0.74867,-0.355606,-0.2175205,0.95083,-0.505876,0.2092794999999999,1.01924,-0.472316,-0.0601215,-0.0026399999999999,-0.0009429999999999,0.0601215,0.0026399999999999,0.0009429999999999,-0.1603005,-0.15986,-0.311366,0.1823995,-0.14976,-0.2902559999999999,-0.1842905,-0.59945,-0.130147,0.2032894999999999,-0.60208,-0.10173,1
66,-0.0142759999999999,0.678715,-0.2246619999999999,-0.156222,0.495905,-0.214082,-0.242322,0.7306250000000001,-0.368882,0.125998,0.498885,-0.216442,0.205778,0.751225,-0.347132,-0.218222,0.961835,-0.497682,0.209338,1.021775,-0.462412,-0.060022,-0.0018549999999999,-0.0009529999999999,0.060022,0.0018549999999999,0.0009529999999999,-0.160102,-0.170005,-0.300872,0.181008,-0.160965,-0.280272,-0.184302,-0.618495,-0.1309509999999999,0.203278,-0.6209450000000001,-0.1026779999999999,1
67,-0.0145745,0.67569,-0.2166435,-0.1574455,0.49779,-0.2107635,-0.2424255,0.73809,-0.3610234999999999,0.1259445,0.49903,-0.2132635,0.2040545,0.75488,-0.3387635,-0.2189555,0.97384,-0.4882634999999999,0.2091445,1.02397,-0.4498634999999999,-0.0599865,-0.0011999999999999,-0.0010084999999999,0.0599865,0.0012,0.0010085,-0.1598855,-0.17878,-0.2899435,0.1793545,-0.1698199999999999,-0.2695235,-0.1842855,-0.63573,-0.1320825,0.2029345,-0.63674,-0.1033314999999999,1
68,-0.0149834999999999,0.67133,-0.2075185,-0.1589775,0.50229,-0.2056184999999999,-0.2422375,0.74532,-0.3529685,0.1230125,0.49425,-0.2091785,0.2010725,0.7566200000000001,-0.3303184999999999,-0.2200175,0.97581,-0.4772885,0.2089925,1.0262600000000002,-0.4382085,-0.0599215,-0.00045,-0.0009074999999999,0.0599215,0.00045,0.0009075,-0.1591275,-0.1897399999999999,-0.2788184999999999,0.1775425,-0.18062,-0.2586684999999999,-0.1842475,-0.65435,-0.1324325,0.2023525,-0.65352,-0.1041754999999999,1
69,-0.015421,0.666605,-0.198712,-0.160388,0.503325,-0.1999719999999999,-0.242218,0.750835,-0.344622,0.120152,0.492465,-0.2048019999999999,0.197932,0.757155,-0.3209619999999999,-0.220948,0.976475,-0.464522,0.208662,1.030885,-0.426112,-0.05991,-0.0003049999999999,-0.0008069999999999,0.05991,0.0003049999999999,0.000807,-0.157838,-0.2033649999999999,-0.266082,0.175232,-0.193365,-0.246752,-0.183748,-0.675495,-0.1318289999999999,0.201392,-0.671185,-0.1042609999999999,1
70,-0.0156505,0.661575,-0.189022,-0.1611305,0.503175,-0.1948119999999999,-0.2420205,0.7536050000000001,-0.3341619999999999,0.1195595,0.491875,-0.1995819999999999,0.1947595,0.759085,-0.310632,-0.2215605,0.981685,-0.450302,0.2084395,1.031535,-0.413872,-0.0599245,-0.0003449999999999,-0.0008069999999999,0.0599245,0.000345,0.000807,-0.1560805,-0.2154149999999999,-0.253312,0.1725595,-0.203845,-0.2345819999999999,-0.1831905,-0.6939549999999999,-0.1306729999999999,0.2002195,-0.6854750000000001,-0.1038,1
71,-0.0157339999999999,0.65737,-0.178775,-0.16179,0.50269,-0.189945,-0.24128,0.7573300000000001,-0.321175,0.11853,0.4914,-0.1943949999999999,0.1917599999999999,0.7616099999999999,-0.298625,-0.22293,0.9898,-0.435825,0.20831,1.03292,-0.399895,-0.059853,-0.00019,-0.000808,0.059853,0.0001899999999999,0.000808,-0.1541199999999999,-0.22592,-0.240055,0.16952,-0.21363,-0.222005,-0.18241,-0.7102900000000001,-0.129391,0.1989099999999999,-0.69845,-0.103187,1
72,-0.0157754999999999,0.65354,-0.16895,-0.1620685,0.50228,-0.18547,-0.2403885,0.76007,-0.30882,0.1173915,0.49039,-0.18917,0.1886415,0.76561,-0.28652,-0.2242285,1.00048,-0.4221399999999999,0.2074515,1.03808,-0.3849,-0.0597665,4.999999999999449e-05,-0.00081,0.0597665,-4.999999999999449e-05,0.0008099999999999,-0.1519285,-0.2332499999999999,-0.22489,0.1664014999999999,-0.2219799999999999,-0.2096,-0.1811585,-0.72265,-0.127963,0.1977215,-0.7099,-0.102488,1
73,-0.0157505,0.653035,-0.1581815,-0.1623885,0.500945,-0.1796755,-0.2392585,0.7633749999999999,-0.2947955,0.1163245,0.4884849999999999,-0.1820355,0.1857415,0.7660449999999999,-0.2730154999999999,-0.2253885,1.004805,-0.4060155,0.2072115,1.039535,-0.3670255,-0.0596225,0.0003749999999999,-0.0009805,0.0596225,-0.000375,0.0009804999999999,-0.1492385,-0.241905,-0.2101355,0.1631415,-0.231735,-0.1963055,-0.1795985,-0.734755,-0.1255635,0.1966215,-0.722135,-0.1004365,1
74,-0.015713,0.653775,-0.14775,-0.163278,0.496915,-0.173923,-0.238618,0.767365,-0.280793,0.115467,0.488755,-0.175063,0.184142,0.767705,-0.2583729999999999,-0.226648,1.010835,-0.386983,0.206502,1.043415,-0.347913,-0.0595239999999999,0.000615,-0.001112,0.0595239999999999,-0.000615,0.0011119999999999,-0.146088,-0.248175,-0.195563,0.159872,-0.237225,-0.183583,-0.177908,-0.743245,-0.122318,0.195522,-0.729525,-0.097818,1
75,-0.0156535,0.65402,-0.137703,-0.1638815,0.49162,-0.168054,-0.2380115,0.76507,-0.265784,0.1148125,0.49021,-0.167714,0.1827385,0.7693500000000001,-0.245834,-0.2273514999999999,1.01478,-0.367464,0.2054085,1.04662,-0.329504,-0.0595544999999999,0.00032,-0.00118,0.0595544999999999,-0.00032,0.00118,-0.1428315,-0.25547,-0.181874,0.1557785,-0.24267,-0.168994,-0.1762214999999999,-0.7522099999999999,-0.118284,0.1943984999999999,-0.7369,-0.09313,1
76,-0.015439,0.655795,-0.123344,-0.164419,0.488055,-0.156901,-0.237359,0.763675,-0.2456499999999999,0.1141929999999999,0.490615,-0.156883,0.1819309999999999,0.769915,-0.22865,-0.227819,1.019285,-0.34538,0.204171,1.050055,-0.30943,-0.059539,-0.000175,-0.0005929999999999,0.059539,0.0001749999999999,0.000593,-0.139429,-0.2618749999999999,-0.16347,0.152021,-0.248705,-0.150779,-0.174519,-0.760165,-0.109303,0.194121,-0.744445,-0.083654,1
77,-0.016696,0.662071,-0.1054219999999999,-0.1657429999999999,0.485821,-0.1387399999999999,-0.237543,0.7569509999999999,-0.221804,0.114642,0.501921,-0.1366899999999999,0.182047,0.7774409999999999,-0.2081239999999999,-0.227773,1.021491,-0.320304,0.2028869999999999,1.054751,-0.284854,-0.059559,-0.0009689999999999,-0.0011539999999999,0.059559,0.0009689999999999,0.001154,-0.135353,-0.275929,-0.1399969999999999,0.1465369999999999,-0.262829,-0.126523,-0.1720229999999999,-0.775599,-0.095835,0.194867,-0.7650790000000001,-0.0698059999999999,1
78,-0.018184,0.6685295,-0.0885025,-0.167155,0.4876494999999999,-0.1221735,-0.237635,0.7536095,-0.1999755,0.11734,0.5107695,-0.1178305,0.182055,0.7805795,-0.1889655,-0.227675,1.0268395,-0.2976355,0.201555,1.0585795,-0.2600055,-0.059539,-0.0011364999999999,-0.0017505,0.059539,0.0011364999999999,0.0017504999999999,-0.1318949999999999,-0.2857705,-0.1191795,0.141445,-0.2735505,-0.1051555,-0.1698549999999999,-0.7863705,-0.0839215,0.194305,-0.7765605,-0.0570725,1
79,-0.019764,0.6749084999999999,-0.0728485,-0.168619,0.4895385,-0.1057005,-0.238489,0.7500985,-0.1798664999999999,0.11897,0.5188285,-0.1002685,0.1822609999999999,0.7822684999999999,-0.1708365,-0.227649,1.0289685,-0.2779165,0.201041,1.0610785,-0.2370364999999999,-0.0596349999999999,-0.0012665,-0.0022745,0.0596349999999999,0.0012664999999999,0.0022744999999999,-0.128859,-0.2959715,-0.0994134999999999,0.136851,-0.2855715,-0.0851305,-0.167859,-0.7974415,-0.0719865,0.193551,-0.7912715,-0.0440475,1
80,-0.0222235,0.6798124999999999,-0.0572505,-0.1703635,0.4918125,-0.0895325,-0.2392935,0.7457825,-0.1622675,0.1193065,0.5249525,-0.0833875,0.1817465,0.7825025,-0.1545575,-0.2277035,1.0242025,-0.2589375,0.1991165,1.0624325,-0.2161975,-0.0596894999999999,-0.0013504999999999,-0.0028005,0.0596894999999999,0.0013504999999999,0.0028005,-0.1262935,-0.3066275,-0.0807595,0.1325865,-0.2976075,-0.0661225,-0.1662035,-0.8087875,-0.0604025,0.1937665,-0.8065175,-0.0294175,1
81,-0.0240745,0.684802,-0.0426755,-0.1719765,0.493982,-0.0716455,-0.2396364999999999,0.741382,-0.1456275,0.1192975,0.528042,-0.0655715,0.1816635,0.781862,-0.1386675,-0.2271865,1.019522,-0.2408975,0.1976835,1.0609320000000002,-0.1964075,-0.0596415,-0.0014389999999999,-0.0033624999999999,0.0596415,0.0014389999999999,0.0033625,-0.1233765,-0.318478,-0.0658074999999999,0.1292134999999999,-0.309648,-0.0479595,-0.1641965,-0.820788,-0.0489205,0.1945835,-0.821518,-0.0152835,1
82,-0.0261995,0.6870695,-0.029454,-0.1740925,0.4979695,-0.054542,-0.2407325,0.7375195,-0.131198,0.1190254999999999,0.5349895,-0.048954,0.1813374999999999,0.7831795,-0.124888,-0.2268725,1.0153495,-0.225248,0.1968375,1.0610495,-0.180968,-0.0595895,-0.0016795,-0.003936,0.0595895,0.0016795,0.003936,-0.1211425,-0.3284905,-0.051972,0.1259275,-0.3203705,-0.03235,-0.1625525,-0.8309805,-0.038049,0.1950575,-0.8387505,-0.002264,1
83,-0.0283145,0.689181,-0.0173485,-0.1757455,0.501971,-0.0381735,-0.2422555,0.7340409999999999,-0.1179284999999999,0.1195944999999999,0.543601,-0.0321795,0.1817645,0.784731,-0.1122085,-0.2266455,1.011011,-0.2126585,0.1962545,1.061211,-0.1672785,-0.0595124999999999,-0.0018739999999999,-0.0046785,0.0595124999999999,0.0018739999999999,0.0046785,-0.1194555,-0.338759,-0.0393585,0.1227545,-0.332409,-0.0175034999999999,-0.1610154999999999,-0.841429,-0.0280515,0.1959044999999999,-0.857419,0.0101295,1
84,-0.0303715,0.692885,-0.0062005,-0.1774465,0.507145,-0.0218575,-0.2439065,0.731525,-0.1061805,0.1201725,0.553405,-0.0155835,0.1821235,0.787345,-0.1001904999999999,-0.2265164999999999,1.007845,-0.2022805,0.1958635,1.062345,-0.1552705,-0.0594195,-0.001992,-0.0054085,0.0594195,0.001992,0.0054084999999999,-0.1179065,-0.350225,-0.0277965,0.1207025,-0.343775,-0.0056595,-0.1595165,-0.853085,-0.0190575,0.1965835,-0.873395,0.0206815,1
85,-0.032447,0.6969705,0.000195,-0.17934,0.5119805000000001,-0.010477,-0.24572,0.7284005,-0.0998619999999999,0.119819,0.5633705,-0.0033019999999999,0.18212,0.7902105,-0.093342,-0.22635,1.0042405,-0.196192,0.1956999999999999,1.0640405,-0.147982,-0.059281,-0.0020275,-0.0067359999999999,0.059281,0.0020274999999999,0.006736,-0.11686,-0.3617295,-0.021647,0.118502,-0.3555795,0.001591,-0.15829,-0.8645995,-0.0149369999999999,0.19644,-0.8850695,0.023486,1
86,-0.03324,0.6981605000000001,0.0041774999999999,-0.180172,0.5128305000000001,-0.0054335,-0.2464319999999999,0.7294005,-0.0955155,0.119308,0.5633705,0.0011264999999999,0.182478,0.7904305,-0.0880745,-0.226522,1.0049405,-0.1925355,0.1956379999999999,1.0647405,-0.1428354999999999,-0.059108,-0.0020275,-0.0067385,0.059108,0.0020274999999999,0.0067384999999999,-0.116622,-0.3617295,-0.0193455,0.118296,-0.3563095,0.0040254999999999,-0.158012,-0.8645995,-0.0133965,0.196758,-0.8855495,0.0234805,1
87,-0.0341049999999999,0.6991105000000001,0.0085415,-0.1809339999999999,0.5135705,-0.0003984999999999,-0.2470339999999999,0.7297905,-0.0911095,0.118858,0.5633705,0.0058475,0.182916,0.7905605,-0.0829405,-0.226204,1.0049405,-0.1886594999999999,0.195986,1.0654405,-0.1388994999999999,-0.059074,-0.0020275,-0.0067394999999999,0.059074,0.0020274999999999,0.0067395,-0.116334,-0.3617295,-0.0171425,0.118217,-0.3563095,0.0062875,-0.157704,-0.8645995,-0.0118585,0.197166,-0.8830095,0.0236145,1
88,-0.035199,0.6999805,0.0129935,-0.181821,0.5142005000000001,0.0045785,-0.247791,0.7298105,-0.0869715,0.118242,0.5633705,0.0106995,0.183169,0.7906105,-0.0779054999999999,-0.226091,1.0049405,-0.1848505,0.196269,1.0656405,-0.1350605,-0.059102,-0.0020275,-0.0067385,0.059102,0.0020274999999999,0.0067385,-0.116251,-0.3617295,-0.0152024999999999,0.117942,-0.3563095,0.0083205,-0.157631,-0.8645995,-0.0106685,0.197529,-0.8805095,0.0236085,1
89,-0.035352,0.700198,0.014058,-0.182342,0.514928,0.0072,-0.248222,0.730228,-0.085149,0.117962,0.5634480000000001,0.013332,0.183358,0.789068,-0.075736,-0.225922,1.005358,-0.183164,0.196648,1.065958,-0.133264,-0.058972,-0.001752,-0.006702,0.058972,0.001752,0.006702,-0.116142,-0.361412,-0.015908,0.118282,-0.356492,0.006898,-0.157252,-0.864352,-0.011817,0.1985179999999999,-0.880282,0.021282,1
90,-0.0355215,0.7005425,0.0153095,-0.1824035,0.5156225,0.0079895,-0.2485334999999999,0.7306925,-0.0835135,0.1178315,0.5635325,0.0147515,0.1837565,0.7893125,-0.0747915,-0.2262735,1.0064225,-0.1805925,0.1970664999999999,1.0659225,-0.1314624999999999,-0.0588675,-0.0015125,-0.0066645,0.0588675,0.0015125,0.0066645,-0.1159735,-0.3611475,-0.0167744999999999,0.1186265,-0.3566475,0.0055515,-0.1569335,-0.8641475000000001,-0.0133155,0.1992565,-0.8801175,0.0178555,1
91,-0.0357195,0.7009230000000001,0.016479,-0.1823695,0.5163730000000001,0.008374,-0.2487595,0.731183,-0.082076,0.1178625,0.5637230000000001,0.015529,0.1841305,0.7897230000000001,-0.073846,-0.2267795,1.007063,-0.1783999999999999,0.1974405,1.066463,-0.1298699999999999,-0.0587655,-0.0013169999999999,-0.006546,0.0587655,0.0013169999999999,0.006546,-0.1157995,-0.360967,-0.017662,0.1189465,-0.356797,0.00425,-0.1566995,-0.864007,-0.014979,0.1998805,-0.888077,0.019446,1
92,-0.03597,0.701441,0.017571,-0.182296,0.517101,0.008507,-0.248866,0.731721,-0.081012,0.118086,0.564071,0.015818,0.184444,0.790241,-0.073179,-0.227356,1.0072910000000002,-0.176752,0.1977539999999999,1.066791,-0.129182,-0.058658,-0.0012229999999999,-0.006375,0.058658,0.0012229999999999,0.006375,-0.115626,-0.360939,-0.018535,0.119228,-0.356929,0.002955,-0.156456,-0.863989,-0.016895,0.200144,-0.886039,0.017062,1
93,-0.0360945,0.7024705,0.0184535,-0.1821295,0.5180305,0.0081465,-0.2489094999999999,0.7320105,-0.0799485,0.1183994999999999,0.5644405,0.0157505,0.1851205,0.7908105,-0.0726875,-0.2278794999999999,1.0073805,-0.1757985,0.1984805,1.0672805,-0.1308585,-0.0585415,-0.0011584999999999,-0.0062205,0.0585415,0.0011584999999999,0.0062205,-0.1154194999999999,-0.3609195,-0.0194405,0.1195215,-0.3570195,0.0017185,-0.1563495,-0.8639895,-0.0188325,0.2011805,-0.8893895,0.0148325,1
94,-0.03618,0.703309,0.0190329999999999,-0.181958,0.5189889999999999,0.0076269999999999,-0.249078,0.731969,-0.079331,0.118703,0.564699,0.0154769999999999,0.1864019999999999,0.791029,-0.072185,-0.228468,1.007189,-0.177567,0.199982,1.0669890000000002,-0.133017,-0.0584579999999999,-0.0011369999999999,-0.005907,0.0584579999999999,0.001137,0.005907,-0.115158,-0.360971,-0.020153,0.119821,-0.357021,0.000536,-0.156338,-0.8640410000000001,-0.020681,0.201952,-0.890911,0.0126849999999999,1
95,-0.0361719999999999,0.703999,0.0195365,-0.1819509999999999,0.519999,0.0076974999999999,-0.249991,0.7318290000000001,-0.0799074999999999,0.118895,0.564959,0.0148984999999999,0.188689,0.790529,-0.0719995,-0.229441,1.006999,-0.1795755,0.202099,1.066299,-0.1350755,-0.058478,-0.00118,-0.0054715,0.058478,0.0011799999999999,0.0054715,-0.1150409999999999,-0.361081,-0.0208155,0.120063,-0.356921,-0.0005135,-0.156401,-0.864151,-0.0223945,0.202099,-0.888091,0.0111965,1
96,-0.036022,0.7045174999999999,0.0195045,-0.182107,0.5210174999999999,0.0076995,-0.253397,0.7298475,-0.0818825,0.120325,0.5635475,0.0150205,0.193613,0.7876074999999999,-0.0722315,-0.231837,1.0052675,-0.1816025,0.205273,1.0642675,-0.1372025,-0.058628,-0.0013085,-0.0049004999999999,0.058628,0.0013084999999999,0.0049004999999999,-0.1149969999999999,-0.3613125,-0.0214915,0.120504,-0.3567025,-0.0014844999999999,-0.156507,-0.8643725000000001,-0.0238505,0.202183,-0.8850325,0.0097305,1
97,-0.035927,0.7060675,0.0197695,-0.182181,0.5224775,0.0077454999999999,-0.258441,0.7269775,-0.0819044999999999,0.12204,0.5615075,0.0151725,0.200649,0.7826175,-0.0722945,-0.235841,1.0017174999999998,-0.1834965,0.209469,1.0600174999999998,-0.1404465,-0.0587069999999999,-0.0013714999999999,-0.0042685,0.0587069999999999,0.0013715,0.0042685,-0.114921,-0.3615025,-0.0220325,0.120975,-0.3565125,-0.0023744999999999,-0.1566509999999999,-0.8645525,-0.0252725,0.201919,-0.8773625,0.0082575,1
98,-0.035917,0.7084425,0.020351,-0.182292,0.5230225000000001,0.008521,-0.266742,0.7217325,-0.082104,0.124214,0.5589325,0.015547,0.210928,0.7729825,-0.071782,-0.241032,0.9956925,-0.185857,0.214988,1.0503924999999998,-0.1448569999999999,-0.058699,-0.0014324999999999,-0.003802,0.058699,0.0014324999999999,0.003802,-0.114932,-0.3616275,-0.022412,0.121514,-0.3563175,-0.0030289999999999,-0.156882,-0.8646475,-0.026583,0.201508,-0.8692775,0.006945,1
99,-0.035925,0.7116039999999999,0.021037,-0.182451,0.523354,0.009472,-0.277191,0.7148739999999999,-0.082151,0.1270389999999999,0.555654,0.016331,0.223499,0.7613639999999999,-0.0712349999999999,-0.248181,0.984744,-0.190302,0.223649,1.034154,-0.1510419999999999,-0.05871,-0.001535,-0.0032879999999999,0.05871,0.001535,0.003288,-0.1149409999999999,-0.361756,-0.022738,0.122192,-0.356076,-0.0036019999999999,-0.157131,-0.8647360000000001,-0.0281499999999999,0.201409,-0.8630460000000001,0.005242,1
100,-0.0359195,0.7152435,0.0222769999999999,-0.1827945,0.5224435000000001,0.010878,-0.2895145,0.7013335,-0.08194,0.1300555,0.5526435000000001,0.017425,0.2387055,0.7452235,-0.070071,-0.2590045,0.9618235,-0.1966089999999999,0.2338255,1.0128535,-0.158779,-0.0588525,-0.0016645,-0.0029179999999999,0.0588525,0.0016645,0.002918,-0.1150844999999999,-0.3618765,-0.0229879999999999,0.1229065,-0.3558064999999999,-0.0039899999999999,-0.1574944999999999,-0.8648365,-0.029483,0.2013355,-0.8620565,0.006719,0
101,-0.0358705,0.7191765,0.0237695,-0.1832455,0.5209064999999999,0.0123815,-0.3031855,0.6840864999999999,-0.0816925,0.1332245,0.5490965,0.0184195,0.2552645,0.7260464999999999,-0.0688275,-0.2732855,0.9380365,-0.2056375,0.2441745,0.9880965,-0.1694975,-0.0590695,-0.0018095,-0.0025935,0.0590695,0.0018095,0.0025934999999999,-0.1153754999999999,-0.3619735,-0.0232905,0.1236035,-0.3555135,-0.0044005,-0.1580155,-0.8648835,-0.0305635,0.2009345,-0.8605835000000001,0.0089185,0
102,-0.035764,0.7231995,0.025691,-0.183753,0.5192995,0.014234,-0.317503,0.6615495,-0.081043,0.136527,0.5449094999999999,0.0193069999999999,0.273597,0.7016295,-0.066977,-0.288543,0.9035695,-0.216771,0.256227,0.9544595,-0.181451,-0.059328,-0.0019115,-0.0022049999999999,0.059328,0.0019115,0.002205,-0.1157429999999999,-0.3620004999999999,-0.023399,0.124317,-0.3552605,-0.0046789999999999,-0.158833,-0.8648405,-0.03128,0.200877,-0.8600305,0.011347,0
103,-0.0356415,0.7274415000000001,0.027991,-0.1843564999999999,0.5174315,0.0163099999999999,-0.3303965,0.6341815000000001,-0.079437,0.1395635,0.5405315,0.0200969999999999,0.2899935,0.6730115000000001,-0.064,-0.3041565,0.8630415,-0.22274,0.2697635,0.9121215,-0.19326,-0.0596155,-0.0020765,-0.0018329999999999,0.0596155,0.0020765,0.001833,-0.1162365,-0.3620285,-0.023341,0.1250435,-0.3549485,-0.004786,-0.1598365,-0.8648085,-0.031577,0.2003935,-0.8586385,0.0109709999999999,0
104,-0.03558,0.7318629999999999,0.0303974999999999,-0.185028,0.5151129999999999,0.0173194999999999,-0.340398,0.602183,-0.0764895,0.142322,0.535953,0.0205825,0.3034219999999999,0.641143,-0.0609065,-0.317088,0.806623,-0.2317415,0.282582,0.8630129999999999,-0.2067315,-0.059875,-0.0022059999999999,-0.0014225,0.059875,0.002206,0.0014225,-0.1169579999999999,-0.3619969999999999,-0.0231955,0.125632,-0.354687,-0.0048585,-0.161158,-0.8657870000000001,-0.0316405,0.200312,-0.856697,0.0108415,0
105,-0.0355179999999999,0.736447,0.0331985,-0.1857909999999999,0.512597,0.0184215,-0.346401,0.566947,-0.0706914999999999,0.143739,0.532517,0.0203695,0.312719,0.605467,-0.0568335,-0.327941,0.746607,-0.2385475,0.294179,0.803727,-0.2183375,-0.0602179999999999,-0.002269,-0.0012274999999999,0.0602179999999999,0.002269,0.0012274999999999,-0.117841,-0.361843,-0.0230785,0.125989,-0.3545129999999999,-0.0049055,-0.162411,-0.866433,-0.0314165,0.199579,-0.853013,0.0106905,0
106,-0.035549,0.740883,0.035602,-0.18669,0.509463,0.01953,-0.34861,0.529463,-0.062353,0.14489,0.529473,0.020282,0.3189,0.568773,-0.0469789999999999,-0.3364,0.675653,-0.238471,0.3035,0.737313,-0.220661,-0.060537,-0.0025319999999999,-0.0011539999999999,0.060537,0.0025319999999999,0.001154,-0.11879,-0.361847,-0.0230799999999999,0.12623,-0.354147,-0.0049769999999999,-0.16377,-0.866957,-0.031083,0.19809,-0.846487,0.010375,0
107,-0.0356195,0.7448020000000001,0.0376805,-0.1875025,0.506822,0.0199205,-0.3491625,0.4912419999999999,-0.0516815,0.1456875,0.526772,0.0202685,0.3203175,0.534242,-0.0354914999999999,-0.3428625,0.6042120000000001,-0.2383585,0.3124475,0.6742520000000001,-0.2208185,-0.0607864999999999,-0.002815,-0.0011494999999999,0.0607864999999999,0.002815,0.0011495,-0.1196525,-0.361898,-0.0230655,0.1264575,-0.353768,-0.0049804999999999,-0.1650525,-0.867518,-0.0308304999999999,0.1968075,-0.840478,0.0104285,0
108,-0.0357775,0.7483835,0.039354,-0.1882515,0.5043035,0.0200879999999999,-0.3497315,0.4531735,-0.039356,0.1457985,0.5246335,0.019902,0.3197385,0.4999535,-0.023381,-0.3436415,0.5354234999999999,-0.2382449999999999,0.3159885,0.6154934999999999,-0.220775,-0.0608974999999999,-0.0030155,-0.001048,0.0608974999999999,0.0030154999999999,0.001048,-0.1205715,-0.3618865,-0.022949,0.1265585,-0.3534764999999999,-0.004883,-0.1663515,-0.8679465000000001,-0.030624,0.1954685,-0.8354165,0.010401,0
109,-0.0358615,0.7516635,0.0408195,-0.1888105,0.5029435,0.0203395,-0.3501105,0.4201435,-0.0257354999999999,0.1457995,0.5221735000000001,0.0192825,0.3193295,0.4679035,-0.0114294999999999,-0.3442305,0.4655535,-0.2370955,0.3153795,0.5428435,-0.2205555,-0.0609855,-0.0031754999999999,-0.0008374999999999,0.0609855,0.0031755,0.0008375,-0.1213005,-0.3618565,-0.0227274999999999,0.1267695,-0.3532065,-0.0046984999999999,-0.1675305,-0.8692065,-0.0305655,0.1942995,-0.8317064999999999,0.0102965,0
110,-0.035948,0.7545655,0.0419195,-0.189297,0.5020955,0.0207084999999999,-0.347367,0.3893555,-0.0116035,0.145593,0.5201155,0.0182864999999999,0.319033,0.4346855,0.0011064999999999,-0.344507,0.3905155,-0.2233155,0.314993,0.4653955,-0.2132855,-0.061073,-0.0032965,-0.0005915,0.061073,0.0032965,0.0005914999999999,-0.121817,-0.3618145,-0.0224745,0.127053,-0.3529744999999999,-0.0045605,-0.168587,-0.8703845,-0.0303925,0.193213,-0.8284144999999999,0.0103454999999999,0
111,-0.0360754999999999,0.757164,0.0426025,-0.1897355,0.501144,0.0211865,-0.3406955,0.361344,0.0022324999999999,0.1454444999999999,0.5184840000000001,0.0166545,0.3168245,0.405034,0.0125744999999999,-0.3444655,0.323304,-0.2048674999999999,0.3147945,0.3925539999999999,-0.1988474999999999,-0.0611545,-0.003469,-0.0003645,0.0611545,0.003469,0.0003645,-0.1221955,-0.361846,-0.0221995,0.1273545,-0.352696,-0.0044685,-0.1693655,-0.871666,-0.0300615,0.1921745,-0.825786,0.0105894999999999,0
112,-0.0362775,0.759381,0.0431095,-0.1901955,0.5001709999999999,0.0213765,-0.3306455,0.335171,0.0157254999999999,0.1453445,0.516931,0.0146794999999999,0.3093345,0.376611,0.0229385,-0.3353755,0.257501,-0.1851475,0.3146945,0.324811,-0.1793475,-0.0612345,-0.003487,-0.0001085,0.0612345,0.0034869999999999,0.0001085,-0.1225655,-0.361759,-0.0220095,0.1276345,-0.352569,-0.0046045,-0.1702955,-0.871829,-0.0297625,0.1914445,-0.823969,0.0108275,0
113,-0.0365399999999999,0.7612899999999999,0.04371,-0.1906339999999999,0.49949,0.021402,-0.317884,0.31228,0.028175,0.1452359999999999,0.51534,0.012372,0.298286,0.34954,0.03338,-0.327314,0.2044099999999999,-0.156886,0.311096,0.26006,-0.155166,-0.061335,-0.003476,0.0001749999999999,0.061335,0.003476,-0.0001749999999999,-0.122914,-0.36167,-0.021737,0.127966,-0.35246,-0.0046839999999999,-0.1710439999999999,-0.87083,-0.029294,0.1907559999999999,-0.82253,0.011497,0
114,-0.0369209999999999,0.762972,0.0443475,-0.191105,0.4989719999999999,0.0212145,-0.302415,0.2929819999999999,0.0380005,0.144925,0.514012,0.0101545,0.283485,0.325692,0.0432525,-0.3121649999999999,0.153462,-0.1280485,0.303905,0.204062,-0.1284185,-0.061409,-0.00345,0.0004734999999999,0.061409,0.00345,-0.0004734999999999,-0.123235,-0.361598,-0.0214735,0.128285,-0.352368,-0.0047205,-0.172285,-0.8718279999999999,-0.0284225,0.189985,-0.8206979999999999,0.0121495,0
115,-0.0372875,0.7643989999999999,0.044631,-0.1915355,0.498759,0.020967,-0.2875555,0.276319,0.045171,0.1445644999999999,0.512799,0.008003,0.2695145,0.304779,0.047062,-0.2965655,0.1150809999999999,-0.097774,0.2942745,0.157439,-0.101392,-0.0614435,-0.00328,0.0007609999999999,0.0614435,0.0032799999999999,-0.0007609999999999,-0.1234155,-0.361401,-0.021321,0.1286245,-0.352421,-0.004815,-0.1734955,-0.873031,-0.027637,0.1893645,-0.8193410000000001,0.013011,0
116,-0.0376249999999999,0.765641,0.044476,-0.19196,0.498901,0.020965,-0.27523,0.262571,0.050291,0.14434,0.5117510000000001,0.006128,0.2576299999999999,0.286941,0.048816,-0.28452,0.078961,-0.068983,0.28672,0.113712,-0.071278,-0.06147,-0.0031049999999999,0.001015,0.06147,0.003105,-0.001015,-0.1233799999999999,-0.361239,-0.021256,0.12895,-0.352499,-0.004963,-0.1737999999999999,-0.870829,-0.026938,0.1889,-0.8178789999999999,0.013721,0
117,-0.0379515,0.766768,0.0438625,-0.1923595,0.499158,0.0210545,-0.2653995,0.250798,0.0545534999999999,0.1443005,0.510798,0.0044165,0.2482105,0.271698,0.0495715,-0.2752495,0.046988,-0.0430615,0.2801205,0.073308,-0.0423205,-0.0614915,-0.0029409999999999,0.0012535,0.0614915,0.0029409999999999,-0.0012534999999999,-0.1232395,-0.361082,-0.0211475,0.1292605,-0.352552,-0.0050985,-0.1735295,-0.866772,-0.0263045,0.1886205,-0.816152,0.0143105,0
118,-0.038329,0.7677615,0.0429455,-0.1927529999999999,0.4995015,0.0212265,-0.2587629999999999,0.2411714999999999,0.0571705,0.144357,0.5099615,0.0028695,0.240787,0.2599115,0.0503305,-0.267963,0.0295694999999999,-0.0218975,0.276557,0.0492994999999999,-0.0259625,-0.061512,-0.0027785,0.0014715,0.061512,0.0027784999999999,-0.0014714999999999,-0.1230729999999999,-0.3609285,-0.0210064999999999,0.129517,-0.3526185,-0.0051874999999999,-0.1731329999999999,-0.8628585,-0.0256705,0.188347,-0.8149785,0.0149285,0
119,-0.0386664999999999,0.7685394999999999,0.0418375,-0.1930895,0.4997895,0.0214854999999999,-0.2545995,0.2335094999999999,0.0582825,0.1443605,0.5091295,0.0015584999999999,0.2354505,0.2530495,0.0510064999999999,-0.2628695,0.0190334999999999,-0.0148135,0.2746905,0.0359314999999999,-0.0191735,-0.0615205,-0.0026425,0.0016254999999999,0.0615205,0.0026424999999999,-0.0016255,-0.1227995,-0.3608205,-0.0210255,0.1297305,-0.3526705,-0.0052865,-0.1734895,-0.8627205,-0.0250805,0.1881005,-0.8131005,0.0154205,0
120,-0.0389905,0.76913,0.040456,-0.1933905,0.50014,0.0217399999999999,-0.2528305,0.22919,0.0588429999999999,0.1443195,0.50847,0.0005629999999999,0.2321195,0.24853,0.051551,-0.2623705,0.012694,-0.010997,0.2744695,0.026013,-0.018578,-0.0615305,-0.0025049999999999,0.001754,0.0615305,0.002505,-0.001754,-0.1224804999999999,-0.36072,-0.021073,0.1299395,-0.35273,-0.005353,-0.1744605,-0.86538,-0.024588,0.1878695,-0.81192,0.016216,0
121,-0.0392795,0.7695045,0.039111,-0.1936515,0.5005045,0.021965,-0.2528915,0.2286245,0.059434,0.1442485,0.5079445,-0.0003129999999999,0.2316685,0.2476344999999999,0.050758,-0.2625715,0.0119285,-0.0104039999999999,0.2742684999999999,0.0209865,-0.017985,-0.0615085,-0.0024605,0.001826,0.0615085,0.0024605,-0.0018259999999999,-0.1221515,-0.3607255,-0.020996,0.1301385,-0.3526955,-0.0052289999999999,-0.1753215,-0.8682155,-0.0241259999999999,0.1877885,-0.8117455,0.016907,0
122,-0.0394705,0.7697355,0.037641,-0.1938485,0.5009155,0.022147,-0.2530285,0.2290855,0.059934,0.1442314999999999,0.5076555,-0.0008,0.2314515,0.2480955,0.048099,-0.2627085,0.0123895,-0.009904,0.2741315,0.0214475,-0.017485,-0.0614775,-0.0024425,0.001872,0.0614775,0.0024425,-0.001872,-0.1218785,-0.3607545,-0.020958,0.1303315,-0.3526445,-0.005142,-0.1760685,-0.8710745,-0.023723,0.1878014999999999,-0.8117344999999999,0.0171629999999999,0
123,-0.0395574999999999,0.7698860000000001,0.036248,-0.1939745,0.501236,0.022322,-0.2531145,0.2294459999999999,0.0591709999999999,0.1442955,0.507566,-0.0010989999999999,0.2313255,0.2484559999999999,0.044679,-0.2627745,0.0127499999999999,-0.0094469999999999,0.2740754999999999,0.0218079999999999,-0.02036,-0.0614635,-0.002424,0.001908,0.0614635,0.0024239999999999,-0.0019079999999999,-0.1215945,-0.360774,-0.020919,0.1304855,-0.352614,-0.005068,-0.1768545,-0.873394,-0.0234079999999999,0.1879255,-0.811854,0.017324,0
124,-0.0396335,0.7699060000000001,0.0350795,-0.1941015,0.501256,0.0224445,-0.2532014999999999,0.229466,0.0570855,0.1443485,0.507586,-0.0011774999999999,0.2310485,0.2484759999999999,0.0402395,-0.2648815,0.0127699999999999,-0.0106745,0.2759885,0.021828,-0.0289215,-0.0614655,-0.002404,0.0019115,0.0614655,0.002404,-0.0019114999999999,-0.1213515,-0.360774,-0.0207665,0.1305985,-0.352594,-0.0049084999999999,-0.1769015,-0.873404,-0.0227855,0.1884384999999999,-0.8124439999999999,0.0181375,0
125,-0.039701,0.7699535000000001,0.0340815,-0.194184,0.5013035,0.0225565,-0.2548539999999999,0.2306234999999999,0.0539975,0.144376,0.5076335,-0.0011905,0.232406,0.2502235,0.0348965,-0.2696739999999999,0.0146584999999999,-0.0184545,0.280506,0.0268564999999999,-0.0405294999999999,-0.0614679999999999,-0.0023935,0.0019144999999999,0.0614679999999999,0.0023934999999999,-0.0019145,-0.1211939999999999,-0.3607665,-0.0205805,0.130696,-0.3525565,-0.0046955,-0.176934,-0.8733965,-0.0221755,0.188916,-0.8123565,0.0186055,0
126,-0.03978,0.7700370000000001,0.0333995,-0.194284,0.501427,0.0225825,-0.258604,0.233817,0.0500535,0.144376,0.507717,-0.0010124999999999,0.235126,0.255137,0.0288154999999999,-0.277624,0.021746,-0.0294054999999999,0.285556,0.035,-0.0538455,-0.061472,-0.0023659999999999,0.0018945,0.061472,0.002366,-0.0018944999999999,-0.121054,-0.360743,-0.0204465,0.130796,-0.352543,-0.0044704999999999,-0.1769939999999999,-0.873383,-0.0215905,0.189336,-0.812273,0.0189815,0
127,-0.039809,0.7701725,0.0328005,-0.194377,0.5018625,0.0223945,-0.263017,0.2383924999999999,0.0452885,0.144363,0.5078024999999999,-0.0009255,0.237873,0.2610525,0.0221895,-0.285167,0.0301714999999999,-0.0429365,0.289693,0.0443504999999999,-0.0691445,-0.061459,-0.0023535,0.0018535,0.061459,0.0023534999999999,-0.0018535,-0.120937,-0.3607275,-0.0203625,0.130893,-0.3525475,-0.0042745,-0.1763969999999999,-0.8733675,-0.0207135,0.1897829999999999,-0.8125975,0.0193155,0
128,-0.0398305,0.7703215,0.0323515,-0.1944665,0.5023015000000001,0.0221414999999999,-0.2671365,0.2435215,0.0399724999999999,0.1443334999999999,0.5079015,-0.0008395,0.2398435,0.2666615,0.0153055,-0.2911065,0.0393785,-0.0579434999999999,0.2910335,0.0544845,-0.0857235,-0.0614554999999999,-0.0023475,0.0018224999999999,0.0614554999999999,0.0023475,-0.0018225,-0.1209364999999999,-0.3607185,-0.0201625,0.1309634999999999,-0.3525185,-0.0040535,-0.1758865,-0.8733485,-0.0199855,0.1902335,-0.8121185,0.0194245,0
129,-0.0398494999999999,0.77046,0.032177,-0.1946075,0.50274,0.021958,-0.2701975,0.24846,0.034296,0.1442525,0.5081100000000001,-0.0007159999999999,0.2403925,0.27166,0.008497,-0.2944974999999999,0.048053,-0.072864,0.2907625,0.064494,-0.102111,-0.0614735,-0.00235,0.001752,0.0614735,0.00235,-0.0017519999999999,-0.1209874999999999,-0.36072,-0.019874,0.1309725,-0.35248,-0.0037449999999999,-0.1749375,-0.8704,-0.019442,0.1904525,-0.81265,0.020207,0
130,-0.039816,0.7705660000000001,0.0321615,-0.194732,0.503136,0.0218065,-0.271992,0.252896,0.0291974999999999,0.1441879999999999,0.508336,-0.0005184999999999,0.240178,0.275686,0.0026594999999999,-0.296212,0.056126,-0.0870315,0.290418,0.07561,-0.1152625,-0.061499,-0.002322,0.0016864999999999,0.061499,0.002322,-0.0016864999999999,-0.121012,-0.360684,-0.0195455,0.1309779999999999,-0.352454,-0.0034024999999999,-0.174032,-0.8673839999999999,-0.0188445,0.190488,-0.8125439999999999,0.0206955,0
131,-0.039831,0.7706755000000001,0.032236,-0.194867,0.5035755,0.021682,-0.2725169999999999,0.2567055,0.02513,0.144093,0.5085855,-0.000269,0.2399629999999999,0.2785455,-0.001797,-0.2965569999999999,0.0636335,-0.099138,0.290083,0.0857555,-0.127109,-0.061525,-0.0022964999999999,0.0015799999999999,0.061525,0.0022965,-0.0015799999999999,-0.121027,-0.3606245,-0.019227,0.130963,-0.3524545,-0.002962,-0.173207,-0.8643844999999999,-0.018071,0.190993,-0.8131444999999999,0.021273,0
132,-0.0398945,0.770904,0.0324075,-0.1950445,0.504004,0.0216225,-0.2727345,0.259754,0.0221585,0.1439355,0.5087240000000001,5.850000000000039e-05,0.2397555,0.280404,-0.0046115,-0.2968745,0.069473,-0.1083085,0.2897855,0.0945189999999999,-0.1350185,-0.0615625,-0.002279,0.0014365,0.0615625,0.002279,-0.0014364999999999,-0.1210445,-0.360566,-0.0188385,0.1309255,-0.352446,-0.0024305,-0.1729345,-0.8643059999999999,-0.0170685,0.1914055,-0.8132959999999999,0.0217415,0
133,-0.040022,0.7711250000000001,0.0325155,-0.195223,0.504425,0.0216685,-0.272933,0.262075,0.0197375,0.143777,0.508815,0.0004264999999999,0.239067,0.281145,-0.0063795,-0.297143,0.0732329999999999,-0.1143145,0.285597,0.1014759999999999,-0.1407245,-0.0616009999999999,-0.002243,0.0012855,0.0616009999999999,0.0022429999999999,-0.0012855,-0.1211029999999999,-0.360475,-0.0184715,0.130857,-0.352465,-0.0018975,-0.172793,-0.864205,-0.0161265,0.191527,-0.812855,0.0221685,0
134,-0.040201,0.7713555000000001,0.0327364999999999,-0.1954479999999999,0.5048254999999999,0.0217165,-0.273138,0.2630055,0.0182695,0.143602,0.5088655,0.0008605,0.237392,0.2811755,-0.0069584999999999,-0.296818,0.0749565,-0.1160055,0.2798219999999999,0.1015065,-0.1439955,-0.061644,-0.0021854999999999,0.0010934999999999,0.061644,0.0021855,-0.0010934999999999,-0.121148,-0.3603745,-0.0180355,0.130742,-0.3525145,-0.0013295,-0.172688,-0.8640745000000001,-0.0150875,0.191382,-0.8124745,0.0227735,0
135,-0.040345,0.771557,0.0329155,-0.195616,0.505207,0.0217985,-0.272746,0.263047,0.0171995,0.1434639999999999,0.508877,0.0012655,0.235074,0.2811869999999999,-0.0066525,-0.294726,0.074979,-0.1157385,0.272544,0.101518,-0.1455985,-0.061668,-0.0021309999999999,0.0009095,0.061668,0.002131,-0.0009094999999999,-0.121136,-0.360283,-0.0175435,0.130604,-0.352553,-0.0007384999999999,-0.1719859999999999,-0.8615929999999999,-0.0137735,0.191244,-0.812463,0.0234315,0
136,-0.040429,0.7715510000000001,0.0331775,-0.1957809999999999,0.505261,0.0220385,-0.271761,0.2630409999999999,0.0167505,0.143389,0.5088509999999999,0.0018465,0.232399,0.281181,-0.0054865,-0.291141,0.074973,-0.1144765,0.265509,0.1015119999999999,-0.1441464999999999,-0.061673,-0.002137,0.0006735,0.061673,0.002137,-0.0006735,-0.121061,-0.360289,-0.0170775,0.130529,-0.352549,-0.0001155,-0.172031,-0.861559,-0.0123655,0.191249,-0.8120689999999999,0.0243655,0
137,-0.040487,0.7715230000000001,0.0333809999999999,-0.1959119999999999,0.505273,0.022298,-0.270232,0.263013,0.016769,0.1433479999999999,0.508823,0.002434,0.229648,0.280893,-0.003968,-0.285992,0.074945,-0.113095,0.259338,0.101227,-0.142575,-0.061669,-0.002165,0.0004249999999999,0.061669,0.002165,-0.000425,-0.1209219999999999,-0.360317,-0.016662,0.130488,-0.352537,0.0004889999999999,-0.172022,-0.861537,-0.0108119999999999,0.191068,-0.811497,0.026393,0
138,-0.0405645,0.771501,0.0336045,-0.1960095,0.505221,0.0225165,-0.2684694999999999,0.262951,0.0172355,0.1433105,0.508761,0.0029075,0.2269205,0.279571,-0.0023354999999999,-0.2805395,0.0748829999999999,-0.1116004999999999,0.2546005,0.0974039999999999,-0.1409105,-0.0616685,-0.002227,0.0001794999999999,0.0616685,0.0022269999999999,-0.0001794999999999,-0.1207795,-0.360379,-0.0162575,0.1304705,-0.352489,0.0010065,-0.1719795,-0.861549,-0.0092135,0.1910905,-0.811559,0.0278165,0
139,-0.0407285,0.77159,0.0336305,-0.1961575,0.50534,0.0228915,-0.2663275,0.26158,0.0185735,0.1433225,0.50856,0.0034045,0.2245224999999999,0.27619,-0.0004394999999999,-0.2754675,0.071101,-0.1078765,0.2514225,0.0899399999999999,-0.1368165,-0.0616725,-0.002211,-2.950000000000001e-05,0.0616725,0.002211,2.950000000000001e-05,-0.1205675,-0.36038,-0.0159834999999999,0.1302925,-0.35251,0.0014255,-0.1720775,-0.8614799999999999,-0.0076655,0.1909625,-0.8114,0.0297155,0
140,-0.0409835,0.7716510000000001,0.0335214999999999,-0.1963445,0.505461,0.0233915,-0.2641545,0.259611,0.0204465,0.1433355,0.508361,0.0039185,0.2227255,0.272161,0.0017945,-0.2712645,0.065585,-0.1015865,0.2493655,0.080095,-0.1294365,-0.0616745,-0.0021769999999999,-0.0001715,0.0616745,0.0021769999999999,0.0001714999999999,-0.1203845,-0.360359,-0.0156955,0.1300155,-0.352549,0.0017704999999999,-0.1721545,-0.8614189999999999,-0.0059265,0.1907955,-0.8127989999999999,0.0326015,0
141,-0.0413155,0.771677,0.033469,-0.1964854999999999,0.505537,0.02407,-0.2621855,0.257307,0.022375,0.1433745,0.508167,0.00457,0.2214344999999999,0.267577,0.004415,-0.2678355,0.059591,-0.093705,0.2483544999999999,0.067901,-0.119905,-0.0616405,-0.002127,-0.0002059999999999,0.0616405,0.002127,0.000206,-0.1201655,-0.360333,-0.0153969999999999,0.1296945,-0.352573,0.002016,-0.1722254999999999,-0.861373,-0.0040669999999999,0.1911745,-0.815403,0.034383,0
142,-0.041705,0.7715355,0.033461,-0.1966139999999999,0.5054055,0.024854,-0.260484,0.2546355,0.0243719999999999,0.143406,0.5078455,0.00515,0.220626,0.2624555,0.007592,-0.265044,0.0526595,-0.084167,0.248646,0.0557585,-0.10751,-0.061595,-0.0022124999999999,-0.0001889999999999,0.061595,0.0022125,0.0001889999999999,-0.1199039999999999,-0.3604445,-0.015276,0.1292859999999999,-0.3525645,0.001954,-0.172354,-0.8614645,-0.002673,0.191056,-0.8174745,0.036128,0
143,-0.0422089999999999,0.7713945,0.0335205,-0.196662,0.5052445,0.0257805,-0.258912,0.2518445,0.0264435,0.143488,0.5075244999999999,0.0058155,0.220408,0.2576644999999999,0.0113155,-0.263032,0.0454315,-0.0739814999999999,0.249038,0.0439094999999999,-0.0926355,-0.061538,-0.0023385,-6.349999999999932e-05,0.061538,0.0023384999999999,6.350000000000106e-05,-0.119612,-0.3605955,-0.0151425,0.128828,-0.3525055,0.0016735,-0.172542,-0.8615155,-0.0012884999999999,0.190688,-0.8177755,0.0377945,0
144,-0.04285,0.7712264999999999,0.0334895,-0.19669,0.5051365,0.0267295,-0.25753,0.2490465,0.0290745,0.14363,0.5073265,0.0064795,0.22056,0.2532765,0.0153045,-0.26171,0.0388704999999999,-0.0639225,0.2495,0.0334454999999999,-0.0772415,-0.061467,-0.0024595,6.150000000000079e-05,0.061467,0.0024594999999999,-6.149999999999906e-05,-0.1192599999999999,-0.3607335,-0.0150255,0.12839,-0.3524235,0.0012805,-0.17301,-0.8641135000000001,-1.1499999999999358e-05,0.1907,-0.8170835000000001,0.0383215,0
145,-0.043559,0.771073,0.0334369999999999,-0.1966369999999999,0.505043,0.0277289999999999,-0.256347,0.246333,0.0319939999999999,0.143803,0.507203,0.0070209999999999,0.220853,0.249763,0.019422,-0.261327,0.033517,-0.054644,0.250163,0.0246559999999999,-0.0617599999999999,-0.061395,-0.002582,0.0002309999999999,0.061395,0.002582,-0.000231,-0.118877,-0.360887,-0.014848,0.127983,-0.352337,0.0008219999999999,-0.173417,-0.866717,0.0011739999999999,0.191273,-0.817177,0.038819,0
146,-0.0444025,0.7709085,0.0333244999999999,-0.1965615,0.5049385,0.0288324999999999,-0.2554215,0.2441585,0.0350775,0.1439785,0.5070985,0.0074854999999999,0.2211785,0.2468885,0.0233535,-0.2609215,0.0298005,-0.0464865,0.2517485,0.0174645,-0.0482975,-0.0613175,-0.0027054999999999,0.0004594999999999,0.0613175,0.0027054999999999,-0.0004595,-0.1185014999999999,-0.3610315,-0.0146145,0.1276285,-0.3522615,0.0003834999999999,-0.1738815,-0.8689015,0.0021794999999999,0.1915485,-0.8171015,0.0394464999999999,0
147,-0.045354,0.7707394999999999,0.033099,-0.196469,0.5048095,0.029954,-0.254789,0.2423495,0.038236,0.144131,0.5071095,0.007868,0.2214809999999999,0.2449895,0.026711,-0.260559,0.0269515,-0.039367,0.254351,0.0136835,-0.037582,-0.061253,-0.0028284999999999,0.000709,0.061253,0.0028285,-0.0007089999999999,-0.118129,-0.3611904999999999,-0.014431,0.127321,-0.3522004999999999,-6.799999999999862e-05,-0.174389,-0.8714105000000001,0.003068,0.191871,-0.8180304999999999,0.040264,0
148,-0.046452,0.770548,0.0329355,-0.1963629999999999,0.504668,0.0309225,-0.254543,0.241218,0.0411505,0.144157,0.507168,0.0079734999999999,0.222037,0.244538,0.0292144999999999,-0.260343,0.026246,-0.0353995,0.257337,0.012839,-0.0324035,-0.061212,-0.002962,0.0009594999999999,0.061212,0.002962,-0.0009595,-0.117883,-0.361322,-0.0141575,0.127137,-0.352112,-0.0004745,-0.174953,-0.873742,0.0035824999999999,0.192307,-0.819562,0.0409385,0
149,-0.047624,0.7703544999999999,0.0328264999999999,-0.196266,0.5045345,0.0317745,-0.254326,0.2403845,0.0438125,0.144124,0.5072345,0.0079914999999999,0.222904,0.2444845,0.0307805,-0.261406,0.0267105,-0.0332145,0.259694,0.0141655,-0.0313985,-0.061183,-0.0030984999999999,0.0011884999999999,0.061183,0.0030985,-0.0011885,-0.117676,-0.3614655,-0.0139015,0.127004,-0.3520255,-0.0008875,-0.175656,-0.8761755,0.0038335,0.192834,-0.8218355,0.0417855,0
150,-0.0488015,0.770189,0.0325745,-0.1961945,0.504439,0.0324075,-0.2541745,0.239739,0.0459885,0.1440055,0.507359,0.0076675,0.2240455,0.244909,0.0315555,-0.2628545,0.0274639999999999,-0.0323765,0.2611855,0.0155,-0.0306284999999999,-0.0611795,-0.003213,0.0013495,0.0611795,0.0032129999999999,-0.0013495,-0.1175445,-0.361581,-0.0137185,0.1270155,-0.351911,-0.0011824999999999,-0.1758245,-0.876251,0.0038335,0.1937255,-0.822951,0.0421755,0
151,-0.0500179999999999,0.770139,0.0323004999999999,-0.1961439999999999,0.504439,0.0328745,-0.254204,0.239539,0.0473025,0.143816,0.507359,0.0072514999999999,0.225186,0.244909,0.0321675,-0.2642139999999999,0.0274639999999999,-0.0317215,0.261506,0.0155,-0.0300025,-0.061183,-0.003213,0.0014804999999999,0.061183,0.0032129999999999,-0.0014804999999999,-0.1174439999999999,-0.361581,-0.0133814999999999,0.127086,-0.351911,-0.0011845,-0.175854,-0.876251,0.0042055,0.194346,-0.825561,0.0425915,0
152,-0.051144,0.770089,0.031901,-0.196114,0.504439,0.033268,-0.254414,0.239539,0.047983,0.143546,0.507359,0.00661,0.225966,0.244909,0.032629,-0.265004,0.0274639999999999,-0.0312319999999999,0.261556,0.0157979999999999,-0.029528,-0.061193,-0.003213,0.001556,0.061193,0.0032129999999999,-0.0015559999999999,-0.117384,-0.361581,-0.0131219999999999,0.127116,-0.351911,-0.0009639999999999,-0.176324,-0.878801,0.004516,0.195336,-0.8279610000000001,0.042396,0
153,-0.052151,0.770049,0.0316349999999999,-0.196099,0.504439,0.0336459999999999,-0.254569,0.239539,0.048364,0.143251,0.507359,0.005953,0.226521,0.244909,0.0329529999999999,-0.265279,0.0274639999999999,-0.030849,0.261531,0.0176209999999999,-0.03187,-0.061209,-0.003213,0.0016359999999999,0.061209,0.0032129999999999,-0.001636,-0.117359,-0.361581,-0.0129319999999999,0.127111,-0.351911,-0.000646,-0.176299,-0.878801,0.0046959999999999,0.195271,-0.829511,0.0427749999999999,0
154,-0.0530639999999999,0.7699895,0.0314625,-0.196095,0.5045195,0.0338025,-0.254585,0.2394795,0.0486835,0.142905,0.5075895,0.0053164999999999,0.226775,0.2458895,0.0324324999999999,-0.265285,0.0288805,-0.0320465,0.261455,0.0207385,-0.0369555,-0.061216,-0.0032254999999999,0.0017304999999999,0.061216,0.0032255,-0.0017305,-0.117335,-0.3616005,-0.0128185,0.127095,-0.3518405,-0.0003275,-0.1762949999999999,-0.8787604999999999,0.0048234999999999,0.196205,-0.8295705,0.0427614999999999,0
155,-0.053824,0.7699855,0.031345,-0.19608,0.5046155,0.033884,-0.2545699999999999,0.2394955,0.048899,0.1426,0.5077955,0.0046879999999999,0.22676,0.2472555,0.030832,-0.26532,0.0306774999999999,-0.03468,0.26072,0.0246444999999999,-0.045751,-0.06122,-0.0032155,0.0017809999999999,0.06122,0.0032154999999999,-0.001781,-0.11731,-0.3615945,-0.012665,0.12715,-0.3517945,-0.000113,-0.17575,-0.8761645,0.0050409999999999,0.1968,-0.8328645,0.042231,0
156,-0.0544675,0.769989,0.0312615,-0.1960635,0.504719,0.0339015,-0.2545535,0.2397389999999999,0.0487525,0.1423365,0.5079589999999999,0.0041815,0.2267365,0.248749,0.0287435,-0.2653735,0.032632,-0.0381295,0.2594065,0.02941,-0.0556314999999999,-0.0612245,-0.0032049999999999,0.0018204999999999,0.0612245,0.0032049999999999,-0.0018204999999999,-0.1172835,-0.361591,-0.0126135,0.1272265,-0.351751,6.849999999999912e-05,-0.1752035,-0.8735809999999999,0.0052285,0.1968165,-0.832911,0.0424135,0
157,-0.054969,0.7699965,0.0312615,-0.196059,0.5048165,0.0338485,-0.254569,0.2401464999999999,0.0481305,0.142111,0.5080665,0.0038494999999999,0.2266909999999999,0.2503365,0.0261665,-0.266219,0.0345175,-0.0424694999999999,0.259631,0.0354205,-0.0666225,-0.061235,-0.0031955,0.0018265,0.061235,0.0031955,-0.0018265,-0.117279,-0.3615835,-0.0125735,0.127301,-0.3517135,0.0002634999999999,-0.174669,-0.8710635,0.0053925,0.197461,-0.8384435,0.0416195,0
158,-0.0553705,0.7699135,0.0311905,-0.1960605,0.5048835,0.0335045,-0.2547104999999999,0.2406735,0.0470995,0.1419195,0.5081535,0.0033615,0.2270995,0.2521235,0.0235004999999999,-0.2669905,0.0363985,-0.0470545,0.2597595,0.0413445,-0.0770905,-0.0612525,-0.0031944999999999,0.0018334999999999,0.0612525,0.0031945,-0.0018335,-0.1172805,-0.3616064999999999,-0.0125525,0.1273595,-0.3516565,0.0006964999999999,-0.1746405,-0.8710565,0.0057725,0.1984195,-0.8466865,0.0409845,0
159,-0.0556784999999999,0.7698745,0.0312835,-0.1960255,0.5049545,0.0331245,-0.2547855,0.2413145,0.0467215,0.1417844999999999,0.5081945,0.0031715,0.2274745,0.2539645,0.0211175,-0.2677155,0.0381945,-0.0514245,0.2598145,0.0474925,-0.0860525,-0.0612594999999999,-0.0031974999999999,0.0018395,0.0612594999999999,0.0031975,-0.0018395,-0.1172655,-0.3616255,-0.0125575,0.1273844999999999,-0.3516055,0.0011654999999999,-0.1741555,-0.8686055,0.0060795,0.1996744999999999,-0.8549555,0.0401545,0
160,-0.05592,0.7697780000000001,0.0314525,-0.195961,0.505008,0.0327215,-0.254851,0.242218,0.0468865,0.141709,0.508258,0.0032805,0.227789,0.256118,0.0190135,-0.268691,0.04024,-0.0552355,0.259799,0.054235,-0.0931885,-0.061271,-0.0031949999999999,0.0018195,0.061271,0.003195,-0.0018194999999999,-0.117231,-0.361642,-0.0125704999999999,0.127409,-0.351552,0.0016535,-0.173651,-0.866262,0.0063595,0.200929,-0.863232,0.0392965,0
161,-0.056111,0.769599,0.031636,-0.195956,0.5050790000000001,0.032232,-0.2552259999999999,0.243949,0.047074,0.141714,0.508399,0.003461,0.227994,0.258549,0.017316,-0.271426,0.043159,-0.058361,0.263544,0.061497,-0.097688,-0.061274,-0.003194,0.00179,0.061274,0.003194,-0.00179,-0.117216,-0.361661,-0.012588,0.127414,-0.351511,0.00209,-0.172896,-0.864081,0.006814,0.201104,-0.869051,0.039577,0
162,-0.056215,0.7692495,0.0317869999999999,-0.19593,0.5052195,0.031712,-0.2570199999999999,0.2473795,0.0467579999999999,0.14171,0.5088995,0.0036099999999999,0.23067,0.2615294999999999,0.0152499999999999,-0.2792,0.0491984999999999,-0.0609759999999999,0.27271,0.0700705,-0.100969,-0.061268,-0.0031795,0.0017749999999999,0.061268,0.0031795,-0.001775,-0.11722,-0.3616804999999999,-0.012676,0.12741,-0.3515205,0.0023439999999999,-0.1722,-0.8618505,0.0070579999999999,0.2011,-0.8705305,0.0395999999999999,0
163,-0.0562559999999999,0.7686685,0.0319954999999999,-0.1959499999999999,0.5055785,0.0311035,-0.26128,0.2534285,0.0457175,0.1417,0.5099885,0.0036605,0.23556,0.2671285,0.0132965,-0.29162,0.0585335,-0.0631325,0.28843,0.0783655,-0.1035384999999999,-0.061261,-0.0031825,0.0017245,0.061261,0.0031825,-0.0017245,-0.1172199999999999,-0.3617315,-0.0130055,0.12735,-0.3515215,0.0024624999999999,-0.17199,-0.8618715,0.0073615,0.20109,-0.8723315,0.0396585,0
164,-0.056269,0.7676895,0.0323375,-0.195979,0.5062295,0.0304964999999999,-0.268329,0.2603594999999999,0.0445924999999999,0.141671,0.5116595,0.0038884999999999,0.244381,0.2730095,0.0107104999999999,-0.310529,0.0700514999999999,-0.0649225,0.308621,0.0904534999999999,-0.1042895,-0.061264,-0.0031475,0.0017054999999999,0.061264,0.0031474999999999,-0.0017055,-0.1172589999999999,-0.3617605,-0.0133785,0.127241,-0.3515905,0.0025104999999999,-0.171749,-0.8618804999999999,0.0075474999999999,0.201071,-0.8744605,0.0396775,0
165,-0.0562914999999999,0.7662745000000001,0.032828,-0.1960195,0.5069245,0.029715,-0.2781595,0.2687744999999999,0.043743,0.1416005,0.5136745,0.004399,0.2551505,0.2803945,0.008157,-0.3334195,0.0816404999999999,-0.066345,0.3322405,0.1033314999999999,-0.104726,-0.0612485,-0.0030805,0.001683,0.0612485,0.0030805,-0.001683,-0.1172894999999999,-0.3617555,-0.0138609999999999,0.1269905,-0.3517155,0.002538,-0.1714595,-0.8618555,0.0076939999999999,0.2007805,-0.8738954999999999,0.039699,0
166,-0.056327,0.7644555,0.0334765,-0.196097,0.5077955,0.0289165,-0.289707,0.2785655,0.0425945,0.1415229999999999,0.5159954999999999,0.0049225,0.266293,0.2935655,0.0056725,-0.360067,0.0963195,-0.0681614999999999,0.356223,0.1176784999999999,-0.1051805,-0.06121,-0.0031105,0.0016474999999999,0.06121,0.0031104999999999,-0.0016474999999999,-0.117307,-0.3618645,-0.0143674999999999,0.126673,-0.3518044999999999,0.0025165,-0.171257,-0.8619545,0.0077175,0.200273,-0.8732845,0.0397155,0
167,-0.0563355,0.7624255,0.034156,-0.1962415,0.5087655,0.028309,-0.3018615,0.2890955,0.040799,0.1414485,0.5185555,0.0054769999999999,0.2774784999999999,0.3065854999999999,0.003355,-0.3852415,0.1119054999999999,-0.069626,0.3781185,0.1335555,-0.105669,-0.0611645,-0.0031764999999999,0.001537,0.0611645,0.0031764999999999,-0.001537,-0.1173615,-0.3619645,-0.014889,0.1263385,-0.3518845,0.0024439999999999,-0.1710615,-0.8620845,0.0076929999999999,0.2002685,-0.8708545,0.040709,0
168,-0.0563205,0.760239,0.0348095,-0.1964304999999999,0.509679,0.0276085,-0.3123005,0.296999,0.0387065,0.1413595,0.5212789999999999,0.0060704999999999,0.2868095,0.318599,0.0019094999999999,-0.4051105,0.118201,-0.0713355,0.4006095,0.139469,-0.1070925,-0.0611175,-0.003221,0.0013605,0.0611175,0.0032209999999999,-0.0013605,-0.1174404999999999,-0.3620609999999999,-0.0153095,0.1259795,-0.352011,0.0024064999999999,-0.1708905,-0.862201,0.0075145,0.1999395,-0.867861,0.0416254999999999,0
169,-0.0562425,0.7582605,0.0354535,-0.1966205,0.5100705,0.0268845,-0.3208005,0.3025805,0.0375245,0.1413595,0.5235505,0.0066374999999999,0.2949095,0.3261205,0.0014394999999999,-0.4202404999999999,0.1216335,-0.0734895,0.4184895,0.1397145,-0.1067714999999999,-0.0610725,-0.0032794999999999,0.0011824999999999,0.0610725,0.0032794999999999,-0.0011824999999999,-0.1175705,-0.3621595,-0.0156615,0.1256095,-0.3521195,0.0023924999999999,-0.1707905,-0.8623595000000001,0.0073025,0.1993995,-0.8606695,0.0415665,0
170,-0.0561045,0.7568995000000001,0.0362705,-0.1968175,0.5099095,0.0262654999999999,-0.3264275,0.3049595,0.0368475,0.1413425,0.5251295,0.0072884999999999,0.3016825,0.3295295,0.0010794999999999,-0.4271475,0.1236065,-0.0736135,0.4260325,0.1395995,-0.1059925,-0.0610384999999999,-0.0033554999999999,0.0010014999999999,0.0610384999999999,0.0033555,-0.0010015,-0.1176975,-0.3622505,-0.0159235,0.1253524999999999,-0.3521705,0.0021544999999999,-0.1708375,-0.8625205,0.0069514999999999,0.1982025,-0.8529205,0.0419714999999999,0
171,-0.0559395,0.7556620000000001,0.036611,-0.1970285,0.509532,0.02551,-0.3280185,0.303652,0.036394,0.1412715,0.5260020000000001,0.007329,0.3026515,0.330192,0.000726,-0.4272285,0.122299,-0.0739489999999999,0.4259815,0.138292,-0.104748,-0.0610364999999999,-0.0034839999999999,0.000838,0.0610364999999999,0.003484,-0.0008379999999999,-0.1178085,-0.362368,-0.016258,0.1251815,-0.352138,0.001831,-0.1709185,-0.862668,0.006567,0.1966615,-0.844718,0.042866,0
172,-0.0557859999999999,0.755283,0.0364245,-0.197275,0.509053,0.0246255,-0.3280949999999999,0.303173,0.0359125,0.141195,0.525833,0.0068645,0.302575,0.329713,0.0002615,-0.427305,0.12182,-0.0743574999999999,0.425945,0.137813,-0.1030825,-0.061042,-0.0035099999999999,0.0006995,0.061042,0.0035099999999999,-0.0006994999999999,-0.117905,-0.362367,-0.0167225,0.125105,-0.352167,0.0014505,-0.170995,-0.862697,0.0060615,0.195045,-0.835667,0.0436865,0
173,-0.055706,0.755423,0.035852,-0.197641,0.509053,0.023616,-0.3282009999999999,0.303173,0.035579,0.141089,0.525833,0.006296,0.302479,0.329713,0.00043,-0.4273909999999999,0.12182,-0.074085,0.4259389999999999,0.137813,-0.097721,-0.0610659999999999,-0.0035099999999999,0.000634,0.0610659999999999,0.0035099999999999,-0.0006339999999999,-0.118091,-0.362367,-0.01729,0.1250089999999999,-0.352167,0.001114,-0.171101,-0.862697,0.005461,0.194249,-0.827787,0.04414,0
174,-0.0556605,0.756093,0.0352079999999999,-0.1980015,0.509053,0.022671,-0.3283215,0.302343,0.034315,0.1409784999999999,0.525833,0.0056539999999999,0.3024185,0.329713,0.0028779999999999,-0.4245015,0.1179959999999999,-0.071694,0.4236285,0.136027,-0.089883,-0.0611074999999999,-0.0035099999999999,0.000621,0.0611074999999999,0.0035099999999999,-0.000621,-0.1184615,-0.362367,-0.017744,0.1249085,-0.352167,0.000899,-0.1714415,-0.862697,0.0048229999999999,0.1934884999999999,-0.827247,0.044309,0
175,-0.0556295,0.756733,0.034626,-0.1983635,0.508973,0.021737,-0.3248035,0.296533,0.033631,0.1407265,0.525833,0.0049479999999999,0.2985764999999999,0.326573,0.0064119999999999,-0.4111735,0.108031,-0.07014,0.4091965,0.127188,-0.080952,-0.0611504999999999,-0.0035099999999999,0.000677,0.0611504999999999,0.0035099999999999,-0.000677,-0.1188834999999999,-0.362367,-0.0179299999999999,0.1248465,-0.352167,0.0008479999999999,-0.1716135,-0.862697,0.0042449999999999,0.1931665,-0.827247,0.044542,0
176,-0.055613,0.757496,0.0340295,-0.198673,0.508226,0.0208265,-0.314383,0.2879359999999999,0.0329055,0.140347,0.524726,0.0039784999999999,0.286707,0.318356,0.0118395,-0.386263,0.093932,-0.0671105,0.385027,0.111197,-0.0695055,-0.061176,-0.003548,0.0007815,0.061176,0.003548,-0.0007815,-0.119353,-0.362334,-0.0179874999999999,0.124897,-0.352144,0.0010194999999999,-0.171843,-0.8626940000000001,0.0037244999999999,0.192687,-0.826254,0.0443365,0
177,-0.055635,0.758739,0.0332645,-0.1989699999999999,0.507449,0.0200405,-0.30152,0.278389,0.0321975,0.13998,0.523119,0.0028504999999999,0.27245,0.308509,0.0173294999999999,-0.35694,0.076289,-0.0643055,0.35975,0.09438,-0.0577324999999999,-0.061206,-0.0036319999999999,0.0009424999999999,0.061206,0.003632,-0.0009424999999999,-0.1197899999999999,-0.362351,-0.0178375,0.12503,-0.352031,0.0013764999999999,-0.17215,-0.8627309999999999,0.0034315,0.19227,-0.826101,0.0444974999999999,0
178,-0.055667,0.7604205,0.03215,-0.199268,0.5065204999999999,0.019279,-0.2885379999999999,0.2682005,0.031959,0.139682,0.5211505,0.001802,0.259372,0.2930205,0.023006,-0.327088,0.0642915,-0.061481,0.336252,0.0752515,-0.046039,-0.061282,-0.0036295,0.0010919999999999,0.061282,0.0036295,-0.0010919999999999,-0.1202579999999999,-0.3622495,-0.017686,0.125252,-0.3519695,0.001811,-0.172448,-0.8626695,0.003456,0.192162,-0.8250295,0.04403,0
179,-0.0556274999999999,0.7623345,0.0307075,-0.1994725,0.5054945,0.0184605,-0.2766225,0.2579845,0.0308715,0.1395374999999999,0.5189245,0.0008195,0.2474575,0.2788045,0.0285885,-0.3016025,0.0483445,-0.0604695,0.3193474999999999,0.0525825,-0.0378344999999999,-0.0613554999999999,-0.0035915,0.0012245,0.0613554999999999,0.0035914999999999,-0.0012245,-0.1205924999999999,-0.3621355,-0.0175684999999999,0.1255774999999999,-0.3519055,0.0022404999999999,-0.1728425,-0.8625555,0.0034954999999999,0.1917275,-0.8228555,0.0444155,0
180,-0.05552,0.7643705000000001,0.0290655,-0.199629,0.5044905,0.0176695,-0.267359,0.2504004999999999,0.0301915,0.139471,0.5165305,-6.149999999999906e-05,0.238571,0.2664705,0.0324875,-0.283039,0.0417205,-0.0606585,0.303591,0.0394905,-0.0304415,-0.061408,-0.0035745,0.0013274999999999,0.061408,0.0035745,-0.0013274999999999,-0.120939,-0.3620195,-0.0174935,0.125941,-0.3517995,0.0026345,-0.173249,-0.8624495,0.0035915,0.191291,-0.8202395,0.0448915,0
181,-0.0554024999999999,0.7662425,0.0272945,-0.1997595,0.5040425000000001,0.0168755,-0.2610694999999999,0.2454025,0.0296565,0.1394405,0.5145625,-0.0007444999999999,0.2318205,0.2587125,0.0350025,-0.2694795,0.0382654999999999,-0.0612645,0.2926305,0.0324965,-0.0261824999999999,-0.0614585,-0.0035285,0.0013805,0.0614585,0.0035284999999999,-0.0013804999999999,-0.1212695,-0.3618875,-0.0174194999999999,0.1263305,-0.3517475,0.0029455,-0.1735995,-0.8623075,0.0037385,0.1915505,-0.8190474999999999,0.0457405,0
182,-0.055241,0.767606,0.0253665,-0.199791,0.504206,0.0161015,-0.257561,0.243256,0.0292495,0.139469,0.513236,-0.0010914999999999,0.226749,0.255166,0.0363595,-0.263401,0.035884,-0.0630455,0.288809,0.026367,-0.0264625,-0.061514,-0.003414,0.0013345,0.061514,0.003414,-0.0013344999999999,-0.121551,-0.361714,-0.0173445,0.126639,-0.351804,0.0031615,-0.173851,-0.862114,0.0038735,0.191599,-0.818044,0.0452455,0
183,-0.055007,0.7686635,0.023628,-0.199769,0.5045335,0.015345,-0.2570489999999999,0.2442835,0.027668,0.139551,0.5122935000000001,-0.0014239999999999,0.225241,0.2538635,0.036054,-0.263049,0.0369115,-0.063382,0.288891,0.0259165,-0.026795,-0.061605,-0.0032954999999999,0.001167,0.061605,0.0032955,-0.0011669999999999,-0.1217889999999999,-0.3615265,-0.0172779999999999,0.126941,-0.3518365,0.003253,-0.174059,-0.8619365,0.00394,0.191291,-0.8204665,0.045787,0
184,-0.0547145,0.76925,0.02205,-0.1997065,0.50487,0.014546,-0.2570165,0.24487,0.024096,0.1396435,0.51192,-0.00177,0.2253335,0.25409,0.035708,-0.2629565,0.037498,-0.0637279999999999,0.2889835,0.026361,-0.027141,-0.0616955,-0.003221,0.000924,0.0616955,0.003221,-0.000924,-0.1220564999999999,-0.36138,-0.017233,0.1271535,-0.35189,0.003348,-0.1742565,-0.86183,0.003757,0.1915535,-0.82343,0.045438,0
185,-0.0543385,0.769657,0.020594,-0.1995984999999999,0.505107,0.013717,-0.2569685,0.245277,0.019469,0.1397615,0.511937,-0.0020679999999999,0.2254515,0.254497,0.035347,-0.2629285,0.0379049999999999,-0.0691519999999999,0.2890915,0.0267679999999999,-0.0278759999999999,-0.0617625,-0.003169,0.000633,0.0617625,0.0031689999999999,-0.0006329999999999,-0.1222484999999999,-0.3612729999999999,-0.0172289999999999,0.1273815,-0.351913,0.003367,-0.1744285,-0.861733,0.003582,0.1916915,-0.824093,0.0458,0
186,-0.053999,0.7698225,0.019128,-0.199533,0.5053425,0.012726,-0.256963,0.2457424999999999,0.014232,0.139877,0.5121225,-0.001867,0.225537,0.2548325,0.034668,-0.262993,0.0387595,-0.0782129999999999,0.289717,0.0271034999999999,-0.0320489999999999,-0.061796,-0.0031064999999999,0.000264,0.061796,0.0031064999999999,-0.000264,-0.122463,-0.3611574999999999,-0.017304,0.127587,-0.3519775,0.003341,-0.174503,-0.8616275,0.0032069999999999,0.191577,-0.8237175,0.045889,0
187,-0.0535234999999999,0.7699695,0.017759,-0.1994585,0.5055495,0.0116239999999999,-0.2593884999999999,0.2484195,0.008648,0.1402015,0.5123495,-0.001181,0.2266415,0.2551395,0.032971,-0.2693284999999999,0.0424375,-0.0884139999999999,0.2946715,0.0316215,-0.038503,-0.0618045,-0.0030364999999999,-0.0001379999999999,0.0618045,0.0030364999999999,0.0001379999999999,-0.1226584999999999,-0.3610505,-0.017415,0.1278015,-0.3520304999999999,0.0032849999999999,-0.1746685,-0.8615105,0.002784,0.1926614999999999,-0.8276805,0.0462739999999999,0
188,-0.0530379999999999,0.7701085,0.016626,-0.199369,0.5057585,0.010587,-0.266039,0.2529185,0.0029369999999999,0.140621,0.5125985,-0.000227,0.231451,0.2592385,0.030674,-0.281509,0.0482574999999999,-0.098841,0.303221,0.0389935,-0.0483899999999999,-0.061816,-0.0029635,-0.000562,0.061816,0.0029635,0.000562,-0.122849,-0.3609415,-0.017642,0.128051,-0.3520915,0.0032459999999999,-0.174899,-0.8614015,0.0024019999999999,0.193271,-0.8293915,0.046144,0
189,-0.0524795,0.7702184999999999,0.0156575,-0.1992364999999999,0.5059985,0.0095995,-0.2722565,0.2569685,-0.0025114999999999,0.1411335,0.5127985,0.0007895,0.2357835,0.2634585,0.0286245,-0.2938965,0.0545365,-0.1086905,0.3078535,0.0466405,-0.0589564999999999,-0.0618245,-0.0028805,-0.0009744999999999,0.0618245,0.0028805,0.0009745,-0.1229565,-0.3608314999999999,-0.0179564999999999,0.1283235,-0.3521514999999999,0.0032225,-0.1751664999999999,-0.8612815,0.0019875,0.1934835,-0.8310915,0.0462555,0
190,-0.0518934999999999,0.7702715,0.0148719999999999,-0.1990775,0.5062015,0.008745,-0.2765975,0.2602215,-0.007461,0.1416724999999999,0.5128815,0.0018429999999999,0.2383725,0.2675214999999999,0.026573,-0.3022375,0.0595854999999999,-0.117987,0.3095225,0.0546924999999999,-0.069718,-0.0618274999999999,-0.0028195,-0.001298,0.0618274999999999,0.0028194999999999,0.0012979999999999,-0.1230075,-0.3607485,-0.018266,0.1286025,-0.3521985,0.0032419999999999,-0.1756675,-0.8611785,0.0013939999999999,0.1937424999999999,-0.8325484999999999,0.0461359999999999,0
191,-0.0513865,0.770232,0.0143,-0.1989805,0.5063219999999999,0.007999,-0.2789305,0.262612,-0.010681,0.1421095,0.512852,0.002863,0.2387095,0.269622,0.02484,-0.3062605,0.063084,-0.125915,0.3094895,0.061415,-0.077191,-0.0618305,-0.0027739999999999,-0.0015809999999999,0.0618305,0.002774,0.001581,-0.1231205,-0.360668,-0.018521,0.1287695,-0.352228,0.003267,-0.1759205,-0.861098,0.000903,0.1937495,-0.832198,0.0469949999999999,0
192,-0.0509909999999999,0.770122,0.013885,-0.19895,0.506382,0.00745,-0.27987,0.264622,-0.012449,0.14244,0.5127619999999999,0.003876,0.2387,0.269682,0.023672,-0.30634,0.066119,-0.1299779999999999,0.30939,0.066447,-0.083866,-0.061832,-0.0027419999999999,-0.00181,0.061832,0.002742,0.00181,-0.1231599999999999,-0.360618,-0.018643,0.12883,-0.352258,0.003286,-0.1762,-0.861038,0.0005129999999999,0.19343,-0.8304579999999999,0.047616,0
193,-0.050535,0.7701070000000001,0.012844,-0.19885,0.5063770000000001,0.005823,-0.28517,0.269107,-0.019214,0.14326,0.513577,0.0049159999999999,0.25056,0.272807,0.0177529999999999,-0.3280599999999999,0.07687,-0.142638,0.33253,0.078775,-0.094588,-0.061825,-0.0027749999999999,-0.00237,0.061825,0.002775,0.0023699999999999,-0.12317,-0.360643,-0.018512,0.12934,-0.352233,0.0030869999999999,-0.17778,-0.8610329999999999,-0.000871,0.16373,-0.7158329999999999,0.062432,0
194,-0.0501834999999999,0.7699334999999999,0.0126464999999999,-0.1987934999999999,0.5064435,0.0057894999999999,-0.2855735,0.2695535,-0.0185565,0.1434565,0.5135435,0.0055044999999999,0.2482465,0.2752035,0.0197684999999999,-0.3283835,0.0800645,-0.1444695,0.3209965,0.0857975,-0.0984895,-0.0618434999999999,-0.0027895,-0.0024194999999999,0.0618434999999999,0.0027895,0.0024194999999999,-0.1232635,-0.3606465,-0.0185515,0.1293965,-0.3522065,0.0031874999999999,-0.1775835,-0.8610565,-0.0007735,0.2002565,-0.8484065000000001,0.0504024999999999,0
195,-0.049914,0.7696505,0.012855,-0.198845,0.5065205,0.0060529999999999,-0.285155,0.2713505,-0.015862,0.143485,0.5135305,0.006267,0.245055,0.2763005,0.021524,-0.327175,0.0830364999999999,-0.144017,0.3037849999999999,0.0932004999999999,-0.097927,-0.061821,-0.0028255,-0.0026999999999999,0.061821,0.0028254999999999,0.0026999999999999,-0.123205,-0.3607295,-0.0194719999999999,0.129275,-0.3521795,0.003485,-0.177275,-0.8610795,-0.0003029999999999,0.1967549999999999,-0.8352895,0.044806,0
196,-0.0496645,0.7693005,0.0129354999999999,-0.1988355,0.5065505,0.0065624999999999,-0.2839255,0.2714305,-0.0139015,0.1434645,0.5131705,0.0067924999999999,0.2394945,0.2765805,0.0241385,-0.3233455,0.0842495,-0.1450874999999999,0.2872045,0.0907825,-0.0960475,-0.0618355,-0.0027214999999999,-0.0029315,0.0618355,0.0027215,0.0029314999999999,-0.1230555,-0.3606494999999999,-0.0196065,0.1291745,-0.3522895,0.0039304999999999,-0.1772055,-0.8609595,5.499999999998562e-06,0.1938645,-0.8361095,0.0467415,0
197,-0.049498,0.7693755,0.0135735,-0.19868,0.5068155,0.0074065,-0.2818,0.2714054999999999,-0.0111825,0.14346,0.5126555,0.0076755,0.23119,0.2748955,0.0260135,-0.31484,0.0813925,-0.1465614999999999,0.27388,0.0890395,-0.0961515,-0.061919,-0.0026944999999999,-0.0031685,0.061919,0.0026945,0.0031684999999999,-0.12306,-0.3605845,-0.0190615,0.12914,-0.3522845,0.0045515,-0.17864,-0.8608845,-0.0016445,0.19472,-0.8338245,0.0448375,0
198,-0.0493684999999999,0.7691425000000001,0.0138904999999999,-0.1984754999999999,0.5071425,0.0078555,-0.2783755,0.2692025,-0.0094825,0.1434945,0.5122424999999999,0.0082945,0.2235145,0.2704425,0.0281104999999999,-0.2993155,0.0730465,-0.1431335,0.2525945,0.0823425,-0.0947735,-0.0619205,-0.0026444999999999,-0.0033025,0.0619205,0.0026444999999999,0.0033024999999999,-0.1231455,-0.3605075,-0.0189035,0.1288544999999999,-0.3524075,0.0045654999999999,-0.1772455,-0.8608775,-0.0001195,0.1901844999999999,-0.8089675000000001,0.0530315,0
199,-0.0493524999999999,0.76909,0.0150145,-0.1985785,0.50716,0.0091935,-0.2737684999999999,0.2668,-0.0070435,0.1437615,0.5111,0.0094395,0.2145315,0.26015,0.0260295,-0.2758285,0.069876,-0.1185814999999999,0.2305215,0.067851,-0.0924815,-0.0618595,-0.002627,-0.0041085,0.0618595,0.002627,0.0041085,-0.1234184999999999,-0.36038,-0.0188614999999999,0.1284615,-0.3525,0.0053285,-0.1768785,-0.86075,0.0010665,0.1858515,-0.7840199999999999,0.0528805,0
