sb224sc-HT22-VT27/4dt907/src/data/labeled_files/A80_kinect.csv
FrameNo,nose_3d_x,nose_3d_y,nose_3d_z,left_shoulder_3d_x,left_shoulder_3d_y,left_shoulder_3d_z,left_elbow_3d_x,left_elbow_3d_y,left_elbow_3d_z,right_shoulder_3d_x,right_shoulder_3d_y,right_shoulder_3d_z,right_elbow_3d_x,right_elbow_3d_y,right_elbow_3d_z,left_wrist_3d_x,left_wrist_3d_y,left_wrist_3d_z,right_wrist_3d_x,right_wrist_3d_y,right_wrist_3d_z,left_hip_3d_x,left_hip_3d_y,left_hip_3d_z,right_hip_3d_x,right_hip_3d_y,right_hip_3d_z,left_knee_3d_x,left_knee_3d_y,left_knee_3d_z,right_knee_3d_x,right_knee_3d_y,right_knee_3d_z,left_ankle_3d_x,left_ankle_3d_y,left_ankle_3d_z,right_ankle_3d_x,right_ankle_3d_y,right_ankle_3d_z,activity_label
0,0.0186889999999999,0.8094125,0.074538,-0.142374,0.6347625,0.084181,-0.232284,0.8735325,-0.0437419999999999,0.178176,0.6158325,0.06969,0.295696,0.8284425,-0.0162099999999999,-0.212884,1.1228725,-0.1173569999999999,0.273466,1.0910725,-0.0604349999999999,-0.082587,0.0049805,-0.0004479999999999,0.082587,-0.0049805,0.000448,-0.128044,-0.4839575,0.031723,0.142706,-0.5497075,0.022976,-0.137004,-0.8419175,-0.0199999999999999,0.191636,-0.8826275,-0.097167,0
1,0.0188319999999999,0.8092134999999999,0.0744519999999999,-0.142229,0.6345934999999999,0.084115,-0.232389,0.8733135,-0.044007,0.177971,0.6147635,0.065943,0.295781,0.8281934999999999,-0.0163239999999999,-0.213079,1.1249235,-0.117127,0.273501,1.0910235,-0.060887,-0.082493,0.0047335,-0.000462,0.082493,-0.0047335,0.0004619999999999,-0.128009,-0.4848464999999999,0.031539,0.142841,-0.5495065,0.0228589999999999,-0.137329,-0.8434365,-0.019751,0.190141,-0.8770365,-0.093157,0
2,0.018633,0.8093675,0.0742965,-0.142469,0.6348375,0.0842235,-0.232829,0.8734775,-0.0444025,0.178041,0.6156075000000001,0.0680265,0.2955109999999999,0.8284075000000001,-0.0163075,-0.213339,1.1269575,-0.1168625,0.273131,1.0912575,-0.0611225,-0.082612,0.0051035,-0.0005135,0.082612,-0.0051035,0.0005135,-0.128379,-0.4844625,0.0318365,0.142511,-0.5513024999999999,0.0231945,-0.138039,-0.8482124999999999,-0.0349655,0.175551,-0.8582925,-0.0523174999999999,1
3,0.0186575,0.80809,0.0745475,-0.1424175,0.6337499999999999,0.0845735,-0.2327574999999999,0.87222,-0.0442415,0.1783025,0.6149,0.0702665,0.2955625,0.82711,-0.0160995,-0.2126475,1.12836,-0.1168964999999999,0.2736725,1.08906,-0.0617665,-0.0824365,0.004177,0.0001024999999999,0.0824365,-0.004177,-0.0001024999999999,-0.1281775,-0.48593,0.0321515,0.1425725,-0.55252,0.0234355,-0.1387675,-0.84912,-0.0276914999999999,0.1849825,-0.8688400000000001,-0.0792465,1
4,0.0187139999999999,0.808196,0.0743725,-0.1425789999999999,0.632456,0.0840114999999999,-0.232539,0.872336,-0.0441885,0.177901,0.6140960000000001,0.0660365,0.295801,0.827426,-0.0166385,-0.212359,1.1289859999999998,-0.1168195,0.273771,1.089186,-0.0624795,-0.082433,0.00358,0.0004174999999999,0.082433,-0.00358,-0.0004175,-0.1280089999999999,-0.485724,0.0323465,0.142721,-0.5521739999999999,0.0235414999999999,-0.141479,-0.855084,-0.0456905,0.187301,-0.871014,-0.0827595,1
5,0.0187795,0.8082285,0.074216,-0.1424235,0.6325585,0.084006,-0.2324535,0.8722584999999999,-0.044522,0.1779765,0.6140985,0.0668499999999999,0.2958965,0.8273185,-0.016841,-0.2126835,1.1240585,-0.118229,0.2740465,1.0886585,-0.064419,-0.0824575,0.0033065,0.0004349999999999,0.0824575,-0.0033065,-0.0004349999999999,-0.1280735,-0.4860215,0.032396,0.1426265,-0.5515815000000001,0.023443,-0.1454435,-0.8499115,-0.026623,0.1887165,-0.8727515,-0.088229,1
6,0.0187824999999999,0.808223,0.0740659999999999,-0.1423185,0.6330629999999999,0.084185,-0.2324385,0.872243,-0.044694,0.1781414999999999,0.6141329999999999,0.068742,0.2959414999999999,0.827283,-0.016907,-0.2118785,1.127153,-0.118007,0.2745515,1.087753,-0.065777,-0.0824635,0.003662,0.0003579999999999,0.0824635,-0.003662,-0.000358,-0.1281585,-0.490017,0.0331949999999999,0.1427314999999999,-0.551857,0.0236389999999999,-0.1437885,-0.852067,-0.027428,0.1897815,-0.875227,-0.089497,1
7,0.0190335,0.8084929999999999,0.0741189999999999,-0.1420384999999999,0.633783,0.084465,-0.2321285,0.872413,-0.044816,0.1783415,0.6141129999999999,0.067836,0.2961215,0.8274729999999999,-0.017163,-0.2112385,1.1271529999999998,-0.117757,0.2744415,1.088253,-0.065417,-0.0824775,0.003692,0.0002549999999999,0.0824775,-0.003692,-0.000255,-0.1278385,-0.487057,0.032902,0.1429215,-0.5508270000000001,0.023731,-0.1399784999999999,-0.848287,-0.025108,0.1779615,-0.8663270000000001,-0.063767,1
8,0.0190945,0.8085555,0.0740035,-0.1419885,0.6337254999999999,0.0845015,-0.2320884999999999,0.8724355,-0.0449765,0.1784015,0.6140755,0.0678754999999999,0.2961915,0.8275255,-0.0174105,-0.2109585,1.1272255,-0.1179574999999999,0.2745415,1.0881255,-0.0660775,-0.0824874999999999,0.0036305,0.0003164999999999,0.0824874999999999,-0.0036305,-0.0003165,-0.1278385,-0.4874645,0.0330364999999999,0.1429315,-0.5501745,0.0237294999999999,-0.1406085,-0.8490245000000001,-0.0255665,0.1779915,-0.8662545,-0.0637275,1
9,0.0194319999999999,0.8083545000000001,0.073889,-0.14172,0.6337045,0.084511,-0.2317,0.8722645,-0.045161,0.17871,0.6138545000000001,0.068223,0.29656,0.8272445,-0.017629,-0.21028,1.1273244999999998,-0.118149,0.27502,1.0876245,-0.066669,-0.0825,0.0034704999999999,0.000347,0.0825,-0.0034704999999999,-0.000347,-0.12799,-0.4878055,0.033165,0.14269,-0.5492555,0.023467,-0.14114,-0.8494155,-0.0260399999999999,0.17487,-0.8633955,-0.05703,1
10,0.0197859999999999,0.8081685000000001,0.0737665,-0.141435,0.6337085,0.0845235,-0.231295,0.8720885,-0.0453305,0.178915,0.6135985,0.0679655,0.296955,0.8269785000000001,-0.0178274999999999,-0.209545,1.1273285,-0.1182574999999999,0.275505,1.0872285,-0.0670675,-0.082505,0.0032025,0.0003755,0.082505,-0.0032025,-0.0003755,-0.128145,-0.4879914999999999,0.0332735,0.1424949999999999,-0.5486314999999999,0.0232235,-0.141595,-0.8478915,-0.0233444999999999,0.1762949999999999,-0.8654715,-0.0610475,1
11,0.0201639999999999,0.8080755,0.0736985,-0.141133,0.6338054999999999,0.0845735,-0.230883,0.8720154999999999,-0.0454385,0.179137,0.6134054999999999,0.0677415,0.297377,0.8268355,-0.0180155,-0.208853,1.1270355,-0.1183385,0.275957,1.0869355,-0.0672785,-0.082505,0.0030575,0.0004004999999999,0.082505,-0.0030575,-0.0004005,-0.128303,-0.4880445,0.0333495,0.142347,-0.5483245,0.0229864999999999,-0.1417729999999999,-0.8462445000000001,-0.0211605,0.176277,-0.8675545,-0.0621485,1
12,0.0205314999999999,0.807906,0.073626,-0.1408415,0.634006,0.0846929999999999,-0.2304915,0.8718859999999999,-0.04555,0.1794085,0.613156,0.068048,0.2977884999999999,0.826626,-0.018164,-0.2082515,1.1267660000000002,-0.118362,0.2763885,1.086566,-0.067492,-0.0824884999999999,0.0029579999999999,0.0004419999999999,0.0824884999999999,-0.0029579999999999,-0.000442,-0.1284815,-0.488244,0.033442,0.1421685,-0.548154,0.0227519999999999,-0.1419515,-0.844904,-0.018664,0.1759185,-0.870574,-0.063632,1
13,0.020901,0.8077485,0.0735975,-0.140551,0.6342185,0.0848235,-0.230111,0.8717585,-0.0455965,0.179669,0.6128885000000001,0.0680155,0.298199,0.8264385000000001,-0.0182695,-0.207641,1.1271085,-0.1183665,0.276819,1.0863085,-0.0675665,-0.0824709999999999,0.0028775,0.0004945,0.0824709999999999,-0.0028775,-0.0004945,-0.128651,-0.4884415,0.0335755,0.141889,-0.5465614999999999,0.0224855,-0.141421,-0.8428114999999999,-0.0155304999999999,0.175559,-0.8703915,-0.0644164999999999,1
14,0.0212549999999999,0.807543,0.073575,-0.140267,0.634323,0.08495,-0.229737,0.8716430000000001,-0.045621,0.1799529999999999,0.612633,0.068051,0.2986129999999999,0.826213,-0.0183769999999999,-0.207037,1.127303,-0.118389,0.2772429999999999,1.0860029999999998,-0.067619,-0.082448,0.002777,0.000535,0.082448,-0.002777,-0.000535,-0.128827,-0.488387,0.033678,0.141563,-0.546467,0.022568,-0.140647,-0.8413269999999999,-0.012398,0.175553,-0.872287,-0.065359,1
15,0.0215899999999999,0.8073095,0.0735514999999999,-0.140008,0.6343595,0.0850575,-0.229378,0.8715195,-0.0456544999999999,0.180232,0.6123095,0.0680985,0.299022,0.8259595,-0.0184944999999999,-0.206468,1.1271695000000002,-0.1184224999999999,0.2776619999999999,1.0856695,-0.0676624999999999,-0.082424,0.0027345,0.0005734999999999,0.082424,-0.0027345,-0.0005734999999999,-0.129018,-0.4883404999999999,0.0337595,0.1411919999999999,-0.5464205000000001,0.0226055,-0.140088,-0.8406505000000001,-0.0107504999999999,0.1778819999999999,-0.8763705,-0.0731324999999999,1
16,0.0219119999999999,0.8071495,0.073528,-0.139751,0.6344194999999999,0.085158,-0.2290309999999999,0.8714795,-0.045699,0.180479,0.6120395,0.068059,0.299439,0.8257595,-0.018625,-0.205891,1.1269895,-0.118467,0.278079,1.0852895,-0.067727,-0.082404,0.0026855,0.0006229999999999,0.082404,-0.0026855,-0.000623,-0.1292309999999999,-0.4888205,0.033866,0.140809,-0.5462405,0.022638,-0.139981,-0.8415305000000001,-0.011415,0.179799,-0.8798405,-0.079397,1
17,0.0221965,0.8070655,0.0734645,-0.1395155,0.6345155,0.0852235,-0.2287155,0.8715255000000001,-0.0458065,0.1807045,0.6119555,0.0681205,0.2998245,0.8256655,-0.0187745,-0.2053155,1.1272855,-0.1185445,0.2784845,1.0850855,-0.0678445,-0.0824054999999999,0.0027155,0.0006465,0.0824054999999999,-0.0027155,-0.0006465,-0.1294455,-0.4891145,0.0339235,0.1404645,-0.5420045,0.0221195,-0.1400455,-0.8409044999999999,-0.0106155,0.1826944999999999,-0.8830644999999999,-0.0854645,1
18,0.022193,0.807167,0.073403,-0.1395269999999999,0.634617,0.085217,-0.228737,0.871607,-0.045957,0.180773,0.612007,0.068327,0.299893,0.825767,-0.0189119999999999,-0.205157,1.127387,-0.118597,0.278503,1.085087,-0.067957,-0.082411,0.002817,0.0006789999999999,0.082411,-0.002817,-0.0006789999999999,-0.129497,-0.489473,0.033969,0.140433,-0.542353,0.022107,-0.140247,-0.8406629999999999,-0.0107979999999999,0.183873,-0.884543,-0.090337,1
19,0.022186,0.8072834999999999,0.0733785,-0.13952,0.6347335,0.0852215,-0.22876,0.8717135,-0.0460995,0.18085,0.6121135,0.0685035,0.29995,0.8258835,-0.0190495,-0.20506,1.1275035,-0.1186395,0.27851,1.0851035,-0.0680395,-0.082421,0.0029335,0.0006844999999999,0.082421,-0.0029335,-0.0006844999999999,-0.12953,-0.4898565,0.0340365,0.14042,-0.5462265000000001,0.0226325,-0.13987,-0.8405465,-0.0108135,0.18475,-0.8882265,-0.0931895,1
20,0.022198,0.80744,0.073374,-0.1394969999999999,0.6349,0.085225,-0.2287469999999999,0.87185,-0.046227,0.180953,0.6122700000000001,0.068623,0.300013,0.8260500000000001,-0.019143,-0.204897,1.12817,-0.118629,0.278543,1.08517,-0.068119,-0.082412,0.0031,0.0006839999999999,0.082412,-0.0031,-0.0006839999999999,-0.129537,-0.49016,0.0340629999999999,0.140413,-0.54694,0.022633,-0.1398769999999999,-0.8403799999999999,-0.010813,0.1850629999999999,-0.89276,-0.095419,1
21,0.0222275,0.807439,0.0733625,-0.1394635,0.634969,0.0852314999999999,-0.2287135,0.871859,-0.0463945,0.1810465,0.6122190000000001,0.0686545,0.3001065,0.8260890000000001,-0.0192335,-0.2047435,1.128639,-0.1186604999999999,0.2786065,1.085139,-0.0682905,-0.0823845,0.003131,0.0006834999999999,0.0823845,-0.003131,-0.0006835,-0.1295135,-0.490611,0.0341075,0.1405165,-0.548361,0.0226404999999999,-0.1393235,-0.8423109999999999,-0.0136075,0.1858865,-0.889411,-0.0966205,1
22,0.0222344999999999,0.8073505000000001,0.0733709999999999,-0.1394504999999999,0.6349405,0.0852489999999999,-0.2287104999999999,0.8718005000000001,-0.04655,0.1811295,0.6121505,0.068721,0.3001795,0.8260605000000001,-0.019325,-0.2047205,1.1285405,-0.1186509999999999,0.2786495,1.0849405,-0.0684309999999999,-0.0823595,0.0032294999999999,0.000674,0.0823595,-0.0032295,-0.000674,-0.1295105,-0.4910795,0.034147,0.1407594999999999,-0.5509894999999999,0.02297,-0.1390505,-0.8455395,-0.019711,0.1863794999999999,-0.8896094999999999,-0.0970609999999999,1
23,0.022246,0.807387,0.0733345,-0.139453,0.634957,0.0852205,-0.228693,0.871827,-0.0467275,0.1811269999999999,0.612067,0.0682374999999999,0.300237,0.8261270000000001,-0.0194245,-0.204643,1.128557,-0.1186764999999999,0.278707,1.084857,-0.0686165,-0.0823349999999999,0.00342,0.0006304999999999,0.0823349999999999,-0.00342,-0.0006305,-0.129493,-0.491403,0.0341384999999999,0.1409669999999999,-0.552843,0.0231894999999999,-0.138583,-0.849583,-0.0232995,0.186307,-0.888993,-0.0966365,1
24,0.022258,0.807458,0.0732915,-0.139456,0.635018,0.0851825,-0.228676,0.871898,-0.0469335,0.181114,0.612008,0.0677265,0.300284,0.826228,-0.0195315,-0.204646,1.1283180000000002,-0.1187515,0.278754,1.084818,-0.0688015,-0.082312,0.003562,0.0005765,0.082312,-0.003562,-0.0005765,-0.129496,-0.491742,0.0341305,0.1411339999999999,-0.554092,0.0233875,-0.138286,-0.848102,-0.0206984999999999,0.186304,-0.891582,-0.0966715,1
25,0.0222625,0.807584,0.073229,-0.1394655,0.635134,0.085129,-0.2286655,0.872014,-0.04718,0.1811745,0.612084,0.067614,0.3003245,0.826374,-0.0196509999999999,-0.2046455,1.128634,-0.119035,0.2788145,1.084834,-0.068995,-0.0822944999999999,0.003756,0.000515,0.0822944999999999,-0.003756,-0.0005149999999999,-0.1294955,-0.491686,0.034077,0.1410345,-0.553976,0.023586,-0.1379255,-0.852976,-0.0210259999999999,0.1861944999999999,-0.891466,-0.0962849999999999,1
26,0.02227,0.807745,0.073155,-0.1394719999999999,0.635115,0.084879,-0.228632,0.872165,-0.047459,0.181278,0.612285,0.067671,0.300358,0.826555,-0.019781,-0.204672,1.128485,-0.11931,0.2788779999999999,1.084885,-0.06921,-0.082301,0.00395,0.000452,0.082301,-0.00395,-0.000452,-0.129492,-0.491535,0.0340209999999999,0.140898,-0.553055,0.0238189999999999,-0.137932,-0.8528249999999999,-0.021081,0.185998,-0.889165,-0.0951799999999999,1
27,0.0222635,0.8079695,0.073097,-0.1394965,0.6351695,0.084651,-0.2286165,0.8723695,-0.0476969999999999,0.1813334999999999,0.6125495,0.067657,0.3003834999999999,0.8267895000000001,-0.019895,-0.2046865,1.1281994999999998,-0.119621,0.2789435,1.0849995,-0.0694009999999999,-0.0823125,0.0041985,0.000389,0.0823125,-0.0041985,-0.000389,-0.1294965,-0.4913205,0.0339799999999999,0.1407935,-0.5523305,0.023795,-0.1380165,-0.8536104999999999,-0.0226929999999999,0.1863135,-0.8868505,-0.094051,1
28,0.022248,0.808199,0.0730365,-0.1395259999999999,0.635259,0.0844275,-0.228596,0.872529,-0.0478904999999999,0.181394,0.612899,0.0680905,0.300404,0.827019,-0.0199915,-0.204726,1.127909,-0.1200105,0.279004,1.085109,-0.0695905,-0.082329,0.004455,0.0003285,0.082329,-0.004455,-0.0003285,-0.1295059999999999,-0.490971,0.0338845,0.140924,-0.552781,0.0237495,-0.138216,-0.855231,-0.0281095,0.186024,-0.888951,-0.0943905,1
29,0.0222325,0.8083195,0.073024,-0.1395525,0.6352495,0.084258,-0.2285825,0.8725495,-0.0480439999999999,0.1814174999999999,0.6130295,0.068287,0.3004275,0.8271295,-0.020048,-0.2048025,1.1274195,-0.12048,0.2790575,1.0851195,-0.06969,-0.0823385,0.0046035,0.000313,0.0823385,-0.0046035,-0.000313,-0.1295225,-0.4907005,0.0338269999999999,0.1410074999999999,-0.5525105,0.023696,-0.1386325,-0.8560905,-0.031083,0.1853275,-0.8917205,-0.09436,1
30,0.02222,0.808443,0.0730005,-0.1395789999999999,0.635253,0.0840995,-0.228569,0.872553,-0.0481964999999999,0.181481,0.613223,0.0687565,0.300461,0.827253,-0.0201135,-0.204919,1.1269330000000002,-0.1209355,0.279111,1.085133,-0.0697855,-0.082353,0.004741,0.0002985,0.082353,-0.004741,-0.0002985,-0.129549,-0.490367,0.0337455,0.140981,-0.551547,0.0236625,-0.139209,-0.856437,-0.0333315,0.185111,-0.890917,-0.0938555,1
31,0.0222169999999999,0.8085415,0.0729655,-0.139612,0.6352614999999999,0.0839475,-0.228572,0.8725014999999999,-0.0483505,0.1815379999999999,0.6134215,0.0693365,0.300508,0.8273415,-0.0201715,-0.205032,1.1264115,-0.1213894999999999,0.279188,1.0851115,-0.0698695,-0.082369,0.0048334999999999,0.0002845,0.082369,-0.0048335,-0.0002845,-0.129562,-0.4900885,0.0336865,0.140948,-0.5509585,0.0236365,-0.1396319999999999,-0.8565385,-0.0345215,0.184888,-0.8905685,-0.0934795,1
32,0.0222245,0.808617,0.0729124999999999,-0.1396254999999999,0.6352570000000001,0.0837894999999999,-0.2285954999999999,0.872407,-0.0485275,0.1815745,0.6134970000000001,0.0698334999999999,0.3005745,0.8274170000000001,-0.0202685,-0.2051855,1.125877,-0.1218655,0.2792745,1.085077,-0.0699455,-0.0823774999999999,0.004922,0.0002584999999999,0.0823774999999999,-0.004922,-0.0002585,-0.1295754999999999,-0.489853,0.0336085,0.1409445,-0.551263,0.0236405,-0.1398654999999999,-0.8564729999999999,-0.0350655,0.1847945,-0.889933,-0.0929955,1
33,0.0222415,0.8087110000000001,0.0728595,-0.1396415,0.6352610000000001,0.0836365,-0.2286014999999999,0.872251,-0.0486884999999999,0.1816485,0.6136010000000001,0.0701865,0.3006585,0.827511,-0.0203595,-0.2053315,1.125351,-0.1223305,0.2793685,1.085051,-0.0700005,-0.0823845,0.005013,0.0002435,0.0823845,-0.005013,-0.0002435,-0.1295815,-0.489589,0.0335305,0.1407485,-0.549989,0.0232754999999999,-0.1401015,-0.856649,-0.0373855,0.1848085,-0.8858689999999999,-0.0923404999999999,1
34,0.022286,0.8087265,0.0728014999999999,-0.139631,0.6351764999999999,0.0834915,-0.228601,0.8720264999999999,-0.0488514999999999,0.181729,0.6136265,0.0704655,0.3007689999999999,0.8275165,-0.0204774999999999,-0.205451,1.1253465,-0.1226034999999999,0.279449,1.0850465,-0.0701335,-0.082373,0.0050235,0.0002405,0.082373,-0.0050235,-0.0002404999999999,-0.1295909999999999,-0.4892735,0.0334435,0.140569,-0.5489435,0.0229105,-0.139741,-0.8547535,-0.0342325,0.184599,-0.8877235,-0.0908935,1
35,0.0223175,0.8087015,0.0727555,-0.1396355,0.6351315,0.0835185,-0.2286155,0.8717715,-0.0489565,0.1817945,0.6136315,0.0706705,0.3008645,0.8274815,-0.0205824999999999,-0.2055655,1.1253015,-0.1228565,0.2794745,1.0850015,-0.0702465,-0.0823605,0.0049925,0.0002665,0.0823605,-0.0049924999999999,-0.0002664999999999,-0.1296054999999999,-0.4890184999999999,0.0333635,0.1403745,-0.5481285,0.0225475,-0.1396555,-0.8504785,-0.0312115,0.1836944999999999,-0.8845185,-0.0874865,1
36,0.0223465,0.8086905,0.072668,-0.1396425,0.6350804999999999,0.083543,-0.2286425,0.8715605,-0.0490489999999999,0.1818575,0.6136505,0.070834,0.3009475,0.8274405,-0.0207409999999999,-0.2057325,1.1252505000000002,-0.123137,0.2794775,1.0849505000000002,-0.070417,-0.0823535,0.0049545,0.000295,0.0823535,-0.0049545,-0.0002949999999999,-0.1296225,-0.4885695,0.033229,0.1401575,-0.5473595,0.022183,-0.1400825,-0.8474595,-0.030902,0.1836775,-0.8845995,-0.087457,1
37,0.0223725,0.8086880000000001,0.0725555,-0.1396635,0.635038,0.0836015,-0.2287135,0.8714280000000001,-0.0491495,0.1818864999999999,0.6136480000000001,0.0709225,0.3010165,0.8274180000000001,-0.0208975,-0.2059135,1.125408,-0.1232895,0.2794765,1.084908,-0.0705495,-0.0823585,0.00494,0.0003724999999999,0.0823585,-0.00494,-0.0003725,-0.1296635,-0.488612,0.0330774999999999,0.1399864999999999,-0.5466019999999999,0.0218374999999999,-0.1403935,-0.8473219999999999,-0.0303335,0.1836364999999999,-0.885002,-0.0877495,1
38,0.022396,0.8087814999999999,0.072407,-0.139672,0.6352614999999999,0.083686,-0.228822,0.8714514999999999,-0.049256,0.181918,0.6137015,0.071,0.301068,0.8274715,-0.0210759999999999,-0.206082,1.1256615,-0.123369,0.279468,1.0849615,-0.070769,-0.082368,0.0049935,0.0004629999999999,0.082368,-0.0049935,-0.0004629999999999,-0.129702,-0.4885585,0.032923,0.1398579999999999,-0.5465485,0.021437,-0.140642,-0.8464985,-0.028717,0.183508,-0.8849185,-0.088199,1
39,0.0224179999999999,0.808928,0.0722285,-0.139684,0.635498,0.0837665,-0.2289439999999999,0.871548,-0.0493715,0.181946,0.613818,0.0710795,0.301096,0.8275680000000001,-0.0212475,-0.206204,1.126058,-0.1234774999999999,0.279456,1.085058,-0.0710075,-0.082383,0.005078,0.0005575,0.082383,-0.005078,-0.0005575,-0.129714,-0.4884619999999999,0.0327455,0.139716,-0.545652,0.0210445,-0.140784,-0.846432,-0.0291805,0.184336,-0.8817619999999999,-0.0913275,1
40,0.022405,0.80909,0.071999,-0.1397469999999999,0.63566,0.083859,-0.2291369999999999,0.87162,-0.049513,0.181923,0.61397,0.071171,0.301093,0.82769,-0.0214689999999999,-0.2063769999999999,1.12623,-0.123634,0.2794029999999999,1.08513,-0.071244,-0.082402,0.005133,0.000643,0.082402,-0.005133,-0.0006429999999999,-0.129747,-0.48838,0.032343,0.139553,-0.54348,0.020107,-0.141037,-0.84566,-0.0290819999999999,0.183383,-0.88169,-0.088814,1
41,0.022447,0.8092585,0.07171,-0.139775,0.6358685,0.083919,-0.229375,0.8716984999999999,-0.0497059999999999,0.181855,0.6141185,0.070841,0.3011549999999999,0.8278085,-0.021737,-0.2064949999999999,1.1266085,-0.1237909999999999,0.2794149999999999,1.0853085,-0.071541,-0.082426,0.0051365,0.000715,0.082426,-0.0051365,-0.000715,-0.129835,-0.4883015,0.031875,0.139345,-0.5409715,0.018694,-0.1414149999999999,-0.8455815,-0.02901,0.183265,-0.8785415,-0.088751,1
42,0.022445,0.809415,0.071266,-0.139846,0.6360750000000001,0.083945,-0.229686,0.8717950000000001,-0.049967,0.181714,0.6141850000000001,0.070428,0.301154,0.827925,-0.022024,-0.206666,1.1269749999999998,-0.1239909999999999,0.279394,1.085375,-0.071881,-0.0824429999999999,0.005118,0.000799,0.0824429999999999,-0.005118,-0.0007989999999999,-0.129916,-0.488265,0.031317,0.139144,-0.5406449999999999,0.017581,-0.141546,-0.844935,-0.0289109999999999,0.182844,-0.8792449999999999,-0.0893009999999999,1
43,0.0223799999999999,0.8096460000000001,0.0706725,-0.139974,0.636256,0.0839355,-0.230074,0.871896,-0.0503795,0.181496,0.614236,0.0698385,0.301096,0.828056,-0.0223835,-0.207064,1.1270559999999998,-0.1242085,0.279326,1.085556,-0.0722385,-0.082465,0.0050719999999999,0.0008804999999999,0.082465,-0.005072,-0.0008804999999999,-0.129994,-0.488044,0.0305114999999999,0.138786,-0.5380539999999999,0.0163714999999999,-0.141664,-0.844394,-0.0272515,0.182106,-0.875444,-0.0852685,1
44,0.0223,0.8100345,0.069921,-0.140118,0.6366044999999999,0.08388,-0.230488,0.8721945,-0.050852,0.181282,0.6144145,0.069173,0.301022,0.8283244999999999,-0.022867,-0.207478,1.1272745,-0.124515,0.279262,1.0858745,-0.072635,-0.082502,0.0051094999999999,0.0009569999999999,0.082502,-0.0051095,-0.0009569999999999,-0.130028,-0.4876855,0.0295809999999999,0.138392,-0.5346555000000001,0.0151139999999999,-0.141778,-0.8438355000000001,-0.02587,0.181092,-0.8722055000000001,-0.081025,1
45,0.0221625,0.8104595,0.06899,-0.1403485,0.6368495,0.083759,-0.2310185,0.8725995,-0.05153,0.1810115,0.6146195,0.067945,0.3009315,0.8286195,-0.023493,-0.2079585,1.1275195,-0.125129,0.2791814999999999,1.0862195,-0.073139,-0.0825295,0.0051575,0.0009849999999999,0.0825295,-0.0051575,-0.0009849999999999,-0.1300585,-0.4873605,0.0285819999999999,0.1379815,-0.5344105,0.0138679999999999,-0.1418685,-0.8431605,-0.025053,0.1794315,-0.8721605,-0.076339,1
46,0.0219795,0.8109135,0.067896,-0.1405905,0.6370735,0.083574,-0.2316205,0.8730035,-0.0522679999999999,0.1807195,0.6148335,0.066669,0.3008194999999999,0.8288635,-0.0241229999999999,-0.2085304999999999,1.1255435,-0.126338,0.2790995,1.0865435,-0.073768,-0.0825694999999999,0.0052105,0.001013,0.0825694999999999,-0.0052105,-0.001013,-0.1300605,-0.4871165,0.027589,0.1375195,-0.5311165,0.012326,-0.1420305,-0.8427765,-0.024602,0.1793195,-0.8716565,-0.076828,1
47,0.0217494999999999,0.8113885000000001,0.066653,-0.1408695,0.6372985,0.083325,-0.2322995,0.8732985,-0.0531259999999999,0.1804205,0.6150685,0.065386,0.3007005,0.8290985000000001,-0.024869,-0.2090195,1.1233685,-0.127581,0.2790005,1.0867685,-0.0744809999999999,-0.0826025,0.0052345,0.001039,0.0826025,-0.0052345,-0.0010389999999999,-0.1300494999999999,-0.4865615,0.026461,0.1370305,-0.5274314999999999,0.010683,-0.1423994999999999,-0.8425815,-0.0246129999999999,0.1774505,-0.8686315,-0.072301,1
48,0.0214525,0.8119145,0.0653189999999999,-0.1412605,0.6371545000000001,0.0823079999999999,-0.2330905,0.8735645,-0.054087,0.1800695,0.6153645,0.064083,0.3005295,0.8293645000000001,-0.025688,-0.2094405,1.1210345,-0.128836,0.2788895,1.0870345,-0.075216,-0.0826494999999999,0.0052914999999999,0.0010879999999999,0.0826494999999999,-0.0052914999999999,-0.001088,-0.1301505,-0.4862355,0.0253349999999999,0.1366195,-0.5255655,0.0090579999999999,-0.1427905,-0.8421555,-0.024052,0.1761795,-0.8672555,-0.070176,1
49,0.0211135,0.8124675,0.0634435,-0.1416305,0.6369475,0.0812575,-0.2339804999999999,0.8739475,-0.0555675,0.1797695,0.6157675,0.0626575,0.3003995,0.8297375,-0.0268204999999999,-0.2097804999999999,1.1197175,-0.1303465,0.2788295,1.0874175,-0.0762465,-0.0826925,0.0054385,0.0010944999999999,0.0826925,-0.0054385,-0.0010944999999999,-0.1303004999999999,-0.4858525,0.0241855,0.1362895,-0.5238524999999999,0.0076564999999999,-0.1432905,-0.8416425,-0.0235525,0.1758294999999999,-0.8637825,-0.0704465,1
50,0.0207424999999999,0.8128605,0.06136,-0.1419774999999999,0.6365305,0.080188,-0.2348675,0.8742304999999999,-0.057294,0.1795125,0.6160405,0.061823,0.3002625,0.8299805,-0.0282049999999999,-0.2099375,1.1202005,-0.132301,0.2787325,1.0877005,-0.0776309999999999,-0.0827325,0.0055985,0.001086,0.0827325,-0.0055985,-0.0010859999999999,-0.1305375,-0.4855695,0.022694,0.1359825,-0.5233695,0.006448,-0.1437775,-0.8411595000000001,-0.0229589999999999,0.1746725,-0.8637395,-0.069801,1
51,0.0203995,0.8132825,0.059005,-0.1423094999999999,0.6362425,0.078046,-0.2357695,0.8745825,-0.059319,0.1792105,0.6162925,0.060798,0.3001605,0.8302925000000001,-0.029879,-0.2098495,1.1203625,-0.134629,0.2786605,1.0880625,-0.079229,-0.0827735,0.0057065,0.001113,0.0827735,-0.0057065,-0.001113,-0.1308595,-0.4852075,0.020978,0.1356804999999999,-0.5199475,0.004796,-0.1441095,-0.8403575,-0.022486,0.1726504999999999,-0.8608475,-0.065659,1
52,0.0200339999999999,0.813653,0.056252,-0.142673,0.635933,0.075628,-0.236743,0.8746929999999999,-0.061679,0.178897,0.616543,0.059591,0.300107,0.830493,-0.031893,-0.209623,1.120033,-0.137619,0.278637,1.088233,-0.0812189999999999,-0.082804,0.005787,0.0012069999999999,0.082804,-0.005787,-0.0012069999999999,-0.131203,-0.484247,0.019177,0.135427,-0.5191870000000001,0.003054,-0.144463,-0.839357,-0.0223309999999999,0.170857,-0.858267,-0.062079,1
53,0.019568,0.813986,0.0532425,-0.143153,0.635486,0.0731505,-0.237783,0.8743960000000001,-0.0644635,0.178537,0.616826,0.0582235,0.300067,0.830526,-0.0342245,-0.209283,1.119266,-0.1411035,0.278627,1.088266,-0.0836435,-0.082847,0.0058619999999999,0.0013064999999999,0.082847,-0.005862,-0.0013065,-0.131583,-0.482944,0.0167734999999999,0.135107,-0.515634,0.0010674999999999,-0.144973,-0.838284,-0.0222235,0.169217,-0.8551139999999999,-0.0585235,1
54,0.019089,0.8142889999999999,0.049832,-0.1436359999999999,0.634969,0.070425,-0.238756,0.8739589999999999,-0.067687,0.178174,0.617039,0.056785,0.299864,0.8303689999999999,-0.0370419999999999,-0.209416,1.117069,-0.145117,0.278334,1.087869,-0.086767,-0.082906,0.005905,0.00144,0.082906,-0.005905,-0.0014399999999999,-0.131956,-0.481591,0.013878,0.134864,-0.512301,-0.0025039999999999,-0.145266,-0.8379810000000001,-0.0226069999999999,0.168644,-0.8535210000000001,-0.0585529999999999,1
55,0.018508,0.814502,0.0462925,-0.144203,0.634262,0.0676635,-0.239773,0.873462,-0.0715875,0.177697,0.617202,0.0550315,0.299647,0.830062,-0.0403414999999999,-0.209613,1.114552,-0.1490475,0.278017,1.087452,-0.0904275,-0.082995,0.005917,0.0015975,0.082995,-0.0059169999999999,-0.0015975,-0.132543,-0.480188,0.0104205,0.134707,-0.509368,-0.0060445,-0.145713,-0.8379380000000001,-0.0230505,0.169047,-0.854658,-0.0602835,1
56,0.017855,0.814422,0.0423545,-0.144805,0.633482,0.0647025,-0.240785,0.872842,-0.0758785,0.177155,0.617292,0.0529625,0.299425,0.829502,-0.0439465,-0.2102049999999999,1.112322,-0.1537885,0.277735,1.086722,-0.0945284999999999,-0.083121,0.005914,0.0017435,0.083121,-0.005914,-0.0017434999999999,-0.133245,-0.4787579999999999,0.0067035,0.134585,-0.506788,-0.0097755,-0.146075,-0.837628,-0.0236014999999999,0.1696949999999999,-0.857268,-0.0619485,1
57,0.016923,0.814317,0.0382565,-0.14558,0.6334569999999999,0.0623695,-0.2419899999999999,0.871947,-0.0803215,0.1764,0.6174769999999999,0.0506725,0.29918,0.828857,-0.0477195,-0.2105999999999999,1.111027,-0.1588615,0.2775,1.085927,-0.0992415,-0.083268,0.0058549999999999,0.0018965,0.083268,-0.005855,-0.0018964999999999,-0.1340799999999999,-0.476233,0.0024045,0.13451,-0.501173,-0.0138734999999999,-0.14648,-0.836503,-0.0243655,0.16899,-0.854283,-0.0625915,1
58,0.015899,0.8141575000000001,0.034169,-0.1465759999999999,0.6328575000000001,0.05851,-0.243126,0.8695375000000001,-0.084783,0.175544,0.6177775000000001,0.04813,0.298914,0.8282475,-0.051634,-0.210766,1.1114674999999998,-0.164353,0.277274,1.0850675,-0.104223,-0.083455,0.0057525,0.002041,0.083455,-0.0057525,-0.002041,-0.134996,-0.4735125,-0.002248,0.134674,-0.4959524999999999,-0.017992,-0.1469659999999999,-0.8350925,-0.025411,0.168454,-0.8543324999999999,-0.064383,1
59,0.0148279999999999,0.8137655,0.0298515,-0.147575,0.6324055000000001,0.0546635,-0.244245,0.8672655,-0.0898125,0.174455,0.6178155000000001,0.0451085,0.298555,0.8272755,-0.0559485,-0.211085,1.1121155,-0.1702925,0.276945,1.0838155,-0.1097524999999999,-0.083655,0.0056654999999999,0.0021745,0.083655,-0.0056655,-0.0021744999999999,-0.136075,-0.4707745,-0.0070994999999999,0.135045,-0.4914044999999999,-0.0223444999999999,-0.147535,-0.8336045,-0.0264844999999999,0.1685549999999999,-0.8540544999999999,-0.0664225,1
60,0.01377,0.8129449999999999,0.0255784999999999,-0.148523,0.631915,0.0518555,-0.245313,0.8644449999999999,-0.0947134999999999,0.173377,0.617745,0.0422364999999999,0.298197,0.826025,-0.0603425,-0.211503,1.112505,-0.1763135,0.276537,1.082205,-0.1155235,-0.08385,0.005562,0.0022874999999999,0.08385,-0.005562,-0.0022875,-0.137253,-0.467775,-0.0123155,0.135487,-0.487775,-0.0270995,-0.1481529999999999,-0.8320150000000001,-0.0276485,0.168847,-0.852325,-0.0689035,1
61,0.0127144999999999,0.8120735,0.0215395,-0.1496994999999999,0.6310735000000001,0.0481525,-0.2464595,0.8613835,-0.0992665,0.1722505,0.6177135,0.0394665,0.2978205,0.8247935000000001,-0.0647425,-0.2120294999999999,1.1113035,-0.1828065,0.2760505,1.0803035,-0.1213964999999999,-0.0840525,0.0053895,0.0023265,0.0840525,-0.0053895,-0.0023265,-0.1384594999999999,-0.4647165,-0.0178575,0.1360405,-0.4847765,-0.0321275,-0.1488094999999999,-0.8303365,-0.0288034999999999,0.1683305,-0.8503565,-0.0691465,1
62,0.0116374999999999,0.8111160000000001,0.0175609999999999,-0.1509745,0.630136,0.044222,-0.2475745,0.858136,-0.103389,0.1711155,0.617716,0.0367749999999999,0.2974155,0.8236060000000001,-0.069139,-0.2124945,1.110236,-0.188929,0.2755155,1.078636,-0.127139,-0.0842545,0.00514,0.0023439999999999,0.0842545,-0.0051399999999999,-0.0023439999999999,-0.1396245,-0.461764,-0.023326,0.1366554999999999,-0.482364,-0.037341,-0.1493745,-0.828544,-0.029952,0.1680954999999999,-0.8486239999999999,-0.069839,1
63,0.0105444999999999,0.8101145000000001,0.013814,-0.1523575,0.6294345,0.040256,-0.2488375,0.8549545000000001,-0.1071729999999999,0.1700325,0.6179045,0.034482,0.2969325,0.8224045,-0.073323,-0.2129775,1.1088445,-0.194583,0.2749125,1.0770445,-0.132613,-0.0844844999999999,0.0048255,0.002271,0.0844844999999999,-0.0048255,-0.0022709999999999,-0.1407975,-0.4590955,-0.0292199999999999,0.1374625,-0.4802955,-0.041492,-0.1498875,-0.8269255,-0.0312569999999999,0.1677225,-0.8467255,-0.070473,1
64,0.0094185,0.8088315,0.0100734999999999,-0.1536925,0.6286315,0.0361214999999999,-0.2504225,0.8517415,-0.1113115,0.1689575,0.6181115,0.0323754999999999,0.2964075,0.8211915000000001,-0.0774215,-0.2137925,1.1053915,-0.2002415,0.2742175,1.0753914999999998,-0.1378815,-0.0846945,0.0045054999999999,0.0021594999999999,0.0846945,-0.0045055,-0.0021595,-0.1418925,-0.4565885,-0.0349785,0.1384075,-0.4779285,-0.0461465,-0.1504425,-0.8256785,-0.0326585,0.1673275,-0.8448884999999999,-0.0710215,1
65,0.0082745,0.807658,0.0064865,-0.1550915,0.6270880000000001,0.0316285,-0.2520215,0.848468,-0.1151184999999999,0.1679085,0.617848,0.0296815,0.2958584999999999,0.8205180000000001,-0.0815384999999999,-0.2147315,1.101358,-0.2053785,0.2734985,1.074158,-0.1430185,-0.0849905,0.0041519999999999,0.0020815,0.0849905,-0.0041519999999999,-0.0020815,-0.1430115,-0.453922,-0.0411515,0.1396285,-0.474842,-0.0511685,-0.1509215,-0.823882,-0.0342095,0.1670385,-0.842182,-0.0709485,1
66,0.0072935,0.806311,0.0029525,-0.1563705,0.6256010000000001,0.0271345,-0.2534305,0.8451810000000001,-0.1189315,0.1671095,0.617571,0.0269265,0.2952995,0.8198810000000001,-0.0857515,-0.2151905,1.097481,-0.2105915,0.2727395,1.073181,-0.1477715,-0.0853015,0.003755,0.0020045,0.0853015,-0.003755,-0.0020044999999999,-0.1441805,-0.451699,-0.0471165,0.1408195,-0.472799,-0.0562704999999999,-0.1513805,-0.822029,-0.0352764999999999,0.1667595,-0.839869,-0.0706515,1
67,0.0063184999999999,0.8046225,-0.000439,-0.1575785,0.6246425,0.023882,-0.2550185,0.8433125,-0.1225869999999999,0.1662715,0.6167525,0.024178,0.2947615,0.8191325,-0.089867,-0.2157285,1.0934325,-0.215637,0.2718615,1.0722325,-0.152387,-0.0855765,0.0034444999999999,0.00192,0.0855765,-0.0034444999999999,-0.0019199999999999,-0.1454285,-0.4499675,-0.053231,0.1420715,-0.4709575,-0.0618439999999999,-0.1518085,-0.8200475,-0.036259,0.1670015,-0.8384775,-0.072097,1
68,0.0052424999999999,0.8034565,-0.0035645,-0.1588605,0.6239264999999999,0.0205344999999999,-0.2566805,0.8415165,-0.1257635,0.1655094999999999,0.6165265,0.0218724999999999,0.2942395,0.8192665,-0.0935935,-0.2162405,1.0901665,-0.2201035,0.2708795,1.0720665,-0.1565035,-0.0859105,0.0030715,0.0018234999999999,0.0859105,-0.0030714999999999,-0.0018235,-0.1467105,-0.4477135,-0.0592535,0.1433694999999999,-0.4685034999999999,-0.0674095,-0.1521805,-0.8172935,-0.0371635,0.1668994999999999,-0.8357035,-0.0721435,1
69,0.0040644999999999,0.8025225,-0.0067569999999999,-0.1601995,0.6232825000000001,0.016889,-0.2583795,0.8403425,-0.1291749999999999,0.1647004999999999,0.6161025,0.019265,0.2935505,0.8181725000000001,-0.097275,-0.2167195,1.0870825,-0.224825,0.2700005,1.0722825,-0.160875,-0.0863305,0.0027265,0.001714,0.0863305,-0.0027264999999999,-0.001714,-0.1479095,-0.4449875,-0.0651549999999999,0.1446405,-0.4653675,-0.0725349999999999,-0.1525194999999999,-0.8136774999999999,-0.0381,0.1664804999999999,-0.8319575,-0.072155,1
70,0.0028519999999999,0.8014570000000001,-0.009929,-0.161237,0.6226670000000001,0.0142349999999999,-0.259927,0.8383170000000001,-0.1326149999999999,0.1639229999999999,0.615897,0.0167169999999999,0.292863,0.8171470000000001,-0.100675,-0.217107,1.085207,-0.2291949999999999,0.268963,1.072707,-0.165055,-0.086757,0.002492,0.0016139999999999,0.086757,-0.002492,-0.001614,-0.149187,-0.442513,-0.071155,0.1458729999999999,-0.461933,-0.077575,-0.152767,-0.809793,-0.03897,0.165713,-0.8269029999999999,-0.071725,1
71,0.001619,0.800974,-0.0130479999999999,-0.162171,0.619174,0.011432,-0.2614709999999999,0.837044,-0.136237,0.162749,0.6154839999999999,0.013847,0.292029,0.816554,-0.1039769999999999,-0.217681,1.083804,-0.234187,0.267729,1.0740040000000002,-0.169207,-0.08729,0.002166,0.001535,0.08729,-0.002166,-0.0015349999999999,-0.150701,-0.4405059999999999,-0.077087,0.147169,-0.4576459999999999,-0.082467,-0.153011,-0.805046,-0.039894,0.165059,-0.820756,-0.070417,1
72,0.0004235,0.8005785000000001,-0.016151,-0.1629835,0.6162585,0.008885,-0.2630435,0.8355785,-0.139971,0.1615965,0.6150185,0.0109,0.2910264999999999,0.8157885,-0.106981,-0.2182935,1.0830285,-0.239241,0.2665364999999999,1.0751285,-0.1733009999999999,-0.0878325,0.0018564999999999,0.001507,0.0878325,-0.0018565,-0.001507,-0.1522735,-0.4390115,-0.082561,0.1484065,-0.4538515,-0.087381,-0.1531535,-0.7999715,-0.040762,0.1646065,-0.8145614999999999,-0.069261,1
73,-0.000624,0.8004875,-0.0192084999999999,-0.1637,0.6133575,0.0064825,-0.26422,0.8339775,-0.1430074999999999,0.16053,0.6145475,0.0080295,0.29007,0.8147175,-0.1097175,-0.2187799999999999,1.0823675,-0.2448375,0.26547,1.0765675,-0.1774275,-0.088366,0.0015905,0.0014195,0.088366,-0.0015905,-0.0014194999999999,-0.15377,-0.4379625,-0.0875374999999999,0.1496199999999999,-0.4501725,-0.0918275,-0.15335,-0.7949625,-0.0413985,0.16423,-0.8095224999999999,-0.0691775,1
74,-0.0015625,0.8003755,-0.022182,-0.1641755,0.6110255,0.0044729999999999,-0.2653055,0.8323555,-0.146311,0.1595545,0.6145355,0.00588,0.2891245,0.8134555,-0.1123509999999999,-0.2192255,1.0815255,-0.250801,0.2644745,1.0777255,-0.181651,-0.0889145,0.0013844999999999,0.0012989999999999,0.0889145,-0.0013845,-0.001299,-0.1551655,-0.4372145,-0.092101,0.1506545,-0.4470545,-0.096081,-0.1534855,-0.7899345,-0.041815,0.1639044999999999,-0.8047645,-0.069121,1
75,-0.0022524999999999,0.8005359999999999,-0.024979,-0.1647215,0.608266,0.0023419999999999,-0.2661715,0.830986,-0.149897,0.1587685,0.614536,0.0038249999999999,0.2883985,0.812356,-0.114827,-0.2194915,1.081056,-0.256907,0.2636985,1.078856,-0.185887,-0.0893595,0.0012399999999999,0.0011589999999999,0.0893595,-0.00124,-0.001159,-0.1564015,-0.4366839999999999,-0.096627,0.1517285,-0.444294,-0.100297,-0.1534515,-0.785274,-0.042293,0.1641385,-0.800334,-0.069027,1
76,-0.0030035,0.8006175,-0.027821,-0.1651665,0.6056675,0.00023,-0.2668565,0.8295174999999999,-0.153566,0.1580234999999999,0.6148275000000001,0.001926,0.2877535,0.8112575,-0.117296,-0.2197365,1.0808375,-0.262956,0.2631335,1.0770375,-0.190636,-0.0898085,0.0010695,0.001023,0.0898085,-0.0010695,-0.0010229999999999,-0.1576265,-0.4361825,-0.1007859999999999,0.1526934999999999,-0.4415524999999999,-0.1043659999999999,-0.1533365,-0.7807025000000001,-0.042711,0.1644735,-0.7950025000000001,-0.0681959999999999,1
77,-0.0038064999999999,0.800647,-0.0305865,-0.1657275,0.602357,-0.0019175,-0.2676075,0.828117,-0.1571075,0.1571525,0.614687,8.149999999999824e-05,0.2870225,0.809897,-0.1197475,-0.2202275,1.0806369999999998,-0.2690075,0.2625325,1.073637,-0.1949475,-0.0901625,0.000866,0.0008334999999999,0.0901625,-0.000866,-0.0008335,-0.1590375,-0.4356529999999999,-0.1047875,0.1534025,-0.4389229999999999,-0.1084475,-0.1533675,-0.776183,-0.0431915,0.1647725,-0.790613,-0.0682175,1
78,-0.0045979999999999,0.800612,-0.0336975,-0.16618,0.598842,-0.0044504999999999,-0.26832,0.826472,-0.1608255,0.15626,0.614672,-0.0020154999999999,0.28664,0.8100919999999999,-0.1226554999999999,-0.2207299999999999,1.080862,-0.2751555,0.26211,1.071212,-0.1993654999999999,-0.090576,0.000683,0.0007155,0.090576,-0.000683,-0.0007155,-0.1607199999999999,-0.434948,-0.1093855,0.1542,-0.436878,-0.1129955,-0.15333,-0.771298,-0.0438034999999999,0.16512,-0.785788,-0.0683355,1
79,-0.0053015,0.8006495,-0.0366984999999999,-0.1666155,0.5959595,-0.0068954999999999,-0.2691055,0.8256695,-0.1648535,0.1552945,0.6140595,-0.0044374999999999,0.2862845,0.8101095,-0.1257235,-0.2211855,1.0814695,-0.2809135,0.2618845,1.0679195,-0.2036934999999999,-0.0909484999999999,0.0005175,0.0006484999999999,0.0909484999999999,-0.0005175,-0.0006484999999999,-0.1623155,-0.4342405,-0.1136035,0.1550345,-0.4355505,-0.1175835,-0.1533155,-0.7665105,-0.0448265,0.1652345,-0.7811805,-0.0690135,1
80,-0.0059495,0.799496,-0.0400414999999999,-0.1671115,0.595676,-0.0094604999999999,-0.2699115,0.824596,-0.1693724999999999,0.1547485,0.613506,-0.0067204999999999,0.2859684999999999,0.809066,-0.1289725,-0.2219215,1.078706,-0.2869025,0.2620085,1.063236,-0.2078625,-0.0912575,0.0004669999999999,0.0005245,0.0912575,-0.0004669999999999,-0.0005244999999999,-0.1638315,-0.4333539999999999,-0.1179925,0.1558485,-0.434494,-0.1222224999999999,-0.1533115,-0.762224,-0.0460015,0.1657385,-0.778054,-0.0710025,1
81,-0.0062795,0.7986925,-0.0434904999999999,-0.1674425,0.5939625000000001,-0.0124845,-0.2704825,0.8236225,-0.1743905,0.1542875,0.6129125000000001,-0.0092895,0.2860575,0.8086025,-0.1324705,-0.2225825,1.0761425,-0.2931305,0.2623275,1.0587725,-0.2118705,-0.0915354999999999,0.0004075,0.0003004999999999,0.0915354999999999,-0.0004075,-0.0003005,-0.1653025,-0.4323675,-0.1224204999999999,0.1568175,-0.4332675,-0.1270605,-0.1532825,-0.7573975,-0.0471995,0.1663675,-0.7745675,-0.0729005,1
82,-0.0062769999999999,0.797277,-0.0472484999999999,-0.1675029999999999,0.592097,-0.0157054999999999,-0.270783,0.8227270000000001,-0.1796655,0.153987,0.6122770000000001,-0.0119254999999999,0.286427,0.808037,-0.1361355,-0.2232029999999999,1.074087,-0.2985855,0.262777,1.054027,-0.2158555,-0.091727,0.0003599999999999,2.9500000000001747e-05,0.091727,-0.0003599999999999,-2.949999999999828e-05,-0.166783,-0.4312229999999999,-0.1271455,0.158017,-0.431813,-0.1322355,-0.153003,-0.7522629999999999,-0.0487575,0.166927,-0.7693129999999999,-0.0733655,1
83,-0.0060699999999999,0.79638,-0.0514045,-0.167485,0.59027,-0.0193575,-0.270895,0.8210200000000001,-0.1853854999999999,0.153755,0.61136,-0.0151965,0.286915,0.80648,-0.1401454999999999,-0.223735,1.07147,-0.3042654999999999,0.263255,1.0485,-0.2203554999999999,-0.091833,0.0002599999999999,-0.0002755,0.091833,-0.0002599999999999,0.0002754999999999,-0.168365,-0.4298999999999999,-0.1324854999999999,0.159375,-0.43006,-0.1379555,-0.1526449999999999,-0.74657,-0.0508975,0.166835,-0.7650899999999999,-0.0761455,1
84,-0.0057965,0.7946300000000001,-0.0565075,-0.1670065,0.58902,-0.0232305,-0.2708565,0.8183,-0.1909765,0.1535935,0.61046,-0.0186145,0.2873535,0.8044100000000001,-0.1448165,-0.2243365,1.06815,-0.3104165,0.2637335,1.04305,-0.2253064999999999,-0.0919355,0.0001799999999999,-0.0006414999999999,0.0919355,-0.0001799999999999,0.0006414999999999,-0.1698365,-0.42849,-0.1379765,0.1608135,-0.42821,-0.1437165,-0.1523065,-0.74061,-0.0531855,0.1675335,-0.75962,-0.0794065,1
85,-0.0054449999999999,0.7931649999999999,-0.0620644999999999,-0.166615,0.587935,-0.0275305,-0.270665,0.815285,-0.1968794999999999,0.153685,0.609415,-0.0226765,0.287725,0.8020050000000001,-0.1499495,-0.224745,1.064605,-0.3172695,0.264565,1.038335,-0.2308895,-0.092035,0.000175,-0.0010474999999999,0.092035,-0.0001749999999999,0.0010474999999999,-0.171345,-0.426885,-0.1438795,0.162495,-0.426155,-0.1498895,-0.152045,-0.734575,-0.0558885,0.168315,-0.756035,-0.0833295,1
86,-0.005221,0.791635,-0.068474,-0.166338,0.587055,-0.032296,-0.270498,0.812535,-0.203311,0.153862,0.608255,-0.0273669999999999,0.288142,0.799005,-0.155801,-0.225208,1.060385,-0.3252009999999999,0.2654419999999999,1.035535,-0.237261,-0.092223,0.000125,-0.0013899999999999,0.092223,-0.000125,0.00139,-0.172988,-0.4250749999999999,-0.1503109999999999,0.164262,-0.4239249999999999,-0.1561409999999999,-0.151888,-0.728005,-0.058741,0.168162,-0.753285,-0.084761,1
87,-0.0052865,0.789995,-0.0749445,-0.1662995,0.5862050000000001,-0.0370895,-0.2706294999999999,0.8082450000000001,-0.2097345,0.1538505,0.6071150000000001,-0.0320985,0.2883105,0.795725,-0.1617945,-0.2258895,1.055805,-0.3334445,0.2662705,1.032235,-0.2438445,-0.0923765,0.000125,-0.0016984999999999,0.0923765,-0.0001249999999999,0.0016985,-0.1746694999999999,-0.423085,-0.1565345,0.1657305,-0.421695,-0.1623345,-0.1520194999999999,-0.721495,-0.0620615,0.1675105,-0.7479849999999999,-0.0864545,1
88,-0.0052455,0.788055,-0.081727,-0.1661284999999999,0.585395,-0.042076,-0.2707485,0.8043149999999999,-0.215907,0.1537815,0.606045,-0.03685,0.2885615,0.792395,-0.167977,-0.2266485,1.050755,-0.342047,0.2669915,1.029635,-0.251097,-0.0924635,6.499999999998174e-05,-0.0018799999999999,0.0924635,-6.50000000000095e-05,0.00188,-0.1768084999999999,-0.420685,-0.163657,0.1670915,-0.419245,-0.168917,-0.1520485,-0.7143950000000001,-0.065588,0.1666915,-0.7388049999999999,-0.087097,1
89,-0.004942,0.78702,-0.0886319999999999,-0.165381,0.58297,-0.04774,-0.270891,0.8003899999999999,-0.2220919999999999,0.153689,0.60492,-0.0421579999999999,0.288839,0.7896400000000001,-0.174652,-0.227091,1.04876,-0.350462,0.267609,1.02751,-0.259762,-0.092554,-3.999999999998449e-05,-0.0020669999999999,0.092554,4.000000000001225e-05,0.002067,-0.178991,-0.4180999999999999,-0.170822,0.168379,-0.4165899999999999,-0.175832,-0.152111,-0.7069699999999999,-0.0691809999999999,0.166429,-0.7300899999999999,-0.089172,1
90,-0.0044579999999999,0.785215,-0.0960175,-0.164551,0.581795,-0.0531785,-0.271061,0.796175,-0.2282275,0.153549,0.603815,-0.0476355,0.289059,0.784385,-0.1814175,-0.227711,1.045965,-0.3590875,0.268189,1.025595,-0.2689275,-0.09259,5.000000000005e-06,-0.0022735,0.09259,-5.000000000005e-06,0.0022734999999999,-0.181181,-0.413975,-0.1781675,0.169509,-0.413035,-0.1829775,-0.152371,-0.699775,-0.0728814999999999,0.165849,-0.721495,-0.0917175,1
91,-0.0035995,0.7838849999999999,-0.1031525,-0.1632944999999999,0.580685,-0.0585064999999999,-0.2707845,0.791925,-0.2339925,0.1538055,0.602835,-0.0532535,0.2895655,0.7793349999999999,-0.1880525,-0.2281145,1.042755,-0.3677625,0.2691255,1.023805,-0.2786425,-0.0925584999999999,4.999999999977245e-06,-0.0024234999999999,0.0925584999999999,-5.000000000005e-06,0.0024235,-0.1831345,-0.405085,-0.1854925,0.1708855,-0.404145,-0.1898925,-0.1523845,-0.692305,-0.0768465,0.1668255,-0.7172149999999999,-0.0967825,1
92,-0.0026029999999999,0.78223,-0.110487,-0.1618859999999999,0.57969,-0.063829,-0.270386,0.78904,-0.2393969999999999,0.154144,0.6018,-0.058877,0.290224,0.7755000000000001,-0.194747,-0.228186,1.03963,-0.376427,0.269884,1.02319,-0.288227,-0.092529,7.999999999999674e-05,-0.0024689999999999,0.092529,-7.999999999999674e-05,0.002469,-0.184906,-0.3961699999999999,-0.1927269999999999,0.172154,-0.39523,-0.196817,-0.152376,-0.6847399999999999,-0.080826,0.168714,-0.7120900000000001,-0.102437,1
93,-0.001946,0.781975,-0.123431,-0.160522,0.579175,-0.074975,-0.270052,0.784915,-0.250641,0.154498,0.6012249999999999,-0.070489,0.290748,0.772795,-0.207311,-0.228762,1.037195,-0.390111,0.2703979999999999,1.023115,-0.303921,-0.092491,-1.5000000000015e-05,-0.002162,0.092491,1.4999999999987246e-05,0.002162,-0.186882,-0.386165,-0.206021,0.173348,-0.385225,-0.209761,-0.1525119999999999,-0.676115,-0.090553,0.171078,-0.705955,-0.117781,1
94,-0.001177,0.784375,-0.135332,-0.159044,0.5810150000000001,-0.0868849999999999,-0.269844,0.784575,-0.262542,0.155136,0.602915,-0.0825269999999999,0.291186,0.773555,-0.220922,-0.229564,1.035945,-0.403902,0.270556,1.025715,-0.320092,-0.092422,4.500000000001725e-05,-0.002033,0.092422,-4.499999999998949e-05,0.002033,-0.191884,-0.370385,-0.229092,0.176306,-0.369625,-0.232322,-0.157034,-0.667745,-0.112402,0.174716,-0.6967650000000001,-0.140312,1
95,-0.000374,0.78546,-0.1480855,-0.15764,0.58317,-0.0982555,-0.2699,0.78359,-0.2739554999999999,0.15583,0.6049,-0.0939085,0.29155,0.7743300000000001,-0.2340155,-0.23018,1.03479,-0.4163254999999999,0.27068,1.02715,-0.3357155,-0.092372,0.00015,-0.0018405,0.092372,-0.00015,0.0018405,-0.19661,-0.3550999999999999,-0.2514055,0.1788,-0.3546399999999999,-0.2545555,-0.1616199999999999,-0.6604599999999999,-0.1343355,0.17671,-0.68878,-0.1604155,1
96,-8.149999999999781e-05,0.78647,-0.16053,-0.1569525,0.58578,-0.1092699999999999,-0.2705825,0.78408,-0.28552,0.1559475,0.60714,-0.105088,0.2915075,0.77534,-0.24702,-0.2313424999999999,1.03261,-0.42801,0.2702575,1.02819,-0.3509899999999999,-0.0925624999999999,0.0001099999999999,-0.0016019999999999,0.0925624999999999,-0.0001099999999999,0.001602,-0.2018625,-0.3395199999999999,-0.27331,0.1802975,-0.3398,-0.27646,-0.1668925,-0.65306,-0.1561199999999999,0.1794575,-0.6784399999999999,-0.18074,1
97,0.0001414999999999,0.785785,-0.17317,-0.1562454999999999,0.586945,-0.121393,-0.2712354999999999,0.785105,-0.29784,0.1562045,0.607765,-0.116818,0.2917245,0.777075,-0.26036,-0.2324955,1.031185,-0.43949,0.2699145,1.029975,-0.36613,-0.0926795,0.0001349999999999,-0.0014079999999999,0.0926795,-0.0001349999999999,0.0014079999999999,-0.2067755,-0.323835,-0.29495,0.1818044999999999,-0.3253049999999999,-0.29849,-0.1723255,-0.6453949999999999,-0.17786,0.1817544999999999,-0.670285,-0.20354,1
98,0.0003499999999999,0.7847,-0.1852185,-0.155953,0.59024,-0.1323234999999999,-0.271913,0.78558,-0.3099885,0.1564269999999999,0.60857,-0.1277565,0.292257,0.7781899999999999,-0.2733885,-0.233493,1.02949,-0.4501085,0.2695369999999999,1.0314,-0.3801485,-0.0927979999999999,0.0002599999999999,-0.0012084999999999,0.0927979999999999,-0.00026,0.0012085,-0.211413,-0.30784,-0.3158984999999999,0.182927,-0.31045,-0.3198784999999999,-0.177873,-0.63917,-0.1993885,0.1855669999999999,-0.66073,-0.2266185,1
99,0.000312,0.78425,-0.1971905,-0.1556759999999999,0.5912600000000001,-0.1437525,-0.2730359999999999,0.7867700000000001,-0.3219705,0.156514,0.6097600000000001,-0.1388205,0.292744,0.78247,-0.2868405,-0.234806,1.02893,-0.4603105,0.2689439999999999,1.03306,-0.3942005,-0.092723,-6.999999999995898e-05,-0.0009395,0.092723,7.00000000000145e-05,0.0009394999999999,-0.216556,-0.29042,-0.3368605,0.183714,-0.2940999999999999,-0.3412005,-0.1835959999999999,-0.6318699999999999,-0.2216604999999999,0.187974,-0.6537799999999999,-0.2489605,1
100,0.000147,0.7844899999999999,-0.2083565,-0.155751,0.59247,-0.1552845,-0.274611,0.78728,-0.3339465,0.156579,0.6100300000000001,-0.1499815,0.293099,0.7859799999999999,-0.3003765,-0.2365209999999999,1.02839,-0.4702865,0.2682589999999999,1.03499,-0.4076265,-0.092597,-0.0002599999999999,-0.0007724999999999,0.092597,0.0002599999999999,0.0007725,-0.221681,-0.27135,-0.3576765,0.184249,-0.27592,-0.3624664999999999,-0.189471,-0.62384,-0.2436565,0.188629,-0.64324,-0.2668465,1
101,-0.0002964999999999,0.784845,-0.22088,-0.1560165,0.5935950000000001,-0.167238,-0.2763665,0.787725,-0.34658,0.1565935,0.610615,-0.161419,0.2933635,0.7883950000000001,-0.31394,-0.2380665,1.028885,-0.48019,0.2675535,1.036705,-0.4213,-0.0923944999999999,-0.0006049999999999,-0.00066,0.0923944999999999,0.000605,0.0006599999999999,-0.2265464999999999,-0.251155,-0.37845,0.1848235,-0.2569549999999999,-0.38364,-0.1950464999999999,-0.615235,-0.26587,0.1906135,-0.6313449999999999,-0.28922,1
102,-0.0002464999999999,0.78357,-0.226572,-0.1560264999999999,0.5945100000000001,-0.173322,-0.2779665,0.78998,-0.3537119999999999,0.1567735,0.60989,-0.166947,0.2941835,0.78889,-0.321232,-0.2391164999999999,1.0291,-0.4844219999999999,0.2674435,1.03678,-0.428942,-0.0921724999999999,-0.0006399999999999,-0.0009569999999999,0.0921724999999999,0.00064,0.0009569999999999,-0.2311165,-0.2328199999999999,-0.393072,0.1855735,-0.2392999999999999,-0.3987219999999999,-0.2002565,-0.6067899999999999,-0.282572,0.1927135,-0.62329,-0.305982,1
103,-0.000295,0.77799,-0.231528,-0.156196,0.59216,-0.179238,-0.279646,0.78828,-0.360388,0.156664,0.60773,-0.172122,0.294954,0.78649,-0.327878,-0.240246,1.02511,-0.488778,0.267204,1.03671,-0.436068,-0.09194,-0.0010299999999999,-0.000861,0.09194,0.00103,0.000861,-0.232386,-0.22384,-0.397888,0.1850339999999999,-0.2313899999999999,-0.403778,-0.200896,-0.59927,-0.287438,0.1921939999999999,-0.61647,-0.309718,1
104,-0.000697,0.77173,-0.2367015,-0.15656,0.58893,-0.1854915,-0.28144,0.78589,-0.3674315,0.15643,0.60535,-0.1775915,0.29557,0.78355,-0.3349615,-0.24152,1.02101,-0.4935215,0.2668,1.0366,-0.4440815,-0.0916,-0.00134,-0.0008154999999999,0.0916,0.00134,0.0008154999999999,-0.2338299999999999,-0.21453,-0.4029615,0.1841999999999999,-0.2237799999999999,-0.4086715,-0.20172,-0.59183,-0.2922615,0.1914,-0.60937,-0.3133515,1
105,-0.0010449999999999,0.76433,-0.2426675,-0.1568049999999999,0.58552,-0.1924575,-0.283135,0.78417,-0.3751075,0.156275,0.60366,-0.1837075,0.2964549999999999,0.78026,-0.3426375,-0.2426749999999999,1.01885,-0.4989075,0.266585,1.0344,-0.4531775,-0.091045,-0.00173,-0.0009135,0.091045,0.00173,0.0009134999999999,-0.234975,-0.2033799999999999,-0.4084175,0.183475,-0.2147699999999999,-0.4139875,-0.2024449999999999,-0.58301,-0.2974775,0.190985,-0.6006499999999999,-0.3176974999999999,1
106,-0.0020414999999999,0.760035,-0.2492025,-0.1575515,0.583175,-0.1990225,-0.2852214999999999,0.7820149999999999,-0.3829725,0.1551385,0.599955,-0.1905025,0.2964185,0.7759449999999999,-0.3504224999999999,-0.2446015,1.016715,-0.5051325,0.2667685,1.030325,-0.4629625,-0.0910084999999999,-0.001835,-0.0010514999999999,0.0910084999999999,0.0018349999999999,0.0010514999999999,-0.2363415,-0.192025,-0.4136225,0.1813185,-0.205735,-0.4191325,-0.2037915,-0.571575,-0.3027825,0.1888185,-0.5912550000000001,-0.3219025,1
107,-0.003076,0.7560150000000001,-0.2556875,-0.158056,0.579805,-0.2058175,-0.287126,0.779215,-0.3909175,0.154114,0.596355,-0.1973075,0.296304,0.770845,-0.3580875,-0.246476,1.012335,-0.5127875,0.267544,1.020915,-0.4725574999999999,-0.091024,-0.0020649999999999,-0.0012385,0.091024,0.002065,0.0012385,-0.237656,-0.1805949999999999,-0.4186975,0.179354,-0.1962749999999999,-0.4240075,-0.205016,-0.560165,-0.3078575,0.187124,-0.581905,-0.3275675,1
108,-0.0034484999999999,0.7520100000000001,-0.2624229999999999,-0.1579725,0.57795,-0.2122629999999999,-0.2878925,0.7745200000000001,-0.398703,0.1537575,0.59199,-0.203643,0.2967675,0.76387,-0.365263,-0.2477025,1.00674,-0.520753,0.2690375,1.01107,-0.482163,-0.0910775,-0.0020899999999999,-0.0014359999999999,0.0910775,0.00209,0.001436,-0.2382725,-0.1701399999999999,-0.422963,0.1783674999999999,-0.1877499999999999,-0.428173,-0.2052525,-0.54967,-0.311913,0.1864174999999999,-0.57327,-0.3329729999999999,1
109,-0.0038114999999999,0.7481450000000001,-0.270024,-0.1578365,0.575565,-0.218754,-0.2886565,0.770695,-0.406764,0.1532335,0.5885549999999999,-0.210314,0.2973735,0.757595,-0.372744,-0.2491065,1.000255,-0.5295839999999999,0.2705635,1.002095,-0.491604,-0.0910435,-0.0020749999999999,-0.0015259999999999,0.0910435,0.0020749999999999,0.0015259999999999,-0.2388564999999999,-0.159795,-0.427174,0.1773535,-0.179235,-0.432374,-0.2050965,-0.539335,-0.316344,0.1852935,-0.564395,-0.336604,1
110,-0.0041419999999999,0.7443249999999999,-0.2779749999999999,-0.157476,0.572905,-0.224915,-0.289346,0.7661849999999999,-0.414505,0.152924,0.585155,-0.216625,0.298304,0.7512749999999999,-0.3799949999999999,-0.250606,0.992515,-0.538775,0.272124,0.993465,-0.501265,-0.090934,-0.001945,-0.0016749999999999,0.090934,0.0019449999999999,0.0016749999999999,-0.2390959999999999,-0.150385,-0.431215,0.176454,-0.1708549999999999,-0.436385,-0.204656,-0.529755,-0.320405,0.184184,-0.555735,-0.3399149999999999,1
111,-0.0044439999999999,0.741325,-0.28603,-0.156865,0.569635,-0.23111,-0.289965,0.760635,-0.42193,0.152825,0.5820449999999999,-0.22297,0.299295,0.745295,-0.3872,-0.251765,0.984525,-0.5486300000000001,0.273585,0.985195,-0.51132,-0.090775,-0.001925,-0.00167,0.090775,0.001925,0.0016699999999999,-0.238585,-0.141005,-0.43505,0.175615,-0.162825,-0.4404099999999999,-0.2038549999999999,-0.5202249999999999,-0.32448,0.183055,-0.547725,-0.34355,1
112,-0.0047914999999999,0.739805,-0.29381,-0.1562105,0.566655,-0.2366499999999999,-0.2906005,0.755305,-0.4292,0.1526295,0.578255,-0.2292799999999999,0.3000795,0.737655,-0.3937,-0.2526305,0.979185,-0.5582199999999999,0.2750195,0.976075,-0.52094,-0.0907195,-0.0018549999999999,-0.00181,0.0907195,0.0018549999999999,0.00181,-0.2380405,-0.132455,-0.43833,0.1746895,-0.155585,-0.44377,-0.2031105,-0.5114350000000001,-0.32766,0.1818195,-0.5404849999999999,-0.3468299999999999,1
113,-0.0052665,0.73976,-0.301515,-0.1554715,0.56455,-0.242535,-0.2912814999999999,0.75044,-0.436545,0.1522585,0.5746,-0.235755,0.3005285,0.73051,-0.399645,-0.2535815,0.97368,-0.568035,0.2764485,0.96686,-0.530345,-0.0908585,-0.0017899999999999,-0.001905,0.0908585,0.00179,0.001905,-0.2374415,-0.12328,-0.441935,0.1734484999999999,-0.14761,-0.447095,-0.2022615,-0.50213,-0.330575,0.1806384999999999,-0.5325099999999999,-0.350725,1
114,-0.006087,0.740945,-0.30934,-0.154887,0.561685,-0.24786,-0.292047,0.744515,-0.4432,0.151733,0.570335,-0.2416499999999999,0.300663,0.7236549999999999,-0.4048,-0.254687,0.966375,-0.57759,0.277823,0.959365,-0.53896,-0.0909929999999999,-0.001695,-0.0019599999999999,0.0909929999999999,0.001695,0.00196,-0.237027,-0.1160249999999999,-0.44476,0.171793,-0.140895,-0.44969,-0.201567,-0.494825,-0.33277,0.179363,-0.525895,-0.35422,1
115,-0.0069574999999999,0.74082,-0.316005,-0.1547405,0.55907,-0.252585,-0.2930505,0.7379199999999999,-0.449605,0.1511095,0.5698799999999999,-0.246445,0.3007395,0.71661,-0.409515,-0.2559605,0.95801,-0.586825,0.2781395,0.95237,-0.546805,-0.0911395,-0.0019,-0.0018449999999999,0.0911395,0.0019,0.0018449999999999,-0.2368405,-0.1099,-0.446615,0.1696295,-0.1355799999999999,-0.451985,-0.2011605,-0.48876,-0.334015,0.1777795,-0.5208299999999999,-0.356895,1
116,-0.008375,0.7397,-0.32349,-0.155229,0.55661,-0.25779,-0.294539,0.73188,-0.45611,0.150411,0.56817,-0.25178,0.300381,0.71106,-0.41445,-0.257519,0.95216,-0.59566,0.277631,0.95084,-0.55539,-0.091331,-0.00202,-0.0016,0.091331,0.0020199999999999,0.0015999999999999,-0.237229,-0.10304,-0.44842,0.166781,-0.1298,-0.45462,-0.201269,-0.48196,-0.3352,0.176211,-0.5156000000000001,-0.36192,1
117,-0.010359,0.737895,-0.33058,-0.156046,0.554465,-0.263,-0.296526,0.727025,-0.46281,0.149484,0.566395,-0.25732,0.299844,0.7064349999999999,-0.41955,-0.259396,0.946245,-0.60454,0.276894,0.949085,-0.56362,-0.0917139999999999,-0.001965,-0.0011899999999999,0.0917139999999999,0.0019649999999999,0.00119,-0.237936,-0.096335,-0.44958,0.163464,-0.124155,-0.45738,-0.201756,-0.475195,-0.33579,0.174314,-0.510475,-0.3669599999999999,1
118,-0.012412,0.735095,-0.33704,-0.157134,0.552565,-0.26819,-0.298684,0.722075,-0.4697,0.1485059999999999,0.564965,-0.26238,0.299226,0.7021350000000001,-0.42467,-0.261374,0.941345,-0.61296,0.276086,0.945985,-0.5720700000000001,-0.092016,-0.0021249999999999,-0.00074,0.092016,0.002125,0.0007399999999999,-0.2390439999999999,-0.0901349999999999,-0.4503,0.159806,-0.1187249999999999,-0.45999,-0.202644,-0.4688549999999999,-0.33619,0.172246,-0.5055649999999999,-0.37111,1
119,-0.014194,0.73155,-0.342955,-0.1583609999999999,0.55019,-0.273045,-0.300761,0.7167300000000001,-0.476455,0.1472689999999999,0.56349,-0.266955,0.298889,0.69814,-0.428795,-0.263381,0.93636,-0.620835,0.275499,0.94127,-0.579685,-0.092339,-0.0022999999999999,-0.0002449999999999,0.092339,0.0023,0.0002449999999999,-0.240251,-0.0844099999999999,-0.450535,0.156329,-0.11343,-0.462585,-0.203591,-0.4629599999999999,-0.336335,0.170279,-0.5008,-0.374355,1
120,-0.0158145,0.727265,-0.348435,-0.1597535,0.547785,-0.277765,-0.3027134999999999,0.712555,-0.4835049999999999,0.1458565,0.5618449999999999,-0.2712949999999999,0.2986365,0.6947049999999999,-0.432575,-0.2651535,0.930065,-0.628575,0.2750965,0.936675,-0.586735,-0.0925864999999999,-0.002535,0.000175,0.0925864999999999,0.0025349999999999,-0.0001749999999999,-0.2416635,-0.079335,-0.450905,0.1531165,-0.108725,-0.4650849999999999,-0.2046135,-0.457715,-0.336035,0.1681465,-0.496235,-0.377295,1
121,-0.017517,0.723095,-0.3534899999999999,-0.161403,0.5460149999999999,-0.28193,-0.3049929999999999,0.708285,-0.49047,0.144317,0.559685,-0.27512,0.298397,0.6922349999999999,-0.43624,-0.266793,0.924105,-0.6354,0.274617,0.932365,-0.59311,-0.092587,-0.0026349999999999,0.0005799999999999,0.092587,0.0026349999999999,-0.0005799999999999,-0.243223,-0.0750649999999999,-0.45125,0.149867,-0.1045349999999999,-0.46746,-0.205723,-0.4530949999999999,-0.33577,0.165917,-0.492265,-0.3805,1
122,-0.0190855,0.71864,-0.357835,-0.1630305,0.544,-0.285445,-0.3071204999999999,0.70489,-0.496915,0.1430595,0.55708,-0.278495,0.2984395,0.68668,-0.439575,-0.2678905,0.91971,-0.641575,0.2742395,0.92825,-0.598385,-0.0925395,-0.00261,0.0007849999999999,0.0925395,0.00261,-0.000785,-0.2447404999999999,-0.0704099999999999,-0.451625,0.1470595,-0.1001799999999999,-0.469355,-0.2071005,-0.4479499999999999,-0.335555,0.1639395,-0.48802,-0.382885,1
123,-0.020496,0.715025,-0.361405,-0.164455,0.542685,-0.288195,-0.309345,0.7021550000000001,-0.5023150000000001,0.1421349999999999,0.555205,-0.280925,0.298455,0.681745,-0.441575,-0.269385,0.916035,-0.646595,0.274315,0.922965,-0.602615,-0.092505,-0.002475,0.000745,0.092505,0.002475,-0.0007449999999999,-0.246085,-0.0655049999999999,-0.452005,0.144775,-0.095425,-0.470345,-0.208275,-0.442445,-0.334385,0.162085,-0.482795,-0.383395,1
124,-0.020905,0.7120900000000001,-0.36446,-0.165008,0.5402,-0.29084,-0.310738,0.69909,-0.50675,0.141592,0.55332,-0.2829399999999999,0.299122,0.67811,-0.44328,-0.269998,0.91374,-0.65094,0.275282,0.91816,-0.60596,-0.092412,-0.0025899999999999,0.0008999999999999,0.092412,0.00259,-0.0009,-0.246578,-0.0600599999999999,-0.4524,0.143902,-0.0902899999999999,-0.47088,-0.208598,-0.4362199999999999,-0.3331199999999999,0.161122,-0.47712,-0.38353,1
125,-0.0211685,0.7097100000000001,-0.367055,-0.1650985,0.538261,-0.292805,-0.3116085,0.69633,-0.510425,0.1415415,0.55239,-0.2844649999999999,0.3000315,0.67466,-0.444595,-0.2700985,0.91156,-0.654185,0.2765915,0.91344,-0.6083149999999999,-0.0924115,-0.0028199999999999,0.0009149999999999,0.0924115,0.00282,-0.0009149999999999,-0.2467385,-0.0550299999999999,-0.452405,0.1437415,-0.0858299999999999,-0.470885,-0.2084285,-0.43086,-0.331705,0.1611014999999999,-0.4727,-0.384205,1
126,-0.0210175,0.7081500000000001,-0.3692649999999999,-0.1652885,0.536432,-0.294685,-0.3123785,0.6933900000000001,-0.513665,0.1415015,0.5523100000000001,-0.2857349999999999,0.3007615,0.67049,-0.445675,-0.2707985,0.90692,-0.656955,0.2778315,0.90879,-0.610155,-0.0924115,-0.0033799999999999,0.0009149999999999,0.0924115,0.00338,-0.0009149999999999,-0.2471385,-0.0506299999999999,-0.452395,0.1436815,-0.0815799999999999,-0.471385,-0.2052885,-0.4257099999999999,-0.322835,0.1606515,-0.4677899999999999,-0.383725,1
127,-0.0212755,0.70678,-0.372195,-0.1655985,0.535425,-0.296645,-0.3131985,0.69135,-0.516285,0.1411615,0.548715,-0.287865,0.3010815,0.66772,-0.4468249999999999,-0.2716085,0.90363,-0.659395,0.2789615,0.90548,-0.611725,-0.0924115,-0.00318,0.0009149999999999,0.0924115,0.00318,-0.0009149999999999,-0.2476185,-0.04642,-0.4523749999999999,0.1435614999999999,-0.0763099999999999,-0.472715,-0.2022185,-0.4198,-0.314085,0.1590815,-0.46103,-0.3733149999999999,1
128,-0.021377,0.705585,-0.374745,-0.165623,0.535307,-0.298265,-0.313743,0.689365,-0.518265,0.140887,0.545621,-0.289765,0.301457,0.665635,-0.447835,-0.272113,0.901585,-0.6612049999999999,0.280357,0.903215,-0.612665,-0.092367,-0.002975,0.000955,0.092367,0.002975,-0.0009549999999999,-0.247663,-0.042455,-0.452885,0.143667,-0.0711549999999999,-0.474005,-0.198943,-0.413895,-0.3053749999999999,0.157597,-0.4541349999999999,-0.361685,1
129,-0.0203745,0.70522,-0.37531,-0.1650945,0.5354019999999999,-0.29943,-0.3134945,0.68842,-0.5193099999999999,0.1412655,0.544118,-0.29119,0.3025755,0.66361,-0.44834,-0.2720945,0.90186,-0.6618,0.2824155,0.90162,-0.6128899999999999,-0.0922955,-0.0027699999999999,0.00089,0.0922955,0.0027699999999999,-0.00089,-0.2470945,-0.03732,-0.45368,0.1445055,-0.0651899999999999,-0.47501,-0.1950245,-0.40728,-0.2966499999999999,0.1568555,-0.44621,-0.34943,1
130,-0.0193204999999999,0.7044900000000001,-0.3751649999999999,-0.1642825,0.535637,-0.300135,-0.3129025,0.6875600000000001,-0.519335,0.1418275,0.54354,-0.291915,0.3040275,0.66198,-0.448215,-0.2719425,0.90228,-0.661975,0.2847475,0.90038,-0.612455,-0.0923275,-0.00261,0.000805,0.0923275,0.00261,-0.000805,-0.2463225,-0.0317699999999999,-0.454515,0.1458675,-0.05892,-0.4758949999999999,-0.1911324999999999,-0.40058,-0.287825,0.1564075,-0.4377899999999999,-0.337375,1
131,-0.0182319999999999,0.704835,-0.374525,-0.1633069999999999,0.536883,-0.299875,-0.312237,0.686515,-0.518435,0.142643,0.544035,-0.291665,0.305403,0.664245,-0.446845,-0.271887,0.901955,-0.661475,0.2870729999999999,0.899675,-0.6113649999999999,-0.092403,-0.002485,0.0008249999999999,0.092403,0.002485,-0.000825,-0.245797,-0.026425,-0.454995,0.147333,-0.053265,-0.476655,-0.187017,-0.3942449999999999,-0.278375,0.156353,-0.429875,-0.324445,1
132,-0.0178055,0.70297,-0.374545,-0.1625305,0.536891,-0.299705,-0.3116405,0.68623,-0.517515,0.1434694999999999,0.5448500000000001,-0.291475,0.3068995,0.6668000000000001,-0.445225,-0.2722005,0.90126,-0.660985,0.2891395,0.9014,-0.610015,-0.0923295,-0.00272,0.000945,0.0923295,0.00272,-0.000945,-0.2454104999999999,-0.02012,-0.455045,0.1486095,-0.04715,-0.477255,-0.1830705,-0.3868,-0.268665,0.1560794999999999,-0.42122,-0.312675,1
133,-0.0174115,0.7014400000000001,-0.373905,-0.1618295,0.53808,-0.2996149999999999,-0.3112095,0.68696,-0.517085,0.1441905,0.545141,-0.291505,0.3084004999999999,0.66908,-0.4430949999999999,-0.2726195,0.90068,-0.660825,0.2909905,0.90397,-0.609115,-0.0921705,-0.0025999999999999,0.001155,0.0921705,0.0025999999999999,-0.0011549999999999,-0.2450195,-0.0128599999999999,-0.454995,0.1493205,-0.0406699999999999,-0.4781749999999999,-0.1788695,-0.37897,-0.259295,0.1566005,-0.41354,-0.303415,1
134,-0.017369,0.70068,-0.373575,-0.161325,0.539226,-0.299805,-0.310845,0.68777,-0.517415,0.1445749999999999,0.544524,-0.291885,0.309855,0.67087,-0.442665,-0.273665,0.89849,-0.661685,0.292755,0.90649,-0.608755,-0.0920449999999999,-0.00224,0.0015449999999999,0.0920449999999999,0.0022399999999999,-0.0015449999999999,-0.244605,-0.00553,-0.454765,0.1496249999999999,-0.03402,-0.479345,-0.174795,-0.37101,-0.250315,0.156465,-0.40403,-0.290995,1
135,-0.0169874999999999,0.6992249999999999,-0.37473,-0.1609655,0.540179,-0.3003599999999999,-0.3100255,0.688305,-0.51668,0.1450045,0.5428469999999999,-0.29273,0.3113145,0.6734649999999999,-0.44255,-0.2738055,0.8988649999999999,-0.66354,0.2945645,0.9084949999999998,-0.6089,-0.0919244999999999,-0.001635,0.0020499999999999,0.0919244999999999,0.0016349999999999,-0.0020499999999999,-0.2439655,0.0020449999999998,-0.45427,0.1493145,-0.027365,-0.4806499999999999,-0.1729055,-0.363265,-0.2493699999999999,0.1566745,-0.3959450000000001,-0.2815,1
136,-0.0164405,0.6977500000000001,-0.3761,-0.1609755,0.5407520000000001,-0.30093,-0.3097455,0.6881400000000001,-0.51648,0.1455245,0.5443420000000001,-0.29294,0.3124845,0.6723100000000001,-0.44334,-0.2742055,0.8985000000000001,-0.6657599999999999,0.2960445,0.90891,-0.6094200000000001,-0.0919545,-0.0016299999999999,0.00226,0.0919545,0.00163,-0.00226,-0.2435355,0.00929,-0.45408,0.1485344999999999,-0.0211699999999999,-0.48152,-0.1714655,-0.3558599999999999,-0.24877,0.1572945,-0.3867499999999999,-0.27806,1
137,-0.016266,0.69631,-0.37683,-0.161404,0.5408270000000001,-0.30182,-0.3096939999999999,0.68731,-0.5163800000000001,0.145686,0.545125,-0.29327,0.313476,0.67054,-0.44424,-0.2750539999999999,0.89576,-0.6692199999999999,0.297226,0.90803,-0.6102000000000001,-0.091926,-0.0016399999999999,0.0023199999999999,0.091926,0.0016399999999999,-0.00232,-0.2434039999999999,0.0163299999999999,-0.45402,0.147106,-0.01519,-0.48228,-0.1704439999999999,-0.34882,-0.24871,0.157646,-0.37842,-0.27595,1
138,-0.0162355,0.69489,-0.37739,-0.1619364999999999,0.5403870000000001,-0.30279,-0.3100265,0.68065,-0.51597,0.1457735,0.5449780000000001,-0.29358,0.3141035,0.6684000000000001,-0.44533,-0.2761465,0.88971,-0.6730400000000001,0.2982835,0.90509,-0.61171,-0.0919335,-0.0016299999999999,0.0025,0.0919335,0.00163,-0.0025,-0.2434265,0.02257,-0.45413,0.1448634999999999,-0.0103399999999999,-0.48252,-0.1704365,-0.3428399999999999,-0.24912,0.1579335,-0.3720899999999999,-0.2762,1
139,-0.0163895,0.693645,-0.37937,-0.1627215,0.5393199999999999,-0.30376,-0.3114114999999999,0.6716549999999999,-0.51467,0.1453984999999999,0.5442629999999999,-0.29419,0.3143485,0.665835,-0.44654,-0.2775915,0.883265,-0.6768500000000001,0.2991485,0.901045,-0.6137900000000001,-0.0920584999999999,-0.001645,0.0026699999999999,0.0920584999999999,0.0016449999999998,-0.00267,-0.2436215,0.0294149999999999,-0.45402,0.1416685,-0.005645,-0.48259,-0.1707215,-0.337125,-0.24928,0.1575685,-0.365295,-0.27423,1
140,-0.0165765,0.69154,-0.38009,-0.1635434999999999,0.5371520000000001,-0.30493,-0.3129234999999999,0.6614300000000001,-0.51364,0.1448165,0.542703,-0.29503,0.3142365,0.66224,-0.44797,-0.2790935,0.87524,-0.68118,0.3000265,0.89522,-0.61679,-0.0921565,-0.0017199999999999,0.0030699999999999,0.0921565,0.00172,-0.0030699999999999,-0.2436635,0.0353499999999999,-0.45355,0.1378265,-0.0019099999999999,-0.4828599999999999,-0.1711135,-0.3324399999999999,-0.24968,0.1568865,-0.3591499999999999,-0.27175,1
141,-0.0165725,0.69015,-0.3829749999999999,-0.1639315,0.535954,-0.306345,-0.3136215,0.64947,-0.513675,0.1442784999999999,0.539478,-0.296585,0.3142485,0.65765,-0.450435,-0.2801714999999999,0.86679,-0.6862250000000001,0.3011285,0.88786,-0.6211450000000001,-0.0922385,-0.00151,0.003545,0.0922385,0.00151,-0.0035449999999999,-0.2435514999999999,0.03947,-0.452895,0.1338885,0.00038,-0.483825,-0.1714715,-0.32904,-0.2507549999999999,0.1566185,-0.35544,-0.273315,1
142,-0.016585,0.687765,-0.38525,-0.164044,0.5339409999999999,-0.30821,-0.314234,0.6372369999999999,-0.51433,0.143946,0.5366009999999999,-0.2987,0.314646,0.6515749999999999,-0.45353,-0.281304,0.8565349999999998,-0.6918,0.302346,0.8794249999999999,-0.6265000000000001,-0.092286,-0.001465,0.0038999999999999,0.092286,0.0014649999999999,-0.0039,-0.243474,0.0423649999999999,-0.45226,0.130126,0.0014349999999998,-0.4849,-0.1715539999999999,-0.3266650000000001,-0.25242,0.155946,-0.351725,-0.27408,1
143,-0.0167275,0.6849200000000001,-0.38828,-0.1641745,0.5316130000000001,-0.31102,-0.3147245,0.6253770000000001,-0.51579,0.1437255,0.5348630000000001,-0.30178,0.3150455,0.6455000000000001,-0.45759,-0.2821545,0.8477000000000001,-0.6981299999999999,0.3036255,0.87076,-0.63285,-0.0923954999999999,-0.0015899999999999,0.004,0.0923954999999999,0.00159,-0.004,-0.2435145,0.04479,-0.45208,0.1263155,0.00211,-0.48567,-0.1717445,-0.3247,-0.25494,0.1554955,-0.3489599999999999,-0.27697,1
144,-0.016339,0.6821999999999999,-0.3930949999999999,-0.164541,0.5290879999999999,-0.3139849999999999,-0.315361,0.6143439999999999,-0.517075,0.143349,0.534503,-0.3050549999999999,0.315489,0.6393859999999999,-0.461955,-0.283241,0.8391199999999999,-0.704365,0.304749,0.8622699999999999,-0.6392450000000001,-0.0926589999999999,-0.00169,0.004055,0.0926589999999999,0.0016899999999999,-0.0040549999999999,-0.243651,0.0468899999999999,-0.451945,0.1227589999999999,0.0024599999999999,-0.4862849999999999,-0.172131,-0.3231100000000001,-0.257475,0.154919,-0.34637,-0.2791749999999999,1
145,-0.015991,0.679605,-0.39746,-0.165037,0.5261250000000001,-0.31666,-0.316137,0.603379,-0.51805,0.142833,0.5340590000000001,-0.30824,0.315803,0.6356580000000001,-0.46537,-0.284467,0.829885,-0.70975,0.305793,0.854465,-0.64493,-0.0930729999999999,-0.0018749999999999,0.0039599999999999,0.0930729999999999,0.001875,-0.00396,-0.243837,0.048115,-0.45189,0.1192929999999999,0.002025,-0.4865,-0.172527,-0.3223349999999999,-0.25965,0.154243,-0.3449949999999999,-0.28171,1
146,-0.015679,0.677275,-0.4008199999999999,-0.165374,0.523227,-0.31903,-0.316884,0.593919,-0.5182599999999999,0.1424659999999999,0.5331819999999999,-0.31057,0.315916,0.632254,-0.46795,-0.2857139999999999,0.8225849999999999,-0.71329,0.306796,0.848135,-0.64992,-0.093506,-0.0020649999999999,0.00389,0.093506,0.0020649999999999,-0.00389,-0.244024,0.0490849999999999,-0.45188,0.116146,0.0014649999999999,-0.48675,-0.173014,-0.321805,-0.26137,0.1534259999999999,-0.3435750000000001,-0.28319,1
147,-0.015918,0.674985,-0.403645,-0.165813,0.520866,-0.321265,-0.318033,0.589436,-0.520135,0.142157,0.532413,-0.312815,0.3155469999999999,0.629525,-0.470015,-0.287483,0.818155,-0.7162550000000001,0.307137,0.843825,-0.653675,-0.093867,-0.0023149999999999,0.0038749999999999,0.093867,0.0023149999999999,-0.003875,-0.244523,0.049735,-0.451665,0.112977,0.0011449999999999,-0.486975,-0.173683,-0.321265,-0.262985,0.152067,-0.342925,-0.285165,1
148,-0.0166185,0.6729849999999999,-0.40603,-0.1663185,0.518886,-0.32332,-0.3192885,0.587965,-0.5218700000000001,0.1416415,0.5318499999999999,-0.31485,0.3148714999999999,0.6274299999999999,-0.47204,-0.2898285,0.814245,-0.71858,0.3069615,0.841085,-0.65615,-0.0941915,-0.002555,0.0038899999999999,0.0941915,0.0025549999999999,-0.00389,-0.2452585,0.0504249999999999,-0.45134,0.1099115,0.001155,-0.48717,-0.1747285,-0.320645,-0.26443,0.1504615,-0.3421850000000001,-0.28708,1
149,-0.0173424999999999,0.6715800000000001,-0.40818,-0.1667335,0.5172640000000001,-0.325,-0.3204835,0.5877810000000001,-0.52337,0.1412665,0.5301460000000001,-0.31656,0.3142065,0.6261580000000001,-0.47385,-0.2924435,0.8117500000000001,-0.7203200000000001,0.3064265,0.8405100000000001,-0.65796,-0.0945565,-0.0026699999999999,0.0038499999999999,0.0945565,0.00267,-0.0038499999999999,-0.2459335,0.05136,-0.4510499999999999,0.1075065,0.0017100000000001,-0.48726,-0.1757034999999999,-0.3198699999999999,-0.2655,0.1493365,-0.3409199999999999,-0.2888699999999999,1
150,-0.0181539999999999,0.6711750000000001,-0.40954,-0.167093,0.5158630000000001,-0.32602,-0.321743,0.5890960000000001,-0.52423,0.140757,0.5284920000000001,-0.31742,0.313187,0.625494,-0.475,-0.295243,0.8109950000000001,-0.7214200000000001,0.305407,0.8416250000000001,-0.65912,-0.094887,-0.0026349999999999,0.0037399999999999,0.094887,0.002635,-0.00374,-0.246723,0.052675,-0.45082,0.105447,0.002515,-0.48724,-0.176713,-0.318665,-0.26601,0.147717,-0.3393149999999999,-0.28903,1
151,-0.0189335,0.67115,-0.410315,-0.1673164999999999,0.515005,-0.326545,-0.3223465,0.590581,-0.525235,0.1403635,0.526863,-0.317575,0.3121035,0.626187,-0.475525,-0.2980665,0.8114399999999999,-0.722065,0.3043335,0.84311,-0.659815,-0.0950935,-0.0025199999999999,0.0036849999999999,0.0950935,0.0025199999999999,-0.003685,-0.2474265,0.05403,-0.450575,0.1038035,0.0036599999999999,-0.487255,-0.1776665,-0.31733,-0.266405,0.1462735,-0.33792,-0.289705,1
152,-0.0194265,0.671325,-0.41047,-0.1672775,0.5146580000000001,-0.3266599999999999,-0.3227075,0.591986,-0.52591,0.1401925,0.525713,-0.31725,0.3107224999999999,0.627481,-0.4742699999999999,-0.3006675,0.812195,-0.72192,0.3034825,0.844515,-0.6592899999999999,-0.0952325,-0.002325,0.00375,0.0952325,0.002325,-0.00375,-0.2478975,0.055175,-0.45027,0.1025725,0.0047049999999999,-0.48736,-0.1782475,-0.3161049999999999,-0.26643,0.1449025,-0.3367949999999999,-0.28937,1
153,-0.0200559999999999,0.67163,-0.41057,-0.167269,0.5147669999999999,-0.32654,-0.323559,0.593397,-0.52606,0.139891,0.5248079999999999,-0.31709,0.309281,0.6288059999999999,-0.47279,-0.303299,0.8131299999999999,-0.7209300000000001,0.302701,0.8458399999999999,-0.65726,-0.095341,-0.00226,0.0037999999999999,0.095341,0.0022599999999999,-0.0037999999999999,-0.248369,0.0561199999999998,-0.4499999999999999,0.101391,0.0057599999999998,-0.48739,-0.178869,-0.3150900000000001,-0.26632,0.143531,-0.33559,-0.28934,1
154,-0.0206615,0.67222,-0.41061,-0.1672555,0.5150980000000001,-0.32643,-0.3243355,0.595099,-0.52609,0.1394745,0.524827,-0.31665,0.3085445,0.629956,-0.47148,-0.3058455,0.81428,-0.71976,0.3019845,0.84752,-0.6545300000000001,-0.0954245,-0.0022299999999999,0.0037599999999999,0.0954245,0.0022299999999999,-0.00376,-0.2489455,0.05685,-0.44982,0.1002045,0.0066,-0.48734,-0.1794855,-0.3140199999999999,-0.26616,0.1427844999999999,-0.3348799999999999,-0.28994,1
155,-0.0214335,0.6727650000000001,-0.410635,-0.1672875,0.5156430000000001,-0.326305,-0.3251075,0.5965590000000001,-0.526115,0.1389625,0.525184,-0.3161549999999999,0.3078125,0.630541,-0.470325,-0.3082574999999999,0.815095,-0.7181249999999999,0.3010225,0.849495,-0.651365,-0.0955125,-0.002205,0.0037149999999999,0.0955125,0.002205,-0.0037149999999999,-0.2496875,0.057065,-0.449675,0.0988824999999999,0.006865,-0.487265,-0.1800975,-0.313685,-0.265985,0.1420124999999999,-0.335245,-0.289965,1
156,-0.021856,0.67276,-0.41056,-0.167155,0.515638,-0.3262,-0.325645,0.598027,-0.52596,0.1385549999999999,0.525234,-0.31566,0.306945,0.630725,-0.4686,-0.310135,0.81509,-0.71618,0.300155,0.85161,-0.64798,-0.095665,-0.00221,0.00364,0.095665,0.00221,-0.00364,-0.250115,0.05667,-0.44974,0.0977649999999999,0.0064499999999999,-0.48721,-0.180505,-0.3137999999999999,-0.26589,0.140985,-0.3359499999999999,-0.2901,1
157,-0.0221105,0.67276,-0.41037,-0.1670665,0.515638,-0.32608,-0.3261665,0.599701,-0.52539,0.1383135,0.525421,-0.31507,0.3063534999999999,0.631657,-0.46701,-0.3116065,0.81509,-0.71458,0.2992534999999999,0.85443,-0.64478,-0.0957035,-0.00221,0.0036399999999999,0.0957035,0.00221,-0.00364,-0.2503765,0.0559899999999999,-0.44962,0.0967735,0.00619,-0.48717,-0.1807565,-0.31387,-0.2658,0.1402935,-0.3367099999999999,-0.2907,1
158,-0.0222684999999999,0.672925,-0.409995,-0.1671585,0.5160819999999999,-0.325945,-0.3266885,0.6019599999999999,-0.524905,0.1382015,0.5260769999999999,-0.315015,0.3056115,0.6330849999999999,-0.466215,-0.3126084999999999,0.8157749999999999,-0.713225,0.2982215,0.857605,-0.642015,-0.0955915,-0.002235,0.003645,0.0955915,0.0022349999999999,-0.0036449999999999,-0.2504885,0.0555749999999999,-0.449605,0.0959515,0.0061049999999999,-0.487195,-0.1808785,-0.313895,-0.266015,0.1397215,-0.337015,-0.291365,1
159,-0.022763,0.673395,-0.40936,-0.16746,0.5164880000000001,-0.32564,-0.3273899999999999,0.6044,-0.5241800000000001,0.13755,0.525817,-0.31495,0.30531,0.634534,-0.46616,-0.31375,0.8169150000000001,-0.71195,0.29682,0.861405,-0.6396900000000001,-0.09566,-0.002155,0.0036899999999999,0.09566,0.002155,-0.0036899999999999,-0.25088,0.0549549999999999,-0.44955,0.09501,0.0055049999999999,-0.48712,-0.18118,-0.3141549999999999,-0.2661,0.1388499999999999,-0.337275,-0.29064,1
160,-0.023811,0.67403,-0.408115,-0.167737,0.5168490000000001,-0.325235,-0.328097,0.606866,-0.523065,0.136883,0.5255620000000001,-0.314755,0.3043829999999999,0.6372580000000001,-0.464825,-0.314847,0.8189700000000001,-0.7113050000000001,0.295433,0.8649800000000001,-0.637795,-0.095593,-0.0021399999999999,0.0037449999999999,0.095593,0.00214,-0.0037449999999999,-0.251357,0.05413,-0.449435,0.094283,0.0047100000000001,-0.486935,-0.1816569999999999,-0.3146899999999999,-0.266255,0.138563,-0.33834,-0.290475,1
161,-0.0249115,0.6743399999999999,-0.407035,-0.1679264999999999,0.517157,-0.324975,-0.3298465,0.608861,-0.523005,0.1361935,0.527468,-0.314455,0.3035535,0.640698,-0.463765,-0.3158565,0.82177,-0.710735,0.2941535,0.86822,-0.636615,-0.0955435,-0.0024699999999999,0.0036549999999999,0.0955435,0.0024699999999999,-0.0036549999999999,-0.2518665,0.0526499999999999,-0.449565,0.0940335,0.00348,-0.486635,-0.1822565,-0.31547,-0.266235,0.1383535,-0.3403899999999999,-0.290675,1
162,-0.0261725,0.674625,-0.40601,-0.1691015,0.5184740000000001,-0.32465,-0.3316215,0.607349,-0.5229699999999999,0.1353484999999999,0.5295080000000001,-0.31416,0.3024785,0.6412270000000001,-0.46285,-0.3169715,0.822025,-0.71022,0.2928885,0.8679650000000001,-0.63607,-0.0954085,-0.0027249999999999,0.0034399999999999,0.0954085,0.002725,-0.0034399999999999,-0.2528815,0.047415,-0.4497099999999999,0.0937685,-0.0013149999999999,-0.48617,-0.1828315,-0.3202949999999999,-0.26614,0.1380785,-0.345865,-0.2909699999999999,1
163,-0.0273344999999999,0.6751550000000001,-0.404935,-0.1703474999999999,0.5194780000000001,-0.324155,-0.3331075,0.6051930000000001,-0.522795,0.1345225,0.5316660000000001,-0.313805,0.3015425,0.6427550000000001,-0.462045,-0.3180975,0.8225150000000001,-0.709905,0.2917225,0.867615,-0.6354850000000001,-0.0953925,-0.0031449999999999,0.0033149999999999,0.0953925,0.003145,-0.003315,-0.2537075,0.041365,-0.449795,0.0936625,-0.0068249999999998,-0.485505,-0.1834975,-0.3259149999999998,-0.266205,0.1372925,-0.3515949999999999,-0.289825,1
164,-0.0287395,0.6758850000000001,-0.403875,-0.1719185,0.5203130000000001,-0.323395,-0.3347685,0.6091110000000001,-0.5231950000000001,0.1335015,0.5334240000000001,-0.313455,0.3005915,0.6437450000000001,-0.461265,-0.3193785,0.8230350000000001,-0.709605,0.2905815,0.868395,-0.634935,-0.0954815,-0.0034149999999999,0.0031849999999999,0.0954815,0.003415,-0.0031849999999999,-0.2545985,0.034495,-0.449945,0.0935014999999999,-0.0130049999999999,-0.484845,-0.1840885,-0.3324649999999999,-0.266065,0.1362914999999999,-0.3586049999999999,-0.289275,1
165,-0.02994,0.67687,-0.4029399999999999,-0.173105,0.5206799999999999,-0.32242,-0.336175,0.61117,-0.52325,0.132325,0.533856,-0.31314,0.299905,0.6442399999999999,-0.46041,-0.320725,0.82335,-0.7089699999999999,0.289905,0.86819,-0.63437,-0.095585,-0.00376,0.00298,0.095585,0.0037599999999999,-0.0029799999999999,-0.255335,0.0261,-0.45013,0.093735,-0.0204699999999999,-0.4839699999999999,-0.184525,-0.3406600000000001,-0.2657299999999999,0.136525,-0.36744,-0.29091,1
166,-0.0310874999999999,0.678655,-0.40193,-0.1741474999999999,0.521007,-0.32137,-0.3377075,0.613155,-0.52386,0.1313225,0.5336059999999999,-0.31278,0.2998425,0.644555,-0.4601699999999999,-0.3220075,0.8246249999999999,-0.70869,0.2895525,0.867845,-0.63357,-0.0956725,-0.003865,0.00275,0.0956725,0.003865,-0.00275,-0.2556275,0.0178149999999999,-0.45038,0.0941225,-0.0277749999999999,-0.48305,-0.1850975,-0.348905,-0.26552,0.1363325,-0.375455,-0.29062,1
167,-0.032256,0.68058,-0.4009749999999999,-0.1752,0.5208889999999999,-0.320405,-0.3394,0.6157199999999999,-0.521765,0.13004,0.533584,-0.312135,0.2996799999999999,0.64537,-0.460155,-0.32338,0.82609,-0.7081249999999999,0.28891,0.86738,-0.6333949999999999,-0.09564,-0.0040799999999999,0.002505,0.09564,0.0040799999999999,-0.0025049999999999,-0.2558,0.0095299999999999,-0.450605,0.0949,-0.03517,-0.482285,-0.18581,-0.35753,-0.265415,0.13682,-0.38432,-0.2913949999999999,1
168,-0.033434,0.683075,-0.4000399999999999,-0.1766859999999999,0.5223949999999999,-0.3193,-0.341136,0.618395,-0.5223599999999999,0.128774,0.5334249999999999,-0.31142,0.299704,0.6467149999999999,-0.46009,-0.324666,0.827885,-0.70784,0.288294,0.866905,-0.63313,-0.095614,-0.004035,0.00217,0.095614,0.004035,-0.0021699999999999,-0.256046,0.0008349999999999,-0.45078,0.096104,-0.043135,-0.48152,-0.186576,-0.366405,-0.26521,0.136904,-0.393015,-0.291,1
169,-0.0338344999999999,0.685615,-0.39925,-0.1779415,0.524214,-0.31815,-0.3426815,0.619695,-0.5233099999999999,0.1275685,0.532677,-0.31044,0.2997885,0.649525,-0.46005,-0.3257115,0.829645,-0.70756,0.2879485,0.866115,-0.6328,-0.0956384999999999,-0.003815,0.0018399999999999,0.0956384999999999,0.003815,-0.00184,-0.2561914999999999,-0.0086749999999999,-0.45089,0.0978685,-0.051915,-0.48075,-0.1897915,-0.3765849999999999,-0.27206,0.1370685,-0.402865,-0.2906,1
170,-0.0338265,0.68959,-0.39838,-0.1787065,0.526352,-0.31687,-0.3429965,0.62602,-0.5242899999999999,0.1265435,0.5320520000000001,-0.30925,0.3001835,0.65108,-0.45998,-0.3264165,0.83106,-0.70691,0.2879035,0.87009,-0.63216,-0.0956935,-0.0035299999999999,0.0015399999999999,0.0956935,0.00353,-0.00154,-0.2561665,-0.01822,-0.45097,0.1000235,-0.0605299999999999,-0.47969,-0.1927565,-0.3865499999999999,-0.27904,0.1384735,-0.41367,-0.2928,1
171,-0.033915,0.69302,-0.39744,-0.179384,0.526899,-0.31539,-0.343324,0.63558,-0.52478,0.125706,0.532633,-0.30791,0.300796,0.65365,-0.45963,-0.327104,0.8336,-0.7062700000000001,0.287826,0.8744099999999999,-0.63123,-0.095596,-0.00372,0.0013799999999999,0.095596,0.00372,-0.00138,-0.256124,-0.02682,-0.45099,0.102226,-0.0682599999999999,-0.47812,-0.195814,-0.39542,-0.28609,0.139666,-0.42374,-0.29464,1
172,-0.033828,0.6964999999999999,-0.396835,-0.1796999999999999,0.52842,-0.313695,-0.34323,0.6447499999999999,-0.524575,0.1253099999999999,0.5325719999999999,-0.306435,0.30136,0.6557599999999999,-0.458855,-0.32738,0.8365,-0.7056150000000001,0.28786,0.87822,-0.6300950000000001,-0.09571,-0.00359,0.001255,0.09571,0.0035899999999999,-0.001255,-0.25577,-0.03556,-0.450895,0.10479,-0.0764,-0.476375,-0.19868,-0.40459,-0.293135,0.1408499999999999,-0.43329,-0.295855,1
173,-0.033593,0.700665,-0.3963649999999999,-0.179863,0.529832,-0.311805,-0.3429629999999999,0.647655,-0.524965,0.125107,0.533176,-0.304825,0.301777,0.658545,-0.4576949999999999,-0.327413,0.842085,-0.705055,0.287967,0.880795,-0.628825,-0.095897,-0.0036849999999999,0.001055,0.095897,0.0036849999999999,-0.001055,-0.255263,-0.0442549999999999,-0.450845,0.107537,-0.084095,-0.474645,-0.2013829999999999,-0.4140549999999999,-0.300155,0.142027,-0.4444049999999999,-0.303995,1
174,-0.033448,0.70447,-0.394885,-0.179828,0.5314920000000001,-0.309545,-0.342458,0.65154,-0.525285,0.125182,0.534386,-0.303025,0.301392,0.6614500000000001,-0.456445,-0.327298,0.84691,-0.704505,0.2879919999999999,0.88382,-0.627455,-0.0959319999999999,-0.0036599999999999,0.0007449999999999,0.0959319999999999,0.00366,-0.0007449999999999,-0.254438,-0.05234,-0.4506949999999999,0.110322,-0.09165,-0.4725749999999999,-0.204178,-0.42372,-0.307265,0.142962,-0.4554699999999999,-0.312965,1
175,-0.0329245,0.70777,-0.39285,-0.1791085,0.534107,-0.30682,-0.3417584999999999,0.65557,-0.52483,0.1255915,0.535733,-0.30088,0.3027115,0.66418,-0.45556,-0.3268884999999999,0.8511200000000001,-0.70217,0.2882515,0.88707,-0.62547,-0.0959015,-0.0035499999999999,0.0003299999999999,0.0959015,0.0035499999999999,-0.0003299999999999,-0.2534185,-0.0617099999999999,-0.45029,0.1137415,-0.1000699999999999,-0.47017,-0.2070085,-0.4344399999999999,-0.31471,0.1434315,-0.46726,-0.31947,1
176,-0.0322005,0.71124,-0.3899,-0.1784605,0.53648,-0.30396,-0.3413305,0.65991,-0.52275,0.1259394999999999,0.53596,-0.299,0.3041695,0.66727,-0.45465,-0.3265105,0.85614,-0.6994800000000001,0.2886195,0.8916,-0.62323,-0.0958395,-0.00318,-0.00015,0.0958395,0.00318,0.0001499999999999,-0.2523705,-0.07005,-0.4499,0.1169595,-0.10804,-0.46751,-0.2100705,-0.4444399999999999,-0.32239,0.1435095,-0.47861,-0.32619,1
177,-0.031459,0.7144699999999999,-0.3864649999999999,-0.1777949999999999,0.5373600000000001,-0.3012049999999999,-0.340905,0.66754,-0.520355,0.126285,0.53609,-0.297085,0.3055449999999999,0.6704600000000001,-0.453375,-0.326045,0.8632200000000001,-0.696685,0.288945,0.897,-0.620485,-0.095725,-0.0030799999999999,-0.0005349999999999,0.095725,0.00308,0.000535,-0.251285,-0.0781899999999999,-0.449575,0.120005,-0.1157099999999999,-0.4648049999999999,-0.2129349999999999,-0.4540299999999999,-0.330175,0.143565,-0.4895499999999999,-0.333265,1
178,-0.030955,0.718195,-0.38195,-0.177301,0.540205,-0.29722,-0.340761,0.6748149999999999,-0.51733,0.127269,0.539795,-0.29384,0.3062089999999999,0.673945,-0.45102,-0.325881,0.868035,-0.6924999999999999,0.288869,0.901635,-0.61693,-0.095619,-0.0030749999999999,-0.0010599999999999,0.095619,0.0030749999999999,0.00106,-0.250621,-0.0873649999999999,-0.4480599999999999,0.1226889999999999,-0.124695,-0.46135,-0.213191,-0.4645549999999999,-0.33048,0.144629,-0.500685,-0.33882,1
179,-0.0304255,0.72043,-0.3762,-0.1769015,0.54178,-0.29274,-0.3404415,0.6781,-0.51325,0.1284785,0.54191,-0.2899899999999999,0.3065084999999999,0.67683,-0.4481,-0.3255715,0.87256,-0.68716,0.2885085,0.90296,-0.61281,-0.0955185,-0.0030599999999999,-0.0014699999999999,0.0955185,0.00306,0.0014699999999999,-0.2500715,-0.0982899999999999,-0.4455,0.1252485,-0.1348499999999999,-0.45752,-0.2136715,-0.4763199999999999,-0.32994,0.1455185,-0.51328,-0.34338,1
180,-0.0297545,0.72421,-0.370505,-0.1768665,0.5431400000000001,-0.288445,-0.3403365,0.68167,-0.5094650000000001,0.1296535,0.5421,-0.286305,0.3065235,0.68145,-0.444895,-0.3252465,0.87834,-0.6816150000000001,0.2878735,0.90645,-0.608615,-0.0953335,-0.0028499999999999,-0.001835,0.0953335,0.00285,0.001835,-0.2495264999999999,-0.1075399999999999,-0.442955,0.1276935,-0.1434999999999999,-0.454145,-0.2143364999999999,-0.48641,-0.329455,0.1462435,-0.52406,-0.3476749999999999,1
181,-0.0291375,0.7266699999999999,-0.363575,-0.1769575,0.5459700000000001,-0.283605,-0.3400175,0.6855800000000001,-0.504165,0.1310725,0.54462,-0.281955,0.3059325,0.6847799999999999,-0.440295,-0.3249875,0.88283,-0.674975,0.2870925,0.91031,-0.602855,-0.0950925,-0.00272,-0.002005,0.0950925,0.00272,0.002005,-0.2488075,-0.11829,-0.439625,0.1302225,-0.15387,-0.450145,-0.2151375,-0.49822,-0.3282049999999999,0.1469125,-0.53674,-0.351925,1
182,-0.0285435,0.7280599999999999,-0.3561499999999999,-0.1770415,0.54828,-0.27832,-0.3398315,0.68967,-0.50028,0.1325684999999999,0.54769,-0.27707,0.3053984999999999,0.68767,-0.43491,-0.3247115,0.88551,-0.66728,0.2863985,0.914,-0.59513,-0.0947685,-0.00262,-0.00206,0.0947685,0.00262,0.00206,-0.2480915,-0.13029,-0.43576,0.1323685,-0.1657,-0.44514,-0.2158915,-0.51112,-0.32613,0.1472585,-0.55037,-0.3483699999999999,1
183,-0.0276735,0.730875,-0.348295,-0.1766995,0.5507550000000001,-0.273215,-0.3393995,0.694505,-0.494435,0.1340205,0.5516150000000001,-0.272075,0.3055405,0.691015,-0.429035,-0.3241795,0.8897550000000001,-0.6588750000000001,0.2856905,0.918615,-0.587375,-0.0943805,-0.0025349999999999,-0.002015,0.0943805,0.002535,0.0020149999999999,-0.2472195,-0.1423449999999999,-0.431645,0.1343005,-0.177315,-0.439655,-0.2165695,-0.5237649999999999,-0.323645,0.1476105,-0.563865,-0.347135,1
184,-0.0266905,0.735575,-0.34063,-0.1762835,0.554035,-0.26828,-0.3391734999999999,0.699715,-0.4889,0.1356165,0.555975,-0.26725,0.3058265,0.6954549999999999,-0.42314,-0.3236535,0.8950450000000001,-0.65091,0.2847465,0.927685,-0.57986,-0.0938965,-0.0026249999999999,-0.00178,0.0938965,0.0026249999999999,0.00178,-0.2464035,-0.154925,-0.42749,0.1358865,-0.189015,-0.43415,-0.2173535,-0.5363549999999999,-0.3204,0.1478064999999999,-0.5764549999999999,-0.34474,1
185,-0.0254789999999999,0.73927,-0.33348,-0.175619,0.55712,-0.26276,-0.338699,0.70666,-0.4829,0.137351,0.56108,-0.26167,0.306321,0.6995,-0.41696,-0.3230389999999999,0.8995299999999999,-0.64269,0.284141,0.93467,-0.57221,-0.093411,-0.0027,-0.0015499999999999,0.093411,0.0026999999999999,0.0015499999999999,-0.2454589999999999,-0.16836,-0.4226299999999999,0.137391,-0.2016,-0.42793,-0.217999,-0.54979,-0.31596,0.148411,-0.58958,-0.34034,1
186,-0.0243235,0.744505,-0.32596,-0.1747885,0.5619350000000001,-0.2567,-0.3382684999999999,0.710095,-0.47617,0.1391615,0.567305,-0.25557,0.3068515,0.705015,-0.41024,-0.3219285,0.904635,-0.63295,0.2838515,0.940495,-0.5645,-0.0930415,-0.0026149999999999,-0.0012999999999999,0.0930415,0.002615,0.0012999999999999,-0.2445185,-0.181925,-0.41694,0.1391315,-0.214495,-0.42139,-0.2186685,-0.563785,-0.31107,0.1490915,-0.602625,-0.33326,1
187,-0.0234775,0.75011,-0.3188649999999999,-0.1744355,0.5645899999999999,-0.251125,-0.3380455,0.71532,-0.469905,0.1399045,0.56975,-0.250275,0.3071745,0.70766,-0.404095,-0.3210955,0.91072,-0.6236349999999999,0.2835745,0.94722,-0.556755,-0.0927244999999999,-0.0025399999999999,-0.000835,0.0927244999999999,0.0025399999999999,0.000835,-0.2436355,-0.19401,-0.410325,0.1404544999999999,-0.22612,-0.415025,-0.2198155,-0.57725,-0.307655,0.1495345,-0.61445,-0.328005,1
188,-0.022303,0.7557,-0.3127,-0.173678,0.56797,-0.24556,-0.337488,0.7195499999999999,-0.4635,0.140942,0.5724899999999999,-0.24507,0.308012,0.71181,-0.39831,-0.319908,0.91663,-0.61469,0.283612,0.95209,-0.5485800000000001,-0.092482,-0.00224,-0.00049,0.092482,0.0022399999999999,0.00049,-0.242258,-0.2064,-0.40321,0.141892,-0.23756,-0.40852,-0.220728,-0.59087,-0.30406,0.150462,-0.62633,-0.32296,1
189,-0.0209635,0.760365,-0.3058,-0.1727965,0.572675,-0.23909,-0.3367065,0.7232050000000001,-0.45525,0.1421535,0.5771250000000001,-0.23909,0.3088835,0.715525,-0.39197,-0.3186065,0.922285,-0.60522,0.2836935,0.957825,-0.53952,-0.0920935,-0.0018149999999999,-6.0000000000004494e-05,0.0920935,0.001815,5.9999999999990616e-05,-0.2407365,-0.2190849999999999,-0.3963,0.1431535,-0.2494349999999999,-0.40122,-0.2215764999999999,-0.603555,-0.29993,0.1515135,-0.638815,-0.31708,1
190,-0.019767,0.76563,-0.29877,-0.172095,0.57456,-0.23316,-0.335655,0.7285699999999999,-0.44699,0.143085,0.57938,-0.23371,0.3091049999999999,0.72105,-0.3853,-0.317195,0.93016,-0.5963,0.283875,0.96362,-0.53168,-0.091895,-0.0015499999999999,0.00013,0.091895,0.0015499999999999,-0.00013,-0.239485,-0.22994,-0.38964,0.143815,-0.25955,-0.39441,-0.222465,-0.61451,-0.29634,0.152755,-0.64964,-0.3129,1
191,-0.018205,0.76949,-0.290501,-0.1707739999999999,0.5793699999999999,-0.226851,-0.334354,0.73282,-0.438181,0.144686,0.58237,-0.2271909999999999,0.309396,0.7255199999999999,-0.378401,-0.315584,0.9375,-0.586771,0.284766,0.96868,-0.523501,-0.091686,-0.0009799999999999,0.000264,0.091686,0.00098,-0.000264,-0.238184,-0.24129,-0.382471,0.144646,-0.2703199999999999,-0.3864209999999999,-0.223404,-0.62595,-0.292181,0.153106,-0.6609099999999999,-0.305591,1
192,-0.0165584999999999,0.771765,-0.2823434999999999,-0.1693204999999999,0.583465,-0.2207734999999999,-0.3327504999999999,0.737175,-0.4294935,0.1467195,0.586035,-0.2209835,0.3099895,0.729785,-0.3721235,-0.3140905,0.945135,-0.5776535,0.2859294999999999,0.974035,-0.5151535,-0.0914995,-0.000615,0.0004185,0.0914995,0.000615,-0.0004185,-0.2367405,-0.250715,-0.3754035,0.1455495,-0.280945,-0.3781934999999999,-0.2245805,-0.636725,-0.2888635,0.1544095,-0.671845,-0.2996735,1
193,-0.0146565,0.77247,-0.2737374999999999,-0.1678445,0.58584,-0.2145875,-0.3309145,0.7412399999999999,-0.4206075,0.1488855,0.58887,-0.2151874999999999,0.3115655,0.73516,-0.3662674999999999,-0.3127845,0.95185,-0.5686775,0.2877155,0.97751,-0.5069975,-0.0912455,-0.0001899999999999,0.0004495,0.0912455,0.0001899999999999,-0.0004494999999999,-0.2351645,-0.2598499999999999,-0.3686675,0.1465955,-0.29184,-0.3693275,-0.2251945,-0.6472500000000001,-0.2858374999999999,0.1559954999999999,-0.68363,-0.2972574999999999,1
194,-0.0129174999999999,0.773725,-0.265291,-0.1665885,0.5882350000000001,-0.208781,-0.3292684999999999,0.743455,-0.411791,0.1510215,0.590785,-0.209011,0.3135815,0.740565,-0.360641,-0.3116485,0.958695,-0.560071,0.2895315,0.981735,-0.499131,-0.0909114999999999,0.0002449999999999,0.0004959999999999,0.0909114999999999,-0.0002449999999999,-0.000496,-0.2335685,-0.268125,-0.3620609999999999,0.1475815,-0.3019849999999999,-0.360561,-0.2258885,-0.657285,-0.282761,0.1575415,-0.694875,-0.294511,1
195,-0.011096,0.77215,-0.255734,-0.165063,0.59055,-0.202984,-0.327463,0.74528,-0.403134,0.153147,0.59318,-0.203054,0.315617,0.74312,-0.355114,-0.310953,0.96154,-0.552654,0.291647,0.9848,-0.491384,-0.090717,0.0007199999999999,0.000577,0.090717,-0.0007199999999999,-0.0005769999999999,-0.231673,-0.27793,-0.354424,0.148597,-0.31289,-0.351534,-0.225703,-0.66876,-0.278174,0.158947,-0.70653,-0.289884,1
196,-0.0090645,0.7688349999999999,-0.245937,-0.1634025,0.592775,-0.197577,-0.3255424999999999,0.747145,-0.395007,0.1554775,0.595345,-0.197477,0.3179675,0.747355,-0.349867,-0.3099925,0.964215,-0.545457,0.2943275,0.988505,-0.484247,-0.0904475,0.001065,0.000602,0.0904475,-0.0010649999999999,-0.0006019999999999,-0.2294825,-0.2881749999999999,-0.3467469999999999,0.1505574999999999,-0.321375,-0.342227,-0.2250825,-0.6805749999999999,-0.273097,0.1610875,-0.715795,-0.285387,1
197,-0.007195,0.7657,-0.2367615,-0.161877,0.59485,-0.1926115,-0.323627,0.7495799999999999,-0.3875515,0.157813,0.59836,-0.1921815,0.320053,0.75088,-0.3445915,-0.308897,0.96694,-0.5389015,0.296993,0.99216,-0.4778415,-0.090043,0.0012,0.0004904999999999,0.090043,-0.0012,-0.0004905,-0.227587,-0.29781,-0.3385915,0.151313,-0.33157,-0.3331415,-0.224467,-0.6917899999999999,-0.2684215,0.161693,-0.7244299999999999,-0.2810515,1
198,-0.005391,0.7635700000000001,-0.2275615,-0.160427,0.5945499999999999,-0.1881014999999999,-0.321897,0.7510600000000001,-0.3808715,0.160073,0.59868,-0.1873715,0.3221929999999999,0.7530999999999999,-0.3397015,-0.307737,0.96826,-0.5326815,0.299873,0.99363,-0.4716515,-0.089613,0.0014499999999999,-6.549999999999612e-05,0.089613,-0.00145,6.550000000001e-05,-0.225097,-0.3097,-0.3282715,0.152183,-0.34332,-0.3221715,-0.223577,-0.70513,-0.2636015,0.161683,-0.73716,-0.2748015,1
199,-0.0037694999999999,0.762105,-0.2209945,-0.1589684999999999,0.595405,-0.1837045,-0.3205885,0.751895,-0.3749545,0.1622615,0.5995349999999999,-0.1826345,0.3243115,0.7554449999999999,-0.3350945,-0.3065985,0.971805,-0.5264245000000001,0.3022315,0.995445,-0.4655645,-0.0890815,0.001695,-0.0005345,0.0890815,-0.001695,0.0005344999999999,-0.2226584999999999,-0.321415,-0.3170745,0.1528815,-0.354855,-0.3100144999999999,-0.2227384999999999,-0.717975,-0.2582945,0.1623715,-0.7496449999999999,-0.2676745,1
200,-0.0024295,0.76127,-0.2153415,-0.1580245,0.59663,-0.1795514999999999,-0.3200545,0.75291,-0.3697915,0.1639854999999999,0.59807,-0.1791615,0.3263355,0.75847,-0.3312515,-0.3056245,0.9744,-0.5212615,0.3040755,1.00143,-0.4602815,-0.0884955,0.00184,-0.0008024999999999,0.0884955,-0.00184,0.0008024999999999,-0.2197545,-0.33315,-0.3039615,0.1530655,-0.3662499999999999,-0.2920915,-0.2221745,-0.7308,-0.2517614999999999,0.1624054999999999,-0.76185,-0.2563915,1
201,-0.0011174999999999,0.760645,-0.210152,-0.1569134999999999,0.598435,-0.175612,-0.3194435,0.754645,-0.365122,0.1656865,0.597835,-0.174712,0.3285365,0.762405,-0.327292,-0.3045135,0.976745,-0.516192,0.3059565,1.006405,-0.4554519999999999,-0.0878964999999999,0.002155,-0.001009,0.0878964999999999,-0.002155,0.0010089999999999,-0.2162234999999999,-0.345225,-0.289212,0.1531265,-0.377705,-0.275032,-0.2204634999999999,-0.742875,-0.243142,0.1632265,-0.7709250000000001,-0.245502,1
202,5.9500000000000525e-05,0.7677849999999999,-0.205372,-0.1558935,0.600305,-0.171982,-0.3185135,0.757625,-0.360992,0.1663365,0.599085,-0.171282,0.3301165,0.765185,-0.323322,-0.3037435,0.979305,-0.510992,0.3077065,1.008535,-0.450422,-0.0873665,0.002485,-0.001279,0.0873665,-0.002485,0.001279,-0.2125135,-0.356035,-0.273412,0.1527865,-0.388015,-0.258652,-0.2184235,-0.7513850000000001,-0.232712,0.1638865,-0.778545,-0.233302,1
203,0.0011835,0.7757625,-0.200718,-0.1549944999999999,0.6027325,-0.168268,-0.3180245,0.7622125000000001,-0.356838,0.1669054999999999,0.6012125,-0.167708,0.3313255,0.7677525000000001,-0.318988,-0.3032645,0.9821625,-0.505208,0.3092755,1.0109825,-0.444908,-0.0868655,0.0027174999999999,-0.0014049999999999,0.0868655,-0.0027175,0.001405,-0.2085345,-0.3666175,-0.256308,0.1523054999999999,-0.3985975,-0.2415479999999999,-0.2163844999999999,-0.7599075,-0.221488,0.1640154999999999,-0.7891175,-0.224968,1
204,0.0023085,0.7843445,-0.1900985,-0.1542735,0.6028845,-0.1583085,-0.3176635,0.7666245,-0.3462285,0.1674965,0.6019845,-0.1578284999999999,0.3324265,0.7708745,-0.3084685,-0.3026335,0.9857145,-0.4926585,0.3105765,1.0140045,-0.4324685,-0.0863565,0.0030504999999999,-0.0014784999999999,0.0863565,-0.0030504999999999,0.0014785,-0.2044135,-0.3774355,-0.2285485,0.1501064999999999,-0.4083455,-0.2116684999999999,-0.2134134999999999,-0.7692454999999999,-0.1981585,0.1627765,-0.7953155,-0.2052685,1
205,0.0032955,0.7924935,-0.1788855,-0.1535785,0.6047035000000001,-0.1482055,-0.3173885,0.7693435,-0.3337455,0.1680515,0.6037435,-0.1475755,0.3331615,0.7711135,-0.2968255,-0.3021185,0.9892535,-0.4791755,0.3115815,1.0159735,-0.4190755,-0.0861015,0.0033185,-0.0015524999999999,0.0861015,-0.0033185,0.0015524999999999,-0.1965285,-0.3890065,-0.1976955,0.1471515,-0.4181865,-0.1819454999999999,-0.2066785,-0.7780365,-0.1736555,0.1632915,-0.8032064999999999,-0.1884855,1
206,0.0042285,0.8008679999999999,-0.1680705,-0.1530004999999999,0.6066480000000001,-0.1381205,-0.3171704999999999,0.7720480000000001,-0.3213305,0.1686195,0.605448,-0.1373605,0.3338695,0.771998,-0.2845305,-0.3014005,0.993438,-0.4643805,0.3120295,1.018758,-0.4048805,-0.0858194999999999,0.0036659999999999,-0.0015835,0.0858194999999999,-0.003666,0.0015834999999999,-0.1885804999999999,-0.400152,-0.1677705,0.1439595,-0.427692,-0.1522804999999999,-0.2000805,-0.7863519999999999,-0.1495604999999999,0.1619895,-0.808352,-0.1698105,1
207,0.0052499999999999,0.808165,-0.157143,-0.1527929999999999,0.610195,-0.128153,-0.316933,0.7756350000000001,-0.308803,0.169227,0.608155,-0.127093,0.334607,0.7743450000000001,-0.272243,-0.300403,0.999195,-0.448943,0.312237,1.022975,-0.390433,-0.085547,0.004004,-0.00132,0.085547,-0.0040039999999999,0.0013199999999999,-0.1812129999999999,-0.409115,-0.140323,0.140407,-0.4354949999999999,-0.124793,-0.193883,-0.792365,-0.127653,0.161957,-0.815225,-0.155663,1
208,0.006023,0.8150095,-0.1458835,-0.152464,0.6128095,-0.1180335,-0.316884,0.7787495,-0.2959935,0.169646,0.6118695,-0.1166735,0.335316,0.7759695,-0.2597735,-0.299334,1.0012395,-0.4331335,0.3122359999999999,1.0269095,-0.3752635,-0.0852759999999999,0.0043645,-0.0011324999999999,0.0852759999999999,-0.0043644999999999,0.0011324999999999,-0.174154,-0.4180605,-0.1136135,0.135806,-0.4463804999999999,-0.0984454999999999,-0.1882339999999999,-0.7977905,-0.1062495,0.159716,-0.8218405,-0.1380035,1
209,0.0067494999999999,0.8227869999999999,-0.13459,-0.1521155,0.6128669999999999,-0.10812,-0.3168055,0.783247,-0.28286,0.1701045,0.616597,-0.1060899999999999,0.3361045,0.778227,-0.24708,-0.2984155,1.004147,-0.41656,0.3123745,1.027607,-0.35939,-0.0851745,0.004582,-0.001059,0.0851745,-0.0045819999999999,0.001059,-0.1676255,-0.425193,-0.0892029999999999,0.1327645,-0.452513,-0.078083,-0.1829754999999999,-0.801303,-0.087197,0.1589745,-0.828893,-0.12742,1
210,0.0073405,0.8304145,-0.122264,-0.1520075,0.6128445,-0.097764,-0.3165774999999999,0.7868845,-0.268514,0.1703225,0.6193345,-0.095484,0.3366025,0.7796745,-0.233784,-0.2977775,1.0066745,-0.399084,0.3122225,1.0286045,-0.342204,-0.0851625,0.0047585,-0.001026,0.0851625,-0.0047584999999999,0.001026,-0.1618475,-0.4316855,-0.066025,0.1296624999999999,-0.4590054999999999,-0.057342,-0.1785975,-0.8049855,-0.069734,0.1586024999999999,-0.8366955,-0.117394,1
