sb224sc-HT22-VT27/4dt907/src/data/labeled_files/A81_kinect.csv
FrameNo,nose_3d_x,nose_3d_y,nose_3d_z,left_shoulder_3d_x,left_shoulder_3d_y,left_shoulder_3d_z,left_elbow_3d_x,left_elbow_3d_y,left_elbow_3d_z,right_shoulder_3d_x,right_shoulder_3d_y,right_shoulder_3d_z,right_elbow_3d_x,right_elbow_3d_y,right_elbow_3d_z,left_wrist_3d_x,left_wrist_3d_y,left_wrist_3d_z,right_wrist_3d_x,right_wrist_3d_y,right_wrist_3d_z,left_hip_3d_x,left_hip_3d_y,left_hip_3d_z,right_hip_3d_x,right_hip_3d_y,right_hip_3d_z,left_knee_3d_x,left_knee_3d_y,left_knee_3d_z,right_knee_3d_x,right_knee_3d_y,right_knee_3d_z,left_ankle_3d_x,left_ankle_3d_y,left_ankle_3d_z,right_ankle_3d_x,right_ankle_3d_y,right_ankle_3d_z,activity_label
0,0.000975,0.8070035,0.1451515,-0.162265,0.5609735,0.0955495,-0.293895,0.7441935,-0.0758385,0.184855,0.5528835,0.0954325,0.322895,0.7169035,-0.0633885,-0.331685,0.9688835,-0.2259584999999999,0.341555,0.9207235,-0.2277384999999999,-0.08292,0.0050385,0.0003254999999999,0.08292,-0.0050385,-0.0003254999999999,-0.124775,-0.4194765,-0.0012934999999999,0.127075,-0.5138865,0.0259355,-0.111865,-0.8127665000000001,0.0265195,0.139065,-0.8603165,0.0083225,0
1,0.0014385,0.8011579999999999,0.142803,-0.1636405,0.559078,0.096286,-0.2876805,0.748508,-0.066957,0.1856095,0.555738,0.09766,0.3180195,0.728528,-0.047266,-0.3213105,0.976878,-0.206647,0.3383695,0.930408,-0.208787,-0.0823755,0.005749,0.0004269999999999,0.0823755,-0.005749,-0.000427,-0.1254104999999999,-0.423202,-0.00164,0.1252695,-0.487332,0.0249289999999999,-0.1126905,-0.8183320000000001,0.0259969999999999,0.1384895,-0.864912,0.0082469999999999,0
2,0.0025774999999999,0.8002425,0.13982,-0.1640204999999999,0.5574725,0.096296,-0.2797305,0.7735125,-0.0434139999999999,0.1855595,0.5551525,0.097909,0.3153195,0.7394025,-0.037717,-0.3101505,1.0313225,-0.1883699999999999,0.3335295,0.9534125,-0.1843699999999999,-0.0823625,0.0053885,0.000517,0.0823625,-0.0053885,-0.0005169999999999,-0.1255905,-0.4219175,-0.0023659999999999,0.1258395,-0.5055975,0.025146,-0.1127805,-0.8200075,0.026202,0.1377595,-0.8668875,0.00861,0
3,0.004016,0.791998,0.1374235,-0.164981,0.565828,0.0964185,-0.275371,0.773088,-0.0350285,0.186759,0.556658,0.0998725,0.312379,0.749628,-0.0269034999999999,-0.304871,1.031848,-0.1716035,0.330139,0.968838,-0.1616834999999999,-0.081706,0.006148,0.0015195,0.081706,-0.006148,-0.0015195,-0.124891,-0.424212,-0.0043404999999999,0.126849,-0.512492,0.0245565,-0.111971,-0.827662,0.0258935,0.1395989999999999,-0.8741720000000001,0.0081975,0
4,0.0039185,0.7889625,0.1358255,-0.1673855,0.5703525,0.0965715,-0.2695155,0.7934425,-0.0271615,0.1866845,0.5573225,0.1002075,0.3084045,0.7577425,-0.0185715,-0.2942255,1.0414125,-0.1445805,0.3275745,0.9767625,-0.1477204999999999,-0.0812625,0.0058975,0.0011865,0.0812625,-0.0058975,-0.0011865,-0.1255855,-0.4265874999999999,-0.0046925,0.1261445,-0.5134175,0.0238385,-0.1130154999999999,-0.8298675,0.0259795,0.1388445,-0.8771575,0.0082325,0
5,0.0038754999999999,0.7861695,0.1346325,-0.1682055,0.5700095,0.0969965,-0.2659655,0.8086995,-0.0203795,0.1860045,0.5593095,0.1016205,0.3054145,0.7779195,-0.0094865,-0.2855455,1.0615295,-0.1253035,0.3261644999999999,0.9826295,-0.1343134999999999,-0.0811425,0.0056305,0.0009585,0.0811425,-0.0056304999999999,-0.0009585,-0.1259455,-0.4297505,-0.0047955,0.1258745,-0.5145905,0.0231675,-0.1132655,-0.8321805,0.0261964999999999,0.1385945,-0.8805005,0.0079734999999999,0
6,0.0047425,0.7838115,0.1327705,-0.1681805,0.5691714999999999,0.0976785,-0.2602505,0.8104115,-0.0127835,0.1853095,0.5603315,0.1028155,0.3005695,0.7805215,-0.0034925,-0.2735805,1.0989315,-0.1022685,0.3229995,1.0036315,-0.1158685,-0.0812805,0.0055505,0.0012295,0.0812805,-0.0055505,-0.0012295,-0.1261805,-0.4305785,-0.0045784999999999,0.1253395,-0.5150385,0.0232204999999999,-0.1131205,-0.8357385,0.0268785,0.1390195,-0.8817685000000001,0.0089915,0
7,0.005343,0.7826755,0.1339385,-0.164486,0.5697055,0.0983955,-0.255136,0.8184055,-0.0072804999999999,0.185254,0.5588255,0.1036755,0.298914,0.7800755,0.0017005,-0.270916,1.0967755,-0.0994864999999999,0.322174,1.0021755,-0.1089265,-0.081008,0.0060704999999999,0.0012915,0.081008,-0.0060704999999999,-0.0012915,-0.125186,-0.4333345,-0.0045245,0.126114,-0.5132345,0.0225775,-0.112206,-0.8374145,0.0276645,0.138844,-0.8847245,0.0082975,0
8,0.0058159999999999,0.780766,0.1335405,-0.164372,0.5703159999999999,0.0987675,-0.250742,0.8245859999999999,-0.0015214999999999,0.185228,0.558076,0.1045484999999999,0.296358,0.784986,0.0076065,-0.2638919999999999,1.106966,-0.0854824999999999,0.320708,1.007966,-0.0976825,-0.080795,0.006148,0.0014564999999999,0.080795,-0.006148,-0.0014564999999999,-0.124952,-0.435434,-0.0046345,0.126138,-0.513914,0.0221765,-0.1120019999999999,-0.8397340000000001,0.0279655,0.139058,-0.8872340000000001,0.0081995,0
9,0.0062865,0.778992,0.1334285,-0.1641535,0.5703320000000001,0.0992214999999999,-0.2468435,0.828122,0.0035675,0.1851465,0.556902,0.1054505,0.2942365,0.788882,0.0130774999999999,-0.2577735,1.115732,-0.0738505,0.3195965,1.012832,-0.0873005,-0.0806515,0.006177,0.0015934999999999,0.0806515,-0.0061769999999999,-0.0015934999999999,-0.1246034999999999,-0.437768,-0.0046674999999999,0.1261765,-0.515718,0.0219115,-0.1117435,-0.841518,0.0283464999999999,0.1387165,-0.883558,0.0074074999999999,0
10,0.0067405,0.777769,0.133538,-0.1638785,0.570369,0.099639,-0.2433685,0.831059,0.0080189999999999,0.1850715,0.555369,0.106177,0.2924115,0.790669,0.0177079999999999,-0.2526385,1.123339,-0.06405,0.3187915,1.017239,-0.0781,-0.0805285,0.0062299999999999,0.0017169999999999,0.0805285,-0.0062299999999999,-0.001717,-0.1241385,-0.439761,-0.004729,0.1262115,-0.515841,0.0217179999999999,-0.1114285,-0.842991,0.028731,0.1384015,-0.8791410000000001,0.0066029999999999,0
11,0.0071089999999999,0.7768475,0.134006,-0.163407,0.5704874999999999,0.100128,-0.240117,0.8342075,0.012494,0.184973,0.5536274999999999,0.106884,0.291113,0.7921275,0.022128,-0.248817,1.1271875,-0.0561899999999999,0.318553,1.0192875,-0.070576,-0.080407,0.0063145,0.001793,0.080407,-0.0063144999999999,-0.0017929999999999,-0.123667,-0.4415325,-0.0047699999999999,0.1262329999999999,-0.5159325,0.021642,-0.111157,-0.8442325,0.029211,0.1380229999999999,-0.8742825000000001,0.005716,0
12,0.007493,0.776146,0.13448,-0.1628089999999999,0.570496,0.10062,-0.237539,0.835146,0.016219,0.184911,0.552126,0.107551,0.2903509999999999,0.793026,0.025931,-0.245269,1.128786,-0.048724,0.318571,1.020986,-0.0641859999999999,-0.080294,0.0063529999999999,0.00184,0.080294,-0.0063529999999999,-0.0018399999999999,-0.122959,-0.443874,-0.0047919999999999,0.126301,-0.5159739999999999,0.021714,-0.110849,-0.845274,0.029704,0.137681,-0.869154,0.004841,0
13,0.007904,0.7757035,0.134856,-0.162332,0.5705535,0.101004,-0.235352,0.8363735,0.019235,0.184868,0.5509335,0.108074,0.289918,0.7935335,0.029121,-0.2427419999999999,1.1305934999999998,-0.042936,0.318608,1.0220935,-0.059023,-0.080193,0.0064285,0.0018239999999999,0.080193,-0.0064284999999999,-0.0018239999999999,-0.122212,-0.4453465,-0.004822,0.126388,-0.5160365,0.021854,-0.110532,-0.8460765,0.030086,0.137948,-0.8702664999999999,0.004608,0
14,0.008266,0.7753059999999999,0.13524,-0.161913,0.570496,0.101396,-0.233593,0.836046,0.021704,0.184897,0.5499459999999999,0.108562,0.289737,0.793596,0.031761,-0.240923,1.130606,-0.039227,0.318657,1.022306,-0.0548209999999999,-0.0801109999999999,0.0064839999999999,0.001792,0.0801109999999999,-0.006484,-0.001792,-0.121473,-0.4467839999999999,-0.0048199999999999,0.126547,-0.515834,0.022216,-0.110233,-0.846734,0.030402,0.137547,-0.864734,0.0036069999999999,0
15,0.00868,0.774946,0.1357545,-0.1615339999999999,0.570346,0.1017235,-0.232264,0.8363360000000001,0.0234794999999999,0.185026,0.548726,0.1089055,0.289786,0.793316,0.0339735,-0.239654,1.1308859999999998,-0.0361164999999999,0.319136,1.022086,-0.0520025,-0.079969,0.006384,0.0018794999999999,0.079969,-0.006384,-0.0018794999999999,-0.120684,-0.447894,-0.0048144999999999,0.126686,-0.515604,0.0225594999999999,-0.1100039999999999,-0.847414,0.0306534999999999,0.137096,-0.8589739999999999,0.0032504999999999,0
16,0.0090915,0.774856,0.136307,-0.1611755,0.5701959999999999,0.10204,-0.2311655,0.837066,0.024922,0.1851545,0.547366,0.109202,0.2899045,0.792966,0.035739,-0.2389055,1.131596,-0.0343,0.3200945,1.0216960000000002,-0.050193,-0.0798204999999999,0.006232,0.001984,0.0798204999999999,-0.006232,-0.0019839999999999,-0.1200855,-0.448694,-0.0049599999999999,0.1268945,-0.515354,0.022906,-0.1098555,-0.847654,0.030822,0.1366045,-0.8527140000000001,0.002782,0
17,0.0093649999999999,0.7748244999999999,0.1369225,-0.160923,0.5699845,0.1022705,-0.230173,0.8372345,0.0262124999999999,0.185277,0.5460944999999999,0.1094315,0.290017,0.7926445,0.0370955,-0.238353,1.1317345,-0.0328025,0.321107,1.0214345,-0.0490305,-0.0797,0.0060954999999999,0.0020745,0.0797,-0.0060955,-0.0020745,-0.119573,-0.4490555,-0.0051015,0.126937,-0.5151555,0.0230204999999999,-0.109733,-0.8475755,0.0309454999999999,0.1368069999999999,-0.8530655,0.0030124999999999,0
18,0.0095255,0.774854,0.1375045,-0.1606505,0.569854,0.1024015,-0.2293705,0.837084,0.0271915,0.1854095,0.544664,0.1095325,0.2901395,0.792444,0.0379285,-0.2380605,1.131734,-0.0321255,0.3224695,1.021334,-0.0486565,-0.0796185,0.006038,0.0021665,0.0796185,-0.006038,-0.0021665,-0.1191404999999999,-0.449256,-0.0053085,0.1270395,-0.515036,0.0231865,-0.1096004999999999,-0.847776,0.0310385,0.1362695,-0.8463959999999999,0.0024544999999999,0
19,0.009653,0.774669,0.13809,-0.1603969999999999,0.5697490000000001,0.102501,-0.2285569999999999,0.835709,0.028117,0.185553,0.543489,0.109533,0.290423,0.792259,0.038462,-0.237777,1.130449,-0.031694,0.324013,1.021149,-0.048542,-0.079539,0.00599,0.002261,0.079539,-0.0059899999999999,-0.0022609999999999,-0.118797,-0.449431,-0.0055069999999999,0.127163,-0.514931,0.023247,-0.1094469999999999,-0.847961,0.031137,0.136323,-0.845691,0.002805,0
20,0.0097644999999999,0.7745075,0.1385655,-0.1601705,0.5696675,0.1025785,-0.2282105,0.8339175,0.0284145,0.1857195,0.5426275,0.1094695,0.2907395,0.7920975,0.0386375,-0.2374905,1.1286875,-0.0314905,0.3255395,1.0209875000000002,-0.0484585,-0.0794745,0.0059185,0.0023265,0.0794745,-0.0059185,-0.0023265,-0.1185605,-0.4504025,-0.0054475,0.1273095,-0.5147525,0.0233795,-0.1093205,-0.8481225,0.0312035,0.1363595,-0.8452525,0.0030065,0
21,0.0098735,0.7743455,0.139038,-0.1599565,0.5696055,0.102693,-0.2279165,0.8320655,0.028717,0.1858635,0.5419355,0.109428,0.2910635,0.7919055,0.038701,-0.2371965,1.1268254999999998,-0.031366,0.3270435,1.0208255,-0.048382,-0.0794145,0.0058454999999999,0.002388,0.0794145,-0.0058455,-0.002388,-0.1184465,-0.4511745,-0.005423,0.1275435,-0.5145744999999999,0.023603,-0.1091565,-0.8486545,0.031254,0.1371235,-0.8517345,0.0039729999999999,0
22,0.0099755,0.7742895,0.139413,-0.1597705,0.5695695,0.102825,-0.2276505,0.8306195,0.029003,0.1859795,0.5415895,0.109353,0.2914095,0.7917195,0.038754,-0.2370305,1.1253395000000002,-0.0313149999999999,0.3283795,1.0206395,-0.048587,-0.0793565,0.0057205,0.002437,0.0793565,-0.0057204999999999,-0.002437,-0.1182705,-0.4514405,-0.005372,0.1276795,-0.5147605,0.023912,-0.1090605,-0.8490805,0.031304,0.1371995,-0.8512705,0.004097,1
23,0.0099779999999999,0.774128,0.1396895,-0.159578,0.569488,0.1029245,-0.227518,0.831778,0.0288755,0.186112,0.541208,0.1092295,0.291772,0.791428,0.0387524999999999,-0.237018,1.126408,-0.0314985,0.329492,1.020308,-0.0491395,-0.0792799999999999,0.0055489999999999,0.0025204999999999,0.0792799999999999,-0.005549,-0.0025205,-0.1181379999999999,-0.451682,-0.0053765,0.127812,-0.514522,0.0241414999999999,-0.108918,-0.8495619999999999,0.0313704999999999,0.136592,-0.844792,0.0031754999999999,1
24,0.009851,0.7740684999999999,0.1397755,-0.159476,0.5694985,0.1029045,-0.227436,0.8333284999999999,0.0284965,0.186184,0.5409585,0.1089705,0.292064,0.7912085,0.0384905,-0.237106,1.1279685,-0.0319125,0.330424,1.0200685,-0.0501315,-0.0792539999999999,0.0054784999999999,0.0026624999999999,0.0792539999999999,-0.0054785,-0.0026624999999999,-0.1180259999999999,-0.4515915,-0.0055175,0.127884,-0.5144415,0.0242495,-0.1088359999999999,-0.8499815000000001,0.0313245,0.1372239999999999,-0.8511715000000001,0.0040815,1
25,0.0095844999999999,0.773814,0.139838,-0.1594155,0.569494,0.1028949999999999,-0.2273755,0.8337239999999999,0.0282179999999999,0.1862444999999999,0.5403739999999999,0.108649,0.2923345,0.790584,0.038048,-0.2371655,1.128364,-0.032374,0.3309645,1.0192640000000002,-0.0513,-0.0792355,0.005405,0.0028139999999999,0.0792355,-0.005405,-0.002814,-0.1179655,-0.452096,-0.005572,0.1279644999999999,-0.514346,0.0243499999999999,-0.1087655,-0.8507560000000001,0.031275,0.1379145,-0.8578760000000001,0.0050849999999999,1
26,0.0093134999999999,0.773522,0.139858,-0.1593485,0.569442,0.103024,-0.2274385,0.833802,0.028086,0.1862915,0.539832,0.108314,0.2926014999999999,0.7899320000000001,0.03753,-0.2372285,1.128392,-0.0331379999999999,0.3314015,1.018392,-0.052573,-0.0792205,0.005283,0.0029829999999999,0.0792205,-0.0052829999999999,-0.0029829999999999,-0.1180185,-0.451848,-0.0055979999999999,0.1280315,-0.514218,0.024366,-0.1086885,-0.851448,0.03124,0.1385715,-0.864738,0.005663,1
27,0.008989,0.773285,0.1397925,-0.159286,0.569445,0.1032905,-0.227576,0.8336749999999999,0.0280405,0.186334,0.5393249999999999,0.1079225,0.292864,0.789345,0.0369135,-0.237356,1.127965,-0.0339305,0.331694,1.017565,-0.0538445,-0.0791999999999999,0.0051949999999999,0.0031315,0.0791999999999999,-0.0051949999999999,-0.0031314999999999,-0.118066,-0.452045,-0.0055155,0.128104,-0.514105,0.0242365,-0.108626,-0.852255,0.0311225,0.139194,-0.872085,0.0061375,1
28,0.008657,0.773012,0.1397065,-0.1592259999999999,0.5694220000000001,0.1036555,-0.227826,0.8328420000000001,0.0281144999999999,0.1863739999999999,0.5388120000000001,0.1075645,0.293074,0.7887519999999999,0.0362694999999999,-0.237616,1.127032,-0.0345455,0.331944,1.016832,-0.0552255,-0.079177,0.005095,0.0032615,0.079177,-0.0050949999999999,-0.0032615,-0.118126,-0.452228,-0.0052794999999999,0.128154,-0.513998,0.0241704999999999,-0.108536,-0.852798,0.0310424999999999,0.139234,-0.872118,0.0063184999999999,1
29,0.0082469999999999,0.772927,0.1396255,-0.1592019999999999,0.569467,0.1040675,-0.228312,0.833277,0.0278464999999999,0.186408,0.538417,0.1071385,0.2932579999999999,0.788207,0.0355395,-0.238012,1.126867,-0.0348465,0.332208,1.016267,-0.0567115,-0.079159,0.0049929999999999,0.0034334999999999,0.079159,-0.0049929999999999,-0.0034334999999999,-0.118212,-0.452303,-0.0050774999999999,0.128118,-0.513903,0.0239195,-0.1084519999999999,-0.853283,0.0309254999999999,0.139108,-0.872483,0.0060544999999999,1
30,0.0079115,0.7728900000000001,0.139652,-0.1592325,0.5695600000000001,0.104579,-0.2289025,0.8328800000000001,0.027814,0.1864375,0.53813,0.106709,0.2934075,0.7877500000000001,0.034812,-0.2384925,1.12569,-0.0351279999999999,0.3324375,1.01589,-0.0581919999999999,-0.0791365,0.004947,0.003616,0.0791365,-0.004947,-0.003616,-0.1182624999999999,-0.45208,-0.0048669999999999,0.1280675,-0.51389,0.023699,-0.1083524999999999,-0.85356,0.030831,0.1390275,-0.8725999999999999,0.0056469999999999,1
31,0.007581,0.7728635,0.1397565,-0.1592879999999999,0.5696135,0.1051724999999999,-0.2297179999999999,0.8320035,0.0280024999999999,0.186482,0.5379135,0.1063254999999999,0.293522,0.7873535,0.0341335,-0.239108,1.1245335,-0.0354455,0.332632,1.0157335,-0.0595905,-0.079119,0.0048964999999999,0.0038064999999999,0.079119,-0.0048964999999999,-0.0038065,-0.1183279999999999,-0.4520865,-0.0046665,0.128062,-0.5138665,0.0235134999999999,-0.108188,-0.8538165,0.0307354999999999,0.139242,-0.8725265,0.0052904999999999,1
32,0.0072564999999999,0.7729495,0.1398714999999999,-0.1593915,0.5698195,0.1058585,-0.2307115,0.8320295,0.0283045,0.1865085,0.5378195,0.1059345,0.2935885,0.7870695,0.0334415,-0.2401515,1.1239895,-0.0358555,0.3328084999999999,1.0156895,-0.0610804999999999,-0.0791255,0.0049415,0.0039874999999999,0.0791255,-0.0049414999999999,-0.0039874999999999,-0.1184315,-0.4522105,-0.0046345,0.1281085,-0.5139104999999999,0.0235325,-0.1080215,-0.8539605,0.0305735,0.1392985,-0.8726705,0.0045434999999999,1
33,0.0069444999999999,0.7731819999999999,0.140011,-0.1595225,0.570062,0.106616,-0.2317525,0.831442,0.028771,0.1865375,0.5377919999999999,0.105547,0.2936475,0.7868419999999999,0.032777,-0.2413325,1.122782,-0.036037,0.3329175,1.015782,-0.062573,-0.0791465,0.005005,0.004042,0.0791465,-0.005005,-0.0040419999999999,-0.1183825,-0.453198,-0.004628,0.1282275,-0.513968,0.023495,-0.1078725,-0.8539380000000001,0.030367,0.1400874999999999,-0.879598,0.005008,1
34,0.0067454999999999,0.7732289999999999,0.1401495,-0.1596775,0.570119,0.1075005,-0.2327975,0.832309,0.0291255,0.1865825,0.537789,0.1051894999999999,0.2937125,0.786779,0.0322005,-0.2425275,1.122479,-0.0363485,0.3329925,1.016079,-0.0638705,-0.0791895,0.005007,0.0041554999999999,0.0791895,-0.0050069999999999,-0.0041554999999999,-0.1185075,-0.452951,-0.0047345,0.1282625,-0.513961,0.0233995,-0.1077775,-0.853781,0.0301315,0.1409225,-0.886381,0.0053894999999999,1
35,0.0065585,0.773273,0.1403065,-0.1598514999999999,0.5702130000000001,0.1082954999999999,-0.2336415,0.8330430000000001,0.0293135,0.1866385,0.537783,0.1048155,0.2937785,0.786813,0.0316665,-0.2435715,1.122773,-0.0366924999999999,0.3330685,1.016373,-0.0650235,-0.0792185,0.0050009999999999,0.0042485,0.0792185,-0.005001,-0.0042485,-0.1186115,-0.451837,-0.0048554999999999,0.1282685,-0.513967,0.0232645,-0.1076615,-0.8537469999999999,0.0298615,0.1418285,-0.8934369999999999,0.0059735,1
36,0.0064234999999999,0.773293,0.140477,-0.1600565,0.5703130000000001,0.108919,-0.2344065,0.833383,0.029425,0.1866835,0.5377930000000001,0.104446,0.2938035,0.786933,0.0311709999999999,-0.2444365,1.123173,-0.0370169999999999,0.3331335,1.016673,-0.066053,-0.0792565,0.0050009999999999,0.004318,0.0792565,-0.005001,-0.004318,-0.1187365,-0.450737,-0.00488,0.1282434999999999,-0.513967,0.023134,-0.1075764999999999,-0.8537469999999999,0.029529,0.1419935,-0.8937569999999999,0.0054859999999999,1
37,0.0063015,0.773599,0.140601,-0.1602595,0.570579,0.1094489999999999,-0.2351995,0.833869,0.0296579999999999,0.1867505,0.537999,0.104055,0.2937605,0.7872089999999999,0.030774,-0.2450995,1.124049,-0.037147,0.3331705,1.016949,-0.066689,-0.0792925,0.0050809999999999,0.0044119999999999,0.0792925,-0.005081,-0.0044119999999999,-0.1190094999999999,-0.449791,-0.004963,0.1282105,-0.514031,0.0230079999999999,-0.1074995,-0.853581,0.029183,0.1421805,-0.894201,0.0050909999999999,1
38,0.0062455,0.773619,0.1404385,-0.1605015,0.570579,0.1096705,-0.2359115,0.834109,0.0297894999999999,0.1868085,0.537999,0.1036535,0.2936385,0.7872089999999999,0.0302775,-0.2457915,1.124149,-0.0374105,0.3331485,1.017049,-0.0675615,-0.0793415,0.0050809999999999,0.0044755,0.0793415,-0.005081,-0.0044755,-0.1192015,-0.449161,-0.0050294999999999,0.1282785,-0.514031,0.0228614999999999,-0.1073615,-0.853521,0.0288835,0.1428785,-0.8996310000000001,0.0057574999999999,1
39,0.0062214999999999,0.773676,0.1401804999999999,-0.1606845,0.5705659999999999,0.1097534999999999,-0.2365045,0.834336,0.0297644999999999,0.1868854999999999,0.5379860000000001,0.1032555,0.2934755,0.787196,0.0298314999999999,-0.2463845,1.124136,-0.0375805,0.3329955,1.017136,-0.0681695,-0.0793764999999999,0.0050679999999999,0.0044854999999999,0.0793764999999999,-0.005068,-0.0044855,-0.1193645,-0.448064,-0.0051195,0.1284555,-0.514024,0.0227474999999999,-0.1072045,-0.8533740000000001,0.0285734999999999,0.1431955,-0.8982840000000001,0.0053824999999999,1
40,0.006214,0.773736,0.13982,-0.1608399999999999,0.5705760000000001,0.109701,-0.23686,0.834526,0.029397,0.18697,0.537966,0.102868,0.29328,0.787296,0.029359,-0.2468699999999999,1.124116,-0.037664,0.33271,1.017416,-0.06867,-0.079419,0.005048,0.004518,0.079419,-0.0050479999999999,-0.004518,-0.1195099999999999,-0.4471739999999999,-0.005121,0.1285899999999999,-0.514024,0.02256,-0.10704,-0.8532139999999999,0.028217,0.14348,-0.897114,0.0049739999999999,1
41,0.0061105,0.7740925,0.139486,-0.1610975,0.5710425,0.109518,-0.2373475,0.8339225,0.0292219999999999,0.1869124999999999,0.5383924999999999,0.102521,0.2928225,0.7880325,0.0289479999999999,-0.2470475,1.1234925,-0.0376149999999999,0.3322225,1.0182925,-0.069084,-0.0794505,0.0051785,0.004518,0.0794505,-0.0051784999999999,-0.004518,-0.1196474999999999,-0.4463175,-0.005074,0.1287724999999999,-0.5141775,0.0223099999999999,-0.1068175,-0.8532175,0.028265,0.1437925,-0.8965075,0.0053819999999999,1
42,0.0060189999999999,0.774428,0.139196,-0.161345,0.571468,0.109279,-0.237805,0.833188,0.0291579999999999,0.186855,0.538838,0.102229,0.2923249999999999,0.788898,0.0285919999999999,-0.247175,1.1232479999999998,-0.037605,0.331935,1.019448,-0.069434,-0.079489,0.0052989999999999,0.0045499999999999,0.079489,-0.0052989999999999,-0.00455,-0.119755,-0.445292,-0.004982,0.128895,-0.5143220000000001,0.0221179999999999,-0.106565,-0.853142,0.0283709999999999,0.144165,-0.896012,0.0057859999999999,1
43,0.0059119999999999,0.774731,0.1389735,-0.161595,0.571861,0.1089825,-0.238275,0.833031,0.0291994999999999,0.186695,0.539721,0.1020035,0.291825,0.789891,0.0283934999999999,-0.247285,1.123261,-0.0376645,0.331985,1.020461,-0.0696965,-0.079511,0.0053919999999999,0.0045204999999999,0.079511,-0.005392,-0.0045205,-0.1198549999999999,-0.444689,-0.0047285,0.129005,-0.514419,0.0221864999999999,-0.106345,-0.852969,0.0285194999999999,0.144535,-0.895939,0.0060994999999999,1
44,0.0057909999999999,0.774978,0.138736,-0.161825,0.572128,0.1086709999999999,-0.238705,0.833798,0.029107,0.1865049999999999,0.540798,0.101879,0.291385,0.791038,0.028205,-0.247375,1.123718,-0.037507,0.332105,1.021418,-0.069294,-0.079532,0.0054919999999999,0.0044739999999999,0.079532,-0.005492,-0.0044739999999999,-0.119915,-0.444422,-0.004512,0.1291149999999999,-0.514562,0.022229,-0.106105,-0.852642,0.0287219999999999,0.1447649999999999,-0.897292,0.0066039999999999,1
45,0.0056875,0.775383,0.138505,-0.1620365,0.572343,0.1083669999999999,-0.2391265,0.834283,0.0290319999999999,0.1862935,0.541983,0.101824,0.2912035,0.792223,0.0281759999999999,-0.2474464999999999,1.124003,-0.037165,0.3322035,1.022503,-0.068445,-0.0795545,0.005504,0.0044309999999999,0.0795545,-0.005504,-0.004431,-0.1199465,-0.444967,-0.004539,0.1292535,-0.514607,0.022257,-0.1060165,-0.852417,0.0289139999999999,0.1449635,-0.8987069999999999,0.0070549999999999,1
46,0.005579,0.7757560000000001,0.138258,-0.162247,0.572576,0.107963,-0.239467,0.8349960000000001,0.028925,0.186083,0.5432760000000001,0.101815,0.291283,0.7934760000000001,0.028504,-0.247757,1.123706,-0.0360959999999999,0.332273,1.023806,-0.0668319999999999,-0.079578,0.005546,0.004354,0.079578,-0.0055459999999999,-0.0043539999999999,-0.1199669999999999,-0.446364,-0.0045269999999999,0.129333,-0.514694,0.022336,-0.105927,-0.8521540000000001,0.029155,0.145163,-0.900104,0.007458,1
47,0.0054489999999999,0.776122,0.1379915,-0.162453,0.572702,0.1074705,-0.239963,0.835782,0.0288334999999999,0.185877,0.544602,0.1018825,0.291357,0.7947620000000001,0.0291724999999999,-0.248343,1.123492,-0.0348065,0.3325169999999999,1.025192,-0.0644085,-0.079597,0.005582,0.0042304999999999,0.079597,-0.0055819999999999,-0.0042305,-0.119993,-0.447408,-0.0043255,0.129307,-0.514788,0.0224434999999999,-0.105823,-0.851748,0.0294105,0.145357,-0.8998079999999999,0.0074994999999999,1
48,0.0052994999999999,0.7765115,0.1376965,-0.1627785,0.5728715,0.1069325,-0.2405585,0.8356015,0.0287045,0.1856815,0.5459415,0.1019505,0.2914315,0.7960615,0.0302415,-0.2491884999999999,1.1239515,-0.0333714999999999,0.3332815,1.0265515,-0.0615215,-0.0796365,0.0056094999999999,0.0041135,0.0796365,-0.0056095,-0.0041134999999999,-0.1201085,-0.4485384999999999,-0.0045924999999999,0.1292515,-0.5148785,0.0225175,-0.1057585,-0.8512385,0.0296415,0.1454615,-0.8995185,0.0077625,1
49,0.005085,0.7768955000000001,0.1373735,-0.163162,0.5730355,0.1062865,-0.241482,0.8349155,0.0287305,0.185458,0.5473455,0.1020255,0.291538,0.7973355000000001,0.0317155,-0.250512,1.1238255,-0.0319764999999999,0.334708,1.0280255,-0.0578254999999999,-0.0796669999999999,0.0056254999999999,0.0039035,0.0796669999999999,-0.0056255,-0.0039034999999999,-0.120262,-0.4496945,-0.0042484999999999,0.129208,-0.5149545,0.0225415,-0.1055919999999999,-0.8511544999999999,0.0297985,0.145498,-0.8992644999999999,0.0079675,1
50,0.0050435,0.777142,0.1371225,-0.1634045,0.573072,0.1058395,-0.2423145,0.835222,0.0287595,0.1853854999999999,0.548532,0.1021435,0.2919455,0.798442,0.0333395,-0.2523045,1.124912,-0.0306135,0.3368455,1.029212,-0.0535375,-0.0796895,0.0056179999999999,0.0037165,0.0796895,-0.005618,-0.0037164999999999,-0.1204244999999999,-0.449488,-0.0039914999999999,0.1292555,-0.514958,0.0225895,-0.1054545,-0.8507279999999999,0.0296055,0.1455455,-0.8991279999999999,0.0079705,1
51,0.0049845,0.777399,0.136888,-0.1638035,0.5730689999999999,0.1053969999999999,-0.2434935,0.835399,0.028609,0.1853165,0.549759,0.102308,0.2926265,0.799619,0.035178,-0.2552935,1.125809,-0.029475,0.3396865,1.029809,-0.048897,-0.0796955,0.0056149999999999,0.0035469999999999,0.0796955,-0.005615,-0.003547,-0.1205535,-0.4493209999999999,-0.003712,0.1292565,-0.514961,0.0226569999999999,-0.1053535,-0.850211,0.029425,0.1456765,-0.8990210000000001,0.0079009999999999,1
52,0.0049079999999999,0.777668,0.136649,-0.164211,0.573068,0.104929,-0.244771,0.8357180000000001,0.02806,0.185309,0.550578,0.102489,0.293559,0.800818,0.037117,-0.2585909999999999,1.126608,-0.0285389999999999,0.343469,1.030308,-0.044141,-0.0796939999999999,0.005614,0.003376,0.0796939999999999,-0.005614,-0.0033759999999999,-0.1205509999999999,-0.449312,-0.0034519999999999,0.129359,-0.514952,0.02246,-0.105271,-0.849992,0.029272,0.145679,-0.898932,0.007662,1
53,0.0048935,0.7777035,0.1365795,-0.1644245,0.5731035,0.1044305,-0.2461545,0.8353435,0.0281304999999999,0.1852955,0.5506335,0.1025814999999999,0.2949755,0.8008735,0.0393025,-0.2621544999999999,1.1259635,-0.0275575,0.3481355,1.0303635,-0.0397255,-0.0797084999999999,0.0056275,0.0032204999999999,0.0797084999999999,-0.0056275,-0.0032205,-0.1205845,-0.4504665,-0.0036675,0.1293455,-0.5150165,0.0222404999999999,-0.1054145,-0.8499365,0.0290505,0.1455354999999999,-0.8989665,0.0072774999999999,1
54,0.004864,0.7777485000000001,0.136517,-0.1645319999999999,0.5731085,0.103924,-0.247492,0.8344885000000001,0.02814,0.185258,0.5506885,0.102618,0.296588,0.8009285,0.04141,-0.265812,1.1249185,-0.026929,0.352938,1.0304185,-0.035553,-0.079737,0.0056425,0.0030729999999999,0.079737,-0.0056425,-0.0030729999999999,-0.120612,-0.4516315,-0.00388,0.129328,-0.5150615,0.021925,-0.105542,-0.8498815,0.028837,0.145418,-0.8989315,0.006749,1
55,0.0047969999999999,0.7777879999999999,0.1364495,-0.164647,0.573058,0.1033665,-0.248777,0.833518,0.0279815,0.185253,0.550738,0.1026515,0.298313,0.800978,0.0432025,-0.269157,1.123668,-0.0270904999999999,0.357643,1.030468,-0.0319914999999999,-0.079775,0.005663,0.0029225,0.079775,-0.005663,-0.0029225,-0.120677,-0.453192,-0.0038954999999999,0.129393,-0.515102,0.0217365,-0.105707,-0.849832,0.0286285,0.145223,-0.898752,0.0061105,1
56,0.0047789999999999,0.778206,0.136738,-0.164794,0.573006,0.102781,-0.249864,0.832616,0.027749,0.185356,0.551416,0.102945,0.300186,0.802046,0.045103,-0.272184,1.123106,-0.0273459999999999,0.362326,1.031006,-0.028733,-0.079823,0.005706,0.00275,0.079823,-0.0057059999999999,-0.0027499999999999,-0.120824,-0.453454,-0.0039869999999999,0.129346,-0.515164,0.021535,-0.105994,-0.849524,0.028087,0.144926,-0.897154,0.005636,1
57,0.0047389999999999,0.7783859999999999,0.1369615,-0.165014,0.5729259999999999,0.1021765,-0.2508539999999999,0.831626,0.0275335,0.185396,0.551916,0.1032505,0.301806,0.8029959999999999,0.0466545,-0.274844,1.122526,-0.0275804999999999,0.366606,1.031326,-0.0259634999999999,-0.079857,0.0057359999999999,0.0025855,0.079857,-0.005736,-0.0025854999999999,-0.120924,-0.453354,-0.0040634999999999,0.1292859999999999,-0.515274,0.0211905,-0.1063939999999999,-0.8492240000000001,0.0275505,0.1445459999999999,-0.8964840000000001,0.0051085,1
58,0.0046964999999999,0.7786105,0.1371785,-0.1652805,0.5728105,0.1016664999999999,-0.2514305,0.8314905,0.0271645,0.1853995,0.5523405,0.1035735,0.3031195,0.8039105,0.0478185,-0.2770805,1.1224505,-0.0277655,0.3702295,1.0312505,-0.0240515,-0.0798835,0.0057344999999999,0.0024764999999999,0.0798835,-0.0057345,-0.0024764999999999,-0.1207705,-0.4543495,-0.0042215,0.1291895,-0.5153195,0.0208485,-0.1068105,-0.8492595000000001,0.0270065,0.1441395,-0.8959495000000001,0.0044315,1
59,0.0046944999999999,0.7788434999999999,0.1373055,-0.1655454999999999,0.5726635,0.1011315,-0.2518255,0.8315035,0.0266814999999999,0.1853645,0.5527135,0.1038775,0.3042045,0.8047234999999999,0.0488544999999999,-0.2787255,1.1230635,-0.0282625,0.3731445,1.0312635,-0.0227765,-0.0799074999999999,0.0057285,0.0023754999999999,0.0799074999999999,-0.0057284999999999,-0.0023755,-0.1206454999999999,-0.4551365,-0.0044345,0.1290645,-0.5153665000000001,0.0205144999999999,-0.1072755,-0.8491965,0.0264284999999999,0.1436245,-0.8941965000000001,0.0037294999999999,1
60,0.0047069999999999,0.7790795,0.137427,-0.165705,0.5724595,0.100606,-0.252185,0.8317495,0.026111,0.185275,0.5530195,0.104161,0.305055,0.8054095,0.049709,-0.2790849999999999,1.1241495,-0.0292199999999999,0.375395,1.0310495,-0.021899,-0.079916,0.0056925,0.002267,0.079916,-0.0056924999999999,-0.0022669999999999,-0.120365,-0.4559705,-0.0048249999999999,0.1289949999999999,-0.5154105,0.020262,-0.107595,-0.8494305,0.025843,0.1427049999999999,-0.8875704999999999,0.0027569999999999,1
61,0.0047309999999999,0.7792675,0.13756,-0.1658,0.5722575,0.10001,-0.2526,0.8314575,0.025064,0.1851399999999999,0.5532975,0.104434,0.30569,0.8059875,0.050388,-0.27949,1.1247375,-0.0305069999999999,0.3768,1.0308375,-0.02121,-0.079928,0.0056604999999999,0.002186,0.079928,-0.0056604999999999,-0.002186,-0.12001,-0.4560925,-0.0055209999999999,0.12899,-0.5154525,0.01992,-0.10794,-0.8496425000000001,0.025277,0.14165,-0.8809525,0.001463,1
62,0.0048074999999999,0.779506,0.1376875,-0.1658754999999999,0.572096,0.0994714999999999,-0.2530155,0.831796,0.0239444999999999,0.1849845,0.553536,0.1047314999999999,0.3060945,0.806366,0.0509194999999999,-0.2799055,1.126036,-0.0319565,0.3775245,1.030636,-0.0206655,-0.0799344999999999,0.005634,0.0021234999999999,0.0799344999999999,-0.005634,-0.0021235,-0.1196355,-0.456974,-0.0062415,0.1289545,-0.515504,0.0194034999999999,-0.1083055,-0.849604,0.0247654999999999,0.1405945,-0.8742639999999999,0.0006974999999999,1
63,0.0048635,0.779736,0.137809,-0.1658185,0.5718759999999999,0.098938,-0.2531285,0.8318059999999999,0.0228129999999999,0.1847615,0.5537259999999999,0.105019,0.3063215,0.806596,0.0513899999999999,-0.2802385,1.125936,-0.033504,0.3778715,1.030536,-0.020206,-0.0799485,0.005611,0.0020549999999999,0.0799485,-0.0056109999999999,-0.002055,-0.1193785,-0.457804,-0.006966,0.1286915,-0.515564,0.0188839999999999,-0.1087185,-0.8494740000000001,0.0242649999999999,0.1400915,-0.873764,0.0004909999999999,1
64,0.00499,0.7798835,0.1379915,-0.1656669999999999,0.5717135,0.0984545,-0.252807,0.8318435,0.0218125,0.184523,0.5538434999999999,0.1052985,0.306403,0.8066734999999999,0.0518654999999999,-0.280017,1.1260135,-0.0348165,0.377943,1.0304135,-0.0197775,-0.07995,0.0055675,0.0019954999999999,0.07995,-0.0055674999999999,-0.0019955,-0.119167,-0.4587164999999999,-0.0077205,0.128333,-0.5156065,0.0184275,-0.109217,-0.8492265,0.0237794999999999,0.139583,-0.8732065,0.0004224999999999,1
65,0.0050325,0.7798495,0.138026,-0.1655665,0.5715295,0.09798,-0.2523164999999999,0.8314395,0.0208599999999999,0.1842035,0.5538795,0.105332,0.3062735,0.8067095,0.051995,-0.2793265,1.1255495,-0.036032,0.3776635,1.0304495,-0.019781,-0.0799405,0.0055314999999999,0.0019939999999999,0.0799405,-0.0055315,-0.001994,-0.1189065,-0.4602305,-0.008202,0.1279235,-0.5155705,0.018237,-0.1096164999999999,-0.8494705,0.023599,0.1385835,-0.8680405,-2.2000000000001185e-05,1
66,0.0051109999999999,0.7797940000000001,0.1380515,-0.165517,0.571374,0.0975275,-0.251737,0.8307439999999999,0.0201585,0.1839329999999999,0.553914,0.1053605,0.306143,0.8067439999999999,0.0520825,-0.278427,1.124884,-0.0370284999999999,0.377363,1.030484,-0.0197854999999999,-0.079935,0.005497,0.0019944999999999,0.079935,-0.0054969999999999,-0.0019944999999999,-0.1187169999999999,-0.462066,-0.0086605,0.127573,-0.515536,0.0180415,-0.1099769999999999,-0.8497859999999999,0.0234075,0.1376629999999999,-0.863056,-0.0008074999999999,1
67,0.0052114999999999,0.7797235,0.1380795,-0.1654215,0.5712335000000001,0.0970935,-0.2511115,0.8299035,0.0196585,0.1837085,0.5539335,0.1053905,0.3060485,0.8067435000000001,0.0521635,-0.2775315,1.1240035,-0.0379005,0.3770685,1.0305035,-0.0197865,-0.0799415,0.0054774999999999,0.0019934999999999,0.0799415,-0.0054775,-0.0019935,-0.1187715,-0.4627965,-0.0091125,0.1271785,-0.5155165,0.0178385,-0.1102915,-0.8500965,0.0232355,0.1371485,-0.8630365,-0.0009255,1
68,0.0052884999999999,0.779699,0.137946,-0.1653415,0.5710890000000001,0.096713,-0.2505115,0.830159,0.0189429999999999,0.1835085,0.5539890000000001,0.105417,0.3059385,0.806759,0.052201,-0.2766915,1.1242789999999998,-0.038644,0.3768085,1.030479,-0.019826,-0.0799485,0.0054109999999999,0.0019929999999999,0.0799485,-0.005411,-0.001993,-0.1188415,-0.463501,-0.009454,0.1269085,-0.515491,0.0176159999999999,-0.1104015,-0.850371,0.0231969999999999,0.1362385,-0.856831,-0.001458,1
69,0.005339,0.7797679999999999,0.1378675,-0.165262,0.571048,0.0964035,-0.250082,0.831028,0.0182125,0.183328,0.554028,0.1054695,0.305838,0.8067679999999999,0.0522534999999999,-0.276182,1.124738,-0.0393475,0.376558,1.030538,-0.0198745,-0.079969,0.00537,0.0019944999999999,0.079969,-0.00537,-0.0019945,-0.119042,-0.463542,-0.0097215,0.126498,-0.515522,0.0175864999999999,-0.1105019999999999,-0.850322,0.0233345,0.135298,-0.8506720000000001,-0.0017184999999999,1
70,0.0054254999999999,0.7798375,0.1378435,-0.1651955,0.5710075,0.0962165,-0.2497655,0.8318774999999999,0.0180285,0.1832145,0.5540474999999999,0.1055555,0.3057745,0.8067675,0.0523285,-0.2754655,1.1246975,-0.0395334999999999,0.3763645,1.0305975,-0.0199405,-0.0799805,0.0053295,0.0020055,0.0799805,-0.0053295,-0.0020055,-0.1192155,-0.4629025,-0.0098414999999999,0.1263145,-0.5155125,0.0174035,-0.1105355,-0.8503625,0.0234415,0.1357345,-0.8558525,-0.0008004999999999,1
71,0.0054735,0.7798045,0.137933,-0.1651415,0.5708845,0.096086,-0.2496715,0.8326844999999999,0.017841,0.1831285,0.5539845,0.105686,0.3057085,0.8066845,0.052459,-0.2750714999999999,1.1245745,-0.039581,0.3761685,1.0305745,-0.020047,-0.0799965,0.0052065,0.002044,0.0799965,-0.0052064999999999,-0.002044,-0.1193815,-0.4623254999999999,-0.009894,0.1261485,-0.5154155,0.017339,-0.1105615,-0.8504855,0.0235729999999999,0.1349885,-0.8498155000000001,-0.000861,1
72,0.0055704999999999,0.779791,0.137778,-0.1650915,0.570731,0.095783,-0.2496014999999999,0.832701,0.017661,0.1830685,0.554001,0.105684,0.3056184999999999,0.8066409999999999,0.052251,-0.2749115,1.123341,-0.0395699999999999,0.3760185,1.0304410000000002,-0.020595,-0.0799995,0.005095,0.0020149999999999,0.0799995,-0.0050949999999999,-0.002015,-0.1195115,-0.4619189999999999,-0.009932,0.1260085,-0.515349,0.017429,-0.1106715,-0.851309,0.023926,0.1348585,-0.850149,-0.000293,1
73,0.0056479999999999,0.7797419999999999,0.137649,-0.165106,0.570582,0.095542,-0.249656,0.832272,0.0176179999999999,0.183024,0.554012,0.105691,0.305534,0.806582,0.052026,-0.274956,1.1197020000000002,-0.039426,0.3759139999999999,1.030402,-0.021135,-0.080006,0.0049949999999999,0.0019929999999999,0.080006,-0.0049949999999999,-0.001993,-0.119676,-0.461868,-0.0098709999999999,0.1258739999999999,-0.515268,0.0176179999999999,-0.110746,-0.851798,0.024389,0.1347539999999999,-0.851368,0.0007489999999999,1
74,0.0056885,0.7795925,0.1375144999999999,-0.1651455,0.5704925,0.0954025,-0.2496955,0.8317525,0.0176405,0.1830244999999999,0.5540425,0.1056865,0.3054945,0.8065625,0.0517665,-0.2749955,1.1184925,-0.0393975,0.3757645,1.0303925,-0.0217424999999999,-0.0800155,0.0049174999999999,0.0019725,0.0800155,-0.0049175,-0.0019724999999999,-0.1197955,-0.4623975,-0.0097005,0.1257245,-0.5152075,0.0178055,-0.1107855,-0.8521375,0.0248755,0.1346244999999999,-0.8523475,0.0014785,1
75,0.0056915,0.779416,0.137388,-0.1651495,0.570426,0.095268,-0.2497095,0.830866,0.017717,0.1830405,0.554096,0.105676,0.3054905,0.8066059999999999,0.051465,-0.2750095,1.1173160000000002,-0.039174,0.3754105,1.030416,-0.0223939999999999,-0.0800265,0.0048609999999999,0.001954,0.0800265,-0.004861,-0.0019539999999999,-0.1198795,-0.463044,-0.0094779999999999,0.1255305,-0.515084,0.017993,-0.1108195,-0.852414,0.025357,0.1350705,-0.858764,0.002868,1
76,0.005694,0.7793625,0.1372155,-0.165152,0.5703524999999999,0.0951275,-0.249842,0.8311824999999999,0.0175934999999999,0.1830379999999999,0.5541524999999999,0.1056555,0.305488,0.8066325,0.0511385,-0.275002,1.1166325,-0.0392695,0.374948,1.0305325,-0.0231644999999999,-0.080026,0.0048284999999999,0.0019385,0.080026,-0.0048284999999999,-0.0019385,-0.120022,-0.4639675,-0.0092625,0.125348,-0.5149374999999999,0.0181715,-0.110852,-0.8528775000000001,0.0258575,0.135628,-0.8652975,0.0042505,1
77,0.0056964999999999,0.779248,0.1370155,-0.1651645,0.570378,0.0949885,-0.2499745,0.831098,0.0175604999999999,0.1830455,0.554228,0.1056315,0.3054154999999999,0.806658,0.0507515,-0.2750645,1.115958,-0.0392785,0.3741655,1.030658,-0.0239755,-0.0800255,0.004818,0.0018875,0.0800255,-0.004818,-0.0018875,-0.1202045,-0.4637819999999999,-0.0091525,0.1251955,-0.514482,0.0183494999999999,-0.1109045,-0.853412,0.0264564999999999,0.1362155,-0.871752,0.0056124999999999,1
78,0.005703,0.779173,0.1367865,-0.165223,0.570443,0.0948345,-0.250253,0.831463,0.0174615,0.183047,0.554323,0.1055745,0.305207,0.806713,0.0502455,-0.275273,1.114903,-0.0389314999999999,0.373167,1.030803,-0.0247784999999999,-0.080029,0.0048119999999999,0.0018375,0.080029,-0.004812,-0.0018374999999999,-0.120433,-0.463137,-0.0091054999999999,0.125047,-0.514487,0.0185795,-0.110933,-0.854017,0.0270545,0.136207,-0.872867,0.0061805,1
79,0.0057019999999999,0.779153,0.1365175,-0.165265,0.570503,0.0947155,-0.2506049999999999,0.831843,0.0172975,0.183085,0.554433,0.1055015,0.304855,0.806793,0.0497195,-0.275225,1.110063,-0.0386114999999999,0.371925,1.030863,-0.0255514999999999,-0.080041,0.004796,0.0017894999999999,0.080041,-0.004796,-0.0017894999999999,-0.120655,-0.4620269999999999,-0.0091245,0.124895,-0.514487,0.0187785,-0.110915,-0.854487,0.0276045,0.136265,-0.874007,0.0059435,1
80,0.0056644999999999,0.77926,0.1362185,-0.1653855,0.57066,0.0945854999999999,-0.2509955,0.83245,0.0171844999999999,0.1831445,0.55463,0.1053905,0.3043745,0.80698,0.0492074999999999,-0.2753855,1.11021,-0.0382835,0.3705045,1.03111,-0.0262205,-0.0800525,0.0048739999999999,0.0016974999999999,0.0800525,-0.004874,-0.0016975,-0.1209855,-0.46099,-0.0091345,0.1248245,-0.51457,0.0188834999999999,-0.1109055,-0.85479,0.0280984999999999,0.1369945,-0.88043,0.0066274999999999,1
81,0.0056124999999999,0.7793215,0.1361865,-0.1655885,0.5707115,0.0946605,-0.2512585,0.8335615000000001,0.0171505,0.1832214999999999,0.5546715,0.1054205,0.3038115,0.8070815,0.0490575,-0.2755585,1.1120015,-0.0380384999999999,0.3689815,1.0314015,-0.0264244999999999,-0.0800505,0.0048825,0.0016725,0.0800505,-0.0048824999999999,-0.0016725,-0.1212185,-0.4590185,-0.0092374999999999,0.1247615,-0.5145785,0.0189435,-0.1108484999999999,-0.8546785,0.0282065,0.1376514999999999,-0.8858785,0.0073695,1
82,0.0054889999999999,0.7793315000000001,0.1361109999999999,-0.165829,0.5707715,0.094704,-0.251529,0.8348415,0.017164,0.183311,0.5547215,0.10543,0.3031709999999999,0.8071815,0.048892,-0.275709,1.1143015,-0.0378059999999999,0.367341,1.0317015,-0.026574,-0.080051,0.0048825,0.0016439999999999,0.080051,-0.0048824999999999,-0.0016439999999999,-0.121449,-0.4570085,-0.0094109999999999,0.124701,-0.5145785,0.018981,-0.110789,-0.8545585,0.028284,0.138451,-0.8913185,0.007992,1
83,0.0053495,0.7793315000000001,0.136055,-0.1661315,0.5708315,0.094751,-0.2516815,0.8360715000000001,0.017234,0.1834184999999999,0.5547715000000001,0.105436,0.3024585,0.8073015,0.048745,-0.2756315,1.1167015,-0.037575,0.3657385,1.0320015,-0.02666,-0.0800555,0.0048825,0.001605,0.0800555,-0.0048824999999999,-0.001605,-0.1216615,-0.4550085,-0.009512,0.1246485,-0.5145785,0.019052,-0.1106215,-0.8545484999999999,0.028411,0.1392385,-0.8969285,0.0084379999999999,1
84,0.0051785,0.7793285,0.136126,-0.1664744999999999,0.5708885,0.094826,-0.2517445,0.8356785,0.017403,0.1835655,0.5548485000000001,0.105516,0.3017755,0.8073785,0.048816,-0.2754245,1.1177785,-0.0367919999999999,0.3642755,1.0320785,-0.0265979999999999,-0.0800655,0.0049475,0.001559,0.0800655,-0.0049475,-0.0015589999999999,-0.1218544999999999,-0.4553414999999999,-0.0094349999999999,0.1246555,-0.5146815,0.019091,-0.1105044999999999,-0.8545915,0.028491,0.1394555,-0.8968515,0.008519,1
85,0.0050365,0.779295,0.1362145,-0.1668105,0.570955,0.0949305,-0.2518005,0.835665,0.0175224999999999,0.1837295,0.5549350000000001,0.1056034999999999,0.3011295,0.807465,0.0488944999999999,-0.2751905,1.122765,-0.0364765,0.3628695,1.032165,-0.0265285,-0.0800765,0.005011,0.0015084999999999,0.0800765,-0.005011,-0.0015085,-0.1220605,-0.4554249999999999,-0.0093515,0.1247095,-0.515095,0.0191774999999999,-0.1103505,-0.854635,0.0285254999999999,0.1396695,-0.897045,0.0078414999999999,1
86,0.0049115,0.7792965000000001,0.1362654999999999,-0.1671945,0.5710265,0.0950155,-0.2518645,0.8351265,0.0177215,0.1838755,0.5550265000000001,0.1056635,0.3005355,0.8075565,0.0489455,-0.2749445,1.1258564999999998,-0.0358595,0.3617855,1.0322565,-0.0264825,-0.0800715,0.0050725,0.0014725,0.0800715,-0.0050725,-0.0014725,-0.1222845,-0.4544435,-0.0094274999999999,0.1247954999999999,-0.5151935,0.0191655,-0.1102045,-0.8546735,0.0285325,0.1399254999999999,-0.8972435,0.0081055,1
87,0.0048244999999999,0.7792209999999999,0.1363585,-0.1675305,0.5712809999999999,0.0952375,-0.2518705,0.8357709999999999,0.0181665,0.1839894999999999,0.555431,0.1057465,0.3000595,0.807651,0.0490135,-0.2746705,1.127171,-0.0350545,0.3609095,1.032671,-0.0262895,-0.0800695,0.005135,0.0014345,0.0800695,-0.005135,-0.0014344999999999,-0.1225605,-0.453219,-0.0096194999999999,0.1249395,-0.515329,0.0190545,-0.1100305,-0.854399,0.0283895,0.1400794999999999,-0.896729,0.0075615,1
88,0.0047535,0.7792049999999999,0.1365124999999999,-0.1679324999999999,0.571495,0.0954655,-0.2518425,0.8366049999999999,0.0186235,0.1840975,0.555805,0.1058385,0.2996775,0.807755,0.0490965,-0.2744125,1.128205,-0.0345035,0.3602775,1.0330050000000002,-0.0259625,-0.0800845,0.005183,0.0013864999999999,0.0800845,-0.005183,-0.0013864999999999,-0.1228625,-0.452365,-0.0098415,0.1250775,-0.515465,0.0188515,-0.1099224999999999,-0.8541150000000001,0.0282155,0.1402275,-0.896575,0.0072445,1
89,0.0047255,0.779221,0.1366565,-0.1682655,0.571701,0.0956925,-0.2517655,0.836881,0.0191494999999999,0.1842145,0.556161,0.1059065,0.2994545,0.807851,0.0492024999999999,-0.2741854999999999,1.128541,-0.0338105,0.3598245,1.0333409999999998,-0.0256445,-0.0801045,0.0052139999999999,0.0013664999999999,0.0801045,-0.005214,-0.0013665,-0.1230054999999999,-0.451529,-0.0100675,0.1252045,-0.515589,0.0186444999999999,-0.1098754999999999,-0.853969,0.0278714999999999,0.1404544999999999,-0.8964489999999999,0.0074914999999999,1
90,0.0047014999999999,0.7792370000000001,0.136797,-0.1685125,0.571957,0.095946,-0.2517025,0.837767,0.019539,0.1843175,0.5564870000000001,0.105943,0.2992875,0.8079270000000001,0.049374,-0.2740225,1.129467,-0.03382,0.3594675,1.033667,-0.025374,-0.0801215,0.005238,0.001355,0.0801215,-0.005238,-0.001355,-0.1231625,-0.4507029999999999,-0.0102,0.1253475,-0.515633,0.018466,-0.1098425,-0.854103,0.027488,0.1406575,-0.8963329999999999,0.006999,1
91,0.0047329999999999,0.779202,0.1369725,-0.168749,0.5722119999999999,0.0962135,-0.251639,0.8381719999999999,0.0198224999999999,0.184411,0.556792,0.1059715,0.299211,0.8079719999999999,0.0495175,-0.273849,1.129902,-0.0338245,0.359211,1.034002,-0.0252565,-0.080138,0.005262,0.0013474999999999,0.080138,-0.0052619999999999,-0.0013475,-0.123309,-0.449868,-0.0103335,0.1255409999999999,-0.515678,0.0181334999999999,-0.109839,-0.854158,0.0270564999999999,0.1407209999999999,-0.896228,0.0067624999999999,1
92,0.0048065,0.779197,0.13709,-0.1689255,0.572437,0.096493,-0.2515555,0.838347,0.0199259999999999,0.1845245,0.557107,0.1059919999999999,0.2992245,0.808007,0.049578,-0.2736355,1.130037,-0.033827,0.3590744999999999,1.034237,-0.025262,-0.0801485,0.0052849999999999,0.0013429999999999,0.0801485,-0.0052849999999999,-0.001343,-0.1234155,-0.449683,-0.010505,0.1257645,-0.515733,0.0178049999999999,-0.1098155,-0.854253,0.0266719999999999,0.1408345,-0.896113,0.0065189999999999,1
93,0.0049105,0.7792865,0.1370245,-0.1690235,0.5726365,0.0967345,-0.2515035,0.8384364999999999,0.0199095,0.1846365,0.5573865,0.1060045,0.2992465,0.8079565,0.0495565,-0.2734634999999999,1.1308765,-0.0340255,0.3590365,1.0344765,-0.0252804999999999,-0.0801574999999999,0.0053064999999999,0.0013444999999999,0.0801574999999999,-0.0053064999999999,-0.0013444999999999,-0.1235135,-0.4505535,-0.0106964999999999,0.1259665,-0.5157735,0.0174315,-0.1097934999999999,-0.8543635,0.0261955,0.1409065,-0.8959735,0.0062644999999999,1
94,0.0050094999999999,0.7794635,0.136973,-0.1691005,0.5728635,0.096913,-0.2514705,0.8382835,0.019856,0.1847395,0.5576535,0.105942,0.2992695,0.8079035,0.049495,-0.2732505,1.1317235,-0.03491,0.3590695,1.0344235,-0.025334,-0.0801705,0.0053285,0.0013229999999999,0.0801705,-0.0053285,-0.001323,-0.1235205,-0.4512664999999999,-0.010962,0.1262095,-0.5158465,0.0167699999999999,-0.1097705,-0.8545265,0.0256519999999999,0.1409595,-0.8960465,0.0059379999999999,1
95,0.0051065,0.7797145000000001,0.136841,-0.1691405,0.5730245,0.096995,-0.2514205,0.8380045,0.01971,0.1848495,0.5578745,0.105808,0.2992495,0.8077745000000001,0.049336,-0.2729105,1.1305545,-0.036024,0.3590795,1.0342545,-0.025458,-0.0801965,0.0053365,0.0013229999999999,0.0801965,-0.0053365,-0.0013229999999999,-0.1234905,-0.4519155,-0.011271,0.1264795,-0.5159155,0.015934,-0.1097404999999999,-0.8547155,0.0250449999999999,0.1410995,-0.8960155,0.005481,1
96,0.005216,0.7797710000000001,0.136617,-0.169127,0.573061,0.096799,-0.251287,0.8375210000000001,0.019468,0.185013,0.557821,0.10561,0.299273,0.8076610000000001,0.049047,-0.2725069999999999,1.1292609999999998,-0.037939,0.3591229999999999,1.033961,-0.02593,-0.080231,0.0053279999999999,0.0013439999999999,0.080231,-0.0053279999999999,-0.0013439999999999,-0.123277,-0.452949,-0.011616,0.126813,-0.515809,0.015154,-0.109627,-0.8551789999999999,0.024527,0.141313,-0.8966989999999999,0.005055,1
97,0.0053254999999999,0.779907,0.1362185,-0.1690625,0.573167,0.0965185,-0.2511925,0.837067,0.0189435,0.1851674999999999,0.5577869999999999,0.1053175,0.2993375,0.807527,0.0484855,-0.2721424999999999,1.128397,-0.0399725,0.3591974999999999,1.033797,-0.0268895,-0.0802595,0.005313,0.0013825,0.0802595,-0.0053129999999999,-0.0013825,-0.1230625,-0.454993,-0.0120695,0.1271575,-0.515833,0.0143874999999999,-0.1094225,-0.855603,0.0239575,0.1415175,-0.896873,0.0044405,1
98,0.005489,0.7800335,0.135598,-0.169035,0.5732535,0.096147,-0.2509849999999999,0.8364535,0.018114,0.185295,0.5577535,0.104945,0.299385,0.8073435,0.047615,-0.2717449999999999,1.1271235,-0.042158,0.359155,1.0332235,-0.028518,-0.080292,0.0053015,0.001414,0.080292,-0.0053015,-0.0014139999999999,-0.122885,-0.4548665,-0.012788,0.127475,-0.5158765,0.013509,-0.109245,-0.8560665,0.023409,0.1416349999999999,-0.8970765,0.003815,1
99,0.0055625,0.7803515,0.1344725,-0.1690305,0.5732815,0.0956335,-0.2508405,0.8360515,0.0164255,0.1853895,0.5577314999999999,0.1043784999999999,0.2993895,0.8070615,0.0461015,-0.2715005,1.1256615,-0.0466535,0.3590395,1.0326615,-0.0309875,-0.0803325,0.0052794999999999,0.0014295,0.0803325,-0.0052794999999999,-0.0014295,-0.1226405,-0.4550585,-0.0137634999999999,0.1277395,-0.5159085,0.0121725,-0.1091105,-0.8562385,0.0228214999999999,0.1417695,-0.8972585000000001,0.0034404999999999,1
100,0.005656,0.7806015,0.132982,-0.169019,0.5732815,0.094891,-0.250699,0.8351115,0.01421,0.185461,0.5577314999999999,0.103602,0.299391,0.8067415,0.04414,-0.271139,1.1240615,-0.05119,0.358861,1.0323615,-0.034109,-0.080384,0.0052794999999999,0.0014349999999999,0.080384,-0.0052794999999999,-0.0014349999999999,-0.122339,-0.4550885,-0.0148939999999999,0.128011,-0.5159085,0.010723,-0.108989,-0.8563185,0.02217,0.141831,-0.8969185000000001,0.003071,1
101,0.0057519999999999,0.780845,0.1313185,-0.168994,0.573285,0.0940515,-0.250594,0.834425,0.0118405,0.185486,0.557725,0.1027355,0.299376,0.806325,0.0418865,-0.270774,1.122555,-0.0555665,0.358596,1.031955,-0.0376764999999999,-0.08045,0.0052859999999999,0.0014085,0.08045,-0.0052859999999999,-0.0014085,-0.122084,-0.455155,-0.0170355,0.128246,-0.515915,0.0092345,-0.108814,-0.8566450000000001,0.0215895,0.141846,-0.896625,0.0024934999999999,1
102,0.0057789999999999,0.781071,0.129405,-0.169002,0.573271,0.092998,-0.250692,0.834441,0.00944,0.185468,0.557711,0.101732,0.299378,0.805881,0.039313,-0.270362,1.122241,-0.0599909999999999,0.358258,1.031341,-0.0416129999999999,-0.080495,0.0052839999999999,0.0014,0.080495,-0.005284,-0.0013999999999999,-0.121912,-0.456399,-0.0193439999999999,0.128428,-0.515909,0.007645,-0.108622,-0.857029,0.020861,0.141848,-0.896429,0.001748,1
103,0.0057709999999999,0.7815190000000001,0.1272145,-0.1690209999999999,0.573269,0.0917055,-0.250751,0.833559,0.0068145,0.185419,0.557779,0.1005925,0.299349,0.8053790000000001,0.0363165,-0.269971,1.120569,-0.0645115,0.357909,1.0308689999999998,-0.0462945,-0.080499,0.005141,0.0014295,0.080499,-0.005141,-0.0014295,-0.121791,-0.4573109999999999,-0.0216285,0.128519,-0.516001,0.0063085,-0.108471,-0.857511,0.0204025,0.1418189999999999,-0.896501,0.0010135,1
104,0.005787,0.7820360000000001,0.124775,-0.1690259999999999,0.5733560000000001,0.09021,-0.250766,0.832416,0.004083,0.185384,0.557956,0.0993489999999999,0.299404,0.8049660000000001,0.032872,-0.269506,1.118766,-0.069021,0.3575839999999999,1.030366,-0.051487,-0.080516,0.004956,0.0014219999999999,0.080516,-0.004956,-0.0014219999999999,-0.121626,-0.458394,-0.024041,0.128544,-0.516074,0.004942,-0.108286,-0.8579739999999999,0.019632,0.141854,-0.8967139999999999,0.0001099999999999,1
105,0.0057624999999999,0.782374,0.1221299999999999,-0.1690585,0.573384,0.088582,-0.2507685,0.830984,0.000625,0.1852915,0.558174,0.097523,0.2994215,0.804584,0.029098,-0.2691885,1.116244,-0.073605,0.3572915,1.029944,-0.0570069999999999,-0.0805375,0.004753,0.0014699999999999,0.0805375,-0.004753,-0.0014699999999999,-0.1215085,-0.459326,-0.026442,0.1285914999999999,-0.516076,0.0033459999999999,-0.1081585,-0.858476,0.018685,0.1418114999999999,-0.8968860000000001,-0.000765,1
106,0.0057,0.782543,0.11934,-0.169122,0.573433,0.0867739999999999,-0.250832,0.8294130000000001,-0.002931,0.185148,0.558303,0.095635,0.299408,0.8042130000000001,0.025113,-0.269032,1.111303,-0.078554,0.356898,1.029203,-0.062744,-0.080601,0.0045559999999999,0.0015329999999999,0.080601,-0.0045559999999999,-0.0015329999999999,-0.1214619999999999,-0.460287,-0.028942,0.128598,-0.516167,0.001412,-0.1080819999999999,-0.858957,0.017749,0.141708,-0.897147,-0.001763,1
107,0.005576,0.78253,0.116403,-0.169211,0.57346,0.084933,-0.250911,0.8276399999999999,-0.0064679999999999,0.184989,0.5583699999999999,0.0937419999999999,0.299429,0.8038299999999999,0.020855,-0.269061,1.10949,-0.0838009999999999,0.356579,1.02829,-0.0687029999999999,-0.080666,0.0043689999999999,0.001649,0.080666,-0.0043689999999999,-0.0016489999999999,-0.121461,-0.46104,-0.031435,0.128539,-0.51619,-0.0006279999999999,-0.108041,-0.8596900000000001,0.016825,0.141589,-0.89741,-0.0027329999999999,1
108,0.0053774999999999,0.7825694999999999,0.113367,-0.1693575,0.5734094999999999,0.083106,-0.2510475,0.8264695,-0.009978,0.1847425,0.5584395,0.091801,0.2993825,0.8034094999999999,0.016498,-0.2691774999999999,1.1095294999999998,-0.087657,0.3562324999999999,1.0273295,-0.074557,-0.0807515,0.0042405,0.001802,0.0807515,-0.0042405,-0.0018019999999999,-0.1214975,-0.4623405,-0.033766,0.1284425,-0.5163005,-0.0026939999999999,-0.1080975,-0.8603205,0.015883,0.1413825,-0.8977504999999999,-0.0037519999999999,1
109,0.0051735,0.7825719999999999,0.1102525,-0.1695034999999999,0.573282,0.0811165,-0.2512135,0.825182,-0.0133155,0.1844765,0.5584319999999999,0.0899115,0.2993165,0.802912,0.0119854999999999,-0.2695234999999999,1.112032,-0.0915455,0.3559165,1.026232,-0.0805855,-0.0808285,0.004145,0.0019784999999999,0.0808285,-0.0041449999999999,-0.0019785,-0.1215735,-0.4623879999999999,-0.0359795,0.1283464999999999,-0.5160980000000001,-0.0048195,-0.1082135,-0.8609880000000001,0.0150484999999999,0.1411365,-0.897748,-0.0045665,1
110,0.0049359999999999,0.782548,0.1068915,-0.169691,0.573238,0.0790685,-0.251401,0.823988,-0.0168255,0.184149,0.558458,0.0879905,0.2992289999999999,0.8023180000000001,0.0072505,-0.270121,1.112108,-0.0976885,0.355599,1.025008,-0.0867485,-0.080901,0.0040569999999999,0.0021935,0.080901,-0.0040569999999999,-0.0021935,-0.121681,-0.462022,-0.0374105,0.128179,-0.515792,-0.0071775,-0.108401,-0.861582,0.0142195,0.140839,-0.898212,-0.0063564999999999,1
111,0.004732,0.7825854999999999,0.103408,-0.169939,0.5733555,0.076839,-0.251729,0.8228455,-0.020589,0.183801,0.5585955,0.086128,0.2991209999999999,0.8017854999999999,0.0025,-0.270439,1.1100855,-0.103582,0.355251,1.0237855,-0.093122,-0.081011,0.0038955,0.002338,0.081011,-0.0038954999999999,-0.002338,-0.121919,-0.4615045,-0.03915,0.127991,-0.5156145,-0.0096739999999999,-0.1086289999999999,-0.8620145,0.013516,0.140511,-0.8986745,-0.008158,1
112,0.0044855,0.7824825,0.099895,-0.1702274999999999,0.5735525,0.07468,-0.2519975,0.8217725,-0.0242679999999999,0.1834124999999999,0.5588025,0.084344,0.2989525,0.8012024999999999,-0.002177,-0.2706575,1.1082325000000002,-0.109264,0.3548525,1.0225325,-0.099104,-0.0811395,0.0036694999999999,0.0024549999999999,0.0811395,-0.0036694999999999,-0.0024549999999999,-0.1221375,-0.4612575,-0.0409309999999999,0.1277225,-0.5144075,-0.012971,-0.1088775,-0.8623475,0.012824,0.1401125,-0.8990075000000001,-0.009835,1
113,0.0041875,0.7823555,0.0965975,-0.1704294999999999,0.5736155,0.0724605,-0.2522795,0.8206755,-0.0279445,0.1830105,0.5590855,0.0826585,0.2987505,0.8006255,-0.0066205,-0.2708295,1.1063455,-0.1147265,0.3543105,1.0212455,-0.1048564999999999,-0.0812924999999999,0.0033634999999999,0.0026324999999999,0.0812924999999999,-0.0033635,-0.0026324999999999,-0.1224595,-0.4626545,-0.0429785,0.1274605,-0.5136545,-0.0165055,-0.1091195,-0.8625145000000001,0.0122884999999999,0.1396905,-0.8992545000000001,-0.0114565,1
114,0.0039134999999999,0.782301,0.0931789999999999,-0.1706244999999999,0.573701,0.0702859999999999,-0.2525845,0.819621,-0.031157,0.1826455,0.559341,0.0814459999999999,0.2986455,0.800071,-0.011173,-0.2710045,1.104531,-0.119822,0.3535955,1.019831,-0.110702,-0.0814495,0.003028,0.0027629999999999,0.0814495,-0.0030279999999999,-0.002763,-0.1226845,-0.462669,-0.045573,0.1271655,-0.512539,-0.01999,-0.1093545,-0.8625889999999999,0.0118179999999999,0.1392855,-0.899489,-0.013095,1
115,0.0036479999999999,0.7822055,0.089845,-0.170809,0.5737555000000001,0.068222,-0.252899,0.8188755,-0.034461,0.182251,0.5595055,0.080312,0.298631,0.7998155,-0.015896,-0.271279,1.1029055,-0.124791,0.352681,1.0186054999999998,-0.116511,-0.081592,0.0027595,0.002876,0.081592,-0.0027594999999999,-0.002876,-0.122779,-0.4619244999999999,-0.048316,0.126891,-0.5110345,-0.023386,-0.109549,-0.8624244999999999,0.011295,0.138871,-0.8996744999999999,-0.014639,1
116,0.0033705,0.7818369999999999,0.0862405,-0.1710485,0.573777,0.0660024999999999,-0.2532585,0.8182069999999999,-0.0382415,0.1818215,0.559717,0.0791315,0.2985015,0.7995570000000001,-0.0207434999999999,-0.2716585,1.101427,-0.1301334999999999,0.3515515,1.017427,-0.1220034999999999,-0.0817995,0.0024959999999999,0.0029444999999999,0.0817995,-0.002496,-0.0029445,-0.1228285,-0.461353,-0.0511995,0.1266315,-0.5100830000000001,-0.0270175,-0.1098285,-0.861953,0.0108724999999999,0.1384815,-0.899613,-0.0161695,1
117,0.0031245,0.7814260000000001,0.0824835,-0.1712344999999999,0.5736760000000001,0.0635505,-0.2534245,0.8177260000000001,-0.0424695,0.1813655,0.559886,0.0778555,0.2983955,0.799436,-0.0255654999999999,-0.2721645,1.100246,-0.1359215,0.3503055,1.016246,-0.1277515,-0.0819905,0.002201,0.0030045,0.0819905,-0.0022009999999999,-0.0030045,-0.1227645,-0.460824,-0.0545545,0.1263555,-0.509114,-0.0309354999999999,-0.1100845,-0.861294,0.0105525,0.1380655,-0.899354,-0.0176605,1
118,0.0029015,0.780927,0.078536,-0.1714605,0.5735070000000001,0.061347,-0.2536905,0.817307,-0.047066,0.1808695,0.5599970000000001,0.075608,0.2982995,0.7994570000000001,-0.030544,-0.2728105,1.098867,-0.142127,0.3488895,1.015067,-0.133177,-0.0822185,0.00189,0.0030619999999999,0.0822185,-0.00189,-0.003062,-0.1227404999999999,-0.460053,-0.058272,0.1260495,-0.507873,-0.035282,-0.1104305,-0.8604529999999999,0.0101969999999999,0.1375795,-0.8987529999999999,-0.019429,1
119,0.002796,0.780533,0.0747215,-0.1715269999999999,0.573743,0.0589055,-0.253887,0.816963,-0.0515445,0.1804029999999999,0.5599930000000001,0.0716965,0.298243,0.799493,-0.0355685,-0.273477,1.097993,-0.1466154999999999,0.347493,1.014093,-0.1388555,-0.082428,0.001595,0.0031435,0.082428,-0.0015949999999999,-0.0031435,-0.122617,-0.458747,-0.0622465,0.125803,-0.506047,-0.0398395,-0.110517,-0.859327,0.0097445,0.137143,-0.897357,-0.0203145,1
120,0.0027394999999999,0.7797719999999999,0.0704579999999999,-0.1715085,0.5737220000000001,0.056426,-0.2540485,0.8166519999999999,-0.056322,0.1800015,0.560222,0.0678479999999999,0.2982615,0.799412,-0.0408819999999999,-0.2739985,1.100102,-0.1522899999999999,0.3461615,1.013102,-0.14501,-0.0826295,0.001305,0.003217,0.0826295,-0.0013049999999999,-0.0032169999999999,-0.1224685,-0.457258,-0.066444,0.1255315,-0.504188,-0.044591,-0.1105485,-0.857998,0.009157,0.1367115,-0.8958980000000001,-0.0213049999999999,1
121,0.002707,0.7791175,0.0661559999999999,-0.171377,0.5731875000000001,0.053528,-0.2541569999999999,0.8165075,-0.0613699999999999,0.179623,0.5607675,0.064036,0.298353,0.7994775000000001,-0.046588,-0.274487,1.1025275,-0.158331,0.344893,1.0118275,-0.1510309999999999,-0.082843,0.0010685,0.003315,0.082843,-0.0010685,-0.0033149999999999,-0.1222669999999999,-0.4554724999999999,-0.070885,0.125223,-0.5019725,-0.048889,-0.110457,-0.8564025,0.008487,0.136283,-0.8943924999999999,-0.0214359999999999,1
122,0.0028005,0.7784835,0.061766,-0.1712505,0.5725935,0.050599,-0.2542405,0.8164935,-0.066493,0.1792095,0.5614835,0.060365,0.2984995,0.7995135,-0.0525459999999999,-0.2745705,1.1020435000000002,-0.164791,0.3437095,1.0108435,-0.157031,-0.0830575,0.0008765,0.0034369999999999,0.0830575,-0.0008764999999999,-0.0034369999999999,-0.1220604999999999,-0.4535165,-0.0751619999999999,0.1249194999999999,-0.4992765,-0.0530029999999999,-0.1102505,-0.8546565,0.007741,0.1358295,-0.8928165,-0.0220789999999999,1
123,0.002928,0.7780945,0.0574169999999999,-0.171095,0.5721245,0.047417,-0.254355,0.8168045,-0.0716919999999999,0.1787949999999999,0.5608945000000001,0.0545989999999999,0.298525,0.7998345,-0.0584419999999999,-0.274605,1.1019645,-0.17142,0.342665,1.0100645,-0.16343,-0.083313,0.0007115,0.003591,0.083313,-0.0007115,-0.003591,-0.121945,-0.4505154999999999,-0.07925,0.1245049999999999,-0.4961055,-0.057383,-0.110085,-0.8524155,0.0069079999999999,0.135205,-0.8907555,-0.022736,1
124,0.0031039999999999,0.7777445,0.05298,-0.170908,0.5716945,0.044188,-0.254548,0.8173745,-0.076934,0.178362,0.5601944999999999,0.048537,0.298332,0.8004245,-0.064095,-0.274738,1.1020445,-0.178326,0.341752,1.0094445,-0.169896,-0.083645,0.0006175,0.0037599999999999,0.083645,-0.0006175,-0.0037599999999999,-0.121888,-0.4471955,-0.083106,0.124012,-0.4939055,-0.06173,-0.110098,-0.8496055,0.006221,0.134542,-0.8887755,-0.023558,1
125,0.0033484999999999,0.777799,0.048649,-0.1702395,0.570779,0.040541,-0.2547295,0.818269,-0.082202,0.1779204999999999,0.559429,0.04209,0.2981105,0.801229,-0.069822,-0.2747395,1.102359,-0.185142,0.3410105,1.008759,-0.176452,-0.0839665,0.000539,0.0039369999999999,0.0839665,-0.0005389999999999,-0.0039369999999999,-0.1217295,-0.444111,-0.087122,0.1236004999999999,-0.491301,-0.0663079999999999,-0.1100795,-0.846321,0.005444,0.1340005,-0.886291,-0.024394,1
126,0.0037114999999999,0.7778385,0.0443185,-0.1693985,0.5701885,0.0371285,-0.2544685,0.8179485,-0.0869504999999999,0.1775515,0.5588285,0.0356345,0.2978615,0.8020584999999999,-0.0757325,-0.2746185,1.1017285,-0.1910605,0.3404514999999999,1.0082285,-0.1829005,-0.0843085,0.0005404999999999,0.0041175,0.0843085,-0.0005405,-0.0041175,-0.1213485,-0.4407315,-0.0909204999999999,0.1232515,-0.4885415,-0.0703395,-0.1098885,-0.8427915,0.0046185,0.1334715,-0.8833015000000001,-0.0245804999999999,1
127,0.004071,0.7779975,0.040094,-0.168544,0.5696575,0.033351,-0.254094,0.8175775000000001,-0.091254,0.177196,0.5582375,0.0297199999999999,0.2975759999999999,0.8022275000000001,-0.081504,-0.274464,1.1007975,-0.196854,0.3400459999999999,1.0078975,-0.189384,-0.084658,0.0005845,0.0042929999999999,0.084658,-0.0005845,-0.004293,-0.1208139999999999,-0.4370125,-0.0945439999999999,0.1229359999999999,-0.4857625,-0.073976,-0.109624,-0.8392525,0.0037869999999999,0.133066,-0.8801625,-0.025381,1
128,0.0044235,0.7782104999999999,0.0356405,-0.1677005,0.5686905,0.0294975,-0.2536005,0.8173404999999999,-0.0957485,0.1768695,0.5576705,0.0250854999999999,0.2972995,0.8022005,-0.0871585,-0.2741805,1.1001905,-0.2026485,0.3394895,1.0072905,-0.1958185,-0.0850075,0.0006294999999999,0.0043624999999999,0.0850075,-0.0006294999999999,-0.0043625,-0.1202205,-0.4339294999999999,-0.0979885,0.1224895,-0.4831995,-0.0773685,-0.1094705,-0.8358295,0.0028284999999999,0.1325295,-0.8769095,-0.0260085,1
129,0.0048755,0.778628,0.031497,-0.1667294999999999,0.567868,0.025523,-0.2530195,0.817398,-0.1002569999999999,0.1765304999999999,0.556798,0.020118,0.2970405,0.801918,-0.0926269999999999,-0.2737095,1.0999279999999998,-0.208157,0.3387405,1.0068279999999998,-0.201787,-0.0853415,0.0006959999999999,0.004403,0.0853415,-0.000696,-0.0044029999999999,-0.1193895,-0.432042,-0.101217,0.1219405,-0.480602,-0.080597,-0.1092995,-0.832352,0.001843,0.1320204999999999,-0.874082,-0.026734,1
130,0.0055364999999999,0.7789710000000001,0.027038,-0.1655315,0.567351,0.0216789999999999,-0.2521715,0.8175910000000001,-0.104914,0.1762585,0.555531,0.0147259999999999,0.2967685,0.801421,-0.097854,-0.2728615,1.099521,-0.213994,0.3377885,1.006321,-0.208454,-0.0856774999999999,0.000758,0.0044169999999999,0.0856774999999999,-0.000758,-0.004417,-0.1184515,-0.430039,-0.104384,0.1212185,-0.477979,-0.083904,-0.1091415,-0.8289989999999999,0.0008329999999999,0.1315885,-0.8710089999999999,-0.027636,1
131,0.0061154999999999,0.778867,0.0222794999999999,-0.1643245,0.566857,0.0178655,-0.2512345,0.817607,-0.1103454999999999,0.1760455,0.553977,0.0086784999999999,0.2964155,0.8004870000000001,-0.1030655,-0.2713044999999999,1.0954069999999998,-0.2207855,0.3367455,1.005407,-0.2154955,-0.0859705,0.000743,0.0045254999999999,0.0859705,-0.000743,-0.0045255,-0.1173845,-0.428053,-0.1077855,0.1202155,-0.474293,-0.0874755,-0.1090345,-0.825243,-0.0001195,0.1308455,-0.867043,-0.0280885,1
132,0.0067144999999999,0.7787135000000001,0.017275,-0.1630445,0.5660535000000001,0.013852,-0.2497845,0.8163835,-0.1158569999999999,0.1758955,0.5535835,0.0043469999999999,0.2960255,0.7989635,-0.1084469999999999,-0.2694944999999999,1.0909735,-0.227287,0.3353855,1.0046035,-0.222157,-0.0862495,0.0007295,0.0045539999999999,0.0862495,-0.0007295,-0.004554,-0.1161345,-0.4261165,-0.111277,0.1191455,-0.4709265,-0.090877,-0.1088345,-0.8217764999999999,-0.001247,0.1301855,-0.8636765,-0.028544,1
133,0.0072979999999999,0.7779689999999999,0.0121675,-0.161662,0.565059,0.0096105,-0.248072,0.8149390000000001,-0.1213675,0.175768,0.5532889999999999,0.0001194999999999,0.295608,0.7969790000000001,-0.1140075,-0.267292,1.086229,-0.2340175,0.334098,1.003529,-0.2292975,-0.086477,0.0007119999999999,0.0046144999999999,0.086477,-0.000712,-0.0046145,-0.114772,-0.424571,-0.1147675,0.118038,-0.469161,-0.0941574999999999,-0.108549,-0.8187310000000001,-0.0025395,0.1297279999999999,-0.8607210000000001,-0.0296235,1
134,0.0078205,0.7772265,0.006324,-0.1607235,0.5647565000000001,0.0050529999999999,-0.2464134999999999,0.8128165,-0.127291,0.1756465,0.5528065000000001,-0.00445,0.2949365,0.7948065000000001,-0.120111,-0.2650835,1.0812065,-0.2421409999999999,0.3323264999999999,1.0028565,-0.2378109999999999,-0.0867235,0.0007004999999999,0.004716,0.0867235,-0.0007004999999999,-0.004716,-0.1132334999999999,-0.4231735,-0.118141,0.1169165,-0.4674735,-0.097091,-0.1079755,-0.8150835,-0.003992,0.1292265,-0.8571034999999999,-0.030714,1
135,0.0083675,0.7763805,0.0003044999999999,-0.1598625,0.5639105000000001,0.0003534999999999,-0.2449325,0.8118105,-0.1335995,0.1754975,0.5521005,-0.0092365,0.2942574999999999,0.7924605,-0.1264695,-0.2628825,1.0768805,-0.2516695,0.3304775,1.0019705,-0.2467794999999999,-0.0869675,0.0006494999999999,0.0048194999999999,0.0869675,-0.0006495,-0.0048195,-0.1117025,-0.4221395,-0.1212195,0.1156775,-0.4661995,-0.1000195,-0.1073435,-0.8118894999999999,-0.0055835,0.1286475,-0.8540595,-0.0319685,1
136,0.0089624999999999,0.775631,-0.006098,-0.1588425,0.563181,-0.004619,-0.2434025,0.810431,-0.140681,0.1754175,0.551721,-0.014326,0.2937175,0.790571,-0.133241,-0.2607025,1.072301,-0.261941,0.3285875,1.000991,-0.256711,-0.0871625,0.000571,0.00496,0.0871625,-0.0005709999999999,-0.00496,-0.1102025,-0.421449,-0.123831,0.1138575,-0.466579,-0.103551,-0.1067075,-0.808849,-0.0075289999999999,0.1283975,-0.8505590000000001,-0.033746,1
137,0.0095549999999999,0.7743415,-0.01303,-0.157842,0.5622815,-0.009571,-0.241902,0.8084215,-0.148532,0.1753579999999999,0.5513315,-0.019441,0.293168,0.7882915,-0.140932,-0.258632,1.0672815,-0.273482,0.326778,0.9993015,-0.267672,-0.08742,0.0005475,0.005115,0.08742,-0.0005474999999999,-0.005115,-0.108698,-0.4208785,-0.126442,0.112048,-0.4681685,-0.1070919999999999,-0.10607,-0.8062385,-0.009468,0.127968,-0.8479785,-0.035942,1
138,0.010025,0.772977,-0.0204145,-0.157001,0.561357,-0.0146285,-0.240421,0.8059270000000001,-0.1567085,0.175289,0.550867,-0.0247975,0.292629,0.7861170000000001,-0.1491885,-0.256751,1.061357,-0.2852585,0.325179,0.997087,-0.2791785,-0.087645,0.000547,0.0052435,0.087645,-0.0005469999999999,-0.0052435,-0.107356,-0.419433,-0.1290585,0.110209,-0.469023,-0.1106785,-0.105394,-0.803643,-0.0116525,0.127469,-0.845413,-0.0384544999999999,1
139,0.0103399999999999,0.7712695,-0.02828,-0.156316,0.5603895,-0.020031,-0.239016,0.8026995,-0.165538,0.175234,0.5504295,-0.030475,0.292074,0.7838995,-0.158158,-0.255186,1.0546595,-0.297888,0.323814,0.9948895,-0.291058,-0.087849,0.0005525,0.005378,0.087849,-0.0005524999999999,-0.005378,-0.105785,-0.4189805,-0.131918,0.108354,-0.4696304999999999,-0.114278,-0.104732,-0.8009005,-0.014172,0.126614,-0.8416405,-0.040874,1
140,0.010563,0.7696715000000001,-0.036509,-0.155547,0.5593615000000001,-0.025743,-0.237737,0.7992014999999999,-0.1742739999999999,0.175143,0.5498715000000001,-0.036296,0.291383,0.7816114999999999,-0.167894,-0.254067,1.0504015,-0.310444,0.322053,0.9911115,-0.304204,-0.08798,0.0006215,0.005431,0.08798,-0.0006215,-0.005431,-0.104349,-0.4182185,-0.134354,0.106463,-0.4702385,-0.117534,-0.1042439999999999,-0.7972185,-0.016681,0.125883,-0.8376085,-0.043109,1
141,0.0106209999999999,0.7677515,-0.0449235,-0.154752,0.5584615,-0.0315545,-0.236952,0.7965615,-0.1835205,0.1750179999999999,0.5495015,-0.0424014999999999,0.290628,0.7794415,-0.1781705,-0.252992,1.0460615,-0.3239605,0.320518,0.9869815,-0.3176505,-0.0881069999999999,0.0006754999999999,0.0056095,0.0881069999999999,-0.0006755,-0.0056095,-0.102961,-0.4168584999999999,-0.1370205,0.104548,-0.4706785,-0.1209005,-0.1037569999999999,-0.7933184999999999,-0.0194634999999999,0.125228,-0.8333685,-0.0457125,1
142,0.0107704999999999,0.765663,-0.054071,-0.1538715,0.557253,-0.037614,-0.2362215,0.793683,-0.193294,0.1748684999999999,0.549123,-0.048803,0.2899785,0.777193,-0.189104,-0.2519715,1.0402330000000002,-0.3380539999999999,0.3190485,0.983083,-0.331434,-0.0882685,0.000667,0.005771,0.0882685,-0.000667,-0.005771,-0.1014425,-0.415147,-0.140254,0.1026784999999999,-0.470837,-0.1243039999999999,-0.1031465,-0.788817,-0.022456,0.1245085,-0.8286870000000001,-0.048077,1
143,0.0107815,0.7633265,-0.062675,-0.1528594999999999,0.5552765000000001,-0.0434439999999999,-0.2356595,0.7902365,-0.202896,0.1746305,0.5487665,-0.055081,0.2893705,0.7743965,-0.199816,-0.2510495,1.0341465,-0.351156,0.3177505,0.9782365,-0.344496,-0.0884025,0.0006724999999999,0.005909,0.0884025,-0.0006724999999999,-0.005909,-0.1002835,-0.4135735,-0.142816,0.1006405,-0.4710635,-0.127636,-0.1029725,-0.7848535,-0.02537,0.1237105,-0.8241634999999999,-0.05033,1
144,0.010751,0.7604915,-0.0721855,-0.151896,0.5542515,-0.0495945,-0.235376,0.7868415000000001,-0.2127534999999999,0.174334,0.5484515000000001,-0.0617445,0.288444,0.7703315000000001,-0.2110834999999999,-0.2502459999999999,1.0284315,-0.3642134999999999,0.316454,0.9733415,-0.3579135,-0.088537,0.0007434999999999,0.0060665,0.088537,-0.0007435,-0.0060665,-0.099307,-0.4111685,-0.1453735,0.098494,-0.4707585,-0.1311635,-0.102939,-0.7804785,-0.0286324999999999,0.122954,-0.8197185,-0.0534335,1
145,0.0105974999999999,0.7579205,-0.081345,-0.1508735,0.5524705000000001,-0.055896,-0.2353235,0.7835304999999999,-0.2224519999999999,0.1739565,0.5477205,-0.068446,0.2875165,0.7668005,-0.2217319999999999,-0.2497635,1.0229105,-0.376902,0.3152665,0.9689805,-0.371172,-0.0886754999999999,0.0009364999999999,0.006085,0.0886754999999999,-0.0009364999999999,-0.006085,-0.0980895,-0.4101195,-0.147542,0.0969665,-0.4685295,-0.1341319999999999,-0.1028795,-0.7756595,-0.031796,0.1222665,-0.8148495,-0.05649,1
146,0.0105259999999999,0.7556255,-0.0902729999999999,-0.149724,0.5506555,-0.062447,-0.235194,0.7807155,-0.231783,0.173626,0.5470455,-0.075266,0.286636,0.7641155,-0.231743,-0.249364,1.0179055,-0.388893,0.314036,0.9648855,-0.3839229999999999,-0.088799,0.0010035,0.0060719999999999,0.088799,-0.0010034999999999,-0.0060719999999999,-0.096875,-0.4123945,-0.150183,0.095466,-0.4657145,-0.137173,-0.102861,-0.7709845000000001,-0.035193,0.121346,-0.8105645,-0.060195,1
147,0.0102934999999999,0.7528595,-0.0989189999999999,-0.1486205,0.5487195,-0.069005,-0.2351705,0.7777995,-0.240953,0.1731395,0.5461595,-0.081935,0.2856495,0.7606695,-0.242413,-0.2493405,1.0133695,-0.400673,0.3126695,0.9614495,-0.396473,-0.0889105,0.0010285,0.006026,0.0889105,-0.0010285,-0.0060259999999999,-0.0958835,-0.4148104999999999,-0.152673,0.0939595,-0.4631804999999999,-0.140123,-0.1029145,-0.7662205000000001,-0.038492,0.1206595,-0.8063705,-0.063794,1
148,0.0101634999999999,0.7507309999999999,-0.1072385,-0.1472745,0.547031,-0.0755305,-0.2349445,0.775351,-0.2499165,0.1727455,0.545621,-0.0885055,0.2848755,0.7576309999999999,-0.2526265,-0.2492445,1.009551,-0.4118365,0.3112355,0.956691,-0.4087965,-0.0890275,0.00101,0.0058934999999999,0.0890275,-0.0010099999999999,-0.0058935,-0.0950385,-0.415099,-0.1549565,0.0927955,-0.460019,-0.1428465,-0.1027994999999999,-0.760959,-0.0416065,0.1201255,-0.801729,-0.0665005,1
149,0.009855,0.748649,-0.1150855,-0.146155,0.545629,-0.0816615,-0.235045,0.7730290000000001,-0.2582095,0.172045,0.544789,-0.0948344999999999,0.283995,0.7547090000000001,-0.2618295,-0.249365,1.005689,-0.4222495,0.309975,0.953559,-0.4194295,-0.0892159999999999,0.001069,0.0057114999999999,0.0892159999999999,-0.001069,-0.0057115,-0.094482,-0.4148809999999999,-0.1575295,0.0913749999999999,-0.456341,-0.1455895,-0.102886,-0.755311,-0.0449985,0.1198149999999999,-0.796231,-0.0700554999999999,1
150,0.0093294999999999,0.7463415,-0.1227785,-0.1452155,0.5439115,-0.0877645,-0.2352355,0.7702415,-0.2663085,0.1711545,0.5442815,-0.1008015,0.2829845,0.7516615,-0.2708785,-0.2496354999999999,1.0021315,-0.4327685,0.3085545,0.9503415,-0.4303785,-0.0893165,0.0011174999999999,0.0054864999999999,0.0893165,-0.0011175,-0.0054865,-0.0941694999999999,-0.4137185,-0.1599785,0.0896405,-0.4524285,-0.1483485,-0.1031255,-0.7496385000000001,-0.0482095,0.1193845,-0.7907485000000001,-0.0731485,1
151,0.008794,0.7447910000000001,-0.129968,-0.144288,0.542551,-0.093652,-0.2355779999999999,0.767301,-0.274238,0.170172,0.543211,-0.106822,0.281962,0.749021,-0.279118,-0.249878,0.999231,-0.442998,0.307092,0.946461,-0.440718,-0.089406,0.001307,0.0052899999999999,0.089406,-0.001307,-0.0052899999999999,-0.0939369999999999,-0.411399,-0.162748,0.087978,-0.4478089999999999,-0.151088,-0.1034269999999999,-0.743679,-0.051103,0.118642,-0.784519,-0.075551,1
152,0.008268,0.7428525,-0.1373325,-0.143578,0.5415725,-0.0993904999999999,-0.235938,0.7650825,-0.2819625,0.169232,0.5426225,-0.1125444999999999,0.281072,0.7463925,-0.2875925,-0.250278,0.9961025,-0.4531725,0.305612,0.9436325,-0.4510625,-0.089492,0.0014585,0.0050895,0.089492,-0.0014585,-0.0050895,-0.093713,-0.4082575,-0.1658125,0.086391,-0.4429475,-0.1538125,-0.103756,-0.7376575,-0.0539375,0.117732,-0.7774975000000001,-0.0770025,1
153,0.007763,0.7410535,-0.1437864999999999,-0.142893,0.5400335,-0.1049905,-0.2362729999999999,0.7619535,-0.2894465,0.168177,0.5417435,-0.1181065,0.280287,0.7453335,-0.2954164999999999,-0.250713,0.9923135,-0.4630765,0.304137,0.9408435,-0.4617165,-0.089597,0.0014195,0.0049605,0.089597,-0.0014195,-0.0049605,-0.093387,-0.4064865,-0.1684265,0.085146,-0.4379365,-0.1562265,-0.103998,-0.7316265,-0.0564765,0.116867,-0.7704565,-0.0781014999999999,1
154,0.007172,0.738955,-0.150403,-0.142503,0.539145,-0.110269,-0.236593,0.758725,-0.296853,0.166997,0.540575,-0.123442,0.279367,0.743085,-0.303623,-0.251293,0.987965,-0.473243,0.302597,0.937025,-0.472123,-0.0897969999999999,0.001335,0.0049109999999999,0.0897969999999999,-0.001335,-0.004911,-0.093455,-0.4024749999999999,-0.171023,0.084078,-0.432605,-0.158503,-0.104253,-0.725505,-0.058944,0.115987,-0.763185,-0.080327,1
155,0.0066479999999999,0.7369399999999999,-0.156976,-0.142519,0.53864,-0.115404,-0.237019,0.75532,-0.304366,0.165741,0.53926,-0.128638,0.278301,0.7397199999999999,-0.312076,-0.251829,0.98272,-0.483506,0.301101,0.93176,-0.481596,-0.089981,0.0013899999999999,0.0049019999999999,0.089981,-0.00139,-0.004902,-0.0938239999999999,-0.39716,-0.173726,0.0831079999999999,-0.4271400000000001,-0.160906,-0.104526,-0.7199300000000001,-0.061528,0.115081,-0.75639,-0.083195,1
156,0.0061869999999999,0.735005,-0.163676,-0.1422169999999999,0.538375,-0.120098,-0.237397,0.7512249999999999,-0.312376,0.164993,0.538285,-0.133563,0.2773629999999999,0.7367349999999999,-0.319606,-0.252457,0.976295,-0.493986,0.299583,0.925115,-0.491076,-0.090183,0.0014349999999999,0.004941,0.090183,-0.001435,-0.004941,-0.094115,-0.390245,-0.176516,0.082132,-0.420225,-0.163266,-0.104819,-0.713785,-0.064089,0.114633,-0.7495350000000001,-0.085913,1
157,0.005982,0.73341,-0.1706895,-0.142038,0.53664,-0.1255735,-0.237648,0.74586,-0.3197095,0.164642,0.5363800000000001,-0.1390595,0.276542,0.73371,-0.3276695,-0.253238,0.96725,-0.5039695,0.298602,0.91998,-0.5007795,-0.090322,0.00164,0.0049864999999999,0.090322,-0.0016399999999999,-0.0049865,-0.09422,-0.38307,-0.1793595,0.0814,-0.41305,-0.1658494999999999,-0.104926,-0.70729,-0.0668815,0.114662,-0.74236,-0.0888765,1
158,0.005513,0.7315649999999999,-0.183057,-0.142319,0.534575,-0.136232,-0.238279,0.7406649999999999,-0.332017,0.164131,0.535565,-0.149127,0.275401,0.7304649999999999,-0.340887,-0.254309,0.959395,-0.518877,0.297371,0.914395,-0.516127,-0.0905509999999999,0.0014149999999999,0.0047729999999999,0.0905509999999999,-0.0014149999999999,-0.0047729999999999,-0.095031,-0.375755,-0.187627,0.080497,-0.4066350000000001,-0.173267,-0.105385,-0.701005,-0.074306,0.114481,-0.7359450000000001,-0.096558,1
159,0.004996,0.730985,-0.196277,-0.142713,0.532215,-0.147663,-0.238923,0.736235,-0.344987,0.163727,0.534275,-0.160347,0.273777,0.7270650000000001,-0.353987,-0.255463,0.950575,-0.534257,0.2961169999999999,0.909385,-0.531967,-0.090737,0.001265,0.004636,0.090737,-0.0012649999999999,-0.004636,-0.095725,-0.363025,-0.200587,0.079619,-0.393655,-0.185757,-0.105873,-0.693735,-0.082318,0.113827,-0.727865,-0.104034,1
160,0.00452,0.72984,-0.2104134999999999,-0.143013,0.53033,-0.1595455,-0.239583,0.7313500000000001,-0.3588235,0.163317,0.53328,-0.1721135,0.272207,0.72331,-0.3677035,-0.256773,0.94176,-0.5502235,0.295017,0.90321,-0.5489634999999999,-0.090897,0.0012099999999999,0.0042375,0.090897,-0.0012099999999999,-0.0042374999999999,-0.0964539999999999,-0.35096,-0.2144335,0.078706,-0.38141,-0.1995334999999999,-0.106389,-0.68695,-0.0911005,0.1133269999999999,-0.72056,-0.1116534999999999,1
161,0.00363,0.729525,-0.2245165,-0.1437929999999999,0.529855,-0.1710265,-0.241003,0.726885,-0.3729765,0.162467,0.532825,-0.1837865,0.270037,0.719635,-0.3815265,-0.258703,0.933185,-0.5668965,0.293707,0.897085,-0.5656365,-0.090787,0.0009049999999999,0.0039534999999999,0.090787,-0.000905,-0.0039535,-0.097531,-0.338445,-0.2287565,0.077381,-0.367955,-0.2133965,-0.107152,-0.6794250000000001,-0.0996735,0.112677,-0.712055,-0.1194435,1
162,0.0026014999999999,0.72885,-0.238462,-0.1448815,0.5296,-0.182142,-0.2425715,0.7225900000000001,-0.387592,0.1610184999999999,0.53262,-0.194942,0.2677485,0.7151000000000001,-0.394892,-0.2608815,0.92413,-0.5839019999999999,0.2923985,0.8902300000000001,-0.581962,-0.0907085,0.00081,0.003645,0.0907085,-0.00081,-0.0036449999999999,-0.0987454999999999,-0.32624,-0.242702,0.0759595,-0.3552499999999999,-0.227082,-0.1081195,-0.6720499999999999,-0.1080299999999999,0.1117584999999999,-0.70385,-0.127799,1
163,0.0014525,0.72752,-0.2524395,-0.1460844999999999,0.52776,-0.1940395,-0.2442945,0.7171399999999999,-0.4019395,0.1593555,0.5314,-0.2065395,0.2651755,0.70966,-0.4082195,-0.2631945,0.91454,-0.6013695,0.2908755,0.88263,-0.5981195,-0.0904655,0.0006799999999999,0.0033915,0.0904655,-0.00068,-0.0033915,-0.1000395,-0.31443,-0.2568895,0.0744755,-0.34229,-0.2411195,-0.1091574999999999,-0.66449,-0.1163875,0.1111955,-0.69553,-0.1361575,1
164,0.0002025,0.7264499999999999,-0.2665595,-0.1474005,0.5236,-0.2057695,-0.2461705,0.71132,-0.4157895,0.1575595,0.5313,-0.2181294999999999,0.2626095,0.7053499999999999,-0.4213195,-0.2656405,0.90498,-0.6192595000000001,0.2890795,0.87584,-0.6149695,-0.0902095,0.0002,0.0031265,0.0902095,-0.0002,-0.0031264999999999,-0.1014865,-0.3022399999999999,-0.2711095,0.0729205,-0.32909,-0.2552395,-0.1103855,-0.6559200000000001,-0.1246674999999999,0.1100694999999999,-0.6866800000000001,-0.1443984999999999,1
165,-0.001002,0.7258899999999999,-0.280822,-0.148522,0.51982,-0.217802,-0.248002,0.70624,-0.428852,0.155898,0.52716,-0.230182,0.260098,0.70082,-0.434212,-0.268012,0.89565,-0.637182,0.2870779999999999,0.86776,-0.631582,-0.090088,4.999999999999449e-05,0.002838,0.090088,-4.999999999999449e-05,-0.0028379999999999,-0.10297,-0.28917,-0.2858119999999999,0.071397,-0.3151,-0.270042,-0.111592,-0.64651,-0.133211,0.1089779999999999,-0.67717,-0.1529809999999999,1
166,-0.0022509999999999,0.7239200000000001,-0.29487,-0.149642,0.51742,-0.22872,-0.249862,0.7001999999999999,-0.44174,0.154228,0.52315,-0.2412699999999999,0.257548,0.69533,-0.44648,-0.270162,0.88632,-0.6551,0.284928,0.8597600000000001,-0.6482399999999999,-0.089998,-0.0003199999999999,0.0026499999999999,0.089998,0.00032,-0.0026499999999999,-0.10471,-0.2779399999999999,-0.29987,0.069836,-0.30184,-0.28475,-0.1128289999999999,-0.63822,-0.141562,0.108238,-0.6693499999999999,-0.161534,1
167,-0.0033894999999999,0.722315,-0.30426,-0.1506775,0.5146850000000001,-0.23495,-0.2515374999999999,0.6943349999999999,-0.44991,0.1525625,0.518905,-0.24823,0.2549525,0.689155,-0.4536799999999999,-0.2722374999999999,0.876715,-0.66811,0.2826525,0.852385,-0.6607799999999999,-0.0897825,-0.0002749999999999,0.0028099999999999,0.0897825,0.0002749999999999,-0.00281,-0.1060894999999999,-0.266715,-0.30946,0.0683815,-0.288585,-0.29488,-0.1139994999999999,-0.629765,-0.145251,0.1077325,-0.661395,-0.165546,1
168,-0.004583,0.7191000000000001,-0.31284,-0.151708,0.5119400000000001,-0.24057,-0.253328,0.6874800000000001,-0.4579499999999999,0.150742,0.51458,-0.25443,0.2526919999999999,0.68249,-0.4606599999999999,-0.274178,0.8669800000000001,-0.68067,0.280242,0.84284,-0.67223,-0.089562,-0.0002699999999999,0.00295,0.089562,0.00027,-0.0029499999999999,-0.10756,-0.2598399999999999,-0.3145,0.067155,-0.2817099999999999,-0.30005,-0.115201,-0.6228899999999999,-0.148551,0.107232,-0.65449,-0.169196,1
169,-0.005654,0.7157849999999999,-0.320185,-0.152494,0.508715,-0.245515,-0.254784,0.679915,-0.464525,0.149336,0.509965,-0.259785,0.250526,0.675465,-0.467125,-0.275904,0.8573250000000001,-0.692055,0.277746,0.8341750000000001,-0.681945,-0.089576,-0.000365,0.0032749999999999,0.089576,0.000365,-0.003275,-0.108862,-0.252945,-0.318595,0.066254,-0.274815,-0.304365,-0.116245,-0.6159950000000001,-0.150949,0.1068759999999999,-0.647605,-0.171923,1
170,-0.0062055,0.7117,-0.327335,-0.1527295,0.50466,-0.250295,-0.2556195,0.67192,-0.470445,0.1482704999999999,0.50453,-0.265075,0.2486904999999999,0.66808,-0.472615,-0.2772395,0.84702,-0.7021050000000001,0.2753605,0.82164,-0.6908150000000001,-0.0897705,-6.0000000000004494e-05,0.0035349999999999,0.0897705,6.0000000000004494e-05,-0.0035349999999999,-0.1097565,-0.2469499999999999,-0.322125,0.0657925,-0.2688199999999999,-0.308705,-0.1169065,-0.61,-0.153261,0.1068104999999999,-0.64147,-0.174394,1
171,-0.0069729999999999,0.708215,-0.33421,-0.153111,0.499485,-0.2558,-0.2563809999999999,0.664325,-0.47531,0.146399,0.498885,-0.27081,0.246639,0.660755,-0.47931,-0.278461,0.8351250000000001,-0.71105,0.272929,0.809215,-0.69855,-0.090199,8.500000000000174e-05,0.00385,0.090199,-8.499999999997399e-05,-0.00385,-0.1106719999999999,-0.241915,-0.32585,0.065403,-0.264345,-0.31344,-0.117477,-0.604025,-0.155627,0.106719,-0.6351849999999999,-0.177029,1
172,-0.007668,0.7051400000000001,-0.34067,-0.153361,0.49633,-0.26007,-0.257091,0.65835,-0.47982,0.144399,0.49522,-0.27558,0.244809,0.6549,-0.48605,-0.279831,0.82496,-0.71847,0.270659,0.79788,-0.70589,-0.0905789999999999,0.00018,0.0041699999999999,0.0905789999999999,-0.0001799999999999,-0.00417,-0.111571,-0.23711,-0.32932,0.06503,-0.25986,-0.31797,-0.117931,-0.59847,-0.157913,0.106659,-0.62918,-0.179531,1
173,-0.0082015,0.70133,-0.34658,-0.1533845,0.4955799999999999,-0.26403,-0.2576445,0.6503,-0.48429,0.1425155,0.4904699999999999,-0.27995,0.2430255,0.6484099999999999,-0.49213,-0.2811445,0.81409,-0.72432,0.2687155,0.78717,-0.71264,-0.0908355,0.00064,0.0044899999999999,0.0908355,-0.00064,-0.0044899999999999,-0.1123405,-0.23254,-0.33225,0.0648165,-0.25596,-0.32236,-0.1182125,-0.5939,-0.159893,0.1067855,-0.62405,-0.181694,1
174,-0.0087885,0.6980500000000001,-0.35214,-0.1532135,0.49244,-0.26888,-0.2581335,0.64358,-0.48872,0.1410965,0.4878099999999999,-0.28462,0.2411565,0.64317,-0.49823,-0.2823435,0.8046199999999999,-0.72927,0.2671165,0.7793000000000001,-0.7188599999999999,-0.0910465,0.00087,0.00493,0.0910465,-0.00087,-0.0049299999999999,-0.1131045,-0.22787,-0.33518,0.0645864999999999,-0.25159,-0.32697,-0.1185075,-0.5889500000000001,-0.1620079999999999,0.1068565,-0.6184799999999999,-0.18368,1
175,-0.009455,0.695035,-0.357165,-0.153174,0.4896749999999999,-0.273435,-0.258664,0.638905,-0.493065,0.139706,0.486015,-0.289115,0.239286,0.638405,-0.504055,-0.283554,0.797515,-0.733655,0.2656759999999999,0.770925,-0.723735,-0.091166,0.0012149999999999,0.0053549999999999,0.091166,-0.0012149999999999,-0.005355,-0.1138,-0.223165,-0.337995,0.064335,-0.247125,-0.331385,-0.118787,-0.583885,-0.163865,0.106916,-0.612855,-0.18544,1
176,-0.0101259999999999,0.691935,-0.3611499999999999,-0.1529309999999999,0.487775,-0.27736,-0.258971,0.634155,-0.49683,0.138549,0.483975,-0.29268,0.237649,0.634645,-0.5102800000000001,-0.284771,0.790485,-0.7374700000000001,0.264599,0.762145,-0.72709,-0.091319,0.001335,0.0057099999999999,0.091319,-0.0013349999999999,-0.0057099999999999,-0.114447,-0.219125,-0.34053,0.064228,-0.242775,-0.33542,-0.118919,-0.579445,-0.165277,0.106939,-0.607785,-0.186646,1
177,-0.0108225,0.68919,-0.36456,-0.1528115,0.48625,-0.28091,-0.2592315,0.6298699999999999,-0.4994,0.1374785,0.48175,-0.29591,0.2359484999999999,0.6309199999999999,-0.51461,-0.2861815,0.7842800000000001,-0.7401599999999999,0.2636485,0.75495,-0.7302299999999999,-0.0914985,0.00151,0.00595,0.0914985,-0.00151,-0.0059499999999999,-0.1150835,-0.21475,-0.34268,0.0640925,-0.23872,-0.33907,-0.1190865,-0.5744199999999999,-0.1661109999999999,0.1069985,-0.6024400000000001,-0.187614,1
178,-0.011488,0.686275,-0.36778,-0.152969,0.484765,-0.2845,-0.259509,0.626895,-0.50197,0.136461,0.4796249999999999,-0.29899,0.234291,0.6277550000000001,-0.5183,-0.287619,0.7785850000000001,-0.74279,0.263021,0.748455,-0.73363,-0.091761,0.0016849999999999,0.00622,0.091761,-0.0016849999999999,-0.0062199999999999,-0.115701,-0.210285,-0.34479,0.063937,-0.234765,-0.3423899999999999,-0.119271,-0.569455,-0.166895,0.106941,-0.5970949999999999,-0.1884529999999999,1
179,-0.0120735,0.683315,-0.37054,-0.1530115,0.481885,-0.28823,-0.2597015,0.6235649999999999,-0.50478,0.1356485,0.476395,-0.30205,0.2329185,0.6243350000000001,-0.52188,-0.2888515,0.7729550000000001,-0.74571,0.2627785,0.745105,-0.7374700000000001,-0.0920485,0.0018349999999999,0.0065399999999999,0.0920485,-0.0018349999999999,-0.00654,-0.1162155,-0.206195,-0.34685,0.0637685,-0.231115,-0.34556,-0.1193265,-0.5647150000000001,-0.167471,0.1068784999999999,-0.591855,-0.189179,1
180,-0.012532,0.6799299999999999,-0.373695,-0.153005,0.4795399999999999,-0.2915149999999999,-0.260205,0.61991,-0.5098849999999999,0.135005,0.47353,-0.304735,0.231985,0.62042,-0.5243150000000001,-0.290065,0.7701899999999999,-0.7488349999999999,0.262665,0.74179,-0.7411350000000001,-0.092245,0.0020799999999999,0.0068249999999999,0.092245,-0.00208,-0.0068249999999999,-0.116632,-0.20244,-0.348635,0.0636559999999999,-0.22782,-0.348325,-0.119254,-0.56048,-0.168178,0.1069949999999999,-0.5866,-0.189782,1
181,-0.0129229999999999,0.6767,-0.37684,-0.152924,0.47653,-0.29483,-0.260664,0.61642,-0.51502,0.134466,0.46992,-0.30752,0.231306,0.61663,-0.52678,-0.291064,0.76618,-0.75218,0.262686,0.73821,-0.74397,-0.092406,0.0021799999999999,0.00719,0.092406,-0.00218,-0.00719,-0.116934,-0.19892,-0.35035,0.063641,-0.22507,-0.35089,-0.1190229999999999,-0.55652,-0.169006,0.107206,-0.58164,-0.190554,1
182,-0.013255,0.674,-0.3799949999999999,-0.152792,0.47321,-0.298185,-0.261162,0.6156600000000001,-0.519895,0.134008,0.46627,-0.310405,0.230758,0.61285,-0.529525,-0.292052,0.76328,-0.7555350000000001,0.262808,0.73417,-0.747425,-0.092528,0.00237,0.007545,0.092528,-0.0023699999999999,-0.0075449999999999,-0.117163,-0.19526,-0.352195,0.0636169999999999,-0.2223199999999999,-0.353355,-0.118703,-0.5525,-0.169825,0.107428,-0.5766399999999999,-0.1912839999999999,1
183,-0.0135065,0.67041,-0.38282,-0.1527075,0.4719199999999999,-0.3002599999999999,-0.2615675,0.61337,-0.52525,0.1340625,0.4644999999999999,-0.31244,0.2303925,0.6080099999999999,-0.53134,-0.2930275,0.7573099999999999,-0.75911,0.2628824999999999,0.72947,-0.75071,-0.0927025,0.0025699999999999,0.0077899999999999,0.0927025,-0.00257,-0.00779,-0.1172875,-0.19269,-0.35347,0.0636585,-0.22043,-0.35493,-0.1182465,-0.54974,-0.170315,0.1076725,-0.57311,-0.191876,1
184,-0.0136774999999999,0.66711,-0.3855499999999999,-0.1526105,0.4703199999999999,-0.3023099999999999,-0.2619505,0.60974,-0.53072,0.1341795,0.4623899999999999,-0.3144,0.2300495,0.6028899999999999,-0.5329999999999999,-0.2939905,0.75063,-0.7621899999999999,0.2629495,0.72496,-0.7543500000000001,-0.0929295,0.00278,0.00806,0.0929295,-0.00278,-0.0080599999999999,-0.1173655,-0.19027,-0.35466,0.0636655,-0.2186499999999999,-0.35633,-0.1178215,-0.54695,-0.1708949999999999,0.1078995,-0.57009,-0.1927819999999999,1
185,-0.013722,0.6636850000000001,-0.388165,-0.152441,0.467425,-0.304455,-0.262191,0.605745,-0.536575,0.134349,0.459445,-0.316675,0.2297489999999999,0.5978350000000001,-0.5349550000000001,-0.294751,0.7441850000000001,-0.7657450000000001,0.263099,0.7200150000000001,-0.757965,-0.093189,0.003155,0.008355,0.093189,-0.0031549999999999,-0.008355,-0.1173009999999999,-0.1878649999999999,-0.355765,0.06366,-0.2167549999999999,-0.357925,-0.117313,-0.5442849999999999,-0.171507,0.108279,-0.567025,-0.193804,1
186,-0.0135285,0.660355,-0.39009,-0.1525495,0.4647049999999999,-0.30657,-0.2622795,0.601745,-0.54284,0.1343205,0.456565,-0.31878,0.2293905,0.593355,-0.53722,-0.2954095,0.7372749999999999,-0.76911,0.2631605,0.7143649999999999,-0.76182,-0.0933705,0.0034249999999999,0.0085399999999999,0.0933705,-0.003425,-0.0085399999999999,-0.1172624999999999,-0.185275,-0.35711,0.0637315,-0.214485,-0.3598099999999999,-0.1168865,-0.541375,-0.171999,0.1085505,-0.563705,-0.195268,1
187,-0.0136475,0.65784,-0.39301,-0.1525825,0.4620999999999999,-0.3086,-0.2624325,0.59775,-0.5491699999999999,0.1342775,0.4535899999999999,-0.32086,0.2290174999999999,0.5886199999999999,-0.53972,-0.2958425,0.7299199999999999,-0.7724,0.2631475,0.70865,-0.76548,-0.0935975,0.0036499999999999,0.0087599999999999,0.0935975,-0.00365,-0.0087599999999999,-0.1171255,-0.18266,-0.35848,0.0639115,-0.21255,-0.36161,-0.1163985,-0.53859,-0.172675,0.1087974999999999,-0.56052,-0.1967829999999999,1
188,-0.0137499999999999,0.655085,-0.39595,-0.152577,0.4608649999999999,-0.31082,-0.262677,0.594715,-0.55504,0.134183,0.451685,-0.32301,0.228733,0.585135,-0.54121,-0.296157,0.723295,-0.77528,0.263073,0.7038150000000001,-0.76696,-0.0938529999999999,0.003825,0.0089599999999999,0.0938529999999999,-0.003825,-0.0089599999999999,-0.116924,-0.1792849999999999,-0.35994,0.064171,-0.2102549999999999,-0.36363,-0.115948,-0.535445,-0.173425,0.1090829999999999,-0.557125,-0.198351,1
189,-0.0135704999999999,0.653035,-0.398435,-0.1523355,0.4605250000000001,-0.312725,-0.2623955,0.5927450000000001,-0.558765,0.1343745,0.449655,-0.325115,0.2287345,0.582595,-0.543445,-0.2961655,0.717015,-0.778945,0.2632245,0.699015,-0.768885,-0.0940445,0.004095,0.0091449999999999,0.0940445,-0.0040949999999999,-0.009145,-0.1164325,-0.176025,-0.361605,0.0646905,-0.207635,-0.365865,-0.1152215,-0.532185,-0.17443,0.1095744999999999,-0.5536949999999999,-0.199856,1
190,-0.0129574999999999,0.65021,-0.4007699999999999,-0.1518005,0.4601699999999999,-0.31464,-0.2617105,0.5896399999999999,-0.56202,0.1348095,0.4477,-0.32691,0.2287395,0.5798599999999999,-0.54467,-0.2959004999999999,0.7109599999999999,-0.78234,0.2633095,0.6940999999999999,-0.77085,-0.0942195,0.0045799999999999,0.0092099999999999,0.0942195,-0.00458,-0.0092099999999999,-0.1158144999999999,-0.17287,-0.36312,0.0653305,-0.20518,-0.36797,-0.1143835,-0.52924,-0.175426,0.1102894999999999,-0.55044,-0.200607,1
191,-0.0124625,0.64767,-0.402875,-0.1513255,0.4599,-0.316475,-0.2611055,0.58602,-0.5650850000000001,0.1351844999999999,0.4460499999999999,-0.328555,0.2284345,0.5774699999999999,-0.5463450000000001,-0.2955955,0.70465,-0.785555,0.2626945,0.68821,-0.7727250000000001,-0.0942645,0.0050599999999999,0.009245,0.0942645,-0.00506,-0.009245,-0.1152895,-0.16986,-0.364435,0.0658985,-0.2022,-0.369915,-0.1136755,-0.52629,-0.17637,0.1108644999999999,-0.54691,-0.20147,1
192,-0.0118925,0.6455,-0.4044649999999999,-0.1508415,0.45954,-0.318295,-0.2602715,0.58283,-0.566935,0.1355885,0.4444099999999999,-0.3301349999999999,0.2280885,0.5754600000000001,-0.549255,-0.2952415,0.70087,-0.7886449999999999,0.2626785,0.6831400000000001,-0.7764449999999999,-0.0943485,0.0055399999999999,0.009215,0.0943485,-0.0055399999999999,-0.009215,-0.1147715,-0.1668799999999999,-0.365695,0.0664065,-0.1996199999999999,-0.372015,-0.1130335,-0.5235000000000001,-0.177417,0.1113484999999999,-0.5435300000000001,-0.2023889999999999,1
193,-0.011475,0.643775,-0.405625,-0.150449,0.458055,-0.319785,-0.259579,0.5809850000000001,-0.568155,0.135791,0.441605,-0.331355,0.227681,0.574125,-0.551675,-0.294989,0.698535,-0.791505,0.262671,0.678265,-0.779705,-0.094531,0.005945,0.009165,0.094531,-0.0059449999999999,-0.009165,-0.114409,-0.1637949999999999,-0.366685,0.066692,-0.196685,-0.373835,-0.112621,-0.520515,-0.178117,0.111761,-0.540365,-0.203463,1
194,-0.0109994999999999,0.642635,-0.40647,-0.1500755,0.4576949999999999,-0.32091,-0.2588855,0.5798749999999999,-0.5688,0.1359545,0.439895,-0.33214,0.2272945,0.573205,-0.55375,-0.2946855,0.696125,-0.79379,0.2626645,0.6745049999999999,-0.78253,-0.0946444999999999,0.0061049999999999,0.00914,0.0946444999999999,-0.006105,-0.00914,-0.1140674999999999,-0.160685,-0.36789,0.0669125,-0.193915,-0.37541,-0.1122545,-0.517565,-0.178859,0.1121645,-0.537375,-0.204345,1
195,-0.0103919999999999,0.64194,-0.406945,-0.149696,0.45758,-0.321555,-0.258266,0.57864,-0.569065,0.136314,0.439,-0.332545,0.227094,0.57293,-0.555335,-0.294386,0.6948300000000001,-0.796395,0.262914,0.6720200000000001,-0.784475,-0.094744,0.00624,0.0092449999999999,0.094744,-0.0062399999999999,-0.009245,-0.113761,-0.1575299999999999,-0.369135,0.06709,-0.1907599999999999,-0.376795,-0.111925,-0.51469,-0.179243,0.1123639999999999,-0.53445,-0.204965,1
196,-0.009798,0.6414850000000001,-0.407,-0.149331,0.458475,-0.32187,-0.257561,0.5784549999999999,-0.56911,0.136649,0.439045,-0.33272,0.227019,0.573465,-0.55663,-0.2940009999999999,0.6948350000000001,-0.79836,0.263279,0.670705,-0.78526,-0.094819,0.0062849999999999,0.0093,0.094819,-0.0062849999999999,-0.0092999999999999,-0.113576,-0.154055,-0.3705199999999999,0.06705,-0.187085,-0.37843,-0.111672,-0.511075,-0.1795479999999999,0.1123289999999999,-0.530805,-0.2052419999999999,1
197,-0.0094505,0.6418200000000001,-0.4069399999999999,-0.1492055,0.4591,-0.32196,-0.2570755,0.57793,-0.56911,0.1367644999999999,0.43918,-0.33279,0.2267945,0.57378,-0.55757,-0.2938955,0.69499,-0.80003,0.2634045,0.66879,-0.78487,-0.0949145,0.00636,0.0093,0.0949145,-0.0063599999999999,-0.0092999999999999,-0.1136205,-0.15136,-0.37181,0.0667774999999999,-0.1838999999999999,-0.38004,-0.1116985,-0.50797,-0.180062,0.1119544999999999,-0.52771,-0.2055239999999999,1
198,-0.009208,0.64255,-0.406925,-0.149145,0.45938,-0.321975,-0.256815,0.57671,-0.5687450000000001,0.1367649999999999,0.4393999999999999,-0.332805,0.226515,0.57423,-0.558065,-0.293895,0.6947,-0.800145,0.263505,0.6676599999999999,-0.785775,-0.094915,0.0063599999999999,0.0093149999999999,0.094915,-0.00636,-0.0093149999999999,-0.113791,-0.14917,-0.373015,0.06638,-0.1815,-0.381715,-0.11188,-0.50542,-0.180832,0.111475,-0.5251600000000001,-0.205544,1
199,-0.009178,0.6449149999999999,-0.40691,-0.149075,0.460005,-0.32196,-0.256615,0.576465,-0.5681700000000001,0.1368249999999999,0.4399149999999999,-0.33279,0.226425,0.5749249999999999,-0.55846,-0.293895,0.695005,-0.80013,0.263505,0.6677249999999999,-0.786,-0.094915,0.0063249999999999,0.00935,0.094915,-0.006325,-0.0093499999999999,-0.113967,-0.147165,-0.3742,0.065995,-0.179275,-0.3833499999999999,-0.112043,-0.502855,-0.181443,0.1108749999999999,-0.5225650000000001,-0.2050729999999999,1
200,-0.009094,0.647125,-0.4068049999999999,-0.148971,0.460655,-0.3215449999999999,-0.256531,0.576775,-0.567255,0.136929,0.440395,-0.332495,0.226419,0.575675,-0.558195,-0.293901,0.695955,-0.799865,0.2635889999999999,0.669525,-0.784455,-0.094919,0.006135,0.009465,0.094919,-0.006135,-0.009465,-0.114177,-0.145725,-0.375015,0.065553,-0.1773749999999999,-0.3845349999999999,-0.1120599999999999,-0.500595,-0.181575,0.110299,-0.520605,-0.204438,1
201,-0.0095995,0.64994,-0.406435,-0.1490425,0.4612,-0.320805,-0.2565325,0.57846,-0.566015,0.1367975,0.44073,-0.331945,0.2261775,0.57675,-0.557705,-0.2938625,0.69814,-0.799115,0.2634575,0.67163,-0.782715,-0.0950775,0.0058199999999999,0.009605,0.0950775,-0.0058199999999999,-0.009605,-0.1146305,-0.1447299999999999,-0.375455,0.0649405,-0.1759399999999999,-0.3850449999999999,-0.1122815,-0.49914,-0.181598,0.1095275,-0.51937,-0.203019,1
202,-0.0100625,0.6514500000000001,-0.405815,-0.1494245,0.46271,-0.320135,-0.2567845,0.57997,-0.565065,0.1362755,0.4422,-0.331375,0.2256355,0.57821,-0.557205,-0.2941645,0.69965,-0.7983250000000001,0.2630154999999999,0.6731400000000001,-0.7809050000000001,-0.0952455,0.00556,0.0097549999999999,0.0952455,-0.00556,-0.009755,-0.1154045,-0.1443399999999999,-0.375645,0.0640265,-0.17501,-0.385355,-0.1128195,-0.4981299999999999,-0.181261,0.1084155,-0.51822,-0.201628,1
203,-0.0108449999999999,0.6518550000000001,-0.405445,-0.15008,0.463115,-0.319545,-0.2573,0.580375,-0.5642750000000001,0.1355,0.442605,-0.330935,0.2251,0.578615,-0.556875,-0.29463,0.700055,-0.797855,0.26298,0.6735450000000001,-0.780565,-0.09542,0.005545,0.0098949999999999,0.09542,-0.005545,-0.009895,-0.1163839999999999,-0.145005,-0.375315,0.063067,-0.175305,-0.385035,-0.1136949999999999,-0.4981949999999999,-0.181221,0.1072,-0.518775,-0.20056,1
204,-0.011631,0.651895,-0.405075,-0.150801,0.463115,-0.319085,-0.257691,0.580375,-0.563825,0.1346689999999999,0.442605,-0.330585,0.224639,0.578615,-0.556345,-0.2951209999999999,0.700475,-0.797355,0.2624189999999999,0.6741349999999999,-0.780375,-0.095539,0.005545,0.010085,0.095539,-0.005545,-0.010085,-0.117422,-0.1458149999999999,-0.375125,0.062081,-0.176065,-0.384845,-0.11465,-0.4986049999999999,-0.181317,0.106129,-0.519675,-0.19983,1
205,-0.0122855,0.652725,-0.40468,-0.1513725,0.463295,-0.31831,-0.2579925,0.580905,-0.56318,0.1340174999999999,0.442615,-0.33034,0.2243774999999999,0.578615,-0.55474,-0.2953425,0.701085,-0.79672,0.2618975,0.6759550000000001,-0.78029,-0.0955175,0.005545,0.0101699999999999,0.0955175,-0.005545,-0.01017,-0.1181405,-0.145835,-0.37505,0.0613695,-0.1761049999999999,-0.38477,-0.1154834999999999,-0.498665,-0.181489,0.1054175,-0.520025,-0.199429,1
206,-0.0129185,0.6545449999999999,-0.40399,-0.1519815,0.4640849999999999,-0.31758,-0.2585115,0.582295,-0.56215,0.1333685,0.442865,-0.33004,0.2241785,0.579475,-0.55293,-0.2952915,0.702475,-0.7946900000000001,0.2614185,0.678855,-0.7802899999999999,-0.0954885,0.005545,0.0101699999999999,0.0954885,-0.005545,-0.01017,-0.1189185,-0.145835,-0.37487,0.0606205,-0.1761049999999999,-0.38478,-0.1163625,-0.498785,-0.18155,0.1046584999999999,-0.520215,-0.199133,1
207,-0.0135389999999999,0.656755,-0.4032199999999999,-0.15247,0.465245,-0.31686,-0.25862,0.585095,-0.56013,0.13288,0.443145,-0.32963,0.22436,0.581395,-0.55104,-0.29514,0.704375,-0.7920400000000001,0.26103,0.6811050000000001,-0.77844,-0.09542,0.0056849999999999,0.01025,0.09542,-0.0056849999999999,-0.0102499999999999,-0.1196629999999999,-0.146225,-0.37407,0.059979,-0.1765149999999999,-0.3846,-0.11725,-0.499335,-0.1816549999999999,0.10399,-0.520695,-0.1984659999999999,1
208,-0.0143109999999999,0.6586399999999999,-0.40171,-0.153086,0.4653199999999999,-0.3154599999999999,-0.258996,0.5865,-0.55789,0.132434,0.4446599999999999,-0.32826,0.224464,0.58285,-0.54891,-0.295066,0.70584,-0.7886799999999999,0.260814,0.68429,-0.7767499999999999,-0.095314,0.0057399999999999,0.0103199999999999,0.095314,-0.00574,-0.0103199999999999,-0.120536,-0.14889,-0.37251,0.059393,-0.17893,-0.38348,-0.118086,-0.50173,-0.181436,0.103224,-0.52325,-0.1975879999999999,1
209,-0.01504,0.6611899999999999,-0.39971,-0.153653,0.4652199999999999,-0.31404,-0.259343,0.5887100000000001,-0.55559,0.1320569999999999,0.44594,-0.32673,0.2249269999999999,0.58529,-0.54654,-0.294823,0.7082999999999999,-0.78453,0.260777,0.6883900000000001,-0.7746299999999999,-0.095187,0.00572,0.0104499999999999,0.095187,-0.00572,-0.01045,-0.121356,-0.15159,-0.37085,0.0589,-0.18144,-0.38205,-0.118798,-0.50453,-0.180945,0.1027569999999999,-0.52634,-0.196751,1
210,-0.0154265,0.66412,-0.397305,-0.1539925,0.46491,-0.312735,-0.2592025,0.59334,-0.552695,0.1319874999999999,0.44686,-0.325315,0.2256275,0.58908,-0.544065,-0.2943624999999999,0.7124900000000001,-0.7806350000000001,0.2610675,0.69313,-0.771875,-0.0948975,0.0055899999999999,0.010465,0.0948975,-0.0055899999999999,-0.010465,-0.1218684999999999,-0.15464,-0.369185,0.0587824999999999,-0.18453,-0.380095,-0.1192015,-0.50797,-0.180579,0.1025375,-0.5297099999999999,-0.196658,1
211,-0.0156305,0.66635,-0.394435,-0.1542905,0.46733,-0.311005,-0.2590805,0.59799,-0.5489850000000001,0.1316895,0.4504,-0.323395,0.2264895,0.59283,-0.541585,-0.2938105,0.71789,-0.776685,0.2615595,0.69791,-0.768235,-0.0947195,0.00533,0.010425,0.0947195,-0.00533,-0.0104249999999999,-0.1222875,-0.1581099999999999,-0.3675049999999999,0.0587915,-0.18798,-0.377905,-0.1195835,-0.51189,-0.179978,0.1025495,-0.53341,-0.1966149999999999,1
