sb224sc-HT22-VT27/4dt907/src/data/labeled_files/A83_kinect_mirrored.csv
FrameNo,nose_3d_x,nose_3d_y,nose_3d_z,left_shoulder_3d_x,left_shoulder_3d_y,left_shoulder_3d_z,left_elbow_3d_x,left_elbow_3d_y,left_elbow_3d_z,right_shoulder_3d_x,right_shoulder_3d_y,right_shoulder_3d_z,right_elbow_3d_x,right_elbow_3d_y,right_elbow_3d_z,left_wrist_3d_x,left_wrist_3d_y,left_wrist_3d_z,right_wrist_3d_x,right_wrist_3d_y,right_wrist_3d_z,left_hip_3d_x,left_hip_3d_y,left_hip_3d_z,right_hip_3d_x,right_hip_3d_y,right_hip_3d_z,left_knee_3d_x,left_knee_3d_y,left_knee_3d_z,right_knee_3d_x,right_knee_3d_y,right_knee_3d_z,left_ankle_3d_x,left_ankle_3d_y,left_ankle_3d_z,right_ankle_3d_x,right_ankle_3d_y,right_ankle_3d_z,activity_label
0,1.002231,0.7854315000000001,0.1348765,0.810839,0.5827015,0.1177925,0.652369,0.8209515000000001,0.0799115,1.178599,0.5861815,0.1022675,1.316729,0.8201515,0.0491105,0.559689,1.0321915,0.0259415,1.383629,1.0402915,0.0019264999999999,0.918837,-0.0020334999999999,-0.0011145,1.081163,0.0020334999999999,0.0011144999999999,0.882419,-0.5002285,0.0065254999999999,1.1180089999999998,-0.4422585,-0.0293655,0.875489,-0.8709985,0.0090545,1.097092,-0.8563185,-0.0055365,1
1,1.0021635,0.7854725,0.13484,0.8107655,0.5827525,0.117734,0.6523055,0.8209425,0.07984,1.1799755,0.5874325,0.10403,1.3166755,0.8201225,0.048929,0.5632455000000001,1.0224525,0.0260609999999999,1.3961855,1.0776525,-0.0009709999999999,0.9188145,-0.0019925,-0.0011289999999999,1.0811855,0.0019925,0.0011289999999999,0.8824455,-0.4999774999999999,0.0064899999999999,1.1181955,-0.4472375,-0.028418,0.8763255000000001,-0.8734675,0.0100769999999999,1.0970295,-0.8562875,-0.0055829999999999,1
2,1.0020325,0.785243,0.134488,0.8106725,0.582723,0.117637,0.6522125,0.8208930000000001,0.079709,1.1798425,0.587323,0.103674,1.3167425,0.8201630000000001,0.048438,0.5622225000000001,1.023913,0.025275,1.3960625,1.078613,-0.0014159999999999,0.9188305,-0.00178,-0.0010769999999999,1.0811695,0.00178,0.001077,0.8824525,-0.499847,0.006386,1.1179525,-0.440047,-0.029947,0.8760725,-0.8719969999999999,0.009175,1.0970775,-0.8561369999999999,-0.0058169999999999,1
3,1.001828,0.7848515,0.134133,0.810598,0.5825115,0.117612,0.6520779999999999,0.8205215,0.079305,1.179978,0.5873915,0.103882,1.316808,0.8194815,0.047997,0.562128,1.0239015,0.024319,1.395848,1.0790015,-0.0022889999999999,0.918801,-0.0019785,-0.001055,1.081199,0.0019785,0.001055,0.883088,-0.4965084999999999,0.0059089999999999,1.118308,-0.4376585,-0.031002,0.875958,-0.8717185,0.0084349999999999,1.097337,-0.8561385,-0.005807,1
4,1.0018125,0.7850010000000001,0.133983,0.8106005000000001,0.582661,0.117477,0.6521005,0.820551,0.079042,1.1797005,0.587241,0.1032599999999999,1.3170505,0.819791,0.047527,0.5620605000000001,1.023951,0.023478,1.3959405,1.079751,-0.002686,0.9187755,-0.001976,-0.001076,1.0812245,0.001976,0.001076,0.8831005000000001,-0.496259,0.0056949999999999,1.1175005,-0.449659,-0.028847,0.8759005,-0.871579,0.0084839999999999,1.0975125,-0.8551489999999999,-0.0053209999999999,1
5,1.002094,0.7845495,0.1335605,0.810664,0.5824095,0.1172855,0.652134,0.8199895,0.0783325,1.179494,0.5866795,0.1025955,1.317094,0.8194895,0.0464985,0.562114,1.0218695,0.0205365,1.395964,1.0796695,-0.0030675,0.918839,-0.0017994999999999,-0.0009925,1.081161,0.0017994999999999,0.0009925,0.883094,-0.4959205,0.0052545,1.117764,-0.4542905,-0.0286414999999999,0.876054,-0.8717705,0.0084074999999999,1.097073,-0.8590105,-0.0054654999999999,1
6,1.002188,0.784559,0.133179,0.810647,0.5824290000000001,0.1170379999999999,0.6520870000000001,0.819999,0.0778899999999999,1.179847,0.5870190000000001,0.102715,1.317177,0.819689,0.046096,0.561077,1.023389,0.0190109999999999,1.395787,1.079589,-0.003737,0.918831,-0.001846,-0.001015,1.0811689999999998,0.001846,0.0010149999999999,0.8831670000000001,-0.5034409999999999,0.0054589999999999,1.117707,-0.452351,-0.028505,0.8763470000000001,-0.874251,0.0069709999999999,1.097283,-0.8590909999999999,-0.005729,1
7,1.002271,0.784846,0.132383,0.8106090000000001,0.582616,0.116809,0.651999,0.8201860000000001,0.07669,1.179639,0.5871360000000001,0.102065,1.317049,0.819736,0.044827,0.561219,1.024386,0.017988,1.394119,1.079286,-0.0060239999999999,0.918768,-0.001997,-0.0011399999999999,1.081232,0.001997,0.00114,0.883099,-0.497564,0.005171,1.118009,-0.445814,-0.0296099999999999,0.876069,-0.8712139999999999,0.008475,1.097358,-0.856784,-0.0062369999999999,1
8,1.002257,0.7848105,0.131782,0.810577,0.5825905,0.1165799999999999,0.6519269999999999,0.8201505,0.0758129999999999,1.179607,0.5871405,0.1018719999999999,1.316997,0.8197004999999999,0.043815,0.561367,1.0243505,0.016331,1.394017,1.0793505,-0.0075659999999999,0.918752,-0.0019775,-0.00116,1.081248,0.0019775,0.00116,0.883147,-0.4969695,0.004982,1.118027,-0.4455995,-0.029621,0.876097,-0.8709195000000001,0.008404,1.097467,-0.8567795,-0.0063309999999999,1
9,1.0021975,0.7847735,0.13105,0.8105375,0.5825835,0.11633,0.6518675,0.8201135,0.074867,1.1795275,0.5871335,0.101408,1.3169575,0.8196735,0.042703,0.5611775,1.0245135,0.014739,1.3935475,1.0794134999999998,-0.0092469999999999,0.9187325,-0.0019585,-0.0011549999999999,1.0812674999999998,0.0019585,0.001155,0.8831975,-0.4963964999999999,0.004785,1.1180374999999998,-0.4445464999999999,-0.029751,0.8760975,-0.8703664999999999,0.008206,1.0975775,-0.8566765,-0.0064329999999999,1
10,1.002114,0.7848465,0.129879,0.810464,0.5827165,0.115756,0.651794,0.8199164999999999,0.073452,1.179394,0.5872165,0.100616,1.316934,0.8196964999999999,0.041173,0.5610040000000001,1.0242065,0.012707,1.393084,1.0795065,-0.0115649999999999,0.918706,-0.0020255,-0.001153,1.081294,0.0020255,0.001153,0.883284,-0.4958035,0.0045299999999999,1.118104,-0.4454535,-0.029763,0.876194,-0.8702735,0.00843,1.097737,-0.8568835,-0.0061799999999999,1
11,1.002025,0.784996,0.128551,0.810389,0.5828960000000001,0.11516,0.6517189999999999,0.819766,0.071985,1.179239,0.5873759999999999,0.0998139999999999,1.316899,0.8198160000000001,0.0395859999999999,0.560809,1.023936,0.0107349999999999,1.392669,1.079636,-0.013904,0.918676,-0.002079,-0.00114,1.081324,0.002079,0.0011399999999999,0.8833690000000001,-0.495444,0.0042689999999999,1.118119,-0.446374,-0.029959,0.8762989999999999,-0.8701840000000001,0.0087929999999999,1.097883,-0.8570040000000001,-0.005895,1
12,1.0019604999999998,0.785176,0.1270359999999999,0.8103195,0.583086,0.114506,0.6516295,0.8195359999999999,0.070337,1.1791195,0.587556,0.099002,1.3168495,0.8199259999999999,0.037869,0.5605595,1.023866,0.008535,1.3924195,1.079566,-0.0163929999999999,0.9186415,-0.002128,-0.001145,1.0813585,0.0021279999999999,0.001145,0.8834595,-0.495084,0.0039749999999999,1.1181995,-0.445894,-0.030279,0.8764595,-0.870094,0.00911,1.0979745,-0.857344,-0.0056709999999999,1
13,1.0019085,0.7853315,0.125435,0.8102415000000001,0.5832915,0.113853,0.6515314999999999,0.8193115,0.068649,1.1790415,0.5877715,0.098173,1.3168615,0.8201515,0.036114,0.5602515,1.0237015,0.0062279999999999,1.3922615,1.0793015,-0.018825,0.9185965,-0.0021855,-0.001131,1.0814035,0.0021855,0.001131,0.8835615,-0.4946485,0.003727,1.1182115,-0.4453185,-0.0306229999999999,0.8766214999999999,-0.8698685,0.009345,1.0980805,-0.8573485,-0.005464,1
14,1.001869,0.7854755,0.1238205,0.81018,0.5835055,0.1131845,0.65147,0.8190955,0.0668904999999999,1.17895,0.5879755,0.0972765,1.31701,0.8203655,0.0342154999999999,0.56003,1.0235455,0.0038865,1.3921,1.0788455,-0.0212225,0.918555,-0.0022345,-0.0010755,1.081445,0.0022345,0.0010755,0.88366,-0.4936745,0.0034275,1.11822,-0.4447845,-0.0310195,0.87677,-0.8694845,0.0095705,1.098145,-0.8573945000000001,-0.0052644999999999,1
15,1.001824,0.7856885,0.1222005,0.810118,0.5837185,0.1125005,0.651448,0.8187985,0.0650874999999999,1.178868,0.5881885,0.0963435,1.317168,0.8203385,0.0323815,0.559848,1.0233985,0.0016255,1.391958,1.0777985,-0.0233945,0.918523,-0.0022714999999999,-0.0009965,1.081477,0.0022715,0.0009964999999999,0.883738,-0.4929215,0.0029635,1.118188,-0.4448315,-0.0314425,0.8769780000000001,-0.8694915,0.0097655,1.098066,-0.8574615,-0.0050695,1
16,1.0017744999999998,0.7859470000000001,0.1204855,0.8100635,0.583947,0.1117515,0.6513535000000001,0.818527,0.0632525,1.1787935,0.588447,0.0954125,1.3174335,0.8202170000000001,0.0304294999999999,0.5596235,1.023077,-0.0005165,1.3920035,1.076477,-0.0255595,0.9184965,-0.0022839999999999,-0.0009065,1.0815035,0.0022839999999999,0.0009064999999999,0.8838135,-0.492143,0.0023245,1.1181635,-0.445373,-0.0318175,0.8771135,-0.8694729999999999,0.0098904999999999,1.0980335,-0.857503,-0.0049175,1
17,1.001699,0.786226,0.11867,0.810004,0.584166,0.111007,0.6512440000000002,0.818206,0.0614269999999999,1.178734,0.588676,0.094471,1.317834,0.820026,0.028381,0.5593440000000001,1.022566,-0.0027869999999999,1.392204,1.075066,-0.027873,0.918461,-0.002289,-0.000842,1.081539,0.0022889999999999,0.000842,0.883854,-0.491384,0.001679,1.118154,-0.445944,-0.0322089999999999,0.877234,-0.869424,0.010032,1.097904,-0.857724,-0.004812,1
18,1.001612,0.7864785000000001,0.1169104999999999,0.809964,0.5843585,0.1101944999999999,0.651124,0.8177485000000001,0.0592564999999999,1.178744,0.5888585000000001,0.0935945,1.318254,0.8197585000000001,0.0261264999999999,0.5588139999999999,1.0220685,-0.0056715,1.392894,1.0735685,-0.0306485,0.918414,-0.0022915,-0.0008085,1.081586,0.0022915,0.0008084999999999,0.883894,-0.4905415,0.0008534999999999,1.118154,-0.4457115,-0.0328135,0.8773940000000001,-0.8694115,0.0101484999999999,1.097879,-0.8579614999999999,-0.0047195,1
19,1.001532,0.7864785000000001,0.115388,0.809935,0.5843585,0.109638,0.6509849999999999,0.8177485000000001,0.057321,1.178865,0.5888585000000001,0.092961,1.318845,0.8197585000000001,0.024072,0.558325,1.0220685,-0.00811,1.393875,1.0735685,-0.033426,0.918355,-0.0022915,-0.0007809999999999,1.081645,0.0022915,0.000781,0.883835,-0.4898715,-0.0002399999999999,1.118115,-0.4449515,-0.0336,0.877395,-0.8694115,0.010014,1.09782,-0.8579515,-0.00485,1
20,1.001418,0.7864785000000001,0.113871,0.809909,0.5843585,0.1090559999999999,0.650779,0.8177485000000001,0.055202,1.178999,0.5888585000000001,0.092289,1.319529,0.8197585000000001,0.021842,0.557749,1.0220685,-0.010823,1.395069,1.0735685,-0.036536,0.918297,-0.0022915,-0.0007749999999999,1.081703,0.0022915,0.0007749999999999,0.883719,-0.4891915,-0.0015949999999999,1.118079,-0.4442015,-0.0344569999999999,0.877379,-0.8694115,0.0098929999999999,1.097764,-0.8579515,-0.00497,1
21,1.00132,0.7864785000000001,0.1121165,0.8099000000000001,0.5843585,0.1084665,0.65056,0.8177485000000001,0.0529635,1.17928,0.5888585000000001,0.0914665,1.32038,0.8197585000000001,0.0193785,0.55678,1.0220685,-0.0135375,1.3965,1.0729685,-0.0401585,0.918239,-0.0022915,-0.0007705,1.081761,0.0022915,0.0007705,0.8836,-0.4891915,-0.0031585,1.11803,-0.4442015,-0.0357104999999999,0.8773400000000001,-0.8694115,0.0098035,1.097715,-0.8579515,-0.0050585,1
22,1.0012555,0.7865685,0.110276,0.8099675,0.5844585,0.107837,0.6503775,0.8173385000000001,0.050524,1.1796575,0.5889585,0.090537,1.3211175,0.8193585,0.016641,0.5556175,1.0220185,-0.0165619999999999,1.3982275,1.0708185,-0.0441089999999999,0.9181805,-0.0022404999999999,-0.0007669999999999,1.0818195,0.0022405,0.000767,0.8834675,-0.4890415,-0.0050699999999999,1.1179075,-0.4433915,-0.0374979999999999,0.8773575,-0.8695915,0.009028,1.0975864999999998,-0.8579614999999999,-0.0052749999999999,1
23,1.0011925,0.7866310000000001,0.1083755,0.8100565,0.584531,0.1071985,0.6501365,0.816841,0.0479805,1.1800765,0.588981,0.0896035,1.3217965,0.8187610000000001,0.0137505,0.5541965,1.021571,-0.0199584999999999,1.4003165,1.068571,-0.0483524999999999,0.9181105,-0.002203,-0.0007764999999999,1.0818895,0.002203,0.0007764999999999,0.8833465,-0.488889,-0.0072385,1.1178065,-0.443199,-0.0394705,0.8773465,-0.869969,0.0081355,1.0973735,-0.858049,-0.0055735,1
24,1.001104,0.786577,0.1064825,0.810167,0.584567,0.1065315,0.649687,0.8163469999999999,0.0455745,1.180527,0.588917,0.0887395,1.322497,0.817227,0.0108895,0.552357,1.020767,-0.0231934999999999,1.402707,1.066567,-0.0524594999999999,0.918021,-0.002177,-0.0007954999999999,1.081979,0.002177,0.0007955,0.883177,-0.487653,-0.0095994999999999,1.117717,-0.441803,-0.0418124999999999,0.877397,-0.869833,0.0070985,1.097158,-0.857993,-0.0062564999999999,1
25,1.0010169999999998,0.7864059999999999,0.1044964999999999,0.8101880000000001,0.584596,0.1060174999999999,0.649018,0.8154859999999999,0.0428674999999999,1.181018,0.588846,0.0877695,1.323178,0.8150259999999999,0.0080485,0.550048,1.019826,-0.0267095,1.405788,1.064926,-0.0570825,0.91792,-0.0021449999999999,-0.0007904999999999,1.08208,0.002145,0.0007904999999999,0.882858,-0.486564,-0.0127555,1.117628,-0.439814,-0.0448835,0.877368,-0.869504,0.0061475,1.096949,-0.857884,-0.0068515,1
26,1.0009625,0.7862665,0.1024964999999999,0.8101915,0.5846865,0.1054455,0.6482615,0.8144564999999999,0.0399884999999999,1.1814815,0.5888165,0.0866635,1.3240315,0.8128464999999999,0.0051155,0.5471515,1.0183065,-0.0306215,1.4093115,1.0635065,-0.0620975,0.9177965,-0.0021334999999999,-0.0007824999999999,1.0822035,0.0021335,0.0007824999999999,0.8825615,-0.4856034999999999,-0.0160585,1.1175215,-0.4380334999999999,-0.0482355,0.8773515000000001,-0.8691235,0.0052014999999999,1.0967775,-0.8576235000000001,-0.0074395,1
27,1.000895,0.7861485,0.100094,0.810169,0.5846585,0.103998,0.6472789999999999,0.8120085,0.03718,1.181889,0.5888985,0.085186,1.3249689999999998,0.8104285,0.002131,0.544099,1.0159385,-0.0343229999999999,1.412959,1.0620385,-0.06702,0.917634,-0.0020984999999999,-0.0007749999999999,1.082366,0.0020984999999999,0.000775,0.882179,-0.4843915,-0.0196609999999999,1.1174689999999998,-0.4364215,-0.052135,0.877349,-0.8684815,0.004221,1.096625,-0.8569915,-0.0079829999999999,1
28,1.0008005,0.786316,0.097554,0.8101395,0.584746,0.102194,0.6460695000000001,0.809766,0.034457,1.1822495,0.5888460000000001,0.083098,1.3257795,0.807436,-0.0010599999999999,0.5393995,1.013866,-0.0383909999999999,1.4172095,1.059766,-0.0719149999999999,0.9174275,-0.002038,-0.0007559999999999,1.0825725,0.002038,0.0007559999999999,0.8817095000000001,-0.482964,-0.0232619999999999,1.1174195,-0.434794,-0.0564709999999999,0.8775595,-0.8676539999999999,0.0033559999999999,1.0965105,-0.855984,-0.008472,1
29,1.0006564999999998,0.786309,0.094702,0.8100525000000001,0.5848190000000001,0.100244,0.6432025,0.807529,0.031021,1.1825925,0.588769,0.080914,1.3266425,0.803799,-0.0042359999999999,0.5339625,1.0112489999999998,-0.0422889999999999,1.4221724999999998,1.056549,-0.0769509999999999,0.9171795,-0.001987,-0.0007449999999999,1.0828205,0.001987,0.000745,0.8811525,-0.481351,-0.026966,1.1172425,-0.432961,-0.0612169999999999,0.8777525,-0.866691,0.002694,1.0964055,-0.8546309999999999,-0.0089759999999999,1
30,1.0004425,0.786231,0.0918875,0.8097195,0.584801,0.0980584999999999,0.6400395000000001,0.804901,0.0279815,1.1828595,0.588611,0.0786525,1.3278795,0.799971,-0.0076665,0.5275095000000001,1.007311,-0.0461275,1.4280595,1.053111,-0.0823655,0.9168965,-0.001938,-0.0007355,1.0831035,0.0019379999999999,0.0007355,0.8805295,-0.4793389999999999,-0.0307814999999999,1.1170795,-0.4303889999999999,-0.0659754999999999,0.8779195,-0.865479,0.0021154999999999,1.0963395,-0.853129,-0.0093545,1
31,1.000202,0.7860675,0.0888954999999999,0.8093090000000001,0.5848175,0.0956335,0.6365890000000001,0.8019275,0.0251644999999999,1.183059,0.5883975,0.0762154999999999,1.329539,0.7956875,-0.0110165,0.520749,1.0015175,-0.0494525,1.434949,1.0487375,-0.0881224999999999,0.916618,-0.0018805,-0.0007825,1.083382,0.0018804999999999,0.0007824999999999,0.879819,-0.4770625,-0.0347195,1.116899,-0.4272625,-0.0707825,0.878209,-0.8637425,0.0021244999999999,1.096261,-0.8513725,-0.0096865,1
32,1.000009,0.7860985,0.085792,0.808791,0.5849785,0.093041,0.632981,0.7974685,0.0225349999999999,1.183301,0.5877384999999999,0.0736209999999999,1.331841,0.7909484999999999,-0.014564,0.513771,0.9952785,-0.052402,1.443571,1.0429585,-0.094247,0.916296,-0.0017984999999999,-0.000803,1.083704,0.0017985,0.0008029999999999,0.8790910000000001,-0.4742015,-0.038837,1.116771,-0.4249415,-0.075577,0.878641,-0.8614115,0.0024929999999999,1.096228,-0.8493215000000001,-0.009956,1
33,0.9998145,0.7864009999999999,0.082508,0.8082555000000001,0.5847009999999999,0.090099,0.6293655,0.792701,0.019894,1.1835955,0.587151,0.070808,1.3347755,0.786681,-0.0185289999999999,0.5069555,0.987751,-0.055655,1.4527755,1.036301,-0.100821,0.9160385,-0.001708,-0.000772,1.0839615,0.0017079999999999,0.000772,0.8783655,-0.471359,-0.04301,1.1167355,-0.424209,-0.080151,0.8791455,-0.858889,0.0030939999999999,1.0963045,-0.846819,-0.009977,1
34,0.9996605,0.78667,0.0790035,0.8076495,0.58431,0.0868795,0.6256695,0.7874099999999999,0.0173455,1.1839195,0.5866699999999999,0.0678625,1.3380895,0.78206,-0.0228174999999999,0.5003595000000001,0.97974,-0.0586525,1.4627495,1.02759,-0.1079985,0.9157275,-0.001601,-0.0007425,1.0842725,0.001601,0.0007425,0.8777095,-0.46817,-0.0468555,1.1167095,-0.4235899999999999,-0.0842385,0.8796995000000001,-0.85618,0.0037785,1.0964175,-0.8440000000000001,-0.0098964999999999,1
35,0.9995235,0.7870539999999999,0.07517,0.8070355,0.5835140000000001,0.0831409999999999,0.6218555,0.7818940000000001,0.014677,1.1841955,0.585634,0.064542,1.3413355,0.776524,-0.0272729999999999,0.4937255,0.972474,-0.0615499999999999,1.4727154999999998,1.017684,-0.1151799999999999,0.9153675,-0.001448,-0.0006519999999999,1.0846325,0.0014479999999999,0.0006519999999999,0.8769655000000001,-0.464576,-0.050926,1.1165955,-0.423126,-0.08839,0.8802755,-0.8530660000000001,0.004519,1.0965015,-0.841116,-0.009895,1
36,0.999487,0.787454,0.0712245,0.806428,0.582704,0.0798325,0.6180680000000001,0.777004,0.0118944999999999,1.1845679999999998,0.584474,0.0613844999999999,1.344918,0.770884,-0.0318655,0.486878,0.965314,-0.0660665,1.482988,1.007314,-0.1229364999999999,0.914949,-0.001284,-0.0005785,1.085051,0.001284,0.0005784999999999,0.876318,-0.460286,-0.0548435,1.116588,-0.422036,-0.0921565,0.880928,-0.849846,0.0053994999999999,1.096628,-0.838016,-0.0099225,1
37,0.999628,0.7872110000000001,0.066635,0.80621,0.581521,0.076446,0.6141,0.771131,0.00868,1.18497,0.582721,0.058393,1.34883,0.7643709999999999,-0.036591,0.4799599999999999,0.955081,-0.0703429999999999,1.49299,0.996251,-0.130803,0.914547,-0.0011049999999999,-0.0005709999999999,1.085453,0.001105,0.000571,0.87575,-0.456109,-0.0591629999999999,1.11662,-0.420199,-0.095993,0.88136,-0.846409,0.006623,1.09672,-0.834579,-0.0098949999999999,1
38,0.999776,0.7871985,0.061839,0.806087,0.5805485,0.072679,0.611577,0.7649185000000001,0.0059859999999999,1.185387,0.5809685,0.054993,1.353017,0.7580285,-0.041689,0.4730769999999999,0.9442385,-0.075761,1.503077,0.9849385,-0.139401,0.914162,-0.0009994999999999,-0.000576,1.085838,0.0009995,0.000576,0.875247,-0.4518115,-0.063291,1.116617,-0.4179515,-0.0997609999999999,0.881787,-0.8428715,0.0075469999999999,1.096746,-0.8310215,-0.009774,1
39,0.999941,0.7869710000000001,0.0567205,0.806007,0.579661,0.0683745,0.609027,0.759391,0.0023425,1.185767,0.579171,0.0513505,1.357357,0.752181,-0.0471584999999999,0.4656369999999999,0.934071,-0.0810875,1.513007,0.973981,-0.1480275,0.913772,-0.00082,-0.0006064999999999,1.086228,0.0008199999999999,0.0006065,0.8747670000000001,-0.447579,-0.0680775,1.116547,-0.415529,-0.1035974999999999,0.882217,-0.839329,0.0082365,1.096751,-0.827479,-0.0098704999999999,1
40,1.000299,0.7868345,0.0507645,0.806237,0.5786445,0.0631855,0.606697,0.7536945,-0.0025835,1.186207,0.5773945,0.0469075,1.362867,0.7463645,-0.0540355,0.458627,0.9242745,-0.0883955,1.5236070000000002,0.9637045,-0.1577855,0.913337,-0.0007204999999999,-0.0006215,1.086663,0.0007204999999999,0.0006214999999999,0.8744070000000002,-0.4423955,-0.0724555,1.116317,-0.4130255,-0.1070755,0.8826970000000001,-0.8346255,0.0087314999999999,1.09671,-0.8231054999999999,-0.0100015,1
41,1.0006665,0.7866515000000001,0.0438865,0.8065235,0.5773515,0.0574675,0.6044635,0.7497015,-0.0082754999999999,1.1865235,0.5763115000000001,0.0418535,1.3685035,0.7413215000000001,-0.0615005,0.4521435,0.9145115,-0.0957705,1.5334135,0.9546315,-0.1680105,0.9129215,-0.0006344999999999,-0.0006724999999999,1.0870785,0.0006345,0.0006724999999999,0.8742535000000001,-0.4371485,-0.0767505,1.1162735,-0.4099885,-0.1107005,0.8831935,-0.8300084999999999,0.0089185,1.0967235,-0.8188685,-0.0099184999999999,1
42,1.001026,0.785899,0.03621,0.8068379999999999,0.576579,0.051074,0.602188,0.7450789999999999,-0.0152169999999999,1.186878,0.574659,0.036169,1.373558,0.735559,-0.069164,0.445448,0.905989,-0.104474,1.542338,0.940919,-0.178994,0.912527,-0.000476,-0.000736,1.087473,0.0004759999999999,0.000736,0.874248,-0.432291,-0.081044,1.116298,-0.407491,-0.114644,0.883748,-0.825921,0.008754,1.096955,-0.814741,-0.010185,1
43,1.001396,0.7856035,0.0282149999999999,0.807131,0.5753535,0.043585,0.600241,0.7407635,-0.022521,1.187211,0.5728335,0.0301059999999999,1.378171,0.7284535,-0.076696,0.438591,0.8984335,-0.113736,1.550021,0.9286035,-0.188866,0.912221,-0.0003275,-0.0007209999999999,1.087779,0.0003274999999999,0.0007209999999999,0.8743210000000001,-0.4272165,-0.085106,1.116431,-0.4048565,-0.118536,0.8843610000000001,-0.8214265,0.0082589999999999,1.097157,-0.8101265,-0.010636,1
44,1.0016415,0.7847945,0.019549,0.8075965,0.5746844999999999,0.036236,0.5984065000000001,0.7357945,-0.0299229999999999,1.1875065,0.5709845,0.023676,1.3827165,0.7209245,-0.083888,0.4314865,0.8900644999999999,-0.123608,1.5583265,0.9160445,-0.198518,0.9119605,-0.0001524999999999,-0.000708,1.0880394999999998,0.0001524999999999,0.000708,0.8744864999999999,-0.4228355,-0.088998,1.1166065,-0.4019954999999999,-0.122308,0.8848665,-0.8167955,0.007662,1.0973205,-0.8051355,-0.011034,1
45,1.0019159999999998,0.783742,0.0105849999999999,0.808055,0.573782,0.028737,0.5966750000000001,0.731012,-0.0375649999999999,1.187615,0.5691120000000001,0.016839,1.386675,0.712932,-0.090916,0.424735,0.8810020000000001,-0.132366,1.566075,0.901402,-0.207336,0.911776,-3.500000000000031e-05,-0.0006989999999999,1.088224,3.500000000000031e-05,0.0006989999999999,0.874565,-0.418438,-0.092996,1.116725,-0.399128,-0.126096,0.885335,-0.812118,0.007163,1.097404,-0.800188,-0.011499,1
46,1.0022565,0.7832614999999999,0.0012985,0.8086255,0.5729314999999999,0.0203845,0.5951855000000001,0.7269715,-0.0458875,1.1875555,0.5679415,0.0095085,1.3904355,0.7063615,-0.0977794999999999,0.4170254999999999,0.8754314999999999,-0.1428495,1.5740355,0.8878415,-0.2159594999999999,0.9115685,7.149999999999518e-05,-0.0007474999999999,1.0884315,-7.150000000000212e-05,0.0007474999999999,0.8747255,-0.4131285,-0.0967295,1.1168755,-0.3952985,-0.1297595,0.8857555,-0.8060785,0.0065495,1.0975855,-0.7940085,-0.0120494999999999,1
47,1.002615,0.782288,-0.0084715,0.809151,0.572118,0.0119034999999999,0.593681,0.722948,-0.0547025,1.187471,0.566428,0.0017294999999999,1.393541,0.699428,-0.1049025,0.4086809999999999,0.870858,-0.1533525,1.582901,0.874358,-0.2239324999999999,0.911364,0.000299,-0.0008905,1.088636,-0.000299,0.0008904999999999,0.874941,-0.407692,-0.1006825,1.116981,-0.390862,-0.1334025,0.886131,-0.799762,0.0056814999999999,1.097846,-0.787272,-0.0128975,1
48,1.003027,0.7812684999999999,-0.0190295,0.809845,0.5710785,0.0029124999999999,0.5924750000000001,0.7175784999999999,-0.0639315,1.1873749999999998,0.5651785,-0.0065694999999999,1.395975,0.6911285,-0.1120915,0.401945,0.8657885000000001,-0.1647615,1.590995,0.8578485,-0.2317215,0.911153,0.0004364999999999,-0.0009774999999999,1.088847,-0.0004365,0.0009774999999999,0.875235,-0.4023415,-0.1043515,1.117185,-0.3855115,-0.1371515,0.8865550000000001,-0.7930815,0.0044454999999999,1.098175,-0.7805515000000001,-0.0140814999999999,1
49,1.0033729999999998,0.7800670000000001,-0.029604,0.810499,0.570127,-0.006029,0.591539,0.712357,-0.072702,1.187329,0.563727,-0.014697,1.396989,0.682627,-0.1183019999999999,0.394939,0.860947,-0.175522,1.597629,0.841377,-0.237912,0.911004,0.000655,-0.001029,1.088996,-0.0006549999999999,0.001029,0.875599,-0.396533,-0.108712,1.117489,-0.379703,-0.141402,0.887059,-0.787273,0.00293,1.098611,-0.774743,-0.015635,1
50,1.003728,0.7784465,-0.0409435,0.811068,0.5693064999999999,-0.0156235,0.589208,0.7066165,-0.0828655,1.187358,0.5618665,-0.0233625,1.397388,0.6730365,-0.1246555,0.386788,0.8565265,-0.1881155,1.603948,0.8212865,-0.2447754999999999,0.910897,0.0008905,-0.0011555,1.089103,-0.0008905,0.0011554999999999,0.875958,-0.3903435,-0.1134655,1.117808,-0.3743635,-0.1457055,0.887578,-0.7810835,0.0007474999999999,1.099037,-0.7684935,-0.0173465,1
51,1.004101,0.7769625,-0.053069,0.811767,0.5684625,-0.0255859999999999,0.5867370000000001,0.7018825,-0.093016,1.187367,0.5602725000000001,-0.032677,1.397857,0.6642724999999999,-0.131506,0.378777,0.8516724999999999,-0.200516,1.609727,0.8066825,-0.251196,0.910757,0.0010425,-0.001139,1.089243,-0.0010425,0.001139,0.876397,-0.3835975,-0.1186059999999999,1.118147,-0.3685175,-0.150286,0.8881870000000001,-0.7741575,-0.001903,1.099533,-0.7615675000000001,-0.019469,1
52,1.004425,0.7744305,-0.0655265,0.8124830000000001,0.5685804999999999,-0.0346854999999999,0.583773,0.6971805,-0.1035364999999999,1.187313,0.5586105,-0.0420585,1.398313,0.6568005,-0.1388464999999999,0.369673,0.8447805,-0.2139364999999999,1.611473,0.7911605,-0.2582565,0.910583,0.0012584999999999,-0.0011815,1.089417,-0.0012585,0.0011815,0.8769530000000001,-0.3784895,-0.1239864999999999,1.118573,-0.3651095,-0.1549265,0.888813,-0.7680895,-0.0057515,1.100083,-0.7553295,-0.0225895,1
53,1.00464,0.7718465,-0.078373,0.81317,0.5674065,-0.045059,0.58064,0.6929765,-0.114683,1.18741,0.5570365,-0.051628,1.39839,0.6498465,-0.1466029999999999,0.36122,0.8377965,-0.227483,1.61195,0.7766265,-0.265223,0.91038,0.0013734999999999,-0.001113,1.08962,-0.0013734999999999,0.0011129999999999,0.87742,-0.3737535,-0.129663,1.1189699999999998,-0.3617835,-0.159853,0.88944,-0.7618334999999999,-0.009819,1.100624,-0.7487435,-0.026027,1
54,1.004904,0.769115,-0.0916454999999999,0.814078,0.566285,-0.0558245,0.578338,0.688545,-0.1261054999999999,1.187658,0.555245,-0.0613475,1.398138,0.642845,-0.1548155,0.353058,0.830625,-0.2418355,1.612508,0.7621249999999999,-0.2722355,0.910138,0.0015149999999999,-0.0010504999999999,1.089862,-0.001515,0.0010505,0.878058,-0.369505,-0.1349455,1.119478,-0.358535,-0.1643755,0.890208,-0.7555350000000001,-0.0139134999999999,1.101233,-0.742075,-0.0297054999999999,1
55,1.0052925,0.765635,-0.105044,0.8152495,0.565245,-0.06633,0.5758495,0.683555,-0.137604,1.1879195,0.552865,-0.0710939999999999,1.3986295,0.635485,-0.163234,0.3473595,0.822195,-0.255144,1.6176495000000002,0.7451949999999999,-0.2793239999999999,0.9098895,0.0016449999999999,-0.001051,1.0901105,-0.0016449999999999,0.0010509999999999,0.8786295000000001,-0.363045,-0.140034,1.1202795,-0.352685,-0.169004,0.8908495000000001,-0.749675,-0.018248,1.1019895,-0.735895,-0.033488,1
56,1.0058385,0.7623599999999999,-0.1190695,0.8164715000000001,0.56383,-0.0775795,0.5734515,0.6783300000000001,-0.1498495,1.1881815,0.55048,-0.0812195,1.3991215,0.6284399999999999,-0.1720594999999999,0.3428215,0.8120400000000001,-0.2689095,1.6233915,0.7296199999999999,-0.2867995,0.9095815,0.0016999999999999,-0.0009174999999999,1.0904185,-0.0017,0.0009175,0.8791915,-0.35617,-0.1453594999999999,1.1210315,-0.34658,-0.1740295,0.8915015,-0.74346,-0.0229725,1.1028555,-0.7292000000000001,-0.0374695,1
57,1.0059975,0.75942,-0.1391815,0.8175435,0.56228,-0.0950815,0.5706135,0.6736,-0.1678115,1.1879835,0.54844,-0.0975815,1.3993635,0.62246,-0.1869415,0.3376035,0.80192,-0.2885615,1.6288235,0.71696,-0.3004715,0.9093335,0.0017599999999999,-0.0007045,1.0906665,-0.00176,0.0007045,0.8792835000000001,-0.34868,-0.1567515,1.1213635,-0.33961,-0.1850415,0.8915935,-0.7366900000000001,-0.0338644999999999,1.1031685,-0.7222900000000001,-0.0475285,1
58,1.0061414999999998,0.756675,-0.1596459999999999,0.8187345,0.560335,-0.112686,0.5676445,0.669615,-0.186516,1.1870645,0.545885,-0.114726,1.4018645,0.617545,-0.2039359999999999,0.3327845,0.791245,-0.308226,1.6339645,0.705565,-0.318136,0.9091945,0.001815,-0.000542,1.0908055,-0.001815,0.000542,0.8792345,-0.341485,-0.1733559999999999,1.1217545,-0.331765,-0.199846,0.8910745,-0.7320150000000001,-0.050406,1.1038265,-0.7177450000000001,-0.062558,1
59,1.0062164999999998,0.75424,-0.1800215,0.8198975,0.55889,-0.1305915,0.5660575,0.66613,-0.2049415,1.1859275,0.54394,-0.1319715,1.4041674999999998,0.61444,-0.2210415,0.3284475,0.7811899999999999,-0.3281715,1.6372575,0.69787,-0.3352915,0.9090875,0.0019399999999999,-0.0001284999999999,1.0909125,-0.0019399999999999,0.0001285,0.8791075000000002,-0.3328299999999999,-0.1906415,1.1222475,-0.3231699999999999,-0.2158614999999999,0.8904475000000001,-0.72652,-0.0672474999999999,1.1046634999999998,-0.7125400000000001,-0.0787644999999999,1
60,1.006127,0.75118,-0.1997875,0.821101,0.5574399999999999,-0.1478575,0.5647409999999999,0.66137,-0.2234475,1.184591,0.54235,-0.1484575,1.406021,0.61094,-0.2381375,0.3243709999999999,0.77071,-0.3477375,1.639161,0.68914,-0.3521275,0.909051,0.0019899999999999,0.0002714999999999,1.090949,-0.00199,-0.0002715,0.878831,-0.32454,-0.2077275,1.122641,-0.31485,-0.2317675,0.889791,-0.72106,-0.0837494999999999,1.105463,-0.70736,-0.0947865,1
61,1.0058995,0.7483,-0.219427,0.8220895,0.55472,-0.166017,0.5634795,0.65664,-0.242257,1.1828095,0.5401,-0.165597,1.4077995,0.60762,-0.255407,0.3213294999999999,0.76088,-0.3670569999999999,1.6421295,0.68123,-0.368637,0.9090495,0.00196,0.0006159999999999,1.0909505,-0.0019599999999999,-0.000616,0.8784795,-0.3159599999999999,-0.224797,1.1230995,-0.30627,-0.247947,0.8891395,-0.71576,-0.099852,1.1062245,-0.70174,-0.110495,1
62,1.0054065,0.7449999999999999,-0.238542,0.8229165,0.5528,-0.183082,0.5623965,0.65141,-0.260962,1.1809665,0.53782,-0.182472,1.4094365,0.60433,-0.273082,0.3183064999999999,0.7492300000000001,-0.386542,1.6468665,0.6726399999999999,-0.385692,0.9091065,0.0019899999999999,0.0009379999999999,1.0908935,-0.00199,-0.000938,0.8780665000000001,-0.30763,-0.241572,1.1238165,-0.29696,-0.263922,0.8884965000000001,-0.71058,-0.11587,1.1068775,-0.69635,-0.126006,1
63,1.0048165,0.7411300000000001,-0.2570759999999999,0.8235525,0.55076,-0.199856,0.5618025,0.64615,-0.279626,1.1791025,0.53522,-0.199046,1.4110425,0.6011299999999999,-0.2905959999999999,0.3159425,0.73819,-0.405406,1.6513125,0.66641,-0.403906,0.9091825,0.0020199999999999,0.001203,1.0908175,-0.0020199999999999,-0.001203,0.8777225,-0.29874,-0.2584059999999999,1.1245625,-0.2878,-0.2797759999999999,0.8879225,-0.70545,-0.132013,1.1069245,-0.68699,-0.136695,1
64,1.0041945,0.736605,-0.275321,0.8239205000000001,0.548475,-0.2162909999999999,0.5612604999999999,0.640085,-0.297841,1.1772305,0.5320050000000001,-0.215371,1.4124605,0.597765,-0.308341,0.3137905000000001,0.726345,-0.424081,1.6538105,0.660875,-0.422141,0.9093305,0.002065,0.001527,1.0906695,-0.002065,-0.001527,0.8775605,-0.289885,-0.275321,1.1253205,-0.278465,-0.295501,0.8876005000000001,-0.700395,-0.147958,1.1069785,-0.677905,-0.147903,1
65,1.003653,0.731705,-0.2928115,0.824268,0.5450250000000001,-0.2326715,0.561118,0.634245,-0.3155915,1.175328,0.529135,-0.2312015,1.414178,0.594315,-0.3258415,0.312038,0.715325,-0.4426015,1.651398,0.655225,-0.4404614999999999,0.909448,0.002055,0.0017905,1.090552,-0.0020549999999999,-0.0017904999999999,0.877598,-0.280535,-0.2923215,1.126218,-0.268775,-0.3108915,0.887118,-0.695375,-0.1641314999999999,1.107067,-0.6689849999999999,-0.1589515,1
66,1.003372,0.725595,-0.3041675,0.824626,0.5415449999999999,-0.2425175,0.561326,0.627805,-0.3271475,1.173666,0.524875,-0.2408375,1.416206,0.590225,-0.3372575,0.311126,0.704145,-0.4550375,1.652946,0.650085,-0.4536875,0.909556,0.002105,0.0020484999999999,1.090444,-0.0021049999999999,-0.0020484999999999,0.877906,-0.271375,-0.3032275,1.127446,-0.259715,-0.3200275,0.886926,-0.6911149999999999,-0.1746475,1.10743,-0.660695,-0.1638925,1
67,1.002953,0.71892,-0.315106,0.824611,0.53729,-0.252026,0.561951,0.62054,-0.338406,1.172581,0.52161,-0.249796,1.415991,0.58528,-0.347056,0.310081,0.69408,-0.467506,1.655271,0.64415,-0.463746,0.909581,0.00206,0.002237,1.090419,-0.00206,-0.002237,0.878491,-0.26337,-0.309126,1.128111,-0.25171,-0.3255659999999999,0.8870010000000002,-0.68451,-0.179536,1.107451,-0.65296,-0.168358,1
68,1.002449,0.711225,-0.3253765,0.824631,0.531825,-0.2606365,0.562581,0.611795,-0.3488965,1.171631,0.517075,-0.2581565,1.415771,0.578235,-0.3564565,0.309621,0.682075,-0.4787165,1.6579510000000002,0.633685,-0.4736965,0.909611,0.0018949999999999,0.0022895,1.090389,-0.001895,-0.0022895,0.8792110000000001,-0.256535,-0.3140265,1.128621,-0.244875,-0.3296465,0.8870810000000001,-0.677675,-0.1832065,1.107508,-0.6461250000000001,-0.1720295,1
69,1.0019414999999998,0.7038,-0.3356409999999999,0.8243965,0.52583,-0.269711,0.5620164999999999,0.6038399999999999,-0.358811,1.1707765,0.51203,-0.266811,1.4155365,0.5715600000000001,-0.365711,0.3088165,0.6697,-0.490041,1.6603965,0.62456,-0.483861,0.9096065,0.0017899999999999,0.002212,1.0903934999999998,-0.00179,-0.0022119999999999,0.8798865,-0.24939,-0.319071,1.1291465,-0.23773,-0.3339209999999999,0.8871065,-0.67053,-0.1871209999999999,1.1078975,-0.6403,-0.1760419999999999,1
70,1.00132,0.696025,-0.345653,0.8241180000000001,0.520425,-0.278113,0.561598,0.595685,-0.368293,1.170188,0.507725,-0.274743,1.414818,0.565095,-0.374493,0.307778,0.657405,-0.500963,1.660058,0.616085,-0.493603,0.909678,0.0016549999999999,0.0021549999999999,1.090322,-0.0016549999999999,-0.002155,0.880618,-0.243455,-0.324093,1.129558,-0.232465,-0.337903,0.887798,-0.663415,-0.190693,1.107788,-0.631465,-0.17603,1
71,1.0007229999999998,0.68867,-0.354983,0.823902,0.51511,-0.2862329999999999,0.560902,0.5877399999999999,-0.377343,1.169662,0.5036,-0.282253,1.414452,0.55845,-0.382723,0.3066719999999999,0.64664,-0.511143,1.660072,0.60797,-0.504123,0.909712,0.0015199999999999,0.002026,1.090288,-0.0015199999999999,-0.002026,0.881462,-0.23767,-0.329053,1.1299519999999998,-0.22707,-0.341853,0.888972,-0.65596,-0.189403,1.10753,-0.62247,-0.175118,1
72,1.0000575,0.6822550000000001,-0.3644805,0.8238245,0.5096849999999999,-0.2937605,0.5603745,0.579285,-0.3858905,1.1691445,0.499545,-0.2895005,1.4143045,0.5521149999999999,-0.3903805,0.3057445,0.6347849999999999,-0.5205905,1.6619644999999998,0.6008549999999999,-0.5131405,0.9096545,0.0012949999999999,0.0019504999999999,1.0903455,-0.0012949999999999,-0.0019504999999999,0.8825245,-0.232055,-0.3338305,1.1307444999999998,-0.221725,-0.3453205,0.8905645000000001,-0.647055,-0.1874664999999999,1.1073435,-0.612085,-0.1737695,1
73,0.999292,0.676315,-0.3733635,0.823663,0.504115,-0.3011635,0.559993,0.571425,-0.3940535,1.168533,0.496135,-0.2965135,1.413903,0.545425,-0.3982735,0.3049529999999999,0.623065,-0.5298435,1.663263,0.594965,-0.5225735,0.909743,0.0010249999999999,0.0017734999999999,1.090257,-0.0010249999999999,-0.0017735,0.8834730000000001,-0.224385,-0.3371635,1.130673,-0.213975,-0.3485735,0.8919630000000001,-0.6372950000000001,-0.1861875,1.106633,-0.6021150000000001,-0.1723035,1
74,0.998754,0.669835,-0.381917,0.823596,0.498985,-0.307997,0.5593859999999999,0.5628949999999999,-0.402057,1.168136,0.4923349999999999,-0.303157,1.413656,0.5383849999999999,-0.405507,0.3041659999999999,0.6111949999999999,-0.538467,1.664366,0.587475,-0.531367,0.909856,0.0006149999999999,0.001433,1.090144,-0.000615,-0.001433,0.8844260000000002,-0.217105,-0.340257,1.130626,-0.206625,-0.351537,0.893346,-0.627935,-0.184269,1.106016,-0.592475,-0.1706349999999999,1
75,0.99838,0.66347,-0.389968,0.8234630000000001,0.49314,-0.314648,0.558983,0.5543899999999999,-0.410448,1.167933,0.48821,-0.309538,1.413783,0.53086,-0.4124179999999999,0.302953,0.59859,-0.547228,1.6636730000000002,0.57828,-0.539108,0.909983,0.0001599999999999,0.000936,1.090017,-0.0001599999999999,-0.0009359999999999,0.8852930000000001,-0.21053,-0.343318,1.130593,-0.19978,-0.354398,0.894613,-0.61898,-0.182365,1.105717,-0.58525,-0.173128,1
76,0.997891,0.65621,-0.403115,0.823318,0.48708,-0.326315,0.558728,0.54494,-0.423585,1.167518,0.48276,-0.321035,1.413728,0.52258,-0.424195,0.3017879999999999,0.58523,-0.560655,1.661898,0.56547,-0.551465,0.910188,-0.0001799999999999,0.0004549999999999,1.089812,0.00018,-0.0004549999999999,0.886018,-0.2046899999999999,-0.348515,1.130638,-0.1939999999999999,-0.357505,0.895588,-0.6109399999999999,-0.185497,1.105231,-0.57888,-0.180607,1
77,0.9973765,0.648845,-0.4157,0.8230095,0.480525,-0.3377,0.5591595,0.535705,-0.43631,1.1670795,0.477005,-0.33209,1.4142995,0.514005,-0.43671,0.3017495,0.5717749999999999,-0.57358,1.6596695,0.556775,-0.56287,0.9102795,-0.0004649999999999,-3.999999999999837e-05,1.0897205,0.0004649999999999,3.999999999999837e-05,0.8864195,-0.199225,-0.35318,1.1306495,-0.188655,-0.36036,0.8964495,-0.6031249999999999,-0.188212,1.1047065,-0.5728949999999999,-0.187991,1
78,0.9967935,0.641195,-0.427545,0.8224615,0.473625,-0.348385,0.5582914999999999,0.525715,-0.4485949999999999,1.1666315,0.470915,-0.342645,1.4148415,0.504595,-0.448435,0.3001614999999999,0.558455,-0.5855750000000001,1.6569215000000002,0.546525,-0.573955,0.9103515,-0.000755,-0.0004549999999999,1.0896485,0.000755,0.0004549999999999,0.8865215,-0.1943849999999999,-0.357125,1.1305515,-0.184075,-0.362605,0.8972215,-0.5959650000000001,-0.190151,1.1043975,-0.569645,-0.195174,1
79,0.9961565,0.6337999999999999,-0.4390499999999999,0.8220395,0.46608,-0.35866,0.5577995,0.51562,-0.46007,1.1660695,0.46388,-0.353,1.4151195,0.49453,-0.46021,0.2990494999999999,0.54513,-0.59648,1.6537795,0.53531,-0.58478,0.9105295,-0.001,-0.0007999999999999,1.0894705,0.001,0.0007999999999999,0.8862695,-0.19028,-0.3606,1.1304295,-0.18017,-0.36441,0.8975695,-0.58931,-0.191998,1.1039694999999998,-0.567,-0.201739,1
80,0.995514,0.625035,-0.45078,0.821493,0.457765,-0.36896,0.557013,0.5049250000000001,-0.471,1.165393,0.456515,-0.36318,1.415203,0.484175,-0.47172,0.2978929999999999,0.531215,-0.60686,1.653633,0.522985,-0.59425,0.910763,-0.0012449999999999,-0.00107,1.089237,0.0012449999999999,0.0010699999999999,0.8858630000000001,-0.1866149999999999,-0.36382,1.130173,-0.176875,-0.36615,0.897153,-0.5848949999999999,-0.198086,1.103374,-0.5647549999999999,-0.208163,1
81,0.995184,0.61556,-0.46201,0.821385,0.4488,-0.37931,0.556305,0.49489,-0.48223,1.164935,0.4488499999999999,-0.37349,1.415685,0.4731999999999999,-0.48319,0.297065,0.51869,-0.61787,1.654365,0.50839,-0.60422,0.911155,-0.0015499999999999,-0.00136,1.088845,0.0015499999999999,0.00136,0.885575,-0.18487,-0.36721,1.130045,-0.17536,-0.3684,0.896765,-0.58204,-0.20483,1.102887,-0.5629500000000001,-0.214877,1
82,0.99511,0.6059399999999999,-0.473205,0.821364,0.4398899999999999,-0.389305,0.555724,0.4847599999999999,-0.493095,1.1645839999999998,0.4408799999999999,-0.383615,1.415844,0.46263,-0.493535,0.2964840000000001,0.5064799999999999,-0.628425,1.655064,0.49405,-0.613435,0.911484,-0.0018,-0.001555,1.088516,0.0017999999999999,0.001555,0.885354,-0.18336,-0.370645,1.130034,-0.17418,-0.370885,0.896394,-0.5794600000000001,-0.211413,1.102541,-0.56128,-0.221553,1
83,0.995229,0.59718,-0.484365,0.821785,0.43118,-0.399055,0.555365,0.47518,-0.503565,1.164385,0.43315,-0.393665,1.415345,0.45304,-0.5038549999999999,0.295995,0.49527,-0.638585,1.653705,0.48115,-0.6225750000000001,0.911665,-0.0018699999999999,-0.001575,1.088335,0.00187,0.0015749999999999,0.884805,-0.1814599999999999,-0.374245,1.130005,-0.17256,-0.373575,0.896055,-0.57723,-0.218493,1.10246,-0.55935,-0.228793,1
84,0.995844,0.58908,-0.4951149999999999,0.822728,0.42359,-0.408415,0.555708,0.46681,-0.513505,1.164468,0.42655,-0.403365,1.415678,0.44412,-0.513705,0.295818,0.48578,-0.648305,1.652748,0.46938,-0.631945,0.911888,-0.0017999999999999,-0.001555,1.088112,0.0018,0.001555,0.8838280000000001,-0.1765799999999999,-0.377125,1.129918,-0.1676499999999999,-0.375965,0.895668,-0.57397,-0.2248649999999999,1.102227,-0.55645,-0.235187,1
85,0.997034,0.58119,-0.5001,0.8242940000000001,0.4166799999999999,-0.41241,0.556764,0.45914,-0.51773,1.165084,0.42001,-0.40764,1.416554,0.4349599999999999,-0.51794,0.296194,0.47639,-0.65233,1.652794,0.4604199999999999,-0.63597,0.912134,-0.00159,-0.00142,1.087866,0.0015899999999999,0.00142,0.882514,-0.17287,-0.37819,1.130104,-0.16347,-0.3771,0.895584,-0.57048,-0.225415,1.102395,-0.5534100000000001,-0.236042,1
86,0.998266,0.574535,-0.50502,0.82609,0.411049,-0.41648,0.55845,0.452555,-0.5217,1.1657,0.41475,-0.4118699999999999,1.4178,0.426865,-0.52078,0.29732,0.468555,-0.65612,1.65292,0.451265,-0.64,0.91247,-0.001475,-0.0012999999999999,1.08753,0.001475,0.0012999999999999,0.8807900000000001,-0.168945,-0.37923,1.13037,-0.159075,-0.37824,0.8956300000000001,-0.5663549999999999,-0.225825,1.102606,-0.550065,-0.237024,1
87,0.9995385,0.567895,-0.509805,0.8281095,0.40563,-0.420455,0.5605295,0.446745,-0.525515,1.1663995,0.409782,-0.415825,1.4193395,0.419811,-0.524055,0.2990595,0.461625,-0.659705,1.6531595,0.442835,-0.643795,0.9128995,-0.0014049999999999,-0.001175,1.0871005,0.0014049999999999,0.001175,0.8788095,-0.164715,-0.380235,1.1307395,-0.1553649999999999,-0.379355,0.8956595,-0.561045,-0.226611,1.1028925,-0.545755,-0.238063,1
88,1.0009359999999998,0.56253,-0.51441,0.830293,0.4017929999999999,-0.42434,0.562203,0.44214,-0.52928,1.167273,0.406456,-0.41957,1.421533,0.413601,-0.52721,0.300593,0.4556199999999999,-0.66315,1.653373,0.4354099999999999,-0.6476299999999999,0.913073,-0.00113,-0.0010199999999999,1.086927,0.0011299999999999,0.0010199999999999,0.876833,-0.16052,-0.38163,1.131933,-0.15189,-0.38078,0.895863,-0.55528,-0.227243,1.1035,-0.54047,-0.239062,1
89,1.002379,0.55796,-0.518645,0.832569,0.398506,-0.427945,0.563959,0.43814,-0.532965,1.168189,0.403404,-0.423035,1.424239,0.407643,-0.531145,0.301979,0.45012,-0.666285,1.654359,0.427357,-0.6518349999999999,0.913249,-0.0009199999999999,-0.0009149999999999,1.086751,0.00092,0.0009149999999999,0.875049,-0.1562899999999999,-0.382925,1.133379,-0.1485599999999999,-0.382165,0.8961590000000001,-0.54966,-0.22804,1.104226,-0.5352399999999999,-0.23988,1
90,1.0037049999999998,0.5531200000000001,-0.522465,0.834613,0.39577,-0.431085,0.565203,0.43376,-0.536005,1.169103,0.399843,-0.426025,1.427153,0.402488,-0.534995,0.302983,0.44421,-0.668185,1.654373,0.421098,-0.655555,0.913433,-0.0005499999999999,-0.000815,1.086567,0.0005499999999999,0.000815,0.873243,-0.15232,-0.384075,1.135093,-0.1456099999999999,-0.383405,0.896443,-0.5443399999999999,-0.228313,1.104937,-0.53035,-0.24034,1
91,1.004991,0.54888,-0.525715,0.836728,0.393529,-0.433995,0.5665180000000001,0.429686,-0.538705,1.170098,0.396839,-0.428615,1.429548,0.397795,-0.5388550000000001,0.304618,0.43822,-0.669675,1.654558,0.413961,-0.659015,0.913618,-0.00013,-0.000705,1.086382,0.00013,0.0007049999999999,0.871558,-0.1482299999999999,-0.385285,1.137098,-0.14222,-0.384745,0.896938,-0.53931,-0.228463,1.105741,-0.52529,-0.240649,1
92,1.006138,0.54474,-0.528535,0.838507,0.391123,-0.4364949999999999,0.567717,0.425842,-0.540635,1.171027,0.393821,-0.430825,1.431507,0.392961,-0.542535,0.306187,0.4320279999999999,-0.670555,1.655077,0.407433,-0.661945,0.913807,0.00028,-0.0006849999999999,1.086193,-0.00028,0.000685,0.869957,-0.14443,-0.386325,1.139207,-0.139,-0.385935,0.8977370000000001,-0.5352300000000001,-0.2285309999999999,1.106563,-0.5205500000000001,-0.2408549999999999,1
93,1.006892,0.5405549999999999,-0.5309699999999999,0.839838,0.3882949999999999,-0.43889,0.569048,0.421268,-0.54098,1.171778,0.390748,-0.43274,1.434188,0.3882409999999999,-0.5463199999999999,0.307748,0.425743,-0.6709099999999999,1.655968,0.3999549999999999,-0.6643399999999999,0.913978,0.0005149999999999,-0.00065,1.086022,-0.000515,0.00065,0.868308,-0.141215,-0.38727,1.141238,-0.136235,-0.38698,0.898238,-0.531505,-0.228564,1.107207,-0.5163150000000001,-0.2411039999999999,1
94,1.007329,0.53713,-0.533135,0.84073,0.386094,-0.4410349999999999,0.56989,0.417171,-0.542045,1.17225,0.38838,-0.4342249999999999,1.43695,0.384817,-0.549975,0.30954,0.420335,-0.671505,1.65682,0.393449,-0.666785,0.91411,0.0006099999999999,-0.0005549999999999,1.08589,-0.0006099999999999,0.0005549999999999,0.86668,-0.1377499999999999,-0.387995,1.14326,-0.13327,-0.387695,0.8985700000000001,-0.5276399999999999,-0.228811,1.107689,-0.5119800000000001,-0.2414339999999999,1
95,1.007512,0.533375,-0.53493,0.841074,0.383647,-0.44285,0.570064,0.412504,-0.54384,1.172454,0.385482,-0.43555,1.439394,0.381502,-0.55364,0.310944,0.414729,-0.67212,1.657304,0.387703,-0.6692,0.914224,0.000695,-0.0004299999999999,1.085776,-0.000695,0.00043,0.8650840000000001,-0.134685,-0.38863,1.145054,-0.1305449999999999,-0.38833,0.898624,-0.5238749999999999,-0.229111,1.108152,-0.5077750000000001,-0.24175,1
96,1.0074485,0.530335,-0.536355,0.8410305000000001,0.381401,-0.444355,0.5699905000000001,0.4070049999999999,-0.5454950000000001,1.1724005,0.382957,-0.436755,1.4414405,0.3781259999999999,-0.556875,0.3122505,0.4088159999999999,-0.672585,1.6568505,0.3822689999999999,-0.6715450000000001,0.9142405,0.0008149999999999,-0.000265,1.0857595,-0.000815,0.0002649999999999,0.8634305000000001,-0.131905,-0.389155,1.1467405,-0.127765,-0.389025,0.8983705,-0.520655,-0.229649,1.1083675,-0.5046050000000001,-0.242096,1
97,1.0073055,0.527215,-0.5374,0.8409955,0.379091,-0.44569,0.5699155,0.401739,-0.54698,1.1722855,0.380512,-0.43775,1.4418955,0.375769,-0.5596,0.3134954999999999,0.403573,-0.6733100000000001,1.6560755,0.377571,-0.67357,0.9142455,0.000865,-0.0001899999999999,1.0857545,-0.000865,0.0001899999999999,0.8616355,-0.129045,-0.38977,1.1485055,-0.1249049999999999,-0.3898,0.8980555,-0.517255,-0.230194,1.1085505,-0.501425,-0.24253,1
98,1.007069,0.524795,-0.53818,0.840978,0.3769059999999999,-0.44677,0.569178,0.397015,-0.54787,1.172168,0.37817,-0.43867,1.441838,0.37417,-0.56074,0.314808,0.399128,-0.67368,1.655418,0.3753329999999999,-0.67525,0.914248,0.000975,-9.9999999999989e-05,1.085752,-0.000975,0.0001,0.859818,-0.126335,-0.39042,1.150348,-0.122195,-0.39064,0.8977580000000001,-0.513995,-0.2308449999999999,1.108529,-0.4984449999999999,-0.2430159999999999,1
99,1.006663,0.5234,-0.53902,0.840835,0.375178,-0.4478499999999999,0.568415,0.393637,-0.54869,1.171905,0.377147,-0.43952,1.4417049999999998,0.373151,-0.56162,0.315725,0.395632,-0.67396,1.654615,0.373424,-0.67686,0.914345,0.0009099999999999,1.999999999999225e-05,1.085655,-0.00091,-1.999999999999225e-05,0.8581450000000002,-0.12411,-0.3912,1.152015,-0.11963,-0.3914999999999999,0.897445,-0.51163,-0.232176,1.108414,-0.4956,-0.243883,1
100,1.0058405,0.522155,-0.53991,0.8404155,0.373296,-0.44876,0.5671755,0.39059,-0.54927,1.1713155,0.37618,-0.44042,1.4412755,0.372276,-0.56253,0.3153855,0.392948,-0.67401,1.6532955,0.373421,-0.6785300000000001,0.9144455,0.000755,0.0001199999999999,1.0855545,-0.000755,-0.00012,0.8565255,-0.1223549999999999,-0.39171,1.1533655,-0.1175449999999999,-0.39235,0.8969055,-0.509725,-0.233524,1.1080475,-0.4931949999999999,-0.24483,1
101,1.004695,0.521095,-0.540675,0.839858,0.372101,-0.449625,0.565798,0.387345,-0.549575,1.170558,0.375379,-0.441275,1.439328,0.37115,-0.5633250000000001,0.3148579999999999,0.390579,-0.673745,1.652118,0.373167,-0.679325,0.914548,0.0006349999999999,0.0002949999999999,1.085452,-0.0006349999999999,-0.000295,0.855138,-0.121005,-0.392095,1.154448,-0.115825,-0.392925,0.896218,-0.5084550000000001,-0.234693,1.107614,-0.4911049999999999,-0.245756,1
102,1.0033964999999998,0.52061,-0.5408949999999999,0.8391755,0.371484,-0.4504649999999999,0.5644855,0.385109,-0.549495,1.1697055,0.374905,-0.4420449999999999,1.4371155,0.37077,-0.564095,0.3143355,0.388687,-0.673465,1.6509455,0.375041,-0.680145,0.9146455,0.0005399999999999,0.000455,1.0853545,-0.0005399999999999,-0.0004549999999999,0.8538755,-0.1196499999999999,-0.392335,1.1552755,-0.1136599999999999,-0.3934649999999999,0.8955055,-0.50623,-0.2355839999999999,1.1072105,-0.48882,-0.2466269999999999,1
103,1.0020035,0.520475,-0.54082,0.8384285000000001,0.370664,-0.45125,0.5631585,0.383021,-0.54924,1.1688085,0.374624,-0.4426,1.4346485,0.370534,-0.56463,0.3142985,0.387078,-0.67301,1.6496485,0.376649,-0.68168,0.9147185,0.0003549999999999,0.0005499999999999,1.0852815,-0.0003549999999999,-0.0005499999999999,0.8526985,-0.118605,-0.39243,1.1557985,-0.111925,-0.39392,0.8948185,-0.504335,-0.236161,1.1067745,-0.4870349999999999,-0.247565,1
104,1.000491,0.52037,-0.54077,0.8375220000000001,0.36967,-0.45196,0.561252,0.381442,-0.54898,1.167772,0.374531,-0.44335,1.431772,0.370501,-0.56513,0.314392,0.385626,-0.67249,1.6482519999999998,0.378267,-0.68188,0.914798,0.0001599999999999,0.0006299999999999,1.085202,-0.0001599999999999,-0.00063,0.851362,-0.1177099999999999,-0.3925,1.156042,-0.1104299999999999,-0.39435,0.8941020000000001,-0.50271,-0.236783,1.106216,-0.48547,-0.248691,1
105,0.9990095,0.51999,-0.54071,0.8366605,0.368693,-0.4525099999999999,0.5595905,0.380711,-0.54847,1.1667405,0.37421,-0.4442,1.4285905,0.370332,-0.56549,0.3146305,0.384291,-0.6720299999999999,1.6473405,0.379668,-0.68296,0.9148445,-1.999999999996449e-05,0.00066,1.0851555,2.000000000002e-05,-0.0006599999999999,0.8499405,-0.1171999999999999,-0.3925099999999999,1.1561405,-0.1093599999999999,-0.39466,0.8930905,-0.5015,-0.237842,1.1057375,-0.48432,-0.2499279999999999,1
106,0.997422,0.519595,-0.5406,0.835695,0.367768,-0.45304,0.557785,0.37998,-0.54822,1.165595,0.373794,-0.4451699999999999,1.425165,0.370109,-0.56585,0.314145,0.38271,-0.67096,1.646115,0.380848,-0.68414,0.914881,-0.0001849999999999,0.00067,1.085119,0.0001849999999999,-0.00067,0.848575,-0.116765,-0.3924499999999999,1.156025,-0.108485,-0.3949,0.8918550000000001,-0.5004249999999999,-0.2387659999999999,1.10523,-0.483545,-0.250959,1
107,0.9958725,0.519185,-0.54052,0.8348165000000001,0.366788,-0.45347,0.5564165,0.379034,-0.54816,1.1644365,0.373357,-0.4461699999999999,1.4216765,0.36984,-0.56626,0.3147864999999999,0.381134,-0.66931,1.6436265,0.381818,-0.6852400000000001,0.9149075,-0.0003549999999999,0.00068,1.0850925,0.0003549999999999,-0.0006799999999999,0.8472265,-0.116455,-0.39242,1.1557065,-0.1076449999999999,-0.39517,0.8906065000000001,-0.499065,-0.2399929999999999,1.1045505,-0.483055,-0.252177,1
108,0.994564,0.518815,-0.54047,0.8340879999999999,0.366078,-0.45387,0.5552780000000002,0.378415,-0.5495099999999999,1.163508,0.372795,-0.4471,1.418378,0.369389,-0.56652,0.313218,0.379552,-0.66873,1.640048,0.382592,-0.6858500000000001,0.914912,-0.0004649999999999,0.0006799999999999,1.085088,0.000465,-0.00068,0.846048,-0.1161649999999999,-0.39236,1.155518,-0.1070549999999999,-0.39535,0.889518,-0.4981649999999999,-0.241426,1.104023,-0.4829949999999999,-0.253784,1
109,0.9933655,0.51874,-0.54037,0.8333715000000002,0.365787,-0.45426,0.5542815,0.378102,-0.5499,1.1626615,0.372549,-0.44801,1.4151415,0.36902,-0.56673,0.3130415000000001,0.378494,-0.66647,1.6393315,0.384198,-0.68675,0.9149115,-0.0005499999999999,0.0006799999999999,1.0850885,0.0005499999999999,-0.00068,0.8448115,-0.1158099999999999,-0.39233,1.1553115,-0.10646,-0.39544,0.8884815000000001,-0.4972799999999999,-0.24273,1.1035575,-0.483,-0.25532,1
110,0.992332,0.51899,-0.5401849999999999,0.832805,0.3659399999999999,-0.454475,0.553555,0.378453,-0.5499149999999999,1.161895,0.3724419999999999,-0.448825,1.413025,0.3691939999999999,-0.567415,0.3129349999999999,0.3777759999999999,-0.664405,1.635315,0.3852399999999999,-0.686475,0.914914,-0.00063,0.0006649999999999,1.085086,0.0006299999999999,-0.0006649999999999,0.843615,-0.11535,-0.392205,1.155255,-0.10589,-0.395575,0.887625,-0.49662,-0.244059,1.103158,-0.4831500000000001,-0.256789,1
111,0.991467,0.51917,-0.5400050000000001,0.83237,0.36612,-0.454635,0.5529200000000001,0.378633,-0.550095,1.16127,0.372397,-0.449395,1.41144,0.369374,-0.568165,0.31216,0.377578,-0.6624950000000001,1.6312,0.385072,-0.685905,0.914923,-0.0006699999999999,0.000695,1.085077,0.00067,-0.000695,0.84265,-0.11524,-0.392075,1.15538,-0.1059099999999999,-0.395735,0.88708,-0.4965299999999999,-0.245427,1.1027049999999998,-0.4834199999999999,-0.258463,1
112,0.9906575,0.519325,-0.53954,0.8318225000000001,0.366275,-0.45454,0.5524125000000001,0.378788,-0.54952,1.1606725,0.372552,-0.4497299999999999,1.4100425,0.369529,-0.56873,0.3112725,0.377733,-0.66043,1.6270825,0.385227,-0.68525,0.9149255,-0.0006749999999999,0.00075,1.0850745,0.000675,-0.00075,0.8417725,-0.1150849999999999,-0.39185,1.1554924999999998,-0.1057549999999999,-0.39582,0.8865225,-0.4963749999999999,-0.246867,1.1023565,-0.4835549999999999,-0.260055,1
113,0.9901215,0.51941,-0.538535,0.8313685,0.36636,-0.454215,0.5523885,0.378873,-0.548665,1.1602785,0.372637,-0.449645,1.4092384999999998,0.369614,-0.568925,0.3106085,0.377818,-0.658245,1.6231085,0.385312,-0.683095,0.9149045,-0.0006399999999999,0.0007749999999999,1.0850955,0.00064,-0.000775,0.8411185,-0.1149999999999999,-0.391665,1.1558185,-0.1056699999999999,-0.395775,0.8862085000000001,-0.4962899999999999,-0.248087,1.1022385,-0.48368,-0.261361,1
114,0.98971,0.5197,-0.537145,0.830924,0.366535,-0.453545,0.552084,0.379113,-0.547665,1.160014,0.372667,-0.4491849999999999,1.408854,0.369652,-0.568855,0.3102939999999999,0.377848,-0.656255,1.619164,0.386082,-0.680575,0.914905,-0.0006099999999999,0.000835,1.085095,0.0006099999999999,-0.000835,0.840494,-0.1148399999999999,-0.391435,1.1561739999999998,-0.1054499999999999,-0.395775,0.885894,-0.49634,-0.248854,1.102228,-0.4837399999999999,-0.262115,1
115,0.989312,0.520705,-0.5354,0.8303340000000001,0.367293,-0.4524499999999999,0.551784,0.379803,-0.54634,1.159774,0.373194,-0.44819,1.408624,0.370014,-0.56841,0.3103640000000001,0.37804,-0.65483,1.615244,0.386833,-0.67738,0.91491,-0.000645,0.00093,1.08509,0.000645,-0.0009299999999999,0.839594,-0.1147249999999999,-0.39122,1.156174,-0.1052849999999999,-0.39585,0.885514,-0.4963649999999999,-0.2494349999999999,1.102205,-0.4837749999999999,-0.2625889999999999,1
116,0.9889165,0.522285,-0.53338,0.8295515,0.368785,-0.45122,0.5516915,0.381173,-0.54457,1.1595415,0.374228,-0.44692,1.4084115,0.370656,-0.5676000000000001,0.3103815000000001,0.37916,-0.65378,1.6108815,0.387972,-0.67468,0.9149155,-0.000695,0.0010399999999999,1.0850845,0.000695,-0.00104,0.8387215,-0.114635,-0.39101,1.1561715,-0.105155,-0.39594,0.8851215,-0.496285,-0.249807,1.1021945,-0.4838449999999999,-0.262803,1
117,0.9884985,0.5248,-0.530925,0.8285815,0.371068,-0.449685,0.5515615,0.383303,-0.5427649999999999,1.1593115,0.375716,-0.4454349999999999,1.4084315,0.372045,-0.566345,0.3097415,0.381183,-0.652675,1.6081215,0.390228,-0.671575,0.9148695,-0.0006899999999999,0.0011349999999999,1.0851305,0.00069,-0.0011349999999999,0.8381415,-0.1144699999999999,-0.390935,1.1562115,-0.10519,-0.396045,0.8849215,-0.49604,-0.250206,1.1021705,-0.4834699999999999,-0.262884,1
118,0.988544,0.52818,-0.5283899999999999,0.827915,0.374152,-0.44769,0.5518149999999999,0.386431,-0.54059,1.159565,0.377556,-0.44369,1.408935,0.373789,-0.56499,0.307765,0.384643,-0.65204,1.608625,0.392847,-0.6704399999999999,0.914823,-0.0005399999999999,0.0012199999999999,1.085177,0.0005399999999999,-0.0012199999999999,0.838305,-0.1142699999999999,-0.39085,1.156545,-0.10519,-0.39615,0.884895,-0.4961799999999999,-0.250452,1.102199,-0.48344,-0.263121,1
119,0.9888435,0.53378,-0.52481,0.8273285000000001,0.378827,-0.44503,0.5522085,0.3916,-0.53765,1.1600385,0.381941,-0.4410199999999999,1.4096285,0.377628,-0.5624899999999999,0.3054084999999999,0.38997,-0.6507999999999999,1.6121085,0.39811,-0.6697299999999999,0.9147705,-0.0004799999999999,0.0012199999999999,1.0852295,0.00048,-0.0012199999999999,0.8386485000000001,-0.1141099999999999,-0.39087,1.1574384999999998,-0.1049499999999999,-0.39619,0.8850785,-0.49527,-0.2500529999999999,1.1023665,-0.4825299999999999,-0.262787,1
120,0.9892505,0.54029,-0.52108,0.8267085000000001,0.384296,-0.44204,0.5525385,0.397577,-0.53428,1.1605485,0.387051,-0.4385799999999999,1.4104185,0.382246,-0.5600799999999999,0.3033685,0.39642,-0.64899,1.6147485,0.40392,-0.6683699999999999,0.9146935,-0.0004399999999999,0.00123,1.0853065,0.0004399999999999,-0.0012299999999999,0.8390285,-0.1140199999999999,-0.3908899999999999,1.1582585,-0.1046399999999999,-0.39624,0.8853285,-0.4942899999999999,-0.2492629999999999,1.1025075,-0.48179,-0.262509,1
121,0.98984,0.54766,-0.5171250000000001,0.826327,0.390639,-0.438845,0.552827,0.404713,-0.531045,1.161197,0.393025,-0.435955,1.411367,0.388164,-0.557435,0.301537,0.404324,-0.646355,1.618357,0.411428,-0.6670849999999999,0.914586,-0.00039,0.001235,1.085414,0.00039,-0.0012349999999999,0.839557,-0.11384,-0.390915,1.159077,-0.10442,-0.396275,0.885857,-0.49324,-0.2484839999999999,1.102752,-0.4807099999999999,-0.262645,1
122,0.9907455,0.555445,-0.50888,0.8263055,0.396475,-0.43171,0.5531755,0.412236,-0.52384,1.1621755,0.398743,-0.42944,1.4126655,0.394238,-0.5509,0.2995955,0.412485,-0.6396,1.6199855,0.418115,-0.66229,0.9143605,-0.0003549999999999,0.0013299999999999,1.0856395,0.0003549999999999,-0.0013299999999999,0.8402555,-0.1146949999999999,-0.3912,1.1596355,-0.105115,-0.39642,0.8865455,-0.493285,-0.244169,1.1031685,-0.4808849999999999,-0.258963,1
123,0.99201,0.563475,-0.499695,0.826515,0.402577,-0.424385,0.553615,0.420588,-0.516315,1.163365,0.405076,-0.422555,1.414105,0.4010039999999999,-0.5441549999999999,0.2980549999999999,0.421398,-0.631945,1.623565,0.425212,-0.657145,0.914127,-0.0002949999999999,0.001365,1.085873,0.0002949999999999,-0.001365,0.8411150000000001,-0.1157949999999999,-0.391555,1.160245,-0.1060249999999999,-0.3962449999999999,0.887345,-0.493795,-0.2397999999999999,1.103759,-0.481085,-0.254734,1
124,0.9933735,0.572095,-0.490195,0.8268774999999999,0.410073,-0.416575,0.5540575,0.430251,-0.508345,1.1646075,0.411705,-0.415535,1.4155775,0.408532,-0.537355,0.2964975000000001,0.431336,-0.623265,1.6246175,0.433278,-0.651645,0.9139505,-0.0002749999999999,0.001315,1.0860495,0.000275,-0.001315,0.8420575000000001,-0.1173249999999999,-0.391815,1.1609575,-0.1073849999999999,-0.395865,0.8882275,-0.494645,-0.235292,1.1043515,-0.481815,-0.250389,1
125,0.9947390000000002,0.58177,-0.48044,0.827321,0.418297,-0.4079199999999999,0.553851,0.441252,-0.49977,1.165861,0.418818,-0.40797,1.417161,0.41702,-0.5299499999999999,0.2947109999999999,0.443672,-0.6145499999999999,1.628221,0.442082,-0.64589,0.913781,-0.0002699999999999,0.00117,1.0862189999999998,0.00027,-0.0011699999999999,0.843191,-0.1192099999999999,-0.3913,1.161901,-0.1086599999999999,-0.39478,0.8890510000000001,-0.4959099999999999,-0.2306139999999999,1.104955,-0.4826899999999999,-0.245577,1
126,0.996029,0.59196,-0.470045,0.827917,0.427143,-0.398645,0.553767,0.453114,-0.490375,1.167037,0.427024,-0.3998049999999999,1.418677,0.425962,-0.522655,0.293207,0.456735,-0.605475,1.632417,0.450837,-0.639965,0.913667,-0.00023,0.000935,1.086333,0.00023,-0.0009349999999999,0.844497,-0.1211299999999999,-0.3904849999999999,1.1628569999999998,-0.1099999999999999,-0.393185,0.889777,-0.49751,-0.2258959999999999,1.10577,-0.4839,-0.2406149999999999,1
127,0.9973535,0.601535,-0.45938,0.8284025,0.435553,-0.38926,0.5534924999999999,0.464796,-0.48061,1.1681125,0.434408,-0.39136,1.4201825,0.434406,-0.51479,0.2919024999999999,0.470071,-0.59587,1.6366725,0.459515,-0.63423,0.9134825,-6.499999999998174e-05,0.0007,1.0865175,6.500000000003725e-05,-0.0007,0.8451125000000002,-0.1230449999999999,-0.38914,1.1637625,-0.1118949999999999,-0.39088,0.8904025000000001,-0.500195,-0.22099,1.1066515,-0.486405,-0.235418,1
128,0.999267,0.6103799999999999,-0.448745,0.829434,0.4432689999999999,-0.379725,0.553614,0.47596,-0.470445,1.169714,0.440409,-0.382785,1.422984,0.442735,-0.507335,0.2908839999999999,0.48323,-0.585355,1.641824,0.467622,-0.628085,0.913194,0.0001999999999999,0.0004649999999999,1.086806,-0.0002,-0.0004649999999999,0.845864,-0.126,-0.387985,1.1652239999999998,-0.11498,-0.3880949999999999,0.891474,-0.50412,-0.215953,1.107968,-0.49015,-0.230106,1
129,1.001714,0.618955,-0.43759,0.830784,0.450551,-0.37026,0.554034,0.486235,-0.46038,1.171624,0.446039,-0.37373,1.426164,0.450852,-0.49943,0.2901239999999999,0.495915,-0.57483,1.648024,0.475825,-0.62153,0.912944,0.000425,0.0002,1.087056,-0.000425,-0.0002,0.846504,-0.1297249999999999,-0.3865699999999999,1.166984,-0.118875,-0.38503,0.892734,-0.508885,-0.210806,1.109486,-0.4944949999999999,-0.2248,1
130,1.004467,0.62807,-0.42602,0.8323510000000001,0.458255,-0.36068,0.554731,0.49675,-0.4501,1.173711,0.451875,-0.36423,1.429411,0.458487,-0.49099,0.289751,0.5080600000000001,-0.56437,1.651051,0.48295,-0.61453,0.912741,0.00068,-5.999999999997674e-05,1.087259,-0.0006799999999999,6.0000000000004494e-05,0.847291,-0.13448,-0.3848399999999999,1.169291,-0.1237499999999999,-0.38177,0.894201,-0.51394,-0.2057299999999999,1.11132,-0.4990899999999999,-0.219356,1
131,1.007269,0.63644,-0.419205,0.833909,0.46585,-0.355225,0.5556490000000001,0.50608,-0.443635,1.175789,0.45716,-0.3586749999999999,1.432699,0.46562,-0.4862649999999999,0.289779,0.51951,-0.558265,1.654079,0.49049,-0.610815,0.912579,0.00113,-0.000335,1.087421,-0.00113,0.000335,0.846539,-0.13833,-0.383525,1.171489,-0.1294799999999999,-0.380595,0.893819,-0.5222199999999999,-0.211592,1.1133069999999998,-0.50421,-0.218248,1
132,1.0103205,0.644925,-0.41252,0.8355165,0.473025,-0.3496,0.5565765,0.5145550000000001,-0.43706,1.1777865,0.461885,-0.3529,1.4361065,0.472365,-0.48107,0.2901865,0.5296850000000001,-0.55214,1.6571865,0.4973850000000001,-0.60638,0.9124265,0.001665,-0.0005499999999999,1.0875735,-0.0016649999999999,0.0005499999999999,0.8449365,-0.1428549999999999,-0.382,1.1739565,-0.1356749999999999,-0.37927,0.8941565,-0.5285749999999999,-0.211037,1.1154315,-0.509945,-0.216851,1
133,1.0134095,0.65299,-0.405825,0.8371255,0.47867,-0.344115,0.5575955,0.5218700000000001,-0.430645,1.1797455,0.46636,-0.346915,1.4379455,0.47882,-0.475645,0.2910955,0.53904,-0.5465150000000001,1.6591955,0.5047,-0.600455,0.9122455,0.0020499999999999,-0.000825,1.0877545,-0.0020499999999999,0.0008249999999999,0.8426655000000001,-0.1478899999999999,-0.380275,1.1768855,-0.14182,-0.377805,0.8943355,-0.53536,-0.211159,1.1176585,-0.51615,-0.215338,1
134,1.0162735,0.65899,-0.3987199999999999,0.8387245,0.48196,-0.33871,0.5593545000000001,0.52602,-0.42437,1.1816445,0.46913,-0.34073,1.4403945,0.48299,-0.4699799999999999,0.2927445000000001,0.54476,-0.54061,1.6613045,0.50921,-0.5939,0.9120445,0.00251,-0.00095,1.0879555,-0.0025099999999999,0.00095,0.8407245,-0.1533999999999999,-0.3775,1.1791645,-0.1486499999999999,-0.3741299999999999,0.8933845,-0.5458999999999999,-0.216442,1.1200735,-0.52415,-0.2141,1
135,1.018866,0.66466,-0.391605,0.840433,0.48558,-0.333295,0.5612830000000001,0.5298,-0.418395,1.183593,0.4714899999999999,-0.334375,1.443643,0.48699,-0.463615,0.294663,0.54983,-0.534945,1.6647729999999998,0.5132,-0.587045,0.911813,0.00306,-0.0009649999999999,1.088187,-0.00306,0.0009649999999999,0.8385830000000001,-0.15886,-0.3741649999999999,1.1810729999999998,-0.15544,-0.370305,0.892473,-0.55641,-0.221391,1.122637,-0.53211,-0.2128209999999999,1
136,1.021079,0.6707749999999999,-0.384495,0.8419130000000001,0.4888249999999999,-0.327745,0.5631630000000001,0.5330649999999999,-0.412445,1.185513,0.4740049999999999,-0.327975,1.446673,0.491475,-0.456235,0.296523,0.553705,-0.529555,1.6679529999999998,0.5167149999999999,-0.579535,0.911713,0.0034249999999999,-0.001005,1.088287,-0.003425,0.001005,0.836403,-0.164365,-0.3707249999999999,1.182703,-0.162395,-0.366275,0.8915630000000001,-0.566955,-0.226136,1.125128,-0.540205,-0.211622,1
137,1.022262,0.677305,-0.37666,0.842453,0.493035,-0.32169,0.564183,0.536295,-0.40637,1.186643,0.4772149999999999,-0.32108,1.448773,0.495025,-0.44866,0.297563,0.557725,-0.52476,1.669373,0.520825,-0.57179,0.911673,0.0037149999999999,-0.00105,1.0883269999999998,-0.003715,0.0010499999999999,0.834273,-0.169095,-0.3671999999999999,1.183703,-0.169685,-0.36208,0.889983,-0.577725,-0.230924,1.126658,-0.548345,-0.210123,1
138,1.022834,0.6844899999999999,-0.368375,0.8423260000000001,0.49698,-0.315305,0.564676,0.54016,-0.3997349999999999,1.187006,0.4809799999999999,-0.313515,1.449636,0.4995799999999999,-0.441265,0.298246,0.5617699999999999,-0.519765,1.669896,0.52601,-0.564675,0.911666,0.0039599999999999,-0.001055,1.088334,-0.00396,0.001055,0.832466,-0.17413,-0.363475,1.184086,-0.17733,-0.357755,0.888076,-0.5887600000000001,-0.23575,1.12695,-0.55703,-0.208458,1
139,1.0232655,0.691595,-0.35986,0.8416375,0.501665,-0.30812,0.5650975,0.544055,-0.3930599999999999,1.1872675,0.485395,-0.30566,1.4500275,0.504815,-0.43362,0.2992275,0.5668150000000001,-0.51494,1.6702975,0.5320550000000001,-0.55675,0.9116575,0.004015,-0.001,1.0883425,-0.0040149999999999,0.001,0.8323575,-0.1799849999999999,-0.35916,1.1837575,-0.1851749999999999,-0.35344,0.8866775000000001,-0.599985,-0.23977,1.1270635,-0.5660149999999999,-0.206391,1
140,1.0236115,0.6990099999999999,-0.34989,0.8407775,0.50542,-0.30035,0.5654874999999999,0.5485099999999999,-0.38594,1.1874275,0.4913799999999999,-0.29722,1.4499175,0.51047,-0.42548,0.3006175000000001,0.5727899999999999,-0.50958,1.6704475,0.5399799999999999,-0.54871,0.9116575,0.0037599999999999,-0.00102,1.0883425,-0.00376,0.0010199999999999,0.8325875,-0.18841,-0.35444,1.1822575,-0.19319,-0.34893,0.8864775,-0.61155,-0.24268,1.1271835,-0.5756300000000001,-0.203929,1
141,1.0235295,0.707385,-0.3392699999999999,0.8398685000000001,0.509885,-0.29174,0.5660485,0.553445,-0.37787,1.1873385,0.497065,-0.28839,1.4496385,0.5170750000000001,-0.41734,0.3026685,0.5802750000000001,-0.50381,1.6708485,0.5500050000000001,-0.54066,0.9116585,0.003445,-0.0009599999999999,1.0883415,-0.0034449999999999,0.0009599999999999,0.8328385,-0.1970449999999999,-0.34935,1.1796985,-0.2015849999999999,-0.34429,0.8863285,-0.623355,-0.24422,1.1279245,-0.585905,-0.201291,1
142,1.0228275,0.7165950000000001,-0.327415,0.8387675,0.5146550000000001,-0.282565,0.5664575000000001,0.559355,-0.368765,1.1870175,0.5023650000000001,-0.278885,1.4492375,0.524195,-0.408265,0.3047275,0.588695,-0.4974349999999999,1.6710375000000002,0.561285,-0.532215,0.9116475,0.003265,-0.0007449999999999,1.0883525,-0.0032649999999999,0.0007449999999999,0.8327675,-0.2059749999999999,-0.343665,1.1764875,-0.2110549999999999,-0.3393549999999999,0.8861075,-0.634015,-0.241305,1.1287055,-0.596565,-0.198303,1
143,1.021179,0.7251799999999999,-0.314505,0.836314,0.5207200000000001,-0.271925,0.5662940000000001,0.5654600000000001,-0.358765,1.185944,0.50789,-0.268325,1.447764,0.53186,-0.398305,0.306384,0.59756,-0.490455,1.6699540000000002,0.57401,-0.523695,0.911604,0.00298,-0.000485,1.088396,-0.00298,0.0004849999999999,0.833414,-0.2158399999999999,-0.337175,1.173354,-0.22135,-0.333945,0.885214,-0.6440600000000001,-0.236645,1.128722,-0.60829,-0.194803,1
144,1.0186915,0.73476,-0.300785,0.8335395000000001,0.52535,-0.261335,0.5658595,0.57187,-0.347935,1.1845895,0.51334,-0.257545,1.4456995,0.54094,-0.388275,0.3078594999999999,0.60774,-0.482515,1.6682295,0.58982,-0.514785,0.9115995,0.0025699999999999,-0.000255,1.0884005,-0.0025699999999999,0.0002549999999999,0.8340895,-0.22607,-0.330295,1.1697095,-0.23054,-0.328295,0.8843295,-0.6547000000000001,-0.232665,1.1286075,-0.62176,-0.19524,1
145,1.01598,0.7437400000000001,-0.28572,0.8305629999999999,0.5297000000000001,-0.2502,0.5651930000000001,0.57802,-0.33673,1.182983,0.519,-0.2461799999999999,1.443543,0.54993,-0.3787699999999999,0.3093629999999999,0.6185499999999999,-0.4740299999999999,1.666093,0.60673,-0.50598,0.911633,0.00218,-4.999999999999449e-05,1.088367,-0.0021799999999999,5.000000000000837e-05,0.835223,-0.23564,-0.3230499999999999,1.165363,-0.23962,-0.32253,0.883473,-0.6649099999999999,-0.22834,1.128312,-0.6357600000000001,-0.1953229999999999,1
146,1.013255,0.7530650000000001,-0.269705,0.8274220000000001,0.533515,-0.238655,0.563612,0.584905,-0.325005,1.181382,0.524505,-0.234395,1.441092,0.560745,-0.368305,0.3105219999999999,0.630375,-0.465075,1.663632,0.6244149999999999,-0.4964449999999999,0.911722,0.0017349999999999,6.50000000000095e-05,1.088278,-0.001735,-6.499999999999562e-05,0.837182,-0.2457949999999999,-0.315695,1.160702,-0.247855,-0.316675,0.8825419999999999,-0.675195,-0.223735,1.128001,-0.6487750000000001,-0.1950239999999999,1
147,1.0101239999999998,0.759875,-0.25238,0.8237369999999999,0.5376449999999999,-0.22596,0.5618470000000001,0.5914649999999999,-0.31258,1.179617,0.530125,-0.2223,1.438227,0.571225,-0.35648,0.311087,0.643025,-0.45531,1.660617,0.641995,-0.48557,0.911867,0.0012549999999999,0.00024,1.088133,-0.001255,-0.00024,0.839607,-0.255155,-0.30775,1.156017,-0.256135,-0.31025,0.8799669999999999,-0.6878650000000001,-0.21933,1.127087,-0.661355,-0.19379,1
148,1.0066995,0.7647999999999999,-0.23352,0.8203335,0.54045,-0.21303,0.5596935000000001,0.5982000000000001,-0.29956,1.1775435,0.5354,-0.20947,1.4363235,0.5824400000000001,-0.34368,0.3121035,0.65591,-0.44425,1.6570235,0.66056,-0.47396,0.9120635,0.0008999999999999,0.0002999999999999,1.0879365,-0.0009,-0.0003,0.8414235000000001,-0.26424,-0.29945,1.1517535,-0.26434,-0.30293,0.8771835,-0.70038,-0.21405,1.1261005,-0.6736800000000001,-0.19268,1
149,1.0030575,0.767775,-0.214484,0.8168825,0.545815,-0.199454,0.5563525,0.605485,-0.2866039999999999,1.1755125,0.539745,-0.196398,1.4335825,0.5939450000000001,-0.330934,0.3140025000000001,0.668095,-0.432384,1.6524425,0.6789649999999999,-0.462234,0.9123425,0.0006349999999999,0.0003819999999999,1.0876575,-0.0006349999999999,-0.000382,0.8422725,-0.272845,-0.290744,1.1482025,-0.272205,-0.295314,0.8752825,-0.710105,-0.208104,1.1251425,-0.686345,-0.191542,1
150,0.999643,0.7717700000000001,-0.195322,0.813358,0.5499700000000001,-0.185699,0.553408,0.61119,-0.274132,1.173838,0.54496,-0.182363,1.430588,0.60484,-0.317502,0.316748,0.67971,-0.419312,1.647368,0.6968000000000001,-0.449442,0.912518,0.0003599999999999,0.0003449999999999,1.087482,-0.0003599999999999,-0.0003449999999999,0.842468,-0.2816,-0.281252,1.145718,-0.28012,-0.287182,0.873518,-0.71993,-0.202142,1.124518,-0.69977,-0.190264,1
151,0.996552,0.77363,-0.176778,0.8097230000000001,0.55362,-0.171827,0.5496830000000001,0.6176900000000001,-0.261829,1.172223,0.54958,-0.168984,1.427273,0.6159399999999999,-0.304259,0.319883,0.6919500000000001,-0.406049,1.641003,0.7141900000000001,-0.435649,0.912673,-9.999999999982244e-06,0.0003039999999999,1.087327,1.000000000001e-05,-0.0003039999999999,0.8426830000000001,-0.28972,-0.271799,1.143193,-0.2869,-0.278819,0.871793,-0.72905,-0.1958389999999999,1.123933,-0.7121200000000001,-0.188879,1
152,0.993922,0.77469,-0.158124,0.80705,0.55566,-0.159302,0.54664,0.62524,-0.24957,1.17096,0.55338,-0.15688,1.42349,0.62887,-0.29141,0.3242699999999999,0.70587,-0.39177,1.63336,0.73367,-0.42131,0.91292,-0.0002999999999999,0.000257,1.08708,0.0002999999999999,-0.0002569999999999,0.84307,-0.29675,-0.26308,1.14102,-0.29272,-0.27088,0.87039,-0.73694,-0.1894199999999999,1.12402,-0.72347,-0.18736,1
153,0.9918395,0.7772399999999999,-0.1399615,0.8047545,0.55781,-0.1471164999999999,0.5441445,0.63381,-0.2379275,1.1700845,0.55748,-0.1446965,1.4199645,0.6410399999999999,-0.2786375,0.3290145,0.72021,-0.3776975,1.6258545,0.75428,-0.4078075,0.9131745,-0.0006699999999999,0.0002044999999999,1.0868255,0.00067,-0.0002044999999999,0.8437045000000001,-0.30337,-0.2544075,1.1393545,-0.29925,-0.2628975,0.8694645000000001,-0.74442,-0.1826875,1.1238745,-0.7340300000000001,-0.1815975,1
154,0.989965,0.77903,-0.1223739999999999,0.802249,0.56151,-0.1337459999999999,0.5431889999999999,0.64275,-0.226348,1.169059,0.56081,-0.13268,1.416179,0.65414,-0.264318,0.3342889999999999,0.73567,-0.362638,1.617509,0.77447,-0.393838,0.913359,-0.00096,0.000126,1.086641,0.00096,-0.0001259999999999,0.843589,-0.3115199999999999,-0.244968,1.138379,-0.30577,-0.254158,0.868789,-0.75195,-0.1761579999999999,1.123949,-0.74425,-0.175688,1
155,0.9880785,0.778512,-0.1056355,0.8000605000000001,0.564432,-0.1204635,0.5426605,0.651182,-0.2142025,1.1685205,0.563292,-0.1207545,1.4121805,0.665732,-0.2498525,0.3393805,0.751862,-0.3467925,1.6086505,0.794512,-0.3793125,0.9136705,-0.001328,0.0001975,1.0863295,0.0013279999999999,-0.0001974999999999,0.8429805000000001,-0.322948,-0.2344725,1.1377305,-0.317198,-0.2445025,0.8679905,-0.7600979999999999,-0.1692925,1.1231205,-0.755068,-0.1696025,1
156,0.9865845,0.7787045,-0.0897459999999999,0.7982925,0.5668645,-0.107717,0.5423125,0.6596545,-0.2022419999999999,1.1681525,0.5650945,-0.109326,1.4079325,0.6771345,-0.235872,0.3453625,0.7684945,-0.330322,1.5994225,0.8158845,-0.365352,0.9139625,-0.0014484999999999,0.000307,1.0860375,0.0014485,-0.000307,0.8430725,-0.3339354999999999,-0.223532,1.1370825,-0.3281855,-0.234562,0.8674125,-0.7688855,-0.162182,1.1225225,-0.7637655,-0.162762,1
157,0.9858075,0.7796035,-0.0693645,0.7971255000000002,0.5676835,-0.0894735,0.5425755,0.6668434999999999,-0.1833105,1.1685255,0.5657234999999999,-0.0923655,1.4039255,0.6870434999999999,-0.2166105,0.3527755,0.7828835,-0.3074405,1.5903555,0.8368135,-0.3454905,0.9141955,-0.0015364999999999,0.0004364999999999,1.0858045,0.0015364999999999,-0.0004364999999999,0.8466155,-0.3456964999999999,-0.2026205,1.1366955,-0.3399465,-0.2169805,0.8691355000000001,-0.7788265000000001,-0.1438685,1.1225455,-0.7733865000000001,-0.1486905,1
158,0.985755,0.784175,-0.050549,0.796306,0.566045,-0.07193,0.543706,0.671615,-0.164232,1.169066,0.566495,-0.075244,1.400086,0.695845,-0.1977819999999999,0.360436,0.796495,-0.284892,1.582146,0.855445,-0.326352,0.914416,-0.0016189999999999,0.0005549999999999,1.085584,0.001619,-0.0005549999999999,0.851726,-0.360525,-0.179432,1.134946,-0.352225,-0.196382,0.871866,-0.790005,-0.125205,1.121386,-0.783785,-0.1309779999999999,1
159,0.9859145,0.785832,-0.0329235,0.7957945000000001,0.565512,-0.0552395,0.5451145,0.677542,-0.1453725,1.1691545,0.566232,-0.0598745,1.3953745,0.703782,-0.1794925,0.3679445,0.8105319999999999,-0.2629925,1.5727345,0.8734419999999999,-0.3077425,0.9146845,-0.0017199999999999,0.0006304999999999,1.0853155,0.0017199999999999,-0.0006304999999999,0.8562645,-0.375478,-0.1575125,1.1335145,-0.363808,-0.1767625,0.8750545000000001,-0.8003480000000001,-0.1066775,1.1202345,-0.794158,-0.1143025,1
160,0.986067,0.787826,-0.0159905,0.795283,0.564766,-0.0393105,0.546543,0.681496,-0.1267875,1.169133,0.5661459999999999,-0.0447505,1.390343,0.7110259999999999,-0.1613375,0.375733,0.823816,-0.2415475,1.562963,0.8908659999999999,-0.2895675,0.914983,-0.001773,0.0006654999999999,1.085017,0.0017729999999999,-0.0006655,0.860893,-0.391074,-0.1359775,1.131943,-0.375524,-0.1574075,0.878143,-0.810664,-0.0886665,1.119143,-0.804224,-0.0983445,1
161,0.98649,0.7907735,0.0001065,0.795098,0.5645635,-0.0237905,0.549758,0.6849235,-0.1091314999999999,1.169338,0.5659335,-0.0300194999999999,1.385218,0.7162135,-0.1437615,0.383568,0.8361535,-0.2217915,1.553928,0.9058035,-0.2724015,0.915298,-0.0018514999999999,0.0006294999999999,1.084702,0.0018514999999999,-0.0006295,0.865688,-0.4062265,-0.1141915,1.130488,-0.3870165,-0.1377915,0.8812679999999999,-0.8193765,-0.0705355,1.117868,-0.8127165,-0.0823224999999999,1
162,0.9869485,0.790849,0.015407,0.7950245000000001,0.564559,-0.008561,0.5528145,0.687609,-0.091508,1.1693445,0.566209,-0.01568,1.3799745,0.721249,-0.126767,0.3925145,0.848469,-0.201987,1.5438945,0.918119,-0.254657,0.9157445,-0.0018659999999999,0.0005769999999999,1.0842555,0.0018659999999999,-0.000577,0.8707245,-0.421781,-0.0924069999999999,1.1292045,-0.399001,-0.117997,0.8843345000000001,-0.827721,-0.0525,1.1169005,-0.820701,-0.0668189999999999,1
163,0.987433,0.7909185,0.0300575,0.795337,0.5632485,0.0049935,0.556047,0.6906785,-0.0745455,1.169417,0.5667385,-0.0019925,1.374927,0.7254885,-0.1121704999999999,0.401567,0.8594585,-0.1835105,1.533757,0.9306085,-0.2381305,0.916207,-0.0020724999999999,0.0005935,1.083793,0.0020724999999999,-0.0005935,0.875737,-0.4367215,-0.0716855,1.127867,-0.4107814999999999,-0.0988005,0.887357,-0.8355914999999999,-0.0356375,1.115677,-0.8280815,-0.0508074999999999,1
164,0.987857,0.7920895,0.0439055,0.795569,0.5622595,0.0174725,0.5598390000000001,0.6940295000000001,-0.0592034999999999,1.169189,0.5676295,0.0105955,1.369389,0.7303695,-0.0988095,0.4119489999999999,0.8693395,-0.1660594999999999,1.522799,0.9426595,-0.2230795,0.916599,-0.0022155,0.0005325,1.083401,0.0022155,-0.0005324999999999,0.880609,-0.4522305,-0.0521475,1.126339,-0.4219105,-0.0802595,0.890239,-0.8438205,-0.0195455,1.1141949999999998,-0.8359705,-0.0355695,1
165,0.988391,0.7939274999999999,0.0567015,0.795835,0.5611174999999999,0.0288985,0.5639350000000001,0.6976574999999999,-0.0448574999999999,1.169235,0.5682775,0.0223535,1.363975,0.7359675,-0.0862584999999999,0.4227349999999999,0.8789374999999999,-0.1499185,1.511295,0.9541575,-0.2086885,0.916955,-0.0025334999999999,0.0003365,1.083045,0.0025335,-0.0003364999999999,0.885115,-0.4670525,-0.0335764999999999,1.124985,-0.4321425,-0.0625894999999999,0.8927849999999999,-0.8511725,-0.0043954999999999,1.112612,-0.8431725000000001,-0.0209554999999999,1
166,0.988632,0.796576,0.06289,0.795945,0.561496,0.033434,0.567475,0.702646,-0.038192,1.169125,0.5696559999999999,0.026918,1.357865,0.742336,-0.080832,0.432905,0.890306,-0.141112,1.498805,0.965256,-0.2016819999999999,0.917265,-0.0028899999999999,0.0001779999999999,1.082735,0.00289,-0.0001779999999999,0.887115,-0.480554,-0.025629,1.123295,-0.441244,-0.053222,0.892885,-0.857004,-0.0011559999999999,1.110816,-0.848734,-0.0149149999999999,1
167,0.988911,0.7964065,0.0689579999999999,0.7960119999999999,0.5621865,0.037182,0.571402,0.7091665,-0.0321059999999999,1.169052,0.5703765,0.030242,1.351312,0.7491965,-0.075886,0.4430219999999999,0.9022965,-0.133116,1.485152,0.9774765,-0.194506,0.917522,-0.0032325,0.00012,1.082478,0.0032324999999999,-0.00012,0.8883120000000001,-0.4865935,-0.020386,1.1232719999999998,-0.4458535,-0.047128,0.892852,-0.8613635,0.001669,1.110666,-0.8528335,-0.012392,1
168,0.989201,0.7964095,0.0753365,0.795876,0.5619795,0.0403225,0.576246,0.7159895,-0.0255305,1.168906,0.5715795,0.0336435,1.344836,0.7566094999999999,-0.0714765,0.4522859999999999,0.9155995,-0.1266365,1.470886,0.9893495,-0.1875865,0.917816,-0.0035645,0.0001135,1.082184,0.0035645,-0.0001135,0.889336,-0.4914605,-0.0148345,1.123176,-0.4497305,-0.0409384999999999,0.8926860000000001,-0.8653505,0.0044094999999999,1.110513,-0.8563805,-0.0095335,1
169,0.9894985,0.7966585,0.081498,0.7957315,0.5620285,0.043117,0.5815615000000001,0.7228285000000001,-0.019378,1.1687515,0.5731485000000001,0.036863,1.3384115,0.7638585,-0.067673,0.4614015,0.9299485,-0.1206429999999999,1.4566115,1.0003085,-0.1813429999999999,0.9181015,-0.0037384999999999,6.099999999999856e-05,1.0818985,0.0037384999999999,-6.099999999999856e-05,0.8902215,-0.4948815,-0.008827,1.1231215,-0.4529715,-0.0348799999999999,0.8925315,-0.8685915,0.0070069999999999,1.1103605,-0.8585115,-0.0068049999999999,1
170,0.9897235,0.7963405,0.0869205,0.7954384999999999,0.5615605,0.0455835,0.5873085,0.7289905000000001,-0.0134625,1.1678484999999998,0.5749705,0.0401795,1.3326185,0.7707305000000001,-0.0645875,0.4729585,0.9425205,-0.1136275,1.4415485,1.0112005,-0.1757175,0.9184475,-0.0039194999999999,1.5000000000015e-06,1.0815525,0.0039194999999999,-1.5000000000015e-06,0.8909185,-0.4973995,-0.0033385,1.1230685,-0.4532395,-0.0292665,0.8921385,-0.8709095,0.0093444999999999,1.1103625,-0.8594894999999999,-0.0041185,1
171,0.9900035,0.7959579999999999,0.092142,0.7952085,0.561508,0.048659,0.5935585000000001,0.734908,-0.008208,1.1671585,0.575558,0.042747,1.3265885,0.777108,-0.061583,0.4843585,0.953488,-0.1073029999999999,1.4261885,1.021408,-0.1704729999999999,0.9187675,-0.0041169999999999,-5.999999999999062e-06,1.0812325,0.0041169999999999,5.999999999999062e-06,0.8913585,-0.500502,0.0014609999999999,1.1230685,-0.4532319999999999,-0.02453,0.8917685,-0.8726820000000001,0.0114879999999999,1.1105025,-0.859662,-0.001465,1
172,0.9903105,0.795675,0.097026,0.7949615,0.5611050000000001,0.051226,0.5999215,0.740145,-0.0033559999999999,1.1664415,0.576275,0.045077,1.3202315,0.782755,-0.0587759999999999,0.4965115000000001,0.964075,-0.1012759999999999,1.4107315,1.030635,-0.165286,0.9190375,-0.004224,9.000000000002062e-06,1.0809624999999998,0.0042239999999999,-9.000000000002062e-06,0.8917714999999999,-0.503555,0.005948,1.1228615,-0.454365,-0.020384,0.8914215,-0.873895,0.013459,1.1106445,-0.859475,0.00098,1
173,0.990464,0.795154,0.101691,0.7947810000000001,0.561474,0.054944,0.606251,0.744884,0.0016329999999999,1.165621,0.576644,0.0471829999999999,1.313771,0.787504,-0.056035,0.509241,0.973684,-0.095635,1.394691,1.037884,-0.159135,0.919266,-0.004217,1.8999999999998185e-05,1.080734,0.0042169999999999,-1.9000000000005124e-05,0.892141,-0.5039560000000001,0.010074,1.122791,-0.4537259999999999,-0.017157,0.891131,-0.8745459999999999,0.0147819999999999,1.110852,-0.858536,0.0028929999999999,1
174,0.990619,0.7945255,0.1061215,0.794683,0.5618955,0.0584115,0.612533,0.7489254999999999,0.0059955,1.164723,0.5771155,0.0491925,1.307023,0.7908854999999999,-0.0533315,0.522223,0.9825455,-0.0904685,1.379283,1.0429455,-0.1533585,0.919471,-0.0042155,8.149999999999824e-05,1.080529,0.0042155,-8.149999999999824e-05,0.8924930000000001,-0.5037445,0.0137245,1.122763,-0.4523844999999999,-0.0143715,0.890923,-0.8750645,0.0159025,1.110749,-0.8583345,0.0044874999999999,1
175,0.9907745,0.7935260000000001,0.110237,0.7947265,0.562226,0.061626,0.6185265000000001,0.752456,0.0096609999999999,1.1637865,0.577576,0.051303,1.3004465,0.7937160000000001,-0.0506919999999999,0.5353065,0.990996,-0.086529,1.3640765,1.0469959999999998,-0.1477389999999999,0.9196975,-0.004231,0.0001789999999999,1.0803025,0.0042309999999999,-0.0001789999999999,0.8927265,-0.503804,0.01685,1.1227665,-0.451304,-0.012117,0.8907065,-0.875594,0.017037,1.1106375,-0.858174,0.0060339999999999,1
176,0.9909195,0.7926065,0.1142135,0.7946625,0.5626165000000001,0.0647965,0.6243525,0.7559665,0.0122914999999999,1.1628925,0.5780464999999999,0.0532235,1.2939925,0.7961564999999999,-0.0485965,0.5491325,0.9996565,-0.0834625,1.3491025,1.0502565,-0.1427425,0.9199225,-0.0042145,0.0002455,1.0800775,0.0042144999999999,-0.0002455,0.8929125,-0.5041635,0.0193935,1.1229025,-0.4514735,-0.0104674999999999,0.8905325,-0.8763635000000001,0.0178875,1.1107175,-0.8578735,0.0073664999999999,1
177,0.99089,0.7923825000000001,0.1176425,0.7944519999999999,0.5628625,0.0680165,0.629102,0.7594225,0.0136525,1.161902,0.5783225000000001,0.0549585,1.287692,0.7986525000000001,-0.0466164999999999,0.563402,1.0057325,-0.0809504999999999,1.335602,1.0533325,-0.1385704999999999,0.920131,-0.0041105,0.0002725,1.079869,0.0041105,-0.0002724999999999,0.892902,-0.5050175,0.0213295,1.122912,-0.4516975,-0.0091204999999999,0.8902019999999999,-0.8765875,0.0187625,1.110631,-0.8577775,0.0081205,1
178,0.9908835,0.7923330000000001,0.120984,0.7943375,0.563203,0.0710679999999999,0.6336675,0.762933,0.013973,1.1610175,0.578563,0.0565489999999999,1.2817075,0.801023,-0.045279,0.5781475,1.009483,-0.07961,1.3230475,1.056183,-0.13516,0.9202585,-0.0041479999999999,0.0003429999999999,1.0797415,0.0041479999999999,-0.000343,0.8928475000000001,-0.5062570000000001,0.0223219999999999,1.1228175,-0.451747,-0.008226,0.8898975000000001,-0.876637,0.0195409999999999,1.1105005,-0.857557,0.0088329999999999,1
179,0.9908385,0.7923215,0.1241424999999999,0.7942835,0.5634715,0.0738814999999999,0.6381135,0.7661715,0.0142334999999999,1.1601535,0.5786315,0.0579264999999999,1.2757435,0.8035815,-0.0442005,0.5903635,1.0124715,-0.0797315,1.3111835,1.0614715,-0.1324015,0.9203755,-0.0041594999999999,0.0004134999999999,1.0796245,0.0041595,-0.0004135,0.8927134999999999,-0.5076585,0.0229444999999999,1.1227035,-0.4519085,-0.0075415,0.8895935,-0.8768185000000001,0.0202494999999999,1.1103065,-0.8572285000000001,0.0093224999999999,1
180,0.990752,0.791331,0.127348,0.794212,0.563451,0.075819,0.642262,0.768201,0.014445,1.159302,0.578651,0.059455,1.270462,0.8063009999999999,-0.0435239999999999,0.602572,1.014851,-0.079925,1.300882,1.066251,-0.130345,0.920482,-0.00418,0.000459,1.079518,0.0041799999999999,-0.000459,0.892502,-0.509159,0.023375,1.122492,-0.452509,-0.0069769999999999,0.889282,-0.877659,0.020855,1.109974,-0.856909,0.009755,1
181,0.990667,0.7903135,0.1306415,0.794207,0.5634335,0.0774265,0.646367,0.7695035,0.0143685,1.158577,0.5787734999999999,0.0608475,1.265877,0.8090935,-0.0429205,0.613927,1.0163335,-0.0801065,1.291157,1.0710335,-0.1286365,0.92059,-0.0041975,0.0004714999999999,1.07941,0.0041975,-0.0004714999999999,0.8922470000000001,-0.5090765,0.0237754999999999,1.122267,-0.4522265,-0.0065554999999999,0.8889470000000002,-0.8784665,0.0213905,1.109667,-0.8566465,0.0101474999999999,0
182,0.990587,0.789355,0.1337765,0.7942940000000001,0.5634750000000001,0.0777565,0.650324,0.770285,0.0132434999999999,1.158004,0.579085,0.0622165,1.262024,0.811795,-0.0424045,0.6239140000000001,1.018475,-0.0816575,1.283624,1.076075,-0.1278875,0.920674,-0.004214,0.0004545,1.079326,0.004214,-0.0004544999999999,0.891944,-0.508825,0.0241175,1.122034,-0.452355,-0.0062175,0.888654,-0.879225,0.0219325,1.109311,-0.856605,0.0104674999999999,0
183,0.990405,0.788496,0.1364635,0.7944990000000001,0.563426,0.0780565,0.654219,0.7708659999999999,0.0114785,1.157499,0.579486,0.0634915,1.258819,0.814326,-0.0420735,0.632879,1.020116,-0.0841125,1.276979,1.081116,-0.1270825,0.920749,-0.0041859999999999,0.0004185,1.079251,0.004186,-0.0004184999999999,0.891579,-0.508434,0.0243915,1.121719,-0.453194,-0.0057814999999999,0.888309,-0.879714,0.0224625,1.108793,-0.8568840000000001,0.0105835,0
184,0.9902635,0.787823,0.139077,0.7948345,0.563293,0.078238,0.6577945000000001,0.771073,0.009104,1.1570545,0.579933,0.064626,1.2561745,0.816833,-0.0419959999999999,0.6405244999999999,1.021823,-0.08738,1.2718945,1.085823,-0.1263099999999999,0.9208115,-0.004133,0.000292,1.0791885,0.0041329999999999,-0.000292,0.8912245,-0.509267,0.024501,1.1215745,-0.453827,-0.0054339999999999,0.8879645,-0.8802369999999999,0.02291,1.1083155,-0.857077,0.010698,0
185,0.990107,0.787595,0.1415235,0.79524,0.5626150000000001,0.0782215,0.6611100000000001,0.771495,0.0059735,1.15658,0.5805849999999999,0.0656665,1.25409,0.8193950000000001,-0.0421135,0.64697,1.023445,-0.0932535,1.26804,1.090945,-0.1261135,0.920857,-0.004185,0.0001384999999999,1.079143,0.004185,-0.0001384999999999,0.89089,-0.509255,0.0243854999999999,1.12143,-0.453925,-0.0051495,0.88751,-0.880415,0.0232395,1.107793,-0.857505,0.0107184999999999,0
186,0.9901035,0.787724,0.143894,0.7956855,0.5619139999999999,0.078112,0.6641155000000001,0.771874,0.0025109999999999,1.1561355,0.5811339999999999,0.0665449999999999,1.2525455,0.821754,-0.04248,0.6525055,1.024624,-0.100204,1.2651155,1.095924,-0.126014,0.9208445,-0.0041949999999999,6.300000000000056e-05,1.0791555,0.004195,-6.300000000000056e-05,0.8906054999999999,-0.509216,0.024199,1.1212855,-0.453546,-0.0050419999999999,0.8870955000000001,-0.880606,0.02348,1.1073015,-0.857326,0.010664,0
187,0.990211,0.788123,0.146314,0.7960119999999999,0.561233,0.077965,0.666802,0.772263,-0.0011319999999999,1.155692,0.581553,0.067445,1.251442,0.823783,-0.0429239999999999,0.656872,1.0253230000000002,-0.107638,1.263042,1.100623,-0.126108,0.920817,-0.004195,6.0000000000060005e-06,1.079183,0.0041949999999999,-5.999999999999062e-06,0.890262,-0.509317,0.024048,1.1211019999999998,-0.452287,-0.0050989999999999,0.886572,-0.880707,0.023758,1.106738,-0.857297,0.01054,0
188,0.9903765,0.7885935,0.14865,0.7963455,0.5606034999999999,0.0777539999999999,0.6691355,0.7721735,-0.005076,1.1553955,0.5818635,0.068262,1.2508755,0.8247135,-0.0431309999999999,0.6601455,1.0250635,-0.115955,1.2622955,1.1014635,-0.126145,0.9207625,-0.0041714999999999,-7.599999999999968e-05,1.0792375,0.0041715,7.599999999999968e-05,0.8899455000000001,-0.5096965,0.0238339999999999,1.1210355,-0.4513565,-0.005201,0.8860655,-0.8808465000000001,0.0240109999999999,1.1061735,-0.8573565000000001,0.0104179999999999,0
189,0.990605,0.7885935,0.1507095,0.796663,0.5603334999999999,0.0774635,0.671153,0.7713234999999999,-0.0092834999999999,1.155113,0.5818635,0.0687585,1.250343,0.8248034999999999,-0.0431464999999999,0.662293,1.0240635,-0.1248904999999999,1.261743,1.1015635,-0.1262805,0.920713,-0.0041714999999999,-0.0001864999999999,1.079287,0.0041715,0.0001865,0.889713,-0.5101465000000001,0.0237845,1.121043,-0.4513565,-0.0053574999999999,0.8855330000000001,-0.8809765,0.0240615,1.105765,-0.8574865,0.0102865,0
190,0.9908665,0.7886734999999999,0.152585,0.7969065000000001,0.5603334999999999,0.077331,0.6727965,0.7704335,-0.013318,1.1547965,0.5818635,0.069222,1.2497465,0.8248034999999999,-0.0432009999999999,0.6637365,1.0229635,-0.133765,1.2611465,1.1015635,-0.126335,0.9206695,-0.0041714999999999,-0.0002979999999999,1.0793305,0.0041715,0.0002979999999999,0.8894664999999999,-0.5101465000000001,0.023683,1.1209965,-0.4513565,-0.005553,0.8849365000000001,-0.8809765,0.0239859999999999,1.1053265,-0.8574865,0.0101699999999999,0
191,0.99127,0.7888434999999999,0.1545915,0.797079,0.5603334999999999,0.0772815,0.673979,0.7695835,-0.0172274999999999,1.154579,0.5818635,0.0696845,1.249179,0.8243634999999999,-0.0432545,0.664479,1.0217635,-0.1423685,1.260579,1.1010635,-0.1264084999999999,0.920625,-0.0041714999999999,-0.0004045,1.079375,0.0041715,0.0004045,0.889239,-0.5101465000000001,0.0235655,1.120939,-0.4511465,-0.0057395,0.8842890000000001,-0.8809765,0.0237865,1.104935,-0.8574865,0.0100605,0
192,0.991712,0.7898365,0.1565935,0.7971509999999999,0.5602165,0.0770805,0.674661,0.7685265,-0.0208655,1.154471,0.5820765,0.0701975,1.248851,0.8242465,-0.0433845,0.6647510000000001,1.0208465,-0.1508265,1.260001,1.1009465,-0.1265265,0.920591,-0.0041734999999999,-0.0005835,1.079409,0.0041735,0.0005835,0.8890010000000002,-0.5096835,0.0233685,1.120951,-0.4502834999999999,-0.0059924999999999,0.8836210000000001,-0.8809435,0.0236725,1.104529,-0.8573235,0.0099645,0
193,0.9921535,0.790949,0.15861,0.7980395,0.560099,0.076842,0.6750095,0.767409,-0.02443,1.1543495,0.582199,0.070616,1.2487695,0.8237490000000001,-0.043235,0.6647995000000001,1.019929,-0.15939,1.2600695,1.100329,-0.12662,0.9205635,-0.004166,-0.000768,1.0794365,0.0041659999999999,0.0007679999999999,0.8888294999999999,-0.509211,0.0231059999999999,1.1208695,-0.449431,-0.006259,0.8829495,-0.880871,0.0235519999999999,1.1040125,-0.8571709999999999,0.0098659999999999,0
194,0.992674,0.7919645,0.160866,0.7992000000000001,0.5599545,0.076469,0.6752400000000001,0.7657944999999999,-0.0278379999999999,1.15431,0.5821845,0.071074,1.24888,0.8227345,-0.042851,0.6643,1.0187745,-0.1659739999999999,1.2604,1.0993745,-0.126404,0.920541,-0.0041335,-0.0009419999999999,1.079459,0.0041334999999999,0.0009419999999999,0.88863,-0.5087455,0.022868,1.12078,-0.4485555,-0.006462,0.88227,-0.8808555,0.0234419999999999,1.103475,-0.8571255,0.0098279999999999,0
195,0.993114,0.7929845,0.1628365,0.8003890000000001,0.5598145,0.0760395,0.675389,0.7638944999999999,-0.0312294999999999,1.154339,0.5821345,0.0714805,1.249129,0.8213845,-0.0423065,0.663769,1.0171345,-0.1728635,1.260839,1.0979345,-0.1263435,0.920541,-0.0041045,-0.0011064999999999,1.079459,0.0041044999999999,0.0011065,0.888429,-0.5081755,0.0225085,1.120629,-0.4478955,-0.0066704999999999,0.881559,-0.8809055,0.0231765,1.102984,-0.8571355,0.0097785,0
196,0.993618,0.794006,0.1646235,0.801455,0.5596859999999999,0.0756525,0.675635,0.7617959999999999,-0.0342985,1.154465,0.5820759999999999,0.0718775,1.249615,0.819846,-0.0416495,0.663435,1.015436,-0.1789565,1.261475,1.096236,-0.1264265,0.920548,-0.0040819999999999,-0.0012274999999999,1.079452,0.004082,0.0012274999999999,0.8883050000000001,-0.507354,0.0221715,1.120525,-0.447144,-0.0068144999999999,0.880935,-0.881004,0.0229085,1.102621,-0.857124,0.0097545,0
197,0.9941735,0.7948065000000001,0.166327,0.8024005000000001,0.5595665000000001,0.075273,0.6757905,0.7596665,-0.036869,1.1546005,0.5820065,0.072306,1.2501005,0.8181265,-0.0409449999999999,0.6631705,1.0122365,-0.184223,1.2621605,1.0944365,-0.126493,0.9205745,-0.0040264999999999,-0.001312,1.0794255,0.0040265,0.001312,0.8880905,-0.5075135,0.0218709999999999,1.1203205,-0.4462834999999999,-0.006927,0.8803605,-0.8810735,0.0226059999999999,1.1022545,-0.8570435,0.0097889999999999,0
198,0.994678,0.795239,0.1678205,0.803276,0.5594990000000001,0.0749005,0.675996,0.757359,-0.0392255,1.154766,0.581959,0.0726914999999999,1.250666,0.816289,-0.0402295,0.663016,1.008869,-0.1885794999999999,1.262896,1.092369,-0.1266094999999999,0.920594,-0.004012,-0.0013864999999999,1.079406,0.004012,0.0013864999999999,0.887856,-0.507781,0.0216024999999999,1.120076,-0.446351,-0.0070595,0.879826,-0.881141,0.0223195,1.101925,-0.857011,0.0097075,0
199,0.995138,0.79538,0.1690915,0.804129,0.55948,0.0745764999999999,0.676199,0.75513,-0.0411985,1.154959,0.58198,0.0730685,1.251339,0.81444,-0.0394585,0.662979,1.00563,-0.1923385,1.263709,1.09033,-0.1267385,0.920601,-0.0040109999999999,-0.0014555,1.079399,0.004011,0.0014554999999999,0.8877190000000001,-0.50721,0.0212914999999999,1.119899,-0.4463899999999999,-0.0071475,0.879389,-0.88118,0.0218954999999999,1.101658,-0.85705,0.0096234999999999,0
200,0.9954935,0.795444,0.17013,0.8048815,0.559464,0.074262,0.6763315,0.753014,-0.042828,1.1550815,0.581994,0.073378,1.2518815,0.813004,-0.039,0.6629415000000001,1.0026940000000002,-0.1955,1.2645615,1.088694,-0.12688,0.9206125,-0.0040119999999999,-0.001524,1.0793875,0.004012,0.0015239999999999,0.8875315,-0.506606,0.0209409999999999,1.1196914999999998,-0.446426,-0.007293,0.8789315,-0.881306,0.0216309999999999,1.1013695,-0.857086,0.0094799999999999,0
201,0.9958565,0.7954275,0.1710729999999999,0.8055715,0.5594574999999999,0.07397,0.6764615,0.7508975,-0.044298,1.1551015,0.5819975,0.0735939999999999,1.2524315,0.8115874999999999,-0.03854,0.6629214999999999,0.9997675,-0.198437,1.2654615,1.0870675,-0.126997,0.9205965,-0.0040104999999999,-0.001567,1.0794035,0.0040105,0.0015669999999999,0.8873415,-0.5060425,0.0206019999999999,1.1194415,-0.4466925,-0.007474,0.8785615,-0.8814325000000001,0.0215639999999999,1.1010745,-0.8572725000000001,0.0093139999999999,0
202,0.996178,0.7954055,0.171773,0.805336,0.5594355,0.073753,0.676606,0.7488555,-0.045486,1.1551159999999998,0.5819755,0.073808,1.252926,0.8103855,-0.0382599999999999,0.662846,0.9971455,-0.200797,1.266346,1.0856455,-0.127127,0.920579,-0.0040135,-0.0016079999999999,1.079421,0.0040135,0.001608,0.887126,-0.5055145,0.020351,1.119206,-0.4469445,-0.0076259999999999,0.878226,-0.8815645,0.021504,1.100874,-0.8573445000000001,0.00917,0
203,0.996459,0.79538,0.1721645,0.8050510000000001,0.55941,0.0735605,0.676671,0.74727,-0.0464415,1.155061,0.58194,0.0739075,1.253421,0.80935,-0.0380654999999999,0.662831,0.99502,-0.2027255,1.267241,1.08442,-0.1273855,0.920571,-0.004007,-0.0016515,1.079429,0.0040069999999999,0.0016515,0.8868510000000001,-0.50554,0.0201115,1.118961,-0.44764,-0.0077564999999999,0.877951,-0.88177,0.0214655,1.100715,-0.8573700000000001,0.0090275,0
204,0.9968115,0.795402,0.172506,0.8048625,0.559432,0.0733859999999999,0.6767425,0.746012,-0.047152,1.1550225,0.581932,0.074017,1.2539924999999998,0.8085720000000001,-0.037924,0.6628725,0.993542,-0.2037839999999999,1.2681425,1.083542,-0.127634,0.9205735,-0.004029,-0.001696,1.0794265,0.0040289999999999,0.0016959999999999,0.8866525000000001,-0.505518,0.0199609999999999,1.1187725,-0.448528,-0.00794,0.8777825000000001,-0.8819079999999999,0.0214369999999999,1.1006065,-0.8574879999999999,0.0089469999999999,0
205,0.9970205,0.795279,0.1727655,0.8046665,0.5592389999999999,0.0729855,0.6766565,0.745009,-0.0477995,1.1549865,0.5818989999999999,0.0741505,1.2544565,0.807939,-0.0378405,0.6627265,0.992259,-0.2048945,1.2688165,1.082759,-0.1278745,0.9205795,-0.0040499999999999,-0.0017475,1.0794205,0.0040499999999999,0.0017474999999999,0.8864565,-0.505771,0.0198494999999999,1.1185965,-0.449141,-0.0081065,0.8776165,-0.8820910000000001,0.0214914999999999,1.1005144999999998,-0.857751,0.0088634999999999,0
206,0.9971365,0.7952100000000001,0.1729865,0.8041765000000001,0.5590700000000001,0.0726785,0.6765265,0.74411,-0.0483234999999999,1.1549865,0.5817800000000001,0.0743145,1.2549465,0.80744,-0.0377374999999999,0.6625565,0.99108,-0.2058735,1.2694264999999998,1.08208,-0.1281335,0.9205725,-0.0040669999999999,-0.0017944999999999,1.0794275,0.004067,0.0017945,0.8862765,-0.50574,0.0196515,1.1184165,-0.45035,-0.0082234999999999,0.8774665000000001,-0.8824,0.0215475,1.1003745,-0.8580099999999999,0.0089125,0
207,0.997239,0.7951119999999999,0.1732905,0.803593,0.558902,0.0724125,0.676343,0.7434219999999999,-0.0488234999999999,1.154983,0.5815819999999999,0.0744595,1.255383,0.807032,-0.0376755,0.662343,0.990162,-0.2068495,1.269973,1.081662,-0.1284095,0.920566,-0.004085,-0.0018284999999999,1.079434,0.0040849999999999,0.0018285,0.886063,-0.505828,0.0194255,1.118233,-0.451368,-0.0083684999999999,0.877463,-0.8829680000000001,0.0217465,1.100276,-0.858318,0.0088255,0
208,0.9972895,0.7950769999999999,0.173569,0.8030935,0.558867,0.072213,0.6761935,0.743077,-0.0492299999999999,1.1548935,0.5815469999999999,0.074561,1.2557435,0.806747,-0.037702,0.6622035,0.989527,-0.2078009999999999,1.2704535,1.0812270000000002,-0.128681,0.9205585,-0.004085,-0.0018629999999999,1.0794415,0.0040849999999999,0.001863,0.8858735,-0.5058130000000001,0.019111,1.1180435,-0.451863,-0.0085689999999999,0.8773035,-0.8831730000000001,0.021955,1.1001125,-0.858653,0.008863,0
209,0.997302,0.7950575,0.173773,0.802676,0.5588475,0.072038,0.6760360000000001,0.7427775,-0.049541,1.1548459999999998,0.5815275,0.074651,1.256166,0.8064074999999999,-0.0376809999999999,0.662066,0.9890075,-0.2085769999999999,1.270856,1.0809075,-0.128957,0.920549,-0.0041045,-0.0018919999999999,1.079451,0.0041044999999999,0.001892,0.885626,-0.5058425,0.018819,1.117866,-0.4523125,-0.0087999999999999,0.877126,-0.8833325,0.022108,1.099958,-0.8589425,0.008925,0
210,0.997333,0.7950465,0.1739919999999999,0.8023629999999999,0.5588265000000001,0.071923,0.675913,0.7425565000000001,-0.049737,1.1548729999999998,0.5815064999999999,0.074755,1.256563,0.8061465000000001,-0.037652,0.661933,0.9886865,-0.209028,1.271253,1.0804865,-0.129218,0.920555,-0.0041234999999999,-0.001926,1.079445,0.0041235,0.0019259999999999,0.885393,-0.5058635,0.01858,1.117763,-0.4523335,-0.009008,0.876983,-0.8834135000000001,0.022293,1.099845,-0.8589635,0.0089339999999999,0
211,0.997483,0.7949539999999999,0.1742355,0.802089,0.5587139999999999,0.0717665,0.675799,0.742034,-0.0499965,1.154979,0.581154,0.0748295,1.257069,0.8056139999999999,-0.0376135,0.661799,0.988014,-0.2094745,1.271809,1.079914,-0.1296045,0.920555,-0.00414,-0.0019545,1.079445,0.0041399999999999,0.0019544999999999,0.885169,-0.506236,0.0183434999999999,1.117679,-0.452706,-0.0092315,0.8769090000000002,-0.8837860000000001,0.0225514999999999,1.099747,-0.859286,0.0089494999999999,0
212,0.9976025,0.794898,0.1744675,0.8018445,0.5586380000000001,0.0716315,0.6756645,0.7415980000000001,-0.0502244999999999,1.1550845,0.5807880000000001,0.0748905,1.2575845,0.8050780000000001,-0.0375805,0.6616245000000001,0.987458,-0.2099025,1.2723845,1.079258,-0.1299925,0.9205555,-0.004173,-0.0019874999999999,1.0794445,0.0041729999999999,0.0019875,0.8850545,-0.505812,0.0180965,1.1175745,-0.453062,-0.0094614999999999,0.8768145,-0.884142,0.0226895,1.0996605,-0.8596419999999999,0.0089425,0
213,0.9977015,0.794891,0.1747175,0.8016405,0.5586209999999999,0.0715065,0.6755105,0.741201,-0.0504375,1.1552005,0.580461,0.0749505,1.2580405,0.804531,-0.0375855,0.6614605,0.987031,-0.2103025,1.2729805,1.078631,-0.1303625,0.9205555,-0.0042189999999999,-0.0020225,1.0794445,0.004219,0.0020224999999999,0.8849205,-0.505449,0.0178734999999999,1.1174505,-0.452449,-0.0096315,0.8766805,-0.8844690000000001,0.0227694999999999,1.0995275,-0.859969,0.0090504999999999,0
214,0.9978045,0.7948805,0.174953,0.8014695000000001,0.5586104999999999,0.071396,0.6753495,0.7407904999999999,-0.050613,1.1552995,0.5800105,0.074961,1.2584795,0.8039504999999999,-0.037547,0.6612595,0.9867005,-0.2105469999999999,1.2739195,1.0750005,-0.131277,0.9205535,-0.0042454999999999,-0.002059,1.0794465,0.0042454999999999,0.0020589999999999,0.8847495,-0.5053395,0.0176539999999999,1.1173495,-0.4516195,-0.009803,0.8765395,-0.8847395,0.0227889999999999,1.0993065,-0.8602895,0.0092259999999999,0
215,0.9979085,0.7948455,0.175222,0.8013375,0.5586055,0.071306,0.6751975,0.7403955,-0.0507219999999999,1.1553575,0.5795655000000001,0.075026,1.2588775,0.8033355,-0.037485,0.6609775,0.9863555,-0.210688,1.2748374999999998,1.0712555,-0.1320579999999999,0.9205515,-0.0042705,-0.00209,1.0794485,0.0042705,0.00209,0.8846775,-0.5052045000000001,0.017526,1.1172875,-0.4513945,-0.009966,0.8764075,-0.8849445,0.022802,1.0990465,-0.8605345,0.0093929999999999,0
