sb224sc-HT22-VT27/4dt907/src/data/labeled_files/A84_kinect.csv
FrameNo,nose_3d_x,nose_3d_y,nose_3d_z,left_shoulder_3d_x,left_shoulder_3d_y,left_shoulder_3d_z,left_elbow_3d_x,left_elbow_3d_y,left_elbow_3d_z,right_shoulder_3d_x,right_shoulder_3d_y,right_shoulder_3d_z,right_elbow_3d_x,right_elbow_3d_y,right_elbow_3d_z,left_wrist_3d_x,left_wrist_3d_y,left_wrist_3d_z,right_wrist_3d_x,right_wrist_3d_y,right_wrist_3d_z,left_hip_3d_x,left_hip_3d_y,left_hip_3d_z,right_hip_3d_x,right_hip_3d_y,right_hip_3d_z,left_knee_3d_x,left_knee_3d_y,left_knee_3d_z,right_knee_3d_x,right_knee_3d_y,right_knee_3d_z,left_ankle_3d_x,left_ankle_3d_y,left_ankle_3d_z,right_ankle_3d_x,right_ankle_3d_y,right_ankle_3d_z,activity_label
0,-0.010167,0.788252,0.1266425,-0.165034,0.574212,0.0935585,-0.239714,0.829492,0.0312015,0.174606,0.566572,0.0974575,0.260576,0.8214819999999999,0.0471705,-0.244744,1.113132,-0.0157485,0.287146,1.064232,-0.0290124999999999,-0.081527,0.001836,0.0007915,0.081527,-0.001836,-0.0007915,-0.114424,-0.456878,-0.0128254999999999,0.121846,-0.496118,0.0180885,-0.093742,-0.866828,0.0126725,0.127876,-0.880868,0.0252755,0
1,-0.009857,0.7868235,0.126223,-0.166251,0.5753834999999999,0.093828,-0.239841,0.8289135,0.030826,0.174479,0.5669135,0.097429,0.260809,0.8217435,0.047635,-0.246101,1.1123735,-0.016963,0.287389,1.0643735,-0.028467,-0.081612,0.0020695,0.0007769999999999,0.081612,-0.0020695,-0.0007769999999999,-0.114541,-0.4517365,-0.014072,0.121699,-0.4950865,0.018052,-0.093919,-0.8665565000000001,0.012659,0.1266789999999999,-0.8827265000000001,0.025567,1
2,-0.0098034999999999,0.7869785,0.1264965,-0.1667865,0.5755485,0.0939474999999999,-0.2412165,0.8433885,0.0239374999999999,0.1745935,0.5671085,0.0975584999999999,0.2610335,0.8217285000000001,0.0477934999999999,-0.2483465,1.1269185,-0.0221574999999999,0.2881135,1.0630185,-0.0278744999999999,-0.0816365,0.0021595,0.0009474999999999,0.0816365,-0.0021595,-0.0009475,-0.1144864999999999,-0.4514415,-0.0140915,0.1218635,-0.4956015,0.0179734999999999,-0.0940985,-0.8666915,0.0126414999999999,0.1266635,-0.8826014999999999,0.0257134999999999,1
3,-0.0086275,0.790521,0.1267565,-0.1676214999999999,0.575481,0.0939245,-0.2416415,0.847501,0.0223085,0.1747085,0.566991,0.0976185,0.2612685,0.821691,0.0479755,-0.2494915,1.130961,-0.0244075,0.2888385,1.062461,-0.0272985,-0.0815815,0.002029,0.0009204999999999,0.0815815,-0.002029,-0.0009204999999999,-0.1147315,-0.448499,-0.0152115,0.1221985,-0.493979,0.0176565,-0.0936365,-0.866019,0.0129715,0.1270985,-0.883389,0.0247115,1
4,-0.0084979999999999,0.7918975,0.126478,-0.1682739999999999,0.5752075000000001,0.093734,-0.241424,0.8473675,0.021588,0.174666,0.5671275,0.097707,0.261396,0.8213075000000001,0.048506,-0.250164,1.1307075,-0.025476,0.289246,1.0624075,-0.0268289999999999,-0.0815859999999999,0.0019375,0.000855,0.0815859999999999,-0.0019375,-0.0008549999999999,-0.114644,-0.4470525,-0.015665,0.121756,-0.4946725,0.017539,-0.093751,-0.8658925,0.013147,0.127306,-0.8836025,0.024105,1
5,-0.008954,0.7909864999999999,0.1265555,-0.16869,0.5753465,0.0936525,-0.24181,0.8474765,0.0213175,0.17444,0.5672864999999999,0.0976005,0.26136,0.8214265,0.0483765,-0.25087,1.1307665,-0.0262325,0.28952,1.0615665,-0.0264585,-0.081535,0.0019525,0.0008654999999999,0.081535,-0.0019524999999999,-0.0008654999999999,-0.1151,-0.4482935,-0.0158735,0.12176,-0.4907034999999999,0.0170795,-0.093278,-0.8643135000000001,0.0146765,0.12741,-0.8814335000000001,0.0238355,1
6,-0.0090155,0.791441,0.1263754999999999,-0.1692005,0.575881,0.0935955,-0.2416505,0.847981,0.0201934999999999,0.1743295,0.567791,0.0973594999999999,0.2613895,0.822171,0.0484384999999999,-0.2513505,1.131191,-0.0279655,0.2900695,1.061891,-0.0263585,-0.0814765,0.001407,0.0010644999999999,0.0814765,-0.001407,-0.0010645,-0.1147405,-0.445919,-0.0166045,0.1216495,-0.490449,0.0169334999999999,-0.0933954999999999,-0.863759,0.0143734999999999,0.1277495,-0.879729,0.0235024999999999,1
7,-0.0073265,0.7898474999999999,0.126934,-0.1675655,0.5761175,0.093728,-0.2394855,0.8457275,0.02017,0.1753644999999999,0.5674275,0.097956,0.2632545,0.8219375,0.049212,-0.2475855,1.1287075,-0.0292329999999999,0.2919245,1.0614075,-0.0251809999999999,-0.0815575,0.0018115,0.000779,0.0815575,-0.0018114999999999,-0.0007789999999999,-0.1156155,-0.4480725,-0.016824,0.1210145,-0.4926025,0.016493,-0.0953985,-0.8638325,0.012714,0.1256745,-0.8826825,0.024067,1
8,-0.0069054999999999,0.789796,0.126946,-0.1676125,0.5764360000000001,0.093713,-0.2392625,0.846896,0.019704,0.1753475,0.568026,0.098089,0.2637675,0.821916,0.049488,-0.2475525,1.129896,-0.030458,0.2926375,1.061196,-0.0248339999999999,-0.0815525,0.0018269999999999,0.000754,0.0815525,-0.001827,-0.0007539999999999,-0.1158425,-0.446554,-0.0171399999999999,0.1208375,-0.491914,0.0162,-0.0956984999999999,-0.8633839999999999,0.012671,0.1252975,-0.882744,0.023779,1
9,-0.0064604999999999,0.7899235,0.1269775,-0.1676125,0.5766435,0.0936765,-0.2390225,0.8481535,0.0190835,0.1753375,0.5685235,0.0982375,0.2642675,0.8218935,0.0497275,-0.2473925,1.1311735,-0.0316055,0.2933175,1.0608735,-0.0245445,-0.0815525,0.0018535,0.0007414999999999,0.0815525,-0.0018535,-0.0007414999999999,-0.1160625,-0.4454365,-0.0175125,0.1206375,-0.4913165,0.0158425,-0.0959925,-0.8628965,0.0126375,0.1250175,-0.8828765,0.0234874999999999,1
10,-0.0060154999999999,0.79003,0.1269855,-0.1676615,0.57699,0.0936305,-0.2385914999999999,0.84881,0.0182995,0.1753385,0.56888,0.0983845,0.2647585,0.82187,0.0499435,-0.2470014999999999,1.13174,-0.0328065,0.2939684999999999,1.0607399999999998,-0.0243325,-0.0815505,0.00189,0.0007165,0.0815505,-0.0018899999999999,-0.0007165,-0.1162815,-0.4449,-0.0177475,0.1204085,-0.49091,0.0155644999999999,-0.0962705,-0.86232,0.0125715,0.1246985,-0.88284,0.0232595,1
11,-0.0055744999999999,0.7896765,0.1269745,-0.1675615,0.5772265,0.0935805,-0.2381415,0.8489165,0.0174774999999999,0.1753685,0.5691065,0.0986985,0.2652285,0.8217965,0.0500834999999999,-0.2465014999999999,1.1317564999999998,-0.0339855,0.2945485,1.0604565,-0.0242225,-0.0815495,0.0019895,0.0006994999999999,0.0815495,-0.0019895,-0.0006995,-0.1165114999999999,-0.4446235,-0.0179155,0.1201585,-0.4907135,0.0152904999999999,-0.0965935,-0.8616235,0.0124764999999999,0.1243384999999999,-0.8828335,0.0230864999999999,1
12,-0.0051449999999999,0.789304,0.126985,-0.167496,0.577564,0.093539,-0.237746,0.8491339999999999,0.016578,0.175434,0.5693039999999999,0.098991,0.265644,0.8217139999999999,0.050161,-0.245956,1.131964,-0.035146,0.295114,1.060164,-0.0242069999999999,-0.081546,0.002076,0.000698,0.081546,-0.0020759999999999,-0.0006979999999999,-0.116766,-0.4442959999999999,-0.0180579999999999,0.119934,-0.490486,0.014988,-0.096867,-0.861006,0.012367,0.123914,-0.882876,0.023008,1
13,-0.0049725,0.7887970000000001,0.1269615,-0.1673995,0.5776070000000001,0.0934985,-0.2375895,0.8491770000000001,0.0156345,0.1755705,0.569007,0.0991124999999999,0.2657805,0.821677,0.0501665,-0.2456395,1.132017,-0.0363745,0.2953504999999999,1.060017,-0.0241975,-0.0815454999999999,0.002107,0.0006965,0.0815454999999999,-0.0021069999999999,-0.0006965,-0.1168295,-0.444523,-0.0181754999999999,0.1197504999999999,-0.490873,0.0147015,-0.0968855,-0.861053,0.0122204999999999,0.1238205,-0.8828229999999999,0.0229635,1
14,-0.00479,0.7885614999999999,0.1269485,-0.167271,0.5776414999999999,0.0934365,-0.237431,0.8492215,0.0147255,0.1757389999999999,0.5687614999999999,0.0991915,0.265949,0.8216614999999999,0.0501925,-0.245351,1.1319815,-0.0374855,0.295649,1.0598815,-0.0241664999999999,-0.081546,0.0021415,0.0006774999999999,0.081546,-0.0021414999999999,-0.0006774999999999,-0.116871,-0.4445085,-0.0182905,0.119569,-0.4912684999999999,0.0145665,-0.09704,-0.8609885,0.0120825,0.1237289999999999,-0.8827885000000001,0.0230295,1
15,-0.0046554999999999,0.788549,0.126865,-0.1670895,0.577689,0.093358,-0.2372595,0.849259,0.0138429999999999,0.1759204999999999,0.568639,0.099272,0.2661405,0.821639,0.0502349999999999,-0.2450895,1.131959,-0.038531,0.2959905,1.059759,-0.024201,-0.0815395,0.0021609999999999,0.0006759999999999,0.0815395,-0.0021609999999999,-0.000676,-0.1169095,-0.4444309999999999,-0.0184,0.1194505,-0.491221,0.0144629999999999,-0.0971564999999999,-0.860951,0.0120129999999999,0.1236705,-0.8827309999999999,0.0230589999999999,1
16,-0.0045615,0.7885270000000001,0.126644,-0.1670155,0.577847,0.093208,-0.2371455,0.849257,0.012946,0.1757745,0.568967,0.099317,0.2662245,0.821617,0.050133,-0.2449655,1.131937,-0.039497,0.2961345,1.059737,-0.0245759999999999,-0.0815365,0.002183,0.0006789999999999,0.0815365,-0.0021829999999999,-0.0006789999999999,-0.1168355,-0.444033,-0.0183879999999999,0.1193444999999999,-0.491453,0.014483,-0.0970685,-0.8607929999999999,0.011971,0.1237544999999999,-0.8827429999999999,0.023113,1
17,-0.0044335,0.788486,0.12635,-0.1668815,0.5780259999999999,0.0931,-0.2369915,0.849276,0.012093,0.1756585,0.569406,0.09937,0.2663485,0.821576,0.050009,-0.2448115,1.131996,-0.0404379999999999,0.2962985,1.059696,-0.024985,-0.0815395,0.0022239999999999,0.000694,0.0815395,-0.002224,-0.000694,-0.1167315,-0.443654,-0.0183289999999999,0.1192285,-0.492134,0.014449,-0.0969445,-0.860584,0.011949,0.1238884999999999,-0.882754,0.023182,1
18,-0.0042985,0.78845,0.126131,-0.1666564999999999,0.5782299999999999,0.0929929999999999,-0.2368565,0.8493299999999999,0.0114509999999999,0.1755735,0.56992,0.099413,0.2664835,0.8215499999999999,0.049857,-0.2446465,1.13196,-0.041496,0.2964435,1.05966,-0.025469,-0.0815395,0.00226,0.0007259999999999,0.0815395,-0.00226,-0.000726,-0.1166165,-0.44325,-0.018282,0.1191634999999999,-0.49249,0.0144339999999999,-0.0967985,-0.86038,0.0119259999999999,0.1240134999999999,-0.8827900000000001,0.023242,1
19,-0.004284,0.788311,0.1257815,-0.166465,0.578351,0.0928045,-0.236805,0.849271,0.0108225,0.175515,0.570221,0.0994085,0.2665849999999999,0.821751,0.0494735,-0.244655,1.131821,-0.0426434999999999,0.296605,1.059421,-0.0260254999999999,-0.081549,0.00229,0.0007595,0.081549,-0.00229,-0.0007594999999999,-0.116505,-0.442829,-0.0182484999999999,0.119115,-0.493079,0.0144835,-0.096578,-0.860089,0.0119385,0.124165,-0.8825590000000001,0.0234725,1
20,-0.0042435,0.7883195,0.125368,-0.1664325,0.5783395,0.092596,-0.2367725,0.8492495,0.010282,0.1755775,0.5703295,0.09941,0.2666775,0.8218795,0.04907,-0.2447525,1.1316695,-0.043707,0.2967775,1.0591695,-0.026599,-0.0815775,0.0023085,0.000785,0.0815775,-0.0023085,-0.000785,-0.1163725,-0.4424205,-0.0182039999999999,0.1190674999999999,-0.4935705,0.014548,-0.0963315,-0.8598205,0.011949,0.1243475,-0.8822905,0.02367,1
21,-0.0042445,0.7881589999999999,0.124917,-0.1663855,0.578319,0.092286,-0.2367855,0.8491989999999999,0.009839,0.1756545,0.570439,0.099393,0.2667345,0.822049,0.0486059999999999,-0.2449455,1.131439,-0.04486,0.2969345,1.059039,-0.0272349999999999,-0.0816055,0.002314,0.000808,0.0816055,-0.002314,-0.000808,-0.1162455,-0.442131,-0.018026,0.1189844999999999,-0.494271,0.014667,-0.0961015,-0.859531,0.011939,0.1245745,-0.8819210000000001,0.023853,1
22,-0.0042575,0.78799,0.1244365,-0.1663415,0.57825,0.0919615,-0.2367715,0.84909,0.0094795,0.1757385,0.5705,0.0993525,0.2667885,0.8222700000000001,0.0481135,-0.2451415,1.13122,-0.0459824999999999,0.2970985,1.05892,-0.0278754999999999,-0.0816335,0.0023239999999999,0.0008205,0.0816335,-0.0023239999999999,-0.0008204999999999,-0.1161315,-0.44185,-0.0179384999999999,0.1189885,-0.49476,0.0148055,-0.0958904999999999,-0.8593,0.0119155,0.1248584999999999,-0.88164,0.0239865,1
23,-0.0042629999999999,0.7878769999999999,0.1239575,-0.166306,0.578117,0.0916685,-0.236736,0.848927,0.0090315,0.175964,0.570267,0.0991165,0.266844,0.822527,0.0476155,-0.245346,1.131037,-0.0471204999999999,0.297264,1.058737,-0.0285295,-0.081659,0.0023529999999999,0.0008225,0.081659,-0.002353,-0.0008224999999999,-0.1159859999999999,-0.4415929999999999,-0.0178634999999999,0.118994,-0.4951129999999999,0.0149405,-0.095675,-0.859193,0.0119045,0.125194,-0.8813730000000001,0.0241325,1
24,-0.004292,0.7877505,0.1234685,-0.166304,0.5779505,0.0913705,-0.236734,0.8487305,0.0086284999999999,0.1761559999999999,0.5700705,0.0988925,0.266896,0.8227705000000001,0.0471175,-0.245604,1.1308405,-0.0482125,0.297466,1.0586405,-0.0291625,-0.081692,0.0023735,0.0008164999999999,0.081692,-0.0023735,-0.0008164999999999,-0.115834,-0.4414295,-0.0178014999999999,0.119036,-0.4953094999999999,0.0150525,-0.095426,-0.8592295,0.0118795,0.125466,-0.8810494999999999,0.0241935,1
25,-0.004314,0.787624,0.1230304999999999,-0.166326,0.577824,0.0911455,-0.236756,0.848574,0.0082245,0.176344,0.5700040000000001,0.0986855,0.266934,0.8230040000000001,0.0466055,-0.245896,1.130534,-0.0493314999999999,0.297624,1.058534,-0.0298175,-0.0817209999999999,0.002382,0.0008055,0.0817209999999999,-0.002382,-0.0008055,-0.1156659999999999,-0.440986,-0.0177845,0.119034,-0.495556,0.0151085,-0.095171,-0.859266,0.0118275,0.1257839999999999,-0.880786,0.0242825,1
26,-0.004355,0.787472,0.122669,-0.166448,0.577672,0.0909649999999999,-0.236828,0.8484119999999999,0.0078129999999999,0.176492,0.570002,0.098525,0.266922,0.823142,0.0461119999999999,-0.246248,1.130332,-0.050368,0.297752,1.058232,-0.030477,-0.081747,0.0023849999999999,0.0008049999999999,0.081747,-0.002385,-0.000805,-0.115548,-0.441188,-0.017781,0.119042,-0.496008,0.0151909999999999,-0.094781,-0.859478,0.0117719999999999,0.126072,-0.880488,0.0243049999999999,1
27,-0.004436,0.787495,0.122633,-0.166573,0.577665,0.09096,-0.236913,0.848375,0.007606,0.176587,0.569985,0.098529,0.266917,0.823145,0.045778,-0.246643,1.130155,-0.051243,0.2978969999999999,1.058155,-0.0310939999999999,-0.081769,0.002397,0.0008039999999999,0.081769,-0.002397,-0.0008039999999999,-0.115443,-0.441165,-0.017777,0.119027,-0.496365,0.0153429999999999,-0.094481,-0.859455,0.011716,0.126377,-0.880465,0.024316,1
28,-0.00437,0.7875129999999999,0.1226065,-0.166817,0.5776629999999999,0.0909225,-0.236977,0.848343,0.0075445,0.176653,0.5699529999999999,0.0985024999999999,0.266993,0.823163,0.0456065,-0.246907,1.130073,-0.0519265,0.297983,1.058173,-0.0316355,-0.081776,0.0024029999999999,0.0007834999999999,0.081776,-0.0024029999999999,-0.0007834999999999,-0.115377,-0.441147,-0.0177845,0.118983,-0.497477,0.0154635,-0.094411,-0.859437,0.0115735,0.126493,-0.880487,0.0242915,1
29,-0.004294,0.787503,0.122555,-0.167141,0.577663,0.090858,-0.237031,0.848353,0.007461,0.176729,0.569973,0.098454,0.267069,0.823203,0.045414,-0.247131,1.1300130000000002,-0.052563,0.298099,1.058213,-0.032185,-0.0817789999999999,0.002414,0.000771,0.0817789999999999,-0.0024139999999999,-0.000771,-0.115301,-0.441677,-0.0177529999999999,0.1189389999999999,-0.498567,0.015622,-0.094312,-0.859557,0.011387,0.1265889999999999,-0.880447,0.02419,1
30,-0.0041755,0.787272,0.1223965,-0.1675525,0.5777519999999999,0.0909105,-0.2371125,0.848382,0.0072735,0.1768374999999999,0.5700219999999999,0.0983525,0.2671874999999999,0.823222,0.0451705,-0.2473425,1.129862,-0.0530905,0.2982875,1.058162,-0.0328544999999999,-0.0817975,0.002333,0.0008235,0.0817975,-0.002333,-0.0008234999999999,-0.1151825,-0.441428,-0.0178115,0.1189975,-0.499628,0.0156225,-0.0941635,-0.859388,0.0109185,0.1267174999999999,-0.880138,0.0235655,1
31,-0.0039954999999999,0.7871505,0.1223005,-0.1679065,0.5780105,0.0910064999999999,-0.2371665,0.8486305000000001,0.0070484999999999,0.1770335,0.5700405000000001,0.0982935,0.2674135,0.8230005,0.0448805,-0.2474865,1.1300705,-0.0536055,0.2988035,1.0579705,-0.0335605,-0.0818224999999999,0.0023194999999999,0.0008975,0.0818224999999999,-0.0023195,-0.0008975,-0.1150865,-0.4411695,-0.0179275,0.1190035,-0.4992594999999999,0.0155205,-0.0940105,-0.8592295,0.0104025,0.1268935,-0.8796295,0.0229175,1
32,-0.0038129999999999,0.7870815,0.1222709999999999,-0.168308,0.5782415,0.091113,-0.237218,0.8488515,0.0068009999999999,0.177222,0.5700715,0.0982099999999999,0.267662,0.8227715,0.044564,-0.247558,1.1302615,-0.05405,0.299352,1.0578615,-0.034248,-0.081854,0.0023055,0.0009909999999999,0.081854,-0.0023055,-0.000991,-0.114948,-0.4411185,-0.018058,0.119122,-0.4982985,0.0152819999999999,-0.0938229999999999,-0.8592885,0.0094939999999999,0.127082,-0.8791485,0.0222749999999999,1
33,-0.0035919999999999,0.7871210000000001,0.122253,-0.168662,0.5785210000000001,0.091347,-0.237212,0.849101,0.006464,0.177438,0.570131,0.098095,0.267968,0.823621,0.044195,-0.2475119999999999,1.130471,-0.054537,0.299968,1.0576709999999998,-0.0349639999999999,-0.081899,0.0022839999999999,0.00112,0.081899,-0.0022839999999999,-0.0011199999999999,-0.114772,-0.441169,-0.0183429999999999,0.119258,-0.4978089999999999,0.014993,-0.093612,-0.859359,0.0086299999999999,0.127308,-0.878649,0.021656,1
34,-0.0033784999999999,0.7872414999999999,0.122268,-0.1689495,0.5788015,0.091539,-0.2371795,0.8493715,0.0060199999999999,0.1776405,0.5701915,0.097929,0.2682805,0.8241514999999999,0.043767,-0.2474095,1.1306915,-0.0551249999999999,0.3005905,1.0574915,-0.03566,-0.0819465,0.0022435,0.001252,0.0819465,-0.0022435,-0.0012519999999999,-0.1145994999999999,-0.4417985,-0.018691,0.1193505,-0.4974184999999999,0.014642,-0.0934105,-0.8594285,0.007657,0.1275305,-0.8781185,0.020978,1
35,-0.0031414999999999,0.7875005,0.1222964999999999,-0.1691994999999999,0.5791005,0.0917145,-0.2371194999999999,0.8496405,0.0055544999999999,0.1778405,0.5702605,0.0977664999999999,0.2686105,0.8246505,0.0432804999999999,-0.2472194999999999,1.1310205000000002,-0.0557575,0.3012005,1.0573205,-0.0363785,-0.0819894999999999,0.0022045,0.0013714999999999,0.0819894999999999,-0.0022045,-0.0013715,-0.1144195,-0.4426695,-0.0189935,0.1194505,-0.4969495,0.0141434999999999,-0.0931904999999999,-0.8595395,0.0069904999999999,0.1277305,-0.8774995,0.0202824999999999,1
36,-0.0028674999999999,0.78793,0.122222,-0.1693555,0.5794100000000001,0.091782,-0.2370255,0.8499300000000001,0.00495,0.1780445,0.57032,0.097486,0.2692045,0.82491,0.04229,-0.2470255,1.13126,-0.056534,0.3017845,1.05726,-0.0372519999999999,-0.0820665,0.0021659999999999,0.001496,0.0820665,-0.002166,-0.0014959999999999,-0.1142255,-0.4434,-0.0194719999999999,0.1195645,-0.49616,0.013493,-0.0929395,-0.85958,0.005948,0.1279045,-0.8769,0.019466,1
37,-0.0026054999999999,0.7884899999999999,0.1218984999999999,-0.1694405,0.57977,0.0917485,-0.2368704999999999,0.8502599999999999,0.0043254999999999,0.1782195,0.57041,0.0971495,0.2698095,0.8251299999999999,0.0412344999999999,-0.2468304999999999,1.1316199999999998,-0.0574325,0.3023194999999999,1.05722,-0.0382345,-0.0821554999999999,0.0021309999999999,0.0016424999999999,0.0821554999999999,-0.002131,-0.0016425,-0.1140404999999999,-0.4443499999999999,-0.0200035,0.1197295,-0.4949999999999999,0.0127534999999999,-0.0925675,-0.85968,0.0051644999999999,0.1280595,-0.87627,0.0185664999999999,1
38,-0.00236,0.7891039999999999,0.1213545,-0.169533,0.580154,0.0916095,-0.236753,0.850594,0.0036015,0.1783269999999999,0.570534,0.0967185,0.270347,0.826114,0.0400765,-0.246683,1.131814,-0.0587065,0.302717,1.057214,-0.0393964999999999,-0.082245,0.0020719999999999,0.0017635,0.082245,-0.002072,-0.0017635,-0.113913,-0.4443359999999999,-0.0206305,0.119777,-0.493646,0.0118745,-0.092145,-0.8597060000000001,0.0040655,0.128127,-0.875626,0.0176615,1
39,-0.0021004999999999,0.789216,0.1207005,-0.1694515,0.580256,0.0909494999999999,-0.2366515,0.850526,0.0024194999999999,0.1784185,0.570666,0.0960584999999999,0.2708485,0.825886,0.0387285,-0.2464115,1.131516,-0.0612184999999999,0.3030285,1.0571160000000002,-0.0410455,-0.0823025,0.002041,0.0017874999999999,0.0823025,-0.002041,-0.0017875,-0.1137415,-0.445744,-0.0214925,0.1198185,-0.493564,0.0107475,-0.0917304999999999,-0.860284,0.0030965,0.1281485,-0.875534,0.0169264999999999,1
40,-0.0018489999999999,0.7893985,0.11999,-0.169398,0.5804185000000001,0.090231,-0.236568,0.8504085,0.000826,0.178472,0.5708885,0.09534,0.271332,0.8257685,0.037182,-0.246028,1.1311384999999998,-0.064205,0.303362,1.0570385,-0.0430679999999999,-0.082329,0.0020165,0.001801,0.082329,-0.0020165,-0.0018009999999999,-0.113568,-0.4461515,-0.022527,0.119932,-0.4928515,0.009219,-0.091266,-0.8609915,0.0021089999999999,0.1281419999999999,-0.8757415,0.016205,1
41,-0.0015885,0.7893985,0.1191745,-0.1693765,0.5804185000000001,0.0894065,-0.2364865,0.8504085,-0.0011985,0.1784935,0.5708885,0.0945155,0.2719034999999999,0.8257685,0.0347935,-0.2457065,1.1310384999999998,-0.0679195,0.3036835,1.0569385,-0.0456765,-0.0823425,0.0020165,0.0017084999999999,0.0823425,-0.0020165,-0.0017085,-0.1133665,-0.4445615,-0.0238945,0.1199935,-0.4928515,0.0074814999999999,-0.0908135,-0.8609915,0.0012864999999999,0.1280835,-0.8757415,0.0153774999999999,1
42,-0.001333,0.7898900000000001,0.1177325,-0.169304,0.58045,0.0885374999999999,-0.236324,0.8504400000000001,-0.0038044999999999,0.178476,0.57088,0.0936035,0.272456,0.8266800000000001,0.0321085,-0.245424,1.13063,-0.0725405,0.303966,1.05663,-0.0486505,-0.0823869999999999,0.0020249999999999,0.0015874999999999,0.0823869999999999,-0.002025,-0.0015874999999999,-0.113144,-0.44322,-0.0259715,0.120066,-0.49121,0.0055995,-0.090362,-0.861,0.0004294999999999,0.127986,-0.8753599999999999,0.0146715,1
43,-0.0010385,0.7903235000000001,0.116088,-0.1692235,0.5805235000000001,0.08757,-0.2362234999999999,0.8504735,-0.0066449999999999,0.1783365,0.5709535,0.092624,0.2729864999999999,0.8275635,0.029178,-0.2452035,1.1301235,-0.077489,0.3043365,1.0562235,-0.052047,-0.0824645,0.0020314999999999,0.0014749999999999,0.0824645,-0.0020315,-0.0014749999999999,-0.1129035,-0.4430365,-0.0284489999999999,0.1201165,-0.4896865,0.0034949999999999,-0.0899625,-0.8610065,-0.000481,0.1277964999999999,-0.8749165,0.013882,1
44,-0.0007729999999999,0.7910714999999999,0.1137765,-0.169135,0.5807415,0.0862005,-0.236105,0.8498614999999999,-0.0102044999999999,0.178235,0.5715015,0.0912905,0.2735149999999999,0.8276815,0.0255975,-0.245095,1.1289315000000002,-0.0835775,0.3048349999999999,1.0552315,-0.0564504999999999,-0.082577,0.0019974999999999,0.0013545,0.082577,-0.0019974999999999,-0.0013545,-0.112735,-0.4433485,-0.0310964999999999,0.120165,-0.4896985,0.0013794999999999,-0.089601,-0.8612985,-0.0011385,0.127595,-0.8749285,0.0130615,1
45,-0.0005639999999999,0.7920205,0.1111225,-0.169147,0.5808205,0.0846855,-0.236077,0.8491405,-0.0140285,0.178083,0.5722205,0.0898835,0.273693,0.8274005,0.0223104999999999,-0.245057,1.1278505,-0.0899245,0.305423,1.0544505,-0.0613285,-0.082702,0.0019015,0.0012384999999999,0.082702,-0.0019015,-0.0012385,-0.1126369999999999,-0.4429495,-0.0339615,0.120183,-0.4893094999999999,-0.0010955,-0.089338,-0.8615395,-0.0019155,0.127373,-0.8748095,0.0121724999999999,1
46,-0.0004219999999999,0.7923025,0.1079794999999999,-0.169178,0.5807825000000001,0.0828454999999999,-0.236148,0.8485625,-0.0182795,0.177862,0.5729925,0.0882935,0.273782,0.8272825,0.0186964999999999,-0.245098,1.1268325,-0.0965685,0.306052,1.0537325,-0.0664685,-0.082838,0.0018344999999999,0.0011894999999999,0.082838,-0.0018344999999999,-0.0011895,-0.112618,-0.4432975,-0.0371815,0.120232,-0.4888475,-0.0039825,-0.089255,-0.8615575,-0.0029165,0.126962,-0.8744774999999999,0.0111404999999999,1
47,-0.0004684999999999,0.7924519999999999,0.104382,-0.1693815,0.5809019999999999,0.080711,-0.2363815,0.848082,-0.0229339999999999,0.1774685,0.5738719999999999,0.086588,0.2736885,0.827432,0.014674,-0.2453515,1.125982,-0.1038309999999999,0.3070085,1.053182,-0.072731,-0.0830385,0.001774,0.001069,0.0830385,-0.001774,-0.001069,-0.1127514999999999,-0.442548,-0.040933,0.1201585,-0.488238,-0.0074989999999999,-0.0894615,-0.8612580000000001,-0.003941,0.1264285,-0.873908,0.010056,1
48,-0.0006554999999999,0.7926485,0.100662,-0.1697455,0.5810385,0.078295,-0.2368455,0.8476085,-0.027555,0.1769145,0.5746785,0.084908,0.2734445,0.8269485,0.010401,-0.2458555,1.1252785,-0.1103499999999999,0.3079245,1.0525785,-0.0791,-0.0832255,0.0017575,0.001,0.0832255,-0.0017574999999999,-0.001,-0.1130954999999999,-0.4424315,-0.0450389999999999,0.1200745,-0.4874115,-0.011109,-0.0898855,-0.8609715,-0.004878,0.1257345,-0.8733015,0.009038,1
49,-0.000789,0.7928345,0.096144,-0.17013,0.5810645,0.075459,-0.23734,0.8469545,-0.032517,0.17637,0.5752045,0.083089,0.27323,0.8262245,0.005757,-0.24641,1.1241645,-0.117223,0.30875,1.0515645,-0.0860229999999999,-0.0834429999999999,0.0017164999999999,0.000867,0.0834429999999999,-0.0017164999999999,-0.0008669999999999,-0.11345,-0.4414455,-0.049557,0.12014,-0.4866355,-0.0152749999999999,-0.090449,-0.8604455,-0.0057679999999999,0.12497,-0.8728755,0.007982,1
50,-0.0009595,0.792697,0.0912315,-0.1704925,0.581037,0.0724855,-0.2378625,0.846047,-0.0376284999999999,0.1755874999999999,0.575337,0.0811555,0.2728675,0.824987,0.0004944999999999,-0.2471225,1.122817,-0.1240955,0.3095475,1.050317,-0.0934955,-0.0836605,0.001692,0.0008564999999999,0.0836605,-0.0016919999999999,-0.0008564999999999,-0.1139125,-0.440453,-0.0542575,0.1202975,-0.4858629999999999,-0.0197905,-0.0910955,-0.860053,-0.0069155,0.1241674999999999,-0.872603,0.0068914999999999,1
51,-0.0013775,0.7924074999999999,0.086433,-0.1711695,0.5809375,0.069168,-0.2385495,0.8445374999999999,-0.043369,0.1746705,0.5756775,0.079095,0.2723005,0.8240274999999999,-0.0048349999999999,-0.2481395,1.1208675,-0.131409,0.3101205,1.0490675,-0.1014189999999999,-0.0838805,0.0015165,0.0008299999999999,0.0838805,-0.0015165,-0.00083,-0.1146095,-0.4403424999999999,-0.058749,0.1203304999999999,-0.4849725,-0.02459,-0.0919735,-0.8595125,-0.00784,0.1232004999999999,-0.8721525,0.0058339999999999,1
52,-0.0018754999999999,0.7916945,0.081295,-0.1718305,0.5810345,0.066051,-0.2392705,0.8426845,-0.049359,0.1738595,0.5762045,0.076914,0.2718895,0.8228945,-0.0106929999999999,-0.2492305,1.1183245000000002,-0.139369,0.3106295,1.0474245,-0.110009,-0.0841264999999999,0.0013764999999999,0.0008599999999999,0.0841264999999999,-0.0013764999999999,-0.0008599999999999,-0.1153505,-0.4402455,-0.063332,0.1206195,-0.4835455000000001,-0.029762,-0.0929295,-0.8581655,-0.0088749999999999,0.1222294999999999,-0.8716155,0.0048629999999999,1
53,-0.0025145,0.790922,0.076103,-0.1724715,0.580722,0.06241,-0.2401215,0.840992,-0.055537,0.1727085,0.576902,0.073757,0.2713685,0.821382,-0.016671,-0.2503515,1.114342,-0.148386,0.3108785,1.045942,-0.118386,-0.0843845,0.0011299999999999,0.000934,0.0843845,-0.0011299999999999,-0.000934,-0.1161715,-0.439228,-0.068469,0.1208785,-0.481308,-0.035396,-0.0940005,-0.856998,-0.0096599999999999,0.1211685,-0.8706280000000001,0.0037809999999999,1
54,-0.003424,0.78986,0.0704315,-0.173302,0.5803900000000001,0.0579485,-0.241032,0.8389800000000001,-0.0627535,0.171308,0.57826,0.0707585,0.2708279999999999,0.8200500000000001,-0.0237585,-0.251612,1.1105699999999998,-0.1579465,0.3108479999999999,1.04427,-0.1279265,-0.084761,0.000802,0.0012104999999999,0.084761,-0.000802,-0.0012104999999999,-0.117152,-0.43746,-0.0744065,0.121158,-0.4782099999999999,-0.0418105,-0.095193,-0.85517,-0.0106755,0.119908,-0.8691099999999999,0.0026795,1
55,-0.0043625,0.7885725,0.064535,-0.1739855,0.5795325,0.053319,-0.2419055,0.8367325,-0.070176,0.1700745,0.5799124999999999,0.068009,0.2703244999999999,0.8187625,-0.031333,-0.2528755,1.1070525,-0.167411,0.3106244999999999,1.0429525000000002,-0.137791,-0.0852165,0.0004694999999999,0.001402,0.0852165,-0.0004695,-0.001402,-0.1181355,-0.4360475,-0.080371,0.1215644999999999,-0.4744375,-0.048177,-0.0963675,-0.8526875,-0.011621,0.1186945,-0.8666275,0.001612,1
56,-0.0052674999999999,0.7874935000000001,0.05877,-0.1745235,0.5787935000000001,0.048651,-0.2426434999999999,0.8349535,-0.077429,0.1686565,0.5796935000000001,0.06259,0.2699465,0.8186035,-0.03944,-0.2539935,1.1040235,-0.176639,0.3097865,1.0423235,-0.147359,-0.0856775,9.450000000000083e-05,0.001548,0.0856775,-9.449999999999736e-05,-0.001548,-0.1191435,-0.4344765,-0.086159,0.1223964999999999,-0.4690965,-0.05462,-0.0974334999999999,-0.8490865,-0.0126739999999999,0.1176565,-0.8634765,0.000562,1
57,-0.0060934999999999,0.7861445,0.052647,-0.1750324999999999,0.5780345,0.04377,-0.2433425,0.8331845,-0.084857,0.1673475,0.5797345,0.057144,0.2695174999999999,0.8185945,-0.0478959999999999,-0.2550725,1.1014245,-0.186477,0.3091175,1.0417245,-0.157607,-0.0861975,-0.0002624999999999,0.0016639999999999,0.0861975,0.0002624999999999,-0.0016639999999999,-0.1199925,-0.4324355,-0.091837,0.1234275,-0.4634755,-0.0611499999999999,-0.0983645,-0.8452054999999999,-0.013687,0.1167375,-0.8600455,-0.0003359999999999,1
58,-0.0069624999999999,0.7853254999999999,0.047026,-0.1754845,0.5769755000000001,0.038997,-0.2440345,0.8312455000000001,-0.091802,0.1659455,0.5797555000000001,0.051487,0.2689855,0.8191854999999999,-0.056336,-0.2562745,1.0988155000000002,-0.195712,0.3083955,1.0415155,-0.167722,-0.0867675,-0.0006994999999999,0.0017439999999999,0.0867675,0.0006995,-0.0017439999999999,-0.1208545,-0.4291845,-0.097392,0.1244055,-0.4563844999999999,-0.06738,-0.0994405,-0.8407845,-0.014918,0.1157955,-0.8560645,-0.001534,1
59,-0.0077889999999999,0.7849675,0.0414495,-0.1759119999999999,0.5760475,0.0342165,-0.244852,0.8293975,-0.0987855,0.164368,0.5790375,0.0450895,0.2682779999999999,0.8197175,-0.0641395,-0.257392,1.0939475,-0.2067455,0.307618,1.0410875,-0.1775655,-0.087293,-0.0010855,0.0018075,0.087293,0.0010855,-0.0018075,-0.121612,-0.4263225,-0.1033655,0.125348,-0.4490524999999999,-0.0735605,-0.1005669999999999,-0.8360225,-0.0162395,0.114908,-0.8517725,-0.0027725,1
60,-0.0083969999999999,0.784251,0.035448,-0.176085,0.5751409999999999,0.029568,-0.245435,0.827521,-0.1061889999999999,0.163005,0.5780609999999999,0.038419,0.267765,0.8198510000000001,-0.072712,-0.258385,1.089881,-0.216949,0.306595,1.040221,-0.1880089999999999,-0.087785,-0.001399,0.0017889999999999,0.087785,0.0013989999999999,-0.0017889999999999,-0.122115,-0.423479,-0.108969,0.126515,-0.441779,-0.079569,-0.101367,-0.8311790000000001,-0.017606,0.114245,-0.847429,-0.00409,1
61,-0.009028,0.783515,0.0294774999999999,-0.176242,0.573635,0.0244025,-0.245792,0.825735,-0.1133435,0.161638,0.577525,0.0318605,0.267318,0.8202349999999999,-0.0814935,-0.259372,1.086205,-0.2267835,0.305388,1.039405,-0.1986535,-0.088258,-0.001757,0.0018544999999999,0.088258,0.001757,-0.0018545,-0.122612,-0.420455,-0.1142835,0.127448,-0.434795,-0.0851635,-0.102043,-0.8263050000000001,-0.0189995,0.113658,-0.842825,-0.0054545,1
62,-0.009681,0.7828465,0.023064,-0.176598,0.5723265,0.018664,-0.246198,0.8234565,-0.121446,0.160122,0.5766965,0.025019,0.266852,0.8196165,-0.091886,-0.260468,1.0838165,-0.2366859999999999,0.303722,1.0382565,-0.212236,-0.088902,-0.0020324999999999,0.001955,0.088902,0.0020325,-0.0019549999999999,-0.123198,-0.4167435,-0.119286,0.128252,-0.4275835,-0.090636,-0.1027879999999999,-0.8207834999999999,-0.020835,0.112972,-0.8372835000000001,-0.0066849999999999,1
63,-0.0101334999999999,0.782022,0.016558,-0.1767605,0.571452,0.013752,-0.2463905,0.8214319999999999,-0.12883,0.1588795,0.575152,0.017594,0.2663095,0.8183819999999999,-0.10239,-0.2613805,1.080832,-0.2475099999999999,0.3022395,1.037292,-0.22565,-0.0893595,-0.0022259999999999,0.002196,0.0893595,0.002226,-0.002196,-0.1236305,-0.412178,-0.1234099999999999,0.1289595,-0.421268,-0.0951,-0.1033465,-0.815808,-0.022464,0.1124795,-0.832198,-0.008191,1
64,-0.0105249999999999,0.7809375,0.0095634999999999,-0.1765509999999999,0.5704475,0.0081044999999999,-0.2465709999999999,0.8190375,-0.1369585,0.157799,0.5730075,0.0090785,0.265579,0.8168574999999999,-0.1132385,-0.262191,1.0770375,-0.2603585,0.300749,1.0354575,-0.2400885,-0.089799,-0.0023844999999999,0.0024104999999999,0.089799,0.0023844999999999,-0.0024104999999999,-0.1240209999999999,-0.4077524999999999,-0.1273285,0.129469,-0.4150625,-0.0994385,-0.103757,-0.8107525,-0.0242325,0.111889,-0.8268225,-0.0097714999999999,1
65,-0.0108795,0.7795219999999999,0.0020279999999999,-0.1763125,0.569622,0.002558,-0.2467625,0.816032,-0.145872,0.1570475,0.572322,0.0024209999999999,0.2648175,0.814292,-0.124402,-0.2627325,1.072602,-0.274152,0.2993074999999999,1.032662,-0.255252,-0.0902275,-0.002461,0.002558,0.0902275,0.0024609999999999,-0.002558,-0.1243125,-0.4037779999999999,-0.131182,0.1295575,-0.409188,-0.103352,-0.1041135,-0.805878,-0.026289,0.1113474999999999,-0.821728,-0.011679,1
66,-0.011158,0.7782105,-0.0057905,-0.176062,0.5691805000000001,-0.0026165,-0.246892,0.8122805,-0.1557035,0.156378,0.5710005,-0.0048944999999999,0.264018,0.8110905,-0.1361535,-0.262862,1.0668305,-0.2885135,0.297818,1.0282705,-0.2706435,-0.090628,-0.0024784999999999,0.0026044999999999,0.090628,0.0024785,-0.0026045,-0.124592,-0.4002595,-0.1348335,0.129518,-0.4036495,-0.1069335,-0.104497,-0.8010495,-0.0285045,0.1108479999999999,-0.8167095,-0.0138225,1
67,-0.0114159999999999,0.7767975,-0.0143939999999999,-0.175682,0.5687975000000001,-0.008482,-0.247022,0.8084375,-0.166514,0.155718,0.5694175,-0.012887,0.2631779999999999,0.8074075000000001,-0.148424,-0.262912,1.0604875,-0.304654,0.296458,1.0241475,-0.287834,-0.090958,-0.0024724999999999,0.0026319999999999,0.090958,0.0024725,-0.0026319999999999,-0.124732,-0.3972124999999999,-0.138564,0.129348,-0.3992325,-0.110544,-0.104859,-0.7966125,-0.0305529999999999,0.110348,-0.8121325,-0.0160109999999999,1
68,-0.01173,0.7747105000000001,-0.0235715,-0.174788,0.5667505,-0.0163265,-0.247258,0.8040705,-0.1778644999999999,0.155052,0.5689905,-0.0202395,0.262222,0.8031005,-0.1615845,-0.263088,1.0557105,-0.3198445,0.295182,1.0198805,-0.3062145,-0.091272,-0.0025594999999999,0.0025405,0.091272,0.0025595,-0.0025405,-0.125098,-0.3935094999999999,-0.1418944999999999,0.129012,-0.3950494999999999,-0.1142844999999999,-0.105362,-0.7925194999999999,-0.0329095,0.109692,-0.8078495,-0.0183435,1
69,-0.0120525,0.7728200000000001,-0.0341965,-0.1737895,0.5649,-0.0253954999999999,-0.2474695,0.7998400000000001,-0.1903125,0.1542905,0.56801,-0.0295724999999999,0.2617705,0.79901,-0.1765125,-0.2632095,1.04878,-0.3386424999999999,0.2940105,1.01388,-0.3249924999999999,-0.0915604999999999,-0.0025499999999999,0.0024464999999999,0.0915604999999999,0.0025499999999999,-0.0024465,-0.1257395,-0.38828,-0.1458425,0.1284205,-0.38984,-0.1185925,-0.1060784999999999,-0.7867999999999999,-0.0357215,0.1088704999999999,-0.80193,-0.0212645,1
70,-0.012256,0.77078,-0.0455335,-0.1728519999999999,0.5630000000000001,-0.0347505,-0.2477019999999999,0.79524,-0.2036625,0.153568,0.56641,-0.0397095,0.261148,0.79463,-0.1917825,-0.263282,1.04167,-0.3574525,0.293218,1.00735,-0.3440225,-0.091868,-0.0025499999999999,0.0024375,0.091868,0.00255,-0.0024374999999999,-0.126442,-0.38292,-0.1498525,0.127948,-0.38404,-0.1232125,-0.106776,-0.78022,-0.0387765,0.107988,-0.7959200000000001,-0.0243965,1
71,-0.0124245,0.768775,-0.056232,-0.1717805,0.560965,-0.043139,-0.2478604999999999,0.790675,-0.215631,0.1528195,0.565455,-0.04867,0.2604694999999999,0.790915,-0.205471,-0.2634005,1.034775,-0.374561,0.2927295,1.000935,-0.3606009999999999,-0.0919595,-0.0025849999999999,0.002381,0.0919595,0.002585,-0.0023809999999999,-0.1270705,-0.378185,-0.153581,0.1274294999999999,-0.379595,-0.127501,-0.1075935,-0.774635,-0.041523,0.1070495,-0.7902349999999999,-0.0274679999999999,1
72,-0.0125114999999999,0.7668149999999999,-0.0664575,-0.1704955,0.558095,-0.0519385,-0.2477655,0.785565,-0.2278185,0.1521145,0.564005,-0.0577965,0.2597845,0.787265,-0.2182685,-0.2635355,1.027045,-0.3911085,0.2921445,0.993695,-0.3769085,-0.0920445,-0.0025349999999999,0.0022635,0.0920445,0.0025349999999999,-0.0022635,-0.1276955,-0.373615,-0.1571685,0.1269645,-0.3755549999999999,-0.1317985,-0.1086175,-0.769205,-0.0445345,0.1059845,-0.784845,-0.0302235,1
73,-0.0127319999999999,0.7653350000000001,-0.0765515,-0.169383,0.556155,-0.0604125,-0.247853,0.7812049999999999,-0.2395625,0.151367,0.563005,-0.0669955,0.259217,0.7838050000000001,-0.2316025,-0.263913,1.020385,-0.4066625,0.291277,0.987585,-0.3931625,-0.0921869999999999,-0.0024549999999999,0.0020464999999999,0.0921869999999999,0.002455,-0.0020464999999999,-0.128383,-0.369405,-0.1614825,0.126387,-0.371635,-0.1367925,-0.10972,-0.7626249999999999,-0.0478805,0.1047569999999999,-0.778375,-0.0333815,1
74,-0.0124895,0.7634749999999999,-0.0864705,-0.1676805,0.553415,-0.0691725,-0.2473705,0.776435,-0.2510405,0.1512695,0.562155,-0.0757965,0.2591195,0.7805949999999999,-0.2447305,-0.2640705,1.012685,-0.4218205,0.2908894999999999,0.981185,-0.4089405,-0.0920595,-0.002505,0.0018994999999999,0.0920595,0.0025049999999999,-0.0018995,-0.1287905,-0.362135,-0.1655305,0.1263595,-0.364565,-0.1419105,-0.1102715,-0.755655,-0.0511525,0.1044595,-0.7715650000000001,-0.0364305,1
75,-0.0122494999999999,0.76117,-0.097666,-0.1656024999999999,0.54996,-0.07942,-0.2470425,0.77127,-0.2634289999999999,0.1511575,0.56075,-0.08577,0.2584774999999999,0.77675,-0.259229,-0.2641725,1.00386,-0.438469,0.2904675,0.97502,-0.426179,-0.0919275,-0.0026299999999999,0.001756,0.0919275,0.0026299999999999,-0.001756,-0.1293025,-0.35339,-0.169999,0.1266775,-0.35565,-0.147959,-0.1110925,-0.74735,-0.0552319999999999,0.1041075,-0.76325,-0.039729,1
76,-0.0119554999999999,0.7597449999999999,-0.1148605,-0.1635925,0.5474950000000001,-0.0956284999999999,-0.2469225,0.766875,-0.2819405,0.1511075,0.560315,-0.1016045,0.2576875,0.773515,-0.2801105,-0.2642725,0.996055,-0.4607704999999999,0.2901075,0.969165,-0.4500205,-0.0918975,-0.0026249999999999,0.0017865,0.0918975,0.0026249999999999,-0.0017865,-0.1299825,-0.343555,-0.1811105,0.1270575,-0.345545,-0.1601505,-0.1120434999999999,-0.7377149999999999,-0.0656885,0.1038075,-0.753695,-0.0491464999999999,1
77,-0.0112984999999999,0.760905,-0.133244,-0.1611325,0.547045,-0.111672,-0.2468225,0.762635,-0.301104,0.1517075,0.559145,-0.118974,0.2564275,0.771645,-0.301274,-0.2642925,0.988945,-0.4838739999999999,0.2896775,0.964975,-0.475294,-0.0918475,-0.0020749999999999,0.0015349999999999,0.0918475,0.0020749999999999,-0.001535,-0.1316525,-0.330915,-0.1981339999999999,0.1300474999999999,-0.332775,-0.179454,-0.1137285,-0.7274349999999999,-0.080831,0.1052174999999999,-0.742725,-0.066869,1
78,-0.010702,0.76104,-0.150917,-0.158909,0.54634,-0.1265669999999999,-0.246869,0.75825,-0.318627,0.152121,0.5588,-0.1342269999999999,0.254911,0.76895,-0.3210469999999999,-0.264879,0.98187,-0.505377,0.289221,0.96128,-0.501427,-0.091751,-0.0017699999999999,0.001225,0.091751,0.0017699999999999,-0.001225,-0.133639,-0.31961,-0.214837,0.132931,-0.32154,-0.198207,-0.115594,-0.71925,-0.095845,0.1064409999999999,-0.73317,-0.084193,1
79,-0.0101044999999999,0.7618199999999999,-0.1688265,-0.1564995,0.54557,-0.1420165,-0.2470395,0.7543899999999999,-0.3364765,0.1524805,0.5584,-0.1496565,0.2533805,0.7660499999999999,-0.3408265,-0.2654795,0.9745,-0.5282865,0.2886405,0.95608,-0.5272865,-0.0916605,-0.00163,0.0009294999999999,0.0916605,0.0016299999999999,-0.0009294999999999,-0.1359495,-0.30832,-0.2316965,0.1356605,-0.31014,-0.2173565,-0.1174725,-0.71086,-0.1110164999999999,0.1076805,-0.72322,-0.1021285,1
80,-0.009441,0.7621850000000001,-0.186788,-0.154213,0.545185,-0.157438,-0.247163,0.749805,-0.355278,0.1528769999999999,0.557535,-0.165418,0.251817,0.762035,-0.361408,-0.266443,0.965395,-0.552718,0.287487,0.947445,-0.5522680000000001,-0.091587,-0.0013749999999999,0.0006619999999999,0.091587,0.001375,-0.000662,-0.138263,-0.2973149999999999,-0.248528,0.138317,-0.299135,-0.236708,-0.1182429999999999,-0.6994849999999999,-0.121801,0.108847,-0.713465,-0.120698,1
81,-0.0090834999999999,0.762235,-0.2049585,-0.1524325,0.545115,-0.1729285,-0.2475125,0.745205,-0.3743885,0.1531875,0.556515,-0.1814785,0.2500875,0.757755,-0.3826385,-0.2678125,0.955965,-0.5777185,0.2860875,0.938535,-0.5774485,-0.0915375,-0.001235,0.0004614999999999,0.0915375,0.0012349999999999,-0.0004615,-0.1406425,-0.2860749999999999,-0.2653185,0.1405175,-0.288145,-0.2558085,-0.1189204999999999,-0.687685,-0.1320465,0.1100175,-0.703245,-0.1390125,1
82,-0.0088329999999999,0.7605649999999999,-0.222611,-0.1510929999999999,0.544395,-0.188321,-0.247803,0.739185,-0.393851,0.153247,0.554955,-0.197141,0.248147,0.752665,-0.403321,-0.269533,0.944305,-0.603211,0.2841869999999999,0.926835,-0.601991,-0.091237,-0.001225,0.0004109999999999,0.091237,0.0012249999999999,-0.0004109999999999,-0.143223,-0.276005,-0.281551,0.142427,-0.277935,-0.274201,-0.1197609999999999,-0.6763750000000001,-0.142084,0.110837,-0.694325,-0.1570369999999999,1
83,-0.0087965,0.758675,-0.240891,-0.1498825,0.543945,-0.204371,-0.2482325,0.733195,-0.414161,0.1526375,0.552075,-0.213301,0.2460175,0.7462150000000001,-0.4239809999999999,-0.2711725,0.932965,-0.629691,0.2818275,0.915405,-0.627381,-0.0910074999999999,-0.0009949999999999,0.000424,0.0910074999999999,0.0009949999999999,-0.0004239999999999,-0.1459425,-0.2650549999999999,-0.298111,0.1440575,-0.267115,-0.292861,-0.1207825,-0.664855,-0.1524579999999999,0.1114874999999999,-0.685415,-0.175671,1
84,-0.0088054999999999,0.756895,-0.257967,-0.1491405,0.543565,-0.219177,-0.2490705,0.726585,-0.432507,0.1518695,0.550025,-0.227607,0.2445095,0.739765,-0.443317,-0.2727505,0.920595,-0.653867,0.2793695,0.904145,-0.652397,-0.0907294999999999,-0.000785,0.0004539999999999,0.0907294999999999,0.0007849999999999,-0.0004539999999999,-0.1482805,-0.255195,-0.313767,0.1456295,-0.257725,-0.310037,-0.1214814999999999,-0.655095,-0.162386,0.1127795,-0.678705,-0.193057,1
85,-0.0087724999999999,0.7537450000000001,-0.269478,-0.1487204999999999,0.5397750000000001,-0.228048,-0.2502305,0.7176750000000001,-0.443968,0.1510295,0.5473950000000001,-0.235508,0.2429195,0.732105,-0.456288,-0.2745005,0.906805,-0.671098,0.2768295,0.8896050000000001,-0.6692980000000001,-0.0903895,-0.0009449999999999,0.0002679999999999,0.0903895,0.000945,-0.000268,-0.1506305,-0.2451549999999999,-0.322798,0.1469895,-0.2481749999999999,-0.321208,-0.1224775,-0.6468649999999999,-0.166233,0.1138595,-0.6730649999999999,-0.204318,1
86,-0.009264,0.7479,-0.2796835,-0.149303,0.53566,-0.2360935,-0.251353,0.70851,-0.4549134999999999,0.150147,0.5418499999999999,-0.2440635,0.241567,0.72237,-0.4686734999999999,-0.276343,0.89186,-0.6872334999999999,0.274407,0.87334,-0.6847535,-0.090077,-0.0013799999999999,0.0004704999999999,0.090077,0.0013799999999999,-0.0004704999999999,-0.152043,-0.2385,-0.3265035,0.1461569999999999,-0.2419799999999999,-0.3255935,-0.123338,-0.63957,-0.1690595,0.113077,-0.66809,-0.2080035,1
87,-0.0098179999999999,0.74332,-0.290209,-0.1500159999999999,0.53139,-0.244919,-0.2521259999999999,0.6994,-0.467129,0.149294,0.53554,-0.252969,0.240414,0.7127399999999999,-0.481099,-0.278346,0.87731,-0.703899,0.272224,0.85611,-0.698419,-0.089874,-0.00157,0.000764,0.089874,0.00157,-0.000764,-0.153436,-0.23225,-0.330529,0.145394,-0.2357599999999999,-0.3303089999999999,-0.12384,-0.63164,-0.172292,0.1123639999999999,-0.6631,-0.212009,1
88,-0.0106949999999999,0.736915,-0.299752,-0.1511219999999999,0.527015,-0.253152,-0.253052,0.689065,-0.480232,0.148158,0.5299050000000001,-0.261582,0.239318,0.7017850000000001,-0.492482,-0.280972,0.862755,-0.720352,0.270088,0.8386950000000001,-0.711482,-0.089988,-0.0015549999999999,0.0010679999999999,0.089988,0.001555,-0.001068,-0.154922,-0.226705,-0.334232,0.144378,-0.2302149999999999,-0.334512,-0.1246039999999999,-0.624665,-0.175478,0.111348,-0.658875,-0.215842,1
89,-0.0115509999999999,0.7303,-0.309985,-0.152186,0.5226500000000001,-0.260955,-0.253926,0.6783,-0.492955,0.146334,0.52499,-0.269415,0.238364,0.69157,-0.502635,-0.283336,0.8476299999999999,-0.7353550000000001,0.268864,0.82399,-0.724245,-0.0902439999999999,-0.00162,0.0014249999999999,0.090244,0.00162,-0.001425,-0.156406,-0.22216,-0.337515,0.143174,-0.22635,-0.338425,-0.124269,-0.6155200000000001,-0.173904,0.110254,-0.6547499999999999,-0.219485,1
90,-0.012154,0.7236,-0.320025,-0.153104,0.51715,-0.269115,-0.254634,0.66727,-0.505405,0.144756,0.51916,-0.277265,0.237566,0.6810799999999999,-0.513825,-0.285604,0.8334699999999999,-0.749165,0.268126,0.80938,-0.737355,-0.090496,-0.00157,0.0017149999999999,0.090496,0.0015699999999999,-0.0017149999999999,-0.1577339999999999,-0.2172899999999999,-0.340855,0.142096,-0.2224,-0.342395,-0.123761,-0.60604,-0.172419,0.108916,-0.6491,-0.222975,1
91,-0.0125009999999999,0.7182499999999999,-0.330345,-0.153689,0.51189,-0.277105,-0.254479,0.6571799999999999,-0.517375,0.1434109999999999,0.5128499999999999,-0.285155,0.2372309999999999,0.67096,-0.524185,-0.287719,0.81887,-0.7632150000000001,0.267751,0.79621,-0.7503850000000001,-0.0907709999999999,-0.00135,0.0021049999999999,0.0907709999999999,0.0013499999999999,-0.0021049999999999,-0.158689,-0.21233,-0.344285,0.141431,-0.2183,-0.346365,-0.123001,-0.59613,-0.170993,0.1078909999999999,-0.6433300000000001,-0.2260349999999999,1
92,-0.0126325,0.713425,-0.339845,-0.1541675,0.507195,-0.283965,-0.2546275,0.6470849999999999,-0.528355,0.1422324999999999,0.507895,-0.292265,0.2370125,0.661055,-0.534185,-0.2897475,0.8054950000000001,-0.7751049999999999,0.2675025,0.782305,-0.7618349999999999,-0.0909925,-0.0010249999999999,0.0024549999999999,0.0909925,0.0010249999999999,-0.0024549999999999,-0.1595175,-0.207805,-0.347335,0.1411125,-0.214495,-0.350045,-0.1230535,-0.5899350000000001,-0.173587,0.1069725,-0.638055,-0.228235,1
93,-0.0129964999999999,0.70758,-0.348815,-0.1549185,0.5017,-0.291265,-0.2549485,0.6383300000000001,-0.539515,0.1411015,0.50273,-0.3000549999999999,0.2368815,0.65219,-0.5431349999999999,-0.2918485,0.79388,-0.786225,0.2672515,0.76911,-0.7715650000000001,-0.0912115,-0.00089,0.002935,0.0912115,0.00089,-0.0029349999999999,-0.1605984999999999,-0.2023099999999999,-0.350425,0.1411515,-0.2091399999999999,-0.3538449999999999,-0.1232304999999999,-0.5828199999999999,-0.176229,0.1061315,-0.6292,-0.224115,1
94,-0.0135289999999999,0.70197,-0.35703,-0.155838,0.4986899999999999,-0.29834,-0.255198,0.63086,-0.55117,0.140042,0.4967399999999999,-0.30814,0.236592,0.64347,-0.55165,-0.293998,0.7813300000000001,-0.797,0.267552,0.75726,-0.78059,-0.091422,-0.00051,0.0033799999999999,0.091422,0.00051,-0.00338,-0.1619479999999999,-0.19677,-0.35337,0.141582,-0.2036899999999999,-0.35763,-0.1234279999999999,-0.5756000000000001,-0.17874,0.105392,-0.61975,-0.22002,1
95,-0.013957,0.69689,-0.36516,-0.156701,0.4952,-0.30448,-0.255131,0.6232500000000001,-0.56185,0.139519,0.49419,-0.31381,0.236569,0.6342099999999999,-0.55905,-0.296201,0.7694799999999999,-0.80676,0.268329,0.7437100000000001,-0.78788,-0.091609,-0.0004399999999999,0.00377,0.091609,0.0004399999999999,-0.0037699999999999,-0.163391,-0.1920699999999999,-0.35555,0.142569,-0.19935,-0.36041,-0.123587,-0.56916,-0.180412,0.1047289999999999,-0.61083,-0.215105,1
96,-0.014166,0.6912750000000001,-0.372195,-0.157264,0.491255,-0.310375,-0.254844,0.616375,-0.570875,0.139176,0.490375,-0.319835,0.236736,0.625495,-0.565655,-0.297954,0.758025,-0.8149150000000001,0.269586,0.732405,-0.7952250000000001,-0.091646,-0.0003049999999999,0.0039949999999999,0.091646,0.0003049999999999,-0.0039949999999999,-0.164794,-0.1863449999999999,-0.357935,0.144256,-0.1940649999999999,-0.363585,-0.124033,-0.562685,-0.182275,0.104206,-0.600495,-0.210266,1
97,-0.014265,0.6863900000000001,-0.3790949999999999,-0.15766,0.4878,-0.315965,-0.25476,0.6102799999999999,-0.578155,0.13887,0.48607,-0.325535,0.2369,0.61809,-0.572105,-0.29891,0.74637,-0.822125,0.271,0.7229,-0.802125,-0.09161,-7.00000000000145e-05,0.004165,0.09161,7.00000000000145e-05,-0.0041649999999999,-0.16624,-0.1799199999999999,-0.360105,0.14628,-0.1881699999999999,-0.3668749999999999,-0.1244929999999999,-0.55557,-0.1838149999999999,0.10371,-0.58951,-0.2051759999999999,1
98,-0.015016,0.6826749999999999,-0.3846549999999999,-0.158398,0.484375,-0.3216449999999999,-0.255028,0.605915,-0.584535,0.137982,0.480855,-0.331275,0.237072,0.6106050000000001,-0.578705,-0.300388,0.737025,-0.829205,0.271942,0.713175,-0.809145,-0.091522,0.0002249999999999,0.004285,0.091522,-0.0002249999999999,-0.0042849999999999,-0.168418,-0.172365,-0.3625549999999999,0.147982,-0.1805549999999999,-0.370485,-0.125379,-0.547275,-0.185214,0.1025719999999999,-0.5772649999999999,-0.200087,1
99,-0.015632,0.678785,-0.39008,-0.159229,0.482735,-0.3261699999999999,-0.255129,0.601505,-0.59059,0.1371109999999999,0.4777949999999999,-0.33575,0.2369209999999999,0.603185,-0.58325,-0.302079,0.726585,-0.83545,0.272631,0.703435,-0.81454,-0.091441,0.0005049999999999,0.00445,0.091441,-0.000505,-0.0044499999999999,-0.170809,-0.165215,-0.3650299999999999,0.149831,-0.173425,-0.37416,-0.126323,-0.540085,-0.186819,0.1012609999999999,-0.5654750000000001,-0.195017,1
100,-0.0165075,0.67509,-0.395435,-0.1601835,0.48147,-0.330025,-0.2556735,0.59676,-0.595805,0.1360664999999999,0.47601,-0.339325,0.2364965,0.5946400000000001,-0.587915,-0.3035235,0.71587,-0.839665,0.2729765,0.6925600000000001,-0.8191550000000001,-0.0913465,0.0005499999999999,0.0043449999999999,0.0913465,-0.0005499999999999,-0.004345,-0.1733935,-0.15815,-0.3673349999999999,0.1516465,-0.16618,-0.377555,-0.1273825,-0.5330199999999999,-0.187865,0.0999564999999999,-0.55369,-0.18964,1
101,-0.0171064999999999,0.67028,-0.4006,-0.1605964999999999,0.47693,-0.33501,-0.2560465,0.5928800000000001,-0.6008,0.1347535,0.4744,-0.34411,0.2353135,0.5891,-0.5887899999999999,-0.3050765,0.70671,-0.84477,0.2730035,0.68425,-0.8239799999999999,-0.0912234999999999,0.00034,0.00388,0.0912235,-0.00034,-0.0038799999999999,-0.1760364999999999,-0.1491299999999999,-0.37022,0.1531535,-0.1569199999999999,-0.38044,-0.1285945,-0.52419,-0.18918,0.0986035,-0.53977,-0.1845359999999999,1
102,-0.017893,0.666465,-0.405435,-0.161112,0.473805,-0.339125,-0.256602,0.588495,-0.6015550000000001,0.133538,0.4736249999999999,-0.348145,0.2341079999999999,0.582765,-0.593135,-0.306412,0.697695,-0.8482850000000001,0.272458,0.674805,-0.8257950000000001,-0.091058,0.0001849999999999,0.0033449999999999,0.091058,-0.0001849999999999,-0.003345,-0.178562,-0.140465,-0.373045,0.154658,-0.1480349999999999,-0.383205,-0.1300919999999999,-0.5157849999999999,-0.190662,0.097278,-0.530165,-0.18532,1
103,-0.0188754999999999,0.662795,-0.409725,-0.1616995,0.4709669999999999,-0.3429649999999999,-0.2572995,0.581405,-0.602385,0.1323504999999999,0.4721789999999999,-0.3524049999999999,0.2327105,0.576975,-0.597225,-0.3080595,0.689645,-0.852155,0.2717405,0.666225,-0.827615,-0.0905805,-0.000775,0.002955,0.0905805,0.0007749999999999,-0.0029549999999999,-0.1816395,-0.131475,-0.375365,0.1559905,-0.138565,-0.385855,-0.1316195,-0.507065,-0.191884,0.0957505,-0.5204350000000001,-0.185861,1
104,-0.020224,0.65864,-0.413865,-0.162264,0.467101,-0.346875,-0.258254,0.57475,-0.603245,0.130776,0.470739,-0.356835,0.230786,0.56888,-0.6009450000000001,-0.3103039999999999,0.68042,-0.856175,0.270776,0.6556200000000001,-0.831465,-0.090036,-0.00189,0.0025749999999999,0.090036,0.00189,-0.002575,-0.185694,-0.1220199999999999,-0.377165,0.157896,-0.1288299999999999,-0.388205,-0.133644,-0.4982199999999999,-0.193269,0.0938259999999999,-0.5105599999999999,-0.186649,1
105,-0.0214939999999999,0.65459,-0.41822,-0.162459,0.464528,-0.35035,-0.258749,0.56504,-0.6037399999999999,0.129201,0.4707369999999999,-0.36082,0.228771,0.56121,-0.6053299999999999,-0.312389,0.66955,-0.85975,0.269781,0.64322,-0.8363799999999999,-0.089481,-0.0025999999999999,0.0024,0.089481,0.0025999999999999,-0.0023999999999999,-0.190429,-0.11312,-0.37868,0.160731,-0.11961,-0.39043,-0.1355799999999999,-0.49004,-0.1947999999999999,0.092331,-0.50125,-0.187886,1
106,-0.02263,0.65083,-0.42227,-0.162537,0.462342,-0.35372,-0.259187,0.55645,-0.60373,0.127863,0.468596,-0.36483,0.227293,0.55474,-0.61,-0.3144369999999999,0.65856,-0.8626799999999999,0.268913,0.63201,-0.8428800000000001,-0.088943,-0.0028999999999999,0.0021299999999999,0.088943,0.0029,-0.0021299999999999,-0.195647,-0.10436,-0.3801,0.164123,-0.1106399999999999,-0.39225,-0.137498,-0.4821299999999999,-0.19638,0.0907529999999999,-0.4922099999999999,-0.189073,1
107,-0.0231019999999999,0.64588,-0.42612,-0.162046,0.460415,-0.35655,-0.258636,0.5477,-0.60345,0.127114,0.467428,-0.36844,0.226094,0.54959,-0.6107400000000001,-0.315846,0.64602,-0.86511,0.269484,0.6213299999999999,-0.8490300000000001,-0.088394,-0.0030199999999999,0.0019599999999999,0.088394,0.00302,-0.00196,-0.200586,-0.09641,-0.3813,0.168784,-0.10243,-0.39337,-0.1388039999999999,-0.4752499999999999,-0.1978,0.0898839999999999,-0.4841299999999999,-0.1901,1
108,-0.023596,0.6417499999999999,-0.42941,-0.1614809999999999,0.4580979999999999,-0.35956,-0.258131,0.54006,-0.60344,0.126339,0.4660809999999999,-0.37217,0.224809,0.5455899999999999,-0.61295,-0.317181,0.63559,-0.8675299999999999,0.270009,0.61179,-0.8541099999999999,-0.087869,-0.00319,0.0016699999999999,0.087869,0.0031899999999999,-0.00167,-0.2059409999999999,-0.08829,-0.38246,0.173649,-0.09445,-0.39427,-0.140137,-0.46749,-0.198965,0.088919,-0.47592,-0.191032,1
109,-0.023911,0.6374650000000001,-0.4318499999999999,-0.160812,0.455429,-0.36246,-0.257372,0.532945,-0.60342,0.125548,0.464349,-0.37583,0.223888,0.541015,-0.61691,-0.3185219999999999,0.627155,-0.8700399999999999,0.270798,0.604185,-0.8590599999999999,-0.087348,-0.0033049999999999,0.0012999999999999,0.087348,0.003305,-0.0012999999999999,-0.211222,-0.0807449999999999,-0.38371,0.178798,-0.086955,-0.39496,-0.141487,-0.460225,-0.199948,0.087868,-0.4683649999999999,-0.191647,1
110,-0.0240669999999999,0.63348,-0.43407,-0.160457,0.455467,-0.3643699999999999,-0.256767,0.525767,-0.6032500000000001,0.125013,0.462271,-0.37831,0.223333,0.533345,-0.62016,-0.319717,0.61685,-0.8724400000000001,0.271993,0.59434,-0.8630500000000001,-0.086953,-0.00284,0.00128,0.086953,0.00284,-0.00128,-0.2145369999999999,-0.0751899999999999,-0.38424,0.184133,-0.08157,-0.3952,-0.142642,-0.45509,-0.200702,0.087153,-0.46289,-0.192089,1
111,-0.0240295,0.629705,-0.435685,-0.1600325,0.455649,-0.365755,-0.2564825,0.519473,-0.6018749999999999,0.1245275,0.459478,-0.380525,0.2233975,0.527126,-0.622325,-0.3209525,0.607905,-0.8745449999999999,0.2733875,0.585125,-0.8638349999999999,-0.0865275,-0.002545,0.001225,0.0865275,0.002545,-0.0012249999999999,-0.2196024999999999,-0.069415,-0.385055,0.1893174999999999,-0.0759149999999999,-0.395355,-0.1441325,-0.4496949999999999,-0.201281,0.0866475,-0.457095,-0.1921649999999999,1
112,-0.0235099999999999,0.626815,-0.43699,-0.1592599999999999,0.455362,-0.36687,-0.25616,0.5171720000000001,-0.59904,0.12457,0.458481,-0.3822,0.22402,0.521169,-0.62485,-0.32155,0.600975,-0.87449,0.27492,0.577165,-0.8650800000000001,-0.08648,-0.0014949999999999,0.0011499999999999,0.08648,0.001495,-0.00115,-0.2238399999999999,-0.0636949999999999,-0.38554,0.19482,-0.0703149999999999,-0.39528,-0.145238,-0.444295,-0.201932,0.08639,-0.4513349999999999,-0.192276,1
113,-0.022971,0.62489,-0.437185,-0.158683,0.456935,-0.367385,-0.255983,0.515115,-0.595035,0.1252069999999999,0.457569,-0.382615,0.224707,0.520195,-0.626555,-0.322013,0.59587,-0.8733850000000001,0.277377,0.57308,-0.8683449999999999,-0.086577,-0.0004,0.0007649999999999,0.0865769999999999,0.0004,-0.000765,-0.227283,-0.05789,-0.385205,0.1991869999999999,-0.06484,-0.394735,-0.146099,-0.4385,-0.202185,0.086307,-0.44532,-0.191898,1
114,-0.022334,0.62531,-0.436855,-0.158186,0.4601929999999999,-0.367605,-0.256106,0.51803,-0.593275,0.125604,0.458819,-0.383415,0.224954,0.520697,-0.623265,-0.322406,0.59476,-0.8705350000000001,0.2795539999999999,0.57216,-0.8682350000000001,-0.086434,0.0002199999999999,0.0003749999999999,0.086434,-0.0002199999999999,-0.000375,-0.230806,-0.04985,-0.384495,0.2030639999999999,-0.0573199999999999,-0.394235,-0.147237,-0.43046,-0.201928,0.086164,-0.43768,-0.19094,1
115,-0.0209514999999999,0.624745,-0.43657,-0.1573264999999999,0.463223,-0.36736,-0.2563245,0.519804,-0.5926899999999999,0.1262155,0.461887,-0.38375,0.2258555,0.5205500000000001,-0.62114,-0.3233245,0.590975,-0.8665,0.2818055,0.570435,-0.86381,-0.0862354999999999,0.000435,0.0002999999999999,0.0862354999999999,-0.0004349999999999,-0.0002999999999999,-0.2340745,-0.0422749999999999,-0.38402,0.2067655,-0.0505049999999999,-0.3940899999999999,-0.1479345,-0.423215,-0.202172,0.0864155,-0.4305749999999999,-0.1902889999999999,1
116,-0.0193125,0.62519,-0.4357899999999999,-0.1561255,0.465856,-0.3666,-0.2563475,0.521488,-0.59198,0.1271025,0.46393,-0.3829999999999999,0.2276725,0.5203990000000001,-0.62185,-0.3238075,0.59118,-0.86581,0.2837125,0.5701080000000001,-0.8649800000000001,-0.0861725,0.00078,0.00035,0.0861725,-0.00078,-0.0003499999999999,-0.2366875,-0.0344499999999999,-0.38341,0.2102925,-0.0436999999999999,-0.3942299999999999,-0.1484325,-0.416,-0.2022159999999999,0.0868325,-0.42323,-0.1895599999999999,1
117,-0.017456,0.626,-0.434465,-0.154851,0.468776,-0.3657049999999999,-0.256157,0.5234570000000001,-0.593225,0.128293,0.465068,-0.382105,0.229703,0.518462,-0.6220749999999999,-0.324937,0.58946,-0.863215,0.285753,0.569075,-0.865905,-0.086013,0.00078,0.000125,0.0860129999999999,-0.00078,-0.0001249999999999,-0.239057,-0.0272799999999999,-0.382795,0.213783,-0.0376299999999999,-0.394055,-0.148702,-0.40901,-0.2021299999999999,0.087523,-0.4165099999999999,-0.188686,1
118,-0.0156714999999999,0.6279,-0.4324949999999999,-0.1535915,0.472169,-0.364055,-0.2568635,0.526128,-0.596815,0.1300265,0.466694,-0.380445,0.2315365,0.519471,-0.621655,-0.3259535,0.5924,-0.8631949999999999,0.2875965,0.568841,-0.864955,-0.0858365,0.00078,-4.499999999998949e-05,0.0858365,-0.00078,4.500000000001725e-05,-0.2413934999999999,-0.0194099999999999,-0.382115,0.2171765,-0.03105,-0.393295,-0.1491434999999999,-0.4010199999999999,-0.2013589999999999,0.0881465,-0.4081199999999999,-0.1872819999999999,1
119,-0.0141299999999999,0.6313900000000001,-0.430525,-0.152444,0.475364,-0.361985,-0.257765,0.5299170000000001,-0.5998749999999999,0.131585,0.467485,-0.378415,0.232975,0.523499,-0.6195550000000001,-0.326955,0.5971000000000001,-0.862585,0.287565,0.5712870000000001,-0.861105,-0.085655,0.00079,-0.000235,0.085655,-0.0007899999999999,0.0002349999999999,-0.2436149999999999,-0.0107899999999999,-0.381715,0.2206449999999999,-0.0236699999999999,-0.392375,-0.149554,-0.3920499999999999,-0.20017,0.088625,-0.3989499999999999,-0.185432,1
120,-0.0128789999999999,0.635375,-0.42844,-0.151509,0.47785,-0.3595699999999999,-0.2587669999999999,0.534155,-0.6027899999999999,0.132963,0.468698,-0.3762999999999999,0.2334529999999999,0.5275780000000001,-0.61737,-0.329567,0.6022850000000001,-0.86199,0.288943,0.5754610000000001,-0.85737,-0.0855229999999999,0.000985,-0.0004599999999999,0.085523,-0.0009849999999999,0.00046,-0.2456769999999999,-0.0026349999999999,-0.38133,0.2237029999999999,-0.0165149999999999,-0.39141,-0.1498769999999999,-0.3834049999999999,-0.1987249999999999,0.089113,-0.390435,-0.1837049999999999,1
121,-0.0120779999999999,0.63889,-0.425785,-0.150885,0.480738,-0.357015,-0.260036,0.538272,-0.605325,0.134024,0.469653,-0.374175,0.234074,0.531974,-0.614565,-0.332396,0.607335,-0.861005,0.290024,0.579429,-0.8540449999999999,-0.085294,0.0012199999999999,-0.000715,0.085294,-0.0012199999999999,0.0007149999999999,-0.247646,0.00495,-0.380885,0.226464,-0.0099299999999999,-0.390375,-0.150183,-0.37527,-0.197241,0.090324,-0.3823000000000001,-0.182694,1
122,-0.011477,0.64244,-0.423035,-0.150689,0.4834389999999999,-0.354215,-0.261628,0.5430039999999999,-0.6069450000000001,0.134762,0.469919,-0.371735,0.234562,0.536334,-0.613845,-0.335048,0.612706,-0.859585,0.291022,0.584228,-0.850905,-0.085142,0.0018,-0.0008849999999999,0.085142,-0.0018,0.0008849999999999,-0.249628,0.0121499999999999,-0.380295,0.2291119999999999,-0.0038799999999999,-0.389445,-0.150368,-0.36732,-0.195861,0.091542,-0.37421,-0.181615,1
123,-0.0110574999999999,0.64365,-0.42028,-0.1505095,0.48422,-0.35185,-0.2631765,0.5460320000000001,-0.60856,0.1350934999999999,0.468478,-0.36954,0.2349835,0.5393060000000001,-0.61344,-0.3373764999999999,0.616809,-0.85827,0.2912435,0.5885670000000001,-0.84836,-0.0850535,0.00256,-0.00071,0.0850534999999999,-0.00256,0.00071,-0.2507465,0.0171799999999999,-0.37999,0.2311435,-2.000000000002e-05,-0.3887,-0.1504005,-0.3614499999999999,-0.194927,0.0925235,-0.36812,-0.181317,1
124,-0.0109045,0.646385,-0.416815,-0.1503215,0.4861839999999999,-0.3492849999999999,-0.2646475,0.550627,-0.609605,0.1353424999999999,0.4682269999999999,-0.3668249999999999,0.2351924999999999,0.543083,-0.6115349999999999,-0.3393475,0.622895,-0.855755,0.2914225,0.5942649999999999,-0.845475,-0.0850325,0.0031499999999999,-0.0005049999999999,0.0850325,-0.00315,0.000505,-0.2515675,0.0232099999999999,-0.379445,0.2328024999999999,0.0051799999999999,-0.388005,-0.1504895,-0.3547,-0.193765,0.0937624999999999,-0.36114,-0.180976,1
125,-0.010857,0.6496000000000001,-0.413145,-0.150249,0.486896,-0.346295,-0.266055,0.555694,-0.610305,0.135445,0.468899,-0.363825,0.235305,0.546849,-0.609595,-0.341155,0.628803,-0.853265,0.291515,0.600354,-0.842905,-0.084855,0.002985,-0.000415,0.084855,-0.002985,0.0004149999999999,-0.252415,0.029505,-0.378715,0.233935,0.010575,-0.3870249999999999,-0.150634,-0.347645,-0.192442,0.094895,-0.3539049999999999,-0.18043,1
126,-0.0102459999999999,0.6523709999999999,-0.409275,-0.149946,0.4866949999999999,-0.343045,-0.266931,0.560747,-0.611085,0.136089,0.4703789999999999,-0.360895,0.235519,0.5531029999999999,-0.606545,-0.342881,0.635459,-0.8508249999999999,0.292019,0.6075429999999999,-0.8412649999999999,-0.084849,0.0029049999999999,-0.000325,0.084849,-0.002905,0.0003249999999999,-0.2521609999999999,0.0369649999999999,-0.377845,0.235509,0.0168049999999999,-0.386005,-0.15023,-0.339825,-0.191154,0.096599,-0.346295,-0.180699,1
127,-0.0100054999999999,0.654764,-0.405935,-0.1499505,0.4860339999999999,-0.340455,-0.2667975,0.564713,-0.6102650000000001,0.1365325,0.4717249999999999,-0.359105,0.2355525,0.558487,-0.604305,-0.3442175,0.642969,-0.8527950000000001,0.2923925,0.61403,-0.8404750000000001,-0.0849125,0.0026749999999999,-0.000275,0.0849125,-0.0026749999999999,0.0002749999999999,-0.2516775,0.0437949999999999,-0.377225,0.2366825,0.022285,-0.385525,-0.1498415,-0.3328650000000001,-0.19063,0.0981025,-0.340005,-0.18215,1
128,-0.01038,0.6565099999999999,-0.40273,-0.150538,0.4863109999999999,-0.33823,-0.266731,0.5674159999999999,-0.6087899999999999,0.135949,0.4745999999999999,-0.35751,0.235069,0.562399,-0.60172,-0.345201,0.6497149999999999,-0.8536699999999999,0.292089,0.619823,-0.8382999999999999,-0.085009,0.0020999999999999,-0.0003799999999999,0.085009,-0.0020999999999999,0.00038,-0.251471,0.0495299999999999,-0.37659,0.237349,0.0272,-0.38495,-0.1497109999999999,-0.3269500000000001,-0.190205,0.099379,-0.33436,-0.183744,1
129,-0.0111069999999999,0.658175,-0.39917,-0.151181,0.4878749999999999,-0.33589,-0.2667569999999999,0.5701139999999999,-0.6070599999999999,0.135853,0.4779749999999999,-0.35561,0.2349329999999999,0.5653889999999999,-0.59999,-0.345097,0.6557369999999999,-0.8519399999999999,0.291633,0.6253719999999999,-0.83566,-0.085053,0.0012949999999999,-0.0006199999999999,0.0850529999999999,-0.001295,0.0006199999999999,-0.251347,0.0558749999999999,-0.37554,0.237893,0.0328649999999999,-0.38397,-0.149603,-0.320255,-0.1893969999999999,0.1002529999999999,-0.327915,-0.184437,1
130,-0.011997,0.6604889999999999,-0.39525,-0.151807,0.4910649999999999,-0.33357,-0.26662,0.5734729999999999,-0.6044,0.1356,0.4797549999999999,-0.3531499999999999,0.2344,0.569592,-0.59831,-0.34498,0.6613519999999999,-0.8502299999999999,0.29121,0.6327659999999999,-0.83397,-0.08513,0.0016149999999999,-0.0005599999999999,0.08513,-0.001615,0.00056,-0.25107,0.0641049999999999,-0.37424,0.2381599999999999,0.0405449999999999,-0.38276,-0.149572,-0.311375,-0.188549,0.10066,-0.3196350000000001,-0.185778,1
131,-0.0128194999999999,0.662906,-0.391625,-0.1524134999999999,0.49197,-0.331005,-0.2667535,0.575871,-0.601785,0.1347065,0.48216,-0.350725,0.2331964999999999,0.571652,-0.592885,-0.3443135,0.664487,-0.848105,0.2893564999999999,0.6355230000000001,-0.827995,-0.0852265,0.00133,-0.000605,0.0852265,-0.0013299999999999,0.0006049999999999,-0.2504535,0.07291,-0.3731649999999999,0.2383664999999999,0.04907,-0.3814349999999999,-0.1494705,-0.30201,-0.187582,0.1014165,-0.3103399999999999,-0.186933,1
132,-0.0137114999999999,0.665416,-0.388335,-0.1531084999999999,0.4926649999999999,-0.328375,-0.2669395,0.577601,-0.5991150000000001,0.1338105,0.484355,-0.347995,0.2309405,0.573373,-0.5872649999999999,-0.3441995,0.668968,-0.846705,0.2873905,0.6378309999999999,-0.822455,-0.0853905,0.000765,-0.000785,0.0853905,-0.000765,0.0007849999999999,-0.2497395,0.081515,-0.372165,0.2384804999999999,0.0579849999999999,-0.379905,-0.1493445,-0.293075,-0.186719,0.1021504999999999,-0.302235,-0.188171,1
133,-0.0143999999999999,0.6679459999999999,-0.3858049999999999,-0.1536,0.492065,-0.326025,-0.2669,0.578382,-0.596785,0.13309,0.4855549999999999,-0.345555,0.22887,0.574143,-0.581915,-0.34312,0.669189,-0.8449150000000001,0.28556,0.638884,-0.817195,-0.08562,0.0002949999999999,-0.000965,0.08562,-0.000295,0.0009649999999999,-0.24877,0.088925,-0.3714349999999999,0.23874,0.0658649999999999,-0.3787049999999999,-0.149087,-0.285375,-0.186204,0.10311,-0.295765,-0.190313,1
134,-0.0149795,0.669959,-0.383395,-0.1535715,0.4930749999999999,-0.324005,-0.2666705,0.5786499999999999,-0.594755,0.1326995,0.4866749999999999,-0.343165,0.2269895,0.5743969999999999,-0.577145,-0.3418305,0.6682739999999999,-0.843365,0.2839895,0.6386799999999999,-0.8147150000000001,-0.0857894999999999,0.0002649999999999,-0.001005,0.0857895,-0.000265,0.0010049999999999,-0.2475005,0.0953649999999999,-0.370735,0.2391594999999999,0.0733149999999999,-0.3776549999999999,-0.1486985,-0.278275,-0.185766,0.1042695,-0.290135,-0.192689,1
135,-0.0153104999999999,0.6727160000000001,-0.380885,-0.1531785,0.49522,-0.322135,-0.2660945,0.579123,-0.5928450000000001,0.1327455,0.48839,-0.340745,0.2252055,0.574697,-0.5720850000000001,-0.3402745,0.667201,-0.8422050000000001,0.2824355,0.638124,-0.812115,-0.0861855,0.0004399999999999,-0.0009149999999999,0.0861855,-0.0004399999999999,0.0009149999999999,-0.2459545,0.10166,-0.3699949999999999,0.2393955,0.08068,-0.3765949999999999,-0.1481084999999999,-0.2712799999999999,-0.1854839999999999,0.1055155,-0.28369,-0.194255,1
136,-0.0154019999999999,0.67527,-0.37863,-0.152555,0.49738,-0.32064,-0.2651799999999999,0.580254,-0.59161,0.13281,0.48924,-0.33863,0.2237299999999999,0.5756350000000001,-0.56561,-0.33852,0.6666400000000001,-0.84173,0.28117,0.638568,-0.81016,-0.0865499999999999,0.00075,-0.0007599999999999,0.0865499999999999,-0.0007499999999999,0.00076,-0.24409,0.10838,-0.3695199999999999,0.2397,0.08789,-0.3757699999999999,-0.147373,-0.2640299999999999,-0.1856519999999999,0.1069,-0.2769799999999999,-0.195927,1
137,-0.0152529999999999,0.677704,-0.376775,-0.15177,0.4989549999999999,-0.319595,-0.264331,0.5815579999999999,-0.590665,0.132569,0.4891649999999999,-0.336845,0.222549,0.5770559999999999,-0.558985,-0.336671,0.666047,-0.841495,0.280389,0.6391579999999999,-0.8099649999999999,-0.086839,0.0013749999999999,-0.0007749999999999,0.086839,-0.001375,0.0007749999999999,-0.242081,0.1150049999999999,-0.369465,0.240139,0.0944249999999999,-0.375215,-0.146633,-0.2572350000000001,-0.186046,0.108439,-0.2704350000000001,-0.197659,1
138,-0.0148324999999999,0.680042,-0.37465,-0.1508745,0.4992,-0.31814,-0.2633495,0.58241,-0.58964,0.1323805,0.48866,-0.33475,0.2216205,0.577999,-0.55339,-0.3346595,0.665161,-0.8409599999999999,0.2801305,0.639747,-0.80968,-0.0871005,0.00209,-0.0007199999999999,0.0871005,-0.00209,0.0007199999999999,-0.2398094999999999,0.1207599999999999,-0.36933,0.2405905,0.1003699999999999,-0.37417,-0.1457685,-0.25104,-0.186163,0.1099405,-0.2647899999999999,-0.198969,1
139,-0.0140499999999999,0.680513,-0.372195,-0.1497049999999999,0.49753,-0.316575,-0.262215,0.581469,-0.5886450000000001,0.132625,0.48956,-0.332885,0.221015,0.576938,-0.546435,-0.332235,0.662868,-0.840495,0.279645,0.6394070000000001,-0.805545,-0.087375,0.00165,-0.000685,0.087375,-0.00165,0.0006849999999999,-0.237225,0.1243999999999999,-0.369155,0.2409549999999999,0.1047799999999999,-0.372365,-0.144623,-0.2467399999999999,-0.186255,0.111765,-0.26108,-0.199898,1
140,-0.0130245,0.680485,-0.36924,-0.1482625,0.4978249999999999,-0.31492,-0.2607425,0.58031,-0.58731,0.1331975,0.490265,-0.33075,0.2204874999999999,0.5776600000000001,-0.54276,-0.3295025,0.660086,-0.83969,0.2806475,0.641759,-0.80057,-0.0875975,0.0017049999999999,-0.0006099999999999,0.0875975,-0.0017049999999999,0.0006099999999999,-0.2347825,0.1270649999999999,-0.36851,0.2411675,0.108705,-0.37064,-0.1432465,-0.243085,-0.1859839999999999,0.1137775,-0.258225,-0.200353,1
141,-0.0121555,0.680667,-0.36614,-0.1468615,0.4984499999999999,-0.31347,-0.2591815,0.5795889999999999,-0.58602,0.1336784999999999,0.4914699999999999,-0.3291,0.2207985,0.578776,-0.53918,-0.3267715,0.658044,-0.83898,0.2815085,0.643793,-0.7959299999999999,-0.0877785,0.0017099999999999,-0.00032,0.0877785,-0.0017099999999999,0.00032,-0.2328414999999999,0.1299699999999999,-0.3679,0.2411885,0.1130299999999999,-0.36905,-0.1420075,-0.23928,-0.185787,0.1156084999999999,-0.25485,-0.20098,1
142,-0.011141,0.681803,-0.363035,-0.145417,0.499085,-0.312145,-0.257437,0.579241,-0.584665,0.134293,0.493225,-0.327405,0.2212329999999999,0.579586,-0.535585,-0.323907,0.656575,-0.838305,0.2812929999999999,0.64539,-0.788955,-0.087933,0.0017249999999999,-0.0002749999999999,0.087933,-0.0017249999999999,0.0002749999999999,-0.231087,0.1332149999999999,-0.367465,0.241443,0.117255,-0.367775,-0.140603,-0.235205,-0.1856519999999999,0.116783,-0.250395,-0.200005,1
143,-0.0100944999999999,0.6843060000000001,-0.3595065,-0.1439535,0.500815,-0.3102365,-0.2557835,0.580945,-0.5828565,0.1349265,0.495515,-0.3253865,0.2218665,0.5824250000000001,-0.5334865,-0.3209134999999999,0.6577700000000001,-0.8373165,0.2810565,0.65019,-0.7843665,-0.0880465,0.0017449999999999,-0.0002285,0.0880465,-0.0017449999999999,0.0002284999999999,-0.2293935,0.137195,-0.3668865,0.2421965,0.122345,-0.3667264999999999,-0.1393025,-0.2304049999999999,-0.1853795,0.1182865,-0.2457749999999999,-0.1999465,1
144,-0.009477,0.6873710000000001,-0.356046,-0.143079,0.5023050000000001,-0.308076,-0.254499,0.583335,-0.580916,0.134761,0.4963050000000001,-0.322376,0.222041,0.5847850000000001,-0.529516,-0.318289,0.6602040000000001,-0.836246,0.280421,0.6539400000000001,-0.779526,-0.0880809999999999,0.001835,-0.0001719999999999,0.0880809999999999,-0.0018349999999999,0.000172,-0.228069,0.1397250000000001,-0.366336,0.2431009999999999,0.126095,-0.3659059999999999,-0.138425,-0.2265649999999999,-0.185035,0.119731,-0.2423449999999999,-0.199646,1
145,-0.0088885,0.689921,-0.3523775,-0.1421625,0.504855,-0.3058975,-0.2530525,0.585885,-0.5785275000000001,0.1347475,0.498855,-0.3192675,0.2228274999999999,0.587335,-0.5269075000000001,-0.3155325,0.6627540000000001,-0.8339975000000001,0.2794975,0.65649,-0.7777775,-0.0881275,0.0018449999999999,-0.0001835,0.0881275,-0.0018449999999999,0.0001834999999999,-0.2267425,0.140725,-0.3656875,0.2444074999999999,0.128365,-0.3647375,-0.1377095,-0.2241849999999999,-0.1843965,0.1210374999999999,-0.2398249999999999,-0.1983375,1
146,-0.008517,0.689921,-0.3478845,-0.141459,0.504855,-0.3032045,-0.251589,0.585885,-0.5757245,0.135091,0.498855,-0.3157545,0.2233809999999999,0.587335,-0.5240545,-0.3125489999999999,0.6627540000000001,-0.8303645000000001,0.278471,0.656687,-0.7733045000000001,-0.088281,0.0018449999999999,1.2499999999998623e-05,0.088281,-0.0018449999999999,-1.2499999999998623e-05,-0.225839,0.140725,-0.3647745,0.2456409999999999,0.128575,-0.3630545,-0.137104,-0.2241849999999999,-0.1827825,0.122581,-0.2398249999999999,-0.1968845,1
147,-0.0087994999999999,0.689921,-0.3431984999999999,-0.1411525,0.504855,-0.3009085,-0.2504025,0.585885,-0.5726385,0.1352375,0.498855,-0.3125285,0.2233875,0.587335,-0.5216285,-0.3096125,0.6627540000000001,-0.8256685,0.2770875,0.657787,-0.7691685,-0.0882975,0.0018449999999999,0.0003594999999999,0.0882975,-0.0018449999999999,-0.0003594999999999,-0.2255625,0.140725,-0.3640485,0.2465775,0.128615,-0.3619185,-0.1371035,-0.2241849999999999,-0.1814445,0.1237575,-0.2398249999999999,-0.1955184999999999,1
148,-0.0093849999999999,0.691566,-0.3382429999999999,-0.141767,0.5051950000000001,-0.297653,-0.249587,0.586975,-0.569303,0.135423,0.499255,-0.308963,0.2235629999999999,0.5902780000000001,-0.520233,-0.3068269999999999,0.664291,-0.8209930000000001,0.275513,0.662645,-0.766313,-0.088253,0.0018449999999999,0.000626,0.088253,-0.0018449999999999,-0.000626,-0.2263669999999999,0.140725,-0.363653,0.2473129999999999,0.128665,-0.361193,-0.137327,-0.2241849999999999,-0.180112,0.124783,-0.239515,-0.1941129999999999,1
149,-0.0100819999999999,0.6960519999999999,-0.332791,-0.142602,0.5067849999999999,-0.293671,-0.248842,0.5906929999999999,-0.565331,0.135358,0.5021149999999999,-0.305071,0.223788,0.5963639999999999,-0.519481,-0.304382,0.6686549999999999,-0.816081,0.273558,0.6685399999999999,-0.759961,-0.0882979999999999,0.0014849999999999,0.000822,0.088298,-0.001485,-0.0008219999999999,-0.228472,0.1397449999999999,-0.3633109999999999,0.248498,0.1279949999999999,-0.360571,-0.137902,-0.223145,-0.1785729999999999,0.125558,-0.2395950000000001,-0.1925509999999999,1
150,-0.0105429999999999,0.6998629999999999,-0.3268135,-0.1434969999999999,0.508485,-0.2894835,-0.2483169999999999,0.593753,-0.5613135,0.135323,0.5038549999999999,-0.3005035,0.224403,0.6008849999999999,-0.5190435,-0.301797,0.6732389999999999,-0.8109635,0.271833,0.6727339999999999,-0.7557135,-0.0882729999999999,0.0012549999999998,0.0009655,0.088273,-0.001255,-0.0009654999999999,-0.231357,0.1357649999999999,-0.3629635,0.250303,0.1242449999999999,-0.3604934999999999,-0.138397,-0.2253050000000001,-0.1768215,0.125903,-0.2429150000000001,-0.1908134999999999,1
151,-0.011007,0.705697,-0.319844,-0.144569,0.510845,-0.284104,-0.2482089999999999,0.598143,-0.556064,0.135471,0.5069049999999999,-0.294904,0.224951,0.606837,-0.517814,-0.299199,0.67855,-0.804934,0.271161,0.679331,-0.752304,-0.088151,0.0010149999999999,0.0011219999999999,0.088151,-0.0010149999999999,-0.0011219999999999,-0.235769,0.1304149999999999,-0.362284,0.252861,0.1191949999999999,-0.360804,-0.138989,-0.2291349999999999,-0.174294,0.126041,-0.247855,-0.187524,1
152,-0.0111415,0.7118960000000001,-0.3137904999999999,-0.1451725,0.5126250000000001,-0.2797604999999999,-0.2472725,0.6027070000000001,-0.5519105,0.1359774999999999,0.5092650000000001,-0.2900105,0.2260775,0.6103120000000001,-0.5155505,-0.2961125,0.685072,-0.7993905,0.2709475,0.68481,-0.7492605,-0.0880475,0.0009149999999999,0.0012905,0.0880475,-0.0009149999999999,-0.0012905,-0.2406125,0.123495,-0.3629305,0.2562075,0.112555,-0.3617304999999999,-0.1390425,-0.2347349999999999,-0.1725145,0.1264475,-0.254355,-0.1850305,1
153,-0.0115114999999999,0.719314,-0.30767,-0.1456445,0.516815,-0.2756,-0.2465745,0.608961,-0.54758,0.1363855,0.5114650000000001,-0.28583,0.2268754999999999,0.617313,-0.5128199999999999,-0.2933945,0.692944,-0.79379,0.2704054999999999,0.693665,-0.7461800000000001,-0.0878255,0.001025,0.0014979999999999,0.0878255,-0.0010249999999999,-0.0014979999999999,-0.2462545,0.114705,-0.36324,0.2594255,0.104025,-0.3625,-0.1393745,-0.242255,-0.170601,0.1265655,-0.2618349999999999,-0.181272,1
154,-0.0112545,0.723479,-0.3028,-0.1456215,0.520555,-0.27203,-0.2454615,0.612401,-0.54413,0.1372585,0.511145,-0.2827,0.2282585,0.6222989999999999,-0.51368,-0.2904615,0.697765,-0.7900699999999999,0.2709384999999999,0.698894,-0.7484599999999999,-0.0877085,0.001985,0.001959,0.0877085,-0.001985,-0.001959,-0.2515715,0.101175,-0.36399,0.2621485,0.090295,-0.36416,-0.1390715,-0.254625,-0.1695519999999999,0.1270285,-0.274655,-0.1783799999999999,1
155,-0.0100125,0.72723,-0.298763,-0.1447965,0.5225900000000001,-0.268653,-0.2436165,0.6157690000000001,-0.541153,0.1387935,0.51121,-0.279853,0.2305035,0.6260020000000001,-0.5148630000000001,-0.2869064999999999,0.7022990000000001,-0.787533,0.2721135,0.701794,-0.750623,-0.0878935,0.00241,0.0020869999999999,0.0878935,-0.0024099999999999,-0.002087,-0.2557264999999999,0.08574,-0.364623,0.2649135,0.07562,-0.365833,-0.1380865,-0.2684899999999999,-0.16872,0.1277734999999999,-0.2894799999999999,-0.176084,1
156,-0.008732,0.73081,-0.294792,-0.144456,0.5253049999999999,-0.265192,-0.242106,0.6187119999999999,-0.538622,0.1406639999999999,0.514585,-0.276822,0.232714,0.6297449999999999,-0.515172,-0.283696,0.7056859999999999,-0.785682,0.272814,0.70534,-0.750842,-0.088134,0.0024999999999999,0.0021609999999999,0.088134,-0.0025,-0.0021609999999999,-0.259536,0.0697099999999999,-0.364942,0.266654,0.0599199999999999,-0.367222,-0.137006,-0.2836700000000001,-0.167728,0.128304,-0.30517,-0.173786,1
157,-0.007598,0.73187,-0.292051,-0.143452,0.523749,-0.262931,-0.240892,0.619069,-0.535741,0.142428,0.513109,-0.274441,0.234608,0.630036,-0.5150710000000001,-0.280802,0.70753,-0.784081,0.273648,0.70615,-0.7507809999999999,-0.088348,0.0029,0.0021869999999999,0.088348,-0.0029,-0.002187,-0.262492,0.0514,-0.365031,0.267928,0.04144,-0.368231,-0.136052,-0.30204,-0.166625,0.129238,-0.32392,-0.172119,1
158,-0.0068969999999999,0.7335750000000001,-0.2896885,-0.1427459999999999,0.524417,-0.2605585,-0.239916,0.6198870000000001,-0.5330485,0.143754,0.5130020000000001,-0.2719085,0.235814,0.630955,-0.5149285,-0.278526,0.7096450000000001,-0.7819784999999999,0.273564,0.707565,-0.7512785,-0.088674,0.003115,0.0022424999999999,0.088674,-0.0031149999999999,-0.0022425,-0.264356,0.033695,-0.3650085,0.268744,0.024185,-0.3689585,-0.135326,-0.3215049999999999,-0.1658145,0.129334,-0.3422149999999999,-0.1697285,1
159,-0.0064254999999999,0.734885,-0.2877785,-0.1425135,0.525983,-0.2577885,-0.2394935,0.622061,-0.5294685,0.1446565,0.51222,-0.2695685,0.2363365,0.631973,-0.5147984999999999,-0.2767535,0.712125,-0.7790085,0.2729165,0.709875,-0.7511985000000001,-0.0889965,0.003585,0.0024595,0.0889965,-0.0035849999999999,-0.0024594999999999,-0.2653835,0.016005,-0.3649385,0.2690965,0.006755,-0.3692085,-0.1352435,-0.342075,-0.1657044999999999,0.1302465,-0.361015,-0.1695865,1
160,-0.0055395,0.7359749999999999,-0.2858665,-0.1417245,0.526887,-0.2551164999999999,-0.2387645,0.623575,-0.5262665,0.1459755,0.51218,-0.2670765,0.2367655,0.6328349999999999,-0.5133265,-0.2746445,0.7159949999999999,-0.7753265,0.2725455,0.711155,-0.7489065,-0.0894055,0.0038949999999999,0.0026515,0.0894055,-0.0038949999999999,-0.0026515,-0.2647144999999999,-0.0012849999999999,-0.3648365,0.2692655,-0.010615,-0.3691265,-0.1349044999999999,-0.363135,-0.1656145,0.1315355,-0.380515,-0.1698625,1
161,-0.0043335,0.737005,-0.2835445,-0.1401385,0.528765,-0.2524444999999999,-0.2377785,0.626665,-0.5227545,0.1476114999999999,0.511599,-0.2647345,0.2378515,0.635645,-0.5116545,-0.2723784999999999,0.720985,-0.7718345,0.2725315,0.714965,-0.7476145,-0.0899415,0.004145,0.0029555,0.0899415,-0.004145,-0.0029555,-0.2637585,-0.019105,-0.3644545,0.2686715,-0.0284349999999999,-0.3692045,-0.1343185,-0.385065,-0.1656854999999999,0.1325414999999999,-0.400815,-0.1698785,1
162,-0.0033475,0.737635,-0.280286,-0.1388585,0.5282990000000001,-0.248806,-0.2374085,0.628115,-0.518746,0.1490715,0.511332,-0.261566,0.2388615,0.635375,-0.508376,-0.2702685,0.725385,-0.767316,0.2722515,0.715855,-0.745336,-0.0902515,0.004165,0.0032439999999999,0.0902515,-0.0041649999999999,-0.003244,-0.2630085,-0.036895,-0.362996,0.2673115,-0.0457949999999999,-0.368646,-0.1345685,-0.4075149999999999,-0.167583,0.1344614999999999,-0.422415,-0.171566,1
163,-0.0027974999999999,0.740445,-0.277206,-0.1380795,0.5277029999999999,-0.2458459999999999,-0.2365495,0.632415,-0.5148159999999999,0.1502805,0.513223,-0.258476,0.2394804999999999,0.638995,-0.503656,-0.2685295,0.7331049999999999,-0.762646,0.2716305,0.7205649999999999,-0.7406360000000001,-0.0903205,0.0034449999999999,0.003721,0.0903205,-0.003445,-0.0037209999999999,-0.2620895,-0.053035,-0.361356,0.2647705,-0.061835,-0.367646,-0.1355195,-0.428585,-0.17009,0.1360605,-0.442145,-0.1737139999999999,1
164,-0.0017669999999999,0.74367,-0.274035,-0.136971,0.52789,-0.243175,-0.2354709999999999,0.63572,-0.511155,0.152109,0.513394,-0.255105,0.240229,0.64203,-0.499795,-0.266671,0.7406900000000001,-0.758065,0.2712489999999999,0.72743,-0.7359049999999999,-0.090479,0.0032699999999999,0.004196,0.090479,-0.0032699999999999,-0.0041959999999999,-0.259011,-0.07035,-0.359175,0.2622489999999999,-0.0798099999999999,-0.366275,-0.135501,-0.4516,-0.1731249999999999,0.138289,-0.46353,-0.176829,1
165,-0.001319,0.745425,-0.2702965,-0.136133,0.530295,-0.2404265,-0.234823,0.638765,-0.5067665,0.1524769999999999,0.512145,-0.2512265,0.2407969999999999,0.646745,-0.4953464999999999,-0.265683,0.747255,-0.7536165,0.2705769999999999,0.731665,-0.7302665,-0.090697,0.003535,0.0044644999999999,0.090697,-0.003535,-0.0044644999999999,-0.254883,-0.089035,-0.3565764999999999,0.259057,-0.098785,-0.3642964999999999,-0.136623,-0.475875,-0.1763345,0.1415369999999999,-0.487135,-0.1822565,1
166,-0.001634,0.75003,-0.265418,-0.136168,0.53508,-0.236968,-0.234848,0.64594,-0.502148,0.152302,0.51431,-0.246718,0.240062,0.6509199999999999,-0.490798,-0.265638,0.75766,-0.747378,0.2690619999999999,0.73953,-0.723968,-0.090932,0.00335,0.0045,0.090932,-0.00335,-0.0045,-0.250548,-0.10604,-0.353918,0.255712,-0.1153799999999999,-0.361788,-0.138478,-0.49847,-0.179868,0.144262,-0.50928,-0.1879279999999999,1
167,-0.0020204999999999,0.753605,-0.259395,-0.1367225,0.538735,-0.233055,-0.2348925,0.652345,-0.496875,0.1525975,0.513395,-0.242325,0.2395775,0.6567149999999999,-0.485605,-0.2651325,0.766375,-0.7393149999999999,0.2676475,0.750915,-0.717455,-0.0908674999999999,0.0038849999999999,0.0046509999999999,0.0908674999999999,-0.003885,-0.004651,-0.2454025,-0.124155,-0.350095,0.2522875,-0.132145,-0.358255,-0.1396025,-0.521815,-0.183705,0.1462775,-0.5313450000000001,-0.193125,1
168,-0.0015165,0.758115,-0.253104,-0.1361035,0.5410349999999999,-0.229204,-0.2339635,0.658705,-0.491304,0.1537764999999999,0.518755,-0.237734,0.2398864999999999,0.664995,-0.479414,-0.2636035,0.778645,-0.732354,0.2671365,0.762895,-0.711184,-0.0908565,0.0033349999999999,0.004612,0.0908565,-0.003335,-0.0046119999999999,-0.2385435,-0.141075,-0.346544,0.2497764999999999,-0.147235,-0.354104,-0.1386335,-0.5449350000000001,-0.185894,0.1484164999999999,-0.5522250000000001,-0.1965839999999999,1
169,-0.001542,0.76448,-0.2437235,-0.1363369999999999,0.54318,-0.2235435,-0.232897,0.6672499999999999,-0.4822435,0.154383,0.52064,-0.2322735,0.239553,0.6742900000000001,-0.4708035,-0.262397,0.79245,-0.7230635000000001,0.265633,0.77794,-0.7008435000000001,-0.090863,0.0032399999999999,0.0047475,0.090863,-0.00324,-0.0047475,-0.230777,-0.16038,-0.3402334999999999,0.2457329999999999,-0.16393,-0.3479535,-0.138307,-0.56959,-0.1869635,0.149503,-0.57436,-0.1976235,1
170,-0.001114,0.77075,-0.232949,-0.136381,0.54646,-0.215809,-0.231621,0.67562,-0.471989,0.155239,0.5272699999999999,-0.224799,0.2395989999999999,0.6848399999999999,-0.462029,-0.260581,0.8079799999999999,-0.711229,0.264289,0.79542,-0.689599,-0.090839,0.0031599999999999,0.004733,0.090839,-0.00316,-0.004733,-0.221321,-0.18156,-0.330889,0.239809,-0.18346,-0.338229,-0.137741,-0.59624,-0.187689,0.150649,-0.59953,-0.198209,1
171,-0.0001039999999999,0.7747250000000001,-0.2201965,-0.1357499999999999,0.547925,-0.2065364999999999,-0.22965,0.683935,-0.4590965,0.1571,0.532655,-0.2154965,0.24008,0.695515,-0.4512965,-0.2576,0.824465,-0.6970365000000001,0.26356,0.814425,-0.6760565000000001,-0.0905,0.002985,0.0041655,0.0905,-0.0029849999999999,-0.0041655,-0.2097,-0.206075,-0.3174765,0.23229,-0.2063749999999999,-0.3237465,-0.13658,-0.625955,-0.1862165,0.15154,-0.6278649999999999,-0.1967465,1
172,0.00103,0.777685,-0.205965,-0.13502,0.5505450000000001,-0.196925,-0.2272799999999999,0.693715,-0.445725,0.15905,0.538955,-0.2063749999999999,0.24095,0.706555,-0.440505,-0.25356,0.842625,-0.681695,0.2630099999999999,0.834965,-0.663255,-0.08997,0.0028549999999999,0.0034819999999999,0.08997,-0.002855,-0.0034819999999999,-0.1979399999999999,-0.228415,-0.303135,0.22429,-0.230915,-0.308275,-0.13515,-0.653505,-0.184875,0.15258,-0.654455,-0.195415,1
173,0.0024275,0.779075,-0.1911795,-0.1344345,0.554345,-0.1870795,-0.2247644999999999,0.704715,-0.4321695,0.1612454999999999,0.545415,-0.1979995,0.2426055,0.7198549999999999,-0.4285695,-0.2492745,0.861575,-0.6646694999999999,0.2627955,0.855205,-0.6492994999999999,-0.0894055,0.0027349999999999,0.0029804999999999,0.0894055,-0.002735,-0.0029804999999999,-0.1863245,-0.249065,-0.2884195,0.2159255,-0.253845,-0.2924195,-0.1334345,-0.6787449999999999,-0.1833995,0.1538455,-0.678255,-0.1939595,1
174,0.003653,0.77935,-0.1763035,-0.133915,0.5594399999999999,-0.1767035,-0.222075,0.71797,-0.4183335,0.162705,0.55017,-0.1900635,0.244465,0.7305,-0.4159335,-0.244975,0.88285,-0.6466035,0.262575,0.87754,-0.6346335,-0.088835,0.00255,0.0024524999999999,0.088835,-0.0025499999999999,-0.0024524999999999,-0.175015,-0.2726,-0.2724335,0.206925,-0.27954,-0.2745035,-0.129705,-0.70284,-0.1790635,0.152915,-0.70077,-0.1873135,1
175,0.0048995,0.778125,-0.1610895,-0.1333985,0.564155,-0.1666005,-0.2192585,0.728745,-0.4047105,0.1642715,0.555785,-0.1819005,0.2463615,0.742615,-0.4021705,-0.2402985,0.901245,-0.6277005,0.2626515,0.896625,-0.6186105,-0.0881815,0.0025049999999999,0.0020974999999999,0.0881815,-0.002505,-0.0020975,-0.1638585,-0.297685,-0.2549504999999999,0.1939914999999999,-0.304625,-0.2503305,-0.1259085,-0.727925,-0.1741105,0.1492315,-0.725855,-0.1754405,1
176,0.0060675,0.7760050000000001,-0.1405664999999999,-0.1331155,0.566665,-0.1512865,-0.2166555,0.739375,-0.3841915,0.1655745,0.562235,-0.1673515,0.2479944999999999,0.753025,-0.3815815,-0.2361755,0.921295,-0.6028614999999999,0.2625645,0.912545,-0.5950415,-0.0875645,0.0018849999999999,0.0020435,0.0875645,-0.0018849999999999,-0.0020435,-0.1535554999999999,-0.321635,-0.2294715,0.1811245,-0.328785,-0.2207515,-0.1224155,-0.752085,-0.1604975,0.1452245,-0.750015,-0.1568985,1
177,0.0073205,0.7790475,-0.120098,-0.1330755,0.5700275,-0.134805,-0.2141354999999999,0.7505075,-0.363427,0.1669244999999999,0.5648974999999999,-0.1506799999999999,0.2500845,0.7615975,-0.361257,-0.2315855,0.9409375,-0.575867,0.2621645,0.9294775,-0.569887,-0.0869245,0.0022114999999999,0.002165,0.0869245,-0.0022115,-0.002165,-0.1429355,-0.3435825,-0.199207,0.1682145,-0.3510525,-0.189587,-0.1184554999999999,-0.7740325,-0.144729,0.1406244999999999,-0.7719625,-0.1374159999999999,1
178,0.0082264999999999,0.779691,-0.1002885,-0.1331225,0.573701,-0.1181485,-0.2126625,0.759391,-0.3427024999999999,0.1679975,0.569801,-0.1339845,0.2524675,0.768201,-0.3412024999999999,-0.2270025,0.957421,-0.5484325,0.2623075,0.941891,-0.5458625,-0.0863375,0.002269,0.0022104999999999,0.0863375,-0.0022689999999999,-0.0022105,-0.1342925,-0.361719,-0.1706925,0.1560575,-0.371939,-0.1591525,-0.1147654999999999,-0.7926289999999999,-0.1278055,0.1346475,-0.791149,-0.1166875,1
179,0.0087899999999999,0.780826,-0.081608,-0.133248,0.575866,-0.10345,-0.211248,0.7674860000000001,-0.322612,0.169152,0.5708359999999999,-0.11848,0.254532,0.7723960000000001,-0.320592,-0.222798,0.972346,-0.521622,0.2623919999999999,0.950856,-0.521602,-0.085772,0.002426,0.0025169999999999,0.085772,-0.0024259999999999,-0.0025169999999999,-0.127918,-0.375254,-0.144682,0.146012,-0.389464,-0.1317269999999999,-0.111503,-0.8059339999999999,-0.111455,0.129132,-0.806114,-0.09606,1
180,0.0089995,0.7829495000000001,-0.0640304999999999,-0.1336135,0.5785195000000001,-0.0903404999999999,-0.2103935,0.7772595,-0.3019285,0.1699065,0.5722195,-0.1042964999999999,0.2559765,0.7765595000000001,-0.3013585,-0.2193335,0.9868295,-0.4952384999999999,0.2618364999999999,0.9610295,-0.4970385,-0.0854465,0.0025765,0.0033375,0.0854465,-0.0025765,-0.0033374999999999,-0.1241135,-0.3834705,-0.1220624999999999,0.1379665,-0.4036205,-0.1083125,-0.1098435,-0.8135905,-0.0962695,0.1240165,-0.8167804999999999,-0.0779265,1
181,0.0090729999999999,0.7859845,-0.047863,-0.134078,0.5808945,-0.07772,-0.210558,0.7850045,-0.282092,0.170172,0.5724845,-0.090015,0.257292,0.7814945,-0.281952,-0.216608,0.9997145,-0.468402,0.261152,0.9706945,-0.470972,-0.085252,0.0025925,0.004281,0.085252,-0.0025924999999999,-0.004281,-0.121338,-0.3918255,-0.100247,0.130932,-0.4179855,-0.085698,-0.1084759999999999,-0.8199355,-0.081096,0.119492,-0.8271455,-0.0612889999999999,1
182,0.0090295,0.789734,-0.030306,-0.1351834999999999,0.582954,-0.0625619999999999,-0.2104935,0.792534,-0.260303,0.1703365,0.572954,-0.075297,0.2580865,0.785724,-0.260993,-0.2132835,1.013154,-0.439423,0.2606565,0.978324,-0.443553,-0.0849595,0.0024199999999999,0.005071,0.0849595,-0.0024199999999999,-0.005071,-0.1190334999999999,-0.401536,-0.077919,0.1247865,-0.433306,-0.062445,-0.1071905,-0.827026,-0.065632,0.1152765,-0.837536,-0.044472,1
183,0.0087794999999999,0.795079,-0.011935,-0.1364505,0.580349,-0.047176,-0.2107905,0.7980389999999999,-0.236973,0.1702995,0.573909,-0.06025,0.2587395,0.790589,-0.238703,-0.2100604999999999,1.026119,-0.408133,0.2597495,0.986019,-0.413473,-0.0846015,0.0022469999999999,0.005788,0.0846015,-0.0022469999999999,-0.005788,-0.1174405,-0.411031,-0.056469,0.1193195,-0.447181,-0.041231,-0.1063435,-0.833221,-0.050766,0.1115095,-0.847681,-0.02919,1
184,0.0084385,0.7999505,0.0070444999999999,-0.1377335,0.5791505,-0.0313635,-0.2113035,0.8037205000000001,-0.2125225,0.1700465,0.5736505000000001,-0.0433545,0.2593165,0.7937305,-0.2154724999999999,-0.2072635,1.0392605,-0.3759225,0.2590265,0.9934405,-0.3822925,-0.0842505,0.0021325,0.0063774999999999,0.0842505,-0.0021324999999999,-0.0063774999999999,-0.1165634999999999,-0.4208595,-0.0367675,0.1178165,-0.4575895,-0.0263495,-0.1057485,-0.8391695,-0.0364835,0.1107065,-0.8569095,-0.0196065,1
185,0.0083019999999999,0.8056764999999999,0.020286,-0.138823,0.5797365,-0.021827,-0.211633,0.8103165,-0.194362,0.169967,0.5745564999999999,-0.032901,0.260097,0.7977065,-0.198962,-0.204663,1.0527365,-0.350302,0.258397,1.0014565,-0.357932,-0.083899,0.0021434999999999,0.006612,0.083899,-0.0021434999999999,-0.006612,-0.115903,-0.4284934999999999,-0.02643,0.116487,-0.4660735,-0.017826,-0.104984,-0.8431835000000001,-0.0305519999999999,0.110147,-0.8637635,-0.016738,1
186,0.0079785,0.8065465,0.0336435,-0.1397364999999999,0.5804665,-0.0137844999999999,-0.2119865,0.8161265000000001,-0.1771985,0.1699435,0.5744265000000001,-0.0251015,0.2602835,0.8023965000000001,-0.1821985,-0.2029165,1.0632965,-0.3257585,0.2578035,1.0100465,-0.3344985,-0.0837285,0.0021364999999999,0.0066145,0.0837285,-0.0021364999999999,-0.0066145,-0.1158165,-0.4330335,-0.0209064999999999,0.1152435,-0.4708835,-0.0116465,-0.1047425,-0.8468335,-0.0271435,0.1095935,-0.8700235,-0.0142044999999999,1
187,0.0073029999999999,0.8070395,0.0458574999999999,-0.140779,0.5814195000000001,-0.0069565,-0.2124889999999999,0.8221595,-0.1620955,0.169801,0.5735995,-0.0178225,0.260151,0.8067695,-0.1666755,-0.202039,1.0742695,-0.3028455,0.257321,1.0188695,-0.3120155,-0.083714,0.0021234999999999,0.0066714999999999,0.083714,-0.0021235,-0.0066715,-0.115879,-0.4363705,-0.0160915,0.114311,-0.4754005,-0.0059125,-0.104686,-0.8498605,-0.0240144999999999,0.109431,-0.8731504999999999,-0.0118155,1
188,0.0064964999999999,0.807031,0.0578665,-0.1418585,0.582881,-8.850000000000004e-05,-0.2132985,0.828341,-0.1474985,0.1696015,0.572621,-0.0113125,0.2600915,0.811091,-0.1522785,-0.2015785,1.083661,-0.2812185,0.2570015,1.027161,-0.2913185,-0.0836665,0.002087,0.0066494999999999,0.0836665,-0.002087,-0.0066495,-0.1158785,-0.439229,-0.0120575,0.1136715,-0.4794489999999999,-0.0007655,-0.1046365,-0.8525889999999999,-0.0211065,0.1093015,-0.875819,-0.0094825,1
189,0.0060005,0.8080835000000001,0.0694495,-0.1424935,0.5841835000000001,0.0066494999999999,-0.2134235,0.8331535,-0.1356775,0.1699665,0.5715235000000001,-0.0054535,0.2605265,0.8163135,-0.1394274999999999,-0.2011135,1.0927035,-0.2612875,0.2570065,1.0331035,-0.2735875,-0.0832335,0.0022414999999999,0.0066564999999999,0.0832335,-0.0022415,-0.0066564999999999,-0.1163734999999999,-0.4407865,-0.0091235,0.1134565,-0.4820765,0.0035765,-0.1044365,-0.8542664999999999,-0.0183585,0.1096665,-0.8774664999999999,-0.0072345,1
190,0.0050259999999999,0.8082855,0.081324,-0.143299,0.5859755,0.0131729999999999,-0.213619,0.8368555,-0.124053,0.170311,0.5705055,-0.000135,0.260671,0.8182955,-0.127993,-0.201029,1.0998355000000002,-0.2432229999999999,0.256931,1.0387355,-0.258353,-0.082848,0.0022395,0.0065289999999999,0.082848,-0.0022395,-0.006529,-0.116869,-0.4420845,-0.006761,0.113231,-0.4852145,0.0070249999999999,-0.104255,-0.8553845,-0.015825,0.110031,-0.8798145,-0.005197,1
191,0.0038005,0.8077150000000001,0.0910624999999999,-0.1433755,0.586125,0.0165805,-0.2139555,0.838975,-0.1145065,0.1706145,0.5698150000000001,0.0046894999999999,0.2608145,0.819325,-0.1188365,-0.2010755,1.104005,-0.2289564999999999,0.2569845,1.043505,-0.2466964999999999,-0.0825694999999999,0.002183,0.0064065,0.0825694999999999,-0.0021829999999999,-0.0064065,-0.1172255,-0.443065,-0.0057475,0.1130645,-0.487745,0.0086695,-0.1039934999999999,-0.8561949999999999,-0.0139044999999999,0.1104344999999999,-0.881625,-0.0039015,1
192,0.002405,0.8074705,0.0994289999999999,-0.143405,0.5866305,0.019089,-0.214645,0.8404305,-0.107224,0.170855,0.5697105,0.008917,0.261115,0.8201205,-0.111624,-0.200905,1.1067805,-0.218114,0.257415,1.0472805,-0.238064,-0.0823039999999999,0.0021964999999999,0.006238,0.0823039999999999,-0.0021964999999999,-0.0062379999999999,-0.117535,-0.4433494999999999,-0.004947,0.113075,-0.4889394999999999,0.009551,-0.103603,-0.8568994999999999,-0.012749,0.110925,-0.8825695,-0.002858,1
193,0.0009855,0.8073845000000001,0.1061305,-0.1435654999999999,0.5870845,0.0211925,-0.2150455,0.8413845,-0.1015455,0.1709345,0.5693145000000001,0.0106295,0.2617245,0.8210945000000001,-0.1067255,-0.2007054999999999,1.1084744999999998,-0.2104855,0.2576945,1.0502745,-0.2325054999999999,-0.0821455,0.0022265,0.0060504999999999,0.0821455,-0.0022264999999999,-0.0060505,-0.1176655,-0.4430455,-0.0042705,0.1131345,-0.4900655,0.0102345,-0.1032625,-0.8571354999999999,-0.0117314999999999,0.1113445,-0.8830055,-0.0020315,1
194,-0.000501,0.8072935,0.112458,-0.14412,0.5876335,0.023881,-0.21547,0.8414835,-0.097029,0.17101,0.5689435,0.012378,0.26263,0.8216635,-0.1024989999999999,-0.20102,1.1091935,-0.204149,0.2580699999999999,1.0525935,-0.227799,-0.082013,0.0022044999999999,0.0058379999999999,0.082013,-0.0022045,-0.0058379999999999,-0.11768,-0.4430765,-0.003525,0.1131099999999999,-0.4903565,0.01098,-0.102825,-0.8573565,-0.010776,0.11187,-0.8831264999999999,-0.0011789999999999,1
195,-0.00195,0.80745,0.1182495,-0.144754,0.58816,0.0266095,-0.215774,0.84139,-0.0930304999999999,0.171116,0.5686599999999999,0.0141005,0.263706,0.82199,-0.0993505,-0.2015239999999999,1.10998,-0.1987705,0.258526,1.05308,-0.2238305,-0.081888,0.0020879999999999,0.0057035,0.081888,-0.0020879999999999,-0.0057035,-0.117554,-0.44339,-0.0037715,0.1135859999999999,-0.4906,0.0117435,-0.102311,-0.85745,-0.0098184999999999,0.1124759999999999,-0.88344,-0.0004104999999999,1
196,-0.00333,0.807591,0.1235349999999999,-0.145474,0.5886309999999999,0.0293189999999999,-0.216054,0.8411409999999999,-0.089565,0.171176,0.5684009999999999,0.015902,0.2646759999999999,0.8219609999999999,-0.096625,-0.202184,1.110021,-0.194485,0.259036,1.0534210000000002,-0.221485,-0.081801,0.001975,0.0054979999999999,0.081801,-0.001975,-0.005498,-0.117394,-0.443359,-0.004073,0.1140559999999999,-0.490919,0.0123969999999999,-0.101745,-0.8575590000000001,-0.008895,0.113026,-0.8835890000000001,0.0003829999999999,1
197,-0.004561,0.8078685,0.1284365,-0.146168,0.5889885,0.0318834999999999,-0.2164879999999999,0.8409584999999999,-0.0866235,0.171252,0.5682185,0.0176074999999999,0.2655519999999999,0.8218084999999999,-0.0944235,-0.202848,1.1099385000000002,-0.1909835,0.2595719999999999,1.0537385,-0.2193035,-0.081726,0.0018895,0.0053014999999999,0.081726,-0.0018894999999999,-0.0053015,-0.117178,-0.4434815,-0.0043085,0.114572,-0.4907615,0.0128805,-0.1011509999999999,-0.8578315,-0.0081025,0.1135819999999999,-0.8837715,0.0011725,1
198,-0.005555,0.808156,0.132538,-0.146929,0.589346,0.0343809999999999,-0.216989,0.840796,-0.084132,0.171291,0.568076,0.0191929999999999,0.266231,0.821646,-0.092342,-0.203569,1.109776,-0.188112,0.260091,1.052276,-0.217142,-0.081675,0.001792,0.005053,0.081675,-0.001792,-0.005053,-0.1169689999999999,-0.443364,-0.004566,0.1151109999999999,-0.491494,0.013323,-0.100603,-0.858024,-0.0073119999999999,0.1140009999999999,-0.884124,0.0018589999999999,1
199,-0.0062879999999999,0.8086605,0.135608,-0.1476009999999999,0.5896905,0.036736,-0.217491,0.8406104999999999,-0.082092,0.171049,0.5681105,0.021218,0.2668089999999999,0.8215604999999999,-0.090322,-0.204381,1.1096905,-0.185652,0.260609,1.0525905,-0.215102,-0.081633,0.0017744999999999,0.0048,0.081633,-0.0017745,-0.0047999999999999,-0.116811,-0.4430395,-0.0045439999999999,0.115609,-0.4915795,0.013726,-0.100048,-0.8580995,-0.0065509999999999,0.114429,-0.8843095000000001,0.0024209999999999,1
200,-0.0068644999999999,0.809275,0.1382865,-0.1482595,0.590035,0.0390245,-0.2179295,0.8402850000000001,-0.0805034999999999,0.1707205,0.568235,0.0233135,0.2673605,0.821495,-0.0886935,-0.2051394999999999,1.109625,-0.1836435,0.2611505,1.052525,-0.2132635,-0.0816055,0.001751,0.0045495,0.0816055,-0.001751,-0.0045495,-0.1166794999999999,-0.442625,-0.0045744999999999,0.1160905,-0.491645,0.0141125,-0.0994765,-0.858185,-0.0057385,0.1148605,-0.8845149999999999,0.0028345,1
201,-0.0071854999999999,0.8098985,0.1401669999999999,-0.1488875,0.5903385,0.0411959999999999,-0.2183675,0.8399785,-0.079105,0.1703625,0.5684285,0.025407,0.2679425,0.8213785,-0.087523,-0.2058475,1.1093985000000002,-0.181993,0.2617325,1.0524985,-0.211893,-0.0815825,0.0017275,0.004295,0.0815825,-0.0017274999999999,-0.004295,-0.1165175,-0.4421515,-0.004614,0.1165625,-0.4916715,0.0143949999999999,-0.0989375,-0.8582115,-0.005033,0.1153125,-0.8846615,0.0032519999999999,1
202,-0.0073824999999999,0.8099284999999999,0.1420155,-0.1493265,0.5903385,0.0432265,-0.2187465,0.8397485,-0.0778685,0.1700935,0.5684184999999999,0.0274615,0.2686035,0.8212484999999999,-0.0864245,-0.2064665,1.1088985,-0.1804845,0.2622235,1.0524985,-0.2106845,-0.0815345,0.0017275,0.0040535,0.0815345,-0.0017274999999999,-0.0040534999999999,-0.1162665,-0.4417815,-0.0046494999999999,0.1171035,-0.4914415,0.0146125,-0.0982994999999999,-0.8584215000000001,-0.0043524999999999,0.1158434999999999,-0.8847815,0.0035795,1
203,-0.0072615,0.809669,0.1434645,-0.1492675,0.590369,0.0445475,-0.2190375,0.839659,-0.0769895,0.1694325,0.568429,0.0298065,0.2691925,0.820689,-0.0855355,-0.2069575,1.108229,-0.1792855,0.2628325,1.051529,-0.2098655,-0.0814785,0.0016969999999999,0.0038434999999999,0.0814785,-0.001697,-0.0038434999999999,-0.1159875,-0.441331,-0.0046574999999999,0.1176825,-0.491411,0.0148165,-0.0976485,-0.858781,-0.0037445,0.1163625,-0.884911,0.0038865,1
204,-0.0070564999999999,0.8093415,0.1449165,-0.1489995,0.5903915000000001,0.0457095,-0.2193195,0.8396215,-0.0761675,0.1688605,0.5684515,0.0321215,0.2697605,0.8200415000000001,-0.0847235,-0.2073595,1.1075515,-0.1781435,0.2634805,1.0507514999999998,-0.2091635,-0.0814415,0.0016744999999999,0.0036465,0.0814415,-0.0016745,-0.0036464999999999,-0.1156495,-0.4413085,-0.0045204999999999,0.1182805,-0.4913885,0.0151455,-0.0968955,-0.8592584999999999,-0.0031414999999999,0.1168905,-0.8850585,0.0042295,1
205,-0.0067459999999999,0.8093729999999999,0.1462155,-0.148557,0.590723,0.0468755,-0.219557,0.8396129999999999,-0.0751675,0.168443,0.5687829999999999,0.0344644999999999,0.270243,0.819503,-0.0839045,-0.2078269999999999,1.107513,-0.1769645,0.264073,1.050213,-0.2084445,-0.081408,0.0016969999999999,0.0035274999999999,0.081408,-0.0016969999999999,-0.0035274999999999,-0.115257,-0.440847,-0.0044725,0.118963,-0.490927,0.0154124999999999,-0.0960179999999999,-0.8596370000000001,-0.0026115,0.117533,-0.8851070000000001,0.0046574999999999,1
206,-0.0064405,0.8096805,0.1473795,-0.1479815,0.5908005000000001,0.0480325,-0.2197615,0.8395805000000001,-0.0741345,0.1681285,0.5691005,0.0368285,0.2707085,0.8189705,-0.0830605,-0.2081615,1.1074805,-0.1757405,0.2647185,1.0497805,-0.2076704999999999,-0.0813754999999999,0.0017644999999999,0.0034584999999999,0.0813754999999999,-0.0017644999999999,-0.0034584999999999,-0.1148515,-0.4400495,-0.0043895,0.1196785,-0.4905195,0.0156924999999999,-0.0950225,-0.8600795,-0.0020625,0.1181685,-0.8851595,0.0051594999999999,1
207,-0.0054314999999999,0.811333,0.1481555,-0.1480005,0.5906429999999999,0.0495985,-0.2199705,0.8396129999999999,-0.0730715,0.1676095,0.569403,0.0394085,0.2710095,0.818263,-0.0822445,-0.2084205,1.107583,-0.1746444999999999,0.2654695,1.049383,-0.2069245,-0.0813375,0.001831,0.0034364999999999,0.0813375,-0.0018309999999999,-0.0034365,-0.1145104999999999,-0.439297,-0.0043535,0.1204095,-0.490337,0.0159785,-0.0939905,-0.860487,-0.0015255,0.1189095,-0.8851870000000001,0.0057394999999999,1
