sb224sc-HT22-VT27/4dt907/src/data/labeled_files/A85_kinect.csv
FrameNo,nose_3d_x,nose_3d_y,nose_3d_z,left_shoulder_3d_x,left_shoulder_3d_y,left_shoulder_3d_z,left_elbow_3d_x,left_elbow_3d_y,left_elbow_3d_z,right_shoulder_3d_x,right_shoulder_3d_y,right_shoulder_3d_z,right_elbow_3d_x,right_elbow_3d_y,right_elbow_3d_z,left_wrist_3d_x,left_wrist_3d_y,left_wrist_3d_z,right_wrist_3d_x,right_wrist_3d_y,right_wrist_3d_z,left_hip_3d_x,left_hip_3d_y,left_hip_3d_z,right_hip_3d_x,right_hip_3d_y,right_hip_3d_z,left_knee_3d_x,left_knee_3d_y,left_knee_3d_z,right_knee_3d_x,right_knee_3d_y,right_knee_3d_z,left_ankle_3d_x,left_ankle_3d_y,left_ankle_3d_z,right_ankle_3d_x,right_ankle_3d_y,right_ankle_3d_z,activity_label
0,-0.019433,0.7828565000000001,0.10205,-0.172813,0.5789265,0.078154,-0.2408829999999999,0.8437165000000001,-0.0263449999999999,0.166067,0.5708065000000001,0.088304,0.278307,0.8057665,0.016849,-0.247453,1.1177365,-0.1038559999999999,0.306247,1.0392365,-0.0775759999999999,-0.081657,0.0016714999999999,0.002757,0.081657,-0.0016714999999999,-0.0027569999999999,-0.113853,-0.4437735,-0.0140319999999999,0.118057,-0.4879035,0.027248,-0.0956299999999999,-0.8643835,0.017235,0.118557,-0.8903135,0.043367,0
1,-0.0189294999999999,0.7828765,0.102052,-0.1730245,0.5791665,0.079205,-0.2408545,0.8435465,-0.026768,0.1663955,0.5706465000000001,0.08768,0.2787854999999999,0.8054365,0.017176,-0.2471145,1.1216265,-0.104736,0.3068055,1.0390265,-0.077856,-0.0816395,0.0015275,0.002895,0.0816395,-0.0015275,-0.0028949999999999,-0.1133845,-0.4439435,-0.0145529999999999,0.1185654999999999,-0.4878535,0.026801,-0.0956605,-0.8624535,0.016385,0.1181655,-0.8912635,0.043866,0
2,-0.0188615,0.7830455,0.1016805,-0.1733025,0.5785055,0.0772875,-0.2409825,0.8434754999999999,-0.0270055,0.1664175,0.5709555,0.0871514999999999,0.2788375,0.8056755,0.0169925,-0.2468725,1.1214655,-0.1054035,0.3070775,1.0391655,-0.0780535,-0.0816445,0.0014775,0.0030225,0.0816445,-0.0014775,-0.0030224999999999,-0.1133125,-0.4436645,-0.0151024999999999,0.1186475,-0.4874145,0.0263875,-0.0948975,-0.8627745,0.0161685,0.1182875,-0.8910445,0.0434985,0
3,-0.0189475,0.7824935000000001,0.1011495,-0.1732165,0.5790035,0.0781525,-0.2409565,0.8434735,-0.0276555,0.1669535,0.5703435,0.0876325,0.2792834999999999,0.8055735,0.0165485,-0.2481965,1.1214235,-0.1062505,0.3075434999999999,1.0390235,-0.0785805,-0.0815195,0.0013185,0.0027264999999999,0.0815195,-0.0013185,-0.0027264999999999,-0.1129565,-0.4438864999999999,-0.0158174999999999,0.1181434999999999,-0.4916764999999999,0.0264025,-0.0943995,-0.8629665,0.0155185,0.1183035,-0.8906465,0.0434835,0
4,-0.0189764999999999,0.782841,0.100687,-0.1730365,0.580351,0.078408,-0.2413465,0.844351,-0.028359,0.1670035,0.570471,0.088444,0.2793335,0.8058109999999999,0.0162179999999999,-0.2478665,1.122591,-0.1057719999999999,0.3076835,1.039291,-0.078972,-0.0815185,0.001196,0.0028539999999999,0.0815185,-0.001196,-0.002854,-0.1128964999999999,-0.447499,-0.015745,0.1176535,-0.494949,0.0263579999999999,-0.0946485,-0.861939,0.0152759999999999,0.1182635,-0.890339,0.04285,0
5,-0.0181189999999999,0.781569,0.10517,-0.172084,0.5803389999999999,0.082184,-0.241014,0.844649,-0.023473,0.167816,0.569739,0.092467,0.280516,0.805959,0.020416,-0.246654,1.123129,-0.1000519999999999,0.308766,1.039929,-0.073282,-0.081549,0.001447,0.002814,0.081549,-0.001447,-0.0028139999999999,-0.112394,-0.446071,-0.0198329999999999,0.118236,-0.494841,0.022417,-0.094029,-0.861291,0.009325,0.118536,-0.891101,0.036374,0
6,-0.0176755,0.7819324999999999,0.1056075,-0.1717305,0.5802625,0.0825315,-0.2412105,0.8444225,-0.0231175,0.1677794999999999,0.5696724999999999,0.0929275,0.2812095,0.8057825,0.0201085,-0.2461105,1.1228925,-0.0997415,0.3094295,1.0401925,-0.0732615,-0.0817865,0.0015545,0.0032195,0.0817865,-0.0015545,-0.0032195,-0.1123305,-0.4508974999999999,-0.0185094999999999,0.1190195,-0.4901174999999999,0.0223175,-0.0939605,-0.8642075,0.0081945,0.1186595,-0.8909375,0.0361705,0
7,-0.018401,0.7814745000000001,0.1046015,-0.172455,0.5800945000000001,0.0817485,-0.241485,0.8444645000000001,-0.0237155,0.167385,0.5696645,0.0901905,0.280835,0.8052645,0.0200585,-0.246585,1.1229345,-0.1000295,0.309235,1.0407345,-0.0734995,-0.081652,0.0013325,0.0031065,0.081652,-0.0013325,-0.0031064999999999,-0.112265,-0.4487755,-0.0185245,0.1191349999999999,-0.4910354999999999,0.0221705,-0.0940179999999999,-0.8646055,0.0097455,0.1192749999999999,-0.8917455,0.0370755,0
8,-0.0184605,0.7812175,0.105206,-0.1724075,0.5803375000000001,0.082344,-0.2417175,0.8446675,-0.022822,0.1675424999999999,0.5695075,0.0903249999999999,0.2810525,0.8051775,0.020988,-0.2466475,1.1237374999999998,-0.098571,0.3095225,1.0411374999999998,-0.072081,-0.0816655,0.0012774999999999,0.0031759999999999,0.0816655,-0.0012775,-0.0031759999999999,-0.1120575,-0.4488425,-0.019108,0.1193625,-0.4912824999999999,0.0214849999999999,-0.0938475,-0.8648625,0.0087409999999999,0.1195324999999999,-0.8919625,0.036042,0
9,-0.0185175,0.7809995,0.1058765,-0.1723175,0.5806095,0.0829585,-0.2419575,0.8448695,-0.0218435,0.1677225,0.5693395,0.0903445,0.2812825,0.8050695,0.0219895,-0.2466575,1.1241095,-0.0969875,0.3098425,1.0416095,-0.0705675,-0.0816635,0.0012355,0.0032384999999999,0.0816635,-0.0012355,-0.0032384999999999,-0.1118175,-0.4484705,-0.0196505,0.1196624999999999,-0.4911905,0.0208455,-0.0936025,-0.8653105,0.0078225,0.1199124999999999,-0.8918605,0.0349415,0
10,-0.018466,0.7810145,0.1060885,-0.172205,0.5806245,0.0832735,-0.242145,0.8448845,-0.0213635,0.167885,0.5693545,0.0899675,0.2814149999999999,0.8050845,0.0227235,-0.246675,1.1241245000000002,-0.0959094999999999,0.3100549999999999,1.0416245000000002,-0.0696195,-0.081665,0.0012205,0.0033214999999999,0.081665,-0.0012204999999999,-0.0033214999999999,-0.111585,-0.4484555,-0.0202434999999999,0.119875,-0.4921855,0.0203395,-0.09347,-0.8657655,0.0074415,0.120235,-0.8918455,0.0342565,0
11,-0.018535,0.7810145,0.106244,-0.172088,0.5806245,0.083072,-0.242348,0.8448845,-0.021013,0.167932,0.5693545,0.089703,0.2814919999999999,0.8050845,0.023502,-0.246638,1.1241245000000002,-0.094844,0.310092,1.0416245000000002,-0.068574,-0.081639,0.0012205,0.00336,0.081639,-0.0012204999999999,-0.00336,-0.111378,-0.4484555,-0.020438,0.120082,-0.4921855,0.020095,-0.093263,-0.8657655,0.0071969999999999,0.120442,-0.8918455,0.034012,0
12,-0.0186364999999999,0.7810145,0.1064805,-0.1720085,0.5806245,0.0828875,-0.2425485,0.8448845,-0.0206444999999999,0.1679615,0.5693545,0.0894495,0.2815615,0.8050845,0.0243095,-0.2465985,1.1241245000000002,-0.0938054999999999,0.3101215,1.0416245000000002,-0.0674955,-0.0816095,0.0012205,0.0033854999999999,0.0816095,-0.0012204999999999,-0.0033854999999999,-0.1111785,-0.4484555,-0.0206695,0.1202815,-0.4921855,0.0198635,-0.0930635,-0.8657655,0.0069655,0.1206415,-0.8918455,0.0337805,0
13,-0.0187864999999999,0.780951,0.1066815,-0.1719845,0.580771,0.0827155,-0.2427245,0.845041,-0.0202854999999999,0.1680455,0.569251,0.0891245,0.2815555,0.805031,0.0251345,-0.2466845,1.124461,-0.0927704999999999,0.3101655,1.042061,-0.0664005,-0.0815735,0.0011459999999999,0.0034055,0.0815735,-0.001146,-0.0034054999999999,-0.1110045,-0.448079,-0.0206274999999999,0.1204355,-0.4913389999999999,0.0195905,-0.0928594999999999,-0.865929,0.0068045,0.1209555,-0.891519,0.0337495,0
14,-0.0189529999999999,0.780899,0.106968,-0.1721089999999999,0.5807089999999999,0.082581,-0.242999,0.845139,-0.0199159999999999,0.167961,0.569279,0.088783,0.281291,0.8051889999999999,0.025903,-0.246889,1.1247090000000002,-0.091778,0.310021,1.042609,-0.065299,-0.081555,0.001085,0.0034059999999999,0.081555,-0.0010849999999999,-0.0034059999999999,-0.110789,-0.448041,-0.0208129999999999,0.120521,-0.492081,0.01938,-0.092709,-0.866051,0.007022,0.121491,-0.891061,0.033687,0
15,-0.019053,0.780886,0.107203,-0.172164,0.5806359999999999,0.082501,-0.243274,0.845226,-0.019677,0.167866,0.5693159999999999,0.088554,0.2809959999999999,0.805346,0.026712,-0.246854,1.124866,-0.0908509999999999,0.309846,1.043366,-0.064188,-0.081535,0.001026,0.003395,0.081535,-0.0010259999999999,-0.0033949999999999,-0.110564,-0.448004,-0.0209489999999999,0.120596,-0.492774,0.019228,-0.09255,-0.866174,0.007207,0.1220759999999999,-0.890594,0.033567,0
16,-0.0189684999999999,0.780937,0.1074705,-0.1721185,0.580577,0.0822305,-0.2432885,0.845267,-0.0195045,0.1677215,0.569387,0.0884315,0.2806315,0.805597,0.0274085,-0.2468185,1.124967,-0.0901455,0.3096615,1.043967,-0.0633675,-0.0815145,0.000989,0.0033495,0.0815145,-0.000989,-0.0033494999999999,-0.1103784999999999,-0.447813,-0.0210064999999999,0.1206315,-0.4933330000000001,0.0191745,-0.0924345,-0.866163,0.0074765,0.1225515,-0.890073,0.0334685,0
17,-0.018895,0.781009,0.107647,-0.17204,0.580539,0.081934,-0.24322,0.845319,-0.0194089999999999,0.1675499999999999,0.569469,0.08841,0.28028,0.805909,0.027919,-0.2468,1.125169,-0.08961,0.30946,1.044469,-0.0626009999999999,-0.081505,0.000953,0.003301,0.081505,-0.0009529999999999,-0.0033009999999999,-0.11023,-0.447711,-0.020952,0.12065,-0.494321,0.019369,-0.092346,-0.866191,0.007762,0.12296,-0.889481,0.033447,0
18,-0.0188834999999999,0.781081,0.107918,-0.1719925,0.580531,0.08193,-0.2432025,0.845491,-0.019197,0.1673675,0.569571,0.088467,0.2798875,0.806351,0.028435,-0.2466625,1.125481,-0.088904,0.3090975,1.044881,-0.0617049999999999,-0.0815105,0.0009489999999999,0.003232,0.0815105,-0.000949,-0.0032319999999999,-0.1100925,-0.447419,-0.0210069999999999,0.1206275,-0.494899,0.019547,-0.0922795,-0.866239,0.008006,0.1232775,-0.888849,0.033487,0
19,-0.018827,0.7811610000000001,0.1082225,-0.171936,0.580501,0.0817485,-0.243226,0.845701,-0.0187914999999999,0.1672239999999999,0.569721,0.0883575,0.279414,0.807031,0.0290235,-0.246076,1.125781,-0.0878405,0.308444,1.045681,-0.0602625,-0.081511,0.0009259999999999,0.0031405,0.081511,-0.0009259999999999,-0.0031404999999999,-0.110006,-0.447269,-0.0209885,0.1206339999999999,-0.495699,0.0197575,-0.092191,-0.866289,0.0082465,0.123524,-0.888269,0.0337665,0
20,-0.0185375,0.7813654999999999,0.108683,-0.1719245,0.5805254999999999,0.081622,-0.2432945,0.8459455,-0.018274,0.1670955,0.5698655,0.088337,0.2788454999999999,0.8077455,0.029751,-0.2453745,1.1261755,-0.0865209999999999,0.3076755,1.0465755,-0.0587529999999999,-0.0814995,0.0008955,0.00305,0.0814995,-0.0008954999999999,-0.0030499999999999,-0.1099145,-0.4481445,-0.020981,0.1206255,-0.4965445,0.019959,-0.0920914999999999,-0.8664045,0.008476,0.1237355,-0.8877445,0.034083,0
21,-0.0181544999999999,0.781593,0.109077,-0.1718315,0.580403,0.081131,-0.2432715,0.846263,-0.017618,0.1669385,0.570033,0.088426,0.2782584999999999,0.808473,0.030497,-0.2446315,1.126663,-0.085159,0.3067985,1.0474629999999998,-0.0572299999999999,-0.0814864999999999,0.0008599999999999,0.0029519999999999,0.0814864999999999,-0.0008599999999999,-0.002952,-0.1098115,-0.448727,-0.020994,0.1206585,-0.4972769999999999,0.020182,-0.0920645,-0.866387,0.008597,0.1239484999999999,-0.887447,0.034444,0
22,-0.0176459999999999,0.7818505,0.1095965,-0.171699,0.5801205,0.0805445,-0.243229,0.8464605000000001,-0.0168564999999999,0.166761,0.5702005,0.0888095,0.277601,0.8091605000000001,0.0313585,-0.243759,1.1270305,-0.0835974999999999,0.305881,1.0483304999999998,-0.0556905,-0.0814759999999999,0.0008705,0.0028645,0.0814759999999999,-0.0008704999999999,-0.0028644999999999,-0.109689,-0.4492095,-0.0210985,0.1206909999999999,-0.4979794999999999,0.0205185,-0.092024,-0.8663295,0.0088985,0.123921,-0.8873694999999999,0.0348625,0
23,-0.0170575,0.7821729999999999,0.1101605,-0.1715835,0.5800029999999999,0.0801875,-0.2431134999999999,0.8467129999999999,-0.0160035,0.1666865,0.570283,0.0893404999999999,0.2771165,0.809743,0.0324795,-0.2428035,1.127413,-0.0817985,0.3050664999999999,1.049213,-0.0539015,-0.0814604999999999,0.0009269999999999,0.0027274999999999,0.0814604999999999,-0.0009269999999999,-0.0027275,-0.1096435,-0.448627,-0.0211035,0.1207465,-0.498057,0.0208954999999999,-0.0919885,-0.866257,0.0090704999999999,0.1238865,-0.8873070000000001,0.0350185,0
24,-0.016492,0.7825135,0.1107925,-0.171492,0.5798835,0.0797775,-0.242942,0.8469235,-0.0151354999999999,0.166568,0.5703635,0.0899935,0.276588,0.8103035,0.0336405,-0.241822,1.1278935,-0.0799255,0.304188,1.0501935,-0.0520625,-0.081457,0.0009804999999999,0.0025605,0.081457,-0.0009805,-0.0025605,-0.109602,-0.4483065,-0.0210915,0.120808,-0.4981565,0.0211015,-0.09201,-0.8661765,0.0091845,0.123898,-0.8873065,0.0351795,0
25,-0.0159689999999999,0.7828265,0.111371,-0.17148,0.5800164999999999,0.0793359999999999,-0.24273,0.8472265,-0.014283,0.1663,0.5704465,0.0909669999999999,0.27596,0.8108865,0.0350609999999999,-0.24084,1.1283565,-0.078174,0.30313,1.0515565,-0.049781,-0.081464,0.0010144999999999,0.0023489999999999,0.081464,-0.0010144999999999,-0.002349,-0.1096,-0.4479435,-0.020935,0.1208,-0.4974835,0.0213659999999999,-0.09204,-0.8658835,0.0093389999999999,0.12388,-0.8873335,0.035411,0
26,-0.0153085,0.7831079999999999,0.112191,-0.1714575,0.5802579999999999,0.079014,-0.2424475,0.8475779999999999,-0.013235,0.1659625,0.570568,0.092092,0.2752124999999999,0.811438,0.03674,-0.2398075,1.128808,-0.07635,0.3019524999999999,1.053008,-0.047398,-0.0814545,0.0010439999999999,0.0021089999999999,0.0814545,-0.0010439999999999,-0.0021089999999999,-0.1096575,-0.4476719999999999,-0.020988,0.1206225,-0.497152,0.021525,-0.0921435,-0.865662,0.0094169999999999,0.1236725,-0.887252,0.0357,0
27,-0.0146819999999999,0.783459,0.113068,-0.171414,0.580479,0.078501,-0.242174,0.847799,-0.012179,0.165626,0.570689,0.093228,0.274376,0.811899,0.038596,-0.239154,1.129139,-0.074856,0.300936,1.054539,-0.0448359999999999,-0.08143,0.001045,0.001853,0.08143,-0.001045,-0.001853,-0.1097239999999999,-0.447511,-0.0210059999999999,0.120426,-0.496751,0.021693,-0.092258,-0.865501,0.009516,0.123486,-0.887201,0.036012,0
28,-0.0142549999999999,0.7838475,0.11384,-0.171476,0.5800875,0.0778389999999999,-0.241976,0.8476875,-0.011476,0.1652539999999999,0.5708274999999999,0.094369,0.273524,0.8121674999999999,0.040271,-0.238876,1.1290375,-0.073774,0.299994,1.0560375,-0.0427699999999999,-0.081409,0.0010685,0.001589,0.081409,-0.0010685,-0.001589,-0.109746,-0.4476025,-0.021105,0.120364,-0.4976525,0.021971,-0.092372,-0.8656325,0.009644,0.123254,-0.8874425,0.036441,0
29,-0.0140734999999999,0.7841024999999999,0.114535,-0.1716115,0.5796825,0.0771,-0.2418815,0.8475824999999999,-0.0107669999999999,0.1648285,0.5710124999999999,0.095583,0.2726585,0.8124125,0.0419299999999999,-0.2387615,1.1289525,-0.0728119999999999,0.2990685,1.0575525,-0.040684,-0.0813555,0.0011315,0.001243,0.0813555,-0.0011314999999999,-0.001243,-0.1098514999999999,-0.4480075,-0.021061,0.1202385,-0.4985375,0.0223239999999999,-0.0925775,-0.8656675,0.0098859999999999,0.1229785,-0.8876475,0.036753,0
30,-0.0139445,0.784378,0.115275,-0.1717385,0.578988,0.076353,-0.2418385,0.847438,-0.010313,0.1644215,0.571188,0.096745,0.2717715,0.812728,0.043728,-0.2386985,1.128898,-0.071953,0.2981415,1.059698,-0.038324,-0.0812995,0.0012039999999999,0.000904,0.0812995,-0.001204,-0.000904,-0.1099285,-0.447792,-0.021049,0.1201815,-0.498832,0.022693,-0.0927775,-0.865692,0.010208,0.1227215,-0.8877820000000001,0.037064,0
31,-0.013935,0.7846169999999999,0.1160725,-0.1718879999999999,0.578417,0.0757144999999999,-0.241778,0.8473069999999999,-0.0100045,0.164152,0.5714969999999999,0.0977195,0.270872,0.813117,0.0457524999999999,-0.238698,1.128767,-0.0713575,0.297162,1.061667,-0.0353135,-0.081246,0.0012599999999999,0.0005594999999999,0.081246,-0.0012599999999999,-0.0005595,-0.109978,-0.4478229999999999,-0.0210435,0.120112,-0.498893,0.0230524999999999,-0.092957,-0.865703,0.0104604999999999,0.122462,-0.887823,0.0372814999999999,0
32,-0.0140025,0.7848115,0.116868,-0.1720585,0.5779515000000001,0.074953,-0.2417685,0.8472115,-0.0098269999999999,0.1638515,0.5718115,0.098651,0.2700115,0.8135515000000001,0.047623,-0.2387584999999999,1.1286615,-0.071182,0.2962915,1.0633614999999998,-0.032503,-0.0812155,0.0012745,0.000245,0.0812155,-0.0012745,-0.0002449999999999,-0.1100184999999999,-0.4480985,-0.021024,0.1200415,-0.4987985,0.023455,-0.0931724999999999,-0.8654784999999999,0.010618,0.1223015,-0.8878484999999999,0.037526,0
33,-0.014141,0.785015,0.117786,-0.172368,0.577295,0.074329,-0.241768,0.847015,-0.009651,0.163492,0.572155,0.099629,0.269182,0.814025,0.04942,-0.238888,1.128485,-0.071028,0.295412,1.064885,-0.029735,-0.08118,0.0013219999999999,-6.099999999999856e-05,0.08118,-0.001322,6.099999999999856e-05,-0.110078,-0.448225,-0.021032,0.119972,-0.498635,0.023864,-0.093413,-0.865355,0.01089,0.1221619999999999,-0.887845,0.037859,0
34,-0.0143764999999999,0.785251,0.118695,-0.1727064999999999,0.5764710000000001,0.0736459999999999,-0.2418064999999999,0.846701,-0.009556,0.1631435,0.572651,0.100131,0.2683735,0.814501,0.050967,-0.2390265,1.1282409999999998,-0.07094,0.2945935,1.0659409999999998,-0.027417,-0.0811455,0.001412,-0.0003589999999999,0.0811455,-0.001412,0.0003589999999999,-0.1101665,-0.448189,-0.021107,0.1199435,-0.497909,0.024186,-0.0936444999999999,-0.8654689999999999,0.0110019999999999,0.1220235,-0.887879,0.038098,0
35,-0.014652,0.7854925,0.119737,-0.172938,0.5758425,0.073174,-0.241728,0.8464625,-0.0096969999999999,0.162782,0.5730725,0.100572,0.2676119999999999,0.8149625,0.0523659999999999,-0.238998,1.1279825,-0.070999,0.2938719999999999,1.0667825,-0.025404,-0.08112,0.0014665,-0.000682,0.08112,-0.0014665,0.000682,-0.110178,-0.4483875,-0.021169,0.1199919999999999,-0.4970575,0.024498,-0.0937959999999999,-0.8657874999999999,0.011068,0.121952,-0.8880275,0.038255,1
36,-0.0150175,0.7856949999999999,0.1207564999999999,-0.1731895,0.575475,0.0728395,-0.2415095,0.8463449999999999,-0.0101685,0.1623605,0.573425,0.1008584999999999,0.2668304999999999,0.8153549999999999,0.0535874999999999,-0.2389095,1.127875,-0.0714235,0.2930704999999999,1.067375,-0.0236425,-0.0811135,0.001488,-0.0010085,0.0811135,-0.001488,0.0010084999999999,-0.1101995,-0.448745,-0.0213565,0.1200304999999999,-0.496455,0.0247614999999999,-0.0939895,-0.8662350000000001,0.0111054999999999,0.1217905,-0.888495,0.0382604999999999,1
37,-0.0154245,0.7858195,0.122024,-0.1734685,0.5756795,0.07265,-0.2411285,0.8464495000000001,-0.0108239999999999,0.1619815,0.5737095000000001,0.101406,0.2661415,0.8157495,0.054804,-0.2386085,1.1278995,-0.072237,0.2922415,1.0675995,-0.0219879999999999,-0.0811085,0.0014815,-0.0013169999999999,0.0811085,-0.0014815,0.001317,-0.1102585,-0.4485405,-0.021549,0.1200315,-0.4956205,0.024936,-0.0942465,-0.8662105,0.011115,0.1216715,-0.8885704999999999,0.038222,1
38,-0.0158695,0.7862345,0.1233975,-0.1737585,0.5759044999999999,0.0724124999999999,-0.2405485,0.8465644999999999,-0.0119695,0.1616115,0.5739645,0.1017734999999999,0.2654014999999999,0.8162045,0.0560844999999999,-0.2379685,1.1280345,-0.0734895,0.2914015,1.0678345,-0.0204115,-0.0811355,0.0014625,-0.0016125,0.0811355,-0.0014625,0.0016125,-0.1103085,-0.4484154999999999,-0.0218755,0.1202115,-0.4947855,0.0250645,-0.0945025,-0.8662755000000001,0.0109835,0.1215415,-0.8886255000000001,0.0380955,1
39,-0.0163434999999999,0.7862345,0.12464,-0.1740715,0.5759044999999999,0.072131,-0.2399414999999999,0.8465644999999999,-0.0131279999999999,0.1612084999999999,0.5739645,0.102241,0.2649185,0.8162045,0.057184,-0.2371614999999999,1.1280345,-0.074741,0.2908685,1.0678345,-0.018954,-0.0811655,0.0014625,-0.0019049999999999,0.0811655,-0.0014625,0.001905,-0.1105314999999999,-0.4484154999999999,-0.0222579999999999,0.1201585,-0.4947855,0.024936,-0.0948155,-0.8662755000000001,0.010702,0.1212285,-0.8886255000000001,0.037821,1
40,-0.0167835,0.7862585,0.125709,-0.1742875,0.5757384999999999,0.071818,-0.2393275,0.8465085,-0.0143929999999999,0.1608425,0.5739885,0.102887,0.2644025,0.8162285,0.058038,-0.2362475,1.1279585,-0.076002,0.2904825,1.0678585,-0.0181739999999999,-0.0811965,0.0014865,-0.0022109999999999,0.0811965,-0.0014865,0.002211,-0.1107674999999999,-0.4483915,-0.0226859999999999,0.1199625,-0.4947615,0.024626,-0.0951644999999999,-0.8663415,0.010268,0.1208825,-0.8888615,0.037386,1
41,-0.0172519999999999,0.786311,0.1266195,-0.174531,0.575551,0.0716215,-0.238701,0.846441,-0.0157054999999999,0.1604789999999999,0.574041,0.1030455,0.263849,0.816281,0.0588145,-0.235251,1.127911,-0.0774364999999999,0.290199,1.067911,-0.0173584999999999,-0.081218,0.001531,-0.0025434999999999,0.081218,-0.0015309999999999,0.0025435,-0.110991,-0.448729,-0.0232114999999999,0.1197189999999999,-0.494589,0.0242705,-0.0955679999999999,-0.866409,0.0098935,0.1204889999999999,-0.889029,0.0369065,1
42,-0.017307,0.7866215,0.1274635,-0.174586,0.5755015,0.0712525,-0.237466,0.8454515,-0.0170775,0.1602839999999999,0.5741915,0.1034035,0.263404,0.8165215,0.0599305,-0.233636,1.1269515,-0.0789385,0.289664,1.0687515,-0.0170645,-0.081212,0.0015445,-0.0029425,0.081212,-0.0015445,0.0029424999999999,-0.111246,-0.4490885,-0.0238065,0.119304,-0.4938885,0.0238234999999999,-0.096354,-0.8665984999999999,0.0091814999999999,0.119864,-0.8894084999999999,0.0363345,1
43,-0.0173674999999999,0.786879,0.1281355,-0.1745985,0.575519,0.0710835,-0.2362584999999999,0.844579,-0.0184575,0.1602215,0.574179,0.1038365,0.2630415,0.816659,0.0609475,-0.2320185,1.125999,-0.0806325,0.2893115,1.069299,-0.0167734999999999,-0.0812015,0.0015409999999999,-0.0033154999999999,0.0812015,-0.001541,0.0033155,-0.1115285,-0.4505309999999999,-0.0243725,0.1188415,-0.4936109999999999,0.0233685,-0.0970795,-0.866811,0.0080445,0.1192915,-0.889831,0.0357865,1
44,-0.0173699999999999,0.7870590000000001,0.1286135,-0.174615,0.575559,0.0710015,-0.235175,0.843709,-0.0197055,0.1601449999999999,0.574129,0.1042395,0.262725,0.816689,0.0618445,-0.230505,1.1250989999999998,-0.0820365,0.288985,1.069799,-0.0164315,-0.081202,0.001546,-0.0036565,0.081202,-0.001546,0.0036565,-0.111815,-0.451741,-0.0249185,0.118345,-0.493591,0.0230225,-0.0977379999999999,-0.867261,0.0070244999999999,0.118645,-0.890311,0.0353625,1
45,-0.0172615,0.787195,0.128779,-0.1745574999999999,0.575875,0.071101,-0.2342575,0.843365,-0.020836,0.1600925,0.574035,0.1048979999999999,0.2626124999999999,0.816645,0.062374,-0.2290575,1.124615,-0.083371,0.2891324999999999,1.0697150000000002,-0.016461,-0.0811865,0.001547,-0.003979,0.0811865,-0.0015469999999999,0.0039789999999999,-0.1121075,-0.453085,-0.025393,0.1181225,-0.493905,0.0226439999999999,-0.0983625,-0.867805,0.0061999999999999,0.1179625,-0.8909050000000001,0.034906,1
46,-0.0171274999999999,0.7873785,0.128607,-0.1745085,0.5763185000000001,0.071019,-0.2335085,0.8431185,-0.0220049999999999,0.1599615,0.5737885,0.105303,0.2625515,0.8166385,0.062678,-0.2277985,1.1242285,-0.084688,0.2893115,1.0697285,-0.0166599999999999,-0.0811685,0.0015734999999999,-0.0043389999999999,0.0811685,-0.0015734999999999,0.004339,-0.1124385,-0.4543115,-0.0258429999999999,0.1179315,-0.4942515,0.022199,-0.0990685,-0.8685615,0.005398,0.1172614999999999,-0.8914615,0.034443,1
47,-0.016948,0.7874955,0.1282035,-0.174534,0.5767455,0.0708455,-0.232904,0.8429255,-0.0229225,0.160016,0.5735655,0.1055405,0.262606,0.8166255,0.0624795,-0.226804,1.1239455,-0.0859014999999999,0.289516,1.0695455,-0.0170604999999999,-0.081129,0.0016015,-0.0046945,0.081129,-0.0016014999999999,0.0046945,-0.112764,-0.4549645,-0.0263125,0.117696,-0.4944545,0.0216735,-0.099777,-0.8692845,0.0045435,0.1165759999999999,-0.8920545,0.0339455,1
48,-0.0168525,0.7875135,0.1277415,-0.1745845,0.5769535,0.0703645,-0.2322044999999999,0.8430234999999999,-0.0243935,0.1599355,0.5734035,0.1057235,0.2627755,0.8166435,0.0620265,-0.2257845,1.1240635,-0.0878325,0.2894755,1.0694635,-0.0175395,-0.0810775,0.0015984999999999,-0.0050515,0.0810775,-0.0015985,0.0050515,-0.1131045,-0.4559265,-0.0268015,0.1174955,-0.4948965,0.0212705,-0.1003135,-0.8701565,0.0038735,0.1161555,-0.8924965,0.0334165,1
49,-0.0166785,0.7874304999999999,0.1272785,-0.1746615,0.5772505,0.0698705,-0.2314815,0.8430805,-0.0258704999999999,0.1597985,0.5732005,0.1058725,0.2629785,0.8165304999999999,0.0615695,-0.2248215,1.1240405,-0.0898374999999999,0.2894784999999999,1.0693405,-0.0180234999999999,-0.0810265,0.0015825,-0.0053515,0.0810265,-0.0015825,0.0053515,-0.1133815,-0.4567695,-0.0272665,0.1173485,-0.4953895,0.0208115,-0.1007885,-0.8709595,0.0032645,0.1157885,-0.8929695000000001,0.0328845,1
50,-0.0162675,0.78702,0.126537,-0.1747735,0.57735,0.069379,-0.2306935,0.8429300000000001,-0.0276009999999999,0.1597064999999999,0.5729,0.105383,0.2633165,0.81638,0.0611349999999999,-0.2238735,1.12379,-0.091944,0.2895465,1.06899,-0.018757,-0.0809665,0.001615,-0.0056159999999999,0.0809665,-0.0016149999999999,0.0056159999999999,-0.1135635,-0.45747,-0.0277259999999999,0.1171064999999999,-0.49544,0.020227,-0.1011365,-0.87146,0.002606,0.1155065,-0.89338,0.032372,1
51,-0.0161794999999999,0.7868745,0.1254225,-0.1749395,0.5773745,0.0689535,-0.2304894999999999,0.8410845,-0.0291665,0.1595305,0.5726645,0.1049875,0.2633205,0.8163245,0.0606255,-0.2234695,1.1220545,-0.0940095,0.2894805,1.0685545,-0.0199865,-0.0809305,0.0016675,-0.0058075,0.0809305,-0.0016675,0.0058074999999999,-0.1136295,-0.4577955,-0.0279845,0.1168705,-0.4953155,0.0197204999999999,-0.1013115,-0.8714155,0.0022024999999999,0.1152805,-0.8933654999999999,0.0321295,1
52,-0.0160175,0.78691,0.1242355,-0.1750525,0.5771599999999999,0.0684964999999999,-0.2302625,0.83941,-0.0309895,0.1594575,0.5724999999999999,0.1042525,0.2633875,0.81638,0.0599124999999999,-0.2230325,1.1203,-0.0961375,0.2894775,1.0682,-0.0213165,-0.0809064999999999,0.00175,-0.0059685,0.0809064999999999,-0.00175,0.0059684999999999,-0.1136925,-0.4581199999999999,-0.0282205,0.1166974999999999,-0.49517,0.0192554999999999,-0.1014345,-0.8712700000000001,0.0018344999999999,0.1151275,-0.89326,0.0319505,1
53,-0.015836,0.7870145,0.1229835,-0.175058,0.5768645,0.0677755,-0.230048,0.8382845,-0.0327685,0.159492,0.5724944999999999,0.1032375,0.263422,0.8164245,0.0590674999999999,-0.222598,1.1191645,-0.0983045,0.289572,1.0678645,-0.0228205,-0.080881,0.0018145,-0.0060964999999999,0.080881,-0.0018145,0.0060964999999999,-0.113738,-0.4587055,-0.0283275,0.116582,-0.4950055,0.0188564999999999,-0.101492,-0.8711055000000001,0.0015174999999999,0.115032,-0.8931355000000001,0.0317365,1
54,-0.015534,0.786835,0.1215135,-0.175071,0.576575,0.0667105,-0.229771,0.838185,-0.0344725,0.159419,0.572415,0.1015305,0.2635989999999999,0.816555,0.0577325,-0.222141,1.119015,-0.1003015,0.2895089999999999,1.067215,-0.0242764999999999,-0.080868,0.0019429999999999,-0.0061945,0.080868,-0.0019429999999999,0.0061945,-0.113711,-0.459195,-0.0285444999999999,0.116719,-0.494495,0.0186275,-0.1012079999999999,-0.870885,0.0014955,0.1152989999999999,-0.893095,0.0317105,1
55,-0.0152505,0.786694,0.120023,-0.1751125,0.576234,0.065532,-0.2295325,0.8381240000000001,-0.036067,0.1593574999999999,0.5723140000000001,0.09971,0.2637775,0.816674,0.056344,-0.2217925,1.118984,-0.1020869999999999,0.2894075,1.066584,-0.025591,-0.0808595,0.002058,-0.006255,0.0808595,-0.002058,0.006255,-0.1136725,-0.458676,-0.028834,0.1168975,-0.494536,0.018517,-0.1009845,-0.870586,0.001929,0.1154574999999999,-0.8930459999999999,0.031749,1
56,-0.0149555,0.7867145000000001,0.1185665,-0.1751484999999999,0.5759045,0.0644695,-0.2293285,0.8383245,-0.0375834999999999,0.1593115,0.5722545,0.0986435,0.2639515,0.8167745000000001,0.0550075,-0.2215285,1.1191145,-0.1036965,0.2892415,1.0660145,-0.0267945,-0.0808635,0.0021715,-0.0062275,0.0808635,-0.0021715,0.0062275,-0.1136585,-0.4580555,-0.0289425,0.1168314999999999,-0.4956255,0.0185255,-0.1008675,-0.8704854999999999,0.0024174999999999,0.1155815,-0.8929554999999999,0.0319035,1
57,-0.0146885,0.7867825,0.1171945,-0.1751975,0.5754125,0.0632834999999999,-0.2291975,0.8386825,-0.0385844999999999,0.1591425,0.5721725,0.0972185,0.2639725,0.8168325,0.0537935,-0.2214175,1.1193225,-0.1045765,0.2887225,1.0649225,-0.0279145,-0.0808625,0.0022435,-0.0062275,0.0808625,-0.0022435,0.0062275,-0.1136675,-0.4574175,-0.0290145,0.1168324999999999,-0.4957674999999999,0.0185255,-0.1008025,-0.8704975,0.0027114999999999,0.1156124999999999,-0.8927975,0.0320364999999999,1
58,-0.0144505,0.786795,0.115843,-0.1752065,0.574985,0.0620359999999999,-0.2290165,0.839105,-0.03954,0.1590335,0.572195,0.095772,0.2640135,0.816925,0.052632,-0.2212465,1.119695,-0.105359,0.2882135,1.063795,-0.029091,-0.0808605,0.002313,-0.006227,0.0808605,-0.002313,0.006227,-0.1136565,-0.456735,-0.0291489999999999,0.1168934999999999,-0.496595,0.018533,-0.1006975,-0.870615,0.0030099999999999,0.1156835,-0.892665,0.032146,1
59,-0.0141209999999999,0.786812,0.1145205,-0.175121,0.574592,0.0607584999999999,-0.228841,0.839242,-0.0403145,0.158929,0.572282,0.0941375,0.264079,0.816922,0.0515805,-0.221021,1.119702,-0.1059385,0.2877989999999999,1.062802,-0.0301105,-0.0808649999999999,0.002365,-0.0062275,0.0808649999999999,-0.002365,0.0062275,-0.113591,-0.456698,-0.0293045,0.117069,-0.496968,0.0184044999999999,-0.1003739999999999,-0.870618,0.0033264999999999,0.115809,-0.892598,0.0321955,1
60,-0.0138139999999999,0.786922,0.113525,-0.174955,0.574502,0.059691,-0.228795,0.839412,-0.0410479999999999,0.159065,0.572362,0.092727,0.2641449999999999,0.816922,0.050623,-0.220805,1.119702,-0.1067589999999999,0.287745,1.062302,-0.031061,-0.080909,0.002365,-0.0061529999999999,0.080909,-0.002365,0.006153,-0.1134149999999999,-0.455988,-0.0296709999999999,0.117085,-0.496688,0.018256,-0.0999779999999999,-0.870618,0.003525,0.116075,-0.892598,0.032312,1
61,-0.013471,0.786992,0.1125095,-0.174748,0.574342,0.0586794999999999,-0.2288379999999999,0.839482,-0.0415635,0.1592819999999999,0.572592,0.0914155,0.264252,0.816922,0.0495955,-0.220598,1.119602,-0.1075525,0.287742,1.061802,-0.0321145,-0.080962,0.002365,-0.0060885,0.080962,-0.002365,0.0060885,-0.113188,-0.455358,-0.0301355,0.1169819999999999,-0.496588,0.0179464999999999,-0.099533,-0.870618,0.0036994999999999,0.116382,-0.892598,0.0324685,1
62,-0.013148,0.787082,0.1115865,-0.174481,0.574132,0.0579925,-0.2289709999999999,0.839162,-0.0420635,0.159469,0.572922,0.0909265,0.264329,0.816922,0.0485605,-0.220441,1.119102,-0.1085545,0.287829,1.061202,-0.0332575,-0.081026,0.002365,-0.0060265,0.081026,-0.002365,0.0060265,-0.112881,-0.454648,-0.0305525,0.116849,-0.496778,0.0176635,-0.099137,-0.870618,0.0039194999999999,0.116829,-0.892598,0.0326955,1
63,-0.012759,0.7874055,0.1107285,-0.174231,0.5738055000000001,0.0574825,-0.229201,0.8388855000000001,-0.0424365,0.159699,0.5732455000000001,0.0907205,0.264429,0.8168155,0.0474975,-0.220391,1.1188255,-0.1098474999999999,0.287969,1.0606255,-0.0344234999999999,-0.081107,0.0023675,-0.0059824999999999,0.081107,-0.0023675,0.0059824999999999,-0.112551,-0.4546045,-0.0312325,0.116649,-0.4972545,0.0171944999999999,-0.098667,-0.8705244999999999,0.0041385,0.117149,-0.8924745,0.0327465,1
64,-0.0124155,0.787587,0.109756,-0.1740115,0.5739070000000001,0.057143,-0.2294615,0.8387370000000001,-0.0431899999999999,0.1599685,0.573517,0.090519,0.2645685,0.8167270000000001,0.046346,-0.2204315,1.118337,-0.111658,0.2881285,1.059837,-0.0360039999999999,-0.0811805,0.002329,-0.0059549999999999,0.0811805,-0.002329,0.0059549999999999,-0.1121015,-0.454763,-0.032247,0.1164785,-0.497953,0.016488,-0.0981535,-0.8706229999999999,0.0043209999999999,0.1174885,-0.892393,0.032762,1
65,-0.0122615,0.7877510000000001,0.1082895,-0.1739225,0.574161,0.0568255,-0.2299025,0.838481,-0.0449165,0.1602675,0.5737410000000001,0.0902385,0.2647175,0.8165410000000001,0.0444915,-0.2208425,1.117811,-0.1148655,0.2882375,1.059011,-0.0385245,-0.0812545,0.002279,-0.0058934999999999,0.0812545,-0.0022789999999999,0.0058934999999999,-0.1114725,-0.454729,-0.0338545,0.1164675,-0.498659,0.0152885,-0.0975095,-0.8711589999999999,0.0044165,0.1178875,-0.892289,0.0328175,1
66,-0.0121434999999999,0.787892,0.1067805,-0.1739095,0.574282,0.0565095,-0.2303695,0.838742,-0.0472655,0.1605005,0.573892,0.0899215,0.2649605,0.816262,0.0423945,-0.2213395,1.118072,-0.1189124999999999,0.2885005,1.057872,-0.0414375,-0.0813415,0.002191,-0.0057975,0.0813415,-0.002191,0.0057975,-0.1108395,-0.454648,-0.0355845,0.1166405,-0.4995779999999999,0.0136035,-0.0968294999999999,-0.8717779999999999,0.0044495,0.1182604999999999,-0.892028,0.0324035,1
67,-0.0119884999999999,0.7880564999999999,0.1048825,-0.1740175,0.5743564999999999,0.0560185,-0.2309175,0.8390365,-0.0500474999999999,0.1607625,0.5740765,0.0893475,0.2653225,0.8159465,0.0399645,-0.2218574999999999,1.1183665,-0.1234775,0.2888925,1.0567665,-0.0448164999999999,-0.0814295,0.0021115,-0.0057035,0.0814295,-0.0021115,0.0057035,-0.1101574999999999,-0.4544135,-0.0374764999999999,0.1169525,-0.5000235000000001,0.0114954999999999,-0.0960724999999999,-0.8728835,0.0042155,0.1186625,-0.8917135,0.0319595,1
68,-0.0118085,0.787901,0.1024785,-0.1742195,0.574491,0.0553645,-0.2314295,0.839351,-0.0532935,0.1609304999999999,0.574311,0.0887925,0.2657005,0.815521,0.0371865,-0.2224595,1.1183010000000002,-0.1286465,0.2894305,1.055501,-0.0488264999999999,-0.0815454999999999,0.00202,-0.0056235,0.0815454999999999,-0.00202,0.0056235,-0.1094195,-0.454079,-0.0402104999999999,0.1176405,-0.499689,0.0087495,-0.0953165,-0.873959,0.0038855,0.1190505,-0.891319,0.0314795,1
69,-0.0117285,0.7878284999999999,0.0998405,-0.1745665,0.5747884999999999,0.0544625,-0.2318465,0.8395385,-0.0569434999999999,0.1609935,0.5747085,0.0882365,0.2660635,0.8151284999999999,0.0342475,-0.2231665,1.1180885,-0.1340215,0.2900034999999999,1.0542885000000002,-0.0532745,-0.0817165,0.0019214999999999,-0.0055065,0.0817165,-0.0019215,0.0055065,-0.1085865,-0.4542814999999999,-0.0432085,0.1184435,-0.4992015,0.0054564999999999,-0.0945695,-0.8748515,0.0035875,0.1193535,-0.8909515,0.0310005,1
70,-0.0117275,0.7876255000000001,0.0970855,-0.1750465,0.5752255000000001,0.0533145,-0.2321565,0.8394155,-0.0609375,0.1610235,0.5751755000000001,0.0875585,0.2663735,0.8148155,0.0311175,-0.2238765,1.1171354999999998,-0.1400294999999999,0.2906135,1.0530355,-0.0580705,-0.0819395,0.0017785,-0.0053785,0.0819395,-0.0017784999999999,0.0053785,-0.1077765,-0.4546645,-0.0465255,0.1192335,-0.4985545,0.0015415,-0.0938765,-0.8755345,0.0031804999999999,0.1195735,-0.8905445,0.0305715,1
71,-0.011767,0.7869505,0.09394,-0.175563,0.5756705,0.052197,-0.232283,0.8389804999999999,-0.0652789999999999,0.1610369999999999,0.5754205,0.08673,0.266967,0.8142005,0.027491,-0.224453,1.1155705,-0.14603,0.291237,1.0518705000000002,-0.0632549999999999,-0.082206,0.0016435,-0.005235,0.082206,-0.0016435,0.005235,-0.106833,-0.4550095,-0.050813,0.120097,-0.4976595,-0.0031989999999999,-0.093237,-0.8759395000000001,0.002881,0.119707,-0.8899995,0.03028,1
72,-0.011848,0.7861935,0.090506,-0.176154,0.5762135,0.051021,-0.232264,0.8382835000000001,-0.069998,0.161026,0.5758235,0.08546,0.267496,0.8134535,0.023376,-0.224814,1.1136035,-0.152458,0.291846,1.0505034999999998,-0.0690979999999999,-0.082402,0.0014565,-0.0050769999999999,0.082402,-0.0014565,0.005077,-0.105904,-0.4553065,-0.055536,0.121006,-0.4962065,-0.0084389999999999,-0.092754,-0.8759865,0.002219,0.1198459999999999,-0.8892665,0.030028,1
73,-0.0118169999999999,0.7852795,0.0867555,-0.1765209999999999,0.5765695,0.0493335,-0.231981,0.8358095,-0.0747235,0.161149,0.5764195,0.0839715,0.2682489999999999,0.8127194999999999,0.0190155,-0.224751,1.1107495,-0.1589335,0.292559,1.0492495,-0.0754035,-0.082607,0.0012804999999999,-0.0049975,0.082607,-0.0012805,0.0049975,-0.104914,-0.4553405,-0.0605865,0.122069,-0.4938205,-0.0139654999999999,-0.092303,-0.8756305,0.0017435,0.119999,-0.8881805,0.0298925,1
74,-0.011621,0.784443,0.0831005,-0.176634,0.576843,0.0468075,-0.231374,0.8334130000000001,-0.0787185,0.161356,0.5774630000000001,0.0823815,0.268946,0.812243,0.0144895,-0.224074,1.107903,-0.1645984999999999,0.293286,1.048403,-0.0813185,-0.08281,0.0011219999999999,-0.0049685,0.08281,-0.0011219999999999,0.0049685,-0.104018,-0.454377,-0.0659355,0.123036,-0.490777,-0.0196714999999999,-0.0920479999999999,-0.874467,0.0015485,0.1200759999999999,-0.886527,0.0299085,1
75,-0.0115109999999999,0.7833064999999999,0.0794255,-0.1766899999999999,0.5773065,0.0443335,-0.23082,0.8306665,-0.0828715,0.16159,0.5785564999999999,0.0807055,0.26958,0.8116665,0.0098224999999999,-0.2233699999999999,1.1047565,-0.1704915,0.29396,1.0471565,-0.0876815,-0.083042,0.0009475,-0.0050265,0.083042,-0.0009475,0.0050265,-0.103058,-0.4536635,-0.0718015,0.1238799999999999,-0.4875835,-0.0256895,-0.091775,-0.8731835,0.0011694999999999,0.1200499999999999,-0.8847735000000001,0.0303164999999999,1
76,-0.0113975,0.7822555,0.0754285,-0.1766095,0.5775655,0.0414034999999999,-0.2303295,0.8283455,-0.0872515,0.1618305,0.5788155,0.0786294999999999,0.2703704999999999,0.8110455,0.0046554999999999,-0.2226795,1.1018355,-0.1768615,0.2946204999999999,1.0464355,-0.0941815,-0.0833255,0.0007125,-0.0050685,0.0833255,-0.0007124999999999,0.0050684999999999,-0.1019984999999999,-0.4518345,-0.0777415,0.1247705,-0.4835745,-0.0318935,-0.0915225,-0.8704845,0.0013214999999999,0.1199405,-0.8821845,0.0309704999999999,1
77,-0.0114399999999999,0.7815380000000001,0.071478,-0.176566,0.578028,0.038209,-0.229986,0.826188,-0.0919539999999999,0.161944,0.579248,0.0760919999999999,0.271294,0.8108580000000001,-0.0011709999999999,-0.222096,1.0991179999999998,-0.183634,0.295164,1.045718,-0.1010039999999999,-0.083642,0.0005159999999999,-0.0050139999999999,0.083642,-0.000516,0.005014,-0.101139,-0.449322,-0.083424,0.125394,-0.478962,-0.038003,-0.091455,-0.8672519999999999,0.00136,0.1194339999999999,-0.878952,0.031551,1
78,-0.0113064999999999,0.780525,0.0669995,-0.1764224999999999,0.577685,0.0345555,-0.2297125,0.824225,-0.0968715,0.1619975,0.5797950000000001,0.0731365,0.2721975,0.810885,-0.0071734999999999,-0.2214924999999999,1.096475,-0.1911014999999999,0.2955375,1.045075,-0.1080015,-0.0839695,0.0002659999999999,-0.0049835,0.0839695,-0.0002659999999999,0.0049835,-0.1003135,-0.4463249999999999,-0.0892715,0.1259175,-0.474225,-0.0442954999999999,-0.0914205,-0.863665,0.0011975,0.1188675,-0.875365,0.0318715,1
79,-0.01117,0.7799915000000001,0.062527,-0.176366,0.5773515,0.03072,-0.2294359999999999,0.8226115,-0.1023139999999999,0.161984,0.5793515,0.069191,0.273024,0.8110615,-0.0143979999999999,-0.221186,1.0943215,-0.199134,0.295874,1.0449214999999998,-0.1158039999999999,-0.084425,8.450000000000124e-05,-0.0049429999999999,0.084425,-8.449999999999777e-05,0.004943,-0.099473,-0.4426385,-0.0951839999999999,0.126234,-0.4691385,-0.0500989999999999,-0.091303,-0.8594185,0.00115,0.118154,-0.8713085,0.032087,1
80,-0.011051,0.779465,0.0574984999999999,-0.176327,0.576585,0.0263254999999999,-0.229037,0.820905,-0.1082755,0.161933,0.579635,0.0651215,0.273603,0.811675,-0.0213945,-0.2206969999999999,1.0922349999999998,-0.2078655,0.296133,1.044535,-0.1242955,-0.084958,-0.0001859999999999,-0.0049275,0.084958,0.0001859999999999,0.0049275,-0.098785,-0.438645,-0.1004655,0.126403,-0.463785,-0.0554865,-0.091152,-0.854815,0.0009515,0.117383,-0.867045,0.0321225,1
81,-0.0109714999999999,0.7791985,0.0522735,-0.1760965,0.5756685,0.0213635,-0.2285465,0.8194685,-0.1146615,0.1618735,0.5801985,0.0609995,0.2744235,0.8125085,-0.0285174999999999,-0.2201065,1.0908685,-0.2169015,0.2963035,1.0443685,-0.1331814999999999,-0.0855674999999999,-0.0003874999999999,-0.0049205,0.0855674999999999,0.0003874999999999,0.0049205,-0.0980675,-0.4340215,-0.1057015,0.1264134999999999,-0.4583515,-0.0605765,-0.0910455,-0.8496815,0.0010145,0.1166135,-0.8625615,0.0319365,1
82,-0.010968,0.779013,0.0467295,-0.175747,0.575063,0.0163625,-0.227947,0.8196129999999999,-0.1218025,0.1619529999999999,0.579753,0.0558885,0.275373,0.8133429999999999,-0.0364074999999999,-0.219167,1.090003,-0.2271525,0.296493,1.044003,-0.1428825,-0.086198,-0.000557,-0.0048915,0.086198,0.0005569999999999,0.0048915,-0.097214,-0.429017,-0.1107025,0.126393,-0.452617,-0.0657225,-0.090888,-0.8442270000000001,0.0008705,0.115873,-0.8575470000000001,0.0315605,1
83,-0.010734,0.7782485,0.040721,-0.175316,0.5741685000000001,0.011323,-0.227266,0.8191585,-0.1296719999999999,0.162204,0.5785485,0.049789,0.276424,0.8139585,-0.044619,-0.218366,1.0887985,-0.237472,0.296864,1.0433385,-0.1537919999999999,-0.086812,-0.0008234999999999,-0.0048419999999999,0.086812,0.0008235,0.0048419999999999,-0.096117,-0.4242815,-0.115392,0.126324,-0.4470515,-0.0709519999999999,-0.090633,-0.8388614999999999,0.000341,0.115224,-0.8524214999999999,0.030823,1
84,-0.0104134999999999,0.7777965,0.0342219999999999,-0.1747615,0.5729565,0.005731,-0.2265515,0.8186665,-0.137937,0.1625485,0.5769665,0.043257,0.2773584999999999,0.8142365,-0.053846,-0.2175015,1.0875665,-0.248017,0.2974084999999999,1.0426565,-0.165537,-0.0874065,-0.0010075,-0.004829,0.0874065,0.0010074999999999,0.004829,-0.0948085,-0.4199335,-0.119667,0.1261285,-0.4414035,-0.0758669999999999,-0.0903315,-0.8331535,-0.000131,0.1146085,-0.8469135,0.0299739999999999,1
85,-0.0101144999999999,0.7769635,0.0276064999999999,-0.1741685,0.5713735,0.0003384999999999,-0.2259084999999999,0.8171335,-0.1461235,0.1627215,0.5756935,0.0369004999999999,0.2780215,0.8135335,-0.0631235,-0.2166384999999999,1.0850935,-0.2587635,0.2981015,1.0416135,-0.1780335,-0.0879365,-0.0011535,-0.0048655,0.0879365,0.0011535,0.0048654999999999,-0.0935305,-0.4160265,-0.1236135,0.1258915,-0.4357865,-0.0804035,-0.0899775,-0.8274865,-0.0008005,0.1139715,-0.8416165,0.0289314999999999,1
86,-0.0097609999999999,0.7760549999999999,0.0208049999999999,-0.173459,0.569775,-0.0050709999999999,-0.225219,0.815105,-0.154553,0.162921,0.574105,0.0305459999999999,0.278751,0.8123549999999999,-0.072353,-0.215629,1.080775,-0.271793,0.298951,1.040205,-0.191123,-0.0884,-0.0013799999999999,-0.004926,0.0884,0.00138,0.004926,-0.091815,-0.414195,-0.127633,0.125701,-0.430185,-0.084753,-0.089489,-0.821945,-0.0014009999999999,0.113391,-0.836565,0.0279089999999999,1
87,-0.009328,0.775463,0.0140645,-0.17257,0.568523,-0.0105045,-0.2244999999999999,0.812813,-0.1633945,0.1631099999999999,0.572343,0.0238815,0.27954,0.811073,-0.0818145,-0.21476,1.076743,-0.2841745,0.2998,1.038923,-0.2044745,-0.088858,-0.0014979999999999,-0.0049794999999999,0.088858,0.0014979999999999,0.0049794999999999,-0.09005,-0.412117,-0.1313145,0.12546,-0.424997,-0.0887545,-0.088881,-0.816117,-0.0021414999999999,0.11283,-0.8311569999999999,0.0268805,1
88,-0.0087929999999999,0.774386,0.0066365,-0.171573,0.567016,-0.0163965,-0.223873,0.809956,-0.1725165,0.163167,0.571556,0.0175005,0.280037,0.809146,-0.0910965,-0.214083,1.072546,-0.2966965,0.300567,1.035566,-0.2178365,-0.089137,-0.0017389999999999,-0.0049024999999999,0.089137,0.001739,0.0049024999999999,-0.0881629999999999,-0.410674,-0.1347865,0.125167,-0.420644,-0.0932264999999999,-0.088311,-0.810364,-0.0033204999999999,0.112347,-0.8256939999999999,0.0255875,1
89,-0.0080989999999999,0.7734880000000001,-0.000911,-0.170433,0.5657679999999999,-0.022745,-0.223123,0.806898,-0.1820699999999999,0.163277,0.569828,0.010271,0.280457,0.806768,-0.1012799999999999,-0.213303,1.068158,-0.30978,0.301557,1.033008,-0.2326799999999999,-0.0893569999999999,-0.001883,-0.0048899999999999,0.0893569999999999,0.0018829999999999,0.0048899999999999,-0.086042,-0.408972,-0.13849,0.124857,-0.416192,-0.09794,-0.0877159999999999,-0.804422,-0.0047449999999999,0.111977,-0.820002,0.023998,1
90,-0.0074194999999999,0.7721715,-0.008946,-0.1693945,0.5647614999999999,-0.029172,-0.2223844999999999,0.8037715,-0.191797,0.1634155,0.5678315,0.0026939999999999,0.2810355,0.8042615,-0.1119069999999999,-0.2125044999999999,1.0636315,-0.322827,0.3025055,1.0310415,-0.247987,-0.0895255,-0.0020104999999999,-0.004943,0.0895255,0.0020104999999999,0.0049429999999999,-0.0839594999999999,-0.4071085,-0.1416569999999999,0.1245055,-0.4116785,-0.102647,-0.0871145,-0.7983285,-0.006308,0.1115955,-0.8140785,0.0223349999999999,1
91,-0.00665,0.7709215,-0.0170624999999999,-0.168059,0.5632714999999999,-0.0357435,-0.221719,0.8004515000000001,-0.2012014999999999,0.163631,0.5662615,-0.0046424999999999,0.281371,0.8016814999999999,-0.1229515,-0.211569,1.0588415,-0.3355415,0.303451,1.0270215,-0.2629715,-0.089701,-0.0021785,-0.0050274999999999,0.089701,0.0021785,0.0050275,-0.081959,-0.4051885,-0.1446215,0.123911,-0.4070085,-0.1070715,-0.086502,-0.7923285,-0.0080644999999999,0.111181,-0.8076885,0.0206735,1
92,-0.0056519999999999,0.7694799999999999,-0.0255769999999999,-0.166467,0.56205,-0.042125,-0.220957,0.79743,-0.210817,0.164033,0.56459,-0.011887,0.282543,0.79902,-0.134037,-0.210467,1.05409,-0.349017,0.304333,1.02312,-0.276857,-0.089903,-0.0021999999999999,-0.005127,0.089903,0.0022,0.005127,-0.079911,-0.4038899999999999,-0.147287,0.123253,-0.40243,-0.1111069999999999,-0.0861379999999999,-0.78619,-0.00993,0.110903,-0.8015,0.018876,1
93,-0.0048339999999999,0.76793,-0.0346855,-0.164653,0.5608799999999999,-0.0491245,-0.220303,0.7945800000000001,-0.2207905,0.164377,0.56296,-0.0198655,0.283777,0.7964100000000001,-0.1451705,-0.209523,1.04919,-0.3633805,0.305117,1.01792,-0.2912005,-0.090097,-0.0022599999999999,-0.0051905,0.090097,0.0022599999999999,0.0051904999999999,-0.0778349999999999,-0.40234,-0.1499905,0.122387,-0.3976499999999999,-0.1152605,-0.08606,-0.77971,-0.0121995,0.110507,-0.79498,0.0165844999999999,1
94,-0.0039134999999999,0.766465,-0.043916,-0.1627485,0.560305,-0.056064,-0.2191285,0.792035,-0.231252,0.1651115,0.561675,-0.027553,0.2853115,0.794835,-0.156462,-0.2083985,1.043635,-0.377842,0.3059115,1.013055,-0.304962,-0.0903215,-0.002305,-0.005302,0.0903215,0.002305,0.0053019999999999,-0.0750204999999999,-0.404815,-0.152652,0.1216015,-0.392765,-0.119332,-0.0859045,-0.773305,-0.01463,0.1103115,-0.788345,0.0141679999999999,1
95,-0.0030464999999999,0.765175,-0.0531665,-0.1602755,0.558735,-0.0632955,-0.2181854999999999,0.789255,-0.2412225,0.1658945,0.560415,-0.0356815,0.2868745,0.792365,-0.1684225,-0.2074355,1.040145,-0.3897225,0.3066445,1.007995,-0.3186825,-0.0905644999999999,-0.002255,-0.0053455,0.0905644999999999,0.0022549999999999,0.0053454999999999,-0.0726284999999999,-0.4043949999999999,-0.1551925,0.1205745,-0.3876549999999999,-0.1237425,-0.0857074999999999,-0.7662249999999999,-0.0176755,0.1099545,-0.781185,0.0110094999999999,1
96,-0.0022515,0.763115,-0.0628785,-0.1580825,0.5572950000000001,-0.0702165,-0.2174725,0.785625,-0.2513885,0.1662674999999999,0.559685,-0.0432285,0.2881975,0.788805,-0.1811885,-0.2064925,1.035185,-0.4029285,0.3072675,1.001975,-0.3327485,-0.0907175,-0.0022049999999999,-0.0052885,0.0907175,0.002205,0.0052884999999999,-0.0705105,-0.403435,-0.1578785,0.1188074999999999,-0.386915,-0.1283585,-0.0856915,-0.759455,-0.0207305,0.1093474999999999,-0.774235,0.0078515,1
97,-0.001013,0.7615799999999999,-0.0732255,-0.155233,0.55549,-0.0780955,-0.216543,0.78223,-0.2616455,0.1669469999999999,0.55856,-0.0522055,0.288897,0.7861499999999999,-0.1945055,-0.205463,1.03023,-0.4161255,0.308197,0.99707,-0.3481255,-0.090977,-0.00195,-0.0052914999999999,0.090977,0.0019499999999999,0.0052914999999999,-0.068471,-0.4017,-0.1611255,0.117407,-0.38502,-0.1333155,-0.0854,-0.7517499999999999,-0.0242075,0.108877,-0.76637,0.0040674999999999,1
98,3.850000000000034e-05,0.75924,-0.084059,-0.1526465,0.5533699999999999,-0.085809,-0.2156964999999999,0.77832,-0.2716889999999999,0.1673335,0.55847,-0.060334,0.2896435,0.78344,-0.2085489999999999,-0.2046365,1.02446,-0.4294989999999999,0.3085035,0.99143,-0.362359,-0.0910835,-0.00179,-0.005232,0.0910835,0.0017899999999999,0.005232,-0.0668035,-0.39981,-0.1642989999999999,0.1159535,-0.38355,-0.137629,-0.0852655,-0.74416,-0.027721,0.1080335,-0.75898,0.0003249999999999,1
99,0.001357,0.756445,-0.0952555,-0.149765,0.550925,-0.0937155,-0.214675,0.773795,-0.2819855,0.168095,0.558505,-0.0685525,0.290565,0.7797850000000001,-0.2229555,-0.203255,1.017975,-0.4432155,0.309005,0.984175,-0.3766955,-0.091385,-0.0016549999999999,-0.0050975,0.091385,0.001655,0.0050975,-0.0649319999999999,-0.392425,-0.1679054999999999,0.1150749999999999,-0.377865,-0.1421655,-0.0849389999999999,-0.736415,-0.0313984999999999,0.107405,-0.751655,-0.0034865,1
100,0.0026274999999999,0.753895,-0.107029,-0.1472385,0.548995,-0.102009,-0.2137885,0.769655,-0.292749,0.1689615,0.555875,-0.079086,0.2913815,0.775805,-0.236249,-0.2020085,1.011935,-0.457169,0.3092315,0.977535,-0.391399,-0.0915115,-0.0013849999999999,-0.004873,0.0915115,0.0013849999999999,0.0048729999999999,-0.0634005,-0.384305,-0.171999,0.1141214999999999,-0.371535,-0.146809,-0.0849545,-0.727615,-0.035201,0.1066015,-0.743675,-0.007668,1
101,0.0046485,0.753365,-0.124378,-0.1438555,0.547995,-0.116558,-0.2120755,0.766535,-0.309628,0.1706645,0.555545,-0.095138,0.2931345,0.772645,-0.256048,-0.1999155,1.006805,-0.477318,0.3102645,0.972165,-0.413008,-0.0915445,-0.001215,-0.004897,0.0915445,0.0012149999999999,0.004897,-0.0613765,-0.373485,-0.182148,0.1139945,-0.363565,-0.157678,-0.0842585,-0.716815,-0.045393,0.1065545,-0.733985,-0.017869,1
102,0.0063145,0.7540899999999999,-0.1413279999999999,-0.1409735,0.54627,-0.131028,-0.2105235,0.7616400000000001,-0.325928,0.1719965,0.55446,-0.1106279999999999,0.2939665,0.7694000000000001,-0.275528,-0.1983234999999999,1.00029,-0.496238,0.3107265,0.96912,-0.435648,-0.0914764999999999,-0.0009699999999999,-0.005018,0.0914764999999999,0.0009699999999999,0.005018,-0.0594745,-0.36083,-0.197998,0.1143365,-0.35425,-0.173908,-0.0838555,-0.70478,-0.055461,0.1066564999999999,-0.72675,-0.031733,1
103,0.0080725,0.755095,-0.159045,-0.1381945,0.545095,-0.145705,-0.2089345,0.757475,-0.342115,0.1732555,0.554435,-0.125965,0.2947855,0.766485,-0.295635,-0.1967345,0.994715,-0.5161549999999999,0.3110455,0.965215,-0.459495,-0.0913055,-0.001125,-0.004946,0.0913055,0.0011249999999999,0.004946,-0.0582315,-0.347815,-0.2148449999999999,0.1146655,-0.344725,-0.1906949999999999,-0.0835305,-0.692255,-0.066095,0.1066455,-0.719255,-0.046277,1
104,0.0095294999999999,0.7549399999999999,-0.177743,-0.1362235,0.54402,-0.161293,-0.2074435,0.75381,-0.359963,0.1743065,0.5535599999999999,-0.142153,0.2949065,0.76391,-0.315723,-0.1950835,0.98836,-0.538083,0.3110665,0.96105,-0.484263,-0.0911265,-0.00106,-0.004933,0.0911265,0.00106,0.004933,-0.0573565,-0.33575,-0.232163,0.1149765,-0.33455,-0.208133,-0.0835315,-0.67982,-0.076941,0.1065764999999999,-0.71165,-0.061506,1
105,0.011004,0.754325,-0.1966534999999999,-0.134038,0.542895,-0.1774935,-0.2058579999999999,0.750205,-0.3786434999999999,0.1751519999999999,0.5520149999999999,-0.1590734999999999,0.294902,0.7612949999999999,-0.3359634999999999,-0.193208,0.981835,-0.5608135000000001,0.311012,0.956375,-0.5101035,-0.091122,-0.000955,-0.0049625,0.091122,0.0009549999999999,0.0049625,-0.056525,-0.323335,-0.2496335,0.115522,-0.323435,-0.2255635,-0.083646,-0.667275,-0.0880215,0.105962,-0.700015,-0.0715795,1
106,0.01239,0.753295,-0.2155375,-0.132204,0.540265,-0.1930774999999999,-0.2035739999999999,0.745285,-0.3970575,0.175706,0.5489850000000001,-0.1749675,0.294326,0.757185,-0.3553874999999999,-0.1912539999999999,0.973675,-0.5836275000000001,0.311016,0.950685,-0.5357575,-0.091136,-0.0009049999999999,-0.0049394999999999,0.091136,0.000905,0.0049394999999999,-0.0558889999999999,-0.3072449999999999,-0.2672375,0.116006,-0.3124649999999999,-0.2432575,-0.083821,-0.654925,-0.0990995,0.105406,-0.6883349999999999,-0.0817155,1
107,0.0136449999999999,0.7527950000000001,-0.2336075,-0.130336,0.5384850000000001,-0.2083974999999999,-0.201126,0.740575,-0.4157975,0.176374,0.545255,-0.1911074999999999,0.292794,0.751835,-0.3743675,-0.189276,0.965275,-0.6070875,0.311144,0.944505,-0.5612075,-0.091184,-0.0007449999999999,-0.0050045,0.091184,0.000745,0.0050045,-0.055158,-0.290465,-0.2849075,0.116654,-0.301385,-0.2610275,-0.08369,-0.642215,-0.1103105,0.105324,-0.676005,-0.0925275,1
108,0.0147109999999999,0.75232,-0.251639,-0.128693,0.53522,-0.223919,-0.199293,0.73488,-0.434379,0.176757,0.54014,-0.207839,0.290937,0.74722,-0.392729,-0.187363,0.95564,-0.6304989999999999,0.310967,0.93661,-0.586139,-0.091297,-0.00064,-0.0050709999999999,0.091297,0.0006399999999999,0.0050709999999999,-0.054797,-0.2728,-0.302449,0.117457,-0.28583,-0.279279,-0.083835,-0.62907,-0.121556,0.104967,-0.66337,-0.103513,1
109,0.0158,0.7500199999999999,-0.26919,-0.127076,0.53115,-0.23909,-0.1975559999999999,0.72797,-0.45283,0.176604,0.53678,-0.22208,0.290174,0.74119,-0.41164,-0.1852059999999999,0.94375,-0.65461,0.310714,0.92919,-0.61024,-0.0912139999999999,-0.00056,-0.005084,0.0912139999999999,0.0005599999999999,0.0050839999999999,-0.054496,-0.25644,-0.3197,0.118274,-0.27082,-0.29736,-0.084121,-0.61709,-0.132217,0.104524,-0.652,-0.114272,1
110,0.0163925,0.74571,-0.2810265,-0.1262955,0.52595,-0.2481565,-0.1968154999999999,0.71933,-0.4652564999999999,0.1758345,0.5316000000000001,-0.2307265,0.2886145,0.73258,-0.4246864999999999,-0.1836654999999999,0.9303,-0.6723565,0.3099245,0.9188,-0.6277365,-0.0913245,-0.0004399999999999,-0.0048425,0.0913245,0.0004399999999999,0.0048425,-0.0547775,-0.2427399999999999,-0.3313965,0.1184545,-0.25843,-0.3094365,-0.0850365,-0.60731,-0.1370655,0.1036645,-0.64251,-0.1194695,1
111,0.0173865,0.740065,-0.2932165,-0.1252845,0.521505,-0.2570065,-0.1949545,0.7122649999999999,-0.4787165,0.1754954999999999,0.527185,-0.2395265,0.2882455,0.724985,-0.4377265,-0.1817745,0.919005,-0.6906865,0.3099555,0.907165,-0.6436765,-0.0915555,-0.000385,-0.0044624999999999,0.0915555,0.0003849999999999,0.0044625,-0.0553385,-0.2341349999999999,-0.3373665,0.1184054999999999,-0.249655,-0.3161465,-0.0851475,-0.5980150000000001,-0.1420145,0.1036155,-0.633205,-0.1247165,1
112,0.0180585,0.7331099999999999,-0.303954,-0.1242474999999999,0.51654,-0.265574,-0.1930174999999999,0.70424,-0.491734,0.1754225,0.5218,-0.248144,0.2875025,0.71482,-0.449254,-0.1799575,0.90666,-0.708244,0.3100025,0.89192,-0.657784,-0.0919524999999999,6.0000000000004494e-05,-0.0042089999999999,0.0919524999999999,-6.0000000000004494e-05,0.004209,-0.0559615,-0.22653,-0.342564,0.1183025,-0.2420899999999999,-0.322324,-0.0851865,-0.5903,-0.146611,0.1036325,-0.62506,-0.1295319999999999,1
113,0.0189775,0.72688,-0.313699,-0.1228954999999999,0.5109899999999999,-0.274309,-0.1908655,0.6951499999999999,-0.504169,0.1756545,0.51571,-0.256499,0.2874245,0.7044900000000001,-0.460179,-0.1778855,0.8939299999999999,-0.724169,0.3101645,0.87737,-0.670839,-0.0922844999999999,0.0003799999999999,-0.004086,0.0922844999999999,-0.0003799999999999,0.0040859999999999,-0.0563215,-0.21939,-0.3474589999999999,0.1184845,-0.23505,-0.328029,-0.0849564999999999,-0.5829,-0.150708,0.1041344999999999,-0.61696,-0.134075,1
114,0.0195144999999999,0.719735,-0.3229375,-0.1216435,0.5058050000000001,-0.2827775,-0.1885035,0.685225,-0.5169275,0.1757265,0.5093350000000001,-0.2645675,0.2873765,0.6946950000000001,-0.4701075,-0.1759035,0.8816050000000001,-0.7389175,0.3104565,0.8624550000000001,-0.6818775,-0.0925865,0.000725,-0.0039165,0.0925865,-0.0007249999999999,0.0039164999999999,-0.0565215,-0.2126549999999999,-0.3521575,0.1185764999999999,-0.2291649999999999,-0.3337375,-0.0846465,-0.575055,-0.1544875,0.1043065,-0.604785,-0.1343575,1
115,0.020164,0.71211,-0.331558,-0.120417,0.50084,-0.291288,-0.185837,0.6749700000000001,-0.529998,0.175823,0.50517,-0.272548,0.287783,0.6852,-0.481628,-0.173417,0.86855,-0.754808,0.311053,0.84668,-0.6931780000000001,-0.093033,0.00074,-0.003542,0.093033,-0.00074,0.0035419999999999,-0.056489,-0.2055099999999999,-0.356668,0.1189129999999999,-0.22318,-0.339308,-0.084062,-0.56778,-0.157789,0.104713,-0.59298,-0.134025,1
116,0.020941,0.7041999999999999,-0.340464,-0.1191319999999999,0.4954199999999999,-0.299564,-0.183342,0.66439,-0.5423640000000001,0.175838,0.5009,-0.2803339999999999,0.288388,0.6763,-0.493364,-0.1707719999999999,0.85546,-0.769444,0.311858,0.83022,-0.703834,-0.093468,0.00078,-0.003086,0.093468,-0.00078,0.0030859999999999,-0.056381,-0.19893,-0.360904,0.119458,-0.21735,-0.344644,-0.083367,-0.56079,-0.16068,0.105058,-0.58128,-0.132567,1
117,0.0214455,0.6954849999999999,-0.3491149999999999,-0.1179525,0.4905849999999999,-0.307645,-0.1808725,0.6546449999999999,-0.554325,0.1759575,0.495795,-0.287725,0.2889675,0.6664349999999999,-0.504755,-0.1679225,0.843465,-0.783505,0.3126975,0.8160449999999999,-0.714495,-0.0938075,0.0009749999999999,-0.0026349999999999,0.0938075,-0.000975,0.002635,-0.0562865,-0.192605,-0.364575,0.1200975,-0.211965,-0.349495,-0.0827025,-0.553875,-0.1631179999999999,0.1059175,-0.5737450000000001,-0.135283,1
118,0.0215829999999999,0.68883,-0.35688,-0.117033,0.48614,-0.31559,-0.178573,0.6448499999999999,-0.56627,0.175837,0.4907399999999999,-0.2949199999999999,0.289147,0.65733,-0.5141899999999999,-0.164893,0.83185,-0.79654,0.313467,0.8016099999999999,-0.72537,-0.094017,0.0012499999999999,-0.0021599999999999,0.094017,-0.00125,0.0021599999999999,-0.056321,-0.18544,-0.36822,0.120537,-0.2055,-0.35462,-0.082133,-0.5465800000000001,-0.165678,0.106667,-0.56598,-0.13819,1
119,0.0223625,0.683125,-0.36399,-0.1163605,0.481825,-0.32298,-0.1764804999999999,0.635645,-0.5776100000000001,0.1755695,0.4852349999999999,-0.30167,0.2887794999999999,0.649305,-0.52169,-0.1619205,0.8200149999999999,-0.80916,0.3141795,0.786545,-0.73594,-0.0942295,0.001595,-0.0017,0.0942295,-0.001595,0.0016999999999999,-0.0563735,-0.177805,-0.37165,0.1209595,-0.1984249999999999,-0.35965,-0.0816095,-0.5387649999999999,-0.16797,0.1072795,-0.557765,-0.140938,1
120,0.0231945,0.676015,-0.370295,-0.1157525,0.478025,-0.329725,-0.1748625,0.6260650000000001,-0.588035,0.1751974999999999,0.480155,-0.307725,0.2885375,0.639465,-0.529495,-0.1591825,0.806825,-0.820915,0.3143775,0.771945,-0.7451949999999999,-0.0944875,0.0020749999999999,-0.0013249999999999,0.0944875,-0.0020749999999999,0.001325,-0.0565045,-0.170475,-0.374745,0.1211474999999999,-0.190865,-0.3645049999999999,-0.0816455,-0.531015,-0.17056,0.1074675,-0.550195,-0.144141,1
121,0.023672,0.6707449999999999,-0.37746,-0.1153889999999999,0.473015,-0.33666,-0.173416,0.616925,-0.59814,0.174684,0.474875,-0.31414,0.287864,0.631025,-0.53783,-0.156756,0.794775,-0.83197,0.314584,0.762095,-0.75602,-0.094814,0.002195,-0.0008999999999999,0.094814,-0.002195,0.0008999999999999,-0.057019,-0.161825,-0.37821,0.1211039999999999,-0.182215,-0.36939,-0.081894,-0.522135,-0.173678,0.107394,-0.541405,-0.147448,1
122,0.0239665,0.664745,-0.3846,-0.1151175,0.468217,-0.3420999999999999,-0.1720674999999999,0.607765,-0.6069899999999999,0.1742625,0.469765,-0.31931,0.2867524999999999,0.622445,-0.54521,-0.1543775,0.7817050000000001,-0.84275,0.3149225,0.7501450000000001,-0.76558,-0.0951925,0.0022449999999999,-0.0003399999999999,0.0951925,-0.0022449999999999,0.00034,-0.0576845,-0.154215,-0.38098,0.1210525,-0.174605,-0.3734099999999999,-0.0821155,-0.514525,-0.176368,0.1071325,-0.533795,-0.1498239999999999,1
123,0.0243389999999999,0.66057,-0.39129,-0.114845,0.462739,-0.34692,-0.170851,0.60004,-0.61341,0.173759,0.465273,-0.3239999999999999,0.285999,0.6133500000000001,-0.55196,-0.151881,0.76722,-0.8523,0.315549,0.73848,-0.77482,-0.095659,0.00213,7.000000000000062e-05,0.095659,-0.00213,-6.999999999998674e-05,-0.058541,-0.1478299999999999,-0.38349,0.1209089999999999,-0.1684399999999999,-0.37683,-0.082277,-0.50844,-0.17872,0.1069789999999999,-0.5276000000000001,-0.152215,1
124,0.0246295,0.6568,-0.39751,-0.1146515,0.458854,-0.35093,-0.1701455,0.59206,-0.61965,0.1733045,0.460366,-0.32782,0.2850745,0.60389,-0.5592,-0.1497255,0.75419,-0.86002,0.3153745,0.7278,-0.78376,-0.0960645,0.0023699999999999,0.0001999999999999,0.0960645,-0.0023699999999999,-0.0002,-0.0595115,-0.14286,-0.38552,0.1206744999999999,-0.16362,-0.37957,-0.0824975,-0.5035099999999999,-0.180668,0.1067945,-0.5226999999999999,-0.154273,1
125,0.025146,0.65391,-0.403145,-0.114019,0.4545479999999999,-0.355025,-0.169194,0.58453,-0.625435,0.172636,0.453706,-0.332005,0.284466,0.59505,-0.5662050000000001,-0.1473439999999999,0.7419,-0.8669150000000001,0.315226,0.71776,-0.792225,-0.096466,0.0027399999999999,0.000255,0.096466,-0.00274,-0.000255,-0.060509,-0.13761,-0.387625,0.120336,-0.1577899999999999,-0.381925,-0.082728,-0.49778,-0.182702,0.106656,-0.5173800000000001,-0.156136,1
126,0.0249994999999999,0.65189,-0.40868,-0.1133005,0.451126,-0.35846,-0.1681055,0.57731,-0.63091,0.1719145,0.448925,-0.3356,0.2839645,0.5869800000000001,-0.57314,-0.1446754999999999,0.72896,-0.87345,0.3150645,0.7071000000000001,-0.79982,-0.0967645,0.00303,0.00018,0.0967645,-0.0030299999999999,-0.0001799999999999,-0.0614675,-0.1332499999999999,-0.3894499999999999,0.1199945,-0.1525499999999999,-0.38381,-0.0830945,-0.49288,-0.184492,0.1065345,-0.51288,-0.1577909999999999,1
127,0.024654,0.64925,-0.4138949999999999,-0.112329,0.447758,-0.361585,-0.166221,0.56989,-0.6361249999999999,0.171339,0.446959,-0.339245,0.283759,0.57939,-0.579495,-0.141681,0.7150799999999999,-0.8787349999999999,0.314829,0.69704,-0.807285,-0.096789,0.0031799999999999,0.000145,0.096789,-0.00318,-0.0001449999999999,-0.0622949999999999,-0.12944,-0.391005,0.120009,-0.1477899999999999,-0.3854849999999999,-0.083253,-0.48836,-0.1861879999999999,0.106649,-0.5085000000000001,-0.1593619999999999,1
128,0.0239544999999999,0.6461250000000001,-0.419165,-0.1111844999999999,0.444078,-0.365025,-0.1646145,0.562535,-0.641335,0.1705055,0.445528,-0.343085,0.2833255,0.5722050000000001,-0.586085,-0.1389345,0.702755,-0.8837050000000001,0.3147855,0.688145,-0.814455,-0.0964955,0.003015,-0.000175,0.0964955,-0.0030149999999999,0.000175,-0.0633805,-0.1262449999999999,-0.392745,0.1197455,-0.143645,-0.387285,-0.0835925,-0.484565,-0.18799,0.1065155,-0.504795,-0.161137,1
129,0.0243649999999999,0.64271,-0.4236299999999999,-0.1099229999999999,0.446988,-0.36802,-0.1631,0.55461,-0.64559,0.16952,0.443129,-0.34665,0.2826999999999999,0.5649200000000001,-0.5926,-0.1360299999999999,0.69051,-0.8880899999999999,0.31479,0.6778500000000001,-0.8208099999999999,-0.0963,0.00371,-0.0002699999999999,0.0963,-0.0037099999999999,0.0002699999999999,-0.064525,-0.1242699999999999,-0.39375,0.11973,-0.1409,-0.38919,-0.083916,-0.4821,-0.1892039999999999,0.10645,-0.5023,-0.16239,1
130,0.025208,0.6367700000000001,-0.4266649999999999,-0.108881,0.448698,-0.370205,-0.161748,0.5464100000000001,-0.649375,0.160772,0.440664,-0.358825,0.282192,0.55807,-0.598715,-0.133738,0.67815,-0.891695,0.3148019999999999,0.66604,-0.8250149999999999,-0.096032,0.0049799999999999,-0.0002749999999999,0.096032,-0.0049799999999999,0.0002749999999999,-0.0658169999999999,-0.12403,-0.394215,0.1196019999999999,-0.1398299999999999,-0.3903649999999999,-0.0844389999999999,-0.4808699999999999,-0.18977,0.1062019999999999,-0.50133,-0.163395,1
131,0.0258095,0.631305,-0.4291399999999999,-0.1077595,0.450213,-0.3721799999999999,-0.1604185,0.539235,-0.65325,0.1521015,0.438848,-0.37039,0.2814515,0.551355,-0.6041300000000001,-0.1315484999999999,0.665605,-0.89293,0.3143315,0.653285,-0.82769,-0.0957814999999999,0.006245,-8.999999999997899e-05,0.0957814999999999,-0.006245,9.000000000000674e-05,-0.0672865,-0.1245849999999999,-0.39452,0.1194415,-0.138885,-0.39119,-0.0849125,-0.4798749999999999,-0.1899159999999999,0.1059914999999999,-0.500425,-0.164235,1
132,0.026707,0.62525,-0.43142,-0.101355,0.4513979999999999,-0.38216,-0.1586159999999999,0.5321,-0.6589700000000001,0.143474,0.4360349999999999,-0.37965,0.281064,0.5448999999999999,-0.60951,-0.128856,0.65518,-0.89545,0.313984,0.64188,-0.83019,-0.095244,0.0076199999999999,0.00031,0.095244,-0.00762,-0.00031,-0.068388,-0.1248799999999999,-0.39398,0.119604,-0.13776,-0.39183,-0.084966,-0.4790500000000001,-0.190044,0.106154,-0.49962,-0.165047,1
133,0.0273254999999999,0.62025,-0.43331,-0.0998025,0.447865,-0.38607,-0.1568465,0.52724,-0.6636,0.1351534999999999,0.434406,-0.38987,0.2807234999999999,0.5404100000000001,-0.61316,-0.1259965,0.64488,-0.89884,0.3138435,0.63231,-0.83174,-0.0948335,0.0078199999999999,1.999999999999225e-05,0.0948335,-0.0078199999999999,-2.000000000002e-05,-0.0690185,-0.12258,-0.39473,0.1203135,-0.1352099999999999,-0.39254,-0.0846385,-0.47741,-0.190755,0.1066135,-0.49792,-0.166205,1
134,0.0268985,0.616255,-0.435085,-0.0984765,0.444837,-0.389955,-0.1550255,0.521317,-0.668135,0.1274344999999999,0.434546,-0.400515,0.2802145,0.536075,-0.616815,-0.1236055,0.634845,-0.902505,0.3138545,0.624145,-0.834135,-0.0944245,0.007475,-0.000435,0.0944245,-0.007475,0.0004349999999999,-0.0694185,-0.120185,-0.395735,0.1211045,-0.1328149999999999,-0.392725,-0.0842115,-0.475115,-0.191353,0.1071145,-0.495785,-0.167433,1
135,0.026177,0.61323,-0.43661,-0.097691,0.442963,-0.39317,-0.15367,0.516702,-0.67232,0.12597,0.433623,-0.40545,0.27923,0.5325500000000001,-0.62029,-0.12192,0.62696,-0.9063,0.31359,0.61744,-0.83732,-0.0942699999999999,0.00748,-0.00098,0.0942699999999999,-0.0074799999999999,0.0009799999999999,-0.070112,-0.11697,-0.39656,0.12178,-0.1295999999999999,-0.39309,-0.084058,-0.4719,-0.191884,0.10736,-0.4927899999999999,-0.168678,1
136,0.0264575,0.610375,-0.439345,-0.0972155,0.4405409999999999,-0.396575,-0.1529455,0.514979,-0.6766650000000001,0.1245745,0.4347419999999999,-0.410785,0.2780344999999999,0.5314599999999999,-0.622145,-0.1209155,0.624095,-0.911225,0.3130745,0.614035,-0.8390949999999999,-0.0940145,0.0056049999999999,-0.0011249999999999,0.0940145,-0.005605,0.0011249999999999,-0.0711455,-0.111605,-0.398165,0.1224945,-0.124215,-0.393845,-0.0839895,-0.466645,-0.192979,0.1075245,-0.487475,-0.170516,1
137,0.0262934999999999,0.6065699999999999,-0.44245,-0.0966684999999999,0.4393269999999999,-0.39979,-0.1520475,0.512628,-0.6811400000000001,0.1232024999999999,0.4363399999999999,-0.41476,0.2773724999999999,0.529936,-0.62639,-0.1197275,0.62003,-0.91666,0.3131325,0.61073,-0.8439300000000001,-0.0940225,0.0041899999999999,-0.00141,0.0940225,-0.00419,0.0014099999999999,-0.0718805,-0.1061199999999999,-0.39972,0.1236325,-0.11841,-0.39454,-0.0835455,-0.46158,-0.194246,0.1079425,-0.48256,-0.172601,1
138,0.0269114999999999,0.603795,-0.446115,-0.0961075,0.436847,-0.403005,-0.1515865,0.510953,-0.683585,0.1222534999999999,0.4351629999999999,-0.418635,0.2767935,0.5279849999999999,-0.6289750000000001,-0.1184564999999999,0.6156349999999999,-0.922365,0.3129135,0.606235,-0.846115,-0.0940834999999999,0.0032449999999999,-0.002055,0.0940834999999999,-0.0032449999999999,0.002055,-0.0723665,-0.100415,-0.401685,0.1249535,-0.112265,-0.395665,-0.0827465,-0.456405,-0.196318,0.1085035,-0.477485,-0.175144,1
139,0.0277615,0.60211,-0.450885,-0.0955955,0.434453,-0.405945,-0.1511595,0.507674,-0.685945,0.1227105,0.434231,-0.421135,0.2762004999999999,0.523845,-0.6314649999999999,-0.1173595,0.6111,-0.928535,0.3130805,0.6006,-0.849355,-0.0941305,0.0022499999999999,-0.002715,0.0941305,-0.0022499999999999,0.0027149999999999,-0.0727035,-0.0950299999999999,-0.403605,0.1261105,-0.10643,-0.396605,-0.0821385,-0.45135,-0.198617,0.1090405,-0.47251,-0.177458,1
140,0.0285245,0.596185,-0.455455,-0.0953535,0.428293,-0.4085149999999999,-0.1503165,0.4993809999999999,-0.6904950000000001,0.1231735,0.4272769999999999,-0.4233949999999999,0.2765835,0.516154,-0.633075,-0.1161165,0.6033149999999999,-0.934835,0.3132635,0.591865,-0.851805,-0.0932834999999999,0.0013749999999999,-0.002945,0.0932834999999999,-0.001375,0.002945,-0.0723955,-0.0928149999999999,-0.405085,0.1273835,-0.103855,-0.397765,-0.0816755,-0.450085,-0.200857,0.1095835,-0.471225,-0.17968,1
141,0.029645,0.593925,-0.459875,-0.095454,0.424412,-0.4109049999999999,-0.149803,0.491431,-0.6928049999999999,0.123357,0.423073,-0.425755,0.276207,0.510115,-0.635135,-0.115253,0.595945,-0.940025,0.313177,0.586075,-0.8542449999999999,-0.093277,0.000605,-0.0032149999999999,0.093277,-0.0006049999999999,0.0032149999999999,-0.072777,-0.087635,-0.406535,0.128417,-0.0976949999999999,-0.399105,-0.081402,-0.4451549999999999,-0.203197,0.109977,-0.4666049999999999,-0.1820689999999999,1
142,0.0317319999999999,0.586635,-0.46416,-0.095156,0.4167349999999999,-0.41326,-0.148909,0.480351,-0.6939500000000001,0.130241,0.412745,-0.42002,0.275301,0.49993,-0.63498,-0.114039,0.585705,-0.94419,0.312651,0.575995,-0.8537600000000001,-0.092861,0.0001349999999999,-0.0033199999999999,0.092861,-0.0001349999999999,0.00332,-0.072379,-0.0859149999999999,-0.40787,0.129681,-0.0954549999999999,-0.40063,-0.080738,-0.444465,-0.205502,0.110801,-0.465935,-0.184449,1
143,0.034285,0.57809,-0.46907,-0.093973,0.408739,-0.41667,-0.147689,0.470938,-0.6950000000000001,0.137521,0.402805,-0.41506,0.275011,0.489946,-0.63792,-0.1129689999999999,0.57638,-0.94731,0.312491,0.56606,-0.8576100000000001,-0.092581,-9.9999999999989e-05,-0.0033299999999999,0.092581,9.9999999999989e-05,0.0033299999999999,-0.071504,-0.0836199999999999,-0.40979,0.131291,-0.09342,-0.40274,-0.079521,-0.4440899999999999,-0.2092,0.112051,-0.46564,-0.187537,1
144,0.0370809999999999,0.57056,-0.478995,-0.097356,0.3916249999999999,-0.417515,-0.146781,0.4628939999999999,-0.699345,0.145129,0.3958409999999999,-0.416475,0.275229,0.4818769999999999,-0.646515,-0.111711,0.5661299999999999,-0.955225,0.313289,0.5577319999999999,-0.8714850000000001,-0.092369,-0.00197,-0.004375,0.092369,0.0019699999999999,0.0043749999999999,-0.070978,-0.07999,-0.412285,0.132519,-0.08918,-0.402455,-0.078014,-0.44229,-0.218096,0.113489,-0.4640500000000001,-0.195882,1
145,0.039106,0.56267,-0.488075,-0.096276,0.383733,-0.4241049999999999,-0.1461519999999999,0.453302,-0.7041850000000001,0.152538,0.38697,-0.417885,0.274918,0.471693,-0.654155,-0.1103019999999999,0.55386,-0.964335,0.313838,0.5469930000000001,-0.885675,-0.0922979999999999,-0.0018199999999999,-0.005035,0.0922979999999999,0.0018199999999999,0.005035,-0.0708149999999999,-0.07926,-0.413435,0.133358,-0.08765,-0.401605,-0.0768,-0.44253,-0.2261429999999999,0.114658,-0.46441,-0.203156,1
146,0.0409459999999999,0.5550390000000001,-0.497075,-0.095306,0.376015,-0.430655,-0.145463,0.444217,-0.7100949999999999,0.159677,0.378092,-0.419385,0.275807,0.46185,-0.660115,-0.1090029999999999,0.538657,-0.974865,0.314957,0.536161,-0.900235,-0.092397,-0.0016899999999999,-0.0055749999999999,0.092397,0.00169,0.0055749999999999,-0.0708,-0.0785599999999999,-0.414325,0.134177,-0.08621,-0.400945,-0.075833,-0.4427999999999999,-0.233879,0.115597,-0.4644399999999999,-0.209888,1
147,0.042493,0.546526,-0.50513,-0.094379,0.369803,-0.4370699999999999,-0.144616,0.433048,-0.71274,0.160434,0.371297,-0.4245299999999999,0.274604,0.45271,-0.66148,-0.108006,0.523884,-0.98397,0.316014,0.525521,-0.90767,-0.092693,-0.00212,-0.0055999999999999,0.092693,0.00212,0.0055999999999999,-0.070838,-0.0786699999999999,-0.41484,0.134944,-0.08539,-0.4004999999999999,-0.074962,-0.44376,-0.24079,0.116434,-0.4649399999999999,-0.215935,1
148,0.044967,0.536517,-0.51201,-0.092411,0.362049,-0.44327,-0.14306,0.422126,-0.71536,0.1617299999999999,0.362508,-0.42976,0.27459,0.444253,-0.6678,-0.1069,0.507741,-0.99181,0.31689,0.5149480000000001,-0.9198,-0.092613,-0.0013149999999999,-0.0055399999999999,0.092613,0.001315,0.0055399999999999,-0.070238,-0.0810349999999999,-0.414,0.13624,-0.0864249999999999,-0.40005,-0.073644,-0.446485,-0.24745,0.11784,-0.467375,-0.222003,1
149,0.0467525,0.527331,-0.51872,-0.0905645,0.35484,-0.44924,-0.1415025,0.4126309999999999,-0.71737,0.1630775,0.35609,-0.4357999999999999,0.2758375,0.435586,-0.67387,-0.1059825,0.493251,-0.99791,0.3177575,0.508375,-0.93333,-0.0923855,-0.00028,-0.00558,0.0923855,0.00028,0.00558,-0.0697725,-0.08339,-0.41322,0.1373875,-0.0879099999999999,-0.3994499999999999,-0.0725945,-0.44922,-0.253961,0.1190675,-0.4697199999999999,-0.2276,1
150,0.0485055,0.5180400000000001,-0.52498,-0.0885635,0.348485,-0.45489,-0.1401265,0.406017,-0.7194699999999999,0.1642835,0.349915,-0.44151,0.2773535,0.428309,-0.67983,-0.1056365,0.481391,-1.00117,0.3201135,0.501191,-0.93971,-0.0917555,0.000485,-0.0055199999999999,0.0917555,-0.0004849999999999,0.0055199999999999,-0.0692145,-0.0866549999999999,-0.41227,0.1385835,-0.0902549999999999,-0.39875,-0.0714315,-0.452635,-0.25988,0.1202935,-0.4725549999999999,-0.232796,1
151,0.049998,0.5103570000000001,-0.531225,-0.086759,0.34279,-0.460615,-0.138886,0.39998,-0.7224149999999999,0.165424,0.34381,-0.447165,0.277464,0.421726,-0.685575,-0.105516,0.470852,-1.002785,0.321504,0.494012,-0.945335,-0.091139,0.00113,-0.005425,0.091139,-0.0011299999999999,0.005425,-0.068713,-0.08955,-0.4112949999999999,0.139774,-0.09236,-0.398085,-0.070302,-0.4555099999999999,-0.26571,0.121434,-0.4750799999999999,-0.237944,1
152,0.049866,0.50736,-0.531405,-0.086583,0.34101,-0.460725,-0.139208,0.398676,-0.720985,0.1651419999999999,0.34165,-0.4475449999999999,0.277322,0.422038,-0.685765,-0.105848,0.46732,-1.0016850000000002,0.321822,0.490729,-0.942505,-0.0909949999999999,0.00129,-0.005585,0.0909949999999999,-0.0012899999999999,0.005585,-0.069085,-0.0887,-0.411375,0.139872,-0.0909299999999999,-0.398115,-0.0705959999999999,-0.4543999999999999,-0.2659579999999999,0.121062,-0.4738599999999999,-0.237792,1
153,0.049832,0.504186,-0.53128,-0.08637,0.3408049999999999,-0.46104,-0.1383289999999999,0.397609,-0.72068,0.1649709999999999,0.339925,-0.44803,0.278731,0.4217349999999999,-0.6930000000000001,-0.105709,0.466231,-1.00258,0.322271,0.4871749999999999,-0.94441,-0.090902,0.001255,-0.00557,0.090902,-0.001255,0.0055699999999999,-0.069404,-0.0887549999999999,-0.41133,0.139891,-0.090895,-0.39811,-0.070761,-0.454335,-0.26599,0.120811,-0.473485,-0.237456,1
154,0.049553,0.5041669999999999,-0.53106,-0.086448,0.3431649999999999,-0.4613899999999999,-0.138153,0.3999689999999999,-0.7194400000000001,0.164507,0.3416349999999999,-0.44845,0.280097,0.4240949999999999,-0.69626,-0.106153,0.468591,-1.00173,0.323417,0.4895349999999999,-0.95202,-0.090693,0.0010449999999999,-0.0055399999999999,0.090693,-0.001045,0.00554,-0.069864,-0.086005,-0.41139,0.139697,-0.088055,-0.39814,-0.071125,-0.451975,-0.266042,0.120317,-0.470725,-0.23704,1
155,0.046571,0.510088,-0.525135,-0.088177,0.350725,-0.457025,-0.139374,0.407529,-0.714245,0.162586,0.348615,-0.443805,0.278676,0.431655,-0.694345,-0.1080339999999999,0.476151,-0.995315,0.322056,0.496607,-0.946365,-0.0904399999999999,0.001085,-0.005255,0.0904399999999999,-0.001085,0.0052549999999999,-0.072306,-0.0785149999999999,-0.412305,0.138646,-0.080405,-0.400085,-0.0729239999999999,-0.4444149999999999,-0.261431,0.118376,-0.4627649999999999,-0.232418,1
156,0.0445454999999999,0.5106109999999999,-0.523595,-0.0890085,0.35241,-0.457335,-0.1407455,0.408344,-0.715195,0.1617545,0.3485499999999999,-0.444115,0.2776545,0.4324699999999999,-0.6939949999999999,-0.1087455,0.476966,-0.996585,0.3219845,0.497422,-0.939775,-0.0896005,0.00128,-0.0049349999999999,0.0896005,-0.00128,0.004935,-0.0742655,-0.07742,-0.412305,0.1378145,-0.07928,-0.4003949999999999,-0.0739575,-0.4436,-0.261586,0.1175244999999999,-0.46158,-0.232618,1
157,0.0420735,0.5158109999999999,-0.5182599999999999,-0.0901115,0.3591499999999999,-0.45274,-0.1426315,0.4144589999999999,-0.71194,0.1601985,0.3537499999999999,-0.4397299999999999,0.2788785,0.4391909999999999,-0.69223,-0.1099715,0.4830919999999999,-0.99258,0.3228685,0.5061089999999999,-0.93668,-0.0898515,0.0012399999999999,-0.0049699999999999,0.0898515,-0.00124,0.00497,-0.0761875,-0.07252,-0.4134799999999999,0.1371385,-0.07435,-0.4017699999999999,-0.0754625,-0.43818,-0.256452,0.1161685,-0.45579,-0.227653,1
158,0.039617,0.5201659999999999,-0.51188,-0.091427,0.3642249999999999,-0.44824,-0.144222,0.420714,-0.70872,0.159018,0.3581049999999999,-0.43525,0.2800979999999999,0.4450289999999999,-0.68874,-0.110132,0.493538,-0.98856,0.324628,0.513053,-0.93275,-0.090172,0.0014549999999999,-0.005,0.090172,-0.001455,0.005,-0.077698,-0.068535,-0.4145999999999999,0.136638,-0.070305,-0.40312,-0.076494,-0.4333450000000001,-0.251181,0.1151679999999999,-0.450825,-0.222647,1
159,0.0369735,0.5240159999999999,-0.50479,-0.0929675,0.370255,-0.44377,-0.1450315,0.430845,-0.70533,0.1578584999999999,0.362325,-0.43073,0.2806785,0.4516679999999999,-0.68444,-0.1108715,0.50551,-0.98545,0.3255085,0.5191439999999999,-0.9201,-0.0904295,0.0016249999999999,-0.0051599999999999,0.0904295,-0.001625,0.0051599999999999,-0.0791864999999999,-0.064875,-0.41582,0.1359485,-0.066805,-0.40428,-0.0776215,-0.428855,-0.245912,0.1141484999999999,-0.446255,-0.217795,1
160,0.034456,0.532513,-0.4972149999999999,-0.094577,0.377735,-0.438505,-0.1461489999999999,0.440545,-0.6996249999999999,0.1569209999999999,0.370515,-0.425605,0.281751,0.459553,-0.678695,-0.111669,0.516939,-0.978365,0.326031,0.524659,-0.906375,-0.090684,0.001455,-0.0053149999999999,0.090684,-0.0014549999999999,0.005315,-0.0805589999999999,-0.0625749999999999,-0.416895,0.1352209999999999,-0.0646249999999999,-0.405135,-0.078703,-0.4252249999999999,-0.2398969999999999,0.113141,-0.4429149999999999,-0.212108,1
161,0.031798,0.541339,-0.4892,-0.09644,0.386225,-0.43289,-0.147872,0.450435,-0.6934400000000001,0.155768,0.378255,-0.42023,0.280488,0.469775,-0.6733100000000001,-0.112052,0.528496,-0.9711,0.326438,0.532519,-0.8938900000000001,-0.090958,0.001085,-0.00534,0.090958,-0.001085,0.0053399999999999,-0.081948,-0.061065,-0.4178,0.134468,-0.063385,-0.40592,-0.079854,-0.422455,-0.233711,0.112018,-0.440735,-0.206064,1
162,0.029046,0.550509,-0.48058,-0.098297,0.394335,-0.42706,-0.148963,0.460754,-0.6891499999999999,0.154667,0.385241,-0.4147699999999999,0.280717,0.481033,-0.6673,-0.112513,0.542191,-0.96318,0.326907,0.543093,-0.88627,-0.091197,0.001,-0.0054099999999999,0.091197,-0.001,0.0054099999999999,-0.083468,-0.06036,-0.41862,0.133547,-0.0631999999999999,-0.40627,-0.080939,-0.4209799999999999,-0.227734,0.110957,-0.43953,-0.199867,1
163,0.026394,0.5616059999999999,-0.471455,-0.099906,0.402331,-0.420325,-0.1497349999999999,0.471614,-0.683405,0.153905,0.394269,-0.408455,0.2809549999999999,0.492737,-0.659975,-0.113205,0.556453,-0.954565,0.3270949999999999,0.553603,-0.874765,-0.091415,0.0009799999999999,-0.005535,0.091415,-0.00098,0.0055349999999999,-0.084922,-0.0601599999999999,-0.418895,0.132635,-0.06368,-0.405995,-0.081904,-0.42019,-0.221445,0.110175,-0.43894,-0.19341,1
164,0.0258105,0.574355,-0.46779,-0.1006644999999999,0.4107699999999999,-0.41835,-0.1497455,0.484162,-0.6832,0.1541845,0.404184,-0.40658,0.2814945,0.5035109999999999,-0.6547499999999999,-0.1126554999999999,0.571025,-0.95246,0.3282245,0.564766,-0.86904,-0.0915445,0.0009799999999999,-0.0055699999999999,0.0915445,-0.00098,0.0055699999999999,-0.0853994999999999,-0.05992,-0.41782,0.1319445,-0.0642,-0.40447,-0.0821475,-0.4199900000000001,-0.21992,0.1102045,-0.43837,-0.191868,1
165,0.0252875,0.58722,-0.4650849999999999,-0.1013145,0.4190739999999999,-0.4167349999999999,-0.1502794999999999,0.4981029999999999,-0.683855,0.1545705,0.414195,-0.4049049999999999,0.2819305,0.5152899999999999,-0.649975,-0.1122094999999999,0.5867399999999999,-0.951365,0.3287405,0.578352,-0.864095,-0.0916505,0.0009799999999999,-0.005585,0.0916505,-0.00098,0.005585,-0.0858855,-0.05965,-0.4168449999999999,0.1312605,-0.06446,-0.403525,-0.0823964999999999,-0.41976,-0.2189579999999999,0.1102905,-0.43778,-0.190838,1
166,0.0246704999999999,0.6014149999999999,-0.4625599999999999,-0.1019144999999999,0.4282729999999999,-0.4154199999999999,-0.1510615,0.511678,-0.68435,0.1549785,0.4258679999999999,-0.40342,0.2828385,0.5272079999999999,-0.64907,-0.1121014999999999,0.6016649999999999,-0.95056,0.3291084999999999,0.594235,-0.86336,-0.0916085,0.0007749999999999,-0.0053699999999999,0.0916085,-0.000775,0.00537,-0.0866204999999999,-0.059425,-0.4161499999999999,0.1304285,-0.064935,-0.40284,-0.0828115,-0.419675,-0.2182559999999999,0.1102785,-0.437605,-0.1901989999999999,1
167,0.0259939999999999,0.608275,-0.460715,-0.100804,0.430677,-0.414225,-0.149985,0.518494,-0.684415,0.157485,0.4299409999999999,-0.401895,0.285075,0.533017,-0.6452249999999999,-0.110835,0.612735,-0.948415,0.330715,0.602255,-0.859365,-0.092175,0.0008749999999999,-0.0052949999999999,0.092175,-0.000875,0.0052949999999999,-0.0858,-0.0667349999999999,-0.415475,0.131555,-0.072455,-0.402645,-0.081509,-0.427365,-0.218054,0.111965,-0.445215,-0.1898679999999999,1
168,0.027188,0.6143000000000001,-0.457115,-0.099657,0.433271,-0.4127949999999999,-0.149173,0.523227,-0.684285,0.160077,0.434304,-0.400065,0.286907,0.538215,-0.6404749999999999,-0.109883,0.62198,-0.945905,0.332207,0.60992,-0.8556950000000001,-0.092667,0.0009899999999999,-0.0052649999999999,0.092667,-0.0009899999999999,0.005265,-0.085047,-0.07429,-0.414865,0.132787,-0.08022,-0.4018549999999999,-0.0802249999999999,-0.43524,-0.21777,0.113687,-0.45335,-0.189606,1
169,0.0275425,0.616255,-0.45298,-0.0991765,0.435297,-0.4113,-0.1487605,0.529783,-0.6843400000000001,0.1617695,0.435675,-0.39802,0.2879995,0.544397,-0.63603,-0.1091905,0.634015,-0.94411,0.3331595,0.621465,-0.85268,-0.0926195,0.001175,-0.00515,0.0926195,-0.0011749999999999,0.0051499999999999,-0.0850025,-0.080195,-0.4141,0.1333195,-0.086905,-0.40105,-0.0796365,-0.441685,-0.21776,0.1146395,-0.459535,-0.189842,1
170,0.0277844999999999,0.61739,-0.44871,-0.0987695,0.435759,-0.40936,-0.1479615,0.536267,-0.6842400000000001,0.1631785,0.436895,-0.39576,0.2883985,0.550144,-0.6328400000000001,-0.1089315,0.64612,-0.94218,0.3343585,0.63283,-0.85246,-0.0922304999999999,0.00121,-0.0051,0.0922304999999999,-0.0012099999999999,0.0050999999999999,-0.0851075,-0.0859799999999999,-0.41281,0.1336885,-0.09387,-0.39919,-0.0792045,-0.4484599999999999,-0.217803,0.1154385,-0.46601,-0.189881,1
171,0.027884,0.6179749999999999,-0.44468,-0.0982659999999999,0.4378289999999999,-0.40868,-0.146952,0.543526,-0.68239,0.163658,0.4398629999999999,-0.39569,0.289828,0.555495,-0.63069,-0.1095319999999999,0.6561549999999999,-0.93742,0.335468,0.643235,-0.8522700000000001,-0.091722,0.0012749999999999,-0.00503,0.091722,-0.001275,0.00503,-0.0852349999999999,-0.091995,-0.41125,0.134058,-0.101065,-0.39727,-0.078923,-0.456075,-0.217796,0.116028,-0.472755,-0.189905,1
172,0.027573,0.6177900000000001,-0.439705,-0.098244,0.439939,-0.406685,-0.145781,0.5511900000000001,-0.679415,0.165069,0.441691,-0.392715,0.290889,0.56108,-0.627035,-0.1102209999999999,0.6666300000000001,-0.932315,0.3359789999999999,0.65489,-0.850485,-0.0913259999999999,0.00143,-0.0046049999999999,0.0913259999999999,-0.0014299999999999,0.0046049999999999,-0.0855519999999999,-0.0972199999999999,-0.409085,0.134229,-0.10738,-0.395095,-0.078815,-0.4632499999999999,-0.218774,0.1164989999999999,-0.47916,-0.190605,1
173,0.0271264999999999,0.6178049999999999,-0.434785,-0.0986605,0.443992,-0.403785,-0.1454955,0.5576949999999999,-0.673635,0.1661745,0.447559,-0.389605,0.2920644999999999,0.567925,-0.624885,-0.1112855,0.675175,-0.927105,0.3360944999999999,0.668595,-0.849305,-0.0911505,0.0015249999999999,-0.004235,0.0911505,-0.0015249999999999,0.0042349999999999,-0.0861035,-0.102725,-0.406865,0.1340445,-0.113885,-0.392445,-0.0791625,-0.470525,-0.22004,0.1167745,-0.485965,-0.191488,1
174,0.0269875,0.6181650000000001,-0.430025,-0.0990844999999999,0.450469,-0.400675,-0.1457535,0.562215,-0.666605,0.1669765,0.453366,-0.386835,0.2933064999999999,0.574845,-0.622165,-0.1121635,0.684815,-0.920045,0.3364065,0.680695,-0.848105,-0.0910115,0.001735,-0.0038449999999999,0.0910115,-0.0017349999999999,0.0038449999999999,-0.0866925,-0.1084849999999999,-0.403955,0.1340765,-0.1206249999999999,-0.390065,-0.0792845,-0.477915,-0.221331,0.1171065,-0.492985,-0.192528,1
175,0.026382,0.61875,-0.4258099999999999,-0.099705,0.455277,-0.39852,-0.146769,0.5663400000000001,-0.65812,0.167451,0.458005,-0.38446,0.293791,0.5823400000000001,-0.6188,-0.113599,0.69352,-0.9121,0.3369209999999999,0.68963,-0.84747,-0.090891,0.0019399999999999,-0.0034599999999999,0.090891,-0.0019399999999999,0.00346,-0.087458,-0.11426,-0.40148,0.134141,-0.1271,-0.38822,-0.079768,-0.48539,-0.223055,0.117161,-0.50007,-0.1939969999999999,1
176,0.0263264999999999,0.623205,-0.42131,-0.1002475,0.459269,-0.39521,-0.1477875,0.569775,-0.6492800000000001,0.1679625,0.462111,-0.38123,0.2946625,0.5885549999999999,-0.6149,-0.1154675,0.698795,-0.90403,0.3371925,0.699805,-0.8451500000000001,-0.0907445,0.001925,-0.00317,0.0907445,-0.001925,0.00317,-0.0879135,-0.121005,-0.3986699999999999,0.1345425,-0.134345,-0.38571,-0.0800115,-0.493715,-0.224467,0.1175425,-0.507995,-0.195329,1
177,0.026535,0.62756,-0.41768,-0.1011699999999999,0.463122,-0.39174,-0.1495929999999999,0.57433,-0.63971,0.168007,0.46597,-0.37746,0.294987,0.5954900000000001,-0.61063,-0.1177729999999999,0.70655,-0.89537,0.337087,0.70923,-0.84082,-0.090552,0.00208,-0.0029899999999999,0.090552,-0.0020799999999999,0.0029899999999999,-0.088558,-0.12868,-0.39533,0.134937,-0.14232,-0.38284,-0.0806319999999999,-0.50217,-0.224988,0.117687,-0.5166,-0.19622,1
178,0.0265555,0.631875,-0.413375,-0.1019895,0.466319,-0.388175,-0.1516425,0.579115,-0.630755,0.1679875,0.469587,-0.373695,0.2950275,0.602395,-0.6052150000000001,-0.1205125,0.713525,-0.885715,0.3367974999999999,0.718445,-0.834815,-0.0903565,0.002195,-0.0029349999999999,0.0903565,-0.002195,0.0029349999999999,-0.0893395,-0.136055,-0.391565,0.1354875,-0.1496849999999999,-0.379885,-0.0812845,-0.510375,-0.225354,0.1176675,-0.525465,-0.196901,1
179,0.02631,0.639045,-0.408515,-0.102727,0.471345,-0.382905,-0.1538,0.5830649999999999,-0.620615,0.1684,0.474694,-0.367295,0.2946299999999999,0.608825,-0.598285,-0.1234099999999999,0.719545,-0.875915,0.33623,0.7278249999999999,-0.8278049999999999,-0.090125,0.0021349999999999,-0.002945,0.090125,-0.0021349999999999,0.002945,-0.090299,-0.145215,-0.3872649999999999,0.13604,-0.158545,-0.375935,-0.082092,-0.5199149999999999,-0.225088,0.11753,-0.535865,-0.196793,1
180,0.026455,0.6464650000000001,-0.402645,-0.1032059999999999,0.474545,-0.377945,-0.155025,0.586405,-0.610805,0.169205,0.478375,-0.361035,0.2945149999999999,0.615865,-0.590975,-0.126105,0.7278549999999999,-0.8674249999999999,0.3360249999999999,0.737285,-0.819885,-0.09004,0.0018249999999999,-0.0029349999999999,0.09004,-0.001825,0.002935,-0.0909629999999999,-0.154455,-0.383085,0.137035,-0.1672949999999999,-0.371575,-0.082507,-0.529625,-0.2247519999999999,0.117715,-0.546465,-0.196572,1
181,0.0271184999999999,0.654155,-0.39696,-0.1034355,0.479105,-0.3721,-0.1556465,0.594515,-0.6018600000000001,0.1702635,0.4828449999999999,-0.35474,0.2946735,0.623365,-0.5831999999999999,-0.1284265,0.740445,-0.8587100000000001,0.3360635,0.748175,-0.8111900000000001,-0.0899865,0.0016649999999999,-0.00293,0.0899865,-0.001665,0.0029299999999999,-0.0912845,-0.163655,-0.379,0.1384635,-0.1761249999999999,-0.36739,-0.0824285,-0.539315,-0.224328,0.1185335,-0.5571050000000001,-0.196468,1
182,0.0273574999999999,0.66084,-0.390265,-0.1041555,0.48272,-0.366535,-0.1566355,0.60271,-0.595125,0.1707745,0.4843699999999999,-0.348075,0.2943145,0.6310499999999999,-0.574695,-0.1308755,0.75471,-0.8510249999999999,0.3353345,0.75806,-0.802135,-0.0900245,0.0017999999999999,-0.002795,0.0900245,-0.0018,0.0027949999999999,-0.0925005,-0.17231,-0.374905,0.1395045,-0.18451,-0.363585,-0.0829345,-0.5485,-0.223761,0.1188845,-0.5676300000000001,-0.196331,1
183,0.0278875,0.668435,-0.3830599999999999,-0.1043355,0.487135,-0.3604199999999999,-0.1579335,0.610915,-0.58908,0.1709864999999999,0.488755,-0.3402699999999999,0.2937065,0.6392249999999999,-0.5657399999999999,-0.1332735,0.766255,-0.84294,0.3341564999999999,0.767285,-0.79009,-0.0899775,0.0015149999999999,-0.0031599999999999,0.0899775,-0.0015149999999999,0.00316,-0.0938095,-0.1824749999999999,-0.37019,0.1404065,-0.194185,-0.3586399999999999,-0.0836445,-0.559425,-0.222111,0.1191965,-0.579765,-0.195344,1
184,0.027941,0.6747449999999999,-0.374865,-0.104517,0.491365,-0.354165,-0.1595269999999999,0.6201650000000001,-0.5829949999999999,0.171663,0.492425,-0.332685,0.293153,0.648165,-0.5572349999999999,-0.135807,0.779585,-0.834095,0.333123,0.7795449999999999,-0.778855,-0.089921,0.0013449999999999,-0.0035949999999999,0.089921,-0.0013449999999999,0.003595,-0.095169,-0.192545,-0.365145,0.142123,-0.200565,-0.353495,-0.084318,-0.5701849999999999,-0.220245,0.120823,-0.5918650000000001,-0.199276,1
185,0.028261,0.68205,-0.36678,-0.1044829999999999,0.49668,-0.34743,-0.161322,0.62862,-0.5758099999999999,0.172338,0.49755,-0.32481,0.2925979999999999,0.65776,-0.54792,-0.137452,0.79312,-0.8246499999999999,0.331828,0.79171,-0.76739,-0.089933,0.00126,-0.00428,0.089933,-0.0012599999999999,0.00428,-0.096554,-0.2019599999999999,-0.36016,0.144008,-0.2065399999999999,-0.34812,-0.08491,-0.58129,-0.218036,0.122648,-0.60419,-0.203309,1
186,0.0284575,0.690095,-0.3587249999999999,-0.1041185,0.501135,-0.340115,-0.1623735,0.640675,-0.568285,0.1733765,0.502945,-0.316425,0.2924265,0.667605,-0.538225,-0.1388235,0.808715,-0.813115,0.3316665,0.804115,-0.7559250000000001,-0.0901935,0.0010749999999999,-0.005035,0.0901935,-0.0010749999999999,0.005035,-0.0975514999999999,-0.211345,-0.354825,0.1462065,-0.212715,-0.3421849999999999,-0.0850165,-0.592985,-0.215636,0.1248365,-0.616695,-0.206286,1
187,0.0284719999999999,0.6978300000000001,-0.349395,-0.103367,0.5062800000000001,-0.331675,-0.162991,0.65207,-0.559195,0.174499,0.5097200000000001,-0.307475,0.292709,0.6778900000000001,-0.528705,-0.139801,0.82467,-0.801355,0.332019,0.8189700000000001,-0.745705,-0.0904669999999999,0.00058,-0.0058249999999999,0.0904669999999999,-0.0005799999999999,0.005825,-0.098314,-0.2213299999999999,-0.349765,0.1484289999999999,-0.2199399999999999,-0.336075,-0.084899,-0.6057899999999999,-0.2136479999999999,0.1272889999999999,-0.6296499999999999,-0.209309,1
188,0.0293935,0.70523,-0.3403899999999999,-0.1018524999999999,0.5102800000000001,-0.32409,-0.1631005,0.66537,-0.55039,0.1754794999999999,0.51614,-0.30081,0.2931795,0.68906,-0.51871,-0.1405205,0.84391,-0.78789,0.3333495,0.83396,-0.73414,-0.0903974999999999,0.00036,-0.00659,0.0903974999999999,-0.0003599999999999,0.00659,-0.0989365,-0.22892,-0.34512,0.1508695,-0.22492,-0.33099,-0.0847265,-0.6162,-0.2117399999999999,0.1298595,-0.64,-0.212053,1
189,0.0302565,0.711365,-0.32976,-0.1005365,0.516805,-0.31549,-0.1635395,0.677605,-0.53962,0.1767605,0.523895,-0.2922599999999999,0.2936005,0.699605,-0.50801,-0.1414895,0.860505,-0.77301,0.3345205,0.849395,-0.72062,-0.0902805,0.0003049999999999,-0.0072399999999999,0.0902805,-0.0003049999999999,0.0072399999999999,-0.0995235,-0.2369949999999999,-0.33994,0.1530605,-0.231235,-0.32525,-0.0847375,-0.627945,-0.2093789999999999,0.1322704999999999,-0.651415,-0.21465,1
190,0.0312765,0.7181949999999999,-0.318285,-0.0992585,0.5226649999999999,-0.307505,-0.1638955,0.687775,-0.5286850000000001,0.1781545,0.530605,-0.283905,0.2941945,0.710315,-0.496635,-0.1423055,0.876515,-0.7580450000000001,0.3360145,0.865015,-0.7069749999999999,-0.0902775,0.0001849999999999,-0.007875,0.0902775,-0.0001849999999999,0.0078749999999999,-0.0997015,-0.244575,-0.334395,0.1554045,-0.237175,-0.319295,-0.0851935,-0.640355,-0.209788,0.1345045,-0.662625,-0.215576,1
191,0.031858,0.727665,-0.30696,-0.099075,0.527705,-0.2982899999999999,-0.163878,0.698385,-0.51725,0.1793819999999999,0.539535,-0.27463,0.294992,0.721655,-0.4851399999999999,-0.143168,0.891695,-0.74129,0.337452,0.881105,-0.69202,-0.090303,-7.499999999999174e-05,-0.0084599999999999,0.090303,7.499999999999174e-05,0.00846,-0.099882,-0.253065,-0.32836,0.1576219999999999,-0.243855,-0.3118999999999999,-0.0856369999999999,-0.654165,-0.2100619999999999,0.136742,-0.674735,-0.216573,1
192,0.032298,0.73863,-0.29615,-0.09945,0.52973,-0.2898,-0.164287,0.7098899999999999,-0.50498,0.180203,0.54596,-0.26629,0.296143,0.7330099999999999,-0.47294,-0.144117,0.90853,-0.72379,0.338793,0.89887,-0.67825,-0.0903819999999999,-0.00056,-0.00886,0.0903819999999999,0.00056,0.00886,-0.100246,-0.25927,-0.3233,0.1595629999999999,-0.24838,-0.3051,-0.0862459999999999,-0.66444,-0.2107939999999999,0.138763,-0.6845,-0.2178729999999999,1
193,0.0326555,0.7464999999999999,-0.2839399999999999,-0.0997305,0.52949,-0.2799,-0.1638845,0.71848,-0.4921299999999999,0.1811455,0.55014,-0.25664,0.2973555,0.74146,-0.4583899999999999,-0.1447345,0.92272,-0.7062999999999999,0.3405355,0.9157,-0.66154,-0.0900985,-0.0007199999999999,-0.01005,0.0900985,0.0007199999999999,0.01005,-0.1005645,-0.26751,-0.31645,0.1603755,-0.25733,-0.29573,-0.0866835,-0.6771,-0.21064,0.1399254999999999,-0.69543,-0.214401,1
194,0.0327455,0.7500150000000001,-0.27053,-0.1001985,0.5335650000000001,-0.26907,-0.1632985,0.731195,-0.4799299999999999,0.1818515,0.5574950000000001,-0.24595,0.2985415,0.7509950000000001,-0.44309,-0.1455385,0.940465,-0.68734,0.3422215,0.932605,-0.64436,-0.0897525,-0.0009049999999999,-0.0107999999999999,0.0897525,0.000905,0.0108,-0.1008485,-0.274935,-0.30967,0.1612215,-0.2654249999999999,-0.28695,-0.0871575,-0.6891149999999999,-0.2108439999999999,0.1412815,-0.7051449999999999,-0.2111,1
195,0.031837,0.7523900000000001,-0.2566,-0.1014519999999999,0.53653,-0.25844,-0.163412,0.73845,-0.46626,0.182268,0.56142,-0.235586,0.299438,0.75763,-0.42749,-0.146812,0.95344,-0.66863,0.343638,0.94723,-0.62534,-0.089285,-0.0010399999999999,-0.0115399999999999,0.089285,0.00104,0.0115399999999999,-0.101632,-0.28258,-0.30183,0.161738,-0.27414,-0.27704,-0.0881019999999999,-0.70221,-0.210974,0.142318,-0.7153799999999999,-0.207279,1
196,0.0306265,0.7553449999999999,-0.24198,-0.1025105,0.539885,-0.24869,-0.1637005,0.746965,-0.45326,0.1827695,0.563755,-0.225475,0.2998595,0.7643949999999999,-0.41152,-0.1480904999999999,0.966965,-0.64939,0.3448695,0.958785,-0.6046400000000001,-0.0888424999999999,-0.000855,-0.01224,0.0888424999999999,0.0008549999999999,0.01224,-0.1023205,-0.289435,-0.29424,0.1623795,-0.282205,-0.26721,-0.0889754999999999,-0.714305,-0.211321,0.1431995,-0.724345,-0.20148,1
197,0.029387,0.757605,-0.22659,-0.103641,0.543145,-0.23947,-0.1640009999999999,0.754865,-0.43881,0.183359,0.565325,-0.215166,0.3000589999999999,0.771185,-0.39527,-0.149501,0.979005,-0.6297200000000001,0.3458989999999999,0.971375,-0.58448,-0.088482,-0.0009149999999999,-0.01246,0.088482,0.0009149999999999,0.0124599999999999,-0.102921,-0.296365,-0.28718,0.162869,-0.290385,-0.25778,-0.089674,-0.726475,-0.211658,0.144499,-0.733325,-0.196345,1
198,0.028765,0.7612099999999999,-0.2136259999999999,-0.1047879999999999,0.54401,-0.2317199999999999,-0.163908,0.7640100000000001,-0.4256,0.183722,0.5651999999999999,-0.2070519999999999,0.299782,0.77711,-0.3782,-0.150868,0.99251,-0.61107,0.346692,0.98458,-0.5637,-0.088026,-0.00085,-0.0125599999999999,0.088026,0.0008499999999999,0.01256,-0.103348,-0.30245,-0.28078,0.162772,-0.29727,-0.2494199999999999,-0.0904639999999999,-0.7371700000000001,-0.212468,0.145652,-0.7410700000000001,-0.192276,1
199,0.0278789999999999,0.763925,-0.201061,-0.10639,0.5446949999999999,-0.224199,-0.16417,0.770335,-0.41158,0.1844299999999999,0.565075,-0.197865,0.29914,0.7818350000000001,-0.36155,-0.15255,1.002625,-0.5920300000000001,0.3471,0.995475,-0.5427,-0.087594,-0.000585,-0.01253,0.087594,0.000585,0.0125299999999999,-0.10363,-0.308595,-0.27481,0.16232,-0.304095,-0.24139,-0.0909649999999999,-0.7476449999999999,-0.210331,0.1464899999999999,-0.7485250000000001,-0.188668,1
200,0.0269105,0.76315,-0.188829,-0.1080865,0.5446200000000001,-0.218466,-0.1648065,0.77592,-0.39741,0.1852535,0.56107,-0.1900359999999999,0.2977735,0.78408,-0.34448,-0.1546865,1.01275,-0.57099,0.3478935,1.00303,-0.52129,-0.0871145,-9.9999999999989e-05,-0.0124599999999999,0.0871145,0.0001,0.0124599999999999,-0.1037265,-0.3129699999999999,-0.26887,0.1619935,-0.3100099999999999,-0.2341,-0.0912205,-0.75479,-0.208787,0.1474435,-0.7552099999999999,-0.185556,1
201,0.025476,0.760505,-0.175708,-0.1103,0.544165,-0.211942,-0.16577,0.780745,-0.38235,0.18552,0.556955,-0.18116,0.29573,0.785345,-0.3266799999999999,-0.15705,1.021355,-0.55016,0.34764,1.011155,-0.49784,-0.0867749999999999,0.000565,-0.01249,0.0867749999999999,-0.000565,0.01249,-0.10454,-0.317325,-0.26177,0.1612,-0.317995,-0.22593,-0.092005,-0.7619549999999999,-0.206675,0.14726,-0.7620150000000001,-0.182107,1
202,0.0238975,0.761275,-0.163296,-0.1126284999999999,0.5464450000000001,-0.205745,-0.1668885,0.787435,-0.367505,0.1855815,0.5558150000000001,-0.172624,0.2937515,0.7878850000000001,-0.310165,-0.1597585,1.032185,-0.528605,0.3468015,1.017515,-0.4747949999999999,-0.0868174999999999,0.000875,-0.012375,0.0868174999999999,-0.000875,0.0123749999999999,-0.1055184999999999,-0.320745,-0.255275,0.1601715,-0.324615,-0.219147,-0.0930765,-0.766145,-0.204412,0.1469315,-0.7670349999999999,-0.179397,1
203,0.0230345,0.76199,-0.151928,-0.1141055,0.54349,-0.200428,-0.1684455,0.79053,-0.352185,0.1858544999999999,0.5495399999999999,-0.166051,0.2933945,0.78888,-0.294155,-0.1623155,1.03887,-0.5066350000000001,0.3463545,1.02325,-0.452135,-0.0866985,0.00128,-0.012405,0.0866985,-0.00128,0.012405,-0.1059755,-0.32868,-0.248065,0.1589445,-0.33296,-0.211522,-0.0929865,-0.77071,-0.201881,0.1468944999999999,-0.77278,-0.175843,1
204,0.0219605,0.763055,-0.140291,-0.1153154999999999,0.541375,-0.194869,-0.1705355,0.793815,-0.336955,0.1861245,0.545525,-0.159501,0.2926345,0.791215,-0.277885,-0.1649655,1.046075,-0.4838249999999999,0.3453445,1.030785,-0.429045,-0.0866085,0.001375,-0.012405,0.0866085,-0.0013749999999999,0.012405,-0.1061054999999999,-0.3345249999999999,-0.241525,0.1559045,-0.339055,-0.19982,-0.0927075,-0.773515,-0.198548,0.1459145,-0.777895,-0.1674129999999999,1
205,0.0201464999999999,0.7637285,-0.1246075,-0.1177515,0.5379985,-0.1830565,-0.1736215,0.7952885,-0.3167445,0.1854585,0.5405985,-0.1473805,0.2911184999999999,0.7912985,-0.2558745,-0.1686215,1.0512085,-0.4554345,0.3432585,1.0369785,-0.4008645,-0.0864515,0.0013314999999999,-0.0114755,0.0864515,-0.0013314999999999,0.0114755,-0.1077015,-0.3412815,-0.2269745,0.1519184999999999,-0.3458115,-0.1822605,-0.0938105,-0.7767015,-0.1878435,0.1440485,-0.7836715,-0.1534955,1
206,0.0188805,0.7660499999999999,-0.1057635,-0.1214885,0.54174,-0.1631335,-0.1771985,0.8006199999999999,-0.2934755,0.1846115,0.54224,-0.1281205,0.2912614999999999,0.7938700000000001,-0.2313055,-0.1726385,1.05923,-0.4251255,0.3420115,1.03946,-0.3699654999999999,-0.0859285,0.0015109999999999,-0.0102345,0.0859285,-0.0015109999999999,0.0102344999999999,-0.1086585,-0.35523,-0.2038655,0.1475615,-0.35984,-0.1593405,-0.0946584999999999,-0.78758,-0.1700505,0.1420815,-0.7976099999999999,-0.1350525,1
207,0.0178405,0.7683264999999999,-0.0873775,-0.1248085,0.5453065,-0.1439865,-0.1802085,0.8049364999999999,-0.2718125,0.1837715,0.5438365000000001,-0.1097245,0.2914414999999999,0.7963665,-0.2093525,-0.1764985,1.0663165,-0.3954225,0.3411415,1.0400665,-0.3411625,-0.0856835,0.0015625,-0.0087045,0.0856835,-0.0015624999999999,0.0087045,-0.1096685,-0.3681835,-0.1812555,0.1432215,-0.3772435,-0.1371625,-0.0952385,-0.7981935,-0.1528015,0.1399814999999999,-0.8111535000000001,-0.1168705,1
208,0.0168675,0.770769,-0.068957,-0.1280895,0.549369,-0.124894,-0.1833395,0.809759,-0.250543,0.1829405,0.546589,-0.09254,0.2912905,0.799339,-0.187683,-0.1803594999999999,1.073429,-0.366173,0.3403305,1.040459,-0.312023,-0.0854315,0.0015799999999999,-0.0071979999999999,0.0854315,-0.00158,0.0071979999999999,-0.1105295,-0.380421,-0.158036,0.1387405,-0.393561,-0.114969,-0.0958344999999999,-0.808631,-0.134646,0.1377705,-0.824371,-0.09844,1
209,0.0160045,0.7741705,-0.0511055,-0.1312295,0.5544705,-0.1061905,-0.1866495,0.8153005,-0.2303974999999999,0.1821105,0.5508004999999999,-0.0754875,0.2916105,0.8035905,-0.1664475,-0.1838095,1.0793805,-0.3407274999999999,0.3395605,1.0409805,-0.2840175,-0.0851025,0.0015254999999999,-0.0057545,0.0851025,-0.0015254999999999,0.0057544999999999,-0.1112495,-0.3917495,-0.1350315,0.1346405,-0.4100295,-0.0933625,-0.0962305,-0.8185895000000001,-0.1165105,0.1353205,-0.8368495,-0.0802045,1
210,0.0151864999999999,0.7775305,-0.0337404999999999,-0.1343575,0.5602005,-0.0877265,-0.1899875,0.8215205,-0.2109565,0.1813025,0.5559605,-0.0590655,0.2926025,0.8080105,-0.1460495,-0.1873775,1.0866405,-0.3140165,0.3390625,1.0407404999999998,-0.2586064999999999,-0.0847894999999999,0.0015255,-0.0044084999999999,0.0847894999999999,-0.0015254999999999,0.0044085,-0.1121775,-0.4024195,-0.1116505,0.1308725,-0.4250695,-0.0712615,-0.0965165,-0.8281995,-0.0985945,0.1330525,-0.8484895,-0.0623375,1
211,0.0139589999999999,0.7810765,-0.0163565,-0.137595,0.5668065,-0.0694805,-0.193635,0.8280065,-0.1921105,0.179945,0.5615465,-0.0429565,0.293775,0.8115365,-0.1261835,-0.191055,1.0933265,-0.2891005,0.338465,1.0401265,-0.2325605,-0.084534,0.0015704999999999,-0.0031385,0.084534,-0.0015704999999999,0.0031385,-0.113175,-0.4123535,-0.0887145,0.127545,-0.4400635,-0.0493355,-0.096757,-0.8379135,-0.0806115,0.130695,-0.8599735,-0.0448185,1
212,0.0125884999999999,0.784744,0.0024824999999999,-0.1405755,0.573614,-0.0507765,-0.1975055,0.834674,-0.1724605,0.1785245,0.567284,-0.0254545,0.2951545,0.814654,-0.1050675,-0.1948055,1.100994,-0.2638205,0.3377945,1.038994,-0.2063005,-0.0841465,0.0015989999999999,-0.0020715,0.0841465,-0.0015989999999999,0.0020714999999999,-0.1142855,-0.423626,-0.0651935,0.1244744999999999,-0.454086,-0.0264735,-0.0971185,-0.845846,-0.0617975,0.1284345,-0.869586,-0.0268025,1
