sb224sc-HT22-VT27/4dt907/src/data/labeled_files/A87_kinect_mirrored.csv
FrameNo,nose_3d_x,nose_3d_y,nose_3d_z,left_shoulder_3d_x,left_shoulder_3d_y,left_shoulder_3d_z,left_elbow_3d_x,left_elbow_3d_y,left_elbow_3d_z,right_shoulder_3d_x,right_shoulder_3d_y,right_shoulder_3d_z,right_elbow_3d_x,right_elbow_3d_y,right_elbow_3d_z,left_wrist_3d_x,left_wrist_3d_y,left_wrist_3d_z,right_wrist_3d_x,right_wrist_3d_y,right_wrist_3d_z,left_hip_3d_x,left_hip_3d_y,left_hip_3d_z,right_hip_3d_x,right_hip_3d_y,right_hip_3d_z,left_knee_3d_x,left_knee_3d_y,left_knee_3d_z,right_knee_3d_x,right_knee_3d_y,right_knee_3d_z,left_ankle_3d_x,left_ankle_3d_y,left_ankle_3d_z,right_ankle_3d_x,right_ankle_3d_y,right_ankle_3d_z,activity_label
0,1.018837,0.7776645,0.1265445,0.797931,0.5656845,0.1029505,0.676981,0.7984245,0.0468885,1.179121,0.5795345000000001,0.0866305,1.267911,0.8227345,-0.0013694999999999,0.592201,1.0280845,-0.0384795,1.288821,1.0985845,-0.0662595,0.921188,-0.0028135,-0.0016954999999999,1.078812,0.0028135,0.0016955,0.881581,-0.5537955,0.0546565,1.115771,-0.5550554999999999,0.0114315,0.862241,-0.9465255,0.0204325,1.106001,-0.9274655,-0.0179274999999999,0
1,1.019168,0.7774599999999999,0.126454,0.7982220000000001,0.56582,0.1030939999999999,0.677862,0.8005399999999999,0.04722,1.179352,0.57944,0.086598,1.268222,0.8226399999999999,-0.001541,0.592642,1.02848,-0.0380549999999999,1.289052,1.09828,-0.0667109999999999,0.921169,-0.0027819999999999,-0.0016839999999999,1.078831,0.0027819999999999,0.0016839999999999,0.881542,-0.5538000000000001,0.054505,1.115722,-0.55511,0.011201,0.860412,-0.94626,0.017226,1.105962,-0.92763,-0.0176669999999999,0
2,1.0200105,0.7772275,0.1254704999999999,0.7982745,0.5660575,0.1026074999999999,0.6779645000000001,0.8017075,0.0459495,1.1794845,0.5793775,0.0859665,1.2686445,0.8227074999999999,-0.0026334999999999,0.5941445000000001,1.0276375,-0.0377005,1.2890645,1.0983375,-0.0679225,0.9211575,-0.0027275,-0.0016224999999999,1.0788425,0.0027275,0.0016224999999999,0.8809445,-0.5538225,0.0542985,1.1155045,-0.5551925000000001,0.0115885,0.8604145,-0.9464925,0.0182845,1.1052145,-0.9243025,-0.0156325,0
3,1.020593,0.776413,0.1252764999999999,0.7982040000000001,0.565763,0.1027275,0.678284,0.802573,0.0461354999999999,1.179874,0.5791430000000001,0.0860785,1.268854,0.822293,-0.0026755,0.594964,1.028213,-0.0367815,1.289234,1.098013,-0.0681954999999999,0.92119,-0.003023,-0.0015125,1.0788099999999998,0.003023,0.0015125,0.880944,-0.554137,0.0542924999999999,1.115234,-0.554947,0.0112784999999999,0.860104,-0.946887,0.0182234999999999,1.105474,-0.925027,-0.0184265,1
4,1.020817,0.7764249999999999,0.125288,0.798187,0.5658949999999999,0.10308,0.679697,0.8004049999999999,0.04707,1.179967,0.579005,0.086028,1.269107,0.822225,-0.0028989999999999,0.595807,1.029315,-0.0369209999999999,1.289307,1.0981150000000002,-0.0686679999999999,0.921133,-0.002908,-0.0013289999999999,1.0788669999999998,0.002908,0.001329,0.880587,-0.554095,0.054005,1.1151369999999998,-0.555075,0.011052,0.8599870000000001,-0.946705,0.018574,1.104647,-0.926405,-0.0179929999999999,1
5,1.0213935,0.7763695,0.1251465,0.7982685,0.5658295,0.1032205,0.6797385,0.8019295,0.0468775,1.1808185,0.5783795,0.0860275,1.2696785,0.8222395,-0.0030034999999999,0.5965685000000001,1.0300795,-0.0371154999999999,1.2904985,1.0973795,-0.0688334999999999,0.9211475,-0.0030615,-0.0012164999999999,1.0788525,0.0030615,0.0012165,0.8804285000000001,-0.5542505,0.0540455,1.1151285,-0.5549705,0.0105635,0.8598585,-0.9458505,0.0202915,1.1042985,-0.9261605,-0.0173384999999999,1
6,1.0229685,0.775169,0.1252035,0.7986584999999999,0.566069,0.1036175,0.6797185,0.803359,0.0472664999999999,1.1811085,0.578229,0.0862775,1.2707985,0.822689,-0.0030745,0.5971985,1.031249,-0.0371935,1.2919985,1.096349,-0.0691585,0.9211065,-0.002836,-0.0010655,1.0788935,0.002836,0.0010654999999999,0.8802885,-0.554001,0.0542734999999999,1.1147185,-0.555211,0.0105184999999999,0.8594485000000001,-0.947311,0.0194084999999999,1.1038185,-0.927691,-0.0201035,1
7,1.023204,0.7744455,0.1252155,0.799936,0.5667955,0.1044985,0.680566,0.8028655,0.0477095,1.181076,0.5769854999999999,0.0858675,1.271496,0.8224754999999999,-0.0031954999999999,0.5982959999999999,1.0308455,-0.0362285,1.292146,1.0961455,-0.0689144999999999,0.921074,-0.0025905,-0.0009754999999999,1.078926,0.0025905,0.0009754999999999,0.880336,-0.5537145,0.0547035,1.114826,-0.5551745,0.0105854999999999,0.8593160000000001,-0.9460345,0.0206165,1.103726,-0.9269545,-0.0184524999999999,1
8,1.023542,0.7743154999999999,0.1252889999999999,0.801322,0.5667955,0.105414,0.681172,0.8028655,0.04801,1.181252,0.5769654999999999,0.085955,1.272082,0.8224754999999999,-0.003142,0.5991219999999999,1.0308455,-0.035898,1.292502,1.0961455,-0.068839,0.921055,-0.0025905,-0.000816,1.078945,0.0025905,0.0008159999999999,0.880322,-0.5537145,0.0547089999999999,1.114722,-0.5551745,0.0102589999999999,0.859022,-0.9460345,0.0205239999999999,1.103442,-0.9269545,-0.018494,1
9,1.023748,0.7742055,0.125351,0.802756,0.5667955,0.106451,0.681616,0.8028655,0.048273,1.181356,0.5769455,0.086026,1.272576,0.8224754999999999,-0.0031039999999999,0.599916,1.0308455,-0.0354899999999999,1.292686,1.0961455,-0.068783,0.921051,-0.0025905,-0.0006649999999999,1.078949,0.0025905,0.000665,0.8802760000000001,-0.5537145,0.05466,1.114626,-0.5551745,0.009846,0.858886,-0.9460345,0.020615,1.103096,-0.9269545,-0.0186809999999999,1
10,1.0238355,0.7738595,0.12541,0.8043305000000001,0.5668895,0.107468,0.6820305,0.8028495,0.0485639999999999,1.1813505,0.5766695,0.086121,1.2729805,0.8224895,-0.003062,0.6006405,1.0309395,-0.035101,1.2926205,1.0959394999999998,-0.06871,0.9210485,-0.0025635,-0.0005129999999999,1.0789515,0.0025635,0.0005129999999999,0.8802505,-0.5536805,0.054604,1.1145005,-0.5552305,0.009478,0.8586805,-0.9468105,0.0206979999999999,1.1028105,-0.9279205,-0.0188969999999999,1
11,1.023698,0.7734975,0.125692,0.806147,0.5673575,0.108458,0.6824669999999999,0.8035475,0.049253,1.181277,0.5763674999999999,0.086196,1.273237,0.8225874999999999,-0.002776,0.601337,1.0317175,-0.0342119999999999,1.292347,1.0962175,-0.0681529999999999,0.921034,-0.0025665,-0.0003899999999999,1.078966,0.0025665,0.00039,0.880297,-0.5537125,0.054412,1.1143869999999998,-0.5552825,0.009129,0.8585570000000001,-0.9468325,0.020629,1.102477,-0.9277625,-0.0190159999999999,1
12,1.0234489999999998,0.7731545,0.125986,0.807936,0.5678645,0.109457,0.6829160000000001,0.8046245,0.049932,1.181156,0.5761145,0.0862739999999999,1.273406,0.8227144999999999,-0.002449,0.602066,1.0326045,-0.03316,1.2920859999999998,1.0965045,-0.067451,0.921017,-0.0025675,-0.000264,1.078983,0.0025675,0.000264,0.880366,-0.5537455,0.054247,1.114266,-0.5553255,0.008805,0.858406,-0.9469155,0.0204139999999999,1.102216,-0.9275355,-0.019177,1
13,1.0231525,0.7728995,0.126245,0.8098905000000001,0.5683695,0.110472,0.6833805,0.8055995,0.050571,1.1810305,0.5759495,0.086286,1.2735005,0.8228295,-0.0021479999999999,0.6027905,1.0332695,-0.032068,1.2918305,1.0968695,-0.0667519999999999,0.9210065,-0.0025855,-0.0001729999999999,1.0789935,0.0025855,0.0001729999999999,0.8804005,-0.5538005,0.054045,1.1141405,-0.5553805,0.008476,0.8582405,-0.9471305,0.019935,1.1019605,-0.9271805,-0.0191419999999999,1
14,1.0229015,0.7727055,0.1264645,0.8114045,0.5687855,0.1114125,0.6837845,0.8064755,0.0512115,1.1808044999999998,0.5759555000000001,0.0862354999999999,1.2734345,0.8229855,-0.0018304999999999,0.6036144999999999,1.0339355,-0.0308194999999999,1.2916045,1.0973355,-0.0659795,0.9209885,-0.0026055,-7.650000000000018e-05,1.0790115,0.0026055,7.650000000000018e-05,0.8804845,-0.5538645,0.0538465,1.1140445,-0.5554245,0.0081525,0.8581145,-0.9472045,0.0195425,1.1017745,-0.9266945,-0.0189885,1
15,1.0226215,0.7725770000000001,0.126689,0.8125884999999999,0.5691670000000001,0.112259,0.6841485,0.807377,0.05189,1.1805385,0.575967,0.086186,1.2732185,0.823177,-0.00152,0.6042985000000001,1.034717,-0.0295679999999999,1.2911885,1.097817,-0.065154,0.9209775,-0.002614,1.8999999999998185e-05,1.0790225,0.002614,-1.8999999999998185e-05,0.8805385,-0.553913,0.053629,1.1139285,-0.5554429999999999,0.0078449999999999,0.8580985,-0.946163,0.020017,1.1015285,-0.926243,-0.0187989999999999,1
16,1.022201,0.7724735,0.126933,0.8131900000000001,0.5696435000000001,0.112577,0.6845399999999999,0.8084035,0.0525459999999999,1.18033,0.5760035,0.0861059999999999,1.27297,0.8233835,-0.001232,0.60541,1.0356135,-0.028026,1.29065,1.0983135,-0.064311,0.920971,-0.0026234999999999,7.599999999999968e-05,1.079029,0.0026235,-7.600000000000662e-05,0.88057,-0.5539565,0.0533789999999999,1.11384,-0.5554465,0.0075319999999999,0.85807,-0.9453565,0.0201639999999999,1.10129,-0.9257365,-0.018588,1
17,1.0216165,0.7723365,0.1272754999999999,0.8137894999999999,0.5700465,0.1128935,0.6850095,0.8095165,0.0532575,1.1801095,0.5760265,0.0860825,1.2727595,0.8236065,-0.0007845,0.6065895,1.0365065,-0.0264304999999999,1.2899695,1.0988065,-0.0633895,0.9209545,-0.0026304999999999,0.0001555,1.0790455,0.0026305,-0.0001555,0.8804795,-0.5540235,0.0532365,1.1135995,-0.5554735000000001,0.0075635,0.8578595,-0.9452335,0.0195065,1.1010595,-0.9253135,-0.0184415,1
18,1.020925,0.7721564999999999,0.127687,0.814026,0.5703364999999999,0.113007,0.685586,0.8106464999999999,0.054071,1.179936,0.5761065,0.08612,1.272616,0.8238165,-0.000431,0.6078260000000001,1.0375665,-0.024908,1.289186,1.0992665,-0.062628,0.920929,-0.0026654999999999,0.00021,1.079071,0.0026655,-0.00021,0.8804760000000001,-0.5541235,0.053057,1.113546,-0.5554335,0.0074779999999999,0.8576159999999999,-0.9447535,0.018712,1.101006,-0.9248135,-0.0183759999999999,1
19,1.0200605,0.7720104999999999,0.1281304999999999,0.8142325,0.5702405,0.1130835,0.6862925,0.8119405,0.0549435,1.1797625,0.5761705,0.0861555,1.2724825,0.8240305,-0.0001354999999999,0.6091325000000001,1.0385505,-0.0233135,1.2883625,1.0997505,-0.0619415,0.9209015,-0.0026245,0.0002624999999999,1.0790985,0.0026245,-0.0002624999999999,0.8804625,-0.5541495,0.0528305,1.1134025,-0.5554695000000001,0.0075344999999999,0.8574125,-0.9438895,0.0179175,1.1009625,-0.9237395,-0.0183274999999999,1
20,1.019273,0.7720175,0.1283059999999999,0.814368,0.5701275,0.1131659999999999,0.687068,0.8120375,0.0555079999999999,1.179668,0.5762675,0.086205,1.272358,0.8240875,-8.300000000000668e-05,0.6104880000000001,1.0386475,-0.022233,1.287718,1.0997475,-0.061842,0.920874,-0.0025745,0.0003149999999999,1.079126,0.0025745,-0.000315,0.8804080000000001,-0.5541225,0.0527809999999999,1.113388,-0.5555125,0.0075329999999999,0.8573380000000002,-0.9444325,0.0179659999999999,1.100888,-0.9238725,-0.018223,1
21,1.0184529999999998,0.77205,0.1285125,0.814359,0.5700200000000001,0.1132455,0.687899,0.81213,0.0561795,1.179509,0.5763600000000001,0.0862265,1.272159,0.82415,-2.6499999999998747e-05,0.611729,1.03874,-0.0212725,1.287109,1.09974,-0.0617535,0.920842,-0.002535,0.0003785,1.079158,0.0025349999999999,-0.0003784999999999,0.8802989999999999,-0.55409,0.0527055,1.113359,-0.5555399999999999,0.0074965,0.857019,-0.94511,0.0171285,1.100779,-0.92425,-0.0183075,1
22,1.017608,0.772116,0.128754,0.814191,0.5699660000000001,0.113349,0.688721,0.812226,0.056904,1.179271,0.5764560000000001,0.086274,1.271931,0.824196,4.500000000000337e-05,0.6129010000000001,1.038836,-0.0203769999999999,1.286531,1.0997359999999998,-0.061655,0.920814,-0.002496,0.000447,1.079186,0.002496,-0.0004469999999999,0.880211,-0.5540539999999999,0.052642,1.1133309999999998,-0.555574,0.007464,0.856791,-0.945244,0.016713,1.100691,-0.924604,-0.0183549999999999,1
23,1.016799,0.772198,0.1290285,0.813855,0.570068,0.1133365,0.689505,0.812768,0.0576805,1.179005,0.576628,0.0860775,1.271715,0.824288,-0.0001195,0.614055,1.039528,-0.0195274999999999,1.286045,1.0998279999999998,-0.0616225,0.9208,-0.002441,0.0005415,1.0792,0.0024409999999999,-0.0005415,0.880175,-0.554022,0.0525835,1.113355,-0.555612,0.0074655,0.856675,-0.944762,0.0164495,1.100635,-0.924802,-0.0183505,1
24,1.0162844999999998,0.772259,0.1293495,0.8141325,0.570299,0.1134515,0.6902425,0.813179,0.0584565,1.1790225,0.576689,0.0858184999999999,1.2716925,0.824349,-0.0003654999999999,0.6151325000000001,1.040089,-0.0187145,1.2860325,1.099889,-0.0617995,0.9208085,-0.0023829999999999,0.0006465,1.0791915,0.0023829999999999,-0.0006465,0.8801625,-0.553961,0.0525465,1.1133625,-0.555661,0.0075155,0.8566125,-0.944451,0.0165385,1.1005625,-0.925121,-0.0182614999999999,1
25,1.0158285,0.772312,0.129666,0.8143085,0.570442,0.113559,0.6908285000000001,0.813512,0.0591659999999999,1.1789985,0.5767319999999999,0.0855789999999999,1.2715985,0.824402,-0.000658,0.6157785,1.040642,-0.0181209999999999,1.2860085,1.099942,-0.062109,0.9208165,-0.00233,0.0007369999999999,1.0791835,0.0023299999999999,-0.000737,0.8801285000000001,-0.5539080000000001,0.0524899999999999,1.1133685,-0.5557080000000001,0.0075449999999999,0.8565785,-0.944278,0.0166399999999999,1.1004585,-0.925438,-0.018181,1
26,1.015445,0.772381,0.1299644999999999,0.814265,0.5705509999999999,0.1135994999999999,0.691345,0.813851,0.0598825,1.178985,0.576781,0.0853665,1.271525,0.824461,-0.0011715,0.616285,1.041211,-0.0175785,1.285965,1.100011,-0.0626025,0.92082,-0.002295,0.0008104999999999,1.07918,0.002295,-0.0008105,0.880045,-0.553879,0.0524235,1.113365,-0.555729,0.0075594999999999,0.856475,-0.944059,0.0167414999999999,1.100345,-0.925789,-0.0181275,1
27,1.0151614999999998,0.7724909999999999,0.130269,0.8142675,0.5706209999999999,0.113664,0.6921875,0.814311,0.0605,1.1788975,0.5768709999999999,0.08519,1.2714975,0.824391,-0.0016949999999999,0.6173375,1.041681,-0.016916,1.2859775,1.099881,-0.063251,0.9207945,-0.002246,0.000878,1.0792055,0.0022459999999999,-0.0008779999999999,0.8797175,-0.553849,0.052412,1.1130675,-0.5557890000000001,0.007608,0.8561275,-0.943969,0.01692,1.0997175,-0.926479,-0.018457,1
28,1.015069,0.772603,0.130597,0.814309,0.570693,0.113717,0.692949,0.8147530000000001,0.061036,1.178919,0.576943,0.0850279999999999,1.271509,0.8237030000000001,-0.0023739999999999,0.618269,1.042053,-0.0163909999999999,1.286089,1.099653,-0.0641219999999999,0.920788,-0.002201,0.0009429999999999,1.079212,0.002201,-0.0009429999999999,0.879399,-0.553817,0.052402,1.112779,-0.5558369999999999,0.007642,0.8557890000000001,-0.943897,0.017222,1.099289,-0.926407,-0.018364,1
29,1.015054,0.7727795,0.1308775,0.8146380000000001,0.5708495,0.1138095,0.693648,0.8151495,0.0613945,1.179078,0.5769295,0.0848295,1.271558,0.8228595,-0.0031434999999999,0.6191580000000001,1.0423295,-0.0159314999999999,1.286308,1.0994295,-0.0650805,0.920777,-0.0021335,0.0010245,1.079223,0.0021335,-0.0010244999999999,0.879058,-0.5537605,0.0523655,1.112508,-0.5559105000000001,0.0076725,0.8555380000000001,-0.9437405,0.0173925,1.098888,-0.9263305,-0.0189454999999999,1
30,1.015073,0.772972,0.131061,0.814996,0.5710919999999999,0.113867,0.694286,0.815542,0.061588,1.179276,0.576962,0.084651,1.271656,0.821952,-0.0038739999999999,0.6199760000000001,1.042512,-0.015674,1.286616,1.099112,-0.0660989999999999,0.920769,-0.0020599999999999,0.001125,1.079231,0.00206,-0.001125,0.8787860000000001,-0.553698,0.052332,1.112276,-0.5559879999999999,0.00764,0.8552960000000001,-0.943908,0.017253,1.098517,-0.926248,-0.0195569999999999,1
31,1.0151195,0.7732055,0.131121,0.8152505,0.5712855,0.1138309999999999,0.6949205,0.8159155,0.061591,1.1794905,0.5769455,0.084403,1.2717905,0.8209855,-0.004711,0.6207005,1.0427155,-0.015783,1.2869905,1.0989155000000002,-0.067311,0.9207625,-0.0020015,0.0012679999999999,1.0792375,0.0020015,-0.0012679999999999,0.8785305,-0.5536645,0.052246,1.1120705,-0.5560345,0.007544,0.8551205,-0.9439745,0.0169899999999999,1.0980755,-0.9265145,-0.0202209999999999,1
32,1.015194,0.7734540000000001,0.1310735,0.815403,0.5716640000000001,0.1137074999999999,0.695543,0.8162640000000001,0.0614785,1.179723,0.576924,0.0841355,1.271963,0.8199040000000001,-0.0055274999999999,0.621363,1.043024,-0.0159445,1.287413,1.098624,-0.0685645,0.92078,-0.001948,0.0013724999999999,1.07922,0.001948,-0.0013724999999999,0.878263,-0.5536359999999999,0.0521285,1.111863,-0.5560959999999999,0.0073965,0.855003,-0.943996,0.0168615,1.097718,-0.926446,-0.0205244999999999,1
33,1.0152914999999998,0.7736855,0.1309605,0.8158305000000001,0.5720355,0.1136264999999999,0.6961305,0.8166055,0.0613245,1.1799805,0.5767855,0.0839145,1.2722405,0.8188255,-0.0061234999999999,0.6220505000000001,1.0432355,-0.0161074999999999,1.2878905,1.0984355,-0.0698685,0.9207925,-0.0018925,0.0014774999999999,1.0792075,0.0018925,-0.0014774999999999,0.8780505,-0.5536045,0.0520425,1.1116704999999998,-0.5561645000000001,0.0073054999999999,0.8549005000000001,-0.9439645,0.0167375,1.0973985,-0.9260745,-0.0208044999999999,1
34,1.015459,0.7739085,0.1308175,0.816248,0.5724085,0.1135164999999999,0.696728,0.8168985,0.0611455,1.180238,0.5766985,0.0836935,1.272618,0.8175785,-0.0066645,0.622808,1.0435485,-0.0162995,1.288488,1.0978485,-0.0713365,0.920806,-0.0018464999999999,0.0016054999999999,1.079194,0.0018465,-0.0016055,0.8778380000000001,-0.5535915,0.0519365,1.111488,-0.5562215,0.0072105,0.854828,-0.9439515,0.0165494999999999,1.097132,-0.9256615,-0.0210865,1
35,1.015678,0.7740984999999999,0.130628,0.8166599999999999,0.5727585,0.113355,0.6973199999999999,0.8171385,0.060925,1.18051,0.5765984999999999,0.083439,1.27304,0.8161885,-0.0071499999999999,0.62358,1.0438585,-0.016652,1.28914,1.0973585,-0.072727,0.92085,-0.0017935,0.00169,1.07915,0.0017935,-0.0016899999999999,0.87771,-0.5535715,0.051808,1.1113099999999998,-0.5562815000000001,0.007053,0.8548200000000001,-0.9439715,0.016324,1.096871,-0.9253215,-0.0215179999999999,1
36,1.015926,0.774274,0.130399,0.816918,0.572964,0.11314,0.697578,0.817244,0.060654,1.180748,0.576574,0.0831379999999999,1.273348,0.814804,-0.0076429999999999,0.624008,1.044054,-0.017109,1.289408,1.096954,-0.073982,0.92089,-0.001754,0.001797,1.07911,0.001754,-0.001797,0.877818,-0.5535760000000001,0.051584,1.111508,-0.556326,0.0068169999999999,0.855048,-0.943916,0.016099,1.097084,-0.925196,-0.0220339999999999,1
37,1.016164,0.7744425,0.1301415,0.817158,0.5731525,0.1129065,0.697848,0.8173524999999999,0.0602645,1.180988,0.5766125,0.0828805,1.273698,0.8142125,-0.0080485,0.6243879999999999,1.0444525,-0.0179784999999999,1.289738,1.0965525,-0.0750845,0.920914,-0.0017365,0.0019354999999999,1.079086,0.0017364999999999,-0.0019354999999999,0.877928,-0.5536075,0.0513595,1.111698,-0.5563475,0.0066155,0.8552580000000001,-0.9439675,0.0158465,1.097324,-0.9244475,-0.0222664999999999,1
38,1.0163625,0.774598,0.129846,0.8173825,0.5733280000000001,0.112673,0.6980925,0.817488,0.059745,1.1812025,0.576658,0.082627,1.2740125,0.813778,-0.008444,0.6247024999999999,1.0447479999999998,-0.0191399999999999,1.2900725,1.096248,-0.076157,0.9209395,-0.0017419999999999,0.002019,1.0790605,0.001742,-0.002019,0.8780225,-0.553662,0.051182,1.1118725,-0.556352,0.00642,0.8554525,-0.944142,0.0155609999999999,1.0975285,-0.923682,-0.0224989999999999,1
39,1.0163609999999998,0.7746765,0.1294495,0.817527,0.5734565,0.1124455,0.698207,0.8175565,0.0591335,1.181177,0.5766565,0.0824135,1.274157,0.8130864999999999,-0.0087165,0.624757,1.0452265,-0.0206564999999999,1.290447,1.0958265,-0.0771945,0.920962,-0.0017565,0.0020705,1.079038,0.0017564999999999,-0.0020704999999999,0.878057,-0.5537035,0.0510115,1.111967,-0.5563635,0.0061734999999999,0.8556170000000001,-0.9443435,0.0150395,1.097882,-0.9226635,-0.0220474999999999,1
40,1.016353,0.7747364999999999,0.1289819999999999,0.817615,0.5734965,0.112231,0.698225,0.8175865,0.0584789999999999,1.181055,0.5766565,0.08218,1.274255,0.8130864999999999,-0.009055,0.624595,1.0456265,-0.022136,1.290515,1.0958265,-0.078015,0.920988,-0.0017565,0.0020589999999999,1.079012,0.0017564999999999,-0.0020589999999999,0.878185,-0.5537035,0.0508539999999999,1.112085,-0.5563635,0.0059629999999999,0.855835,-0.9443135,0.0148329999999999,1.098229,-0.9219535,-0.0215189999999999,1
41,1.016354,0.7747965,0.1284259999999999,0.817685,0.5735264999999999,0.1119759999999999,0.6982349999999999,0.8175865,0.057772,1.180915,0.5766565,0.0819439999999999,1.274345,0.8130864999999999,-0.009423,0.624405,1.0460265,-0.023646,1.290645,1.0958265,-0.078787,0.921007,-0.0017565,0.0020419999999999,1.078993,0.0017564999999999,-0.002042,0.878285,-0.5537035,0.050702,1.112185,-0.5563635,0.0057509999999999,0.856065,-0.9442535,0.0146099999999999,1.09856,-0.9212435,-0.020862,1
42,1.0163555,0.7748465,0.1278004999999999,0.8177345,0.5735465,0.1116765,0.6982245,0.8175965,0.0570015,1.1807945,0.5766565,0.0816945,1.2744145,0.8130864999999999,-0.0097665,0.6241545,1.0465265,-0.0252305,1.2908745,1.0958265,-0.0794975,0.9210195,-0.0017565,0.0020074999999999,1.0789805,0.0017564999999999,-0.0020075,0.8783845000000001,-0.5537035,0.0505645,1.1122745,-0.5563635,0.0055304999999999,0.8562845,-0.9441735,0.0143784999999999,1.0989625,-0.9196535,-0.0201055,1
43,1.0159494999999998,0.774911,0.12666,0.8175325,0.573581,0.110992,0.6978825,0.8174509999999999,0.055742,1.1805125,0.576731,0.0811679999999999,1.2744825,0.8128409999999999,-0.010597,0.6237625,1.046751,-0.027375,1.2911324999999998,1.095251,-0.080704,0.9210335,-0.0018029999999999,0.0019209999999999,1.0789665,0.001803,-0.0019209999999999,0.8786625,-0.5537690000000001,0.050692,1.1125725,-0.5563290000000001,0.0056259999999999,0.8568925000000001,-0.944519,0.0141079999999999,1.0994785,-0.921149,-0.019917,1
44,1.015519,0.775003,0.1255635,0.817293,0.5736330000000001,0.1103315,0.697513,0.8173130000000001,0.0544535,1.180253,0.576913,0.0806665,1.274453,0.8123330000000001,-0.0113325,0.623393,1.047023,-0.0295105,1.291303,1.094623,-0.0818825,0.92102,-0.001835,0.0018735,1.07898,0.0018349999999999,-0.0018735,0.878943,-0.5538369999999999,0.0508384999999999,1.112823,-0.556317,0.0057264999999999,0.8574930000000001,-0.944827,0.0140904999999999,1.099953,-0.921447,-0.0188445,1
45,1.0150715,0.7751605,0.1244234999999999,0.8170495,0.5737005000000001,0.1097155,0.6971495,0.8171705,0.0530985,1.1800895,0.5771305000000001,0.0801824999999999,1.2744495,0.8123205,-0.0121725,0.6230195000000001,1.0471104999999998,-0.0317005,1.2915295,1.0941105,-0.0831685,0.9210125,-0.0018675,0.0017964999999999,1.0789875,0.0018675,-0.0017964999999999,0.8792095,-0.5539094999999999,0.0509975,1.1130795,-0.5562895,0.0058614999999999,0.8581095,-0.9450595,0.0141234999999999,1.1004555,-0.9216495,-0.0177425,1
46,1.0146455,0.775246,0.123321,0.8167795000000001,0.573766,0.109112,0.6968194999999999,0.817006,0.051768,1.1799895,0.5773459999999999,0.079729,1.2744195,0.8122659999999999,-0.0129429999999999,0.6227595,1.047206,-0.0336869999999999,1.2917495,1.093906,-0.0844869999999999,0.9210065,-0.001907,0.001694,1.0789935,0.0019069999999999,-0.001694,0.8794595000000001,-0.553994,0.051093,1.1133295,-0.556264,0.006009,0.8586895000000001,-0.945214,0.014237,1.1009695,-0.921914,-0.017269,1
47,1.0142395,0.775393,0.1222355,0.8165095,0.573873,0.1084795,0.6965095,0.8168730000000001,0.0503965,1.1797494999999998,0.577603,0.0792655,1.2744195,0.812603,-0.0137945,0.6225795000000001,1.046943,-0.0355575,1.2919995,1.093543,-0.0858374999999999,0.9209985,-0.00195,0.0016094999999999,1.0790015,0.00195,-0.0016094999999999,0.8796595,-0.554087,0.0511935,1.1135795,-0.556227,0.0061184999999999,0.8592295,-0.945347,0.0142745,1.1014295,-0.922457,-0.0174374999999999,1
48,1.0138185,0.7755105,0.121181,0.8162395,0.5739505,0.1078539999999999,0.6962195,0.8167005,0.0489789999999999,1.1794995,0.5778305,0.0787789999999999,1.2744195,0.8131505,-0.014879,0.6223795,1.0464605,-0.037405,1.2922095,1.0931605,-0.0873039999999999,0.9209925,-0.0019975,0.0015609999999999,1.0790075,0.0019975,-0.0015609999999999,0.8799195,-0.5541695,0.0512909999999999,1.1138495,-0.5561995,0.0061659999999999,0.8598095,-0.9454195,0.0143719999999999,1.1017095,-0.9229895,-0.017627,1
49,1.0134055,0.7755765,0.1201735,0.8159745,0.5739964999999999,0.1072465,0.6958945000000001,0.8165064999999999,0.0474994999999999,1.1792445,0.5780565,0.0782765,1.2744345,0.8136964999999999,-0.0161585,0.6220844999999999,1.0458665,-0.0392915,1.2923845,1.0927665,-0.0889165,0.9209935,-0.0020295,0.0015424999999999,1.0790065,0.0020295,-0.0015425,0.8801145,-0.5542335,0.0514014999999999,1.1140945,-0.5561935,0.0061344999999999,0.8602645000000001,-0.9454735,0.0147424999999999,1.1019245,-0.9239935,-0.0177345,1
50,1.012993,0.7755995,0.1191205,0.815706,0.5740495,0.1066194999999999,0.695496,0.8163695,0.0458635,1.178936,0.5782795,0.0777535,1.274386,0.8141094999999999,-0.0175345,0.621766,1.0450795,-0.0413285,1.292546,1.0922795,-0.0906994999999999,0.920991,-0.0020575,0.0015265,1.079009,0.0020575,-0.0015265,0.880396,-0.5542905,0.0515085,1.114366,-0.5561805000000001,0.0060824999999999,0.860526,-0.9453205,0.0148074999999999,1.102116,-0.9251105,-0.0178295,1
51,1.012576,0.7755734999999999,0.1180885,0.815446,0.5741335,0.1059905,0.6950959999999999,0.8162035,0.0441485,1.178706,0.5785235,0.0772305,1.274336,0.8145635,-0.0190724999999999,0.621386,1.0442335,-0.0433834999999999,1.292556,1.0917335,-0.0927374999999999,0.92099,-0.0020724999999999,0.0015295,1.07901,0.0020724999999999,-0.0015294999999999,0.880676,-0.5541565,0.0513655,1.114616,-0.5561965000000001,0.0060105,0.860776,-0.9451165,0.0148815,1.102236,-0.9263365,-0.0179424999999999,1
52,1.012526,0.775573,0.117487,0.815429,0.574143,0.105725,0.694929,0.816203,0.0428599999999999,1.178509,0.578573,0.076982,1.274239,0.815103,-0.020244,0.621159,1.044233,-0.044732,1.292589,1.0917329999999998,-0.094258,0.920991,-0.0020719999999999,0.0015579999999999,1.079009,0.002072,-0.001558,0.880779,-0.554157,0.051266,1.114649,-0.556197,0.0059159999999999,0.860789,-0.944907,0.0150119999999999,1.102299,-0.926027,-0.018421,1
53,1.012452,0.775573,0.1167145,0.815393,0.574153,0.1054395,0.694723,0.816203,0.0413675,1.178353,0.578583,0.0766835,1.274133,0.815513,-0.0214885,0.620873,1.044233,-0.0463105,1.292563,1.0917329999999998,-0.0959344999999999,0.920989,-0.0020719999999999,0.0015655,1.079011,0.002072,-0.0015654999999999,0.880843,-0.554157,0.0511525,1.114683,-0.556197,0.0058055,0.8608830000000001,-0.944707,0.0152135,1.102383,-0.925747,-0.0187045,1
54,1.0123639999999998,0.775603,0.115696,0.815361,0.574153,0.105091,0.6945209999999999,0.816203,0.039878,1.178281,0.578583,0.076317,1.274031,0.815913,-0.0226689999999999,0.620601,1.044233,-0.048,1.292541,1.0917329999999998,-0.0975769999999999,0.920988,-0.0020719999999999,0.001583,1.079012,0.002072,-0.0015829999999999,0.880881,-0.554157,0.050958,1.114721,-0.555967,0.005679,0.860901,-0.944367,0.015308,1.102401,-0.924827,-0.0186619999999999,1
55,1.012285,0.7755965,0.1143465,0.815364,0.5741465,0.1046415,0.694394,0.8161965,0.0382025,1.178294,0.5785764999999999,0.0758025,1.274114,0.8162365,-0.0241144999999999,0.620414,1.0435265,-0.0500405,1.292744,1.0910265,-0.0995065,0.920973,-0.0020655,0.0015885,1.079027,0.0020654999999999,-0.0015884999999999,0.880844,-0.5541535,0.0504475,1.114674,-0.5559735,0.0052465,0.860714,-0.9440235,0.0154155,1.102194,-0.9253035,-0.0199764999999999,1
56,1.01221,0.7755965,0.112895,0.815355,0.5741565,0.104166,0.694225,0.8161965,0.036209,1.178375,0.5784965,0.075154,1.274175,0.8165764999999999,-0.0258889999999999,0.620215,1.0431265,-0.0523659999999999,1.292965,1.0902265,-0.102007,0.920947,-0.0020655,0.0015909999999999,1.079053,0.0020654999999999,-0.001591,0.8808549999999999,-0.5541535,0.0499169999999999,1.114685,-0.5560735,0.0048179999999999,0.8604750000000001,-0.9435335,0.0154549999999999,1.102015,-0.9253335,-0.020733,1
57,1.0121159999999998,0.7755960000000001,0.111256,0.815362,0.574156,0.103634,0.694032,0.816196,0.034133,1.178272,0.5785060000000001,0.074505,1.274232,0.8167760000000001,-0.027829,0.619972,1.042526,-0.054958,1.293142,1.089426,-0.10482,0.920916,-0.0020649999999999,0.001575,1.079084,0.002065,-0.001575,0.880852,-0.5541539999999999,0.049405,1.114582,-0.556204,0.003717,0.860272,-0.943074,0.015412,1.101822,-0.925654,-0.0215899999999999,1
58,1.0120334999999998,0.7757594999999999,0.109294,0.8153525,0.5745595,0.10293,0.6938325000000001,0.8160594999999999,0.0317179999999999,1.1781425,0.5785095,0.073664,1.2743825,0.8169995,-0.029972,0.6196425000000001,1.0419495,-0.057929,1.2934625,1.0886495,-0.108249,0.9208935,-0.0019935,0.0014999999999999,1.0791065,0.0019935,-0.0015,0.8807725,-0.5541005,0.048859,1.1144725,-0.5563505,0.0023609999999999,0.8599924999999999,-0.9423505,0.0153869999999999,1.1015825,-0.9260305,-0.022026,1
59,1.0118975,0.7758769999999999,0.10721,0.8153175,0.574977,0.102175,0.6935775,0.815987,0.0291929999999999,1.1780075,0.5785469999999999,0.072442,1.2745475,0.817067,-0.0324389999999999,0.6190875,1.041617,-0.061474,1.2938175,1.087817,-0.112094,0.9208675,-0.0019159999999999,0.001423,1.0791325,0.001916,-0.001423,0.8806275000000001,-0.553903,0.048241,1.1143375,-0.5564330000000001,0.0008839999999999,0.8596475,-0.941553,0.0153739999999999,1.1012575,-0.926303,-0.0223909999999999,1
60,1.0117235,0.7759915000000001,0.1048535,0.8152405,0.5753315,0.1013935,0.6932105,0.8159115,0.0264174999999999,1.1778705,0.5784815000000001,0.0712065,1.2747105,0.8171215000000001,-0.0351775,0.6184205,1.0412715,-0.0651005,1.2944105,1.0869715,-0.1162405,0.9208475,-0.0018484999999999,0.0013325,1.0791525,0.0018485,-0.0013325,0.8804405,-0.5540185,0.0475075,1.1141405,-0.5563785,-0.0008685,0.8592905,-0.9409085,0.0152274999999999,1.1009205,-0.9262785,-0.0227534999999999,1
61,1.0115664999999998,0.776081,0.1023429999999999,0.8152395,0.575551,0.100563,0.6927095,0.815871,0.023372,1.1777495,0.578051,0.069695,1.2748895,0.817191,-0.038199,0.6174995,1.040941,-0.069107,1.2952095,1.086041,-0.120647,0.9207855,-0.001793,0.001245,1.0792145,0.0017929999999999,-0.001245,0.8801295000000001,-0.552389,0.045411,1.1139395,-0.556179,-0.002949,0.8590095,-0.940289,0.0149369999999999,1.1006245,-0.926359,-0.023046,1
62,1.011424,0.7759980000000001,0.0996189999999999,0.815287,0.575588,0.099661,0.691987,0.815678,0.0200949999999999,1.177667,0.577138,0.067924,1.275117,0.816678,-0.041426,0.616017,1.040408,-0.073714,1.296277,1.085008,-0.125584,0.920704,-0.0017519999999999,0.0012239999999999,1.079296,0.0017519999999999,-0.001224,0.8799270000000001,-0.550562,0.0432239999999999,1.113857,-0.551582,-0.005055,0.858797,-0.939752,0.0145469999999999,1.100427,-0.925932,-0.022958,1
63,1.011322,0.7759550000000001,0.0971265,0.815367,0.5756950000000001,0.0987775,0.6911770000000002,0.815385,0.0167525,1.177687,0.575985,0.0660314999999999,1.275507,0.816055,-0.0448675,0.614117,1.039535,-0.0784755,1.297897,1.083935,-0.1314555,0.920631,-0.001663,0.0012684999999999,1.079369,0.001663,-0.0012684999999999,0.879697,-0.548175,0.0413015,1.113587,-0.546835,-0.0092664999999999,0.8586670000000001,-0.939255,0.0140585,1.100239,-0.925995,-0.0229775,1
64,1.0112295,0.7760065,0.0943605,0.8156654999999999,0.5758865000000001,0.0967775,0.6900355,0.8149065,0.0130175,1.1777155,0.5747365,0.0640625,1.2760855,0.8153265000000001,-0.0483735,0.6116655,1.0382265,-0.0835735,1.2998655,1.0829265,-0.1377335,0.9205725,-0.0015265,0.0013165,1.0794275,0.0015265,-0.0013164999999999,0.8794355,-0.5458135,0.0380975,1.1133555,-0.5417735,-0.0135764999999999,0.8585855,-0.9386535,0.0136315,1.1000555,-0.9258435,-0.0230044999999999,1
65,1.011127,0.7762755,0.0912155,0.815942,0.5761755,0.0944915,0.688742,0.8143254999999999,0.0092415,1.177782,0.5735155,0.0619635,1.276972,0.8145954999999999,-0.0520425,0.608762,1.0367255,-0.0888654999999999,1.302372,1.0815255,-0.1439055,0.920496,-0.0013255,0.0013384999999999,1.0795039999999998,0.0013254999999999,-0.0013384999999999,0.8790620000000001,-0.5434045000000001,0.0349335,1.113092,-0.5361545000000001,-0.0188185,0.858622,-0.9381445,0.0136125,1.099887,-0.9254645,-0.0230064999999999,1
66,1.0109979999999998,0.776439,0.0876045,0.816304,0.576519,0.0922254999999999,0.687174,0.812599,0.0050954999999999,1.177894,0.5720189999999999,0.0594104999999999,1.278084,0.813719,-0.0561605,0.605334,1.034569,-0.0943815,1.305644,1.080269,-0.1510814999999999,0.920412,-0.0011079999999999,0.0013634999999999,1.079588,0.001108,-0.0013635,0.878624,-0.5422710000000001,0.0314895,1.112714,-0.535741,-0.0236245,0.858714,-0.937611,0.0135654999999999,1.099572,-0.925021,-0.0230625,1
67,1.01093,0.7766925,0.0840585,0.816789,0.5769825,0.0900545,0.685269,0.8110225,0.0007144999999999,1.178069,0.5704425,0.0567955,1.279379,0.8128025,-0.0603065,0.601629,1.0321425000000002,-0.0998284999999999,1.309269,1.0788425,-0.1579885,0.920313,-0.0008855,0.0014235,1.079687,0.0008855,-0.0014235,0.878219,-0.5393175,0.0278425,1.112459,-0.5296375,-0.0283975,0.858859,-0.9370175,0.0133324999999999,1.099391,-0.9241475,-0.0233085,1
68,1.010954,0.776905,0.0802735,0.817312,0.5774050000000001,0.0876464999999999,0.6833119999999999,0.809175,-0.0035565,1.178282,0.568955,0.0543305,1.281002,0.811815,-0.0645735,0.597412,1.029525,-0.1052535,1.313692,1.077625,-0.1653935,0.920207,-0.000597,0.0015234999999999,1.079793,0.000597,-0.0015235,0.877822,-0.536305,0.0238744999999999,1.112232,-0.522365,-0.0332165,0.859012,-0.936135,0.0130144999999999,1.099361,-0.922735,-0.0234285,1
69,1.0110855,0.776826,0.076317,0.8179175,0.5779960000000001,0.08523,0.6813375000000002,0.806736,-0.0077239999999999,1.1785275,0.567436,0.051664,1.2830475,0.810786,-0.068947,0.5928175,1.026476,-0.1109469999999999,1.3186375,1.076676,-0.173157,0.9200075,-0.00029,0.001635,1.0799925,0.00029,-0.0016349999999999,0.8774175,-0.5330739999999999,0.019221,1.1119875,-0.5213139999999999,-0.037539,0.8591975000000001,-0.935084,0.012732,1.0993205,-0.921684,-0.023993,1
70,1.0109865,0.776603,0.0723915,0.8185865,0.578493,0.0828135,0.6793565000000001,0.803943,-0.0117215,1.1786465,0.566133,0.0489444999999999,1.2854265,0.809823,-0.0735315,0.5878265,1.023173,-0.1169014999999999,1.3238265,1.075673,-0.1811115,0.9198215,-3.2999999999999826e-05,0.0018034999999999,1.0801785,3.300000000000004e-05,-0.0018035,0.8772765,-0.531727,0.0156324999999999,1.1117965,-0.516387,-0.0435775,0.8595165000000001,-0.933817,0.0123994999999999,1.0994945,-0.920807,-0.0242664999999999,1
71,1.010827,0.77669,0.0685295,0.8193779999999999,0.57784,0.0790655,0.677408,0.80154,-0.0153805,1.178718,0.56564,0.0463204999999999,1.288008,0.8090200000000001,-0.0783005,0.5828180000000001,1.02035,-0.1224205,1.329208,1.07485,-0.1889605,0.919659,0.000207,0.0020034999999999,1.080341,-0.0002069999999999,-0.0020035,0.876968,-0.5294599999999999,0.0113604999999999,1.111618,-0.5107499999999999,-0.0492135,0.859808,-0.93196,0.0121564999999999,1.099621,-0.9197,-0.0249335,1
72,1.0106564999999998,0.7769415,0.064607,0.8202245,0.5774315,0.0753979999999999,0.6754145,0.7989515,-0.0190229999999999,1.1787445,0.5654715,0.043944,1.2904645,0.8079715,-0.0826909999999999,0.5778845,1.0164715,-0.127411,1.3345745,1.0737715,-0.196341,0.9194775,0.0004035,0.0022,1.0805225,-0.0004035,-0.0022,0.8766045000000001,-0.5269485,0.006871,1.1117045,-0.5046285,-0.052807,0.8602545,-0.9296685,0.011993,1.0997545,-0.9180485,-0.025517,1
73,1.010525,0.7771815,0.0611565,0.8209500000000001,0.5771014999999999,0.0727875,0.6733900000000002,0.7961815000000001,-0.0222515,1.17877,0.5654115,0.0415275,1.29283,0.8067215000000001,-0.0869464999999999,0.5732000000000002,1.0104915,-0.1318965,1.33979,1.0728915,-0.2030865,0.919252,0.0005434999999999,0.0023675,1.080748,-0.0005435,-0.0023675,0.8762900000000001,-0.5228785,0.0025574999999999,1.11172,-0.4986584999999999,-0.0571765,0.86084,-0.9268585,0.0109735,1.099959,-0.9142985,-0.0268284999999999,1
74,1.0104585,0.7771140000000001,0.0576495,0.8216665,0.576984,0.0704154999999999,0.6713965,0.793304,-0.0253785,1.1790565,0.565384,0.0392695,1.2949765,0.805234,-0.0910334999999999,0.5687965000000001,1.004814,-0.1362835,1.3447065,1.072034,-0.2100435,0.9189665,0.0006829999999999,0.0025304999999999,1.0810335,-0.0006829999999999,-0.0025304999999999,0.8759165,-0.5179659999999999,-0.0028335,1.1118265,-0.4929159999999999,-0.0612235,0.8615065,-0.923906,0.0098385,1.1001945,-0.910756,-0.0282675,1
75,1.0104385,0.777433,0.0542725,0.8223145000000001,0.575933,0.0670695,0.6695045,0.791803,-0.0286364999999999,1.1791945,0.565413,0.0368725,1.2972445,0.803853,-0.0952805,0.5648645,1.000033,-0.1402705,1.3488245,1.070443,-0.2165304999999999,0.9186125,0.0007609999999999,0.0025965,1.0813875,-0.000761,-0.0025964999999999,0.8755045,-0.511257,-0.0085634999999999,1.1119045,-0.487537,-0.0653805,0.8622545,-0.920277,0.0085725,1.1004565,-0.906667,-0.0299055,1
76,1.0103615,0.777459,0.050568,0.8229155,0.575009,0.063594,0.6679955,0.789699,-0.0318049999999999,1.1794355,0.565339,0.034397,1.2994255,0.802219,-0.099602,0.5609455,0.994859,-0.144422,1.3524255,1.063559,-0.222852,0.9182745,0.0008309999999999,0.0026619999999999,1.0817255,-0.0008309999999999,-0.0026619999999999,0.8748955,-0.506051,-0.014489,1.1118955,-0.4820609999999999,-0.0700119999999999,0.8630055,-0.916581,0.0070879999999999,1.1007525,-0.902251,-0.031802,1
77,1.0102975,0.777491,0.0470654999999999,0.8234735,0.573941,0.0600885,0.6663435000000001,0.7878010000000001,-0.0351835,1.1796535,0.565171,0.0319015,1.3014435,0.8002710000000001,-0.1038434999999999,0.5575335,0.989701,-0.1484535,1.3552635,1.056881,-0.2282435,0.9179525,0.00085,0.0026904999999999,1.0820475,-0.0008499999999999,-0.0026904999999999,0.8741435000000001,-0.500809,-0.0205265,1.1116735,-0.478309,-0.0747035,0.8636735,-0.912799,0.0055725,1.1009675,-0.8979889999999999,-0.0337335,1
78,1.0103365,0.777596,0.04348,0.8238995,0.572426,0.056142,0.6646595,0.786476,-0.038777,1.1797395,0.564706,0.029116,1.3031995,0.798426,-0.108207,0.5544695,0.985076,-0.152387,1.3577695,1.049926,-0.233227,0.9176885,0.0008439999999999,0.0027319999999999,1.0823115,-0.000844,-0.0027319999999999,0.8732995,-0.495074,-0.0262169999999999,1.1113995,-0.472724,-0.079467,0.8642295,-0.908354,0.004042,1.1012945,-0.892744,-0.0354849999999999,1
79,1.010382,0.777676,0.039769,0.8241450000000001,0.570836,0.05208,0.6629849999999999,0.785046,-0.042625,1.179755,0.564606,0.026601,1.304685,0.796266,-0.112585,0.551885,0.980726,-0.156075,1.359665,1.042706,-0.238375,0.917406,0.000822,0.0027749999999999,1.082594,-0.0008219999999999,-0.0027749999999999,0.8723850000000001,-0.489174,-0.0319879999999999,1.111075,-0.467534,-0.083455,0.864625,-0.903894,0.001925,1.101557,-0.887134,-0.03727,1
80,1.0103749999999998,0.7772169999999999,0.0360735,0.8243119999999999,0.570357,0.0492615,0.661482,0.782977,-0.0465405,1.179802,0.563977,0.0241855,1.305232,0.794637,-0.1167805,0.549632,0.975757,-0.1598405,1.361232,1.034387,-0.2440304999999999,0.917073,0.0007769999999999,0.0028125,1.082927,-0.0007769999999999,-0.0028125,0.871602,-0.4835129999999999,-0.0374265,1.110672,-0.462883,-0.0879105,0.865002,-0.899703,-0.0005114999999999,1.101737,-0.8819130000000001,-0.0391114999999999,1
81,1.01029,0.7765255,0.032022,0.82455,0.5694855,0.046018,0.6601699999999999,0.7811155,-0.0506359999999999,1.1798799999999998,0.5632355,0.021497,1.30616,0.7927855,-0.121574,0.5475,0.9723255,-0.164394,1.36272,1.0258655,-0.249694,0.916742,0.0008115,0.002749,1.083258,-0.0008114999999999,-0.002749,0.87097,-0.4781944999999999,-0.043154,1.11043,-0.4556645,-0.092714,0.86553,-0.8951945,-0.0017109999999999,1.101941,-0.8765245,-0.041206,1
82,1.0101064999999998,0.7756295,0.0276744999999999,0.8247705,0.5687195,0.0426855,0.6591705,0.7794495,-0.0552045,1.1798905,0.5623895,0.0187915,1.3072605,0.7909695,-0.1265965,0.5456705,0.9712595,-0.1695265,1.3641705,1.0171295,-0.2559565,0.9164395,0.0008405,0.0026725,1.0835605,-0.0008404999999999,-0.0026725,0.8704105,-0.4743505,-0.0480535,1.1100605,-0.4522705,-0.0972265,0.8658605,-0.8910105,-0.0025234999999999,1.1019735,-0.8727605,-0.0425435,1
83,1.009747,0.7750330000000001,0.0233185,0.8247340000000001,0.567613,0.0388805,0.6582140000000001,0.777683,-0.0601434999999999,1.179754,0.561413,0.0156134999999999,1.308274,0.785993,-0.1323455,0.543744,0.969993,-0.1750855,1.365704,1.008543,-0.2623655,0.916282,0.000837,0.0025815,1.083718,-0.0008369999999999,-0.0025815,0.8699140000000001,-0.470557,-0.0523295,1.109484,-0.448557,-0.1015855,0.8660140000000001,-0.886617,-0.0034054999999999,1.101837,-0.8685569999999999,-0.0440085,1
84,1.0093545,0.7742030000000001,0.0191005,0.8246605000000001,0.567303,0.0356025,0.6573804999999999,0.7755230000000001,-0.0650034999999999,1.1795505,0.560763,0.0126865,1.3089105,0.781363,-0.1376534999999999,0.5417105,0.968113,-0.1811135,1.3677305,1.000093,-0.2689435,0.9161615,0.000868,0.0024825,1.0838385,-0.0008679999999999,-0.0024824999999999,0.8694505000000001,-0.467387,-0.0564655,1.1087105,-0.4453169999999999,-0.1060035,0.8660105000000001,-0.882227,-0.0043985,1.1016104999999998,-0.8647769999999999,-0.0453664999999999,1
85,1.0092905,0.7735110000000001,0.0149639999999999,0.8247275000000001,0.566821,0.032089,0.6566875000000001,0.7736810000000001,-0.069813,1.1795475,0.560411,0.00951,1.3093875,0.777131,-0.142973,0.5399175,0.966551,-0.187303,1.3699375,0.996861,-0.275973,0.9160385,0.000875,0.002381,1.0839615,-0.000875,-0.002381,0.8689575,-0.4635389999999999,-0.060993,1.1076375,-0.4425289999999999,-0.110033,0.8659075,-0.877609,-0.005803,1.1012945,-0.861309,-0.0465169999999999,1
86,1.0094125,0.7726470000000001,0.0108564999999999,0.8247305,0.566587,0.0289105,0.6559705,0.7713369999999999,-0.0746165,1.1795405,0.5599069999999999,0.0066374999999999,1.3097805,0.773387,-0.1481665,0.5379605000000001,0.964667,-0.1936765,1.3721305,0.992607,-0.2835665,0.9158425,0.0008309999999999,0.0022874999999999,1.0841575,-0.0008309999999999,-0.0022874999999999,0.8684205,-0.4606929999999999,-0.0651964999999999,1.1063105,-0.440013,-0.1141965,0.8657505,-0.8735029999999999,-0.0074224999999999,1.1009055,-0.8583529999999999,-0.0476945,1
87,1.009581,0.772092,0.0068229999999999,0.824764,0.566282,0.0256049999999999,0.655224,0.7685820000000001,-0.079217,1.179434,0.559812,0.0036449999999999,1.310354,0.7699320000000001,-0.153427,0.535874,0.962742,-0.200047,1.374074,0.988032,-0.291227,0.915614,0.000839,0.002123,1.084386,-0.0008389999999999,-0.002123,0.8680240000000001,-0.458078,-0.069277,1.104864,-0.437618,-0.118277,0.865564,-0.869518,-0.00904,1.100436,-0.855418,-0.049082,1
88,1.0099235,0.7715004999999999,0.0024839999999999,0.8249124999999999,0.5658805,0.0219339999999999,0.6545025,0.7660505,-0.083906,1.1793924999999998,0.5597205,0.0002299999999999,1.3107625,0.7665605,-0.158546,0.5337324999999999,0.9603905,-0.207036,1.3763825,0.9836505,-0.299166,0.9154205,0.0009244999999999,0.0019799999999999,1.0845795,-0.0009245,-0.00198,0.8679025,-0.4563395,-0.073086,1.1033025,-0.4355795,-0.121946,0.8652925,-0.8660295,-0.010986,1.0998155,-0.8528395000000001,-0.050255,1
89,1.0102585,0.770948,-0.0021254999999999,0.8251165,0.565308,0.0178155,0.6537265,0.763648,-0.0888905,1.1793065,0.559568,-0.0035694999999999,1.3111265,0.7635679999999999,-0.1638505,0.5316365000000001,0.957358,-0.2141305,1.3788165,0.979708,-0.3065305,0.9152255,0.0010119999999999,0.0018595,1.0847745,-0.0010119999999999,-0.0018595,0.8683065,-0.4560019999999999,-0.0770405,1.1016105,-0.4333419999999999,-0.1252505,0.8650065,-0.862522,-0.0128464999999999,1.0990805,-0.850402,-0.0517315,1
90,1.010439,0.770255,-0.0070075,0.825404,0.564785,0.0135064999999999,0.6529039999999999,0.761175,-0.0942795,1.179194,0.559115,-0.0077525,1.311344,0.758175,-0.1696095,0.529844,0.952285,-0.2207395,1.381434,0.976125,-0.3142295,0.915047,0.0011149999999999,0.0018034999999999,1.084953,-0.001115,-0.0018035,0.868904,-0.4557749999999999,-0.0806295,1.099936,-0.4311549999999999,-0.1282195,0.864704,-0.859155,-0.0149515,1.098306,-0.848015,-0.0534595,1
91,1.01063,0.769575,-0.0121484999999999,0.825658,0.564275,0.0089745,0.651848,0.758455,-0.0997624999999999,1.179018,0.558775,-0.0121024999999999,1.311698,0.753195,-0.1753024999999999,0.527898,0.946895,-0.2272124999999999,1.384388,0.971725,-0.3225424999999999,0.914873,0.0012149999999999,0.0017915,1.085127,-0.001215,-0.0017914999999999,0.869758,-0.4558150000000001,-0.0842725,1.098272,-0.429325,-0.1308524999999999,0.864488,-0.855585,-0.0162135,1.097541,-0.845805,-0.0553805,1
92,1.0106875,0.7687050000000001,-0.017699,0.8258265000000001,0.563495,0.0039069999999999,0.6504464999999999,0.7556550000000001,-0.105641,1.1787265,0.558575,-0.01681,1.3125465,0.7518250000000001,-0.1814609999999999,0.5252865,0.941045,-0.2339109999999999,1.3871665,0.967005,-0.330731,0.9147275,0.0013149999999999,0.0017039999999999,1.0852725,-0.0013149999999999,-0.001704,0.8706465,-0.4557749999999999,-0.088231,1.0964045,-0.428175,-0.1335009999999999,0.8641465,-0.852135,-0.017708,1.0967135,-0.844615,-0.057548,1
93,1.0106935,0.7679849999999999,-0.0236565,0.8259125,0.5629649999999999,-0.0016294999999999,0.6486925,0.7528549999999999,-0.1121035,1.1782024999999998,0.556935,-0.0224095,1.3136725,0.7502949999999999,-0.1882035,0.5224025,0.935485,-0.2409635,1.3898825,0.962015,-0.3387935,0.9146635,0.001435,0.0017114999999999,1.0853365,-0.001435,-0.0017115,0.8716325,-0.4554649999999999,-0.0924035,1.0944435,-0.426835,-0.1361534999999999,0.8637525,-0.8487750000000001,-0.0199625,1.0956225,-0.843165,-0.0597455,1
94,1.0105475,0.767495,-0.0300505,0.8259695,0.562575,-0.0074825,0.6468395,0.749855,-0.1188365,1.1775894999999998,0.555615,-0.0282245,1.3150895,0.749295,-0.1953665,0.5194295,0.929785,-0.2482165,1.3928695,0.957145,-0.3468064999999999,0.9146125,0.001515,0.0016805,1.0853875,-0.001515,-0.0016805,0.8727095,-0.453755,-0.0961365,1.0919875,-0.427335,-0.1388964999999999,0.8633695,-0.8447749999999999,-0.0222925,1.0945075,-0.841275,-0.0622065,1
95,1.0103635,0.767085,-0.0370869999999999,0.8261735,0.561985,-0.0139679999999999,0.6444435,0.747595,-0.126111,1.1770235,0.554055,-0.0347649999999999,1.3166535,0.7487950000000001,-0.203091,0.5161735000000001,0.924285,-0.256171,1.3968235,0.952225,-0.355241,0.9144345,0.001605,0.0016229999999999,1.0855655,-0.0016049999999999,-0.0016229999999999,0.8740135,-0.451595,-0.099791,1.0898995,-0.427035,-0.141571,0.8631335,-0.8402449999999999,-0.024846,1.0935765,-0.8384450000000001,-0.064647,1
96,1.01014,0.7662,-0.044449,0.8263410000000001,0.56149,-0.020391,0.641931,0.74497,-0.133689,1.176361,0.55252,-0.041108,1.317941,0.7464700000000001,-0.2107589999999999,0.512981,0.9181,-0.264179,1.4011809999999998,0.94725,-0.363799,0.9143,0.00167,0.001586,1.0857,-0.00167,-0.001586,0.875781,-0.4502899999999999,-0.103309,1.0879649999999998,-0.4269299999999999,-0.144029,0.8628709999999999,-0.83609,-0.0283749999999999,1.092733,-0.83541,-0.066759,1
97,1.009722,0.7652699999999999,-0.0520495,0.826507,0.5605899999999999,-0.0271684999999999,0.639197,0.74265,-0.1416175,1.175727,0.55087,-0.0475405,1.319647,0.74139,-0.2185075,0.5094069999999999,0.91201,-0.2722775,1.406267,0.9421,-0.3724675,0.914193,0.0016599999999999,0.0014825,1.085807,-0.00166,-0.0014824999999999,0.8777870000000001,-0.44827,-0.1075275,1.086135,-0.42749,-0.1465875,0.862827,-0.83141,-0.0318185,1.092014,-0.83176,-0.0689505,1
98,1.009154,0.764265,-0.059919,0.826549,0.5599149999999999,-0.033988,0.636199,0.740265,-0.149942,1.175179,0.549515,-0.054135,1.321409,0.7361850000000001,-0.226212,0.505429,0.906085,-0.281072,1.412329,0.935975,-0.3823519999999999,0.914018,0.0016149999999999,0.001433,1.085982,-0.001615,-0.001433,0.8795590000000001,-0.444905,-0.111452,1.084355,-0.427755,-0.149272,0.862849,-0.8269550000000001,-0.0356029999999999,1.091397,-0.827725,-0.0712489999999999,1
99,1.0085385,0.7632749999999999,-0.0677465,0.8264645000000002,0.559375,-0.0409174999999999,0.6333245000000001,0.737035,-0.1580035,1.1745745,0.548275,-0.0608435,1.3236345,0.733385,-0.2333535,0.5014045,0.901445,-0.2904935,1.4184445,0.929615,-0.3919235,0.9137785,0.0014649999999999,0.0014575,1.0862215,-0.0014649999999999,-0.0014575,0.8813345,-0.441515,-0.1154734999999999,1.0827585,-0.427965,-0.1516334999999999,0.8627945,-0.823515,-0.0405515,1.0908165,-0.823015,-0.0729545,1
100,1.0078985,0.762285,-0.0757299999999999,0.8264065,0.558395,-0.04822,0.6305565,0.733765,-0.166205,1.1739265,0.5471250000000001,-0.067743,1.3257465,0.730125,-0.240955,0.4971365,0.896625,-0.300545,1.4248365,0.922895,-0.401045,0.9135185,0.001365,0.0014289999999999,1.0864815,-0.001365,-0.0014289999999999,0.8830565,-0.437335,-0.119415,1.0812925,-0.4275949999999999,-0.153815,0.8628165,-0.818515,-0.04511,1.0902175,-0.817045,-0.074753,1
101,1.0073625,0.7609899999999999,-0.0839205,0.8264575000000001,0.5577799999999999,-0.0552965,0.6280574999999999,0.7300099999999999,-0.1742515,1.1732775,0.5456300000000001,-0.0748165,1.3277375,0.72612,-0.2483515,0.4932175,0.89157,-0.3109515,1.4319175,0.91389,-0.4106615,0.9133755,0.0012699999999999,0.0014795,1.0866245,-0.00127,-0.0014795,0.8848875,-0.43279,-0.1230015,1.0800935,-0.42639,-0.1561814999999999,0.8628775000000001,-0.81489,-0.0507445,1.0897715,-0.81093,-0.0768275,1
102,1.0067685,0.7592350000000001,-0.0925195,0.8266025,0.556305,-0.0625054999999999,0.6255225000000001,0.726145,-0.1824195,1.1725625,0.545165,-0.0816335,1.3298625,0.7213350000000001,-0.2560195,0.4886524999999999,0.885745,-0.3221095,1.4389625,0.905015,-0.4205695,0.9132525,0.001115,0.0015274999999999,1.0867475,-0.0011149999999999,-0.0015275,0.8866325,-0.428345,-0.1265795,1.0789295,-0.425255,-0.1586095,0.8628625,-0.8110649999999999,-0.0562525,1.0895095,-0.8055950000000001,-0.0790994999999999,1
103,1.0061414999999998,0.75751,-0.101265,0.8268025,0.55478,-0.069939,0.6230525,0.72305,-0.191105,1.1718725,0.54434,-0.088581,1.3322225,0.71595,-0.264355,0.4837525,0.88081,-0.334235,1.4461125,0.89598,-0.431065,0.9131065,0.00101,0.001594,1.0868935,-0.00101,-0.001594,0.8884825,-0.4249,-0.130015,1.0783535,-0.42171,-0.1610349999999999,0.8628325,-0.8075600000000001,-0.06154,1.0890915,-0.80069,-0.082033,1
104,1.005667,0.755085,-0.110209,0.827186,0.553455,-0.077103,0.6212260000000001,0.7188950000000001,-0.199869,1.171246,0.543275,-0.095559,1.332476,0.7099550000000001,-0.272989,0.479246,0.875005,-0.346299,1.453036,0.885715,-0.441729,0.912774,0.000965,0.0017329999999999,1.087226,-0.0009649999999999,-0.001733,0.890346,-0.422025,-0.133779,1.077718,-0.418935,-0.163519,0.863026,-0.804465,-0.066726,1.088747,-0.7957749999999999,-0.084345,1
105,1.0051045,0.753235,-0.119088,0.8275305,0.551815,-0.0846809999999999,0.6194204999999999,0.715365,-0.209168,1.1705305,0.541805,-0.102898,1.3348805,0.704445,-0.281588,0.4748605,0.869155,-0.358688,1.4596405,0.874725,-0.452558,0.9124035,0.0009149999999999,0.0019489999999999,1.0875965,-0.0009149999999999,-0.001949,0.8917505,-0.4181250000000001,-0.137738,1.0769594999999998,-0.416805,-0.166108,0.8630504999999999,-0.800405,-0.071285,1.0883505,-0.790385,-0.0866239999999999,1
106,1.0044765,0.7516,-0.1278475,0.8277155,0.55061,-0.0918824999999999,0.6177355,0.7117499999999999,-0.2183875,1.1697155,0.54061,-0.1101875,1.3352455,0.7017599999999999,-0.2901375,0.4708155,0.8602000000000001,-0.3704575,1.4659755,0.8647499999999999,-0.4641375,0.9120915,0.0008299999999999,0.0022165,1.0879085,-0.00083,-0.0022165,0.8930455,-0.41469,-0.1406975,1.0757215,-0.41357,-0.1690075,0.8629555,-0.7962100000000001,-0.0756365,1.0878105,-0.7844,-0.0888335,1
107,1.0039085,0.7502599999999999,-0.1366725,0.8280495000000001,0.5492900000000001,-0.0991635,0.6170595000000001,0.70861,-0.2275125,1.1689795,0.5393699999999999,-0.1174625,1.3364495,0.69585,-0.2992525,0.4684395,0.85295,-0.3814125,1.4709495,0.8544499999999999,-0.4740925,0.9118615,0.0007099999999999,0.0023625,1.0881385,-0.00071,-0.0023625,0.8943995000000001,-0.4109399999999999,-0.1439725,1.0745595,-0.40995,-0.1716725,0.8627995000000002,-0.7913600000000001,-0.0803445,1.0872435,-0.77829,-0.0910185,1
108,1.003563,0.74892,-0.1452985,0.8286700000000001,0.54759,-0.1063785,0.6166400000000001,0.7061499999999999,-0.2369685,1.16837,0.53854,-0.1242985,1.33586,0.69001,-0.3080785,0.46658,0.84646,-0.3924485,1.47542,0.8446899999999999,-0.4836385,0.911759,0.0005199999999999,0.0024665,1.088241,-0.00052,-0.0024665,0.89624,-0.40715,-0.1473084999999999,1.07357,-0.40646,-0.1737085,0.86301,-0.78638,-0.0838125,1.086942,-0.77233,-0.0933785,1
109,1.003251,0.7468349999999999,-0.1541025,0.8290410000000001,0.5460050000000001,-0.1134325,0.6162110000000001,0.7038550000000001,-0.2468824999999999,1.167601,0.536725,-0.1313425,1.335571,0.684145,-0.3164125,0.465901,0.8404149999999999,-0.4035424999999999,1.478941,0.835105,-0.4932225,0.911635,0.000355,0.0026125,1.088365,-0.0003549999999999,-0.0026125,0.897621,-0.401665,-0.1510325,1.072267,-0.4031349999999999,-0.1751124999999999,0.863201,-0.7824150000000001,-0.0881375,1.086667,-0.766845,-0.0961455,1
110,1.0028745,0.74516,-0.1625655,0.8292415,0.54434,-0.1202455,0.6158515,0.70077,-0.2561655,1.1668315,0.53512,-0.1378255,1.3360015,0.6795,-0.3238655,0.4653015,0.83402,-0.4133855,1.4817315,0.82771,-0.5020955,0.9114675,0.0001099999999999,0.0026734999999999,1.0885325,-0.0001099999999999,-0.0026735,0.8988214999999999,-0.39588,-0.1555855,1.0706825,-0.4000399999999999,-0.1764455,0.8634215000000001,-0.77826,-0.0923785,1.0864885,-0.76106,-0.0979005,1
111,1.0027165,0.744465,-0.1753765,0.8293255000000002,0.544335,-0.1314965,0.6160155,0.6984950000000001,-0.2694265,1.1663055,0.534705,-0.1487765,1.3360355,0.6742250000000001,-0.3357065,0.4652055,0.828645,-0.4267265,1.4841055,0.821225,-0.5154865,0.9115445,7.50000000000195e-05,0.0025015,1.0884554999999998,-7.499999999999174e-05,-0.0025014999999999,0.9000495,-0.388275,-0.1654765,1.0693725,-0.395505,-0.1824065,0.8638255000000001,-0.7708349999999999,-0.0997895,1.0866575,-0.7536349999999999,-0.1042815,1
112,1.002454,0.744495,-0.1888695,0.8293060000000001,0.544745,-0.1435295,0.6171960000000001,0.695215,-0.2828295,1.165206,0.532435,-0.1601795,1.335556,0.669805,-0.3476195,0.4650959999999999,0.822275,-0.4398395,1.485926,0.815635,-0.5291095,0.911629,0.000255,0.0025185,1.088371,-0.000255,-0.0025185,0.9004870000000001,-0.378955,-0.1823795,1.068388,-0.3996349999999999,-0.1851695,0.8642460000000001,-0.762205,-0.1099875,1.086853,-0.750205,-0.1112455,1
113,1.0022445,0.7445350000000001,-0.2021204999999999,0.8292305,0.544475,-0.1559704999999999,0.6183305,0.692635,-0.2955805,1.1640905,0.530785,-0.1715505,1.3345705,0.666225,-0.3586805,0.4649705,0.815825,-0.4519505,1.4871405,0.811075,-0.5422205,0.9118385,0.0003849999999999,0.0025615,1.0881615,-0.0003849999999999,-0.0025614999999999,0.9008145,-0.368695,-0.1996504999999999,1.0675725,-0.403265,-0.1881904999999999,0.8646005,-0.7535649999999999,-0.1215094999999999,1.0871375,-0.746345,-0.1180334999999999,1
114,1.002111,0.74361,-0.215301,0.829202,0.54455,-0.168001,0.6195920000000001,0.68946,-0.307591,1.163092,0.52928,-0.1825709999999999,1.332912,0.66124,-0.369641,0.465312,0.80922,-0.463761,1.487942,0.80674,-0.5551710000000001,0.912122,0.00053,0.002598,1.087878,-0.00053,-0.0025979999999999,0.900977,-0.35795,-0.217171,1.066959,-0.4059999999999999,-0.191271,0.864702,-0.7463799999999999,-0.135873,1.087314,-0.7431599999999999,-0.12545,1
115,1.001962,0.7423649999999999,-0.2281985,0.829107,0.5431250000000001,-0.1799485,0.620877,0.686185,-0.3192285,1.162157,0.527605,-0.1936385,1.330617,0.656575,-0.3802885,0.466167,0.806075,-0.4756885,1.488347,0.8020349999999999,-0.5669085,0.912361,0.000675,0.0026725,1.087639,-0.000675,-0.0026725,0.90082,-0.349415,-0.2351285,1.067231,-0.3968549999999999,-0.2003485,0.864667,-0.739945,-0.1509585,1.087326,-0.737885,-0.1356215,1
116,1.0015895,0.7406550000000001,-0.2408865,0.8290355,0.542195,-0.1914365,0.6220955,0.682205,-0.3310565,1.1610455,0.525055,-0.2044165,1.3280655,0.655125,-0.3902965,0.4671654999999999,0.8012250000000001,-0.4883265,1.4885855,0.798635,-0.5791065,0.9125665,0.000985,0.0028115,1.0874335,-0.0009849999999999,-0.0028114999999999,0.9003555,-0.341635,-0.2530265,1.0674305,-0.3882749999999999,-0.2093964999999999,0.8648055,-0.732985,-0.1651564999999999,1.0872505,-0.733085,-0.1455825,1
117,1.0009775,0.738545,-0.2535524999999999,0.8286465000000001,0.5419149999999999,-0.2026925,0.6232365,0.678275,-0.3426725,1.1598365,0.522285,-0.2151525,1.3264265,0.6535850000000001,-0.4007325,0.4678764999999999,0.795705,-0.5009425000000001,1.4885564999999998,0.795045,-0.5915225,0.9127995,0.0014149999999999,0.0029715,1.0872005,-0.0014149999999999,-0.0029714999999999,0.8996865000000001,-0.334125,-0.2710625,1.0674884999999998,-0.3798049999999999,-0.2187724999999999,0.8649865,-0.7266549999999999,-0.1801225,1.0870075,-0.728025,-0.1582945,1
118,1.000407,0.737185,-0.2659694999999999,0.828352,0.540385,-0.2139895,0.624352,0.674365,-0.3536995,1.158772,0.5205150000000001,-0.2256795,1.325212,0.652585,-0.4115395,0.4686519999999999,0.790025,-0.5129095,1.488202,0.792545,-0.6037995,0.913014,0.001665,0.0030904999999999,1.086986,-0.0016649999999999,-0.0030905,0.8990420000000001,-0.324555,-0.2895295,1.067057,-0.367685,-0.2387695,0.865082,-0.720225,-0.1960595,1.086609,-0.721465,-0.1759545,1
119,0.9997265,0.73567,-0.278225,0.8279795,0.5386,-0.225005,0.6248595,0.6717299999999999,-0.364865,1.1578695,0.51878,-0.236065,1.3248795,0.65056,-0.422485,0.4687194999999999,0.78531,-0.525135,1.4879195,0.7899799999999999,-0.6161650000000001,0.9132455,0.0019299999999999,0.0032709999999999,1.0867545,-0.0019299999999999,-0.003271,0.8985395,-0.31448,-0.307315,1.0668655,-0.3557499999999999,-0.259035,0.8652295,-0.7143999999999999,-0.212115,1.0861195,-0.71533,-0.193835,1
120,0.998736,0.7332449999999999,-0.2855135,0.827153,0.535705,-0.2309535,0.6247929999999999,0.668255,-0.3714035,1.156683,0.5161749999999999,-0.2413835,1.323613,0.649745,-0.4285234999999999,0.468483,0.779975,-0.5326535,1.487473,0.786915,-0.6233635000000001,0.913234,0.001975,0.0036445,1.086766,-0.001975,-0.0036444999999999,0.897513,-0.305195,-0.3195835,1.066642,-0.344975,-0.2744735,0.865213,-0.7099650000000002,-0.2218135,1.08544,-0.7104650000000001,-0.2071935,1
121,0.9977915,0.729805,-0.2915195,0.8266264999999999,0.5322749999999999,-0.2354294999999999,0.6252065,0.665005,-0.3764794999999999,1.1560265,0.514575,-0.2456095,1.3228665,0.647135,-0.4332395,0.4690264999999999,0.774895,-0.5385795,1.4870965,0.782505,-0.6294394999999999,0.9132295,0.001865,0.0037305,1.0867705,-0.001865,-0.0037304999999999,0.8972365,-0.298605,-0.3244095,1.0675345,-0.335205,-0.2876495,0.8654364999999999,-0.7055750000000001,-0.2286795,1.0848635,-0.704175,-0.2192695,1
122,0.996967,0.72695,-0.2967235,0.826306,0.52947,-0.2391335,0.6256360000000001,0.66175,-0.3811835,1.155486,0.51305,-0.2492435,1.322816,0.64394,-0.4377635,0.4694859999999999,0.77078,-0.5441235,1.486726,0.7787999999999999,-0.6348535,0.913208,0.0017899999999999,0.0037764999999999,1.086792,-0.00179,-0.0037765,0.8969860000000001,-0.29239,-0.3285835,1.068517,-0.32514,-0.3000235,0.865706,-0.70127,-0.2340435,1.084447,-0.6981700000000001,-0.2307335,1
123,0.9961285,0.7247950000000001,-0.301583,0.8261695,0.526775,-0.2426029999999999,0.6259995,0.659185,-0.385873,1.1548395,0.511735,-0.252653,1.3221995,0.642255,-0.441813,0.4696695000000001,0.767355,-0.549563,1.4864495,0.7756050000000001,-0.6397930000000001,0.9129985,0.001645,0.003807,1.0870015,-0.001645,-0.003807,0.8966395,-0.286475,-0.332473,1.0692875,-0.315125,-0.313053,0.8660194999999999,-0.696485,-0.237353,1.0840595,-0.692485,-0.241903,1
124,0.9954625,0.72295,-0.30596,0.8261225,0.52553,-0.24572,0.6257125,0.65601,-0.39009,1.1542225,0.51042,-0.25559,1.3220625,0.64008,-0.44553,0.4693524999999999,0.76359,-0.55437,1.4865025,0.77232,-0.64401,0.9129735,0.0015399999999999,0.0037599999999999,1.0870265,-0.0015399999999999,-0.0037599999999999,0.8962825,-0.28267,-0.33563,1.0703085,-0.29593,-0.33071,0.8663825,-0.6924899999999999,-0.23932,1.0841174999999998,-0.68464,-0.2491799999999999,1
125,0.9950905,0.721415,-0.3096,0.8261645000000001,0.524295,-0.24869,0.6258045,0.6534150000000001,-0.39342,1.1537645,0.5098050000000001,-0.2585199999999999,1.3220745,0.638125,-0.44896,0.4694244999999999,0.760515,-0.55815,1.4863845,0.769405,-0.64751,0.9129385,0.001365,0.0037,1.0870615,-0.001365,-0.0036999999999999,0.8958945,-0.279045,-0.3385599999999999,1.0715155,-0.2769649999999999,-0.34847,0.8663545,-0.6886750000000001,-0.2422899999999999,1.0838635,-0.6773450000000001,-0.26198,1
126,0.994876,0.720405,-0.31284,0.826143,0.522615,-0.25169,0.625923,0.651255,-0.39643,1.153373,0.509175,-0.26149,1.321883,0.636545,-0.4519499999999999,0.4694729999999999,0.758165,-0.56125,1.486353,0.766645,-0.65053,0.912893,0.001165,0.0036599999999999,1.0871069999999998,-0.0011649999999999,-0.0036599999999999,0.895263,-0.275875,-0.34151,1.072767,-0.258575,-0.36601,0.8662030000000001,-0.685365,-0.24528,1.083542,-0.670805,-0.27493,1
127,0.994752,0.719435,-0.315305,0.826233,0.5222549999999999,-0.254175,0.626023,0.649455,-0.398905,1.153023,0.508465,-0.263865,1.322133,0.6352450000000001,-0.454445,0.469503,0.756195,-0.563725,1.486213,0.763705,-0.652995,0.91288,0.0010949999999999,0.0036549999999999,1.08712,-0.001095,-0.003655,0.894583,-0.274035,-0.343925,1.074099,-0.256075,-0.368595,0.866383,-0.683525,-0.247725,1.084155,-0.668255,-0.277605,1
128,0.9947505,0.71895,-0.317685,0.8263005,0.52214,-0.256405,0.6258604999999999,0.64856,-0.401285,1.1527605,0.5079,-0.265935,1.3226004999999998,0.63488,-0.4568649999999999,0.4691704999999999,0.75493,-0.566235,1.4859805,0.76139,-0.655365,0.9128825,0.00108,0.0036949999999999,1.0871175,-0.00108,-0.003695,0.8938905,-0.27271,-0.346245,1.0755435,-0.2540599999999999,-0.371105,0.8666205000000001,-0.6822,-0.249095,1.0851425,-0.66627,-0.280075,1
129,0.99472,0.7189300000000001,-0.31987,0.826416,0.52213,-0.25808,0.625796,0.6481399999999999,-0.4032199999999999,1.152526,0.50753,-0.2677,1.322546,0.63413,-0.4588899999999999,0.469176,0.75421,-0.5684199999999999,1.485726,0.75961,-0.65753,0.912838,0.0010899999999999,0.0037,1.087162,-0.0010899999999999,-0.0036999999999999,0.8932059999999999,-0.27188,-0.34818,1.076933,-0.25268,-0.3734,0.8667860000000001,-0.68137,-0.2501,1.086163,-0.66493,-0.28235,1
130,0.9947545,0.719155,-0.3218149999999999,0.8263995,0.522055,-0.259375,0.6258795000000001,0.648085,-0.4050749999999999,1.1522595,0.5077550000000001,-0.268995,1.3223595,0.6340950000000001,-0.4606449999999999,0.4692095,0.753785,-0.570465,1.4855395,0.758615,-0.6590849999999999,0.9128345,0.001045,0.003765,1.0871655,-0.0010449999999999,-0.003765,0.8925995000000001,-0.271255,-0.349465,1.0783895,-0.2520049999999999,-0.374645,0.8671595,-0.6806450000000001,-0.250545,1.0873625,-0.6643049999999999,-0.283595,1
131,0.994773,0.71943,-0.322915,0.826308,0.5222100000000001,-0.260305,0.6259680000000001,0.64836,-0.4065149999999999,1.151798,0.50803,-0.269885,1.322168,0.63415,-0.4621349999999999,0.4693279999999999,0.75406,-0.572275,1.485308,0.75875,-0.660085,0.912828,0.0009899999999999,0.0038549999999999,1.087172,-0.0009899999999999,-0.0038549999999999,0.8920480000000001,-0.27077,-0.350385,1.079824,-0.25137,-0.375545,0.867268,-0.6801700000000002,-0.250915,1.088587,-0.6638,-0.284405,1
132,0.994622,0.7194499999999999,-0.32306,0.826062,0.52223,-0.26048,0.625962,0.64838,-0.40717,1.151252,0.50805,-0.2699499999999999,1.322402,0.6341699999999999,-0.46158,0.469462,0.75408,-0.57318,1.485052,0.75877,-0.6600699999999999,0.912808,0.0009699999999999,0.0039499999999999,1.087192,-0.00097,-0.0039499999999999,0.891442,-0.2705000000000001,-0.35074,1.0809689999999998,-0.25106,-0.37582,0.8670720000000001,-0.6800499999999999,-0.25145,1.089842,-0.6634800000000001,-0.28499,1
133,0.994414,0.7195799999999999,-0.322565,0.825705,0.52223,-0.260365,0.625965,0.64838,-0.408165,1.150675,0.5081899999999999,-0.269695,1.322005,0.6341699999999999,-0.461075,0.469565,0.75408,-0.574415,1.484685,0.75877,-0.659635,0.912761,0.0009699999999999,0.0040449999999999,1.087239,-0.00097,-0.004045,0.891045,-0.27004,-0.350885,1.0819139999999998,-0.25075,-0.376045,0.8670249999999999,-0.67965,-0.252075,1.091052,-0.66325,-0.285845,1
134,0.9940075000000002,0.7201850000000001,-0.32137,0.8250075,0.522205,-0.2596199999999999,0.6256475,0.648755,-0.40876,1.1499775,0.5084850000000001,-0.26886,1.3220375,0.6346750000000001,-0.46027,0.4693874999999999,0.754065,-0.57527,1.4837675,0.758745,-0.65812,0.9127005,0.000945,0.00411,1.0872995,-0.0009449999999999,-0.00411,0.8905575,-0.2695849999999999,-0.35079,1.0825745,-0.250305,-0.37616,0.8668575000000001,-0.679175,-0.25245,1.0919955,-0.663015,-0.28652,1
135,0.993554,0.721395,-0.31945,0.824307,0.522405,-0.25862,0.6253569999999999,0.6494850000000001,-0.4088199999999999,1.149227,0.509115,-0.26766,1.322677,0.637305,-0.45896,0.469457,0.754515,-0.57554,1.482527,0.7595050000000001,-0.65627,0.912662,0.000835,0.0040699999999999,1.087338,-0.0008349999999999,-0.00407,0.890257,-0.2693749999999999,-0.3507,1.083028,-0.2501449999999999,-0.37594,0.866637,-0.679145,-0.2527,1.092969,-0.662955,-0.28678,1
136,0.993035,0.722645,-0.317395,0.823545,0.522355,-0.2575349999999999,0.624985,0.6511450000000001,-0.408455,1.148475,0.509935,-0.2663149999999999,1.322705,0.6395150000000001,-0.457825,0.469385,0.755495,-0.575395,1.481125,0.760845,-0.654425,0.912645,0.000685,0.004005,1.087355,-0.0006849999999999,-0.0040049999999999,0.8899250000000001,-0.269775,-0.350365,1.0834,-0.250625,-0.375275,0.866345,-0.6794950000000001,-0.252665,1.093794,-0.6635449999999999,-0.2872949999999999,1
137,0.9924845,0.7241150000000001,-0.3150199999999999,0.8227255,0.5223249999999999,-0.25637,0.6246754999999999,0.652925,-0.40761,1.1477255,0.510685,-0.26481,1.3219455,0.641605,-0.4567,0.4694155000000001,0.756855,-0.57479,1.4794455,0.7623249999999999,-0.65288,0.9126335,0.0005549999999999,0.0039399999999999,1.0873665,-0.000555,-0.0039399999999999,0.8894955000000001,-0.270455,-0.34977,1.0836575,-0.251525,-0.37439,0.8660455000000001,-0.6804749999999999,-0.2525699999999999,1.0942855,-0.664685,-0.28788,1
138,0.9919685,0.725835,-0.312415,0.8218305,0.523505,-0.254835,0.6242605,0.6548050000000001,-0.406115,1.1469505,0.5115149999999999,-0.262985,1.3212805,0.644995,-0.4557049999999999,0.4694405,0.758845,-0.573395,1.4771505,0.764895,-0.650765,0.9126255,0.000475,0.003845,1.0873745,-0.000475,-0.0038449999999999,0.8890005,-0.271645,-0.348815,1.0838885,-0.252695,-0.373525,0.8657604999999999,-0.681755,-0.252345,1.0947775,-0.666275,-0.288385,1
139,0.99148,0.727675,-0.309505,0.820895,0.525085,-0.253005,0.623885,0.656655,-0.403625,1.146225,0.512505,-0.260915,1.321535,0.647715,-0.454265,0.4695950000000001,0.761015,-0.570985,1.474875,0.7674449999999999,-0.6487350000000001,0.912633,0.0004649999999999,0.0038849999999999,1.087367,-0.000465,-0.0038849999999999,0.888365,-0.273335,-0.347095,1.08415,-0.254565,-0.372125,0.8654950000000001,-0.6838050000000001,-0.252105,1.095283,-0.6685150000000001,-0.2881249999999999,1
140,0.990939,0.72927,-0.306465,0.81992,0.52673,-0.251085,0.6238900000000001,0.6580699999999999,-0.400775,1.14576,0.51349,-0.258785,1.32045,0.6504099999999999,-0.452505,0.46979,0.7632099999999999,-0.567985,1.472,0.77105,-0.645985,0.912696,0.0004899999999999,0.0039049999999999,1.0873039999999998,-0.0004899999999999,-0.003905,0.8872599999999999,-0.27528,-0.347035,1.084417,-0.25693,-0.370225,0.8651900000000001,-0.68625,-0.253585,1.095681,-0.6711800000000001,-0.287665,1
141,0.9904455,0.73176,-0.30261,0.8189535,0.52882,-0.24889,0.6235535,0.65982,-0.39738,1.1453635,0.51461,-0.2564099999999999,1.3194635,0.65313,-0.4515699999999999,0.4699635,0.76615,-0.5644899999999999,1.4691235,0.77572,-0.64281,0.9127285,0.0005499999999999,0.00395,1.0872715,-0.0005499999999999,-0.0039499999999999,0.8860935,-0.27737,-0.34502,1.0846975,-0.25978,-0.36794,0.8646735,-0.68882,-0.25481,1.0958345,-0.67435,-0.2869199999999999,1
142,0.990135,0.733735,-0.29845,0.81823,0.5306649999999999,-0.24632,0.62385,0.661805,-0.39327,1.14516,0.517155,-0.25381,1.3175,0.657905,-0.44928,0.47043,0.769295,-0.56015,1.46635,0.7808249999999999,-0.6395700000000001,0.912781,0.0005049999999999,0.0040499999999999,1.087219,-0.000505,-0.0040499999999999,0.8849,-0.280235,-0.34297,1.085284,-0.263185,-0.36494,0.86421,-0.6922250000000001,-0.25518,1.0961,-0.678165,-0.28568,1
143,0.9897865,0.73655,-0.29417,0.8176905,0.53278,-0.24366,0.6237005,0.6640600000000001,-0.38838,1.1449805,0.51995,-0.2511,1.3143305,0.66274,-0.44426,0.4715205,0.77355,-0.55482,1.4635905,0.7859400000000001,-0.63632,0.9128175,0.0004899999999999,0.00409,1.0871825,-0.0004899999999999,-0.00409,0.8829205,-0.28129,-0.34073,1.0860385,-0.26697,-0.36156,0.8636604999999999,-0.69438,-0.25494,1.0963425,-0.68256,-0.28456,1
144,0.9895255,0.7393449999999999,-0.289385,0.8172685,0.535065,-0.240045,0.6235885,0.666805,-0.383335,1.1447585,0.522385,-0.247875,1.3120385,0.665035,-0.439535,0.4727485,0.778565,-0.549375,1.4612085,0.791435,-0.632645,0.9128585,0.0005549999999999,0.0040949999999999,1.0871415,-0.000555,-0.004095,0.8808885,-0.2832449999999999,-0.337735,1.0871145,-0.271335,-0.3576249999999999,0.8628184999999999,-0.697275,-0.255255,1.0967065,-0.6874750000000001,-0.282765,1
145,0.9892515,0.74229,-0.284135,0.8168725,0.53784,-0.236053,0.6234925,0.66984,-0.3775349999999999,1.1445725,0.52495,-0.244315,1.3101925,0.66774,-0.434065,0.4740124999999999,0.78384,-0.543625,1.4588925,0.79739,-0.628085,0.9129365,0.0006999999999999,0.0040449999999999,1.0870635,-0.0006999999999999,-0.0040449999999999,0.8789025,-0.28534,-0.334855,1.0884035,-0.27584,-0.3536249999999999,0.8619625000000001,-0.70028,-0.254565,1.0972455,-0.69256,-0.280875,1
146,0.989022,0.74568,-0.279,0.816542,0.5407,-0.231898,0.623362,0.67448,-0.3725199999999999,1.144292,0.52773,-0.24069,1.308452,0.67058,-0.42828,0.475342,0.79037,-0.53827,1.456502,0.80345,-0.62338,0.91301,0.00073,0.00386,1.08699,-0.00073,-0.00386,0.8768320000000001,-0.2876499999999999,-0.3321699999999999,1.0898549999999998,-0.28083,-0.34936,0.860642,-0.70357,-0.25363,1.097498,-0.69807,-0.27961,1
147,0.988984,0.74934,-0.27332,0.816492,0.54175,-0.22793,0.6231420000000001,0.67913,-0.36792,1.144392,0.53084,-0.236873,1.306562,0.67342,-0.42197,0.476742,0.79725,-0.53363,1.454612,0.81184,-0.6182700000000001,0.913025,0.0005499999999999,0.0037699999999999,1.086975,-0.0005499999999999,-0.00377,0.8744120000000001,-0.2902599999999999,-0.32887,1.091743,-0.2859,-0.34505,0.8593919999999999,-0.7068,-0.25217,1.098158,-0.70357,-0.27768,1
148,0.9889085,0.7532399999999999,-0.267375,0.8164385000000001,0.5418799999999999,-0.223985,0.6228485,0.6840499999999999,-0.363805,1.1443884999999998,0.53428,-0.2328879999999999,1.3050585,0.67747,-0.4153449999999999,0.4778285,0.80491,-0.529155,1.4525585,0.8206399999999999,-0.612755,0.9130745,0.0001899999999999,0.0037649999999999,1.0869255,-0.00019,-0.0037649999999999,0.8721085,-0.29307,-0.3251549999999999,1.0937675,-0.2906000000000001,-0.340985,0.8581585,-0.7103400000000001,-0.251665,1.0988165,-0.70884,-0.276175,1
149,0.9890365,0.7576700000000001,-0.260645,0.8165685,0.54253,-0.218851,0.6226585,0.68895,-0.359485,1.1446385,0.53749,-0.228463,1.3049285,0.68123,-0.408655,0.4789985,0.81276,-0.524135,1.4509185,0.82964,-0.606705,0.9131365,-0.0001599999999999,0.0036549999999999,1.0868635,0.0001599999999999,-0.003655,0.8699285,-0.29654,-0.321655,1.0963275,-0.29377,-0.336685,0.8570785,-0.71453,-0.250685,1.0995635,-0.71267,-0.274595,1
150,0.9890905,0.76052,-0.25448,0.8166835,0.54268,-0.213746,0.6221734999999999,0.6933,-0.35495,1.1448935,0.54054,-0.223982,1.3046935,0.6857,-0.40175,0.4801134999999999,0.82006,-0.51901,1.4491835,0.83865,-0.60074,0.9132205,-0.00046,0.00349,1.0867795,0.0004599999999999,-0.0034899999999999,0.8674634999999999,-0.3013600000000001,-0.3176299999999999,1.0988385,-0.2974,-0.3325399999999999,0.8556135000000001,-0.72013,-0.24966,1.1002765,-0.71696,-0.27291,1
151,0.989096,0.7636749999999999,-0.247895,0.816744,0.543735,-0.208505,0.621374,0.697005,-0.349835,1.145274,0.541925,-0.219211,1.303784,0.688645,-0.395345,0.481214,0.827985,-0.513925,1.447264,0.8476649999999999,-0.593905,0.913219,-0.0004949999999999,0.0032249999999999,1.086781,0.0004949999999999,-0.003225,0.864804,-0.306015,-0.312105,1.101174,-0.301315,-0.328375,0.854044,-0.725395,-0.248505,1.100644,-0.721435,-0.270925,1
152,0.989109,0.76721,-0.240585,0.816586,0.5448,-0.20288,0.620476,0.7008099999999999,-0.344365,1.145696,0.5440499999999999,-0.21372,1.303066,0.69547,-0.391015,0.481966,0.83602,-0.509395,1.445306,0.8573500000000001,-0.586335,0.91328,-0.00065,0.002925,1.08672,0.00065,-0.002925,0.861936,-0.31201,-0.305765,1.103156,-0.30521,-0.323755,0.851896,-0.73179,-0.246805,1.101146,-0.72574,-0.268275,1
153,0.989056,0.769385,-0.23248,0.816169,0.5461450000000001,-0.197079,0.619569,0.705195,-0.3386949999999999,1.145909,0.546915,-0.207932,1.302699,0.702905,-0.386445,0.482689,0.8442750000000001,-0.5044649999999999,1.443109,0.867245,-0.577885,0.913293,-0.0008749999999999,0.002585,1.086707,0.000875,-0.002585,0.859049,-0.317645,-0.299015,1.104819,-0.309015,-0.318855,0.8499590000000001,-0.7379149999999999,-0.244405,1.101599,-0.7298849999999999,-0.265145,1
154,0.9889385,0.771985,-0.224643,0.8156295,0.546885,-0.190996,0.6185395,0.709305,-0.333395,1.1460095,0.5489949999999999,-0.201924,1.3018895,0.7089449999999999,-0.380535,0.4834294999999999,0.852605,-0.499745,1.4408995,0.876315,-0.568935,0.9135715,-0.001205,0.0022649999999999,1.0864285,0.0012049999999999,-0.002265,0.8558195,-0.3235449999999999,-0.291885,1.1061795,-0.313255,-0.313145,0.8477494999999999,-0.7444350000000001,-0.242025,1.1018295,-0.7344350000000001,-0.261505,1
155,0.9887815,0.7739050000000001,-0.2157349999999999,0.8150725,0.547215,-0.1857339999999999,0.6175825000000001,0.713005,-0.3278649999999999,1.1460425,0.550725,-0.196507,1.3021225,0.716995,-0.374665,0.4842824999999999,0.860015,-0.494415,1.4381925,0.887305,-0.5595950000000001,0.9138615,-0.001425,0.002065,1.0861385,0.001425,-0.0020649999999999,0.8524925,-0.329485,-0.2847849999999999,1.1075725,-0.3167149999999999,-0.3083749999999999,0.8456825,-0.751145,-0.238055,1.1021925,-0.7381949999999999,-0.2580449999999999,1
156,0.988378,0.77464,-0.2065969999999999,0.814363,0.5478799999999999,-0.180359,0.616483,0.7169300000000001,-0.321875,1.145913,0.5543899999999999,-0.190052,1.302043,0.72471,-0.368205,0.485113,0.8679699999999999,-0.487655,1.435623,0.89622,-0.549955,0.91419,-0.00157,0.001855,1.08581,0.0015699999999999,-0.0018549999999999,0.8493530000000001,-0.33457,-0.277845,1.108863,-0.3203,-0.303125,0.843343,-0.7566600000000001,-0.233485,1.102373,-0.7421899999999999,-0.2547549999999999,1
157,0.987959,0.7739199999999999,-0.1966389999999999,0.813219,0.55189,-0.172809,0.615499,0.7205600000000001,-0.314675,1.145679,0.55737,-0.1830119999999999,1.302019,0.73119,-0.360575,0.486479,0.87578,-0.479025,1.432929,0.90649,-0.538945,0.914538,-0.0015899999999999,0.001635,1.085462,0.00159,-0.0016349999999999,0.847239,-0.34173,-0.269915,1.110229,-0.32466,-0.296435,0.8422690000000002,-0.7642599999999999,-0.2281249999999999,1.102659,-0.7469600000000001,-0.250455,1
158,0.9873905,0.7729550000000001,-0.186145,0.8120185,0.554525,-0.166101,0.6146685000000001,0.7249049999999999,-0.306625,1.1453785,0.5606850000000001,-0.175882,1.3020885,0.7386349999999999,-0.352075,0.4881985,0.8838650000000001,-0.470035,1.4299085,0.915685,-0.5277149999999999,0.9148965,-0.0015749999999999,0.0014049999999999,1.0851035,0.001575,-0.0014049999999999,0.8455085,-0.348385,-0.2613149999999999,1.1110185,-0.3307049999999999,-0.289355,0.8412485000000001,-0.7713349999999999,-0.22239,1.1029285,-0.7533350000000001,-0.246155,1
159,0.986655,0.77186,-0.1751329999999999,0.810683,0.55693,-0.159558,0.613803,0.73096,-0.298255,1.145133,0.56359,-0.169057,1.301573,0.7460899999999999,-0.342255,0.490573,0.8935900000000001,-0.460205,1.426173,0.92532,-0.515395,0.915456,-0.0017799999999999,0.001225,1.084544,0.00178,-0.001225,0.8442930000000001,-0.3539,-0.252585,1.111383,-0.33626,-0.281665,0.840733,-0.7771699999999999,-0.2165639999999999,1.1028129999999998,-0.7593000000000001,-0.241975,1
160,0.986012,0.7705249999999999,-0.163658,0.809528,0.5586949999999999,-0.153203,0.6131880000000001,0.7382850000000001,-0.29005,1.145038,0.567905,-0.1615849999999999,1.301098,0.752715,-0.33221,0.493548,0.903565,-0.44965,1.422968,0.936605,-0.5022,0.916034,-0.002205,0.0011,1.083966,0.0022049999999999,-0.0010999999999999,0.843968,-0.358905,-0.2404,1.111408,-0.344685,-0.2739399999999999,0.841038,-0.7826249999999999,-0.205428,1.102528,-0.766445,-0.2378299999999999,1
161,0.985742,0.76776,-0.152504,0.80888,0.56038,-0.147145,0.6133299999999999,0.74638,-0.282,1.14575,0.57081,-0.154926,1.30109,0.75551,-0.32117,0.4971599999999999,0.91409,-0.43813,1.41997,0.94747,-0.4884,0.916361,-0.0025099999999999,0.0009999999999999,1.0836389999999998,0.0025099999999999,-0.001,0.84482,-0.36689,-0.22854,1.1117199999999998,-0.35267,-0.26602,0.84173,-0.7906099999999999,-0.195465,1.10241,-0.77443,-0.23345,1
162,0.9854905,0.76549,-0.1413539999999999,0.8083775000000001,0.56096,-0.141456,0.6136775,0.75347,-0.2732,1.1463575,0.57423,-0.147387,1.3002975,0.75868,-0.30872,0.5008975,0.92376,-0.42595,1.4167774999999998,0.95734,-0.47452,0.9164895,-0.00284,0.00091,1.0835105,0.0028399999999999,-0.0009099999999999,0.8456675000000001,-0.37467,-0.2167799999999999,1.1122875,-0.36045,-0.25758,0.8423775,-0.7983899999999999,-0.186027,1.1025075,-0.78221,-0.2286599999999999,1
163,0.985936,0.76158,-0.123102,0.808032,0.56309,-0.127035,0.614872,0.7600100000000001,-0.25747,1.147522,0.57647,-0.133004,1.300242,0.76258,-0.28998,0.505532,0.93288,-0.40622,1.413542,0.96831,-0.45257,0.916533,-0.0030599999999999,0.0009399999999999,1.083467,0.00306,-0.0009399999999999,0.8473220000000001,-0.38304,-0.197347,1.112912,-0.37322,-0.23633,0.843732,-0.8067599999999999,-0.17019,1.103122,-0.79058,-0.21351,1
164,0.986515,0.7620534999999999,-0.104519,0.807348,0.5655135,-0.110444,0.6163180000000001,0.7626235,-0.239604,1.148718,0.5803835,-0.115334,1.299508,0.7620335,-0.269614,0.5102679999999999,0.9396835,-0.384364,1.410778,0.9750535,-0.428944,0.91652,-0.0027584999999999,0.000334,1.08348,0.0027585,-0.000334,0.849888,-0.3986765,-0.17247,1.113208,-0.3915965,-0.211604,0.845998,-0.8207765,-0.151482,1.103728,-0.8048465,-0.196786,1
165,0.9870345,0.7632345,-0.0869525,0.8065725000000001,0.5682745,-0.0940915,0.6178125,0.7654745000000001,-0.2215995,1.1495325,0.5822345,-0.0991655,1.2983025,0.7633945,-0.2497395,0.5146124999999999,0.9477445,-0.3636795,1.4069925,0.9832745,-0.4054895,0.9165875,-0.0023265,-0.0001074999999999,1.0834125,0.0023264999999999,0.0001074999999999,0.8528325,-0.4153854999999999,-0.1478435,1.1134325,-0.4103455,-0.1872995,0.8485225000000001,-0.8344955,-0.1330925,1.1042525,-0.8191054999999999,-0.1803535,1
166,0.9875855,0.765726,-0.0700929999999999,0.8062545,0.568086,-0.0799319999999999,0.6195345,0.7681060000000001,-0.204146,1.1503845,0.584146,-0.0837239999999999,1.2974245,0.767316,-0.230346,0.5183745,0.955736,-0.344696,1.4028745,0.990586,-0.382466,0.9168905,-0.001972,-0.0005349999999999,1.0831095,0.001972,0.000535,0.8564345,-0.4351539999999999,-0.1246709999999999,1.1137445,-0.428484,-0.164508,0.8511445,-0.847664,-0.1175959999999999,1.1053245,-0.832924,-0.1653069999999999,1
167,0.988125,0.7680939999999999,-0.0540155,0.805853,0.5683539999999999,-0.0659305,0.621503,0.770484,-0.1869035,1.151153,0.585704,-0.0682335,1.296543,0.7706839999999999,-0.2115635,0.522173,0.963154,-0.3259535,1.398783,0.998404,-0.3596735,0.917196,-0.0016919999999999,-0.0008945,1.082804,0.0016919999999999,0.0008945,0.8602530000000002,-0.455066,-0.1018825,1.113653,-0.446116,-0.1420425,0.854043,-0.860156,-0.1027464999999999,1.106123,-0.846036,-0.1500525,1
168,0.9887715,0.7713845,-0.0378889999999999,0.8055445,0.5691145000000001,-0.0517479999999999,0.6236745,0.7717645000000001,-0.169705,1.1520745,0.5876045000000001,-0.052258,1.2960645,0.7754845,-0.193765,0.5253445,0.9698945,-0.307355,1.3952245,1.0099745,-0.336705,0.9173655,-0.0013314999999999,-0.0011909999999999,1.0826345,0.0013314999999999,0.001191,0.8647045,-0.4747455,-0.078803,1.1134145,-0.4637055,-0.1193299999999999,0.8573045,-0.8725054999999999,-0.08804,1.1067645,-0.8589855,-0.134677,1
169,0.989331,0.7751675,-0.0220255,0.805131,0.5698775,-0.0375705,0.625811,0.7725075,-0.1523125,1.152751,0.5882675,-0.0366985,1.295421,0.7811375,-0.1760925,0.5281009999999999,0.9764175,-0.2888225,1.391081,1.0191475,-0.3148925,0.917485,-0.0009974999999999,-0.0015055,1.082515,0.0009974999999999,0.0015055,0.867881,-0.4937425,-0.0603795,1.113011,-0.4816525,-0.0963255,0.8588910000000001,-0.8844325,-0.0765465,1.107251,-0.8714425,-0.1193645,1
170,0.9899025,0.7793574999999999,-0.006543,0.8046045,0.5705874999999999,-0.022905,0.6278445,0.7723574999999999,-0.13534,1.1533945,0.5894674999999999,-0.021218,1.2947445,0.7870174999999999,-0.159338,0.5309845,0.9815875,-0.270318,1.3868345,1.0281375,-0.293828,0.9175845,-0.0006434999999999,-0.001831,1.0824155,0.0006434999999999,0.0018309999999999,0.8709045,-0.5117425,-0.042343,1.1127545,-0.5002825000000001,-0.073641,0.8604745,-0.8954525,-0.06537,1.1077845,-0.8832125000000001,-0.104496,1
171,0.990676,0.7838685,0.007835,0.804373,0.5716585,-0.008739,0.630243,0.7722985,-0.1188839999999999,1.154283,0.5897085,-0.0068059999999999,1.294303,0.7931485,-0.143407,0.534033,0.9867085,-0.252077,1.382133,1.0369785,-0.272497,0.917592,-0.0002524999999999,-0.00208,1.082408,0.0002525,0.0020799999999999,0.873973,-0.5285115,-0.024841,1.113483,-0.5169415,-0.0504649999999999,0.862223,-0.9055015,-0.054324,1.108703,-0.8943415,-0.090474,1
172,0.9906695,0.7889855,0.0174385,0.8038235,0.5720255000000001,-0.0015704999999999,0.6323335,0.7741055,-0.1072625,1.1546135,0.5916755,0.0020075,1.2920235,0.8000055,-0.1321505,0.5377735,0.9915555,-0.2368704999999999,1.3750735,1.0467455,-0.2562005,0.9176535,-0.0003115,-0.0025465,1.0823465,0.0003114999999999,0.0025465,0.8766035000000001,-0.5432845,-0.0133704999999999,1.1149734999999998,-0.5254445,-0.0395595,0.8635135,-0.9137645,-0.0509045,1.1097335,-0.9024845,-0.0865365,1
173,0.9901135,0.7897115,0.025304,0.8031845,0.5721515,0.0036099999999999,0.6337145,0.7790115,-0.097576,1.1542545,0.5921615,0.0079249999999999,1.2892745,0.8087615,-0.122296,0.5409845000000001,0.9983415,-0.223996,1.3675345,1.0591715,-0.241466,0.9179565,-0.0010184999999999,-0.002378,1.0820435,0.0010184999999999,0.0023779999999999,0.8781645,-0.5495185,-0.007198,1.1158845,-0.5289985,-0.031916,0.8641845,-0.9162185,-0.049147,1.1101745,-0.9046685,-0.08447,1
174,0.989621,0.790441,0.033836,0.802596,0.572101,0.0086649999999999,0.635066,0.783451,-0.088219,1.154266,0.592341,0.013952,1.286786,0.8152309999999999,-0.112729,0.5443260000000001,1.002631,-0.2108189999999999,1.360376,1.068611,-0.227149,0.918228,-0.001832,-0.002294,1.081772,0.001832,0.002294,0.8793760000000002,-0.554269,-0.0013699999999999,1.116636,-0.532369,-0.025182,0.8648359999999999,-0.918659,-0.047332,1.110666,-0.906699,-0.082039,1
175,0.989301,0.7909875,0.0419765,0.8021910000000001,0.5720974999999999,0.0135864999999999,0.636431,0.7883074999999999,-0.0794375,1.154481,0.5925975,0.0197165,1.284401,0.8193374999999999,-0.1042335,0.547801,1.0063375,-0.1980505,1.353551,1.0778175,-0.2130804999999999,0.918437,-0.0026135,-0.0022764999999999,1.081563,0.0026134999999999,0.0022765,0.880381,-0.5560625,0.0042624999999999,1.117341,-0.5353725,-0.0185625,0.865481,-0.9208125,-0.0454205,1.111311,-0.9085825,-0.0803185,1
176,0.9889245,0.79115,0.0498315,0.8017185,0.5719299999999999,0.0185025,0.6376185,0.7927799999999999,-0.0711185,1.1542385,0.5928,0.0251915,1.2817885,0.82272,-0.0956545,0.5518485,1.01226,-0.1847625,1.3469084999999998,1.08628,-0.1994225,0.9187905,-0.0034159999999999,-0.0024264999999999,1.0812095,0.0034159999999999,0.0024265,0.8810785000000001,-0.5579000000000001,0.0094495,1.1180685,-0.53661,-0.0124704999999999,0.8657385,-0.92295,-0.0427165,1.1117085,-0.91044,-0.0787104999999999,1
177,0.988811,0.790914,0.0572145,0.8014220000000001,0.571564,0.0234025,0.6389020000000001,0.796854,-0.0631895,1.154382,0.5929139999999999,0.0302225,1.279162,0.8238639999999999,-0.0870794999999999,0.556122,1.017134,-0.1725335,1.340472,1.089484,-0.1869135,0.919149,-0.004118,-0.0025144999999999,1.080851,0.004118,0.0025144999999999,0.8816720000000001,-0.557986,0.0135625,1.119012,-0.537706,-0.0079864999999999,0.866352,-0.923796,-0.0397445,1.112232,-0.911806,-0.0770435,1
178,0.9889015,0.7899714999999999,0.064271,0.8012615,0.5713815,0.028483,0.6403715,0.8001315,-0.0557999999999999,1.1549414999999998,0.5922215,0.034722,1.2767015,0.8242115,-0.0786869999999999,0.5606515000000001,1.0208215,-0.160779,1.3343415,1.0925115,-0.174179,0.9195245,-0.0045685,-0.002491,1.0804755,0.0045685,0.002491,0.8823515,-0.5589285,0.017766,1.1196715,-0.5408385,-0.0037559999999999,0.8667815,-0.9252785,-0.037003,1.1127515,-0.9130485,-0.074867,1
179,0.9891335,0.788915,0.0715195,0.8013475000000001,0.5710649999999999,0.0328565,0.6420475,0.803185,-0.0483355,1.1556275,0.5914649999999999,0.0389715,1.2743775,0.8242750000000001,-0.0703044999999999,0.5650474999999999,1.024255,-0.1497955,1.3289075,1.095255,-0.1619554999999999,0.9198825,-0.0049239999999999,-0.0025295,1.0801175,0.004924,0.0025294999999999,0.8831075000000002,-0.5604450000000001,0.0218525,1.1203475,-0.5437350000000001,-3.850000000000034e-05,0.8672375000000001,-0.926585,-0.0342275,1.1133275,-0.914205,-0.0726925,1
180,0.9895185,0.7879919999999999,0.079034,0.8014435,0.570862,0.037334,0.6437535,0.805852,-0.04111,1.1563135,0.590572,0.04311,1.2722335,0.8239219999999999,-0.062498,0.5694435,1.027402,-0.139463,1.3244034999999998,1.098102,-0.151003,0.9202345,-0.005207,-0.0025789999999999,1.0797655,0.005207,0.0025789999999999,0.8837135,-0.5601980000000001,0.025705,1.1209635,-0.5464880000000001,0.0022389999999999,0.8676735000000001,-0.927728,-0.031767,1.1138935,-0.915288,-0.070431,1
181,0.9902395,0.78798,0.0844785,0.8019185,0.57091,0.0398134999999999,0.6452485,0.8072,-0.0363465,1.1568085,0.59062,0.0458105,1.2712985,0.82396,-0.0577705,0.5724285,1.03108,-0.1337585,1.3222885,1.09878,-0.1441385,0.9204995,-0.005185,-0.0024775,1.0795005,0.0051849999999999,0.0024774999999999,0.8841285000000001,-0.55991,0.0277375,1.1214685,-0.54817,0.0040295,0.8680985,-0.92775,-0.0299735,1.1143385,-0.91606,-0.0685944999999999,1
182,0.9909175,0.7879815000000001,0.0898715,0.8023615,0.5709614999999999,0.0423485,0.6466915,0.8078515,-0.0319115,1.1572415,0.5906115000000001,0.0483355,1.2706015,0.8239615,-0.0537565,0.5752815,1.0343415,-0.1287675,1.3204515,1.0991415,-0.1380375,0.9207185,-0.0051464999999999,-0.0023975,1.0792815,0.0051465,0.0023975,0.8844815,-0.5597185,0.0296105,1.1219715,-0.5495185,0.0058905,0.8683115,-0.9277885,-0.0280885,1.1147315,-0.9167685,-0.0666245,1
183,0.9915755,0.7878395,0.0949155,0.8027995,0.5709595,0.0448665,0.6480695000000001,0.8080995,-0.0279255,1.1578095,0.5905994999999999,0.0507694999999999,1.2700995,0.8239195,-0.0501155,0.5779894999999999,1.0370695,-0.1244074999999999,1.3191095,1.0994695,-0.1326975,0.9208795,-0.0050855,-0.0023055,1.0791205,0.0050855,0.0023055,0.8848895,-0.5595605,0.0314295,1.1224295,-0.5495405,0.0072625,0.8685595,-0.9278605,-0.0262565,1.1151494999999998,-0.9172305,-0.0643705,1
184,0.992309,0.7872485,0.0998645,0.803336,0.5703685,0.0473224999999999,0.649386,0.8082985,-0.0243645,1.158616,0.5897285,0.0527415,1.269806,0.8235785,-0.0468845,0.5804660000000001,1.0395385,-0.1205065,1.318236,1.0997385,-0.1285265,0.920992,-0.0050254999999999,-0.0021985,1.079008,0.0050255,0.0021985,0.885296,-0.5593915,0.0332005,1.122766,-0.5502915,0.0074165,0.868946,-0.9292615,-0.0246725,1.115446,-0.9182315,-0.0621875,1
185,0.9930345000000002,0.786735,0.1045975,0.8037725,0.570015,0.0494785,0.6505925,0.808565,-0.0212564999999999,1.1594225,0.588865,0.0546705,1.2696925,0.823265,-0.0441325,0.5818825000000001,1.040165,-0.1179825,1.3175525,1.099765,-0.1250325,0.9210935,-0.004887,-0.0019435,1.0789065,0.0048869999999999,0.0019435,0.8856825000000002,-0.559065,0.0348375,1.1231125,-0.550265,0.0074945,0.8693124999999999,-0.930425,-0.0232134999999999,1.1156325,-0.919485,-0.0605065,1
186,0.9937735,0.7862420000000001,0.109165,0.8042065,0.5698019999999999,0.05186,0.6517265,0.808862,-0.018518,1.1601865,0.5879920000000001,0.0564039999999999,1.2697365,0.8229820000000001,-0.041802,0.5831665000000001,1.040702,-0.115705,1.3169165,1.100002,-0.1219949999999999,0.9211095,-0.004686,-0.0017499999999999,1.0788905,0.0046859999999999,0.00175,0.8860565,-0.558648,0.036122,1.1231865,-0.5512779999999999,0.007934,0.8695665,-0.931228,-0.022007,1.1159365,-0.920498,-0.0594099999999999,1
187,0.994448,0.7858155,0.113298,0.8045260000000001,0.5696855,0.054047,0.652686,0.8091855,-0.01606,1.160786,0.5871554999999999,0.058119,1.269776,0.8226255,-0.039672,0.584076,1.0410255000000002,-0.113932,1.316376,1.1000255,-0.119542,0.921072,-0.0044294999999999,-0.001562,1.078928,0.0044294999999999,0.001562,0.886306,-0.5581645000000001,0.037113,1.123306,-0.5509545,0.008225,0.869646,-0.9323745,-0.021394,1.116076,-0.9213345,-0.0585159999999999,1
188,0.995009,0.7858445,0.1168505,0.804705,0.5697645,0.0560035,0.6533249999999999,0.8092045,-0.0140675,1.161205,0.5866045,0.0595005,1.269725,0.8226844999999999,-0.0379884999999999,0.584625,1.0411145000000002,-0.1125495,1.315865,1.0999145,-0.1177795,0.921093,-0.0043404999999999,-0.0013084999999999,1.078907,0.0043405,0.0013084999999999,0.886425,-0.5580755000000001,0.0381325,1.123335,-0.5508655,0.0086175,0.869675,-0.9338155,-0.0207275,1.116145,-0.9215455,-0.0573265,1
189,0.995507,0.785926,0.1197579999999999,0.804887,0.5698460000000001,0.057844,0.653887,0.809146,-0.0124069999999999,1.161617,0.586056,0.060705,1.269767,0.822716,-0.036485,0.584997,1.041196,-0.111132,1.315587,1.099896,-0.116392,0.921113,-0.0042589999999999,-0.001071,1.078887,0.0042589999999999,0.001071,0.886547,-0.557994,0.03905,1.123667,-0.551534,0.009265,0.869707,-0.935184,-0.020097,1.116187,-0.921974,-0.056537,1
190,0.995934,0.7859769999999999,0.1220825,0.805002,0.569897,0.0593385,0.6543420000000001,0.808967,-0.0110514999999999,1.161792,0.585797,0.0613615,1.269822,0.822727,-0.0352695,0.585242,1.041047,-0.1100775,1.315482,1.099447,-0.1153075,0.9211390000000002,-0.004208,-0.0009665,1.0788609999999998,0.004208,0.0009665,0.886652,-0.5579430000000001,0.0396625,1.123912,-0.5524530000000001,0.0093405,0.869652,-0.936633,-0.0198445,1.116172,-0.922163,-0.0559724999999999,1
191,0.9963705,0.7858624999999999,0.1242004999999999,0.8051165,0.5698924999999999,0.0606894999999999,0.6549665,0.8083324999999999,-0.0097835,1.1619065,0.5852925,0.0617145,1.2698765,0.8225925000000001,-0.0341835,0.5854565,1.0409325,-0.1091595,1.3155265,1.0989325,-0.1143395,0.9211175,-0.0040935,-0.0008524999999999,1.0788825,0.0040935,0.0008525,0.8868065,-0.5577675,0.0400915,1.1242165,-0.5524975000000001,0.0094345,0.8696365,-0.9377775,-0.0194645,1.1161765,-0.9224875,-0.0553425,1
192,0.9967825,0.78583,0.126102,0.8051285,0.56986,0.061944,0.6555785000000001,0.8071,-0.008691,1.1619485,0.58484,0.062125,1.2698285,0.82245,-0.033191,0.5855785,1.03821,-0.108528,1.3154685,1.09821,-0.113438,0.9211045,-0.0039709999999999,-0.000732,1.0788955,0.003971,0.000732,0.8868685000000001,-0.5576,0.040494,1.1240285,-0.55262,0.0095009999999999,0.8694685,-0.9393,-0.019169,1.1160585,-0.92262,-0.054624,1
193,0.9970865,0.7858225,0.1278895,0.8050645,0.5698125,0.0631265,0.6560444999999999,0.8056125000000001,-0.0078645,1.1619845,0.5844425,0.0628345,1.2696945,0.8221825,-0.0323135,0.5855545,1.0351725,-0.1080105,1.3153245,1.0971725,-0.1126705,0.9210635,-0.0038335,-0.0006315,1.0789365,0.0038335,0.0006315,0.8868245,-0.5574175,0.0409255,1.1241245,-0.5527175,0.0094845,0.8693744999999999,-0.9400975,-0.0187455,1.1160645,-0.9223875,-0.0535005,1
194,0.997341,0.7860745,0.1296344999999999,0.80493,0.5696745000000001,0.0641555,0.65646,0.8040245,-0.0071104999999999,1.16202,0.5840845,0.0637335,1.26955,0.8217645,-0.0315135,0.58544,1.0318845,-0.1076255,1.31511,1.0957845,-0.1120955,0.921052,-0.0037564999999999,-0.0005105,1.078948,0.0037565,0.0005105,0.88672,-0.5572855,0.0413265,1.12412,-0.5525855,0.0094785,0.8692500000000001,-0.9408255,-0.0184075,1.11594,-0.9225755,-0.0528145,1
195,0.9976265,0.7865304999999999,0.131538,0.8047185,0.5694905,0.065057,0.6567485,0.8022705,-0.006434,1.1620184999999998,0.5836505,0.064265,1.2693785,0.8213104999999999,-0.030799,0.5851785,1.0285805,-0.1073819999999999,1.3149085,1.0942805,-0.111722,0.9210465,-0.0037215,-0.000408,1.0789535,0.0037214999999999,0.000408,0.8865385000000001,-0.5572195000000001,0.041662,1.1240085,-0.5524295,0.0094559999999999,0.8690185,-0.9415595,-0.0181689999999999,1.1157385,-0.9227795,-0.052387,1
196,0.997896,0.7870825,0.1335555,0.804409,0.5692025000000001,0.0658165,0.656879,0.8003125000000001,-0.0060134999999999,1.161909,0.5831925,0.0645604999999999,1.269189,0.8207225,-0.0302025,0.584739,1.0249825,-0.1072645,1.314689,1.0924825,-0.1115544999999999,0.921042,-0.0037815,-0.0003854999999999,1.078958,0.0037815,0.0003855,0.886199,-0.5572374999999999,0.0419755,1.123779,-0.5523775,0.0094015,0.868679,-0.9420775,-0.0177155,1.115409,-0.9230775,-0.0520545,1
197,0.9982465,0.7875690000000001,0.1357655,0.8040975,0.568899,0.0664625,0.6569775,0.798319,-0.0057365,1.1617875,0.5827990000000001,0.0648905,1.2690375,0.820119,-0.0297395,0.5842674999999999,1.0212789999999998,-0.1072145,1.3145375,1.090579,-0.1116245,0.9210545,-0.0038459999999999,-0.0003645,1.0789455,0.003846,0.0003645,0.8859475,-0.5572809999999999,0.0421125,1.1235175,-0.552311,0.0093514999999999,0.8683375,-0.942531,-0.0172874999999999,1.1151175,-0.923861,-0.0519824999999999,1
198,0.998548,0.7881830000000001,0.138011,0.803747,0.568633,0.067005,0.656957,0.796023,-0.0055809999999999,1.161657,0.582453,0.065194,1.268877,0.819523,-0.02951,0.583717,1.017353,-0.107429,1.314407,1.088693,-0.1119289999999999,0.921068,-0.0039,-0.000314,1.078932,0.0039,0.000314,0.8856370000000001,-0.557327,0.042162,1.123127,-0.5522469999999999,0.009322,0.867917,-0.942817,-0.016932,1.114607,-0.924937,-0.0519189999999999,1
199,0.998908,0.7888930000000001,0.140421,0.8033859999999999,0.568373,0.067475,0.656936,0.793493,-0.00549,1.161546,0.582173,0.065618,1.268756,0.818863,-0.029466,0.5825359999999999,1.012173,-0.107839,1.314326,1.087203,-0.112369,0.921072,-0.0039559999999999,-0.000247,1.078928,0.003956,0.0002469999999999,0.885276,-0.557367,0.042176,1.122626,-0.552137,0.009587,0.867536,-0.943107,-0.016449,1.114076,-0.926137,-0.051874,1
200,0.9993385,0.7896854999999999,0.1427455,0.8031365,0.5681354999999999,0.0678705,0.6567565,0.7916955,-0.0054895,1.1615165,0.5818854999999999,0.0659585,1.2687865,0.8182455,-0.0295975,0.5813265000000001,1.0069355,-0.1087745,1.3143365,1.0860555,-0.1129045,0.9210575,-0.0040625,-0.0001664999999999,1.0789425,0.0040625,0.0001664999999999,0.8850264999999999,-0.5575145,0.0420955,1.1222265,-0.5519945,0.0098085,0.8673065,-0.9433545,-0.0160125,1.1136565,-0.9272145,-0.0518735,1
201,0.99972,0.7903555000000001,0.144938,0.803124,0.5679855,0.068738,0.6565040000000001,0.7901155000000001,-0.0054659999999999,1.161534,0.5815855000000001,0.066301,1.268874,0.8176355000000001,-0.0297889999999999,0.580094,1.0061155,-0.1098819999999999,1.314364,1.0847654999999998,-0.1135019999999999,0.921049,-0.0042454999999999,-9.599999999999886e-05,1.078951,0.0042455,9.600000000000232e-05,0.884854,-0.5577145,0.041975,1.121864,-0.5519244999999999,0.010014,0.867074,-0.9433645,-0.015612,1.113234,-0.9284845,-0.051764,1
202,1.0001004999999998,0.7909615000000001,0.147044,0.8031585,0.5678615,0.069621,0.6562485,0.7886215000000001,-0.0054459999999999,1.1615385,0.5813115000000001,0.066609,1.2689985,0.8171315,-0.030073,0.5787585,1.0056115,-0.111026,1.3143585,1.0838915,-0.114086,0.9210735,-0.0044434999999999,-4.000000000000531e-06,1.0789265,0.0044435,4.000000000000531e-06,0.8846785,-0.5579185,0.0418339999999999,1.1214385,-0.5522284999999999,0.010358,0.8668184999999999,-0.9432385,-0.015478,1.1128085,-0.9295985,-0.051793,1
203,1.0004045,0.7913985,0.148926,0.8032425000000001,0.5677485000000001,0.070696,0.6558925,0.7871485,-0.005584,1.1614725,0.5812385000000001,0.067137,1.2690525,0.8167685,-0.030384,0.5773025,1.0054185,-0.112074,1.3142925,1.0832985,-0.114624,0.9210805,-0.0046024999999999,2.5999999999998247e-05,1.0789195,0.0046025,-2.600000000000172e-05,0.8844625,-0.5580814999999999,0.0415689999999999,1.1210225,-0.5524214999999999,0.010705,0.8665325,-0.9431315,-0.015216,1.1124725,-0.9304215,-0.051454,1
204,1.00066,0.7915764999999999,0.15039,0.803478,0.5675365,0.071782,0.655608,0.7856964999999999,-0.005704,1.161438,0.5810865,0.067664,1.269188,0.8164064999999999,-0.030689,0.575698,1.0052065,-0.11466,1.3142779999999998,1.0827865,-0.11517,0.921071,-0.0047355,-2.999999999999531e-06,1.078929,0.0047354999999999,2.999999999999531e-06,0.884328,-0.5582535000000001,0.0413189999999999,1.120688,-0.5523235000000001,0.0108779999999999,0.8662179999999999,-0.9431135,-0.01498,1.112268,-0.9310735,-0.05074,1
205,1.000908,0.7917085,0.151646,0.803851,0.5673985,0.072755,0.655411,0.7843585,-0.005513,1.161451,0.5809685,0.06813,1.269411,0.8161185,-0.031056,0.574181,1.0050885,-0.117324,1.314451,1.0823685,-0.115744,0.92106,-0.0048075,-5.000000000000143e-05,1.07894,0.0048074999999999,4.999999999999796e-05,0.884281,-0.5583315,0.040996,1.1204409999999998,-0.5522615,0.010997,0.865991,-0.9431715,-0.014876,1.112191,-0.9311915,-0.0500479999999999,1
206,1.0010815,0.791903,0.1527675,0.8042245,0.567273,0.0738545,0.6552045,0.782963,-0.0053495,1.1614645,0.580873,0.0685765,1.2696345,0.815873,-0.0314015,0.5726245,1.005013,-0.1199824999999999,1.3145945,1.081973,-0.1162024999999999,0.9210575,-0.004858,-0.0001074999999999,1.0789425,0.004858,0.0001074999999999,0.8841345,-0.5583870000000001,0.0407775,1.1201845,-0.552237,0.0110865,0.8658445,-0.942977,-0.0148125,1.1121045,-0.931097,-0.0495925,1
207,1.001214,0.7920435,0.1537795,0.804578,0.5671435,0.0749485,0.654968,0.7817835,-0.0051854999999999,1.1614779999999998,0.5807835,0.0689895,1.269828,0.8155735000000001,-0.0316505,0.571088,1.0050835,-0.1224904999999999,1.314878,1.0816834999999998,-0.1165605,0.921061,-0.0049155,-0.0001754999999999,1.078939,0.0049155,0.0001755,0.883968,-0.5584465,0.0405675,1.119938,-0.5522165,0.0111555,0.865758,-0.9427465,-0.0145794999999999,1.112058,-0.9311665,-0.0492694999999999,1
208,1.0013035,0.7920705,0.1545445,0.8049195,0.5671805,0.0758105,0.6547795000000001,0.7813505,-0.0050814999999999,1.1614995,0.5807205,0.0693295,1.2700395,0.8154605,-0.0318375,0.5702495000000001,1.0052905,-0.1248054999999999,1.3151995,1.0812705,-0.1166954999999999,0.9210755,-0.0049875,-0.0002384999999999,1.0789245,0.0049874999999999,0.0002385,0.8837495,-0.5585395,0.0404635,1.1196495,-0.5521595,0.0111885,0.8655995,-0.9424595,-0.0142184999999999,1.1118695,-0.9311795,-0.0489174999999999,1
209,1.0013675,0.79205,0.1552815,0.8054165,0.56724,0.0765734999999999,0.6545665,0.78085,-0.0050015,1.1614865,0.58065,0.0696654999999999,1.2702065,0.8153400000000001,-0.0319835,0.5694865,1.0056,-0.1267285,1.3154965,1.08095,-0.1169185,0.9210745,-0.005052,-0.0003355,1.0789255,0.005052,0.0003354999999999,0.8835365,-0.55863,0.0404454999999999,1.1193765,-0.55211,0.0112074999999999,0.8655165,-0.94218,-0.0138095,1.1116765,-0.93016,-0.0482275,1
210,1.0014269999999998,0.7920675,0.155958,0.805786,0.5673875,0.077151,0.6543559999999999,0.7805775,-0.0049519999999999,1.161496,0.5806075,0.069983,1.270396,0.8152575000000001,-0.032112,0.568776,1.0061875,-0.128542,1.315926,1.0805675,-0.117012,0.921079,-0.0050785,-0.0004279999999999,1.0789209999999998,0.0050785,0.000428,0.8833260000000001,-0.5586725,0.040352,1.119136,-0.5521024999999999,0.011237,0.865436,-0.9418425,-0.01342,1.111396,-0.9291325,-0.0474739999999999,1
211,1.0015475,0.7921910000000001,0.1565035,0.8060935,0.567291,0.0775265,0.6541335000000001,0.779571,-0.0049844999999999,1.1616335,0.580611,0.0702445,1.2706835,0.8150510000000001,-0.0323895,0.5681235,1.008301,-0.1305865,1.3169335,1.078921,-0.1172865,0.9210695,-0.005034,-0.0005504999999999,1.0789305,0.005034,0.0005504999999999,0.8831035,-0.558619,0.0402765,1.1188935,-0.5521889999999999,0.0112575,0.8653435,-0.941639,-0.0126525,1.1109935,-0.928309,-0.0464375,1
212,1.0016685,0.792335,0.1570359999999999,0.8063295,0.5672250000000001,0.0779479999999999,0.6539295,0.778595,-0.005009,1.1618695,0.580635,0.0704559999999999,1.2709895,0.814905,-0.032676,0.5675494999999999,1.010595,-0.132664,1.3180195,1.077495,-0.117724,0.9210695,-0.004972,-0.000651,1.0789305,0.0049719999999999,0.0006509999999999,0.8829195000000001,-0.5585549999999999,0.040282,1.1186695,-0.5522849999999999,0.0112649999999999,0.8652394999999999,-0.941275,-0.011787,1.1104695,-0.928275,-0.046171,1
213,1.0017954999999998,0.7924905,0.157542,0.8064905,0.5669505,0.0783099999999999,0.6536705,0.7776905,-0.0050329999999999,1.1620705,0.5806505,0.07064,1.2713305,0.8147504999999999,-0.032931,0.5670805,1.0108405,-0.133308,1.3190905,1.0763805,-0.1181379999999999,0.9210685,-0.0048965,-0.0007139999999999,1.0789315,0.0048965,0.0007139999999999,0.8827005,-0.5584695000000001,0.040242,1.1184505,-0.5523895,0.011321,0.8650105,-0.9408895,-0.010856,1.1101005,-0.9278295,-0.045885,1
