sb224sc-HT22-VT27/4dt907/src/data/labeled_files/A8_kinect.csv
FrameNo,nose_3d_x,nose_3d_y,nose_3d_z,left_shoulder_3d_x,left_shoulder_3d_y,left_shoulder_3d_z,left_elbow_3d_x,left_elbow_3d_y,left_elbow_3d_z,right_shoulder_3d_x,right_shoulder_3d_y,right_shoulder_3d_z,right_elbow_3d_x,right_elbow_3d_y,right_elbow_3d_z,left_wrist_3d_x,left_wrist_3d_y,left_wrist_3d_z,right_wrist_3d_x,right_wrist_3d_y,right_wrist_3d_z,left_hip_3d_x,left_hip_3d_y,left_hip_3d_z,right_hip_3d_x,right_hip_3d_y,right_hip_3d_z,left_knee_3d_x,left_knee_3d_y,left_knee_3d_z,right_knee_3d_x,right_knee_3d_y,right_knee_3d_z,left_ankle_3d_x,left_ankle_3d_y,left_ankle_3d_z,right_ankle_3d_x,right_ankle_3d_y,right_ankle_3d_z,activity_label
0,0.0039735,0.761965,0.068502,-0.1502035,0.458455,0.054017,-0.1784135,0.201405,0.06034,0.1526365,0.458395,0.055922,0.1876064999999999,0.2067649999999999,0.068549,-0.1908335,-0.000235,-0.0250639999999999,0.2019265,0.004337,-0.0147979999999999,-0.0720504999999999,0.0019619999999999,0.0008809999999999,0.0720504999999999,-0.001962,-0.0008809999999999,-0.1227534999999999,-0.3790949999999999,-0.0152209999999999,0.1193465,-0.416725,0.012171,-0.1278435,-0.7407549999999999,-0.0133029999999999,0.1283365,-0.7435849999999999,-0.0162859999999999,0
1,0.00394,0.762001,0.0685195,-0.152466,0.457781,0.0561135,-0.179986,0.202211,0.0564495,0.153534,0.458861,0.0553295,0.191624,0.210751,0.0604485,-0.1967259999999999,-0.033389,-0.0445244999999999,0.202794,0.005287,-0.0206575,-0.072075,0.001963,0.0009154999999999,0.072075,-0.001963,-0.0009154999999999,-0.122726,-0.3776589999999999,-0.0151374999999999,0.119274,-0.416819,0.0122805,-0.128126,-0.739129,-0.0124835,0.128024,-0.743459,-0.0156725,0
2,0.0039399999999999,0.7619864999999999,0.068628,-0.1523669999999999,0.4580765,0.0558899999999999,-0.1820669999999999,0.2051865,0.0491599999999999,0.1542029999999999,0.4592565,0.0546689999999999,0.195453,0.2132965,0.0542799999999999,-0.208347,0.0085185,-0.0534489999999999,0.203573,0.0054664999999999,-0.027875,-0.072069,0.0019895,0.000736,0.072069,-0.0019895,-0.000736,-0.122737,-0.3776335,-0.015073,0.119273,-0.4171335,0.012291,-0.128067,-0.7388935000000001,-0.0125909999999999,0.127983,-0.7440235000000001,-0.016553,0
3,0.003896,0.761993,0.068636,-0.1522919999999999,0.458403,0.055468,-0.1861419999999999,0.210333,0.04069,0.154088,0.459173,0.0549889999999999,0.199348,0.223213,0.047101,-0.214042,0.006996,-0.070134,0.210498,0.009437,-0.05211,-0.072077,0.0020299999999999,0.000632,0.072077,-0.00203,-0.000632,-0.122852,-0.376597,-0.0147769999999999,0.119098,-0.416667,0.012247,-0.128042,-0.737897,-0.013191,0.128008,-0.744007,-0.0165649999999999,0
4,0.0039824999999999,0.7620115,0.068663,-0.1519565,0.4587115,0.05498,-0.1921865,0.2193314999999999,0.0294329999999999,0.1548234999999999,0.4598715,0.054081,0.2047334999999999,0.2314615,0.036557,-0.2213965,0.0095705,-0.1005669999999999,0.2227134999999999,0.0425515,-0.075807,-0.0721765,0.0019355,0.0008139999999999,0.0721765,-0.0019355,-0.000814,-0.1227564999999999,-0.3762585,-0.01476,0.1190235,-0.4168385,0.0123469999999999,-0.1272965,-0.7365985,-0.012073,0.1285935,-0.7444885,-0.018599,0
5,0.0046779999999999,0.7617740000000001,0.069836,-0.152168,0.459584,0.0558979999999999,-0.2189579999999999,0.260144,-0.017666,0.154492,0.459834,0.053968,0.235432,0.261444,-0.006206,-0.255608,0.0999859999999999,-0.166165,0.254212,0.0955739999999999,-0.152055,-0.072295,0.001982,0.0008159999999999,0.072295,-0.001982,-0.000816,-0.123328,-0.3742959999999999,-0.013893,0.117892,-0.4148759999999999,0.0127319999999999,-0.128498,-0.737186,-0.012708,0.128932,-0.7458859999999999,-0.020727,0
6,0.003998,0.760865,0.075138,-0.150618,0.461915,0.054033,-0.264308,0.322795,-0.081385,0.143382,0.463165,0.049869,0.2739919999999999,0.318235,-0.06145,-0.281448,0.2383749999999999,-0.286915,0.281962,0.263105,-0.277495,-0.0727569999999999,0.0017209999999999,0.000269,0.0727569999999999,-0.001721,-0.0002689999999999,-0.1239379999999999,-0.3657849999999999,-0.0107459999999999,0.116382,-0.4110749999999999,0.013192,-0.129218,-0.7352350000000001,-0.0113139999999999,0.128292,-0.746615,-0.022452,0
7,0.003237,0.7597975,0.0753215,-0.149962,0.4625075,0.0534045,-0.249122,0.3262275,-0.0633654999999999,0.145318,0.4633775,0.0502365,0.256658,0.3264875,-0.0558484999999999,-0.281232,0.2444675,-0.2532265,0.282518,0.2518175,-0.2438265,-0.0727889999999999,0.0017825,0.0010185,0.0727889999999999,-0.0017825,-0.0010184999999999,-0.123732,-0.3685025,-0.0123314999999999,0.1163879999999999,-0.4111025,0.0123915,-0.129272,-0.7382825,-0.0124664999999999,0.128158,-0.7459724999999999,-0.0207534999999999,0
8,0.0029355,0.7591420000000001,0.0766775,-0.1497164999999999,0.463222,0.0529085,-0.2610765,0.353922,-0.0797684999999999,0.1441935,0.464632,0.0495734999999999,0.2671135,0.353652,-0.0740685,-0.2942964999999999,0.300112,-0.2837285,0.2951935,0.309062,-0.2771885,-0.0729355,0.001732,0.0011724999999999,0.0729355,-0.001732,-0.0011725,-0.1239665,-0.367218,-0.0120285,0.1158035,-0.410398,0.0122424999999999,-0.1295265,-0.738628,-0.0125785,0.1280235,-0.7465379999999999,-0.0212275,0
9,0.0026135,0.7583810000000001,0.077762,-0.1494045,0.464061,0.052077,-0.2726745,0.3835409999999999,-0.09535,0.1435755,0.465811,0.048653,0.2769455,0.3822609999999999,-0.09056,-0.3067045,0.361711,-0.30662,0.3056555,0.368291,-0.3043,-0.0730925,0.001671,0.00129,0.0730925,-0.001671,-0.0012899999999999,-0.1241345,-0.366089,-0.0117489999999999,0.1153454999999999,-0.409879,0.012079,-0.1296645,-0.7391989999999999,-0.0125779999999999,0.1279155,-0.7472989999999999,-0.021709,0
10,0.0022754999999999,0.7574150000000001,0.0786995,-0.1491865,0.464625,0.0512185,-0.2816465,0.411795,-0.1049064999999999,0.1431035,0.467265,0.0477865,0.2823334999999999,0.410815,-0.1007665,-0.3153265,0.419075,-0.3219565,0.3121835,0.427785,-0.3207965,-0.0732704999999999,0.001548,0.0013775,0.0732704999999999,-0.001548,-0.0013774999999999,-0.1243165,-0.365325,-0.0115544999999999,0.1149935,-0.4097449999999999,0.0118905,-0.1298365,-0.739905,-0.0125715,0.1277735,-0.748265,-0.0217944999999999,0
11,0.001971,0.756073,0.079022,-0.1491799999999999,0.464913,0.050431,-0.28536,0.435353,-0.106872,0.14299,0.468393,0.047161,0.28503,0.435703,-0.105322,-0.32083,0.465533,-0.322702,0.31555,0.474003,-0.322502,-0.073408,0.001459,0.001489,0.073408,-0.001459,-0.001489,-0.1244599999999999,-0.365897,-0.0116989999999999,0.11479,-0.410377,0.011672,-0.1299499999999999,-0.7408370000000001,-0.012016,0.12766,-0.7495670000000001,-0.021673,0
12,0.0015075,0.754338,0.0790875,-0.1492745,0.465288,0.0495425,-0.2873145,0.461648,-0.1073504999999999,0.1428755,0.469318,0.0467314999999999,0.2868055,0.464018,-0.1083804999999999,-0.3250845,0.5145679999999999,-0.3233405,0.3172355,0.524758,-0.3227405,-0.0734684999999999,0.001432,0.0016105,0.0734684999999999,-0.0014319999999999,-0.0016105,-0.1245245,-0.367122,-0.0117965,0.1146254999999999,-0.411832,0.0115294999999999,-0.1300744999999999,-0.7424820000000001,-0.0115005,0.1275155,-0.7512120000000001,-0.0212885,0
13,0.0010125,0.7525514999999999,0.078953,-0.1493665,0.4655715,0.048727,-0.2882365,0.4868715,-0.107664,0.1427435,0.4706415,0.0464679999999999,0.2879235,0.4914115,-0.108564,-0.3266865,0.5653714999999999,-0.323694,0.3171035,0.5743415,-0.323004,-0.0734775,0.0013694999999999,0.0016669999999999,0.0734775,-0.0013695,-0.001667,-0.1244965,-0.3686485,-0.0118339999999999,0.1144735,-0.4135185,0.0114329999999999,-0.1300365,-0.7441485,-0.010917,0.1274235,-0.7527585,-0.0205619999999999,0
14,0.0005535,0.750699,0.0787445,-0.1494505,0.4659089999999999,0.0479705,-0.2883705,0.513049,-0.1078505,0.1436195,0.4724089999999999,0.0464365,0.2877995,0.5182289999999999,-0.1087505,-0.3275205,0.609459,-0.3239304999999999,0.3169794999999999,0.623329,-0.3231905,-0.0734245,0.001286,0.0016735,0.0734245,-0.001286,-0.0016735,-0.1244605,-0.370351,-0.0118424999999999,0.1143495,-0.415441,0.0113695,-0.1299405,-0.746331,-0.0102905,0.1273895,-0.754451,-0.0196645,0
15,8.500000000000044e-05,0.748537,0.078634,-0.149883,0.466867,0.047392,-0.288593,0.538457,-0.106237,0.1447669999999999,0.473957,0.046672,0.287537,0.545987,-0.108847,-0.327943,0.656427,-0.319207,0.316657,0.6722269999999999,-0.320067,-0.073302,0.001137,0.0016029999999999,0.073302,-0.0011369999999999,-0.001603,-0.124433,-0.372673,-0.011767,0.114237,-0.4176729999999999,0.0113939999999999,-0.1297829999999999,-0.748823,-0.009571,0.127387,-0.756583,-0.018658,0
16,-0.000422,0.7462359999999999,0.078537,-0.150536,0.468156,0.046904,-0.289036,0.5639759999999999,-0.1013279999999999,0.146044,0.475416,0.047017,0.287274,0.5724959999999999,-0.106728,-0.328916,0.7024959999999999,-0.306338,0.314764,0.719146,-0.307858,-0.073181,0.0010249999999999,0.001547,0.073181,-0.001025,-0.0015469999999999,-0.124406,-0.375294,-0.011718,0.114174,-0.420074,0.011428,-0.129596,-0.751344,-0.0088019999999999,0.1274239999999999,-0.758934,-0.0177729999999999,0
17,-0.000927,0.7440335,0.0783345,-0.151333,0.4695935,0.0465255,-0.289333,0.5873235,-0.0959304999999999,0.147247,0.4766134999999999,0.0473235,0.286487,0.5965635,-0.0998105,-0.329843,0.7451835,-0.2940005,0.312627,0.7617835,-0.2925105,-0.0730649999999999,0.0009375,0.0014894999999999,0.0730649999999999,-0.0009375,-0.0014894999999999,-0.124383,-0.3779865,-0.0117055,0.1141369999999999,-0.4225065,0.0114475,-0.129343,-0.7537965,-0.0081525,0.1274769999999999,-0.7613365,-0.0170575,0
18,-0.0013864999999999,0.741915,0.077983,-0.1521945,0.471035,0.046305,-0.2891145,0.608485,-0.089276,0.1483855,0.478095,0.0477859999999999,0.2848355,0.618495,-0.092796,-0.3304345,0.784555,-0.278356,0.3104755,0.799085,-0.276186,-0.0729605,0.0008649999999999,0.0014449999999999,0.0729605,-0.000865,-0.0014449999999999,-0.1243445,-0.380785,-0.0116719999999999,0.1141254999999999,-0.424975,0.01148,-0.1291145,-0.756285,-0.0075299999999999,0.1275754999999999,-0.7637849999999999,-0.0163129999999999,0
19,-0.0018114999999999,0.740007,0.0775065,-0.1530185,0.4728169999999999,0.0462164999999999,-0.2881285,0.627987,-0.0824095,0.1494015,0.479557,0.0484905,0.2819315,0.637837,-0.0850095,-0.3308385,0.819097,-0.2618395,0.3078415,0.830587,-0.2585095,-0.0728885,0.000866,0.0013484999999999,0.0728885,-0.0008659999999999,-0.0013485,-0.1242784999999999,-0.383613,-0.0115775,0.1141814999999999,-0.427383,0.0115474999999999,-0.1288785,-0.758613,-0.0068305,0.1277615,-0.766163,-0.0162575,0
20,-0.002116,0.73841,0.076853,-0.153783,0.47489,0.046249,-0.286413,0.64538,-0.075354,0.150277,0.4809299999999999,0.049204,0.279697,0.65579,-0.076344,-0.329893,0.84974,-0.244074,0.304747,0.85792,-0.237674,-0.072801,0.0008519999999999,0.001222,0.072801,-0.000852,-0.001222,-0.124123,-0.38651,-0.0114259999999999,0.114317,-0.42956,0.011654,-0.1286429999999999,-0.76104,-0.006602,0.127957,-0.76838,-0.016161,0
21,-0.002204,0.737131,0.076417,-0.154331,0.476821,0.0463019999999999,-0.283901,0.658631,-0.067584,0.150409,0.482361,0.049913,0.276599,0.669001,-0.067519,-0.328631,0.874061,-0.227779,0.302299,0.8796809999999999,-0.218169,-0.0727059999999999,0.000765,0.0011259999999999,0.0727059999999999,-0.0007649999999999,-0.001126,-0.124011,-0.388379,-0.011284,0.1144189999999999,-0.4312789999999999,0.0118069999999999,-0.128441,-0.762779,-0.006344,0.128219,-0.770239,-0.016054,0
22,-0.0022425,0.736123,0.075911,-0.1547635,0.478773,0.046369,-0.2815235,0.670343,-0.059606,0.1504965,0.483263,0.050499,0.2733065,0.680033,-0.0586719999999999,-0.3270634999999999,0.893803,-0.210343,0.3000564999999999,0.899943,-0.199513,-0.0725765,0.0007309999999999,0.0010289999999999,0.0725765,-0.000731,-0.0010289999999999,-0.1238835,-0.390337,-0.0111469999999999,0.1145665,-0.432787,0.011949,-0.1282135,-0.764447,-0.0061179999999999,0.1284665,-0.7720469999999999,-0.015959,0
23,-0.0022524999999999,0.735361,0.0753389999999999,-0.1550925,0.480871,0.046428,-0.2786725,0.681221,-0.050466,0.1506075,0.483651,0.050943,0.2700075,0.6904710000000001,-0.048538,-0.3248025,0.911781,-0.187654,0.2974575,0.915231,-0.176254,-0.0724345,0.000716,0.000958,0.0724345,-0.0007159999999999,-0.000958,-0.1237325,-0.392189,-0.010998,0.1147275,-0.434199,0.0120909999999999,-0.1279825,-0.765979,-0.00612,0.1287174999999999,-0.773779,-0.016007,0
24,-0.002292,0.7350300000000001,0.074476,-0.155053,0.4826999999999999,0.0466749999999999,-0.277033,0.68859,-0.042045,0.150687,0.4841,0.0515589999999999,0.266827,0.6970000000000001,-0.037239,-0.322563,0.92276,-0.167156,0.295187,0.92537,-0.1542359999999999,-0.072337,0.000773,0.0009249999999999,0.072337,-0.0007729999999999,-0.000925,-0.123583,-0.39407,-0.010852,0.114937,-0.4351,0.0121459999999999,-0.127803,-0.7679199999999999,-0.0062149999999999,0.1290569999999999,-0.7754399999999999,-0.016294,0
25,-0.0022389999999999,0.7349825,0.073584,-0.154923,0.4845025,0.0471069999999999,-0.275773,0.6942025000000001,-0.034676,0.150637,0.4843425,0.051985,0.264027,0.7002825,-0.026578,-0.320143,0.9294125,-0.1492689999999999,0.293337,0.9318325,-0.133819,-0.072274,0.0008174999999999,0.000916,0.072274,-0.0008174999999999,-0.000916,-0.123413,-0.3956075,-0.010706,0.115207,-0.4357175,0.0121499999999999,-0.127623,-0.7694774999999999,-0.006298,0.129197,-0.7770575,-0.016145,0
26,-0.0020705,0.734972,0.072732,-0.1547374999999999,0.4863019999999999,0.0476199999999999,-0.2742075,0.6987819999999999,-0.0275319999999999,0.1504225,0.484562,0.052386,0.2626525,0.7029219999999999,-0.018939,-0.3176175,0.934882,-0.132245,0.2918524999999999,0.936752,-0.117255,-0.0722535,0.0008499999999999,0.0008969999999999,0.0722535,-0.00085,-0.0008969999999999,-0.1231675,-0.397038,-0.010539,0.1155525,-0.436288,0.012152,-0.1273875,-0.771028,-0.006355,0.1294124999999999,-0.778528,-0.015933,0
27,-0.001878,0.735013,0.0718975,-0.154536,0.488143,0.0482714999999999,-0.272566,0.702723,-0.0206485,0.150214,0.484483,0.0526154999999999,0.261334,0.705243,-0.0112915,-0.315266,0.937513,-0.1162005,0.290494,0.941843,-0.1015005,-0.072238,0.0008859999999999,0.0008564999999999,0.072238,-0.0008859999999999,-0.0008565,-0.1229059999999999,-0.398307,-0.0103235,0.115924,-0.436707,0.0121504999999999,-0.127126,-0.772397,-0.0064115,0.129604,-0.779807,-0.0159625,0
28,-0.0015984999999999,0.7348945,0.071059,-0.1541405,0.4900645,0.049086,-0.2707005,0.7052545,-0.0134859999999999,0.1500395,0.4840744999999999,0.0526279999999999,0.2601195,0.7066844999999999,-0.003515,-0.3128404999999999,0.9396845,-0.099993,0.2897595,0.9468045,-0.085633,-0.0722145,0.0009224999999999,0.0008069999999999,0.0722145,-0.0009224999999999,-0.000807,-0.1225805,-0.3993955,-0.010097,0.1163695,-0.4371455,0.0121509999999999,-0.1268004999999999,-0.7738155,-0.006447,0.1298495,-0.7811955,-0.01617,0
29,-0.0013275,0.7347680000000001,0.0703215,-0.1536885,0.491678,0.0498275,-0.2688285,0.7076380000000001,-0.0065654999999999,0.1499015,0.4836879999999999,0.0526225,0.2589415,0.706868,0.0038015,-0.3106685,0.941468,-0.0851025,0.2885115,0.951008,-0.0706125,-0.0722025,0.0009689999999999,0.0007795,0.0722025,-0.0009689999999999,-0.0007794999999999,-0.1222585,-0.400292,-0.0098824999999999,0.1168115,-0.437342,0.0121395,-0.1264485,-0.7752319999999999,-0.0063765,0.1301115,-0.782422,-0.0164365,0
30,-0.0010479999999999,0.7347334999999999,0.07022,-0.153209,0.4932135,0.050635,-0.267009,0.7096735000000001,-0.000438,0.149771,0.4835835,0.0526559999999999,0.258551,0.7083035,0.0108289999999999,-0.308539,0.9441735,-0.071254,0.287491,0.9553135,-0.056504,-0.072213,0.0010685,0.0007829999999999,0.072213,-0.0010685,-0.000783,-0.121999,-0.4004365,-0.009644,0.117211,-0.4374865,0.0120799999999999,-0.126189,-0.7753764999999999,-0.0065279999999999,0.130521,-0.7825664999999999,-0.016997,0
31,-0.0007979999999999,0.7346735,0.0700595,-0.152799,0.4947235,0.0515145,-0.265239,0.7114735,0.0052905,0.149731,0.4835735,0.0526485,0.258371,0.7097635,0.0171165,-0.306589,0.9470435,-0.0581515,0.286621,0.9586335,-0.0428125,-0.072219,0.0011365,0.0008155,0.072219,-0.0011364999999999,-0.0008155,-0.121749,-0.4005164999999999,-0.0094574999999999,0.117591,-0.4375664999999999,0.0119725,-0.1260089999999999,-0.7754565,-0.0067975,0.130861,-0.7826465,-0.0175565,0
32,-0.000588,0.734759,0.069852,-0.152479,0.495979,0.052342,-0.263799,0.7119690000000001,0.009592,0.149701,0.4835989999999999,0.052689,0.2582609999999999,0.7104290000000001,0.021798,-0.305529,0.949549,-0.051025,0.286231,0.961099,-0.034093,-0.072222,0.0011489999999999,0.000902,0.072222,-0.001149,-0.000902,-0.121519,-0.400781,-0.009377,0.117931,-0.437601,0.011824,-0.125879,-0.775731,-0.0070639999999999,0.131121,-0.7827409999999999,-0.017988,0
33,-0.0003809999999999,0.7347945,0.069445,-0.152089,0.4964845,0.053622,-0.262339,0.7119545,0.013807,0.1498209999999999,0.4836445,0.053059,0.258101,0.7120344999999999,0.026742,-0.304299,0.9519745,-0.042821,0.285831,0.9634745,-0.0255779999999999,-0.072222,0.0011545,0.001071,0.072222,-0.0011544999999999,-0.0010709999999999,-0.121309,-0.4012655,-0.0096419999999999,0.118171,-0.4379555,0.011392,-0.125789,-0.7775955000000001,-0.0077889999999999,0.1313409999999999,-0.7840855,-0.0187019999999999,0
34,-0.000192,0.7348315,0.0691195,-0.151726,0.4966115,0.0547525,-0.261016,0.7119314999999999,0.0176065,0.149744,0.4836215,0.0533445,0.258024,0.7141915,0.0311505,-0.303236,0.9538515,-0.0352684999999999,0.285394,0.9656515,-0.0172775,-0.0722049999999999,0.0011514999999999,0.0012475,0.0722049999999999,-0.0011514999999999,-0.0012474999999999,-0.121136,-0.4017785,-0.0099374999999999,0.118364,-0.4385084999999999,0.0109635,-0.125756,-0.7791585000000001,-0.0084995,0.131564,-0.7855485000000001,-0.0193985,0
35,-6.699999999999924e-05,0.7347815,0.0689505,-0.1513669999999999,0.4967215,0.0558775,-0.259867,0.7119314999999999,0.0213585,0.1495929999999999,0.4835915,0.0536295,0.258033,0.7165815,0.0351765,-0.302257,0.9563515,-0.0282515,0.284813,0.9659515,-0.0093084999999999,-0.07219,0.0011835,0.0014755,0.07219,-0.0011834999999999,-0.0014754999999999,-0.121047,-0.4020685,-0.0101525,0.118483,-0.4390084999999999,0.0105965,-0.125687,-0.7810185000000001,-0.0092314999999999,0.1315529999999999,-0.7869085,-0.0193935,0
36,8.149999999999661e-05,0.734665,0.0690825,-0.1510525,0.4972449999999999,0.0568675,-0.2588125,0.712255,0.0248455,0.1494375,0.4835349999999999,0.0540425,0.2582775,0.719495,0.0387985,-0.3012725,0.958975,-0.0218304999999999,0.2842175,0.968275,-0.0019784999999999,-0.0721815,0.001235,0.0016855,0.0721815,-0.001235,-0.0016854999999999,-0.1210025,-0.402315,-0.0103824999999999,0.1185475,-0.439675,0.0102725,-0.1257925,-0.782425,-0.0099104999999999,0.1313375,-0.7880550000000001,-0.0192634999999999,0
37,0.0001844999999999,0.734618,0.0693565,-0.1507575,0.497878,0.0577784999999999,-0.2579375,0.712508,0.0277355,0.1492925,0.483608,0.0544905,0.2585524999999999,0.7225480000000001,0.0416335,-0.3003175,0.960918,-0.0165524999999999,0.2836924999999999,0.970218,0.0040665,-0.0721935,0.00126,0.0018694999999999,0.0721935,-0.0012599999999999,-0.0018694999999999,-0.1209775,-0.402552,-0.0105634999999999,0.1185924999999999,-0.440342,0.0100375,-0.1259475,-0.7833819999999999,-0.0104975,0.1313125,-0.789102,-0.0192215,0
38,0.0002679999999999,0.7346079999999999,0.069692,-0.150473,0.4984379999999999,0.058686,-0.257093,0.7126979999999999,0.030507,0.149217,0.483768,0.054935,0.258857,0.725918,0.044268,-0.299313,0.963368,-0.011005,0.283227,0.971868,0.009593,-0.0722049999999999,0.001291,0.002035,0.0722049999999999,-0.001291,-0.0020349999999999,-0.120943,-0.402692,-0.0107369999999999,0.118647,-0.440872,0.009834,-0.126163,-0.784302,-0.0113609999999999,0.131287,-0.790142,-0.018997,0
39,0.000329,0.7346655,0.070121,-0.1502129999999999,0.4988355,0.059528,-0.256273,0.7127855,0.033191,0.1491469999999999,0.4839155,0.055272,0.259267,0.7294455,0.0466199999999999,-0.2984529999999999,0.9656355,-0.005842,0.282727,0.9732355,0.014622,-0.072213,0.0013085,0.0021909999999999,0.072213,-0.0013084999999999,-0.0021909999999999,-0.120923,-0.4026145,-0.0108979999999999,0.118727,-0.4412945,0.009641,-0.126383,-0.7851145,-0.012191,0.131247,-0.7909845,-0.0188829999999999,0
40,0.0002794999999999,0.734835,0.070635,-0.1500185,0.498965,0.06027,-0.2565185,0.713885,0.03573,0.1490814999999999,0.484085,0.055616,0.2597615,0.7331449999999999,0.048658,-0.2977685,0.968055,-0.0011929999999999,0.2823115,0.974755,0.018822,-0.0722035,0.001293,0.0023269999999999,0.0722035,-0.001293,-0.002327,-0.1209485,-0.402655,-0.011025,0.1187415,-0.441665,0.0094729999999999,-0.1264485,-0.785915,-0.012908,0.1313814999999999,-0.7914450000000001,-0.019482,0
41,0.0001924999999999,0.7350530000000001,0.071228,-0.1498475,0.499123,0.061022,-0.2559275,0.713923,0.038195,0.1489924999999999,0.484273,0.055899,0.2603025,0.736723,0.050438,-0.2972075,0.970353,0.003115,0.2819225,0.976253,0.022569,-0.0721855,0.001272,0.002424,0.0721855,-0.001272,-0.0024239999999999,-0.1209975,-0.402657,-0.0111069999999999,0.1187325,-0.442167,0.009356,-0.1265575,-0.786507,-0.0135489999999999,0.1314725,-0.791907,-0.0199719999999999,0
42,0.0001164999999999,0.7350530000000001,0.071223,-0.1497535,0.499123,0.061028,-0.2553235,0.714033,0.039373,0.1489464999999999,0.484273,0.055896,0.2602264999999999,0.7367630000000001,0.050433,-0.2968635,0.971753,0.005541,0.2817165,0.976653,0.02343,-0.0721795,0.001272,0.0024239999999999,0.0721795,-0.001272,-0.0024239999999999,-0.1210235,-0.402657,-0.0111029999999999,0.1187365,-0.442167,0.009357,-0.1266535,-0.786507,-0.0137329999999999,0.1315164999999999,-0.791907,-0.0199689999999999,0
43,3.849999999999828e-05,0.7350530000000001,0.0712845,-0.1497115,0.499123,0.0610985,-0.2550915,0.714043,0.0405835,0.1488685,0.484273,0.0559584999999999,0.2601485,0.7367630000000001,0.0504975,-0.2965715,0.973353,0.0078615,0.2815585,0.976853,0.0241245,-0.0721835,0.001272,0.0024904999999999,0.0721835,-0.001272,-0.0024904999999999,-0.1210415,-0.402657,-0.0110385,0.1187585,-0.442167,0.0094255,-0.1267315,-0.786507,-0.0136715,0.1315785,-0.791907,-0.0198164999999999,0
44,-2.1999999999999776e-05,0.7350530000000001,0.071362,-0.149732,0.499123,0.0611779999999999,-0.254932,0.714043,0.041696,0.148788,0.484273,0.056034,0.260088,0.737943,0.050575,-0.296412,0.974653,0.009935,0.281418,0.976853,0.024523,-0.072194,0.001272,0.002571,0.072194,-0.001272,-0.002571,-0.121032,-0.402657,-0.0109559999999999,0.118808,-0.442167,0.00951,-0.126792,-0.786507,-0.0135939999999999,0.131578,-0.791907,-0.019618,0
45,-0.0001075,0.7351235,0.0712565,-0.1497955,0.4991934999999999,0.0614515,-0.2548955,0.7139235,0.0430715,0.1486645,0.4841934999999999,0.0558155,0.2596345,0.7366235,0.0510535,-0.2963955,0.9760335,0.0121544999999999,0.2811445,0.9772335,0.0251264999999999,-0.0721975,0.0012295,0.0026514999999999,0.0721975,-0.0012294999999999,-0.0026515,-0.1210155,-0.4030365,-0.0104894999999999,0.1188444999999999,-0.4422665,0.0099695,-0.1268655,-0.7867965,-0.0130995,0.1314344999999999,-0.7920365,-0.0185745,0
46,-0.000202,0.735178,0.0711585,-0.149874,0.499218,0.0617285,-0.2548539999999999,0.713828,0.0443385,0.1485759999999999,0.484108,0.0556395,0.258946,0.735248,0.0514675,-0.296464,0.977418,0.0143065,0.280906,0.977618,0.0257015,-0.072201,0.0011919999999999,0.0027335,0.072201,-0.0011919999999999,-0.0027335,-0.120984,-0.4034319999999999,-0.0100235,0.1188859999999999,-0.442362,0.0104075,-0.1269239999999999,-0.786972,-0.0126035,0.1313059999999999,-0.792042,-0.0175515,0
47,-0.0003189999999999,0.735216,0.071025,-0.14993,0.499256,0.0619889999999999,-0.25495,0.7138059999999999,0.045029,0.1485,0.484056,0.055448,0.25813,0.7332759999999999,0.0517819999999999,-0.2966,0.978236,0.015648,0.28082,0.978036,0.026255,-0.072208,0.001167,0.0027679999999999,0.072208,-0.001167,-0.0027679999999999,-0.12095,-0.403814,-0.009624,0.11891,-0.442484,0.0107999999999999,-0.12692,-0.7869940000000001,-0.012077,0.13113,-0.792114,-0.0167679999999999,0
48,-0.0004445,0.735237,0.070863,-0.1499975,0.499297,0.062354,-0.2550475,0.713777,0.045885,0.1484625,0.4839869999999999,0.055292,0.2572725,0.731127,0.052057,-0.2967174999999999,0.979147,0.016775,0.2807425,0.978247,0.026805,-0.0722115,0.001143,0.00281,0.0722115,-0.0011429999999999,-0.00281,-0.1209075,-0.4041829999999999,-0.0092649999999999,0.1189125,-0.4427029999999999,0.011151,-0.1268875,-0.786903,-0.0115649999999999,0.1310825,-0.792133,-0.0161259999999999,0
49,-0.0005559999999999,0.7352135000000001,0.0706505,-0.150058,0.4993235,0.0625975,-0.2551779999999999,0.7142135000000001,0.0464394999999999,0.148472,0.4839535,0.0552025,0.256422,0.7288335,0.0522435,-0.2968079999999999,0.9798535,0.0177095,0.280662,0.9784535,0.0275555,-0.072214,0.0011214999999999,0.0028604999999999,0.072214,-0.0011214999999999,-0.0028605,-0.120858,-0.4045565,-0.0089885,0.118922,-0.4429364999999999,0.0114184999999999,-0.1268079999999999,-0.7873165,-0.0113125,0.131042,-0.7920865,-0.0157095,0
50,-0.0006864999999999,0.735174,0.0704675,-0.1501795,0.499374,0.0627715,-0.2552495,0.7143039999999999,0.0469845,0.1484705,0.483924,0.0552055,0.2555405,0.726254,0.0523465,-0.2969795,0.980564,0.0184394999999999,0.2805904999999999,0.978564,0.0281265,-0.0722155,0.0011,0.0029094999999999,0.0722155,-0.0010999999999999,-0.0029095,-0.1208295,-0.404916,-0.0088125,0.1189605,-0.4432159999999999,0.0116054999999999,-0.1266495,-0.787506,-0.0107495,0.1311105,-0.791976,-0.0158365,0
51,-0.0008204999999999,0.7351125,0.070284,-0.1504075,0.4994425,0.062875,-0.2553475,0.7143324999999999,0.047417,0.1484625,0.4838924999999999,0.0552109999999999,0.2546625,0.7235325,0.0524339999999999,-0.2972075,0.9810725,0.019018,0.2806625,0.9787725,0.028356,-0.0722025,0.0010734999999999,0.0029159999999999,0.0722025,-0.0010734999999999,-0.0029159999999999,-0.1207975,-0.4052375,-0.008723,0.1190125,-0.4435075,0.0117309999999999,-0.1264575,-0.7874575,-0.010109,0.1311625,-0.7918475,-0.016026,1
52,-0.0009825,0.735018,0.070141,-0.1506785,0.499468,0.062977,-0.2554484999999999,0.714088,0.04793,0.1484214999999999,0.4838179999999999,0.055209,0.2537315,0.720588,0.052662,-0.2975485,0.981358,0.019523,0.2808415,0.979158,0.02851,-0.0721935,0.001073,0.0029169999999999,0.0721935,-0.0010729999999999,-0.0029169999999999,-0.1207985,-0.405582,-0.00862,0.1190415,-0.4438419999999999,0.011874,-0.1264685,-0.787672,-0.0094589999999999,0.1311715,-0.791842,-0.0159919999999999,1
53,-0.0012325,0.734925,0.070065,-0.1510205,0.499515,0.063124,-0.2556005,0.712765,0.048402,0.1483995,0.4837249999999999,0.055207,0.2527395,0.717585,0.053065,-0.2979405,0.981635,0.019969,0.2810095,0.979635,0.028884,-0.0721785,0.0010649999999999,0.002918,0.0721785,-0.001065,-0.002918,-0.1208505,-0.405945,-0.0085279999999999,0.1190195,-0.444455,0.012041,-0.1265005,-0.788115,-0.009092,0.1310895,-0.791865,-0.016002,1
54,-0.001549,0.73489,0.0700175,-0.151393,0.4995099999999999,0.0633425,-0.255783,0.7126699999999999,0.0488045,0.148427,0.48368,0.0553105,0.252287,0.7159599999999999,0.0536965,-0.298393,0.98184,0.0204645,0.281167,0.98024,0.0293675,-0.072194,0.001055,0.0029435,0.072194,-0.001055,-0.0029435,-0.120923,-0.40591,-0.0085145,0.118987,-0.44447,0.0121765,-0.126533,-0.78819,-0.0090854999999999,0.130997,-0.7918700000000001,-0.0160114999999999,1
55,-0.0019705,0.7348169999999999,0.0698054999999999,-0.1518165,0.4994969999999999,0.0633955,-0.2558665,0.711997,0.0490755,0.1484035,0.4836469999999999,0.0554335,0.2519635,0.714997,0.0542505,-0.2989265,0.982137,0.0207265,0.2812735,0.980837,0.0297815,-0.0721965,0.0010509999999999,0.0029145,0.0721965,-0.001051,-0.0029145,-0.1210865,-0.405883,-0.0086634999999999,0.1189035,-0.444573,0.0120925,-0.1266465,-0.788293,-0.0092775,0.1307535,-0.7918930000000001,-0.0162124999999999,1
56,-0.002441,0.7348169999999999,0.0694775,-0.152311,0.4994969999999999,0.0634135,-0.256151,0.711997,0.0487605,0.148409,0.4836469999999999,0.0556985,0.251569,0.7145469999999999,0.0548494999999999,-0.299481,0.982137,0.0207695,0.2812389999999999,0.981337,0.0303335,-0.0722029999999999,0.0010509999999999,0.0028814999999999,0.0722029999999999,-0.001051,-0.0028815,-0.121281,-0.405883,-0.0089685,0.118819,-0.444573,0.0118064999999999,-0.126791,-0.788293,-0.0095835,0.130469,-0.7918930000000001,-0.0165275,1
57,-0.002989,0.734757,0.0693875,-0.15284,0.4994969999999999,0.0635555,-0.2565199999999999,0.711857,0.0486955,0.1484299999999999,0.4835969999999999,0.0564775,0.25129,0.714117,0.0553765,-0.30005,0.982137,0.0208585,0.28112,0.981737,0.0313465,-0.072219,0.0010509999999999,0.0028695,0.072219,-0.001051,-0.0028694999999999,-0.12149,-0.406013,-0.0095424999999999,0.1187199999999999,-0.444973,0.0112545,-0.12694,-0.788293,-0.0101384999999999,0.13008,-0.791973,-0.0170224999999999,1
58,-0.0035575,0.7346795,0.0692295,-0.1533495,0.4994995,0.0635935,-0.2569194999999999,0.7117095,0.0485305,0.1484805,0.4835595,0.0572335,0.2510004999999999,0.7137995,0.0557845,-0.3006295,0.9821395,0.0208505,0.2809804999999999,0.9821395,0.0322305,-0.0722315,0.0010524999999999,0.0029225,0.0722315,-0.0010525,-0.0029224999999999,-0.1217095,-0.4061405,-0.0102275,0.1186205,-0.4454705,0.0105565,-0.1270795,-0.7888205,-0.0110865,0.1297205,-0.7920605000000001,-0.0176855,1
59,-0.0042225,0.734421,0.069216,-0.1537885,0.4992709999999999,0.063706,-0.2573385,0.7112609999999999,0.048487,0.1485415,0.483851,0.058053,0.2505415,0.713171,0.056295,-0.3013185,0.982441,0.021002,0.2807415,0.982741,0.0333,-0.0722595,0.0010649999999999,0.00298,0.0722595,-0.001065,-0.00298,-0.1218385,-0.406439,-0.0111279999999999,0.1185515,-0.446039,0.00964,-0.1272485,-0.7895390000000001,-0.0124509999999999,0.1294015,-0.792269,-0.018852,1
60,-0.0049134999999999,0.7342110000000001,0.0691315,-0.1542265,0.499081,0.0636164999999999,-0.2577665,0.710801,0.0481945,0.1486135,0.484201,0.0589395,0.2500635,0.712531,0.0567395,-0.3020165,0.982741,0.0210605,0.2804534999999999,0.983441,0.0342245,-0.0723065,0.00108,0.0029684999999999,0.0723065,-0.0010799999999999,-0.0029685,-0.1219764999999999,-0.406629,-0.0121705,0.1184335,-0.446539,0.0085925,-0.1275065,-0.7901889999999999,-0.0138375,0.1290935,-0.792689,-0.0200795,1
61,-0.0055874999999999,0.7340555,0.0690275,-0.1546905,0.4989155,0.0633305,-0.2584005,0.7115955,0.0478245,0.1486595,0.4845555,0.0596385,0.2496395,0.7119255,0.0570674999999999,-0.3026605,0.9829555,0.0209545,0.2800795,0.9837555,0.0348025,-0.0723425,0.0011094999999999,0.0029705,0.0723425,-0.0011094999999999,-0.0029705,-0.1221105,-0.4068345,-0.0132925,0.1183095,-0.4470645,0.0073534999999999,-0.1277905,-0.7912144999999999,-0.0154425,0.1287595,-0.7931644999999999,-0.0213905,1
62,-0.0062504999999999,0.7339180000000001,0.0688075,-0.1551855,0.498758,0.0629484999999999,-0.2588955,0.711688,0.0473165,0.1486145,0.484888,0.0601985,0.2492645,0.711338,0.0571985,-0.3033555,0.983278,0.0207915,0.2797445,0.984178,0.0351185,-0.0723785,0.001152,0.0029794999999999,0.0723785,-0.001152,-0.0029794999999999,-0.1221855,-0.407062,-0.0146395,0.1181945,-0.447592,0.0056275,-0.1280755,-0.792272,-0.0171704999999999,0.1284645,-0.793612,-0.0230235,1
63,-0.006827,0.733795,0.0684994999999999,-0.155522,0.498575,0.0625235,-0.259342,0.7117850000000001,0.0467405,0.148588,0.485195,0.0606625,0.2489779999999999,0.710785,0.0570615,-0.303982,0.983615,0.0204834999999999,0.279518,0.984515,0.0352505,-0.072395,0.001197,0.0030324999999999,0.072395,-0.0011969999999999,-0.0030325,-0.122202,-0.407365,-0.0161145,0.118088,-0.448075,0.0037064999999999,-0.128392,-0.793245,-0.0190035,0.128228,-0.7941549999999999,-0.0248545,1
64,-0.00726,0.7336870000000001,0.06828,-0.155684,0.4983169999999999,0.062141,-0.259754,0.7117870000000001,0.046085,0.148606,0.485517,0.060947,0.248826,0.7110970000000001,0.056831,-0.3045239999999999,0.983927,0.020113,0.279426,0.984827,0.035247,-0.072411,0.0012389999999999,0.003068,0.072411,-0.001239,-0.0030679999999999,-0.122084,-0.407723,-0.017684,0.118076,-0.448573,0.0016649999999999,-0.128614,-0.794103,-0.020793,0.1281359999999999,-0.794793,-0.026872,1
65,-0.0076264999999999,0.7336590000000001,0.0679905,-0.1558034999999999,0.498159,0.0616825,-0.2603135,0.711829,0.0460514999999999,0.1485665,0.485879,0.0609685,0.2487065,0.7115090000000001,0.0563815,-0.3050334999999999,0.984339,0.0196805,0.2794165,0.985239,0.0348865,-0.0724355,0.001278,0.0030165,0.0724355,-0.001278,-0.0030165,-0.1219435,-0.408011,-0.0193535,0.1180465,-0.4489309999999999,-0.0006094999999999,-0.1288834999999999,-0.794821,-0.0226525,0.1280764999999999,-0.795281,-0.0291335,1
66,-0.007969,0.7336604999999999,0.067671,-0.15587,0.4980605,0.061302,-0.26087,0.7119605,0.045966,0.14849,0.4862204999999999,0.060726,0.24867,0.7119605,0.055822,-0.30552,0.9846605,0.0191789999999999,0.27948,0.9853605,0.034315,-0.072453,0.0013195,0.002985,0.072453,-0.0013195,-0.002985,-0.12175,-0.4083695,-0.021124,0.11807,-0.4493395,-0.0030349999999999,-0.1291999999999999,-0.7955695,-0.024577,0.1278,-0.7957995,-0.030599,1
67,-0.0083704999999999,0.733595,0.0672625,-0.1559505,0.498005,0.0609134999999999,-0.2615004999999999,0.712145,0.0457145,0.1482795,0.486575,0.0603535,0.2495095,0.7128150000000001,0.0551045,-0.3060805,0.985005,0.0185415,0.2795795,0.985505,0.0334275,-0.0724555,0.0013519999999999,0.0029344999999999,0.0724555,-0.0013519999999999,-0.0029344999999999,-0.1214504999999999,-0.409785,-0.0232425,0.1180995,-0.449645,-0.0057505,-0.1295605,-0.796175,-0.0267635,0.1274495,-0.7963749999999999,-0.0323235,1
68,-0.0086644999999999,0.733587,0.066598,-0.1559065,0.498057,0.06036,-0.2620265,0.711967,0.045245,0.1481535,0.486547,0.059794,0.2504234999999999,0.713137,0.054071,-0.3064165,0.985017,0.017531,0.2798835,0.985517,0.031934,-0.0724305,0.001347,0.002885,0.0724305,-0.001347,-0.002885,-0.1211665,-0.411263,-0.0253159999999999,0.1181535,-0.449863,-0.0084129999999999,-0.1298465,-0.7967329999999999,-0.028987,0.1271534999999999,-0.796773,-0.0339029999999999,1
69,-0.0088829999999999,0.7335425,0.0659059999999999,-0.15585,0.4980725,0.059961,-0.26251,0.7117325,0.0447439999999999,0.14801,0.4865025,0.058987,0.25132,0.7131525,0.0529309999999999,-0.30672,0.9850125,0.016422,0.28031,0.9856125,0.030382,-0.072394,0.0013615,0.0028769999999999,0.072394,-0.0013615,-0.002877,-0.1209,-0.4127975,-0.027464,0.11825,-0.4501775,-0.011195,-0.1301,-0.7972975,-0.031223,0.12717,-0.7975075,-0.0362409999999999,1
70,-0.0088289999999999,0.7335435,0.0651565,-0.155561,0.4981635,0.0595995,-0.2626509999999999,0.7113634999999999,0.0440785,0.1480989999999999,0.4864935,0.0581575,0.252579,0.7130535,0.0515334999999999,-0.306741,0.9851635,0.0150375,0.281049,0.9856635,0.0287835,-0.072337,0.0013654999999999,0.0028585,0.072337,-0.0013655,-0.0028585,-0.120641,-0.4143365,-0.0297365,0.118459,-0.4501165,-0.0139505,-0.130151,-0.7978065000000001,-0.0335245,0.127159,-0.7978765,-0.0386525,1
71,-0.0085524999999999,0.733674,0.064371,-0.1552265,0.498294,0.059227,-0.2626865,0.711494,0.043306,0.1481535,0.486624,0.057286,0.2539035,0.713234,0.050128,-0.3066365,0.985494,0.013528,0.2819035,0.985594,0.027249,-0.0723335,0.001374,0.0028079999999999,0.0723335,-0.0013739999999999,-0.0028079999999999,-0.1204665,-0.416106,-0.032002,0.1186734999999999,-0.449986,-0.016442,-0.1301565,-0.798206,-0.035967,0.1272335,-0.797936,-0.0407379999999999,1
72,-0.0083834999999999,0.7339135,0.0634315,-0.1549205,0.4985435,0.0586355,-0.2627205,0.7117035,0.0422605,0.1483295,0.4868135,0.0561754999999999,0.2552394999999999,0.7133235,0.0485695,-0.3065205,0.9857435,0.0117825,0.2827794999999999,0.9856435,0.0254544999999999,-0.0723365,0.0013495,0.0028514999999999,0.0723365,-0.0013494999999999,-0.0028515,-0.1203105,-0.4178265,-0.0344495,0.1189095,-0.4497164999999999,-0.0191835,-0.1301505,-0.7984565,-0.0386325,0.1272595,-0.7980265,-0.0433495,1
73,-0.008276,0.733919,0.061996,-0.154708,0.498829,0.057637,-0.262768,0.7120190000000001,0.040673,0.148412,0.487029,0.054935,0.256502,0.713489,0.046636,-0.306318,0.986059,0.0096289999999999,0.284132,0.985559,0.022661,-0.0723429999999999,0.001346,0.002953,0.0723429999999999,-0.001346,-0.002953,-0.120098,-0.419781,-0.037632,0.1192419999999999,-0.449401,-0.02279,-0.130288,-0.7986209999999999,-0.041936,0.127522,-0.798141,-0.046378,1
74,-0.0080724999999999,0.733886,0.0603525,-0.1544045,0.499026,0.0564945,-0.2626745,0.712426,0.0382575,0.1485955,0.4870859999999999,0.0535855,0.2578554999999999,0.714086,0.0444325,-0.3060645,0.986766,0.0072245,0.2857154999999999,0.985666,0.0193215,-0.0723325,0.0013729999999999,0.0031515,0.0723325,-0.0013729999999999,-0.0031515,-0.1197645,-0.421244,-0.0412105,0.1197255,-0.448694,-0.0267495,-0.1304345,-0.7984439999999999,-0.0456815,0.1278355,-0.797804,-0.0499485,1
75,-0.0078599999999999,0.733379,0.058631,-0.1542269999999999,0.498839,0.055221,-0.262587,0.7122090000000001,0.035699,0.148723,0.4870389999999999,0.052296,0.259143,0.714829,0.042019,-0.305817,0.986969,0.004397,0.287363,0.985769,0.015635,-0.072331,0.001362,0.003373,0.072331,-0.001362,-0.003373,-0.119537,-0.421741,-0.045475,0.120273,-0.447641,-0.031397,-0.130607,-0.798051,-0.04976,0.128073,-0.7974209999999999,-0.053506,1
76,-0.0076159999999999,0.7327825,0.0567924999999999,-0.154007,0.4985225,0.0538615,-0.262287,0.7112425,0.0330155,0.148853,0.4866125,0.0508405,0.2595429999999999,0.7155725,0.0393064999999999,-0.305507,0.9869625,0.0010294999999999,0.288983,0.9861625,0.0116775,-0.072318,0.0013545,0.0034725,0.072318,-0.0013544999999999,-0.0034725,-0.119397,-0.4208375,-0.0501565,0.120883,-0.4461575,-0.0365194999999999,-0.1307569999999999,-0.7972575000000001,-0.0541305,0.128093,-0.7966275,-0.0571575,1
77,-0.0073449999999999,0.732003,0.0549785,-0.15375,0.498113,0.0524705,-0.26193,0.710483,0.0301864999999999,0.14898,0.486023,0.0491045,0.25992,0.7165229999999999,0.0365425,-0.3051299999999999,0.986973,-0.0026564999999999,0.29035,0.986473,0.0076625,-0.072291,0.001315,0.0035915,0.072291,-0.0013149999999999,-0.0035914999999999,-0.1192699999999999,-0.419827,-0.0550735,0.12158,-0.4443769999999999,-0.0418875,-0.13078,-0.795987,-0.0585684999999999,0.1280899999999999,-0.795597,-0.0607385,1
78,-0.0070679999999999,0.7310800000000001,0.0526895,-0.153436,0.49777,0.0507555,-0.261656,0.7098,0.0270865,0.148924,0.48522,0.0474225,0.260334,0.7175,0.0336385,-0.304756,0.98709,-0.0068574999999999,0.291364,0.98709,0.0034885,-0.072297,0.001232,0.0037295,0.072297,-0.0012319999999999,-0.0037294999999999,-0.119296,-0.41791,-0.0609134999999999,0.122354,-0.44204,-0.0478785,-0.1304159999999999,-0.7940699999999999,-0.0628895,0.128164,-0.7936799999999999,-0.0645595,1
79,-0.0067244999999999,0.7301795000000001,0.0504975,-0.1530055,0.4968795,0.0488515,-0.2613955,0.7093995000000001,0.0236485,0.1489345,0.4845695,0.0455465,0.2607945,0.7172995000000001,0.0306644999999999,-0.3042155,0.9873295,-0.0114925,0.2925045,0.9881295,-0.0008824999999999,-0.0723485,0.0011435,0.0038484999999999,0.0723485,-0.0011434999999999,-0.0038484999999999,-0.1193355,-0.4153705,-0.0670235,0.1233145,-0.4390905,-0.0544725,-0.1299455,-0.7915304999999999,-0.0673435,0.1284545,-0.7911205,-0.0687805,1
80,-0.006331,0.7290495,0.047832,-0.152431,0.4958994999999999,0.046499,-0.261101,0.7088495,0.019653,0.149219,0.4839495,0.043151,0.2615889999999999,0.7168395,0.027233,-0.303471,0.9875095,-0.0167,0.2938389999999999,0.9882095,-0.0060509999999999,-0.072389,0.0010874999999999,0.0038269999999999,0.072389,-0.0010875,-0.0038269999999999,-0.119341,-0.4127305,-0.074072,0.124509,-0.4355505,-0.0620589999999999,-0.129401,-0.7881505,-0.072121,0.128989,-0.7877405000000001,-0.073414,1
81,-0.0060074999999999,0.727416,0.0447735,-0.1519115,0.494436,0.0437805,-0.2611314999999999,0.708066,0.0149655,0.1494785,0.4828559999999999,0.0404965,0.2625285,0.716586,0.0226335,-0.3027115,0.987336,-0.0230415,0.2952185,0.989436,-0.0124895,-0.0724735,0.000917,0.0037295,0.0724735,-0.000917,-0.0037295,-0.1197015,-0.409074,-0.0832545,0.1260085,-0.430774,-0.0718205,-0.1289315,-0.782914,-0.0771525,0.1298985,-0.782414,-0.0785005,1
82,-0.0058125,0.7256675,0.0418715,-0.1516045,0.4932074999999999,0.0413165,-0.2612945,0.7075075000000001,0.0104715,0.1495655,0.4815875,0.0377955,0.2633255,0.7161375,0.0181525,-0.3020045,0.9872075,-0.0290575,0.2962455,0.9904075,-0.0182195,-0.0726225,0.0007785,0.0035655,0.0726225,-0.0007785,-0.0035654999999999,-0.1200845,-0.4044825,-0.0923824999999999,0.1274255,-0.4252025,-0.0815005,-0.1283045,-0.7765725,-0.0817125,0.1306155,-0.7760225,-0.0832255,1
83,-0.005652,0.7235094999999999,0.0385825,-0.1513149999999999,0.4931895,0.0385235,-0.2614249999999999,0.7063594999999999,0.0055984999999999,0.149445,0.4809395,0.0348085,0.264245,0.7157795,0.0131825,-0.3011749999999999,0.9860795,-0.0357165,0.297395,0.9852795,-0.0252305,-0.072769,0.0005695,0.0033944999999999,0.072769,-0.0005695,-0.0033945,-0.120745,-0.3978005,-0.1033615,0.129035,-0.4177305,-0.0927925,-0.127715,-0.7683605,-0.0864335,0.131405,-0.7677105000000001,-0.0881775,1
84,-0.005447,0.721952,0.0351885,-0.151155,0.492352,0.0357195,-0.261625,0.706172,0.0006015,0.149455,0.479332,0.0317395,0.265115,0.716342,0.0081755,-0.300495,0.985922,-0.0423145,0.298445,0.981002,-0.0321535,-0.072945,0.000382,0.0031264999999999,0.072945,-0.000382,-0.0031265,-0.121375,-0.390218,-0.1139065,0.130575,-0.409438,-0.1038724999999999,-0.127175,-0.759138,-0.0909975,0.131825,-0.7586080000000001,-0.0932325,1
85,-0.0052355,0.7202755,0.0320594999999999,-0.1509445,0.4916655,0.0330285,-0.2618545,0.7063355,-0.0042565,0.1494155,0.4778155,0.0288594999999999,0.2659255,0.7147954999999999,0.0034994999999999,-0.3000545,0.9860755,-0.0485825,0.2992855,0.9774655,-0.0387945,-0.0731505,0.0002275,0.0028434999999999,0.0731505,-0.0002274999999999,-0.0028435,-0.1219945,-0.3818145,-0.1239475,0.1321555,-0.4008845,-0.1145505,-0.1266344999999999,-0.7495845000000001,-0.0951025,0.1321955,-0.7490445,-0.0978075,1
86,-0.0050529999999999,0.71875,0.0287404999999999,-0.150663,0.49134,0.0303415,-0.262093,0.70652,-0.0090905,0.149387,0.47657,0.0258935,0.2664769999999999,0.71365,-0.0011175,-0.299613,0.98628,-0.0547295,0.300187,0.97469,-0.0454385,-0.0734259999999999,9.200000000000008e-05,0.0025885,0.0734259999999999,-9.200000000000008e-05,-0.0025885,-0.122733,-0.37345,-0.1342775,0.133717,-0.39245,-0.1254655,-0.125993,-0.73911,-0.0986035,0.132297,-0.73906,-0.1022525,1
87,-0.004566,0.717254,0.0255745,-0.150226,0.490774,0.0277904999999999,-0.261386,0.706374,-0.0136535,0.149674,0.475454,0.0232954999999999,0.267164,0.712724,-0.0054995,-0.298796,0.982054,-0.0611015,0.301054,0.972174,-0.0519265,-0.07361,-1.4000000000000123e-05,0.0023164999999999,0.07361,1.4000000000000123e-05,-0.0023164999999999,-0.123306,-0.365056,-0.1439635,0.1352539999999999,-0.383936,-0.1358965,-0.125496,-0.728926,-0.1025085,0.132524,-0.729026,-0.1069535,1
88,-0.004193,0.7156220000000001,0.022607,-0.149923,0.489902,0.025384,-0.260933,0.706272,-0.017868,0.149777,0.474132,0.020815,0.2676969999999999,0.711982,-0.0097509999999999,-0.298693,0.978322,-0.067274,0.301657,0.968832,-0.058197,-0.073772,-7.700000000000068e-05,0.0020809999999999,0.073772,7.700000000000068e-05,-0.0020809999999999,-0.124123,-0.356738,-0.153462,0.1364969999999999,-0.375608,-0.145972,-0.125203,-0.718618,-0.106303,0.1325569999999999,-0.7185879999999999,-0.111325,1
89,-0.0039424999999999,0.7143385,0.0200235,-0.1496924999999999,0.4886085,0.0232054999999999,-0.2606225,0.7065085,-0.0216674999999999,0.1497475,0.4730285,0.0185965,0.2681075,0.7087285,-0.0135165,-0.2986625,0.9754585,-0.0729155,0.3020974999999999,0.9654485,-0.0636055,-0.0738495,-0.0002225,0.0020545,0.0738495,0.0002225,-0.0020545,-0.1248624999999999,-0.3488615,-0.1623515,0.1376575,-0.3674015,-0.1555814999999999,-0.1249525,-0.7082615,-0.1096534999999999,0.1324175,-0.7081514999999999,-0.1152705,1
90,-0.0038979999999999,0.7123635,0.0177524999999999,-0.149495,0.4885435,0.0211335,-0.260395,0.7026235,-0.0246715,0.149785,0.4728035,0.0164944999999999,0.268405,0.7058235,-0.0161755,-0.298745,0.9713935,-0.0773205,0.302885,0.9541835,-0.0680485,-0.073907,-0.0002005,0.0019054999999999,0.073907,0.0002004999999999,-0.0019055,-0.125405,-0.3425765,-0.1693645,0.138435,-0.3592765,-0.1631945,-0.125545,-0.6983465,-0.1135955,0.1319449999999999,-0.6982165,-0.1187775,1
91,-0.003936,0.7111705,0.0153175,-0.149279,0.4876204999999999,0.0187155,-0.2599889999999999,0.7005705,-0.0279254999999999,0.149891,0.4721505,0.0141775,0.268621,0.7038205000000001,-0.0189314999999999,-0.2987889999999999,0.9624305,-0.0828305,0.303451,0.9455605,-0.0726835,-0.074049,-0.0002995,0.0017225,0.074049,0.0002995,-0.0017224999999999,-0.125819,-0.3348595,-0.1764725,0.139181,-0.3503895,-0.1709525,-0.126189,-0.6871594999999999,-0.1177074999999999,0.131461,-0.6872094999999999,-0.1224244999999999,1
92,-0.0041719999999999,0.7105184999999999,0.0133935,-0.1492889999999999,0.4857384999999999,0.0168065,-0.259609,0.6997185,-0.0305505,0.149721,0.4706685,0.0122584999999999,0.2685809999999999,0.7020485,-0.0211385,-0.299019,0.9550185,-0.0874485,0.303811,0.9437985,-0.0757055,-0.074245,-0.0003225,0.0015604999999999,0.074245,0.0003224999999999,-0.0015605,-0.126069,-0.3279915,-0.1815324999999999,0.139601,-0.3427015,-0.1769025,-0.127159,-0.6773615000000001,-0.1212105,0.130631,-0.6776015000000001,-0.1253935,1
93,-0.0042945,0.7097015,0.0115154999999999,-0.1491655,0.4851215,0.0149445,-0.2587755,0.6987915,-0.0334175,0.1495045,0.4696614999999999,0.0103744999999999,0.2685845,0.6994615,-0.0233195,-0.2990655,0.9488215,-0.0918945,0.3041245,0.9427015,-0.0786805,-0.0745214999999999,-0.0003454999999999,0.0014104999999999,0.0745214999999999,0.0003455,-0.0014105,-0.1263355,-0.3178485,-0.1866335,0.1400545,-0.3325585,-0.1828135,-0.1280754999999999,-0.6675085000000001,-0.1248595,0.1298245,-0.6671785,-0.1280125,1
94,-0.0046124999999999,0.7085385,0.009312,-0.1489455,0.4856385,0.012897,-0.2578955,0.6969384999999999,-0.036728,0.1492545,0.4701785,0.0083379999999999,0.2685545,0.6986785,-0.0258499999999999,-0.2991355,0.9440685,-0.096403,0.3041545,0.9418285,-0.082055,-0.0748205,-0.0003755,0.0013309999999999,0.0748205,0.0003755,-0.0013309999999999,-0.1267355,-0.3069115,-0.192147,0.1404845,-0.3216215,-0.188967,-0.1288955,-0.6567015,-0.128523,0.1289445,-0.6560915,-0.13026,1
95,-0.0047979999999999,0.7090095,0.0027194999999999,-0.14847,0.4842495,0.0056254999999999,-0.25679,0.6963695,-0.0445565,0.1493,0.4730395,0.0018394999999999,0.26835,0.6997095,-0.0329085,-0.2991,0.9418195,-0.1053885,0.3043,0.9424995,-0.0898705,-0.075106,-0.0004324999999999,0.0009995,0.075106,0.0004325,-0.0009995,-0.12694,-0.2939905,-0.2016815,0.14105,-0.3086905,-0.1995914999999999,-0.12925,-0.6438605000000001,-0.1360945,0.12823,-0.6429805000000001,-0.1367955,1
96,-0.0050114999999999,0.710065,-0.003891,-0.1473925,0.482815,-0.002111,-0.2564025,0.695905,-0.052354,0.1492175,0.472355,-0.005219,0.2681075,0.699995,-0.040303,-0.2992925,0.944915,-0.114032,0.3044875,0.943405,-0.097952,-0.0753264999999999,-0.0004649999999999,0.000573,0.0753264999999999,0.000465,-0.000573,-0.1279225,-0.282375,-0.215408,0.1419575,-0.295905,-0.212868,-0.1292525,-0.630365,-0.143499,0.1275575,-0.629205,-0.143436,1
97,-0.0052565,0.71174,-0.010721,-0.1463245,0.48283,-0.009801,-0.2562445,0.6952400000000001,-0.060147,0.1491855,0.47227,-0.012159,0.2680755,0.6997500000000001,-0.047753,-0.2992545,0.94704,-0.122783,0.3047055,0.94454,-0.106118,-0.0755045,-0.0004899999999999,8.800000000000474e-05,0.0755045,0.0004899999999999,-8.800000000000474e-05,-0.1289445,-0.2711,-0.228942,0.1429055,-0.28327,-0.225892,-0.1292045,-0.61711,-0.15105,0.1267855,-0.6155600000000001,-0.149742,1
98,-0.0055175,0.7127100000000001,-0.0175199999999999,-0.1452985,0.4829299999999999,-0.01756,-0.2561585,0.6952400000000001,-0.06776,0.1491015,0.47274,-0.018979,0.2679815,0.70292,-0.055215,-0.2992985,0.94948,-0.130356,0.3047415,0.94748,-0.114198,-0.0756545,-0.0004899999999999,-0.0003829999999999,0.0756545,0.0004899999999999,0.0003829999999999,-0.1301785,-0.2587399999999999,-0.242442,0.1439315,-0.2694499999999999,-0.238632,-0.1290885,-0.60326,-0.15809,0.1259615,-0.6013499999999999,-0.155709,1
99,-0.006007,0.7138399999999999,-0.0240695,-0.144225,0.4821,-0.0258895,-0.256115,0.69906,-0.0756425,0.148895,0.47182,-0.0264605,0.267795,0.70516,-0.0626215,-0.299295,0.95343,-0.1376455,0.304245,0.95466,-0.1218335,-0.075792,-0.00039,-0.0008294999999999,0.075792,0.00039,0.0008294999999999,-0.131605,-0.242,-0.2569755,0.145455,-0.25159,-0.2523855,-0.129045,-0.5859500000000001,-0.1640595,0.125435,-0.58321,-0.1608585,1
100,-0.0065449999999999,0.7147049999999999,-0.0302225,-0.143172,0.481085,-0.0341965,-0.255942,0.702075,-0.0834245,0.148728,0.471305,-0.0336405,0.267598,0.706845,-0.0695935,-0.299702,0.963145,-0.1436195,0.303878,0.958785,-0.1290825,-0.0758689999999999,-0.000255,-0.0012344999999999,0.0758689999999999,0.000255,0.0012344999999999,-0.133062,-0.226725,-0.2711735,0.147038,-0.235125,-0.2656035,-0.128852,-0.5698049999999999,-0.1695225,0.124988,-0.5663849999999999,-0.1655415,1
101,-0.0072209999999999,0.715165,-0.0361614999999999,-0.142305,0.479285,-0.0421514999999999,-0.255835,0.705225,-0.0913025,0.148585,0.471665,-0.0403684999999999,0.267845,0.708235,-0.0765425,-0.300325,0.972575,-0.1495965,0.303255,0.962135,-0.1360115,-0.075922,-0.000285,-0.0016274999999999,0.075922,0.000285,0.0016275,-0.134555,-0.211725,-0.2850085,0.148585,-0.219625,-0.2784185,-0.128745,-0.553825,-0.1747584999999999,0.124635,-0.549605,-0.1701705,1
102,-0.008007,0.715715,-0.0418365,-0.141385,0.477905,-0.0497675,-0.2567049999999999,0.708685,-0.0989585,0.148285,0.471965,-0.0468225,0.267915,0.710225,-0.0834665,-0.300975,0.981415,-0.1558975,0.302255,0.963045,-0.1428145,-0.075977,-0.0002949999999999,-0.0019845,0.075977,0.000295,0.0019845,-0.135945,-0.196405,-0.2989055,0.150455,-0.204225,-0.2911655,-0.127505,-0.537835,-0.1798165,0.124355,-0.532725,-0.1746355,1
103,-0.0085005,0.71697,-0.047314,-0.1407735,0.47579,-0.05715,-0.2575135,0.71331,-0.10626,0.1480365,0.4715,-0.053093,0.2682265,0.7135100000000001,-0.089819,-0.3014535,0.98908,-0.162194,0.3015365,0.96327,-0.149003,-0.0761005,-0.0002899999999999,-0.002445,0.0761005,0.00029,0.002445,-0.1371835,-0.1813599999999999,-0.312395,0.1522965,-0.18871,-0.303495,-0.1260535,-0.52244,-0.184537,0.1241265,-0.51639,-0.1787,1
104,-0.0092804999999999,0.71696,-0.048891,-0.1405254999999999,0.47538,-0.059838,-0.2585754999999999,0.71658,-0.109657,0.1474945,0.46846,-0.05549,0.2681745,0.7143999999999999,-0.092317,-0.3021155,0.99419,-0.164574,0.3007345,0.96129,-0.150867,-0.0761945,-0.00023,-0.0025,0.0761945,0.00023,0.0025,-0.1386055,-0.16814,-0.32191,0.1539145,-0.17509,-0.31151,-0.1247455,-0.5089,-0.185266,0.1238345,-0.50187,-0.17892,1
105,-0.010163,0.716575,-0.050688,-0.1403039999999999,0.475765,-0.062256,-0.259954,0.720305,-0.1131679999999999,0.147106,0.469105,-0.057599,0.268086,0.7154849999999999,-0.094655,-0.303754,0.992995,-0.1688029999999999,0.3005159999999999,0.957545,-0.152503,-0.07626,-8.500000000000174e-05,-0.0023999999999999,0.07626,8.500000000000174e-05,0.0023999999999999,-0.139224,-0.155725,-0.32702,0.155046,-0.161585,-0.3167299999999999,-0.123474,-0.496795,-0.186199,0.123566,-0.488495,-0.179397,1
106,-0.0111475,0.714205,-0.05222,-0.1401055,0.474805,-0.064986,-0.2616455,0.718305,-0.11668,0.1467045,0.469085,-0.059857,0.2680344999999999,0.717085,-0.097165,-0.3056554999999999,0.991545,-0.173026,0.3005244999999999,0.954115,-0.153983,-0.0762835,-7.500000000004725e-05,-0.0023299999999999,0.0762835,7.499999999999174e-05,0.0023299999999999,-0.1398255,-0.142175,-0.33231,0.1560745,-0.147285,-0.3218999999999999,-0.1222254999999999,-0.4845750000000001,-0.186749,0.1232745,-0.474615,-0.179729,1
107,-0.011958,0.712945,-0.053676,-0.139785,0.474805,-0.067344,-0.263435,0.716775,-0.120186,0.146285,0.467865,-0.062211,0.268145,0.718125,-0.09932,-0.307545,0.990175,-0.177434,0.300785,0.950795,-0.155127,-0.076321,2.500000000005276e-05,-0.002455,0.076321,-2.4999999999997247e-05,0.0024549999999999,-0.140135,-0.128405,-0.337055,0.157065,-0.132955,-0.326625,-0.121015,-0.472525,-0.187137,0.123195,-0.4609649999999999,-0.179861,1
108,-0.01277,0.71227,-0.055646,-0.14023,0.4740799999999999,-0.0695,-0.26398,0.7170300000000001,-0.12362,0.14563,0.46753,-0.064282,0.26817,0.71727,-0.101923,-0.30967,0.98601,-0.182309,0.30096,0.94841,-0.156881,-0.076322,-5.000000000005e-05,-0.00257,0.076322,4.999999999999449e-05,0.0025699999999999,-0.1403,-0.12054,-0.34019,0.15741,-0.12444,-0.32984,-0.12025,-0.46289,-0.187936,0.12287,-0.451,-0.180266,1
109,-0.0134035,0.711095,-0.057728,-0.1406325,0.474275,-0.071309,-0.2641925,0.716405,-0.126673,0.1451475,0.467375,-0.066167,0.2682975,0.7162250000000001,-0.104482,-0.3112525,0.980405,-0.187022,0.3013075,0.946685,-0.158718,-0.0763715,-9.499999999995624e-05,-0.002725,0.0763715,9.500000000001174e-05,0.0027249999999999,-0.1402725,-0.1132949999999999,-0.342865,0.1578075,-0.1165149999999999,-0.332505,-0.1192425,-0.453855,-0.188748,0.1226575,-0.4415949999999999,-0.181005,1
110,-0.0138529999999999,0.71068,-0.059809,-0.141057,0.47555,-0.07299,-0.264197,0.71221,-0.129274,0.144753,0.46674,-0.067979,0.268563,0.71518,-0.106924,-0.312497,0.97405,-0.191732,0.301813,0.94498,-0.160589,-0.076431,4.999999999999449e-05,-0.00289,0.076431,-4.999999999999449e-05,0.0028899999999999,-0.140157,-0.1061499999999999,-0.34538,0.158313,-0.1087799999999999,-0.33496,-0.118247,-0.44494,-0.189374,0.122543,-0.43226,-0.181591,1
111,-0.0141284999999999,0.70977,-0.062178,-0.1416075,0.4749299999999999,-0.07494,-0.2644474999999999,0.70584,-0.131757,0.1445925,0.46662,-0.069834,0.2689825,0.71286,-0.109309,-0.3136274999999999,0.96696,-0.196101,0.3028225,0.94491,-0.162497,-0.0765725,2.000000000002e-05,-0.003005,0.0765725,-2.000000000002e-05,0.0030049999999999,-0.1399575,-0.09871,-0.347785,0.1588625,-0.10097,-0.337125,-0.1172275,-0.43621,-0.18962,0.1222825,-0.4233499999999999,-0.182472,1
112,-0.0144025,0.707955,-0.0643489999999999,-0.1420355,0.474145,-0.07689,-0.2641055,0.699355,-0.13368,0.1445644999999999,0.466285,-0.07167,0.2694845,0.7095750000000001,-0.111646,-0.3141954999999999,0.959705,-0.1996939999999999,0.3035345,0.944285,-0.1641449999999999,-0.0767025,1.4999999999987246e-05,-0.0031599999999999,0.0767025,-1.4999999999987246e-05,0.0031599999999999,-0.1395755,-0.092015,-0.34997,0.1594545,-0.0938249999999999,-0.33911,-0.1161955,-0.4283849999999999,-0.189993,0.1220145,-0.415445,-0.183602,1
113,-0.0146125,0.7061599999999999,-0.066312,-0.1425275,0.4728699999999999,-0.078803,-0.2638975,0.6934199999999999,-0.135361,0.1447225,0.4656399999999999,-0.073274,0.2698724999999999,0.70685,-0.113618,-0.3148275,0.95297,-0.205281,0.3041724999999999,0.9445,-0.165776,-0.0768235,-8.00000000000245e-05,-0.00342,0.0768235,7.999999999996898e-05,0.00342,-0.1389874999999999,-0.08503,-0.35197,0.1599725,-0.08651,-0.34069,-0.1149874999999999,-0.42059,-0.19045,0.1216725,-0.40785,-0.184162,1
114,-0.0147645,0.703835,-0.068388,-0.1431615,0.470975,-0.081008,-0.2638215,0.6880850000000001,-0.137397,0.1448085,0.465015,-0.075111,0.2701985,0.704115,-0.115608,-0.3147915,0.952505,-0.208014,0.3048385,0.946105,-0.167525,-0.0769165,-0.0002949999999999,-0.0036299999999999,0.0769165,0.0002949999999999,0.0036299999999999,-0.1383015,-0.0770449999999999,-0.35419,0.1601985,-0.0776949999999999,-0.34236,-0.1134715,-0.4117349999999999,-0.1908949999999999,0.1212485,-0.399745,-0.185824,1
115,-0.014705,0.7032400000000001,-0.070484,-0.143473,0.46984,-0.082909,-0.263603,0.68502,-0.139343,0.144707,0.464242,-0.076948,0.2705369999999999,0.70162,-0.117315,-0.314493,0.94931,-0.210645,0.3055569999999999,0.94322,-0.16909,-0.07705,-0.0003999999999999,-0.003865,0.07705,0.0004,0.0038649999999999,-0.137543,-0.0688999999999999,-0.356275,0.160467,-0.0686599999999999,-0.343825,-0.112053,-0.40283,-0.191037,0.120307,-0.39237,-0.188276,1
116,-0.0147069999999999,0.7013750000000001,-0.0721769999999999,-0.143664,0.468304,-0.084567,-0.263494,0.6817850000000001,-0.140991,0.144816,0.464342,-0.078095,0.271116,0.698715,-0.119066,-0.3142439999999999,0.946115,-0.212965,0.3064059999999999,0.940365,-0.170867,-0.077238,-0.0006149999999999,-0.0040749999999999,0.077238,0.000615,0.0040749999999999,-0.136824,-0.0605549999999999,-0.358215,0.160596,-0.0594649999999999,-0.344955,-0.110914,-0.393795,-0.190857,0.119556,-0.3852049999999999,-0.191344,1
117,-0.0146745,0.7001949999999999,-0.073391,-0.1438955,0.4673799999999999,-0.085392,-0.2634154999999999,0.677925,-0.142152,0.1449744999999999,0.463248,-0.0788389999999999,0.2716645,0.698725,-0.120115,-0.3140655,0.946235,-0.214605,0.3071245,0.939475,-0.172155,-0.0775085,-0.000665,-0.0044249999999999,0.0775085,0.0006649999999999,0.0044249999999999,-0.1362455,-0.0523649999999999,-0.3597249999999999,0.1606044999999999,-0.050715,-0.345705,-0.1099455,-0.385155,-0.190356,0.1192145,-0.378325,-0.19526,1
118,-0.014598,0.698955,-0.074165,-0.143972,0.465735,-0.086227,-0.263492,0.674345,-0.143283,0.145208,0.462426,-0.079603,0.272138,0.698615,-0.121291,-0.313972,0.947475,-0.216135,0.307778,0.937535,-0.173499,-0.0778679999999999,-0.0007449999999999,-0.004765,0.0778679999999999,0.0007449999999999,0.004765,-0.135702,-0.0433649999999999,-0.361085,0.160518,-0.041235,-0.346485,-0.109142,-0.376185,-0.189857,0.1196079999999999,-0.371485,-0.199841,1
119,-0.0144199999999999,0.69687,-0.0749749999999999,-0.144154,0.46322,-0.08706,-0.2634939999999999,0.67186,-0.144393,0.1454659999999999,0.461448,-0.080408,0.272566,0.69891,-0.1225029999999999,-0.314114,0.94663,-0.21835,0.308656,0.93523,-0.174813,-0.0782009999999999,-0.0008699999999999,-0.0050699999999999,0.0782009999999999,0.00087,0.00507,-0.135014,-0.0327699999999999,-0.36223,0.160336,-0.03014,-0.34733,-0.1084439999999999,-0.36593,-0.1894409999999999,0.120096,-0.36343,-0.2037359999999999,1
120,-0.0142005,0.69556,-0.075795,-0.1441985,0.462382,-0.0878979999999999,-0.2632385,0.67099,-0.145641,0.1457815,0.461006,-0.0808909999999999,0.2732414999999999,0.69939,-0.1235319999999999,-0.3143285,0.94569,-0.22053,0.3091615,0.93121,-0.1759029999999999,-0.0784915,-0.0008799999999999,-0.0053799999999999,0.0784915,0.0008799999999999,0.00538,-0.1341485,-0.02198,-0.36322,0.1599215,-0.01899,-0.34813,-0.1081085,-0.35556,-0.189869,0.1192115,-0.35556,-0.205399,1
121,-0.0138974999999999,0.693845,-0.076474,-0.1443805,0.4608859999999999,-0.088632,-0.2629105,0.670495,-0.146678,0.1460495,0.45985,-0.080979,0.2736795,0.700475,-0.124279,-0.3146104999999999,0.945135,-0.222855,0.3095595,0.927785,-0.17671,-0.0787325,-0.0009149999999999,-0.0056449999999999,0.0787325,0.0009149999999999,0.0056449999999999,-0.1332205,-0.010375,-0.363935,0.1594094999999999,-0.007035,-0.348765,-0.1078005,-0.344235,-0.190624,0.1180995,-0.347035,-0.2067709999999999,1
122,-0.0137305,0.69148,-0.0765809999999999,-0.1443835,0.459737,-0.0890799999999999,-0.2633235,0.66987,-0.1477359999999999,0.1461865,0.458985,-0.0807219999999999,0.2740565,0.7012499999999999,-0.1248239999999999,-0.3150135,0.94445,-0.2250849999999999,0.3098265,0.92305,-0.177225,-0.0789675,-0.0008299999999999,-0.0058349999999999,0.0789675,0.0008299999999999,0.005835,-0.1322135,0.001,-0.364455,0.1586665,0.0047099999999999,-0.349085,-0.1076034999999999,-0.33307,-0.1911939999999999,0.1170565,-0.33856,-0.2083149999999999,1
123,-0.0137309999999999,0.68894,-0.076363,-0.144395,0.458722,-0.088907,-0.2644749999999999,0.6686799999999999,-0.1489,0.146165,0.45804,-0.080176,0.274375,0.70126,-0.125117,-0.315555,0.94321,-0.227105,0.309925,0.91794,-0.177529,-0.079177,-0.0007199999999999,-0.005915,0.079177,0.0007199999999999,0.005915,-0.1312749999999999,0.0119199999999999,-0.364765,0.157955,0.01583,-0.348975,-0.108065,-0.32256,-0.191597,0.116255,-0.3302,-0.210255,1
124,-0.0139064999999999,0.68653,-0.075805,-0.1447024999999999,0.457399,-0.088456,-0.2659325,0.67139,-0.150243,0.1458975,0.457674,-0.079361,0.2745875,0.6987,-0.124958,-0.3162825,0.93972,-0.22939,0.3099675,0.91611,-0.177477,-0.0794765,-0.0007099999999999,-0.00584,0.0794765,0.0007099999999999,0.0058399999999999,-0.1304324999999999,0.0232899999999999,-0.36486,0.1571275,0.02733,-0.34859,-0.1097825,-0.31159,-0.193015,0.1155674999999999,-0.32096,-0.213664,1
125,-0.0138854999999999,0.68485,-0.075047,-0.1449545,0.455649,-0.087732,-0.2667545,0.67303,-0.151087,0.1456655,0.456913,-0.078412,0.2750255,0.69658,-0.124587,-0.3167545,0.93542,-0.231385,0.3101055,0.91332,-0.1770499999999999,-0.0796865,-0.0006599999999999,-0.0057949999999999,0.0796865,0.0006599999999999,0.0057949999999999,-0.1297045,0.0335699999999999,-0.364645,0.1565455,0.03761,-0.347945,-0.1116645,-0.30173,-0.194685,0.1155055,-0.31214,-0.215885,1
126,-0.0137205,0.682565,-0.073981,-0.1452255,0.454274,-0.086891,-0.2675654999999999,0.6747650000000001,-0.151684,0.1458045,0.457192,-0.076994,0.2755545,0.693925,-0.123925,-0.3170155,0.931495,-0.23318,0.3103645,0.910825,-0.176625,-0.0799195,-0.000585,-0.00579,0.0799195,0.000585,0.0057899999999999,-0.1290455,0.0434749999999999,-0.36414,0.1560345,0.0477449999999999,-0.34723,-0.1140755,-0.292235,-0.197041,0.1158245,-0.303745,-0.21744,1
127,-0.0134414999999999,0.6804,-0.072861,-0.1454734999999999,0.453611,-0.0859149999999999,-0.2682535,0.67679,-0.152306,0.1461965,0.4572429999999999,-0.0752029999999999,0.2759864999999999,0.69191,-0.1231889999999999,-0.3173835,0.92786,-0.23517,0.3110365,0.90998,-0.17656,-0.0802295,-0.0004,-0.0058,0.0802295,0.0003999999999999,0.0058,-0.1284334999999999,0.0534799999999999,-0.36307,0.1554765,0.0579899999999999,-0.34634,-0.1166135,-0.28259,-0.199666,0.1153165,-0.29297,-0.2145409999999999,1
128,-0.0130675,0.6786,-0.071509,-0.1456735,0.45382,-0.084863,-0.2689235,0.67729,-0.152919,0.1466865,0.457325,-0.073523,0.2761665,0.68948,-0.122019,-0.3175935,0.92691,-0.236,0.3115365,0.91011,-0.176389,-0.0802654999999999,-0.0001299999999999,-0.0056599999999999,0.0802654999999999,0.0001299999999999,0.0056599999999999,-0.1277435,0.06306,-0.36152,0.1551364999999999,0.06791,-0.34511,-0.1209735,-0.2748199999999999,-0.206012,0.1150465,-0.2846499999999999,-0.214421,1
129,-0.0126799999999999,0.676385,-0.070092,-0.145872,0.453605,-0.083714,-0.269472,0.678135,-0.153229,0.147218,0.457277,-0.071742,0.276128,0.687445,-0.120406,-0.317852,0.926155,-0.236585,0.311988,0.911175,-0.176063,-0.080188,0.0001149999999999,-0.005365,0.080188,-0.0001149999999999,0.0053649999999999,-0.127102,0.072105,-0.359815,0.154738,0.077255,-0.343625,-0.125432,-0.2675649999999999,-0.212288,0.114348,-0.2771949999999999,-0.213668,1
130,-0.0123595,0.67537,-0.068663,-0.1461815,0.45416,-0.082458,-0.2705114999999999,0.6798299999999999,-0.153619,0.1476184999999999,0.457695,-0.069994,0.2760485,0.68497,-0.118471,-0.3183014999999999,0.92508,-0.236945,0.3123485,0.91211,-0.17556,-0.0799904999999999,0.00036,-0.0049649999999999,0.0799904999999999,-0.00036,0.0049649999999999,-0.1265715,0.08078,-0.357835,0.1542685,0.08633,-0.3419149999999999,-0.1299415,-0.2603299999999999,-0.218415,0.1134985,-0.26879,-0.206229,1
131,-0.012045,0.67459,-0.066939,-0.146589,0.455081,-0.080945,-0.271679,0.68127,-0.153763,0.147901,0.458113,-0.068098,0.275911,0.68148,-0.116129,-0.318599,0.92321,-0.236925,0.312391,0.90864,-0.173897,-0.079786,0.0008,-0.004475,0.079786,-0.0008,0.0044749999999999,-0.1261489999999999,0.08921,-0.355655,0.153771,0.09542,-0.339875,-0.134719,-0.25332,-0.224335,0.112131,-0.26217,-0.199336,1
132,-0.0117355,0.674215,-0.065306,-0.1469835,0.456102,-0.079328,-0.2728635,0.6831550000000001,-0.15372,0.1480665,0.459021,-0.066062,0.2757565,0.6799350000000001,-0.1138749999999999,-0.3190635,0.922135,-0.236765,0.3125465,0.906895,-0.172258,-0.0795345,0.001005,-0.0039249999999999,0.0795345,-0.0010049999999999,0.0039249999999999,-0.1255735,0.098325,-0.352745,0.1533264999999999,0.105455,-0.3372549999999999,-0.1387435,-0.2457049999999999,-0.229235,0.1105364999999999,-0.2544549999999999,-0.192033,1
133,-0.011521,0.6734100000000001,-0.063683,-0.147427,0.457589,-0.077689,-0.274017,0.68413,-0.15362,0.148203,0.459546,-0.064035,0.275563,0.68037,-0.112208,-0.319477,0.92657,-0.236255,0.3125329999999999,0.90693,-0.17072,-0.079315,0.0011999999999999,-0.003385,0.079315,-0.0011999999999999,0.0033849999999999,-0.1251769999999999,0.10698,-0.349635,0.152943,0.1149999999999999,-0.334405,-0.142007,-0.2385899999999999,-0.232635,0.108263,-0.24726,-0.184876,1
134,-0.0112969999999999,0.672625,-0.062153,-0.147797,0.459261,-0.0760629999999999,-0.275077,0.684565,-0.153616,0.148223,0.46,-0.062099,0.274883,0.680795,-0.11064,-0.319727,0.930515,-0.23579,0.312523,0.906985,-0.169392,-0.079133,0.001395,-0.0028799999999999,0.079133,-0.001395,0.00288,-0.124757,0.115325,-0.34643,0.1526529999999999,0.124305,-0.33145,-0.145277,-0.2320949999999999,-0.23596,0.1069199999999999,-0.2404849999999999,-0.179035,1
135,-0.011184,0.672185,-0.061039,-0.148228,0.460769,-0.074466,-0.275988,0.6859649999999999,-0.153741,0.147982,0.4607009999999999,-0.060415,0.274162,0.681235,-0.109412,-0.3198979999999999,0.933495,-0.23608,0.312462,0.906325,-0.168348,-0.078981,0.0014049999999999,-0.00242,0.078981,-0.0014049999999999,0.0024199999999999,-0.124278,0.1233349999999999,-0.34329,0.152362,0.1332249999999999,-0.32843,-0.1491279999999999,-0.226555,-0.23945,0.105949,-0.234535,-0.175715,1
136,-0.0112165,0.67196,-0.060082,-0.1486215,0.4620599999999999,-0.072976,-0.2756015,0.68404,-0.152922,0.1478485,0.4613199999999999,-0.058989,0.2740485,0.68123,-0.108341,-0.3195815,0.93548,-0.23549,0.3126285,0.90693,-0.167852,-0.0786945,0.00134,-0.0020499999999999,0.0786945,-0.00134,0.0020499999999999,-0.1236515,0.1306199999999999,-0.34037,0.1521385,0.1409699999999999,-0.32562,-0.1530015,-0.22203,-0.24323,0.1053925,-0.22982,-0.172835,1
137,-0.0111945,0.67183,-0.0593489999999999,-0.1490355,0.46298,-0.071793,-0.2761255,0.68506,-0.1529829999999999,0.1478445,0.46196,-0.0578169999999999,0.2740645,0.68067,-0.107613,-0.3196455,0.93704,-0.2360199999999999,0.3128045,0.90601,-0.1674739999999999,-0.0784895,0.00119,-0.0018199999999999,0.0784895,-0.00119,0.00182,-0.1231755,0.1365799999999999,-0.3378299999999999,0.1520545,0.1472,-0.3232,-0.1549455,-0.21779,-0.24352,0.1046354999999999,-0.2263399999999999,-0.169588,1
138,-0.011195,0.671749,-0.058653,-0.149531,0.46338,-0.070719,-0.275581,0.6857700000000001,-0.152115,0.1478189999999999,0.46237,-0.056815,0.273979,0.6800700000000001,-0.107085,-0.319381,0.93823,-0.23555,0.312849,0.90493,-0.1671429999999999,-0.078318,0.00106,-0.0015899999999999,0.078318,-0.0010599999999999,0.00159,-0.122861,0.1419,-0.33543,0.151949,0.1528100000000001,-0.32096,-0.1570909999999999,-0.2140199999999998,-0.24391,0.103624,-0.2234599999999998,-0.166266,1
139,-0.0111614999999999,0.671616,-0.058157,-0.1500314999999999,0.463475,-0.069773,-0.2748815,0.685955,-0.151162,0.1477685,0.462815,-0.055912,0.2737385,0.679325,-0.106704,-0.3191914999999999,0.938955,-0.235105,0.3127785,0.903355,-0.1669479999999999,-0.0781785,0.0008749999999999,-0.001445,0.0781785,-0.0008749999999999,0.001445,-0.1225714999999999,0.146525,-0.333285,0.1518685,0.157615,-0.318975,-0.1592914999999999,-0.2109349999999999,-0.244405,0.1032345,-0.220535,-0.16605,1
140,-0.0112655,0.671477,-0.057973,-0.1506645,0.463235,-0.06905,-0.2753145,0.682185,-0.150638,0.1475255,0.463385,-0.055163,0.2731155,0.679419,-0.106538,-0.3197445,0.937765,-0.23549,0.3125155,0.905235,-0.167228,-0.0781445,0.000425,-0.00139,0.0781445,-0.000425,0.00139,-0.1224145,0.150605,-0.33132,0.1515555,0.161685,-0.31736,-0.1614345,-0.208165,-0.24505,0.1027444999999999,-0.218315,-0.165995,1
141,-0.0114804999999999,0.671509,-0.0579469999999999,-0.1514025,0.46283,-0.0685329999999999,-0.2757325,0.677242,-0.150188,0.1471375,0.46349,-0.0546629999999999,0.2722974999999999,0.678367,-0.1064459999999999,-0.3203925,0.93547,-0.23603,0.3123174999999999,0.90612,-0.1676559999999999,-0.0781405,0.0002199999999999,-0.0013799999999999,0.0781405,-0.0002199999999999,0.00138,-0.1224524999999999,0.15323,-0.32997,0.1512575,0.16406,-0.31627,-0.1635825,-0.20704,-0.24602,0.1022855,-0.2173399999999999,-0.165984,1
142,-0.0117674999999999,0.6720539999999999,-0.057956,-0.1520845,0.4622249999999999,-0.068176,-0.2761045,0.671658,-0.14982,0.1466855,0.4635749999999999,-0.054313,0.2714455,0.6771989999999999,-0.106493,-0.3210845,0.933215,-0.23672,0.3121155,0.906275,-0.16834,-0.0781495,6.499999999998174e-05,-0.00137,0.0781495,-6.500000000009276e-05,0.0013699999999999,-0.1225044999999999,0.1548249999999999,-0.32903,0.1509555,0.1655549999999999,-0.31562,-0.1655445,-0.206635,-0.24694,0.1020975,-0.217145,-0.167928,1
143,-0.01225,0.6723939999999999,-0.0580009999999999,-0.152798,0.461425,-0.0679729999999999,-0.276208,0.6651649999999999,-0.148536,0.146222,0.4637449999999999,-0.0542569999999999,0.270582,0.6763939999999999,-0.1065629999999999,-0.321518,0.929025,-0.236735,0.311872,0.906745,-0.169756,-0.078176,-7.500000000004725e-05,-0.0013549999999999,0.078176,7.499999999993623e-05,0.001355,-0.122568,0.1560549999999999,-0.328365,0.150532,0.1667049999999999,-0.3152749999999999,-0.167548,-0.2065450000000001,-0.247885,0.101776,-0.217045,-0.170046,1
144,-0.012728,0.672439,-0.058109,-0.153483,0.46043,-0.0679289999999999,-0.276313,0.65894,-0.147232,0.145867,0.46379,-0.054314,0.269967,0.675766,-0.106692,-0.321913,0.92461,-0.23674,0.311537,0.90693,-0.17082,-0.078202,-0.00012,-0.00138,0.078202,0.00012,0.00138,-0.1226029999999999,0.15632,-0.3281,0.150287,0.16681,-0.31533,-0.168933,-0.2068099999999999,-0.24875,0.101632,-0.21728,-0.172158,1
145,-0.013111,0.672521,-0.0584399999999999,-0.153896,0.46043,-0.0680099999999999,-0.274986,0.654766,-0.1455989999999999,0.145594,0.46379,-0.0543869999999999,0.2695039999999999,0.675766,-0.106871,-0.322426,0.92144,-0.23696,0.311284,0.90766,-0.1719649999999999,-0.078203,-0.00012,-0.0013799999999999,0.078203,0.00012,0.00138,-0.122566,0.15633,-0.32815,0.150144,0.16682,-0.31539,-0.169266,-0.20706,-0.24935,0.1018439999999999,-0.21718,-0.1743859999999999,1
146,-0.0135424999999999,0.6729390000000001,-0.059009,-0.1540975,0.46031,-0.068096,-0.2748775,0.654496,-0.145664,0.1454825,0.46386,-0.054466,0.2694525,0.675639,-0.107579,-0.3228775,0.92117,-0.237935,0.3110125,0.90813,-0.173317,-0.0782275,-0.0001999999999999,-0.001375,0.0782275,0.0001999999999999,0.001375,-0.1225874999999999,0.15606,-0.328225,0.1501025,0.16655,-0.315465,-0.1691575,-0.20733,-0.249415,0.1019525,-0.2169999999999999,-0.174451,1
147,-0.0140174999999999,0.673679,-0.05969,-0.1541455,0.460245,-0.068157,-0.2756355,0.6545030000000001,-0.145991,0.1453545,0.463875,-0.054649,0.2693345,0.675574,-0.108447,-0.3232155,0.921105,-0.23833,0.3104845,0.909595,-0.1747179999999999,-0.0782675,-0.0002649999999999,-0.00135,0.0782675,0.000265,0.0013499999999999,-0.1227755,0.155995,-0.3282899999999999,0.1499745,0.166485,-0.31562,-0.1691154999999999,-0.207395,-0.24947,0.1020885,-0.2170649999999999,-0.175933,1
148,-0.0141024999999999,0.674059,-0.0607049999999999,-0.1538555,0.459515,-0.06878,-0.2760455,0.656012,-0.1474,0.1455145,0.463405,-0.0552219999999999,0.2692645,0.674896,-0.110113,-0.3232854999999999,0.920015,-0.2386499999999999,0.3102345,0.912295,-0.177723,-0.0784495,-0.0001149999999999,-0.00132,0.0784495,0.0001149999999999,0.00132,-0.1228155,0.1547549999999999,-0.32892,0.1501144999999999,0.165395,-0.31618,-0.1688555,-0.208485,-0.24956,0.1030235,-0.217605,-0.177327,1
149,-0.0140339999999999,0.6741409999999999,-0.062724,-0.1533729999999999,0.4585349999999999,-0.070246,-0.275733,0.658589,-0.149485,0.145927,0.4619649999999999,-0.056477,0.269337,0.675025,-0.1131129999999999,-0.323883,0.918295,-0.239735,0.310217,0.913765,-0.181409,-0.078596,1.4999999999987246e-05,-0.001485,0.078596,-1.5000000000098268e-05,0.001485,-0.1226829999999999,0.1510049999999999,-0.330775,0.150417,0.1616149999999999,-0.3177149999999999,-0.166173,-0.210245,-0.2475149999999999,0.1033429999999999,-0.2201550000000001,-0.177848,1
150,-0.0136475,0.673947,-0.0649859999999999,-0.1528014999999999,0.4588799999999999,-0.072207,-0.2742815,0.658497,-0.150372,0.1463284999999999,0.4602199999999999,-0.0580869999999999,0.2695085,0.6764899999999999,-0.116712,-0.3244315,0.91884,-0.241345,0.3102284999999999,0.91504,-0.185414,-0.0787365,0.0003199999999999,-0.0017249999999999,0.0787365,-0.0003199999999999,0.001725,-0.1224515,0.1462699999999999,-0.333125,0.1507985,0.1567499999999999,-0.319525,-0.1631715,-0.21271,-0.245445,0.1050215,-0.22347,-0.180705,1
151,-0.0129999999999999,0.674625,-0.0676,-0.1519879999999999,0.459385,-0.07479,-0.273798,0.665676,-0.154415,0.146792,0.458155,-0.060284,0.269792,0.679695,-0.1209939999999999,-0.324878,0.923395,-0.2446749999999999,0.310062,0.916575,-0.189658,-0.0788639999999999,0.0006249999999999,-0.0021349999999999,0.0788639999999999,-0.0006249999999999,0.0021349999999999,-0.1221179999999999,0.140305,-0.336035,0.151252,0.150465,-0.321705,-0.1594479999999999,-0.2161949999999999,-0.2436149999999999,0.107552,-0.2277949999999999,-0.185786,1
152,-0.0124459999999999,0.675765,-0.070916,-0.151131,0.459215,-0.07789,-0.271671,0.665705,-0.157159,0.1470989999999999,0.454365,-0.0629339999999999,0.269869,0.681115,-0.125699,-0.324681,0.925025,-0.24726,0.309569,0.918365,-0.194403,-0.0787499999999999,0.000835,-0.0029799999999999,0.0787499999999999,-0.000835,0.0029799999999999,-0.121961,0.131455,-0.33991,0.151639,0.141255,-0.32437,-0.153331,-0.2222549999999999,-0.23822,0.108343,-0.2334049999999999,-0.187475,1
153,-0.0119804999999999,0.67815,-0.074316,-0.1503275,0.4596869999999999,-0.081055,-0.2707875,0.67075,-0.161756,0.1473525,0.4518999999999999,-0.066064,0.2698925,0.68411,-0.130723,-0.3242675,0.93016,-0.25088,0.3089025,0.92084,-0.199433,-0.0784405,0.0010299999999999,-0.00389,0.0784405,-0.0010299999999999,0.00389,-0.1217474999999999,0.1212099999999999,-0.34415,0.1520625,0.13071,-0.32715,-0.1470874999999999,-0.2296599999999999,-0.2323,0.1090365,-0.23926,-0.1891189999999999,1
154,-0.0115315,0.679065,-0.07751,-0.1494835,0.460576,-0.084242,-0.2698735,0.6742049999999999,-0.165586,0.1475965,0.4490159999999999,-0.069203,0.2697565,0.686735,-0.135653,-0.3238535,0.933515,-0.254295,0.3081165,0.925535,-0.204725,-0.0781095,0.0013649999999999,-0.0048249999999999,0.0781095,-0.001365,0.0048249999999999,-0.1215535,0.109545,-0.348615,0.1524965,0.1187649999999999,-0.330035,-0.1406235,-0.238385,-0.226235,0.1100505,-0.245955,-0.190583,1
155,-0.0109945,0.68233,-0.080907,-0.1487355,0.463115,-0.087812,-0.2696255,0.67961,-0.169913,0.1475344999999999,0.449114,-0.073063,0.2696044999999999,0.69078,-0.140424,-0.3236455,0.93417,-0.25776,0.3067045,0.93037,-0.209987,-0.0780895,0.0015899999999999,-0.00565,0.0780895,-0.0015899999999999,0.0056499999999999,-0.1213355,0.09589,-0.35105,0.1527145,0.1043999999999999,-0.33255,-0.1340755,-0.2501099999999999,-0.22065,0.1122944999999999,-0.25554,-0.193443,1
156,-0.0110299999999999,0.6859949999999999,-0.0841249999999999,-0.147903,0.4658339999999999,-0.0902909999999999,-0.268603,0.684655,-0.17214,0.147357,0.4509649999999999,-0.0765329999999999,0.2694069999999999,0.693645,-0.144616,-0.323233,0.939255,-0.2609399999999999,0.305247,0.938705,-0.214686,-0.078057,0.0016249999999999,-0.0061399999999999,0.078057,-0.0016249999999999,0.00614,-0.121253,0.080175,-0.35231,0.152807,0.0886849999999999,-0.3338,-0.127223,-0.263525,-0.214851,0.114577,-0.266665,-0.195473,1
157,-0.0111284999999999,0.68957,-0.087059,-0.1470415,0.467545,-0.092142,-0.2678115,0.69101,-0.174843,0.1470385,0.4530559999999999,-0.079636,0.2689485,0.69781,-0.147802,-0.3227315,0.94544,-0.263955,0.3036485,0.94451,-0.21719,-0.0779965,0.0013299999999999,-0.0065349999999999,0.0779965,-0.00133,0.006535,-0.1212115,0.06455,-0.3534549999999999,0.1530185,0.0730599999999999,-0.334935,-0.1210914999999999,-0.27677,-0.209117,0.1171485,-0.27764,-0.1970009999999999,1
158,-0.0114755,0.692075,-0.087749,-0.1465265,0.468249,-0.092645,-0.2686865,0.691585,-0.175545,0.1465135,0.454187,-0.081478,0.2678635,0.699955,-0.148568,-0.3229165,0.946285,-0.26478,0.3017335,0.945705,-0.218057,-0.0778145,0.001095,-0.00635,0.0778145,-0.0010949999999999,0.0063499999999999,-0.1213465,0.043165,-0.35363,0.1532035,0.051495,-0.3351,-0.1176965,-0.2963449999999999,-0.204745,0.1190435,-0.2942749999999999,-0.197027,1
159,-0.0118314999999999,0.696245,-0.0881309999999999,-0.1461005,0.469167,-0.09262,-0.2696305,0.687435,-0.175611,0.1456595,0.45586,-0.082932,0.2666395,0.702075,-0.148652,-0.3225205,0.944655,-0.26476,0.2998395,0.949465,-0.218185,-0.0775215,0.0006349999999999,-0.00633,0.0775215,-0.0006349999999999,0.00633,-0.1212505,0.014705,-0.35268,0.1534395,0.0218949999999999,-0.3342699999999999,-0.1141804999999999,-0.324865,-0.200251,0.1210395,-0.320015,-0.196173,1
160,-0.0121734999999999,0.699775,-0.088466,-0.1461765,0.470445,-0.092622,-0.2707465,0.687575,-0.175683,0.1448735,0.45858,-0.083972,0.2656735,0.702375,-0.148714,-0.3220465,0.947225,-0.26473,0.2982235,0.951325,-0.21829,-0.0770985,0.0001349999999999,-0.0063,0.0770985,-0.0001349999999999,0.0063,-0.1213165,-0.0130649999999999,-0.35104,0.1535435,-0.0072349999999999,-0.33301,-0.1113465,-0.3527849999999999,-0.195794,0.1225135,-0.345325,-0.1943,1
161,-0.0126844999999999,0.703735,-0.088474,-0.1465445,0.471631,-0.092621,-0.2708145,0.691835,-0.174418,0.1437155,0.463831,-0.084901,0.2648155,0.7054549999999999,-0.148745,-0.3208845,0.948085,-0.2646199999999999,0.2967755,0.955905,-0.21836,-0.0766255,-0.0003849999999999,-0.00624,0.0766255,0.000385,0.0062399999999999,-0.1217645,-0.0411349999999999,-0.34782,0.1532755,-0.0370849999999999,-0.33025,-0.1113644999999999,-0.383115,-0.195081,0.1240855,-0.3745649999999999,-0.19417,1
162,-0.0134174999999999,0.7072750000000001,-0.0878569999999999,-0.1468375,0.472865,-0.091759,-0.2712075,0.696875,-0.172363,0.1427125,0.467965,-0.0843599999999999,0.2641925,0.707625,-0.147694,-0.3196075,0.947565,-0.26315,0.2954124999999999,0.959335,-0.217444,-0.0761945,-0.000805,-0.0059999999999999,0.0761945,0.000805,0.0059999999999999,-0.1222575,-0.0705549999999999,-0.34285,0.1528425,-0.0678349999999999,-0.32581,-0.1115075,-0.416095,-0.193535,0.1234725,-0.4054749999999999,-0.189386,1
163,-0.0141575,0.7110799999999999,-0.086239,-0.1471934999999999,0.4747599999999999,-0.089733,-0.2712335,0.70077,-0.169109,0.1417365,0.47272,-0.082908,0.2636765,0.7085,-0.145117,-0.3185335,0.95004,-0.259615,0.2943064999999999,0.96028,-0.215197,-0.0758315,-0.0013099999999999,-0.005585,0.0758315,0.0013099999999999,0.0055849999999999,-0.1227235,-0.09996,-0.336245,0.1524865,-0.09824,-0.320065,-0.1117435,-0.4495499999999999,-0.191443,0.1235765,-0.4387899999999999,-0.185643,1
164,-0.0145665,0.712195,-0.0837229999999999,-0.1472135,0.4745749999999999,-0.08696,-0.2704535,0.702475,-0.164848,0.1411565,0.474115,-0.080906,0.2633565,0.710395,-0.141369,-0.3178235,0.954025,-0.25495,0.2941764999999999,0.961025,-0.211698,-0.0757835,-0.0017449999999999,-0.0048599999999999,0.0757835,0.0017449999999999,0.00486,-0.1228134999999999,-0.126585,-0.32799,0.1525065,-0.1258849999999999,-0.31308,-0.1118335,-0.481035,-0.18857,0.1256265,-0.470085,-0.1835689999999999,1
165,-0.0152475,0.714855,-0.0803349999999999,-0.1475205,0.473995,-0.083094,-0.2697104999999999,0.703485,-0.159661,0.1404995,0.4747949999999999,-0.077801,0.2630595,0.7133050000000001,-0.1365569999999999,-0.3178505,0.955225,-0.248945,0.2939195,0.958725,-0.20687,-0.0757745,-0.002035,-0.0040149999999999,0.0757745,0.002035,0.004015,-0.1229505,-0.152125,-0.318195,0.1522995,-0.152345,-0.304695,-0.1119904999999999,-0.512295,-0.184952,0.1266295,-0.5018750000000001,-0.179659,1
166,-0.01611,0.71754,-0.0765629999999999,-0.148033,0.47473,-0.078703,-0.270573,0.7035199999999999,-0.1539289999999999,0.139787,0.47531,-0.0743819999999999,0.262747,0.71448,-0.131465,-0.3181029999999999,0.9555,-0.24258,0.293557,0.95575,-0.201021,-0.075796,-0.0021599999999999,-0.0033399999999999,0.075796,0.0021599999999999,0.00334,-0.1231129999999999,-0.17747,-0.30745,0.151907,-0.17859,-0.29547,-0.112173,-0.54425,-0.181039,0.126367,-0.53485,-0.175257,1
167,-0.0168819999999999,0.72149,-0.071349,-0.147988,0.47687,-0.073303,-0.2713379999999999,0.70079,-0.146768,0.139542,0.47803,-0.069465,0.262712,0.71749,-0.125035,-0.3180779999999999,0.95758,-0.2355,0.293702,0.95836,-0.193795,-0.075501,-0.0023799999999999,-0.00255,0.075501,0.00238,0.0025499999999999,-0.123148,-0.19838,-0.29717,0.151902,-0.1990299999999999,-0.28525,-0.112008,-0.57165,-0.176773,0.127252,-0.56269,-0.170452,1
168,-0.0166629999999999,0.724925,-0.0659995,-0.147687,0.478005,-0.0685615,-0.272097,0.702955,-0.1397565,0.1397129999999999,0.480175,-0.0645905,0.262973,0.720045,-0.1182025,-0.317907,0.959845,-0.2276975,0.294373,0.959185,-0.1859985,-0.075394,-0.002445,-0.0018625,0.075394,0.002445,0.0018624999999999,-0.122797,-0.211165,-0.2881575,0.152273,-0.210965,-0.2762775,-0.111847,-0.5895250000000001,-0.1727485,0.128143,-0.580665,-0.1660005,1
169,-0.0161019999999999,0.7277549999999999,-0.060326,-0.1474609999999999,0.479815,-0.06343,-0.272691,0.7052849999999999,-0.132433,0.140269,0.482475,-0.059297,0.263659,0.722145,-0.110972,-0.317491,0.956975,-0.218855,0.2952789999999999,0.960005,-0.177681,-0.0751169999999999,-0.0024649999999999,-0.001325,0.0751169999999999,0.002465,0.0013249999999999,-0.1221209999999999,-0.2247549999999999,-0.278125,0.152869,-0.2237349999999999,-0.266225,-0.1114709999999999,-0.608115,-0.168128,0.129349,-0.5992550000000001,-0.160876,1
170,-0.0153745,0.7298600000000001,-0.0545655,-0.1473425,0.4819799999999999,-0.0584555,-0.2724425,0.7040700000000001,-0.1248555,0.1407475,0.48436,-0.0543445,0.2642675,0.7229800000000001,-0.1041555,-0.3169725,0.95925,-0.2099484999999999,0.2961575,0.95836,-0.1697665,-0.0741375,-0.0023999999999999,-0.0014605,0.0741375,0.0023999999999999,0.0014605,-0.1213324999999999,-0.23621,-0.2684585,0.1532675,-0.23355,-0.2564585,-0.1110025,-0.6229899999999999,-0.1632425,0.1306175,-0.61461,-0.1548574999999999,1
171,-0.0145955,0.7307554999999999,-0.0493615,-0.1472345,0.4831355,-0.0538935,-0.2728845,0.7024155000000001,-0.1181765,0.1412455,0.4856555,-0.0499565,0.2650755,0.7242154999999999,-0.0980165,-0.3170145,0.9632555,-0.2022845,0.2971255,0.9580255,-0.1628215,-0.0732445,-0.0024365,-0.0015345,0.0732445,0.0024364999999999,0.0015344999999999,-0.1206845,-0.2453945,-0.2598045,0.1534355,-0.2415045,-0.2477045,-0.1105845,-0.6343645,-0.1585995,0.1320455,-0.6266445,-0.1494825,1
172,-0.0139379999999999,0.732578,-0.0449845,-0.1472129999999999,0.4823579999999999,-0.0492475,-0.273363,0.704568,-0.1113255,0.141967,0.486008,-0.0456325,0.2657469999999999,0.727278,-0.0921875,-0.317353,0.965048,-0.1957435,0.298127,0.957408,-0.1562505,-0.072501,-0.002446,-0.0016064999999999,0.072501,0.002446,0.0016064999999999,-0.1200529999999999,-0.257022,-0.2511135,0.153477,-0.253192,-0.2387635,-0.110263,-0.6460520000000001,-0.1538925,0.132877,-0.638332,-0.1442995,1
173,-0.0133454999999999,0.734212,-0.0399055,-0.1471725,0.483842,-0.0440965,-0.2736325,0.705092,-0.1045785,0.1425275,0.487822,-0.0407485,0.2663275,0.727152,-0.0860445,-0.3181825,0.967162,-0.1886025,0.2997174999999999,0.958792,-0.1491715,-0.0717215,-0.00236,-0.0018315,0.0717215,0.00236,0.0018314999999999,-0.1192324999999999,-0.269958,-0.2406025,0.1535775,-0.266128,-0.2279625,-0.1097725,-0.658988,-0.1486755,0.1336375,-0.651268,-0.1385815,1
174,-0.0129715,0.732558,-0.0304435,-0.1472355,0.484178,-0.0345095,-0.2741855,0.7062980000000001,-0.0937295,0.1427345,0.4870279999999999,-0.0313585,0.2668644999999999,0.725178,-0.0753735,-0.3193455,0.965988,-0.1774125,0.3012444999999999,0.957818,-0.1378565,-0.0710845,-0.0021609999999999,-0.0019665,0.0710845,0.002161,0.0019664999999999,-0.1185855,-0.283262,-0.2253925,0.1533845,-0.279432,-0.2119925,-0.1094555,-0.6725819999999999,-0.1392785,0.1345744999999999,-0.6648419999999999,-0.1283285,1
175,-0.01268,0.7333109999999999,-0.0210494999999999,-0.148148,0.485501,-0.0253334999999999,-0.274608,0.707341,-0.0833385,0.142822,0.487481,-0.0223354999999999,0.267252,0.724281,-0.0647114999999999,-0.320758,0.964691,-0.1659475,0.3028519999999999,0.959011,-0.1267285,-0.070557,-0.002179,-0.0017804999999999,0.070557,0.002179,0.0017805,-0.117128,-0.296489,-0.2067075,0.152242,-0.294689,-0.1924774999999999,-0.109238,-0.686729,-0.1290434999999999,0.135452,-0.679439,-0.1176295,1
176,-0.0126019999999999,0.7341540000000001,-0.012559,-0.149324,0.4866439999999999,-0.017,-0.275314,0.710084,-0.074447,0.1427359999999999,0.487664,-0.014189,0.267426,0.7238340000000001,-0.055152,-0.322384,0.965334,-0.155225,0.303906,0.960714,-0.116875,-0.070343,-0.0021089999999999,-0.00154,0.070343,0.0021089999999999,0.0015399999999999,-0.1157639999999999,-0.307726,-0.189675,0.150866,-0.307966,-0.174315,-0.109264,-0.6979759999999999,-0.119195,0.136286,-0.6920259999999999,-0.108036,1
177,-0.0127374999999999,0.733518,-0.0035695,-0.1509805,0.487548,-0.0081115,-0.2763005,0.712738,-0.0655145,0.1425595,0.488298,-0.0060455,0.2673795,0.724028,-0.0458805,-0.3242005,0.965338,-0.1450385,0.3048794999999999,0.961198,-0.1071365,-0.0701915,-0.001836,-0.0014175,0.0701915,0.001836,0.0014174999999999,-0.1146305,-0.319802,-0.1720285,0.1490595,-0.3223519999999999,-0.1546585,-0.1094005,-0.709742,-0.1090885,0.1366895,-0.704962,-0.0978335,1
178,-0.01308,0.7331390000000001,0.0050284999999999,-0.152729,0.487649,0.0006055,-0.277409,0.7109890000000001,-0.0566325,0.142211,0.488139,0.0020164999999999,0.267181,0.7238690000000001,-0.0366585,-0.326259,0.965629,-0.1352555,0.305661,0.961399,-0.0974965,-0.070258,-0.0015489999999999,-0.0012104999999999,0.070258,0.001549,0.0012105,-0.113709,-0.331811,-0.1544255,0.146881,-0.336771,-0.1350555,-0.109609,-0.7208009999999999,-0.0985385,0.137151,-0.717221,-0.0878745,1
179,-0.0135894999999999,0.7324615,0.0134635,-0.1546735,0.4881815,0.0091564999999999,-0.2786535,0.7103315,-0.0480354999999999,0.1419365,0.4874315,0.0101875,0.2668765,0.7235815,-0.0277215,-0.3284735,0.9611215,-0.1257085,0.3062465,0.9618415,-0.0881095,-0.0702545,-0.0012255,-0.0009184999999999,0.0702545,0.0012255,0.0009184999999999,-0.1129535,-0.3440884999999999,-0.1368285,0.1443065,-0.3519485,-0.1158694999999999,-0.1099535,-0.7314885,-0.0884085,0.1374365,-0.7293085,-0.0775335,1
180,-0.0139124999999999,0.732141,0.0205759999999999,-0.1566084999999999,0.4892509999999999,0.017005,-0.2797185,0.709681,-0.040207,0.1417715,0.487141,0.0176209999999999,0.2666215,0.722561,-0.0188489999999999,-0.3305785,0.956451,-0.116121,0.3069115,0.961571,-0.078819,-0.0701955,-0.0008449999999999,-0.000673,0.0701955,0.000845,0.000673,-0.1123684999999999,-0.356129,-0.119001,0.1415515,-0.367349,-0.096581,-0.1102585,-0.7421289999999999,-0.077508,0.1377915,-0.741479,-0.067258,1
181,-0.0140744999999999,0.731751,0.0276109999999999,-0.1583605,0.491041,0.024401,-0.2803205,0.7066410000000001,-0.032207,0.1417495,0.4876109999999999,0.024959,0.2664295,0.7210510000000001,-0.010208,-0.3323005,0.951391,-0.106642,0.3075195,0.961711,-0.0696229999999999,-0.0701325,-0.000588,-0.000415,0.0701325,0.0005879999999999,0.0004149999999999,-0.1119904999999999,-0.367899,-0.101172,0.1386995,-0.382639,-0.077598,-0.1104604999999999,-0.7522690000000001,-0.066395,0.1381595,-0.753539,-0.057328,1
182,-0.0139879999999999,0.7316514999999999,0.034028,-0.15971,0.4914114999999999,0.031052,-0.28072,0.7052715,-0.024835,0.14176,0.4868915,0.031784,0.2663999999999999,0.7200314999999999,-0.0022419999999999,-0.3334,0.9467115,-0.097778,0.3079199999999999,0.9595215,-0.0611489999999999,-0.070086,-0.0003525,-6.199999999999999e-05,0.070086,0.0003524999999999,6.20000000000002e-05,-0.1117599999999999,-0.3778385,-0.084794,0.13622,-0.3962885,-0.060506,-0.1105599999999999,-0.7603385,-0.055478,0.1384999999999999,-0.7636585,-0.048161,1
183,-0.0135249999999999,0.7327684999999999,0.0353615,-0.160384,0.4932084999999999,0.0328755,-0.280174,0.7045184999999999,-0.0221905,0.142306,0.4875785,0.0338885,0.266996,0.7207385,0.0010034999999999,-0.333754,0.9439085,-0.0937745,0.308806,0.9596685,-0.0574535,-0.070133,-0.0001725,0.0001584999999999,0.070133,0.0001724999999999,-0.0001585,-0.111154,-0.3856315,-0.0727935,0.134286,-0.4081115,-0.0488964999999999,-0.110194,-0.7660815,-0.0493885,0.139316,-0.7713515,-0.0439055,1
184,-0.0129409999999999,0.731884,0.0370115,-0.160086,0.493044,0.0345015,-0.279536,0.704384,-0.0195655,0.142984,0.487344,0.0358895,0.267614,0.720544,0.0040025,-0.333736,0.941914,-0.0899224999999999,0.309574,0.958194,-0.0539045,-0.070295,7.900000000000268e-05,0.0002385,0.070295,-7.900000000000268e-05,-0.0002385,-0.110946,-0.391126,-0.0636534999999999,0.133254,-0.413876,-0.0408945,-0.1097659999999999,-0.770616,-0.0428685,0.1402739999999999,-0.776816,-0.0405265,1
185,-0.012187,0.7311375,0.0387939999999999,-0.159476,0.4929175,0.036176,-0.278766,0.7037975,-0.016765,0.1440239999999999,0.4872974999999999,0.037925,0.268374,0.7199774999999999,0.007025,-0.333436,0.9399575,-0.0857069999999999,0.310444,0.9564475,-0.0503819999999999,-0.070642,0.0003034999999999,0.000217,0.070642,-0.0003035,-0.000217,-0.1106259999999999,-0.3964725,-0.053983,0.132394,-0.4192525,-0.032542,-0.109196,-0.7756125,-0.036395,0.1412939999999999,-0.7821625,-0.037321,1
186,-0.0116604999999999,0.7308945,0.0400574999999999,-0.1589255,0.4931645,0.0371105,-0.2783055,0.7030945,-0.0145024999999999,0.1448045,0.4870244999999999,0.0396075,0.2688744999999999,0.7186345,0.0094405,-0.3331255,0.9387245,-0.0816915,0.3110144999999999,0.9552645,-0.0474875,-0.0711485,0.0002855,0.0002665,0.0711485,-0.0002855,-0.0002664999999999,-0.1105955,-0.4003555,-0.0452525,0.1316245,-0.4231755,-0.0255655,-0.1089055,-0.7792155,-0.0304405,0.1418845,-0.7860455,-0.0349315,1
187,-0.0109685,0.730807,0.041222,-0.1582035,0.492847,0.037771,-0.2775735,0.702937,-0.012574,0.1454965,0.4866369999999999,0.040938,0.2696565,0.718117,0.0114659999999999,-0.3326535,0.938347,-0.077867,0.3117465,0.954437,-0.044953,-0.0712484999999999,0.0002349999999999,0.0004039999999999,0.0712484999999999,-0.000235,-0.0004039999999999,-0.1108135,-0.401653,-0.037459,0.1313965,-0.425073,-0.019435,-0.1084334999999999,-0.778983,-0.025073,0.1430064999999999,-0.7882429999999999,-0.033125,1
188,-0.0103035,0.7309355000000001,0.0423645,-0.1574995,0.4924755,0.0383535,-0.2767294999999999,0.7028155,-0.0106144999999999,0.1462505,0.4863954999999999,0.0421355,0.2705005,0.7179955,0.0135225,-0.3322695,0.9383455,-0.0738574999999999,0.3124905,0.9536555,-0.0424775,-0.0713795,0.0002085,0.0004675,0.0713795,-0.0002085,-0.0004674999999999,-0.1109995,-0.4027545,-0.0302904999999999,0.1313005,-0.4267745,-0.0137254999999999,-0.1079695,-0.7784044999999999,-0.0197154999999999,0.1440104999999999,-0.7894945,-0.0313625,1
189,-0.0096789999999999,0.7312285000000001,0.043806,-0.156795,0.4920785,0.0393919999999999,-0.275685,0.7026185,-0.008646,0.147125,0.4860184999999999,0.043521,0.2711949999999999,0.7182185000000001,0.0153109999999999,-0.332115,0.9388985,-0.069998,0.313085,0.9532585,-0.040227,-0.071497,0.0001214999999999,0.0005569999999999,0.071497,-0.0001215,-0.000557,-0.111255,-0.4031515,-0.023827,0.131375,-0.4271715,-0.008628,-0.107485,-0.7781715,-0.015405,0.144815,-0.7898915,-0.029949,1
190,-0.0090314999999999,0.731344,0.0452095,-0.1559674999999999,0.492034,0.0404464999999999,-0.2748275,0.702574,-0.0067195,0.1479425,0.4859739999999999,0.0447025,0.2718825,0.719384,0.0168995,-0.3321175,0.939724,-0.0660865,0.3135525,0.953214,-0.0382545,-0.0716065,9.499999999999786e-05,0.0006374999999999,0.0716065,-9.50000000000048e-05,-0.0006374999999999,-0.1116775,-0.403196,-0.0182734999999999,0.1315125,-0.427216,-0.0042064999999999,-0.1071875,-0.7780959999999999,-0.0117195,0.1453525,-0.789936,-0.0283925,1
191,-0.0084059999999999,0.7313639999999999,0.046435,-0.155152,0.492034,0.041193,-0.274032,0.7025939999999999,-0.0049909999999999,0.148668,0.4859739999999999,0.04574,0.272518,0.7202040000000001,0.018288,-0.332152,0.940514,-0.0623839999999999,0.313988,0.953214,-0.036557,-0.071724,9.499999999999786e-05,0.000776,0.071724,-9.50000000000048e-05,-0.0007759999999999,-0.112162,-0.403196,-0.0136719999999999,0.131558,-0.427216,-0.0003969999999999,-0.106972,-0.778076,-0.008552,0.145918,-0.789936,-0.02701,1
192,-0.007938,0.7313639999999999,0.047265,-0.154355,0.491814,0.041705,-0.273555,0.7025939999999999,-0.0028779999999999,0.149235,0.4859739999999999,0.046407,0.272975,0.720534,0.019511,-0.332445,0.940954,-0.058756,0.314185,0.953214,-0.034418,-0.071849,9.499999999999786e-05,0.0008669999999999,0.071849,-9.50000000000048e-05,-0.0008669999999999,-0.112475,-0.403366,-0.0106039999999999,0.131495,-0.427466,0.002522,-0.106895,-0.7778959999999999,-0.0057949999999999,0.1464649999999999,-0.789976,-0.0262189999999999,1
193,-0.0074035,0.7313639999999999,0.0479259999999999,-0.1536624999999999,0.491314,0.042102,-0.2735424999999999,0.702534,-0.001348,0.1497275,0.485654,0.0469389999999999,0.2739775,0.7205539999999999,0.0204859999999999,-0.3326925,0.940954,-0.056319,0.3144075,0.953114,-0.0327159999999999,-0.0718815,9.499999999999786e-05,0.0008669999999999,0.0718815,-9.50000000000048e-05,-0.0008669999999999,-0.1126025,-0.403566,-0.0090079999999999,0.1314075,-0.427876,0.0047819999999999,-0.1067925,-0.777566,-0.004784,0.1468375,-0.790176,-0.025128,1
194,-0.00686,0.731405,0.048476,-0.153229,0.490565,0.0426039999999999,-0.273609,0.702345,-0.000244,0.150081,0.4853849999999999,0.0473819999999999,0.2750309999999999,0.720645,0.0214079999999999,-0.332899,0.941045,-0.055071,0.314671,0.953005,-0.031412,-0.071886,-2.3999999999996247e-05,0.0009279999999999,0.071886,2.4000000000003185e-05,-0.000928,-0.112679,-0.403615,-0.008161,0.131451,-0.428205,0.0063979999999999,-0.106719,-0.777335,-0.003899,0.147081,-0.790565,-0.024051,1
195,-0.0062525,0.731475,0.0488185,-0.1530945,0.4899749999999999,0.0431384999999999,-0.2736745,0.7021149999999999,0.0006084999999999,0.1504355,0.4854349999999999,0.0478355,0.2760255,0.721985,0.0223225,-0.3330845,0.941415,-0.0542345,0.3150755,0.952975,-0.0304525,-0.0718875,-0.0001169999999999,0.0009515,0.0718875,0.0001169999999999,-0.0009515,-0.1127544999999999,-0.403735,-0.0073175,0.1316455,-0.428345,0.0073564999999999,-0.1065545,-0.777035,-0.0030384999999999,0.1470355,-0.790695,-0.0229645,0
196,-0.0057585,0.731664,0.048634,-0.1531615,0.489714,0.04345,-0.2737815,0.7020139999999999,0.0014709999999999,0.1506584999999999,0.485684,0.0482029999999999,0.2769884999999999,0.723734,0.023208,-0.3333915,0.941994,-0.053385,0.3155084999999999,0.953054,-0.029554,-0.0719335,-0.00019,0.0008979999999999,0.0719335,0.0001899999999999,-0.000898,-0.1128914999999999,-0.403786,-0.006457,0.1317685,-0.4283059999999999,0.0082339999999999,-0.1065215,-0.777336,-0.002229,0.1469785,-0.790786,-0.021852,0
197,-0.005357,0.731704,0.048333,-0.153226,0.4894740000000001,0.043747,-0.274126,0.701744,0.002505,0.1507939999999999,0.485794,0.048586,0.277914,0.724874,0.023987,-0.3338859999999999,0.941984,-0.05236,0.315984,0.952924,-0.0284649999999999,-0.071958,-0.0002629999999999,0.001062,0.071958,0.0002629999999999,-0.001062,-0.113036,-0.403946,-0.005634,0.131824,-0.428226,0.0092959999999999,-0.1064759999999999,-0.777756,-0.001288,0.1469339999999999,-0.7908259999999999,-0.0207769999999999,0
198,-0.0051295,0.7316845,0.0479075,-0.1531985,0.4893745,0.0440375,-0.2746785,0.7014345,0.0036825,0.1510115,0.4860945,0.0491475,0.2796315,0.7251245,0.0242795,-0.3345085,0.9417745,-0.0514945,0.3165914999999999,0.9525045,-0.0272114999999999,-0.0719875,-0.0003624999999999,0.0012344999999999,0.0719875,0.0003625,-0.0012344999999999,-0.1130684999999999,-0.4040555,-0.0050164999999999,0.1318215,-0.4278655,0.0105095,-0.1063185,-0.7780955,-0.0002155,0.1469015,-0.7908455,-0.0195324999999999,0
199,-0.0050334999999999,0.731643,0.0472415,-0.1532655,0.489243,0.0441855,-0.2755255,0.701003,0.0044565,0.1512045,0.4867129999999999,0.0495565,0.2813845,0.725363,0.0243525,-0.3353954999999999,0.941293,-0.0513655,0.3170845,0.952063,-0.0261474999999999,-0.0720195,-0.000439,0.0013205,0.0720195,0.0004389999999999,-0.0013204999999999,-0.1130354999999999,-0.404117,-0.0047564999999999,0.1318145,-0.427557,0.0114705,-0.1061655,-0.778347,0.0008765,0.1468745,-0.790927,-0.0183414999999999,0
200,-0.00498,0.7315125,0.046428,-0.153711,0.4891724999999999,0.044269,-0.276831,0.7004825,0.0049389999999999,0.151319,0.4874224999999999,0.049953,0.283199,0.7253625,0.024529,-0.336481,0.9404625,-0.051642,0.317469,0.9513925,-0.025161,-0.072024,-0.0004424999999999,0.001381,0.072024,0.0004424999999999,-0.001381,-0.1130509999999999,-0.4039375,-0.004428,0.131759,-0.4271475,0.012372,-0.106161,-0.7785575,0.0019789999999999,0.146679,-0.7910174999999999,-0.016826,0
201,-0.00491,0.731104,0.0453735,-0.1547359999999999,0.489124,0.0440295,-0.279916,0.699314,0.0048554999999999,0.151414,0.4875839999999999,0.0507155,0.284974,0.722804,0.0251334999999999,-0.337876,0.938674,-0.0519965,0.317384,0.950454,-0.0237665,-0.072021,-0.0003809999999999,0.0013424999999999,0.072021,0.000381,-0.0013425,-0.113076,-0.4037759999999999,-0.0040855,0.131684,-0.427216,0.0133924999999999,-0.106256,-0.778876,0.0034204999999999,0.146264,-0.791026,-0.0146895,0
202,-0.0047165,0.730679,0.0441345,-0.1557444999999999,0.4889089999999999,0.0433615,-0.2842745,0.697109,0.0042904999999999,0.1515255,0.486939,0.0514805,0.2865555,0.718719,0.0259504999999999,-0.3393545,0.936209,-0.0525685,0.3179455,0.948909,-0.0222175,-0.0719984999999999,-0.000328,0.0013045,0.0719984999999999,0.000328,-0.0013045,-0.1129844999999999,-0.403621,-0.0039485,0.1316855,-0.427061,0.0144154999999999,-0.1062045,-0.779201,0.0051054999999999,0.1458655,-0.790971,-0.0126425,0
203,-0.004455,0.730294,0.042718,-0.1565899999999999,0.488454,0.042305,-0.29008,0.6930040000000001,0.003651,0.15182,0.4863939999999999,0.052461,0.28885,0.712874,0.026988,-0.34132,0.928204,-0.0530539999999999,0.3182,0.940944,-0.020537,-0.071982,-0.0003659999999999,0.001242,0.071982,0.0003659999999999,-0.001242,-0.11278,-0.403356,-0.0038819999999999,0.13162,-0.427066,0.015322,-0.10596,-0.7796559999999999,0.006867,0.14564,-0.7909959999999999,-0.010275,0
204,-0.0041075,0.7299815000000001,0.0413319999999999,-0.1573245,0.4878215,0.0409139999999999,-0.2972145,0.6869115,0.0024769999999999,0.1522655,0.4866614999999999,0.0536679999999999,0.2919655,0.7064015,0.0280539999999999,-0.3428445,0.9179915,-0.053693,0.3186455,0.9328015,-0.019291,-0.0719615,-0.0004354999999999,0.0010439999999999,0.0719615,0.0004354999999999,-0.001044,-0.1125845,-0.4030585,-0.003819,0.1313655,-0.4266985,0.0159249999999999,-0.1057245,-0.7798485,0.0085619999999999,0.1453955,-0.7909585,-0.007446,0
205,-0.003018,0.7297295,0.039089,-0.157095,0.4860394999999999,0.038946,-0.3085949999999999,0.6688095,0.0024169999999999,0.153055,0.4877494999999999,0.054623,0.299925,0.6893095,0.031083,-0.343655,0.8958495,-0.054125,0.320095,0.9133695,-0.016859,-0.072074,-0.0004595,0.0004229999999999,0.072074,0.0004595,-0.0004229999999999,-0.112025,-0.4020205,-0.003394,0.131215,-0.4257705,0.0163859999999999,-0.104905,-0.7795405,0.0108819999999999,0.145845,-0.7902105,-0.002971,0
206,-7.299999999999668e-05,0.7298209999999999,0.035979,-0.1557589999999999,0.484531,0.037071,-0.3126089999999999,0.644601,0.002273,0.153531,0.488291,0.05442,0.308891,0.667071,0.034934,-0.340809,0.866801,-0.057054,0.323061,0.888351,-0.0155009999999999,-0.072168,-0.000426,-0.000237,0.072168,0.0004259999999999,0.000237,-0.1112189999999999,-0.400249,-0.0028899999999999,0.133251,-0.424189,0.015077,-0.1030089999999999,-0.778659,0.013353,0.148201,-0.789159,0.001465,0
207,0.0018875,0.7303625,0.0321135,-0.1543475,0.4828225,0.0333824999999999,-0.3109575,0.6164924999999999,0.0029114999999999,0.1541125,0.4886725,0.0537165,0.3161825,0.6412024999999999,0.0391445,-0.3388275,0.8333625,-0.0614555,0.3250225,0.8604324999999999,-0.0151955,-0.0722565,-0.0003765,-0.0009284999999999,0.0722565,0.0003764999999999,0.0009284999999999,-0.1115875,-0.3980975,-0.0025165,0.1351325,-0.4215275,0.0122494999999999,-0.1020474999999999,-0.7773675,0.0158485,0.1496425,-0.7865375000000001,0.0052914999999999,0
208,0.0032015,0.731074,0.0277404999999999,-0.1530675,0.480784,0.0295104999999999,-0.3099575,0.580394,0.0032114999999999,0.1549525,0.489024,0.0532664999999999,0.3227025,0.612424,0.0432634999999999,-0.3375175,0.790714,-0.0657415,0.3269425,0.829424,-0.0180315,-0.0723045,-0.000339,-0.0016515,0.0723045,0.0003389999999999,0.0016514999999999,-0.1122475,-0.396196,-0.0020695,0.1364725,-0.418286,0.0074634999999999,-0.1019475,-0.775996,0.0185634999999999,0.1504825,-0.783296,0.0080474999999999,0
209,0.0037239999999999,0.7321730000000001,0.0211325,-0.15274,0.478163,0.0248105,-0.31009,0.532103,0.0056095,0.155,0.488463,0.0528915,0.32799,0.5701930000000001,0.0492205,-0.3357099999999999,0.730603,-0.0766495,0.32819,0.7776230000000001,-0.0242914999999999,-0.072255,-0.000266,-0.0027365,0.072255,0.0002659999999999,0.0027365,-0.11337,-0.393597,-0.0010054999999999,0.13718,-0.413537,-0.0029514999999999,-0.10278,-0.774667,0.0223595,0.15513,-0.778737,0.0023395,0
