sb224sc-HT22-VT27/4dt907/src/data/labeled_files/A98_kinect.csv
FrameNo,nose_3d_x,nose_3d_y,nose_3d_z,left_shoulder_3d_x,left_shoulder_3d_y,left_shoulder_3d_z,left_elbow_3d_x,left_elbow_3d_y,left_elbow_3d_z,right_shoulder_3d_x,right_shoulder_3d_y,right_shoulder_3d_z,right_elbow_3d_x,right_elbow_3d_y,right_elbow_3d_z,left_wrist_3d_x,left_wrist_3d_y,left_wrist_3d_z,right_wrist_3d_x,right_wrist_3d_y,right_wrist_3d_z,left_hip_3d_x,left_hip_3d_y,left_hip_3d_z,right_hip_3d_x,right_hip_3d_y,right_hip_3d_z,left_knee_3d_x,left_knee_3d_y,left_knee_3d_z,right_knee_3d_x,right_knee_3d_y,right_knee_3d_z,left_ankle_3d_x,left_ankle_3d_y,left_ankle_3d_z,right_ankle_3d_x,right_ankle_3d_y,right_ankle_3d_z,activity_label
0,-0.034192,0.7712549999999999,0.1195249999999999,-0.190883,0.577375,0.103125,-0.2799129999999999,0.8099649999999999,0.017581,0.173297,0.5640149999999999,0.114706,0.301357,0.800095,0.057845,-0.280273,1.076915,-0.0444349999999999,0.332167,1.032215,-0.0329709999999999,-0.078449,0.001167,0.001117,0.078449,-0.001167,-0.001117,-0.129953,-0.472995,-0.013835,0.134807,-0.514375,0.034382,-0.138443,-0.856835,0.014746,0.158057,-0.909065,0.023465,1
1,-0.0341765,0.7712615,0.1193684999999999,-0.1909145,0.5778615,0.1031864999999999,-0.2798245,0.8099915,0.0173224999999999,0.1733055,0.5641415000000001,0.1145925,0.3014555,0.8001515,0.0572594999999999,-0.2804645,1.0765815,-0.0454825,0.3320655,1.0321815,-0.0335275,-0.0784195,0.0012715,0.0010374999999999,0.0784195,-0.0012715,-0.0010375,-0.1301544999999999,-0.4716185,-0.0145405,0.1349555,-0.5144985,0.0341974999999999,-0.1382945,-0.8577184999999999,0.0145714999999999,0.1577555,-0.9109285,0.0216634999999999,1
2,-0.0342115,0.771164,0.1192705,-0.1909285,0.577814,0.1031455,-0.2798985,0.809884,0.0172705,0.1733915,0.564034,0.1144205,0.3016215,0.799964,0.0567405,-0.2806185,1.076294,-0.0456894999999999,0.3320515,1.032194,-0.0339545,-0.0783885,0.000984,0.0011535,0.0783885,-0.000984,-0.0011535,-0.1302485,-0.4716059999999999,-0.0147055,0.1349614999999999,-0.514136,0.0345445,-0.1381185,-0.859686,0.0147564999999999,0.1576715,-0.910096,0.0237085,1
3,-0.034178,0.7713085000000001,0.1191685,-0.190939,0.5780585,0.1032825,-0.279839,0.8096985,0.0172525,0.173731,0.5641585,0.1141975,0.301821,0.8000685000000001,0.0564915,-0.280559,1.0764285,-0.0458714999999999,0.332251,1.0330285,-0.0353644999999999,-0.078404,0.0008845,0.0013015,0.078404,-0.0008845,-0.0013014999999999,-0.131079,-0.5023915,-0.0092854999999999,0.135231,-0.5140115,0.0344095,-0.137039,-0.8625915,0.0129095,0.157521,-0.9117315,0.0243385,1
4,-0.034133,0.7714005,0.1190515,-0.190903,0.5782105000000001,0.1032635,-0.279893,0.8098505,0.0171445,0.173757,0.5640905,0.1141095,0.302027,0.8001105000000001,0.0561035,-0.280703,1.0764405,-0.0462215,0.3324769999999999,1.0328405,-0.0362285,-0.078439,0.0008265,0.0013565,0.078439,-0.0008265,-0.0013564999999999,-0.1302229999999999,-0.4810795,-0.0136004999999999,0.135867,-0.5139294999999999,0.0340555,-0.137083,-0.8625195,0.0128785,0.158347,-0.9069395,0.0273255,1
5,-0.034144,0.7714885,0.118968,-0.1908,0.5782285,0.103307,-0.27992,0.8099285,0.017085,0.17385,0.5641085,0.113999,0.3021799999999999,0.7999785,0.0559459999999999,-0.28085,1.0761284999999998,-0.046567,0.33259,1.0334285,-0.036975,-0.0784489999999999,0.0009525,0.0013309999999999,0.0784489999999999,-0.0009525,-0.0013309999999999,-0.13042,-0.4796215,-0.013712,0.13577,-0.5140615,0.034129,-0.13884,-0.8564014999999999,0.0151199999999999,0.1596,-0.9069315,0.023576,1
6,-0.034293,0.7716215,0.1185865,-0.190885,0.5785115,0.1032145,-0.279995,0.8099715,0.0168084999999999,0.174125,0.5640515,0.1134795,0.302405,0.7998015,0.0554674999999999,-0.281455,1.0769515,-0.0476515,0.332715,1.0336515,-0.0376805,-0.078471,0.0011185,0.0011294999999999,0.078471,-0.0011185,-0.0011295,-0.130675,-0.4793385,-0.0138955,0.135625,-0.5143584999999999,0.0335464999999999,-0.138775,-0.8685485,0.0047944999999999,0.1578149999999999,-0.9069085,0.0257344999999999,1
7,-0.034171,0.771519,0.118491,-0.190944,0.5785589999999999,0.102924,-0.279984,0.809989,0.016408,0.174086,0.564179,0.113413,0.3025359999999999,0.7998789999999999,0.054909,-0.281184,1.076609,-0.048139,0.332706,1.033409,-0.037895,-0.0784749999999999,0.00105,0.001125,0.0784749999999999,-0.00105,-0.0011249999999999,-0.131064,-0.480941,-0.0132239999999999,0.135516,-0.5142310000000001,0.033973,-0.138824,-0.861221,0.012285,0.1582059999999999,-0.908651,0.023042,1
8,-0.0341615,0.7715135,0.1182749999999999,-0.1909515,0.5786235,0.102776,-0.2800115,0.8099835,0.01604,0.1741585,0.5641735,0.1132,0.3027085,0.7998734999999999,0.0544059999999999,-0.2812415,1.0766035,-0.049036,0.3327985,1.0335035,-0.038588,-0.0784805,0.0010444999999999,0.00109,0.0784805,-0.0010445,-0.00109,-0.1312515,-0.4809865,-0.013064,0.1355485,-0.5142165000000001,0.033907,-0.1388515,-0.8612265,0.012218,0.1581085,-0.9084465,0.023226,1
9,-0.0341459999999999,0.7717045,0.117672,-0.190973,0.5789245,0.102444,-0.280083,0.8096544999999999,0.015283,0.174217,0.5643644999999999,0.112737,0.3028969999999999,0.7994545,0.053576,-0.281293,1.0763045,-0.0505779999999999,0.332997,1.0332045,-0.0398959999999999,-0.078496,0.0010475,0.001034,0.078496,-0.0010475,-0.001034,-0.131433,-0.4819355,-0.0129379999999999,0.1354969999999999,-0.5142455,0.033984,-0.138923,-0.8616655,0.012142,0.158007,-0.9085755,0.023475,1
10,-0.034109,0.771912,0.117022,-0.1909769999999999,0.5792320000000001,0.102074,-0.280217,0.809292,0.0143789999999999,0.174283,0.564602,0.112207,0.3031029999999999,0.799042,0.0526279999999999,-0.281317,1.075852,-0.052362,0.333233,1.032652,-0.041405,-0.078515,0.001095,0.0010009999999999,0.078515,-0.001095,-0.001001,-0.131557,-0.482788,-0.013005,0.135473,-0.514338,0.0340009999999999,-0.1390269999999999,-0.861848,0.0120179999999999,0.158103,-0.908688,0.0231259999999999,1
11,-0.0340675,0.7720465,0.116268,-0.1909815,0.5794665,0.101659,-0.2804515,0.8090164999999999,0.013253,0.1743384999999999,0.5648765,0.11169,0.3033685,0.7985064999999999,0.051479,-0.2813015,1.0751165,-0.054476,0.3335185,1.0318165,-0.043054,-0.0785464999999999,0.0011385,0.0009699999999999,0.0785464999999999,-0.0011385,-0.0009699999999999,-0.1316615,-0.4824035,-0.0133729999999999,0.1354584999999999,-0.5144535,0.033945,-0.1391715,-0.8616535000000001,0.012104,0.1581584999999999,-0.9084635,0.022556,1
12,-0.0340155,0.772129,0.115373,-0.1910055,0.579399,0.101183,-0.2807555,0.808219,0.011712,0.1743945,0.565269,0.111065,0.3036645,0.797969,0.050156,-0.2812555,1.074279,-0.0574399999999999,0.3339145,1.031079,-0.045086,-0.0785845,0.001187,0.000917,0.0785845,-0.001187,-0.0009169999999999,-0.1317954999999999,-0.482871,-0.0134589999999999,0.1354045,-0.514611,0.033865,-0.1393355,-0.861321,0.012239,0.1581445,-0.908551,0.021618,1
13,-0.03399,0.7720815,0.114296,-0.191095,0.5792915000000001,0.100652,-0.281195,0.8075215,0.009875,0.174395,0.5658415,0.110399,0.303965,0.7973415,0.048464,-0.281285,1.0735715,-0.061145,0.334445,1.0303715,-0.047531,-0.078657,0.0012144999999999,0.0008659999999999,0.078657,-0.0012144999999999,-0.0008659999999999,-0.132025,-0.4834084999999999,-0.013573,0.135275,-0.5147885,0.033662,-0.139515,-0.8619285,0.012166,0.157965,-0.9087585,0.020927,1
14,-0.0338115,0.7721705,0.112735,-0.1911205,0.5791405000000001,0.09991,-0.2817805,0.8068805,0.007233,0.1744395,0.5664505000000001,0.109558,0.3043094999999999,0.7966805,0.046489,-0.2814105,1.0727505,-0.065633,0.3352194999999999,1.0297505,-0.050787,-0.0787295,0.0012125,0.000808,0.0787295,-0.0012125,-0.0008079999999999,-0.1322905,-0.4847295,-0.0137149999999999,0.1351595,-0.5149395,0.033426,-0.1396804999999999,-0.8615995,0.012527,0.1578895,-0.9085395,0.020437,1
15,-0.033557,0.772227,0.110765,-0.19094,0.578797,0.0987339999999999,-0.28246,0.8061269999999999,0.004144,0.17444,0.567027,0.1085619999999999,0.30476,0.796087,0.04409,-0.2817,1.071987,-0.071542,0.33607,1.028987,-0.054678,-0.078829,0.0012099999999999,0.000701,0.078829,-0.00121,-0.000701,-0.13258,-0.485193,-0.014279,0.13496,-0.515113,0.033121,-0.1399,-0.861553,0.01251,0.15776,-0.908253,0.019827,1
16,-0.0330785,0.7725110000000001,0.108204,-0.1906824999999999,0.578461,0.097274,-0.2831925,0.8048810000000001,0.0005039999999999,0.1743575,0.567751,0.1074779999999999,0.3054475,0.795631,0.041154,-0.2821425,1.0710609999999998,-0.07854,0.3370674999999999,1.028061,-0.059341,-0.0789305,0.001216,0.000569,0.0789305,-0.001216,-0.000569,-0.1329024999999999,-0.485639,-0.014799,0.1347275,-0.5153289999999999,0.032671,-0.1401124999999999,-0.8612489999999999,0.012456,0.1574575,-0.907549,0.019298,1
17,-0.0323819999999999,0.7728775,0.105234,-0.190263,0.5783275,0.095486,-0.283983,0.8036975000000001,-0.0038609999999999,0.174417,0.5686175,0.106072,0.306477,0.7953975,0.037652,-0.282653,1.0698275,-0.0862769999999999,0.338427,1.0253275,-0.064669,-0.079044,0.0011764999999999,0.000439,0.079044,-0.0011765,-0.000439,-0.1331429999999999,-0.4864524999999999,-0.0152329999999999,0.134547,-0.5154825,0.032089,-0.1403329999999999,-0.8607425,0.012369,0.157017,-0.9067225,0.019005,1
18,-0.0313679999999999,0.7728775,0.101716,-0.189642,0.5783075,0.093442,-0.284812,0.8022075000000001,-0.008629,0.174558,0.5686175,0.104407,0.307608,0.7952375,0.0337439999999999,-0.283252,1.0678275,-0.094972,0.339908,1.0226274999999998,-0.070112,-0.07916,0.0011764999999999,0.000292,0.07916,-0.0011765,-0.000292,-0.133362,-0.4874825,-0.015756,0.134378,-0.5151924999999999,0.031382,-0.140502,-0.8607425,0.0119149999999999,0.1564279999999999,-0.9064725,0.018906,1
19,-0.0298485,0.7728775,0.0971735,-0.1887444999999999,0.5781975,0.0907615,-0.2855745,0.8004275000000001,-0.0140145,0.1746855,0.5686175,0.1026995,0.3088555,0.7949875000000001,0.0292075,-0.2836245,1.0654275,-0.1044615,0.3416655,1.0196275,-0.0767815,-0.0793005,0.0011764999999999,0.0001335,0.0793005,-0.0011765,-0.0001334999999999,-0.1335945,-0.4888625,-0.0164645,0.1342054999999999,-0.5150224999999999,0.0304695,-0.1406545,-0.8607425,0.0113885,0.1558855,-0.9062125,0.0184145,1
20,-0.0281159999999999,0.7728775,0.091881,-0.1876879999999999,0.5778275,0.087499,-0.286448,0.7986375,-0.02021,0.174812,0.5686175,0.100344,0.310002,0.7946775,0.024145,-0.283898,1.0628274999999998,-0.1141869999999999,0.343332,1.0166275,-0.084067,-0.079443,0.0011764999999999,1.6999999999999654e-05,0.079443,-0.0011765,-1.6999999999999654e-05,-0.133888,-0.4899125,-0.017614,0.133952,-0.5150224999999999,0.029344,-0.140888,-0.8607425,0.010746,0.155542,-0.9062125,0.017496,1
21,-0.0260835,0.773245,0.0851275,-0.1863485,0.576965,0.0828885,-0.2872584999999999,0.7968149999999999,-0.0279145,0.1749015,0.569395,0.0966865,0.3114015,0.7943549999999999,0.0176725,-0.2840184999999999,1.059835,-0.1251535,0.3451915,1.013335,-0.0930335,-0.0796284999999999,0.0011159999999999,-0.0001045,0.0796284999999999,-0.001116,0.0001045,-0.1342685,-0.490035,-0.0193095,0.1336215,-0.514735,0.0273715,-0.1411385,-0.860515,0.0097695,0.1550015,-0.904555,0.0166785,1
22,-0.0239539999999999,0.7737055,0.077795,-0.184825,0.5761555,0.077695,-0.287995,0.7948555,-0.036277,0.174975,0.5702855,0.092707,0.312915,0.7940055,0.0108169999999999,-0.283915,1.0569555,-0.136677,0.346925,1.0102555,-0.102487,-0.079801,0.0010255,-0.000218,0.079801,-0.0010255,0.0002179999999999,-0.134675,-0.4903245,-0.02104,0.133295,-0.5144545,0.0251619999999999,-0.141345,-0.8602044999999999,0.0085459999999999,0.154415,-0.9032645,0.0153989999999999,1
23,-0.0216575,0.7741415,0.069215,-0.1831505,0.5752615,0.071343,-0.2884905,0.7926815,-0.045609,0.1750695,0.5714015,0.088495,0.3145895,0.7934615,0.0025129999999999,-0.2835705,1.0535615,-0.15001,0.3487595,1.0074615,-0.11314,-0.0800464999999999,0.0009435,-0.0003739999999999,0.0800464999999999,-0.0009435,0.0003739999999999,-0.1349805,-0.4904585,-0.0239519999999999,0.1331395,-0.5137885,0.022157,-0.1413605,-0.8603685,0.007171,0.1539994999999999,-0.9016985,0.0139669999999999,1
24,-0.0192255,0.774437,0.0601975,-0.1816295,0.574647,0.0645335,-0.2887995,0.7910670000000001,-0.0556025,0.1754005,0.572277,0.0828764999999999,0.3163205,0.792707,-0.0066294999999999,-0.2832894999999999,1.050337,-0.1628494999999999,0.3506405,1.004537,-0.1243595,-0.0803055,0.0008889999999999,-0.0005484999999999,0.0803055,-0.000889,0.0005485,-0.1353895,-0.490193,-0.0276775,0.1330104999999999,-0.512033,0.0186415,-0.1413295,-0.860653,0.0056015,0.1535305,-0.8998229999999999,0.0128285,1
25,-0.0166405,0.7744449999999999,0.050625,-0.1800085,0.574085,0.05711,-0.2891085,0.789995,-0.0667,0.1759515,0.572605,0.076128,0.3180215,0.791975,-0.016277,-0.2829285,1.046955,-0.176059,0.3524815,1.001535,-0.136509,-0.0806025,0.0008749999999999,-0.0007549999999999,0.0806025,-0.0008749999999999,0.0007549999999999,-0.1357385,-0.489155,-0.031791,0.1329315,-0.510385,0.0145849999999999,-0.1413585,-0.860625,0.0034399999999999,0.1527915,-0.897805,0.0122309999999999,1
26,-0.014046,0.7741895,0.0406915,-0.178504,0.5737295,0.0499015,-0.289284,0.7886595,-0.0778755,0.176526,0.5728694999999999,0.0690415,0.3196059999999999,0.7909394999999999,-0.0266175,-0.282324,1.0436295,-0.1895655,0.354296,1.0000595,-0.1494355,-0.080887,0.0008615,-0.0009995,0.080887,-0.0008615,0.0009995,-0.136074,-0.4869805,-0.0362025,0.132906,-0.5086905,0.0099724999999999,-0.141364,-0.8604905,0.0013115,0.151976,-0.8957005,0.0116234999999999,1
27,-0.0114644999999999,0.773713,0.03049,-0.1769335,0.572683,0.041453,-0.2893435,0.787143,-0.089733,0.1771765,0.5730230000000001,0.0614109999999999,0.3213165,0.789813,-0.037649,-0.2813635,1.040863,-0.2038529999999999,0.3563865,0.996063,-0.163013,-0.0812124999999999,0.0008999999999999,-0.0013249999999999,0.0812124999999999,-0.0008999999999999,0.0013249999999999,-0.1363735,-0.484447,-0.041061,0.1330765,-0.506687,0.0042139999999999,-0.1414235,-0.8598669999999999,-0.0007769999999999,0.1513364999999999,-0.893307,0.010492,1
28,-0.009167,0.773161,0.0201625,-0.175593,0.5717409999999999,0.0326375,-0.290203,0.784721,-0.1029605,0.1779569999999999,0.5730109999999999,0.0527675,0.323017,0.788701,-0.0490935,-0.280103,1.038491,-0.2186505,0.358267,0.992951,-0.1768805,-0.081583,0.00093,-0.0017044999999999,0.081583,-0.00093,0.0017045,-0.136813,-0.481419,-0.0468235,0.1332269999999999,-0.504179,-0.0018355,-0.141563,-0.858959,-0.0032454999999999,0.150667,-0.890279,0.0092335,1
29,-0.0068844999999999,0.771954,0.0092614999999999,-0.1743705,0.5705840000000001,0.0234935,-0.2902304999999999,0.781814,-0.1162765,0.1787495,0.572994,0.0441275,0.3247495,0.785864,-0.0613234999999999,-0.2786304999999999,1.035614,-0.2346665,0.3602195,0.989614,-0.1915565,-0.0819635,0.000935,-0.0020885,0.0819635,-0.000935,0.0020885,-0.1373005,-0.478056,-0.0528525,0.1333794999999999,-0.5014959999999999,-0.0080325,-0.1417405,-0.857846,-0.0056865,0.1500594999999999,-0.8875759999999999,0.0076084999999999,1
30,-0.004885,0.770705,-0.0014745,-0.173206,0.569535,0.0141584999999999,-0.289946,0.778815,-0.1294815,0.179584,0.572495,0.0351465,0.326234,0.783135,-0.0731185,-0.277006,1.032685,-0.2511915,0.362084,0.986815,-0.2068315,-0.0823599999999999,0.0008769999999999,-0.0023835,0.0823599999999999,-0.0008769999999999,0.0023835,-0.137906,-0.473275,-0.0594085,0.133534,-0.498255,-0.0143365,-0.1419959999999999,-0.855815,-0.0082525,0.149464,-0.884265,0.0056564999999999,1
31,-0.0028105,0.7688235,-0.0130685,-0.1720825,0.5682735,0.0043734999999999,-0.2895725,0.7753435,-0.1440075,0.1805175,0.5718135,0.0255145,0.3276775,0.7799435,-0.0858975,-0.2753224999999999,1.0276335,-0.2689475,0.3643075,0.9835735,-0.2237775,-0.0827475,0.0008384999999999,-0.0027335,0.0827475,-0.0008385,0.0027335,-0.1384825,-0.4685865,-0.0665585,0.1337175,-0.4945065,-0.0210185,-0.1423125,-0.8533465,-0.0108375,0.1488775,-0.8805665,0.0037865,1
32,-0.0009169999999999,0.766829,-0.0244334999999999,-0.171096,0.567049,-0.0052415,-0.289266,0.772449,-0.1577744999999999,0.181384,0.570789,0.0151285,0.329084,0.776709,-0.0986245,-0.273816,1.021639,-0.2861545,0.366334,0.980039,-0.2405844999999999,-0.083174,0.000827,-0.0030395,0.083174,-0.000827,0.0030395,-0.139116,-0.4638009999999999,-0.0731385,0.1337439999999999,-0.490441,-0.0274775,-0.142826,-0.849691,-0.0135885,0.148434,-0.876861,0.0011485,1
33,0.0007599999999999,0.7641635,-0.037261,-0.170121,0.5654735000000001,-0.015285,-0.288691,0.7694035,-0.17268,0.182019,0.5698835,0.005101,0.330269,0.7729435,-0.1120699999999999,-0.272451,1.0148635,-0.30439,0.368249,0.9762535,-0.2591799999999999,-0.083578,0.0007535,-0.003268,0.083578,-0.0007534999999999,0.003268,-0.139871,-0.4587164999999999,-0.0794619999999999,0.133669,-0.4861964999999999,-0.034121,-0.143501,-0.8453164999999999,-0.016655,0.147949,-0.8724664999999999,-0.0017499999999999,1
34,0.0020949999999999,0.7617615,-0.050041,-0.169179,0.5634515,-0.025847,-0.287969,0.7659015,-0.187811,0.182441,0.5689814999999999,-0.004898,0.331251,0.7685615,-0.125971,-0.271189,1.0068515,-0.324311,0.3698909999999999,0.9676915,-0.276981,-0.0839989999999999,0.0006575,-0.0034019999999999,0.0839989999999999,-0.0006574999999999,0.003402,-0.140669,-0.4533485,-0.086076,0.133451,-0.4815784999999999,-0.0405989999999999,-0.144319,-0.8401585,-0.019591,0.1473809999999999,-0.8681385,-0.005114,1
35,0.0035375,0.7591755,-0.0638005,-0.1681855,0.5610855,-0.0374845,-0.2870855,0.7621855,-0.2039405,0.1827245,0.5678255,-0.0152675,0.3319645,0.7638054999999999,-0.1400205,-0.2699555,0.9978655,-0.3450805,0.3713345,0.9598055,-0.2948405,-0.0844545,0.0005934999999999,-0.0035305,0.0844545,-0.0005935,0.0035304999999999,-0.1415455,-0.4475145,-0.0928105,0.1331045,-0.4763645000000001,-0.0469385,-0.1452555,-0.8347745000000001,-0.0228235,0.1464645,-0.8632245000000001,-0.0087625,1
36,0.004675,0.7565069999999999,-0.0778005,-0.167084,0.559167,-0.0486215,-0.286024,0.7583869999999999,-0.2201135,0.182836,0.5663469999999999,-0.0259255,0.332456,0.7587969999999999,-0.1542735,-0.268814,0.988707,-0.3652235,0.372346,0.953567,-0.3134135,-0.084926,0.000502,-0.0035654999999999,0.084926,-0.000502,0.0035655,-0.142374,-0.441753,-0.0996835,0.132506,-0.471173,-0.0526994999999999,-0.146304,-0.8290430000000001,-0.0263104999999999,0.145606,-0.858423,-0.0130475,1
37,0.0056544999999999,0.7535975,-0.0920175,-0.1658385,0.5567675,-0.0596635,-0.2849385,0.7549975,-0.2360374999999999,0.1828015,0.5648975,-0.0364225,0.3328115,0.7532275,-0.1687074999999999,-0.2675385,0.9785175,-0.3859975,0.3732215,0.9457475,-0.3316575,-0.0853415,0.0003475,-0.0036064999999999,0.0853415,-0.0003475,0.0036065,-0.1431585,-0.4359024999999999,-0.1058675,0.1318315,-0.4659925,-0.0586475,-0.1473785,-0.8230425,-0.0294965,0.1446915,-0.8534525,-0.0171245,1
38,0.006863,0.7505655,-0.1067935,-0.164208,0.5549055,-0.0713184999999999,-0.2831079999999999,0.7506055,-0.2529635,0.182662,0.5629355,-0.0479305,0.333062,0.7475555,-0.1830935,-0.2659479999999999,0.9676655,-0.4078035,0.374122,0.9365855,-0.3510835,-0.0857219999999999,0.0002664999999999,-0.0036344999999999,0.0857219999999999,-0.0002665,0.0036344999999999,-0.143958,-0.4280445,-0.1130235,0.131232,-0.4587245,-0.0663245,-0.148738,-0.8153045,-0.0337495,0.143712,-0.8469145,-0.0222365,1
39,0.008219,0.7474105000000001,-0.120984,-0.162667,0.5515505,-0.082611,-0.281267,0.7458805000000001,-0.269314,0.182523,0.5609705,-0.058598,0.333343,0.7416805000000001,-0.198414,-0.264227,0.9565405,-0.428784,0.374953,0.9259605,-0.369494,-0.086063,0.0003855,-0.003735,0.086063,-0.0003854999999999,0.003735,-0.144687,-0.4202795,-0.119504,0.130703,-0.4518795,-0.073528,-0.149917,-0.8075595,-0.037728,0.143003,-0.8398095,-0.026875,1
40,0.0093415,0.7444655,-0.134586,-0.1612575,0.5486355,-0.093573,-0.2783675,0.7417055,-0.284566,0.1820725,0.5591055,-0.069221,0.3332825,0.7357155,-0.212886,-0.2626675,0.9470455,-0.4488959999999999,0.3754325,0.9154755,-0.386576,-0.0863925,0.0004735,-0.0037719999999999,0.0863925,-0.0004735,0.003772,-0.1455375,-0.4126444999999999,-0.125836,0.1301625,-0.4445345,-0.081436,-0.1511575,-0.7990645000000001,-0.041908,0.1422925,-0.8322545,-0.031604,1
41,0.0104754999999999,0.740281,-0.148613,-0.1598745,0.546511,-0.103588,-0.2759744999999999,0.7358709999999999,-0.300693,0.1817455,0.556341,-0.079948,0.3334555,0.729291,-0.227113,-0.2611945,0.939141,-0.469503,0.3759255,0.902211,-0.4030729999999999,-0.0866655,0.000619,-0.0039169999999999,0.0866655,-0.0006189999999999,0.0039169999999999,-0.1463145,-0.405209,-0.132683,0.1297555,-0.437309,-0.089175,-0.1520645,-0.790909,-0.045929,0.1416855,-0.824689,-0.03614,1
42,0.01154,0.7376699999999999,-0.161133,-0.158221,0.54254,-0.114743,-0.274241,0.72959,-0.315663,0.181349,0.55349,-0.090427,0.333489,0.72327,-0.240593,-0.260011,0.93205,-0.490053,0.3760489999999999,0.88949,-0.417633,-0.086949,0.0007299999999999,-0.0040609999999999,0.086949,-0.00073,0.004061,-0.146951,-0.39748,-0.139463,0.129519,-0.42935,-0.097448,-0.153121,-0.78196,-0.050002,0.141079,-0.81652,-0.0411949999999999,1
43,0.0125955,0.7348399999999999,-0.174055,-0.1567115,0.53918,-0.125195,-0.2727215,0.72324,-0.330055,0.1811885,0.5506,-0.100702,0.3336085,0.7177,-0.253965,-0.2593614999999999,0.92475,-0.508915,0.3762985,0.8814099999999999,-0.433545,-0.0872185,0.0008099999999999,-0.00432,0.0872185,-0.00081,0.0043199999999999,-0.1475515,-0.3862,-0.146305,0.1293785,-0.41803,-0.105701,-0.1542615,-0.7722,-0.054471,0.1408984999999999,-0.80647,-0.047004,1
44,0.0132045,0.73156,-0.186248,-0.1553095,0.53572,-0.135098,-0.2715795,0.71648,-0.343878,0.1809305,0.54737,-0.110901,0.3335105,0.7104999999999999,-0.266408,-0.2589695,0.91762,-0.527208,0.3765505,0.8724099999999999,-0.451118,-0.0875205,0.00083,-0.004588,0.0875205,-0.0008299999999999,0.004588,-0.1481195,-0.3745799999999999,-0.153438,0.1294405,-0.4062699999999999,-0.114418,-0.1553495,-0.7621199999999999,-0.059279,0.1408104999999999,-0.7959099999999999,-0.052646,1
45,0.0138664999999999,0.728885,-0.20229,-0.1540765,0.533045,-0.14876,-0.2707665,0.709625,-0.36121,0.1808135,0.5447249999999999,-0.12491,0.3335134999999999,0.704045,-0.28288,-0.2584365,0.909135,-0.54961,0.3768435,0.8646750000000001,-0.47214,-0.0874935,0.000805,-0.004725,0.0874935,-0.000805,0.004725,-0.1485265,-0.362265,-0.16458,0.1297835,-0.393615,-0.12789,-0.1561765,-0.7511049999999999,-0.068679,0.1411934999999999,-0.784575,-0.06295,1
46,0.0144754999999999,0.72902,-0.21921,-0.1523705,0.5308,-0.16374,-0.2696105,0.7055,-0.37879,0.1809595,0.5423100000000001,-0.14006,0.3336895,0.7003300000000001,-0.30072,-0.2578105,0.9018,-0.57255,0.3774095,0.85937,-0.49458,-0.0873895,0.00082,-0.004896,0.0873895,-0.0008199999999999,0.004896,-0.1502005,-0.3474099999999999,-0.18373,0.1325995,-0.3743399999999999,-0.15275,-0.1577705,-0.7409299999999999,-0.083886,0.1428994999999999,-0.77043,-0.082158,1
47,0.014758,0.7288250000000001,-0.23506,-0.151048,0.5287649999999999,-0.17737,-0.269018,0.7015549999999999,-0.39473,0.1809319999999999,0.539245,-0.15375,0.333932,0.697765,-0.31751,-0.2571879999999999,0.894015,-0.59327,0.377882,0.8537950000000001,-0.51544,-0.0873319999999999,0.0009049999999999,-0.005056,0.0873319999999999,-0.000905,0.0050559999999999,-0.152108,-0.334715,-0.20209,0.135662,-0.359835,-0.17608,-0.158678,-0.727905,-0.094081,0.144722,-0.758105,-0.099534,1
48,0.0149834999999999,0.7275900000000001,-0.25054,-0.1497735,0.52798,-0.19026,-0.2687335,0.69793,-0.40988,0.1807665,0.5372,-0.16705,0.3338965,0.69501,-0.33335,-0.2569035,0.88658,-0.61307,0.3780465,0.8467,-0.53471,-0.0872565,0.00074,-0.005191,0.0872565,-0.0007399999999999,0.005191,-0.1544735,-0.3216,-0.22115,0.1388465,-0.34494,-0.19983,-0.1596035,-0.7145699999999999,-0.104282,0.1467065,-0.7453,-0.117139,1
49,0.0151604999999999,0.7266949999999999,-0.265164,-0.1485775,0.526485,-0.202794,-0.2686175,0.6905749999999999,-0.423834,0.1804925,0.534815,-0.179994,0.3338425,0.6906749999999999,-0.3490839999999999,-0.2571875,0.8788050000000001,-0.631974,0.3781925,0.838735,-0.553214,-0.0871725,0.0005649999999999,-0.005242,0.0871725,-0.000565,0.0052419999999999,-0.1572675,-0.308375,-0.240264,0.1420524999999999,-0.329875,-0.222304,-0.1605174999999999,-0.701095,-0.114163,0.1489625,-0.7321550000000001,-0.134376,1
50,0.015167,0.7267600000000001,-0.2783815,-0.147624,0.5235,-0.2155615,-0.268634,0.68529,-0.4365414999999999,0.180006,0.53155,-0.1923415,0.333736,0.68758,-0.3634015,-0.258384,0.86793,-0.6487615000000001,0.377856,0.8333400000000001,-0.5707815,-0.087086,0.0004,-0.0052374999999999,0.087086,-0.0004,0.0052374999999999,-0.1603939999999999,-0.29335,-0.2593115,0.145566,-0.3136099999999999,-0.2447915,-0.1614739999999999,-0.68538,-0.1238205,0.151326,-0.7200099999999999,-0.1509135,1
51,0.0147415,0.7260850000000001,-0.2912955,-0.1473645,0.522105,-0.2262455,-0.2690445,0.680815,-0.4482955,0.1792754999999999,0.5286649999999999,-0.2039055,0.3330555,0.684655,-0.3766555,-0.2601945,0.8580749999999999,-0.6637955,0.3767755,0.8285450000000001,-0.5888955,-0.0869555,0.000105,-0.0052055,0.0869555,-0.0001049999999999,0.0052055,-0.1641045,-0.278635,-0.2787555,0.1487754999999999,-0.2979249999999999,-0.2663055,-0.1624945,-0.670255,-0.1329945,0.1533655,-0.707975,-0.1675555,1
52,0.0141645,0.72488,-0.3029334999999999,-0.1473735,0.5212399999999999,-0.2362435,-0.2697535,0.6754899999999999,-0.4592435,0.1784665,0.5262899999999999,-0.2145835,0.3311965,0.67936,-0.3891035,-0.2625335,0.8481799999999999,-0.6775835,0.3750865,0.8228099999999999,-0.6047935,-0.0867965,-1.000000000001e-05,-0.0050754999999999,0.0867965,9.999999999982244e-06,0.0050754999999999,-0.1678435,-0.26438,-0.2977935,0.1520065,-0.2833799999999999,-0.2879335,-0.1637235,-0.65569,-0.1416895,0.1533365,-0.69393,-0.1754135,1
53,0.0130465,0.72424,-0.313731,-0.1475685,0.51915,-0.246321,-0.2708685,0.67127,-0.469161,0.1773315,0.52413,-0.224801,0.3288514999999999,0.67645,-0.401671,-0.2656785,0.83935,-0.6901109999999999,0.3728114999999999,0.81647,-0.617631,-0.0866915,-0.0002699999999999,-0.004809,0.0866915,0.0002699999999999,0.0048089999999999,-0.1718184999999999,-0.24961,-0.316851,0.1549115,-0.26841,-0.308941,-0.1651385,-0.6410399999999999,-0.14991,0.1530115,-0.67906,-0.182791,1
54,0.0115605,0.7227950000000001,-0.3199075,-0.1479755,0.5162450000000001,-0.2516775,-0.2721955,0.667325,-0.4743075,0.1758745,0.521245,-0.2302374999999999,0.3261945,0.6724950000000001,-0.4086774999999999,-0.2691655,0.831925,-0.6967175,0.3704845,0.8083750000000001,-0.6257975,-0.0868545,-0.0005749999999999,-0.0047394999999999,0.0868545,0.0005749999999999,0.0047394999999999,-0.1758855,-0.235145,-0.3316774999999999,0.1575345,-0.253685,-0.3247575,-0.1665855,-0.6273249999999999,-0.1528985,0.1523245,-0.664685,-0.1850175,1
55,0.0096655,0.71812,-0.324264,-0.1488805,0.5136499999999999,-0.255184,-0.2740605,0.65832,-0.477354,0.1743095,0.51721,-0.233974,0.3234395,0.66605,-0.413934,-0.2734005,0.82206,-0.701204,0.3673895,0.7977299999999999,-0.6311140000000001,-0.0871495,-0.0008199999999999,-0.004641,0.0871495,0.0008199999999999,0.0046409999999999,-0.1789605,-0.22243,-0.339224,0.1579095,-0.24092,-0.329724,-0.1677905,-0.61494,-0.153901,0.1512795,-0.65042,-0.185464,1
56,0.0076244999999999,0.714415,-0.327825,-0.1498995,0.511555,-0.258495,-0.2763295,0.650015,-0.479925,0.1727605,0.515065,-0.237535,0.3204205,0.6597850000000001,-0.419135,-0.2779895,0.813465,-0.704975,0.3639605,0.788725,-0.635895,-0.0873005,-0.001105,-0.004515,0.0873005,0.0011049999999999,0.004515,-0.1822395,-0.209415,-0.3464049999999999,0.1581205,-0.227905,-0.334625,-0.1690395,-0.601815,-0.154827,0.1500604999999999,-0.635755,-0.185855,1
57,0.0055419999999999,0.7119150000000001,-0.330972,-0.150857,0.508235,-0.261612,-0.278607,0.641895,-0.482112,0.171173,0.511455,-0.241152,0.317473,0.653995,-0.423442,-0.282667,0.804835,-0.7082620000000001,0.3607329999999999,0.7831250000000001,-0.641722,-0.087383,-0.001265,-0.004416,0.087383,0.001265,0.004416,-0.185347,-0.195965,-0.353302,0.158643,-0.214455,-0.339952,-0.170117,-0.588595,-0.156548,0.148893,-0.6209849999999999,-0.186362,1
58,0.003316,0.7088399999999999,-0.3342905,-0.152171,0.50545,-0.2644205,-0.280441,0.63706,-0.4843205,0.168989,0.50745,-0.2446605,0.314259,0.6490199999999999,-0.4270005,-0.287301,0.79681,-0.7107105,0.357069,0.77772,-0.6473905000000001,-0.0875789999999999,-0.0013799999999999,-0.0042885,0.0875789999999999,0.0013799999999999,0.0042885,-0.188541,-0.18395,-0.3596304999999999,0.159229,-0.20637,-0.3456005,-0.170711,-0.57181,-0.1545125,0.1466589999999999,-0.6076900000000001,-0.1799184999999999,1
59,0.0010879999999999,0.7059899999999999,-0.3374379999999999,-0.153592,0.5035499999999999,-0.267088,-0.282162,0.63188,-0.4861479999999999,0.166858,0.50554,-0.247878,0.310828,0.6432199999999999,-0.430728,-0.292092,0.79101,-0.7132080000000001,0.353568,0.77223,-0.653258,-0.087668,-0.00158,-0.004182,0.087668,0.0015799999999999,0.004182,-0.1917019999999999,-0.17289,-0.365118,0.1593279999999999,-0.19671,-0.351138,-0.171752,-0.55906,-0.154756,0.144318,-0.59443,-0.17303,1
60,-0.000789,0.702175,-0.3407865,-0.154869,0.502195,-0.2695965,-0.283269,0.6264149999999999,-0.4876065,0.165101,0.503475,-0.2511664999999999,0.307581,0.636715,-0.4357165,-0.296589,0.783955,-0.7158665,0.350511,0.765105,-0.6588265,-0.087741,-0.0016249999999999,-0.0041594999999999,0.087741,0.0016249999999999,0.0041595,-0.194329,-0.1625549999999999,-0.3697565,0.159611,-0.1874349999999999,-0.3567465,-0.172559,-0.5471250000000001,-0.1550004999999999,0.141971,-0.581925,-0.1672305,1
61,-0.0026499999999999,0.698385,-0.3444669999999999,-0.1560089999999999,0.499425,-0.272947,-0.284379,0.6214550000000001,-0.4898869999999999,0.163261,0.499835,-0.255247,0.305091,0.633275,-0.440077,-0.300419,0.777885,-0.7185469999999999,0.347901,0.758665,-0.6644369999999999,-0.087811,-0.0016449999999999,-0.004111,0.087811,0.001645,0.004111,-0.196879,-0.152235,-0.3739969999999999,0.160091,-0.177975,-0.362077,-0.1733789999999999,-0.535015,-0.155421,0.139431,-0.568905,-0.161186,1
62,-0.0042389999999999,0.69486,-0.348678,-0.15707,0.4971,-0.275918,-0.28493,0.61622,-0.492068,0.16175,0.4968599999999999,-0.259368,0.303,0.6286,-0.444988,-0.30376,0.77118,-0.7216680000000001,0.34513,0.75298,-0.670208,-0.0878199999999999,-0.0015999999999999,-0.003955,0.08782,0.0015999999999999,0.003955,-0.1992,-0.1425499999999999,-0.377698,0.1607,-0.16798,-0.367448,-0.17408,-0.52553,-0.156977,0.13709,-0.55429,-0.155611,1
63,-0.0058075,0.69142,-0.3528325,-0.1581365,0.49476,-0.2789224999999999,-0.2862965,0.61084,-0.4939825,0.1602635,0.49422,-0.2636925,0.3011435,0.6245,-0.4511025,-0.3068065,0.76388,-0.7256225000000001,0.3419935,0.74739,-0.6760225,-0.0878434999999999,-0.0015,-0.0036664999999999,0.0878435,0.0015,0.0036665,-0.2014965,-0.1320299999999999,-0.3809125,0.1613435,-0.15702,-0.3729325,-0.1748064999999999,-0.51457,-0.1580575,0.1350434999999999,-0.5392600000000001,-0.1501584999999999,1
64,-0.007287,0.6886699999999999,-0.3567965,-0.159154,0.4923299999999999,-0.2815365,-0.287744,0.60703,-0.4959665,0.158746,0.4926299999999999,-0.2676765,0.2993159999999999,0.6196999999999999,-0.4561765,-0.308984,0.75688,-0.7291964999999999,0.339116,0.74237,-0.6828365,-0.087826,-0.00148,-0.0033974999999999,0.087826,0.0014799999999999,0.0033974999999999,-0.203724,-0.12302,-0.3828265,0.1617859999999999,-0.14765,-0.3773365,-0.175444,-0.5052000000000001,-0.1592265,0.1344159999999999,-0.52847,-0.1505885,1
65,-0.0090644999999999,0.68491,-0.3606585,-0.1603085,0.487789,-0.2842185,-0.2893685,0.60224,-0.4978585,0.1570315,0.489417,-0.2719985,0.2963715,0.6157,-0.4610085,-0.3109885,0.74904,-0.7328285,0.3361415,0.73572,-0.6897985,-0.0879514999999999,-0.0016799999999999,-0.0032294999999999,0.0879514999999999,0.00168,0.0032295,-0.2059585,-0.1147199999999999,-0.3844585,0.1620515,-0.13898,-0.3814984999999999,-0.1761085,-0.49653,-0.1602715,0.1337315,-0.51855,-0.1511505,1
66,-0.0111735,0.680945,-0.3649975,-0.1620295,0.484936,-0.2868875,-0.2916295,0.5957950000000001,-0.4996975,0.1546005,0.487235,-0.2761274999999999,0.2930905,0.6113850000000001,-0.4663275,-0.3135595,0.739455,-0.7363975,0.3329704999999999,0.7284349999999999,-0.6967275,-0.0881105,-0.001925,-0.0029085,0.0881105,0.001925,0.0029084999999999,-0.2080695,-0.107855,-0.3855475,0.1617505,-0.131325,-0.3846775,-0.1770095,-0.488795,-0.1613375,0.1327905,-0.510065,-0.1518295,1
67,-0.01361,0.6774899999999999,-0.3690095,-0.163962,0.481363,-0.2895995,-0.294312,0.58945,-0.5013095,0.152008,0.485824,-0.2799095,0.289608,0.60713,-0.4717695,-0.316382,0.72973,-0.7399195000000001,0.329678,0.72109,-0.7033095,-0.088268,-0.00214,-0.0025415,0.088268,0.0021399999999999,0.0025415,-0.209952,-0.1015599999999999,-0.3864895,0.161068,-0.12406,-0.3875295,-0.177982,-0.48162,-0.1624215,0.131758,-0.5030600000000001,-0.1530045,1
68,-0.016092,0.6739850000000001,-0.372922,-0.165793,0.4777749999999999,-0.292332,-0.296553,0.582395,-0.502942,0.149277,0.48383,-0.283692,0.286367,0.6028749999999999,-0.478752,-0.318833,0.720175,-0.743212,0.3264169999999999,0.7138249999999999,-0.710412,-0.088457,-0.002465,-0.002236,0.088457,0.0024649999999999,0.002236,-0.211413,-0.095565,-0.387452,0.160407,-0.1166249999999999,-0.390392,-0.178883,-0.474535,-0.163687,0.130947,-0.496275,-0.154748,1
69,-0.0185554999999999,0.67118,-0.3765639999999999,-0.1676254999999999,0.474292,-0.295254,-0.2987155,0.57511,-0.504464,0.1464245,0.481317,-0.287634,0.2834045,0.5997399999999999,-0.484624,-0.3213155,0.70992,-0.7463339999999999,0.3229145,0.70661,-0.716424,-0.0886645,-0.0026999999999999,-0.001958,0.0886645,0.0026999999999999,0.001958,-0.2126255,-0.0899599999999999,-0.3885639999999999,0.1597144999999999,-0.10983,-0.393184,-0.1798755,-0.46761,-0.1650519999999999,0.1301844999999999,-0.48999,-0.156272,1
70,-0.0210089999999999,0.66877,-0.3797635,-0.169507,0.4714549999999999,-0.2973135,-0.300647,0.5683,-0.5057134999999999,0.143753,0.4802809999999999,-0.2907035,0.280773,0.59578,-0.4904535,-0.323917,0.70008,-0.7491734999999999,0.3193229999999999,0.6998,-0.7221835000000001,-0.0888529999999999,-0.00313,-0.0018254999999999,0.088853,0.0031299999999999,0.0018255,-0.2137069999999999,-0.08527,-0.3896035,0.158913,-0.10382,-0.3954135,-0.180817,-0.46138,-0.1659665,0.129363,-0.48497,-0.1574165,1
71,-0.0234784999999999,0.665975,-0.3824435,-0.1711254999999999,0.469447,-0.2991534999999999,-0.3028755,0.561245,-0.5066135,0.1410345,0.478822,-0.2935235,0.2781845,0.592265,-0.4953735,-0.3265055,0.690535,-0.7513635,0.3160145,0.692995,-0.7279935,-0.0890044999999999,-0.0034549999999999,-0.0017174999999999,0.0890044999999999,0.003455,0.0017174999999999,-0.2146655,-0.0813349999999999,-0.3904535,0.1580244999999999,-0.0986349999999999,-0.3971935,-0.1817055,-0.456515,-0.1667374999999999,0.1285145,-0.481085,-0.1581785,1
72,-0.025665,0.662685,-0.3846739999999999,-0.17242,0.4678799999999999,-0.300674,-0.3051399999999999,0.554105,-0.507504,0.13869,0.4770189999999999,-0.295914,0.2758199999999999,0.588165,-0.498934,-0.32889,0.6815549999999999,-0.752714,0.3131,0.686805,-0.732794,-0.0891899999999999,-0.003525,-0.001718,0.0891899999999999,0.003525,0.0017179999999999,-0.21539,-0.078605,-0.390864,0.15741,-0.094855,-0.398514,-0.18256,-0.452495,-0.167078,0.1282599999999999,-0.477635,-0.158952,1
73,-0.0273439999999999,0.658635,-0.3867265,-0.173116,0.466187,-0.3020365,-0.3072859999999999,0.547775,-0.5084765,0.136854,0.4746829999999999,-0.2981565,0.273924,0.584105,-0.5023765,-0.330976,0.673635,-0.7537864999999999,0.310384,0.6803049999999999,-0.7374164999999999,-0.0893539999999999,-0.0034049999999999,-0.0017304999999999,0.0893539999999999,0.0034049999999999,0.0017305,-0.215666,-0.077065,-0.3911665,0.157284,-0.092615,-0.3991565,-0.183086,-0.450235,-0.1674005,0.128354,-0.475765,-0.1594265,1
74,-0.0285819999999999,0.656345,-0.388743,-0.1735229999999999,0.466187,-0.303153,-0.309213,0.543275,-0.509373,0.135557,0.474359,-0.299853,0.273047,0.579905,-0.505513,-0.332893,0.667125,-0.755193,0.308007,0.675495,-0.740583,-0.089397,-0.0034049999999999,-0.0017189999999999,0.089397,0.0034049999999999,0.0017189999999999,-0.2156729999999999,-0.075885,-0.391383,0.157357,-0.090935,-0.399473,-0.1833229999999999,-0.449405,-0.167888,0.128747,-0.474335,-0.159923,1
75,-0.0295575,0.655045,-0.3904364999999999,-0.1735725,0.466187,-0.3040365,-0.3096225,0.541275,-0.5097865,0.1345674999999999,0.474359,-0.3013465,0.2722774999999999,0.578075,-0.5079665,-0.3342225,0.663265,-0.7564665,0.3057674999999999,0.671385,-0.7427665,-0.0894075,-0.0034049999999999,-0.0015814999999999,0.0894075,0.0034049999999999,0.0015814999999999,-0.2155625,-0.075305,-0.3915665,0.1573774999999999,-0.090225,-0.3997365,-0.1835125,-0.449245,-0.1683445,0.1289775,-0.473915,-0.1601245,1
76,-0.0306109999999999,0.655045,-0.3924415,-0.17383,0.466187,-0.3050115,-0.31041,0.540355,-0.5104015,0.13348,0.474359,-0.3030715,0.27154,0.577955,-0.5102115,-0.33566,0.660595,-0.7580815000000001,0.30377,0.669295,-0.7454015,-0.0895199999999999,-0.0034049999999999,-0.0013944999999999,0.0895199999999999,0.0034049999999999,0.0013945,-0.21559,-0.0744849999999999,-0.3917815,0.15718,-0.0894349999999999,-0.4003015,-0.18383,-0.449155,-0.1693575,0.12899,-0.473405,-0.1609634999999999,1
77,-0.0314065,0.65381,-0.3945625,-0.1740175,0.464979,-0.3060225,-0.3110775,0.53912,-0.5113825000000001,0.1327325,0.473124,-0.3048025,0.2709025,0.57672,-0.5109725,-0.3368475,0.65813,-0.7598425,0.3022025,0.66759,-0.7462325,-0.0895425,-0.0033,-0.0012454999999999,0.0895425,0.0033,0.0012454999999999,-0.2153375,-0.0745999999999999,-0.3918225,0.1570125,-0.0896499999999999,-0.4006625,-0.1842075,-0.45019,-0.1717705,0.1290224999999999,-0.47464,-0.1620005,1
78,-0.0318355,0.65202,-0.3970715,-0.1739355,0.463837,-0.3071515,-0.3110955,0.53733,-0.5129015,0.1325545,0.471678,-0.3066115,0.2703545,0.5749299999999999,-0.5120015,-0.3372755,0.6563399999999999,-0.7614115,0.3017345,0.6658,-0.7472615,-0.0896545,-0.00329,-0.0012254999999999,0.0896545,0.00329,0.0012255,-0.2146255,-0.07521,-0.3920715,0.1570145,-0.09042,-0.4005515,-0.1840854999999999,-0.45254,-0.1747325,0.1294545,-0.47623,-0.1634025,1
79,-0.0316685,0.649205,-0.3995329999999999,-0.1734965,0.462387,-0.308453,-0.3107465,0.533915,-0.514223,0.1327435,0.469645,-0.308153,0.2707135,0.572265,-0.513193,-0.3367565,0.652925,-0.763803,0.3023834999999999,0.662385,-0.748753,-0.0897835,-0.0033449999999999,-0.0013589999999999,0.0897835,0.0033449999999999,0.0013589999999999,-0.2136465,-0.076685,-0.3922529999999999,0.1569435,-0.0925149999999999,-0.399903,-0.1837765,-0.456635,-0.177864,0.1303535,-0.479645,-0.164986,1
80,-0.0311215,0.645985,-0.4018165,-0.1729675,0.460458,-0.3098864999999999,-0.3104675,0.529655,-0.5156765,0.1329725,0.468281,-0.3094065,0.2714224999999999,0.567965,-0.5140565,-0.3359275,0.648115,-0.7661465,0.3031124999999999,0.657575,-0.7498365,-0.0898625,-0.003475,-0.0014884999999999,0.0898625,0.003475,0.0014885,-0.2126375,-0.0792249999999999,-0.3921464999999999,0.1568025,-0.0959749999999999,-0.3988165,-0.1833775,-0.4621749999999999,-0.1810034999999999,0.1315925,-0.484385,-0.1668355,1
81,-0.030237,0.64276,-0.4035094999999999,-0.172283,0.458083,-0.3115095,-0.310023,0.52525,-0.5176795,0.133317,0.466794,-0.3108895,0.272297,0.56315,-0.5155395,-0.3349629999999999,0.64185,-0.7688595,0.303977,0.65176,-0.7512595,-0.089917,-0.0035899999999999,-0.0015835,0.089917,0.00359,0.0015835,-0.211513,-0.0825299999999999,-0.3920895,0.156557,-0.1016699999999999,-0.3968795,-0.183073,-0.4699,-0.1843354999999999,0.133017,-0.49156,-0.1690075,1
82,-0.0289404999999999,0.639745,-0.40609,-0.1711765,0.455758,-0.31372,-0.3092264999999999,0.521015,-0.52047,0.1343435,0.464945,-0.3131,0.2735335,0.558205,-0.51737,-0.3335864999999999,0.637535,-0.77252,0.3053235,0.646695,-0.7533000000000001,-0.0900634999999999,-0.003415,-0.00148,0.0900634999999999,0.003415,0.0014799999999999,-0.2095065,-0.088085,-0.3913,0.1563635,-0.1094649999999999,-0.39497,-0.1824765,-0.480225,-0.188494,0.1349735,-0.501225,-0.172298,1
83,-0.027496,0.63702,-0.40892,-0.169602,0.453918,-0.31646,-0.308072,0.51693,-0.52375,0.1356979999999999,0.463083,-0.31584,0.274898,0.5536300000000001,-0.51918,-0.331952,0.63329,-0.77642,0.307758,0.6412599999999999,-0.75543,-0.090108,-0.0031499999999999,-0.00133,0.090108,0.0031499999999999,0.0013299999999999,-0.206842,-0.0949599999999999,-0.39007,0.156188,-0.11766,-0.39322,-0.183272,-0.49293,-0.197955,0.1382479999999999,-0.5125,-0.182939,1
84,-0.0260929999999999,0.63463,-0.412045,-0.168168,0.4516559999999999,-0.319365,-0.306918,0.51401,-0.526885,0.136912,0.4612679999999999,-0.318655,0.276532,0.5516099999999999,-0.521255,-0.330118,0.62958,-0.7806949999999999,0.310972,0.6371,-0.757405,-0.0899919999999999,-0.00323,-0.0014549999999999,0.0899919999999999,0.0032299999999999,0.001455,-0.204098,-0.10239,-0.388935,0.155722,-0.12499,-0.389765,-0.183938,-0.50625,-0.207775,0.141352,-0.52536,-0.193925,1
85,-0.0244084999999999,0.6326099999999999,-0.41536,-0.1666375,0.44936,-0.32233,-0.3054475,0.5104799999999999,-0.53023,0.1382525,0.4606869999999999,-0.32103,0.2784225,0.54869,-0.52284,-0.3278175,0.62486,-0.78513,0.3150925,0.6321,-0.75851,-0.0898825,-0.0037,-0.0018299999999999,0.0898825,0.0036999999999999,0.0018299999999999,-0.2010674999999999,-0.11152,-0.38713,0.1551525,-0.13365,-0.38585,-0.1842575,-0.52161,-0.2173999999999999,0.1446025,-0.53984,-0.204496,1
86,-0.0224689999999999,0.63113,-0.41852,-0.1648619999999999,0.447445,-0.32509,-0.3037419999999999,0.50725,-0.53344,0.139768,0.45954,-0.32314,0.280518,0.54665,-0.5239199999999999,-0.325172,0.62037,-0.7882800000000001,0.319708,0.62695,-0.75922,-0.089698,-0.00386,-0.00216,0.089698,0.0038599999999999,0.0021599999999999,-0.197762,-0.1207,-0.38522,0.154708,-0.14266,-0.38174,-0.1840119999999999,-0.53741,-0.22454,0.147808,-0.55525,-0.21323,1
87,-0.0205125,0.63,-0.421515,-0.1632205,0.44616,-0.327765,-0.3020005,0.50455,-0.536725,0.1413795,0.45892,-0.324995,0.2827795,0.54308,-0.524165,-0.3222405,0.6167100000000001,-0.791725,0.3243995,0.62235,-0.760105,-0.0894195,-0.0039699999999999,-0.0025049999999999,0.0894195,0.00397,0.002505,-0.1941905,-0.13038,-0.382995,0.1542394999999999,-0.1524399999999999,-0.377255,-0.1837205,-0.5536,-0.230295,0.1504895,-0.5713199999999999,-0.2198149999999999,1
88,-0.0180245,0.629385,-0.4241749999999999,-0.1613925,0.446115,-0.329995,-0.3000925,0.502245,-0.539475,0.1434375,0.459295,-0.3259849999999999,0.2853874999999999,0.540455,-0.524295,-0.3190025,0.613075,-0.794795,0.3291475,0.618285,-0.760765,-0.0889375,-0.0037449999999999,-0.002795,0.0889375,0.0037449999999999,0.0027949999999999,-0.1902025,-0.141175,-0.380375,0.1544975,-0.162665,-0.372185,-0.1829025,-0.569965,-0.235375,0.1531775,-0.588025,-0.225585,1
89,-0.01518,0.6294550000000001,-0.4257499999999999,-0.159474,0.447595,-0.33239,-0.297634,0.501055,-0.54118,0.145296,0.460955,-0.32772,0.288486,0.538745,-0.52364,-0.315524,0.609035,-0.79749,0.334196,0.613975,-0.7612,-0.088456,-0.0036249999999999,-0.00316,0.0884559999999999,0.003625,0.0031599999999999,-0.185714,-0.1547549999999999,-0.37576,0.154866,-0.1756249999999999,-0.36466,-0.181804,-0.588905,-0.24111,0.155616,-0.6071949999999999,-0.23064,1
90,-0.0123419999999999,0.630505,-0.4270799999999999,-0.157426,0.448725,-0.33502,-0.295606,0.501065,-0.54291,0.147424,0.461895,-0.32969,0.292314,0.538015,-0.5226299999999999,-0.311846,0.6079950000000001,-0.7999700000000001,0.340184,0.611495,-0.7619199999999999,-0.0880239999999999,-0.003485,-0.0035899999999999,0.088024,0.003485,0.00359,-0.180946,-0.1696349999999999,-0.37009,0.155534,-0.188515,-0.35636,-0.180876,-0.6075649999999999,-0.2458499999999999,0.157714,-0.6257649999999999,-0.23518,1
91,-0.0098989999999999,0.632425,-0.425435,-0.155737,0.450125,-0.334765,-0.294827,0.5042949999999999,-0.541925,0.1494829999999999,0.465215,-0.327895,0.296163,0.539775,-0.519425,-0.309037,0.606625,-0.799725,0.345333,0.6115349999999999,-0.760035,-0.087393,-0.0036249999999999,-0.0045449999999999,0.087393,0.0036249999999999,0.0045449999999999,-0.1777269999999999,-0.1861149999999999,-0.361965,0.1558729999999999,-0.2034849999999999,-0.344425,-0.1808969999999999,-0.626015,-0.248165,0.159803,-0.644085,-0.237405,1
92,-0.0080275,0.635375,-0.423555,-0.1549434999999999,0.452725,-0.333765,-0.2943935,0.506705,-0.541105,0.1509465,0.4684549999999999,-0.325785,0.2995764999999999,0.5422549999999999,-0.516445,-0.3069335,0.607235,-0.799685,0.3491864999999999,0.612865,-0.757655,-0.0869065,-0.003755,-0.005365,0.0869065,0.003755,0.0053649999999999,-0.1751134999999999,-0.2024449999999999,-0.3531849999999999,0.1550965,-0.2198149999999999,-0.331455,-0.1800034999999999,-0.6423449999999999,-0.250495,0.1606965,-0.660415,-0.239625,1
93,-0.0061505,0.639985,-0.421365,-0.1533665,0.455745,-0.332375,-0.2938064999999999,0.508775,-0.539955,0.1529335,0.472655,-0.323245,0.3026535,0.543995,-0.512165,-0.3047765,0.609365,-0.7999450000000001,0.3526135,0.615475,-0.754885,-0.0864735,-0.0037149999999999,-0.005735,0.0864735,0.0037149999999999,0.0057349999999999,-0.1725865,-0.218475,-0.343135,0.1549235,-0.2351649999999999,-0.318505,-0.1794665,-0.659945,-0.253335,0.1620535,-0.679225,-0.242285,1
94,-0.0042365,0.64622,-0.416225,-0.1520615,0.4603399999999999,-0.327625,-0.2926015,0.51476,-0.535725,0.1545085,0.47682,-0.317835,0.3054685,0.55062,-0.505375,-0.3028115,0.6181,-0.795975,0.3555385,0.6243000000000001,-0.749895,-0.0858985,-0.0032399999999999,-0.006005,0.0858985,0.0032399999999999,0.0060049999999999,-0.1707415,-0.23391,-0.330295,0.1539585,-0.2506,-0.302045,-0.1793015,-0.67648,-0.253505,0.1628385,-0.69466,-0.242355,1
95,-0.0026745,0.6505449999999999,-0.4108199999999999,-0.1514195,0.464255,-0.32303,-0.2921195,0.520815,-0.53174,0.1558505,0.479815,-0.31285,0.3083405,0.556495,-0.4998,-0.3012795,0.6261950000000001,-0.7923,0.3580804999999999,0.633065,-0.74539,-0.0855305,-0.002965,-0.0062699999999999,0.0855305,0.0029649999999999,0.0062699999999999,-0.1695795,-0.251125,-0.31386,0.1524205,-0.270615,-0.28209,-0.1784295,-0.6929150000000001,-0.24851,0.1620405,-0.712695,-0.234952,1
96,-0.0006094999999999,0.6577649999999999,-0.403505,-0.1506905,0.468125,-0.318285,-0.2911805,0.527835,-0.5265949999999999,0.1572195,0.4827349999999999,-0.308435,0.3112095,0.563215,-0.493915,-0.3000305,0.6379049999999999,-0.786695,0.3605695,0.645505,-0.738345,-0.0851895,-0.002405,-0.0063249999999999,0.0851895,0.0024049999999999,0.0063249999999999,-0.1686605,-0.265575,-0.297995,0.1503895,-0.284475,-0.260005,-0.1775305,-0.708755,-0.243275,0.1597295,-0.727125,-0.223794,1
97,0.0012109999999999,0.66559,-0.3958199999999999,-0.150181,0.47318,-0.31278,-0.289811,0.5390900000000001,-0.5219199999999999,0.159239,0.48841,-0.3023599999999999,0.3146989999999999,0.57222,-0.48678,-0.298671,0.65314,-0.7805599999999999,0.362919,0.65961,-0.7311599999999999,-0.084969,-0.0023199999999999,-0.0063799999999999,0.084969,0.00232,0.0063799999999999,-0.167721,-0.28109,-0.27992,0.148539,-0.2993099999999999,-0.238891,-0.176941,-0.72307,-0.236371,0.157229,-0.7396,-0.213196,1
98,0.0027384999999999,0.6716949999999999,-0.38802,-0.1497235,0.476805,-0.30673,-0.2882635,0.548185,-0.5183,0.1610164999999999,0.4899949999999999,-0.29589,0.3179965,0.580505,-0.48042,-0.2976335,0.671275,-0.77433,0.3645465,0.676025,-0.72416,-0.0847365,-0.0016849999999999,-0.0063799999999999,0.0847365,0.0016849999999999,0.0063799999999999,-0.1654135,-0.2975649999999999,-0.2621,0.1465864999999999,-0.315125,-0.218213,-0.1745835,-0.736515,-0.227932,0.1546965,-0.752225,-0.204117,1
99,0.0043559999999999,0.6808049999999999,-0.378145,-0.149538,0.482535,-0.299415,-0.287188,0.5608150000000001,-0.512575,0.162712,0.4943349999999999,-0.287645,0.320642,0.590395,-0.472835,-0.297158,0.6899649999999999,-0.765975,0.365252,0.694615,-0.714325,-0.084592,-0.001075,-0.0063549999999999,0.084592,0.0010749999999999,0.0063549999999999,-0.163408,-0.313095,-0.243949,0.144382,-0.330535,-0.198787,-0.172478,-0.748205,-0.220128,0.151762,-0.7614750000000001,-0.194369,1
100,0.0058679999999999,0.6897500000000001,-0.3663349999999999,-0.149287,0.48959,-0.291725,-0.286287,0.57516,-0.505565,0.163953,0.49672,-0.280975,0.322203,0.60294,-0.463555,-0.296457,0.7123600000000001,-0.755415,0.365703,0.71288,-0.701245,-0.084293,-0.0003799999999999,-0.0062649999999999,0.084293,0.00038,0.0062649999999999,-0.161607,-0.32725,-0.226649,0.1420529999999999,-0.34445,-0.181248,-0.170567,-0.75755,-0.212482,0.148953,-0.76908,-0.185365,1
101,0.007534,0.697465,-0.3509649999999999,-0.149034,0.494855,-0.283275,-0.286644,0.593175,-0.496715,0.165376,0.499745,-0.272855,0.323806,0.616315,-0.451795,-0.295564,0.738815,-0.741905,0.366426,0.7323850000000001,-0.6855150000000001,-0.083906,0.000145,-0.006335,0.083906,-0.0001449999999999,0.0063349999999999,-0.1599739999999999,-0.340945,-0.209047,0.140056,-0.356965,-0.162814,-0.168684,-0.765275,-0.202758,0.146396,-0.775205,-0.17519,1
102,0.009264,0.7025049999999999,-0.333165,-0.14938,0.502985,-0.271395,-0.28711,0.6119749999999999,-0.485185,0.1680299999999999,0.5057149999999999,-0.261235,0.32567,0.628875,-0.438945,-0.29461,0.764975,-0.724855,0.36691,0.752085,-0.667055,-0.08357,0.0003549999999999,-0.0064749999999999,0.08357,-0.000355,0.006475,-0.15833,-0.355315,-0.1915299999999999,0.13799,-0.371645,-0.144915,-0.16692,-0.773555,-0.19299,0.1442999999999999,-0.786965,-0.1670199999999999,1
103,0.011187,0.70599,-0.31256,-0.149665,0.50866,-0.25998,-0.288545,0.62935,-0.47147,0.170545,0.51049,-0.24974,0.327715,0.64017,-0.42475,-0.293655,0.78958,-0.70398,0.367175,0.76954,-0.64619,-0.0831949999999999,0.0004399999999999,-0.0065399999999999,0.0831949999999999,-0.00044,0.00654,-0.156875,-0.36981,-0.173874,0.135685,-0.3898,-0.127891,-0.165545,-0.78186,-0.182306,0.1420249999999999,-0.79823,-0.1581509999999999,1
104,0.0131574999999999,0.710322,-0.292255,-0.1498595,0.513622,-0.248335,-0.2898394999999999,0.645962,-0.456045,0.1734204999999999,0.518432,-0.236758,0.3297405,0.652262,-0.407955,-0.2926694999999999,0.8150820000000001,-0.6810449999999999,0.3673005,0.7885220000000001,-0.6228750000000001,-0.0829805,0.000589,-0.0063149999999999,0.0829805,-0.0005889999999999,0.006315,-0.1550895,-0.3829979999999999,-0.159509,0.1335704999999999,-0.4067379999999999,-0.114476,-0.1643095,-0.788338,-0.171607,0.1400305,-0.8079379999999999,-0.150282,1
105,0.0142385,0.717575,-0.266055,-0.1507215,0.522435,-0.228411,-0.2903214999999999,0.661905,-0.433635,0.1758984999999999,0.524555,-0.217183,0.3316585,0.663725,-0.385375,-0.2915115,0.839265,-0.649655,0.3669285,0.806205,-0.593815,-0.0828385,0.0006329999999999,-0.005885,0.0828385,-0.0006329999999999,0.005885,-0.1538015,-0.397045,-0.138683,0.1318184999999999,-0.424505,-0.098037,-0.1633115,-0.796015,-0.155037,0.1392084999999999,-0.819155,-0.140361,1
106,0.0157795,0.7249194999999999,-0.240635,-0.1513025,0.5300795,-0.210261,-0.2897725,0.6771794999999999,-0.410085,0.1785975,0.5285895,-0.199957,0.3339375,0.6756495,-0.361975,-0.2899325,0.8657294999999999,-0.615315,0.3669675,0.8259894999999999,-0.561215,-0.0826875,0.0009465,-0.005015,0.0826875,-0.0009464999999999,0.005015,-0.1526125,-0.4099005,-0.122265,0.1304575,-0.4403005,-0.083993,-0.1619225,-0.8036705000000001,-0.142411,0.1387875,-0.8299405,-0.132205,1
107,0.0172959999999999,0.7341185,-0.2140659999999999,-0.151777,0.5378685,-0.1911709999999999,-0.2892369999999999,0.6980485000000001,-0.3828,0.181263,0.5354885,-0.181006,0.336163,0.6882085,-0.33655,-0.288217,0.8915885,-0.57841,0.367173,0.8452485000000001,-0.5257,-0.082453,0.0008324999999999,-0.0042399999999999,0.082453,-0.0008324999999999,0.00424,-0.1531269999999999,-0.4180215,-0.10774,0.129913,-0.4460015,-0.07219,-0.162427,-0.8126715,-0.131461,0.1384429999999999,-0.8398015,-0.123001,1
108,0.0182715,0.7401004999999999,-0.18642,-0.1525195,0.5447505,-0.170282,-0.2886995,0.7147605,-0.35535,0.1836405,0.5405905,-0.161694,0.3384905,0.7000605,-0.30898,-0.2866395,0.9167505,-0.53928,0.3670305,0.8626005,-0.4890799999999999,-0.0820805,0.0007194999999999,-0.0037,0.0820805,-0.0007195,0.0036999999999999,-0.1536295,-0.4263095,-0.093392,0.1286605,-0.4570095,-0.059119,-0.1628995,-0.8191995000000001,-0.119043,0.1380305,-0.8466295,-0.112429,1
109,0.0190855,0.7456674999999999,-0.161265,-0.1533235,0.5499474999999999,-0.150731,-0.2888235,0.7271475,-0.329073,0.1863565,0.5462275,-0.141712,0.3408165,0.7077374999999999,-0.283083,-0.2854335,0.9374475,-0.502003,0.3667265,0.8799775,-0.455183,-0.0817265,0.0005585,-0.0031069999999999,0.0817265,-0.0005584999999999,0.003107,-0.1541435,-0.4348125,-0.0810699999999999,0.1274865,-0.4660825,-0.0475329999999999,-0.1632635,-0.8258725,-0.108052,0.1377965,-0.8558925000000001,-0.102099,1
110,0.0199574999999999,0.7515925,-0.136309,-0.1542235,0.5555025,-0.129094,-0.2889935,0.7373725,-0.300827,0.1894265,0.5517425,-0.119696,0.3430565,0.7146925000000001,-0.255367,-0.2842035,0.9538725,-0.4629169999999999,0.3664165,0.8961725,-0.419967,-0.0814665,0.0005434999999999,-0.002556,0.0814665,-0.0005435,0.002556,-0.1544135,-0.4409475,-0.067971,0.1268165,-0.4705375,-0.0360039999999999,-0.1634035,-0.8325475,-0.096195,0.1378365,-0.8627475,-0.090767,1
111,0.020297,0.7591015,-0.111122,-0.155126,0.5582515,-0.1085489999999999,-0.2890959999999999,0.7467315,-0.27236,0.191024,0.5538715,-0.099155,0.344834,0.7223815,-0.22709,-0.2834859999999999,0.9691115,-0.42402,0.365964,0.9101415,-0.38401,-0.081164,0.0009045,-0.0020079999999999,0.081164,-0.0009045,0.002008,-0.154756,-0.4499485,-0.0545119999999999,0.125804,-0.4819085,-0.0237769999999999,-0.1636059999999999,-0.8390985000000001,-0.0830229999999999,0.138044,-0.8736285,-0.079648,1
112,0.019903,0.767026,-0.087295,-0.155958,0.561836,-0.086963,-0.288838,0.754806,-0.24435,0.192732,0.556326,-0.077914,0.346302,0.728886,-0.19818,-0.283338,0.981526,-0.38607,0.365642,0.922656,-0.34735,-0.080932,0.001159,-0.001475,0.080932,-0.001159,0.0014749999999999,-0.154868,-0.458134,-0.041592,0.124932,-0.492544,-0.010917,-0.163768,-0.844814,-0.06985,0.1381019999999999,-0.880544,-0.068768,1
113,0.0193259999999999,0.7754915,-0.06455,-0.156821,0.5667015,-0.066806,-0.288501,0.7637115,-0.2186169999999999,0.193989,0.5569515,-0.059299,0.347339,0.7355115,-0.171917,-0.283401,0.9944015,-0.350417,0.365339,0.9362115,-0.313967,-0.080829,0.0014444999999999,-0.0011929999999999,0.080829,-0.0014445,0.0011929999999999,-0.154991,-0.4643785,-0.030341,0.124129,-0.5014785,0.00028,-0.163821,-0.8490585,-0.058414,0.138409,-0.8897685,-0.059017,1
114,0.0190135,0.7785055,-0.0490274999999999,-0.1573355,0.5679155,-0.0548824999999999,-0.2877855,0.7726255,-0.1999155,0.1956845,0.5594155,-0.0469664999999999,0.3483745,0.7430654999999999,-0.1518554999999999,-0.2835455,1.0054855,-0.3237455,0.3656244999999999,0.9477455,-0.2872455,-0.0807645,0.0017144999999999,-0.0011344999999999,0.0807645,-0.0017145,0.0011345,-0.1546555,-0.4685845,-0.0251764999999999,0.1238545,-0.5064545,0.0050435,-0.1633955,-0.8515345,-0.0531214999999999,0.1390145,-0.8968045,-0.0539604999999999,1
115,0.0186875,0.7797445000000001,-0.0341525,-0.1578175,0.5685045000000001,-0.0434735,-0.2872775,0.7783745000000001,-0.1831865,0.1967825,0.5604445,-0.0361025,0.3485825,0.7479145,-0.1348265,-0.2841375,1.0118144999999998,-0.3010164999999999,0.3659225,0.9553045,-0.2651065,-0.0807025,0.0020244999999999,-0.0010835,0.0807025,-0.0020245,0.0010834999999999,-0.1542375,-0.4713455,-0.0198835,0.1236724999999999,-0.5110454999999999,0.0088484999999999,-0.1629475,-0.8548355,-0.0476605,0.1394625,-0.9003455,-0.0486845,1
116,0.0184609999999999,0.780774,-0.0201755,-0.1583109999999999,0.569244,-0.0326614999999999,-0.287131,0.779884,-0.1687925,0.197819,0.561094,-0.0260884999999999,0.348659,0.752654,-0.1184494999999999,-0.284771,1.016954,-0.2807925,0.366099,0.961504,-0.2443725,-0.080599,0.002366,-0.0012084999999999,0.080599,-0.002366,0.0012085,-0.153701,-0.473276,-0.0156625,0.123679,-0.515166,0.0119075,-0.162461,-0.857626,-0.0424854999999999,0.1399889999999999,-0.903306,-0.0442175,1
117,0.0181709999999999,0.7815409999999999,-0.007176,-0.15877,0.569561,-0.02279,-0.28724,0.781481,-0.15464,0.19869,0.562031,-0.01626,0.3483699999999999,0.7564409999999999,-0.103874,-0.28542,1.020881,-0.26277,0.366,0.966631,-0.22479,-0.08052,0.0027029999999999,-0.001401,0.08052,-0.002703,0.0014009999999999,-0.15332,-0.4746289999999999,-0.012771,0.1237699999999999,-0.515529,0.0141529999999999,-0.16209,-0.8590190000000001,-0.037746,0.14022,-0.904289,-0.038747,1
118,0.0174579999999999,0.782281,0.0049244999999999,-0.159466,0.569831,-0.0136065,-0.287446,0.782581,-0.1419585,0.199234,0.5623710000000001,-0.0082625,0.348014,0.759491,-0.0904095,-0.286086,1.024351,-0.2460185,0.365964,0.968691,-0.2073385,-0.080464,0.003025,-0.0015055,0.080464,-0.003025,0.0015055,-0.152926,-0.476799,-0.0111985,0.123914,-0.516139,0.0164724999999999,-0.161746,-0.859359,-0.0335125,0.140224,-0.905069,-0.0336165,1
119,0.0165749999999999,0.7828875,0.016466,-0.160355,0.5700275,-0.005278,-0.287675,0.7832275,-0.13024,0.199525,0.5625074999999999,-0.001322,0.347705,0.7618375,-0.078278,-0.286705,1.0266475000000002,-0.23089,0.3660049999999999,0.9700975,-0.19146,-0.080415,0.0032765,-0.0014289999999999,0.080415,-0.0032765,0.0014289999999999,-0.152615,-0.4789025,-0.009692,0.1241349999999999,-0.5180525,0.018138,-0.161355,-0.8601025,-0.029588,0.140185,-0.9063225,-0.028802,1
120,0.0155394999999999,0.7834325,0.027286,-0.1613265,0.5700624999999999,0.0024619999999999,-0.2880365,0.7837824999999999,-0.119509,0.1996734999999999,0.5628525,0.005986,0.3473635,0.7628425,-0.066742,-0.2874265,1.0291825,-0.217229,0.3660035,0.9715725,-0.177289,-0.0803135,0.0033405,-0.001268,0.0803135,-0.0033405,0.001268,-0.1523665,-0.4795675,-0.0083379999999999,0.1243234999999999,-0.5185175000000001,0.0191789999999999,-0.1610365,-0.8600375,-0.0260919999999999,0.1401434999999999,-0.9067475,-0.024453,1
121,0.014432,0.783898,0.0370005,-0.16245,0.570098,0.0096494999999999,-0.28837,0.784028,-0.1101695,0.19958,0.563198,0.0141794999999999,0.34704,0.763128,-0.0562365,-0.28811,1.031558,-0.2055965,0.36595,0.972188,-0.1648765,-0.08019,0.003451,-0.0011475,0.08019,-0.003451,0.0011474999999999,-0.15221,-0.480452,-0.0073285,0.12443,-0.518802,0.0200335,-0.16073,-0.860132,-0.0229225,0.14,-0.906862,-0.0204955,1
122,0.0132469999999999,0.784483,0.046005,-0.163565,0.570053,0.016039,-0.288645,0.784173,-0.101892,0.199465,0.5635530000000001,0.022033,0.346765,0.763013,-0.0469119999999999,-0.288695,1.033843,-0.1952529999999999,0.365945,0.972073,-0.153723,-0.079995,0.003439,-0.001133,0.079995,-0.003439,0.001133,-0.152065,-0.4805669999999999,-0.006619,0.124485,-0.518917,0.020876,-0.160465,-0.8600369999999999,-0.019928,0.139805,-0.906897,-0.0172,1
123,0.012123,0.7847869999999999,0.0545365,-0.164665,0.569977,0.0218225,-0.288955,0.784207,-0.0949064999999999,0.199345,0.5637669999999999,0.0293644999999999,0.346565,0.762937,-0.0387234999999999,-0.289205,1.035767,-0.1866555,0.366075,0.971997,-0.1453655,-0.079835,0.003415,-0.0011764999999999,0.079835,-0.003415,0.0011765,-0.151965,-0.483873,-0.0059965,0.124515,-0.519143,0.0218425,-0.160405,-0.8596830000000001,-0.0173675,0.139575,-0.906973,-0.0142985,1
124,0.0110909999999999,0.7847869999999999,0.062612,-0.165589,0.569977,0.027071,-0.289439,0.784207,-0.088307,0.1991009999999999,0.5637669999999999,0.036735,0.346311,0.762937,-0.031544,-0.289659,1.037067,-0.17958,0.366301,0.971997,-0.13861,-0.079681,0.003415,-0.0012219999999999,0.079681,-0.003415,0.001222,-0.151679,-0.484263,-0.0057389999999999,0.124511,-0.5192730000000001,0.022809,-0.160229,-0.8596830000000001,-0.015241,0.139561,-0.907023,-0.012153,1
125,0.0100559999999999,0.7847869999999999,0.070293,-0.1664449999999999,0.569977,0.031873,-0.289975,0.784207,-0.082593,0.198855,0.5637669999999999,0.043695,0.346265,0.7621669999999999,-0.025612,-0.290095,1.038067,-0.173418,0.366995,0.970887,-0.134738,-0.079545,0.003415,-0.0012829999999999,0.079545,-0.003415,0.0012829999999999,-0.151425,-0.484503,-0.005417,0.124525,-0.519383,0.023732,-0.160055,-0.8596830000000001,-0.013219,0.139455,-0.906803,-0.009841,1
126,0.0091709999999999,0.7847869999999999,0.077345,-0.167118,0.5698169999999999,0.036149,-0.290548,0.7841769999999999,-0.077619,0.198572,0.5637669999999999,0.050816,0.3462619999999999,0.7601969999999999,-0.020401,-0.2904679999999999,1.038867,-0.168146,0.368162,0.969307,-0.132496,-0.079412,0.003415,-0.001349,0.079412,-0.003415,0.001349,-0.151148,-0.483663,-0.005357,0.1245719999999999,-0.519433,0.024503,-0.159838,-0.8596830000000001,-0.011302,0.139392,-0.906843,-0.007703,1
127,0.0083375,0.7854515,0.0839599999999999,-0.1677084999999999,0.5695515,0.0399739999999999,-0.2912085,0.7838514999999999,-0.073145,0.1983215,0.5640415,0.057615,0.3463315,0.7574715,-0.016114,-0.2909085,1.0400515,-0.163739,0.3694715,0.9675715,-0.130519,-0.0792715,0.0034335,-0.00149,0.0792715,-0.0034335,0.00149,-0.1509984999999999,-0.4834785,-0.005503,0.1246515,-0.5192785000000001,0.024999,-0.1595885,-0.8594585,-0.009654,0.1396715,-0.9066285,-0.005567,1
128,0.0075059999999999,0.7863135,0.0902635,-0.168239,0.5691735,0.0435325,-0.291979,0.7831035000000001,-0.0688825,0.198131,0.5641035000000001,0.0637945,0.347021,0.7526435,-0.0125715,-0.291339,1.0411835,-0.1599275,0.371571,0.9654735,-0.1285675,-0.079111,0.0034755,-0.0017945,0.079111,-0.0034755,0.0017945,-0.1508789999999999,-0.4827865,-0.0055014999999999,0.124661,-0.5191564999999999,0.0261785,-0.159329,-0.8592265,-0.0080005,0.139751,-0.9060965,-0.0034704999999999,1
129,0.0067399999999999,0.7871205,0.096513,-0.16867,0.5687905,0.046733,-0.29268,0.7823405,-0.064978,0.19809,0.5641204999999999,0.068709,0.34779,0.7478604999999999,-0.009905,-0.2918099999999999,1.0421905,-0.156388,0.37439,0.9627405,-0.126788,-0.07901,0.0034665,-0.002182,0.07901,-0.0034665,0.0021819999999999,-0.1507099999999999,-0.4817895,-0.005395,0.1247399999999999,-0.5190195000000001,0.02744,-0.15896,-0.8601095000000001,-0.006344,0.1398,-0.9053695,-0.001552,1
130,0.0059035,0.7877875000000001,0.1025415,-0.1690525,0.5684675,0.0494385,-0.2933024999999999,0.7815875,-0.0616875,0.1981274999999999,0.5641475,0.0715865,0.3485675,0.7433975,-0.0080065,-0.2924024999999999,1.0431575,-0.1533785,0.3775475,0.9597775,-0.1262385,-0.0788975,0.0033785,-0.0025715,0.0788975,-0.0033785,0.0025715,-0.1506225,-0.4811225,-0.0053085,0.1247075,-0.5188625,0.0284735,-0.1587525,-0.8599325,-0.0049835,0.1398174999999999,-0.9045225,0.0004604999999999,0
131,0.0050825,0.7885540000000001,0.10846,-0.1694355,0.5682440000000001,0.05193,-0.2939555,0.7808740000000001,-0.058502,0.1981345,0.5641740000000001,0.074518,0.3494145,0.739264,-0.0065059999999999,-0.2931055,1.0441239999999998,-0.150701,0.3810645,0.956614,-0.126991,-0.0788045,0.003297,-0.0028199999999999,0.0788045,-0.003297,0.00282,-0.1505155,-0.481996,-0.005391,0.1246745,-0.5186259999999999,0.029516,-0.1584855,-0.859406,-0.003679,0.1399545,-0.903756,0.002378,0
132,0.0043315,0.78932,0.113817,-0.1697405,0.56807,0.054098,-0.2945405,0.78009,-0.055506,0.1981395,0.56401,0.077382,0.3504295,0.7353299999999999,-0.005065,-0.2938305,1.04499,-0.148183,0.3849095,0.9528,-0.128663,-0.0787295,0.003266,-0.003015,0.0787295,-0.003266,0.003015,-0.1503904999999999,-0.48194,-0.005525,0.1246895,-0.5184300000000001,0.030482,-0.1582305,-0.8587600000000001,-0.0024939999999999,0.1402495,-0.90317,0.0037619999999999,0
133,0.003604,0.790146,0.1187635,-0.1700819999999999,0.567966,0.0559015,-0.295122,0.779696,-0.0531185,0.198178,0.564006,0.0797085,0.351508,0.7314959999999999,-0.0036604999999999,-0.294562,1.045766,-0.1457665,0.389038,0.948756,-0.1309765,-0.078658,0.003292,-0.0032695,0.078658,-0.003292,0.0032695,-0.150172,-0.480834,-0.0056314999999999,0.124728,-0.518304,0.0313785,-0.158002,-0.858124,-0.0013454999999999,0.140598,-0.902624,0.0050555,0
134,0.0029899999999999,0.7910159999999999,0.12318,-0.170397,0.567866,0.057474,-0.295677,0.7791859999999999,-0.0510149999999999,0.198223,0.563556,0.08143,0.352743,0.728136,-0.0024809999999999,-0.295327,1.046396,-0.1436,0.3932029999999999,0.944636,-0.13392,-0.078603,0.003307,-0.00344,0.078603,-0.003307,0.00344,-0.150037,-0.479774,-0.005886,0.124783,-0.518184,0.03209,-0.157807,-0.857434,-0.0003429999999999,0.140943,-0.902084,0.006349,0
135,0.002475,0.7919225,0.1272975,-0.170701,0.5677924999999999,0.0590165,-0.296161,0.7786824999999999,-0.0489435,0.198339,0.5631625,0.0828305,0.355329,0.7238924999999999,-0.0018274999999999,-0.296131,1.0470425,-0.1414625,0.397109,0.9404525,-0.1365925,-0.078579,0.0032935,-0.0035945,0.078579,-0.0032934999999999,0.0035944999999999,-0.149921,-0.4779275,-0.0058635,0.124869,-0.5180675,0.0328295,-0.157601,-0.8566875,0.0007894999999999,0.141229,-0.9013875,0.0076484999999999,0
136,0.002068,0.7925599999999999,0.131133,-0.170934,0.5678,0.060438,-0.296494,0.77831,-0.047147,0.198506,0.5628799999999999,0.084022,0.358156,0.72003,-0.0012659999999999,-0.296854,1.04735,-0.139577,0.401116,0.93623,-0.139027,-0.078556,0.0032559999999999,-0.0037009999999999,0.078556,-0.003256,0.003701,-0.149804,-0.47624,-0.005256,0.124996,-0.51795,0.0336,-0.157354,-0.856,0.001839,0.141516,-0.90101,0.009142,0
137,0.0016935,0.7931320000000001,0.1344795,-0.1711545,0.5678420000000001,0.0616985,-0.2967045,0.7780720000000001,-0.0457795,0.1986855,0.562752,0.0851255,0.3604255,0.717812,-0.0008815,-0.2976145,1.047662,-0.1379605,0.4043955,0.932072,-0.1406505,-0.0785555,0.0032129999999999,-0.0037335,0.0785555,-0.0032129999999999,0.0037335,-0.1496644999999999,-0.474478,-0.0047455,0.1251255,-0.517818,0.0342955,-0.1570345,-0.855798,0.0027295,0.1419555,-0.900758,0.0102665,0
138,0.0012045,0.793717,0.1373335,-0.1714125,0.567847,0.0627335,-0.2970525,0.777717,-0.0445755,0.1988375,0.562677,0.0857385,0.3626775,0.715577,-0.0007864999999999,-0.2984425,1.047947,-0.1365965,0.4070375,0.928607,-0.1420664999999999,-0.0785075,0.003175,-0.0036824999999999,0.0785075,-0.003175,0.0036825,-0.1496125,-0.474093,-0.0045084999999999,0.1251775,-0.517683,0.0348215,-0.1566825,-0.855963,0.0034585,0.1423475,-0.900593,0.0110205,0
139,0.000768,0.7944169999999999,0.13987,-0.1716569999999999,0.567847,0.063727,-0.297487,0.777207,-0.0433389999999999,0.199023,0.562577,0.0860499999999999,0.365213,0.7132269999999999,-0.0006589999999999,-0.299197,1.048297,-0.13531,0.409553,0.925467,-0.14319,-0.078453,0.003156,-0.003615,0.078453,-0.0031559999999999,0.003615,-0.149587,-0.473703,-0.004293,0.125323,-0.517553,0.035332,-0.156497,-0.855573,0.004165,0.142653,-0.900243,0.011927,0
140,0.000387,0.7946725,0.142016,-0.171871,0.5677725,0.064545,-0.297951,0.7765925,-0.042281,0.199209,0.5622925000000001,0.086085,0.367549,0.7107525,-0.0004489999999999,-0.299981,1.0485525,-0.1341139999999999,0.4119589999999999,0.9226225,-0.144164,-0.078419,0.0031145,-0.003601,0.078419,-0.0031145,0.003601,-0.149521,-0.4739575,-0.004083,0.125469,-0.5174475,0.035731,-0.156291,-0.8556775,0.004573,0.143109,-0.9006375,0.012098,0
141,-5.999999999999062e-06,0.794874,0.143985,-0.172116,0.567654,0.065289,-0.298446,0.775954,-0.041349,0.199354,0.561914,0.086196,0.370064,0.708094,-0.0002349999999999,-0.300776,1.048654,-0.133085,0.414204,0.920214,-0.144895,-0.078384,0.0030879999999999,-0.003563,0.078384,-0.003088,0.003563,-0.149526,-0.475296,-0.0039299999999999,0.125594,-0.517356,0.036095,-0.156136,-0.8555659999999999,0.004907,0.143464,-0.901426,0.012017,0
142,-0.000373,0.7950235,0.1456625,-0.172386,0.5675035,0.0659184999999999,-0.299046,0.7752335,-0.0405515,0.199484,0.5613235000000001,0.0862275,0.372684,0.7052935,5.250000000000046e-05,-0.301546,1.0487035,-0.1322175,0.4162939999999999,0.9179435,-0.1456174999999999,-0.078364,0.0030145,-0.0035315,0.078364,-0.0030145,0.0035315,-0.149576,-0.4757465,-0.0038704999999999,0.125684,-0.5172865,0.0363915,-0.155966,-0.8555265,0.0051445,0.143654,-0.9019065,0.0119695,0
143,-0.000844,0.795535,0.1474975,-0.172647,0.5672849999999999,0.0666465,-0.299667,0.774525,-0.0396045,0.199603,0.5614049999999999,0.0867405,0.375373,0.702515,0.0004345,-0.302317,1.0486950000000002,-0.1311925,0.418323,0.915755,-0.1462225,-0.078333,0.00294,-0.0035034999999999,0.078333,-0.00294,0.0035034999999999,-0.149557,-0.476265,-0.0037554999999999,0.125743,-0.5171950000000001,0.0365205,-0.155827,-0.8548950000000001,0.0052185,0.144003,-0.901925,0.0117975,0
144,-0.0013265,0.7959245,0.1491295,-0.1728625,0.5670445,0.0672275,-0.3002725,0.7738845,-0.0388045,0.1996875,0.5614745,0.0873355,0.3765175,0.7014045,0.0009284999999999,-0.3030425,1.0487545,-0.1303305,0.4201175,0.9139845,-0.1467805,-0.0782775,0.0028925,-0.0034565,0.0782775,-0.0028924999999999,0.0034565,-0.1494925,-0.4757955,-0.0042274999999999,0.1257975,-0.5171155000000001,0.0365405,-0.1557724999999999,-0.8543055,0.0051445,0.1444275,-0.9022555,0.0111975,0
145,-0.0017965,0.796268,0.150581,-0.1731025,0.566808,0.0677369999999999,-0.3009225,0.773308,-0.03811,0.1997575,0.561528,0.088058,0.3775175,0.700378,0.001328,-0.3037225,1.048698,-0.1295889999999999,0.4218075,0.912258,-0.147359,-0.0782175,0.0028799999999999,-0.0034089999999999,0.0782175,-0.00288,0.003409,-0.1494825,-0.476722,-0.0047539999999999,0.1258075,-0.517072,0.036475,-0.1557224999999999,-0.854642,0.004709,0.1447075,-0.902622,0.010839,0
146,-0.0021814999999999,0.796612,0.151825,-0.1733134999999999,0.566582,0.068191,-0.3015235,0.772762,-0.037489,0.1998065,0.561462,0.088335,0.3784765,0.699342,0.001676,-0.3042935,1.048632,-0.128935,0.4234165,0.910832,-0.147905,-0.0781665,0.002874,-0.0033639999999999,0.0781665,-0.002874,0.003364,-0.1494935,-0.475508,-0.0054329999999999,0.1257565,-0.517038,0.036375,-0.1557235,-0.855158,0.004274,0.1449665,-0.903188,0.010446,0
147,-0.0024444999999999,0.7969925,0.152949,-0.1734935,0.5663825,0.068683,-0.3020235,0.7723425,-0.036923,0.1998065,0.5614225,0.088619,0.3793965,0.6983025,0.0021679999999999,-0.3048035,1.0485725,-0.128331,0.4250064999999999,0.9093425,-0.148391,-0.0781365,0.0028515,-0.003363,0.0781365,-0.0028515,0.0033629999999999,-0.1494835,-0.4755375,-0.006075,0.1257065,-0.5170375,0.036126,-0.1556635,-0.8556975,0.0039489999999999,0.1451265,-0.9037175,0.0102249999999999,0
148,-0.0026944999999999,0.7973975,0.1539915,-0.1736565,0.5661974999999999,0.0691515,-0.3024465,0.7720275,-0.0364605,0.1997935,0.5615675,0.0888505,0.3800235,0.6971575,0.0024654999999999,-0.3052765,1.0486275,-0.1277984999999999,0.4264535,0.9079375,-0.1487784999999999,-0.0781135,0.0028424999999999,-0.0033635,0.0781135,-0.0028425,0.0033634999999999,-0.1494965,-0.4746525,-0.0067305,0.1256735,-0.5170525,0.0358815,-0.1556064999999999,-0.8562525000000001,0.0037274999999999,0.1452635,-0.9041325,0.0099644999999999,0
149,-0.002877,0.797816,0.1549769999999999,-0.173766,0.566046,0.069654,-0.302816,0.771736,-0.036004,0.199784,0.561546,0.089187,0.3805739999999999,0.695936,0.002796,-0.305556,1.048496,-0.127363,0.427714,0.906576,-0.1488729999999999,-0.078094,0.0028459999999999,-0.003392,0.078094,-0.0028459999999999,0.0033919999999999,-0.149496,-0.473804,-0.007263,0.125674,-0.517084,0.0356589999999999,-0.155516,-0.8565740000000001,0.003733,0.145394,-0.903594,0.009973,0
150,-0.0030785,0.7982374999999999,0.155902,-0.1738215,0.5659175,0.070174,-0.3031514999999999,0.7714975,-0.035517,0.1997285,0.5614175,0.0897429999999999,0.3810585,0.6949974999999999,0.003116,-0.3057915,1.0484775000000002,-0.126968,0.4287785,0.9053475,-0.148638,-0.0780655,0.0028535,-0.0034119999999999,0.0780655,-0.0028535,0.003412,-0.1493115,-0.4719725,-0.0077879999999999,0.1257985,-0.5171225,0.035437,-0.1554915,-0.8565425,0.0037669999999999,0.1454885,-0.9027125,0.010142,0
151,-0.0032565,0.7986740000000001,0.1567885,-0.1738265,0.565844,0.0707055,-0.3033865,0.7713540000000001,-0.0350395,0.1996535,0.5612539999999999,0.0904915,0.3814535,0.694304,0.0035854999999999,-0.3059665,1.048474,-0.1265815,0.4296735,0.904224,-0.1483515,-0.0780385,0.0028719999999999,-0.0034495,0.0780385,-0.0028719999999999,0.0034494999999999,-0.1491265,-0.471076,-0.0083285,0.1258635,-0.517156,0.0352144999999999,-0.1554265,-0.8564860000000001,0.0037874999999999,0.1456535,-0.902276,0.0101065,0
152,-0.0033764999999999,0.798795,0.1574765,-0.1738275,0.565815,0.0711345,-0.3036375,0.771245,-0.0347635,0.1995425,0.561005,0.0913945,0.3817824999999999,0.693645,0.0039884999999999,-0.3061275,1.048395,-0.1263135,0.4303625,0.903245,-0.1480735,-0.0780175,0.00291,-0.0035045,0.0780175,-0.0029099999999999,0.0035045,-0.1489575,-0.470955,-0.0088045,0.1259225,-0.517215,0.0351395,-0.1554375,-0.856675,0.0039884999999999,0.1456725,-0.902505,0.0100945,0
153,-0.0034999999999999,0.7988885,0.158114,-0.17384,0.5658185,0.071541,-0.30391,0.7710885000000001,-0.0345119999999999,0.1994,0.5607485,0.092335,0.38203,0.6928685,0.004441,-0.30628,1.0483185,-0.126056,0.43097,0.9019485,-0.147806,-0.078013,0.0029535,-0.0035819999999999,0.078013,-0.0029534999999999,0.003582,-0.14885,-0.4691515,-0.0088539999999999,0.12598,-0.5172815,0.035032,-0.15541,-0.8567115,0.004202,0.1457699999999999,-0.9027015,0.010113,0
154,-0.003743,0.79902,0.1589265,-0.173566,0.56586,0.0720855,-0.303896,0.7708,-0.0343085,0.199324,0.56038,0.0936515,0.382424,0.69198,0.0048775,-0.306346,1.04827,-0.1259835,0.431834,0.90115,-0.1486235,-0.078042,0.003053,-0.0036174999999999,0.078042,-0.003053,0.0036174999999999,-0.148946,-0.47354,-0.0083535,0.125724,-0.51741,0.0346825,-0.1550659999999999,-0.85827,0.0041864999999999,0.146104,-0.90367,0.0109764999999999,0
155,-0.003773,0.7992785,0.1592075,-0.173738,0.5658685,0.0724805,-0.304058,0.7710184999999999,-0.0342475,0.199142,0.5604285,0.0941995,0.382442,0.6920485,0.0051285,-0.306408,1.0484185,-0.1259625,0.432072,0.9010285,-0.1484825,-0.078035,0.0030774999999999,-0.0036864999999999,0.078035,-0.0030775,0.0036864999999999,-0.149138,-0.4711815,-0.0083025,0.125842,-0.5173915,0.0349445,-0.1549279999999999,-0.8576415000000001,0.0050685,0.145962,-0.9027215,0.0112075,0
156,-0.0040439999999999,0.799488,0.1603485,-0.173931,0.565808,0.0729465,-0.304651,0.770898,-0.0342765,0.198999,0.560098,0.0950184999999999,0.382189,0.691368,0.0054784999999999,-0.306571,1.048208,-0.1257815,0.432319,0.900378,-0.1476115,-0.077996,0.003089,-0.0039305,0.077996,-0.0030889999999999,0.0039305,-0.149111,-0.4733219999999999,-0.0080525,0.125839,-0.517402,0.0351985,-0.154811,-0.858162,0.0052494999999999,0.145259,-0.898462,0.0123244999999999,0
157,-0.0041435,0.799597,0.160876,-0.1741315,0.5656869999999999,0.07328,-0.3052015,0.770277,-0.033627,0.1989685,0.5599869999999999,0.095402,0.3822685,0.6903269999999999,0.0065099999999999,-0.3069115,1.0479770000000002,-0.125594,0.4319585,0.896597,-0.145214,-0.0779975,0.003115,-0.004031,0.0779975,-0.0031149999999999,0.004031,-0.1477315,-0.464653,-0.008694,0.1270685,-0.517383,0.034837,-0.1553515,-0.8556830000000001,0.005589,0.1451685,-0.8982730000000001,0.0125589999999999,0
158,-0.004146,0.7996329999999999,0.1610655,-0.174255,0.5654929999999999,0.0735475,-0.305775,0.7700229999999999,-0.0331835,0.198875,0.5599029999999999,0.0956925,0.382395,0.6902929999999999,0.0066775,-0.307685,1.045173,-0.1252945,0.431955,0.8966829999999999,-0.1450645,-0.077983,0.0031409999999999,-0.0040114999999999,0.077983,-0.003141,0.0040115,-0.147345,-0.462867,-0.0084445,0.126375,-0.5174770000000001,0.0347475,-0.155165,-0.855677,0.0056145,0.145615,-0.902547,0.0102785,0
159,-0.0047345,0.7999824999999999,0.1623535,-0.1743545,0.5654524999999999,0.0736955,-0.3066545,0.7703025,-0.0332515,0.1988454999999999,0.5599324999999999,0.0961575,0.3826555,0.6900625,0.0067305,-0.3079445,1.0453725,-0.1251364999999999,0.4321755,0.8972625,-0.1449865,-0.0780045,0.0030914999999999,-0.0039965,0.0780045,-0.0030915,0.0039965,-0.1469145,-0.4618974999999999,-0.0084705,0.1264555,-0.5173775,0.0350275,-0.1552345,-0.8561775,0.0058565,0.1457055,-0.9018575,0.0104555,0
160,-0.0049734999999999,0.7996215,0.162806,-0.1741895,0.5648615,0.074194,-0.3070195,0.7699515,-0.033024,0.1988305,0.5598915,0.096484,0.3827405,0.6901315,0.0069779999999999,-0.3084395,1.0453715,-0.125214,0.4322905,0.8975115,-0.145004,-0.0779845,0.0031234999999999,-0.0040959999999999,0.0779845,-0.0031235,0.0040959999999999,-0.1468795,-0.4617885,-0.008562,0.1264704999999999,-0.5174084999999999,0.035115,-0.1553395,-0.8549684999999999,0.006175,0.1457705,-0.9018285,0.010099,0
