sb224sc-HT22-VT27/4dt907/src/data/labeled_files/A99_kinect.csv
FrameNo,nose_3d_x,nose_3d_y,nose_3d_z,left_shoulder_3d_x,left_shoulder_3d_y,left_shoulder_3d_z,left_elbow_3d_x,left_elbow_3d_y,left_elbow_3d_z,right_shoulder_3d_x,right_shoulder_3d_y,right_shoulder_3d_z,right_elbow_3d_x,right_elbow_3d_y,right_elbow_3d_z,left_wrist_3d_x,left_wrist_3d_y,left_wrist_3d_z,right_wrist_3d_x,right_wrist_3d_y,right_wrist_3d_z,left_hip_3d_x,left_hip_3d_y,left_hip_3d_z,right_hip_3d_x,right_hip_3d_y,right_hip_3d_z,left_knee_3d_x,left_knee_3d_y,left_knee_3d_z,right_knee_3d_x,right_knee_3d_y,right_knee_3d_z,left_ankle_3d_x,left_ankle_3d_y,left_ankle_3d_z,right_ankle_3d_x,right_ankle_3d_y,right_ankle_3d_z,activity_label
0,-0.033211,0.788183,0.099698,-0.194418,0.5796629999999999,0.085362,-0.332738,0.780243,0.011844,0.1906219999999999,0.568153,0.093438,0.352962,0.756653,0.055167,-0.3276179999999999,1.063523,-0.034723,0.360692,1.021023,-0.021586,-0.079344,0.001197,0.0006699999999999,0.079344,-0.001197,-0.00067,-0.140478,-0.472207,-0.001606,0.1317519999999999,-0.516007,0.036819,-0.150428,-0.853977,0.0181759999999999,0.150372,-0.889757,0.019381,0
1,-0.033271,0.788187,0.0990895,-0.19431,0.579677,0.0850685,-0.3327,0.7801969999999999,0.0114845,0.1903699999999999,0.5689069999999999,0.0934165,0.35294,0.7566369999999999,0.0546295,-0.32727,1.063807,-0.0351925,0.36083,1.020907,-0.0228825,-0.079352,0.001096,0.0008425,0.079352,-0.001096,-0.0008424999999999,-0.14065,-0.477313,-0.0009694999999999,0.13169,-0.515923,0.0365545,-0.1508,-0.847303,0.0195515,0.1500399999999999,-0.8914930000000001,0.0180825,0
2,-0.0332279999999999,0.788336,0.0983795,-0.19407,0.579966,0.0844294999999999,-0.33246,0.780246,0.0109115,0.19231,0.565736,0.0918995,0.3529,0.756876,0.0537455,-0.32669,1.064486,-0.0360544999999999,0.36083,1.021086,-0.0235885,-0.079331,0.0010969999999999,0.0007614999999999,0.079331,-0.0010969999999999,-0.0007614999999999,-0.14107,-0.469174,-0.0017365,0.13172,-0.5159940000000001,0.0361655,-0.1507,-0.847334,0.0198554999999999,0.15008,-0.891254,0.0174855,0
3,-0.033354,0.7883015,0.097916,-0.194115,0.5799015,0.08424,-0.332265,0.7822015,0.009146,0.191685,0.5667515,0.091732,0.352555,0.7566415,0.052901,-0.326095,1.0649115,-0.0365379999999999,0.360295,1.0215115,-0.024478,-0.079298,0.0010895,0.000896,0.079298,-0.0010895,-0.000896,-0.141175,-0.4681085,-0.0027189999999999,0.131555,-0.5159985,0.036005,-0.150405,-0.8532385,0.018937,0.1499849999999999,-0.8913385,0.01714,0
4,-0.0334305,0.788353,0.0977305,-0.1940385,0.579993,0.0843305,-0.3320085,0.781833,0.0094014999999999,0.1912615,0.567533,0.0920314999999999,0.3525115,0.7567429999999999,0.0527104999999999,-0.3258785,1.065263,-0.0367225,0.3601515,1.021563,-0.0251645,-0.0793295,0.001145,0.0008514999999999,0.0793295,-0.001145,-0.0008515,-0.1413185,-0.484097,0.0021794999999999,0.1313714999999999,-0.516037,0.0362804999999999,-0.1507784999999999,-0.8537170000000001,0.0189104999999999,0.1502315,-0.891417,0.0174864999999999,0
5,-0.0334465,0.788536,0.0974335,-0.1939054999999999,0.580216,0.0841985,-0.3317155,0.781726,0.0091825,0.1925645,0.565346,0.0908625,0.3524645,0.757016,0.0523075,-0.3255555,1.065656,-0.0370905,0.3599745,1.022056,-0.0260084999999999,-0.0793065,0.001197,0.0010025,0.0793065,-0.001197,-0.0010024999999999,-0.1411754999999999,-0.474544,-9.499999999995625e-06,0.1310445,-0.516094,0.0362495,-0.1518955,-0.850664,0.0191845,0.1510245,-0.893314,0.0163225,0
6,-0.0333745,0.7884844999999999,0.0972675,-0.1937175,0.5801044999999999,0.0841895,-0.3315375,0.7815844999999999,0.0090585,0.1919624999999999,0.5665144999999999,0.0909455,0.3524224999999999,0.7568244999999999,0.0520355,-0.3251975,1.0655445,-0.0373125,0.3599725,1.0218445,-0.0265494999999999,-0.0793035,0.0013635,0.0010755,0.0793035,-0.0013635,-0.0010755,-0.1413475,-0.4703355,-0.0009194999999999,0.1307424999999999,-0.5162155,0.0366655,-0.1512175,-0.8519255,0.0197435,0.1505424999999999,-0.8964255000000001,0.0191895,0
7,-0.033116,0.788374,0.097217,-0.193655,0.5801940000000001,0.0842449999999999,-0.331345,0.7816240000000001,0.0092969999999999,0.191965,0.567324,0.091194,0.3523849999999999,0.7566440000000001,0.0518489999999999,-0.324355,1.066134,-0.036668,0.360595,1.020634,-0.025338,-0.0793379999999999,0.001322,0.0011349999999999,0.0793379999999999,-0.001322,-0.001135,-0.140925,-0.468916,-0.002051,0.131175,-0.5161859999999999,0.036348,-0.150875,-0.8507159999999999,0.0188929999999999,0.149285,-0.8939459999999999,0.0189069999999999,0
8,-0.033054,0.7883924999999999,0.0970325,-0.193561,0.5803125,0.0842315,-0.331121,0.7817825,0.0091285,0.192209,0.5670525,0.0909745,0.352319,0.7566325,0.0516255,-0.323901,1.0665225,-0.0367075,0.360619,1.0207225,-0.0254944999999999,-0.079336,0.0013325,0.0012085,0.079336,-0.0013325,-0.0012085,-0.140951,-0.4680875,-0.0020384999999999,0.131149,-0.5161975,0.0363665,-0.150811,-0.8500775,0.0189625,0.149189,-0.8942975,0.0192925,0
9,-0.0329585,0.788561,0.096843,-0.1934625,0.5805509999999999,0.0842159999999999,-0.3309225,0.782011,0.0089849999999999,0.1925175,0.566371,0.0907309999999999,0.3522575,0.756691,0.051452,-0.3234425,1.066911,-0.036688,0.3605775,1.020411,-0.025611,-0.0793355,0.001433,0.0012849999999999,0.0793355,-0.001433,-0.001285,-0.1409625,-0.468399,-0.001926,0.1311175,-0.516279,0.0363989999999999,-0.1507525,-0.850519,0.0189549999999999,0.1491275,-0.895009,0.0196779999999999,0
10,-0.032808,0.788703,0.096678,-0.193345,0.580773,0.084205,-0.330715,0.782243,0.00886,0.192755,0.566403,0.090678,0.352205,0.756723,0.051314,-0.322975,1.067373,-0.036622,0.360575,1.020173,-0.0256309999999999,-0.079329,0.001522,0.001336,0.079329,-0.001522,-0.0013359999999999,-0.140965,-0.4693569999999999,-0.0017489999999999,0.131155,-0.516347,0.036441,-0.150675,-0.850857,0.018938,0.149055,-0.895687,0.019935,0
11,-0.032597,0.7888815,0.0965245,-0.193201,0.5810215000000001,0.0842054999999999,-0.330481,0.7824215000000001,0.0088264999999999,0.193079,0.5663215,0.0906744999999999,0.352149,0.7568015,0.0511854999999999,-0.322501,1.0677515,-0.0365145,0.360629,1.0200515,-0.0255705,-0.079322,0.0016335,0.0013804999999999,0.079322,-0.0016335,-0.0013804999999999,-0.140961,-0.4709285,-0.0015105,0.131239,-0.5164384999999999,0.0364305,-0.1505909999999999,-0.8506385,0.0190114999999999,0.149059,-0.8962684999999999,0.0202014999999999,0
12,-0.0323275,0.7890415000000001,0.096345,-0.1930305,0.5812415,0.084133,-0.3302305,0.7827015,0.008795,0.1934695,0.5662415000000001,0.090664,0.3521195,0.7569115000000001,0.051033,-0.3220505,1.0681415,-0.0364149999999999,0.3606995,1.0199414999999998,-0.025347,-0.0793155,0.0017345,0.001417,0.0793155,-0.0017345,-0.001417,-0.1409504999999999,-0.4698584999999999,-0.0018219999999999,0.1313495,-0.5165285,0.036431,-0.1503805,-0.8509485,0.018873,0.1492095,-0.8968484999999999,0.020154,0
13,-0.032009,0.7892685,0.0961435,-0.192863,0.5814685,0.0840695,-0.329973,0.7830285,0.0087405,0.193767,0.5662585,0.0908015,0.352087,0.7570485,0.0509355,-0.3216529999999999,1.0685685,-0.0362875,0.360787,1.0199684999999998,-0.0250284999999999,-0.0793099999999999,0.0018375,0.0014535,0.0793099999999999,-0.0018375,-0.0014534999999999,-0.140953,-0.4692715,-0.0020294999999999,0.131447,-0.5166014999999999,0.0364315,-0.1500729999999999,-0.8507914999999999,0.0186825,0.149257,-0.8971214999999999,0.0198415,0
14,-0.0316105,0.7895045,0.0959305,-0.1926845,0.5816945,0.0839755,-0.3297345,0.7833045,0.0086764999999999,0.1941855,0.5660945000000001,0.0908694999999999,0.3520155,0.7572445,0.0508975,-0.3213345,1.0689045,-0.0361415,0.3608655,1.0200045,-0.0245785,-0.0792974999999999,0.0019294999999999,0.0014484999999999,0.0792974999999999,-0.0019295,-0.0014485,-0.1409745,-0.4700855,-0.0020464999999999,0.1315555,-0.5166955,0.0364904999999999,-0.1498345,-0.8505755,0.0184125,0.1493355,-0.8969955,0.0199565,0
15,-0.031093,0.789762,0.0957244999999999,-0.192483,0.581942,0.0838975,-0.329503,0.783532,0.0086365,0.194637,0.565802,0.0908915,0.351907,0.757512,0.0509575,-0.321063,1.069162,-0.0359855,0.360937,1.020162,-0.0242075,-0.0792809999999999,0.0020039999999999,0.0014165,0.0792809999999999,-0.0020039999999999,-0.0014165,-0.140863,-0.4698679999999999,-0.0022304999999999,0.131647,-0.5167780000000001,0.0365285,-0.149573,-0.8503080000000001,0.0182125,0.149427,-0.8968280000000001,0.0205795,0
16,-0.030521,0.790027,0.0955895,-0.192306,0.5821670000000001,0.0837784999999999,-0.329296,0.783607,0.0086004999999999,0.194984,0.565357,0.0908595,0.351714,0.7579170000000001,0.0511274999999999,-0.320856,1.069437,-0.0357735,0.361044,1.019037,-0.0237995,-0.079271,0.002077,0.0013424999999999,0.079271,-0.002077,-0.0013425,-0.140796,-0.469973,-0.0023435,0.131724,-0.516833,0.0365954999999999,-0.149436,-0.850053,0.0180484999999999,0.149524,-0.896863,0.0204414999999999,0
17,-0.029877,0.790259,0.0954744999999999,-0.192159,0.582359,0.0836435,-0.329109,0.783659,0.0086094999999999,0.195231,0.565239,0.0908664999999999,0.351491,0.758379,0.0513524999999999,-0.320699,1.069719,-0.0354745,0.361081,1.018119,-0.0234675,-0.079264,0.002143,0.0012374999999999,0.079264,-0.002143,-0.0012375,-0.140729,-0.470291,-0.0024475,0.131761,-0.516901,0.0366714999999999,-0.149329,-0.849881,0.0178734999999999,0.149701,-0.897081,0.0202964999999999,0
18,-0.0291235,0.790269,0.095392,-0.1920275,0.582359,0.083522,-0.3289275,0.783659,0.008693,0.1954725,0.565339,0.090917,0.3512125,0.758729,0.051745,-0.3205775,1.069719,-0.035146,0.3609624999999999,1.018519,-0.022995,-0.0792575,0.002143,0.0011079999999999,0.0792575,-0.002143,-0.0011079999999999,-0.1406875,-0.471041,-0.0025179999999999,0.1318025,-0.516901,0.036787,-0.1491875,-0.850271,0.017528,0.1498324999999999,-0.896681,0.019753,0
19,-0.028327,0.790279,0.0953115,-0.191926,0.582359,0.0833945,-0.328746,0.783659,0.0088154999999999,0.195684,0.565599,0.0911394999999999,0.350874,0.759079,0.0522165,-0.320496,1.069719,-0.0347665,0.360764,1.019019,-0.0218725,-0.079262,0.002143,0.0009694999999999,0.079262,-0.002143,-0.0009695,-0.140666,-0.471581,-0.0026555,0.131814,-0.516901,0.0368784999999999,-0.148986,-0.850201,0.0174554999999999,0.150004,-0.896291,0.0191544999999999,0
20,-0.027475,0.790279,0.0952145,-0.191829,0.582359,0.0832384999999999,-0.328599,0.783659,0.0088895,0.195931,0.565709,0.0913705,0.350541,0.759449,0.0527175,-0.320429,1.069719,-0.0343954999999999,0.360571,1.019019,-0.0207534999999999,-0.079263,0.002143,0.0008245,0.079263,-0.002143,-0.0008244999999999,-0.1404989999999999,-0.472121,-0.0029134999999999,0.131811,-0.516901,0.0369645,-0.148799,-0.850201,0.0173575,0.150141,-0.895601,0.0188965,1
21,-0.02658,0.7904469999999999,0.095289,-0.191753,0.582507,0.083159,-0.328453,0.7837069999999999,0.0090579999999999,0.1961669999999999,0.5655169999999999,0.091567,0.350137,0.759957,0.0533859999999999,-0.320373,1.069887,-0.03392,0.360357,1.019387,-0.019664,-0.0792549999999999,0.00217,0.0006859999999999,0.0792549999999999,-0.00217,-0.000686,-0.140393,-0.473643,-0.002914,0.131827,-0.5169330000000001,0.037064,-0.148793,-0.8500930000000001,0.0170589999999999,0.150247,-0.895113,0.0186729999999999,1
22,-0.025623,0.7906325,0.095436,-0.191687,0.5826425,0.083076,-0.328307,0.7836525,0.009216,0.196303,0.5655625,0.091794,0.349713,0.7605325000000001,0.054077,-0.320307,1.0700725,-0.033434,0.360093,1.0192724999999998,-0.0185909999999999,-0.079247,0.0021885,0.000545,0.079247,-0.0021885,-0.0005449999999999,-0.140247,-0.4750975,-0.0029669999999999,0.131853,-0.5169575,0.03716,-0.148787,-0.8500775,0.016779,0.150343,-0.8949475,0.018402,1
23,-0.024692,0.7908225,0.0956025,-0.191637,0.5828424999999999,0.0830275,-0.328167,0.7836725,0.0094145,0.1963829999999999,0.5657825,0.0920335,0.349273,0.7611224999999999,0.0548075,-0.320267,1.0703225,-0.0330095,0.3597829999999999,1.0189225,-0.0172155,-0.079254,0.0022265,0.0004115,0.079254,-0.0022264999999999,-0.0004115,-0.1399869999999999,-0.4765975,-0.0030644999999999,0.131863,-0.5169975,0.0372315,-0.148827,-0.8499275000000001,0.0164925,0.1503729999999999,-0.8945975,0.0181855,1
24,-0.0238695,0.7910175,0.0958,-0.1916525,0.5830575,0.0829959999999999,-0.3280625,0.7837375000000001,0.0096319999999999,0.1964074999999999,0.5660475,0.0923219999999999,0.3488175,0.7617775,0.0555539999999999,-0.3203125,1.0704875,-0.032653,0.3594375,1.0182875,-0.015817,-0.0792694999999999,0.0022585,0.0002669999999999,0.0792694999999999,-0.0022585,-0.000267,-0.1396825,-0.4763325,-0.003266,0.1318375,-0.5170324999999999,0.037333,-0.1488525,-0.8498724999999999,0.0162659999999999,0.1503175,-0.8943724999999999,0.0176439999999999,1
25,-0.02313,0.7912,0.0961875,-0.191684,0.5832200000000001,0.0830075,-0.327984,0.78369,0.0099684999999999,0.196406,0.56616,0.0925225,0.348366,0.7627200000000001,0.0564135,-0.320374,1.0707099999999998,-0.0322965,0.359046,1.0182099999999998,-0.0142405,-0.079286,0.002275,0.0001304999999999,0.079286,-0.002275,-0.0001304999999999,-0.139494,-0.4757099999999999,-0.0032855,0.131876,-0.51705,0.0374555,-0.148884,-0.84975,0.0160874999999999,0.150276,-0.89379,0.0172915,1
26,-0.022474,0.791382,0.0966095,-0.191729,0.5833820000000001,0.0829965,-0.327899,0.783692,0.0102425,0.196351,0.5664720000000001,0.0928975,0.347921,0.7637320000000001,0.0572735,-0.320449,1.070932,-0.0320685,0.358631,1.018332,-0.0126024999999999,-0.079304,0.00229,1.0500000000003562e-05,0.079304,-0.00229,-1.0499999999996625e-05,-0.139329,-0.475528,-0.0032894999999999,0.131911,-0.517048,0.0375915,-0.148939,-0.8496079999999999,0.0159305,0.1502109999999999,-0.893238,0.0169035,1
27,-0.021924,0.7915935000000001,0.0971,-0.191792,0.5835335,0.082992,-0.327872,0.7837735,0.0104019999999999,0.196258,0.5668635,0.093126,0.347508,0.7646635,0.058038,-0.320532,1.0710435,-0.031915,0.3581879999999999,1.0184435,-0.011111,-0.079325,0.0023165,-0.000119,0.079325,-0.0023165,0.000119,-0.139272,-0.4774265,-0.003235,0.131928,-0.5170665,0.037632,-0.148892,-0.8489964999999999,0.015905,0.150128,-0.8924165,0.0170659999999999,1
28,-0.0214374999999999,0.791817,0.097583,-0.1918825,0.5836969999999999,0.082959,-0.3278625,0.783887,0.010475,0.1961574999999999,0.567307,0.093515,0.3471174999999999,0.765627,0.058728,-0.3206725,1.071157,-0.031817,0.3579875,1.018257,-0.0103059999999999,-0.0793494999999999,0.002355,-0.0002349999999999,0.0793494999999999,-0.002355,0.0002349999999999,-0.1392625,-0.480323,-0.0031769999999999,0.1319475,-0.5171030000000001,0.037673,-0.1488425,-0.848963,0.01582,0.1501974999999999,-0.892463,0.017309,1
29,-0.021012,0.792041,0.098066,-0.191965,0.5838409999999999,0.082922,-0.327865,0.784001,0.0105089999999999,0.195995,0.567861,0.093865,0.346735,0.766501,0.0593669999999999,-0.320875,1.071271,-0.031814,0.357855,1.017971,-0.009483,-0.079371,0.002395,-0.000373,0.079371,-0.002395,0.0003729999999999,-0.139305,-0.482309,-0.003199,0.131945,-0.5171490000000001,0.0377,-0.148775,-0.848979,0.015669,0.150285,-0.892139,0.017157,1
30,-0.020672,0.7922955,0.0984945,-0.192052,0.5839555,0.0828425,-0.327892,0.7840655,0.0104735,0.195758,0.5684655,0.0941795,0.3464179999999999,0.7672755,0.0598755,-0.321162,1.0712455,-0.0318885,0.3577079999999999,1.0178455000000002,-0.0087425,-0.079396,0.0024275,-0.0004795,0.079396,-0.0024275,0.0004795,-0.139422,-0.4851745,-0.0030714999999999,0.131938,-0.5171945,0.0376625,-0.148692,-0.8493245,0.0154815,0.150348,-0.8923545,0.0167205,1
31,-0.0204085,0.7925289999999999,0.0989635,-0.1921365,0.5840489999999999,0.0827685,-0.3279864999999999,0.7840889999999999,0.0104105,0.1955235,0.569149,0.0944105,0.3461435,0.767899,0.0603645,-0.3215365,1.071199,-0.0319665,0.3575535,1.018399,-0.0078384999999999,-0.0794185,0.002463,-0.0005905,0.0794185,-0.002463,0.0005905,-0.1394465,-0.486451,-0.0031305,0.1319535,-0.5172410000000001,0.0376215,-0.1486065,-0.849641,0.0153805,0.1502035,-0.892331,0.0167495,1
32,-0.020204,0.7927035,0.0994175,-0.192222,0.5840535,0.0826605,-0.328092,0.7840435,0.0103475,0.1954179999999999,0.5696435000000001,0.0943475,0.345918,0.7684435000000001,0.0608275,-0.322002,1.0711935,-0.0320504999999999,0.3574279999999999,1.0186935,-0.0075155,-0.079443,0.0024735,-0.0007044999999999,0.079443,-0.0024735,0.0007045,-0.139562,-0.4877465,-0.0030984999999999,0.1319679999999999,-0.5172665,0.0375655,-0.148612,-0.8500065,0.0152115,0.150098,-0.8923464999999999,0.0166865,1
33,-0.0200095,0.7928845,0.0999144999999999,-0.1922964999999999,0.5840445,0.0825455,-0.3281965,0.7839944999999999,0.0102835,0.1952335,0.5701345,0.0944504999999999,0.3457635,0.7689345,0.0612535,-0.3225465,1.0710845,-0.0322335,0.3574334999999999,1.0183845,-0.0073025,-0.0794685,0.0024925,-0.0008174999999999,0.0794685,-0.0024925,0.0008174999999999,-0.1396764999999999,-0.4891355,-0.0030885,0.1320135,-0.5173055000000001,0.0375135,-0.1486865,-0.8503055,0.0150565,0.1501635,-0.8932255,0.0161665,1
34,-0.019835,0.7929345,0.100253,-0.192362,0.5840545,0.08238,-0.328282,0.7839345,0.010117,0.195028,0.5702245,0.094673,0.345648,0.7690245,0.061483,-0.323152,1.0709745,-0.0325749999999999,0.357678,1.0175745,-0.0073429999999999,-0.079495,0.0025065,-0.0009189999999999,0.079495,-0.0025065,0.000919,-0.139822,-0.4910055,-0.0031209999999999,0.131988,-0.5173455,0.037458,-0.148842,-0.8510855,0.014866,0.150098,-0.8941455,0.01576,1
35,-0.0196384999999999,0.7930045,0.1005754999999999,-0.1924065,0.5840445,0.0821794999999999,-0.3284165,0.7838645,0.0098424999999999,0.1947835,0.5707245,0.0950975,0.3455735,0.7690745,0.0615625,-0.3238164999999999,1.0708645,-0.0331165,0.3579835,1.0170644999999998,-0.0073755,-0.0795165,0.0025204999999999,-0.0010155,0.0795165,-0.0025205,0.0010154999999999,-0.1400865,-0.4921055,-0.0032285,0.1319435,-0.5173555,0.0373875,-0.1491065,-0.8517255,0.0146614999999999,0.1500735,-0.8950155,0.0153435,1
36,-0.019454,0.7930965,0.100837,-0.192425,0.5840365,0.081938,-0.3285349999999999,0.7837265,0.009495,0.194565,0.5712765,0.095446,0.345515,0.7689265,0.061508,-0.324495,1.0706565,-0.033852,0.358615,1.0161565,-0.007391,-0.079538,0.0025265,-0.0010879999999999,0.079538,-0.0025265,0.0010879999999999,-0.140345,-0.4923935,-0.0033699999999999,0.131905,-0.5173235,0.037291,-0.1492649999999999,-0.8525235,0.014355,0.1500449999999999,-0.8954635,0.014993,1
37,-0.0192729999999999,0.7931665,0.1007945,-0.192432,0.5840365,0.0815045,-0.3287319999999999,0.7837265,0.0087735,0.194378,0.5719165,0.0956735,0.345498,0.7692565,0.0614554999999999,-0.3251819999999999,1.0704565,-0.0351205,0.359168,1.0162565,-0.0075744999999999,-0.079567,0.0025265,-0.0011424999999999,0.079567,-0.0025265,0.0011425,-0.1405819999999999,-0.4923935,-0.0034725,0.131938,-0.5173235,0.0371595,-0.149362,-0.8529835,0.0137945,0.150138,-0.8954635,0.0149455,1
38,-0.019096,0.7932565,0.1007504999999999,-0.1923909999999999,0.5840365,0.0810805,-0.328961,0.7837265,0.0079674999999999,0.1941089999999999,0.5725265,0.0958585,0.345579,0.7695065,0.0614055,-0.325891,1.0702565000000002,-0.0368385,0.359819,1.0169565,-0.0080275,-0.079586,0.0025265,-0.0011974999999999,0.079586,-0.0025265,0.0011975,-0.140751,-0.4923935,-0.0036044999999999,0.132029,-0.5173235,0.0369865,-0.149311,-0.8532435,0.0132395,0.1503689999999999,-0.8954635,0.0149045,1
39,-0.0188879999999999,0.7933565,0.1006745,-0.19233,0.5840565,0.0804985,-0.32919,0.7835965,0.0069455,0.19386,0.5732065,0.0959365,0.34569,0.7695565,0.0612795,-0.32653,1.0698565000000002,-0.0390215,0.36067,1.0174565000000002,-0.0089654999999999,-0.079595,0.0025265,-0.0012854999999999,0.079595,-0.0025265,0.0012855,-0.14091,-0.4924235,-0.0038884999999999,0.13212,-0.5173235,0.0367485,-0.1490999999999999,-0.8532435,0.0128375,0.15065,-0.8945535,0.0151285,1
40,-0.0186799999999999,0.7937995,0.10048,-0.192207,0.5839894999999999,0.079598,-0.329717,0.7829695,0.005206,0.193533,0.5742395,0.0958799999999999,0.345893,0.7689695,0.060688,-0.327297,1.0690895,-0.0422149999999999,0.361393,1.0172895000000002,-0.0104599999999999,-0.079603,0.0024255,-0.0013799999999999,0.079603,-0.0024255,0.00138,-0.141117,-0.4918205,-0.0043219999999999,0.132223,-0.5169305,0.036466,-0.148917,-0.8540005,0.012306,0.150763,-0.8937805,0.01537,1
41,-0.0184414999999999,0.7943595,0.0999755,-0.1920275,0.5838694999999999,0.0784395,-0.3302474999999999,0.7824494999999999,0.0029154999999999,0.1932525,0.5753995,0.0956305,0.3462825,0.7683295,0.0596385,-0.3279375,1.0683295,-0.0460244999999999,0.3621325,1.0156295,-0.0125645,-0.0796345,0.0023495,-0.0014095,0.0796345,-0.0023495,0.0014095,-0.1412975,-0.4913605,-0.0050634999999999,0.1323425,-0.5164005,0.0360485,-0.1487274999999999,-0.8542605000000001,0.0119354999999999,0.1509125,-0.8931205000000001,0.0155625,1
42,-0.018097,0.794993,0.0991115,-0.191816,0.583743,0.0770195,-0.330746,0.7819429999999999,-0.0001634999999999,0.192984,0.576633,0.0952825,0.346964,0.7676029999999999,0.0580765,-0.3284359999999999,1.067443,-0.0509224999999999,0.362944,1.013843,-0.0154464999999999,-0.07968,0.0023109999999999,-0.0014134999999999,0.07968,-0.0023109999999999,0.0014135,-0.141446,-0.490247,-0.0060845,0.132484,-0.5156970000000001,0.0351995,-0.1486859999999999,-0.8543970000000001,0.0115595,0.151054,-0.8931370000000001,0.0155325,1
43,-0.0176809999999999,0.7958080000000001,0.0977545,-0.1915579999999999,0.583588,0.0752625,-0.331208,0.781528,-0.0037885,0.192742,0.577968,0.0946865,0.347822,0.767058,0.0559724999999999,-0.328828,1.066568,-0.0568205,0.363862,1.013568,-0.0191865,-0.0797549999999999,0.002281,-0.0014385,0.0797549999999999,-0.002281,0.0014384999999999,-0.1415979999999999,-0.488882,-0.0072774999999999,0.132662,-0.514972,0.0340365,-0.148498,-0.854242,0.0109294999999999,0.151122,-0.892872,0.0151664999999999,1
44,-0.0170545,0.7964875,0.0958,-0.1911745,0.5834875,0.072946,-0.3316145,0.7810975,-0.00816,0.1926555,0.5788875,0.093872,0.3488055,0.7664675000000001,0.053281,-0.3291945,1.0652975,-0.063613,0.3655055,1.0132975,-0.024014,-0.0798555,0.0022715,-0.0014729999999999,0.0798555,-0.0022715,0.001473,-0.1416845,-0.4874325,-0.0086919999999999,0.1327355,-0.5139024999999999,0.03246,-0.1483845,-0.8540924999999999,0.0100349999999999,0.1512955,-0.8925725,0.014205,1
45,-0.0162165,0.796786,0.093102,-0.1906945,0.583366,0.070072,-0.3320344999999999,0.780466,-0.0136589999999999,0.1927154999999999,0.579666,0.092461,0.3499055,0.7659060000000001,0.0499099999999999,-0.3295645,1.063826,-0.071817,0.3671555,1.0122259999999998,-0.0297339999999999,-0.0799515,0.002255,-0.001548,0.0799515,-0.002255,0.001548,-0.1418045,-0.486204,-0.0106049999999999,0.1329855,-0.512714,0.03027,-0.1482245,-0.854024,0.008987,0.1515355,-0.8917839999999999,0.013344,1
46,-0.0150815,0.796825,0.0895745,-0.1900615,0.583175,0.0667065,-0.3322415,0.779645,-0.0200445,0.1929085,0.580185,0.0905225,0.3511785,0.7650049999999999,0.0457425,-0.3298815,1.062055,-0.0809045,0.3688185,1.010755,-0.0361554999999999,-0.0800635,0.002238,-0.0015944999999999,0.0800635,-0.002238,0.0015945,-0.1418915,-0.484895,-0.0130424999999999,0.1332785,-0.511515,0.0275265,-0.1480715,-0.854295,0.0074065,0.1517885,-0.891035,0.0120755,1
47,-0.0135679999999999,0.7968535,0.0848075,-0.189257,0.5830235,0.0626395,-0.332367,0.7785635,-0.0272675,0.193183,0.5803834999999999,0.0879645,0.352653,0.7637735,0.0406465,-0.330147,1.0599835,-0.0908245,0.371313,1.0084835,-0.0437775,-0.080191,0.0022194999999999,-0.0016585,0.080191,-0.0022195,0.0016585,-0.1419369999999999,-0.4829365,-0.0159624999999999,0.133683,-0.5096465,0.0236095,-0.147777,-0.8544865,0.0056464999999999,0.151853,-0.8899565,0.0106775,1
48,-0.0119045,0.7969565000000001,0.079223,-0.1883645,0.5828065,0.058249,-0.3324545,0.7771465000000001,-0.0351109999999999,0.1935155,0.5804865,0.085052,0.3543955,0.7622765,0.034829,-0.3303545,1.0574865,-0.1016699999999999,0.3739455,1.0056865,-0.052667,-0.0803655,0.0021555,-0.0017439999999999,0.0803655,-0.0021555,0.001744,-0.1420545,-0.4809835,-0.0190159999999999,0.1342055,-0.5076434999999999,0.019056,-0.1475245,-0.8542535,0.0036839999999999,0.1519955,-0.8893534999999999,0.009055,1
49,-0.010103,0.797188,0.073116,-0.187414,0.582628,0.053652,-0.332194,0.775548,-0.043231,0.193916,0.580718,0.081822,0.356326,0.760698,0.028581,-0.330364,1.054518,-0.1129039999999999,0.376786,1.002208,-0.061716,-0.080572,0.002099,-0.001871,0.080572,-0.002099,0.0018709999999999,-0.142124,-0.479132,-0.022444,0.134966,-0.506282,0.0139069999999999,-0.147054,-0.8540220000000001,0.0017969999999999,0.1523159999999999,-0.889122,0.0071389999999999,1
50,-0.0080215,0.7975544999999999,0.0664865,-0.1863015,0.5825445,0.0488274999999999,-0.3318615,0.7735645,-0.0517455,0.1945385,0.5812145,0.0776854999999999,0.3584285,0.7589245,0.0216285,-0.3302415,1.0513145,-0.1250445,0.3797385,0.9986945,-0.0711885,-0.0808315,0.0020855,-0.0020244999999999,0.0808315,-0.0020854999999999,0.0020245,-0.1422415,-0.4771655,-0.0260465,0.1358885,-0.5046555,0.0083295,-0.1465015,-0.8535255,-0.0003354999999999,0.1526785,-0.8886255,0.0050765,1
51,-0.0058525,0.7975409999999999,0.059292,-0.1850574999999999,0.5825009999999999,0.043766,-0.3315275,0.771591,-0.060158,0.1952125,0.581881,0.073421,0.3604624999999999,0.7569009999999999,0.014023,-0.3301075,1.046661,-0.1373849999999999,0.3829725,0.993211,-0.081091,-0.0811145,0.0020939999999999,-0.0021869999999999,0.0811145,-0.002094,0.002187,-0.1425275,-0.475379,-0.030381,0.1370025,-0.502729,0.002477,-0.1460375,-0.852819,-0.002762,0.1530925,-0.887879,0.002666,1
52,-0.003552,0.7971010000000001,0.0519045,-0.18362,0.581821,0.0383545,-0.3312,0.7696310000000001,-0.0687325,0.1960299999999999,0.582461,0.0692885,0.36251,0.754551,0.0061505,-0.32997,1.042191,-0.1496994999999999,0.38633,0.986601,-0.0913795,-0.08137,0.002188,-0.0023185,0.08137,-0.002188,0.0023184999999999,-0.14299,-0.472309,-0.0349615,0.1381899999999999,-0.500069,-0.0035255,-0.14559,-0.851859,-0.0048775,0.15341,-0.886749,2.4500000000000216e-05,1
53,-0.0011624999999999,0.7962935,0.04428,-0.1822275,0.5811735,0.033024,-0.3308475,0.7673635,-0.077496,0.1969125,0.5829835,0.065161,0.3647424999999999,0.7519534999999999,-0.0021119999999999,-0.3297075,1.0376635,-0.162071,0.3892624999999999,0.9804835,-0.101571,-0.0815855,0.0022675,-0.002425,0.0815855,-0.0022675,0.002425,-0.1435675,-0.4693465,-0.039905,0.1394425,-0.4973465,-0.009806,-0.1452274999999999,-0.8508665,-0.0070689999999999,0.1537225,-0.8855165,-0.003011,1
54,0.0012339999999999,0.7951315,0.036648,-0.180731,0.5802915,0.0276189999999999,-0.330471,0.7652614999999999,-0.085922,0.197809,0.5832815,0.06131,0.3669889999999999,0.7490215,-0.010497,-0.329401,1.0331515,-0.174091,0.3922489999999999,0.9747215,-0.1117809999999999,-0.081803,0.0023265,-0.002482,0.081803,-0.0023264999999999,0.002482,-0.1442709999999999,-0.4661585,-0.044931,0.1408289999999999,-0.4939485,-0.016382,-0.144891,-0.8496685,-0.009695,0.1539789999999999,-0.8841685,-0.006075,1
55,0.0035035,0.793813,0.029163,-0.1791795,0.5791829999999999,0.022247,-0.3301995,0.762903,-0.094056,0.1986505,0.5835429999999999,0.0575689999999999,0.3693005,0.7460829999999999,-0.0191329999999999,-0.3290694999999999,1.028253,-0.186156,0.3953205,0.969013,-0.1226559999999999,-0.0820265,0.0023859999999999,-0.0025159999999999,0.0820265,-0.002386,0.002516,-0.1453795,-0.462887,-0.05021,0.1422205,-0.490197,-0.022858,-0.1448295,-0.8479070000000001,-0.0121269999999999,0.1542105,-0.882487,-0.009107,1
56,0.00551,0.792567,0.022206,-0.177785,0.5780770000000001,0.017048,-0.330075,0.760657,-0.101994,0.199395,0.583977,0.053834,0.371445,0.7430570000000001,-0.0275189999999999,-0.328655,1.023127,-0.197994,0.397905,0.963327,-0.133254,-0.082232,0.002448,-0.0025249999999999,0.082232,-0.002448,0.002525,-0.146695,-0.459553,-0.055745,0.1437649999999999,-0.4863029999999999,-0.0288309999999999,-0.144785,-0.846013,-0.014739,0.1542549999999999,-0.880443,-0.011509,1
57,0.0074965,0.79165,0.0151155,-0.1764724999999999,0.5771000000000001,0.0114755,-0.3300225,0.759,-0.1103195,0.2005775,0.58176,0.0468745,0.3733475,0.74019,-0.0361825,-0.3283425,1.01857,-0.2096095,0.4004175,0.95872,-0.1430695,-0.0824685,0.002594,-0.0025065,0.0824685,-0.0025939999999999,0.0025065,-0.1481024999999999,-0.45546,-0.0616185,0.1453775,-0.48162,-0.0346975,-0.1449225,-0.84342,-0.0174485,0.1543075,-0.87761,-0.0143395,1
58,0.0094184999999999,0.7909309999999999,0.0080635,-0.1751375,0.576271,0.0058035,-0.3300375,0.7572409999999999,-0.1186895,0.2017024999999999,0.5799909999999999,0.0399015,0.3750825,0.737281,-0.0449835,-0.3281874999999999,1.014041,-0.2208895,0.4030725,0.954731,-0.1536295,-0.0827934999999999,0.002712,-0.0024105,0.0827934999999999,-0.0027119999999999,0.0024105,-0.1496175,-0.4506989999999999,-0.0676175,0.1470824999999999,-0.4762789999999999,-0.0405115,-0.1451375,-0.840209,-0.0198165,0.1543324999999999,-0.874639,-0.0170085,1
59,0.0111089999999999,0.7898160000000001,0.0008195,-0.173914,0.575196,-7.149999999999995e-05,-0.330184,0.755776,-0.1270195,0.202706,0.5785060000000001,0.0334415,0.376786,0.7347560000000001,-0.0535215,-0.328254,1.009956,-0.2316595,0.405706,0.950476,-0.1643995,-0.083147,0.0028569999999999,-0.0023604999999999,0.083147,-0.002857,0.0023604999999999,-0.151274,-0.445704,-0.0738254999999999,0.148916,-0.470574,-0.0463995,-0.145394,-0.8365039999999999,-0.0222204999999999,0.154276,-0.871304,-0.0197655,1
60,0.0127159999999999,0.788883,-0.0065995,-0.172751,0.573873,-0.0062395,-0.330491,0.7544029999999999,-0.1353805,0.203549,0.5767829999999999,0.0264154999999999,0.378389,0.732123,-0.0619345,-0.328631,1.006603,-0.2423605,0.408049,0.947213,-0.1753805,-0.083481,0.0030059999999999,-0.0022814999999999,0.083481,-0.0030059999999999,0.0022814999999999,-0.152901,-0.440147,-0.0796865,0.150849,-0.464477,-0.0522695,-0.145741,-0.832527,-0.0250915,0.154219,-0.8674270000000001,-0.0226205,1
61,0.0141449999999999,0.7878280000000001,-0.014478,-0.171756,0.572848,-0.012517,-0.330826,0.752758,-0.143955,0.204314,0.574918,0.0189049999999999,0.379874,0.729588,-0.0705779999999999,-0.329226,1.003578,-0.253115,0.410334,0.944098,-0.186835,-0.0838339999999999,0.003208,-0.002194,0.0838339999999999,-0.0032079999999999,0.002194,-0.154666,-0.433942,-0.0857329999999999,0.152914,-0.457782,-0.058228,-0.145956,-0.828052,-0.028044,0.154234,-0.8629319999999999,-0.025649,1
62,0.0152905,0.786838,-0.0223255,-0.1709115,0.571878,-0.0187375,-0.3313715,0.751368,-0.1521974999999999,0.2050385,0.572908,0.0110024999999999,0.3810484999999999,0.7272080000000001,-0.0791635,-0.3300815,1.000478,-0.2637175,0.4122085,0.941208,-0.1979075,-0.0841585,0.003407,-0.0020935,0.0841585,-0.003407,0.0020935,-0.1566515,-0.427272,-0.0917844999999999,0.1549785,-0.450822,-0.0639875,-0.1462415,-0.823202,-0.0311085,0.1542585,-0.858162,-0.0291115,1
63,0.016285,0.7857225,-0.0302915,-0.170141,0.5711324999999999,-0.0248655,-0.332031,0.7494525,-0.1603965,0.205569,0.5707725,0.0026864999999999,0.382029,0.7249225,-0.0877755,-0.331311,0.9977125,-0.2739365,0.413899,0.9371425,-0.2091165,-0.084446,0.0035914999999999,-0.0019825,0.084446,-0.0035915,0.0019825,-0.158631,-0.4207575,-0.0977555,0.157099,-0.4438975,-0.0694005,-0.146621,-0.8178875,-0.0342135,0.1542089999999999,-0.8528175,-0.0325965,1
64,0.01718,0.784521,-0.0382755,-0.169555,0.570691,-0.0309435,-0.332695,0.747331,-0.1683805,0.206125,0.568261,-0.0059495,0.382785,0.722881,-0.0963555,-0.332885,0.995211,-0.2837305,0.415345,0.933611,-0.2198405,-0.084669,0.003778,-0.0018604999999999,0.084669,-0.0037779999999999,0.0018604999999999,-0.160395,-0.413469,-0.1034055,0.1592049999999999,-0.436569,-0.0748985,-0.147055,-0.812339,-0.0374085,0.154165,-0.847289,-0.0360785,1
65,0.0180055,0.7830790000000001,-0.046498,-0.1689525,0.570319,-0.036985,-0.3335125,0.745189,-0.17619,0.2065775,0.565709,-0.014776,0.3834375,0.720839,-0.104929,-0.3350225,0.992729,-0.29383,0.4164175,0.929739,-0.23065,-0.0848555,0.0039,-0.00174,0.0848555,-0.0039,0.00174,-0.1621024999999999,-0.406271,-0.108805,0.1612075,-0.429451,-0.080258,-0.1475425,-0.8065209999999999,-0.040718,0.1541374999999999,-0.841371,-0.040261,1
66,0.018551,0.7814145,-0.0546335,-0.168347,0.5693644999999999,-0.0428805,-0.335037,0.7401645,-0.1843814999999999,0.206453,0.5653645,-0.0208825,0.3839329999999999,0.7183944999999999,-0.1135915,-0.337487,0.9874845,-0.3039914999999999,0.417273,0.9254045,-0.2417214999999999,-0.085004,0.0039845,-0.0015595,0.085004,-0.0039845,0.0015595,-0.163867,-0.3998355,-0.1141955,0.163183,-0.4221654999999999,-0.0857495,-0.148057,-0.8007555000000001,-0.0440805,0.154043,-0.8356155000000001,-0.0443685,1
67,0.0191135,0.7794065,-0.063053,-0.1677104999999999,0.5681165,-0.048996,-0.3361205,0.7361265,-0.192099,0.2063795,0.5644765,-0.027487,0.3845195,0.7157765,-0.122569,-0.3399905,0.9829465,-0.313899,0.4178795,0.9210965,-0.252929,-0.0851055,0.0041324999999999,-0.001408,0.0851055,-0.0041324999999999,0.0014079999999999,-0.1654505,-0.3933235,-0.119609,0.1651095,-0.4156335,-0.091275,-0.1485405,-0.7948635,-0.047613,0.1538795,-0.8296334999999999,-0.048734,1
68,0.019697,0.777377,-0.071674,-0.167007,0.567037,-0.0553889999999999,-0.337117,0.7327570000000001,-0.19961,0.206283,0.5629569999999999,-0.034612,0.384843,0.7128570000000001,-0.13172,-0.342517,0.977177,-0.32357,0.4184529999999999,0.916117,-0.26489,-0.085162,0.004238,-0.0012689999999999,0.085162,-0.0042379999999999,0.0012689999999999,-0.1668569999999999,-0.386773,-0.12486,0.166893,-0.409083,-0.096658,-0.1489769999999999,-0.7889330000000001,-0.051258,0.153743,-0.8236429999999999,-0.053228,1
69,0.0201715,0.775437,-0.0805315,-0.1663865,0.566467,-0.0619925,-0.3383965,0.730007,-0.2074135,0.2061035,0.5613969999999999,-0.0418625,0.3851334999999999,0.710057,-0.1410535,-0.3452765,0.971497,-0.3333335,0.4189135,0.911857,-0.2767435,-0.0852634999999999,0.004205,-0.0011064999999999,0.0852634999999999,-0.004205,0.0011064999999999,-0.1683065,-0.379953,-0.1301835,0.1685535,-0.402263,-0.1019755,-0.1493364999999999,-0.782573,-0.0546605,0.1535535,-0.817453,-0.0578864999999999,1
70,0.0203429999999999,0.77359,-0.089467,-0.165867,0.56533,-0.068809,-0.339447,0.7269800000000001,-0.215437,0.205623,0.5603,-0.049186,0.384873,0.70625,-0.150447,-0.348237,0.96572,-0.343057,0.419193,0.90682,-0.288947,-0.085298,0.0040619999999999,-0.00087,0.085298,-0.004062,0.0008699999999999,-0.169997,-0.3737399999999999,-0.135617,0.169983,-0.39527,-0.107432,-0.150137,-0.7758999999999999,-0.058526,0.153063,-0.81112,-0.063023,1
71,0.0202654999999999,0.7713679999999999,-0.0994715,-0.1654225,0.564258,-0.0764755,-0.3410825,0.724078,-0.2241125,0.2049175,0.557698,-0.0579975,0.3843875,0.702638,-0.1608825,-0.3515425,0.959928,-0.3536224999999999,0.4195475,0.901428,-0.3027725,-0.0853505,0.0039819999999999,-0.0006405,0.0853505,-0.0039819999999999,0.0006404999999999,-0.1717825,-0.367692,-0.1415425,0.1718174999999999,-0.3885619999999999,-0.1133945,-0.1511225,-0.7686120000000001,-0.0629705,0.1524075,-0.8042320000000001,-0.0684605,1
72,0.0200045,0.76925,-0.1097575,-0.1650734999999999,0.5625600000000001,-0.0844925,-0.3429035,0.72169,-0.2334385,0.2040865,0.55525,-0.0668955,0.3838764999999999,0.69899,-0.1718785,-0.3549235,0.95094,-0.3647585,0.4198165,0.89671,-0.3170485,-0.0853744999999999,0.00389,-0.0004524999999999,0.0853744999999999,-0.00389,0.0004525,-0.1737435,-0.36213,-0.1467585,0.1736665,-0.38243,-0.1186145,-0.1519935,-0.76144,-0.0674955,0.1517565,-0.7974199999999999,-0.0739985,1
73,0.0195904999999999,0.76683,-0.1209735,-0.1648385,0.5608,-0.0929315,-0.3450385,0.71758,-0.2429265,0.2029615,0.5528500000000001,-0.0762444999999999,0.3832615,0.69516,-0.1838965,-0.3583785,0.94263,-0.3762664999999999,0.4200215,0.8920899999999999,-0.3321965,-0.0854445,0.0037499999999999,-0.0003985,0.0854445,-0.00375,0.0003984999999999,-0.1758085,-0.35442,-0.1525965,0.1757915,-0.37433,-0.1244685,-0.1529985,-0.75413,-0.0726825,0.1509615,-0.78989,-0.0798375,1
74,0.019131,0.7649900000000001,-0.132516,-0.164538,0.55903,-0.102176,-0.346878,0.7112499999999999,-0.253249,0.201752,0.55008,-0.086502,0.382582,0.6915800000000001,-0.196799,-0.361838,0.93491,-0.388279,0.4202619999999999,0.8872,-0.348949,-0.085469,0.0035,-0.000196,0.085469,-0.0035,0.000196,-0.177908,-0.34646,-0.159029,0.177952,-0.36595,-0.130612,-0.154088,-0.74648,-0.078452,0.150132,-0.7818400000000001,-0.085649,1
75,0.0189479999999999,0.7626649999999999,-0.149984,-0.163994,0.557585,-0.116874,-0.347924,0.707705,-0.268043,0.200726,0.5485450000000001,-0.101727,0.382126,0.6880649999999999,-0.215453,-0.365214,0.929525,-0.406443,0.420776,0.8829150000000001,-0.371813,-0.085251,0.003185,-0.000164,0.085251,-0.0031849999999999,0.0001639999999999,-0.179994,-0.338045,-0.170793,0.180246,-0.3568949999999999,-0.142056,-0.155124,-0.738445,-0.089594,0.149456,-0.7734049999999999,-0.096879,1
76,0.018801,0.762135,-0.1684455,-0.16288,0.555035,-0.1329845,-0.34868,0.704685,-0.2846205,0.1996,0.548305,-0.1183934999999999,0.38163,0.6863650000000001,-0.2356605,-0.36848,0.925455,-0.4262305,0.42135,0.8800350000000001,-0.3958405,-0.0849979999999999,0.002705,-0.0001234999999999,0.0849979999999999,-0.0027049999999999,0.0001234999999999,-0.1847,-0.325565,-0.1885705,0.18717,-0.342615,-0.1606334999999999,-0.15914,-0.729355,-0.1071175,0.1538399999999999,-0.762955,-0.1153285,1
77,0.0186535,0.76147,-0.186752,-0.1617915,0.55244,-0.148646,-0.3492015,0.70159,-0.301532,0.1983185,0.5489900000000001,-0.134566,0.3810085,0.6844600000000001,-0.256192,-0.3714915,0.92181,-0.446682,0.4221485,0.874,-0.419132,-0.0847815,0.00212,-5.900000000000349e-05,0.0847815,-0.0021199999999999,5.900000000000349e-05,-0.1894015,-0.31328,-0.206592,0.1939585,-0.32863,-0.1792389999999999,-0.1631314999999999,-0.72048,-0.124898,0.1581185,-0.75208,-0.133509,1
78,0.018534,0.7599,-0.204932,-0.160605,0.54958,-0.163912,-0.348815,0.6977800000000001,-0.318552,0.197115,0.55022,-0.150117,0.380315,0.6821,-0.276912,-0.374065,0.9173,-0.467252,0.423005,0.8678600000000001,-0.442052,-0.084537,0.00162,-7.700000000000762e-05,0.084537,-0.00162,7.699999999999374e-05,-0.193915,-0.30161,-0.224202,0.200625,-0.31567,-0.197562,-0.167115,-0.71231,-0.142146,0.162525,-0.7417199999999999,-0.151452,1
79,0.0186274999999999,0.75814,-0.2230349999999999,-0.1592985,0.54717,-0.178977,-0.3481885,0.69421,-0.335785,0.1961014999999999,0.55012,-0.165898,0.3799415,0.68011,-0.297645,-0.3764585,0.91157,-0.488235,0.4237215,0.86176,-0.464385,-0.0843835,0.0011899999999999,-0.0001749999999999,0.0843835,-0.0011899999999999,0.000175,-0.1979385,-0.2902,-0.241555,0.2073015,-0.30354,-0.215745,-0.1706185,-0.7047399999999999,-0.1592279999999999,0.1671615,-0.73203,-0.168654,1
80,0.018974,0.75662,-0.240245,-0.15786,0.54455,-0.193655,-0.34712,0.68931,-0.352525,0.1950899999999999,0.5486599999999999,-0.181736,0.37977,0.6777599999999999,-0.317465,-0.37807,0.90572,-0.508895,0.42443,0.85532,-0.485635,-0.084208,0.0008599999999999,-0.0003049999999999,0.084208,-0.0008599999999999,0.0003049999999999,-0.20151,-0.27897,-0.258345,0.21365,-0.29191,-0.233655,-0.1737099999999999,-0.69729,-0.175728,0.17185,-0.72314,-0.185053,1
81,0.0194765,0.75475,-0.257325,-0.1562934999999999,0.54218,-0.208434,-0.3459534999999999,0.68408,-0.368765,0.1942865,0.54753,-0.197523,0.3797865,0.6751,-0.336825,-0.3791835,0.90253,-0.528865,0.4251365,0.84889,-0.506505,-0.0840845,0.0005699999999999,-0.000345,0.0840845,-0.00057,0.000345,-0.2046335,-0.26727,-0.2752449999999999,0.2197065,-0.28118,-0.251345,-0.1764734999999999,-0.68964,-0.192321,0.1764365,-0.71424,-0.200992,1
82,0.0199575,0.752505,-0.273445,-0.1547775,0.5394049999999999,-0.223046,-0.3450075,0.679945,-0.3848749999999999,0.1935925,0.546375,-0.212659,0.3798225,0.671885,-0.354885,-0.3801075,0.897175,-0.548535,0.4258225,0.841915,-0.526445,-0.0838225,0.0003449999999999,-0.000265,0.0838225,-0.000345,0.0002649999999999,-0.2075875,-0.255635,-0.291835,0.2253925,-0.270135,-0.2689749999999999,-0.1789875,-0.682465,-0.20855,0.1814325,-0.705175,-0.217061,1
83,0.020503,0.74952,-0.289535,-0.153298,0.53639,-0.237428,-0.343878,0.67813,-0.400865,0.192812,0.54413,-0.227189,0.379842,0.66775,-0.371995,-0.380568,0.89138,-0.567105,0.426552,0.8357,-0.544885,-0.083594,0.0003599999999999,-0.0003549999999999,0.083594,-0.0003599999999999,0.0003549999999999,-0.210178,-0.24519,-0.307945,0.230942,-0.25954,-0.286255,-0.1787979999999999,-0.67327,-0.218923,0.186502,-0.69613,-0.233293,1
84,0.0207405,0.74624,-0.299755,-0.1522244999999999,0.53287,-0.246272,-0.3426745,0.67484,-0.4116749999999999,0.1915755,0.54061,-0.236506,0.3794055,0.6634899999999999,-0.383015,-0.3809145,0.8849100000000001,-0.5792649999999999,0.4268755,0.8274299999999999,-0.556905,-0.0836085,0.0004599999999999,-0.0002649999999999,0.0836085,-0.00046,0.000265,-0.2129645,-0.23465,-0.318665,0.2361055,-0.24911,-0.298015,-0.1788545,-0.6644399999999999,-0.223819,0.1909655,-0.68838,-0.244641,1
85,0.0209165,0.7411500000000001,-0.30871,-0.1519415,0.52962,-0.253542,-0.3423015,0.67031,-0.42105,0.1902485,0.53605,-0.244051,0.3788785,0.65765,-0.3921,-0.3811515,0.8760100000000001,-0.59075,0.4270685,0.81667,-0.56679,-0.0837065,0.00053,-0.00014,0.0837065,-0.00053,0.00014,-0.2132615,-0.2273099999999999,-0.32303,0.2363985,-0.2418899999999999,-0.3021,-0.1789815,-0.65711,-0.227427,0.1908385,-0.6799999999999999,-0.248236,1
86,0.0209794999999999,0.7356100000000001,-0.317305,-0.1518915,0.52632,-0.260725,-0.3412715,0.66462,-0.430265,0.1888085,0.5305,-0.251548,0.3783585,0.65159,-0.400465,-0.3814114999999999,0.8669899999999999,-0.601795,0.4272285,0.8098000000000001,-0.575875,-0.0838605,0.0006799999999999,5.499999999999949e-05,0.0838605,-0.00068,-5.499999999999949e-05,-0.2135015,-0.21902,-0.326965,0.2366585,-0.2335999999999999,-0.305865,-0.1791515,-0.64849,-0.230694,0.1906685,-0.67045,-0.251461,1
87,0.021118,0.73047,-0.3253549999999999,-0.151436,0.5223800000000001,-0.267875,-0.339916,0.6585700000000001,-0.439185,0.187714,0.5244500000000001,-0.259393,0.3782339999999999,0.64533,-0.407945,-0.381356,0.85805,-0.612275,0.4277539999999999,0.80183,-0.584765,-0.083776,0.00079,0.000225,0.083776,-0.0007899999999999,-0.000225,-0.213506,-0.2104999999999999,-0.330875,0.237224,-0.2250799999999999,-0.309585,-0.178986,-0.63962,-0.233895,0.190754,-0.66067,-0.254641,1
88,0.020564,0.72492,-0.333095,-0.1515699999999999,0.5182,-0.274675,-0.33921,0.65238,-0.447285,0.18614,0.51883,-0.266845,0.37748,0.6392500000000001,-0.414925,-0.38172,0.8502099999999999,-0.621785,0.42785,0.7937400000000001,-0.593325,-0.083942,0.00087,0.0003949999999999,0.083942,-0.0008699999999999,-0.000395,-0.21404,-0.20442,-0.334445,0.23725,-0.2212799999999999,-0.312855,-0.17641,-0.6295200000000001,-0.23119,0.18568,-0.65042,-0.248354,1
89,0.0198969999999999,0.7191350000000001,-0.340445,-0.151696,0.513495,-0.281155,-0.3392759999999999,0.645175,-0.4551349999999999,0.184914,0.5156350000000001,-0.272735,0.376484,0.631865,-0.421155,-0.3820759999999999,0.8411850000000001,-0.630745,0.427624,0.785285,-0.601505,-0.084134,0.000765,0.000585,0.084134,-0.0007649999999999,-0.000585,-0.214666,-0.1988549999999999,-0.337515,0.237524,-0.2174749999999999,-0.316055,-0.173796,-0.620115,-0.228235,0.180694,-0.640965,-0.242259,1
90,0.019252,0.7138249999999999,-0.347635,-0.151834,0.509005,-0.287405,-0.3393339999999999,0.637065,-0.462785,0.183806,0.511825,-0.278715,0.375496,0.625245,-0.427105,-0.3822939999999999,0.830385,-0.640255,0.427416,0.776895,-0.609685,-0.084336,0.000665,0.0006549999999999,0.084336,-0.000665,-0.000655,-0.215424,-0.193025,-0.340775,0.238076,-0.213575,-0.318835,-0.171154,-0.609975,-0.225227,0.175986,-0.630905,-0.235864,1
91,0.0186314999999999,0.708545,-0.35488,-0.1520665,0.504645,-0.29339,-0.3393764999999999,0.630115,-0.47019,0.1828235,0.507755,-0.28486,0.3744135,0.618815,-0.43304,-0.3826565,0.8209850000000001,-0.6496999999999999,0.4272735,0.7677050000000001,-0.6178300000000001,-0.0845394999999999,0.000535,0.0006999999999999,0.0845394999999999,-0.0005349999999999,-0.0007,-0.2162965,-0.1872849999999999,-0.34369,0.2388934999999999,-0.209345,-0.32153,-0.1686865,-0.599775,-0.222385,0.1710435,-0.6209049999999999,-0.229511,1
92,0.017831,0.703225,-0.361695,-0.15245,0.499985,-0.298975,-0.33992,0.622825,-0.477635,0.18201,0.504455,-0.290995,0.37319,0.612625,-0.439025,-0.38331,0.810795,-0.659735,0.42716,0.757745,-0.625825,-0.084686,0.000305,0.000785,0.084686,-0.0003049999999999,-0.0007849999999999,-0.21722,-0.1818149999999999,-0.346305,0.24033,-0.2049049999999999,-0.323895,-0.16642,-0.589505,-0.2193629999999999,0.16612,-0.610965,-0.222912,1
93,0.017033,0.6980299999999999,-0.36814,-0.152888,0.49576,-0.3043599999999999,-0.340598,0.61606,-0.48475,0.181352,0.50106,-0.29686,0.371872,0.60603,-0.44459,-0.384158,0.79985,-0.67009,0.426902,0.74882,-0.63391,-0.084787,0.0001099999999999,0.0008599999999999,0.084787,-0.0001099999999999,-0.0008599999999999,-0.2182279999999999,-0.17641,-0.3487,0.241842,-0.19976,-0.32618,-0.164238,-0.5793900000000001,-0.2163399999999999,0.161242,-0.60132,-0.216218,1
94,0.0162299999999999,0.6922200000000001,-0.374405,-0.15327,0.49287,-0.309235,-0.3414,0.60868,-0.491485,0.1807099999999999,0.49722,-0.302625,0.37028,0.5986100000000001,-0.449615,-0.38515,0.78928,-0.679075,0.4266399999999999,0.73987,-0.641905,-0.0847469999999999,0.00013,0.001035,0.0847469999999999,-0.0001299999999999,-0.0010349999999999,-0.21917,-0.1714699999999999,-0.350925,0.24361,-0.19554,-0.328445,-0.1621,-0.5702699999999999,-0.2134349999999999,0.15674,-0.59161,-0.209506,1
95,0.0153385,0.68675,-0.38064,-0.1537095,0.49036,-0.31398,-0.3421794999999999,0.60131,-0.49811,0.1800205,0.49358,-0.3084,0.3684505,0.59127,-0.45449,-0.3863895,0.7782800000000001,-0.68775,0.4263705,0.73053,-0.65029,-0.0847015,0.00019,0.00114,0.0847015,-0.0001899999999999,-0.00114,-0.2201795,-0.1661499999999999,-0.35339,0.2454805,-0.19139,-0.33088,-0.1625195,-0.56393,-0.215739,0.1523405,-0.58278,-0.2029699999999999,1
96,0.014503,0.6816249999999999,-0.38659,-0.154052,0.4864649999999999,-0.31895,-0.343052,0.593455,-0.50405,0.179418,0.489525,-0.3138499999999999,0.3665879999999999,0.5846049999999999,-0.45929,-0.387762,0.7681749999999999,-0.69611,0.426358,0.7219849999999999,-0.65872,-0.0847,0.0002249999999999,0.00136,0.0847,-0.000225,-0.00136,-0.221072,-0.161125,-0.35591,0.247388,-0.187365,-0.33332,-0.162742,-0.5580250000000001,-0.217871,0.148288,-0.5737350000000001,-0.197337,1
97,0.013678,0.676525,-0.392445,-0.154392,0.4832849999999999,-0.323505,-0.343802,0.585745,-0.5098550000000001,0.178838,0.485395,-0.318975,0.364738,0.577955,-0.4639649999999999,-0.389132,0.757335,-0.704365,0.426348,0.712925,-0.666815,-0.084642,0.000425,0.001555,0.084642,-0.000425,-0.001555,-0.221802,-0.156415,-0.358125,0.249438,-0.183085,-0.335455,-0.162922,-0.5525450000000001,-0.219876,0.147848,-0.5682550000000001,-0.199291,1
98,0.0127684999999999,0.672215,-0.398095,-0.1546395,0.480145,-0.327915,-0.3439795,0.580345,-0.5152749999999999,0.1781705,0.481355,-0.323795,0.3629004999999999,0.5731850000000001,-0.468785,-0.3905995,0.748225,-0.712015,0.4262205,0.705425,-0.6744950000000001,-0.0846445,0.000485,0.001695,0.0846445,-0.000485,-0.001695,-0.2224895,-0.1513049999999999,-0.360575,0.2511704999999999,-0.178325,-0.337425,-0.1631395,-0.547185,-0.222177,0.1473705,-0.5624149999999999,-0.201011,1
99,0.0117235,0.667735,-0.403175,-0.1549995,0.4770150000000001,-0.331825,-0.3441995,0.576235,-0.519845,0.1773005,0.477605,-0.327995,0.3608005,0.568265,-0.473165,-0.3921695,0.741015,-0.718505,0.4259205,0.6986650000000001,-0.6813750000000001,-0.0846675,0.000395,0.001785,0.0846675,-0.0003949999999999,-0.001785,-0.2231795,-0.1461649999999999,-0.362415,0.2525605,-0.173365,-0.339045,-0.1634395,-0.5418149999999999,-0.223901,0.1469605,-0.556125,-0.201979,1
100,0.0106169999999999,0.6633549999999999,-0.4080249999999999,-0.155331,0.4737949999999999,-0.335445,-0.344251,0.571085,-0.524325,0.1764089999999999,0.4743449999999999,-0.331705,0.359599,0.563595,-0.476925,-0.393611,0.732965,-0.7243850000000001,0.425359,0.693005,-0.687635,-0.084703,0.0002349999999999,0.001805,0.084703,-0.000235,-0.001805,-0.223751,-0.141325,-0.364085,0.253739,-0.168495,-0.3409149999999999,-0.163751,-0.536725,-0.225514,0.146929,-0.551035,-0.203413,1
101,0.009475,0.659115,-0.412285,-0.155576,0.470695,-0.338655,-0.344276,0.5646950000000001,-0.527795,0.175354,0.471255,-0.334885,0.358784,0.559085,-0.480125,-0.394856,0.725595,-0.729125,0.4245939999999999,0.688095,-0.693255,-0.084734,0.000165,0.0018849999999999,0.084734,-0.0001649999999999,-0.001885,-0.224406,-0.1370949999999999,-0.365605,0.254274,-0.164455,-0.342445,-0.164046,-0.532185,-0.226819,0.146754,-0.5469649999999999,-0.204968,1
102,0.0082599999999999,0.65602,-0.41639,-0.155837,0.4680499999999999,-0.34173,-0.344547,0.55952,-0.53098,0.174433,0.46879,-0.33814,0.358103,0.55567,-0.48308,-0.396107,0.72011,-0.7333399999999999,0.423483,0.68386,-0.6980899999999999,-0.084703,8.999999999997899e-05,0.00191,0.084703,-8.999999999997899e-05,-0.0019099999999999,-0.224987,-0.1329199999999999,-0.36692,0.254853,-0.1600799999999999,-0.34386,-0.164097,-0.5278400000000001,-0.2281409999999999,0.146733,-0.5426500000000001,-0.206332,1
103,0.00725,0.6535249999999999,-0.42016,-0.155883,0.4646949999999999,-0.34501,-0.344743,0.554445,-0.53384,0.173627,0.4668049999999999,-0.34121,0.358047,0.549335,-0.48562,-0.397073,0.714175,-0.73753,0.422197,0.679785,-0.7027599999999999,-0.084677,-0.000205,0.00172,0.084677,0.0002049999999999,-0.0017199999999999,-0.225393,-0.128885,-0.36838,0.255367,-0.156085,-0.3451499999999999,-0.163953,-0.523655,-0.229371,0.146867,-0.5381750000000001,-0.207335,1
104,0.006477,0.651495,-0.4238,-0.155826,0.461635,-0.34818,-0.344446,0.549955,-0.53624,0.1730539999999999,0.465565,-0.34407,0.358114,0.5438350000000001,-0.48804,-0.397736,0.709145,-0.74156,0.421134,0.676475,-0.70715,-0.084604,-0.0005149999999999,0.0014299999999999,0.084604,0.000515,-0.0014299999999999,-0.225676,-0.1246149999999999,-0.36982,0.255684,-0.151995,-0.34628,-0.163686,-0.519505,-0.230601,0.147104,-0.5332549999999999,-0.208316,1
105,0.0058215,0.649295,-0.42734,-0.1557445,0.460875,-0.35074,-0.3439145,0.546305,-0.53886,0.1726154999999999,0.465045,-0.34674,0.3582055,0.538475,-0.49028,-0.3981045,0.704465,-0.7451599999999999,0.4202154999999999,0.672465,-0.71101,-0.0845455,-0.0006749999999999,0.00106,0.0845455,0.0006749999999999,-0.0010599999999999,-0.2258445,-0.120315,-0.3710799999999999,0.2558855,-0.1479349999999999,-0.3474699999999999,-0.1633744999999999,-0.5153049999999999,-0.2318629999999999,0.1471655,-0.5296050000000001,-0.209634,1
106,0.0053479999999999,0.6474,-0.43054,-0.155705,0.46005,-0.35342,-0.343485,0.54274,-0.54135,0.1724649999999999,0.46509,-0.3493699999999999,0.3583449999999999,0.53289,-0.49228,-0.398375,0.69931,-0.74854,0.419465,0.6691199999999999,-0.71479,-0.084515,-0.0009799999999999,0.00062,0.084515,0.0009799999999999,-0.00062,-0.226045,-0.1162599999999999,-0.37256,0.255995,-0.1440099999999999,-0.34869,-0.163105,-0.51083,-0.233106,0.147475,-0.52548,-0.211552,1
107,0.005026,0.64486,-0.434185,-0.155635,0.459764,-0.356085,-0.342815,0.53881,-0.543945,0.172435,0.46551,-0.3521149999999999,0.358735,0.52664,-0.494485,-0.3986349999999999,0.69364,-0.7520450000000001,0.418585,0.66501,-0.719115,-0.084485,-0.0011399999999999,0.000115,0.084485,0.00114,-0.000115,-0.226245,-0.11297,-0.374185,0.256105,-0.14051,-0.350035,-0.162825,-0.5071599999999999,-0.234447,0.147815,-0.52202,-0.213783,1
108,0.004733,0.6424000000000001,-0.43801,-0.155524,0.459655,-0.35885,-0.342224,0.5346500000000001,-0.54697,0.172486,0.46603,-0.35502,0.359226,0.52019,-0.49686,-0.398984,0.68641,-0.75587,0.417776,0.66014,-0.72357,-0.084406,-0.00117,-0.00032,0.084406,0.00117,0.0003199999999999,-0.226334,-0.1102199999999999,-0.37612,0.256216,-0.1375,-0.35145,-0.162574,-0.50413,-0.236041,0.147966,-0.51834,-0.215593,1
109,0.004577,0.6404749999999999,-0.4413849999999999,-0.155368,0.458707,-0.361545,-0.341538,0.531595,-0.549975,0.172642,0.465859,-0.358005,0.360012,0.514185,-0.4991549999999999,-0.399318,0.6802349999999999,-0.7593349999999999,0.417182,0.655855,-0.727185,-0.08431,-0.001205,-0.0007649999999999,0.08431,0.001205,0.000765,-0.226388,-0.1074249999999999,-0.3780749999999999,0.256402,-0.1343149999999999,-0.352695,-0.162288,-0.500835,-0.237448,0.148012,-0.515175,-0.2172549999999999,1
110,0.004525,0.6389,-0.444535,-0.155234,0.457929,-0.364115,-0.3412039999999999,0.5300400000000001,-0.5526850000000001,0.172486,0.465747,-0.360775,0.3611459999999999,0.50862,-0.501625,-0.399574,0.67449,-0.7625850000000001,0.416706,0.65089,-0.7302150000000001,-0.084147,-0.0013699999999999,-0.001285,0.084147,0.0013699999999999,0.0012849999999999,-0.226394,-0.1043999999999999,-0.379935,0.2566159999999999,-0.13124,-0.353735,-0.162094,-0.49748,-0.238731,0.148146,-0.5113,-0.218845,1
111,0.0046645,0.637155,-0.4471699999999999,-0.1550075,0.457234,-0.3663999999999999,-0.3408974999999999,0.528315,-0.5548599999999999,0.1724025,0.465767,-0.36317,0.3626325,0.5030749999999999,-0.5040899999999999,-0.3995375,0.668855,-0.76518,0.4165825,0.645975,-0.7328699999999999,-0.0839755,-0.001605,-0.0017599999999999,0.0839755,0.001605,0.00176,-0.2263875,-0.101395,-0.38136,0.2568525,-0.127995,-0.3546199999999999,-0.1618775,-0.4942049999999999,-0.2399909999999999,0.1483325,-0.507855,-0.220098,1
112,0.004867,0.635515,-0.44932,-0.154775,0.456923,-0.3681999999999999,-0.340535,0.527045,-0.55701,0.172345,0.4657799999999999,-0.36516,0.363345,0.501405,-0.50625,-0.399335,0.664215,-0.7673,0.416495,0.641895,-0.73507,-0.08385,-0.001705,-0.00217,0.08385,0.001705,0.00217,-0.226455,-0.0984849999999999,-0.38248,0.257095,-0.124825,-0.35531,-0.161645,-0.4910349999999999,-0.241039,0.148665,-0.5044649999999999,-0.221202,1
113,0.0049874999999999,0.633965,-0.45091,-0.1546755,0.456044,-0.36978,-0.3402855,0.526035,-0.55926,0.1722845,0.465182,-0.36683,0.3638945,0.499535,-0.5078,-0.3991155,0.6604049999999999,-0.76886,0.4163644999999999,0.637985,-0.7364999999999999,-0.0837035,-0.001845,-0.00242,0.0837035,0.0018449999999999,0.00242,-0.2266255,-0.095825,-0.38333,0.2571245,-0.122125,-0.3559,-0.1614655,-0.4883349999999999,-0.241869,0.1489345,-0.5015350000000001,-0.222232,1
114,0.0050739999999999,0.6329549999999999,-0.452215,-0.154614,0.454989,-0.371115,-0.340094,0.525245,-0.561175,0.1721859999999999,0.4644119999999999,-0.368235,0.364206,0.498115,-0.5091950000000001,-0.398954,0.658295,-0.770135,0.416256,0.6351249999999999,-0.737555,-0.0836129999999999,-0.002015,-0.0026549999999999,0.0836129999999999,0.0020149999999999,0.002655,-0.226794,-0.093795,-0.383955,0.256926,-0.120245,-0.356355,-0.161444,-0.486095,-0.242469,0.149116,-0.499755,-0.2235059999999999,1
115,0.0051305,0.632305,-0.45257,-0.1546325,0.454092,-0.37178,-0.3399625,0.524865,-0.5620499999999999,0.1723075,0.463562,-0.36887,0.3645175,0.497525,-0.51033,-0.3987624999999999,0.657605,-0.7709400000000001,0.4163575,0.633185,-0.73772,-0.0836085,-0.0021849999999999,-0.0028299999999999,0.0836085,0.0021849999999999,0.0028299999999999,-0.2270025,-0.091905,-0.38424,0.2567175,-0.1185949999999999,-0.35655,-0.1615125,-0.484085,-0.242653,0.1491175,-0.4984249999999999,-0.224632,1
116,0.0051624999999999,0.63243,-0.452565,-0.1546835,0.453681,-0.372065,-0.3398535,0.5249,-0.5624750000000001,0.1724065,0.463092,-0.369075,0.3647865,0.49741,-0.510725,-0.3986435,0.6577999999999999,-0.771555,0.4166265,0.63244,-0.7377049999999999,-0.0836135,-0.0023299999999999,-0.0028249999999999,0.0836135,0.0023299999999999,0.002825,-0.2271335,-0.09015,-0.384345,0.2566665,-0.11705,-0.3565549999999999,-0.1616735,-0.48223,-0.242724,0.1493965,-0.4964099999999999,-0.2246169999999999,1
117,0.0052344999999999,0.6337900000000001,-0.45256,-0.1546535,0.453789,-0.37221,-0.3396835,0.5257000000000001,-0.56247,0.1724665,0.462981,-0.36909,0.3649265,0.49848,-0.51076,-0.3983335,0.65971,-0.7721,0.4169965,0.63283,-0.73769,-0.0836355,-0.0024799999999999,-0.0028299999999999,0.0836355,0.00248,0.0028299999999999,-0.2272235,-0.08847,-0.38466,0.2566865,-0.11565,-0.35655,-0.1618335,-0.48048,-0.242803,0.1496064999999999,-0.49485,-0.225049,1
118,0.0053799999999999,0.6352,-0.4525599999999999,-0.154449,0.455199,-0.3722,-0.339399,0.5271100000000001,-0.56245,0.172561,0.464022,-0.36909,0.365231,0.49989,-0.51074,-0.397989,0.66112,-0.77209,0.417361,0.63424,-0.73756,-0.083631,-0.0025199999999999,-0.0028299999999999,0.083631,0.00252,0.0028299999999999,-0.227129,-0.0881399999999999,-0.3852,0.2567509999999999,-0.11534,-0.35692,-0.161819,-0.47995,-0.243048,0.149821,-0.4938899999999999,-0.225311,1
119,0.005428,0.63586,-0.45176,-0.154278,0.455859,-0.37189,-0.339138,0.52777,-0.56214,0.172602,0.464682,-0.36879,0.365392,0.5005499999999999,-0.51043,-0.397698,0.66178,-0.77177,0.417532,0.6349,-0.73636,-0.0836679999999999,-0.0025,-0.00289,0.0836679999999999,0.0025,0.00289,-0.227068,-0.08871,-0.38571,0.256752,-0.11586,-0.35733,-0.161848,-0.4800900000000001,-0.243077,0.149982,-0.49447,-0.225683,1
120,0.00546,0.63586,-0.450065,-0.154188,0.455859,-0.371105,-0.338878,0.52777,-0.561175,0.172582,0.464682,-0.367995,0.365542,0.5005499999999999,-0.5096350000000001,-0.397418,0.66276,-0.770975,0.417612,0.6349,-0.734185,-0.083761,-0.0025,-0.002915,0.083761,0.0025,0.002915,-0.226858,-0.09001,-0.385845,0.256822,-0.1170399999999999,-0.357375,-0.161898,-0.481,-0.242656,0.150072,-0.49493,-0.225219,1
121,0.0053635,0.63667,-0.44784,-0.1541925,0.4561119999999999,-0.36974,-0.3388625,0.5278,-0.5592,0.1722175,0.464682,-0.36644,0.3655575,0.50056,-0.50763,-0.3971225,0.6654199999999999,-0.76982,0.4176475,0.6350199999999999,-0.7314999999999999,-0.0839355,-0.0025,-0.00275,0.0839355,0.0025,0.00275,-0.2267525,-0.09125,-0.38547,0.2567775,-0.11824,-0.35728,-0.1620325,-0.48167,-0.24188,0.1499875,-0.49533,-0.22407,1
122,0.005044,0.63901,-0.4448649999999999,-0.154392,0.457383,-0.367925,-0.339042,0.52894,-0.556725,0.172048,0.4653879999999999,-0.3644349999999999,0.365468,0.50213,-0.504715,-0.397082,0.6694,-0.7680750000000001,0.417738,0.6374599999999999,-0.7280650000000001,-0.084007,-0.0025,-0.002555,0.084007,0.0025,0.002555,-0.226832,-0.09221,-0.384785,0.256528,-0.11923,-0.357045,-0.162132,-0.48206,-0.240951,0.149708,-0.49505,-0.2222859999999999,1
123,0.0048125,0.64203,-0.441265,-0.1545575,0.459115,-0.365265,-0.3391375,0.53103,-0.553535,0.1718724999999999,0.466629,-0.361575,0.3653525,0.5047900000000001,-0.501125,-0.3971375,0.6748700000000001,-0.7656050000000001,0.4181525,0.64171,-0.7244550000000001,-0.0841125,-0.0023699999999999,-0.0022749999999999,0.0841125,0.00237,0.0022749999999999,-0.2267975,-0.0937199999999999,-0.383635,0.2562825,-0.1206,-0.356275,-0.1621175,-0.48294,-0.239756,0.1496225,-0.49563,-0.220771,1
124,0.0044609999999999,0.64551,-0.43725,-0.154944,0.461079,-0.36212,-0.340094,0.5354800000000001,-0.55046,0.171616,0.467739,-0.3582499999999999,0.365186,0.5081500000000001,-0.49759,-0.397274,0.6813400000000001,-0.7621100000000001,0.418686,0.6478,-0.7207600000000001,-0.084271,-0.0022999999999999,-0.0019399999999999,0.084271,0.0023,0.0019399999999999,-0.226624,-0.0960999999999999,-0.38214,0.255796,-0.1231099999999999,-0.35519,-0.162154,-0.4850299999999999,-0.238641,0.149606,-0.4976999999999999,-0.219922,1
125,0.003982,0.64968,-0.432495,-0.155582,0.463296,-0.358495,-0.3410019999999999,0.53979,-0.546725,0.171258,0.4695339999999999,-0.354515,0.364838,0.51162,-0.493535,-0.397522,0.68778,-0.7581950000000001,0.419178,0.65408,-0.7167250000000001,-0.084498,-0.00226,-0.001645,0.084498,0.0022599999999999,0.001645,-0.226402,-0.0993,-0.380575,0.255258,-0.12585,-0.354315,-0.162232,-0.48816,-0.237333,0.149438,-0.50054,-0.218561,1
126,0.0035334999999999,0.654435,-0.42711,-0.1562075,0.465817,-0.35444,-0.3420275,0.544735,-0.54279,0.1708825,0.472033,-0.35028,0.3636625,0.5205150000000001,-0.48896,-0.3977875,0.694585,-0.75336,0.4197325,0.6607149999999999,-0.71184,-0.0846685,-0.0022749999999999,-0.00138,0.0846685,0.002275,0.0013799999999999,-0.2260075,-0.1029649999999999,-0.37895,0.2547824999999999,-0.1295049999999999,-0.35294,-0.1623775,-0.492035,-0.235912,0.1492425,-0.504275,-0.216963,1
127,0.002938,0.659885,-0.4216649999999999,-0.1569809999999999,0.467476,-0.3507249999999999,-0.3433609999999999,0.550315,-0.538305,0.170439,0.473961,-0.346445,0.362469,0.529085,-0.484575,-0.398301,0.701935,-0.747965,0.419989,0.6683950000000001,-0.706435,-0.084823,-0.002155,-0.0010349999999999,0.084823,0.002155,0.001035,-0.2256409999999999,-0.1073449999999999,-0.3774149999999999,0.254139,-0.1338849999999999,-0.3515749999999999,-0.162581,-0.496415,-0.2345259999999999,0.148859,-0.508915,-0.215578,1
128,0.002312,0.6655949999999999,-0.416135,-0.157777,0.471391,-0.346165,-0.344867,0.556535,-0.533325,0.169823,0.477635,-0.342055,0.361563,0.5374950000000001,-0.480555,-0.398967,0.708835,-0.742275,0.420093,0.676625,-0.7004049999999999,-0.084995,-0.0020749999999999,-0.000685,0.084995,0.0020749999999999,0.0006849999999999,-0.225307,-0.1129149999999999,-0.375855,0.253673,-0.1388249999999999,-0.350285,-0.162667,-0.501985,-0.233208,0.148623,-0.514485,-0.21397,1
129,0.0016439999999999,0.6714500000000001,-0.409745,-0.158619,0.4746,-0.3412349999999999,-0.346489,0.56364,-0.528105,0.169161,0.48099,-0.3372549999999999,0.360771,0.5466300000000001,-0.476315,-0.399699,0.71808,-0.735645,0.420101,0.6850100000000001,-0.693865,-0.085171,-0.0020199999999999,-0.0003249999999999,0.085171,0.00202,0.000325,-0.224959,-0.1194999999999999,-0.374035,0.2534409999999999,-0.1446299999999999,-0.348935,-0.162759,-0.50857,-0.231875,0.148451,-0.5217299999999999,-0.2130709999999999,1
130,0.0008255,0.67733,-0.40268,-0.1598005,0.4775899999999999,-0.33568,-0.3484905,0.57018,-0.52269,0.1682894999999999,0.4845,-0.33191,0.3599995,0.55555,-0.47201,-0.4006504999999999,0.72641,-0.72852,0.4199195,0.6921999999999999,-0.68675,-0.0852995,-0.00213,2.000000000002e-05,0.0852995,0.0021299999999999,-1.999999999999225e-05,-0.2246805,-0.12686,-0.3714999999999999,0.2530895,-0.1508899999999999,-0.34692,-0.1629605,-0.51618,-0.2304389999999999,0.1483595,-0.53002,-0.2121639999999999,1
131,-3.9499999999999605e-05,0.6829050000000001,-0.395485,-0.1611905,0.481045,-0.329585,-0.3507905,0.578045,-0.5167550000000001,0.1672395,0.488705,-0.325995,0.3594395,0.5648850000000001,-0.467305,-0.4017205,0.735765,-0.719795,0.4196895,0.701065,-0.6793750000000001,-0.0853695,-0.0022449999999999,0.0003149999999999,0.0853695,0.0022449999999999,-0.000315,-0.2244905,-0.134245,-0.368735,0.2525595,-0.157615,-0.344625,-0.1632405,-0.524605,-0.228966,0.1479795,-0.538665,-0.210669,1
132,-0.0007154999999999,0.68944,-0.388115,-0.1622775,0.48479,-0.323565,-0.3531975,0.58645,-0.510775,0.1665425,0.49352,-0.320095,0.3593025,0.57481,-0.4625749999999999,-0.4026274999999999,0.74461,-0.709585,0.4195325,0.70977,-0.671045,-0.0853724999999999,-0.0024399999999999,0.0004649999999999,0.0853724999999999,0.0024399999999999,-0.0004649999999999,-0.2239375,-0.14126,-0.365965,0.2520725,-0.1638799999999999,-0.342365,-0.1632475,-0.5331600000000001,-0.227651,0.1521725,-0.5514999999999999,-0.216288,1
133,-0.001565,0.696365,-0.3802999999999999,-0.163426,0.489235,-0.3172999999999999,-0.354926,0.5939650000000001,-0.50366,0.165794,0.498725,-0.31403,0.359164,0.585305,-0.45707,-0.403886,0.7550749999999999,-0.69926,0.419214,0.7187049999999999,-0.66126,-0.085374,-0.002535,0.00056,0.085374,0.002535,-0.0005599999999999,-0.223346,-0.148235,-0.36304,0.251324,-0.169585,-0.3393199999999999,-0.163216,-0.5420050000000001,-0.2262159999999999,0.156274,-0.5644849999999999,-0.2222239999999999,1
134,-0.0025874999999999,0.7033,-0.3715,-0.1646635,0.49377,-0.3105,-0.3566235,0.60164,-0.49567,0.1654165,0.50342,-0.3073599999999999,0.3591065,0.5966199999999999,-0.45106,-0.4052835,0.76557,-0.6877599999999999,0.4189164999999999,0.72832,-0.6506799999999999,-0.0854065,-0.00258,0.0006,0.0854065,0.0025799999999999,-0.0005999999999999,-0.2227335,-0.15535,-0.35968,0.2505664999999999,-0.1755499999999999,-0.3353199999999999,-0.1632934999999999,-0.55125,-0.224404,0.1597965,-0.57698,-0.2271929999999999,1
135,-0.0036309999999999,0.710145,-0.362155,-0.166136,0.498885,-0.302995,-0.359346,0.6070850000000001,-0.486185,0.165034,0.508565,-0.300165,0.359124,0.602765,-0.444365,-0.407166,0.776625,-0.676075,0.418474,0.739395,-0.639315,-0.085364,-0.0025449999999999,0.0005249999999999,0.085364,0.002545,-0.0005249999999999,-0.222016,-0.1631649999999999,-0.356265,0.249714,-0.1822549999999999,-0.331155,-0.163366,-0.561225,-0.222283,0.163634,-0.589895,-0.23256,1
136,-0.0044345,0.7169049999999999,-0.35228,-0.1674195,0.5050749999999999,-0.2946,-0.3621495,0.611445,-0.47594,0.1648705,0.513665,-0.29254,0.3589605,0.610085,-0.43681,-0.4089994999999999,0.786855,-0.66426,0.4183305,0.750345,-0.62806,-0.0852705,-0.002595,0.00037,0.0852705,0.0025949999999999,-0.00037,-0.2209395,-0.171815,-0.35267,0.2486604999999999,-0.188955,-0.32676,-0.1632395,-0.571825,-0.219944,0.1674405,-0.603205,-0.238406,1
137,-0.0051495,0.7240850000000001,-0.34114,-0.1685455,0.5087550000000001,-0.28646,-0.3652455,0.615985,-0.46441,0.1648145,0.518615,-0.28414,0.3589145,0.618625,-0.4285,-0.4109354999999999,0.799025,-0.65114,0.4183045,0.760965,-0.61628,-0.0852344999999999,-0.0028249999999999,0.0001099999999999,0.0852344999999999,0.002825,-0.0001099999999999,-0.2188955,-0.1806149999999999,-0.34893,0.2470245,-0.1969349999999999,-0.32251,-0.1647255,-0.586145,-0.222828,0.1710445,-0.617055,-0.244302,1
138,-0.0057205,0.731115,-0.330345,-0.1695915,0.512215,-0.278553,-0.3685915,0.6201749999999999,-0.4520149999999999,0.1648485,0.522825,-0.276125,0.3603685,0.627535,-0.4195649999999999,-0.4129715,0.809255,-0.637565,0.4184885,0.772475,-0.603785,-0.0851985,-0.0029049999999999,-0.0001549999999999,0.0851985,0.0029049999999999,0.0001549999999999,-0.2164315,-0.189415,-0.345145,0.2451085,-0.204185,-0.318145,-0.1655714999999999,-0.600415,-0.225152,0.1743885,-0.630765,-0.249937,1
139,-0.006182,0.7388349999999999,-0.3186,-0.170483,0.5147649999999999,-0.270942,-0.371693,0.624905,-0.43955,0.164987,0.525765,-0.268365,0.362037,0.6369149999999999,-0.4105,-0.4150129999999999,0.819955,-0.62361,0.418717,0.7845249999999999,-0.59158,-0.085147,-0.002875,-0.00052,0.085147,0.0028749999999999,0.0005199999999999,-0.213283,-0.198165,-0.34145,0.242697,-0.211265,-0.31411,-0.166093,-0.614255,-0.22762,0.177147,-0.6443650000000001,-0.254991,1
140,-0.0064105,0.74707,-0.306625,-0.1711795,0.5170399999999999,-0.2636509999999999,-0.3745995,0.6304799999999999,-0.427315,0.1655505,0.52817,-0.260881,0.3635405,0.64621,-0.401215,-0.4165795,0.8314999999999999,-0.6105849999999999,0.4190205,0.79525,-0.579275,-0.0851665,-0.00289,-0.0008749999999999,0.0851665,0.00289,0.000875,-0.2091395,-0.20682,-0.3377549999999999,0.2389604999999999,-0.2182299999999999,-0.3102149999999999,-0.1663895,-0.62781,-0.2303569999999999,0.1792305,-0.65774,-0.259466,1
141,-0.0066899999999999,0.753595,-0.29317,-0.172038,0.523115,-0.253283,-0.377218,0.634375,-0.41406,0.1663919999999999,0.5331049999999999,-0.250035,0.365002,0.653995,-0.38997,-0.417858,0.842165,-0.5978399999999999,0.419272,0.804155,-0.56648,-0.085229,-0.0027149999999999,-0.00117,0.085229,0.0027149999999999,0.00117,-0.2044579999999999,-0.217165,-0.33233,0.233972,-0.227165,-0.30519,-0.1664879999999999,-0.642585,-0.231984,0.1794919999999999,-0.6697649999999999,-0.255581,1
142,-0.00684,0.7603549999999999,-0.279155,-0.172578,0.527595,-0.243124,-0.379748,0.6379049999999999,-0.400335,0.167542,0.536995,-0.239351,0.3664119999999999,0.660765,-0.378455,-0.418328,0.8513550000000001,-0.584585,0.419612,0.8153250000000001,-0.553775,-0.085314,-0.002455,-0.001445,0.085314,0.0024549999999999,0.001445,-0.198618,-0.227625,-0.326605,0.2279919999999999,-0.2367449999999999,-0.300105,-0.166208,-0.6572549999999999,-0.233101,0.179902,-0.681535,-0.251506,1
143,-0.0068225,0.766725,-0.265745,-0.1727565,0.531925,-0.233038,-0.3820665,0.6417649999999999,-0.387125,0.1689435,0.540435,-0.22906,0.3677335,0.667395,-0.366835,-0.4182865,0.860825,-0.571615,0.4201735,0.824605,-0.5415650000000001,-0.0854705,-0.0022349999999999,-0.001655,0.0854705,0.002235,0.0016549999999999,-0.1919165,-0.2382349999999999,-0.320915,0.2206235,-0.246335,-0.295405,-0.1657665,-0.671525,-0.234695,0.1804535,-0.6933549999999999,-0.247566,1
144,-0.0066694999999999,0.772955,-0.252383,-0.1727614999999999,0.535365,-0.223165,-0.3834315,0.647265,-0.3746899999999999,0.1706185,0.543995,-0.218555,0.3689484999999999,0.673775,-0.35534,-0.4182715,0.868855,-0.55816,0.4207984999999999,0.832645,-0.52922,-0.0856695,-0.001925,-0.00156,0.0856695,0.001925,0.00156,-0.1844215,-0.248215,-0.31472,0.2123985,-0.255615,-0.29011,-0.1652815,-0.684955,-0.236266,0.1778085,-0.703185,-0.242447,1
145,-0.0063895,0.77888,-0.238591,-0.1729415,0.53893,-0.212945,-0.3843815,0.6538,-0.362595,0.1722085,0.54954,-0.207853,0.3700285,0.67915,-0.343495,-0.4184215,0.8768900000000001,-0.5436449999999999,0.4211684999999999,0.83956,-0.516435,-0.0857985,-0.00184,-0.0013149999999999,0.0857985,0.00184,0.001315,-0.1770715,-0.2579599999999999,-0.3081049999999999,0.2039785,-0.2654499999999999,-0.284115,-0.1649215,-0.6978,-0.237262,0.1748885,-0.71339,-0.236738,1
146,-0.005621,0.78457,-0.224963,-0.1730239999999999,0.5431600000000001,-0.202474,-0.384624,0.6604300000000001,-0.351365,0.173726,0.55263,-0.197837,0.3711959999999999,0.68447,-0.331405,-0.418044,0.8846799999999999,-0.528275,0.4217059999999999,0.8467500000000001,-0.503355,-0.0858869999999999,-0.0013299999999999,-0.001065,0.0858869999999999,0.0013299999999999,0.0010649999999999,-0.170364,-0.26722,-0.300955,0.196176,-0.27494,-0.277655,-0.164404,-0.7088099999999999,-0.233164,0.172426,-0.7232799999999999,-0.230991,1
147,-0.0047164999999999,0.78876,-0.211024,-0.1730705,0.54798,-0.191356,-0.3843204999999999,0.66689,-0.34001,0.1753994999999999,0.55604,-0.187121,0.3725095,0.68835,-0.31936,-0.4166605,0.89176,-0.5126,0.4222095,0.8532,-0.4901799999999999,-0.0859445,-0.0009699999999999,-0.00076,0.0859445,0.0009699999999999,0.00076,-0.1640605,-0.27652,-0.29324,0.1887795,-0.28486,-0.27081,-0.1639405,-0.72033,-0.228577,0.1701295,-0.7335200000000001,-0.224889,1
148,-0.0035994999999999,0.7928700000000001,-0.1975309999999999,-0.1730155,0.55353,-0.179976,-0.3840055,0.6729200000000001,-0.328385,0.1771045,0.56153,-0.175862,0.3737545,0.69193,-0.307175,-0.4150455,0.9,-0.497205,0.4227045,0.8597400000000001,-0.4765549999999999,-0.0859975,-0.00064,-0.0004949999999999,0.0859975,0.00064,0.0004949999999999,-0.1587055,-0.28517,-0.285095,0.1820045,-0.29438,-0.263015,-0.1634354999999999,-0.73166,-0.2238939999999999,0.1679845,-0.74323,-0.218718,1
149,-0.0020704999999999,0.7961750000000001,-0.183652,-0.1726355,0.559085,-0.168055,-0.3834155,0.677655,-0.316355,0.1789645,0.566125,-0.164436,0.3752045,0.695165,-0.294665,-0.4124955,0.907105,-0.481735,0.4234745,0.865715,-0.462745,-0.0859015,-0.0001649999999999,-0.000265,0.0859015,0.0001649999999999,0.0002649999999999,-0.1540455,-0.293875,-0.276215,0.1762845,-0.3043049999999999,-0.254525,-0.1611555,-0.7409749999999999,-0.218512,0.1663445,-0.7528849999999999,-0.21197,1
150,-0.0003995,0.800395,-0.170759,-0.1720535,0.560335,-0.159172,-0.3826035,0.683495,-0.30506,0.1807765,0.568445,-0.155897,0.3765365,0.6992149999999999,-0.2832,-0.4093135,0.915595,-0.46628,0.4240165,0.8741650000000001,-0.44869,-0.0857715,0.0001349999999999,-3.0000000000002247e-05,0.0857715,-0.000135,3.0000000000002247e-05,-0.1501935,-0.301365,-0.26826,0.1717765,-0.313815,-0.24604,-0.1594135,-0.749215,-0.213799,0.1650464999999999,-0.7610650000000001,-0.204813,1
151,0.0011869999999999,0.804325,-0.157605,-0.171563,0.562515,-0.14965,-0.381593,0.6892750000000001,-0.29353,0.182687,0.571285,-0.146489,0.377657,0.7037549999999999,-0.27101,-0.405673,0.923855,-0.45021,0.424477,0.881005,-0.43443,-0.085613,0.0003249999999999,0.00025,0.085613,-0.0003249999999999,-0.00025,-0.1468829999999999,-0.312565,-0.25956,0.168107,-0.325015,-0.23662,-0.157673,-0.7571650000000001,-0.209072,0.164157,-0.770875,-0.197319,1
152,0.0024175,0.807835,-0.144034,-0.1713495,0.564765,-0.139637,-0.3805195,0.6949949999999999,-0.281675,0.1845505,0.575185,-0.136162,0.3784605,0.7080649999999999,-0.258295,-0.4020095,0.932345,-0.433305,0.4247505,0.889475,-0.418815,-0.0854325,0.0005349999999999,0.0005549999999999,0.0854325,-0.000535,-0.0005549999999999,-0.1446195,-0.3236949999999999,-0.250015,0.1638405,-0.336345,-0.222675,-0.1562595,-0.764645,-0.203245,0.1617205,-0.7808350000000001,-0.185662,1
153,0.0033204999999999,0.81031,-0.124107,-0.1713315,0.5658799999999999,-0.124044,-0.3794115,0.7005600000000001,-0.263415,0.1860085,0.577,-0.120267,0.3788285,0.71219,-0.239525,-0.3978715,0.94035,-0.410325,0.4244385,0.89791,-0.397315,-0.0851915,0.0008199999999999,0.0007549999999999,0.0851915,-0.00082,-0.000755,-0.1436115,-0.33533,-0.232995,0.1605385,-0.34803,-0.203263,-0.1553215,-0.7726299999999999,-0.190356,0.1595885,-0.79111,-0.168346,1
154,0.0041105,0.810805,-0.1034509999999999,-0.1716975,0.5677449999999999,-0.1067629999999999,-0.3763475,0.707775,-0.243215,0.1878225,0.576905,-0.1028619999999999,0.3790425,0.714795,-0.2194749999999999,-0.3933875,0.945405,-0.3859849999999999,0.4236125,0.905005,-0.373465,-0.0849435,0.001083,0.000645,0.0849435,-0.001083,-0.0006449999999999,-0.1425475,-0.351525,-0.2114849999999999,0.1567925,-0.367335,-0.180346,-0.1536475,-0.781725,-0.1728779999999999,0.1577325,-0.802555,-0.150447,1
155,0.0046264999999999,0.8104939999999999,-0.0832904999999999,-0.1722205,0.568634,-0.0898475,-0.3733205,0.713604,-0.2236294999999999,0.1894394999999999,0.577024,-0.0857675,0.3790395,0.716664,-0.1993595,-0.3886705,0.950174,-0.3632295,0.4222895,0.911554,-0.3495395,-0.0847135,0.001239,0.0005245,0.0847135,-0.001239,-0.0005244999999999,-0.1415604999999999,-0.367416,-0.1901695,0.1532994999999999,-0.386316,-0.1576145,-0.1522305,-0.791026,-0.1552675,0.1558395,-0.814036,-0.1327105,1
156,0.0051365,0.8106679999999999,-0.0633415,-0.1727915,0.569328,-0.0730645,-0.3699915,0.7186079999999999,-0.2048964999999999,0.1910585,0.578048,-0.0684505,0.3789585,0.719028,-0.1787665,-0.3838815,0.954718,-0.3386165,0.4199985,0.919118,-0.3251365,-0.0844254999999999,0.0013879999999999,0.0003164999999999,0.0844254999999999,-0.001388,-0.0003164999999999,-0.1407415,-0.383332,-0.1686234999999999,0.1499185,-0.404812,-0.1349375,-0.1510915,-0.800382,-0.1373165,0.1539485,-0.825472,-0.1150485,1
157,0.0053265,0.80939,-0.043785,-0.1734225,0.56953,-0.056999,-0.3663525,0.72394,-0.186375,0.1924374999999999,0.57754,-0.051756,0.3787574999999999,0.72156,-0.158296,-0.3777625,0.96328,-0.314815,0.4173175,0.92599,-0.300875,-0.0841035,0.0015149999999999,0.0001929999999999,0.0841035,-0.001515,-0.0001929999999999,-0.1403125,-0.3984,-0.147695,0.1464075,-0.42207,-0.112786,-0.1502925,-0.80907,-0.11964,0.1519575,-0.8362999999999999,-0.097659,1
158,0.004967,0.8084589999999999,-0.024313,-0.1741849999999999,0.569519,-0.041531,-0.362065,0.729269,-0.167216,0.193585,0.577639,-0.035472,0.377835,0.725089,-0.137725,-0.371375,0.972629,-0.290446,0.412055,0.933909,-0.273416,-0.083802,0.0015729999999999,9.399999999999686e-05,0.083802,-0.0015729999999999,-9.40000000000038e-05,-0.140645,-0.413791,-0.12704,0.142575,-0.438721,-0.090331,-0.149905,-0.816911,-0.1017,0.149845,-0.846071,-0.080501,1
159,0.0045584999999999,0.8073005,-0.0053355,-0.1749204999999999,0.5706505000000001,-0.0253145,-0.3577305,0.7344605000000001,-0.1480385,0.1947895,0.5776805,-0.0189385,0.3764495,0.7287305000000001,-0.1173935,-0.3648605,0.9813105,-0.2667684999999999,0.4064095,0.9449705,-0.2469985,-0.0835605,0.0016424999999999,-3.249999999999781e-05,0.0835605,-0.0016424999999999,3.249999999999781e-05,-0.1412605,-0.4282895,-0.1062515,0.1387995,-0.4553895,-0.0683115,-0.1497105,-0.8237694999999999,-0.0838305,0.1478094999999999,-0.8542795,-0.0640545,1
160,0.004237,0.8055610000000001,0.0128334999999999,-0.175447,0.571391,-0.0099975,-0.353187,0.7391610000000001,-0.1301285,0.195813,0.577791,-0.0032074999999999,0.374793,0.7320110000000001,-0.0979994999999999,-0.358147,0.989401,-0.2440905,0.400743,0.953811,-0.2217805,-0.083242,0.001712,-0.0002165,0.083242,-0.0017119999999999,0.0002165,-0.141737,-0.4392089999999999,-0.0859875,0.135453,-0.471619,-0.0470505,-0.1494569999999999,-0.829979,-0.0662835,0.145953,-0.862229,-0.0481395,1
161,0.0041309999999999,0.803528,0.0303165,-0.175776,0.5724180000000001,0.0046085,-0.348316,0.744558,-0.1127605,0.1967739999999999,0.5766680000000001,0.0113425,0.372864,0.7352080000000001,-0.0793605,-0.351386,0.998058,-0.2222815,0.3948339999999999,0.962818,-0.1978214999999999,-0.0829449999999999,0.0020319999999999,-0.0004774999999999,0.0829449999999999,-0.002032,0.0004775,-0.142256,-0.450852,-0.0660274999999999,0.133824,-0.486152,-0.0303265,-0.149266,-0.8357319999999999,-0.0495165,0.145924,-0.8691319999999999,-0.0378285,1
162,0.004103,0.802107,0.040815,-0.176251,0.574457,0.013264,-0.343351,0.750057,-0.101995,0.1976689999999999,0.576357,0.019485,0.370819,0.738567,-0.067143,-0.345141,1.006627,-0.207218,0.3892089999999999,0.971147,-0.180478,-0.0826959999999999,0.0019909999999999,-0.0007089999999999,0.0826959999999999,-0.0019909999999999,0.000709,-0.142661,-0.460823,-0.053424,0.132289,-0.499003,-0.018985,-0.148851,-0.8400029999999999,-0.040406,0.145949,-0.873633,-0.033402,1
163,0.0040289999999999,0.8021134999999999,0.049551,-0.176227,0.5751934999999999,0.0192889999999999,-0.339917,0.7532534999999999,-0.093816,0.198143,0.5762134999999999,0.026003,0.368963,0.7435835,-0.056783,-0.338867,1.0181735,-0.194333,0.3841429999999999,0.9809035,-0.165483,-0.082456,0.0021694999999999,-0.0007799999999999,0.082456,-0.0021695,0.0007799999999999,-0.1427169999999999,-0.4637465,-0.0456219999999999,0.131893,-0.5018765000000001,-0.011919,-0.148707,-0.8418165000000001,-0.036009,0.146003,-0.8769565,-0.029487,1
164,0.0039559999999999,0.802212,0.058128,-0.176268,0.576022,0.0254349999999999,-0.336258,0.756942,-0.085062,0.198602,0.576512,0.0323269999999999,0.367062,0.748022,-0.046527,-0.333098,1.028652,-0.180784,0.379252,0.990062,-0.150724,-0.082144,0.0022589999999999,-0.000789,0.082144,-0.002259,0.0007889999999999,-0.142738,-0.465068,-0.03805,0.131462,-0.503988,-0.005001,-0.148578,-0.842908,-0.031816,0.1460719999999999,-0.878768,-0.025692,1
165,0.003588,0.802172,0.0664485,-0.1765219999999999,0.576792,0.0310495,-0.333152,0.7607119999999999,-0.0767595,0.198698,0.576302,0.0379685,0.365148,0.751462,-0.0371984999999999,-0.327642,1.038972,-0.1698704999999999,0.3751379999999999,0.995652,-0.1373105,-0.081984,0.002474,-0.0006385,0.081984,-0.002474,0.0006385,-0.142972,-0.465848,-0.0314355,0.130938,-0.505368,0.0015234999999999,-0.148682,-0.843568,-0.0279605,0.145958,-0.879548,-0.0232325,1
166,0.00354,0.8019,0.0737975,-0.176393,0.57782,0.0365805,-0.3299729999999999,0.76364,-0.0690195,0.199037,0.5762299999999999,0.0432755,0.363637,0.75393,-0.0284425,-0.323133,1.04335,-0.1589785,0.371437,1.00138,-0.1245385,-0.081664,0.0025649999999999,-0.0005094999999999,0.081664,-0.0025649999999999,0.0005095,-0.1437729999999999,-0.46391,-0.0252734999999999,0.1306669999999999,-0.50524,0.0070735,-0.149193,-0.84431,-0.0245285,0.146177,-0.8797900000000001,-0.0200214999999999,1
167,0.0034225,0.8017005,0.0803275,-0.1762625,0.5788705000000001,0.0419735,-0.3276525,0.7653605,-0.0625855,0.1992975,0.5762005,0.0488325,0.3625575,0.7545805000000001,-0.0209065,-0.3193825,1.0456505,-0.1490785,0.3701075,1.0050405,-0.1157885,-0.0813345,0.0027215,-0.0003674999999999,0.0813345,-0.0027215,0.0003674999999999,-0.1446725,-0.4615495,-0.0198465,0.1302975,-0.5055195,0.0113984999999999,-0.1497025,-0.8449494999999999,-0.0214975,0.1463275,-0.8799895,-0.0170815,1
168,0.0032399999999999,0.801535,0.086429,-0.176111,0.578705,0.046255,-0.325601,0.766365,-0.056714,0.199379,0.576125,0.053603,0.361909,0.7544150000000001,-0.013885,-0.316041,1.047185,-0.139645,0.369389,1.004875,-0.106545,-0.081041,0.002887,-0.0003509999999999,0.081041,-0.002887,0.000351,-0.145421,-0.461715,-0.0152509999999999,0.130029,-0.506845,0.015057,-0.150121,-0.845095,-0.018491,0.146469,-0.880155,-0.014768,1
169,0.003145,0.801535,0.0920125,-0.175991,0.578705,0.0505875,-0.323851,0.766365,-0.0511454999999999,0.199409,0.576175,0.0580885,0.361599,0.7544150000000001,-0.0074695,-0.313201,1.048185,-0.1310975,0.368839,1.004875,-0.0976765,-0.080711,0.003035,-0.0004345,0.080711,-0.0030349999999999,0.0004345,-0.146131,-0.462465,-0.0112425,0.129829,-0.507815,0.0180705,-0.1504809999999999,-0.844685,-0.0158095,0.1465989999999999,-0.880585,-0.0127475,1
170,0.0030479999999999,0.8010685,0.097108,-0.175873,0.5787985,0.054509,-0.3229329999999999,0.7664584999999999,-0.0460929999999999,0.199417,0.5762585,0.062556,0.361467,0.7545085,-0.001664,-0.310873,1.0482785,-0.123667,0.368587,1.0049685,-0.089719,-0.080485,0.0032015,-0.000504,0.080485,-0.0032014999999999,0.0005039999999999,-0.146643,-0.4642015,-0.008453,0.129797,-0.5093115,0.020582,-0.1507629999999999,-0.8435915,-0.013429,0.1466569999999999,-0.8811515,-0.0109,1
171,0.0029244999999999,0.8004749999999999,0.1019945,-0.1758015,0.579025,0.0580705,-0.3227315,0.7668349999999999,-0.0416905,0.1993985,0.575525,0.0669745,0.3613584999999999,0.754195,0.0029695,-0.3088315,1.048655,-0.1174415,0.3683585,1.003365,-0.0829995,-0.0803504999999999,0.003364,-0.0006925,0.0803504999999999,-0.0033639999999999,0.0006925,-0.1470015,-0.465545,-0.0065905,0.1297085,-0.510605,0.0223545,-0.1510215,-0.8421150000000001,-0.0113045,0.1467284999999999,-0.881545,-0.0094375,1
172,0.002947,0.7999025000000001,0.106528,-0.1756899999999999,0.5792525000000001,0.061758,-0.32269,0.7671625,-0.03866,0.19945,0.5747725,0.0710259999999999,0.36138,0.7528725000000001,0.006329,-0.30783,1.0493225,-0.113112,0.3682999999999999,1.0011625,-0.078201,-0.080283,0.0035565,-0.0008989999999999,0.080283,-0.0035565,0.000899,-0.1473,-0.4641774999999999,-0.0048539999999999,0.1298,-0.5116375,0.024113,-0.15142,-0.8412175,-0.009209,0.147,-0.8819175,-0.008682,0
173,0.0029129999999999,0.799725,0.1108855,-0.175614,0.578865,0.0648095,-0.322644,0.7654650000000001,-0.0370925,0.199426,0.574665,0.0751955,0.361916,0.7502650000000001,0.0083375,-0.307394,1.0494949999999998,-0.1102645,0.368496,0.997195,-0.0754465,-0.080237,0.003516,-0.0010695,0.080237,-0.0035159999999999,0.0010695,-0.147464,-0.4631949999999999,-0.0032975,0.129836,-0.5130049999999999,0.0256795,-0.151734,-0.840855,-0.0073815,0.147146,-0.883195,-0.0085265,0
174,0.0028734999999999,0.799552,0.114816,-0.1755875,0.578202,0.067814,-0.3226575,0.7623219999999999,-0.035682,0.1992725,0.574462,0.079124,0.3629725,0.746242,0.009808,-0.3073074999999999,1.0484920000000002,-0.1085339999999999,0.3689225,0.992672,-0.074011,-0.0801905,0.003499,-0.0013869999999999,0.0801905,-0.003499,0.001387,-0.1476475,-0.461768,-0.0018969999999999,0.1297925,-0.514118,0.026959,-0.1519775,-0.841278,-0.006004,0.1469725,-0.883908,-0.0078109999999999,0
175,0.002891,0.7994765,0.1186705,-0.1755459999999999,0.5775365,0.0708415,-0.323336,0.7578565,-0.0342055,0.199254,0.5742365,0.0829744999999999,0.364734,0.7409965,0.0114225,-0.3073059999999999,1.0411465000000002,-0.1070195,0.369574,0.9863165,-0.0724605,-0.0802549999999999,0.0034755,-0.0016334999999999,0.0802549999999999,-0.0034754999999999,0.0016334999999999,-0.147806,-0.4634035,-0.0010954999999999,0.129804,-0.5150135,0.0282095,-0.1521559999999999,-0.8414035,-0.0048644999999999,0.146774,-0.8840035,-0.0068685,0
176,0.0028349999999999,0.7993085,0.1223575,-0.175601,0.5763185,0.0738025,-0.325201,0.7521985,-0.0329155,0.1992089999999999,0.5733185,0.0866115,0.3669889999999999,0.7328785,0.0130165,-0.307311,1.0334585,-0.1055525,0.370189,0.9771685,-0.0709585,-0.080318,0.0034755,-0.0018914999999999,0.080318,-0.0034754999999999,0.0018915,-0.147921,-0.4629415,-0.0004104999999999,0.129809,-0.5147315,0.0293815,-0.1523709999999999,-0.8405315,-0.0033364999999999,0.146579,-0.8829915,-0.0044004999999999,0
177,0.002822,0.799599,0.1259779999999999,-0.175545,0.574799,0.076606,-0.327745,0.744779,-0.032563,0.199255,0.572079,0.089948,0.369935,0.722779,0.0138269999999999,-0.307285,1.024229,-0.104212,0.371245,0.965839,-0.069965,-0.080409,0.003558,-0.002079,0.080409,-0.0035579999999999,0.0020789999999999,-0.147995,-0.465781,0.0004899999999999,0.129845,-0.513421,0.030359,-0.152435,-0.8394510000000001,-0.002005,0.146555,-0.8825510000000001,-0.002191,0
178,0.0028869999999999,0.799997,0.129233,-0.175403,0.5727369999999999,0.079143,-0.331163,0.734887,-0.033669,0.199177,0.570367,0.093391,0.373287,0.710467,0.013349,-0.307673,1.009037,-0.1039969999999999,0.3725469999999999,0.951067,-0.07077,-0.0805319999999999,0.0036029999999999,-0.002205,0.0805319999999999,-0.0036029999999999,0.002205,-0.148013,-0.467903,0.001232,0.130057,-0.513433,0.031447,-0.152523,-0.838043,-0.000833,0.146527,-0.881403,-0.0009389999999999,0
179,0.003042,0.80055,0.132223,-0.175129,0.5708799999999999,0.081518,-0.335349,0.72242,-0.035809,0.199141,0.56778,0.096677,0.377651,0.69504,0.012177,-0.308049,0.99356,-0.1048269999999999,0.373931,0.93196,-0.073087,-0.080708,0.003609,-0.002424,0.080708,-0.0036089999999999,0.002424,-0.148039,-0.47046,0.002,0.130251,-0.51268,0.03248,-0.1524889999999999,-0.83672,0.000364,0.146521,-0.8800800000000001,0.000236,0
180,0.003363,0.8013675,0.134946,-0.174777,0.5691174999999999,0.083734,-0.3398569999999999,0.7079475,-0.038476,0.199163,0.5648974999999999,0.099611,0.381833,0.6784475,0.0100869999999999,-0.307847,0.9739375,-0.106734,0.375053,0.9127775,-0.077078,-0.080906,0.0035225,-0.002621,0.080906,-0.0035225,0.0026209999999999,-0.147967,-0.4719525,0.0025789999999999,0.130373,-0.5110425000000001,0.0333799999999999,-0.152357,-0.8351425,0.0014019999999999,0.146693,-0.8785025000000001,0.0018899999999999,0
181,0.0038195,0.802492,0.1373815,-0.1742294999999999,0.5671719999999999,0.0855694999999999,-0.3442195,0.691052,-0.0411925,0.1991705,0.561842,0.1023655,0.3852205,0.659292,0.0074944999999999,-0.3078595,0.951762,-0.1096485,0.3758305,0.8909419999999999,-0.0827725,-0.0811265,0.003504,-0.0028154999999999,0.0811265,-0.003504,0.0028155,-0.1478594999999999,-0.472088,0.0029224999999999,0.1305605,-0.509768,0.0342265,-0.1523995,-0.833068,0.0020844999999999,0.1466505,-0.876718,0.0029494999999999,0
182,0.0043735,0.804138,0.1389935,-0.1736895,0.565248,0.0873055,-0.3476395,0.6719280000000001,-0.0437005,0.1990905,0.5591379999999999,0.1045725,0.3882905,0.6381380000000001,0.0042935,-0.3079195,0.927318,-0.1131365,0.3763105,0.8653980000000001,-0.0892465,-0.0813445,0.003525,-0.0030344999999999,0.0813445,-0.0035249999999999,0.0030345,-0.1477695,-0.472012,0.0033375,0.1306605,-0.508162,0.0350204999999999,-0.1524495,-0.8307819999999999,0.0026865,0.1466805,-0.8748720000000001,0.0035045,0
183,0.005137,0.8060615,0.140325,-0.173089,0.5635915,0.0887679999999999,-0.350299,0.6497415,-0.0447959999999999,0.198941,0.5562214999999999,0.106388,0.388921,0.6148015,0.0039329999999999,-0.307539,0.8998014999999999,-0.117975,0.376821,0.8363315,-0.096535,-0.081567,0.0035765,-0.003179,0.081567,-0.0035764999999999,0.0031789999999999,-0.147759,-0.4697785,0.0039089999999999,0.130751,-0.5062884999999999,0.0357279999999999,-0.152529,-0.8276785,0.0035259999999999,0.146621,-0.8723384999999999,0.0044709999999999,0
184,0.006143,0.807928,0.140974,-0.172501,0.561998,0.08981,-0.351441,0.625968,-0.044274,0.198739,0.553118,0.107667,0.388959,0.589318,0.004522,-0.307161,0.8715080000000001,-0.123316,0.3773189999999999,0.805138,-0.104006,-0.081763,0.0036319999999999,-0.0034059999999999,0.081763,-0.003632,0.003406,-0.147731,-0.465702,0.004215,0.130799,-0.504552,0.036211,-0.152311,-0.825862,0.003856,0.146359,-0.869732,0.005631,0
185,0.007294,0.810113,0.1415934999999999,-0.171855,0.560893,0.0904875,-0.351415,0.599123,-0.0437145,0.198475,0.5504330000000001,0.1085185,0.388985,0.563013,0.0050815,-0.306785,0.8375630000000001,-0.1289765,0.377195,0.773333,-0.1118865,-0.08198,0.003674,-0.0035544999999999,0.08198,-0.003674,0.0035545,-0.147625,-0.464217,0.0045825,0.130835,-0.502997,0.0367715,-0.152105,-0.823597,0.0042635,0.146145,-0.867417,0.0066615,0
186,0.0085505,0.812017,0.142223,-0.1712955,0.559917,0.0910779999999999,-0.3514155,0.5713469999999999,-0.043155,0.1982344999999999,0.5475869999999999,0.109109,0.3889845,0.535397,0.005641,-0.3057455,0.8005669999999999,-0.135757,0.3763444999999999,0.7405069999999999,-0.119007,-0.0821945,0.0037669999999999,-0.0035899999999999,0.0821945,-0.0037669999999999,0.0035899999999999,-0.1474955,-0.462163,0.0050259999999999,0.1308544999999999,-0.501873,0.037259,-0.1519654999999999,-0.821493,0.004718,0.1459645,-0.8644630000000001,0.007836,0
187,0.0100685,0.8142005,0.1428185,-0.1707065,0.5592104999999999,0.0916365,-0.3514164999999999,0.5427405,-0.0425565,0.1981035,0.5449505,0.1096635,0.3888435,0.5040005000000001,0.0080424999999999,-0.3033565,0.7647905,-0.1426315,0.3741735,0.7072605,-0.1264015,-0.0824215,0.0038385,-0.0035545,0.0824215,-0.0038385,0.0035544999999999,-0.1473865,-0.4597195,0.0055574999999999,0.1309934999999999,-0.5006995,0.0377065,-0.1518465,-0.8190495,0.0052454999999999,0.1458635,-0.8611695,0.0092474999999999,0
188,0.0117579999999999,0.816617,0.142689,-0.170123,0.5580170000000001,0.0921189999999999,-0.350193,0.512327,-0.039219,0.197897,0.542937,0.110101,0.3873569999999999,0.475427,0.0111119999999999,-0.300263,0.723317,-0.149471,0.370907,0.6747770000000001,-0.132991,-0.082619,0.0039,-0.00335,0.082619,-0.0039,0.0033499999999999,-0.147243,-0.457133,0.0060149999999999,0.131197,-0.499913,0.038177,-0.151723,-0.8163729999999999,0.0057019999999999,0.145847,-0.8582329999999999,0.0102939999999999,0
189,0.013678,0.8189905,0.1417265,-0.169522,0.5565405,0.0924115,-0.347152,0.4814104999999999,-0.0333985,0.197758,0.5413605,0.1105395,0.3834079999999999,0.4468605,0.0158625,-0.2965719999999999,0.6796004999999999,-0.1488235,0.366468,0.6401205,-0.1389834999999999,-0.082842,0.0039245,-0.0031225,0.082842,-0.0039244999999999,0.0031225,-0.147042,-0.4538995,0.0064045,0.131368,-0.4985995,0.0385615,-0.151612,-0.8132895,0.0063675,0.145968,-0.8554595,0.0111885,0
190,0.01588,0.821207,0.1401244999999999,-0.168731,0.555297,0.0925925,-0.3422509999999999,0.452837,-0.0258235,0.1976689999999999,0.539867,0.1106195,0.377979,0.4214469999999999,0.0215975,-0.291601,0.632887,-0.1528955,0.360709,0.603707,-0.1433455,-0.083044,0.0038969999999999,-0.0028625,0.083044,-0.0038969999999999,0.0028625,-0.146911,-0.451163,0.0066035,0.131689,-0.497923,0.0390265,-0.151451,-0.810403,0.0069315,0.146149,-0.852763,0.0118255,0
191,0.018342,0.8230765,0.1381395,-0.1677719999999999,0.5541564999999999,0.0927014999999999,-0.3340519999999999,0.4273665,-0.0157955,0.1976979999999999,0.5382965000000001,0.1105555,0.370288,0.3948465,0.0294764999999999,-0.286392,0.5844465,-0.1594805,0.354598,0.5707765,-0.1477105,-0.08325,0.0038084999999999,-0.0026065,0.08325,-0.0038084999999999,0.0026064999999999,-0.146692,-0.4490635,0.0068184999999999,0.1320879999999999,-0.4978135,0.0395395,-0.151242,-0.8079435,0.0072984999999999,0.146398,-0.8498635,0.0125424999999999,0
192,0.0209459999999999,0.8241585,0.1353465,-0.167,0.5530885000000001,0.0926265,-0.32541,0.4048684999999999,-0.0052374999999999,0.1977,0.5370385,0.1102775,0.3619799999999999,0.3689185,0.0355385,-0.28094,0.5339685000000001,-0.1588435,0.34746,0.5360585,-0.1513435,-0.083452,0.0038055,-0.0023924999999999,0.083452,-0.0038054999999999,0.0023925,-0.14646,-0.4447015,0.0070585,0.1325,-0.4981815,0.0399995,-0.15114,-0.8060115,0.0077825,0.14669,-0.8483014999999999,0.0127965,0
193,0.0236784999999999,0.825028,0.13161,-0.1662905,0.551948,0.092412,-0.3168705,0.385258,0.007405,0.1976895,0.536018,0.109835,0.3537895,0.345958,0.041104,-0.2746605,0.481238,-0.1582,0.3403394999999999,0.504518,-0.15426,-0.0836155,0.003809,-0.002189,0.0836155,-0.003809,0.002189,-0.1462505,-0.441172,0.007272,0.1329395,-0.498622,0.040453,-0.1510305,-0.804072,0.008215,0.1469794999999999,-0.8471420000000001,0.012517,0
194,0.0265409999999999,0.8253475,0.1274285,-0.165655,0.5506275,0.0919705,-0.308955,0.3697975,0.0205045,0.197675,0.5350075,0.1092825,0.345255,0.3263475,0.0459175,-0.267945,0.4312175,-0.1562115,0.333285,0.4733775,-0.1562214999999999,-0.083754,0.0037944999999999,-0.0020844999999999,0.083754,-0.0037944999999999,0.0020844999999999,-0.146085,-0.4375725,0.0074695,0.1334449999999999,-0.4988224999999999,0.0408315,-0.150985,-0.8022325,0.0085765,0.147225,-0.8459225,0.0127365,0
195,0.0294195,0.8254865,0.1223954999999999,-0.1649615,0.5496165000000001,0.0912895,-0.2999814999999999,0.3564265,0.0324155,0.1977585,0.5344365,0.1086255,0.3365885,0.3101565,0.0482294999999999,-0.2620915,0.3824365,-0.1510834999999999,0.3262585,0.4453065,-0.1590135,-0.0838925,0.0038095,-0.0020935,0.0838925,-0.0038094999999999,0.0020934999999999,-0.1458515,-0.4344635,0.0075964999999999,0.1340285,-0.4986335,0.0412935,-0.1508215,-0.8002335,0.0089804999999999,0.1474184999999999,-0.8447735,0.0130854999999999,0
196,0.032368,0.8252740000000001,0.117141,-0.1644149999999999,0.548864,0.0906329999999999,-0.290825,0.345114,0.044134,0.197825,0.534254,0.108152,0.327715,0.300044,0.04781,-0.256845,0.334674,-0.14495,0.320245,0.421294,-0.1626,-0.084013,0.0038769999999999,-0.002182,0.084013,-0.003877,0.002182,-0.145685,-0.432056,0.007728,0.134455,-0.498536,0.0418,-0.150605,-0.798516,0.009332,0.1475949999999999,-0.843646,0.01315,0
197,0.0353275,0.8249405,0.111901,-0.1638505,0.5484705,0.090063,-0.2831005,0.3379905,0.053781,0.1979995,0.5341604999999999,0.107678,0.3193895,0.2905605,0.047488,-0.2526905,0.2909905,-0.1366109999999999,0.3142895,0.3992205,-0.1667509999999999,-0.0841185,0.0040175,-0.002335,0.0841185,-0.0040175,0.002335,-0.1455205,-0.4295695,0.00796,0.1348094999999999,-0.4977894999999999,0.042219,-0.1504805,-0.7972195000000001,0.009623,0.1479295,-0.8422295000000001,0.013455,0
198,0.0381829999999999,0.8246145,0.106894,-0.16324,0.5483245,0.089586,-0.27618,0.3326845,0.061474,0.1981799999999999,0.5339345,0.107224,0.31281,0.2828245,0.0472719999999999,-0.24999,0.2500445,-0.124343,0.30813,0.3764345,-0.171513,-0.084176,0.0041234999999999,-0.0024939999999999,0.084176,-0.0041235,0.0024939999999999,-0.14533,-0.4286655,0.0081269999999999,0.13498,-0.4972454999999999,0.0422909999999999,-0.15031,-0.7966355,0.009795,0.1480599999999999,-0.8409755000000001,0.014102,0
199,0.040791,0.824308,0.102057,-0.162902,0.5481980000000001,0.088987,-0.269792,0.326928,0.068168,0.1983579999999999,0.533728,0.1066319999999999,0.307228,0.275408,0.047089,-0.248882,0.213998,-0.110206,0.302518,0.3582079999999999,-0.176186,-0.084214,0.0042719999999999,-0.002648,0.084214,-0.0042719999999999,0.0026479999999999,-0.145142,-0.428042,0.0084419999999999,0.1352779999999999,-0.497932,0.042876,-0.150122,-0.795752,0.0100589999999999,0.148418,-0.840372,0.0140419999999999,0
200,0.043191,0.8240075,0.0971704999999999,-0.162652,0.5479975,0.0881015,-0.265522,0.3207375,0.0728775,0.1985279999999999,0.5335975,0.1059845,0.302898,0.2720875,0.0461965,-0.248492,0.1784075,-0.0940965,0.296998,0.3413075,-0.1809265,-0.084203,0.0044154999999999,-0.0028915,0.084203,-0.0044155,0.0028914999999999,-0.144992,-0.4275225,0.0086165,0.135488,-0.4974125,0.0431595,-0.149892,-0.7947725,0.0100975,0.148768,-0.8391525,0.0139325,0
201,0.045277,0.823651,0.092678,-0.162403,0.5478810000000001,0.08706,-0.261303,0.313731,0.0772279999999999,0.198697,0.533421,0.105319,0.299317,0.270701,0.044009,-0.249473,0.147766,-0.075764,0.292487,0.328851,-0.185863,-0.084197,0.004538,-0.0031739999999999,0.084197,-0.004538,0.0031739999999999,-0.144823,-0.427009,0.008754,0.135787,-0.497819,0.043643,-0.149673,-0.793899,0.010113,0.148807,-0.838089,0.014097,0
202,0.047026,0.823199,0.088805,-0.1621,0.547939,0.085782,-0.25721,0.3059489999999999,0.079145,0.19882,0.533349,0.104635,0.29616,0.269609,0.041396,-0.25039,0.124217,-0.058402,0.28804,0.317099,-0.191348,-0.084192,0.0047499999999999,-0.003487,0.084192,-0.0047499999999999,0.003487,-0.14466,-0.427071,0.009173,0.13611,-0.498391,0.044006,-0.14943,-0.793221,0.010066,0.1490999999999999,-0.837421,0.013557,0
203,0.0484885,0.8226275,0.0852265,-0.1618575,0.5479674999999999,0.0843955,-0.2531474999999999,0.2986075,0.0800205,0.1990625,0.5332775,0.1039375,0.2934925,0.2683875,0.0367565,-0.2510875,0.1036905,-0.0452165,0.2839125,0.3077075,-0.1964555,-0.0842115,0.0049515,-0.0037995,0.0842115,-0.0049514999999999,0.0037995,-0.1444675,-0.4274325,0.0095594999999999,0.1362225,-0.4981825,0.0442135,-0.1491974999999999,-0.7928425,0.0099374999999999,0.1494525,-0.8369325000000001,0.0123294999999999,0
204,0.049889,0.82197,0.0822495,-0.161665,0.54799,0.0830505,-0.250565,0.28924,0.0806225,0.199385,0.53335,0.1033314999999999,0.292805,0.26697,0.0342635,-0.2521949999999999,0.0852739999999999,-0.0330845,0.280325,0.29884,-0.2007445,-0.084224,0.0050109999999999,-0.0041304999999999,0.084224,-0.005011,0.0041304999999999,-0.144315,-0.42791,0.0096185,0.136475,-0.49883,0.0444245,-0.149025,-0.79282,0.0097355,0.149805,-0.83624,0.0112435,0
205,0.050945,0.8216065,0.0796375,-0.161463,0.5479565,0.0816524999999999,-0.249253,0.2817165,0.0806605,0.199717,0.5333865,0.1025625,0.292367,0.2656765,0.0325685,-0.255893,0.0705135,-0.0203785,0.276197,0.2892565,-0.2037074999999999,-0.084235,0.0049925,-0.0044245,0.084235,-0.0049924999999999,0.0044244999999999,-0.144163,-0.4281435,0.0096214999999999,0.136527,-0.4994035,0.0443535,-0.148913,-0.7928535,0.0094554999999999,0.150137,-0.8355735,0.0102414999999999,0
206,0.0518174999999999,0.821419,0.077271,-0.1612225,0.547969,0.080314,-0.2484825,0.274769,0.080821,0.2000775,0.533479,0.101855,0.2920475,0.264569,0.0311759999999999,-0.2597625,0.0580419999999999,-0.008877,0.2728075,0.281339,-0.205832,-0.0842445,0.0049999999999999,-0.004692,0.0842445,-0.005,0.0046919999999999,-0.1440225,-0.428151,0.0096499999999999,0.1365675,-0.499501,0.04427,-0.1488325,-0.7928609999999999,0.0092049999999999,0.1502475,-0.8355809999999999,0.0095799999999999,0
207,0.0525505,0.821269,0.07516,-0.1608305,0.547889,0.079027,-0.2480605,0.269449,0.080898,0.2004795,0.533489,0.10106,0.2918195,0.2635989999999999,0.029828,-0.2636205,0.0502689999999999,0.000153,0.2704395,0.277849,-0.20721,-0.0842334999999999,0.0051349999999999,-0.0050039999999999,0.0842334999999999,-0.005135,0.005004,-0.1438505,-0.428101,0.009612,0.1366595,-0.499791,0.04414,-0.1487105,-0.7929809999999999,0.00873,0.1502794999999999,-0.8351409999999999,0.009297,0
208,0.0531565,0.8210235,0.0733155,-0.1604374999999999,0.5477435,0.0779685,-0.2479775,0.2652635,0.0808494999999999,0.2008225,0.5336335,0.1003805,0.2917525,0.2628135,0.0287224999999999,-0.2669375,0.0429974999999999,0.0074155,0.2684225,0.2726835,-0.2083645,-0.0842045,0.0052465,-0.0052714999999999,0.0842045,-0.0052465,0.0052715,-0.1437375,-0.4281665,0.0095825,0.1367525,-0.5003765,0.0439935,-0.1485975,-0.7932465,0.0082615,0.1502625,-0.8348165,0.0090255,0
209,0.053629,0.8207859999999999,0.071774,-0.160071,0.547636,0.077056,-0.247891,0.2617359999999999,0.080696,0.201149,0.533716,0.099628,0.291719,0.262046,0.027736,-0.271031,0.040035,0.011481,0.266629,0.267116,-0.2093469999999999,-0.084186,0.005296,-0.0053999999999999,0.084186,-0.005296,0.0054,-0.143611,-0.428124,0.009481,0.136839,-0.500144,0.043711,-0.148521,-0.7933840000000001,0.00787,0.150509,-0.835134,0.007857,0
210,0.054028,0.820596,0.0704125,-0.159775,0.547646,0.0762714999999999,-0.247805,0.259556,0.0802225,0.2014949999999999,0.5337959999999999,0.0988324999999999,0.291725,0.261336,0.0266645,-0.275175,0.037741,0.0133525,0.264625,0.263326,-0.2101845,-0.084178,0.005329,-0.0055074999999999,0.084178,-0.005329,0.0055075,-0.1434949999999999,-0.428074,0.0093935,0.136855,-0.4999139999999999,0.0434295,-0.1484349999999999,-0.793534,0.0074925,0.150635,-0.835314,0.0066135,0
211,0.0544215,0.8204165,0.069219,-0.1595494999999999,0.5477165,0.075684,-0.2480395,0.2589565,0.079743,0.2018505,0.5338765,0.098038,0.2917404999999999,0.2604965,0.02569,-0.2786595,0.0384665,0.012927,0.2632505,0.2587765,-0.210922,-0.0841735,0.0053624999999999,-0.005585,0.0841735,-0.0053624999999999,0.005585,-0.1434295,-0.4282535,0.009283,0.1366205,-0.4988835,0.043001,-0.1484194999999999,-0.7938435,0.006949,0.1505405,-0.8342535,0.006217,0
212,0.0547635,0.8203165,0.0681615,-0.1593434999999999,0.5478265,0.0751995,-0.2486135,0.2592065,0.0791195,0.2022165,0.5339865,0.0971645,0.2917565,0.2597365,0.0247835,-0.2816635,0.0393465,0.0125265,0.2632865,0.2558865,-0.2111505,-0.0841735,0.0053965,-0.0056394999999999,0.0841735,-0.0053964999999999,0.0056395,-0.1433634999999999,-0.4284335,0.0092145,0.1363964999999999,-0.4965535,0.0424415,-0.1483634999999999,-0.7942435,0.0063935,0.1503864999999999,-0.8333635,0.0060575,0
213,0.0550955,0.8202445,0.067254,-0.1591415,0.5480245,0.074795,-0.2492115,0.2600845,0.07868,0.2025684999999999,0.5341245,0.09623,0.2918285,0.2590845,0.023909,-0.2839015,0.0402245,0.01219,0.2633485,0.2535345,-0.211357,-0.0841935,0.0054355,-0.005641,0.0841935,-0.0054355,0.0056409999999999,-0.1433015,-0.4280354999999999,0.009151,0.1366985,-0.4979355,0.042673,-0.1482815,-0.7948355,0.0057489999999999,0.1505885,-0.8330155,0.0055479999999999,0
