sb224sc-HT22-VT27/4dt907/src/data/labeled_files/B11_kinect_mirrored.csv
FrameNo,nose_3d_x,nose_3d_y,nose_3d_z,left_shoulder_3d_x,left_shoulder_3d_y,left_shoulder_3d_z,left_elbow_3d_x,left_elbow_3d_y,left_elbow_3d_z,right_shoulder_3d_x,right_shoulder_3d_y,right_shoulder_3d_z,right_elbow_3d_x,right_elbow_3d_y,right_elbow_3d_z,left_wrist_3d_x,left_wrist_3d_y,left_wrist_3d_z,right_wrist_3d_x,right_wrist_3d_y,right_wrist_3d_z,left_hip_3d_x,left_hip_3d_y,left_hip_3d_z,right_hip_3d_x,right_hip_3d_y,right_hip_3d_z,left_knee_3d_x,left_knee_3d_y,left_knee_3d_z,right_knee_3d_x,right_knee_3d_y,right_knee_3d_z,left_ankle_3d_x,left_ankle_3d_y,left_ankle_3d_z,right_ankle_3d_x,right_ankle_3d_y,right_ankle_3d_z,activity_label
0,1.004856,0.7685135000000001,0.023716,0.836742,0.5074235,0.017668,0.787342,0.2676135,-0.0151409999999999,1.180012,0.4993135,0.008402,1.232132,0.2510535,-0.0015249999999999,0.864382,0.3948535,-0.227952,1.223812,0.0633785,-0.076802,0.925437,0.0012275,3.0000000000002247e-05,1.074563,-0.0012275,-2.9999999999995308e-05,0.891092,-0.3389165,0.041031,1.102302,-0.3273265,0.028463,0.885332,-0.6510265,0.071396,1.116512,-0.6508265,0.066334,0
1,1.0049359999999998,0.7685145,0.0239144999999999,0.8317860000000001,0.5022945,0.0185364999999999,0.787516,0.2673144999999999,-0.0140275,1.180146,0.4993145,0.0090514999999999,1.232236,0.2512244999999999,-0.0010385,0.8645860000000001,0.3954344999999999,-0.2281165,1.223906,0.0632885,-0.0763265,0.925438,0.0012135,5.7499999999995055e-05,1.074562,-0.0012135,-5.7500000000002e-05,0.891006,-0.3391455,0.0411114999999999,1.1023459999999998,-0.3266555,0.0281555,0.885466,-0.6514455,0.0714384999999999,1.116636,-0.6507355,0.0666045,0
2,1.0048324999999998,0.7685815,0.02378,0.8278835,0.4976015,0.018103,0.7871235,0.2677915,-0.0151639999999999,1.1800635,0.4993915,0.009027,1.2321935,0.2513615,-0.0008799999999999,0.8646035,0.3962715,-0.2287149999999999,1.2238335,0.0633765,-0.076415,0.9253925,0.0011905,-9.499999999999786e-05,1.0746075,-0.0011905,9.50000000000048e-05,0.8909235000000001,-0.3382085,0.040616,1.1022035,-0.3266385,0.028005,0.8851035,-0.6508784999999999,0.071344,1.1165334999999998,-0.6506284999999999,0.06636,0
3,1.00486,0.7686305,0.023605,0.827109,0.4974004999999999,0.018586,0.787189,0.2684005,-0.0158449999999999,1.179679,0.4989805,0.008697,1.231789,0.2516204999999999,-0.0006229999999999,0.864829,0.3968604999999999,-0.229489,1.223879,0.0636065,-0.076219,0.925392,0.0011455,8.500000000000174e-05,1.074608,-0.0011455,-8.500000000000174e-05,0.8909590000000001,-0.3382995,0.040521,1.102219,-0.3265195,0.027844,0.8851390000000001,-0.6510695,0.071184,1.116089,-0.6486394999999999,0.066538,0
4,1.004845,0.76863,0.0235525,0.8268630000000001,0.49738,0.0187065,0.7871330000000001,0.26791,-0.0147594999999999,1.1796829999999998,0.49905,0.0086025,1.231773,0.2516299999999999,-0.0007044999999999,0.8648629999999999,0.39701,-0.2296335,1.223843,0.063477,-0.0762335,0.925397,0.001124,0.0001475,1.074603,-0.001124,-0.0001474999999999,0.8910630000000002,-0.33872,0.0405315,1.102143,-0.32661,0.0276825,0.885103,-0.6511899999999999,0.0710895,1.116363,-0.64921,0.0662695,0
5,1.004824,0.7687365,0.0235519999999999,0.826582,0.4970965,0.0189109999999999,0.787392,0.2676665,-0.013543,1.179562,0.4990165,0.0084699999999999,1.231732,0.2517764999999999,-0.0007269999999999,0.864992,0.3973565,-0.229868,1.223792,0.0635165,-0.076218,0.925373,0.0011345,0.0001159999999999,1.074627,-0.0011345,-0.000116,0.890942,-0.3388035,0.040563,1.102172,-0.3266035,0.027689,0.884982,-0.6516434999999999,0.071074,1.116382,-0.6491235,0.066241,0
6,1.004864,0.7685635,0.0236784999999999,0.8256410000000001,0.4965835,0.0190734999999999,0.787601,0.2686235,-0.0155035,1.179661,0.4990934999999999,0.0086334999999999,1.231541,0.2517034999999999,-0.0006925,0.865211,0.3975134999999999,-0.2300914999999999,1.223741,0.0634365,-0.0759914999999999,0.925374,0.0011164999999999,4.849999999999993e-05,1.074626,-0.0011164999999999,-4.849999999999993e-05,0.8909009999999999,-0.3388265,0.0405484999999999,1.102121,-0.3265565,0.0276114999999999,0.884911,-0.6514465,0.0709365,1.116521,-0.6492765,0.0662425,0
7,1.004861,0.768587,0.023566,0.8261410000000001,0.496257,0.018233,0.7877610000000002,0.268127,-0.0145689999999999,1.179831,0.499227,0.008972,1.231621,0.251417,-0.0005259999999999,0.864881,0.396117,-0.2275999999999999,1.223561,0.063164,-0.07568,0.925398,0.0011099999999999,7.900000000000268e-05,1.074602,-0.0011099999999999,-7.899999999999574e-05,0.8907210000000001,-0.338883,0.040614,1.101991,-0.326953,0.027791,0.884821,-0.650753,0.070933,1.116431,-0.650983,0.065653,0
8,1.004879,0.7685744999999999,0.0235255,0.8258840000000001,0.4960345,0.0182785,0.787884,0.2681445,-0.0143374999999999,1.179854,0.4992245,0.0090665,1.2315839999999998,0.2514045,-0.0004574999999999,0.864784,0.3956545,-0.2265305,1.223494,0.0629795,-0.0755605,0.925403,0.0011034999999999,7.150000000000212e-05,1.074597,-0.0011034999999999,-7.149999999999518e-05,0.8906640000000001,-0.3389455,0.0406265,1.101954,-0.3269655,0.0277655,0.884744,-0.6507455000000001,0.0708795,1.116454,-0.6511855000000001,0.0655755,0
9,1.0048994999999998,0.76855,0.023465,0.8256395,0.49581,0.018297,0.7879795,0.26817,-0.0141559999999999,1.1798795,0.49922,0.009165,1.2315595,0.25137,-0.0003579999999999,0.8647295,0.39533,-0.225464,1.2234195,0.062745,-0.075404,0.9254065,0.0010999999999999,4.200000000000037e-05,1.0745935,-0.0010999999999999,-4.199999999999343e-05,0.8906495000000001,-0.33885,0.04061,1.1019095,-0.32704,0.027766,0.8846595,-0.65063,0.070849,1.1164595,-0.65139,0.06546,0
10,1.004929,0.7685135,0.023402,0.8254060000000001,0.4956135,0.0183499999999999,0.788076,0.2681535,-0.013885,1.179886,0.4992035,0.0092529999999999,1.231526,0.2513235,-0.0002559999999999,0.8648359999999999,0.3951235,-0.224635,1.223336,0.0624964999999999,-0.075235,0.925412,0.0010985,1.2999999999999123e-05,1.074588,-0.0010985,-1.2999999999999123e-05,0.890616,-0.3388365,0.040601,1.101866,-0.3271165,0.0277649999999999,0.884576,-0.6505565000000001,0.070834,1.116466,-0.6516065000000001,0.065346,0
11,1.004956,0.768497,0.0233234999999999,0.825182,0.495457,0.0183435,0.788152,0.268077,-0.0136705,1.179932,0.499207,0.0093334999999999,1.231492,0.251267,-0.0001584999999999,0.865012,0.394997,-0.2239724999999999,1.223252,0.062215,-0.0750925,0.925417,0.001096,-1.0500000000003562e-05,1.074583,-0.001096,1.0499999999996625e-05,0.890562,-0.3388529999999999,0.0405935,1.101832,-0.327193,0.0277674999999999,0.8844920000000001,-0.650443,0.0708205,1.1164919999999998,-0.651953,0.0652055,0
12,1.0049899999999998,0.768465,0.023248,0.824944,0.495355,0.018321,0.788214,0.268025,-0.0134709999999999,1.179984,0.499185,0.009404,1.231454,0.251205,-3.299999999999831e-05,0.864804,0.394465,-0.222476,1.223164,0.06187,-0.074946,0.925416,0.0010969999999999,-3.0000000000002247e-05,1.074584,-0.0010969999999999,3.0000000000002247e-05,0.890514,-0.338875,0.040585,1.101804,-0.3272449999999999,0.027743,0.884444,-0.6502450000000001,0.070829,1.116514,-0.652065,0.065117,0
13,1.005026,0.7684215,0.0231824999999999,0.82469,0.4952515,0.0182825,0.78822,0.2680015,-0.0133785,1.18004,0.4991715,0.0094185,1.23141,0.2512014999999999,7.549999999999918e-05,0.8647400000000001,0.3941615,-0.2213705,1.22311,0.0615805,-0.0748705,0.925417,0.0010945,-5.6500000000000994e-05,1.074583,-0.0010945,5.6500000000000994e-05,0.8904799999999999,-0.3387985,0.0405635,1.1017899999999998,-0.3272585,0.0277005,0.88441,-0.6500485,0.0708625,1.11654,-0.6521585,0.0650365,0
14,1.005054,0.76838,0.023099,0.824489,0.49515,0.018223,0.788219,0.2679,-0.0131509999999999,1.180089,0.49915,0.009422,1.231359,0.25118,0.000184,0.8648290000000001,0.39398,-0.220657,1.223039,0.0613,-0.074817,0.925412,0.001095,-7.999999999999674e-05,1.074588,-0.001095,8.000000000000368e-05,0.890439,-0.33875,0.040517,1.101749,-0.3272899999999999,0.027656,0.884389,-0.6498400000000001,0.070898,1.116559,-0.65222,0.064952,0
15,1.0050965,0.7683245000000001,0.023012,0.8242625,0.4950745,0.018287,0.7882325,0.2678044999999999,-0.0129759999999999,1.1801425,0.4991244999999999,0.009414,1.2313025,0.2511744999999999,0.00028,0.8649125000000001,0.3939844999999999,-0.220725,1.2229825,0.0610185,-0.074765,0.9254125,0.0010904999999999,-0.0001049999999999,1.0745875,-0.0010904999999999,0.000105,0.8904025,-0.3388055,0.040472,1.1017125,-0.3273255,0.027593,0.8843425,-0.6497155,0.070919,1.1165825,-0.6522155,0.064868,0
16,1.005142,0.7682605,0.0229145,0.824127,0.4949604999999999,0.0183155,0.788237,0.2677305,-0.0129464999999999,1.180177,0.4990805,0.0093955,1.231237,0.2511604999999999,0.0003575,0.8649370000000001,0.3939904999999999,-0.2207915,1.222927,0.0607515,-0.0747115,0.925414,0.0010845,-0.0001344999999999,1.074586,-0.0010845,0.0001345,0.890367,-0.3387795,0.0404325,1.101687,-0.3273495,0.0275485,0.884327,-0.6495895,0.0709515,1.1165969999999998,-0.6522095,0.0647835,0
17,1.0051915,0.7681979999999999,0.022802,0.8239995,0.494868,0.018306,0.7882195000000001,0.267648,-0.012915,1.1802095,0.499058,0.0093719999999999,1.2311495,0.251158,0.0004269999999999,0.8650195,0.3940079999999999,-0.220871,1.2228995,0.060585,-0.074661,0.9254155,0.00108,-0.000167,1.0745845,-0.00108,0.000167,0.8903395000000001,-0.338692,0.0403839999999999,1.1016595,-0.327352,0.0274799999999999,0.8842995,-0.649422,0.071001,1.1166095,-0.652192,0.064689,0
18,1.0052454999999998,0.7681535,0.0226974999999999,0.8239015000000001,0.4947835,0.0182624999999999,0.7882115000000001,0.2675935,-0.0128405,1.1802415,0.4990535,0.0093654999999999,1.2310615,0.2511735,0.0004964999999999,0.8654715,0.3946735,-0.2216014999999999,1.2228615,0.0604565,-0.0746215,0.9254165,0.0010745,-0.0001845,1.0745835,-0.0010745,0.0001844999999999,0.8903115,-0.3385965,0.0403554999999999,1.1016315,-0.3273365,0.0274264999999999,0.8842715,-0.6491965,0.0710645,1.1166215,-0.6520865,0.0646205,0
19,1.0053035,0.7681140000000001,0.0225975,0.8238155,0.494674,0.0182245,0.7882255,0.267544,-0.0127694999999999,1.1802754999999998,0.499054,0.0093605,1.2309854999999998,0.251174,0.0005655,0.8659654999999999,0.395204,-0.2226305,1.2228355,0.060348,-0.0746005,0.9254195,0.001071,-0.0002034999999999,1.0745805,-0.001071,0.0002035,0.8903055,-0.338446,0.0403135,1.1016054999999998,-0.327326,0.0273715,0.8842755,-0.6489959999999999,0.0711485,1.1166155,-0.651976,0.0645435,0
20,1.0053504999999998,0.7680765,0.0224965,0.8237135000000001,0.4945564999999999,0.0181985,0.7882235,0.2675065,-0.0126954999999999,1.1803035,0.4990664999999999,0.0093605,1.2309135,0.2511764999999999,0.0006415,0.8662035000000001,0.3957064999999999,-0.2233445,1.2228035,0.0603075,-0.0746445,0.9254255,0.0010655,-0.0002184999999999,1.0745745,-0.0010655,0.0002185,0.8902935,-0.3383535,0.0402695,1.1015735,-0.3272935,0.0273285,0.8842735,-0.6488235,0.0712185,1.1166135,-0.6518735,0.0644825,0
21,1.005386,0.7680365,0.022402,0.823673,0.4944865,0.018161,0.788183,0.2675365,-0.01274,1.180323,0.4990765,0.009381,1.230883,0.2511865,0.000704,0.866213,0.3960165,-0.2237569999999999,1.222763,0.0603374999999999,-0.074687,0.925428,0.0010595,-0.0002329999999999,1.074572,-0.0010595,0.0002329999999999,0.890273,-0.3382235,0.040219,1.101543,-0.3272435,0.027265,0.884253,-0.6486935,0.071282,1.116603,-0.6517335,0.064422,0
22,1.0054205,0.768006,0.0223209999999999,0.8236435,0.494426,0.0181329999999999,0.7881635,0.267566,-0.012773,1.1803435,0.499096,0.0094089999999999,1.2308535,0.251226,0.0007299999999999,0.8666335000000001,0.396626,-0.22462,1.2227235,0.060367,-0.07472,0.9254305,0.001055,-0.000246,1.0745695,-0.001055,0.0002459999999999,0.8902535,-0.3381139999999999,0.0401729999999999,1.1015035,-0.327214,0.0272049999999999,0.8842335,-0.648554,0.071277,1.1165935,-0.6515139999999999,0.064329,0
23,1.00547,0.7679735,0.0222725,0.8236430000000001,0.4944335,0.0181155,0.788163,0.2675735,-0.0127904999999999,1.180383,0.4990935,0.0094475,1.230853,0.2512435,0.0007215,0.8670329999999999,0.3970335,-0.2253675,1.222693,0.0603745,-0.0747375,0.92543,0.0010605,-0.0002514999999999,1.07457,-0.0010605,0.0002515,0.8902730000000001,-0.3380165,0.0401415,1.101503,-0.3272065,0.0271635,0.884213,-0.6484065,0.0713025,1.116603,-0.6513165000000001,0.0642335,0
24,1.0055085,0.7679435,0.0222459999999999,0.8236525,0.4944335,0.0180969999999999,0.7881825,0.2676335,-0.012804,1.1803725,0.4990935,0.0094379999999999,1.2308525,0.2512535,0.0007129999999999,0.8671925,0.3974535,-0.226066,1.2226725,0.0604175,-0.074776,0.9254305,0.0010605,-0.000245,1.0745695,-0.0010605,0.0002449999999999,0.8902725,-0.3379864999999999,0.040101,1.1014925,-0.3272065,0.0271259999999999,0.8842125000000001,-0.6483565,0.071294,1.1166025,-0.6511565,0.064142,0
25,1.0055435,0.7679134999999999,0.0222419999999999,0.8236635,0.4944435,0.018074,0.7881735,0.2677335,-0.012908,1.1803735,0.4990835,0.0094349999999999,1.2308535,0.2512835,0.00071,0.8671935,0.3977635,-0.226549,1.2226635,0.0605925,-0.074989,0.9254315,0.0010605,-0.0002419999999999,1.0745685,-0.0010605,0.0002419999999999,0.8902635000000001,-0.3379465,0.04004,1.1014935,-0.3271865,0.027107,0.8842235,-0.6480065,0.071295,1.1166135,-0.6510365,0.064053,0
26,1.0055745,0.767911,0.0222405,0.8248465,0.495521,0.0179775,0.7881665,0.267861,-0.0131085,1.1803765,0.499081,0.0094344999999999,1.2309265,0.251401,0.0007074999999999,0.8670964999999999,0.398091,-0.2270694999999999,1.2226465,0.061033,-0.0755995,0.9254325,0.001058,-0.0002414999999999,1.0745675,-0.001058,0.0002414999999999,0.8902765,-0.337869,0.0399895,1.1014865,-0.327159,0.0270945,0.8842265,-0.6476689999999999,0.0713155,1.1166165,-0.650929,0.0639735,0
27,1.0056314999999998,0.7678619999999999,0.0222419999999999,0.8261915,0.4972319999999999,0.0178259999999999,0.7881915000000002,0.2679519999999999,-0.0133,1.1804115,0.4990119999999999,0.0094199999999999,1.2311515,0.2516819999999999,0.0005989999999999,0.8671314999999999,0.398302,-0.2270709999999999,1.2226415,0.062016,-0.076611,0.9254335,0.001092,-0.0002409999999999,1.0745665,-0.001092,0.0002409999999999,0.8903115,-0.337778,0.039899,1.1015214999999998,-0.327178,0.02709,0.8842315000000001,-0.647358,0.071332,1.1166615,-0.650908,0.063897,0
28,1.0057064999999998,0.7677864999999999,0.022271,0.8275565,0.4987965,0.017652,0.7882264999999999,0.2681165,-0.013717,1.1804365,0.4989165,0.009426,1.2314865,0.2521965,0.000391,0.8671865,0.3983965,-0.2270599999999999,1.2228965,0.0642155,-0.07887,0.9254375,0.0011315,-0.000223,1.0745625,-0.0011315,0.000223,0.8903965000000001,-0.3378135,0.039842,1.1015765,-0.3272135,0.0271,0.8842765,-0.6471435,0.07135,1.1167165,-0.6509035000000001,0.063881,0
29,1.005807,0.7676904999999999,0.0223479999999999,0.82898,0.5004905,0.0174709999999999,0.7881500000000001,0.2686004999999999,-0.014714,1.18045,0.4988205,0.0094969999999999,1.23197,0.2532304999999999,5.599999999999356e-05,0.8670800000000001,0.3985205,-0.227405,1.22321,0.0672855,-0.081955,0.925444,0.0011675,-0.000185,1.074556,-0.0011675,0.0001849999999999,0.89052,-0.3377595,0.039802,1.1016499999999998,-0.3272895,0.0271349999999999,0.8843300000000001,-0.6469195,0.0713979999999999,1.1168,-0.6509995000000001,0.06389,0
30,1.005922,0.767632,0.022515,0.830423,0.502232,0.017295,0.7879929999999999,0.269902,-0.017325,1.180423,0.498722,0.009567,1.232733,0.2547919999999999,-0.0005579999999999,0.865083,0.398642,-0.22771,1.223763,0.071339,-0.08677,0.925449,0.001202,-0.0001439999999999,1.074551,-0.001202,0.000144,0.8906430000000001,-0.337698,0.039762,1.101723,-0.327378,0.02717,0.884373,-0.646798,0.071439,1.116893,-0.651108,0.06389,0
31,1.0060505,0.7675875,0.0228704999999999,0.8318985,0.5036775,0.0171314999999999,0.7877784999999999,0.2715075,-0.0204235,1.1803485,0.4985875,0.0096494999999999,1.2338885,0.2571675,-0.0014465,0.8618585,0.3987775,-0.2279014999999999,1.2251385,0.0770915,-0.0930215,0.9254365,0.0012365,-0.0001015,1.0745635,-0.0012365,0.0001014999999999,0.8907484999999999,-0.3376625,0.0397314999999999,1.1017685,-0.3275025,0.0272184999999999,0.8843985,-0.6467025,0.0714345,1.1169785,-0.6512425000000001,0.0638934999999999,0
32,1.006217,0.7676095000000001,0.0233675,0.8354280000000001,0.5050095,0.0167604999999999,0.787558,0.2733095,-0.0238435,1.180258,0.4984695,0.0097604999999999,1.235308,0.2605595,-0.0029105,0.858548,0.4018994999999999,-0.2280575,1.227698,0.0849595,-0.1021475,0.925408,0.0012905,-5.55e-05,1.074592,-0.0012905,5.55e-05,0.890868,-0.3376905,0.0397085,1.101828,-0.3276705,0.0272905,0.884428,-0.6467505,0.0714235,1.117028,-0.6514504999999999,0.0638914999999999,0
33,1.006413,0.7676395,0.02404,0.84021,0.5063295,0.01606,0.78711,0.2752695,-0.0273669999999999,1.18008,0.4983895,0.00986,1.23711,0.2658895,-0.0046059999999999,0.85483,0.4054995,-0.231902,1.23117,0.0964195,-0.113602,0.925371,0.0013455,-8.999999999995123e-06,1.074629,-0.0013455,9.000000000002062e-06,0.89097,-0.3377505,0.039724,1.10188,-0.3278405,0.027364,0.88445,-0.6469205,0.071408,1.11707,-0.6516504999999999,0.063898,0
34,1.0066175,0.7677235,0.0249145,0.8448435000000001,0.5076635,0.0151655,0.7856335,0.2782135,-0.0321655,1.1798435,0.4984035,0.0100035,1.2392035,0.2719735,-0.0067855,0.8507534999999999,0.4102735,-0.2361555,1.2355935,0.1112234999999999,-0.1275555,0.9253275,0.0014035,3.949999999999787e-05,1.0746725,-0.0014035,-3.949999999999787e-05,0.8910635,-0.3378164999999999,0.0397345,1.1019135,-0.3280265,0.0274525,0.8844535,-0.6471465,0.0714025,1.1171235,-0.6519865,0.0639055,0
35,1.006849,0.767885,0.0260824999999999,0.8475460000000001,0.507475,0.0143734999999999,0.7831060000000001,0.282205,-0.0382865,1.179606,0.498575,0.0102744999999999,1.241686,0.279765,-0.0096835,0.8462160000000001,0.416835,-0.2404025,1.240646,0.131265,-0.1427425,0.925288,0.001454,7.849999999999524e-05,1.074712,-0.001454,-7.850000000000218e-05,0.891146,-0.337885,0.0397465,1.101936,-0.328225,0.0275584999999999,0.884446,-0.647335,0.0713925,1.117166,-0.652325,0.0639174999999999,0
36,1.007104,0.7681095,0.0274649999999999,0.849734,0.5072995,0.0136049999999999,0.779574,0.2882895,-0.0464749999999999,1.179364,0.4988295,0.0104639999999999,1.246004,0.2893995,-0.016188,0.839734,0.4249394999999999,-0.245061,1.246694,0.1518594999999999,-0.1601209999999999,0.925262,0.0014845,9.699999999999986e-05,1.074738,-0.0014845,-9.699999999999986e-05,0.891194,-0.3379005,0.039746,1.101914,-0.3284305,0.0277329999999999,0.884424,-0.6475105,0.071389,1.1171939999999998,-0.6526205,0.063945,0
37,1.007461,0.7683610000000001,0.0291755,0.8518190000000001,0.5070910000000001,0.0128285,0.7750589999999999,0.2958409999999999,-0.0554685,1.179119,0.499071,0.0105365,1.250259,0.298891,-0.0232785,0.8314990000000001,0.4343309999999999,-0.2497855,1.252919,0.178371,-0.1790054999999999,0.92524,0.0015049999999999,0.0001104999999999,1.07476,-0.001505,-0.0001104999999999,0.891229,-0.337709,0.0397375,1.101889,-0.328659,0.0279125,0.8844190000000001,-0.6480389999999999,0.0713695,1.117219,-0.6529189999999999,0.0639665,0
38,1.0078355,0.7686875,0.0312555,0.8539335,0.5065774999999999,0.0120325,0.7696835000000001,0.3048375,-0.0650425,1.1788435,0.4993175,0.0104975,1.2560335,0.3080975,-0.0309694999999999,0.8215735,0.4471475,-0.2542925,1.2632935,0.2077875,-0.1990225,0.9252195,0.0015205,0.0001034999999999,1.0747805,-0.0015205,-0.0001034999999999,0.8912235,-0.3375625,0.0397405,1.1018435,-0.3288925,0.0280945,0.8843935,-0.6485525000000001,0.0713225,1.1172035,-0.6532025,0.0639735,0
39,1.0082185,0.7691129999999999,0.0335315,0.8558575000000002,0.5050629999999999,0.0109965,0.7637575,0.316333,-0.0742245,1.1786475,0.499573,0.0105025,1.2634575,0.317473,-0.0390444999999999,0.8117475000000001,0.463453,-0.2581245,1.2746775,0.243993,-0.2177845,0.9251815,0.001532,8.850000000000524e-05,1.0748185,-0.001532,-8.84999999999983e-05,0.8911875,-0.337467,0.0397745,1.1017775,-0.3291469999999999,0.0282605,0.8843075,-0.649097,0.0713015,1.1171775,-0.6534770000000001,0.0639865,0
40,1.008657,0.769674,0.0360315,0.857576,0.5035540000000001,0.0100705,0.757436,0.328194,-0.0831315,1.178586,0.499854,0.0105034999999999,1.272136,0.328094,-0.0481045,0.801826,0.482644,-0.2600715,1.285246,0.284524,-0.2352314999999999,0.92512,0.001541,9.05000000000003e-05,1.07488,-0.0015409999999999,-9.05000000000003e-05,0.891126,-0.337306,0.0397895,1.101696,-0.329386,0.0284075,0.8841960000000001,-0.649386,0.0713065,1.117136,-0.653796,0.0640085,0
41,1.0090955,0.77021,0.0385999999999999,0.8574685,0.5025299999999999,0.0094649999999999,0.7500985,0.34232,-0.092383,1.1784985,0.50006,0.010442,1.2819085,0.34081,-0.058362,0.7907585,0.5024299999999999,-0.261133,1.2955285,0.32968,-0.249543,0.9250335,0.001529,9.800000000000086e-05,1.0749665,-0.001529,-9.800000000000086e-05,0.8909985,-0.3372199999999999,0.039789,1.1015885,-0.32965,0.028532,0.8840685,-0.64966,0.071243,1.1170785,-0.65407,0.063992,0
42,1.00955,0.770765,0.041289,0.857349,0.501965,0.009453,0.741269,0.3610049999999999,-0.1017049999999999,1.178369,0.5002650000000001,0.0103299999999999,1.293009,0.3557349999999999,-0.071185,0.778539,0.524205,-0.260705,1.305079,0.3779849999999999,-0.260555,0.924929,0.0015009999999999,9.699999999999986e-05,1.075071,-0.001501,-9.699999999999986e-05,0.8907990000000001,-0.337195,0.039801,1.101479,-0.329925,0.028675,0.883899,-0.6499349999999999,0.071162,1.116959,-0.654405,0.063953,0
43,1.0100065,0.7712305,0.0439425,0.8571965,0.5016105,0.0094325,0.7330865,0.3791905,-0.1091455,1.1782665,0.5004605,0.0100985,1.3040465,0.3720405,-0.0836655,0.7654265,0.5485605,-0.2602555,1.3142365,0.4282005,-0.2678755,0.9248315,0.0014505,7.449999999999818e-05,1.0751685,-0.0014505,-7.449999999999818e-05,0.8905665,-0.3373195,0.0398075,1.1013265,-0.3302795,0.0287975,0.8837165,-0.6505595,0.0710605,1.1168065,-0.6548295,0.0638795,0
44,1.010387,0.7714705,0.0463809999999999,0.856386,0.5010604999999999,0.0093939999999999,0.725016,0.3991405,-0.114786,1.178186,0.5006704999999999,0.0095619999999999,1.314886,0.3911205,-0.097266,0.752116,0.5717605,-0.259836,1.322976,0.4772205,-0.272526,0.924748,0.0013804999999999,6.399999999999462e-05,1.075252,-0.0013805,-6.400000000000156e-05,0.890246,-0.3376495,0.039789,1.101106,-0.3308295,0.0288639999999999,0.883466,-0.6513395000000001,0.070936,1.116556,-0.6554395000000001,0.063781,0
45,1.0107295,0.7715375,0.048719,0.8539745,0.5002875,0.009422,0.7174845000000001,0.4183075,-0.117339,1.1782545,0.5010775000000001,0.008889,1.3218145,0.4119974999999999,-0.105739,0.7396745,0.5941875000000001,-0.255699,1.3305545,0.5306975,-0.272929,0.9246825,0.0013075,8.099999999999774e-05,1.0753175,-0.0013074999999999,-8.099999999999774e-05,0.8898645000000001,-0.3383025,0.039744,1.1008245,-0.3316025,0.028829,0.8831445,-0.6523625,0.070756,1.1162645,-0.6563625,0.063629,0
46,1.010961,0.771357,0.050749,0.851376,0.499537,0.009722,0.710316,0.438737,-0.1178649999999999,1.178276,0.501757,0.007944,1.328476,0.435137,-0.1131549999999999,0.728046,0.6176769999999999,-0.249165,1.337526,0.579867,-0.273355,0.924633,0.0012269999999999,0.000184,1.075367,-0.0012269999999999,-0.0001839999999999,0.889446,-0.3393029999999999,0.039685,1.100506,-0.3325829999999999,0.028727,0.882786,-0.6536230000000001,0.070554,1.115916,-0.657493,0.063429,0
47,1.01117,0.770726,0.052453,0.849216,0.4991359999999999,0.01015,0.703786,0.459076,-0.117774,1.178076,0.5029060000000001,0.006754,1.332936,0.461526,-0.1187239999999999,0.717726,0.639656,-0.241574,1.340176,0.629186,-0.273604,0.924609,0.00115,0.000339,1.075391,-0.00115,-0.0003389999999999,0.889036,-0.340634,0.039645,1.100206,-0.333924,0.028637,0.882416,-0.655234,0.070387,1.115556,-0.6588539999999999,0.063291,0
48,1.011389,0.769321,0.0538545,0.847224,0.4989910000000001,0.0107944999999999,0.697554,0.4797909999999999,-0.1177825,1.177774,0.504631,0.0056724999999999,1.334894,0.493991,-0.1228925,0.708164,0.665091,-0.2324325,1.341554,0.6736610000000001,-0.2727325,0.924647,0.001069,0.0006045,1.075353,-0.0010689999999999,-0.0006045,0.888714,-0.342699,0.0395644999999999,1.100004,-0.335889,0.0284525,0.882044,-0.657439,0.0701064999999999,1.115214,-0.660899,0.0630675,0
49,1.0115585,0.767559,0.054909,0.8456975000000001,0.498869,0.0114569999999999,0.6922575,0.501329,-0.117767,1.1773875,0.506829,0.0048619999999999,1.3345574999999998,0.525059,-0.123437,0.6997475,0.688199,-0.222617,1.3427675,0.717279,-0.2653669999999999,0.9247285,0.000977,0.000778,1.0752715,-0.000977,-0.000778,0.8883975,-0.345141,0.039567,1.0998575,-0.338051,0.0282989999999999,0.8816975,-0.659901,0.069881,1.1148875,-0.663211,0.062876,0
50,1.011762,0.7654285,0.055774,0.844437,0.4996585,0.012572,0.688377,0.5219385,-0.116323,1.177107,0.5092685,0.004234,1.334337,0.5545385,-0.123533,0.6922170000000001,0.7097885,-0.210693,1.343107,0.7545285,-0.2595429999999999,0.924823,0.0009154999999999,0.000878,1.075177,-0.0009154999999999,-0.0008779999999999,0.8881870000000001,-0.3478615,0.039618,1.0998169999999998,-0.3405115,0.028196,0.881457,-0.6626315,0.069723,1.114537,-0.6655115,0.062766,0
51,1.0119995,0.7628645000000001,0.0563225,0.8431995,0.5015445,0.0138894999999999,0.6868095000000001,0.5391845,-0.1118685,1.1769895,0.5119245,0.0037174999999999,1.3342394999999998,0.5806945,-0.1235485,0.6859995,0.7314445,-0.1974285,1.3434095,0.7857545,-0.2503784999999999,0.9249215,0.0008715,0.0009245,1.0750784999999998,-0.0008714999999999,-0.0009245,0.8880995,-0.3509655,0.0396875,1.0999095,-0.3432455,0.0281725,0.8813195,-0.6657555,0.0696505,1.1142995,-0.6682055,0.0627595,0
52,1.012283,0.7599684999999999,0.0567585,0.8419350000000001,0.5030184999999999,0.0152425,0.686145,0.5587384999999999,-0.1059205,1.176755,0.5150285,0.0034165,1.333255,0.6069985,-0.1234204999999999,0.6812050000000001,0.7514985,-0.1840105,1.344375,0.8159685,-0.2364804999999999,0.924952,0.0008755,0.0010105,1.075048,-0.0008755,-0.0010104999999999,0.888105,-0.3544615,0.0398305,1.100135,-0.3461115,0.0282495,0.881235,-0.6691415000000001,0.0696865,1.114125,-0.6712415,0.0628625,0
53,1.012551,0.7568635,0.0570144999999999,0.8408599999999999,0.5046435,0.0165325,0.68638,0.5760335,-0.0994855,1.17637,0.5180635,0.0035654999999999,1.3306,0.6316635,-0.1216955,0.6772400000000001,0.7715035,-0.1699955,1.34527,0.8426635,-0.2219554999999999,0.924957,0.0009325,0.0011455,1.075043,-0.0009324999999999,-0.0011455,0.88825,-0.3576565,0.0399985,1.10044,-0.3489265,0.0283525,0.88117,-0.6727565,0.0697735,1.11402,-0.6745165,0.0630005,0
54,1.0127725,0.7536795,0.057187,0.8399865,0.5065195,0.017658,0.6867165,0.5934595,-0.0906849999999999,1.1758365,0.5205295,0.0037669999999999,1.3257665,0.6530794999999999,-0.1166049999999999,0.6746865,0.7910595,-0.156615,1.3461265,0.8651194999999999,-0.206895,0.9249735,0.0010135,0.001326,1.0750265,-0.0010134999999999,-0.001326,0.8884565000000001,-0.3608405,0.040222,1.1007465,-0.3516505,0.028436,0.8811265000000001,-0.6764205,0.069898,1.1139165,-0.6779005,0.063157,0
55,1.0130515,0.7504465,0.057421,0.8393225000000001,0.5084865000000001,0.018984,0.6871425,0.6089665000000001,-0.081605,1.1751925,0.5224565,0.004034,1.3201725,0.6735165000000001,-0.110695,0.6734025,0.8091865,-0.143135,1.3466925,0.8892565,-0.190245,0.9250765,0.0011284999999999,0.001504,1.0749235,-0.0011285,-0.0015039999999999,0.8887725,-0.3639435,0.040499,1.1011325,-0.3543935,0.02856,0.8811225,-0.6802834999999999,0.070074,1.1139025,-0.6813334999999999,0.063359,0
56,1.0134,0.747245,0.0577364999999999,0.838691,0.510525,0.0206015,0.6880710000000001,0.623685,-0.0724144999999999,1.174471,0.5249050000000001,0.0044454999999999,1.313961,0.6904750000000001,-0.1024745,0.672981,0.826005,-0.1295345,1.346851,0.909055,-0.1744745,0.925227,0.001166,0.0016574999999999,1.074773,-0.001166,-0.0016574999999999,0.889231,-0.366905,0.0408474999999999,1.101591,-0.356975,0.0286524999999999,0.8812409999999999,-0.6841849999999999,0.0703755,1.114021,-0.684885,0.0636434999999999,0
57,1.0138239999999998,0.744417,0.0579535,0.8381460000000001,0.512517,0.0221995,0.689856,0.635447,-0.0637985,1.173626,0.526837,0.0050564999999999,1.309326,0.700917,-0.0951125,0.6737960000000001,0.8382269999999999,-0.1163125,1.347236,0.925737,-0.1607325,0.925399,0.001213,0.0017635,1.074601,-0.0012129999999999,-0.0017635,0.8898159999999999,-0.369253,0.0412255,1.102116,-0.3591129999999999,0.0287635,0.881516,-0.687743,0.0707214999999999,1.114286,-0.6880430000000001,0.0639925,0
58,1.0142705,0.7415415000000001,0.0580445,0.8376875,0.5146415,0.0239715,0.6925574999999999,0.6460615000000001,-0.0558194999999999,1.1728975,0.5286015,0.0059755,1.3045475,0.7107615,-0.0876605,0.6746775,0.8502415000000001,-0.1038005,1.3476675,0.9373715,-0.1472105,0.9255725,0.0013074999999999,0.0017185,1.0744275,-0.0013075,-0.0017184999999999,0.8904974999999999,-0.3714285,0.0416285,1.1026375,-0.3611785,0.0288455,0.8818275000000001,-0.6911685000000001,0.0711385,1.1146375,-0.6912985,0.0643925,0
59,1.0147514999999998,0.738849,0.058025,0.8373745,0.5165489999999999,0.025677,0.6958645,0.6560389999999999,-0.0483089999999999,1.1723645,0.530269,0.007058,1.3000845,0.719379,-0.080847,0.6755545000000001,0.8603989999999999,-0.0926669999999999,1.3481145,0.948679,-0.133287,0.9257495,0.00139,0.001593,1.0742505,-0.00139,-0.0015929999999999,0.8912145,-0.373391,0.042023,1.1031845,-0.363071,0.02888,0.8822245,-0.6944910000000001,0.071545,1.1151245,-0.694771,0.064773,0
60,1.0152115,0.7364695,0.0579485,0.8377345,0.5177995000000001,0.0273214999999999,0.6997045,0.6651895,-0.0414015,1.1719445,0.5316895,0.0081064999999999,1.2960245,0.7273795000000001,-0.0744335,0.6764945,0.8685695,-0.0820935,1.3484845,0.9592495,-0.1201535,0.9258745,0.0014494999999999,0.0013504999999999,1.0741255,-0.0014494999999999,-0.0013505,0.8918745,-0.3749505,0.0424584999999999,1.1036745,-0.3647205,0.0289854999999999,0.8826145,-0.6973805,0.0720335,1.1156045,-0.6979204999999999,0.0651905,0
61,1.015672,0.73432,0.057755,0.837905,0.51952,0.028946,0.703265,0.67228,-0.0361809999999999,1.171765,0.53258,0.009089,1.293395,0.73304,-0.070098,0.677845,0.8748600000000001,-0.073048,1.348615,0.96594,-0.110548,0.925978,0.0015029999999999,0.001112,1.074022,-0.001503,-0.0011119999999999,0.892555,-0.37583,0.042779,1.104135,-0.3661999999999999,0.02891,0.883015,-0.6999799999999999,0.072433,1.116075,-0.70083,0.065468,0
62,1.0160715,0.7324085,0.057523,0.8380535,0.5209285,0.030397,0.7066835,0.6792684999999999,-0.0315049999999999,1.1716935,0.5336185,0.010111,1.2908535,0.7358885,-0.065761,0.6796535,0.8807285,-0.065161,1.3486435,0.9721685,-0.1013109999999999,0.9260775,0.0015314999999999,0.000895,1.0739225,-0.0015314999999999,-0.000895,0.8930735,-0.3769515,0.043013,1.1045335,-0.3676015,0.028752,0.8833635,-0.7023815,0.072726,1.1165835,-0.7037915,0.065648,0
63,1.016351,0.730793,0.0572555,0.8383430000000001,0.521973,0.0317525,0.709783,0.685003,-0.0277604999999999,1.1715829999999998,0.535243,0.0110745,1.288523,0.7384130000000001,-0.0618945,0.6818230000000001,0.8864230000000001,-0.0579684999999999,1.348513,0.977233,-0.0931185,0.926172,0.001523,0.0007064999999999,1.073828,-0.0015229999999999,-0.0007064999999999,0.893483,-0.377797,0.0431735,1.104853,-0.368727,0.0284385,0.883613,-0.704367,0.0729515,1.116993,-0.706387,0.0657395,0
64,1.016472,0.7294025,0.056968,0.838018,0.5230625,0.032851,0.712488,0.6898325,-0.024714,1.171368,0.5371324999999999,0.0119659999999999,1.286548,0.7395124999999999,-0.058571,0.683908,0.8911924999999999,-0.052002,1.348188,0.9776625,-0.086915,0.926263,0.0014904999999999,0.0005709999999999,1.073737,-0.0014904999999999,-0.000571,0.893788,-0.3785374999999999,0.043301,1.104998,-0.3696075,0.0280619999999999,0.883808,-0.7062075,0.073139,1.117328,-0.7087875,0.065799,0
65,1.0164825,0.7283219999999999,0.0567255,0.8378605,0.523942,0.0336355,0.7149505,0.693842,-0.0220354999999999,1.1711305,0.538022,0.0126015,1.2848704999999998,0.7405419999999999,-0.0556015,0.6858905,0.895312,-0.0467164999999999,1.3478005,0.978562,-0.0807445,0.9263335,0.001536,0.0004625,1.0736665,-0.001536,-0.0004624999999999,0.8940105,-0.379048,0.0434235,1.1050305,-0.370318,0.0277765,0.8839305000000001,-0.707688,0.0733055,1.1175805,-0.710908,0.0658555,0
66,1.016413,0.7274765,0.056555,0.837636,0.5246565,0.03424,0.7172260000000001,0.6974665,-0.0196859999999999,1.170956,0.5388664999999999,0.013154,1.283536,0.7413164999999999,-0.0531819999999999,0.687506,0.8970064999999999,-0.0427039999999999,1.347566,0.9794665,-0.075391,0.926373,0.0015695,0.000357,1.073627,-0.0015695,-0.0003569999999999,0.894156,-0.3795134999999999,0.043533,1.104986,-0.3708435,0.027499,0.884006,-0.7088535,0.073432,1.117756,-0.7128735,0.06585,0
67,1.0163005,0.7268555,0.0564505,0.8374865000000001,0.5252555,0.0348045,0.7193665,0.7009755,-0.0175614999999999,1.1707665,0.5393755,0.0136045,1.2826365,0.7419955,-0.0511755,0.6889164999999999,0.8983255,-0.0391845,1.3472265,0.9800355,-0.0715065,0.9263925,0.0015695,0.0002975,1.0736074999999998,-0.0015694999999999,-0.0002974999999999,0.8942865000000001,-0.3798545,0.0436105,1.1049165,-0.3712645,0.0272845,0.8840565,-0.7097645,0.0735575,1.1179165,-0.7145545,0.0658575,0
68,1.016104,0.7263545,0.0562925,0.837357,0.5259745,0.0354195,0.7213069999999999,0.7035445,-0.0157905,1.170607,0.5397145000000001,0.0139375,1.282037,0.7422945000000001,-0.0497424999999999,0.690067,0.8995344999999999,-0.0360905,1.347257,0.9797845,-0.0690755,0.926388,0.0015594999999999,0.0002255,1.073612,-0.0015595,-0.0002254999999999,0.894367,-0.3801455,0.0436195,1.1048369999999998,-0.3715955,0.0270715,0.884077,-0.7105055,0.0736354999999999,1.1180469999999998,-0.7159355000000001,0.0658315,0
69,1.015899,0.725931,0.0561555,0.8372999999999999,0.526741,0.0361205,0.72294,0.705421,-0.0142665,1.1705,0.539981,0.0142224999999999,1.28166,0.742231,-0.0487945,0.69095,0.9002410000000001,-0.0337875,1.34739,0.979301,-0.0673875,0.92638,0.0015769999999999,0.0001644999999999,1.0736199999999998,-0.0015769999999999,-0.0001644999999999,0.89445,-0.380459,0.0436055,1.10477,-0.371849,0.0268585,0.8841,-0.711199,0.0736945,1.1182,-0.717259,0.0658175,0
70,1.0156759999999998,0.7256294999999999,0.0559785,0.837296,0.5274795,0.0367525,0.724296,0.7064895,-0.0132604999999999,1.170456,0.5401994999999999,0.0143855,1.281496,0.7419895,-0.0483475,0.691546,0.9006595,-0.0320194999999999,1.347476,0.9787295,-0.0666995,0.926367,0.0015864999999999,0.0001245,1.073633,-0.0015865,-0.0001244999999999,0.894516,-0.3808705,0.0435905,1.104746,-0.3720805,0.0267155,0.8841060000000001,-0.7115305000000001,0.0737455,1.118336,-0.7183305,0.0657905,1
71,1.015433,0.725404,0.055708,0.837279,0.5282140000000001,0.037415,0.7254590000000001,0.707014,-0.0124739999999999,1.170509,0.5401140000000001,0.014398,1.281549,0.741504,-0.0482549999999999,0.692049,0.900834,-0.0305769999999999,1.347569,0.978124,-0.066618,0.926355,0.001582,0.000101,1.073645,-0.001582,-0.0001009999999999,0.894599,-0.381056,0.043586,1.104769,-0.372286,0.026609,0.8841390000000001,-0.711726,0.07379,1.118499,-0.7193259999999999,0.06576,1
72,1.0152104999999998,0.7251075,0.0554275,0.8372525,0.5289375,0.0380635,0.7263625,0.7073674999999999,-0.0119254999999999,1.1705925,0.5397575,0.0144035,1.2816325,0.7408975,-0.0482494999999999,0.6923524999999999,0.9007775,-0.0295584999999999,1.3477725,0.9775175,-0.0666225,0.9263495,0.0015905,9.15000000000013e-05,1.0736505,-0.0015904999999999,-9.15000000000013e-05,0.8946825,-0.3812425,0.0435775,1.1048224999999998,-0.3726425,0.0265865,0.8841825000000001,-0.7121125,0.0737965,1.1186425,-0.7202925,0.0657155,1
73,1.0150155,0.724868,0.055162,0.8375555,0.529268,0.038355,0.7271255,0.707708,-0.011684,1.1706755,0.5393979999999999,0.014427,1.2817155,0.740378,-0.0482259999999999,0.6924855,0.900648,-0.0291339999999999,1.3483555,0.976698,-0.066609,0.9263415,0.0016039999999999,9.699999999999986e-05,1.0736585,-0.0016039999999999,-9.699999999999986e-05,0.8947455,-0.381412,0.043653,1.1049055,-0.372962,0.026599,0.8842155,-0.712732,0.073809,1.1187355,-0.720982,0.06571,1
74,1.0148735,0.7246455,0.0548999999999999,0.8378595,0.5295055,0.0386009999999999,0.7276994999999999,0.7080055000000001,-0.011583,1.1707595,0.5390655,0.0144229999999999,1.2817995,0.7399155,-0.048206,0.6926095000000001,0.9005755,-0.029116,1.3488795,0.9753355,-0.066609,0.9263335,0.0016084999999999,0.0001009999999999,1.0736665,-0.0016084999999999,-0.000101,0.8948195,-0.3815345,0.0437129999999999,1.1049894999999998,-0.3732345,0.0266049999999999,0.8842695,-0.7132544999999999,0.073826,1.1188094999999998,-0.7215045,0.0656949999999999,1
75,1.0147525,0.7244725,0.0546295,0.8379365,0.5296124999999999,0.0386185,0.7280665,0.7079125,-0.0115765,1.1708265,0.5387025,0.0143104999999999,1.2820465,0.7393325,-0.0483595,0.6927265,0.9006225,-0.0290995,1.3493865,0.9736425,-0.0672215,0.9263265,0.0016214999999999,0.0001045,1.0736735,-0.0016214999999999,-0.0001045,0.8948765,-0.3815475,0.0437565,1.1050665,-0.3733875,0.0266005,0.8843265,-0.7135375,0.0738294999999999,1.1188865,-0.7218975000000001,0.0656715,1
76,1.014641,0.7243305,0.0542955,0.838001,0.5297105,0.0386335,0.728361,0.7076505,-0.0115704999999999,1.170921,0.5383805,0.0141314999999999,1.282361,0.7386105000000001,-0.0488225,0.692851,0.9006605,-0.0290865,1.350101,0.9718005,-0.0688665,0.926324,0.0016335,0.0001094999999999,1.073676,-0.0016334999999999,-0.0001094999999999,0.894941,-0.3815294999999999,0.0438025,1.105141,-0.3734695,0.0265704999999999,0.8843610000000001,-0.7137995,0.0738564999999999,1.118951,-0.7222895,0.0656655,1
77,1.014581,0.724224,0.053982,0.8380799999999999,0.529684,0.038635,0.7285699999999999,0.707474,-0.011573,1.17107,0.538134,0.013916,1.28274,0.737824,-0.049429,0.6928100000000001,0.900564,-0.0291499999999999,1.35074,0.969924,-0.070814,0.926326,0.0016429999999999,0.000114,1.073674,-0.001643,-0.0001139999999999,0.89499,-0.381446,0.043839,1.10522,-0.373506,0.026545,0.88439,-0.714016,0.073888,1.11902,-0.722576,0.065615,1
78,1.0145285,0.7241314999999999,0.0536424999999999,0.8384075,0.5295615,0.0385244999999999,0.7287375,0.7075015,-0.0118144999999999,1.1712075,0.5379214999999999,0.0136014999999999,1.2830875,0.7370715,-0.0501415,0.6928274999999999,0.9005115,-0.0295124999999999,1.3511675,0.9683015,-0.0728735,0.9263315,0.0016465,0.0001204999999999,1.0736685,-0.0016464999999999,-0.0001205,0.8950275,-0.3812985,0.0438444999999999,1.1052875,-0.3735085,0.0265105,0.8844275,-0.7140685,0.0739055,1.1190775,-0.7227385000000001,0.0655995,1
79,1.0145,0.7240815,0.0532895,0.838768,0.5293815,0.0382975,0.728878,0.7076315,-0.0122584999999999,1.171378,0.5377415,0.0132875,1.283388,0.7363215,-0.0509525,0.6928380000000001,0.9003815000000001,-0.0300654999999999,1.351248,0.9670015,-0.0746344999999999,0.926332,0.0016385,0.0001145,1.073668,-0.0016385,-0.0001144999999999,0.895058,-0.3812985,0.0438575,1.105368,-0.3734385,0.0264845,0.8844480000000001,-0.7142385,0.0739325,1.119108,-0.7228785,0.0656175,1
80,1.0144815,0.72407,0.052999,0.8391895,0.52925,0.03794,0.7290295,0.70791,-0.012856,1.1715195,0.53762,0.012981,1.2836195,0.73566,-0.0518029999999999,0.6928195000000001,0.90032,-0.030875,1.3511995,0.96647,-0.076168,0.9263285,0.0016339999999999,0.0001109999999999,1.0736715,-0.0016339999999999,-0.0001109999999999,0.8950695,-0.38136,0.0438739999999999,1.1054195,-0.37331,0.026451,0.8844495,-0.71437,0.073963,1.1190995,-0.7229300000000001,0.065634,1
81,1.0144514999999998,0.7240935,0.052688,0.8396835,0.5291534999999999,0.037437,0.7291935,0.7083135,-0.013565,1.1716635,0.5375235,0.0126839999999999,1.2837435,0.7351035,-0.052685,0.6927935000000001,0.9001935,-0.031828,1.3511535,0.9661735,-0.07757,0.9263255,0.0016314999999999,0.0001089999999999,1.0736745,-0.0016315,-0.000109,0.8950735,-0.3812465,0.0438919999999999,1.1054835,-0.3731165,0.0264109999999999,0.8844635,-0.7144765,0.073999,1.1190535,-0.7228665,0.065678,1
82,1.0144244999999998,0.7241230000000001,0.052375,0.8403145,0.529083,0.036777,0.7293545,0.708773,-0.014315,1.1718045,0.537463,0.012395,1.2838045,0.734743,-0.0534939999999999,0.6929045,0.9000130000000001,-0.0328769999999999,1.3511045,0.966003,-0.078828,0.9263245,0.0016289999999999,0.0001029999999999,1.0736755,-0.001629,-0.0001029999999999,0.8950745,-0.381127,0.043936,1.1055345,-0.372897,0.026361,0.8844645,-0.714797,0.074002,1.1190045,-0.722727,0.065716,1
83,1.0143965,0.7241854999999999,0.0520334999999999,0.8412645,0.5288255,0.0357385,0.7295145000000001,0.7093055,-0.0151294999999999,1.1719045,0.5374355,0.0121215,1.2837845,0.7344755,-0.0542005,0.6930745,0.8998455,-0.0340785,1.3509845,0.9659455,-0.0799625,0.9263245,0.0016395,9.549999999999836e-05,1.0736755,-0.0016394999999999,-9.549999999999836e-05,0.8950745,-0.3810445,0.0439815,1.1055945,-0.3726144999999999,0.0263025,0.8844645,-0.7151945000000001,0.0740075,1.1189844999999998,-0.7225945,0.0657365,1
84,1.0143855,0.724241,0.051692,0.8423215,0.528491,0.034598,0.7296915000000002,0.709871,-0.015948,1.1719715,0.5373910000000001,0.0118669999999999,1.2837615,0.7342810000000001,-0.054874,0.6933615,0.899671,-0.0352409999999999,1.3507415,0.965891,-0.080919,0.9263205,0.001652,9.20000000000018e-05,1.0736795,-0.001652,-9.20000000000018e-05,0.8950615000000001,-0.380959,0.044031,1.1056315,-0.372399,0.0262659999999999,0.8844615000000001,-0.715509,0.074013,1.1189515,-0.722469,0.065753,1
85,1.0143685,0.7242875,0.05137,0.8429615,0.5284374999999999,0.033893,0.7298215,0.7104375,-0.0165579999999999,1.1720315,0.5373775000000001,0.01168,1.2837315,0.7342175,-0.055348,0.6937015,0.8995275,-0.036112,1.3502515,0.9657475,-0.081481,0.9263125,0.0016684999999999,9.10000000000008e-05,1.0736875,-0.0016685,-9.10000000000008e-05,0.8950415,-0.3808525,0.044084,1.1056615,-0.3721825,0.026234,0.8844615,-0.7158125,0.073997,1.1189315,-0.7224025000000001,0.065777,1
86,1.0143615,0.7243305,0.0510475,0.8435005000000001,0.5284004999999999,0.0333035,0.7299405,0.7110505,-0.0171754999999999,1.1720505,0.5373605,0.0114985,1.2837105,0.7341805,-0.0557524999999999,0.6940705,0.8994205,-0.0368675,1.3498405,0.9656105,-0.0818735,0.9263005,0.0016815,8.750000000000424e-05,1.0736995,-0.0016815,-8.74999999999973e-05,0.8950205,-0.3807195,0.0441335,1.1057005,-0.3719195,0.0261745,0.8844605,-0.7160495,0.0739895,1.1189205,-0.7223495,0.0657955,1
87,1.0143555,0.724372,0.0507245,0.8437795000000001,0.528362,0.0330015,0.7300694999999999,0.711582,-0.0176274999999999,1.1720695,0.5373420000000001,0.0113464999999999,1.2836295,0.7341420000000001,-0.0561184999999999,0.6944395,0.899352,-0.0375265,1.3494595,0.965772,-0.0822175,0.9262885,0.001694,8.249999999999924e-05,1.0737115,-0.001694,-8.249999999999924e-05,0.8949995,-0.380598,0.0441845,1.1057395,-0.371678,0.0261185,0.8844595000000001,-0.716318,0.0740125,1.1188995,-0.722298,0.0658335,1
88,1.014349,0.7243900000000001,0.0504405,0.844037,0.52834,0.0327034999999999,0.7301770000000001,0.71207,-0.0180315,1.1720769999999998,0.53732,0.0112095,1.283547,0.7341,-0.0564584999999999,0.6947369999999999,0.89943,-0.0381435,1.349097,0.96603,-0.0825415,0.926278,0.0017169999999999,7.650000000000018e-05,1.073722,-0.0017169999999999,-7.650000000000018e-05,0.894987,-0.38049,0.0442335,1.105767,-0.37148,0.0260714999999999,0.884457,-0.71628,0.0740385,1.118887,-0.7222299999999999,0.0658705,1
89,1.0143425,0.7244280000000001,0.0501765,0.8443845,0.528288,0.0322875,0.7302545,0.712528,-0.0184235,1.1720745,0.537308,0.0110884999999999,1.2834545,0.7341880000000001,-0.0567434999999999,0.6950045,0.899508,-0.0386835,1.3487845,0.966398,-0.0827855,0.9262685,0.0017329999999999,6.849999999999912e-05,1.0737315,-0.0017329999999999,-6.849999999999912e-05,0.8949644999999999,-0.380382,0.0442805,1.1057945,-0.3712919999999999,0.0260194999999999,0.8844545,-0.716272,0.0740625,1.1189045,-0.722202,0.0659194999999999,1
90,1.014338,0.7244309999999999,0.0499745,0.844672,0.528381,0.0319275,0.7302919999999999,0.712901,-0.0187275,1.172072,0.537291,0.0109814999999999,1.283382,0.7342409999999999,-0.0569045,0.6952020000000001,0.8994709999999999,-0.0391015,1.348532,0.966561,-0.0830195,0.926257,0.0017469999999999,5.7499999999995055e-05,1.073743,-0.0017469999999999,-5.7500000000002e-05,0.894952,-0.380419,0.0443145,1.105822,-0.371139,0.0259594999999999,0.884432,-0.7164590000000001,0.0740685,1.118912,-0.722219,0.0659625,1
91,1.0143225,0.724429,0.04977,0.8447655000000001,0.528429,0.031754,0.7303055,0.713229,-0.0190119999999999,1.1720855,0.5372790000000001,0.010882,1.2833155,0.734279,-0.0570539999999999,0.6952955000000001,0.899449,-0.0395009999999999,1.3482555,0.966809,-0.083323,0.9262495,0.0017589999999999,4.600000000000437e-05,1.0737505,-0.001759,-4.599999999999743e-05,0.8949355,-0.380471,0.044331,1.1058555,-0.371001,0.025896,0.8844255,-0.716711,0.07406,1.1189155,-0.7222609999999999,0.066005,1
92,1.0143125,0.7244275,0.049617,0.8447475,0.5284675000000001,0.031749,0.7302975,0.7134975,-0.019248,1.1720875,0.5372675,0.0107939999999999,1.2832375,0.7343175000000001,-0.057232,0.6953475,0.8994275,-0.039815,1.3479975,0.9667575,-0.083578,0.9262465,0.0017685,3.999999999999837e-05,1.0737535,-0.0017684999999999,-3.999999999999837e-05,0.8949275,-0.3805225,0.044327,1.1058875,-0.3709325,0.025832,0.8844275,-0.7169225,0.074031,1.1188975,-0.7223124999999999,0.066051,1
93,1.014312,0.7244200000000001,0.049467,0.844853,0.5284800000000001,0.03159,0.730273,0.7137300000000001,-0.019481,1.172143,0.5373,0.010704,1.283203,0.73434,-0.0573869999999999,0.695323,0.89936,-0.04013,1.347763,0.96669,-0.08383,0.926245,0.001783,3.500000000000031e-05,1.073755,-0.0017829999999999,-3.500000000000031e-05,0.894903,-0.38063,0.044316,1.105933,-0.37092,0.025778,0.884423,-0.71722,0.0740089999999999,1.118903,-0.7223799999999999,0.066083,1
94,1.0143245,0.724408,0.049357,0.8449485,0.528578,0.031431,0.7302485000000001,0.713928,-0.0197059999999999,1.1721985,0.537358,0.010629,1.2831685,0.7343580000000001,-0.057531,0.6952985,0.899378,-0.0404819999999999,1.3475485,0.966608,-0.084051,0.9262445,0.0017999999999999,2.3000000000002185e-05,1.0737555,-0.0017999999999999,-2.2999999999995246e-05,0.8948785000000001,-0.3807419999999999,0.044305,1.1059585,-0.371002,0.025722,0.8844385,-0.717442,0.073995,1.1189285,-0.722502,0.06607,1
95,1.0143675,0.7243695,0.0492755,0.8448485,0.5287795,0.0314505,0.7302385,0.7140595,-0.0199045,1.1722685,0.5373895,0.0105545,1.2831385,0.7343295,-0.0576715,0.6952785,0.8993695,-0.0408145,1.3473485,0.9664895,-0.0843054999999999,0.9262505,0.0018284999999999,8.500000000001562e-06,1.0737495,-0.0018285,-8.499999999994623e-06,0.8948485,-0.3808605,0.0442915,1.1059785,-0.3711205,0.0256895,0.8844585000000001,-0.7176805,0.0739575,1.1189385,-0.7226605,0.0660545,1
96,1.01442,0.7243425000000001,0.0492335,0.844662,0.5289925,0.0315445,0.730202,0.7141824999999999,-0.0201364999999999,1.172342,0.5374125000000001,0.0105195,1.283112,0.7343025000000001,-0.0577975,0.695242,0.8994925,-0.0411835,1.347192,0.9663725,-0.0845195,0.926256,0.0018535,-4.4999999999975615e-06,1.073744,-0.0018534999999999,4.5000000000045e-06,0.894832,-0.3809875,0.0442725,1.1059819999999998,-0.3712375,0.0256585,0.884482,-0.7179275,0.0739185,1.118932,-0.7228475000000001,0.0660405,1
97,1.014465,0.7243375,0.049197,0.844647,0.5290475,0.031519,0.730117,0.7143174999999999,-0.0204489999999999,1.172387,0.5374475,0.010492,1.283067,0.7342775,-0.0579259999999999,0.695137,0.8996675,-0.04152,1.347057,0.9662575,-0.084685,0.92626,0.0018795,-1.1999999999998123e-05,1.07374,-0.0018794999999999,1.2000000000005062e-05,0.894777,-0.3811325,0.044142,1.105967,-0.3714625,0.025577,0.884527,-0.7181625,0.07386,1.118917,-0.7230125000000001,0.065997,1
98,1.0145105,0.724353,0.0491345,0.8445945,0.529123,0.0314775,0.7300245000000001,0.714383,-0.0207795,1.1724145,0.537463,0.0104304999999999,1.2830445,0.7342629999999999,-0.0580814999999999,0.6949945,0.899823,-0.0419095,1.3469445,0.9661229999999998,-0.0848955,0.9262595,0.0019119999999999,-2.3500000000002685e-05,1.0737405,-0.0019119999999999,2.3500000000002685e-05,0.8946945,-0.381297,0.0438895,1.1059545,-0.371797,0.0254345,0.8845745,-0.718377,0.0737585,1.1189045,-0.7231970000000001,0.0658855,1
99,1.0145325,0.724442,0.0490164999999999,0.8445905000000001,0.529142,0.0313604999999999,0.7299405,0.7145020000000001,-0.0211935,1.1724205,0.537512,0.0103124999999999,1.2830205,0.734272,-0.0582885,0.6948505,0.900012,-0.0424115,1.3468305,0.966122,-0.0851725,0.9262595,0.001897,-1.6500000000002624e-05,1.0737405,-0.0018969999999999,1.6499999999995685e-05,0.8945705,-0.3814379999999999,0.0435044999999999,1.1059405,-0.372328,0.0250234999999999,0.8846705,-0.718498,0.0735025,1.1188505,-0.7235579999999999,0.0655505,1
100,1.014547,0.724571,0.048743,0.844584,0.529171,0.031054,0.7298440000000002,0.714621,-0.0217739999999999,1.172414,0.537571,0.010046,1.282994,0.734291,-0.058654,0.694714,0.900131,-0.043059,1.346764,0.966131,-0.085602,0.926262,0.001894,-2.2999999999995246e-05,1.073738,-0.0018939999999999,2.3000000000002185e-05,0.894424,-0.381569,0.042923,1.105864,-0.372949,0.024344,0.884754,-0.7187490000000001,0.073097,1.118784,-0.723929,0.065051,1
101,1.0145734999999998,0.724811,0.048256,0.8446994999999999,0.529171,0.030381,0.7297395,0.714851,-0.022621,1.1724395,0.537671,0.0095539999999999,1.2829994999999998,0.734391,-0.059236,0.6946295,0.900351,-0.043951,1.3467395,0.966331,-0.086266,0.9262715,0.001894,-2.8000000000000247e-05,1.0737285,-0.0018939999999999,2.8000000000000247e-05,0.8942395,-0.3816589999999999,0.042018,1.1056594999999998,-0.3739289999999999,0.0232509999999999,0.8848595,-0.7187990000000001,0.072393,1.1187295,-0.724249,0.064311,1
102,1.014609,0.7249709999999999,0.047517,0.844874,0.529171,0.0294619999999999,0.729714,0.714851,-0.023731,1.172474,0.537671,0.0088229999999999,1.283024,0.734521,-0.060063,0.6946140000000001,0.9005409999999999,-0.045087,1.346724,0.966231,-0.087168,0.926268,0.001894,1.0999999999997123e-05,1.073732,-0.0018939999999999,-1.1000000000004062e-05,0.893994,-0.381959,0.040697,1.105394,-0.375329,0.0216489999999999,0.884964,-0.7191890000000001,0.07113,1.118694,-0.724549,0.063262,1
103,1.01464,0.7249709999999999,0.0464925,0.845035,0.529081,0.0282764999999999,0.729735,0.714851,-0.0251045,1.172485,0.537671,0.0078324999999999,1.283045,0.734521,-0.0612054999999999,0.694635,0.9005409999999999,-0.0464885,1.346715,0.966131,-0.0883665,0.926204,0.001894,3.449999999999981e-05,1.073796,-0.0018939999999999,-3.449999999999981e-05,0.893545,-0.382479,0.0389054999999999,1.105055,-0.3770989999999999,0.0195254999999999,0.8850850000000001,-0.7197990000000001,0.0694525,1.118645,-0.7248490000000001,0.0618325,1
104,1.014682,0.7250264999999999,0.045047,0.8452140000000001,0.5284264999999999,0.026712,0.7297640000000001,0.7149065,-0.0269239999999999,1.172464,0.5377265,0.006439,1.283074,0.7345765,-0.062805,0.694654,0.9005964999999999,-0.048345,1.346724,0.9661865,-0.090027,0.926111,0.0018775,8.600000000000274e-05,1.073889,-0.0018775,-8.59999999999958e-05,0.8929940000000001,-0.3830535,0.036549,1.104764,-0.3788634999999999,0.016756,0.885214,-0.7204335000000001,0.067267,1.118554,-0.7251635000000001,0.059898,1
105,1.014759,0.7252615,0.04327,0.845484,0.5276615,0.024784,0.7298340000000001,0.7148114999999999,-0.029046,1.172424,0.5379115000000001,0.0047229999999999,1.283114,0.7348115,-0.06477,0.694724,0.9008315,-0.050614,1.346764,0.9662214999999998,-0.092235,0.92596,0.0018174999999999,0.0001149999999999,1.07404,-0.0018174999999999,-0.000115,0.892304,-0.3832985,0.033562,1.104604,-0.3805785,0.01321,0.885374,-0.7209485,0.064648,1.118374,-0.7256285,0.0572649999999999,1
106,1.0148175,0.7252479999999999,0.0405675,0.8458095,0.526548,0.0219245,0.7299895000000001,0.7144680000000001,-0.0321635,1.1723595,0.538198,0.0021115,1.2830595,0.7351780000000001,-0.0677305,0.6950695,0.900918,-0.0540725,1.3467995,0.966518,-0.0954845,0.9257935,0.0016749999999999,7.850000000000218e-05,1.0742065,-0.0016749999999999,-7.849999999999871e-05,0.8914095,-0.383012,0.0291335,1.1045195,-0.382112,0.0080315,0.8855595,-0.7210920000000001,0.0607565,1.1181495,-0.726072,0.0535375,1
107,1.014918,0.7249909999999999,0.037455,0.8461230000000001,0.525401,0.018467,0.730273,0.7138709999999999,-0.03592,1.172293,0.5385310000000001,-0.0010159999999999,1.282983,0.7354510000000001,-0.071173,0.695523,0.901201,-0.0581069999999999,1.346853,0.967171,-0.099103,0.925574,0.0015029999999999,-3.899999999999737e-05,1.074426,-0.001503,3.900000000000084e-05,0.890503,-0.382799,0.02401,1.104513,-0.383349,0.00198,0.885733,-0.720899,0.056213,1.118073,-0.726399,0.049106,1
108,1.015011,0.724192,0.0339729999999999,0.846396,0.524142,0.0145289999999999,0.730746,0.712792,-0.040254,1.172196,0.538912,-0.004588,1.282826,0.735382,-0.075137,0.696056,0.901662,-0.062652,1.346876,0.968142,-0.103445,0.925346,0.0013249999999999,-0.000216,1.074654,-0.001325,0.0002159999999999,0.889516,-0.3822879999999999,0.018035,1.104486,-0.384418,-0.004769,0.885776,-0.720408,0.050959,1.118056,-0.726448,0.044112,1
109,1.0151659999999998,0.7230800000000001,0.030014,0.846996,0.52281,0.01005,0.731366,0.7115900000000001,-0.045252,1.172176,0.53829,-0.007995,1.282676,0.73509,-0.0796429999999999,0.696906,0.90226,-0.067894,1.346816,0.96939,-0.108271,0.925144,0.0011459999999999,-0.000268,1.074856,-0.0011459999999999,0.0002679999999999,0.888406,-0.38117,0.0108979999999999,1.104486,-0.38518,-0.012502,0.885846,-0.71924,0.045072,1.1180759999999998,-0.72598,0.038342,1
110,1.0152595,0.72112,0.024995,0.8475395,0.52192,0.004265,0.7321095,0.7103700000000001,-0.051811,1.1720795,0.53901,-0.012729,1.2820995,0.7329600000000001,-0.085266,0.6979095,0.90368,-0.0745909999999999,1.3459295,0.96901,-0.114422,0.9249635,0.001141,-0.0004699999999999,1.0750365,-0.0011409999999999,0.0004699999999999,0.8866795000000001,-0.37843,0.001641,1.1044094999999998,-0.38477,-0.02246,0.8858495,-0.7166,0.0377249999999999,1.1180295,-0.7247899999999999,0.031024,1
111,1.0155485,0.7193130000000001,0.019533,0.8483305,0.5219130000000001,-0.0019049999999999,0.7331105,0.709563,-0.058955,1.1720905,0.535583,-0.016963,1.2817205,0.731723,-0.091317,0.6992805,0.905953,-0.082169,1.3452105,0.965703,-0.121424,0.9245845,0.001301,-0.000622,1.0754155,-0.0013009999999999,0.000622,0.8846105,-0.374287,-0.008518,1.1045505,-0.383177,-0.033404,0.8860304999999999,-0.7122269999999999,0.030153,1.1181605,-0.722387,0.0230189999999999,1
112,1.015965,0.717638,0.0139055,0.850024,0.518328,-0.0080715,0.7343740000000001,0.7089979999999999,-0.0663115,1.172194,0.533388,-0.0214065,1.281454,0.7311479999999999,-0.0975475,0.7008639999999999,0.909658,-0.0900265,1.344594,0.964118,-0.1285045,0.924131,0.001457,-0.0007954999999999,1.075869,-0.001457,0.0007955,0.882294,-0.369232,-0.0193974999999999,1.104884,-0.3797419999999999,-0.0449435,0.886294,-0.7061320000000001,0.0224795,1.118434,-0.718322,0.0146965,1
113,1.016433,0.7158765,0.008351,0.851729,0.5167065,-0.014296,0.735849,0.7081365,-0.07387,1.172329,0.5313365,-0.025906,1.281149,0.7304364999999999,-0.10377,0.703729,0.9087765,-0.098166,1.344069,0.9636865,-0.135372,0.923595,0.0016134999999999,-0.0008799999999999,1.076405,-0.0016135,0.00088,0.879969,-0.3629435,-0.030825,1.105549,-0.3753135,-0.0571,0.886659,-0.6990935,0.0145999999999999,1.118809,-0.7131535,0.006116,1
114,1.0168965,0.712912,0.0029759999999999,0.8533335000000001,0.5148520000000001,-0.020329,0.7371235,0.707042,-0.081432,1.1724435,0.5300419999999999,-0.030394,1.2807235,0.729012,-0.110046,0.7066535,0.907442,-0.106388,1.3434135,0.963822,-0.142096,0.9230995,0.001766,-0.0009149999999999,1.0769005,-0.0017659999999999,0.000915,0.8774535,-0.3560979999999999,-0.042664,1.1063335,-0.3701979999999999,-0.069538,0.8869835000000001,-0.691668,0.0062609999999999,1.1191635,-0.706958,-0.0025939999999999,1
115,1.0175175,0.7103685,-0.001834,0.8550555,0.5130585,-0.025571,0.7383655,0.7063185,-0.088294,1.1727655,0.5269185,-0.03396,1.2805355,0.7283085,-0.115759,0.7094155,0.9067185,-0.113988,1.3429355,0.9644985,-0.148591,0.9225455,0.0021604999999999,-0.000943,1.0774545,-0.0021604999999999,0.0009429999999999,0.8749855,-0.3485615,-0.054146,1.1073855,-0.3636815,-0.081174,0.8875755,-0.6831415000000001,-0.001372,1.1196955,-0.6991015,-0.010809,1
116,1.0181535,0.7075929999999999,-0.0066409999999999,0.8567885,0.5107729999999999,-0.0305329999999999,0.7395985,0.7053029999999999,-0.095013,1.1730485,0.524183,-0.037368,1.2803785,0.7270329999999999,-0.121283,0.7121485000000001,0.906353,-0.121679,1.3422285,0.964533,-0.154976,0.9220265,0.002464,-0.0008269999999999,1.0779735,-0.0024639999999999,0.000827,0.8724285,-0.340257,-0.065902,1.1084685,-0.356917,-0.093356,0.8880985,-0.673837,-0.0090699999999999,1.1202785,-0.689987,-0.019004,1
117,1.0187535,0.705661,-0.011444,0.8584965,0.509091,-0.035383,0.7407465,0.704631,-0.1016229999999999,1.1730865,0.520111,-0.040926,1.2803565,0.726021,-0.1265399999999999,0.7147465,0.906751,-0.129365,1.3414665,0.964281,-0.161238,0.9213895,0.0028539999999999,-0.0007239999999999,1.0786105,-0.0028539999999999,0.000724,0.8700365,-0.330929,-0.07761,1.1096265,-0.348719,-0.105541,0.8887665,-0.663289,-0.0165109999999999,1.1210665,-0.679219,-0.0270209999999999,1
118,1.019408,0.7038215,-0.015923,0.859998,0.5070115,-0.039893,0.742058,0.7042615,-0.107885,1.173248,0.5173615,-0.044842,1.280508,0.7253615,-0.131856,0.717158,0.9079115,-0.136898,1.340938,0.9610515,-0.167334,0.920865,0.0032624999999999,-0.0006909999999999,1.079135,-0.0032625,0.000691,0.8679380000000001,-0.3211785,-0.0892449999999999,1.110888,-0.3396585,-0.117335,0.8894880000000001,-0.6518885,-0.023829,1.121978,-0.6673185,-0.034499,1
119,1.0201375,0.7015899999999999,-0.0192685,0.8613115,0.5045499999999999,-0.0430475,0.7434615,0.70275,-0.1125345,1.1735915,0.51423,-0.0474225,1.2811815,0.7255699999999999,-0.1357845,0.7198614999999999,0.90837,-0.1431105,1.3412815,0.95973,-0.1721705,0.9202995,0.0034219999999999,-0.0004875,1.0797005,-0.0034219999999999,0.0004874999999999,0.8665715,-0.31274,-0.0991785,1.1122715,-0.33124,-0.1272565,0.8903415000000001,-0.64124,-0.0299305,1.1230615,-0.65525,-0.0404125,1
120,1.0206845,0.699912,-0.022204,0.8624575,0.500622,-0.045839,0.7446775,0.701792,-0.116755,1.1735175,0.512682,-0.050891,1.2814775,0.724542,-0.138781,0.7222575,0.909892,-0.148889,1.3414875,0.961742,-0.176719,0.9199585,0.003513,-0.0005129999999999,1.0800415,-0.0035129999999999,0.0005129999999999,0.8655575,-0.3020779999999999,-0.108916,1.1135975,-0.3193279999999999,-0.136264,0.8911275,-0.629738,-0.035637,1.1240074999999998,-0.642088,-0.045737,1
121,1.0210905,0.6974595,-0.025038,0.8637565,0.5003695,-0.048512,0.7459065,0.6997095,-0.120779,1.1733765,0.5108195,-0.054006,1.2814865,0.7231195,-0.14163,0.7244965,0.9106495,-0.154634,1.3416265,0.9611795,-0.181174,0.9196755,0.0035825,-0.0003999999999999,1.0803245,-0.0035825,0.0003999999999999,0.8648365,-0.2912105,-0.118349,1.1149565,-0.3075505,-0.144799,0.8918965,-0.6185705,-0.041095,1.1248865,-0.6291505000000001,-0.050571,1
122,1.0212255,0.6950189999999999,-0.032566,0.8650085000000001,0.4983889999999999,-0.05616,0.7469785,0.698699,-0.129484,1.1731185,0.508859,-0.06176,1.2813385,0.7217089999999999,-0.14925,0.7258585,0.912709,-0.164866,1.3410985,0.957959,-0.190326,0.9195875,0.0036559999999999,-0.000279,1.0804125,-0.003656,0.000279,0.8634985,-0.277171,-0.133377,1.1162685,-0.292371,-0.158126,0.8925885,-0.6037910000000001,-0.051097,1.1254585,-0.612511,-0.059974,1
123,1.0213765,0.6964205,-0.0413235,0.8660665,0.4976705,-0.0649515,0.7482265,0.7003505,-0.1392855,1.1717965,0.5042504999999999,-0.0705465,1.2806165,0.7203404999999999,-0.1578385,0.7273765,0.9185505,-0.1759385,1.3403865,0.9566605,-0.2001985,0.9194735,0.0037294999999999,0.0001715,1.0805265,-0.0037294999999999,-0.0001715,0.8609964999999999,-0.2600895,-0.1530935,1.1187565,-0.2742695,-0.1758085,0.8933365,-0.5851095000000001,-0.0616795,1.1260065,-0.5925295,-0.0700185,1
124,1.021254,0.69773,-0.049918,0.8665260000000001,0.49576,-0.073591,0.749226,0.70078,-0.149132,1.170266,0.5022599999999999,-0.079208,1.279726,0.71729,-0.166548,0.728676,0.91858,-0.187115,1.339436,0.95376,-0.209975,0.919416,0.00359,0.0006169999999999,1.080584,-0.0035899999999999,-0.000617,0.8587060000000001,-0.24318,-0.172104,1.121146,-0.25686,-0.1931149999999999,0.8939360000000001,-0.5669,-0.072035,1.126366,-0.57324,-0.079728,1
125,1.0212835,0.6985300000000001,-0.0583834999999999,0.8671555,0.49493,-0.0820785,0.7501655,0.70225,-0.1592605,1.1687955,0.50072,-0.0877734999999999,1.2785255,0.7169399999999999,-0.1752405,0.7302655,0.9199,-0.1981224999999999,1.3387455,0.95325,-0.2198325,0.9193355,0.0035899999999999,0.0008065,1.0806645,-0.00359,-0.0008065,0.8566155,-0.22463,-0.1913225,1.1235855,-0.23765,-0.2099125,0.8946155,-0.54704,-0.0821055,1.1266554999999998,-0.55274,-0.0890765,1
126,1.021551,0.698485,-0.0665965,0.867713,0.493385,-0.0903825,0.7510130000000002,0.7034150000000001,-0.1691935,1.167383,0.498085,-0.0965045,1.277023,0.714855,-0.1837925,0.731813,0.920075,-0.2090125,1.337903,0.950765,-0.2300925,0.919473,0.003605,0.0010614999999999,1.080527,-0.0036049999999999,-0.0010615,0.854603,-0.2058749999999999,-0.2102225,1.125983,-0.2182949999999999,-0.2262425,0.895273,-0.5269649999999999,-0.0917785,1.1268729999999998,-0.5322849999999999,-0.0979275,1
127,1.021581,0.698495,-0.074942,0.8678250000000001,0.492515,-0.099185,0.751565,0.704095,-0.1793159999999999,1.165525,0.495945,-0.1057529999999999,1.275255,0.713215,-0.1925369999999999,0.7328950000000001,0.919925,-0.220108,1.336695,0.951715,-0.240058,0.919569,0.003675,0.001297,1.080431,-0.0036749999999999,-0.0012969999999999,0.8521850000000001,-0.1864949999999999,-0.228518,1.1279549999999998,-0.198915,-0.242398,0.895475,-0.506375,-0.1012169999999999,1.126455,-0.511885,-0.1068219999999999,1
128,1.021489,0.6992849999999999,-0.0835829999999999,0.86781,0.491375,-0.108481,0.75204,0.7052849999999999,-0.1896229999999999,1.16362,0.492785,-0.1153039999999999,1.27307,0.712675,-0.201554,0.7338899999999999,0.920945,-0.23119,1.3353,0.951405,-0.25049,0.919803,0.0036549999999999,0.0015399999999999,1.080197,-0.0036549999999999,-0.0015399999999999,0.84958,-0.166065,-0.2467,1.12973,-0.178695,-0.25838,0.89543,-0.484485,-0.110568,1.12576,-0.490455,-0.115843,1
129,1.021439,0.69921,-0.092109,0.867938,0.49111,-0.117819,0.752718,0.70617,-0.1999079999999999,1.161908,0.4925,-0.1246019999999999,1.271318,0.71266,-0.210488,0.735168,0.92134,-0.24194,1.333808,0.95153,-0.2606699999999999,0.919942,0.0035199999999999,0.00184,1.080058,-0.0035199999999999,-0.0018399999999999,0.847428,-0.14637,-0.26422,1.131608,-0.15861,-0.2741599999999999,0.895508,-0.4630000000000001,-0.1198969999999999,1.125128,-0.46955,-0.1246849999999999,1
130,1.0212835,0.69955,-0.101138,0.8680415,0.48868,-0.126989,0.7535915,0.70667,-0.21005,1.1601315,0.49199,-0.133813,1.2695315,0.7129300000000001,-0.21961,0.7364415,0.92191,-0.252585,1.3320615,0.9506,-0.270985,0.9200515,0.0031,0.0020249999999999,1.0799485,-0.0030999999999999,-0.0020249999999999,0.8455915,-0.1264599999999999,-0.281285,1.1334615,-0.1388399999999999,-0.289555,0.8955415,-0.44134,-0.129278,1.1245115,-0.44859,-0.133412,1
131,1.021162,0.6989650000000001,-0.105083,0.868167,0.4874849999999999,-0.131195,0.754417,0.704255,-0.2150099999999999,1.158417,0.491105,-0.137977,1.268407,0.713165,-0.223758,0.737377,0.919215,-0.259125,1.330827,0.951585,-0.276165,0.920055,0.0028549999999999,0.002115,1.079945,-0.0028549999999999,-0.0021149999999999,0.844577,-0.109545,-0.291985,1.135347,-0.121685,-0.299335,0.895777,-0.4225649999999999,-0.133909,1.123947,-0.4303949999999999,-0.136893,1
132,1.0212155,0.696155,-0.107748,0.8684605,0.4857249999999999,-0.133906,0.7549605,0.701645,-0.218576,1.1579205,0.489405,-0.140364,1.2680305,0.711055,-0.2266639999999999,0.7381705000000001,0.915435,-0.26434,1.3299605,0.948605,-0.2802099999999999,0.9200465,0.0029049999999999,0.0018799999999999,1.0799535,-0.0029049999999999,-0.0018799999999999,0.8443905,-0.093905,-0.29718,1.1361805,-0.106095,-0.3041,0.8962805000000001,-0.405755,-0.137178,1.1236105,-0.413925,-0.139011,1
133,1.021119,0.69276,-0.11001,0.868835,0.48526,-0.136303,0.7554450000000001,0.70056,-0.22191,1.157325,0.4876,-0.142292,1.267415,0.71082,-0.228416,0.738815,0.91861,-0.2688,1.328935,0.94744,-0.28368,0.920137,0.0029599999999999,0.0015699999999999,1.079863,-0.00296,-0.00157,0.844115,-0.07732,-0.30189,1.136955,-0.08907,-0.3083,0.8967849999999999,-0.3883,-0.140069,1.123295,-0.3967,-0.140727,1
134,1.020711,0.69041,-0.1118219999999999,0.8687549999999999,0.4837499999999999,-0.1379709999999999,0.755495,0.6984899999999999,-0.2246039999999999,1.156485,0.4854799999999999,-0.143721,1.266915,0.7088399999999999,-0.229769,0.7388049999999999,0.92084,-0.27293,1.327645,0.94465,-0.2865299999999999,0.920088,0.0027999999999999,0.00152,1.079912,-0.0028,-0.0015199999999999,0.843615,-0.06002,-0.30528,1.1374449999999998,-0.07143,-0.31167,0.897055,-0.37157,-0.142445,1.122845,-0.38014,-0.1421269999999999,1
135,1.0202865,0.68754,-0.1134029999999999,0.8684535,0.4815399999999999,-0.1393339999999999,0.7556435,0.69624,-0.2274459999999999,1.1557735,0.4847,-0.1448549999999999,1.2664835,0.7076899999999999,-0.231414,0.7387235,0.91737,-0.277175,1.3265535,0.94258,-0.288755,0.9202005,0.0027099999999999,0.001465,1.0797995,-0.0027099999999999,-0.0014649999999999,0.8440535,-0.04669,-0.3078349999999999,1.1380835,-0.0583199999999999,-0.314075,0.8974035,-0.35439,-0.14361,1.1224035,-0.36417,-0.1436029999999999,1
136,1.020025,0.686815,-0.1144169999999999,0.8681989999999999,0.480805,-0.14009,0.7556590000000001,0.695835,-0.229623,1.155339,0.485035,-0.1456049999999999,1.265719,0.707045,-0.23258,0.738739,0.916505,-0.28054,1.325339,0.942055,-0.29054,0.920334,0.002305,0.0014099999999999,1.079666,-0.002305,-0.0014099999999999,0.844739,-0.0312149999999999,-0.30948,1.138899,-0.0435149999999999,-0.31559,0.897819,-0.336555,-0.145575,1.122039,-0.3458849999999999,-0.1448009999999999,1
137,1.019799,0.68452,-0.114868,0.867984,0.480288,-0.140505,0.755634,0.69508,-0.231393,1.154924,0.48473,-0.146013,1.265384,0.70625,-0.2331849999999999,0.738684,0.91274,-0.283575,1.324194,0.93888,-0.2915149999999999,0.92041,0.00213,0.001335,1.07959,-0.00213,-0.001335,0.845504,-0.01743,-0.3101549999999999,1.139734,-0.03064,-0.316285,0.898284,-0.32059,-0.147175,1.121764,-0.3293,-0.145665,1
138,1.0195424999999998,0.68384,-0.115208,0.8677295,0.479476,-0.14079,0.7556195000000001,0.69478,-0.232689,1.1544295,0.484591,-0.145861,1.2654295,0.70614,-0.23348,0.7383394999999999,0.9094,-0.2863,1.3232395,0.93783,-0.29222,0.9203465,0.00201,0.0013499999999999,1.0796534999999998,-0.00201,-0.0013499999999999,0.8464495,-0.0018299999999999,-0.31049,1.1404395,-0.01579,-0.31661,0.8986594999999999,-0.30299,-0.148563,1.1214895,-0.31098,-0.146429,1
139,1.0195329999999998,0.682795,-0.115483,0.86772,0.480853,-0.140866,0.75559,0.695195,-0.233765,1.15403,0.48353,-0.145488,1.26501,0.704985,-0.233735,0.7382500000000001,0.903435,-0.288595,1.32262,0.938105,-0.292475,0.920348,0.002195,0.0014049999999999,1.079652,-0.002195,-0.0014049999999999,0.84767,0.0136649999999999,-0.310805,1.14122,-0.001035,-0.316905,0.89919,-0.285815,-0.149633,1.12158,-0.293055,-0.147454,1
140,1.019336,0.682445,-0.115556,0.867427,0.4822059999999999,-0.140528,0.755567,0.697355,-0.234385,1.153547,0.4827459999999999,-0.144783,1.265007,0.703645,-0.233815,0.7382070000000001,0.905485,-0.289725,1.321997,0.938185,-0.292525,0.920351,0.0024449999999999,0.0014849999999999,1.079649,-0.002445,-0.001485,0.848787,0.0288049999999999,-0.310925,1.141817,0.0135349999999999,-0.317015,0.899647,-0.268805,-0.149731,1.121767,-0.275615,-0.148501,1
141,1.0189264999999998,0.6809700000000001,-0.115461,0.8671385,0.483277,-0.139847,0.7557885,0.69676,-0.234345,1.1529585,0.484759,-0.143829,1.2647784999999998,0.7052700000000001,-0.233465,0.7376685000000001,0.90595,-0.291325,1.3214685,0.93996,-0.292455,0.9203495,0.00247,0.0014349999999999,1.0796505,-0.0024699999999999,-0.0014349999999999,0.8496684999999999,0.0425,-0.310625,1.1423085,0.02689,-0.316745,0.8999085,-0.25283,-0.14969,1.1219985,-0.2597999999999999,-0.149243,1
142,1.018582,0.68043,-0.114612,0.8670640000000001,0.484792,-0.139091,0.755734,0.6958,-0.234405,1.1525439999999998,0.485157,-0.142547,1.264154,0.7009799999999999,-0.2310539999999999,0.7374240000000001,0.90581,-0.291585,1.321284,0.93659,-0.291505,0.920271,0.00274,0.0014349999999999,1.079729,-0.00274,-0.0014349999999999,0.850364,0.0557699999999999,-0.309695,1.142954,0.0396099999999999,-0.316045,0.900304,-0.23776,-0.149667,1.122424,-0.24481,-0.150011,1
143,1.0182004999999998,0.68023,-0.113527,0.8670585,0.487342,-0.138218,0.7559285,0.69555,-0.23429,1.1522985,0.484685,-0.140796,1.2639685,0.69758,-0.228525,0.7374285,0.90543,-0.29146,1.3212185,0.93393,-0.2903799999999999,0.9201105,0.0033299999999999,0.0015,1.0798895,-0.0033299999999999,-0.0015,0.8509185,0.06854,-0.3083599999999999,1.1437285,0.05196,-0.31479,0.9012085,-0.22342,-0.149043,1.1230085,-0.2305499999999999,-0.150663,1
144,1.017866,0.68285,-0.111006,0.8671440000000001,0.488944,-0.135536,0.756154,0.69721,-0.2332199999999999,1.152214,0.488262,-0.138003,1.263854,0.69852,-0.225146,0.737514,0.9138,-0.29039,1.321364,0.93548,-0.288,0.919913,0.00269,0.00139,1.0800869999999998,-0.0026899999999999,-0.00139,0.851504,0.08421,-0.30512,1.144564,0.0674,-0.31189,0.902354,-0.2062399999999999,-0.146468,1.123624,-0.2136799999999999,-0.150304,1
145,1.01754,0.68254,-0.107981,0.867302,0.489302,-0.132659,0.756192,0.6973,-0.23167,1.152252,0.489262,-0.134787,1.264062,0.6985100000000001,-0.221897,0.737582,0.91319,-0.2891,1.321792,0.93452,-0.2858,0.919773,0.00253,0.00142,1.0802269999999998,-0.0025299999999999,-0.00142,0.852182,0.09668,-0.30149,1.145432,0.08,-0.3087,0.903652,-0.1923399999999999,-0.143358,1.1243519999999998,-0.2002699999999999,-0.149656,1
146,1.0174145,0.683395,-0.10468,0.8677535000000001,0.489721,-0.129792,0.7563135,0.698065,-0.229745,1.1526635,0.490742,-0.131564,1.2642735,0.698095,-0.21893,0.7378135,0.914305,-0.287785,1.3223435,0.936365,-0.283845,0.9196915,0.002375,0.0014149999999999,1.0803085,-0.002375,-0.0014149999999999,0.8531135000000001,0.109305,-0.297765,1.1466435,0.093205,-0.305145,0.9052535,-0.1783049999999999,-0.13992,1.1253935,-0.186925,-0.148709,1
147,1.0173265,0.682385,-0.101524,0.8682065,0.490256,-0.127068,0.7561765000000001,0.697325,-0.227452,1.1531365,0.491357,-0.128494,1.2644365,0.696445,-0.216152,0.7379165000000001,0.913715,-0.28598,1.3227665,0.934595,-0.28201,0.9195115,0.002325,0.0014399999999999,1.0804885,-0.002325,-0.0014399999999999,0.8537665,0.118725,-0.29436,1.1479665,0.103105,-0.30202,0.9067065,-0.1676949999999999,-0.136439,1.1263265,-0.1769049999999999,-0.147523,1
148,1.017209,0.68152,-0.098567,0.868638,0.491106,-0.124683,0.7559480000000001,0.69737,-0.225351,1.153628,0.492535,-0.125789,1.264578,0.69536,-0.213748,0.737938,0.91525,-0.28439,1.323148,0.93274,-0.2804999999999999,0.919319,0.0023199999999999,0.00159,1.080681,-0.0023199999999999,-0.00159,0.854068,0.12773,-0.29109,1.149408,0.11242,-0.29891,0.908078,-0.15763,-0.133125,1.127188,-0.16746,-0.146391,1
149,1.0171365,0.6808099999999999,-0.095666,0.8689015,0.491482,-0.122292,0.7554615,0.6977099999999999,-0.223235,1.1541515,0.493695,-0.123055,1.2648715,0.6946,-0.211465,0.7377415,0.91536,-0.2826849999999999,1.3234415,0.93047,-0.2790749999999999,0.9192045,0.0021099999999999,0.0017149999999999,1.0807954999999998,-0.00211,-0.0017149999999999,0.8538915,0.13554,-0.287885,1.1506115,0.12045,-0.295845,0.9092915,-0.14881,-0.129743,1.1278315,-0.1593,-0.145222,1
150,1.017058,0.68079,-0.092448,0.869094,0.491899,-0.119647,0.754814,0.69904,-0.220895,1.154584,0.494702,-0.119962,1.265344,0.6937,-0.208961,0.737764,0.91481,-0.280655,1.323534,0.92806,-0.277485,0.919188,0.0018799999999999,0.001825,1.080812,-0.0018799999999999,-0.001825,0.853364,0.143,-0.284435,1.151874,0.1279799999999999,-0.292535,0.910394,-0.1405499999999999,-0.126032,1.128364,-0.15176,-0.143748,1
151,1.016965,0.6805549999999999,-0.0892399999999999,0.869251,0.4921419999999999,-0.1170519999999999,0.754051,0.700375,-0.218553,1.154911,0.4965769999999999,-0.117057,1.265621,0.697865,-0.207416,0.7376910000000001,0.913475,-0.27849,1.323441,0.929715,-0.27593,0.919217,0.0014449999999999,0.00188,1.080783,-0.001445,-0.0018799999999999,0.852731,0.1497349999999999,-0.28103,1.153041,0.1350549999999999,-0.28922,0.911391,-0.132995,-0.122308,1.128861,-0.144935,-0.142097,1
152,1.016935,0.6799850000000001,-0.0863599999999999,0.869372,0.491844,-0.114657,0.753162,0.700515,-0.215943,1.155172,0.498786,-0.1145829999999999,1.265842,0.700975,-0.2060509999999999,0.737582,0.911495,-0.2764149999999999,1.323302,0.930275,-0.274545,0.919231,0.000905,0.001835,1.080769,-0.0009049999999999,-0.0018349999999999,0.852132,0.155445,-0.277705,1.154112,0.141205,-0.286095,0.911832,-0.1266749999999999,-0.119694,1.129302,-0.1391749999999999,-0.140374,1
153,1.016853,0.6774549999999999,-0.08457,0.8694189999999999,0.493509,-0.113683,0.7521990000000001,0.6998449999999999,-0.214422,1.155439,0.49804,-0.112695,1.265849,0.7012849999999999,-0.205406,0.737259,0.907145,-0.27442,1.322989,0.928425,-0.27392,0.919269,0.0013549999999999,0.00193,1.080731,-0.0013549999999999,-0.00193,0.851359,0.1582949999999999,-0.27564,1.155029,0.1445949999999999,-0.28389,0.912019,-0.123745,-0.118341,1.129589,-0.136325,-0.139373,1
154,1.016794,0.675892,-0.083124,0.869417,0.4946560000000001,-0.11285,0.751477,0.699315,-0.213149,1.155727,0.497948,-0.111262,1.266267,0.7013550000000001,-0.205571,0.736977,0.908425,-0.27381,1.322987,0.926935,-0.27421,0.919269,0.001545,0.00193,1.080731,-0.0015449999999999,-0.00193,0.850707,0.1608650000000001,-0.27379,1.155807,0.147625,-0.28189,0.912067,-0.1213149999999999,-0.117377,1.129737,-0.1339249999999999,-0.138451,1
155,1.016754,0.675327,-0.082085,0.869417,0.495595,-0.112177,0.7508270000000001,0.6992550000000001,-0.212214,1.155947,0.497967,-0.110162,1.266527,0.701535,-0.205901,0.736767,0.909405,-0.273375,1.322967,0.926925,-0.274655,0.91927,0.001665,0.0019649999999999,1.08073,-0.0016649999999999,-0.001965,0.850267,0.163155,-0.272195,1.156497,0.150315,-0.280155,0.912087,-0.119305,-0.11684,1.129847,-0.1318749999999999,-0.137568,1
156,1.016593,0.6763549999999999,-0.081402,0.869289,0.4962059999999999,-0.111756,0.749969,0.7001099999999999,-0.211602,1.155929,0.4980839999999999,-0.109587,1.266389,0.7017799999999998,-0.206366,0.736359,0.9105299999999998,-0.27317,1.322339,0.92728,-0.27533,0.919299,0.0016699999999999,0.0019899999999999,1.080701,-0.00167,-0.00199,0.849869,0.1648799999999999,-0.27098,1.156849,0.1521799999999998,-0.27895,0.911979,-0.1178500000000001,-0.11657,1.129849,-0.1307100000000001,-0.136984,1
157,1.016381,0.6763549999999999,-0.080997,0.8691530000000001,0.4962059999999999,-0.111387,0.749223,0.7001099999999999,-0.210827,1.155813,0.4980839999999999,-0.109462,1.266263,0.7017799999999998,-0.206616,0.735583,0.9105299999999998,-0.272995,1.321683,0.92728,-0.275955,0.919365,0.0016699999999999,0.0019949999999999,1.080635,-0.00167,-0.0019949999999999,0.849583,0.1654199999999999,-0.270405,1.156953,0.1528299999999999,-0.278495,0.911833,-0.1176100000000001,-0.116401,1.129973,-0.1307100000000001,-0.136108,1
158,1.016234,0.6763549999999999,-0.080992,0.8691390000000001,0.4962059999999999,-0.111015,0.748659,0.7001099999999999,-0.210087,1.155809,0.4980839999999999,-0.109462,1.266259,0.7017799999999998,-0.206697,0.734869,0.9105299999999998,-0.272735,1.321029,0.92728,-0.276685,0.919383,0.0016699999999999,0.0019949999999999,1.080617,-0.00167,-0.0019949999999999,0.849579,0.1658899999999998,-0.270405,1.157149,0.1533899999999999,-0.278505,0.911759,-0.1173400000000001,-0.116398,1.130219,-0.1307100000000001,-0.135458,1
159,1.0161625,0.6763549999999999,-0.080994,0.8691375,0.4962059999999999,-0.110678,0.7481575,0.7001099999999999,-0.2095159999999999,1.1558075,0.4980839999999999,-0.109467,1.2661375,0.7017799999999998,-0.2069119999999999,0.7340074999999999,0.9105299999999998,-0.27274,1.3202075,0.92728,-0.27749,0.9194755,0.0016699999999999,0.00199,1.0805245,-0.00167,-0.0019899999999999,0.8495775,0.1662599999999999,-0.27041,1.1572275,0.1538799999999999,-0.27851,0.9116775,-0.1173400000000001,-0.1163999999999999,1.1304275,-0.1309200000000001,-0.134766,1
160,1.0159364999999998,0.677905,-0.081387,0.8689395,0.4957279999999999,-0.110785,0.7480295,0.70041,-0.209196,1.1554195,0.49781,-0.109853,1.2654795,0.7011799999999999,-0.207492,0.7329695,0.9103,-0.273235,1.3187995,0.92866,-0.278765,0.9195665,0.0015599999999998,0.0020349999999999,1.0804334999999998,-0.00156,-0.0020349999999999,0.8494195,0.1658799999999999,-0.2708049999999999,1.1570695,0.1536699999999999,-0.2789049999999999,0.9114295,-0.11801,-0.116792,1.1303395,-0.13179,-0.134459,1
161,1.015629,0.6787,-0.0826269999999999,0.868685,0.49571,-0.1117,0.7478550000000002,0.70055,-0.2101239999999999,1.154575,0.497178,-0.111286,1.264275,0.69917,-0.208839,0.731915,0.90782,-0.27447,1.317215,0.92879,-0.28088,0.919673,0.0016199999999999,0.00226,1.080327,-0.0016199999999999,-0.0022599999999999,0.849465,0.16253,-0.27227,1.156965,0.15058,-0.28025,0.911015,-0.12163,-0.118153,1.130125,-0.13566,-0.135038,1
162,1.0154824999999998,0.67982,-0.084062,0.8685005,0.495276,-0.112882,0.7477705,0.7007,-0.210967,1.1536105,0.496211,-0.112873,1.2625505,0.70041,-0.211158,0.7307105,0.91077,-0.275825,1.3156305,0.93078,-0.283905,0.9197845,0.00148,0.0027149999999999,1.0802155,-0.00148,-0.002715,0.8496505,0.15696,-0.274465,1.1569205,0.14532,-0.282565,0.9103205,-0.12778,-0.12033,1.1300504999999998,-0.14181,-0.135548,1
163,1.015382,0.6815899999999999,-0.085881,0.868365,0.4938829999999999,-0.11412,0.747205,0.70061,-0.212242,1.152615,0.4945599999999999,-0.114722,1.260605,0.7009799999999999,-0.213434,0.729595,0.91183,-0.27729,1.313865,0.93269,-0.28705,0.919813,0.00117,0.00289,1.080187,-0.00117,-0.00289,0.8499950000000001,0.1491999999999999,-0.27745,1.156785,0.1374399999999999,-0.28588,0.909685,-0.13609,-0.122674,1.130035,-0.1501,-0.136081,1
164,1.015307,0.68432,-0.088013,0.8680270000000001,0.491788,-0.115389,0.7466470000000001,0.70119,-0.213557,1.151517,0.492204,-0.116741,1.258657,0.70095,-0.215832,0.7285170000000001,0.91144,-0.27877,1.312377,0.93494,-0.29045,0.919884,0.0007199999999999,0.0029299999999999,1.080116,-0.00072,-0.00293,0.8505469999999999,0.13948,-0.28095,1.156597,0.1276299999999999,-0.28998,0.909037,-0.14653,-0.125134,1.129967,-0.16047,-0.136728,1
165,1.0150695,0.688025,-0.090305,0.8675525,0.489018,-0.116569,0.7460625000000001,0.7009650000000001,-0.215091,1.1506025,0.48892,-0.119117,1.2572725,0.6994750000000001,-0.218204,0.7274925,0.912515,-0.2801949999999999,1.3108025,0.935915,-0.293805,0.9200015,0.0005049999999999,0.002975,1.0799985,-0.0005049999999999,-0.002975,0.8513125,0.1268349999999999,-0.285275,1.1563825,0.115055,-0.294335,0.9083125,-0.159995,-0.12761,1.1297825,-0.173925,-0.137264,1
166,1.014705,0.68878,-0.092917,0.866781,0.489099,-0.118282,0.745341,0.70041,-0.217301,1.149431,0.487727,-0.122544,1.255321,0.69505,-0.221167,0.726321,0.91377,-0.282305,1.308901,0.93342,-0.297675,0.920028,0.0007399999999999,0.0032449999999999,1.079972,-0.0007399999999999,-0.0032449999999999,0.8521110000000001,0.1084299999999999,-0.288735,1.156031,0.0966599999999999,-0.296985,0.907501,-0.1793,-0.130665,1.129401,-0.1931,-0.138569,1
167,1.014297,0.6919350000000001,-0.0957619999999999,0.865892,0.488693,-0.1199269999999999,0.744552,0.7010850000000001,-0.21937,1.148012,0.487508,-0.125838,1.2531219999999998,0.6964950000000001,-0.2237569999999999,0.725252,0.915395,-0.284215,1.3071819999999998,0.933585,-0.3014449999999999,0.92007,0.000785,0.0035149999999999,1.07993,-0.0007849999999999,-0.0035149999999999,0.852872,0.090185,-0.292075,1.155502,0.077605,-0.2995649999999999,0.906692,-0.1991049999999999,-0.133584,1.128842,-0.2128149999999999,-0.139739,1
168,1.013862,0.69478,-0.098435,0.8649450000000001,0.490522,-0.1217139999999999,0.743695,0.70155,-0.221326,1.146635,0.49115,-0.128873,1.251295,0.69752,-0.226738,0.724295,0.91529,-0.286025,1.305545,0.93558,-0.304405,0.920073,0.0005199999999999,0.003725,1.079927,-0.00052,-0.003725,0.8536450000000001,0.0705699999999999,-0.294825,1.154645,0.05668,-0.301845,0.905865,-0.22113,-0.136449,1.128235,-0.23465,-0.140874,1
169,1.013284,0.69363,-0.100628,0.86393,0.4899409999999999,-0.123538,0.7426699999999999,0.70025,-0.223087,1.14561,0.4887309999999999,-0.131428,1.25018,0.69418,-0.229813,0.7230300000000001,0.91155,-0.28744,1.30472,0.93209,-0.30756,0.919991,0.0006899999999999,0.00386,1.080009,-0.00069,-0.00386,0.85457,0.0459799999999999,-0.29674,1.15259,0.0311899999999999,-0.30341,0.90493,-0.2485400000000001,-0.139131,1.12732,-0.26199,-0.141852,1
170,1.0128085,0.69469,-0.101432,0.8629405,0.489521,-0.124629,0.7417505,0.6990399999999999,-0.223819,1.1447705,0.4880699999999999,-0.132754,1.2492105,0.6930499999999999,-0.232173,0.7214605000000001,0.91308,-0.287635,1.3041405,0.93044,-0.309735,0.9198765,0.0006299999999999,0.0040149999999999,1.0801235,-0.00063,-0.004015,0.8554405,0.0232599999999999,-0.297105,1.1505605,0.0075599999999999,-0.303665,0.9041205,-0.2747400000000001,-0.140674,1.1264805,-0.28819,-0.141882,1
171,1.0120815,0.696455,-0.101619,0.8618295,0.4891,-0.125417,0.7407595,0.698675,-0.224308,1.1439195,0.487893,-0.133738,1.2483795,0.692745,-0.233051,0.7201495,0.910485,-0.287495,1.3031595,0.931605,-0.309695,0.9198355,0.000605,0.0040149999999999,1.0801645,-0.0006049999999999,-0.004015,0.8562895,0.000435,-0.297135,1.1484595,-0.0157949999999999,-0.303585,0.9036595,-0.301875,-0.141169,1.1258695,-0.3151049999999999,-0.141956,1
172,1.011107,0.6975,-0.101654,0.860562,0.4898,-0.1261789999999999,0.739452,0.69877,-0.224955,1.143072,0.48856,-0.134635,1.247702,0.6930499999999999,-0.23353,0.7186520000000001,0.9089,-0.28742,1.302312,0.9328,-0.30967,0.919757,0.0008099999999999,0.0040199999999999,1.080243,-0.0008099999999999,-0.0040199999999999,0.856942,-0.0225699999999999,-0.29716,1.146242,-0.0388499999999999,-0.30351,0.903052,-0.32987,-0.141686,1.125222,-0.34279,-0.141934,1
173,1.0099165,0.698135,-0.1012269999999999,0.8589785,0.491885,-0.12657,0.7381285,0.699565,-0.2250589999999999,1.1422385,0.490715,-0.1350579999999999,1.2470985,0.694635,-0.2333549999999999,0.7170285000000001,0.910695,-0.286975,1.3015885,0.933405,-0.3092549999999999,0.9196275,0.0011149999999999,0.003985,1.0803725,-0.0011149999999999,-0.0039849999999999,0.8571885000000001,-0.048045,-0.295265,1.1434285,-0.064665,-0.301455,0.9019285,-0.362745,-0.1435649999999999,1.1245785,-0.374455,-0.141527,1
174,1.0084209999999998,0.699015,-0.100405,0.857208,0.495095,-0.1266199999999999,0.736518,0.7014750000000001,-0.224418,1.141278,0.492765,-0.135013,1.2464179999999998,0.696195,-0.23257,0.715238,0.909785,-0.2852099999999999,1.300318,0.935085,-0.30813,0.919501,0.001405,0.004,1.080499,-0.0014049999999999,-0.0039999999999999,0.856778,-0.0720249999999999,-0.2921899999999999,1.140518,-0.0885049999999999,-0.2980399999999999,0.900518,-0.3935649999999999,-0.144973,1.123788,-0.404505,-0.1412679999999999,1
175,1.007073,0.7034,-0.098721,0.8558209999999999,0.49572,-0.12587,0.735121,0.70355,-0.2227319999999999,1.140461,0.49576,-0.1335,1.246151,0.70286,-0.230675,0.713721,0.90658,-0.2826849999999999,1.299311,0.94198,-0.305705,0.919546,0.00092,0.004035,1.080454,-0.0009199999999999,-0.004035,0.856401,-0.0925899999999999,-0.287135,1.137621,-0.1086199999999999,-0.292355,0.899161,-0.4210499999999999,-0.145547,1.123201,-0.43108,-0.140592,1
176,1.0055905,0.704735,-0.095821,0.8543125,0.499165,-0.124431,0.7336525,0.7036150000000001,-0.22035,1.1395325,0.497645,-0.131307,1.2458525,0.703535,-0.22815,0.7120425,0.905455,-0.27892,1.2987625,0.944305,-0.30266,0.9199975,0.000705,0.0036999999999999,1.0800025,-0.0007049999999999,-0.0037,0.8558425000000001,-0.1142749999999999,-0.28058,1.1344025,-0.1294449999999999,-0.28466,0.8973125000000001,-0.449145,-0.145757,1.1224525,-0.458705,-0.139291,1
177,1.004545,0.706105,-0.0921409999999999,0.8532150000000001,0.499815,-0.1223009999999999,0.732775,0.704075,-0.217478,1.139065,0.496335,-0.128633,1.245655,0.7066049999999999,-0.22513,0.710825,0.904355,-0.27448,1.298545,0.942685,-0.2994,0.920182,0.000785,0.00317,1.079818,-0.0007849999999999,-0.0031699999999999,0.856255,-0.1353749999999999,-0.2723799999999999,1.131615,-0.148945,-0.27573,0.895485,-0.4763349999999999,-0.1462419999999999,1.122225,-0.4850649999999999,-0.1379449999999999,1
178,1.0035254999999998,0.713465,-0.088149,0.8523155,0.504365,-0.119806,0.7319755,0.7081949999999999,-0.214075,1.1390954999999998,0.5015149999999999,-0.125599,1.2453655,0.715165,-0.222085,0.7100955,0.910375,-0.269185,1.2983055,0.951495,-0.294295,0.9204865,0.000535,0.003095,1.0795135,-0.0005349999999999,-0.003095,0.8566055,-0.1508649999999999,-0.2647549999999999,1.1295355,-0.1630849999999999,-0.268395,0.8934355,-0.497655,-0.146728,1.1221555,-0.505395,-0.136293,1
179,1.002652,0.718685,-0.084038,0.851337,0.508875,-0.11708,0.731317,0.712575,-0.210581,1.139057,0.505815,-0.1225229999999999,1.245167,0.7232149999999999,-0.217823,0.709917,0.913305,-0.263865,1.297837,0.960075,-0.288635,0.920722,0.000255,0.002935,1.079278,-0.000255,-0.0029349999999999,0.857167,-0.166425,-0.256595,1.127627,-0.1773949999999999,-0.260285,0.891547,-0.518735,-0.147163,1.122337,-0.5256149999999999,-0.134562,1
180,1.002028,0.722545,-0.0792799999999999,0.850221,0.513745,-0.1137089999999999,0.730831,0.714865,-0.206309,1.138601,0.5103949999999999,-0.118846,1.244481,0.726005,-0.212866,0.709801,0.912605,-0.2577549999999999,1.297531,0.962365,-0.282005,0.920964,0.0004049999999999,0.002875,1.079036,-0.0004049999999999,-0.0028749999999999,0.857761,-0.181965,-0.246815,1.125591,-0.192025,-0.250235,0.889341,-0.539115,-0.146927,1.122541,-0.545275,-0.131525,1
181,1.0016815,0.727105,-0.073026,0.8491815,0.517365,-0.108977,0.7304615,0.717555,-0.200677,1.1383815,0.518335,-0.11386,1.2440515,0.728495,-0.20631,0.7098415,0.918315,-0.250115,1.2975415,0.963665,-0.274075,0.9214355,0.000155,0.0025249999999999,1.0785645,-0.000155,-0.0025249999999999,0.8580415,-0.196345,-0.235735,1.1234615,-0.206155,-0.237765,0.8870915,-0.5579649999999999,-0.145127,1.1229515,-0.563765,-0.127008,1
182,1.001354,0.7328034999999999,-0.067008,0.848578,0.5223935,-0.10467,0.730158,0.7207635000000001,-0.195245,1.138048,0.5250535000000001,-0.109171,1.243998,0.7319935,-0.200443,0.7098180000000001,0.9214135,-0.243365,1.2972979999999998,0.9652735,-0.266675,0.922172,6.3500000000008e-05,0.0020649999999999,1.077828,-6.349999999999412e-05,-0.0020649999999999,0.858568,-0.2071365,-0.225735,1.121308,-0.2166564999999999,-0.225855,0.8852480000000001,-0.5709964999999999,-0.14048,1.123128,-0.5773865,-0.122354,1
183,1.001286,0.7382175000000001,-0.061304,0.848507,0.5266975,-0.100782,0.730167,0.7241775,-0.190116,1.138467,0.5325175,-0.104902,1.244667,0.7367775000000001,-0.194304,0.710107,0.9251875,-0.237031,1.297217,0.9664975,-0.260041,0.922751,-0.0001835,0.0015389999999999,1.077249,0.0001835,-0.0015389999999999,0.8596969999999999,-0.2207325,-0.216001,1.119237,-0.2315225,-0.213371,0.8854570000000002,-0.5857025,-0.136246,1.123347,-0.5934925,-0.11812,1
184,1.000987,0.7425975,-0.0562295,0.848064,0.5300275,-0.0976345,0.7299440000000001,0.7284075,-0.1857365,1.138424,0.5363175,-0.1013205,1.244684,0.7395375,-0.1892715,0.710154,0.9304875,-0.2314755,1.296484,0.9695175,-0.2526355,0.923237,-8.049999999999724e-05,0.0010304999999999,1.076763,8.050000000000418e-05,-0.0010305,0.860894,-0.2328025,-0.2066855,1.116934,-0.2451525,-0.2012155,0.885414,-0.5987725,-0.1328405,1.123374,-0.6080625000000001,-0.1147175,1
185,1.00083,0.7446090000000001,-0.0479464999999999,0.847719,0.5301089999999999,-0.0910035,0.729929,0.7320390000000001,-0.1778954999999999,1.138849,0.539209,-0.0941215,1.244949,0.740399,-0.1809695,0.710419,0.932029,-0.2226745,1.295929,0.971469,-0.2414045,0.923709,0.0003429999999999,0.0009294999999999,1.076291,-0.000343,-0.0009294999999999,0.862649,-0.2467309999999999,-0.1907674999999999,1.114539,-0.260161,-0.1838575,0.885519,-0.6134409999999999,-0.1249525,1.123519,-0.624031,-0.1072885,1
186,1.0004515,0.744413,-0.035243,0.8474495000000001,0.5297430000000001,-0.079754,0.7299995,0.7298830000000001,-0.1656659999999999,1.1397495,0.541423,-0.082033,1.2454895,0.741353,-0.1683589999999999,0.7108395000000001,0.932713,-0.208937,1.2955795,0.975443,-0.225187,0.9240965,0.0004289999999999,0.000339,1.0759035,-0.000429,-0.000339,0.8671895000000001,-0.265627,-0.166465,1.1117995,-0.280017,-0.159151,0.8858195,-0.632477,-0.109274,1.1237895,-0.644497,-0.092173,1
187,1.0001749999999998,0.7421449999999999,-0.022444,0.847189,0.528635,-0.068434,0.7301390000000001,0.727015,-0.153396,1.1406889999999998,0.543325,-0.06985,1.245949,0.742135,-0.155796,0.711349,0.931195,-0.195788,1.294969,0.974065,-0.210038,0.924459,0.0004869999999999,-0.0002189999999999,1.075541,-0.000487,0.0002189999999999,0.871919,-0.283825,-0.142461,1.109337,-0.298205,-0.134652,0.8863890000000001,-0.650775,-0.093418,1.124139,-0.663335,-0.07725,1
188,1.000181,0.7406155000000001,-0.009817,0.847276,0.5267755000000001,-0.057136,0.7305360000000001,0.7244555,-0.141389,1.141796,0.5446855,-0.057823,1.246626,0.7425355,-0.143417,0.712196,0.9299555,-0.182651,1.294586,0.9722855,-0.194911,0.924488,0.0006285,-0.000732,1.075512,-0.0006284999999999,0.0007319999999999,0.877346,-0.2993845,-0.1181639999999999,1.107083,-0.3141145,-0.11039,0.887556,-0.6674144999999999,-0.077241,1.124756,-0.6799345,-0.061977,1
189,1.0001485,0.739382,0.001798,0.8472605,0.524782,-0.046697,0.7308005,0.723322,-0.13044,1.1428005,0.545652,-0.046645,1.2471905,0.744072,-0.132054,0.7130004999999999,0.930942,-0.170434,1.2941005,0.972152,-0.180904,0.9246065,0.0005039999999999,-0.001298,1.0753935,-0.000504,0.001298,0.8826505,-0.311298,-0.095336,1.1047295,-0.326758,-0.0873589999999999,0.8891105,-0.680748,-0.060505,1.1252805,-0.693568,-0.04702,1
190,1.000198,0.737457,0.0129395,0.847203,0.523757,-0.0363965,0.731183,0.721577,-0.1197465,1.144013,0.543037,-0.0356735,1.247783,0.7458370000000001,-0.1214195,0.713983,0.927967,-0.1585545,1.293863,0.973427,-0.1670145,0.924735,0.0006839999999999,-0.0017454999999999,1.075265,-0.0006839999999999,0.0017454999999999,0.887993,-0.321503,-0.0723645,1.102584,-0.338783,-0.0651555,0.890863,-0.692353,-0.0437025,1.125683,-0.706453,-0.0322015,1
191,1.0002544999999998,0.7337835,0.023833,0.8473515,0.5206035,-0.026172,0.7316015,0.7189835,-0.10918,1.1453715,0.5408235,-0.024721,1.2484915,0.7459534999999999,-0.110994,0.7150315,0.9251335,-0.146964,1.2938315,0.9747935,-0.153524,0.9247205,0.0007565,-0.0021989999999999,1.0752795,-0.0007565,0.0021989999999999,0.8931415,-0.3312165,-0.049904,1.1008925,-0.3511865,-0.043907,0.8929715,-0.7032065000000001,-0.026787,1.1261015,-0.7191865000000001,-0.017442,0
192,0.9998285,0.7293590000000001,0.0346309999999999,0.8467765,0.517739,-0.015699,0.7314365,0.715349,-0.098555,1.1461165,0.5388789999999999,-0.0137819999999999,1.2488264999999998,0.745649,-0.100479,0.7155465,0.922169,-0.13541,1.2935865,0.976219,-0.14016,0.9249515,0.000847,-0.0027139999999999,1.0750485,-0.000847,0.0027139999999999,0.8975865000000001,-0.341651,-0.0274319999999999,1.0987245,-0.364491,-0.0232549999999999,0.8942265000000001,-0.714661,-0.010026,1.1259665,-0.7325710000000001,-0.0031959999999999,0
193,0.9994805,0.7254635,0.045244,0.8462335,0.5156935,-0.005248,0.7313135,0.7109035,-0.087872,1.1464234999999998,0.5375535,-0.003064,1.2495435,0.7452635000000001,-0.089961,0.7160635,0.9199035,-0.123926,1.2934235,0.9739835,-0.128136,0.9251575,0.0009284999999999,-0.003164,1.0748425,-0.0009284999999999,0.003164,0.9017335,-0.3519565,-0.005776,1.0968635,-0.3778465,-0.003569,0.8960735,-0.7256765,0.006997,1.1259535,-0.7452765,0.011018,0
194,0.998937,0.7243835,0.0517105,0.845453,0.5146634999999999,0.0010114999999999,0.731043,0.7076835,-0.0813945,1.146833,0.5374035,0.0036734999999999,1.250203,0.7471535,-0.0837185,0.7164429999999999,0.9201135,-0.1170285,1.293053,0.9742135,-0.1205384999999999,0.925207,0.0006145,-0.0038725,1.074793,-0.0006144999999999,0.0038725,0.905383,-0.3595564999999999,0.0085215,1.095238,-0.3878965,0.0098505,0.8976130000000001,-0.7338665,0.0174225,1.125703,-0.7548065,0.0199595,0
195,0.998444,0.7245695,0.0530345,0.8446089999999999,0.5148995,0.0021845,0.7306790000000001,0.7095295,-0.0800925,1.146559,0.5377095,0.0048725,1.2497889999999998,0.7473095,-0.0826345,0.716529,0.9219595,-0.1158314999999999,1.292589,0.9749595,-0.1184014999999999,0.925289,0.0006715,-0.0040185,1.074711,-0.0006714999999999,0.0040184999999999,0.906109,-0.3598105,0.0134384999999999,1.094133,-0.3881805,0.0148425,0.897289,-0.7341205,0.0197305,1.125349,-0.7550605,0.0218065,0
196,0.997988,0.72476,0.0542534999999999,0.843826,0.51508,0.0033304999999999,0.730426,0.71053,-0.0789065,1.146396,0.53805,0.0061084999999999,1.249436,0.7472300000000001,-0.0816055,0.7166260000000001,0.92323,-0.1148185,1.292606,0.97583,-0.1162685,0.925398,0.00074,-0.0041535,1.074602,-0.0007399999999999,0.0041535,0.906726,-0.3600399999999999,0.0180654999999999,1.093039,-0.38841,0.0196275,0.8969660000000002,-0.73435,0.0219465,1.125026,-0.75529,0.0236065,0
197,0.997835,0.724847,0.0553694999999999,0.8435,0.515157,0.0043785,0.73054,0.710937,-0.0778205,1.14654,0.538367,0.0073325,1.24938,0.747187,-0.0805874999999999,0.71702,0.923817,-0.1138165,1.29303,0.976817,-0.1141565,0.9252,0.0007989999999999,-0.0042885,1.0748,-0.000799,0.0042885,0.90726,-0.360253,0.0217365,1.092307,-0.388623,0.0237894999999999,0.89695,-0.734563,0.0240804999999999,1.12515,-0.755503,0.0252675,0
198,0.9976305,0.724899,0.056453,0.8427445,0.514979,0.005555,0.7303145,0.711019,-0.076867,1.1463945,0.538669,0.008475,1.2490845,0.747159,-0.079277,0.7171145,0.923739,-0.112884,1.2929645,0.977339,-0.112204,0.9252955,0.000825,-0.004435,1.0747045,-0.0008249999999999,0.004435,0.9072845,-0.357981,0.02468,1.0914545,-0.388381,0.027006,0.8966745,-0.733861,0.025906,1.1249645,-0.755601,0.026788,0
199,0.997491,0.724953,0.0573515,0.842175,0.515193,0.0064765,0.7301350000000001,0.711013,-0.0760914999999999,1.146265,0.5389729999999999,0.0094174999999999,1.248855,0.747173,-0.0781355,0.7169750000000001,0.923673,-0.1121215,1.293085,0.977973,-0.1103614999999999,0.925405,0.0008859999999999,-0.0046264999999999,1.074595,-0.0008859999999999,0.0046264999999999,0.907235,-0.355637,0.0268135,1.090658,-0.388167,0.0294264999999999,0.8964650000000001,-0.732877,0.0274624999999999,1.124805,-0.755507,0.0279775,0
200,0.997362,0.7250479999999999,0.0581845,0.841749,0.515288,0.0072375,0.729929,0.710978,-0.0753765,1.146169,0.5392779999999999,0.0102865,1.248669,0.747138,-0.0771335,0.716779,0.923638,-0.1117895,1.293329,0.979138,-0.1086495,0.925517,0.0009209999999999,-0.0047845,1.074483,-0.000921,0.0047845,0.907159,-0.354192,0.0283975,1.089869,-0.388092,0.0312705,0.896289,-0.731902,0.0288705,1.124639,-0.755212,0.0290575,0
201,0.997257,0.7251399999999999,0.0590025,0.841383,0.51536,0.0079545,0.729723,0.71095,-0.0746785,1.146083,0.5396000000000001,0.0111355,1.248503,0.7471099999999999,-0.0761565,0.716603,0.92361,-0.1117365,1.293673,0.98071,-0.1067965,0.925605,0.0009489999999999,-0.0048815,1.074395,-0.000949,0.0048815,0.907123,-0.3532,0.0297134999999999,1.089195,-0.38803,0.0326535,0.896113,-0.7309700000000001,0.0301185,1.124453,-0.75495,0.0301285,0
202,0.997117,0.7252755000000001,0.0597295,0.8410270000000001,0.5154355,0.0086075,0.729487,0.7109555000000001,-0.0741105,1.146027,0.5399055,0.0119225,1.248367,0.7471155,-0.0752024999999999,0.716377,0.9217155,-0.1120135,1.293747,0.9810155,-0.1052835,0.925691,0.0009765,-0.0050054999999999,1.074309,-0.0009764999999999,0.0050055,0.907067,-0.3527544999999999,0.0308885,1.088602,-0.3879045,0.0337625,0.895937,-0.7305244999999999,0.0313475,1.124217,-0.7547345,0.0310565,0
203,0.9969165,0.7254390000000001,0.060377,0.8406285,0.5155190000000001,0.009252,0.7291985000000001,0.7108990000000001,-0.073749,1.1459185,0.540239,0.012687,1.2481785,0.747069,-0.074266,0.7160985,0.920159,-0.112239,1.2937785,0.981059,-0.103919,0.9257685,0.00102,-0.005107,1.0742315,-0.0010199999999999,0.005107,0.9067585,-0.352451,0.031811,1.0880025,-0.3877609999999999,0.034721,0.8957085,-0.730221,0.032487,1.1239485,-0.754501,0.032002,0
204,0.996708,0.725622,0.0609845,0.8402400000000001,0.515602,0.0098655,0.7289300000000001,0.710822,-0.0735005,1.14571,0.5404019999999999,0.0133544999999999,1.248,0.747022,-0.0734065,0.71584,0.919012,-0.1125055,1.29365,0.981312,-0.1027755,0.925839,0.001073,-0.0051815,1.074161,-0.0010729999999999,0.0051814999999999,0.90647,-0.352398,0.0326135,1.087451,-0.3876079999999999,0.0355905,0.89547,-0.730168,0.0334355,1.12367,-0.754308,0.0328834999999999,0
205,0.9964895,0.7257545000000001,0.06156,0.8400595,0.5156945,0.01034,0.7285195,0.7107045000000001,-0.073384,1.1453995,0.5404644999999999,0.013934,1.2478395,0.7469945,-0.072618,0.7155895,0.9179745,-0.112813,1.2933995,0.9813745,-0.101923,0.9259085,0.0011354999999999,-0.005245,1.0740915,-0.0011354999999999,0.005245,0.9062295,-0.3523355,0.033473,1.0870645,-0.3874655,0.03629,0.8952295000000001,-0.7301055000000001,0.034351,1.1233894999999998,-0.7541154999999999,0.033742,0
206,0.9962895,0.7258450000000001,0.0620825,0.8398925000000002,0.5157849999999999,0.0107725,0.7281225,0.7103949999999999,-0.0734555,1.1451125,0.5405549999999999,0.0144595,1.2477425,0.746945,-0.0719285,0.7153025,0.917065,-0.1132045,1.2930225,0.981465,-0.1013945,0.9259825,0.0012019999999999,-0.0052975,1.0740175,-0.001202,0.0052975,0.9059625,-0.352245,0.0343195,1.0866905,-0.387375,0.0368995,0.8950025,-0.7300150000000001,0.0351745,1.1230825,-0.7539750000000001,0.0344915,0
207,0.996106,0.7259610000000001,0.0625285,0.839712,0.5158910000000001,0.0111805,0.727752,0.7098009999999999,-0.0736755,1.144862,0.5406709999999999,0.0149345,1.247842,0.7467410000000001,-0.0713555,0.7149220000000001,0.916081,-0.1137605,1.292672,0.981081,-0.1009205,0.926061,0.0012609999999999,-0.0053375,1.073939,-0.0012609999999999,0.0053374999999999,0.905812,-0.352469,0.0350655,1.086342,-0.387289,0.0374335,0.894752,-0.730229,0.0358785,1.122792,-0.753819,0.0351845,0
208,0.9959455000000002,0.726183,0.0629935,0.8393885,0.516083,0.0116835,0.7273785000000001,0.708913,-0.0740555,1.1446685,0.540773,0.0154425,1.2485585,0.745603,-0.0707775,0.7145485,0.914903,-0.1143775,1.2923485,0.980103,-0.1004174999999999,0.9261245,0.0013399999999999,-0.0053314999999999,1.0738755,-0.00134,0.0053315,0.9057085,-0.352647,0.0358335,1.0860155,-0.387067,0.0379935,0.8945285000000001,-0.730407,0.0365925,1.1225185,-0.753567,0.0359035,0
209,0.995842,0.7264595,0.063475,0.8391029999999999,0.5163395,0.012188,0.726603,0.7072795000000001,-0.07483,1.144563,0.5408694999999999,0.01596,1.249953,0.7436495000000001,-0.070174,0.714233,0.9138295,-0.114873,1.291863,0.9783195,-0.100043,0.926177,0.0013814999999999,-0.0052879999999999,1.073823,-0.0013815,0.005288,0.905633,-0.3527705,0.036616,1.085802,-0.3867505,0.038545,0.894313,-0.7305204999999999,0.037295,1.122263,-0.7532304999999999,0.036593,0
210,0.9957775,0.7267015,0.0639545,0.8388595,0.5165815,0.0126655,0.7252195,0.7030115,-0.0756215,1.1445795,0.5408815,0.0164455,1.2526995,0.7391215,-0.0698154999999999,0.7138495,0.9119115,-0.1154145,1.2908495,0.9740415,-0.1001944999999999,0.9262325,0.0014134999999999,-0.0052515,1.0737675,-0.0014134999999999,0.0052515,0.9056145,-0.3529685,0.0373545,1.0856665,-0.3864185,0.0390705,0.8940995,-0.7307185,0.0378995,1.1220195,-0.7527885,0.0371915,0
211,0.9958215,0.7270915,0.0643805,0.8386685,0.5168615,0.0132315,0.7233885,0.6976615,-0.0766255,1.1447385,0.5408815,0.0168945,1.2566085,0.7333215,-0.0695415,0.7135085,0.9095215,-0.1162994999999999,1.2897285,0.9666915,-0.1009195,0.9262815,0.0014495,-0.0052134999999999,1.0737184999999998,-0.0014495,0.0052135,0.9056855,-0.3535284999999999,0.0381435,1.0856315,-0.3861285,0.0396745,0.8939285,-0.7307485,0.0384204999999999,1.1218485,-0.7521085,0.0377365,0
212,0.995945,0.7274735,0.064708,0.838538,0.5172034999999999,0.013837,0.721088,0.6912535,-0.078,1.145818,0.5396035,0.017174,1.262648,0.7232735,-0.0694429999999999,0.712728,0.9018635,-0.1183649999999999,1.288158,0.9555635,-0.1023849999999999,0.926331,0.0014144999999999,-0.00516,1.073669,-0.0014144999999999,0.00516,0.905825,-0.3536964999999999,0.038824,1.085597,-0.3858565,0.040237,0.8938380000000001,-0.7304365,0.038851,1.121718,-0.7510365,0.038132,0
213,0.9960865,0.728367,0.0650805,0.8383525000000001,0.5174570000000001,0.0145304999999999,0.7179325,0.6828770000000001,-0.0798965,1.1469425,0.537977,0.0175265,1.2696925,0.712547,-0.0695785,0.7121725,0.893057,-0.1204175,1.2860925,0.943517,-0.1041675,0.9263675,0.001361,-0.0050795,1.0736325,-0.001361,0.0050794999999999,0.9060295,-0.353143,0.0395574999999999,1.0856275,-0.385133,0.0408695,0.8937625,-0.729383,0.0393334999999999,1.1216125,-0.7492129999999999,0.0385805,0
214,0.996251,0.729322,0.065554,0.83817,0.517422,0.015427,0.71404,0.6723020000000001,-0.081997,1.14814,0.535912,0.017848,1.27813,0.697292,-0.070307,0.71209,0.880502,-0.122827,1.28391,0.926002,-0.106137,0.92635,0.001346,-0.004994,1.07365,-0.001346,0.004994,0.906154,-0.3524179999999999,0.040253,1.085756,-0.384658,0.041532,0.8936999999999999,-0.727708,0.039788,1.1215499999999998,-0.746948,0.039004,0
