sb224sc-HT22-VT27/4dt907/src/data/labeled_files/B13_kinect.csv
FrameNo,nose_3d_x,nose_3d_y,nose_3d_z,left_shoulder_3d_x,left_shoulder_3d_y,left_shoulder_3d_z,left_elbow_3d_x,left_elbow_3d_y,left_elbow_3d_z,right_shoulder_3d_x,right_shoulder_3d_y,right_shoulder_3d_z,right_elbow_3d_x,right_elbow_3d_y,right_elbow_3d_z,left_wrist_3d_x,left_wrist_3d_y,left_wrist_3d_z,right_wrist_3d_x,right_wrist_3d_y,right_wrist_3d_z,left_hip_3d_x,left_hip_3d_y,left_hip_3d_z,right_hip_3d_x,right_hip_3d_y,right_hip_3d_z,left_knee_3d_x,left_knee_3d_y,left_knee_3d_z,right_knee_3d_x,right_knee_3d_y,right_knee_3d_z,left_ankle_3d_x,left_ankle_3d_y,left_ankle_3d_z,right_ankle_3d_x,right_ankle_3d_y,right_ankle_3d_z,activity_label
0,-0.0064929999999999,0.762396,0.0290695,-0.170254,0.493436,0.0085785,-0.226954,0.252876,-0.0026834999999999,0.160816,0.481256,0.0134795,0.214076,0.2447659999999999,-0.0151354999999999,-0.220054,0.059403,-0.0760995,0.131926,0.297306,-0.2301795,-0.073431,-0.000896,0.0001965,0.073431,0.000896,-0.0001965,-0.095314,-0.339844,0.0291725,0.101096,-0.334644,0.0381145,-0.101864,-0.6594140000000001,0.0741495,0.103586,-0.662614,0.0769445,0
1,-0.0062404999999999,0.7620295,0.0286975,-0.1703075,0.4932795,0.0086925,-0.2267575,0.2531195,-0.0023184999999999,0.1607225,0.4812195,0.0136235,0.2142925,0.2450594999999999,-0.0147684999999999,-0.2198875,0.0590375,-0.0761405,0.1321525,0.2976094999999999,-0.2309405,-0.0734235,-0.0008905,0.0002505,0.0734235,0.0008905,-0.0002504999999999,-0.0953395,-0.3399205,0.0292255,0.1010825,-0.3344805,0.0382265,-0.1016774999999999,-0.6602104999999999,0.0736815,0.1035425,-0.6624905,0.0768095,0
2,-0.0059165,0.7616665,0.0282464999999999,-0.1704235,0.4931665,0.0088504999999999,-0.2266135,0.2531965,-0.0022025,0.1607565,0.4813064999999999,0.0136654999999999,0.2086465,0.2453465,-0.0246225,-0.2198034999999999,0.0591924999999999,-0.0760255,0.1320965,0.2979265,-0.2326054999999999,-0.0734265,-0.0008545,0.0002664999999999,0.0734265,0.0008545,-0.0002665,-0.0956215,-0.3377135,0.0283674999999999,0.1011565,-0.3343535,0.0382594999999999,-0.1014735,-0.6578935,0.0741014999999999,0.1033864999999999,-0.6623235,0.0766975,0
3,-0.0057954999999999,0.7615999999999999,0.028246,-0.1708565,0.49312,0.009255,-0.2264064999999999,0.25309,-0.0020729999999999,0.1607335,0.48136,0.013703,0.2082235,0.24571,-0.024684,-0.2197265,0.059232,-0.075916,0.1322935,0.29813,-0.2331859999999999,-0.0734015,-0.00083,0.0002819999999999,0.0734015,0.00083,-0.000282,-0.0955205,-0.33796,0.028405,0.1012035,-0.33428,0.038287,-0.1014664999999999,-0.6581600000000001,0.074032,0.1035635,-0.6631100000000001,0.076149,0
4,-0.005572,0.7614825000000001,0.0280585,-0.170765,0.4927125,0.0091035,-0.225995,0.2533725,-0.0017754999999999,0.1608349999999999,0.4816225,0.0136805,0.2080749999999999,0.2463925,-0.0245915,-0.219665,0.0595955,-0.0758885,0.132425,0.2985425,-0.2333984999999999,-0.0734239999999999,-0.0008274999999999,0.0003755,0.0734239999999999,0.0008274999999999,-0.0003755,-0.094891,-0.3387675,0.0286965,0.101275,-0.3339275,0.0383285,-0.101625,-0.6585075,0.0743365,0.1036449999999999,-0.6628575,0.0758865,0
5,-0.0052605,0.761149,0.0276665,-0.1706915,0.492599,0.0091745,-0.2257315,0.253409,-0.0015664999999999,0.1609185,0.481689,0.0137815,0.2072085,0.247369,-0.0264405,-0.2195915,0.059681,-0.0756425,0.1324985,0.298759,-0.2338725,-0.0733735,-0.000762,0.0003234999999999,0.0733735,0.000762,-0.0003234999999999,-0.0947665,-0.338621,0.0286815,0.1013685,-0.334281,0.0384705,-0.1013815,-0.6579510000000001,0.0742325,0.1038284999999999,-0.6628310000000001,0.0758145,0
6,-0.0047154999999999,0.7606769999999999,0.0271354999999999,-0.1707825,0.492707,0.0094364999999999,-0.2254824999999999,0.253497,-0.0014175,0.1610674999999999,0.4816769999999999,0.0137694999999999,0.2074375,0.247557,-0.0264145,-0.2194625,0.0600379999999999,-0.0753645,0.1327674999999999,0.299027,-0.2342544999999999,-0.0733605,-0.0007109999999999,0.0004044999999999,0.0733605,0.000711,-0.0004045,-0.0943605,-0.338913,0.0288414999999999,0.1012275,-0.333193,0.0384384999999999,-0.1010925,-0.658133,0.0742755,0.1037375,-0.662433,0.0758865,0
7,-0.0038845,0.759828,0.025819,-0.1711175,0.492848,0.009968,-0.2252875,0.252928,-0.0010509999999999,0.1611225,0.481628,0.013969,0.2077225,0.247968,-0.0253899999999999,-0.2193575,0.059378,-0.074936,0.1327325,0.298798,-0.233006,-0.0733405,-0.000705,0.0004229999999999,0.0733405,0.000705,-0.0004229999999999,-0.0943384999999999,-0.339282,0.029192,0.1012925,-0.334072,0.038805,-0.1010775,-0.657922,0.074227,0.1040625,-0.662752,0.0760919999999999,0
8,-0.0033559999999999,0.759384,0.0251479999999999,-0.171207,0.492784,0.0101879999999999,-0.225057,0.252824,-0.000815,0.161203,0.481674,0.0140319999999999,0.207623,0.248424,-0.025694,-0.219277,0.059183,-0.074618,0.133143,0.298834,-0.232808,-0.073327,-0.000681,0.0004459999999999,0.073327,0.000681,-0.000446,-0.094202,-0.339326,0.0292829999999999,0.101323,-0.334076,0.0389169999999999,-0.100997,-0.657726,0.0742539999999999,0.104123,-0.662776,0.076099,0
9,-0.00279,0.7588945,0.0244155,-0.171284,0.4927745,0.0103965,-0.224874,0.2527045,-0.0006104999999999,0.161266,0.4816844999999999,0.0140954999999999,0.207536,0.2488145,-0.0260035,-0.219214,0.0589795,-0.0742994999999999,0.135066,0.2990144999999999,-0.2313895,-0.0733109999999999,-0.0006575,0.0004644999999999,0.0733109999999999,0.0006575,-0.0004644999999999,-0.0940999999999999,-0.3393655,0.0293664999999999,0.1013459999999999,-0.3340855,0.0390125,-0.100914,-0.6575854999999999,0.0743185,0.104216,-0.6628354999999999,0.0761085,0
10,-0.002194,0.758373,0.0235995,-0.171383,0.492783,0.0105975,-0.224713,0.252573,-0.0004315,0.161337,0.481673,0.0141424999999999,0.207457,0.249133,-0.0264305,-0.219153,0.058716,-0.0740194999999999,0.137027,0.299243,-0.2297095,-0.073298,-0.000639,0.0004725,0.073298,0.0006389999999999,-0.0004725,-0.094018,-0.339467,0.0295064999999999,0.101357,-0.334097,0.0390864999999999,-0.100853,-0.657517,0.0743755,0.104327,-0.662887,0.0761105,0
11,-0.0016014999999999,0.7578685000000001,0.0227595,-0.1714445,0.4927885,0.0107635,-0.2245545,0.2524685,-0.0002664999999999,0.1614255,0.4816485,0.0141945,0.2073555,0.2493985,-0.0269294999999999,-0.2191145,0.0584485,-0.0737695,0.1374955,0.2995585,-0.2297795,-0.0732875,-0.0006235,0.0004765,0.0732875,0.0006235,-0.0004764999999999,-0.0939855,-0.3395115,0.0296305,0.1013955,-0.3341215,0.0391645,-0.1008145,-0.6574415,0.0744365,0.1043955,-0.6629415,0.0761215,0
12,-0.001047,0.75748,0.022017,-0.171462,0.4928,0.010854,-0.224412,0.25242,-0.0001029999999999,0.161528,0.48162,0.014219,0.2072379999999999,0.24962,-0.0274449999999999,-0.219082,0.058207,-0.07352,0.137928,0.30005,-0.2298499999999999,-0.073277,-0.0006079999999999,0.000482,0.073277,0.000608,-0.0004819999999999,-0.093958,-0.33949,0.029729,0.101418,-0.33414,0.039221,-0.100762,-0.65727,0.074488,0.104468,-0.66298,0.076236,0
13,-0.0004845,0.7570844999999999,0.0213275,-0.1714485,0.4927845,0.0108905,-0.2242985,0.2524045,2.650000000000569e-05,0.1616214999999999,0.4816045,0.0142465,0.2070715,0.2498245,-0.0278095,-0.2190685,0.0579565,-0.0732604999999999,0.1383015,0.3005045,-0.2298204999999999,-0.0732705,-0.0005955,0.0004875,0.0732705,0.0005954999999999,-0.0004874999999999,-0.0939485,-0.3394755,0.0298225,0.1014315,-0.3341754999999999,0.0392485,-0.1007185,-0.6569755,0.0745675,0.1044815,-0.6629055,0.0762905,0
14,0.000113,0.7566805,0.0206535,-0.171446,0.4927505,0.0108935,-0.224206,0.2524105,0.0001525,0.161714,0.4815905,0.0142795,0.206884,0.2499805,-0.0282854999999999,-0.219056,0.0577045,-0.0730484999999999,0.138604,0.3009305,-0.2298184999999999,-0.073268,-0.0005845,0.0004895,0.073268,0.0005845,-0.0004894999999999,-0.0939509999999999,-0.3394594999999999,0.0299055,0.101444,-0.3341294999999999,0.0392505,-0.100696,-0.6566695,0.0746435,0.104484,-0.6628595,0.0763625,0
15,0.000675,0.756328,0.0200265,-0.171446,0.492728,0.0108955,-0.224076,0.252428,0.0003025,0.161844,0.481558,0.0142995,0.206694,0.250118,-0.0286635,-0.219046,0.0574929999999999,-0.0728765,0.138874,0.3012979999999999,-0.2298665,-0.073268,-0.000575,0.0004914999999999,0.073268,0.000575,-0.0004914999999999,-0.0939769999999999,-0.339422,0.0299425,0.101454,-0.334092,0.0392535,-0.100676,-0.6563720000000001,0.0747275,0.104484,-0.662822,0.0764035,0
16,0.001271,0.7559635,0.0193724999999999,-0.171436,0.4927235,0.0108974999999999,-0.223956,0.2524635,0.0004244999999999,0.161984,0.4815235,0.0143064999999999,0.206514,0.2502435,-0.0290725,-0.219016,0.0573475,-0.0727955,0.139104,0.3016735,-0.2299054999999999,-0.073268,-0.0005635,0.0004904999999999,0.073268,0.0005635,-0.0004905,-0.093994,-0.3393865,0.0299424999999999,0.101474,-0.3340565,0.0392555,-0.100656,-0.6560864999999999,0.0748045,0.104474,-0.6627765,0.0764435,0
17,0.0018314999999999,0.7556554999999999,0.0187914999999999,-0.1713795,0.4927455,0.0108974999999999,-0.2238195,0.2524955,0.0005414999999999,0.1621405,0.4814755,0.0143144999999999,0.2065104999999999,0.2502755,-0.0290725,-0.2189694999999999,0.0572274999999999,-0.0727255,0.1391105,0.3019955,-0.2299255,-0.0732645,-0.0005514999999999,0.0004884999999999,0.0732645,0.0005515,-0.0004885,-0.0939975,-0.3393645,0.0299424999999999,0.1015105,-0.3339645,0.0391845,-0.1006395,-0.6558945,0.0748185,0.1044705,-0.6625045,0.0764505,0
18,0.0023505,0.7554,0.01829,-0.1713405,0.49276,0.010906,-0.2236705,0.25252,0.000682,0.1622895,0.48142,0.014328,0.2065095,0.2503,-0.029186,-0.2189405,0.057106,-0.07264,0.1390895,0.30178,-0.22936,-0.0732555,-0.0005369999999999,0.0004779999999999,0.0732555,0.000537,-0.0004779999999999,-0.0940085,-0.33934,0.029948,0.1015395,-0.3339399999999999,0.039136,-0.1006205,-0.65569,0.074862,0.1043795,-0.6621100000000001,0.07646,0
19,0.0028365,0.755231,0.0178575,-0.1712755,0.492781,0.0108664999999999,-0.2234955,0.252591,0.0008074999999999,0.1624245,0.481371,0.0143074999999999,0.2064645,0.250381,-0.0297375,-0.2189054999999999,0.056972,-0.0725595,0.1390245,0.302401,-0.2299394999999999,-0.0732465,-0.000526,0.0004624999999999,0.0732465,0.000526,-0.0004625,-0.0940215,-0.339189,0.0299074999999999,0.1015645,-0.3339189999999999,0.0390815,-0.1006055,-0.655479,0.0748915,0.1042945,-0.661699,0.0764664999999999,0
20,0.0032805,0.755099,0.0174964999999999,-0.1712135,0.492789,0.0108385,-0.2232935,0.252659,0.0009035,0.1625365,0.481339,0.0142575,0.2062765,0.250389,-0.0302815,-0.2188535,0.056804,-0.0724735,0.1410465,0.302749,-0.2274135,-0.0732365,-0.0005189999999999,0.0004434999999999,0.0732365,0.000519,-0.0004434999999999,-0.0940274999999999,-0.339101,0.0298705,0.1016065,-0.333941,0.0390475,-0.1005834999999999,-0.655351,0.0749094999999999,0.1041865,-0.661341,0.0764785,0
21,0.0036839999999999,0.7550290000000001,0.0171745,-0.1711309999999999,0.492779,0.0107665,-0.223101,0.252729,0.0009405,0.162629,0.481309,0.0141945,0.206109,0.250359,-0.0306935,-0.2188109999999999,0.05663,-0.0724345,0.141129,0.303409,-0.2279545,-0.073226,-0.0005189999999999,0.0004205,0.073226,0.000519,-0.0004204999999999,-0.094033,-0.3390309999999999,0.0298335,0.1016789999999999,-0.333961,0.0390365,-0.100571,-0.655261,0.0749235,0.104069,-0.6609809999999999,0.0764935,0
22,0.003964,0.7550290000000001,0.0169669999999999,-0.1710509999999999,0.492779,0.0106969999999999,-0.2228909999999999,0.252809,0.0009709999999999,0.162719,0.481299,0.0141219999999999,0.205869,0.250319,-0.03108,-0.218751,0.056439,-0.072415,0.138889,0.303409,-0.226955,-0.073217,-0.0005189999999999,0.0003999999999999,0.073217,0.000519,-0.0004,-0.09404,-0.3389609999999999,0.0297949999999999,0.101739,-0.333981,0.0390219999999999,-0.1005909999999999,-0.655251,0.0749229999999999,0.103949,-0.660631,0.0765039999999999,0
23,0.004128,0.755028,0.0168314999999999,-0.171003,0.492788,0.0106194999999999,-0.222703,0.252888,0.0009964999999999,0.162817,0.481298,0.0140444999999999,0.205647,0.250248,-0.0314655,-0.218703,0.056253,-0.0723905,0.1370269999999999,0.303408,-0.2273204999999999,-0.073207,-0.000518,0.0003784999999999,0.073207,0.000518,-0.0003785,-0.0940709999999999,-0.338892,0.0297424999999999,0.101807,-0.334062,0.0389964999999999,-0.100613,-0.6552520000000001,0.0749185,0.103837,-0.660292,0.0765005,0
24,0.0042115,0.7550185,0.0168095,-0.1709705,0.4927885,0.0105575,-0.2225305,0.2529585,0.0010285,0.1628895,0.4812885,0.0139555,0.2054395,0.2501585,-0.0318554999999999,-0.2186505,0.0560424999999999,-0.0723694999999999,0.1372395,0.3030184999999999,-0.2297195,-0.0731965,-0.0005135,0.0003555,0.0731965,0.0005135,-0.0003554999999999,-0.0941024999999999,-0.3388315,0.0296955,0.1018895,-0.3342315,0.0389855,-0.1006505,-0.6552615,0.0748955,0.1036995,-0.6599615,0.0764225,0
25,0.0041664999999999,0.7550595,0.0168424999999999,-0.1709485,0.4927795,0.0104744999999999,-0.2223685,0.2529995,0.0009974999999999,0.1629315,0.4812695,0.0138674999999999,0.2054214999999999,0.2500595,-0.0321765,-0.2185685,0.0558385,-0.0723665,0.1372115,0.3024695,-0.2304465,-0.0731825,-0.0005095,0.0003284999999999,0.0731825,0.0005095,-0.0003285,-0.0941375,-0.3387405,0.0296474999999999,0.1019615,-0.3344205,0.0389964999999999,-0.1007085,-0.6553705,0.0748745,0.1035814999999999,-0.6597505,0.0764505,0
26,0.0041005,0.7552460000000001,0.0168789999999999,-0.1709445,0.492766,0.0104119999999999,-0.2222345,0.252996,0.0009639999999999,0.1629555,0.481256,0.0137609999999999,0.2053855,0.249996,-0.03262,-0.2184545,0.055475,-0.07239,0.1380455,0.302546,-0.22864,-0.0731685,-0.000508,0.000299,0.0731685,0.0005079999999999,-0.000299,-0.0941605,-0.338694,0.0295809999999999,0.1020355,-0.334644,0.03904,-0.1007745,-0.655474,0.074857,0.1035155,-0.659774,0.076469,0
27,0.0040325,0.755557,0.016909,-0.1709425,0.492757,0.0103399999999999,-0.2221225,0.252967,0.0008939999999999,0.1629175,0.481267,0.013634,0.2052275,0.2498669999999999,-0.033123,-0.2183324999999999,0.055114,-0.07243,0.1377675,0.301977,-0.22871,-0.0731575,-0.000511,0.0002749999999999,0.0731575,0.000511,-0.0002749999999999,-0.0941864999999999,-0.338663,0.029542,0.1021075,-0.334833,0.039077,-0.1008625,-0.655543,0.074849,0.1034275,-0.659773,0.0764799999999999,0
28,0.003957,0.756044,0.017022,-0.170954,0.4927539999999999,0.010262,-0.222034,0.252934,0.000805,0.162856,0.481284,0.013543,0.205096,0.249684,-0.034066,-0.218204,0.054765,-0.0724829999999999,0.1373559999999999,0.301344,-0.2288529999999999,-0.073147,-0.000522,0.000253,0.073147,0.0005219999999999,-0.0002529999999999,-0.094236,-0.338626,0.029495,0.102166,-0.334946,0.03911,-0.1009439999999999,-0.6556059999999999,0.074843,0.103356,-0.659806,0.076514,0
29,0.003796,0.7566590000000001,0.0172725,-0.170974,0.492739,0.0101564999999999,-0.221994,0.252899,0.0006914999999999,0.162766,0.481309,0.0134745,0.204956,0.249469,-0.0349834999999999,-0.2180639999999999,0.054373,-0.0725244999999999,0.136966,0.300739,-0.2290545,-0.073138,-0.0005319999999999,0.0002385,0.073138,0.000532,-0.0002385,-0.0943219999999999,-0.338581,0.0294545,0.102196,-0.335151,0.0391665,-0.1010339999999999,-0.6556609999999999,0.0748625,0.103266,-0.659851,0.0765425,0
30,0.003524,0.757413,0.017698,-0.171023,0.492703,0.010077,-0.2219529999999999,0.252853,0.00056,0.162687,0.481373,0.013379,0.204867,0.249303,-0.0357639999999999,-0.217883,0.053924,-0.072576,0.136617,0.300193,-0.229206,-0.073128,-0.0005529999999999,0.000223,0.073128,0.000553,-0.0002229999999999,-0.094405,-0.338627,0.029415,0.102207,-0.335307,0.039233,-0.101143,-0.655767,0.074874,0.103197,-0.6599569999999999,0.076593,0
31,0.0031835,0.7582150000000001,0.0182799999999999,-0.1710735,0.4926649999999999,0.0100059999999999,-0.2219435,0.2527749999999999,0.0004479999999999,0.1625865,0.481475,0.0133049999999999,0.2047465,0.249145,-0.0365,-0.2176934999999999,0.0534609999999999,-0.072658,0.1363065,0.299715,-0.229438,-0.0731195,-0.000587,0.0002169999999999,0.0731195,0.000587,-0.000217,-0.0944915,-0.338635,0.0293859999999999,0.1022065,-0.335435,0.0392859999999999,-0.1012434999999999,-0.6558849999999999,0.074903,0.1030665,-0.6600149999999999,0.0766419999999999,0
32,0.0027824999999999,0.7591175,0.0189785,-0.1711065,0.4926275,0.0098435,-0.2219265,0.2526474999999999,0.0003505,0.1624735,0.4815775,0.0132375,0.2044935,0.2489974999999999,-0.0372765,-0.2174865,0.0530005,-0.0727245,0.1360235,0.2992575,-0.2295144999999999,-0.0731135,-0.0006215,0.0002155,0.0731135,0.0006215,-0.0002155,-0.0945845,-0.3386325,0.0293685,0.1022235,-0.3355825,0.0393435,-0.1013465,-0.6559625,0.0749415,0.1029935,-0.6600725,0.0767555,0
33,0.0023494999999999,0.759992,0.019717,-0.1711335,0.492582,0.0096859999999999,-0.2219135,0.252442,0.0002329999999999,0.1623165,0.481702,0.0131329999999999,0.2042965,0.248892,-0.037902,-0.2172735,0.052493,-0.072805,0.1357265,0.299272,-0.230415,-0.0731105,-0.000655,0.0002219999999999,0.0731105,0.000655,-0.0002219999999999,-0.0946635,-0.338678,0.029355,0.1021965,-0.335638,0.0393989999999999,-0.1014434999999999,-0.6560779999999999,0.074959,0.1029165,-0.6601279999999999,0.076861,0
34,0.001901,0.760856,0.0205594999999999,-0.171187,0.492536,0.0095785,-0.221897,0.252196,0.0001685,0.162163,0.481796,0.0130225,0.204233,0.248716,-0.0378175,-0.217077,0.052011,-0.0728805,0.135513,0.298636,-0.2309005,-0.07311,-0.000695,0.0002404999999999,0.07311,0.000695,-0.0002404999999999,-0.0947669999999999,-0.338624,0.0292704999999999,0.102183,-0.335704,0.0394795,-0.101517,-0.656204,0.0750025,0.102863,-0.660194,0.0770125,0
35,0.0014724999999999,0.761641,0.0214415,-0.1712185,0.492491,0.0094834999999999,-0.2218685,0.251951,0.0001045,0.1619715,0.481911,0.0129304999999999,0.2041815,0.248551,-0.0377275,-0.2169285,0.051698,-0.0729104999999999,0.1335215,0.298391,-0.2331805,-0.0731105,-0.000735,0.0002655,0.0731105,0.000735,-0.0002655,-0.0948535,-0.338559,0.0292155,0.1021715,-0.335779,0.0395654999999999,-0.1015985,-0.656389,0.0750915,0.1028215,-0.6602589999999999,0.0771805,0
36,0.0010709999999999,0.762238,0.02231,-0.171257,0.492438,0.009409,-0.221837,0.2516779999999999,3.200000000000425e-05,0.161773,0.482008,0.012862,0.2041829999999999,0.248388,-0.037633,-0.216777,0.051393,-0.072978,0.132153,0.298328,-0.235098,-0.073109,-0.000772,0.000293,0.073109,0.000772,-0.000293,-0.094937,-0.338502,0.029163,0.102153,-0.335872,0.039649,-0.101647,-0.656562,0.075187,0.1027829999999999,-0.660322,0.077349,0
37,0.0007014999999999,0.7626745,0.0231805,-0.1712775,0.4923745,0.0093445,-0.2217975,0.2514045,-3.849999999999687e-05,0.1615925,0.4820844999999999,0.0128065,0.2046725,0.2482245,-0.0367905,-0.2166375,0.0511065,-0.0730305,0.1322025,0.2985045,-0.2365405,-0.0731065,-0.0008045,0.0003225,0.0731065,0.0008045,-0.0003224999999999,-0.0950075,-0.3384555,0.0291235,0.1021425,-0.3359655,0.0397475,-0.1016975,-0.6567555,0.0752785,0.1027624999999999,-0.6603755,0.0774895,0
38,0.0004045,0.7629049999999999,0.0239519999999999,-0.1712725,0.492325,0.0093219999999999,-0.2217625,0.251175,-9.699999999999986e-05,0.1614275,0.482165,0.0127619999999999,0.2055374999999999,0.247995,-0.034524,-0.2165225,0.050897,-0.073078,0.1329074999999999,0.298455,-0.236408,-0.0731074999999999,-0.000841,0.0003509999999999,0.0731074999999999,0.000841,-0.000351,-0.0950375,-0.338445,0.0290889999999999,0.1021374999999999,-0.336005,0.039845,-0.1017025,-0.6569050000000001,0.0753919999999999,0.1027575,-0.660455,0.077582,0
39,0.0001984999999999,0.7629440000000001,0.024583,-0.1712865,0.492294,0.009318,-0.2217265,0.250974,-0.000136,0.1613135,0.482214,0.0127739999999999,0.2062534999999999,0.247804,-0.0323549999999999,-0.2164465,0.050777,-0.073123,0.1328035,0.298194,-0.235763,-0.0731095,-0.000861,0.000389,0.0731095,0.0008609999999999,-0.000389,-0.0950475,-0.3384459999999999,0.0290519999999999,0.1021334999999999,-0.336026,0.039924,-0.1017065,-0.657036,0.075496,0.1027635,-0.660496,0.077667,0
40,2.250000000000006e-05,0.7629370000000001,0.0251005,-0.1713005,0.492257,0.0093235,-0.2216905,0.250797,-0.0001864999999999,0.1612195,0.482247,0.0128235,0.2068295,0.247667,-0.0306915,-0.2163904999999999,0.050695,-0.0731745,0.1327895,0.297967,-0.2356444999999999,-0.0731105,-0.000868,0.0004214999999999,0.0731105,0.000868,-0.0004214999999999,-0.0950525,-0.338453,0.0290135,0.1021295,-0.336023,0.0399865,-0.1017105,-0.657183,0.0755935,0.1027495,-0.660543,0.0777185,0
41,-0.0001009999999999,0.7629345000000001,0.0255159999999999,-0.171343,0.4922545,0.0093929999999999,-0.221673,0.2506545,-0.0002009999999999,0.161137,0.4822545,0.0128679999999999,0.207327,0.2475945,-0.029021,-0.216343,0.0506155,-0.073222,0.132787,0.2976445,-0.2355719999999999,-0.073111,-0.0008705,0.000451,0.073111,0.0008705,-0.000451,-0.095076,-0.3383555,0.0289619999999999,0.102127,-0.3360255,0.040046,-0.101713,-0.6572454999999999,0.075687,0.1027069999999999,-0.6605655,0.0777789999999999,0
42,-0.0001755,0.7629345000000001,0.0258749999999999,-0.1713665,0.4922145,0.0094729999999999,-0.2216465,0.2505545,-0.000143,0.1611034999999999,0.4822545,0.0129479999999999,0.2079035,0.2475145,-0.026774,-0.2163165,0.0506015,-0.07326,0.1333435,0.2976145,-0.23421,-0.0731105,-0.0008705,0.0004959999999999,0.0731105,0.0008705,-0.000496,-0.0950955,-0.3382655,0.0289269999999999,0.1021034999999999,-0.3360455,0.0401109999999999,-0.1016565,-0.6572454999999999,0.0757569999999999,0.1026935,-0.6606555,0.07786,0
43,-0.000219,0.7628849999999999,0.026084,-0.171408,0.4921649999999999,0.009525,-0.221628,0.250465,-8.89999999999988e-05,0.161092,0.482255,0.013001,0.208482,0.247475,-0.024618,-0.216308,0.050586,-0.073276,0.133892,0.297625,-0.2326659999999999,-0.07311,-0.000871,0.000536,0.07311,0.000871,-0.000536,-0.095103,-0.338235,0.028981,0.102052,-0.336045,0.040144,-0.101598,-0.657245,0.075789,0.102682,-0.660725,0.07786,0
44,-0.000239,0.7627015,0.0261994999999999,-0.171452,0.4921215,0.0095974999999999,-0.221592,0.2503815,-4.350000000000187e-05,0.161108,0.4822615,0.0130454999999999,0.208578,0.2475115,-0.0238755,-0.216282,0.0505855,-0.0732915,0.133898,0.2978215,-0.2325114999999999,-0.073108,-0.0008775,0.0005744999999999,0.073108,0.0008775,-0.0005745,-0.095092,-0.3382185,0.0290244999999999,0.1020079999999999,-0.3360785,0.0401684999999999,-0.101532,-0.6572685,0.0758244999999999,0.1026979999999999,-0.6607785,0.0778494999999999,0
45,-0.000246,0.7624725,0.0262395,-0.171494,0.4920724999999999,0.0096854999999999,-0.221564,0.2502725,-1.5000000000015e-06,0.161106,0.4822625,0.0131224999999999,0.2089059999999999,0.2475425,-0.0224235,-0.216264,0.0505965,-0.0732505,0.134176,0.2979624999999999,-0.2315105,-0.073107,-0.0008825,0.0006124999999999,0.073107,0.0008825,-0.0006125,-0.0950739999999999,-0.3382075,0.0290654999999999,0.101966,-0.3360875,0.0401865,-0.1014539999999999,-0.6573075,0.0758554999999999,0.102716,-0.6608675,0.0778395,0
46,-0.0002414999999999,0.7621535,0.0262815,-0.1715395,0.4920334999999999,0.0097934999999999,-0.2215295,0.2501935,5.049999999999499e-05,0.1611205,0.4822635,0.0132344999999999,0.2099405,0.2473435,-0.0207395,-0.2162495,0.0506275,-0.0732075,0.1347305,0.2977535,-0.2297975,-0.0731045,-0.0008815,0.0006544999999999,0.0731045,0.0008815,-0.0006545,-0.0950385,-0.3382265,0.0291214999999999,0.1019105,-0.3361065,0.0402094999999999,-0.1013795,-0.6572765,0.0758925,0.1027505,-0.6609965,0.0778555,0
47,-0.000235,0.761779,0.0263225,-0.171594,0.491979,0.0099374999999999,-0.221494,0.250119,0.0001064999999999,0.161126,0.482249,0.0133844999999999,0.211426,0.247069,-0.0189025,-0.216224,0.050663,-0.0731655,0.1352959999999999,0.297539,-0.2280554999999999,-0.073101,-0.000879,0.0006955,0.073101,0.0008789999999999,-0.0006955,-0.095012,-0.338241,0.0291705,0.101836,-0.336111,0.0402355,-0.101324,-0.657221,0.0759344999999999,0.102786,-0.661101,0.0778415,0
48,-0.00023,0.7614495,0.026336,-0.171671,0.4919195,0.0100939999999999,-0.221441,0.2500394999999999,0.0001889999999999,0.161129,0.4822195,0.0135339999999999,0.211439,0.2471095,-0.018503,-0.216201,0.0507144999999999,-0.073116,0.135619,0.2975595,-0.226736,-0.073096,-0.0008745,0.0007369999999999,0.073096,0.0008745,-0.000737,-0.094979,-0.3382605,0.0292219999999999,0.1017889999999999,-0.3360705,0.04026,-0.1012609999999999,-0.6571305000000001,0.0759749999999999,0.102889,-0.6611705000000001,0.077829,0
49,-0.0002329999999999,0.7610979999999999,0.0262355,-0.17176,0.491888,0.0102415,-0.2214,0.249958,0.0002785,0.16114,0.482208,0.0136615,0.21123,0.247358,-0.0184674999999999,-0.21619,0.050774,-0.0730685,0.13595,0.297588,-0.2253784999999999,-0.0730919999999999,-0.0008699999999999,0.0007735,0.0730919999999999,0.00087,-0.0007734999999999,-0.09494,-0.338252,0.0292925,0.10173,-0.336022,0.0402755,-0.1012,-0.657012,0.0760135,0.10299,-0.6612020000000001,0.0778035,0
50,-0.000242,0.7607895,0.0260915,-0.171834,0.4918395,0.0103745,-0.221364,0.2498895,0.0003654999999999,0.161156,0.4821895,0.0137885,0.209706,0.2478595,-0.0195575,-0.216184,0.0508275,-0.0729885,0.136316,0.2975295,-0.2242284999999999,-0.073087,-0.0008625,0.0008114999999999,0.073087,0.0008625,-0.0008114999999999,-0.094915,-0.3382205,0.0293455,0.1016759999999999,-0.3359805,0.0402825,-0.101164,-0.6569105000000001,0.0760245,0.103086,-0.6612105,0.0778075,0
51,-0.0002505,0.760485,0.025847,-0.1719075,0.491805,0.010487,-0.2213175,0.249825,0.0004359999999999,0.1611625,0.482175,0.01386,0.2097325,0.248285,-0.019545,-0.2161875,0.050871,-0.072906,0.1367025,0.297235,-0.223516,-0.0730825,-0.000863,0.000835,0.0730825,0.000863,-0.000835,-0.0948895,-0.338215,0.0293809999999999,0.1016425,-0.335925,0.040259,-0.1011374999999999,-0.6568550000000001,0.076067,0.1031725,-0.6611950000000001,0.077778,0
52,-0.000256,0.7602205000000001,0.025591,-0.171979,0.4917705,0.010588,-0.221269,0.2497705,0.000501,0.161161,0.4821605,0.013887,0.212301,0.2486705,-0.0180689999999999,-0.216179,0.0508975,-0.0728159999999999,0.1381609999999999,0.2967105,-0.2208959999999999,-0.073079,-0.0008635,0.000856,0.073079,0.0008635,-0.0008559999999999,-0.094862,-0.3381794999999999,0.029408,0.1016209999999999,-0.3358294999999999,0.040215,-0.101119,-0.6567695,0.076135,0.103241,-0.6612195,0.077743,0
53,-0.0002669999999999,0.7599555,0.025328,-0.172063,0.4917655,0.01069,-0.221223,0.2497155,0.000599,0.161157,0.4821555,0.013914,0.215307,0.2487555,-0.015523,-0.216183,0.0509134999999999,-0.072714,0.139637,0.2963155,-0.217904,-0.073075,-0.0008604999999999,0.0008789999999999,0.073075,0.0008605,-0.0008789999999999,-0.094857,-0.3381544999999999,0.029435,0.101597,-0.3357345,0.040178,-0.101093,-0.6566945000000001,0.076188,0.103307,-0.6612445,0.077708,0
54,-0.0002815,0.7597075000000001,0.025067,-0.1721345,0.4917575,0.0107869999999999,-0.2211745,0.2497275,0.000695,0.1611455,0.4821575,0.013928,0.2183955,0.2487774999999999,-0.012,-0.2161845,0.0509354999999999,-0.072612,0.1414355,0.2956375,-0.213992,-0.0730685,-0.0008585,0.0008999999999999,0.0730685,0.0008585,-0.0008999999999999,-0.0948615,-0.3380925,0.029462,0.1015655,-0.3356125,0.040136,-0.1010945,-0.6566225,0.076236,0.1033655,-0.6612625,0.077679,0
55,-0.000297,0.759487,0.024802,-0.172232,0.491747,0.010883,-0.221132,0.249737,0.0007829999999999,0.1611179999999999,0.482167,0.013942,0.218208,0.249157,-0.0122019999999999,-0.216192,0.050953,-0.072519,0.141228,0.295897,-0.2142989999999999,-0.073064,-0.000857,0.000916,0.073064,0.000857,-0.000916,-0.094872,-0.338023,0.029477,0.101548,-0.335563,0.040116,-0.101112,-0.656543,0.076257,0.103408,-0.661293,0.0776449999999999,0
56,-0.0003154999999999,0.7593015000000001,0.0244934999999999,-0.1723215,0.4917615,0.0109424999999999,-0.2210915,0.2497515,0.0008704999999999,0.1611085,0.4821715,0.0139424999999999,0.2179984999999999,0.2495415,-0.0128565,-0.2162015,0.0509445,-0.0724365,0.1409485,0.2961915,-0.2149565,-0.0730595,-0.0008565,0.0009305,0.0730595,0.0008565,-0.0009305,-0.0948965,-0.3380085,0.0294825,0.1015485,-0.3355085,0.0400965,-0.1011415,-0.6564785,0.0762625,0.1034685,-0.6613685,0.0776065,0
57,-0.0003315,0.759123,0.0242005,-0.1723885,0.491763,0.0109715,-0.2210585,0.249753,0.0009415,0.1610715,0.482173,0.0139405,0.2178415,0.250013,-0.0137824999999999,-0.2162085,0.050904,-0.0723765,0.1405615,0.296503,-0.2158365,-0.0730575,-0.0008579999999999,0.0009395,0.0730575,0.0008579999999999,-0.0009394999999999,-0.0949235,-0.338007,0.0294805,0.1015415,-0.335427,0.0400615,-0.1011785,-0.656477,0.0763175,0.1034815,-0.661397,0.0775715,0
58,-0.0003305,0.758993,0.023929,-0.1724545,0.491763,0.010992,-0.2210345,0.249753,0.001012,0.1610555,0.482173,0.013938,0.2176855,0.2504429999999999,-0.0146489999999999,-0.2162145,0.0508669999999999,-0.0723169999999999,0.1401955,0.296793,-0.2166469999999999,-0.0730555,-0.0008579999999999,0.000949,0.0730555,0.0008579999999999,-0.0009489999999999,-0.0949545,-0.337987,0.029478,0.1015355,-0.335347,0.040027,-0.1012145,-0.656477,0.076381,0.1034954999999999,-0.661467,0.07754,0
59,-0.00033,0.758893,0.0236789999999999,-0.172521,0.491773,0.0109929999999999,-0.221001,0.249773,0.0010529999999999,0.161039,0.482173,0.0139119999999999,0.2177589999999999,0.250493,-0.014641,-0.216211,0.050827,-0.072302,0.140209,0.296793,-0.216642,-0.073054,-0.0008579999999999,0.0009529999999999,0.073054,0.0008579999999999,-0.000953,-0.094986,-0.3379169999999999,0.0294799999999999,0.1015389999999999,-0.3352569999999999,0.039991,-0.1012609999999999,-0.656417,0.0764459999999999,0.1035089999999999,-0.661557,0.077515,0
60,-0.0003235,0.7588435,0.0234789999999999,-0.1725985,0.4917735,0.0109849999999999,-0.2209685,0.2498135,0.0010729999999999,0.1610214999999999,0.4821835,0.0138739999999999,0.2177414999999999,0.2506335,-0.014881,-0.2162085,0.0507745,-0.0723,0.1400914999999999,0.2969035,-0.21682,-0.0730514999999999,-0.0008595,0.0009549999999999,0.0730514999999999,0.0008594999999999,-0.000955,-0.0950255,-0.3378265,0.0294789999999999,0.1015115,-0.3350765,0.0399529999999999,-0.1012985,-0.6562965000000001,0.076547,0.1034515,-0.6616365000000001,0.077497,0
61,-0.0003199999999999,0.758822,0.023301,-0.1726579999999999,0.491792,0.010973,-0.220958,0.249862,0.001079,0.161012,0.482192,0.013845,0.2142319999999999,0.250982,-0.019176,-0.216198,0.050718,-0.072294,0.1379119999999999,0.298002,-0.221484,-0.073048,-0.000861,0.00096,0.073048,0.0008609999999999,-0.0009599999999999,-0.095043,-0.337828,0.029464,0.101482,-0.334918,0.03993,-0.101338,-0.656278,0.076568,0.103382,-0.661688,0.077476,0
62,-0.0003054999999999,0.758818,0.02312,-0.1727095,0.491818,0.010948,-0.2209395,0.249908,0.001095,0.1610105,0.482218,0.013825,0.2106905,0.251108,-0.0227419999999999,-0.2161794999999999,0.050653,-0.072278,0.1359405,0.2988679999999999,-0.2254779999999999,-0.0730475,-0.000861,0.000954,0.0730475,0.000861,-0.0009539999999999,-0.0950375,-0.337832,0.029463,0.1014605,-0.334752,0.039918,-0.1013395,-0.656282,0.076583,0.1033205,-0.661742,0.077452,0
63,-0.0002859999999999,0.758808,0.0229414999999999,-0.172743,0.491858,0.0108884999999999,-0.220923,0.249948,0.0011134999999999,0.161027,0.482228,0.0138004999999999,0.210747,0.251138,-0.0235385,-0.216173,0.0505819999999999,-0.0722695,0.135717,0.299018,-0.2261395,-0.073048,-0.000859,0.0009444999999999,0.073048,0.000859,-0.0009445,-0.095035,-0.337842,0.0294614999999999,0.1014569999999999,-0.334642,0.0399044999999999,-0.1013429999999999,-0.656292,0.0765955,0.1032569999999999,-0.661752,0.0774344999999999,0
64,-0.0002664999999999,0.7587945,0.022811,-0.1727285,0.4918745,0.010772,-0.2209085,0.2499945,0.00113,0.1610415,0.4822445,0.013769,0.2107514999999999,0.2511245,-0.0245099999999999,-0.2161785,0.0505245,-0.072263,0.1354215,0.2991845,-0.226973,-0.0730494999999999,-0.0008575,0.000928,0.0730494999999999,0.0008575,-0.0009279999999999,-0.0950334999999999,-0.3378755,0.029459,0.1014615,-0.3345654999999999,0.039908,-0.1013385,-0.6562655,0.076631,0.1031815,-0.6617655,0.077407,0
65,-0.000243,0.7587785,0.0227685,-0.172705,0.4918985,0.0106305,-0.220895,0.2500485,0.0010975,0.161055,0.4822585,0.0137165,0.210625,0.2511185,-0.0257635,-0.216175,0.0504795,-0.0722485,0.135025,0.2992985,-0.2280885,-0.073052,-0.0008575,0.0009084999999999,0.073052,0.0008575,-0.0009084999999999,-0.0950179999999999,-0.3379215,0.0294655,0.1014849999999999,-0.3345415,0.0399215,-0.101315,-0.6562815,0.0766755,0.103135,-0.6617815,0.0774165,0
66,-0.0002175,0.7588214999999999,0.0227595,-0.1726725,0.4919115,0.0104674999999999,-0.2208824999999999,0.2501015,0.0010594999999999,0.1610575,0.4822715,0.0136384999999999,0.2070675,0.2509515,-0.0289974999999999,-0.2161624999999999,0.0504405,-0.0722425,0.1331875,0.2998615,-0.2318425,-0.0730565,-0.0008575,0.0008885,0.0730565,0.0008575,-0.0008885,-0.0950045,-0.3379784999999999,0.0294735,0.1015175,-0.3345185,0.0399445,-0.1012925,-0.6562985,0.0766075,0.1030775,-0.6616785000000001,0.0774285,0
67,-0.0001959999999999,0.7589045,0.0227904999999999,-0.172642,0.4919345,0.0102224999999999,-0.2208919999999999,0.2501744999999999,0.0009894999999999,0.161048,0.4822844999999999,0.0135085,0.206648,0.2509045,-0.0297465,-0.2161719999999999,0.0504234999999999,-0.0722315,0.132928,0.2998444999999999,-0.2325815,-0.07306,-0.0008575,0.0008745,0.07306,0.0008575,-0.0008745,-0.094983,-0.3380355,0.0294865,0.101528,-0.3345355,0.0399465,-0.1012619999999999,-0.6563154999999999,0.0765365,0.103028,-0.6615455,0.0774525,0
68,-0.0001715,0.759059,0.0228459999999999,-0.1725915,0.491949,0.0099659999999999,-0.2209115,0.250249,0.0008949999999999,0.1610285,0.482279,0.0133679999999999,0.2062385,0.250879,-0.030443,-0.2161715,0.050398,-0.072256,0.1329485,0.299819,-0.232526,-0.0730645,-0.00086,0.0008639999999999,0.0730645,0.00086,-0.000864,-0.0949535,-0.338091,0.0295039999999999,0.1015585,-0.334601,0.0399379999999999,-0.1012415,-0.6563709999999999,0.0764649999999999,0.1029785,-0.661381,0.077467,0
69,-0.0001549999999999,0.7592805,0.022913,-0.172549,0.4919905,0.009681,-0.220969,0.2503505,0.000706,0.1609509999999999,0.4822705,0.013154,0.205841,0.2508605,-0.0311309999999999,-0.216189,0.0504015,-0.072309,0.132961,0.2998004999999999,-0.232459,-0.07307,-0.0008605,0.000851,0.07307,0.0008604999999999,-0.0008509999999999,-0.0949299999999999,-0.3381195,0.02952,0.101571,-0.3346695,0.039951,-0.101219,-0.6563695,0.076418,0.102951,-0.6611895,0.07749,0
70,-0.0001359999999999,0.7595765,0.0229834999999999,-0.172507,0.4920365,0.0093934999999999,-0.2210369999999999,0.2504565,0.0005194999999999,0.160893,0.4822465,0.0129344999999999,0.205433,0.2506465,-0.0318535,-0.216197,0.0503915,-0.0723584999999999,0.132973,0.2996565,-0.2323785,-0.073076,-0.0008635,0.0008374999999999,0.073076,0.0008635,-0.0008374999999999,-0.0949079999999999,-0.3381535,0.0295375,0.1015929999999999,-0.3346935,0.0399665,-0.1012069999999999,-0.6564435000000001,0.0763675,0.102923,-0.6610635,0.0775135,0
71,-0.0001269999999999,0.7598825,0.023054,-0.1724659999999999,0.4920724999999999,0.009128,-0.221136,0.2505825,0.000327,0.160824,0.4822225,0.012719,0.205094,0.2504625,-0.0324099999999999,-0.216226,0.0503855,-0.0724409999999999,0.132684,0.2990925,-0.2331309999999999,-0.07308,-0.0008655,0.000835,0.07308,0.0008655,-0.0008349999999999,-0.094896,-0.3382275,0.029528,0.1016239999999999,-0.3347375,0.039977,-0.101186,-0.6564975,0.076311,0.102894,-0.6609775,0.077552,0
72,-0.0001154999999999,0.7602375,0.02316,-0.1723975,0.4921375,0.0088879999999999,-0.2212375,0.2506975,7.799999999999474e-05,0.1607625,0.4821875,0.0124939999999999,0.2048025,0.2503175,-0.032935,-0.2162475,0.0503775,-0.072524,0.1343625,0.2976675,-0.232654,-0.0730825,-0.0008655,0.0008299999999999,0.0730825,0.0008655,-0.00083,-0.0948755,-0.3383325,0.0295399999999999,0.1016624999999999,-0.3349325,0.040007,-0.1011775,-0.6566425,0.0762259999999999,0.1028725,-0.6609125,0.0776,0
73,-0.000108,0.7606200000000001,0.0232944999999999,-0.1723009999999999,0.49221,0.0086654999999999,-0.221361,0.25087,-0.0001925,0.160709,0.48216,0.0122844999999999,0.204809,0.25015,-0.0330385,-0.216261,0.0503809999999999,-0.0726425,0.134119,0.29723,-0.2334224999999999,-0.073083,-0.0008669999999999,0.0008414999999999,0.073083,0.0008669999999999,-0.0008415,-0.094863,-0.33836,0.0295674999999999,0.101719,-0.3351,0.0400414999999999,-0.101171,-0.65675,0.0762164999999999,0.102859,-0.66084,0.0776554999999999,0
74,-9.499999999999948e-05,0.761082,0.0235215,-0.172135,0.492292,0.0083585,-0.221475,0.251022,-0.0004984999999999,0.160655,0.482132,0.0120785,0.204805,0.249992,-0.0329664999999999,-0.216275,0.0504159999999999,-0.0728164999999999,0.133935,0.296822,-0.2340165,-0.073084,-0.000871,0.0008535,0.073084,0.0008709999999999,-0.0008535,-0.094848,-0.3383879999999999,0.0295905,0.101765,-0.335258,0.0400795,-0.101175,-0.6568579999999999,0.0762555,0.102835,-0.660808,0.0777125,0
75,-7.9500000000006e-05,0.7615735,0.0238515,-0.1719815,0.4923935,0.0080725,-0.2216115,0.2511735,-0.0008685,0.1606085,0.4821035,0.0119035,0.2048185,0.2498735,-0.0332544999999999,-0.2162915,0.0504595,-0.0729845,0.1337685,0.2964135,-0.2353445,-0.0730875,-0.0008755,0.0008655,0.0730875,0.0008755,-0.0008654999999999,-0.0948385,-0.3384164999999999,0.0296205,0.1018085,-0.3354065,0.0401235,-0.1011815,-0.6569665,0.0763015,0.1028284999999999,-0.6608065,0.0777765,0
76,-7.050000000000112e-05,0.762049,0.0242165,-0.1718405,0.4924989999999999,0.0077775,-0.2217405,0.2513289999999999,-0.0012355,0.1605895,0.482089,0.0117695,0.2050895,0.249749,-0.0331564999999999,-0.2163005,0.050523,-0.0732205,0.1336695,0.2959489999999999,-0.2366905,-0.0730915,-0.000881,0.0008695,0.0730915,0.000881,-0.0008694999999999,-0.0948025,-0.338381,0.0296025,0.1018395,-0.335561,0.0401575,-0.1011905,-0.657091,0.0763554999999999,0.1028095,-0.660811,0.0778505,0
77,-9.350000000000136e-05,0.762512,0.024624,-0.1717185,0.4926319999999999,0.0074699999999999,-0.2219185,0.251482,-0.0016639999999999,0.1605615,0.482072,0.0116309999999999,0.2055315,0.249642,-0.032837,-0.2163185,0.0506659999999999,-0.073584,0.1339415,0.2955319999999999,-0.237754,-0.0730985,-0.000883,0.0008669999999999,0.0730985,0.000883,-0.0008669999999999,-0.0947835,-0.338368,0.0296019999999999,0.1018615,-0.335698,0.040222,-0.1013285,-0.657388,0.0764489999999999,0.1027815,-0.660838,0.0779489999999999,0
78,-0.0001585,0.762981,0.0250675,-0.1715684999999999,0.492731,0.0071284999999999,-0.2221185,0.251611,-0.0020495,0.1605015,0.482041,0.0115954999999999,0.2059115,0.249521,-0.0329695,-0.2163785,0.051082,-0.0740795,0.1343115,0.295211,-0.2389695,-0.0731125,-0.000892,0.0008794999999999,0.0731125,0.000892,-0.0008795,-0.0947655,-0.338359,0.0296164999999999,0.1018514999999999,-0.335829,0.0403045,-0.1014485,-0.657719,0.0765305,0.1027414999999999,-0.660979,0.0780625,0
79,-0.0002334999999999,0.763397,0.0255755,-0.1714255,0.492807,0.0067895,-0.2223755,0.251847,-0.0025594999999999,0.1604245,0.481997,0.0115895,0.2067745,0.249447,-0.0328295,-0.2164454999999999,0.05155,-0.0747444999999999,0.1353245,0.295157,-0.2399345,-0.0731255,-0.000903,0.0008875,0.0731255,0.000903,-0.0008874999999999,-0.0947475,-0.338363,0.0296495,0.1018445,-0.335923,0.0404035,-0.1015855,-0.658123,0.0766245,0.1026845,-0.6611229999999999,0.0782045,0
80,-0.0003224999999999,0.763888,0.0261885,-0.1712725,0.492878,0.0064605,-0.2227425,0.252148,-0.0031904999999999,0.1603375,0.481948,0.0115625,0.2076375,0.2493979999999999,-0.0326445,-0.2165225,0.052209,-0.0757075,0.1376474999999999,0.295108,-0.2409074999999999,-0.0731435,-0.000919,0.0009074999999999,0.0731435,0.000919,-0.0009074999999999,-0.0947475,-0.338352,0.0296965,0.1018275,-0.336092,0.0404995,-0.1017624999999999,-0.658452,0.0767245,0.1026475,-0.661262,0.0783635,0
81,-0.0004204999999999,0.7643770000000001,0.0268755,-0.1711435,0.492937,0.0061485,-0.2232535,0.252627,-0.0038785,0.1602765,0.481897,0.0115105,0.2085465,0.2493469999999999,-0.0328325,-0.2170135,0.054223,-0.0777635,0.1407065,0.295057,-0.2418334999999999,-0.0731595,-0.000937,0.0009085,0.0731595,0.000937,-0.0009084999999999,-0.0947565,-0.338323,0.0297205,0.1018165,-0.336273,0.0405785,-0.1019335,-0.6587729999999999,0.0768025,0.1025965,-0.661403,0.0784985,0
82,-0.0005489999999999,0.764834,0.027672,-0.1710489999999999,0.493014,0.0058759999999999,-0.223939,0.253294,-0.004747,0.160211,0.481884,0.011429,0.209471,0.249294,-0.0324919999999999,-0.217969,0.05745,-0.080859,0.143821,0.295004,-0.243079,-0.073186,-0.000959,0.000876,0.073186,0.000959,-0.000876,-0.094745,-0.3383759999999999,0.029703,0.101811,-0.3363259999999999,0.040606,-0.102049,-0.659116,0.076842,0.102561,-0.661486,0.078594,0
83,-0.0007189999999999,0.7651990000000001,0.0285285,-0.171004,0.493069,0.0058305,-0.225074,0.254559,-0.0060824999999999,0.160076,0.481929,0.0112955,0.210616,0.249349,-0.0320455,-0.219844,0.062848,-0.0864865,0.143926,0.296969,-0.2440965,-0.073219,-0.000982,0.0008405,0.073219,0.000982,-0.0008405,-0.094728,-0.338431,0.0296755,0.101816,-0.336351,0.0406155,-0.1021139999999999,-0.659361,0.0768685,0.102526,-0.6615909999999999,0.0786875,0
84,-0.0009304999999999,0.765477,0.029419,-0.1709425,0.4931069999999999,0.005845,-0.2268725,0.257107,-0.0078439999999999,0.1597475,0.4822369999999999,0.011097,0.2129575,0.250527,-0.03228,-0.2232525,0.070644,-0.0950699999999999,0.1442375,0.299757,-0.24512,-0.0732585,-0.001014,0.000794,0.0732585,0.001014,-0.0007939999999999,-0.0947075,-0.338503,0.029644,0.1018275,-0.336393,0.040592,-0.1021725,-0.659643,0.076874,0.1025075,-0.6617230000000001,0.078776,0
85,-0.0011979999999999,0.7657025000000001,0.03039,-0.170882,0.4931525,0.005892,-0.229462,0.2623825,-0.009992,0.159388,0.4825725,0.010927,0.215838,0.2522025,-0.032097,-0.227592,0.0811475,-0.107108,0.150048,0.3032125,-0.245388,-0.073304,-0.0010515,0.000747,0.073304,0.0010515,-0.0007469999999999,-0.094695,-0.3385875,0.029652,0.101878,-0.3364375,0.04057,-0.102212,-0.6597274999999999,0.076842,0.102498,-0.6618474999999999,0.078843,0
86,-0.0015399999999999,0.7659005,0.0315025,-0.17082,0.4931305,0.0059155,-0.23249,0.2684605,-0.0124974999999999,0.15842,0.4833105,0.0107575,0.22037,0.2544305,-0.0322205,-0.23356,0.0975015,-0.1202605,0.15983,0.3082305,-0.2461705,-0.07335,-0.0010955,0.0007245,0.07335,0.0010955,-0.0007244999999999,-0.094697,-0.3386595,0.0296485,0.10195,-0.3364895,0.0405255,-0.10224,-0.6598295,0.0767695,0.1025,-0.6619794999999999,0.0789095,0
87,-0.0020089999999999,0.7661129999999999,0.032878,-0.170855,0.493013,0.005914,-0.236315,0.276303,-0.0159819999999999,0.157405,0.483993,0.010625,0.226135,0.257853,-0.033987,-0.242565,0.118793,-0.135632,0.167875,0.316543,-0.2472019999999999,-0.073385,-0.001141,0.000723,0.073385,0.001141,-0.0007229999999999,-0.09473,-0.338727,0.029611,0.102045,-0.336497,0.040459,-0.102215,-0.659957,0.076696,0.102505,-0.662127,0.078964,0
88,-0.0026019999999999,0.766353,0.034562,-0.170892,0.4928829999999999,0.005995,-0.242722,0.284893,-0.023631,0.156388,0.484523,0.010505,0.232808,0.2644229999999999,-0.037747,-0.251722,0.143163,-0.154744,0.1808779999999999,0.3274829999999999,-0.249064,-0.073422,-0.00118,0.0007209999999999,0.073422,0.00118,-0.0007209999999999,-0.0947649999999999,-0.338847,0.029567,0.102148,-0.336487,0.040408,-0.102142,-0.660057,0.076684,0.102508,-0.662257,0.078967,0
89,-0.0032675,0.7665275,0.036353,-0.1709284999999999,0.4927475,0.006214,-0.2490784999999999,0.2947175,-0.0313419999999999,0.1555115,0.4850075,0.010383,0.2399615,0.2722375,-0.041793,-0.2641485,0.1684775,-0.176821,0.1953315,0.3447075,-0.252171,-0.0734585,-0.0012195,0.000694,0.0734585,0.0012195,-0.000694,-0.0947895,-0.3389724999999999,0.029502,0.1022415,-0.3364425,0.040382,-0.1019585,-0.6598625,0.076611,0.1025115,-0.6623525,0.078945,0
90,-0.0039914999999999,0.7666395,0.038202,-0.1709925,0.4927795,0.00639,-0.2572725,0.3051395,-0.039117,0.1547575,0.4855494999999999,0.010259,0.2477575,0.2829595,-0.04603,-0.2785325,0.2037695,-0.199615,0.2115675,0.3665695,-0.256375,-0.0734855,-0.0012575,0.000633,0.0734855,0.0012575,-0.000633,-0.0948054999999999,-0.3389805,0.029373,0.1023375,-0.3364005,0.040302,-0.1017525,-0.6596105,0.076546,0.1025275,-0.6624705,0.078864,0
91,-0.0047399999999999,0.7668035000000001,0.040093,-0.171175,0.4927835,0.006349,-0.268355,0.3175834999999999,-0.047349,0.154155,0.4861935,0.010078,0.258495,0.2985835,-0.0571539999999999,-0.292465,0.2445435,-0.222575,0.229015,0.3937035,-0.258845,-0.073523,-0.0012935,0.000563,0.073523,0.0012935,-0.0005629999999999,-0.094878,-0.3388765,0.029186,0.102465,-0.3363265,0.040156,-0.101495,-0.6592564999999999,0.076406,0.102575,-0.6624665,0.078725,0
92,-0.0055065,0.7670089999999999,0.0419445,-0.1715165,0.4927789999999999,0.0061164999999999,-0.2806565,0.3335889999999999,-0.0562405,0.1539635,0.486769,0.0098535,0.2700234999999999,0.316409,-0.0679575,-0.3061365,0.2909589999999999,-0.2437375,0.2461134999999999,0.424259,-0.2592475,-0.0735655,-0.0013349999999999,0.0004554999999999,0.0735655,0.0013349999999999,-0.0004554999999999,-0.0949725,-0.338751,0.0289565,0.1025734999999999,-0.336181,0.0399475,-0.1012764999999999,-0.658911,0.0762015,0.1026235,-0.662461,0.0785355,0
93,-0.0063539999999999,0.7671745,0.0438425,-0.172207,0.4926845,0.0058165,-0.292267,0.3512845,-0.0652005,0.154043,0.4870045,0.0095905,0.280873,0.3358145,-0.0776505,-0.319027,0.3417045,-0.2604805,0.262753,0.4569245,-0.2587104999999999,-0.073626,-0.0013785,0.0003195,0.073626,0.0013785,-0.0003195,-0.095068,-0.3387055,0.0287025,0.102653,-0.3364755,0.0397295,-0.101077,-0.6587054999999999,0.0759615,0.102713,-0.6625354999999999,0.0782954999999999,0
94,-0.0072385,0.7672914999999999,0.0458825,-0.1732195,0.4927015,0.0054625,-0.3029295,0.3748115,-0.0792905,0.1541505,0.4870715,0.0094195,0.2909604999999999,0.3563115,-0.0871905,-0.3317795,0.3973215,-0.2727805,0.2761905,0.4918615,-0.2579205,-0.0736845,-0.0014135,0.0001705,0.0736845,0.0014135,-0.0001704999999999,-0.0951585,-0.3387785,0.0284155,0.1027505,-0.3366584999999999,0.0395175,-0.1009395,-0.6585985000000001,0.0757265,0.1028304999999999,-0.6626385,0.0780165,0
95,-0.008023,0.7672075,0.0477984999999999,-0.174472,0.4931675,0.0048814999999999,-0.313122,0.4004875,-0.0934435,0.1543179999999999,0.4871175,0.0095124999999999,0.299778,0.3776675,-0.0980434999999999,-0.342872,0.4519375,-0.2826535,0.288808,0.5273075,-0.2563635,-0.0737309999999999,-0.0014084999999999,-8.050000000000418e-05,0.0737309999999999,0.0014085,8.049999999999724e-05,-0.095176,-0.3391025,0.0281694999999999,0.1029279999999999,-0.3371325,0.0393725,-0.1007619999999999,-0.6587225,0.0755494999999999,0.103018,-0.6630125,0.0777325,0
96,-0.0085999999999999,0.7668839999999999,0.0494165,-0.175587,0.493864,0.0039014999999999,-0.322217,0.428684,-0.1066905,0.1547629999999999,0.487404,0.0095855,0.3074429999999999,0.399674,-0.1051405,-0.350537,0.505404,-0.2887105,0.3004529999999999,0.561164,-0.2524805,-0.073739,-0.0014219999999999,-0.0004125,0.073739,0.001422,0.0004124999999999,-0.095091,-0.339636,0.0278824999999999,0.103203,-0.337886,0.0393095,-0.1004569999999999,-0.6590760000000001,0.0753315,0.103303,-0.663606,0.0773784999999999,0
97,-0.009012,0.7661715,0.0506355,-0.176483,0.4949615,0.0024685,-0.327853,0.4561115,-0.1149574999999999,0.1554769999999999,0.4881715,0.0097095,0.314017,0.4247515,-0.1116175,-0.357683,0.5619215,-0.2894275,0.3107769999999999,0.5945415,-0.2496475,-0.07375,-0.0014015,-0.0007584999999999,0.07375,0.0014015,0.0007585,-0.095014,-0.3404284999999999,0.0275745,0.103517,-0.3390685,0.0392945,-0.100083,-0.6598885,0.0751415,0.103667,-0.6645785000000001,0.0770105,0
98,-0.0092905,0.765113,0.0515375,-0.1771285,0.496423,0.0006315,-0.3328185,0.4846129999999999,-0.1224825,0.1570315,0.488983,0.0099975,0.3193514999999999,0.4517029999999999,-0.1151125,-0.3609085,0.619183,-0.2899725,0.3201214999999999,0.6282730000000001,-0.2490325,-0.0737475,-0.001368,-0.0011465,0.0737475,0.001368,0.0011465,-0.0948705,-0.341607,0.0272485,0.1038715,-0.340597,0.0392525,-0.0996985,-0.6614169999999999,0.0748905,0.1041115,-0.6659069999999999,0.0766115,0
99,-0.0094699999999999,0.7636835000000001,0.0522615,-0.177488,0.4985135,-0.0012085,-0.333928,0.5143435000000001,-0.1271145,0.158792,0.4900834999999999,0.0105195,0.323692,0.4765434999999999,-0.1173144999999999,-0.361558,0.6683235000000001,-0.2902745,0.327492,0.6589935,-0.2447345,-0.073734,-0.0013165,-0.0015545,0.073734,0.0013165,0.0015545,-0.0946519999999999,-0.3432865,0.0270275,0.104252,-0.3423665,0.0393485,-0.0993379999999999,-0.6633264999999999,0.0747734999999999,0.104602,-0.6677065,0.0763435,0
100,-0.0096225,0.7619185,0.052764,-0.1776185,0.5008585,-0.002949,-0.3335885,0.5440885000000001,-0.132082,0.1605915,0.4914884999999999,0.011349,0.3248514999999999,0.4986285,-0.1173819999999999,-0.3621285,0.7125785,-0.285652,0.3328015,0.6839785,-0.239392,-0.0736935,-0.0012455,-0.001986,0.0736935,0.0012455,0.001986,-0.0943815,-0.3453715,0.026957,0.1046115,-0.3444615,0.039502,-0.0990585,-0.6655114999999999,0.0747869999999999,0.1050715,-0.6698915,0.076219,0
101,-0.0097195,0.7596455,0.0530975,-0.1774165,0.5035755,-0.0044994999999999,-0.3329565,0.5710655,-0.1342055,0.1622835,0.4932955,0.0125905,0.3253835,0.5196655,-0.1173755,-0.3617065,0.7506655,-0.2835155,0.3365035,0.7064254999999999,-0.2276955,-0.0736205,-0.0011765,-0.0023974999999999,0.0736205,0.0011765,0.0023975,-0.0940695,-0.3479245,0.0269975,0.1049934999999999,-0.3470545,0.0397295,-0.0988565,-0.6681545,0.0748735,0.1055734999999999,-0.6725345,0.0762144999999999,0
102,-0.009748,0.757091,0.053286,-0.176843,0.506551,-0.005727,-0.332393,0.597481,-0.135211,0.163557,0.495491,0.01406,0.325887,0.538561,-0.117211,-0.361533,0.786041,-0.276481,0.339177,0.726501,-0.213981,-0.073553,-0.0011009999999999,-0.0027879999999999,0.073553,0.0011009999999999,0.0027879999999999,-0.093834,-0.350679,0.0272499999999999,0.1052569999999999,-0.349709,0.040094,-0.0987329999999999,-0.670989,0.075137,0.106057,-0.675439,0.0763669999999999,0
103,-0.0097859999999999,0.7543945000000001,0.0535449999999999,-0.176303,0.5094645000000001,-0.006616,-0.330593,0.6167645,-0.134867,0.164487,0.4977945,0.0155069999999999,0.326117,0.5569345,-0.111847,-0.361563,0.8142745,-0.265647,0.340487,0.7453745,-0.200627,-0.073475,-0.0010515,-0.0031009999999999,0.073475,0.0010515,0.0031009999999999,-0.093626,-0.3535355,0.0276179999999999,0.105457,-0.3521355,0.0404739999999999,-0.098643,-0.6741054999999999,0.075483,0.106517,-0.6786055,0.076661,0
104,-0.009909,0.7513704999999999,0.0538644999999999,-0.175845,0.5121205,-0.0070055,-0.3266949999999999,0.6343304999999999,-0.1343505,0.165375,0.5002105,0.0169274999999999,0.325145,0.5758205,-0.1042105,-0.361705,0.8395305,-0.2512105,0.340885,0.7642605,-0.1873705,-0.073376,-0.0010564999999999,-0.0034215,0.073376,0.0010565,0.0034215,-0.093431,-0.3566895,0.0280445,0.105625,-0.3547194999999999,0.0408725,-0.098605,-0.6774395000000001,0.0758804999999999,0.106925,-0.6821595,0.0770184999999999,0
105,-0.0101415,0.7483839999999999,0.054199,-0.1755025,0.5146139999999999,-0.0069989999999999,-0.3223525,0.6480739999999999,-0.1338,0.1660475,0.502424,0.018364,0.3231875,0.593814,-0.09669,-0.3611824999999999,0.861574,-0.23723,0.3407775,0.782474,-0.17428,-0.0732955,-0.001066,-0.0037629999999999,0.0732955,0.0010659999999999,0.003763,-0.0933255,-0.359766,0.02845,0.1057174999999999,-0.357246,0.041227,-0.0986425,-0.6807660000000001,0.076302,0.1072075,-0.6856960000000001,0.077399,0
106,-0.0104585,0.7455605,0.0541614999999999,-0.1748455,0.5166605,-0.0065825,-0.3182655,0.6624005000000001,-0.1283555,0.1666445,0.5041705,0.0199044999999999,0.3205745,0.6070005,-0.0894254999999999,-0.3598255,0.8770105,-0.2231755,0.3403945,0.7993205,-0.1615155,-0.0732075,-0.0011464999999999,-0.0041425,0.0732075,0.0011465,0.0041424999999999,-0.0932755,-0.3626095,0.0288364999999999,0.1056945,-0.3593294999999999,0.0416094999999999,-0.0987055,-0.6839195,0.0767535,0.1074245,-0.6891895,0.0778165,0
107,-0.010818,0.742791,0.0540395,-0.173909,0.5182009999999999,-0.0061324999999999,-0.313959,0.674701,-0.1220145,0.166931,0.5062409999999999,0.0213464999999999,0.317301,0.618401,-0.0820645,-0.358829,0.891181,-0.2092045,0.339871,0.814991,-0.1475445,-0.0731199999999999,-0.0012659999999999,-0.0044055,0.0731199999999999,0.001266,0.0044055,-0.093246,-0.365289,0.0292515,0.105581,-0.361309,0.0420365,-0.0988189999999999,-0.6870689999999999,0.0772485,0.107511,-0.692569,0.0782365,0
108,-0.0112369999999999,0.7402615,0.0536264999999999,-0.173029,0.5191115000000001,-0.0056445,-0.309579,0.6855215,-0.1152955,0.167111,0.5080915,0.0227904999999999,0.313521,0.6299615000000001,-0.0746655,-0.357789,0.9025115,-0.1956755,0.339341,0.8288615,-0.1359155,-0.073034,-0.0013955,-0.0044625,0.073034,0.0013955,0.0044624999999999,-0.093219,-0.3677785,0.0297224999999999,0.105401,-0.3629785,0.0424774999999999,-0.0989289999999999,-0.6899985,0.0777964999999999,0.107541,-0.6957384999999999,0.0786895,0
109,-0.0116209999999999,0.7377995,0.053128,-0.172245,0.5198195,-0.0050089999999999,-0.305795,0.6945695000000001,-0.10894,0.167165,0.5097995000000001,0.02415,0.309295,0.6397295000000001,-0.06727,-0.3570649999999999,0.9121195,-0.18282,0.338425,0.8427195000000001,-0.12464,-0.072964,-0.0015664999999999,-0.0043549999999999,0.072964,0.0015665,0.004355,-0.0931729999999999,-0.3701605,0.030158,0.105215,-0.3646305,0.042942,-0.099045,-0.6930105,0.0783399999999999,0.107555,-0.6988405,0.079134,0
110,-0.0120124999999999,0.7356324999999999,0.0526645,-0.1715935,0.5202825,-0.0040274999999999,-0.3023734999999999,0.7027325,-0.1027124999999999,0.1671365,0.5112224999999999,0.0252925,0.3054365,0.6493125,-0.0614224999999999,-0.3565135,0.9196825,-0.1700225,0.3370465,0.8550125,-0.1157324999999999,-0.0729405,-0.0017575,-0.0041154999999999,0.0729405,0.0017575,0.0041155,-0.0931605,-0.3722175,0.0306295,0.1050165,-0.3660075,0.0434465,-0.0991035,-0.6957375,0.0788875,0.1075165,-0.7016775000000001,0.0796475,0
111,-0.0123685,0.7336455000000001,0.052178,-0.1710335,0.5205655,-0.002979,-0.3002835,0.7087755,-0.097823,0.1669764999999999,0.5125355,0.026395,0.3015365,0.6591755,-0.05613,-0.3559635,0.9216655,-0.158873,0.3358265,0.8658655000000001,-0.107283,-0.0729225,-0.0019505,-0.003848,0.0729225,0.0019505,0.0038479999999999,-0.0931495,-0.3739745,0.031037,0.1049065,-0.3674044999999999,0.043834,-0.0991335,-0.6985144999999999,0.079285,0.1074865,-0.7042045,0.080145,0
112,-0.012683,0.7317455,0.0516815,-0.1705829999999999,0.5207155,-0.0019554999999999,-0.298433,0.7135155,-0.0937464999999999,0.1666869999999999,0.5139955,0.0275904999999999,0.297757,0.6684755,-0.0515655,-0.355603,0.9226855,-0.1485265,0.334847,0.8751855,-0.0996564999999999,-0.072913,-0.0021255,-0.0036004999999999,0.072913,0.0021254999999999,0.0036004999999999,-0.093156,-0.3755145,0.0313795,0.104807,-0.3689245,0.0441975,-0.099193,-0.7010645,0.0796935,0.107437,-0.7066145,0.0806255,0
113,-0.0129765,0.7302365,0.0511775,-0.1703105,0.5207864999999999,-0.0011534999999999,-0.2970104999999999,0.7170765,-0.0903265,0.1663494999999999,0.5152964999999999,0.0287635,0.2945895,0.6761165,-0.0486905,-0.3559805,0.9237265,-0.1411365,0.3341695,0.8825265,-0.0938965,-0.0729035,-0.0022835,-0.0033414999999999,0.0729035,0.0022835,0.0033415,-0.0931795,-0.3765635,0.0316365,0.1046995,-0.3699734999999999,0.0444975,-0.0992805,-0.7028135,0.0800795,0.1073595,-0.7085535000000001,0.0810435,0
114,-0.0132679999999999,0.7288445,0.050649,-0.170073,0.5208145000000001,-0.0004359999999999,-0.2958229999999999,0.7202345,-0.0873519999999999,0.166187,0.5162045000000001,0.029878,0.291717,0.6829645,-0.046386,-0.355993,0.9218945,-0.134542,0.333917,0.8888045,-0.089142,-0.072897,-0.0024194999999999,-0.0030929999999999,0.072897,0.0024194999999999,0.0030929999999999,-0.093112,-0.3774054999999999,0.03178,0.104627,-0.3706954999999999,0.044774,-0.099393,-0.7046454999999999,0.08037,0.107277,-0.7103855,0.081434,0
115,-0.0135589999999999,0.727557,0.0501655,-0.169931,0.520967,0.0002645,-0.294951,0.722707,-0.0849414999999999,0.166089,0.516647,0.0307785,0.289139,0.688437,-0.0446364999999999,-0.356051,0.920207,-0.1288515,0.333709,0.8944869999999999,-0.0854315,-0.072879,-0.0025239999999999,-0.0028704999999999,0.072879,0.002524,0.0028705,-0.093022,-0.378143,0.0318465,0.104569,-0.371533,0.0450625,-0.099511,-0.706333,0.0805865,0.107199,-0.712063,0.0817755,0
116,-0.0138749999999999,0.7265,0.0496599999999999,-0.16984,0.5211899999999999,0.0009119999999999,-0.2942999999999999,0.72486,-0.082881,0.16601,0.51638,0.0315469999999999,0.28687,0.6926,-0.043309,-0.35611,0.91881,-0.124221,0.33357,0.89471,-0.0834309999999999,-0.0728689999999999,-0.002588,-0.002697,0.0728689999999999,0.002588,0.0026969999999999,-0.092954,-0.37868,0.031865,0.104503,-0.37215,0.0453089999999999,-0.0996,-0.70773,0.0807749999999999,0.10714,-0.7134900000000001,0.082061,0
117,-0.0141209999999999,0.725587,0.0493759999999999,-0.169726,0.5214070000000001,0.001485,-0.293796,0.726487,-0.081042,0.166124,0.515787,0.032131,0.285014,0.6958070000000001,-0.0423049999999999,-0.356306,0.919727,-0.1206019999999999,0.333554,0.895337,-0.081682,-0.072859,-0.0026549999999999,-0.0025659999999999,0.072859,0.0026549999999999,0.0025659999999999,-0.092836,-0.3789929999999999,0.031895,0.104451,-0.372533,0.045519,-0.099696,-0.708993,0.080952,0.107114,-0.714643,0.0823069999999999,0
118,-0.014359,0.724881,0.0491135,-0.169649,0.521641,0.0019075,-0.293429,0.7276509999999999,-0.0795515,0.166231,0.514971,0.0325275,0.283511,0.6986009999999999,-0.0416614999999999,-0.356309,0.917611,-0.1177815,0.333871,0.896261,-0.0803514999999999,-0.072852,-0.002694,-0.0024824999999999,0.072852,0.0026939999999999,0.0024825,-0.092709,-0.3791489999999999,0.0318695,0.104408,-0.372699,0.0457065,-0.099769,-0.7100690000000001,0.0810575,0.107091,-0.7155290000000001,0.0824825,0
119,-0.0145825,0.7243605,0.0488425,-0.1696025,0.5218904999999999,0.0022184999999999,-0.2932325,0.7283105,-0.0784625,0.1663375,0.5143004999999999,0.0327895,0.2824474999999999,0.7002805,-0.0414485,-0.3567125,0.9215405,-0.1170725,0.3340875,0.8971905,-0.0794525,-0.0728525,-0.0027005,-0.0024235,0.0728525,0.0027005,0.0024235,-0.0925715,-0.3790894999999999,0.0318165,0.1043755,-0.3726695,0.0458385,-0.0998325,-0.7109295000000001,0.0810685,0.1071075,-0.7162195,0.0826235,0
120,-0.014789,0.7239875,0.048602,-0.1695519999999999,0.5220775,0.0025089999999999,-0.293122,0.7287275,-0.077703,0.1663879999999999,0.5138175,0.03294,0.281798,0.7011674999999999,-0.041457,-0.356582,0.9185775,-0.1163429999999999,0.334378,0.8982174999999999,-0.078953,-0.072854,-0.0026955,-0.002388,0.072854,0.0026954999999999,0.002388,-0.092458,-0.3790225,0.031766,0.104348,-0.3725625,0.045902,-0.099832,-0.7115425,0.081062,0.107178,-0.7167725,0.082732,0
121,-0.014949,0.7237595,0.048455,-0.16949,0.5223295,0.0027739999999999,-0.29308,0.7290495,-0.077131,0.16643,0.5135095,0.032945,0.28152,0.7015994999999999,-0.041469,-0.35708,0.9214595,-0.1156209999999999,0.3348899999999999,0.8989495,-0.078911,-0.072853,-0.0026785,-0.0023569999999999,0.072853,0.0026785,0.0023569999999999,-0.092339,-0.3789305,0.031743,0.104306,-0.3724105,0.045944,-0.09984,-0.7120005,0.0810859999999999,0.10725,-0.7170705,0.082825,0
122,-0.0150479999999999,0.7236414999999999,0.0484045,-0.1694049999999999,0.5224915,0.0030235,-0.293035,0.7292814999999999,-0.0766785,0.166505,0.5130714999999999,0.0329505,0.281385,0.7018015,-0.0414704999999999,-0.3571749999999999,0.9207515,-0.1141085,0.335455,0.8995515,-0.0788285,-0.07285,-0.0026554999999999,-0.0023244999999999,0.07285,0.0026554999999999,0.0023245,-0.092233,-0.3787985,0.0317055,0.104276,-0.3723285,0.0459445,-0.099825,-0.7122785,0.0811205,0.107305,-0.7171985000000001,0.0829085,0
123,-0.015082,0.7235815,0.0484055,-0.169328,0.5226415,0.0032625,-0.292968,0.7294415000000001,-0.0762655,0.166662,0.5124015000000001,0.0329655,0.281332,0.7018515000000001,-0.0414575,-0.357868,0.9244315,-0.1126855,0.335842,0.9001915,-0.0787654999999999,-0.072857,-0.0026225,-0.0023014999999999,0.072857,0.0026225,0.0023014999999999,-0.092127,-0.3787085,0.0316935,0.104264,-0.3723385,0.0459274999999999,-0.0998179999999999,-0.7123685,0.0811544999999999,0.1073619999999999,-0.7172685,0.0829815,0
124,-0.0150439999999999,0.723594,0.0484114999999999,-0.16926,0.5226839999999999,0.0033974999999999,-0.29291,0.729634,-0.0758695,0.16686,0.511394,0.0329825,0.28136,0.7018939999999999,-0.0415554999999999,-0.35853,0.928424,-0.1114194999999999,0.3359999999999999,0.900694,-0.0786695,-0.072865,-0.002595,-0.0022765,0.072865,0.002595,0.0022765,-0.091999,-0.378606,0.0316484999999999,0.104278,-0.372216,0.0458795,-0.09978,-0.712396,0.0811945,0.10743,-0.7172860000000001,0.0830385,0
125,-0.0149865,0.7236375,0.048426,-0.1691725,0.5227375000000001,0.0034959999999999,-0.2928525,0.7298375,-0.075465,0.1671275,0.5101175,0.032917,0.2814175,0.7019475000000001,-0.041634,-0.3590725,0.9325975,-0.1100149999999999,0.3360574999999999,0.9012375,-0.078605,-0.0728735,-0.0025885,-0.0022539999999999,0.0728735,0.0025885,0.0022539999999999,-0.0918384999999999,-0.3784925,0.031611,0.1043014999999999,-0.3720125,0.045841,-0.0997325,-0.7124024999999999,0.081231,0.1075275,-0.7172525,0.083098,0
126,-0.0149354999999999,0.723681,0.0484965,-0.1690495,0.522781,0.0036054999999999,-0.2926895,0.730041,-0.0750495,0.1673705,0.509081,0.0328474999999999,0.2814805,0.701991,-0.0416695,-0.3593695,0.938281,-0.1086095,0.3361105,0.901231,-0.0785795,-0.0728795,-0.002582,-0.0022315,0.0728795,0.002582,0.0022314999999999,-0.0917135,-0.378399,0.0316255,0.1043265,-0.371819,0.0458525,-0.0995995,-0.712289,0.0813795,0.1076105,-0.717259,0.0831445,0
127,-0.0148795,0.7237490000000001,0.048608,-0.1688645,0.522849,0.0037169999999999,-0.2924544999999999,0.730249,-0.074673,0.1675855,0.5083890000000001,0.0327839999999999,0.2815255,0.7020390000000001,-0.041717,-0.3595644999999999,0.944349,-0.107213,0.3361455,0.901049,-0.078553,-0.0728945,-0.002569,-0.002208,0.0728945,0.0025689999999999,0.0022079999999999,-0.0915895,-0.378241,0.031656,0.1043225,-0.371681,0.0458429999999999,-0.0994745,-0.712241,0.081509,0.1077155,-0.717251,0.083173,0
128,-0.014786,0.723842,0.0487865,-0.168593,0.5229320000000001,0.0038415,-0.292143,0.730472,-0.0742765,0.1677469999999999,0.5078820000000001,0.0327465,0.281587,0.702072,-0.0417444999999999,-0.3592829999999999,0.944372,-0.1070265,0.336187,0.901322,-0.0785164999999999,-0.072906,-0.0025459999999999,-0.0021744999999999,0.072906,0.0025459999999999,0.0021745,-0.091472,-0.378078,0.0316815,0.1043159999999999,-0.371548,0.0458275,-0.099353,-0.712218,0.0815605,0.107787,-0.717228,0.0832115,0
129,-0.0146704999999999,0.723976,0.049044,-0.1683695,0.522986,0.003939,-0.2917895,0.7306459999999999,-0.073893,0.1678505,0.5075959999999999,0.03276,0.2816305,0.7021059999999999,-0.0416949999999999,-0.3593294999999999,0.950696,-0.105623,0.3355905,0.901566,-0.0783529999999999,-0.0729175,-0.002527,-0.0021259999999999,0.0729175,0.002527,0.002126,-0.0913735,-0.377894,0.031712,0.1042965,-0.371564,0.045818,-0.0992494999999999,-0.711984,0.081619,0.1078505,-0.717204,0.083266,0
130,-0.0145335,0.7241169999999999,0.0493454999999999,-0.1681485,0.523037,0.0040584999999999,-0.2913785,0.7308169999999999,-0.0735475,0.1679415,0.507357,0.0328134999999999,0.2816714999999999,0.702167,-0.0416185,-0.3593585,0.957227,-0.1042575,0.3347414999999999,0.901597,-0.0780475,-0.0729275,-0.002485,-0.0020725,0.0729275,0.002485,0.0020724999999999,-0.0912795,-0.377693,0.0317205,0.1042905,-0.371543,0.0457724999999999,-0.0991485,-0.711833,0.0816995,0.1079015,-0.7171930000000001,0.0833285,0
131,-0.014387,0.7242470000000001,0.049691,-0.167946,0.523097,0.004179,-0.290936,0.730987,-0.073192,0.1680239999999999,0.5070870000000001,0.032872,0.281694,0.702237,-0.041523,-0.359336,0.960457,-0.103042,0.333774,0.901517,-0.077602,-0.072942,-0.0024479999999999,-0.002021,0.072942,0.0024479999999999,0.002021,-0.091228,-0.377493,0.031738,0.1042809999999999,-0.371353,0.045714,-0.099026,-0.711753,0.0818,0.107954,-0.717123,0.0833879999999999,0
132,-0.0142265,0.7243904999999999,0.0500985,-0.1677615,0.5231505,0.0042864999999999,-0.2904815,0.7311205,-0.0728635,0.1680685,0.5068505,0.0329315,0.2817085,0.7023405,-0.0414345,-0.3589815,0.9604805,-0.1026435,0.3327285,0.9015205,-0.0770835,-0.0729515,-0.0024184999999999,-0.0019705,0.0729515,0.0024185,0.0019705,-0.0911635,-0.3772995,0.0317085,0.1042655,-0.3711595,0.0456665,-0.0989415,-0.7117295,0.0818255,0.1079685,-0.7170395,0.0834385,0
133,-0.0140815,0.72451,0.050487,-0.1676445,0.5231999999999999,0.004372,-0.2900245,0.7312399999999999,-0.072573,0.1681155,0.50665,0.032986,0.2817155,0.7024299999999999,-0.04134,-0.3589745,0.9611999999999998,-0.102533,0.3314755,0.90169,-0.076563,-0.0729645,-0.002398,-0.001901,0.0729645,0.0023979999999999,0.001901,-0.0911035,-0.37711,0.031656,0.1042464999999999,-0.37095,0.0455939999999999,-0.0988645,-0.7117100000000001,0.081839,0.1079754999999999,-0.71702,0.083449,0
134,-0.0139665,0.724613,0.0508555,-0.1675465,0.523223,0.0044595,-0.2895965,0.7313029999999999,-0.0723395,0.1681335,0.506473,0.0330555,0.2817035,0.702503,-0.0411975,-0.3586165,0.961213,-0.1024294999999999,0.3302535,0.901893,-0.0760595,-0.0729694999999999,-0.002382,-0.0018274999999999,0.0729694999999999,0.002382,0.0018275,-0.0910584999999999,-0.376917,0.0315495,0.1042485,-0.370787,0.0455155,-0.0988064999999999,-0.711697,0.0818855,0.1079535,-0.716987,0.0834795,0
135,-0.0138635,0.724722,0.0512064999999999,-0.1674545,0.523252,0.0045244999999999,-0.2891445,0.7313620000000001,-0.0721205,0.1681554999999999,0.506292,0.0331095,0.2816554999999999,0.702572,-0.0410285,-0.3586145,0.961722,-0.1023805,0.3291054999999999,0.902122,-0.0755305,-0.0729765,-0.0023639999999999,-0.0017685,0.0729765,0.002364,0.0017684999999999,-0.0909995,-0.3767379999999999,0.0314015,0.1042564999999999,-0.3706979999999999,0.0454414999999999,-0.0987345,-0.711688,0.0818955,0.1079455,-0.716978,0.0834785,0
136,-0.0137719999999999,0.7248535,0.0515575,-0.167374,0.5232735000000001,0.0045694999999999,-0.288744,0.7314035,-0.0719225,0.168176,0.5061335,0.0331444999999999,0.2816059999999999,0.7027035,-0.0408745,-0.358384,0.9622235,-0.1023424999999999,0.328126,0.9023035,-0.0751225,-0.0729799999999999,-0.0023444999999999,-0.0017315,0.0729799999999999,0.0023444999999999,0.0017314999999999,-0.090948,-0.3766165,0.0312645,0.1042609999999999,-0.3706965,0.0453924999999999,-0.098664,-0.7117765,0.0818705,0.107946,-0.7169865,0.0834505,0
137,-0.0136879999999999,0.7250095,0.0519045,-0.167372,0.5232795,0.0045915,-0.288382,0.7314395,-0.0718005,0.168188,0.5059795,0.0331475,0.2815379999999999,0.7028295,-0.0407405,-0.357982,0.9627195,-0.1024305,0.327258,0.9025095,-0.0748805,-0.072989,-0.0023154999999999,-0.0017244999999999,0.072989,0.0023154999999999,0.0017245,-0.0909259999999999,-0.3765905,0.0310635,0.104256,-0.3708205,0.0453215,-0.098642,-0.7119105,0.0817705,0.107958,-0.7170305,0.0833755,0
138,-0.0136204999999999,0.7251255,0.0521955,-0.1673784999999999,0.5232755,0.0046005,-0.2880485,0.7314554999999999,-0.0717064999999999,0.1681915,0.5058155,0.0331335,0.2814515,0.7029555,-0.0406084999999999,-0.3576384999999999,0.9630955,-0.1025464999999999,0.3268115,0.9026655,-0.0748664999999999,-0.0729985,-0.0022914999999999,-0.0016984999999999,0.0729985,0.0022915,0.0016985,-0.0909234999999999,-0.3766144999999999,0.0308525,0.1042714999999999,-0.3709945,0.0451935,-0.0985885,-0.7120945000000001,0.0816365,0.1079715,-0.7171145,0.0833005,0
139,-0.0135644999999999,0.725267,0.0524614999999999,-0.1673905,0.523287,0.0045984999999999,-0.2877705,0.731467,-0.0716345,0.1681895,0.505657,0.0331065,0.2813595,0.703067,-0.0405065,-0.3572805,0.963567,-0.1027245,0.3264295,0.902967,-0.0749245,-0.0730115,-0.0022509999999999,-0.0016525,0.0730115,0.002251,0.0016525,-0.0909285,-0.376643,0.0306494999999999,0.1043304999999999,-0.371163,0.0450575,-0.0985705,-0.7123430000000001,0.0814645,0.1079895,-0.717233,0.0832104999999999,0
140,-0.013574,0.725417,0.0526255,-0.167452,0.523297,0.0045024999999999,-0.287572,0.731487,-0.0717035,0.168128,0.505587,0.0329855,0.281198,0.703177,-0.0405105,-0.357002,0.963937,-0.1030234999999999,0.326008,0.903217,-0.0750935,-0.073027,-0.0021949999999999,-0.0015555,0.073027,0.002195,0.0015555,-0.09101,-0.376673,0.0303315,0.1043679999999999,-0.371353,0.0448325,-0.0986219999999999,-0.712743,0.0810945,0.107958,-0.717383,0.0829975,0
141,-0.013644,0.7255685000000001,0.0525469999999999,-0.167573,0.5233085,0.0042279999999999,-0.287453,0.7315185,-0.072002,0.168007,0.5054985,0.032676,0.281007,0.7032585,-0.040744,-0.3567929999999999,0.9641885,-0.103582,0.325537,0.9039585,-0.075442,-0.073041,-0.0021214999999999,-0.001475,0.073041,0.0021214999999999,0.0014749999999999,-0.091149,-0.3767915,0.0297339999999999,0.1044279999999999,-0.3715715,0.044397,-0.098713,-0.7132015,0.0804719999999999,0.107877,-0.7175715,0.082593,0
142,-0.013765,0.7257365,0.0521859999999999,-0.16774,0.5232965,0.003685,-0.2874,0.7314765000000001,-0.072607,0.16784,0.5053865000000001,0.032104,0.28079,0.7033165,-0.041292,-0.35662,0.9641165,-0.1045069999999999,0.32526,0.9047365,-0.076067,-0.073061,-0.0020384999999999,-0.001416,0.073061,0.0020384999999999,0.001416,-0.091336,-0.3771235,0.0287629999999999,0.1045099999999999,-0.3718135,0.043634,-0.09882,-0.7137534999999999,0.07943,0.10774,-0.7177635,0.081886,0
143,-0.0139115,0.7258199999999999,0.051548,-0.1679235,0.52333,0.0028829999999999,-0.2873734999999999,0.73146,-0.073472,0.1676564999999999,0.50535,0.031307,0.2805965,0.70341,-0.042167,-0.3563635,0.9641,-0.105822,0.3249565,0.90547,-0.077102,-0.0730895,-0.0019919999999999,-0.0014139999999999,0.0730895,0.001992,0.0014139999999999,-0.0915735,-0.37743,0.027388,0.1046665,-0.37211,0.042272,-0.0989735,-0.71428,0.0780859999999999,0.1075765,-0.7179500000000001,0.0808929999999999,0
144,-0.014088,0.725856,0.05051,-0.168153,0.523386,0.001729,-0.287413,0.731466,-0.074702,0.167427,0.505356,0.0301449999999999,0.280367,0.703446,-0.043407,-0.356053,0.964136,-0.107692,0.3245969999999999,0.906136,-0.078702,-0.0731219999999999,-0.0019559999999999,-0.001445,0.0731219999999999,0.0019559999999999,0.001445,-0.0919079999999999,-0.377874,0.025466,0.104887,-0.372444,0.04016,-0.099143,-0.714954,0.0761189999999999,0.107387,-0.718074,0.079527,0
145,-0.0142754999999999,0.7259114999999999,0.049059,-0.1683744999999999,0.5234415,0.000197,-0.2873645,0.7314714999999999,-0.076358,0.1671955,0.5053915,0.028595,0.2801355,0.7034914999999999,-0.045023,-0.3556845,0.9639915,-0.1102279999999999,0.3242055,0.9066415,-0.080898,-0.0731634999999999,-0.0019004999999999,-0.0014549999999999,0.0731634999999999,0.0019004999999999,0.0014549999999999,-0.0922915,-0.3785385,0.022865,0.1052355,-0.3728685,0.037392,-0.0992945,-0.7159985,0.073431,0.1071854999999999,-0.7182485000000001,0.077717,0
146,-0.0144709999999999,0.726012,0.047075,-0.168579,0.5235420000000001,-0.001819,-0.287269,0.731492,-0.078549,0.166951,0.505452,0.026572,0.279891,0.703592,-0.04714,-0.355299,0.963892,-0.113269,0.323771,0.906742,-0.083809,-0.073222,-0.0017999999999999,-0.001397,0.073222,0.0018,0.0013969999999999,-0.092673,-0.379278,0.019538,0.105661,-0.373458,0.033807,-0.099469,-0.717088,0.070211,0.106991,-0.7184879999999999,0.075357,0
147,-0.014631,0.7261690000000001,0.0446955,-0.168737,0.523719,-0.0042335,-0.287097,0.731529,-0.0813085,0.166733,0.5055890000000001,0.0241215,0.279723,0.703689,-0.0498635,-0.354857,0.963769,-0.1168085,0.323363,0.906919,-0.0871685,-0.0733419999999999,-0.001656,-0.0013714999999999,0.0733419999999999,0.0016559999999999,0.0013714999999999,-0.093096,-0.380011,0.0155245,0.106163,-0.3740409999999999,0.0295205,-0.099647,-0.718201,0.0665125,0.106793,-0.718671,0.0725445,0
148,-0.014706,0.726208,0.041876,-0.168648,0.523898,-0.006556,-0.286738,0.731288,-0.084556,0.166302,0.505848,0.0212009999999999,0.279622,0.703718,-0.053143,-0.354298,0.963408,-0.120906,0.322972,0.907258,-0.091136,-0.073543,-0.0015169999999999,-0.0013689999999999,0.073543,0.001517,0.0013689999999999,-0.093589,-0.380572,0.010577,0.106792,-0.374412,0.024396,-0.0998179999999999,-0.719232,0.062318,0.106632,-0.718702,0.069155,0
149,-0.0146795,0.72611,0.0389039999999999,-0.1683565,0.5240100000000001,-0.008951,-0.2862865,0.73092,-0.0881879999999999,0.1658934999999999,0.50627,0.018035,0.2795835,0.7033,-0.056759,-0.3537565,0.96305,-0.125308,0.3226035,0.90779,-0.095648,-0.0738105,-0.0013269999999999,-0.001371,0.0738105,0.001327,0.0013709999999999,-0.0941305,-0.3809,0.0050479999999999,0.1075535,-0.37462,0.0187999999999999,-0.0999365,-0.7201299999999999,0.0578179999999999,0.1065035,-0.7185999999999999,0.0653759999999999,0
150,-0.0145339999999999,0.7256395,0.035605,-0.167986,0.5243595000000001,-0.011649,-0.285766,0.7306094999999999,-0.092225,0.165474,0.5065394999999999,0.014537,0.279614,0.7023394999999999,-0.060786,-0.353166,0.9630095,-0.130055,0.322264,0.9080595,-0.100825,-0.0740659999999999,-0.0010664999999999,-0.0013429999999999,0.0740659999999999,0.0010665,0.001343,-0.0946239999999999,-0.3810505,-0.0012639999999999,0.108454,-0.3746505,0.01265,-0.100046,-0.7207505000000001,0.052951,0.106434,-0.7182305,0.061214,0
151,-0.0142405,0.724849,0.032002,-0.1674705,0.524369,-0.014404,-0.2852504999999999,0.730229,-0.09662,0.1650094999999999,0.5068590000000001,0.010627,0.2796295,0.701259,-0.065259,-0.3526404999999999,0.963369,-0.1352,0.3219195,0.908469,-0.1066,-0.0743365,-0.0007569999999999,-0.001287,0.0743365,0.000757,0.001287,-0.0952065,-0.3807109999999999,-0.008255,0.1093295,-0.374201,0.00597,-0.1001805,-0.7209909999999999,0.047602,0.1063595,-0.717511,0.056584,0
152,-0.0138415,0.7233905,0.0280775,-0.1669584999999999,0.5246405000000001,-0.0175335,-0.2847985,0.7297005,-0.1014114999999999,0.1644815,0.5071505000000001,0.0063745,0.2796615,0.6998505,-0.0702685,-0.3522685,0.9639505,-0.1406214999999999,0.3215515,0.9087105,-0.1128114999999999,-0.0745655,-0.0005075,-0.0011215,0.0745655,0.0005075,0.0011215,-0.0958665,-0.3800894999999999,-0.0157334999999999,0.1101215,-0.3733094999999999,-0.0009785,-0.1003385,-0.7209694999999999,0.0418345,0.1062615,-0.7165095,0.0514745,0
153,-0.013443,0.7221234999999999,0.0237025,-0.166287,0.5238835,-0.0206554999999999,-0.283977,0.7280435,-0.1065065,0.163633,0.5072534999999999,0.0018275,0.279683,0.6986135,-0.0758395,-0.3516869999999999,0.9634735,-0.1463065,0.321183,0.9090935,-0.1195664999999999,-0.074856,-0.0003314999999999,-0.0009204999999999,0.074856,0.0003314999999999,0.0009205,-0.0966289999999999,-0.3788065,-0.0238145,0.110983,-0.3715365,-0.0083845,-0.1005369999999999,-0.7199665000000001,0.0357635,0.106133,-0.7146065,0.0458405,1
154,-0.0129244999999999,0.72006,0.0192965,-0.1654945,0.52353,-0.0236755,-0.2828945,0.72534,-0.1116275,0.1627855,0.50754,-0.0028015,0.2797355,0.69699,-0.0816635,-0.3500445,0.95719,-0.1532975,0.3204255,0.90558,-0.1267275,-0.0751705,-0.0002219999999999,-0.0007464999999999,0.0751705,0.0002219999999999,0.0007465,-0.0972335,-0.37707,-0.0323144999999999,0.1119355,-0.36932,-0.0158825,-0.1006345,-0.71819,0.0296875,0.1061055,-0.7122499999999999,0.0401575,1
155,-0.012478,0.7180785,0.0145185,-0.16479,0.5227085,-0.0268365,-0.28194,0.7231685,-0.1172245,0.16141,0.5068185,-0.0077884999999999,0.27959,0.6955985,-0.0878655,-0.34862,0.9523985,-0.1606344999999999,0.31958,0.9029685,-0.1342845,-0.075587,-0.0001835,-0.0006495,0.075587,0.0001834999999999,0.0006494999999999,-0.097853,-0.3742615,-0.0414955,0.11307,-0.3661515,-0.0240415,-0.10084,-0.7152315,0.0228935,0.10603,-0.7083915000000001,0.0340385,1
156,-0.0121374999999999,0.716018,0.0095295,-0.1639575,0.520988,-0.0300625,-0.2810475,0.721098,-0.1229935,0.1597625,0.506248,-0.0129755,0.2792125,0.694368,-0.0941985,-0.3473775,0.948698,-0.1681035,0.3184925,0.900558,-0.1422334999999999,-0.0760095,-0.000202,-0.0005355,0.0760095,0.0002019999999999,0.0005354999999999,-0.0985274999999999,-0.370712,-0.0511265,0.1143825,-0.362402,-0.0324495,-0.1011575,-0.711492,0.0155174999999999,0.1058925,-0.703462,0.0275595,1
157,-0.0120374999999999,0.713894,0.0045769999999999,-0.1636075,0.519394,-0.033717,-0.2804575,0.718794,-0.128753,0.1580025,0.505244,-0.01813,0.2785525,0.692614,-0.100475,-0.3464374999999999,0.946234,-0.175283,0.3170725,0.898394,-0.150133,-0.0764455,-0.000221,-0.000412,0.0764455,0.0002209999999999,0.0004119999999999,-0.0992675,-0.366626,-0.060971,0.1157025,-0.358276,-0.041185,-0.1017575,-0.706936,0.0079079999999999,0.1055225,-0.697706,0.020814,1
158,-0.012049,0.711455,-0.000656,-0.163431,0.5177849999999999,-0.037744,-0.279921,0.716665,-0.1347269999999999,0.156089,0.503875,-0.02332,0.2777389999999999,0.691165,-0.106847,-0.345661,0.944325,-0.182467,0.3149789999999999,0.895165,-0.158017,-0.076872,-0.000345,-0.000304,0.076872,0.000345,0.0003039999999999,-0.099944,-0.361835,-0.071182,0.1170489999999999,-0.353565,-0.050381,-0.102491,-0.701095,-0.0001279999999999,0.105069,-0.690975,0.0135449999999999,1
159,-0.012284,0.7090085,-0.0058125,-0.163314,0.5156285,-0.0416524999999999,-0.279574,0.7150285000000001,-0.1407955,0.154016,0.5023685,-0.0282945,0.276726,0.6902385,-0.1132605,-0.345134,0.9427085,-0.1895355,0.312566,0.8920585,-0.1656254999999999,-0.077339,-0.0005395,-0.0002915,0.077339,0.0005395,0.0002915,-0.100769,-0.3561715,-0.0813655,0.118176,-0.3480014999999999,-0.0597865,-0.103384,-0.6942214999999999,-0.0082815,0.104416,-0.6833215,0.0061184999999999,1
160,-0.0127195,0.7068305,-0.0110199999999999,-0.1633625,0.5134205000000001,-0.045615,-0.2792125,0.7133505,-0.146861,0.1518775,0.5002205000000001,-0.0332089999999999,0.2755775,0.6890205,-0.1195939999999999,-0.3446425,0.9413105,-0.196951,0.3097975,0.8882105,-0.173211,-0.0777984999999999,-0.0008945,-0.0003079999999999,0.0777984999999999,0.0008945,0.000308,-0.1016654999999999,-0.3500494999999999,-0.0920629999999999,0.1195475,-0.3418695,-0.069534,-0.1043524999999999,-0.6860795,-0.0164929999999999,0.1037075,-0.6745495,-0.0014049999999999,1
161,-0.0134975,0.7050230000000001,-0.015999,-0.1636515,0.5105930000000001,-0.049162,-0.2789815,0.7112930000000001,-0.15271,0.1495985,0.498203,-0.038055,0.2741985,0.687423,-0.125801,-0.3439915,0.939303,-0.20421,0.3067385,0.884483,-0.1805999999999999,-0.0782575,-0.001227,-0.000462,0.0782575,0.0012269999999999,0.0004619999999999,-0.1027695,-0.343627,-0.102899,0.1209685,-0.335127,-0.079507,-0.1054915,-0.6767569999999999,-0.024685,0.1028185,-0.664947,-0.009015,1
162,-0.0143604999999999,0.702405,-0.0205655,-0.1642695,0.508815,-0.0526905,-0.2792294999999999,0.710135,-0.1581105,0.1476305,0.496175,-0.0424485,0.2727005,0.685655,-0.1315115,-0.3435195,0.938265,-0.2110405,0.3034705,0.880435,-0.1875405,-0.0785885,-0.001614,-0.0005205,0.0785885,0.001614,0.0005205,-0.1038745,-0.336965,-0.1134325,0.1222304999999999,-0.328155,-0.0891415,-0.1066395,-0.666895,-0.0326365,0.1018705,-0.655195,-0.0164915,1
163,-0.015331,0.700582,-0.025278,-0.164826,0.506022,-0.056498,-0.279736,0.709762,-0.163513,0.145524,0.494182,-0.046878,0.271084,0.684592,-0.137141,-0.344046,0.939232,-0.2173629999999999,0.3005239999999999,0.880072,-0.194243,-0.078907,-0.001944,-0.0006439999999999,0.078907,0.001944,0.0006439999999999,-0.104874,-0.329968,-0.124037,0.123244,-0.320068,-0.098917,-0.107796,-0.655628,-0.040616,0.100694,-0.6440980000000001,-0.024272,1
164,-0.016255,0.6983685000000001,-0.0294299999999999,-0.1653309999999999,0.5033685,-0.0599469999999999,-0.280181,0.7086285,-0.168033,0.143829,0.4930485,-0.0507149999999999,0.269509,0.6827985,-0.142177,-0.3444709999999999,0.9398285,-0.223073,0.297709,0.8779185,-0.200323,-0.079185,-0.0022445,-0.0008509999999999,0.079185,0.0022444999999999,0.000851,-0.105683,-0.3230314999999999,-0.133755,0.124109,-0.3123714999999999,-0.1080629999999999,-0.1088309999999999,-0.6440915,-0.0477089999999999,0.099559,-0.6331815,-0.031637,1
165,-0.0170374999999999,0.6955064999999999,-0.0333414999999999,-0.1659215,0.5019565,-0.0633035,-0.2805915,0.7074265,-0.1723285,0.1424285,0.4909165,-0.0541845,0.2679985,0.6805764999999999,-0.1467505,-0.3448115,0.9400865,-0.2284485,0.2953785,0.8738665,-0.2059485,-0.0794715,-0.0024155,-0.0010154999999999,0.0794715,0.0024154999999999,0.0010155,-0.1063225,-0.3115035,-0.1429935,0.1249085,-0.3011735,-0.1170394999999999,-0.1097615,-0.6316735,-0.0541445,0.0985585,-0.6219235000000001,-0.0387135,1
166,-0.0176095,0.692441,-0.0373725,-0.1662475,0.501671,-0.0666575,-0.2808375,0.7065210000000001,-0.1766245,0.1412725,0.488131,-0.0574685,0.2667425,0.678201,-0.1514045,-0.3449275,0.940341,-0.2335645,0.2934325,0.869761,-0.2115545,-0.0796995,-0.002405,-0.0012015,0.0796995,0.0024049999999999,0.0012014999999999,-0.1068175,-0.299479,-0.1518665,0.1257125,-0.289079,-0.1257475,-0.1103375,-0.619019,-0.0602325,0.0977025,-0.610319,-0.0453955,1
167,-0.018065,0.6906950000000001,-0.0461255,-0.1664759999999999,0.499965,-0.0747895,-0.279966,0.703455,-0.1855925,0.140334,0.487375,-0.0656635,0.2657339999999999,0.6772050000000001,-0.1605565,-0.343786,0.935565,-0.2436725,0.292234,0.868735,-0.2220225,-0.079786,-0.002491,-0.0014435,0.079786,0.0024909999999999,0.0014434999999999,-0.107362,-0.285455,-0.1653745,0.126494,-0.2746349999999999,-0.1391805,-0.1106949999999999,-0.604285,-0.0707555,0.0969339999999999,-0.596555,-0.0564545,1
168,-0.0184594999999999,0.691315,-0.0556814999999999,-0.1656075,0.497065,-0.0838145,-0.2789175,0.701505,-0.1948444999999999,0.1394625,0.485755,-0.0745575,0.2646825,0.677505,-0.1706105,-0.3426975,0.933595,-0.2547844999999999,0.2911025,0.8689950000000001,-0.2333144999999999,-0.0798774999999999,-0.0026149999999999,-0.0017485,0.0798774999999999,0.002615,0.0017485,-0.1079535,-0.2691749999999999,-0.1825445,0.1285125,-0.257775,-0.1575955,-0.1111725,-0.587075,-0.0819665,0.0960324999999999,-0.5803149999999999,-0.0682504999999999,1
169,-0.0187925,0.691275,-0.0649155,-0.1647905,0.494495,-0.0926584999999999,-0.2776905,0.699265,-0.2035515,0.1386695,0.485495,-0.0830984999999999,0.2635795,0.677725,-0.1802055,-0.3414804999999999,0.929925,-0.2653915,0.2898695,0.869135,-0.2443214999999999,-0.0799175,-0.002845,-0.0020415,0.0799175,0.0028449999999999,0.0020415,-0.1086595,-0.253275,-0.1986915,0.1301095,-0.241655,-0.1752465,-0.1116625,-0.570605,-0.0925525,0.0950995,-0.564745,-0.0795535,1
170,-0.018988,0.69147,-0.0742515,-0.163703,0.49233,-0.1018155,-0.276683,0.69784,-0.2119365,0.138047,0.4844,-0.0917735,0.262607,0.6781999999999999,-0.1898225,-0.340243,0.92803,-0.2760465,0.288777,0.8685700000000001,-0.2552864999999999,-0.079968,-0.00282,-0.0024274999999999,0.079968,0.0028199999999999,0.0024274999999999,-0.109219,-0.23669,-0.2149765,0.131627,-0.22488,-0.1931365,-0.111995,-0.55311,-0.1030885,0.094287,-0.54782,-0.0906775,1
171,-0.0192075,0.69189,-0.0836069999999999,-0.1626044999999999,0.4899099999999999,-0.1110729999999999,-0.2754745,0.69649,-0.220215,0.1376255,0.48334,-0.1006889999999999,0.2615854999999999,0.67891,-0.1994969999999999,-0.3393245,0.92508,-0.2859049999999999,0.2876855,0.86966,-0.266065,-0.0800645,-0.0028299999999999,-0.0027349999999999,0.0800645,0.0028299999999999,0.002735,-0.1097795,-0.22001,-0.231005,0.1330255,-0.2084899999999999,-0.211105,-0.1123655,-0.5352399999999999,-0.11341,0.0934555,-0.5301199999999999,-0.1014549999999999,1
172,-0.019413,0.6915899999999999,-0.092632,-0.1617839999999999,0.48765,-0.120026,-0.274224,0.69506,-0.228105,0.137036,0.48282,-0.109676,0.2606259999999999,0.67902,-0.20886,-0.338004,0.92292,-0.295195,0.286676,0.86886,-0.276425,-0.080122,-0.00292,-0.003005,0.080122,0.00292,0.0030049999999999,-0.110426,-0.2040999999999999,-0.246355,0.1341859999999999,-0.1924399999999999,-0.228535,-0.112674,-0.5177200000000001,-0.123221,0.092596,-0.51274,-0.111737,1
173,-0.0192204999999999,0.691085,-0.101926,-0.1604345,0.486145,-0.129322,-0.2725444999999999,0.692475,-0.236005,0.1369554999999999,0.481355,-0.118553,0.2600755,0.679335,-0.21845,-0.3362845,0.921835,-0.304885,0.2861555,0.869445,-0.286945,-0.0800974999999999,-0.0029749999999999,-0.003155,0.0800974999999999,0.002975,0.0031549999999999,-0.1108615,-0.1878249999999999,-0.261805,0.1356254999999999,-0.1763349999999999,-0.245865,-0.1125664999999999,-0.499515,-0.1332,0.0919855,-0.494435,-0.122014,1
174,-0.018881,0.691145,-0.11085,-0.158978,0.483835,-0.138193,-0.270738,0.6874750000000001,-0.243495,0.1369119999999999,0.481005,-0.127293,0.259692,0.679925,-0.227686,-0.3343879999999999,0.917995,-0.314115,0.285832,0.871225,-0.297215,-0.080126,-0.003055,-0.003295,0.080126,0.003055,0.0032949999999999,-0.111388,-0.171125,-0.276885,0.137012,-0.160055,-0.262735,-0.11233,-0.481425,-0.142854,0.091562,-0.476055,-0.131803,1
175,-0.018366,0.69036,-0.119421,-0.157309,0.4801499999999999,-0.146831,-0.269069,0.68404,-0.25104,0.136851,0.4819299999999999,-0.135979,0.259441,0.67909,-0.236765,-0.332429,0.91459,-0.32315,0.285541,0.8719600000000001,-0.30724,-0.080151,-0.00339,-0.0033799999999999,0.080151,0.00339,0.0033799999999999,-0.1122,-0.1516,-0.29161,0.138291,-0.1417999999999999,-0.27927,-0.112078,-0.46123,-0.152318,0.0913109999999999,-0.45576,-0.141402,1
176,-0.0180015,0.689655,-0.1227099999999999,-0.1558284999999999,0.478045,-0.150169,-0.2686584999999999,0.684485,-0.2536899999999999,0.1366415,0.478785,-0.139399,0.2588515,0.6788350000000001,-0.240284,-0.3315285,0.913745,-0.32687,0.2850615,0.873165,-0.31174,-0.0803474999999999,-0.003195,-0.0033799999999999,0.0803474999999999,0.003195,0.00338,-0.1133444999999999,-0.132025,-0.30127,0.1392015,-0.1229049999999999,-0.29069,-0.1120075,-0.4413149999999999,-0.156321,0.0908715,-0.435675,-0.1457399999999999,1
177,-0.0176875,0.686375,-0.124757,-0.1555225,0.476415,-0.152141,-0.2686325,0.683095,-0.255675,0.1365575,0.477835,-0.141391,0.2583775,0.676615,-0.242635,-0.3305225,0.911055,-0.329325,0.2845775,0.873855,-0.314685,-0.0804235,-0.003195,-0.0032349999999999,0.0804235,0.003195,0.003235,-0.1144324999999999,-0.1144549999999999,-0.306435,0.1394075,-0.105655,-0.296315,-0.1117345,-0.423765,-0.158813,0.0906075,-0.417985,-0.148923,1
178,-0.0175315,0.6835249999999999,-0.126104,-0.1554285,0.475205,-0.153308,-0.2679585,0.6821349999999999,-0.256965,0.1365615,0.476865,-0.142835,0.2579214999999999,0.676065,-0.244411,-0.3296385,0.911205,-0.3308449999999999,0.2840614999999999,0.877095,-0.316875,-0.0804195,-0.0029349999999999,-0.0033249999999999,0.0804195,0.002935,0.003325,-0.1155835,-0.0949349999999999,-0.310825,0.1396514999999999,-0.086245,-0.301305,-0.1114745,-0.4046649999999999,-0.1605789999999999,0.0904115,-0.3987849999999999,-0.151689,1
179,-0.017449,0.6805950000000001,-0.126832,-0.155397,0.473995,-0.154009,-0.267667,0.680965,-0.257615,0.136503,0.475595,-0.143499,0.257363,0.6751750000000001,-0.245469,-0.329307,0.908295,-0.331515,0.282813,0.876355,-0.318445,-0.080422,-0.0029249999999999,-0.003275,0.080422,0.002925,0.003275,-0.1167499999999999,-0.0757149999999999,-0.314025,0.139833,-0.067525,-0.305075,-0.111285,-0.3864649999999999,-0.161615,0.090173,-0.380555,-0.153779,1
180,-0.01718,0.677835,-0.127103,-0.155137,0.472725,-0.154026,-0.267617,0.6792050000000001,-0.257945,0.136543,0.473495,-0.14422,0.257133,0.673405,-0.246248,-0.328777,0.907075,-0.331655,0.2815829999999999,0.8746449999999999,-0.319515,-0.080675,-0.0027849999999999,-0.003225,0.080675,0.0027849999999999,0.0032249999999999,-0.117687,-0.062035,-0.316605,0.139623,-0.0540149999999999,-0.307745,-0.110926,-0.369245,-0.161988,0.090193,-0.363425,-0.155394,1
181,-0.016834,0.677145,-0.12742,-0.154793,0.473075,-0.154458,-0.267253,0.679575,-0.25879,0.136657,0.473125,-0.145264,0.256837,0.673335,-0.247401,-0.328413,0.911695,-0.33224,0.280647,0.878685,-0.32104,-0.080784,-0.0027349999999999,-0.00301,0.080784,0.0027349999999999,0.0030099999999999,-0.118563,-0.0449549999999999,-0.31877,0.139447,-0.036895,-0.31053,-0.110514,-0.348835,-0.162654,0.090337,-0.343205,-0.157333,1
182,-0.0160339999999999,0.675845,-0.1279709999999999,-0.1542639999999999,0.472369,-0.1552779999999999,-0.2667239999999999,0.680615,-0.2600599999999999,0.136806,0.473031,-0.1463139999999999,0.257226,0.6730050000000001,-0.2488229999999999,-0.327334,0.910995,-0.33377,0.280176,0.879155,-0.32313,-0.080822,-0.002645,-0.0028499999999999,0.080822,0.002645,0.00285,-0.118944,-0.0288049999999999,-0.31957,0.139526,-0.0207549999999999,-0.3115799999999999,-0.10966,-0.3295649999999999,-0.1635599999999999,0.090976,-0.3241949999999999,-0.1594509999999999,1
183,-0.0150809999999999,0.674875,-0.128659,-0.15348,0.472309,-0.156101,-0.2661199999999999,0.683895,-0.261135,0.1373599999999999,0.472279,-0.147251,0.258,0.671755,-0.250162,-0.32619,0.913055,-0.335175,0.28006,0.881615,-0.325005,-0.080869,-0.002425,-0.002695,0.080869,0.002425,0.002695,-0.11902,-0.0121049999999999,-0.320305,0.13982,-0.003695,-0.312305,-0.108515,-0.3101349999999999,-0.16435,0.09194,-0.3051049999999999,-0.161606,1
184,-0.0142069999999999,0.67411,-0.129251,-0.152723,0.472876,-0.156809,-0.265573,0.6851700000000001,-0.26214,0.138007,0.471287,-0.147973,0.258957,0.6721900000000001,-0.251456,-0.325203,0.91337,-0.3367799999999999,0.280227,0.88131,-0.32675,-0.080941,-0.00213,-0.00253,0.080941,0.00213,0.00253,-0.118743,0.00264,-0.32099,0.1402169999999999,0.0115,-0.31298,-0.107344,-0.29316,-0.165063,0.092997,-0.28834,-0.163566,1
185,-0.01382,0.67176,-0.130467,-0.152061,0.471345,-0.158147,-0.264621,0.68101,-0.26379,0.1383889999999999,0.472017,-0.149324,0.259799,0.67073,-0.253368,-0.324351,0.91294,-0.33921,0.280369,0.87797,-0.32913,-0.081066,-0.0024799999999999,-0.00186,0.081066,0.00248,0.00186,-0.118501,0.01585,-0.32209,0.1405489999999999,0.0255,-0.31433,-0.106334,-0.2772,-0.166428,0.0939089999999999,-0.27235,-0.166042,1
186,-0.0136265,0.6707700000000001,-0.13171,-0.1516985,0.471247,-0.159442,-0.2644785,0.6785000000000001,-0.26561,0.1387015,0.471456,-0.150622,0.2606314999999999,0.6711400000000001,-0.254985,-0.3237485,0.91235,-0.34178,0.2806114999999999,0.87547,-0.33146,-0.0810724999999999,-0.0026399999999999,-0.00124,0.0810724999999999,0.00264,0.0012399999999999,-0.1182885,0.02988,-0.32286,0.1408815,0.0396,-0.31521,-0.1054785,-0.2605699999999999,-0.167712,0.0947115,-0.2553799999999999,-0.167881,1
187,-0.013571,0.6700299999999999,-0.13247,-0.151159,0.4714029999999999,-0.160359,-0.2643189999999999,0.67684,-0.266855,0.139061,0.4707599999999999,-0.151246,0.261521,0.67045,-0.256193,-0.323189,0.91078,-0.343815,0.280981,0.87201,-0.333245,-0.0810299999999999,-0.00286,-0.0006349999999999,0.0810299999999999,0.0028599999999999,0.0006349999999999,-0.1179989999999999,0.0434899999999999,-0.3230349999999999,0.141481,0.0524399999999999,-0.315025,-0.104608,-0.24478,-0.168644,0.0954909999999999,-0.23936,-0.168821,1
188,-0.01361,0.6689700000000001,-0.132936,-0.150864,0.471216,-0.161112,-0.264024,0.6753,-0.268235,0.139496,0.470729,-0.152238,0.262306,0.66997,-0.257204,-0.322654,0.91023,-0.345775,0.281796,0.87344,-0.334945,-0.080956,-0.0031699999999999,-1.5000000000015e-05,0.080956,0.00317,1.4999999999987246e-05,-0.117774,0.05623,-0.322535,0.142226,0.0649,-0.314145,-0.103823,-0.22977,-0.169588,0.096216,-0.2241499999999999,-0.169806,1
189,-0.0136835,0.667805,-0.1332279999999999,-0.1506185,0.471263,-0.1619689999999999,-0.2639785,0.674505,-0.26965,0.1398215,0.471646,-0.153132,0.2628414999999999,0.669905,-0.258278,-0.3222085,0.908415,-0.34782,0.2824514999999999,0.874585,-0.33652,-0.0809375,-0.003495,0.0006099999999999,0.0809375,0.003495,-0.0006099999999999,-0.1176985,0.068815,-0.3218299999999999,0.1428415,0.077515,-0.31292,-0.1031575,-0.214655,-0.170596,0.0968315,-0.2090349999999999,-0.170877,1
190,-0.0140395,0.6646850000000001,-0.133575,-0.1505105,0.470234,-0.162735,-0.2642905,0.671605,-0.271175,0.1398395,0.470067,-0.15377,0.2630295,0.6680550000000001,-0.259285,-0.3219705,0.903305,-0.349665,0.2827495,0.871435,-0.337795,-0.0807394999999999,-0.003645,0.0012049999999999,0.0807394999999999,0.003645,-0.001205,-0.1179905,0.076995,-0.320885,0.1431595,0.085655,-0.3114449999999999,-0.1027694999999999,-0.204025,-0.171442,0.0969194999999999,-0.198195,-0.171293,1
191,-0.0146694999999999,0.662675,-0.133999,-0.1505765,0.470226,-0.163754,-0.2646765,0.669455,-0.27293,0.1397635,0.469516,-0.154574,0.2630435,0.665915,-0.260508,-0.3220065,0.901325,-0.35126,0.2826634999999999,0.871245,-0.33902,-0.0806865,-0.0037949999999999,0.0017199999999999,0.0806865,0.0037949999999999,-0.0017199999999999,-0.1186065,0.084795,-0.31998,0.1432335,0.093565,-0.30979,-0.1027414999999999,-0.193915,-0.172487,0.0966935,-0.187655,-0.171604,1
192,-0.015321,0.6603950000000001,-0.1343839999999999,-0.150641,0.470322,-0.1648529999999999,-0.265041,0.667465,-0.274185,0.139589,0.469439,-0.1552289999999999,0.262949,0.664335,-0.26122,-0.321991,0.898375,-0.352715,0.282439,0.869255,-0.3403349999999999,-0.0806959999999999,-0.0041249999999999,0.002155,0.0806959999999999,0.004125,-0.0021549999999999,-0.119391,0.091535,-0.318925,0.143399,0.100115,-0.308075,-0.10289,-0.1850549999999999,-0.1735249999999999,0.0962089999999999,-0.1783949999999999,-0.1714689999999999,1
193,-0.0159115,0.65848,-0.134785,-0.1509635,0.4700529999999999,-0.166066,-0.2657435,0.66636,-0.276105,0.1393265,0.4697599999999999,-0.15607,0.2628764999999999,0.66287,-0.261968,-0.3220035,0.89579,-0.3543349999999999,0.2821665,0.87108,-0.341815,-0.0806435,-0.0045399999999999,0.0025749999999999,0.0806435,0.0045399999999999,-0.0025749999999999,-0.1203835,0.0985899999999999,-0.318405,0.1435365,0.1069699999999999,-0.306375,-0.1031465,-0.17635,-0.174576,0.0956265,-0.16926,-0.171482,1
194,-0.0165174999999999,0.657665,-0.133884,-0.1521364999999999,0.470744,-0.165345,-0.2667465,0.669645,-0.27651,0.1388535,0.469614,-0.155201,0.2626135,0.662255,-0.261398,-0.3222665,0.896315,-0.35458,0.2818934999999999,0.8737349999999999,-0.3415,-0.0805585,-0.0046849999999999,0.00246,0.0805585,0.004685,-0.0024599999999999,-0.1216365,0.105615,-0.31811,0.1435535,0.113385,-0.30459,-0.1036545,-0.1687349999999999,-0.174146,0.0947735,-0.1612249999999999,-0.170086,1
195,-0.0168215,0.656025,-0.132959,-0.1531125,0.4707889999999999,-0.164384,-0.2673224999999999,0.6713549999999999,-0.276705,0.1386975,0.4696899999999999,-0.154279,0.2625975,0.660445,-0.260798,-0.3222724999999999,0.8956649999999999,-0.354815,0.2818575,0.8746849999999999,-0.341055,-0.0805285,-0.004935,0.002335,0.0805285,0.004935,-0.002335,-0.1227925,0.1113249999999999,-0.317535,0.1440074999999999,0.118585,-0.302985,-0.1039124999999999,-0.162695,-0.173544,0.0940675,-0.154765,-0.168202,1
196,-0.017044,0.654515,-0.13204,-0.1541,0.4702949999999999,-0.163327,-0.2676,0.6721449999999999,-0.27687,0.1386099999999999,0.4693649999999999,-0.153395,0.26258,0.6584849999999999,-0.260036,-0.32219,0.8942049999999999,-0.355,0.28197,0.8747849999999999,-0.3408,-0.080516,-0.005125,0.0021899999999999,0.080516,0.0051249999999999,-0.0021899999999999,-0.124,0.1160249999999998,-0.31679,0.14467,0.1231449999999999,-0.30139,-0.104165,-0.157615,-0.172865,0.09331,-0.1493750000000001,-0.166051,1
197,-0.0174049999999999,0.653473,-0.131122,-0.155249,0.470368,-0.162187,-0.2685189999999999,0.672725,-0.27733,0.138391,0.469847,-0.152327,0.262191,0.656971,-0.258968,-0.322329,0.8933450000000001,-0.35533,0.281791,0.874565,-0.34038,-0.080379,-0.005225,0.0021699999999999,0.080379,0.005225,-0.00217,-0.1253189999999999,0.1200749999999999,-0.31591,0.145171,0.127195,-0.29953,-0.104603,-0.152995,-0.171834,0.092441,-0.144695,-0.163576,1
198,-0.0178045,0.6528,-0.1303659999999999,-0.1563775,0.470931,-0.1610839999999999,-0.2693675,0.6735949999999999,-0.2779,0.1380425,0.470414,-0.151285,0.2616825,0.655625,-0.257789,-0.3225274999999999,0.893335,-0.35572,0.2815425,0.8741049999999999,-0.3400499999999999,-0.0802915,-0.005295,0.00215,0.0802915,0.0052949999999999,-0.0021499999999999,-0.1266775,0.1236649999999999,-0.31475,0.1455425,0.1307849999999999,-0.29767,-0.1050835,-0.1489049999999999,-0.1707729999999999,0.0915225,-0.140785,-0.161149,1
199,-0.0182444999999999,0.652095,-0.129512,-0.1575794999999999,0.4713659999999999,-0.1599609999999999,-0.2700895,0.6748149999999999,-0.2784899999999999,0.1376505,0.4713569999999999,-0.1502869999999999,0.2611105,0.654625,-0.256652,-0.3226595,0.893985,-0.35616,0.2811905,0.873855,-0.3398299999999999,-0.0802525,-0.005425,0.00209,0.0802525,0.005425,-0.0020899999999999,-0.1280195,0.1272749999999999,-0.3133399999999999,0.1457505,0.1343249999999999,-0.2957499999999999,-0.1055994999999999,-0.144945,-0.1698559999999999,0.0907655,-0.137015,-0.1593779999999999,1
200,-0.0186104999999999,0.651549,-0.128774,-0.1586395,0.4717300000000001,-0.1589829999999999,-0.2707995,0.67605,-0.2791,0.1372905,0.4717050000000001,-0.149341,0.2606205,0.6542490000000001,-0.255779,-0.3227495,0.8945900000000001,-0.35661,0.2808805,0.87375,-0.3398799999999999,-0.0802015,-0.0055299999999999,0.0019699999999999,0.0802015,0.00553,-0.0019699999999999,-0.1292695,0.13067,-0.31182,0.1459705,0.1374,-0.29398,-0.1060325,-0.1415199999999998,-0.16896,0.0901135,-0.1338399999999999,-0.1578139999999999,1
201,-0.0188905,0.6513420000000001,-0.128047,-0.1596285,0.471605,-0.1579829999999999,-0.2714485,0.677315,-0.2797,0.1369715,0.472285,-0.148534,0.2602815,0.6544230000000001,-0.255216,-0.3228085,0.895375,-0.35711,0.2806515,0.874055,-0.33991,-0.0801455,-0.0056549999999999,0.00186,0.0801455,0.005655,-0.00186,-0.1303685,0.133605,-0.31023,0.1461715,0.140065,-0.29237,-0.1064215,-0.1388549999999999,-0.1681109999999999,0.0896184999999999,-0.1311949999999999,-0.1565629999999999,1
202,-0.0189955,0.652108,-0.127345,-0.1600915,0.471425,-0.15716,-0.2716415,0.6780050000000001,-0.27999,0.1368585,0.4725250000000001,-0.147762,0.2602085,0.6557130000000001,-0.255176,-0.3227015,0.896115,-0.35761,0.2805785,0.8743850000000001,-0.33987,-0.0800995,-0.0056949999999998,0.0018099999999999,0.0800995,0.005695,-0.00181,-0.1310815,0.135495,-0.3087,0.1465084999999999,0.141685,-0.29124,-0.1066345,-0.1373649999999999,-0.167341,0.0893155,-0.1296649999999999,-0.155102,1
203,-0.0190445,0.652108,-0.127237,-0.1601285,0.471425,-0.157246,-0.2716685,0.6780050000000001,-0.280385,0.1368215,0.4725250000000001,-0.147907,0.2601715,0.6557130000000001,-0.255321,-0.3225385,0.896115,-0.358405,0.2805415,0.8743850000000001,-0.340015,-0.0800495,-0.0056949999999998,0.0016949999999999,0.0800495,0.005695,-0.001695,-0.1315985,0.136025,-0.307525,0.1468215,0.142135,-0.290915,-0.1069055,-0.1373649999999999,-0.167077,0.0891395,-0.1291049999999999,-0.154423,1
204,-0.0190545,0.652108,-0.127322,-0.1601385,0.471425,-0.157331,-0.2716785,0.6780050000000001,-0.28047,0.1368115,0.4725250000000001,-0.147909,0.2601615,0.6557130000000001,-0.255406,-0.3222685,0.896115,-0.35927,0.2806115,0.8743850000000001,-0.34039,-0.0800335,-0.0056949999999998,0.0016399999999999,0.0800335,0.005695,-0.00164,-0.1318385,0.136405,-0.30655,0.1469315,0.142755,-0.29083,-0.1071534999999999,-0.1373649999999999,-0.166878,0.0891295,-0.1289549999999999,-0.154508,1
205,-0.0189535,0.652108,-0.127397,-0.1601345,0.471425,-0.157411,-0.2716745,0.6780050000000001,-0.28055,0.1368155,0.4725250000000001,-0.147989,0.2604655,0.6560650000000001,-0.255661,-0.3218945,0.896115,-0.36016,0.2809055,0.8743850000000001,-0.341,-0.0800315,-0.0056949999999998,0.00161,0.0800315,0.005695,-0.00161,-0.1318845,0.136725,-0.30576,0.1470354999999999,0.143475,-0.2909,-0.1075005,-0.1373649999999999,-0.166856,0.0891335,-0.1289549999999999,-0.154588,1
206,-0.018776,0.6526909999999999,-0.127636,-0.159789,0.4714749999999999,-0.157641,-0.271409,0.677395,-0.28094,0.1368809999999999,0.4733949999999999,-0.148274,0.260911,0.656037,-0.256481,-0.321239,0.896075,-0.36125,0.281441,0.8743349999999999,-0.34228,-0.080059,-0.005665,0.0015599999999999,0.080059,0.0056649999999999,-0.00156,-0.1319489999999999,0.1360349999999999,-0.30573,0.1470409999999999,0.1431849999999999,-0.29115,-0.107926,-0.1384250000000001,-0.167094,0.089079,-0.129925,-0.154838,1
207,-0.0183055,0.654647,-0.12858,-0.1590415,0.4717679999999999,-0.158556,-0.2707315,0.67655,-0.28189,0.1368985,0.4736849999999999,-0.148986,0.2615185,0.6576209999999999,-0.25795,-0.3202715,0.8976299999999999,-0.3627599999999999,0.2821884999999999,0.87452,-0.34401,-0.0800655,-0.00546,0.0014899999999999,0.0800655,0.0054599999999999,-0.0014899999999999,-0.1319515,0.1336499999999999,-0.3064099999999999,0.1470385,0.1412199999999999,-0.29183,-0.1082795,-0.1410000000000001,-0.167791,0.0893315,-0.1325,-0.155775,1
208,-0.0177635,0.655559,-0.129486,-0.1581815,0.4713809999999999,-0.159344,-0.2695415,0.67458,-0.28245,0.1370685,0.473508,-0.149458,0.2622084999999999,0.657704,-0.259257,-0.3192815,0.89782,-0.36392,0.2829184999999999,0.87249,-0.34541,-0.0800615,-0.0050999999999999,0.0011299999999999,0.0800615,0.0050999999999999,-0.00113,-0.1318715,0.1281799999999999,-0.30673,0.1470685,0.1361899999999999,-0.29257,-0.1086034999999999,-0.14688,-0.168121,0.0897505,-0.13812,-0.15681,1
209,-0.0170099999999999,0.656648,-0.130336,-0.157204,0.471346,-0.160097,-0.268314,0.67534,-0.28285,0.1372459999999999,0.472983,-0.150092,0.262916,0.6584,-0.260542,-0.3182939999999999,0.8994500000000001,-0.36527,0.284286,0.8722300000000001,-0.3469,-0.080041,-0.00473,0.00084,0.080041,0.00473,-0.00084,-0.131634,0.1203299999999999,-0.3069,0.147146,0.12866,-0.29442,-0.108884,-0.15525,-0.168315,0.09035,-0.1463599999999999,-0.158397,1
