sb224sc-HT22-VT27/4dt907/src/data/labeled_files/B14_kinect.csv
FrameNo,nose_3d_x,nose_3d_y,nose_3d_z,left_shoulder_3d_x,left_shoulder_3d_y,left_shoulder_3d_z,left_elbow_3d_x,left_elbow_3d_y,left_elbow_3d_z,right_shoulder_3d_x,right_shoulder_3d_y,right_shoulder_3d_z,right_elbow_3d_x,right_elbow_3d_y,right_elbow_3d_z,left_wrist_3d_x,left_wrist_3d_y,left_wrist_3d_z,right_wrist_3d_x,right_wrist_3d_y,right_wrist_3d_z,left_hip_3d_x,left_hip_3d_y,left_hip_3d_z,right_hip_3d_x,right_hip_3d_y,right_hip_3d_z,left_knee_3d_x,left_knee_3d_y,left_knee_3d_z,right_knee_3d_x,right_knee_3d_y,right_knee_3d_z,left_ankle_3d_x,left_ankle_3d_y,left_ankle_3d_z,right_ankle_3d_x,right_ankle_3d_y,right_ankle_3d_z,activity_label
0,-0.0121405,0.7597855,0.0359289999999999,-0.1827435,0.4883655,0.0040699999999999,-0.2140234999999999,0.2349455,-0.019563,0.1565065,0.4890055,0.0221299999999999,0.1837865,0.2826655,-0.046333,-0.2030835,0.0534815,-0.097415,0.0507315,0.4135855,-0.190655,-0.0733655,-0.0011065,0.000347,0.0733655,0.0011065,-0.000347,-0.0962095,-0.3257445,0.027726,0.0979324999999999,-0.3267145,0.043202,-0.1026735,-0.6513745,0.061529,0.0958934999999999,-0.6397245,0.074962,0
1,-0.0121455,0.7596145000000001,0.0356189999999999,-0.1826495,0.4881144999999999,0.0039909999999999,-0.2138695,0.2350245,-0.019797,0.1565205,0.4890245,0.0222779999999999,0.1841805,0.2820045,-0.045525,-0.2030995,0.0533595,-0.097255,0.0520815,0.4126045,-0.189465,-0.0733525,-0.0011085,0.0004199999999999,0.0733525,0.0011085,-0.00042,-0.0962455,-0.3253955,0.0276549999999999,0.0978504999999999,-0.3267355,0.0433299999999999,-0.1025095,-0.6512355,0.0615579999999999,0.0958675,-0.6397955,0.0750879999999999,0
2,-0.0122274999999999,0.7592935000000001,0.035765,-0.1827285,0.4879535,0.0042659999999999,-0.2139785,0.2348735,-0.019488,0.1564415,0.4888435,0.0225649999999999,0.1842214999999999,0.2817035,-0.045173,-0.2031885,0.0531255,-0.096986,0.0522985,0.4122435,-0.188446,-0.0732955,-0.0010705,0.000264,0.0732955,0.0010705,-0.000264,-0.0962425,-0.3252564999999999,0.0277629999999999,0.0978525,-0.3268365,0.043417,-0.1026385,-0.6512965,0.0618699999999999,0.0957725,-0.6400465,0.075765,0
3,-0.0122144999999999,0.7585115,0.0349685,-0.1828125,0.4875414999999999,0.0044075,-0.2141225,0.2344315,-0.0195004999999999,0.1564075,0.4884314999999999,0.0228645,0.1840175,0.2814215,-0.0451884999999999,-0.2031725,0.0526245,-0.0971824999999999,0.0523665,0.4118515,-0.1883725,-0.0732775,-0.0010785,0.0001545,0.0732775,0.0010785,-0.0001544999999999,-0.0963505,-0.3256885,0.0279755,0.0977305,-0.3271785,0.0435465,-0.1027325,-0.6516685,0.0621015,0.0956815,-0.6404985,0.0760865,0
4,-0.012177,0.758511,0.0348064999999999,-0.182755,0.487621,0.0042744999999999,-0.2141549999999999,0.2345709999999999,-0.0194315,0.156395,0.488401,0.0228864999999999,0.184465,0.281251,-0.0456265,-0.203235,0.052599,-0.0970955,0.052923,0.411441,-0.1881054999999999,-0.073302,-0.001079,0.0002044999999999,0.073302,0.0010789999999999,-0.0002045,-0.09657,-0.325439,0.0280104999999999,0.097696,-0.327019,0.0435564999999999,-0.102675,-0.651659,0.0621574999999999,0.095596,-0.640419,0.0760325,0
5,-0.012064,0.758252,0.0347115,-0.182769,0.487642,0.0043375,-0.214179,0.234612,-0.0194155,0.1564109999999999,0.488462,0.0228905,0.1845009999999999,0.281162,-0.0456125,-0.2031089999999999,0.052188,-0.0972995,0.0529729999999999,0.413922,-0.1948595,-0.07331,-0.001091,0.0002115,0.07331,0.001091,-0.0002114999999999,-0.096574,-0.324758,0.0275995,0.09751,-0.327148,0.0435645,-0.102659,-0.651578,0.0621494999999999,0.095453,-0.640818,0.0758985,0
6,-0.0120085,0.7580915,0.0346495,-0.1827825,0.4876815,0.0043824999999999,-0.2143125,0.2345815,-0.0194524999999999,0.1564075,0.4884315,0.0228005,0.1842575,0.2813415,-0.0458634999999999,-0.2031325,0.0521995,-0.0971874999999999,0.0529885,0.4141015,-0.1939775,-0.0733285,-0.0010845,0.0002194999999999,0.0733285,0.0010845,-0.0002194999999999,-0.0965215,-0.3246684999999999,0.0275875,0.0974375,-0.3270385,0.0435955,-0.1026825,-0.6515685,0.0622125,0.0954255,-0.6407685,0.0758975,0
7,-0.0119795,0.7579905,0.034561,-0.1825735,0.4879305,0.004566,-0.2143135,0.2345505,-0.0194709999999999,0.1564765,0.4882605,0.022787,0.1841665,0.2811905,-0.0455609999999999,-0.2031435,0.0521015,-0.0971689999999999,0.0529535,0.4133805,-0.191909,-0.0732975,-0.0010815,0.000183,0.0732975,0.0010815,-0.0001829999999999,-0.0964965,-0.3250195,0.027753,0.0975285,-0.3273695,0.043651,-0.1028335,-0.6518394999999999,0.062387,0.0955895,-0.6410294999999999,0.075975,0
8,-0.0119319999999999,0.757839,0.0344849999999999,-0.182446,0.488019,0.0046629999999999,-0.2143359999999999,0.234539,-0.019464,0.156494,0.488209,0.0227689999999999,0.184244,0.281049,-0.04545,-0.2031359999999999,0.052,-0.097131,0.053055,0.413339,-0.191861,-0.073294,-0.001077,0.0001699999999999,0.073294,0.001077,-0.00017,-0.096525,-0.3249309999999999,0.0277409999999999,0.09751,-0.327411,0.0436709999999999,-0.102826,-0.651791,0.062507,0.095574,-0.641201,0.0760319999999999,0
9,-0.0118825,0.757681,0.0344065,-0.1823125,0.4881209999999999,0.0047635,-0.2143725,0.234521,-0.0194574999999999,0.1565174999999999,0.488151,0.0227495,0.1843475,0.280921,-0.0454114999999999,-0.2031224999999999,0.05191,-0.0970694999999999,0.0531955,0.413421,-0.1918895,-0.0732885,-0.00107,0.0001535,0.0732885,0.00107,-0.0001534999999999,-0.0965405,-0.324849,0.0277185,0.0975095,-0.327459,0.0436695,-0.1028325,-0.651759,0.0626495,0.0955645,-0.641369,0.0761125,0
10,-0.0118365,0.7575620000000001,0.034343,-0.1821655,0.488222,0.004855,-0.2143955,0.234492,-0.0194589999999999,0.1565445,0.488092,0.022728,0.1844145,0.280812,-0.045405,-0.2031155,0.051851,-0.096997,0.0533445,0.413432,-0.191797,-0.0732795,-0.0010659999999999,0.000137,0.0732795,0.0010659999999999,-0.0001369999999999,-0.0965505,-0.324818,0.027738,0.0975015,-0.327548,0.043663,-0.1028355,-0.6517379999999999,0.062786,0.0955575,-0.641518,0.076166,0
11,-0.0117944999999999,0.7574495,0.0342834999999999,-0.1819585,0.4883695,0.0049514999999999,-0.2144185,0.2344695,-0.0194705,0.1565714999999999,0.4880295,0.0227054999999999,0.1845014999999999,0.2806495,-0.0453335,-0.2031085,0.0517985,-0.0969525,0.0535255,0.4136195,-0.1923025,-0.0732695,-0.0010624999999999,0.0001234999999999,0.0732695,0.0010624999999999,-0.0001235,-0.0965605,-0.3248005,0.0277445,0.0975005,-0.3276705,0.0436405,-0.1028285,-0.6517005,0.0629155,0.0955485,-0.6416705,0.0762154999999999,0
12,-0.0117625,0.757336,0.0342539999999999,-0.1817425,0.488506,0.0050499999999999,-0.2144425,0.2344359999999999,-0.019502,0.1565875,0.487966,0.0226769999999999,0.1845375,0.280506,-0.045315,-0.2031025,0.0517549999999999,-0.096912,0.0536524999999999,0.413716,-0.192392,-0.0732625,-0.001061,0.0001199999999999,0.0732625,0.001061,-0.00012,-0.0965575,-0.324794,0.0277259999999999,0.0974805,-0.327794,0.0435959999999999,-0.1028325,-0.651664,0.063002,0.0955465,-0.641774,0.0762289999999999,0
13,-0.011722,0.7572365,0.0342255,-0.181487,0.4886565,0.0051885,-0.214467,0.2343964999999999,-0.0195514999999999,0.156593,0.4879165,0.0226625,0.184573,0.2803765,-0.0452694999999999,-0.203107,0.0517125,-0.0968865,0.053773,0.4136665,-0.1918065,-0.073256,-0.0010635,0.0001155,0.073256,0.0010635,-0.0001154999999999,-0.096555,-0.3247635,0.0277045,0.097475,-0.3279134999999999,0.0435485,-0.102837,-0.6516235,0.0630905,0.095567,-0.6418535,0.0762565,0
14,-0.0116835,0.7571315,0.034191,-0.1813195,0.4887715,0.005303,-0.2144795,0.2343615,-0.0195779999999999,0.1566105,0.4878715,0.022639,0.1846405,0.2802215,-0.045198,-0.2030995,0.0516584999999999,-0.096875,0.0538935,0.4135515,-0.191315,-0.0732485,-0.0010685,0.0001169999999999,0.0732485,0.0010685,-0.0001169999999999,-0.0965565,-0.3247184999999999,0.027677,0.0974765,-0.3280185,0.043494,-0.1028395,-0.6515785,0.06317,0.0955675,-0.6418885,0.076268,0
15,-0.011646,0.7570335,0.0341785,-0.181267,0.4887935,0.0054115,-0.214497,0.2343335,-0.0195955,0.156623,0.4878335,0.0226164999999999,0.184613,0.2800634999999999,-0.0450405,-0.203097,0.0516055,-0.0968814999999999,0.054016,0.4134235,-0.1908515,-0.073237,-0.0010705,0.0001125,0.073237,0.0010704999999999,-0.0001125,-0.096552,-0.3246665,0.0276515,0.097471,-0.3280765,0.0434335,-0.102807,-0.6515065,0.0632645,0.095562,-0.6419265,0.0762725,0
16,-0.0116075,0.7569655,0.0341825,-0.1811385,0.4888555,0.0055424999999999,-0.2145085,0.2343155,-0.0196065,0.1566415,0.4878055,0.0226045,0.1846015,0.2799955,-0.0449334999999999,-0.2030985,0.0515335,-0.0968804999999999,0.0541115,0.4132755,-0.1904905,-0.0732295,-0.0010835,0.0001135,0.0732295,0.0010835,-0.0001135,-0.0965425,-0.3246045,0.0276315,0.0974755,-0.3281245,0.0433735,-0.1027885,-0.6514645,0.0633485,0.0955625,-0.6419545,0.0762745,0
17,-0.01157,0.756923,0.034186,-0.181,0.488933,0.0056719999999999,-0.21451,0.2343029999999999,-0.019618,0.15666,0.487783,0.022607,0.18458,0.279973,-0.044924,-0.2031,0.051511,-0.09688,0.0541749999999999,0.413283,-0.1901,-0.073223,-0.0010979999999999,0.0001149999999999,0.073223,0.001098,-0.0001149999999999,-0.096527,-0.324517,0.027611,0.097478,-0.328177,0.043325,-0.10275,-0.6514570000000001,0.063372,0.095556,-0.6419870000000001,0.076289,0
18,-0.011533,0.756885,0.0341865,-0.180873,0.488915,0.0057685,-0.214523,0.234295,-0.0196194999999999,0.1566769999999999,0.487765,0.0226075,0.184577,0.279955,-0.0449204999999999,-0.203113,0.051552,-0.0968415,0.054131,0.413075,-0.1893415,-0.073218,-0.001113,0.0001145,0.073218,0.0011129999999999,-0.0001144999999999,-0.096507,-0.324525,0.0276115,0.097469,-0.328255,0.0433185,-0.102723,-0.651455,0.0633885,0.0955409999999999,-0.642055,0.0763085,0
19,-0.0115005,0.7568675,0.0341815,-0.1807185,0.4888975,0.0058744999999999,-0.2145285,0.2342975,-0.0196405,0.1567015,0.4877475,0.0225865,0.1845515,0.2799375,-0.0449415,-0.2031085,0.0515915,-0.0968335,0.0541424999999999,0.4130575,-0.1893635,-0.0732145,-0.0011265,0.0001304999999999,0.0732145,0.0011265,-0.0001305,-0.0964965,-0.3245325,0.0275904999999999,0.0974635,-0.3283025,0.0432925,-0.1026985,-0.6514125,0.0633705,0.0955235,-0.6421025,0.0763045,0
20,-0.0114815,0.7568445,0.0341729999999999,-0.1806965,0.4888745,0.0059129999999999,-0.2145365,0.2342945,-0.019668,0.1567235,0.4877245,0.0225669999999999,0.1844934999999999,0.2799445,-0.04499,-0.2031065,0.0516224999999999,-0.096831,0.0541035,0.4130345,-0.188851,-0.0732095,-0.0011385,0.0001439999999999,0.0732095,0.0011385,-0.000144,-0.0964675,-0.3245555,0.027565,0.0974565,-0.3283255,0.0432629999999999,-0.1026865,-0.6513655,0.063336,0.0955004999999999,-0.6420855,0.076287,0
21,-0.011465,0.7568285,0.034206,-0.1807,0.4888585,0.005939,-0.21453,0.2342985,-0.0196879999999999,0.15672,0.4877085,0.022531,0.1844,0.2799985,-0.0450629999999999,-0.2031099999999999,0.0516335,-0.096827,0.054079,0.4131885,-0.188517,-0.073207,-0.0011505,0.000157,0.073207,0.0011505,-0.0001569999999999,-0.09643,-0.3245715,0.027565,0.097446,-0.3283415,0.043228,-0.10268,-0.6512915,0.063287,0.095476,-0.6420815,0.076249,0
22,-0.011456,0.7568325,0.0342264999999999,-0.1807,0.4888424999999999,0.0059344999999999,-0.21453,0.2343225,-0.0197155,0.15672,0.4877025,0.0224804999999999,0.1843,0.2800824999999999,-0.0451895,-0.2031,0.0516574999999999,-0.0968765,0.0540579999999999,0.4136424999999999,-0.1882165,-0.0732049999999999,-0.0011565,0.0001714999999999,0.0732049999999999,0.0011565,-0.0001715,-0.096395,-0.3245775,0.0275514999999999,0.097418,-0.3283375,0.0431584999999999,-0.10268,-0.6512975,0.0632155,0.095449,-0.6421074999999999,0.0762144999999999,0
23,-0.0114605,0.7568695,0.0342725,-0.1807395,0.4887795,0.0059334999999999,-0.2145395,0.2343395,-0.0197285,0.1567305,0.4876995,0.0224374999999999,0.1841904999999999,0.2801595,-0.0452965,-0.2030895,0.0516775,-0.0969185,0.0539054999999999,0.4141095,-0.1882885,-0.0732055,-0.0011614999999999,0.0001854999999999,0.0732055,0.0011615,-0.0001855,-0.0963575,-0.3246005,0.0275774999999999,0.0973914999999999,-0.3283005,0.0430964999999999,-0.1026695,-0.6513005000000001,0.0631375,0.0954325,-0.6420805,0.0761715,0
24,-0.0114675,0.7569370000000001,0.0343395,-0.1807714999999999,0.488707,0.0059485,-0.2145515,0.2343569999999999,-0.0197135,0.1567485,0.487667,0.0223555,0.1840885,0.280217,-0.0453525,-0.2030715,0.051698,-0.0969505,0.0539005,0.414577,-0.1884605,-0.0732065,-0.001164,0.0001945,0.0732065,0.001164,-0.0001945,-0.0963295,-0.324643,0.0276285,0.0973725,-0.328243,0.0430515,-0.1026715,-0.651323,0.0630795,0.0954055,-0.6420429999999999,0.0761324999999999,0
25,-0.0114845,0.7570525,0.034498,-0.1809075,0.4886425,0.0059519999999999,-0.2146074999999999,0.2344325,-0.019609,0.1567725,0.4876725,0.022298,0.1840325,0.2802925,-0.0454139999999999,-0.2030775,0.0517375,-0.0969999999999999,0.0538785,0.4151225,-0.1889199999999999,-0.0732065,-0.0011774999999999,0.000223,0.0732065,0.0011775,-0.000223,-0.0963205,-0.3247175,0.0277219999999999,0.0973495,-0.3281675,0.0429989999999999,-0.1026775,-0.6513375,0.062976,0.0953785,-0.6419975,0.076103,0
26,-0.011506,0.757186,0.034663,-0.181074,0.4886359999999999,0.0059769999999999,-0.214694,0.234506,-0.019504,0.156796,0.4876859999999999,0.0222599999999999,0.183936,0.280416,-0.045595,-0.203074,0.051851,-0.09716,0.0539119999999999,0.4155259999999999,-0.18895,-0.073206,-0.001185,0.0002529999999999,0.073206,0.0011849999999999,-0.000253,-0.096307,-0.324854,0.0278119999999999,0.097332,-0.328094,0.0429409999999999,-0.102694,-0.651364,0.062872,0.0953419999999999,-0.6419440000000001,0.0760619999999999,0
27,-0.0115465,0.7573614999999999,0.0348615,-0.1811565,0.4886515,0.0059934999999999,-0.2148465,0.2347515,-0.0192795,0.1568135,0.4877015,0.0222414999999999,0.1839535,0.2806015,-0.0458584999999999,-0.2030565,0.0523095,-0.0975905,0.0541554999999999,0.4171215,-0.1924405,-0.0732095,-0.0011905,0.0002934999999999,0.0732095,0.0011905,-0.0002935,-0.0962905,-0.3250984999999999,0.0278924999999999,0.0973305,-0.3280185,0.0428845,-0.1027265,-0.6514285000000001,0.0627745,0.0953095,-0.6419185000000001,0.0760315,0
28,-0.011626,0.7576579999999999,0.0351424999999999,-0.181252,0.488678,0.0060194999999999,-0.215142,0.235258,-0.0189305,0.156828,0.487718,0.0222214999999999,0.183958,0.2807679999999999,-0.0461545,-0.203012,0.053972,-0.0990335,0.054753,0.419438,-0.1958835,-0.073215,-0.001197,0.0003424999999999,0.073215,0.001197,-0.0003425,-0.096303,-0.325362,0.0279694999999999,0.097312,-0.327972,0.0428234999999999,-0.102782,-0.651512,0.0626745,0.0952659999999999,-0.641892,0.0759934999999999,0
29,-0.011748,0.7580490000000001,0.035545,-0.18132,0.4887289999999999,0.006105,-0.21576,0.236239,-0.0182959999999999,0.15687,0.487689,0.022119,0.18395,0.2811189999999999,-0.046862,-0.20297,0.0565559999999999,-0.101026,0.055393,0.422209,-0.199986,-0.073241,-0.001202,0.000441,0.073241,0.001202,-0.0004409999999999,-0.09632,-0.325511,0.028096,0.097289,-0.327941,0.042785,-0.10284,-0.651601,0.062593,0.095228,-0.641861,0.075964,0
30,-0.0118759999999999,0.7585565,0.035962,-0.1813779999999999,0.4888465,0.006198,-0.2166479999999999,0.2379065,-0.0174539999999999,0.156992,0.4876765,0.021933,0.184012,0.2816365,-0.047796,-0.202988,0.0608565,-0.1044669999999999,0.056369,0.4250465,-0.2043169999999999,-0.0732599999999999,-0.0012165,0.000705,0.0732599999999999,0.0012165,-0.0007049999999999,-0.0963239999999999,-0.3255335,0.028119,0.097285,-0.3278835,0.042693,-0.102858,-0.6516035,0.0624409999999999,0.095232,-0.6417835000000001,0.075867,0
31,-0.0120375,0.7590739999999999,0.0364745,-0.1815435,0.488884,0.0062314999999999,-0.2182935,0.240754,-0.0165585,0.1571865,0.487594,0.0216824999999999,0.1841065,0.282264,-0.0487905,-0.2033235,0.06723,-0.1089535,0.0578324999999999,0.428784,-0.2083134999999999,-0.0732835,-0.001219,0.0010755,0.0732835,0.001219,-0.0010755,-0.0963515,-0.325606,0.0281114999999999,0.0972985,-0.327836,0.0425684999999999,-0.1028935,-0.6516660000000001,0.0622454999999999,0.0952305,-0.6417860000000001,0.0757305,0
32,-0.0122529999999999,0.759674,0.0370735,-0.1815029999999999,0.488964,0.0062065,-0.220353,0.244784,-0.0169164999999999,0.1572569999999999,0.487254,0.0209415,0.184527,0.285284,-0.0537654999999999,-0.205343,0.0778809999999999,-0.1159394999999999,0.059497,0.433214,-0.2128295,-0.073338,-0.001222,0.0014965,0.073338,0.001222,-0.0014964999999999,-0.096366,-0.325616,0.0279935,0.097348,-0.327806,0.0423545,-0.1028829999999999,-0.651756,0.0619765,0.09528,-0.641786,0.0755085,0
33,-0.012437,0.76032,0.037647,-0.181397,0.48923,0.006203,-0.222777,0.24935,-0.0173849999999999,0.157413,0.48632,0.019504,0.185143,0.28863,-0.0592859999999999,-0.208457,0.092295,-0.12529,0.063034,0.43782,-0.21741,-0.073446,-0.0012349999999999,0.001881,0.073446,0.001235,-0.001881,-0.096305,-0.32564,0.027795,0.097479,-0.3277899999999999,0.042019,-0.102807,-0.6518200000000001,0.061653,0.0954049999999999,-0.64176,0.075202,0
34,-0.012536,0.7607745,0.0384435,-0.181059,0.4894145,0.0062775,-0.2255589999999999,0.2549745,-0.0178185,0.157781,0.4851145,0.0180645,0.186021,0.2921645,-0.0649605,-0.212249,0.1107545,-0.1361805,0.0678199999999999,0.4407345,-0.2179604999999999,-0.073579,-0.0012055,0.0021434999999999,0.073579,0.0012055,-0.0021434999999999,-0.095993,-0.3258555,0.0276355,0.097824,-0.3279355,0.0417395,-0.102489,-0.6520754999999999,0.0613835,0.0957599999999999,-0.6419355,0.0750145,0
35,-0.0124245,0.7610790000000001,0.0396225,-0.1802385,0.489429,0.0064814999999999,-0.2333685,0.260329,-0.0230505,0.1565315,0.483909,0.0163254999999999,0.1906915,0.295979,-0.0709335,-0.2158985,0.1370289999999999,-0.1539235,0.0760585,0.450379,-0.2229335,-0.0737625,-0.0011309999999999,0.0023404999999999,0.0737625,0.001131,-0.0023405,-0.0954595,-0.326391,0.0275584999999999,0.0984605,-0.328291,0.0415375,-0.1018785,-0.6526609999999999,0.0611955,0.0964565,-0.642451,0.0749215,0
36,-0.0123249999999999,0.761154,0.0410425,-0.179218,0.489274,0.0067725,-0.2416279999999999,0.266874,-0.0295804999999999,0.155132,0.483164,0.0151575,0.196512,0.300954,-0.0776625,-0.2210079999999999,0.1682239999999999,-0.1731025,0.087599,0.460254,-0.2276925,-0.073904,-0.001056,0.0024955,0.073904,0.0010559999999999,-0.0024954999999999,-0.0949639999999999,-0.327216,0.0275555,0.099073,-0.328876,0.0413775,-0.1012879999999999,-0.653556,0.0610645,0.09715,-0.643306,0.0748735,0
37,-0.0122205,0.760888,0.042572,-0.1780574999999999,0.489428,0.007255,-0.2501875,0.274158,-0.0370989999999999,0.1537825,0.482198,0.014195,0.2030325,0.307978,-0.086091,-0.2268575,0.205128,-0.190901,0.0989565,0.470948,-0.230041,-0.0740165,-0.000939,0.002537,0.0740165,0.0009389999999999,-0.0025369999999999,-0.0945315,-0.328342,0.027561,0.0996385,-0.329142,0.041214,-0.1007275,-0.654742,0.060923,0.0978115,-0.644402,0.074788,0
38,-0.0121165,0.7604865,0.0442339999999999,-0.1770215,0.4897265,0.0075929999999999,-0.2590814999999999,0.2831365,-0.045855,0.1524585,0.4811965,0.0133499999999999,0.2102284999999999,0.3183365,-0.095742,-0.2343915,0.2466064999999999,-0.207672,0.1106385,0.4838365,-0.230542,-0.0741055,-0.0008124999999999,0.002477,0.0741055,0.0008125,-0.002477,-0.0940775,-0.3295535,0.02765,0.1001655,-0.3299534999999999,0.041072,-0.1001615,-0.6560035000000001,0.06081,0.0984725,-0.6455135000000001,0.074713,0
39,-0.0120294999999999,0.7600135,0.0459955,-0.1762025,0.4899035,0.0076455,-0.2685225,0.2933535,-0.0551054999999999,0.1513275,0.4802535,0.0128645,0.2177175,0.3306334999999999,-0.1053355,-0.2431725,0.2917635,-0.2222655,0.1257075,0.5011335,-0.2299955,-0.0741675,-0.0006895,0.0023465,0.0741675,0.0006895,-0.0023465,-0.0936255,-0.3309965,0.0277755,0.1006705,-0.3308765,0.0409465,-0.0996225,-0.6573865,0.0607135,0.0991185,-0.6466664999999999,0.0746624999999999,0
40,-0.0119109999999999,0.7594955,0.0478,-0.175586,0.4900455,0.007532,-0.278266,0.3060055,-0.0661809999999999,0.150274,0.4796455,0.012375,0.226544,0.3443955,-0.1146109999999999,-0.252316,0.3407755,-0.235181,0.140874,0.5179255,-0.229021,-0.07422,-0.0005645,0.002194,0.07422,0.0005644999999999,-0.0021939999999999,-0.0931579999999999,-0.3325145,0.027939,0.101176,-0.3319245,0.040804,-0.099086,-0.6588545,0.060593,0.099769,-0.6478345,0.074582,0
41,-0.0117254999999999,0.7589315000000001,0.049541,-0.1750235,0.4902114999999999,0.00738,-0.2876435,0.3229915,-0.079343,0.1493065,0.4791014999999999,0.012134,0.2362965,0.3569815,-0.119403,-0.2607135,0.3902015,-0.244653,0.1574065,0.5362515,-0.227823,-0.0742245,-0.0004314999999999,0.002009,0.0742245,0.0004314999999999,-0.0020089999999999,-0.0926795,-0.3342585,0.028078,0.1016025,-0.3330485,0.040633,-0.0985935,-0.6604785,0.06034,0.1004245,-0.6490285,0.074456,0
42,-0.011615,0.7582455,0.051404,-0.174606,0.4902355,0.007265,-0.298486,0.3395054999999999,-0.0935829999999999,0.148304,0.4786355,0.011937,0.247434,0.3713255,-0.1237829999999999,-0.269016,0.4394654999999999,-0.251493,0.173644,0.5567255,-0.226523,-0.074173,-0.0002985,0.00162,0.074173,0.0002985,-0.0016199999999999,-0.092291,-0.3361045,0.028238,0.10193,-0.3343345,0.040517,-0.098186,-0.6622144999999999,0.060122,0.101005,-0.6503844999999999,0.074381,0
43,-0.01162,0.7577645,0.0532675,-0.174409,0.4905045,0.0071025,-0.309899,0.3569445,-0.1085915,0.147121,0.4783645,0.0118635,0.259281,0.3867745,-0.1274914999999999,-0.277459,0.4881145,-0.2557615,0.189481,0.5786344999999999,-0.2255915,-0.074101,-0.0001884999999999,0.0010065,0.074101,0.0001884999999999,-0.0010064999999999,-0.092134,-0.3378255,0.0284865,0.102077,-0.3354654999999999,0.0404875,-0.097989,-0.6637655,0.0600185,0.101357,-0.6515555000000001,0.0744215,0
44,-0.0118219999999999,0.757398,0.0551675,-0.174459,0.4910479999999999,0.0068844999999999,-0.315889,0.3786279999999999,-0.1184305,0.147161,0.4789879999999999,0.0123384999999999,0.268631,0.4039879999999999,-0.1298305,-0.286579,0.5334479999999999,-0.2561805,0.204621,0.597738,-0.2233105,-0.074044,-0.000118,0.0002585,0.074044,0.000118,-0.0002585,-0.0921719999999999,-0.339402,0.0288235,0.102017,-0.336532,0.0405615,-0.098009,-0.6651320000000001,0.0599955,0.101449,-0.652512,0.0745565,0
45,-0.0120429999999999,0.7571114999999999,0.0570375,-0.174603,0.4919115,0.0065475,-0.321113,0.4014315,-0.1266385,0.147137,0.4805415,0.0137205,0.277347,0.4239815,-0.1290885,-0.294723,0.5760314999999999,-0.2564085,0.217877,0.6200414999999999,-0.2207285,-0.073965,-5.850000000000126e-05,-0.0004894999999999,0.073965,5.849999999999953e-05,0.0004895,-0.092217,-0.3407285,0.0292315,0.1019539999999999,-0.3374884999999999,0.0407695,-0.098063,-0.6664185,0.0600965,0.101529,-0.6534485000000001,0.0748005,0
46,-0.0122659999999999,0.7568815,0.058889,-0.174876,0.4927114999999999,0.0061289999999999,-0.325696,0.4283515,-0.133141,0.147154,0.4822714999999999,0.015226,0.285764,0.4427115,-0.128271,-0.302796,0.6168215,-0.256561,0.231994,0.6412114999999999,-0.216871,-0.0738709999999999,-3.249999999999954e-05,-0.0011069999999999,0.0738709999999999,3.249999999999954e-05,0.001107,-0.0922379999999999,-0.3420285,0.029694,0.101949,-0.3384485,0.041081,-0.098106,-0.6676385,0.06028,0.101649,-0.6543185,0.075106,0
47,-0.0125835,0.7565575,0.0605715,-0.1754804999999999,0.4933774999999999,0.0056075,-0.3294505,0.4558375,-0.1377555,0.1479095,0.4839575,0.0171965,0.2936694999999999,0.4596675,-0.1274855,-0.3097305,0.6521675,-0.2513255,0.2460295,0.6596275,-0.2097554999999999,-0.0736965,-4.149999999999987e-05,-0.0016354999999999,0.0736965,4.149999999999987e-05,0.0016354999999999,-0.0923404999999999,-0.3435425,0.0300695,0.1018975,-0.3395125,0.0414015,-0.0982405,-0.6689725,0.0604665,0.1016745,-0.6553025,0.0753915,0
48,-0.012873,0.755953,0.062145,-0.176095,0.494163,0.005004,-0.331945,0.482683,-0.1411489999999999,0.149195,0.4853229999999999,0.019174,0.3013249999999999,0.476403,-0.125919,-0.315845,0.683153,-0.2469889999999999,0.257125,0.673983,-0.202729,-0.073564,-4.099999999999937e-05,-0.0021539999999999,0.073564,4.099999999999937e-05,0.002154,-0.092495,-0.345327,0.030488,0.101872,-0.340877,0.041771,-0.098365,-0.670617,0.060708,0.101712,-0.656587,0.075728,0
49,-0.0131534999999999,0.7550695000000001,0.0635585,-0.1765165,0.4951395,0.0041715,-0.3332065,0.5079095,-0.1421425,0.1505735,0.4864895,0.0210315,0.3075535,0.4922695,-0.1220925,-0.3218565,0.7110695,-0.2402924999999999,0.2683835,0.6890595,-0.1941324999999999,-0.0734384999999999,-2.1500000000000685e-05,-0.0026684999999999,0.0734384999999999,2.1500000000000685e-05,0.0026685,-0.0926375,-0.3470405,0.0309125,0.1018615,-0.3429704999999999,0.0421965,-0.0984865,-0.6724505,0.0610305,0.1017525,-0.6581205,0.0761245,0
50,-0.0134299999999999,0.7538405,0.0647865,-0.176593,0.4963404999999999,0.0034954999999999,-0.333843,0.5297505,-0.1417445,0.152067,0.4877105,0.0230125,0.312257,0.5082705,-0.1158045,-0.327073,0.7351705000000001,-0.2335745,0.278827,0.7036805,-0.1852845,-0.073312,5.000000000005e-07,-0.0031295,0.073312,-5.000000000005e-07,0.0031295,-0.0927849999999999,-0.3489095,0.0313685,0.101885,-0.3447894999999999,0.0426465,-0.098553,-0.6743494999999999,0.0614635,0.101797,-0.6599395,0.0765335,0
51,-0.013697,0.752397,0.065782,-0.176548,0.498037,0.0029679999999999,-0.333848,0.552907,-0.141345,0.1533219999999999,0.488767,0.0246699999999999,0.315272,0.523187,-0.1084149999999999,-0.331538,0.757497,-0.226715,0.288192,0.719217,-0.175835,-0.073213,1.5999999999998654e-05,-0.0035239999999999,0.073213,-1.6000000000002124e-05,0.0035239999999999,-0.09293,-0.350923,0.031774,0.10188,-0.346803,0.043046,-0.098628,-0.676483,0.0618439999999999,0.101817,-0.6620429999999999,0.076898,0
52,-0.013925,0.750708,0.0664434999999999,-0.1765209999999999,0.499768,0.0026194999999999,-0.333861,0.5758380000000001,-0.1410225,0.154569,0.4902579999999999,0.0263284999999999,0.3170989999999999,0.538228,-0.1007725,-0.336141,0.780988,-0.2198224999999999,0.2964489999999999,0.7341880000000001,-0.1667325,-0.073128,1.6999999999999654e-05,-0.0038425,0.073128,-1.6999999999999654e-05,0.0038424999999999,-0.093041,-0.353162,0.0320834999999999,0.101867,-0.3490419999999999,0.0433685,-0.098711,-0.678872,0.0621294999999999,0.101839,-0.664432,0.0771895,0
53,-0.0141265,0.7488205,0.0667315,-0.1765175,0.5016105,0.0023724999999999,-0.3339575,0.5958505,-0.1397345,0.1556324999999999,0.4916604999999999,0.0278145,0.3174625,0.5526305,-0.0927645,-0.3399375,0.8000805,-0.2138345,0.3031525,0.7486305,-0.1572445,-0.0730695,-8.499999999998092e-06,-0.0041394999999999,0.0730695,8.500000000001562e-06,0.0041395,-0.0932515,-0.3552795,0.0323285,0.1019045,-0.3513095,0.0436855,-0.0988074999999999,-0.6814095,0.0623935,0.1018274999999999,-0.6668395,0.0774875,0
54,-0.0143229999999999,0.746738,0.0670655,-0.176281,0.503398,0.0023834999999999,-0.332511,0.614158,-0.1368325,0.156689,0.4933679999999999,0.0293364999999999,0.316929,0.564368,-0.0842825,-0.343331,0.817408,-0.2071625,0.308619,0.760788,-0.1471724999999999,-0.073014,-6.200000000000302e-05,-0.0043295,0.073014,6.199999999999956e-05,0.0043295,-0.093452,-0.3576519999999999,0.0326194999999999,0.10194,-0.353592,0.0440505,-0.098921,-0.6841320000000001,0.0627085,0.1017899999999999,-0.6694720000000001,0.0777845,0
55,-0.0144695,0.7446445,0.0673895,-0.1757115,0.5051545000000001,0.0025185,-0.3297015,0.6280945,-0.1323234999999999,0.1576385,0.4951045,0.0307325,0.3163585,0.5762045,-0.0752035,-0.3461915,0.8298545,-0.2008335,0.3136285,0.7737645,-0.1377135,-0.0729664999999999,-0.0001405,-0.0044464999999999,0.0729664999999999,0.0001405,0.0044464999999999,-0.0936055,-0.3599954999999999,0.0329125,0.1019625,-0.3556755,0.0444115,-0.0990215,-0.6868354999999999,0.0630085,0.1017525,-0.6721055,0.0780975,0
56,-0.0146215,0.7424580000000001,0.067776,-0.1748695,0.507058,0.002847,-0.3268795,0.6411180000000001,-0.126078,0.1585504999999999,0.496858,0.032212,0.3157805,0.587318,-0.066188,-0.3491495,0.842528,-0.194098,0.3177005,0.786278,-0.128468,-0.0729085,-0.0001919999999999,-0.00449,0.0729085,0.000192,0.00449,-0.0937575,-0.362472,0.033275,0.1019445,-0.3574319999999999,0.044843,-0.0991395,-0.6896019999999999,0.063375,0.1017464999999999,-0.674852,0.078471,0
57,-0.0148379999999999,0.7401994999999999,0.067922,-0.173918,0.5088395,0.003199,-0.324238,0.6537195,-0.1197469999999999,0.159082,0.4986394999999999,0.033653,0.315172,0.5975294999999999,-0.0590509999999999,-0.352018,0.8548695,-0.1870969999999999,0.321102,0.7984595,-0.119427,-0.072848,-0.0002545,-0.0044569999999999,0.072848,0.0002544999999999,0.004457,-0.093924,-0.3649905,0.033552,0.101859,-0.3592105,0.045223,-0.0993479999999999,-0.6924505000000001,0.063641,0.101661,-0.6776905000000001,0.078779,0
58,-0.0151209999999999,0.737906,0.067769,-0.172866,0.510506,0.0035029999999999,-0.321606,0.665026,-0.1136559999999999,0.159534,0.500146,0.035016,0.314044,0.6080059999999999,-0.0518859999999999,-0.354836,0.864996,-0.180116,0.323804,0.8096359999999999,-0.1105259999999999,-0.072806,-0.0003879999999999,-0.004345,0.072806,0.0003879999999999,0.004345,-0.094168,-0.367444,0.033738,0.101692,-0.3608639999999999,0.045569,-0.0996459999999999,-0.695364,0.063862,0.101508,-0.680614,0.079036,0
59,-0.015382,0.735644,0.0674049999999999,-0.171822,0.511934,0.0037859999999999,-0.318972,0.674924,-0.107969,0.159958,0.501864,0.03625,0.3122479999999999,0.617934,-0.045301,-0.357692,0.874414,-0.172929,0.326078,0.819724,-0.102049,-0.072762,-0.000537,-0.0041959999999999,0.072762,0.000537,0.0041959999999999,-0.09442,-0.369876,0.033866,0.101516,-0.362296,0.045852,-0.099942,-0.698256,0.064027,0.1013389999999999,-0.683496,0.079248,0
60,-0.0156329999999999,0.7333185,0.0668305,-0.170976,0.5129484999999999,0.0040185,-0.3165759999999999,0.6838385,-0.1027325,0.160664,0.5040985,0.0377455,0.310224,0.6285284999999999,-0.0393095,-0.360456,0.8820585,-0.1657625,0.328024,0.8272685,-0.0941724999999999,-0.072688,-0.0006514999999999,-0.0040214999999999,0.072688,0.0006514999999999,0.0040215,-0.094647,-0.3721415,0.0339315,0.101298,-0.3636815,0.0460715,-0.100276,-0.7012615,0.0641275,0.101126,-0.6863915,0.0794305,0
61,-0.0158735,0.7311365,0.066129,-0.1704565,0.5138665,0.00429,-0.3141065,0.6916064999999999,-0.097743,0.1613335,0.5060764999999999,0.0392939999999999,0.3078435,0.6381865,-0.0337009999999999,-0.3627665,0.8875865,-0.1577529999999999,0.3297735,0.8346264999999999,-0.0860129999999999,-0.0726345,-0.0008114999999999,-0.003846,0.0726345,0.0008114999999999,0.003846,-0.0948635,-0.3743135,0.033982,0.1010915,-0.3649934999999999,0.046269,-0.1005964999999999,-0.7041635,0.064238,0.1009315,-0.6892935,0.0796419999999999,0
62,-0.0161155,0.7289255,0.0652524999999999,-0.1701075,0.5145555,0.0045504999999999,-0.3119075,0.6986455,-0.0929975,0.1619725,0.5080855,0.0409094999999999,0.3050125,0.6474455,-0.0285815,-0.3647375,0.8928255,-0.1491675,0.3317425,0.8440555,-0.0775975,-0.0725625,-0.0009625,-0.0036885,0.0725625,0.0009624999999999,0.0036884999999999,-0.0950765,-0.3765145,0.0339624999999999,0.1008535,-0.3664745,0.0464314999999999,-0.1009375,-0.7071845,0.0643755,0.1007425,-0.6923644999999999,0.0797845,0
63,-0.0162909999999999,0.7268235000000001,0.0641675,-0.169865,0.5153034999999999,0.0048335,-0.309815,0.7054834999999999,-0.0883645,0.162545,0.5103234999999999,0.0426115,0.3012849999999999,0.6564435,-0.0237245,-0.366515,0.8972834999999999,-0.1412245,0.333285,0.8521034999999999,-0.0697845,-0.072489,-0.0010685,-0.0035875,0.072489,0.0010685,0.0035875,-0.095245,-0.3785465,0.0338805,0.100665,-0.3679565,0.0465365,-0.101225,-0.7101265000000001,0.0644605,0.100611,-0.6953765000000001,0.0798915,0
64,-0.016449,0.724793,0.06308,-0.169725,0.515773,0.005072,-0.308005,0.711553,-0.084449,0.1630849999999999,0.512813,0.044322,0.297455,0.664783,-0.019475,-0.368235,0.901173,-0.132049,0.334255,0.858503,-0.062789,-0.072399,-0.00116,-0.00349,0.072399,0.00116,0.00349,-0.095452,-0.380467,0.0337289999999999,0.1004589999999999,-0.3694369999999999,0.0465929999999999,-0.101495,-0.712987,0.064506,0.100467,-0.698187,0.079965,0
65,-0.0165565,0.7229185,0.061921,-0.1696794999999999,0.5160985,0.0052769999999999,-0.3065795,0.7158985,-0.081166,0.1635305,0.5152585,0.0459799999999999,0.2935905,0.6721885,-0.015792,-0.3696495,0.9044185,-0.1236459999999999,0.3349804999999999,0.8648485,-0.056246,-0.0723075,-0.0012325,-0.003402,0.0723075,0.0012324999999999,0.0034019999999999,-0.0956375,-0.3820615,0.033454,0.1002555,-0.3711415,0.0465859999999999,-0.1017295,-0.7156615000000001,0.0644889999999999,0.1003515,-0.7008415,0.079985,0
66,-0.0165375,0.721353,0.0607865,-0.1695835,0.516493,0.0055424999999999,-0.3051935,0.719483,-0.0780095,0.1640265,0.516953,0.0471695,0.2900365,0.678643,-0.0129965,-0.3705935,0.906933,-0.1162295,0.3354965,0.8710829999999999,-0.0504395,-0.0722335,-0.00131,-0.0033014999999999,0.0722335,0.0013099999999999,0.0033014999999999,-0.0957325,-0.383487,0.0331795,0.1001435,-0.372537,0.0465625,-0.1018635,-0.717947,0.0644645,0.1003365,-0.703167,0.0800045,0
67,-0.016479,0.72004,0.059745,-0.169501,0.51683,0.005807,-0.304061,0.72231,-0.075267,0.164369,0.51864,0.04826,0.286619,0.68414,-0.010783,-0.371181,0.90862,-0.109867,0.335719,0.8767400000000001,-0.0455,-0.072164,-0.001341,-0.0032189999999999,0.072164,0.0013409999999999,0.0032189999999999,-0.095798,-0.38466,0.032923,0.100045,-0.37382,0.046535,-0.101971,-0.71988,0.064478,0.100349,-0.7051499999999999,0.08002,0
68,-0.0163924999999999,0.7189755,0.058757,-0.1694255,0.5171155,0.0060339999999999,-0.3031855,0.7244554999999999,-0.072742,0.1646245,0.5198254999999999,0.049171,0.2835045,0.6888955,-0.0088519999999999,-0.3715755,0.9100455,-0.104282,0.3356345,0.8816554999999999,-0.0414149999999999,-0.0721074999999999,-0.0013645,-0.0031129999999999,0.0721074999999999,0.0013644999999999,0.0031129999999999,-0.0958435,-0.3854545,0.032598,0.1000004999999999,-0.3749645,0.046471,-0.1020455,-0.7214545,0.064446,0.1003825,-0.7068945,0.080023,0
69,-0.0162405,0.7181265,0.0578879999999999,-0.1692835,0.5172965,0.0062889999999999,-0.3024934999999999,0.7260965,-0.0704289999999999,0.1645865,0.5203765,0.049732,0.2808165,0.6918365000000001,-0.0074229999999999,-0.3718734999999999,0.9112865,-0.099609,0.3354165,0.8857565000000001,-0.038098,-0.0720925,-0.0014065,-0.003032,0.0720925,0.0014065,0.003032,-0.0958364999999999,-0.3859035,0.032271,0.0999944999999999,-0.3759135,0.0463709999999999,-0.1020635,-0.7227334999999999,0.064412,0.1004724999999999,-0.7082934999999999,0.080067,0
70,-0.0160645,0.717408,0.0571195,-0.1691254999999999,0.517478,0.0065365,-0.3019855,0.727228,-0.0684105,0.1645845,0.5207780000000001,0.0501065,0.2783845,0.694388,-0.0062725,-0.3720455,0.910088,-0.0965905,0.3352745,0.8890480000000001,-0.0356205,-0.0720925,-0.001405,-0.0029604999999999,0.0720925,0.001405,0.0029604999999999,-0.0958115,-0.386182,0.0319555,0.0999954999999999,-0.376702,0.0462925,-0.1020655,-0.723822,0.0643755,0.1005575,-0.709502,0.0801035,0
71,-0.015892,0.7169205,0.056505,-0.168953,0.5177005,0.006787,-0.301623,0.7280305,-0.066724,0.1645869999999999,0.5211405,0.050356,0.276457,0.6959605,-0.0054849999999999,-0.372123,0.9091805,-0.094354,0.335207,0.8886904999999999,-0.034443,-0.072096,-0.0013935,-0.0028989999999999,0.072096,0.0013934999999999,0.0028989999999999,-0.095786,-0.3861795,0.031688,0.099999,-0.3772495,0.046235,-0.102073,-0.7246095,0.064372,0.100656,-0.7103995000000001,0.080152,0
72,-0.0157194999999999,0.7166375,0.0560904999999999,-0.1688345,0.5177575,0.0069744999999999,-0.3014745,0.7282375,-0.0656795,0.1646255,0.5209575000000001,0.0503514999999999,0.2754855,0.6964275000000001,-0.0051185,-0.3720745,0.9086075,-0.0924794999999999,0.3350955,0.8884075,-0.0336695,-0.0720804999999999,-0.0013904999999999,-0.0028555,0.0720804999999999,0.0013905,0.0028554999999999,-0.0957955,-0.3859525,0.0314744999999999,0.1000175,-0.3775425,0.0462294999999999,-0.1020645,-0.7250725,0.0643874999999999,0.1007675,-0.7109624999999999,0.0802354999999999,0
73,-0.0155779999999999,0.716421,0.055747,-0.168739,0.5178510000000001,0.0071509999999999,-0.301319,0.728421,-0.064711,0.164641,0.5205110000000001,0.050329,0.274801,0.696661,-0.004886,-0.371519,0.908161,-0.0923109999999999,0.334731,0.888101,-0.0332129999999999,-0.072059,-0.001385,-0.0028089999999999,0.072059,0.0013849999999999,0.0028089999999999,-0.0957919999999999,-0.385679,0.031278,0.100031,-0.377699,0.046208,-0.102029,-0.725409,0.064368,0.100884,-0.7113889999999999,0.0803099999999999,0
74,-0.0154565,0.716264,0.05551,-0.1686205,0.517894,0.0072789999999999,-0.3011405,0.728504,-0.063884,0.1646695,0.520174,0.0502949999999999,0.2743395,0.696794,-0.004772,-0.3712904999999999,0.907274,-0.092164,0.3336795,0.887794,-0.032928,-0.0720534999999999,-0.0013999999999999,-0.002753,0.0720534999999999,0.0013999999999999,0.0027529999999999,-0.0957375,-0.385476,0.0311479999999999,0.1000325,-0.377746,0.046172,-0.1019705,-0.7256360000000001,0.0643359999999999,0.1009845,-0.711666,0.0803639999999999,0
75,-0.01536,0.7161385,0.0552955,-0.168527,0.5179484999999999,0.0073954999999999,-0.300977,0.7285284999999999,-0.0632305,0.164713,0.5199085,0.0502684999999999,0.273963,0.6968985,-0.0047525,-0.371067,0.9067485,-0.0920705,0.332693,0.8875284999999999,-0.0328745,-0.07206,-0.0013974999999999,-0.0027075,0.07206,0.0013974999999999,0.0027074999999999,-0.095686,-0.3852215,0.0309704999999999,0.099984,-0.3777514999999999,0.0461404999999999,-0.101907,-0.7258015,0.0643094999999999,0.101086,-0.7118615,0.0804265,0
76,-0.0152309999999999,0.7160505,0.055127,-0.168376,0.5180005,0.0075109999999999,-0.300756,0.7285305,-0.062688,0.164824,0.5195205,0.050173,0.2737139999999999,0.6969204999999999,-0.0047909999999999,-0.370946,0.9065105,-0.092088,0.3318939999999999,0.8872905,-0.0329459999999999,-0.072069,-0.0013864999999999,-0.0026699999999999,0.072069,0.0013864999999999,0.0026699999999999,-0.0955699999999999,-0.3850395,0.0308249999999999,0.099981,-0.3777395,0.046144,-0.1017859999999999,-0.7259595,0.064336,0.1012319999999999,-0.7119995,0.0805029999999999,0
77,-0.0150849999999999,0.7159605,0.054996,-0.168207,0.5180605,0.007631,-0.300527,0.7284904999999999,-0.062223,0.164943,0.5188605,0.049992,0.273563,0.6969004999999999,-0.0048229999999999,-0.370817,0.9063005,-0.091973,0.331223,0.8870804999999999,-0.0330079999999999,-0.072082,-0.0013694999999999,-0.0026339999999999,0.072082,0.0013695,0.002634,-0.095443,-0.3847595,0.030737,0.099943,-0.3777095,0.046153,-0.1016169999999999,-0.7260895,0.064319,0.101387,-0.7120595000000001,0.080564,0
78,-0.014945,0.715922,0.054917,-0.168061,0.5181319999999999,0.007732,-0.300321,0.728472,-0.06189,0.165079,0.5183019999999999,0.049847,0.273459,0.696882,-0.0048539999999999,-0.370691,0.906152,-0.09186,0.330629,0.8868419999999999,-0.033067,-0.0720939999999999,-0.001363,-0.002602,0.0720939999999999,0.001363,0.002602,-0.095332,-0.3844579999999999,0.030658,0.099882,-0.3776279999999999,0.046163,-0.101461,-0.7260580000000001,0.064312,0.101532,-0.712048,0.080608,0
79,-0.0147974999999999,0.7158755,0.0548525,-0.1678994999999999,0.5181855,0.0078305,-0.3001295,0.7283855,-0.0616744999999999,0.1652305,0.5177755,0.0497115,0.2734304999999999,0.6968355,-0.0048974999999999,-0.3710395,0.9086855,-0.0917045,0.3301604999999999,0.8865655,-0.0333185,-0.0721045,-0.0013575,-0.0025714999999999,0.0721045,0.0013574999999999,0.0025715,-0.0951915,-0.3841745,0.0306105,0.0998255,-0.3775745,0.0461305,-0.1012795,-0.7259745,0.0642665,0.1016915,-0.7120645,0.0806294999999999,0
80,-0.0146659999999999,0.7158209999999999,0.0548375,-0.167736,0.5182209999999999,0.0079135,-0.299936,0.7283109999999999,-0.0615265,0.165374,0.517321,0.0495855,0.273464,0.696751,-0.0049734999999999,-0.370916,0.908931,-0.0917165,0.329804,0.886241,-0.0336874999999999,-0.072114,-0.0013449999999999,-0.0025414999999999,0.072114,0.0013449999999999,0.0025415,-0.0950389999999999,-0.383839,0.0305645,0.099774,-0.377519,0.0461055,-0.1010659999999999,-0.725809,0.0642045,0.101861,-0.712079,0.0806815,0
81,-0.0145614999999999,0.7157549999999999,0.054831,-0.1675545,0.5182249999999999,0.007986,-0.2997345,0.728215,-0.061419,0.1655255,0.5168649999999999,0.049471,0.2735455,0.696635,-0.0050709999999999,-0.3711245,0.910875,-0.091739,0.3294955,0.8858649999999999,-0.0340909999999999,-0.0721205,-0.001336,-0.0025179999999999,0.0721205,0.001336,0.0025179999999999,-0.0948765,-0.3835449999999999,0.030543,0.0997335,-0.3774949999999999,0.046093,-0.1008345,-0.725685,0.064155,0.1020405,-0.712115,0.080722,0
82,-0.0144885,0.7157355,0.0548324999999999,-0.1673785,0.5182154999999999,0.0080564999999999,-0.2995585,0.7281354999999999,-0.0613515,0.1656514999999999,0.5164255,0.0493674999999999,0.2736515,0.6965355,-0.0051655,-0.3710985,0.9114955,-0.0917415,0.3292215,0.8854354999999999,-0.0345325,-0.0721255,-0.0013254999999999,-0.0025005,0.0721255,0.0013254999999999,0.0025004999999999,-0.0947274999999999,-0.3832445,0.0305314999999999,0.0997095,-0.3774245,0.0460894999999999,-0.1006084999999999,-0.7254545,0.0641205,0.1021934999999999,-0.7120945000000001,0.0807664999999999,0
83,-0.0144745,0.7157265,0.0548625,-0.1671845,0.5181965000000001,0.0081275,-0.2993445,0.7280765,-0.0613315,0.1658055,0.5159865,0.0492635,0.2737954999999999,0.6964465,-0.0053235,-0.3713745,0.9141665,-0.0917014999999999,0.3289255,0.8849665,-0.0351075,-0.0721305,-0.0013244999999999,-0.0024775,0.0721305,0.0013245,0.0024775,-0.0945335,-0.3829134999999999,0.0305315,0.0997214999999999,-0.3773335,0.0460975,-0.1003445,-0.7251535,0.0641035,0.1023625,-0.7121035,0.0808265,0
84,-0.014505,0.7157209999999999,0.0549105,-0.166986,0.518161,0.0081895,-0.299116,0.728011,-0.0613124999999999,0.1659439999999999,0.515571,0.0491845,0.273954,0.696371,-0.0055034999999999,-0.371236,0.915021,-0.0917825,0.328664,0.884491,-0.0357175,-0.072135,-0.0013249999999999,-0.0024524999999999,0.072135,0.001325,0.0024525,-0.094338,-0.382679,0.0305535,0.0997649999999999,-0.3773489999999999,0.0461205,-0.100056,-0.724879,0.0640995,0.1025389999999999,-0.712199,0.0808745,0
85,-0.0145885,0.715707,0.0549515,-0.1668245,0.518137,0.0082435,-0.2989445,0.727957,-0.0613024999999999,0.1660455,0.5152169999999999,0.0491165,0.2740955,0.696307,-0.0057214999999999,-0.3714245,0.917277,-0.0918624999999999,0.3284155,0.8840469999999999,-0.0363764999999999,-0.0721405,-0.001329,-0.0024334999999999,0.0721405,0.0013289999999999,0.0024335,-0.0941765,-0.382463,0.0305795,0.0997975,-0.377363,0.0461275,-0.0998145,-0.724573,0.0640765,0.1026935,-0.712273,0.0809105,0
86,-0.014692,0.7156929999999999,0.055011,-0.16669,0.5180929999999999,0.0083299999999999,-0.29877,0.727913,-0.061326,0.16614,0.514923,0.0490629999999999,0.2742199999999999,0.696243,-0.005975,-0.37128,0.918113,-0.092116,0.32813,0.883613,-0.037093,-0.072144,-0.0013389999999999,-0.002423,0.072144,0.001339,0.002423,-0.094027,-0.382487,0.030614,0.0998739999999999,-0.377437,0.046123,-0.09963,-0.7244569999999999,0.064058,0.10284,-0.7123470000000001,0.080943,0
87,-0.0148154999999999,0.7156644999999999,0.055106,-0.1665525,0.5180445,0.0084149999999999,-0.2986124999999999,0.7278644999999999,-0.061381,0.1662275,0.5146645,0.049015,0.2743075,0.6961545,-0.006206,-0.3710725,0.9185845,-0.092401,0.3278675,0.8832045,-0.03778,-0.0721445,-0.0013465,-0.0024069999999999,0.0721445,0.0013465,0.0024069999999999,-0.0938585,-0.3825655,0.030629,0.0999575,-0.3775155,0.046105,-0.0994424999999999,-0.7245355,0.064011,0.1029735,-0.7124255,0.08097,0
88,-0.0149564999999999,0.7156414999999999,0.0552135,-0.1664295,0.5180015,0.0084915,-0.2984595,0.7278115,-0.0614404999999999,0.1663005,0.5144415,0.0489795,0.2743605,0.6960815,-0.0064525,-0.3708895,0.9185115,-0.0927805,0.3275805,0.8828715,-0.0383604999999999,-0.0721485,-0.0013605,-0.0023874999999999,0.0721485,0.0013605,0.0023875,-0.0937075,-0.3826385,0.0306405,0.1000375,-0.3775885,0.0460875,-0.0992794999999999,-0.7245985,0.0639775,0.1031065,-0.7125085,0.0809975,0
89,-0.015125,0.7156255,0.0553105,-0.166317,0.5179555,0.0085654999999999,-0.298307,0.7277655000000001,-0.0615164999999999,0.166363,0.5142455,0.0489515,0.274403,0.6960055,-0.0067084999999999,-0.371067,0.9205555,-0.0931265,0.327273,0.8825655,-0.0389305,-0.0721509999999999,-0.0013814999999999,-0.0023764999999999,0.0721509999999999,0.0013815,0.0023764999999999,-0.093572,-0.3826945,0.0306435,0.100111,-0.3776645,0.0460715,-0.099117,-0.7246644999999999,0.0639255,0.1032589999999999,-0.7126245,0.0810015,0
90,-0.0153044999999999,0.7155945,0.0554049999999999,-0.1662215,0.5179144999999999,0.0086309999999999,-0.2981614999999999,0.7277144999999999,-0.061608,0.1664185,0.5140644999999999,0.0489089999999999,0.2744185,0.6959345,-0.007,-0.3711815,0.9228745,-0.093428,0.3269485,0.8823145,-0.039502,-0.0721614999999999,-0.0014025,-0.002357,0.0721614999999999,0.0014025,0.0023569999999999,-0.0934504999999999,-0.3828755,0.0306689999999999,0.1001855,-0.3777655,0.046027,-0.0989615,-0.7247255,0.0638509999999999,0.1034045,-0.7127355000000001,0.0809899999999999,0
91,-0.0154879999999999,0.7155655,0.0554869999999999,-0.166127,0.5178754999999999,0.0086759999999999,-0.298017,0.7276755,-0.061667,0.1664729999999999,0.5139055,0.0488499999999999,0.274423,0.6958655,-0.007327,-0.371007,0.9231755,-0.093727,0.326643,0.8821654999999999,-0.040032,-0.072176,-0.0014234999999999,-0.00232,0.072176,0.0014235,0.0023199999999999,-0.093313,-0.3831044999999999,0.0306489999999999,0.100263,-0.3778745,0.045977,-0.098807,-0.7248145,0.063731,0.103537,-0.7128245,0.0809149999999999,0
92,-0.0156255,0.715523,0.05552,-0.1661335,0.517883,0.008785,-0.2978935,0.727633,-0.0617409999999999,0.1665065,0.513783,0.048789,0.2744065,0.695823,-0.0076149999999999,-0.3708735,0.923123,-0.0939009999999999,0.3263865,0.8820830000000001,-0.040422,-0.0721904999999999,-0.001437,-0.0022709999999999,0.0721904999999999,0.0014369999999999,0.002271,-0.0932554999999999,-0.383337,0.030602,0.1003254999999999,-0.3780369999999999,0.045914,-0.0986835,-0.7249869999999999,0.063615,0.1036445,-0.7130569999999999,0.080809,0
93,-0.0157479999999999,0.715488,0.055561,-0.166153,0.5178780000000001,0.0089,-0.2977829999999999,0.7275980000000001,-0.061813,0.166547,0.513668,0.048733,0.274377,0.695798,-0.0078979999999999,-0.370763,0.923068,-0.0939829999999999,0.326127,0.8820180000000001,-0.040779,-0.072203,-0.0014559999999999,-0.0022259999999999,0.072203,0.0014559999999999,0.0022259999999999,-0.093246,-0.383602,0.030544,0.100389,-0.378212,0.045844,-0.098583,-0.7252219999999999,0.063488,0.10375,-0.713302,0.080691,0
94,-0.015867,0.715449,0.0556155,-0.166165,0.517869,0.0089865,-0.297635,0.727549,-0.0618885,0.166595,0.513539,0.0486535,0.274355,0.695789,-0.0081634999999999,-0.370655,0.923879,-0.0940884999999999,0.325905,0.881929,-0.0410684999999999,-0.072215,-0.0014769999999999,-0.0021874999999999,0.072215,0.001477,0.0021875,-0.093268,-0.3839209999999999,0.0304375,0.100496,-0.378491,0.0457625,-0.098465,-0.725441,0.0633415,0.103864,-0.713691,0.0805875,0
95,-0.0159834999999999,0.71543,0.0556755,-0.1661845,0.5178699999999999,0.0091004999999999,-0.2974945,0.72749,-0.0619955,0.1665755,0.51338,0.0485395,0.2743255,0.6958,-0.0084195,-0.3710545,0.92728,-0.0939954999999999,0.3256855,0.88184,-0.0413515,-0.0722245,-0.0014829999999999,-0.0021585,0.0722245,0.001483,0.0021585,-0.0933555,-0.3842299999999999,0.0303095,0.1005975,-0.37881,0.0456335,-0.0983445,-0.72589,0.0631015,0.1039685,-0.71408,0.0804115,0
96,-0.016081,0.715476,0.0557375,-0.166197,0.5178860000000001,0.0091825,-0.297347,0.7274259999999999,-0.0621354999999999,0.166573,0.5132159999999999,0.0483965,0.274323,0.695816,-0.0086934999999999,-0.371107,0.9292859999999998,-0.0942254999999999,0.3254829999999999,0.881686,-0.0416864999999999,-0.0722309999999999,-0.001492,-0.0021344999999999,0.0722309999999999,0.0014919999999999,0.0021345,-0.093486,-0.384504,0.0300275,0.1006989999999999,-0.379044,0.0454325,-0.0982369999999999,-0.7264139999999999,0.0627635,0.10407,-0.714424,0.0802005,0
97,-0.0161655,0.7155925,0.055782,-0.1662055,0.5179024999999999,0.0092019999999999,-0.2972055,0.7273725,-0.062339,0.1665545,0.5131224999999999,0.0481999999999999,0.2743145,0.6958225,-0.009026,-0.3714455,0.9326925,-0.094389,0.3252645,0.8815824999999999,-0.042106,-0.0722285,-0.0015005,-0.002112,0.0722285,0.0015005,0.0021119999999999,-0.0936635,-0.3849775,0.0294209999999999,0.1007905,-0.3792974999999999,0.045077,-0.0981355,-0.7269375,0.062348,0.1041565,-0.7147675,0.079909,0
98,-0.016262,0.7157389999999999,0.0557364999999999,-0.166243,0.517909,0.0090774999999999,-0.297123,0.727319,-0.0626575,0.166487,0.5130189999999999,0.0478865,0.274267,0.695829,-0.0094845,-0.371493,0.934089,-0.0948575,0.325047,0.8814789999999999,-0.0426185,-0.0722319999999999,-0.001501,-0.0021235,0.0722319999999999,0.0015009999999999,0.0021235,-0.093884,-0.385681,0.0283444999999999,0.100859,-0.379531,0.0445285,-0.098093,-0.727401,0.0617415,0.10418,-0.7151209999999999,0.0794645,0
99,-0.016337,0.7159265,0.05557,-0.166235,0.5179265,0.008803,-0.297035,0.7273065,-0.0631169999999999,0.166425,0.5129064999999999,0.047433,0.274255,0.6958265,-0.010067,-0.371955,0.9372765,-0.095377,0.324825,0.8812964999999999,-0.043392,-0.0722309999999999,-0.0014924999999999,-0.002138,0.0722309999999999,0.0014925,0.002138,-0.094094,-0.3865235,0.026755,0.101025,-0.3798835,0.043687,-0.097995,-0.7278635,0.060953,0.104182,-0.7156635,0.078777,0
100,-0.0163694999999999,0.716096,0.0553054999999999,-0.1662165,0.517876,0.0084984999999999,-0.2969265,0.727166,-0.0637535,0.1662835,0.513026,0.0471375,0.2742735,0.695756,-0.0108045,-0.3720265,0.939086,-0.0962335,0.3246435,0.881016,-0.0443495,-0.0722295,-0.001465,-0.0021625,0.0722295,0.0014649999999999,0.0021624999999999,-0.0942775,-0.387504,0.0247104999999999,0.1013015,-0.380424,0.0425254999999999,-0.0978565,-0.728414,0.0599755,0.1041715,-0.716294,0.0777865,0
101,-0.0163425,0.716157,0.0548515,-0.1661765,0.517777,0.0078945,-0.2968065,0.726977,-0.0646095,0.1661535,0.513177,0.0466355,0.2743335,0.695687,-0.0117414999999999,-0.3720965,0.940597,-0.0971195,0.3244835,0.880717,-0.0455275,-0.0722275,-0.001434,-0.0021954999999999,0.0722275,0.001434,0.0021955,-0.0944155,-0.388573,0.0221745,0.1017025,-0.380953,0.0409925,-0.0976365,-0.728963,0.0587035,0.1041685,-0.716773,0.0765565,0
102,-0.0163924999999999,0.716134,0.054026,-0.1662205,0.5176040000000001,0.0069769999999999,-0.2967605,0.726804,-0.065867,0.1659395,0.513564,0.045861,0.2743095,0.695584,-0.01307,-0.3722505,0.941824,-0.098387,0.3242595,0.880394,-0.047149,-0.0722265,-0.001375,-0.002182,0.0722265,0.001375,0.0021819999999999,-0.0945955,-0.389606,0.0190329999999999,0.1021135,-0.381536,0.0389999999999999,-0.0974705,-0.7295159999999999,0.0569419999999999,0.1041185,-0.7172459999999999,0.074873,0
103,-0.0165349999999999,0.716134,0.0526844999999999,-0.166329,0.5176040000000001,0.0056714999999999,-0.2967789999999999,0.726794,-0.0676325,0.165601,0.514154,0.0446345,0.274191,0.695584,-0.0149095,-0.372399,0.941924,-0.1001525,0.323961,0.880214,-0.0492855,-0.072263,-0.001375,-0.0022145,0.072263,0.001375,0.0022145,-0.094861,-0.390526,0.0151785,0.102503,-0.381926,0.0364575,-0.097409,-0.729946,0.0546045,0.104014,-0.717506,0.0726354999999999,0
104,-0.0167625,0.716134,0.050984,-0.1664355,0.5176040000000001,0.0040399999999999,-0.2968655,0.726754,-0.069769,0.1652245,0.514244,0.043146,0.2739945,0.695584,-0.017128,-0.3726355,0.942424,-0.1023289999999999,0.3235844999999999,0.880004,-0.051787,-0.0723115,-0.001375,-0.002204,0.0723115,0.001375,0.0022039999999999,-0.0951755,-0.3913959999999999,0.0106699999999999,0.1029505,-0.382336,0.033344,-0.0974255,-0.730416,0.051803,0.1038375,-0.717756,0.069978,0
105,-0.017062,0.716134,0.0488915,-0.1666429999999999,0.517574,0.0021615,-0.297043,0.7266440000000001,-0.0723215,0.164717,0.514204,0.0411885,0.273757,0.695584,-0.0197714999999999,-0.372983,0.943024,-0.1050015,0.323117,0.879744,-0.0546804999999999,-0.072377,-0.001375,-0.0021735,0.072377,0.001375,0.0021735,-0.095523,-0.3922259999999999,0.0052915,0.1033999999999999,-0.382766,0.0296945,-0.097633,-0.7307859999999999,0.0486555,0.1035639999999999,-0.717986,0.0668695,0
106,-0.01734,0.716065,0.046376,-0.166847,0.517455,-0.000106,-0.297237,0.7263649999999999,-0.075369,0.164153,0.5142450000000001,0.03876,0.273493,0.695635,-0.022888,-0.373317,0.943695,-0.108279,0.322603,0.8795550000000001,-0.058011,-0.072487,-0.0013409999999999,-0.002181,0.072487,0.001341,0.0021809999999999,-0.095957,-0.392765,-0.000805,0.103974,-0.383085,0.025358,-0.097887,-0.731525,0.044848,0.10325,-0.718475,0.06304,0
107,-0.0176115,0.715955,0.043381,-0.1670684999999999,0.517555,-0.0028369999999999,-0.2974185,0.725905,-0.0789899999999999,0.1635415,0.514595,0.035965,0.2732414999999999,0.6958449999999999,-0.026552,-0.3736085,0.944155,-0.11206,0.3220615,0.879615,-0.0618549999999999,-0.0726515,-0.0012589999999999,-0.0022469999999999,0.0726515,0.001259,0.0022469999999999,-0.0964985,-0.392695,-0.007455,0.1046415,-0.3829249999999999,0.0203339999999999,-0.0981684999999999,-0.732155,0.040493,0.1029745,-0.7186750000000001,0.058558,0
108,-0.0177925,0.715538,0.040216,-0.1672815,0.5178879999999999,-0.0059259999999999,-0.2975015,0.725228,-0.083119,0.1629284999999999,0.514988,0.03281,0.2730985,0.696088,-0.0306299999999999,-0.3738815,0.944818,-0.1162689999999999,0.3215585,0.880018,-0.065968,-0.0728835,-0.0011699999999999,-0.0022809999999999,0.0728835,0.00117,0.002281,-0.0970615,-0.392392,-0.014161,0.1053485,-0.382452,0.014937,-0.0985015,-0.7328220000000001,0.035754,0.1026975,-0.718572,0.053499,0
109,-0.0180134999999999,0.7146715,0.036678,-0.1674715,0.5183815,-0.009542,-0.2976115,0.7245015,-0.087748,0.1623685,0.5154015,0.028989,0.2730085,0.6960815,-0.035204,-0.3741315,0.9458215,-0.121058,0.3209085,0.8794815,-0.07102,-0.0731084999999999,-0.0010524999999999,-0.002297,0.0731084999999999,0.0010524999999999,0.002297,-0.0977415,-0.3916485,-0.021121,0.1059885,-0.3816585,0.0091189999999999,-0.0988614999999999,-0.7332985,0.0305949999999999,0.1024315,-0.7182185,0.048046,0
110,-0.0182305,0.713838,0.0326995,-0.1676405,0.5175879999999999,-0.0128685,-0.2976904999999999,0.723588,-0.0928475,0.1615895,0.515598,0.0247464999999999,0.2729295,0.6962079999999999,-0.0403904999999999,-0.3743805,0.947498,-0.1264575,0.3202095,0.8790979999999999,-0.0768615,-0.0733985,-0.000931,-0.0024335,0.0733985,0.000931,0.0024335,-0.0984704999999999,-0.390092,-0.0283765,0.1066695,-0.380092,0.0026955,-0.0992405,-0.7329920000000001,0.0250395,0.1021775,-0.7172120000000001,0.0420955,0
111,-0.0183735,0.712369,0.0287655,-0.1677785,0.516919,-0.0161955,-0.2974385,0.722549,-0.0979825,0.1608615,0.515879,0.0204115,0.2728615,0.6960390000000001,-0.0456315,-0.3745185,0.949289,-0.1321225,0.3195615,0.878459,-0.0829245,-0.0736945,-0.0008509999999999,-0.0024825,0.0736945,0.000851,0.0024825,-0.0992785,-0.388391,-0.0355954999999999,0.1074815,-0.3783609999999999,-0.0040325,-0.0995785,-0.732561,0.0195154999999999,0.1020295,-0.716101,0.0360995,0
112,-0.0185,0.7111934999999999,0.023633,-0.167847,0.5158634999999999,-0.020271,-0.296787,0.7206435,-0.104603,0.159963,0.5152635,0.015203,0.272633,0.6967734999999999,-0.052617,-0.372937,0.9456735,-0.140973,0.318683,0.8788334999999999,-0.090927,-0.074161,-0.0009355,-0.002558,0.074161,0.0009354999999999,0.002558,-0.100577,-0.3843965,-0.044985,0.1092229999999999,-0.3743765,-0.0132109999999999,-0.1000369999999999,-0.7292165,0.012505,0.101893,-0.7124265000000001,0.028705,0
113,-0.0185135,0.7098835,0.0181105,-0.1675845,0.5140335,-0.0244344999999999,-0.2959045,0.7187135,-0.1112585,0.1588454999999999,0.5144035,0.0098765,0.2724455,0.6974235,-0.0598405,-0.3713845,0.9433135,-0.1499785,0.3176155,0.8791435,-0.0992575,-0.0746555,-0.0010374999999999,-0.0026385,0.0746555,0.0010375,0.0026384999999999,-0.1018645,-0.3795465,-0.0546265,0.1110755,-0.3694665,-0.0227265,-0.1005745,-0.7249065,0.0052795,0.1017855,-0.7077265,0.0211745,1
114,-0.0183,0.7080259999999999,0.0127845,-0.167231,0.5128659999999999,-0.0286165,-0.294841,0.7168359999999999,-0.1178285,0.157589,0.5128959999999999,0.0046285,0.272379,0.697796,-0.0670274999999999,-0.369761,0.941976,-0.1587285,0.316469,0.879316,-0.1077195,-0.075137,-0.0011689999999999,-0.0027165,0.075137,0.001169,0.0027165,-0.103141,-0.3739139999999999,-0.0640365,0.113289,-0.364064,-0.0326535,-0.101071,-0.719684,-0.0020995,0.101849,-0.702214,0.0135745,1
115,-0.0181054999999999,0.7061465,0.0074544999999999,-0.1669064999999999,0.5121465000000001,-0.0327325,-0.2937565,0.7152665,-0.1241454999999999,0.1562035,0.5110165,-0.0006945,0.2722635,0.6973265000000001,-0.0741525,-0.3680765,0.9411665,-0.1671855,0.3150735,0.8789465,-0.1164145,-0.0755935,-0.0012134999999999,-0.0028634999999999,0.0755935,0.0012134999999999,0.0028635,-0.1045164999999999,-0.3675934999999999,-0.0732994999999999,0.1155134999999999,-0.3581135,-0.0428295,-0.1016864999999999,-0.7135535,-0.0092614999999999,0.1018735,-0.6957835,0.0060645,1
116,-0.0179305,0.70573,0.002107,-0.1665585,0.5099199999999999,-0.036553,-0.2923285,0.7135800000000001,-0.130483,0.1547015,0.5097100000000001,-0.0061149999999999,0.2719315,0.6971099999999999,-0.0812529999999999,-0.3663984999999999,0.94089,-0.176013,0.3134715,0.8791,-0.125193,-0.0760805,-0.001432,-0.002901,0.0760805,0.001432,0.002901,-0.1060985,-0.36053,-0.0828049999999999,0.1177715,-0.35127,-0.0532669999999999,-0.1024185,-0.7059200000000001,-0.016742,0.1018115,-0.68822,-0.0013899999999999,1
117,-0.0178185,0.7036775,-0.0032445,-0.1663234999999999,0.5076075,-0.0401785,-0.2910435,0.7121975,-0.1368504999999999,0.1530765,0.5083975000000001,-0.0114185,0.2714865,0.6965675,-0.0882345,-0.3644735,0.9403975,-0.1846305,0.3113065,0.8779775,-0.1339605,-0.0765645,-0.0016825,-0.0029815,0.0765645,0.0016825,0.0029815,-0.1079235,-0.3530525,-0.0928265,0.1200064999999999,-0.3440325,-0.0641285,-0.1032635,-0.6969925,-0.0242645,0.1014364999999999,-0.6796625,-0.0086095,1
118,-0.0177874999999999,0.7018905,-0.0085735,-0.1661775,0.5047005,-0.0435525,-0.2897174999999999,0.7105105,-0.1428905,0.1513425,0.5065105,-0.0167225,0.2709525,0.6965405,-0.0952855,-0.3621075,0.9392605,-0.1929705,0.3089225,0.8781505000000001,-0.1422805,-0.0770865,-0.0019225,-0.0030234999999999,0.0770865,0.0019224999999999,0.0030234999999999,-0.1098875,-0.3447194999999999,-0.1031685,0.1223825,-0.3363394999999999,-0.0753935,-0.1041074999999999,-0.6866895,-0.0320125,0.1009325,-0.6700195,-0.0158145,1
119,-0.0176939999999999,0.699754,-0.0135354999999999,-0.165964,0.5035040000000001,-0.0472024999999999,-0.288274,0.709314,-0.1486605,0.1497959999999999,0.504464,-0.0217444999999999,0.270396,0.6958340000000001,-0.1020015,-0.359664,0.938244,-0.2008305,0.306356,0.877664,-0.1500705,-0.077583,-0.002163,-0.0030395,0.077583,0.002163,0.0030395,-0.111704,-0.336486,-0.1136655,0.124776,-0.328626,-0.0865475,-0.104874,-0.675846,-0.0396614999999999,0.100436,-0.659806,-0.0228544999999999,1
120,-0.017682,0.6981080000000001,-0.0183385,-0.165825,0.501918,-0.0507095,-0.287205,0.707898,-0.1541195,0.1481549999999999,0.502378,-0.0266365,0.269495,0.6956680000000001,-0.1085484999999999,-0.3568349999999999,0.934058,-0.2082595,0.303665,0.878098,-0.1574495,-0.078077,-0.002459,-0.0031605,0.078077,0.0024589999999999,0.0031604999999999,-0.113535,-0.327672,-0.1243355,0.126985,-0.320112,-0.0977495,-0.105705,-0.663522,-0.0473335,0.099965,-0.6485519999999999,-0.0297465,1
121,-0.0176134999999999,0.6959255,-0.0216169999999999,-0.1655954999999999,0.4996855,-0.053359,-0.2861755,0.7067155,-0.158024,0.1468045,0.5003455,-0.030483,0.2685545,0.6932855,-0.113172,-0.3554655,0.9353555,-0.212714,0.3010945,0.8766155,-0.162674,-0.0783865,-0.0025774999999999,-0.003207,0.0783865,0.0025775,0.003207,-0.1147155,-0.3202945,-0.13285,0.1283945,-0.3131445,-0.106768,-0.1062555,-0.6526045,-0.053418,0.0996145,-0.6384245,-0.0351299999999999,1
122,-0.01763,0.6932245,-0.0250699999999999,-0.165592,0.4985445,-0.0560529999999999,-0.2853019999999999,0.7053945,-0.161721,0.145698,0.4987045,-0.0342269999999999,0.267578,0.6914145,-0.117656,-0.353962,0.9363945,-0.2168209999999999,0.2987379999999999,0.8747345,-0.168161,-0.078648,-0.0026964999999999,-0.0032929999999999,0.078648,0.0026965,0.003293,-0.115822,-0.3127755,-0.141207,0.129758,-0.3059655,-0.1157919999999999,-0.106712,-0.6409755,-0.0593509999999999,0.099378,-0.6278455,-0.0406339999999999,1
123,-0.017872,0.6909190000000001,-0.028627,-0.165709,0.496879,-0.058666,-0.2845689999999999,0.7045790000000001,-0.16523,0.144701,0.496829,-0.03791,0.266491,0.689449,-0.122319,-0.352549,0.937259,-0.22067,0.296381,0.872859,-0.17353,-0.078908,-0.002833,-0.003328,0.078908,0.002833,0.0033279999999999,-0.116979,-0.3014509999999999,-0.149586,0.130691,-0.294421,-0.12467,-0.107249,-0.628741,-0.06506,0.0990109999999999,-0.616511,-0.046075,1
124,-0.0180935,0.68821,-0.0320644999999999,-0.1657705,0.4956699999999999,-0.0613325,-0.2838205,0.7036600000000001,-0.1685645,0.1438895,0.49461,-0.0415524999999999,0.2655095,0.68827,-0.1268715,-0.3511505,0.93828,-0.2243745,0.2945595,0.87138,-0.1786145,-0.0791274999999999,-0.002984,-0.0032204999999999,0.0791274999999999,0.002984,0.0032205,-0.1179205,-0.28991,-0.1577454999999999,0.1314695,-0.28235,-0.1331685,-0.1077105,-0.61596,-0.0706695,0.0987295,-0.6048,-0.0512934999999999,1
125,-0.018279,0.6855330000000001,-0.0400125,-0.165647,0.493723,-0.0689615,-0.282947,0.7018530000000001,-0.1763725,0.1432429999999999,0.4938829999999999,-0.0497625,0.2645929999999999,0.687343,-0.1359715,-0.348857,0.933713,-0.2333325,0.293153,0.870263,-0.1882825,-0.079229,-0.0031279999999999,-0.0032825,0.079229,0.003128,0.0032824999999999,-0.1185769999999999,-0.2765269999999999,-0.1700905,0.132463,-0.2686769999999999,-0.1464375,-0.108057,-0.601437,-0.0804365,0.098463,-0.591347,-0.0610835,1
126,-0.018486,0.6863699999999999,-0.048919,-0.164845,0.49266,-0.0776019999999999,-0.281585,0.70122,-0.184967,0.142285,0.49155,-0.0588119999999999,0.2638149999999999,0.688,-0.1461029999999999,-0.346765,0.93199,-0.2430169999999999,0.291985,0.8724000000000001,-0.199137,-0.079318,-0.0030599999999999,-0.003444,0.079318,0.00306,0.003444,-0.119285,-0.26084,-0.186127,0.1349949999999999,-0.25264,-0.1638919999999999,-0.108305,-0.5845499999999999,-0.0910339999999999,0.098185,-0.5753699999999999,-0.071866,1
127,-0.0187395,0.6866650000000001,-0.0578814999999999,-0.1637655,0.491265,-0.0862315,-0.2801755,0.7001949999999999,-0.1932875,0.1414245,0.490745,-0.0678685,0.2631045,0.688925,-0.1561275,-0.3450955,0.930795,-0.2528475,0.2910045,0.873815,-0.2099675,-0.0793495,-0.003195,-0.0037044999999999,0.0793495,0.003195,0.0037044999999999,-0.1199255,-0.245885,-0.2017975,0.1373845,-0.236935,-0.1807405,-0.1082955,-0.568095,-0.1010534999999999,0.0979045,-0.559645,-0.0824805,1
128,-0.0189874999999999,0.6865600000000001,-0.066672,-0.1627135,0.48909,-0.094883,-0.2787334999999999,0.6986100000000001,-0.201478,0.1405665,0.4895,-0.076743,0.2624065,0.6896100000000001,-0.165864,-0.3433135,0.9291,-0.262448,0.2902964999999999,0.8761300000000001,-0.221048,-0.0793425,-0.00325,-0.003822,0.0793425,0.00325,0.0038219999999999,-0.1205934999999999,-0.23067,-0.217208,0.1395065,-0.22099,-0.197563,-0.1081935,-0.55106,-0.110666,0.0975665,-0.54325,-0.092786,1
129,-0.0191489999999999,0.686775,-0.075581,-0.161601,0.4870949999999999,-0.103782,-0.277161,0.697435,-0.20986,0.139619,0.488405,-0.085866,0.261799,0.690055,-0.175778,-0.341811,0.930745,-0.27231,0.289669,0.876645,-0.23243,-0.079354,-0.003275,-0.00382,0.079354,0.003275,0.00382,-0.121221,-0.215245,-0.23249,0.141449,-0.205825,-0.21442,-0.1078909999999999,-0.533695,-0.120237,0.097269,-0.526015,-0.1033029999999999,1
130,-0.0194405,0.687065,-0.084257,-0.1607215,0.485935,-0.112389,-0.2759614999999999,0.694855,-0.217975,0.1383285,0.487075,-0.09469,0.2609884999999999,0.691285,-0.185435,-0.3406515,0.929065,-0.281815,0.2888885,0.877865,-0.243875,-0.0794175,-0.0033549999999999,-0.003835,0.0794175,0.0033549999999999,0.003835,-0.1219915,-0.199955,-0.247445,0.1430485,-0.1903049999999999,-0.231005,-0.1077815,-0.515925,-0.129337,0.0968285,-0.508385,-0.113494,1
131,-0.0199279999999999,0.687335,-0.092912,-0.159913,0.4849449999999999,-0.120803,-0.274793,0.693525,-0.225719,0.136997,0.486915,-0.103285,0.260087,0.691935,-0.195201,-0.339603,0.927575,-0.291475,0.287857,0.878475,-0.254795,-0.079382,-0.003565,-0.003825,0.079382,0.0035649999999999,0.0038249999999999,-0.122783,-0.184455,-0.262035,0.144407,-0.174945,-0.247165,-0.107713,-0.498365,-0.138135,0.096327,-0.490835,-0.123394,1
132,-0.0201875,0.68777,-0.101541,-0.1587865,0.48311,-0.129233,-0.2733865,0.6921999999999999,-0.23342,0.1359235,0.48578,-0.111999,0.2594435,0.69289,-0.204465,-0.3382065,0.92577,-0.301065,0.2869835,0.87906,-0.265505,-0.0793695,-0.00358,-0.003835,0.0793695,0.00358,0.0038349999999999,-0.1232965,-0.16805,-0.276365,0.1460435,-0.15846,-0.262875,-0.1073665,-0.47996,-0.146621,0.0962735,-0.4724799999999999,-0.132982,1
133,-0.0206315,0.688445,-0.1099559999999999,-0.1577155,0.480805,-0.1374339999999999,-0.2721755,0.687675,-0.2407389999999999,0.1348745,0.485655,-0.1201509999999999,0.2585945,0.693075,-0.2135709999999999,-0.3369055,0.920935,-0.31038,0.2857645,0.8790450000000001,-0.27595,-0.0793205,-0.003655,-0.0039499999999999,0.0793205,0.0036549999999999,0.00395,-0.1241055,-0.1509849999999999,-0.29035,0.1474444999999999,-0.140875,-0.27829,-0.1072255,-0.4612449999999999,-0.1547859999999999,0.0960245,-0.4540949999999999,-0.1430719999999999,1
134,-0.0212154999999999,0.6859299999999999,-0.113212,-0.1569735,0.48123,-0.140652,-0.2717735,0.68438,-0.243563,0.1336865,0.48383,-0.123485,0.2575465,0.69233,-0.217631,-0.3366635,0.91669,-0.31408,0.2843365,0.87791,-0.28105,-0.0793445,-0.00339,-0.0039,0.0793445,0.00339,0.0038999999999999,-0.1251634999999999,-0.13583,-0.29895,0.1482265,-0.1254199999999999,-0.2880399999999999,-0.1072235,-0.44503,-0.157684,0.0955865,-0.43825,-0.147955,1
135,-0.0216715,0.681805,-0.115007,-0.1567285,0.481245,-0.142502,-0.2715484999999999,0.680515,-0.2449739999999999,0.1328715,0.484625,-0.125575,0.2567215,0.689805,-0.220225,-0.3362985,0.910885,-0.31618,0.2830615,0.875775,-0.28451,-0.0793395,-0.0034449999999999,-0.0037399999999999,0.0793395,0.0034449999999999,0.00374,-0.1258585,-0.122215,-0.3033599999999999,0.1482615,-0.111435,-0.29295,-0.1070985,-0.430805,-0.1591709999999999,0.0950615,-0.424475,-0.1514319999999999,1
136,-0.0219514999999999,0.67991,-0.116476,-0.1564944999999999,0.47917,-0.144068,-0.2712044999999999,0.6792199999999999,-0.246063,0.1323455,0.4827199999999999,-0.127346,0.2559655,0.6878599999999999,-0.222191,-0.3357245,0.90881,-0.317885,0.2818355,0.8775,-0.287465,-0.0793535,-0.00353,-0.003495,0.0793535,0.0035299999999999,0.0034949999999999,-0.1264144999999999,-0.10504,-0.307725,0.1485355,-0.09424,-0.297745,-0.1068145,-0.41351,-0.160302,0.0946855,-0.40753,-0.154425,1
137,-0.0223895,0.6781349999999999,-0.117737,-0.1565085,0.477975,-0.145397,-0.2712685,0.678075,-0.246965,0.1316515,0.481965,-0.128967,0.2549615,0.686475,-0.224042,-0.3354385,0.907035,-0.3194099999999999,0.2803515,0.8787450000000001,-0.28994,-0.0793055,-0.0036149999999999,-0.00328,0.0793055,0.0036149999999999,0.00328,-0.1271485,-0.088115,-0.31144,0.1486115,-0.077175,-0.30194,-0.1067225,-0.397215,-0.161217,0.0941015,-0.391445,-0.1571,1
138,-0.0227164999999999,0.675635,-0.118507,-0.1564594999999999,0.476995,-0.146123,-0.2712295,0.677135,-0.247603,0.1313105,0.481035,-0.129915,0.2544305,0.685515,-0.225364,-0.3351495,0.905015,-0.320135,0.2783805,0.877125,-0.291795,-0.0793055,-0.0036649999999999,-0.003285,0.0793055,0.003665,0.0032849999999999,-0.1277495,-0.0753949999999999,-0.314515,0.1479305,-0.064485,-0.305235,-0.1065315,-0.3808749999999999,-0.16158,0.0937005,-0.3754149999999999,-0.159042,1
139,-0.022858,0.67284,-0.119206,-0.156386,0.47567,-0.146728,-0.2711559999999999,0.6777299999999999,-0.248291,0.131164,0.47946,-0.130536,0.253454,0.68429,-0.226565,-0.334796,0.90606,-0.3209,0.276654,0.87586,-0.29327,-0.079341,-0.00359,-0.00318,0.079341,0.0035899999999999,0.0031799999999999,-0.128356,-0.063,-0.3171,0.1471839999999999,-0.05222,-0.30798,-0.1063109999999999,-0.36551,-0.161838,0.093264,-0.35925,-0.159284,1
140,-0.0229855,0.6712,-0.119624,-0.1564424999999999,0.4750899999999999,-0.146858,-0.2709625,0.6784399999999999,-0.2489029999999999,0.1309175,0.47763,-0.130935,0.2523475,0.68419,-0.227244,-0.3345625,0.90796,-0.32123,0.2750875,0.8765299999999999,-0.29452,-0.0792585,-0.00335,-0.00314,0.0792585,0.0033499999999999,0.00314,-0.1291025,-0.04889,-0.31904,0.1463875,-0.03845,-0.31008,-0.1061894999999999,-0.34876,-0.162005,0.0928364999999999,-0.34265,-0.160854,1
141,-0.0232094999999999,0.669575,-0.11972,-0.1566654999999999,0.4757749999999999,-0.146887,-0.2713155,0.6788649999999999,-0.2497249999999999,0.1305345,0.477935,-0.131199,0.2512945,0.6828449999999999,-0.22791,-0.3341255,0.904845,-0.3214249999999999,0.2736145,0.875985,-0.295495,-0.0791304999999999,-0.003435,-0.003115,0.0791304999999999,0.0034349999999999,0.003115,-0.1298955,-0.035465,-0.320295,0.1456445,-0.024725,-0.311675,-0.1061205,-0.3330850000000001,-0.162055,0.0922975,-0.327145,-0.162138,1
142,-0.0232505,0.667645,-0.119725,-0.1566905,0.476029,-0.146892,-0.2715105,0.681835,-0.25027,0.1302995,0.47647,-0.131216,0.2504395,0.682235,-0.228391,-0.3334905,0.904295,-0.32153,0.2725495,0.876385,-0.2963099999999999,-0.0789245,-0.0032049999999999,-0.0030999999999999,0.0789245,0.003205,0.0030999999999999,-0.1305305,-0.0225549999999999,-0.32099,0.1450495,-0.011465,-0.3126299999999999,-0.1059295,-0.3180349999999999,-0.162073,0.0919705,-0.312265,-0.163208,1
143,-0.0231735,0.66864,-0.119515,-0.1568155,0.474707,-0.146605,-0.2716355,0.68479,-0.250705,0.1302245,0.475774,-0.13115,0.2498245,0.68239,-0.228612,-0.3327655,0.90957,-0.321565,0.2718045,0.8774200000000001,-0.297095,-0.0788405,-0.0033699999999999,-0.003025,0.0788405,0.0033699999999999,0.003025,-0.1309855,-0.0073599999999999,-0.321385,0.1445544999999999,0.00396,-0.313115,-0.1056305,-0.30106,-0.162031,0.0917635,-0.2950699999999999,-0.163298,1
144,-0.0229884999999999,0.66918,-0.1192399999999999,-0.1568805,0.472923,-0.1458219999999999,-0.2712805,0.68693,-0.25028,0.1303595,0.473917,-0.1307859999999999,0.2493795,0.68292,-0.2286939999999999,-0.3318905,0.91344,-0.32152,0.2717294999999999,0.87827,-0.29771,-0.0788615,-0.00339,-0.0028999999999999,0.0788615,0.00339,0.0029,-0.1311905,0.00755,-0.3211299999999999,0.1441095,0.0189699999999999,-0.31287,-0.1052485,-0.2846499999999999,-0.1617549999999999,0.0917165,-0.2783099999999999,-0.163036,1
145,-0.0228935,0.66849,-0.1187719999999999,-0.1570835,0.4747709999999999,-0.1449679999999999,-0.2711835,0.688,-0.2499799999999999,0.1304365,0.47428,-0.130185,0.2490764999999999,0.68282,-0.228636,-0.3313235,0.9123,-0.32141,0.2713764999999999,0.87732,-0.29842,-0.0789715,-0.00332,-0.00286,0.0789715,0.0033199999999999,0.00286,-0.1312735,0.0203799999999999,-0.32079,0.1435865,0.03147,-0.31256,-0.1049585,-0.27069,-0.1613679999999999,0.0916034999999999,-0.2639600000000001,-0.1626979999999999,1
146,-0.022583,0.6678649999999999,-0.1181639999999999,-0.1569829999999999,0.47633,-0.1441319999999999,-0.270893,0.689165,-0.2497599999999999,0.130747,0.4746419999999999,-0.129499,0.249187,0.682395,-0.228472,-0.3303729999999999,0.910895,-0.32122,0.271357,0.8769549999999999,-0.2991,-0.079012,-0.003385,-0.0027999999999999,0.079012,0.0033849999999999,0.0027999999999999,-0.131133,0.0331549999999999,-0.32044,0.143497,0.0438749999999999,-0.31222,-0.10447,-0.256975,-0.1609499999999999,0.091708,-0.249955,-0.162349,1
147,-0.0223595,0.6678949999999999,-0.117486,-0.1569775,0.4770659999999999,-0.143359,-0.2705674999999999,0.686475,-0.24953,0.1308325,0.4741729999999999,-0.128751,0.2489324999999999,0.6818649999999999,-0.228257,-0.3293975,0.909485,-0.32121,0.2712325,0.8816149999999999,-0.2997499999999999,-0.0790225,-0.003435,-0.0027999999999999,0.0790225,0.0034349999999999,0.0027999999999999,-0.1311475,0.0454349999999999,-0.31982,0.1435525,0.0558849999999999,-0.31181,-0.1041855,-0.2440650000000001,-0.160541,0.0916565,-0.236905,-0.16189,1
148,-0.021802,0.6679849999999999,-0.11663,-0.156776,0.4775999999999999,-0.142243,-0.270196,0.6844349999999999,-0.2491249999999999,0.131154,0.4746839999999999,-0.127995,0.2493339999999999,0.681755,-0.2279,-0.328036,0.906685,-0.321845,0.271674,0.880385,-0.300135,-0.0790869999999999,-0.003655,-0.002725,0.0790869999999999,0.0036549999999999,0.002725,-0.131016,0.0572549999999999,-0.318315,0.1439039999999999,0.0674749999999999,-0.310625,-0.103681,-0.231435,-0.159964,0.091863,-0.224435,-0.161041,1
149,-0.0213335,0.668345,-0.1153609999999999,-0.1566625,0.478002,-0.140699,-0.2696125,0.682635,-0.2481149999999999,0.1313875,0.4750839999999999,-0.126516,0.2496374999999999,0.681615,-0.2271889999999999,-0.3266925,0.902245,-0.322125,0.2720175,0.879885,-0.300065,-0.0792305,-0.003805,-0.0027649999999999,0.0792305,0.0038049999999999,0.002765,-0.1311225,0.0679549999999999,-0.316435,0.1441375,0.0780749999999999,-0.3085449999999999,-0.1032915,-0.219735,-0.159013,0.0919555,-0.213005,-0.159502,1
150,-0.0210685,0.66795,-0.114017,-0.1567725,0.477898,-0.139109,-0.2694225,0.67979,-0.2471249999999999,0.1314475,0.473386,-0.124645,0.2497375,0.68157,-0.2265039999999999,-0.3259925,0.90184,-0.3224749999999999,0.2722675,0.88078,-0.299965,-0.0793735,-0.00373,-0.002785,0.0793735,0.00373,0.002785,-0.1315225,0.07743,-0.3143249999999999,0.1441475,0.0876299999999999,-0.306355,-0.1032055,-0.20926,-0.158006,0.0918425,-0.20241,-0.157868,1
151,-0.0210274999999999,0.66828,-0.1124469999999999,-0.1571105,0.4777749999999999,-0.137232,-0.2695005,0.67852,-0.246095,0.1312095,0.474143,-0.1227169999999999,0.2498195,0.68236,-0.225711,-0.3256205,0.90194,-0.322715,0.2723895,0.8825099999999999,-0.299855,-0.0792664999999999,-0.00385,-0.002805,0.0792664999999999,0.00385,0.002805,-0.1322205,0.0876199999999999,-0.3118849999999999,0.1439595,0.0978699999999999,-0.303565,-0.1033574999999999,-0.19828,-0.15659,0.0915375,-0.19137,-0.156007,1
152,-0.020465,0.66745,-0.110975,-0.156944,0.477999,-0.135826,-0.269184,0.67692,-0.245055,0.131496,0.473444,-0.120798,0.250646,0.68198,-0.224642,-0.324754,0.89964,-0.322815,0.273096,0.88368,-0.299685,-0.079359,-0.00385,-0.002825,0.079359,0.00385,0.0028249999999999,-0.1326439999999999,0.09544,-0.309595,0.144356,0.1056599999999999,-0.301035,-0.103077,-0.18981,-0.154931,0.091651,-0.18283,-0.153996,1
153,-0.0202034999999999,0.667245,-0.1093449999999999,-0.1571535,0.4779369999999999,-0.1343649999999999,-0.2690734999999999,0.675565,-0.2439899999999999,0.1314064999999999,0.4730769999999999,-0.1188049999999999,0.2513865,0.6816249999999999,-0.2235319999999999,-0.3244634999999999,0.8971849999999999,-0.3228799999999999,0.2735765,0.883815,-0.2994799999999999,-0.0793875,-0.003975,-0.0028699999999999,0.0793875,0.0039749999999999,0.00287,-0.1334935,0.1027449999999999,-0.3072,0.1444965,0.1128349999999999,-0.29844,-0.1032884999999999,-0.1821250000000001,-0.153217,0.0909515,-0.174965,-0.1508419999999999,1
154,-0.019774,0.66605,-0.1075349999999999,-0.157236,0.477938,-0.1327229999999999,-0.2688959999999999,0.67412,-0.242805,0.131524,0.472866,-0.1167029999999999,0.252334,0.68144,-0.2222299999999999,-0.323896,0.89661,-0.322665,0.274274,0.88323,-0.298775,-0.0793109999999999,-0.0038499999999999,-0.002915,0.0793109999999999,0.00385,0.002915,-0.1341959999999999,0.10948,-0.304685,0.144894,0.11951,-0.295525,-0.103336,-0.1750999999999999,-0.151274,0.090471,-0.1677199999999999,-0.147583,1
155,-0.0192755,0.66526,-0.105449,-0.1570095,0.4775499999999999,-0.130695,-0.2688595,0.6730799999999999,-0.241675,0.1319305,0.4729629999999999,-0.114409,0.2535405,0.6822999999999999,-0.220827,-0.3230595,0.8964599999999999,-0.322115,0.2752005,0.8823599999999999,-0.2976149999999999,-0.0792705,-0.0037,-0.003145,0.0792705,0.0036999999999999,0.003145,-0.1350195,0.1165899999999999,-0.301975,0.1457004999999999,0.1266299999999999,-0.292075,-0.1033365,-0.16782,-0.148733,0.0899885,-0.16011,-0.143763,1
156,-0.0187689999999999,0.66404,-0.1033039999999999,-0.156863,0.4777809999999999,-0.1286199999999999,-0.268463,0.67567,-0.2405399999999999,0.132367,0.4740909999999999,-0.112397,0.254887,0.6817799999999999,-0.219377,-0.322183,0.89643,-0.32155,0.276167,0.8800899999999999,-0.29641,-0.079151,-0.00358,-0.0033399999999999,0.079151,0.0035799999999999,0.00334,-0.135763,0.1227899999999999,-0.29938,0.146627,0.1328299999999999,-0.28871,-0.103338,-0.16149,-0.1462379999999999,0.089469,-0.15306,-0.140033,1
157,-0.0182804999999999,0.663295,-0.1011709999999999,-0.1568075,0.478696,-0.1265609999999999,-0.2680575,0.678415,-0.2394549999999999,0.1328025,0.475761,-0.1105809999999999,0.2562125,0.681475,-0.217889,-0.3215475,0.897995,-0.320405,0.2771625,0.883815,-0.295255,-0.0790335,-0.003395,-0.0036049999999999,0.0790335,0.003395,0.0036049999999999,-0.1363975,0.128985,-0.296815,0.1476525,0.138955,-0.285415,-0.1032974999999999,-0.155325,-0.1438559999999999,0.0890195,-0.1460749999999999,-0.1363879999999999,1
158,-0.017862,0.661755,-0.099447,-0.156884,0.478294,-0.124801,-0.267744,0.679835,-0.238645,0.133156,0.476634,-0.10929,0.257376,0.680085,-0.216739,-0.3210739999999999,0.899295,-0.319695,0.278106,0.8860250000000001,-0.294485,-0.078853,-0.003305,-0.003785,0.078853,0.003305,0.0037849999999999,-0.137004,0.133625,-0.294535,0.148556,0.143565,-0.282705,-0.103279,-0.1506549999999999,-0.14188,0.0885529999999999,-0.1406049999999999,-0.133251,1
159,-0.0175225,0.660985,-0.0975779999999999,-0.1570984999999999,0.478135,-0.1231289999999999,-0.2679685,0.682135,-0.2386049999999999,0.1334615,0.479121,-0.1082489999999999,0.2583715,0.679955,-0.215517,-0.3206385,0.901175,-0.3190349999999999,0.2786714999999999,0.8880950000000001,-0.2935649999999999,-0.0787235,-0.0032649999999999,-0.0040049999999999,0.0787235,0.0032649999999999,0.004005,-0.1376184999999999,0.138375,-0.2922249999999999,0.1493515,0.148315,-0.279945,-0.1032995,-0.1458049999999999,-0.1399989999999999,0.0880445,-0.1348049999999999,-0.1302549999999999,1
160,-0.0172614999999999,0.6600050000000001,-0.095922,-0.1572465,0.477944,-0.121882,-0.2682565,0.68322,-0.238725,0.1336935,0.480376,-0.1074249999999999,0.2591635,0.679,-0.2144309999999999,-0.3202665,0.90198,-0.318565,0.2794435,0.88897,-0.293025,-0.0785555,-0.0033199999999999,-0.0041849999999999,0.0785555,0.0033199999999999,0.0041849999999999,-0.1382764999999999,0.14184,-0.290335,0.1501035,0.1517,-0.277705,-0.1034665,-0.1423999999999999,-0.138589,0.0874605,-0.13034,-0.127593,1
161,-0.0171245,0.658979,-0.094356,-0.1575085,0.4782899999999999,-0.120758,-0.2684985,0.684615,-0.238885,0.1338615,0.4821629999999999,-0.10671,0.2597415,0.679055,-0.213763,-0.3199484999999999,0.903125,-0.318105,0.2801415,0.8897849999999999,-0.292505,-0.0783925,-0.003315,-0.004425,0.0783925,0.0033149999999999,0.0044249999999999,-0.1387785,0.1452749999999999,-0.288655,0.1508215,0.1549049999999999,-0.275485,-0.1036584999999999,-0.139155,-0.137428,0.0868655,-0.126055,-0.12514,1
162,-0.0170014999999999,0.657738,-0.093154,-0.1577235,0.478814,-0.119733,-0.2686435,0.6859350000000001,-0.239055,0.1340665,0.483933,-0.106119,0.2602265,0.6795150000000001,-0.21359,-0.3195935,0.904245,-0.317675,0.2807965,0.890665,-0.292075,-0.0782185,-0.003205,-0.004645,0.0782185,0.003205,0.004645,-0.1392735,0.148455,-0.287145,0.1515565,0.157925,-0.273335,-0.1036535,-0.136205,-0.136319,0.0867445,-0.1224449999999999,-0.123923,1
163,-0.0170034999999999,0.657184,-0.092304,-0.1579555,0.47849,-0.1189529999999999,-0.2688955,0.6865300000000001,-0.239385,0.1341145,0.485092,-0.1058139999999999,0.2605345,0.67947,-0.213385,-0.3193355,0.90444,-0.317615,0.2812145,0.8907400000000001,-0.291885,-0.0781905,-0.00324,-0.0048249999999999,0.0781905,0.00324,0.0048249999999999,-0.1397855,0.15051,-0.286095,0.1522045,0.15984,-0.271825,-0.1037754999999999,-0.13444,-0.135455,0.0865485,-0.12002,-0.1229339999999999,1
164,-0.0169485,0.656882,-0.092041,-0.1578975,0.478375,-0.118754,-0.2689074999999999,0.686635,-0.23981,0.1342125,0.485597,-0.105767,0.2609225,0.679085,-0.213355,-0.3189875,0.904345,-0.3177999999999999,0.2814925,0.890745,-0.29196,-0.0781495,-0.0032149999999999,-0.00486,0.0781495,0.0032149999999999,0.00486,-0.1400475,0.151565,-0.28544,0.1527724999999999,0.160735,-0.271,-0.1038475,-0.133665,-0.135208,0.0865645,-0.118665,-0.122542,1
165,-0.0168904999999999,0.657096,-0.092017,-0.1578385,0.478454,-0.118754,-0.2688285,0.68665,-0.24029,0.1343115,0.485809,-0.105765,0.2612615,0.6795300000000001,-0.213444,-0.3186385,0.90424,-0.31811,0.2817615,0.89119,-0.2920399999999999,-0.0781265,-0.0031399999999999,-0.00486,0.0781265,0.00314,0.00486,-0.1403185,0.15223,-0.2849899999999999,0.1533415,0.16119,-0.27034,-0.1039185,-0.1332799999999999,-0.135077,0.0866095,-0.1180899999999999,-0.122308,1
166,-0.0168624999999999,0.657096,-0.092015,-0.1578385,0.478454,-0.118754,-0.2688085,0.68662,-0.24075,0.1344215,0.485809,-0.105758,0.2615615,0.6795300000000001,-0.213625,-0.3183385,0.90424,-0.31854,0.2820114999999999,0.89119,-0.29208,-0.0781265,-0.0031399999999999,-0.00486,0.0781265,0.00314,0.00486,-0.1406285,0.15243,-0.28474,0.1538415,0.16127,-0.27014,-0.1040084999999999,-0.1333099999999999,-0.134992,0.0866025,-0.1180899999999999,-0.122186,1
167,-0.0168324999999999,0.657096,-0.092034,-0.1578075,0.478454,-0.1187719999999999,-0.2687775,0.68662,-0.2412099999999999,0.1345425,0.485809,-0.105788,0.2617525,0.6795300000000001,-0.213782,-0.3180575,0.90424,-0.31919,0.2823625,0.89119,-0.29217,-0.0781255,-0.0031399999999999,-0.0048799999999999,0.0781255,0.00314,0.0048799999999999,-0.1409174999999999,0.15262,-0.28478,0.1543324999999999,0.1614,-0.27013,-0.1040774999999999,-0.1333099999999999,-0.135017,0.0866035,-0.1180899999999999,-0.122206,1
168,-0.0167755,0.657096,-0.09208,-0.1576645,0.478454,-0.11886,-0.2687545,0.68662,-0.24172,0.1346554999999999,0.485809,-0.105886,0.2617855,0.67995,-0.214578,-0.3178045,0.90424,-0.3200699999999999,0.2828755,0.8913800000000001,-0.29262,-0.0781235,-0.0031399999999999,-0.0049099999999999,0.0781235,0.00314,0.0049099999999999,-0.1411145,0.15279,-0.28484,0.1547555,0.16154,-0.27015,-0.1041445,-0.1332999999999999,-0.135071,0.0867455,-0.1180899999999999,-0.122248,1
169,-0.0167745,0.6575820000000001,-0.092593,-0.1574755,0.478047,-0.119208,-0.2686155,0.68615,-0.242425,0.1346845,0.48534,-0.106201,0.2617645,0.6807700000000001,-0.215484,-0.3176155,0.90385,-0.321355,0.2834045,0.8914700000000001,-0.293375,-0.0780815,-0.0031799999999999,-0.0048549999999999,0.0780815,0.00318,0.0048549999999999,-0.1411855,0.1524600000000001,-0.285025,0.1549945,0.16133,-0.270325,-0.1043455,-0.1337699999999999,-0.135264,0.0867904999999999,-0.1185999999999999,-0.122427,1
170,-0.0168365,0.658968,-0.093472,-0.1570025,0.478495,-0.12018,-0.2683725,0.685505,-0.24322,0.1346475,0.4845009999999999,-0.106727,0.2616274999999999,0.6815749999999999,-0.216361,-0.3175525,0.903285,-0.32298,0.2839374999999999,0.891275,-0.29457,-0.0780045,-0.003055,-0.00472,0.0780045,0.003055,0.00472,-0.1413525,0.1513649999999999,-0.28535,0.1550475,0.1601849999999999,-0.27075,-0.1046725,-0.135055,-0.135605,0.0870755,-0.120325,-0.12331,1
171,-0.0169054999999999,0.661331,-0.095114,-0.1565214999999999,0.479228,-0.121734,-0.2677815,0.68453,-0.244315,0.1345785,0.483221,-0.107615,0.2617785,0.68231,-0.217996,-0.3174615,0.90474,-0.325585,0.2845685,0.89147,-0.296325,-0.0779245,-0.0029,-0.004635,0.0779245,0.0029,0.004635,-0.1415515,0.14898,-0.286345,0.1550185,0.1578,-0.271795,-0.1049815,-0.13742,-0.136234,0.0873815,-0.1233199999999999,-0.124737,1
172,-0.0168655,0.6638599999999999,-0.097326,-0.1557825,0.4804909999999999,-0.123736,-0.2667025,0.684075,-0.24574,0.1346175,0.4815419999999999,-0.1088819999999999,0.2620475,0.6827949999999999,-0.219955,-0.3171325,0.906475,-0.32855,0.2852875,0.890895,-0.29849,-0.0779425,-0.002695,-0.00453,0.0779425,0.002695,0.00453,-0.1415825,0.1453049999999999,-0.288,0.1549375,0.1539949999999999,-0.27361,-0.1051925,-0.141195,-0.137326,0.0878205,-0.127785,-0.126658,1
173,-0.016881,0.66723,-0.099818,-0.154982,0.480392,-0.125973,-0.265532,0.68469,-0.24766,0.134718,0.478445,-0.110375,0.2623479999999999,0.68183,-0.221675,-0.316622,0.90857,-0.33213,0.286338,0.89293,-0.30146,-0.077991,-0.0023999999999999,-0.00485,0.077991,0.0024,0.0048499999999999,-0.141432,0.13898,-0.29008,0.154928,0.14767,-0.2761,-0.105282,-0.1475299999999999,-0.138492,0.0883489999999999,-0.13471,-0.128914,1
174,-0.0167664999999999,0.6671149999999999,-0.1030519999999999,-0.1539475,0.4790379999999999,-0.129189,-0.2642675,0.683345,-0.25102,0.1349125,0.477475,-0.1132389999999999,0.2628525,0.6797549999999999,-0.224401,-0.3160675,0.907385,-0.33641,0.2874225,0.8901349999999999,-0.30486,-0.0781535,-0.002495,-0.00519,0.0781535,0.0024949999999999,0.00519,-0.1410875,0.1271049999999999,-0.29356,0.1549825,0.1360249999999999,-0.28015,-0.1053674999999999,-0.159405,-0.1401299999999999,0.0889315,-0.147195,-0.131939,1
175,-0.0164525,0.6682650000000001,-0.106317,-0.1527774999999999,0.478095,-0.132728,-0.2626675,0.682655,-0.254435,0.1355725,0.476447,-0.116042,0.2634225,0.678485,-0.22722,-0.3154675,0.909225,-0.340645,0.2884325,0.889835,-0.308575,-0.0783435,-0.0023749999999999,-0.0054049999999999,0.0783435,0.002375,0.0054049999999999,-0.1404775,0.113775,-0.298205,0.1550325,0.122805,-0.284455,-0.1054575,-0.1727849999999999,-0.141676,0.0895005,-0.1612249999999999,-0.135181,1
176,-0.0158915,0.67116,-0.109507,-0.1513215,0.4772189999999999,-0.1365139999999999,-0.2612015,0.6818,-0.258215,0.1363585,0.4747199999999999,-0.1189779999999999,0.2639085,0.67767,-0.229898,-0.3145615,0.91077,-0.345255,0.2894685,0.8869199999999999,-0.312265,-0.0784235,-0.00264,-0.0054049999999999,0.0784235,0.0026399999999999,0.005405,-0.1397315,0.0975799999999999,-0.301995,0.1551585,0.1066999999999999,-0.288775,-0.1054015,-0.1890900000000001,-0.143199,0.0902395,-0.1781800000000001,-0.1384639999999999,1
177,-0.0153805,0.671745,-0.112951,-0.1500595,0.4756519999999999,-0.14046,-0.2596295,0.680925,-0.261685,0.1369405,0.47354,-0.12236,0.2642305,0.675075,-0.232759,-0.3135295,0.909775,-0.349515,0.2903604999999999,0.887785,-0.315535,-0.0786385,-0.0025749999999999,-0.0053549999999999,0.0786385,0.0025749999999999,0.0053549999999999,-0.1389995,0.078285,-0.305455,0.1550504999999999,0.087525,-0.2927349999999999,-0.1055095,-0.208495,-0.1448229999999999,0.0908105,-0.1980449999999999,-0.1419629999999999,1
178,-0.014804,0.673045,-0.115756,-0.148573,0.475052,-0.144043,-0.257973,0.680305,-0.264515,0.137517,0.47262,-0.125273,0.264517,0.673955,-0.235208,-0.312393,0.910535,-0.353325,0.2911769999999999,0.887645,-0.317825,-0.078844,-0.0022849999999999,-0.005385,0.078844,0.002285,0.005385,-0.137913,0.0578549999999999,-0.308085,0.154957,0.0676249999999999,-0.295945,-0.105553,-0.2290849999999999,-0.145948,0.091412,-0.219025,-0.14509,1
179,-0.0141484999999999,0.6727449999999999,-0.1177209999999999,-0.1474245,0.4760459999999999,-0.146739,-0.2565945,0.679045,-0.267,0.1381454999999999,0.4712659999999999,-0.127468,0.2647655,0.671455,-0.23681,-0.3111045,0.910155,-0.356,0.2918955,0.885655,-0.31887,-0.0790095,-0.001815,-0.00561,0.0790095,0.001815,0.00561,-0.1364544999999999,0.0346249999999999,-0.30992,0.1547255,0.0454149999999999,-0.29782,-0.1055644999999999,-0.252675,-0.146345,0.0916115,-0.242695,-0.146953,1
180,-0.0135834999999999,0.672875,-0.119063,-0.1463134999999999,0.474759,-0.148887,-0.2555135,0.677285,-0.268415,0.1387065,0.472449,-0.129538,0.2649465,0.672285,-0.238069,-0.3100735,0.908375,-0.356595,0.2923865,0.883185,-0.318945,-0.0791645,-0.002105,-0.005725,0.0791645,0.002105,0.005725,-0.1351135,0.0102249999999999,-0.310825,0.1543665,0.0223949999999999,-0.298925,-0.1055634999999999,-0.277995,-0.146448,0.0916735,-0.268105,-0.148333,1
181,-0.0128284999999999,0.67318,-0.119959,-0.1450685,0.473163,-0.150937,-0.2547784999999999,0.67789,-0.27044,0.1395215,0.472263,-0.131429,0.2655815,0.67187,-0.239255,-0.3091885,0.90805,-0.35769,0.2931515,0.88164,-0.31889,-0.0793405,-0.00198,-0.0057299999999999,0.0793405,0.0019799999999999,0.00573,-0.1337285,-0.01413,-0.31074,0.1541415,-0.00078,-0.29893,-0.1052384999999999,-0.30419,-0.146397,0.0918775,-0.29441,-0.149394,1
182,-0.01206,0.6729149999999999,-0.1204659999999999,-0.143724,0.47272,-0.152926,-0.2537939999999999,0.676795,-0.27149,0.140346,0.475145,-0.133235,0.2663759999999999,0.6738949999999999,-0.240473,-0.308424,0.907385,-0.35827,0.2937959999999999,0.8771749999999999,-0.31886,-0.079571,-0.002215,-0.00575,0.079571,0.0022149999999999,0.00575,-0.132344,-0.037875,-0.31066,0.153956,-0.023865,-0.29894,-0.105034,-0.330955,-0.1464379999999999,0.092103,-0.321035,-0.150152,1
183,-0.011187,0.6771149999999999,-0.120491,-0.142577,0.473725,-0.154299,-0.252737,0.6787449999999999,-0.271775,0.141233,0.475545,-0.133994,0.266883,0.676705,-0.240583,-0.307247,0.911555,-0.358215,0.294483,0.881045,-0.318625,-0.079805,-0.001995,-0.005875,0.079805,0.0019949999999999,0.0058749999999999,-0.130897,-0.057385,-0.310465,0.153833,-0.042555,-0.298835,-0.104847,-0.354305,-0.14638,0.092401,-0.3443549999999999,-0.150588,1
184,-0.0105764999999999,0.680035,-0.120007,-0.1418505,0.474995,-0.154789,-0.2518905,0.679835,-0.27103,0.1414495,0.476715,-0.134357,0.2669694999999999,0.679395,-0.23995,-0.3062105,0.912575,-0.35745,0.2950595,0.879815,-0.31782,-0.0799185,-0.001875,-0.0060999999999999,0.0799185,0.001875,0.0060999999999999,-0.1296105,-0.077255,-0.3096299999999999,0.1537195,-0.062025,-0.2980899999999999,-0.1047505,-0.379235,-0.14574,0.0925885,-0.3690849999999999,-0.150275,1
185,-0.0101335,0.681385,-0.1183559999999999,-0.1415255,0.4758449999999999,-0.1539069999999999,-0.2516155,0.6812549999999999,-0.26932,0.1415845,0.479155,-0.1336899999999999,0.2669944999999999,0.681025,-0.2382599999999999,-0.3053055,0.913155,-0.3557099999999999,0.2954945,0.885805,-0.3145199999999999,-0.0800325,-0.0015249999999999,-0.0062599999999999,0.0800325,0.0015249999999999,0.00626,-0.1282555,-0.095335,-0.3071399999999999,0.1534944999999999,-0.080185,-0.2953399999999999,-0.1046955,-0.403335,-0.14458,0.0926815,-0.393265,-0.1489089999999999,1
186,-0.009635,0.6856,-0.116255,-0.140852,0.47825,-0.152367,-0.251042,0.68373,-0.267005,0.141808,0.4812,-0.132371,0.267418,0.68519,-0.2360539999999999,-0.304922,0.91616,-0.352895,0.295828,0.88598,-0.310645,-0.080085,-0.0013899999999999,-0.0061049999999999,0.080085,0.00139,0.0061049999999999,-0.126972,-0.1110199999999999,-0.302985,0.153328,-0.09641,-0.290725,-0.104472,-0.4255,-0.143356,0.093543,-0.41598,-0.148457,1
187,-0.009061,0.6899850000000001,-0.113274,-0.140278,0.479555,-0.150063,-0.250038,0.685045,-0.26372,0.1421819999999999,0.483475,-0.130532,0.268012,0.688495,-0.233072,-0.304068,0.918695,-0.34874,0.296282,0.885305,-0.30547,-0.080006,-0.0013949999999999,-0.0059899999999999,0.080006,0.0013949999999999,0.0059899999999999,-0.125828,-0.1268949999999999,-0.29652,0.153092,-0.1133049999999999,-0.28444,-0.104208,-0.448175,-0.141687,0.094571,-0.4397049999999999,-0.147475,1
188,-0.008388,0.69514,-0.109916,-0.139515,0.47907,-0.14751,-0.248845,0.68784,-0.259935,0.142755,0.48527,-0.1285939999999999,0.268905,0.69249,-0.2299439999999999,-0.303005,0.92317,-0.3437949999999999,0.296945,0.88691,-0.300265,-0.079745,-0.0014099999999999,-0.005615,0.079745,0.0014099999999999,0.005615,-0.124655,-0.13973,-0.290845,0.153215,-0.1278299999999999,-0.278035,-0.103865,-0.46776,-0.140759,0.096133,-0.46064,-0.146593,1
189,-0.0079365,0.6984349999999999,-0.105496,-0.1390655,0.482745,-0.143892,-0.2479755,0.693425,-0.25438,0.1431845,0.488405,-0.125492,0.2694445,0.694225,-0.225105,-0.3020855,0.927205,-0.33686,0.2975445,0.893295,-0.29305,-0.0794634999999999,-0.001005,-0.00529,0.0794634999999999,0.0010049999999999,0.0052899999999999,-0.1235255,-0.152815,-0.28341,0.1531845,-0.143185,-0.26972,-0.1038155,-0.487255,-0.138515,0.0974545,-0.481875,-0.144531,1
190,-0.0071565,0.7024400000000001,-0.100323,-0.1384345,0.48562,-0.139657,-0.2472145,0.69704,-0.24849,0.1442055,0.49323,-0.1219,0.2703455,0.69781,-0.219661,-0.3014245,0.9322,-0.3286,0.2983355,0.8983,-0.28558,-0.0792715,-0.001,-0.0052099999999999,0.0792715,0.001,0.0052099999999999,-0.1220945,-0.1651399999999999,-0.27543,0.1531455,-0.1576399999999999,-0.2609,-0.1036845,-0.5054799999999999,-0.136423,0.0995155,-0.50164,-0.142366,1
191,-0.006598,0.70766,-0.095134,-0.138158,0.48774,-0.135547,-0.246638,0.70036,-0.24278,0.145002,0.49536,-0.118409,0.270982,0.70078,-0.214493,-0.301028,0.93635,-0.32049,0.298772,0.90292,-0.27837,-0.078939,-0.00064,-0.00504,0.078939,0.00064,0.0050399999999999,-0.120948,-0.17627,-0.2676199999999999,0.152782,-0.17043,-0.25236,-0.103978,-0.52162,-0.134841,0.101692,-0.5193300000000001,-0.140266,1
192,-0.005676,0.71209,-0.089582,-0.1375859999999999,0.4888,-0.131046,-0.2455959999999999,0.70208,-0.2367199999999999,0.1463439999999999,0.50081,-0.114436,0.271724,0.70497,-0.208634,-0.300246,0.93848,-0.31218,0.299594,0.9036,-0.27102,-0.078514,-0.00053,-0.00482,0.078514,0.00053,0.00482,-0.119366,-0.18709,-0.25934,0.152814,-0.1828499999999999,-0.243,-0.104176,-0.53689,-0.132192,0.104424,-0.5360499999999999,-0.137821,1
193,-0.004613,0.715115,-0.0837919999999999,-0.137181,0.492995,-0.1263709999999999,-0.245001,0.7060949999999999,-0.23029,0.148119,0.504365,-0.10991,0.272539,0.707395,-0.202442,-0.299131,0.942385,-0.30327,0.3004489999999999,0.906865,-0.26295,-0.077869,-0.0002349999999999,-0.0047299999999999,0.077869,0.0002349999999999,0.00473,-0.117661,-0.197395,-0.25017,0.152709,-0.1944949999999999,-0.23291,-0.104331,-0.550485,-0.129124,0.107259,-0.5512450000000001,-0.134664,1
194,-0.0037465,0.71755,-0.0781725,-0.1369955,0.49758,-0.1217345,-0.2441855,0.71035,-0.2238235,0.1495044999999999,0.50894,-0.1053485,0.2731545,0.7105400000000001,-0.1962985,-0.2982754999999999,0.9469,-0.2945235,0.3010745,0.91041,-0.2555135,-0.0771445,8.999999999999286e-05,-0.0046365,0.0771445,-9.000000000000674e-05,0.0046364999999999,-0.1162655,-0.2072,-0.2406935,0.1523045,-0.20496,-0.2227735,-0.1045655,-0.56285,-0.1246225,0.1098645,-0.56478,-0.1317865,1
195,-0.0028334999999999,0.7212379999999999,-0.0726705,-0.1369095,0.503878,-0.1171365,-0.2438695,0.713758,-0.2176505,0.1513105,0.513548,-0.1006065,0.2738204999999999,0.7124079999999999,-0.1904315,-0.2976495,0.950948,-0.2860905,0.3016805,0.914188,-0.2481105,-0.0764104999999999,0.000371,-0.0044695,0.0764104999999999,-0.0003709999999999,0.0044695,-0.1145094999999999,-0.217112,-0.2300505,0.1517705,-0.215112,-0.2121005,-0.1047095,-0.5753820000000001,-0.1194245,0.1121405,-0.577612,-0.1273405,1
196,-0.001885,0.725249,-0.067961,-0.136941,0.510379,-0.113333,-0.243161,0.719979,-0.2120719999999999,0.152389,0.518359,-0.096564,0.274399,0.714659,-0.185478,-0.2966209999999999,0.953799,-0.279072,0.302249,0.920179,-0.241482,-0.076022,0.000671,-0.004182,0.076022,-0.0006709999999999,0.004182,-0.112601,-0.2255209999999999,-0.219632,0.150979,-0.223611,-0.202342,-0.104581,-0.585871,-0.114762,0.114059,-0.588071,-0.122574,1
197,-0.001217,0.729099,-0.0633335,-0.137305,0.515189,-0.1094074999999999,-0.243055,0.724769,-0.2072835,0.153505,0.523739,-0.0923915,0.274705,0.717879,-0.1804454999999999,-0.296035,0.954829,-0.2722434999999999,0.302255,0.924889,-0.2348835,-0.075857,0.0003869999999999,-0.0037625,0.075857,-0.0003869999999999,0.0037625,-0.110845,-0.238081,-0.2079735,0.1492649999999999,-0.2356009999999999,-0.1920135,-0.104475,-0.598901,-0.1099735,0.114165,-0.599721,-0.1177855,1
198,-0.0005089999999999,0.734257,-0.0599555,-0.137722,0.518737,-0.1064045,-0.2429819999999999,0.727657,-0.2036784999999999,0.154878,0.525477,-0.0889705,0.275098,0.721607,-0.1768245,-0.295462,0.955317,-0.2668185,0.302298,0.924847,-0.2300585,-0.075658,0.000475,-0.0035484999999999,0.075658,-0.000475,0.0035484999999999,-0.1090619999999999,-0.248913,-0.1971284999999999,0.1475179999999999,-0.2454529999999999,-0.1834255,-0.104362,-0.610083,-0.1063685,0.114258,-0.609253,-0.1138175,1
199,5.150000000000055e-05,0.7387845000000001,-0.0559305,-0.1381705,0.5244945,-0.1028645,-0.2431205,0.7304945,-0.1994915,0.1562295,0.5274645,-0.0850265,0.2752695,0.7240945,-0.1726255,-0.2949605,0.9511845,-0.2615615,0.3022095,0.9244645,-0.2248115,-0.0754645,0.0005374999999999,-0.0031935,0.0754645,-0.0005374999999999,0.0031934999999999,-0.1072105,-0.2614955,-0.1844115,0.1450095,-0.2569855,-0.1729985,-0.1044405,-0.6228954999999999,-0.1013705,0.1142295,-0.6206254999999999,-0.1096305,1
200,-3.250000000000206e-05,0.735481,-0.044813,-0.1391445,0.5261410000000001,-0.092162,-0.2444645,0.7313510000000001,-0.188932,0.1578255,0.528671,-0.073889,0.2747655,0.719921,-0.161571,-0.2952345,0.944651,-0.248972,0.3013855,0.923321,-0.211902,-0.0751075,0.0003899999999999,-0.002651,0.0751075,-0.0003899999999999,0.002651,-0.1057045,-0.280009,-0.161931,0.1391055,-0.274449,-0.151442,-0.1050945,-0.641579,-0.086726,0.1132654999999999,-0.6378889999999999,-0.0941019999999999,1
201,-0.0001559999999999,0.732258,-0.034052,-0.140269,0.529068,-0.081879,-0.245389,0.732978,-0.17841,0.158861,0.526908,-0.063111,0.274091,0.715318,-0.1506,-0.295509,0.944258,-0.23679,0.300201,0.922538,-0.19983,-0.074832,0.0004339999999999,-0.00212,0.074832,-0.0004339999999999,0.0021199999999999,-0.104249,-0.2969219999999999,-0.140088,0.133331,-0.2910419999999999,-0.130899,-0.105789,-0.658892,-0.072427,0.112251,-0.654362,-0.079205,1
202,-0.0002,0.731013,-0.0241795,-0.14126,0.528153,-0.0720755,-0.24685,0.732973,-0.1688525,0.1594,0.526333,-0.0531984999999999,0.27358,0.712563,-0.1404095,-0.29565,0.943293,-0.2254425,0.2991899999999999,0.921773,-0.1887325,-0.074727,0.0001489999999999,-0.0014725,0.074727,-0.0001489999999999,0.0014725,-0.10261,-0.310737,-0.1193404999999999,0.1273099999999999,-0.305257,-0.1115775,-0.10613,-0.673587,-0.0576524999999999,0.11073,-0.668997,-0.0637935,1
203,-0.0003469999999999,0.730412,-0.0144325,-0.142227,0.527762,-0.0624375,-0.2482269999999999,0.732742,-0.1595225,0.159733,0.524102,-0.0434455,0.273043,0.7101719999999999,-0.1308155,-0.295967,0.942532,-0.2143825,0.298043,0.916042,-0.1779725,-0.074516,1.7000000000003124e-05,-0.0009605,0.074516,-1.6999999999996185e-05,0.0009604999999999,-0.100881,-0.323218,-0.0986085,0.121023,-0.3184579999999999,-0.0921535,-0.106347,-0.6871980000000001,-0.0423745,0.108673,-0.682608,-0.0483105,1
204,-0.0004679999999999,0.728078,-0.0048584999999999,-0.1429829999999999,0.524558,-0.0528745,-0.249473,0.732318,-0.1506525,0.159967,0.521848,-0.0339905,0.272467,0.7084280000000001,-0.1213325,-0.296493,0.942298,-0.2036325,0.296907,0.912038,-0.1674425,-0.074335,-0.00026,-0.0003685,0.074335,0.0002599999999999,0.0003685,-0.0990709999999999,-0.3343319999999999,-0.0785305,0.114747,-0.330222,-0.0730765,-0.106233,-0.699322,-0.0278365,0.106237,-0.694402,-0.0326995,1
205,-0.0006419999999999,0.7241895,0.0049615,-0.1436559999999999,0.5220494999999999,-0.0431384999999999,-0.250356,0.7304095,-0.1411035,0.159964,0.5197295,-0.0244915,0.271844,0.7059195,-0.1117275,-0.296916,0.9419395,-0.1925835,0.295654,0.9079195,-0.1567935,-0.074291,-0.0005555,0.0002155,0.074291,0.0005555,-0.0002155,-0.0973499999999999,-0.3463905,-0.0582975,0.108664,-0.3422405,-0.0537775,-0.106096,-0.7123805,-0.0129694999999999,0.103874,-0.7056505,-0.0167165,0
206,-0.0008689999999999,0.72053,0.014525,-0.1443289999999999,0.5210100000000001,-0.033725,-0.251549,0.72921,-0.1320609999999999,0.159871,0.5183800000000001,-0.015385,0.271181,0.70338,-0.10257,-0.297529,0.94303,-0.181951,0.294301,0.90484,-0.1465209999999999,-0.074317,-0.0006129999999999,0.0006529999999999,0.074317,0.000613,-0.0006529999999999,-0.0958779999999999,-0.35689,-0.0387239999999999,0.103081,-0.3523699999999999,-0.034635,-0.106069,-0.7242799999999999,0.0009839999999999,0.101351,-0.7162,-0.0009309999999999,0
207,-0.001144,0.716141,0.024207,-0.1448849999999999,0.5186810000000001,-0.024173,-0.252835,0.727881,-0.123258,0.159815,0.517331,-0.0063859999999999,0.270515,0.699381,-0.093301,-0.298145,0.943911,-0.171448,0.292885,0.901931,-0.1362779999999999,-0.0743399999999999,-0.000726,0.001053,0.0743399999999999,0.0007259999999999,-0.001053,-0.094439,-0.367699,-0.019295,0.097665,-0.3632189999999999,-0.015299,-0.106055,-0.736269,0.014995,0.098445,-0.726779,0.014835,0
208,-0.0014804999999999,0.711373,0.0330325,-0.1454885,0.514703,-0.0155214999999999,-0.2540085,0.725763,-0.1154265,0.1599014999999999,0.5160830000000001,0.0019455,0.2699215,0.6962630000000001,-0.0848965,-0.2986784999999999,0.946363,-0.1621365,0.2914515,0.900583,-0.1269665,-0.0743565,-0.0009089999999999,0.0013384999999999,0.0743565,0.000909,-0.0013384999999999,-0.0930235,-0.3763769999999999,-0.0017014999999999,0.0928135,-0.372227,0.0025494999999999,-0.1062185,-0.7458969999999999,0.0273965,0.0957215,-0.735177,0.0290975,0
209,-0.0011735,0.712906,0.0342045,-0.1453745,0.5157360000000001,-0.0144094999999999,-0.2538345,0.726566,-0.1142545,0.1602855,0.5166160000000001,0.0026385,0.2699554999999999,0.699076,-0.0841615,-0.2986245,0.951986,-0.1606145,0.2911554999999999,0.9006460000000001,-0.1254645,-0.0742724999999999,-0.0009219999999999,0.0014505,0.0742724999999999,0.000922,-0.0014504999999999,-0.0909955,-0.3776239999999999,0.0059615,0.0914655,-0.373974,0.0092285,-0.1058745,-0.747324,0.0305075,0.0951835,-0.736224,0.0324885,0
