sb224sc-HT22-VT27/4dt907/src/data/labeled_files/B17_kinect_mirrored.csv
FrameNo,nose_3d_x,nose_3d_y,nose_3d_z,left_shoulder_3d_x,left_shoulder_3d_y,left_shoulder_3d_z,left_elbow_3d_x,left_elbow_3d_y,left_elbow_3d_z,right_shoulder_3d_x,right_shoulder_3d_y,right_shoulder_3d_z,right_elbow_3d_x,right_elbow_3d_y,right_elbow_3d_z,left_wrist_3d_x,left_wrist_3d_y,left_wrist_3d_z,right_wrist_3d_x,right_wrist_3d_y,right_wrist_3d_z,left_hip_3d_x,left_hip_3d_y,left_hip_3d_z,right_hip_3d_x,right_hip_3d_y,right_hip_3d_z,left_knee_3d_x,left_knee_3d_y,left_knee_3d_z,right_knee_3d_x,right_knee_3d_y,right_knee_3d_z,left_ankle_3d_x,left_ankle_3d_y,left_ankle_3d_z,right_ankle_3d_x,right_ankle_3d_y,right_ankle_3d_z,activity_label
0,1.001502,0.7638349999999999,0.0498264999999999,0.841459,0.478725,0.0117374999999999,0.774519,0.249105,-0.0336915,1.171309,0.483855,0.0114514999999999,1.214219,0.2296149999999999,-0.0137665,0.897719,0.355815,-0.2438305,1.203559,0.039687,-0.0898705,0.928025,0.0014759999999999,5.9499999999997055e-05,1.071975,-0.0014759999999999,-5.9500000000004e-05,0.902011,-0.3321249999999999,0.0453315,1.103399,-0.325385,0.0335814999999999,0.903957,-0.644185,0.0864484999999999,1.112789,-0.641355,0.0742085,0
1,1.0014865,0.7638805,0.0499229999999999,0.8414305,0.4787504999999999,0.0118099999999999,0.7741605,0.2484705,-0.031981,1.1713005,0.4838305,0.0115169999999999,1.2141205,0.2295405,-0.013786,0.8969005,0.3550804999999999,-0.242447,1.2036205,0.0399125,-0.089707,0.9280105,0.0014805,0.0001009999999999,1.0719895,-0.0014805,-0.000101,0.9020455,-0.3320695,0.0453379999999999,1.1033805,-0.3253595,0.0336519999999999,0.9039995,-0.6442095,0.08645,1.1126505,-0.6411695000000001,0.074261,0
2,1.0014714999999998,0.76386,0.0499344999999999,0.8414025,0.4787,0.0117544999999999,0.7741225,0.24861,-0.0320345,1.1713225,0.48387,0.0115024999999999,1.2141125,0.23009,-0.0135065,0.8969525,0.3551,-0.2425045,1.2034925,0.039635,-0.0897745,0.9280185,0.001475,0.0001104999999999,1.0719815,-0.001475,-0.0001105,0.9019865,-0.33197,0.0452515,1.1033425,-0.32532,0.0336285,0.9040465,-0.64422,0.0865684999999999,1.1126625,-0.64117,0.0742485,0
3,1.0014495,0.763821,0.049989,0.8413925,0.478671,0.011768,0.7741225,0.248671,-0.032031,1.1713325,0.483851,0.011561,1.2140725,0.229991,-0.013439,0.8969425,0.356061,-0.242027,1.2034325,0.039317,-0.089787,0.9280115,0.001488,7.599999999999968e-05,1.0719885,-0.001488,-7.599999999999968e-05,0.9019015,-0.331959,0.045337,1.1033025,-0.3253089999999999,0.033741,0.9041085,-0.643969,0.086517,1.1126625,-0.641139,0.074299,0
4,1.0014925,0.7637915,0.049957,0.8414015,0.4786515,0.011781,0.7743315,0.2482815,-0.0302489999999999,1.1713415,0.4838415,0.011573,1.2140615,0.2299215,-0.013422,0.8962515,0.3553915,-0.240939,1.2037715,0.0406404999999999,-0.089519,0.9280105,0.0014885,6.499999999999562e-05,1.0719895,-0.0014885,-6.500000000000256e-05,0.9018935,-0.3320185,0.045363,1.1032915,-0.3251785,0.033725,0.9040495,-0.6440385000000001,0.08655,1.1126715,-0.6411185,0.074361,0
5,1.0015115,0.7637700000000001,0.0500055,0.8413915000000001,0.47863,0.0117655,0.7743215,0.24828,-0.0303344999999999,1.1713915,0.48382,0.0116204999999999,1.2140415,0.22995,-0.0134244999999999,0.8962815,0.3553699999999999,-0.2410145,1.2037715,0.040605,-0.0895045,0.9280095,0.001492,7.349999999999718e-05,1.0719905,-0.001492,-7.349999999999718e-05,0.9018665,-0.33198,0.0453705,1.1034514999999998,-0.32506,0.0336735,0.9041075,-0.64399,0.0866725,1.1126515,-0.64116,0.0743965,0
6,1.0015395,0.763494,0.0501775,0.8414295,0.478364,0.0118015,0.7743795,0.248134,-0.0301944999999999,1.1714395,0.483524,0.0116455,1.2140795,0.229844,-0.0132474999999999,0.8976795,0.354224,-0.2406015,1.2038395,0.040483,-0.0894015,0.9280365,0.001511,4.849999999999993e-05,1.0719635,-0.0015109999999999,-4.849999999999993e-05,0.9018055,-0.332326,0.0454285,1.1034995,-0.325346,0.0337545,0.9041105,-0.6442060000000001,0.0867265,1.1126695,-0.641386,0.0744895,0
7,1.00153,0.763803,0.0501144999999999,0.8414050000000001,0.478633,0.0116954999999999,0.774325,0.248753,-0.0317735,1.171475,0.483853,0.0117784999999999,1.214025,0.229953,-0.0132775,0.897665,0.355713,-0.2416915,1.203795,0.040613,-0.0893815,0.927993,0.0014889999999999,-2.650000000000569e-05,1.072007,-0.0014889999999999,2.6499999999998747e-05,0.901826,-0.331877,0.0451214999999999,1.103555,-0.325187,0.0337515,0.904324,-0.644277,0.0866194999999999,1.112555,-0.640887,0.0745025,0
8,1.00154,0.763804,0.050147,0.8414,0.478614,0.011654,0.77429,0.248724,-0.031699,1.17151,0.4838639999999999,0.011821,1.21399,0.229964,-0.013205,0.89772,0.355794,-0.2415669999999999,1.2038,0.04065,-0.089307,0.927985,0.00149,-4.300000000000137e-05,1.072015,-0.00149,4.300000000000137e-05,0.901808,-0.331766,0.045048,1.10357,-0.325166,0.033768,0.904405,-0.6443059999999999,0.086673,1.1125299999999998,-0.6408159999999999,0.074545,0
9,1.0015474999999998,0.763811,0.0501815,0.8414025,0.478601,0.0116034999999999,0.7742925,0.248781,-0.0316855,1.1715425,0.483861,0.0118594999999999,1.2139525,0.229971,-0.0131385,0.8978325,0.355931,-0.2414325,1.2038025,0.040669,-0.0892525,0.9279795,0.00149,-6.0500000000004994e-05,1.0720205,-0.00149,6.0499999999998055e-05,0.9017875,-0.331629,0.0449664999999999,1.1035725,-0.325159,0.0337784999999999,0.9044875,-0.644339,0.0867255,1.1125025,-0.640749,0.0745825,0
10,1.0015555,0.7638195,0.0502115,0.8413945,0.4785795,0.0115505,0.7742845,0.2488295,-0.0316635,1.1715745,0.4838495,0.0119135,1.2138945,0.2299495,-0.0130404999999999,0.8979445,0.3560595,-0.2412915,1.2038045,0.0406775,-0.0891815,0.9279745,0.0014885,-7.950000000000318e-05,1.0720255,-0.0014885,7.950000000000318e-05,0.9017625,-0.3315005,0.0448785,1.1035745,-0.3251505,0.0337885,0.9045635,-0.6443705000000001,0.0867604999999999,1.1124745,-0.6406805,0.0746125,0
11,1.0015635,0.7638375000000001,0.050233,0.8413865,0.4785675,0.0114879999999999,0.7742865,0.2488975,-0.031637,1.1716065,0.4838575,0.0119779999999999,1.2138165,0.2299274999999999,-0.0129389999999999,0.8980365,0.3561375,-0.241157,1.2038065,0.0406955,-0.0891169999999999,0.9279685,0.0014935,-9.800000000000086e-05,1.0720315,-0.0014935,9.800000000000086e-05,0.9017315,-0.3313425,0.0447619999999999,1.1035765,-0.3251425,0.033791,0.9046365,-0.6444224999999999,0.0868009999999999,1.1124565,-0.6406025,0.074634,0
12,1.001572,0.763858,0.050254,0.8413889999999999,0.478568,0.011432,0.774239,0.248998,-0.031801,1.171639,0.483848,0.012012,1.213749,0.229908,-0.012823,0.898089,0.356318,-0.241096,1.203789,0.040657,-0.089046,0.927962,0.001499,-0.0001159999999999,1.0720379999999998,-0.001499,0.0001159999999999,0.901702,-0.3311719999999999,0.044644,1.103579,-0.3251719999999999,0.03382,0.904704,-0.644442,0.086833,1.112449,-0.640552,0.074644,0
13,1.001571,0.7638904999999999,0.0502835,0.8413780000000001,0.4785705,0.0113735,0.7741979999999999,0.2491005,-0.0319094999999999,1.171658,0.4838505,0.0120465,1.213668,0.2298805,-0.0126814999999999,0.898118,0.3565605,-0.2410255,1.203748,0.0406195,-0.0889555,0.927958,0.0015035,-0.0001354999999999,1.072042,-0.0015035,0.0001355,0.901664,-0.3309895,0.0445645,1.103568,-0.3251394999999999,0.0338495,0.904738,-0.6444395,0.0868585,1.112438,-0.6404995,0.0746525,0
14,1.0015675,0.7639235,0.0503045,0.8413725000000001,0.4785835,0.0113084999999999,0.7741525000000001,0.2491835,-0.0319384999999999,1.1716725,0.4838935,0.0120685,1.2135925,0.2298535,-0.0125354999999999,0.8981225,0.3567935,-0.2409954999999999,1.2037125,0.0405644999999999,-0.0888755,0.9279505,0.0015035,-0.0001654999999999,1.0720495,-0.0015035,0.0001654999999999,0.9016125,-0.3307965,0.0444935,1.1035625,-0.3250965,0.0338645,0.9047355,-0.6444065,0.0868785,1.1124325,-0.6404664999999999,0.0746225,0
15,1.0015645,0.7639315,0.0503365,0.8413675,0.4785815,0.0112525,0.7741175000000001,0.2492415,-0.0319625,1.1716875,0.4839015,0.0121115,1.2135075,0.2298315,-0.0123734999999999,0.8981175000000001,0.3569915,-0.2409704999999999,1.2036675,0.0404915,-0.0888105,0.9279465,0.0014995,-0.0001844999999999,1.0720535,-0.0014995,0.0001845,0.9015605,-0.3306385,0.0444275,1.1035275,-0.3250685,0.0338845,0.9047335,-0.6443985,0.0869095,1.1124275,-0.6404584999999999,0.0745965,0
16,1.0015649999999998,0.7639315,0.0503595,0.8413660000000001,0.4785615,0.0111964999999999,0.774086,0.2493014999999999,-0.0320205,1.171706,0.4839015,0.0121865,1.213446,0.2298315,-0.0122215,0.898116,0.3571415,-0.2410085,1.203636,0.0404015,-0.0886885,0.927946,0.0014995,-0.0001945,1.072054,-0.0014995,0.0001945,0.901511,-0.3304784999999999,0.0443565,1.103496,-0.3250484999999999,0.0339015,0.904737,-0.6444084999999999,0.0869325,1.112426,-0.6404584999999999,0.0745645,0
17,1.0015535,0.7639315,0.050369,0.8413585,0.4785615,0.0111469999999999,0.7740285,0.2493515,-0.031936,1.1717085,0.4839115,0.0122929999999999,1.2133885,0.2298115,-0.012091,0.8981385,0.3570415,-0.240858,1.2035985,0.0403325,-0.088568,0.9279445,0.0014995,-0.000195,1.0720555,-0.0014995,0.000195,0.9014595,-0.3303985,0.044291,1.1034685,-0.3250185,0.033905,0.9047195,-0.6443585,0.086903,1.1125185,-0.6407085,0.074522,0
18,1.0015355,0.7639185,0.050359,0.8413395000000001,0.4785485,0.011082,0.7739595000000001,0.2493885,-0.031899,1.1717095,0.4839185,0.012388,1.2133295,0.2297885,-0.0119429999999999,0.8981995,0.3569684999999999,-0.240713,1.2035595,0.0402405,-0.088463,0.9279505,0.0014945,-0.0001889999999999,1.0720495,-0.0014945,0.000189,0.9013815,-0.3303115,0.044196,1.1034595,-0.3250115,0.033894,0.9047095,-0.6443115,0.086857,1.1125995,-0.6409915,0.074452,0
19,1.001518,0.7639,0.0503385,0.841333,0.47852,0.0109915,0.773923,0.24942,-0.0319874999999999,1.171713,0.4839,0.0124435,1.213303,0.2297499999999999,-0.0118155,0.898243,0.35694,-0.2407235,1.203533,0.040168,-0.0884035,0.927954,0.001502,-0.0001724999999999,1.072046,-0.001502,0.0001724999999999,0.901307,-0.33023,0.0440995,1.103453,-0.32497,0.0338585,0.904679,-0.6443,0.0867875,1.112703,-0.64137,0.0743585,0
20,1.0014925,0.7638595,0.0502955,0.8413265,0.4784795,0.0108835,0.7738865,0.2494295,-0.0320884999999999,1.1717065,0.4838795,0.0124935,1.2132865,0.2297094999999999,-0.0116944999999999,0.8983465,0.3568995,-0.2407585,1.2035365,0.0401275,-0.0883285,0.9279575,0.0015075,-0.0001624999999999,1.0720425,-0.0015075,0.0001625,0.9012435,-0.3301705,0.0439945,1.1034465,-0.3249405,0.0338085,0.9046505,-0.6442805,0.0866915,1.1128065,-0.6417905,0.0742325,0
21,1.00147,0.763846,0.0502545,0.841313,0.478456,0.0107704999999999,0.7738630000000001,0.249466,-0.0321985,1.171713,0.483876,0.0125555,1.213293,0.2296959999999999,-0.0115994999999999,0.898473,0.356886,-0.2408114999999999,1.2035429999999998,0.040114,-0.0882615,0.927961,0.001506,-0.0001485,1.072039,-0.001506,0.0001484999999999,0.901172,-0.330084,0.0438845,1.103443,-0.324874,0.0337285,0.904623,-0.644244,0.0865875,1.112903,-0.642114,0.0741105,0
22,1.0014489999999998,0.7638035000000001,0.0502165,0.84131,0.4784135,0.0106454999999999,0.77384,0.2494335,-0.0322205,1.1717099999999998,0.4838535,0.0126244999999999,1.21329,0.2296834999999999,-0.0115304999999999,0.89858,0.3567535,-0.2408675,1.20354,0.0400715,-0.0882075,0.927963,0.0015165,-0.0001275,1.072037,-0.0015165,0.0001274999999999,0.901092,-0.3300465,0.0437614999999999,1.10342,-0.3248865,0.0336345,0.904596,-0.6442365,0.0864814999999999,1.11302,-0.6424765,0.0739615,0
23,1.0014215,0.763763,0.050185,0.8412955,0.478363,0.010532,0.7738055,0.249383,-0.0322259999999999,1.1717054999999998,0.4838429999999999,0.012703,1.2132955,0.229683,-0.0114719999999999,0.8986155000000001,0.3566229999999999,-0.2409049999999999,1.2035654999999998,0.0400639999999999,-0.088155,0.9279645,0.0015279999999999,-9.999999999999593e-05,1.0720355,-0.0015279999999999,0.0001,0.9010275,-0.330027,0.043658,1.1034255,-0.324917,0.033549,0.9045685,-0.6442370000000001,0.086383,1.1131255,-0.642807,0.073842,0
24,1.0013845,0.763702,0.0501725,0.8413065,0.478322,0.0104085,0.7738065000000001,0.249352,-0.0322805,1.1716965,0.483832,0.0128045,1.2133165,0.229742,-0.0114005,0.8987165,0.356512,-0.2409455,1.2035865,0.040066,-0.0882855,0.9279665,0.00154,-7.449999999999818e-05,1.0720335,-0.00154,7.449999999999818e-05,0.9009715,-0.3299979999999999,0.0435485,1.1034465,-0.324918,0.0334515,0.9045435,-0.6442380000000001,0.0862775,1.1132165,-0.643108,0.0737195,0
25,1.0013474999999998,0.763641,0.0502364999999999,0.8413165,0.478271,0.0102774999999999,0.7738165,0.249311,-0.0322775,1.1716965,0.483811,0.0128644999999999,1.2133865,0.229771,-0.0112685,0.8987865,0.356231,-0.2410454999999999,1.2037565,0.04052,-0.0884255,0.9279735,0.001554,-6.0499999999998055e-05,1.0720265,-0.0015539999999999,6.0499999999998055e-05,0.9009165,-0.330049,0.0434345,1.1034865,-0.324969,0.0333645,0.9045425,-0.6442789999999999,0.0861514999999999,1.1133065,-0.643389,0.0735895,0
26,1.001283,0.763558,0.0503669999999999,0.841324,0.478198,0.0101389999999999,0.7738240000000001,0.249238,-0.032282,1.171684,0.483738,0.0128779999999999,1.213554,0.229978,-0.011077,0.898784,0.356088,-0.2411479999999999,1.203924,0.040966,-0.088588,0.92798,0.00157,-3.999999999999837e-05,1.07202,-0.00157,3.999999999999837e-05,0.900856,-0.330082,0.0433319999999999,1.103494,-0.325052,0.033278,0.90454,-0.644332,0.086012,1.113354,-0.643692,0.073407,0
27,1.001227,0.763478,0.0505614999999999,0.841338,0.4781379999999999,0.0100234999999999,0.773798,0.249218,-0.0324755,1.171688,0.483678,0.0128984999999999,1.213908,0.230338,-0.0108025,0.898778,0.3560379999999999,-0.2412975,1.204198,0.042085,-0.0888075,0.927989,0.001588,-2.9500000000001747e-05,1.0720109999999998,-0.001588,2.9499999999994808e-05,0.900827,-0.330082,0.0432435,1.103518,-0.325122,0.0332154999999999,0.904526,-0.6443920000000001,0.0858865,1.1134179999999998,-0.643972,0.0732665,0
28,1.0011755,0.763401,0.0507775,0.8413565000000001,0.478101,0.0099355,0.7737665000000001,0.249171,-0.0326944999999999,1.1716765,0.483651,0.0129535,1.2143965,0.230781,-0.0105485,0.8987665,0.355981,-0.2414845,1.2048065,0.0441029999999999,-0.0897145,0.9279955,0.001596,-3.349999999999881e-05,1.0720045,-0.001596,3.349999999999881e-05,0.9008045,-0.330129,0.0432295,1.1035465,-0.325219,0.0331825,0.9045155,-0.644469,0.0857835,1.1134865,-0.644249,0.0731475,0
29,1.0011165,0.7633344999999999,0.0510125,0.8413595,0.4780645,0.0098474999999999,0.7737395,0.2491545,-0.0329454999999999,1.1715895,0.4836645,0.0130365,1.2150595,0.2315645,-0.0103345,0.8986895,0.3559345,-0.2416695,1.2055495,0.0468545,-0.0914395,0.9279975,0.0015945,-4.849999999999993e-05,1.0720025,-0.0015945,4.849999999999993e-05,0.9007765,-0.3301755,0.0432115,1.1035695,-0.3253255,0.0331415,0.9044965,-0.6445255000000001,0.0856845,1.1135495,-0.6443755000000001,0.0730605,0
30,1.0010225,0.7633245,0.051255,0.8412725,0.4780645,0.009695,0.7735525,0.2493145,-0.033626,1.1714025,0.4838445,0.013166,1.2159625,0.2337545,-0.0103889999999999,0.8983625,0.3563445,-0.242294,1.2067125,0.0526405,-0.095594,0.9279955,0.0015945,-0.0001069999999999,1.0720045,-0.0015945,0.000107,0.9007345,-0.3302055,0.043128,1.1035825,-0.3254155,0.033053,0.9044675,-0.6445355,0.085531,1.1136125,-0.6446455000000001,0.072913,0
31,1.0009145,0.7633325,0.051486,0.8410925000000001,0.4780725,0.009484,0.7733525,0.2496525,-0.034646,1.1712125,0.4840825,0.013301,1.2173825,0.2374825,-0.010657,0.8979525000000002,0.3570325,-0.2424199999999999,1.2092825,0.0621834999999999,-0.10257,0.9279895,0.0015845,-0.000202,1.0720105,-0.0015845,0.000202,0.9006955000000001,-0.3301575,0.043009,1.1035825,-0.3254975,0.032934,0.9044315,-0.6445575,0.085318,1.1136825,-0.6449475,0.072735,0
32,1.0008305,0.763322,0.051795,0.8408125,0.4780419999999999,0.009211,0.7731025,0.250252,-0.0360189999999999,1.1710125,0.484382,0.013527,1.2190925,0.242342,-0.0110009999999999,0.8928925,0.3583019999999999,-0.243362,1.2124725,0.073729,-0.112512,0.9279845,0.001549,-0.0003439999999999,1.0720155,-0.001549,0.000344,0.9006505,-0.330138,0.042836,1.1035825,-0.325598,0.032749,0.9043895,-0.6446080000000001,0.085035,1.1137425,-0.645018,0.072481,0
33,1.0007155,0.763331,0.0521224999999999,0.8407405,0.477651,0.0088494999999999,0.7727105000000001,0.251571,-0.0376215,1.1706605,0.484791,0.0137594999999999,1.2212405,0.248641,-0.0114365,0.8876305,0.359821,-0.2453364999999999,1.2164305,0.088595,-0.1261965,0.9279425,0.001497,-0.0005735,1.0720575,-0.001497,0.0005734999999999,0.9005825,-0.330139,0.0425865,1.1035005,-0.3255989999999999,0.0324944999999999,0.9042845,-0.6446590000000001,0.0846735,1.1137705,-0.6452490000000001,0.0721644999999999,0
34,1.0005735,0.763323,0.052444,0.8406505,0.477143,0.008455,0.7713105,0.253073,-0.040267,1.1702505,0.485233,0.014054,1.2236604999999998,0.256723,-0.012052,0.8811205,0.361803,-0.247405,1.2207105,0.107303,-0.140975,0.9278855,0.00148,-0.000819,1.0721145,-0.00148,0.000819,0.9004894999999999,-0.3301469999999999,0.042236,1.1033805,-0.3256369999999999,0.032191,0.9041485,-0.644757,0.084287,1.1137305,-0.645397,0.0717899999999999,0
35,1.0004435,0.763334,0.0528489999999999,0.8405165,0.476564,0.0079699999999999,0.7695765,0.256954,-0.045881,1.1698065,0.485674,0.0143549999999999,1.2266965,0.266334,-0.015219,0.8745565000000001,0.367604,-0.249492,1.2252965,0.127154,-0.156462,0.9278105,0.001454,-0.001074,1.0721895,-0.001454,0.0010739999999999,0.9003645,-0.330146,0.0418859999999999,1.1032365,-0.325686,0.0318769999999999,0.9039745,-0.644896,0.083908,1.1136865,-0.645676,0.07142,0
36,1.000284,0.763327,0.0533405,0.841345,0.475587,0.0073494999999999,0.766795,0.261107,-0.0516385,1.169325,0.486187,0.0147734999999999,1.230485,0.276257,-0.0189015,0.867295,0.374397,-0.2517775,1.230645,0.149457,-0.1735875,0.9277,0.001426,-0.0013295,1.0723,-0.0014259999999999,0.0013294999999999,0.9002360000000001,-0.330013,0.0415094999999999,1.103045,-0.325783,0.0315634999999999,0.903771,-0.645063,0.0835205,1.113615,-0.646073,0.0710275,0
37,1.000095,0.7632675000000001,0.0539965,0.8418140000000001,0.4751275,0.0070135,0.763644,0.2661075,-0.0584685,1.168834,0.4867174999999999,0.0152955,1.234554,0.2866174999999999,-0.0277094999999999,0.857944,0.3831575,-0.2554685,1.235784,0.1731774999999999,-0.1946385,0.92757,0.0013405,-0.0015545,1.07243,-0.0013405,0.0015545,0.9001669999999999,-0.3294525,0.0411035,1.102824,-0.3258025,0.0312735,0.903542,-0.6453125,0.0831175,1.113514,-0.6467824999999999,0.0706135,0
38,0.999923,0.763102,0.0546959999999999,0.842221,0.474652,0.0066569999999999,0.759831,0.274622,-0.066373,1.168411,0.487202,0.0157879999999999,1.242151,0.297192,-0.036816,0.847561,0.394652,-0.260138,1.243281,0.206592,-0.2150079999999999,0.927443,0.001269,-0.001729,1.072557,-0.001269,0.0017289999999999,0.9001030000000001,-0.328938,0.0406669999999999,1.102601,-0.325848,0.0309689999999999,0.903289,-0.645688,0.082683,1.1133909999999998,-0.647678,0.070118,0
39,0.9997565,0.7629155,0.0554935,0.8425725,0.4741155,0.0064014999999999,0.7554925,0.2836455,-0.0748935,1.1680525,0.4875955,0.0160935,1.2498224999999998,0.3068355,-0.0462455,0.8361025,0.4084755,-0.2642434999999999,1.2520225,0.2418654999999999,-0.2332535,0.9273175,0.0011795,-0.0018595,1.0726825,-0.0011794999999999,0.0018595,0.9000255,-0.3285245,0.0403025,1.1023925,-0.3258844999999999,0.0307245,0.9030435,-0.6461345,0.0822975,1.1132225,-0.6485245,0.0696985,0
40,0.999586,0.7627035,0.0564599999999999,0.8428249999999999,0.4735634999999999,0.00621,0.749675,0.2951735,-0.084989,1.167695,0.4878734999999999,0.016454,1.257815,0.3162534999999999,-0.0558889999999999,0.8234049999999999,0.4250934999999999,-0.268239,1.260675,0.2780034999999999,-0.248429,0.927198,0.0010865,-0.0019469999999999,1.072802,-0.0010865,0.001947,0.899956,-0.3281665,0.039929,1.102185,-0.3259865,0.030526,0.90278,-0.6465965,0.0819749999999999,1.113055,-0.6494665,0.069309,0
41,0.9994205,0.7625270000000001,0.0575665,0.8425195,0.473167,0.0061394999999999,0.7429195,0.308837,-0.0961355,1.1674995,0.488037,0.0167545,1.2664795,0.326917,-0.0675545,0.8131995,0.443237,-0.2703255,1.2699195,0.317897,-0.2584855,0.9270835,0.001003,-0.0019705,1.0729165,-0.001003,0.0019705,0.8998715,-0.3279829999999999,0.0396725,1.1019895,-0.326103,0.0303935,0.9025175,-0.647053,0.0816935,1.1128895,-0.650443,0.0690045,0
42,0.9993455,0.7623814999999999,0.0588195,0.8420685,0.4727715,0.0061195,0.7350085,0.3233115,-0.1069344999999999,1.1673785,0.4882115,0.0170145,1.2758285,0.3390815,-0.0792845,0.8015485,0.4629515,-0.2701045,1.2788885,0.3597615,-0.2640945,0.9270055,0.0009174999999999,-0.0019025,1.0729945,-0.0009175,0.0019024999999999,0.8998275,-0.3278184999999999,0.0395014999999999,1.1018585,-0.3261885,0.0303485,0.9023335,-0.6475085,0.0815055,1.1127885,-0.6514385,0.0687465,0
43,0.999311,0.7622275000000001,0.0601555,0.841715,0.4722975,0.0061915,0.726175,0.3403075,-0.1155895,1.167255,0.4884675,0.0171995,1.285855,0.3520475,-0.0919895,0.789385,0.4882775,-0.2698395,1.288405,0.4021075,-0.2678695,0.926935,0.0008315,-0.0017935,1.073065,-0.0008315,0.0017935,0.8998,-0.3277625,0.0393505,1.101745,-0.3263125,0.0302895,0.902147,-0.6480125,0.0813305,1.112675,-0.6525124999999999,0.0684945,0
44,0.999275,0.7618685,0.0613419999999999,0.841579,0.4720085,0.0065399999999999,0.715669,0.3593185,-0.120063,1.167359,0.4891884999999999,0.0170779999999999,1.295789,0.3682284999999999,-0.102683,0.774509,0.5150785,-0.269333,1.298429,0.4516685,-0.269883,0.92689,0.0007404999999999,-0.0015539999999999,1.07311,-0.0007405,0.0015539999999999,0.899761,-0.3280015,0.039119,1.101619,-0.3267315,0.030074,0.90196,-0.6488015,0.081049,1.112569,-0.6538715,0.068119,0
45,0.9992385,0.7612749999999999,0.0624135,0.8414715,0.472325,0.0072105,0.7056715,0.378825,-0.1232475,1.1677315,0.489905,0.0168305,1.3048515,0.390705,-0.1131675,0.7591515,0.5415749999999999,-0.2668075,1.3077015,0.501915,-0.2705174999999999,0.9268775,0.000694,-0.0012534999999999,1.0731225,-0.000694,0.0012535,0.8996515,-0.328675,0.0388775,1.1015015,-0.327455,0.0297895,0.9017755,-0.6498050000000001,0.0807555,1.1124315,-0.6554350000000001,0.0677275,0
46,0.9991895,0.7606015,0.0633325,0.8410615000000001,0.4731115,0.0079875,0.6955614999999999,0.3984615,-0.1257884999999999,1.1681015,0.4908915,0.0165195,1.3131815,0.4140415,-0.1178385,0.7439415,0.5679915,-0.2665485,1.3166015,0.5536815,-0.2711385,0.9268855,0.0006014999999999,-0.0009564999999999,1.0731145,-0.0006014999999999,0.0009565,0.8994845,-0.3298485,0.0386765,1.1013515,-0.3283585,0.0294975,0.9015595,-0.6509185,0.0804835,1.1122615,-0.6569585,0.0673565,0
47,0.999087,0.7597084999999999,0.0642145,0.840037,0.4744485,0.0090675,0.6862269999999999,0.4154185,-0.1258335,1.168287,0.4920385,0.0162595,1.317467,0.4399185,-0.1219535,0.729067,0.5922385,-0.2629835,1.322967,0.5990785,-0.2700335,0.926881,0.0004124999999999,-0.0007034999999999,1.073119,-0.0004125,0.0007034999999999,0.8992519999999999,-0.3312615,0.0384895,1.101147,-0.3295015,0.0292515,0.901289,-0.6522815000000001,0.0802404999999999,1.112027,-0.6585315,0.0670205,0
48,0.9989765,0.7586170000000001,0.064971,0.8375525,0.476377,0.010365,0.6770425,0.434027,-0.126776,1.1682725,0.493467,0.016018,1.3209925,0.466857,-0.122146,0.7148125000000001,0.6154670000000001,-0.256756,1.3276925,0.6417970000000001,-0.263856,0.9268595,0.0002269999999999,-0.000452,1.0731405,-0.0002269999999999,0.000452,0.8989995,-0.332883,0.0383,1.1009725,-0.330863,0.029016,0.9010055,-0.6539229999999999,0.080009,1.1117625,-0.660273,0.066711,0
49,0.9988855,0.7573070000000001,0.0655705,0.8353515000000001,0.478187,0.0114665,0.6701315,0.453517,-0.1267255,1.1680415,0.495317,0.0156955,1.3230115,0.496487,-0.1240355,0.7009615,0.640387,-0.2475655,1.3308415,0.681237,-0.2633155,0.9268175,3.900000000000084e-05,-0.0001924999999999,1.0731825,-3.899999999999911e-05,0.0001925,0.8986785,-0.3348129999999999,0.0382555,1.1007915,-0.332443,0.0287725,0.9007265,-0.655763,0.0798405,1.1114815,-0.662203,0.0664385,0
50,0.998831,0.755741,0.0659464999999999,0.8332120000000001,0.480131,0.0125864999999999,0.664432,0.473771,-0.1266545,1.167782,0.4976409999999999,0.0152634999999999,1.323602,0.5246810000000001,-0.1248045,0.6889719999999999,0.664161,-0.2369245,1.332782,0.720811,-0.2549145,0.926785,-0.000144,7.749999999999771e-05,1.073215,0.000144,-7.750000000000118e-05,0.8983480000000001,-0.337019,0.0382604999999999,1.100582,-0.334209,0.0285724999999999,0.900463,-0.657889,0.0797305,1.111212,-0.664369,0.0662494999999999,0
51,0.9987985,0.7539565,0.066088,0.8312415,0.4822765,0.013746,0.6604515,0.4950165,-0.125458,1.1675315,0.5004265,0.014738,1.3233715,0.5517765,-0.124898,0.6785515000000001,0.6930965,-0.224688,1.3337215,0.7555165,-0.245898,0.9267605,-0.0003414999999999,0.000391,1.0732395,0.0003415,-0.0003909999999999,0.8980865000000001,-0.3393835,0.038313,1.1003515,-0.3361935,0.028383,0.9002075,-0.6602435,0.079676,1.1109415,-0.6668035,0.066074,0
52,0.998861,0.7519315,0.066093,0.8293130000000001,0.4847015,0.014968,0.6589230000000001,0.5142115,-0.120605,1.167233,0.5031915,0.014253,1.323213,0.5774415,-0.124885,0.669853,0.7156615000000001,-0.212235,1.333933,0.7860915,-0.235835,0.926731,-0.0005144999999999,0.000685,1.073269,0.0005145,-0.0006849999999999,0.897933,-0.3419784999999999,0.0384479999999999,1.100193,-0.3383985,0.028291,0.899999,-0.6628185,0.079729,1.110753,-0.6694884999999999,0.066011,0
53,0.9989860000000002,0.749936,0.0662565,0.82802,0.486596,0.0158835,0.65907,0.529666,-0.1134234999999999,1.16691,0.505746,0.0138914999999999,1.32311,0.599486,-0.1247135,0.66376,0.733746,-0.1990235,1.33416,0.809226,-0.2265135,0.926681,-0.000681,0.0008544999999999,1.073319,0.0006809999999999,-0.0008545,0.897831,-0.344514,0.0386414999999999,1.10008,-0.340464,0.0283105,0.89986,-0.665284,0.0799465,1.1106,-0.672054,0.0661124999999999,0
54,0.9991855,0.7479275000000001,0.0664315,0.8272865,0.4885175,0.0167115,0.6593065,0.5454975000000001,-0.1053895,1.1666965,0.5084275,0.0136465,1.3223165,0.6154575,-0.1223295,0.6589765000000001,0.7523975,-0.1850695,1.3345165,0.8317275000000001,-0.2153195,0.9266375,-0.0008174999999999,0.0010385,1.0733625,0.0008174999999999,-0.0010384999999999,0.8977885,-0.3467225,0.0388515,1.1000365,-0.3425425,0.0283405,0.8997805000000001,-0.6677725,0.0801745,1.1105065,-0.6746225,0.0662395,0
55,0.999419,0.7459180000000001,0.0665745,0.826817,0.4900079999999999,0.0175605,0.6595870000000001,0.5613680000000001,-0.0972804999999999,1.166217,0.511028,0.0133265,1.320187,0.631028,-0.1176805,0.6559470000000001,0.770398,-0.1717805,1.334687,0.850348,-0.2045805,0.926628,-0.000917,0.0012174999999999,1.073372,0.000917,-0.0012174999999999,0.8978520000000001,-0.348662,0.0390675,1.100007,-0.344692,0.0283695,0.899769,-0.6702819999999999,0.0804074999999999,1.110427,-0.677242,0.0663955,0
56,0.999666,0.7441264999999999,0.066332,0.826675,0.4909665,0.018302,0.660585,0.5777565,-0.089678,1.165215,0.5136664999999999,0.0131179999999999,1.316695,0.6449364999999999,-0.111728,0.6540250000000001,0.7880564999999999,-0.1586779999999999,1.333805,0.8653965,-0.194498,0.926634,-0.0009325,0.0013809999999999,1.073366,0.0009324999999999,-0.001381,0.897967,-0.3499735,0.039312,1.099985,-0.3466034999999999,0.028453,0.899786,-0.6726835,0.080703,1.110365,-0.6796435000000001,0.066602,0
57,0.99991,0.7422425,0.065993,0.826438,0.4925424999999999,0.019174,0.662458,0.5927725,-0.082144,1.164008,0.5160625000000001,0.012979,1.313068,0.6592925000000001,-0.105064,0.653108,0.8048125,-0.1460639999999999,1.331988,0.8781725,-0.182824,0.926633,-0.0009234999999999,0.00147,1.073367,0.0009235,-0.0014699999999999,0.898122,-0.3512175,0.039606,1.099958,-0.3485775,0.028598,0.899803,-0.6752174999999999,0.081033,1.110298,-0.6821474999999999,0.066825,0
58,1.0002035,0.7405109999999999,0.065456,0.8263285000000001,0.493571,0.020064,0.6652085,0.605121,-0.0742789999999999,1.1628085,0.517951,0.012878,1.3092385,0.670301,-0.0988489999999999,0.6530285,0.8170409999999999,-0.134279,1.3307985,0.890431,-0.171859,0.9265845,-0.0008829999999999,0.001511,1.0734155,0.000883,-0.0015109999999999,0.8983445,-0.352119,0.039939,1.0999385,-0.350259,0.028725,0.8998575,-0.6775789999999999,0.081398,1.1102785,-0.6845190000000001,0.067105,0
59,1.0005395,0.738773,0.064686,0.8263325,0.494193,0.020972,0.6686925,0.6157130000000001,-0.065952,1.1617525,0.519823,0.012834,1.3053725,0.681283,-0.0924359999999999,0.6531925000000001,0.8288730000000001,-0.1220159999999999,1.3298125,0.896713,-0.160766,0.9265295,-0.0009009999999999,0.0015,1.0734705,0.0009009999999999,-0.0015,0.8986505,-0.352867,0.040238,1.0999525,-0.351857,0.028829,0.8999795,-0.679967,0.08173,1.1103225,-0.6868369999999999,0.067365,0
60,1.0009724999999998,0.736858,0.0637865,0.8262005,0.4962879999999999,0.0224445,0.6721105,0.624668,-0.0581314999999999,1.1609005,0.520998,0.0128554999999999,1.3016405,0.6909379999999999,-0.0865924999999999,0.6536905,0.8340879999999999,-0.1101925,1.3292005,0.903958,-0.1498025,0.9264755,-0.00082,0.0013814999999999,1.0735245,0.00082,-0.0013815,0.8990745,-0.353842,0.0405284999999999,1.1000105,-0.353692,0.0289275,0.9001715,-0.682702,0.0820835,1.1104805,-0.689652,0.0676055,0
61,1.001409,0.7348655,0.0627554999999999,0.826202,0.4983155,0.0240955,0.675562,0.6338555,-0.0514755,1.160262,0.5219255,0.0128985,1.298072,0.6996455,-0.0812565,0.654162,0.8429854999999999,-0.0967164999999999,1.329112,0.9161355,-0.1377765,0.926451,-0.0007264999999999,0.0012435,1.073549,0.0007265,-0.0012435,0.899561,-0.3547845,0.0407855,1.100122,-0.3555045,0.0289495,0.90041,-0.6855145,0.0824565,1.110682,-0.6924845000000001,0.0678425,0
62,1.0018505,0.7328669999999999,0.0616184999999999,0.8262255000000001,0.500547,0.0258804999999999,0.6790155,0.642697,-0.0452655,1.1597255,0.522687,0.0129864999999999,1.2946455,0.7074969999999999,-0.0762755,0.6545755,0.851097,-0.0849255,1.3296255,0.927717,-0.1268455,0.9264335,-0.0006339999999999,0.0011104999999999,1.0735665,0.000634,-0.0011105,0.9000455,-0.355573,0.0410805,1.1002155,-0.3573229999999999,0.0289674999999999,0.9006365000000001,-0.688273,0.0828605,1.1109055,-0.695353,0.0680915,0
63,1.002296,0.73095,0.060335,0.826224,0.5024799999999999,0.027669,0.6823440000000001,0.6506,-0.039569,1.159384,0.52296,0.013098,1.291444,0.7146399999999999,-0.0718419999999999,0.654884,0.85786,-0.0748619999999999,1.330174,0.93599,-0.1180819999999999,0.926434,-0.000532,0.000943,1.0735659999999998,0.0005319999999999,-0.0009429999999999,0.900478,-0.35664,0.041379,1.100324,-0.3591,0.028979,0.900875,-0.69096,0.083261,1.111144,-0.6982900000000001,0.068292,0
64,1.0027095,0.7292765,0.0590385,0.8261145,0.5048565,0.0294265,0.6855845,0.6581965000000001,-0.0345554999999999,1.1590745,0.5234565,0.0131785,1.2883345,0.7210565,-0.0678574999999999,0.6550644999999999,0.8639565,-0.0657224999999999,1.3306945,0.9444365,-0.1090265,0.9264405,-0.0004305,0.0008044999999999,1.0735595,0.0004305,-0.0008044999999999,0.9007495,-0.3576135,0.0416655,1.1003845,-0.3605135,0.0289465,0.9010975,-0.6933235,0.0836085,1.1113445,-0.7009135,0.0684615,0
65,1.003157,0.7275455000000001,0.057922,0.826037,0.5075755000000001,0.031338,0.688747,0.6649155,-0.030064,1.158897,0.5238155,0.013335,1.285707,0.7261455,-0.064543,0.655457,0.8697155000000001,-0.0574429999999999,1.331207,0.9524255,-0.100171,0.92647,-0.0003034999999999,0.000703,1.07353,0.0003035,-0.000703,0.900997,-0.3588945,0.041967,1.100437,-0.3621145,0.028929,0.901302,-0.6957544999999999,0.083941,1.111537,-0.7036245,0.068658,0
66,1.0035935,0.7259599999999999,0.056826,0.8258665000000001,0.50951,0.0332229999999999,0.6916565,0.67081,-0.026201,1.1587865,0.5241899999999999,0.0135209999999999,1.2833265,0.72934,-0.061518,0.6557765,0.87464,-0.050525,1.3322665,0.96047,-0.09386,0.9265105,-0.000181,0.0005989999999999,1.0734895,0.000181,-0.000599,0.9011955,-0.36013,0.042267,1.1004465,-0.3635899999999999,0.0288859999999999,0.9014835,-0.69801,0.084294,1.1117265,-0.7060700000000001,0.0688709999999999,0
67,1.004002,0.7243135,0.0558615,0.8257369999999999,0.5114935,0.0351125,0.6942969999999999,0.6759835,-0.0226324999999999,1.158717,0.5245235,0.0137895,1.281327,0.7317335,-0.0587444999999999,0.655937,0.8794335,-0.0440585,1.333617,0.9674835,-0.0875814999999999,0.926565,-8.450000000000124e-05,0.0005125,1.073435,8.450000000000124e-05,-0.0005124999999999,0.901346,-0.3615365,0.0425495,1.100427,-0.3651565,0.0288755,0.901636,-0.7002865,0.0846505,1.111867,-0.7085565,0.0690795,0
68,1.004406,0.7229145,0.054999,0.825583,0.5137945,0.03691,0.696743,0.6799745,-0.0195699999999999,1.158723,0.5245645,0.014046,1.279663,0.7334445,-0.056417,0.655933,0.8840845,-0.0382989999999999,1.335313,0.9746645,-0.082799,0.926621,6.350000000000106e-05,0.0004289999999999,1.073379,-6.350000000000106e-05,-0.0004289999999999,0.901497,-0.3627455,0.042799,1.100413,-0.3665355,0.028837,0.901777,-0.7023155,0.084988,1.111983,-0.7107355,0.069271,0
69,1.004786,0.721864,0.0541114999999999,0.825704,0.514704,0.0381375,0.699074,0.683324,-0.0169065,1.158764,0.524654,0.0142944999999999,1.278364,0.734754,-0.0545234999999999,0.655794,0.888914,-0.0333685,1.337834,0.980344,-0.0783095,0.926672,0.000153,0.0003965,1.073328,-0.000153,-0.0003965,0.901605,-0.363476,0.0430025,1.100324,-0.367386,0.0287685,0.901863,-0.703866,0.0852975,1.112064,-0.712426,0.0694505,0
70,1.00512,0.7209145,0.0533175,0.825763,0.5152845,0.0390745,0.701033,0.6857145,-0.0146654999999999,1.158803,0.5247045,0.0145325,1.277423,0.7356245,-0.0529905,0.655583,0.8901645,-0.0305945,1.339383,0.9799745,-0.0757515,0.926701,0.0002565,0.0003584999999999,1.073299,-0.0002564999999999,-0.0003584999999999,0.901664,-0.3641555,0.0431915,1.100193,-0.3682155,0.0287445,0.90187,-0.7052255000000001,0.0855825,1.112083,-0.7138955,0.0696785,0
71,1.0054375,0.7201415,0.0526345,0.8258175,0.5157115000000001,0.0398354999999999,0.7027675,0.6878715,-0.0127325,1.1588375,0.5247615000000001,0.0147405,1.2767775,0.7360815,-0.0518034999999999,0.6553675,0.8914314999999999,-0.0279675,1.3406375,0.9792415,-0.0733935,0.9267255,0.0003744999999999,0.0002925,1.0732745,-0.0003744999999999,-0.0002925,0.9017135,-0.3647885,0.0433685,1.1000575,-0.3688785,0.0287305,0.9018815,-0.7063584999999999,0.0858315,1.1121075,-0.7151185,0.0698785,0
72,1.00576,0.7194925000000001,0.0520825,0.825863,0.5163225,0.0405405,0.7042930000000001,0.6897425,-0.0111744999999999,1.158863,0.5250225000000001,0.0149755,1.276343,0.7364825,-0.0507984999999999,0.655313,0.8926925,-0.0255994999999999,1.341373,0.9783525,-0.0713965,0.926743,0.0004885,0.0002375,1.073257,-0.0004885,-0.0002374999999999,0.901734,-0.3652575,0.0434965,1.099903,-0.3691275,0.0286735,0.901897,-0.7072474999999999,0.0860485,1.1121629999999998,-0.7161075,0.0700135,0
73,1.0060349999999998,0.7186395,0.05159,0.8259110000000001,0.5168495,0.041193,0.705561,0.6908595,-0.0099529999999999,1.158931,0.5247995,0.015286,1.276131,0.7365995,-0.050014,0.6553910000000001,0.8932995,-0.023681,1.341511,0.9771995,-0.069999,0.926777,0.0006054999999999,0.000183,1.073223,-0.0006054999999999,-0.000183,0.901721,-0.3659004999999999,0.043632,1.099631,-0.3688605,0.028522,0.901907,-0.7083005,0.086264,1.112161,-0.7172105,0.07017,0
74,1.0062535,0.717969,0.0511595,0.8259365,0.517249,0.0416465,0.7066265,0.691519,-0.0090335,1.1590265,0.524549,0.0155465,1.2759865,0.736619,-0.0493705,0.6554365,0.893699,-0.0220915,1.3415465,0.976299,-0.0688345,0.9268035,0.000694,0.0001314999999999,1.0731965,-0.000694,-0.0001314999999999,0.9017105,-0.366331,0.0437155,1.0993465,-0.368241,0.0282425,0.9019035,-0.709081,0.0864265,1.1121565,-0.718091,0.0702945,0
75,1.006443,0.717397,0.050782,0.825968,0.5176769999999999,0.04197,0.707598,0.691947,-0.0083729999999999,1.159108,0.5242669999999999,0.015802,1.275748,0.736517,-0.04882,0.655458,0.8938069999999999,-0.020997,1.341568,0.975537,-0.067728,0.926825,0.000768,8.89999999999988e-05,1.073175,-0.000768,-8.89999999999988e-05,0.901704,-0.366633,0.043768,1.099088,-0.367563,0.027991,0.901905,-0.709743,0.086541,1.112168,-0.718503,0.070459,0
76,1.0066179999999998,0.717015,0.0504195,0.8260000000000001,0.518265,0.0422305,0.7084600000000001,0.692245,-0.0080454999999999,1.15906,0.524185,0.0160405,1.27544,0.736525,-0.0483254999999999,0.65559,0.893805,-0.0202655,1.34158,0.974975,-0.0669995,0.92685,0.0008449999999999,5.150000000000293e-05,1.0731499999999998,-0.0008449999999999,-5.1499999999995993e-05,0.901694,-0.3667849999999999,0.0438165,1.0988699999999998,-0.366805,0.0277565,0.901922,-0.710215,0.0866385,1.11221,-0.7188249999999999,0.0706255,0
77,1.0067805,0.716587,0.0501205,0.8260335,0.518687,0.0424675,0.7091935,0.6922769999999999,-0.0078705,1.1591735,0.5239769999999999,0.0162765,1.2751235,0.7363369999999999,-0.0479435,0.6560935,0.8933869999999999,-0.0199325,1.3411535,0.974067,-0.0663864999999999,0.9268725,0.0009269999999999,1.4500000000000624e-05,1.0731275,-0.0009269999999999,-1.4500000000000624e-05,0.9016845,-0.3670029999999999,0.0438435,1.0986535,-0.366193,0.0275335,0.9019445,-0.710713,0.0867405,1.1122035,-0.719033,0.0708345,0
78,1.0068925,0.7162109999999999,0.0500085,0.8260755,0.5187809999999999,0.0425835,0.7097755,0.692071,-0.0078125,1.1592355,0.5237809999999999,0.0164745,1.2748155,0.736081,-0.0475865,0.6570255,0.892801,-0.0198874999999999,1.3403355,0.973081,-0.0658975,0.9268945,0.000978,-5.499999999998562e-06,1.0731054999999998,-0.0009779999999999,5.5000000000055005e-06,0.9016735,-0.367279,0.0438415,1.0984655,-0.365689,0.0273165,0.9019165,-0.711199,0.0868225,1.1122055,-0.719279,0.0710205,0
79,1.0069875,0.715994,0.0499494999999999,0.8261155,0.518964,0.0427154999999999,0.7103254999999999,0.691894,-0.0077405,1.1592355,0.5236540000000001,0.0166405,1.2744855,0.7360340000000001,-0.0472085,0.6582255,0.892374,-0.0198385,1.3391755,0.972054,-0.0655445,0.9269075,0.0009829999999999,-1.4500000000000624e-05,1.0730925,-0.0009829999999999,1.4500000000000624e-05,0.9016605,-0.367446,0.0438314999999999,1.0983135,-0.365046,0.0271065,0.9018855,-0.711536,0.0869115,1.1122055,-0.719536,0.0712245,0
80,1.0070519999999998,0.7157749999999999,0.0499494999999999,0.826155,0.519185,0.0428505,0.710825,0.6916749999999999,-0.0076685,1.159235,0.523705,0.0168114999999999,1.274135,0.7360749999999999,-0.0469135,0.659795,0.8919549999999999,-0.0198055,1.337695,0.971135,-0.0652645,0.926921,0.000986,-2.1500000000000685e-05,1.073079,-0.000986,2.1500000000000685e-05,0.901668,-0.367625,0.0438275,1.098179,-0.364415,0.0268964999999999,0.901875,-0.7118450000000001,0.0869965,1.112225,-0.719955,0.0714085,0
81,1.0070675,0.7155549999999999,0.0500455,0.8261995,0.5194449999999999,0.0429915,0.7113195,0.691485,-0.0076734999999999,1.1592295,0.523635,0.0170125,1.2737795,0.736115,-0.0466515,0.6616595000000001,0.891085,-0.0200754999999999,1.3359695,0.969995,-0.0650085,0.9269375,0.0009829999999999,-1.2499999999998623e-05,1.0730625,-0.0009829999999999,1.2500000000005562e-05,0.9016825,-0.3678749999999999,0.0438495,1.0980835,-0.3639949999999999,0.0267295,0.9018525,-0.7121850000000001,0.0870925,1.1122795,-0.720395,0.0715815,0
82,1.007075,0.7154725,0.0501545,0.826248,0.5195124999999999,0.0431365,0.711748,0.6914625,-0.0077724999999999,1.159238,0.5237324999999999,0.0172075,1.273448,0.7362825,-0.0463844999999999,0.663478,0.8902925,-0.0205715,1.334458,0.9694925,-0.0647785,0.926943,0.0009814999999999,-5.499999999998562e-06,1.073057,-0.0009814999999999,5.5000000000055005e-06,0.901701,-0.3680275,0.0438815,1.098037,-0.3641475,0.0267035,0.901834,-0.7123975,0.0871715,1.112358,-0.7206975,0.0717484999999999,0
83,1.0070725,0.7153619999999999,0.0502735,0.8262845,0.5195919999999999,0.0432884999999999,0.7121345,0.691712,-0.0080455,1.1591945,0.5237419999999999,0.0174034999999999,1.2731545,0.736382,-0.0461505,0.6651445,0.889392,-0.0211805,1.3330945,0.968842,-0.0645975,0.9269495,0.000976,-4.5000000000045e-06,1.0730505,-0.000976,4.4999999999975615e-06,0.9017155,-0.3682479999999999,0.0439255,1.0980225,-0.364398,0.0267805,0.9017855,-0.7126180000000001,0.0872465,1.1124445,-0.720858,0.0719635,0
84,1.0070705,0.715329,0.05042,0.8263214999999999,0.519729,0.043494,0.7124715000000001,0.692129,-0.008368,1.1591215,0.523779,0.01762,1.2729515,0.736509,-0.045971,0.6666315,0.8885689999999999,-0.021858,1.3320415,0.968449,-0.064433,0.9269575,0.0009819999999999,-8.000000000001062e-06,1.0730425,-0.0009819999999999,8.000000000001062e-06,0.9017275,-0.368441,0.043979,1.0980185,-0.364511,0.02686,0.9017375,-0.712781,0.087344,1.1125515,-0.721171,0.072089,0
85,1.007083,0.715279,0.050601,0.826361,0.5198689999999999,0.043698,0.712781,0.6925790000000001,-0.00873,1.159041,0.523809,0.017837,1.272801,0.7365090000000001,-0.0457889999999999,0.667991,0.8877489999999999,-0.0226429999999999,1.331171,0.967939,-0.064274,0.926967,0.0009819999999999,-1.7999999999997185e-05,1.073033,-0.000982,1.7999999999997185e-05,0.901753,-0.368661,0.044044,1.097994,-0.364571,0.026809,0.901704,-0.712971,0.0874429999999999,1.112661,-0.7217709999999999,0.072182,0
86,1.0070995,0.7152354999999999,0.0508135,0.8263825000000001,0.5200155,0.0439165,0.7130525000000001,0.6931054999999999,-0.0091115,1.1589625,0.5239155,0.0180774999999999,1.2726725,0.7364355,-0.0455985,0.6691225000000001,0.8870955,-0.0233605,1.3306025,0.9676555,-0.0640435,0.9269735,0.0009745,-2.4500000000003685e-05,1.0730265,-0.0009745,2.4499999999996747e-05,0.9017645,-0.3688545,0.0441014999999999,1.0980145,-0.3647245,0.0267724999999999,0.9016675,-0.7131345,0.0875615,1.1127125,-0.7221145,0.0722945,0
87,1.007116,0.71512,0.0510285,0.8263920000000001,0.52025,0.0441075,0.713232,0.69365,-0.0094515,1.158912,0.52399,0.0182904999999999,1.272532,0.7361800000000001,-0.0453865,0.6699820000000001,0.88658,-0.0239685,1.330242,0.96727,-0.0639105,0.926979,0.000982,-4.049999999999887e-05,1.073021,-0.0009819999999999,4.049999999999887e-05,0.901781,-0.36905,0.0441295,1.098043,-0.36482,0.0267015,0.901645,-0.71339,0.0876825,1.112722,-0.72247,0.0724144999999999,0
88,1.007124,0.715041,0.0512475,0.826422,0.520591,0.0442815,0.713352,0.694231,-0.0097275,1.158852,0.524111,0.0185054999999999,1.272392,0.735951,-0.0451825,0.670722,0.886131,-0.0245445,1.329982,0.966921,-0.0638115,0.926985,0.000998,-6.450000000000206e-05,1.073015,-0.0009979999999999,6.449999999999512e-05,0.901799,-0.369239,0.0441354999999999,1.098059,-0.365019,0.0266324999999999,0.9016,-0.7136089999999999,0.0877725,1.112772,-0.723039,0.0724974999999999,0
89,1.007131,0.714926,0.051437,0.826462,0.520916,0.044424,0.713442,0.694796,-0.010016,1.158812,0.524186,0.018697,1.272262,0.735686,-0.045018,0.6713020000000001,0.885796,-0.025065,1.329992,0.966756,-0.063756,0.926994,0.0010149999999999,-5.8000000000002494e-05,1.073006,-0.001015,5.8000000000002494e-05,0.901809,-0.369414,0.0440669999999999,1.098086,-0.365354,0.026552,0.901566,-0.713874,0.087816,1.112782,-0.723324,0.072541,0
90,1.0071365,0.7147975,0.0515295,0.8264905,0.5211975,0.0445345,0.7134805,0.6953174999999999,-0.0102944999999999,1.1587805,0.5243275,0.0188034999999999,1.2721705,0.7354474999999999,-0.0448635,0.6716605,0.8855175,-0.0254265,1.3300005,0.9665175,-0.0636905,0.9270015,0.0010224999999999,-5.8500000000002994e-05,1.0729985,-0.0010224999999999,5.8499999999996055e-05,0.9018165,-0.3695825,0.0439625,1.0981025,-0.3656625,0.0264205,0.9015745,-0.7141125,0.0878105,1.1127905,-0.7235625,0.0725315,0
91,1.0071614999999998,0.7147104999999999,0.0516279999999999,0.8265315,0.5210404999999999,0.0445189999999999,0.7135415,0.6958805,-0.010478,1.1588014999999998,0.5241405,0.0188979999999999,1.2721015,0.7352004999999999,-0.044709,0.6719515,0.8853205,-0.025648,1.3300215,0.9664205,-0.063594,0.9270115,0.0010335,-5.900000000000349e-05,1.0729885,-0.0010335,5.899999999999656e-05,0.9018335,-0.3697395,0.0438719999999999,1.0981455,-0.3659095,0.0262869999999999,0.9015945,-0.7143495000000001,0.087791,1.1127715,-0.7237595,0.072495,0
92,1.007195,0.7147330000000001,0.051694,0.826613,0.520953,0.044516,0.713633,0.696243,-0.010515,1.158843,0.5240530000000001,0.0189939999999999,1.272083,0.734963,-0.044566,0.672213,0.8852329999999999,-0.025804,1.330143,0.966533,-0.06345,0.927022,0.001057,-5.900000000000349e-05,1.072978,-0.001057,5.899999999999656e-05,0.901864,-0.369827,0.043822,1.098166,-0.366097,0.0261369999999999,0.901625,-0.714477,0.087763,1.112793,-0.723967,0.072382,0
93,1.0072555,0.714705,0.0517065,0.8267215,0.520955,0.0445695,0.7137315,0.696465,-0.0105504999999999,1.1589015,0.523935,0.0190435,1.2721015,0.734635,-0.0444684999999999,0.6724415,0.885155,-0.0259345,1.3305715,0.966515,-0.0635385,0.9270335,0.0010679999999999,-4.349999999999493e-05,1.0729665,-0.0010679999999999,4.350000000000187e-05,0.9019145,-0.369945,0.0437875,1.0982135,-0.366425,0.0259255,0.9016535,-0.714745,0.0876955,1.1127515,-0.724095,0.0722595,0
94,1.007364,0.7146835,0.0515889999999999,0.827045,0.5210235,0.0445249999999999,0.7138249999999999,0.6966535,-0.010711,1.159025,0.5238235,0.0189589999999999,1.272185,0.7342835,-0.044506,0.672675,0.8852035,-0.026142,1.331135,0.9666935,-0.063723,0.92704,0.0010784999999999,-3.400000000000625e-05,1.07296,-0.0010785,3.399999999999931e-05,0.901996,-0.3700665,0.043628,1.098283,-0.3668165,0.0256599999999999,0.901726,-0.7151265,0.087536,1.112725,-0.7242765,0.072005,0
95,1.007528,0.714629,0.0513625,0.827393,0.5211190000000001,0.0443735,0.713963,0.696809,-0.0109684999999999,1.159213,0.523779,0.0187685,1.272313,0.733959,-0.0447334999999999,0.672903,0.8851990000000001,-0.0264364999999999,1.331813,0.966959,-0.0640335,0.92704,0.001076,-4.949999999999399e-05,1.07296,-0.0010759999999999,4.950000000000093e-05,0.902052,-0.370241,0.0432725,1.09838,-0.3675009999999999,0.0253045,0.901857,-0.715651,0.0872255,1.112753,-0.724391,0.0715855,0
96,1.007761,0.714612,0.0509695,0.827827,0.521242,0.0440875,0.714137,0.697122,-0.0113375,1.159457,0.5237019999999999,0.0184145,1.272487,0.7336320000000001,-0.0451515,0.6731670000000001,0.885222,-0.0268935,1.332677,0.9672619999999998,-0.0645275,0.927051,0.0010869999999999,-5.7499999999995055e-05,1.072949,-0.001087,5.7500000000002e-05,0.901993,-0.370868,0.0427635,1.098318,-0.369168,0.0247235,0.902016,-0.7163679999999999,0.0864235,1.112837,-0.724488,0.0709995,0
97,1.008036,0.714523,0.050358,0.828277,0.521323,0.043593,0.7143470000000001,0.6974830000000001,-0.0118609999999999,1.159717,0.5236430000000001,0.017819,1.272687,0.733473,-0.0457889999999999,0.6734370000000001,0.8852329999999999,-0.0275889999999999,1.333657,0.967473,-0.065262,0.927062,0.0010889999999999,-2.4999999999997247e-05,1.072938,-0.001089,2.5000000000004186e-05,0.901865,-0.371637,0.042068,1.098279,-0.371537,0.023753,0.902194,-0.7171970000000001,0.085273,1.112937,-0.724577,0.070106,0
98,1.0083915,0.714523,0.0494764999999999,0.8288025,0.521393,0.0428934999999999,0.7146025,0.6979230000000001,-0.0126065,1.1599925,0.523603,0.0169614999999999,1.2729825,0.733363,-0.0467005,0.6737725,0.885273,-0.0285575,1.3346625,0.967773,-0.0663575,0.9270745,0.0010889999999999,-5.5000000000055005e-06,1.0729255,-0.001089,5.499999999998562e-06,0.9015905,-0.372587,0.0410544999999999,1.0982365,-0.374147,0.0221824999999999,0.9024235,-0.7180169999999999,0.0837725,1.1130925,-0.724777,0.0688715,0
99,1.0088045,0.714513,0.048343,0.8293735,0.521223,0.041955,0.7149135,0.6983630000000001,-0.0136229999999999,1.1603035,0.523433,0.015847,1.2733635,0.7332829999999999,-0.047932,0.6741435,0.885313,-0.029808,1.3357535,0.968173,-0.06779,0.9270815,0.0010889999999999,4.000000000004e-06,1.0729185,-0.001089,-3.9999999999970615e-06,0.9012725,-0.373617,0.039534,1.0982815,-0.377017,0.019821,0.9026785000000002,-0.7189369999999999,0.081623,1.1132835,-0.7248969999999999,0.067251,0
100,1.0092629999999998,0.714515,0.0468565,0.829993,0.5209550000000001,0.0406795,0.715273,0.698405,-0.0150425,1.160643,0.523265,0.0144405,1.273693,0.733255,-0.0495935,0.674563,0.885335,-0.0314415,1.336883,0.968515,-0.0695805,0.92708,0.001105,8.500000000001562e-06,1.07292,-0.0011049999999999,-8.499999999998092e-06,0.900819,-0.374745,0.0372785,1.098518,-0.379895,0.0166715,0.902964,-0.719885,0.0790265,1.113493,-0.725015,0.0652145,0
101,1.0097275,0.714453,0.0449925,0.8306515000000001,0.520593,0.0389915,0.7156115000000001,0.698483,-0.0169865,1.1609715,0.523003,0.0126675,1.2740215,0.733283,-0.0516704999999999,0.6749815,0.885423,-0.0335745,1.3377615,0.968713,-0.0719085,0.9270645,0.001083,4.049999999999887e-05,1.0729355,-0.001083,-4.049999999999887e-05,0.9002315,-0.376067,0.0343085,1.0987945,-0.382847,0.0127835,0.9032625,-0.7208070000000001,0.0758885,1.1137715,-0.725477,0.0625385,0
102,1.0101525,0.7143815,0.042869,0.8313985,0.5203415,0.03705,0.7160085,0.6986915,-0.019292,1.1612785,0.5228014999999999,0.010622,1.2743785,0.7332015000000001,-0.054041,0.6754385,0.8857115,-0.036094,1.3384485,0.9690115,-0.074554,0.9270155,0.0010595,8.599999999999927e-05,1.0729845,-0.0010595,-8.600000000000274e-05,0.8995085,-0.3772685,0.030739,1.0990745,-0.3856585,0.0082019999999999,0.9036075,-0.7214385000000001,0.072348,1.1140884999999998,-0.7257685,0.059428,0
103,1.010581,0.7143134999999999,0.040342,0.832021,0.5203234999999999,0.034748,0.7164010000000001,0.6992535,-0.0220479999999999,1.161611,0.5231135,0.008308,1.274741,0.7329835,-0.056843,0.675961,0.8863035,-0.039206,1.339051,0.9696535,-0.077669,0.926941,0.0010425,9.299999999999932e-05,1.073059,-0.0010425,-9.299999999999932e-05,0.898581,-0.3783465,0.026288,1.099373,-0.3883265,0.002745,0.903966,-0.7219665000000001,0.068046,1.114431,-0.7258365,0.05568,0
104,1.010968,0.7139449999999999,0.037562,0.8326090000000002,0.5202249999999999,0.032194,0.7167490000000001,0.699765,-0.0251729999999999,1.161859,0.523555,0.005901,1.275069,0.732715,-0.059975,0.676499,0.887005,-0.0428169999999999,1.339489,0.970425,-0.080951,0.926791,0.0010119999999999,0.0001139999999999,1.073209,-0.0010119999999999,-0.0001139999999999,0.8974890000000001,-0.378985,0.021227,1.099607,-0.390505,-0.0032769999999999,0.904289,-0.722315,0.063164,1.114729,-0.726025,0.051406,0
105,1.011342,0.7133825,0.034713,0.833242,0.5199425,0.029331,0.717052,0.6999725,-0.0285519999999999,1.162002,0.5237725,0.003385,1.275352,0.7323225,-0.063386,0.677102,0.8879725,-0.0467949999999999,1.339842,0.9709825,-0.084365,0.926589,0.0009345,0.000136,1.073411,-0.0009345,-0.000136,0.896502,-0.3788375,0.015582,1.099886,-0.3913675,-0.0097919999999999,0.904601,-0.7222775,0.058064,1.115062,-0.7258475,0.046752,0
106,1.011746,0.712408,0.031764,0.833879,0.519818,0.0262109999999999,0.717379,0.699768,-0.032191,1.161839,0.523768,0.0007709999999999,1.275639,0.731728,-0.067054,0.677729,0.889008,-0.051184,1.340209,0.971568,-0.088396,0.926379,0.0008879999999999,4.200000000000037e-05,1.073621,-0.0008879999999999,-4.200000000000037e-05,0.895589,-0.378222,0.00916,1.1002919999999998,-0.391402,-0.0167529999999999,0.904825,-0.721772,0.052707,1.115419,-0.725292,0.041788,0
107,1.0121115,0.7115525,0.028579,0.8348285,0.5188925,0.022661,0.7176785,0.6999124999999999,-0.036294,1.1616385,0.5242125,-0.0018989999999999,1.2757885,0.7313925,-0.071164,0.6782885000000001,0.8909225,-0.05611,1.3405285,0.9725225,-0.092897,0.9261375,0.0008225,4.200000000000037e-05,1.0738625,-0.0008225,-4.199999999999864e-05,0.8946785,-0.3763975,0.001994,1.1007885,-0.3902975,-0.024167,0.9050305,-0.7202875,0.046926,1.1157585,-0.7238575,0.036286,0
108,1.012456,0.710596,0.0253795,0.8358840000000001,0.518056,0.0188065,0.718024,0.699696,-0.0407205,1.161434,0.5247459999999999,-0.0045375,1.275834,0.730136,-0.0752175,0.6790440000000001,0.890836,-0.0615665,1.340454,0.972376,-0.0976005,0.925873,0.000852,-5.24999999999996e-05,1.074127,-0.0008519999999999,5.250000000000046e-05,0.893554,-0.373904,-0.0057005,1.101637,-0.388364,-0.0317145,0.905281,-0.717954,0.0411185,1.116104,-0.721894,0.0304014999999999,0
109,1.012829,0.709238,0.021772,0.837083,0.518658,0.014329,0.718423,0.699278,-0.045891,1.160993,0.523068,-0.007489,1.275483,0.7281179999999999,-0.079559,0.679963,0.891088,-0.06802,1.340223,0.968658,-0.103166,0.925518,0.000903,1.9999999999999944e-06,1.074482,-0.000903,-1.9999999999999944e-06,0.8920230000000001,-0.370652,-0.014791,1.102931,-0.385302,-0.0407,0.905531,-0.7145320000000001,0.03431,1.116473,-0.7190420000000001,0.023242,0
110,1.0131805,0.7084655000000001,0.0180265,0.8382465,0.5167955000000001,0.0097495,0.7188665000000001,0.6990255000000001,-0.0515145,1.1606065,0.5221855000000001,-0.0105055,1.2750165,0.7267455,-0.0840855,0.6811065000000001,0.8921255,-0.0746895,1.3399465,0.9663655,-0.1089505,0.9251595,0.0010164999999999,-0.0001305,1.0748405,-0.0010165,0.0001304999999999,0.8903265,-0.3665945,-0.0246284999999999,1.1043765,-0.3805345,-0.0501105,0.9057905,-0.7094845,0.0270325,1.1168965,-0.7142545,0.0159235,1
111,1.0134855,0.707156,0.0142639999999999,0.8393705,0.5155959999999999,0.00517,0.7193305,0.698526,-0.057175,1.1603005,0.520806,-0.013437,1.2745005,0.725656,-0.088706,0.6824605,0.8933059999999999,-0.081521,1.3396205,0.964646,-0.114406,0.9248005,0.001081,-0.000252,1.0751995,-0.0010809999999999,0.0002519999999999,0.8886805000000001,-0.361834,-0.034765,1.1058804999999998,-0.3751639999999999,-0.060051,0.9061225,-0.703574,0.019586,1.1173704999999998,-0.708514,0.0082929999999999,1
112,1.0137779999999998,0.706284,0.01054,0.840591,0.513704,0.0005679999999999,0.720031,0.698314,-0.0627139999999999,1.159941,0.5195040000000001,-0.016319,1.274041,0.725014,-0.093136,0.684121,0.893814,-0.088352,1.339321,0.963714,-0.119614,0.924408,0.0012069999999999,-0.0003249999999999,1.075592,-0.0012069999999999,0.0003249999999999,0.887041,-0.3566459999999999,-0.045045,1.107451,-0.368816,-0.070099,0.906625,-0.696456,0.0121999999999999,1.1179709999999998,-0.7017059999999999,0.0005859999999999,1
113,1.0139495,0.704561,0.0071855,0.8418305,0.5120410000000001,-0.0041635,0.7208305000000002,0.697361,-0.0681555,1.1595505,0.518951,-0.0192565,1.2734905,0.723781,-0.0974815,0.6857905,0.894181,-0.0949494999999999,1.3388405,0.962471,-0.1246125,0.9240585,0.001302,-0.0004315,1.0759415,-0.001302,0.0004315,0.8852105,-0.351809,-0.0556645,1.1090305,-0.362569,-0.0803385,0.9071115,-0.689039,0.0050114999999999,1.1185005,-0.6941689999999999,-0.0068275,1
114,1.014193,0.702607,0.003627,0.8431620000000001,0.5106269999999999,-0.0088449999999999,0.7217819999999999,0.6967869999999999,-0.073662,1.1593319999999998,0.5171669999999999,-0.0222539999999999,1.272862,0.7230869999999999,-0.101986,0.6875720000000001,0.894277,-0.101884,1.338182,0.961797,-0.130041,0.923675,0.0014419999999999,-0.0005809999999999,1.076325,-0.001442,0.000581,0.883372,-0.3458529999999999,-0.066428,1.110672,-0.354973,-0.090641,0.907656,-0.6801830000000001,-0.0022659999999999,1.119072,-0.685173,-0.0144579999999999,1
115,1.0144915,0.7010379999999999,0.0001729999999999,0.8446395000000001,0.509308,-0.0134829999999999,0.7227595,0.696018,-0.079164,1.1593295,0.514748,-0.025351,1.2722695,0.722448,-0.106327,0.6895195000000001,0.893678,-0.1090269999999999,1.3371995,0.961258,-0.135439,0.9232355,0.001632,-0.0006099999999999,1.0767645,-0.001632,0.0006099999999999,0.8815295,-0.338982,-0.077127,1.1123095,-0.347482,-0.1014249999999999,0.9082895,-0.670362,-0.0096029999999999,1.1196795,-0.675212,-0.0221649999999999,1
116,1.01476,0.6993134999999999,-0.0032884999999999,0.846175,0.5075135,-0.0179205,0.723785,0.6951134999999999,-0.0843565,1.159225,0.5122935,-0.0285834999999999,1.2716949999999998,0.7215834999999999,-0.1106375,0.691505,0.8927235,-0.1159205,1.336055,0.9605935,-0.1406175,0.922811,0.0018595,-0.0007544999999999,1.077189,-0.0018595,0.0007544999999999,0.879825,-0.3317065,-0.0876295,1.113955,-0.3395065,-0.1120135,0.908967,-0.6601565,-0.0167224999999999,1.1202949999999998,-0.6644565,-0.0296485,1
117,1.0150055,0.6970855,-0.00689,0.8475275000000001,0.5055055,-0.022281,0.7247675,0.6940855,-0.089574,1.1590575,0.5107355,-0.0320759999999999,1.2710775,0.7214555,-0.115202,0.6933875,0.8935755,-0.122709,1.3352175,0.9584355,-0.145828,0.9224255,0.0019325,-0.0008109999999999,1.0775745,-0.0019325,0.0008109999999999,0.8783675000000001,-0.3240245,-0.0979589999999999,1.1155275,-0.3312645,-0.12246,0.9096375,-0.6493745,-0.0240409999999999,1.1208575,-0.6527345,-0.0369269999999999,1
118,1.015144,0.6952125,-0.010152,0.84865,0.5020825,-0.026039,0.72565,0.6934825,-0.09448,1.15909,0.5086725,-0.035337,1.27073,0.7210225,-0.119413,0.69509,0.8947525000000001,-0.128894,1.3342,0.9608725,-0.150476,0.922094,0.0021024999999999,-0.0010959999999999,1.077906,-0.0021025,0.0010959999999999,0.87741,-0.3157575,-0.1072,1.11663,-0.3227375,-0.131459,0.910216,-0.6378874999999999,-0.030464,1.12133,-0.6400374999999999,-0.043222,1
119,1.015274,0.6930510000000001,-0.0131285,0.849682,0.500571,-0.0295514999999999,0.726492,0.691821,-0.0991475,1.159282,0.506421,-0.0384344999999999,1.270522,0.7204210000000001,-0.1232195,0.696752,0.892541,-0.1352525,1.333072,0.961751,-0.1547615,0.921728,0.002239,-0.0011974999999999,1.078272,-0.0022389999999999,0.0011975,0.876642,-0.307789,-0.1158535,1.117542,-0.315139,-0.1401355,0.910774,-0.626949,-0.0363295,1.121572,-0.627849,-0.0490904999999999,1
120,1.015261,0.690948,-0.0162114999999999,0.8507110000000001,0.498518,-0.0330795,0.727321,0.6907380000000001,-0.1040585,1.159051,0.504998,-0.0418275,1.270131,0.720128,-0.1267345,0.698121,0.891318,-0.1415525,1.331841,0.962978,-0.1590095,0.921339,0.002374,-0.0012355,1.078661,-0.002374,0.0012355,0.875891,-0.296292,-0.1243595,1.118281,-0.303332,-0.1485995,0.911294,-0.6153719999999999,-0.0421895,1.121731,-0.6149319999999999,-0.0548935,1
121,1.0154135,0.687498,-0.0192895,0.8516235,0.497638,-0.0365555,0.7282035,0.688288,-0.1092125,1.1588935,0.5032179999999999,-0.0452595,1.2698035,0.719348,-0.1303135,0.6991835,0.891148,-0.1478075,1.3304635,0.963018,-0.1628745,0.9210795,0.0024689999999999,-0.0013584999999999,1.0789205,-0.0024689999999999,0.0013584999999999,0.8753735,-0.284062,-0.1325335,1.1188634999999998,-0.291312,-0.1566295,0.9119245,-0.603722,-0.0476795,1.1219435,-0.602042,-0.0602195,1
122,1.0154905,0.6866965,-0.027501,0.8525525,0.4958465,-0.044975,0.7289425,0.6884265,-0.119149,1.1585725,0.5022565,-0.053454,1.2691325,0.7196165,-0.138958,0.7004025,0.8892065,-0.15947,1.3284125,0.9587165,-0.172154,0.9208665,0.0024635,-0.001292,1.0791335,-0.0024634999999999,0.0012919999999999,0.8750225000000001,-0.2690835,-0.145435,1.1191825,-0.2766935,-0.169254,0.9124465,-0.5894035,-0.05796,1.1220825,-0.5871535,-0.070408,1
123,1.0154365,0.68844,-0.0368305,0.8536115,0.494,-0.0545175,0.7296315000000001,0.68986,-0.1303125,1.1575015,0.50029,-0.0627845,1.2679915,0.7178,-0.1479285,0.7014515,0.89056,-0.1718945,1.3264715,0.95705,-0.1822185,0.9207605,0.00239,-0.0008695,1.0792395,-0.0023899999999999,0.0008694999999999,0.8729215,-0.25159,-0.1635325,1.1204315,-0.25999,-0.1856285,0.9128385,-0.57243,-0.0691075,1.1220115,-0.57,-0.0812965,1
124,1.0153095,0.6892,-0.0461555,0.8545715,0.49251,-0.0638915,0.7304915000000001,0.69147,-0.1414125,1.1563815,0.49973,-0.0719955,1.2671115,0.71641,-0.1567935,0.7023015,0.89174,-0.1841345,1.3248815,0.9557,-0.1917245,0.9207295,0.0022999999999999,-0.0004725,1.0792705,-0.0022999999999999,0.0004725,0.8709415,-0.2354099999999999,-0.1810765,1.1215815,-0.2437899999999999,-0.2010845,0.9130655,-0.55612,-0.0799285,1.1218614999999998,-0.55386,-0.0918375,1
125,1.015508,0.6899550000000001,-0.0555505,0.855844,0.4913949999999999,-0.0733155,0.731634,0.6920850000000001,-0.1525065,1.155504,0.498485,-0.0812105,1.266424,0.7156549999999999,-0.1655135,0.703284,0.8934850000000001,-0.1965515,1.323784,0.954845,-0.2021315,0.920637,0.0022149999999999,-0.0001325,1.079363,-0.002215,0.0001324999999999,0.869174,-0.219285,-0.1989515,1.122874,-0.227275,-0.2166715,0.913308,-0.538875,-0.0906735,1.121794,-0.537275,-0.1022155,1
126,1.015963,0.69083,-0.0648519999999999,0.857268,0.49079,-0.083159,0.732858,0.6933199999999999,-0.163447,1.154918,0.49563,-0.090282,1.265548,0.71469,-0.174042,0.704888,0.8928100000000001,-0.2088249999999999,1.322868,0.95606,-0.212445,0.920473,0.00237,0.000185,1.079527,-0.0023699999999999,-0.000185,0.867598,-0.2033599999999999,-0.216655,1.124078,-0.2106,-0.232065,0.913588,-0.5210699999999999,-0.100974,1.121818,-0.5205599999999999,-0.112411,1
127,1.0165185,0.691705,-0.0742309999999999,0.8587025,0.490235,-0.093119,0.7342825,0.694325,-0.174258,1.1544724999999998,0.495595,-0.0994579999999999,1.2649025,0.712565,-0.1830129999999999,0.7065525,0.893145,-0.220915,1.3223125,0.954305,-0.2228049999999999,0.9202985,0.0024549999999999,0.000565,1.0797015,-0.002455,-0.0005649999999999,0.8661525,-0.187385,-0.233885,1.1252525,-0.194585,-0.247165,0.9138675,-0.503235,-0.111248,1.1219325,-0.503995,-0.122427,1
128,1.017202,0.69122,-0.083593,0.860086,0.49009,-0.102803,0.735846,0.69469,-0.184923,1.154096,0.49553,-0.108682,1.264416,0.71088,-0.1922019999999999,0.707836,0.8970499999999999,-0.23249,1.321866,0.95145,-0.23386,0.920129,0.00231,0.0009,1.079871,-0.0023099999999999,-0.0008999999999999,0.864626,-0.17156,-0.25053,1.126236,-0.17867,-0.26175,0.913908,-0.4853599999999999,-0.121406,1.121866,-0.4875299999999999,-0.132228,1
129,1.017999,0.6913050000000001,-0.092901,0.861901,0.488755,-0.112192,0.7374609999999999,0.695065,-0.195296,1.153781,0.493155,-0.117756,1.263561,0.709025,-0.201131,0.709531,0.896155,-0.244015,1.320871,0.949295,-0.244645,0.920092,0.0023849999999999,0.0010149999999999,1.079908,-0.0023849999999999,-0.001015,0.863181,-0.155185,-0.266995,1.127281,-0.162095,-0.275785,0.913939,-0.467035,-0.131326,1.121771,-0.470835,-0.141857,1
130,1.0187765,0.692195,-0.102176,0.8636475,0.4873349999999999,-0.121435,0.7389175,0.696435,-0.205424,1.1538575,0.491955,-0.126691,1.2638474999999998,0.708245,-0.210763,0.7117275000000001,0.893995,-0.255245,1.3201075,0.947515,-0.255425,0.9201035,0.0023549999999999,0.001285,1.0798965,-0.0023549999999999,-0.001285,0.8618875,-0.137795,-0.283115,1.1283575,-0.144925,-0.289655,0.9139605,-0.448455,-0.141258,1.1215575,-0.453765,-0.151242,1
131,1.019464,0.6900900000000001,-0.106484,0.8649519999999999,0.48648,-0.125693,0.740302,0.6944600000000001,-0.210526,1.153922,0.4894,-0.130675,1.263772,0.7073100000000001,-0.215043,0.713552,0.8937400000000001,-0.260935,1.319622,0.94964,-0.261405,0.920045,0.00236,0.0013549999999999,1.079955,-0.0023599999999999,-0.0013549999999999,0.8605119999999999,-0.1219399999999999,-0.293815,1.129332,-0.1290299999999999,-0.298215,0.913883,-0.43204,-0.146202,1.121172,-0.4385799999999999,-0.155511,1
132,1.0202345,0.68662,-0.109386,0.8661485,0.4850799999999999,-0.128828,0.7417185,0.69199,-0.21416,1.1533785,0.48897,-0.133369,1.2630285,0.70791,-0.217683,0.7155185,0.89239,-0.2652299999999999,1.3195485,0.94435,-0.26638,0.9199515,0.0023499999999999,0.00115,1.0800485,-0.00235,-0.0011499999999999,0.8604485,-0.10742,-0.29888,1.1293885,-0.1142199999999999,-0.3026299999999999,0.9138655,-0.41733,-0.149744,1.1207985,-0.4248,-0.1583719999999999,1
133,1.0209655,0.684005,-0.112098,0.8672985,0.483525,-0.131694,0.7429085,0.6899249999999999,-0.217445,1.1526985,0.487635,-0.13572,1.2630285,0.705135,-0.220213,0.7175785,0.892505,-0.2690599999999999,1.3194585,0.940165,-0.27072,0.9198365,0.0024549999999999,0.00098,1.0801635,-0.002455,-0.00098,0.8603385,-0.091585,-0.3036999999999999,1.1294885,-0.0981549999999999,-0.30689,0.9137915,-0.401815,-0.152954,1.1203185,-0.409915,-0.160886,1
134,1.0213035,0.680345,-0.1144559999999999,0.8679365,0.4834449999999999,-0.134121,0.7439665,0.688595,-0.220211,1.1526865,0.4867249999999999,-0.1376889999999999,1.2628365,0.7027749999999999,-0.2221659999999999,0.7197765,0.892065,-0.2721599999999999,1.3196265,0.936305,-0.2744999999999999,0.9197625,0.0025049999999999,0.00084,1.0802375,-0.002505,-0.0008399999999999,0.8602765,-0.076505,-0.30734,1.1296165,-0.083075,-0.31026,0.9137155,-0.387335,-0.155749,1.1199165,-0.395905,-0.1628309999999999,1
135,1.0217015,0.6779999999999999,-0.115952,0.8685125000000001,0.48234,-0.135762,0.7449425000000001,0.6879500000000001,-0.222273,1.1530524999999998,0.4849299999999999,-0.138724,1.2634825,0.7007099999999999,-0.224653,0.7213025,0.8956599999999999,-0.274305,1.3201225,0.93407,-0.277575,0.9197665,0.00239,0.000955,1.0802335,-0.00239,-0.000955,0.8608325,-0.06407,-0.310025,1.1296825,-0.07085,-0.312855,0.9135635,-0.37215,-0.157795,1.1195325,-0.38086,-0.164024,1
136,1.022046,0.67517,-0.1167009999999999,0.8691180000000001,0.48166,-0.1367989999999999,0.745808,0.68615,-0.223771,1.153648,0.48257,-0.1391289999999999,1.264248,0.69991,-0.226622,0.722718,0.89174,-0.27642,1.320678,0.93303,-0.28012,0.91977,0.0024399999999999,0.00105,1.08023,-0.0024399999999999,-0.0010499999999999,0.861368,-0.0523899999999999,-0.31226,1.129748,-0.0596899999999999,-0.3150699999999999,0.913449,-0.358,-0.1593139999999999,1.118978,-0.3668,-0.164647,1
137,1.0220235,0.674015,-0.1169919999999999,0.8693755,0.4772949999999999,-0.137124,0.7460555000000001,0.684095,-0.224715,1.1541355,0.4783349999999999,-0.138959,1.2648455,0.6973050000000001,-0.228111,0.7237855,0.886855,-0.277875,1.3209855,0.932145,-0.281615,0.9196315,0.002585,0.0011049999999999,1.0803685,-0.002585,-0.0011049999999999,0.8616055,-0.040565,-0.313925,1.1294455,-0.048685,-0.316835,0.9130495,-0.344265,-0.160225,1.1180955,-0.353105,-0.164676,1
138,1.0215495,0.673685,-0.117252,0.8690145,0.478415,-0.1371399999999999,0.7457145000000001,0.6851849999999999,-0.225302,1.1541845,0.479435,-0.138697,1.2649645,0.697905,-0.229501,0.7240645,0.888795,-0.27908,1.3209845,0.932905,-0.28336,0.9196325,0.002585,0.0010799999999999,1.0803675,-0.002585,-0.0010799999999999,0.8614045,-0.025515,-0.31514,1.1288645,-0.034385,-0.31861,0.9122675,-0.327585,-0.161,1.1168445,-0.336365,-0.16466,1
139,1.020946,0.67276,-0.117789,0.868472,0.4784280000000001,-0.137214,0.745232,0.6852800000000001,-0.22569,1.153962,0.478834,-0.138375,1.264192,0.69676,-0.230504,0.723762,0.8898400000000001,-0.280235,1.3208419999999998,0.93005,-0.285505,0.919581,0.00253,0.0011549999999999,1.0804189999999998,-0.0025299999999999,-0.001155,0.861102,-0.0115099999999999,-0.315975,1.128252,-0.0208399999999999,-0.319835,0.911401,-0.3119499999999999,-0.161613,1.115512,-0.3207799999999999,-0.164712,1
140,1.0206755,0.6725349999999999,-0.1183679999999999,0.8682235,0.4790699999999999,-0.1373349999999999,0.7449535,0.686565,-0.2260019999999999,1.1540834999999998,0.4786469999999999,-0.138143,1.2638635,0.6959249999999999,-0.2315419999999999,0.7233434999999999,0.8907849999999999,-0.2814399999999999,1.3209335,0.928065,-0.2874,0.9192895,0.0023749999999999,0.00119,1.0807105,-0.002375,-0.0011899999999999,0.8611335,0.0021649999999999,-0.31647,1.1279935,-0.007295,-0.32091,0.9109235,-0.296455,-0.1620809999999999,1.1146735,-0.305325,-0.1648079999999999,1
141,1.0205685,0.6711050000000001,-0.11895,0.8681465000000002,0.480492,-0.137341,0.7447165,0.686625,-0.226268,1.1541665,0.479041,-0.138022,1.2637165,0.693905,-0.232616,0.7230765,0.8895649999999999,-0.28274,1.3212365,0.929975,-0.28902,0.9190625,0.002415,0.00123,1.0809375,-0.002415,-0.00123,0.8612865000000001,0.0138849999999999,-0.31672,1.1280665,0.0046849999999999,-0.32116,0.9106415,-0.282695,-0.162456,1.1141264999999998,-0.2916249999999999,-0.165017,1
142,1.0203835,0.67026,-0.119258,0.8678965,0.482566,-0.136912,0.7444365,0.68624,-0.226268,1.1541165,0.4765729999999999,-0.137563,1.2636265,0.6938,-0.233326,0.7227565,0.88781,-0.28365,1.3213265,0.9309,-0.29036,0.9188385,0.0024799999999999,0.00123,1.0811615,-0.0024799999999999,-0.00123,0.8614265,0.0258499999999999,-0.31674,1.1281565,0.017,-0.32117,0.9103245,-0.26899,-0.162454,1.1136565,-0.27792,-0.164951,1
143,1.0200585,0.6706799999999999,-0.118938,0.8674685,0.482834,-0.135883,0.7439785,0.68572,-0.225943,1.1540185,0.474747,-0.13679,1.2632385,0.69302,-0.2337,0.7223885,0.88632,-0.283935,1.3208885,0.93076,-0.291535,0.9187635,0.0022599999999999,0.0012749999999999,1.0812365,-0.0022599999999999,-0.0012749999999999,0.8611985,0.0377199999999999,-0.316415,1.1280685,0.02914,-0.320865,0.9098875,-0.2555599999999999,-0.16213,1.1131085,-0.26465,-0.164623,1
144,1.019814,0.67031,-0.118328,0.867259,0.4846479999999999,-0.134707,0.743459,0.68502,-0.225323,1.154059,0.474898,-0.135705,1.262829,0.693,-0.233416,0.7219690000000001,0.88515,-0.2838,1.320739,0.93047,-0.29251,0.918737,0.0025499999999999,0.0012099999999999,1.081263,-0.0025499999999999,-0.00121,0.8608890000000001,0.04885,-0.3154099999999999,1.128059,0.0401699999999999,-0.32006,0.909503,-0.2430199999999999,-0.161516,1.112709,-0.25222,-0.163929,1
145,1.019837,0.670435,-0.117804,0.8673040000000001,0.485977,-0.133537,0.743154,0.685125,-0.22463,1.153924,0.476089,-0.134885,1.262064,0.694415,-0.233131,0.7216640000000001,0.890085,-0.28326,1.320574,0.930285,-0.29372,0.918645,0.0025249999999999,0.00109,1.081355,-0.0025249999999999,-0.00109,0.860764,0.060295,-0.31418,1.128284,0.051225,-0.31904,0.909368,-0.2304149999999999,-0.160927,1.112564,-0.2397949999999999,-0.16326,1
146,1.019953,0.66942,-0.116947,0.867673,0.488887,-0.1317809999999999,0.742943,0.68729,-0.2235619999999999,1.153973,0.479133,-0.133983,1.261443,0.6974400000000001,-0.2328869999999999,0.721363,0.89201,-0.28276,1.320533,0.92801,-0.29527,0.918473,0.00257,0.00091,1.081527,-0.0025699999999999,-0.0009099999999999,0.8608430000000001,0.07345,-0.3124,1.128733,0.06391,-0.31725,0.909448,-0.2161299999999999,-0.1597049999999999,1.112603,-0.2255599999999999,-0.162566,1
147,1.0200995,0.6677500000000001,-0.116017,0.8680775000000001,0.488199,-0.129875,0.7426475,0.68599,-0.222544,1.1544375,0.478336,-0.133093,1.2621875,0.69685,-0.232481,0.7210575,0.89147,-0.28231,1.3205475,0.92339,-0.29637,0.9184035,0.00275,0.00062,1.0815965,-0.0027499999999999,-0.00062,0.8609775,0.08294,-0.3103,1.1292975,0.07275,-0.31487,0.9096255,-0.2057,-0.158445,1.1127275,-0.2152499999999999,-0.161813,1
148,1.020266,0.6668200000000001,-0.11509,0.8683730000000001,0.4881890000000001,-0.1280839999999999,0.742283,0.6855900000000001,-0.2213399999999999,1.154773,0.4776560000000001,-0.1323389999999999,1.262313,0.6965500000000001,-0.232119,0.720613,0.8924100000000001,-0.28159,1.320443,0.92222,-0.29698,0.918501,0.00306,0.0003299999999999,1.081499,-0.0030599999999999,-0.0003299999999999,0.860933,0.09205,-0.3081,1.129853,0.0812500000000001,-0.31225,0.909647,-0.1956099999999999,-0.157237,1.112963,-0.2052399999999998,-0.1611399999999999,1
149,1.0205065,0.6665650000000001,-0.1140869999999999,0.8686665,0.4875790000000001,-0.1263319999999999,0.7420264999999999,0.6848350000000001,-0.2200659999999999,1.1550665,0.4759870000000001,-0.1315019999999999,1.2627165,0.6954150000000001,-0.231642,0.7201965,0.8931550000000001,-0.280865,1.3203465,0.920335,-0.297455,0.9187665,0.003585,3.500000000000725e-05,1.0812335,-0.0035849999999999,-3.499999999997949e-05,0.8607965,0.1005350000000001,-0.3058349999999999,1.1306065,0.089195,-0.3093749999999999,0.9098175,-0.1862449999999998,-0.155468,1.1134965,-0.1959549999999998,-0.1605019999999999,1
150,1.020972,0.666915,-0.1131959999999999,0.869304,0.485683,-0.1243109999999999,0.741914,0.684395,-0.2189789999999999,1.155634,0.474257,-0.130742,1.263324,0.692435,-0.2312789999999999,0.719984,0.894045,-0.28005,1.320364,0.919045,-0.29805,0.918841,0.003905,-0.0003599999999999,1.081159,-0.003905,0.0003599999999999,0.860874,0.1090749999999999,-0.30359,1.131864,0.0968649999999999,-0.30609,0.91048,-0.1771049999999999,-0.1533109999999999,1.114374,-0.1870549999999999,-0.1599709999999999,1
151,1.021562,0.6664000000000001,-0.111868,0.869998,0.4839170000000001,-0.122356,0.7417580000000001,0.6852300000000001,-0.217924,1.156228,0.4769250000000001,-0.129906,1.263808,0.6921300000000001,-0.230727,0.719788,0.8958600000000001,-0.279195,1.3204479999999998,0.91866,-0.298675,0.918944,0.00401,-0.000715,1.081056,-0.0040099999999999,0.0007149999999999,0.8609180000000001,0.1177,-0.300815,1.133088,0.1046700000000001,-0.303005,0.91145,-0.1677499999999999,-0.15027,1.114928,-0.1779599999999999,-0.159488,1
152,1.022176,0.6657799999999999,-0.110729,0.870728,0.4836069999999999,-0.120687,0.741738,0.68634,-0.217009,1.157278,0.4786399999999999,-0.128651,1.2639479999999998,0.6918099999999999,-0.230071,0.719858,0.8971,-0.278375,1.320548,0.9187,-0.299225,0.919051,0.0045399999999999,-0.000955,1.080949,-0.0045399999999999,0.0009549999999999,0.8610080000000001,0.1260699999999999,-0.298135,1.134458,0.1122899999999999,-0.300055,0.912434,-0.15866,-0.147324,1.115488,-0.16914,-0.15907,1
153,1.0228115,0.66528,-0.109426,0.8714105,0.482923,-0.119146,0.7416405000000001,0.68695,-0.216293,1.1584905,0.479754,-0.127243,1.2641005,0.69119,-0.229489,0.7199805,0.89681,-0.27749,1.3206605,0.9178,-0.29943,0.9191705,0.0046,-0.00115,1.0808295,-0.0045999999999999,0.0011499999999999,0.8610605,0.13316,-0.2957,1.1358805,0.11913,-0.29782,0.9134875,-0.15088,-0.144427,1.1161005,-0.1616199999999999,-0.158254,1
154,1.023471,0.66485,-0.1079349999999999,0.872035,0.482544,-0.1176339999999999,0.7415150000000001,0.68803,-0.2155379999999999,1.159855,0.480384,-0.125765,1.265165,0.6902,-0.2291619999999999,0.720155,0.89624,-0.2763799999999999,1.320805,0.91721,-0.29932,0.919304,0.00477,-0.0014199999999999,1.080696,-0.0047699999999999,0.00142,0.8609450000000001,0.13971,-0.29328,1.137285,0.12576,-0.2954799999999999,0.914584,-0.1436099999999999,-0.1416099999999999,1.1168749999999998,-0.15469,-0.15707,1
155,1.0239015,0.6649550000000001,-0.1068469999999999,0.8721745000000001,0.484614,-0.1169409999999999,0.7413545,0.6888350000000001,-0.214939,1.1609645,0.4802620000000001,-0.1245199999999999,1.2658645,0.688505,-0.228821,0.7201345,0.8985150000000001,-0.275615,1.3207445,0.919775,-0.299255,0.9196675,0.005005,-0.0015149999999999,1.0803325,-0.0050049999999999,0.001515,0.8606644999999999,0.144055,-0.2913249999999999,1.1383745,0.130295,-0.293855,0.9153145,-0.1386349999999999,-0.1394629999999999,1.1173545,-0.1499349999999999,-0.1561149999999999,1
156,1.024259,0.664489,-0.10571,0.872237,0.486044,-0.116224,0.741117,0.6894750000000001,-0.21436,1.161827,0.48056,-0.123238,1.266727,0.6868850000000001,-0.228435,0.720097,0.899795,-0.274895,1.320677,0.920925,-0.299105,0.919971,0.005095,-0.0014649999999999,1.080029,-0.0050949999999999,0.0014649999999999,0.8603370000000001,0.147395,-0.289535,1.139317,0.133885,-0.292555,0.915967,-0.1347149999999999,-0.137295,1.117707,-0.146235,-0.155154,1
157,1.0246295,0.6638170000000001,-0.104563,0.8723325,0.4876670000000001,-0.115595,0.7409924999999999,0.6902550000000001,-0.213788,1.1627425,0.481453,-0.122058,1.2675625,0.6857650000000001,-0.227935,0.7201525,0.901135,-0.27428,1.3208025,0.921725,-0.29905,0.9203055,0.005215,-0.00141,1.0796945,-0.0052149999999999,0.0014099999999999,0.8600525,0.150605,-0.28778,1.1401925,0.137345,-0.2914,0.9167025,-0.130965,-0.135157,1.1178325,-0.142555,-0.154177,1
158,1.025136,0.66315,-0.103462,0.8726,0.48964,-0.115033,0.7410300000000001,0.69128,-0.213439,1.16379,0.482633,-0.120975,1.2686,0.6849200000000001,-0.2274689999999999,0.72028,0.90254,-0.2736699999999999,1.32124,0.92291,-0.29868,0.920519,0.00534,-0.00131,1.079481,-0.00534,0.00131,0.85991,0.15383,-0.2860399999999999,1.14106,0.14079,-0.29035,0.91747,-0.12722,-0.133574,1.11818,-0.1389599999999999,-0.153307,1
159,1.025618,0.6621859999999999,-0.102424,0.8727690000000001,0.4926299999999999,-0.114932,0.741159,0.69238,-0.213196,1.164729,0.483641,-0.120042,1.268969,0.68717,-0.22734,0.720499,0.90368,-0.273125,1.321649,0.9237,-0.298585,0.920705,0.00556,-0.0012149999999999,1.079295,-0.00556,0.0012149999999999,0.8597090000000001,0.1565999999999999,-0.284435,1.141719,0.14376,-0.289485,0.917949,-0.12408,-0.132515,1.118339,-0.1358599999999999,-0.152265,1
160,1.0259155,0.6616489999999999,-0.1018929999999999,0.8727834999999999,0.4940999999999999,-0.1148039999999999,0.7413135,0.6925399999999999,-0.213003,1.1654335,0.4835059999999999,-0.1192049999999999,1.2692735,0.6878599999999999,-0.2272219999999999,0.7207335,0.90349,-0.272795,1.3219835,0.9231,-0.298475,0.9209165,0.0058099999999999,-0.0010949999999999,1.0790835,-0.00581,0.001095,0.8593935,0.1579599999999999,-0.283545,1.1423435,0.1452399999999999,-0.288775,0.9180455,-0.12259,-0.132313,1.1184235,-0.13428,-0.151162,1
161,1.026146,0.661008,-0.1014179999999999,0.872816,0.495005,-0.1146859999999999,0.741446,0.692625,-0.2128879999999999,1.165706,0.48366,-0.1189089999999999,1.269546,0.688055,-0.2271129999999999,0.7210460000000001,0.903045,-0.272545,1.322286,0.922155,-0.298365,0.921045,0.005955,-0.0009849999999999,1.078955,-0.005955,0.000985,0.859106,0.1588049999999999,-0.282895,1.142846,0.1461549999999999,-0.288205,0.918176,-0.1216549999999999,-0.1321289999999999,1.118356,-0.133225,-0.1500819999999999,1
162,1.0263215,0.660323,-0.101076,0.8728305000000001,0.495689,-0.114665,0.7415404999999999,0.69251,-0.212845,1.1658305,0.483875,-0.11874,1.2697905,0.68799,-0.227012,0.7214605000000001,0.90243,-0.272455,1.3225105,0.92128,-0.298265,0.9211245,0.00604,-0.0008849999999999,1.0788755,-0.00604,0.0008849999999999,0.8588705,0.1593399999999999,-0.282435,1.1433704999999998,0.14672,-0.287635,0.9182065,-0.1211099999999999,-0.132007,1.1180905,-0.13253,-0.149308,1
163,1.026351,0.659892,-0.1008919999999999,0.872773,0.496838,-0.1147059999999999,0.741553,0.69216,-0.2130149999999999,1.165793,0.484174,-0.11864,1.269963,0.68794,-0.2269479999999999,0.721893,0.90181,-0.2723649999999999,1.322593,0.92079,-0.298305,0.92117,0.0061099999999999,-0.0007849999999999,1.07883,-0.0061099999999999,0.000785,0.8585929999999999,0.1596599999999999,-0.282135,1.143773,0.14705,-0.287115,0.918169,-0.1208099999999999,-0.131907,1.117943,-0.1320599999999999,-0.14895,1
164,1.0263445,0.659626,-0.100793,0.8727145000000001,0.498058,-0.1148329999999999,0.7415145000000001,0.69178,-0.213257,1.1657645,0.484174,-0.11854,1.2700845,0.68788,-0.226937,0.7222845,0.90141,-0.272325,1.3225745,0.92022,-0.298425,0.9212055,0.0061099999999999,-0.0006849999999999,1.0787945,-0.0061099999999999,0.0006849999999999,0.8583045000000001,0.15963,-0.2820249999999999,1.1441145,0.1470699999999999,-0.286615,0.9181405,-0.12084,-0.131807,1.1178845,-0.13199,-0.148532,1
165,1.0263165,0.659626,-0.1007079999999999,0.8726765000000001,0.499032,-0.1149679999999999,0.7415665,0.69155,-0.2135699999999999,1.1657365,0.484174,-0.11846,1.2701065,0.68788,-0.226968,0.7226865,0.90141,-0.27233,1.3225265,0.9202,-0.29879,0.9212395,0.0061099999999999,-0.0006099999999999,1.0787605,-0.0061099999999999,0.0006099999999999,0.8581465,0.1596199999999999,-0.28193,1.1443165,0.14711,-0.2862099999999999,0.9181115,-0.1208599999999999,-0.131744,1.1178665,-0.13193,-0.148188,1
166,1.0262625,0.659626,-0.1006479999999999,0.8726025,0.499838,-0.115148,0.7415725,0.69155,-0.2138439999999999,1.1656525,0.484174,-0.118502,1.2700425,0.68788,-0.227118,0.7230725,0.90141,-0.2724499999999999,1.3224525,0.9202,-0.29921,0.9212905,0.0061099999999999,-0.0005899999999999,1.0787095,-0.0061099999999999,0.00059,0.8580425,0.1596199999999999,-0.2818699999999999,1.1444725,0.14715,-0.28589,0.9177915,-0.1210299999999999,-0.1321409999999999,1.1179925,-0.13194,-0.148169,1
167,1.0261895,0.659556,-0.1006679999999999,0.8725205,0.500467,-0.1153719999999999,0.7415404999999999,0.69172,-0.2143219999999999,1.1653205,0.4845129999999999,-0.1188109999999999,1.2699605,0.68781,-0.2273309999999999,0.7233605000000001,0.90134,-0.27279,1.3223605,0.92013,-0.2998499999999999,0.9213385,0.00617,-0.0005999999999999,1.0786615,-0.00617,0.0006,0.8579405,0.15958,-0.28188,1.1446005,0.1471199999999999,-0.28573,0.9172905,-0.1214199999999999,-0.1328829999999999,1.1180905,-0.1320299999999999,-0.1482869999999999,1
168,1.026105,0.659814,-0.100931,0.8725200000000001,0.5007389999999999,-0.115594,0.74162,0.69138,-0.21468,1.16491,0.4848,-0.119237,1.26995,0.68774,-0.227589,0.7237100000000001,0.90106,-0.273415,1.32213,0.91979,-0.300795,0.921364,0.00617,-0.000595,1.078636,-0.00617,0.0005949999999999,0.85791,0.1592699999999999,-0.282045,1.1446,0.1468299999999999,-0.285735,0.916721,-0.12212,-0.133909,1.11837,-0.13241,-0.148496,1
169,1.0258725,0.6606430000000001,-0.101617,0.8725585000000001,0.500625,-0.115863,0.7418184999999999,0.690945,-0.215271,1.1643985,0.484965,-0.11985,1.2698385,0.687535,-0.227868,0.7240584999999999,0.9005650000000001,-0.274265,1.3217785,0.919815,-0.301875,0.9213735,0.0061149999999999,-0.000585,1.0786265,-0.0061149999999999,0.000585,0.8578585,0.158515,-0.282455,1.1446185,0.146065,-0.285645,0.9161105,-0.1233149999999999,-0.135263,1.1186285,-0.1332149999999999,-0.148515,1
170,1.0255379999999998,0.662183,-0.1025369999999999,0.872568,0.500188,-0.1161929999999999,0.742108,0.691665,-0.215998,1.163558,0.4855359999999999,-0.120753,1.269538,0.687265,-0.228173,0.7243580000000001,0.8999649999999999,-0.275335,1.321288,0.919765,-0.303035,0.921383,0.0060049999999999,-0.0005949999999999,1.078617,-0.006005,0.000595,0.8578479999999999,0.1571149999999999,-0.283085,1.144628,0.1447049999999999,-0.285605,0.915402,-0.125245,-0.136758,1.118888,-0.134625,-0.148579,1
171,1.0251249999999998,0.664896,-0.104009,0.872551,0.4994280000000001,-0.116805,0.742461,0.69296,-0.217138,1.162631,0.485452,-0.121936,1.269211,0.68713,-0.228703,0.724611,0.8992200000000001,-0.2768,1.320241,0.92109,-0.3045,0.921365,0.00592,-0.00063,1.078635,-0.0059199999999999,0.0006299999999999,0.857811,0.15486,-0.28423,1.144591,0.14253,-0.28588,0.914585,-0.1281099999999999,-0.138639,1.118971,-0.1368199999999999,-0.148868,1
172,1.0247585,0.6672000000000001,-0.106208,0.8725335,0.497574,-0.118183,0.7429935,0.6935700000000001,-0.218906,1.1616635,0.4862120000000001,-0.123926,1.2685835,0.6895900000000001,-0.23045,0.7249035000000001,0.89805,-0.27902,1.3190635,0.92368,-0.30678,0.9213085,0.0054,-0.00106,1.0786915,-0.0053999999999999,0.0010599999999999,0.8578235,0.1509800000000001,-0.28612,1.1442335,0.13878,-0.28681,0.9136505,-0.1326299999999999,-0.141297,1.1189035,-0.1405899999999998,-0.149927,1
173,1.0244255,0.6692400000000001,-0.109437,0.8726405,0.4945900000000001,-0.120507,0.7437104999999999,0.69326,-0.22155,1.1606905,0.485112,-0.126821,1.2680505,0.69028,-0.233089,0.7252205,0.8982300000000001,-0.28258,1.3179805,0.92561,-0.31023,0.9211115,0.00521,-0.00103,1.0788885,-0.0052099999999999,0.00103,0.8579405,0.14498,-0.28911,1.1435505,0.13321,-0.28874,0.9126815,-0.1389699999999999,-0.144962,1.1188605,-0.1462299999999999,-0.151821,1
174,1.0243745,0.6689400000000001,-0.1127809999999999,0.8730595,0.490209,-0.1232069999999999,0.7447395,0.69092,-0.224319,1.1599295,0.484803,-0.130323,1.2677695,0.69011,-0.236873,0.7254895,0.8950100000000001,-0.28615,1.3171195,0.92408,-0.31398,0.9209695,0.0035399999999999,-0.0010599999999999,1.0790305,-0.0035399999999999,0.00106,0.8582395,0.13467,-0.2926999999999999,1.1429295,0.12381,-0.29238,0.9118925,-0.1495699999999999,-0.1488479999999999,1.1190895,-0.1563,-0.154186,1
175,1.024389,0.6686799999999999,-0.116467,0.873536,0.487031,-0.12642,0.745826,0.68977,-0.227418,1.159336,0.482972,-0.13427,1.267236,0.68985,-0.24095,0.725746,0.8916,-0.289945,1.316196,0.92275,-0.318145,0.920768,0.0029099999999999,-0.000835,1.079232,-0.0029099999999999,0.0008349999999999,0.858646,0.1226499999999999,-0.296495,1.1422759999999998,0.1124999999999999,-0.296605,0.911448,-0.1619399999999999,-0.152703,1.119386,-0.16832,-0.157173,1
176,1.024383,0.66824,-0.120116,0.873768,0.482994,-0.129678,0.746158,0.68793,-0.230684,1.158668,0.48095,-0.138338,1.266868,0.68921,-0.245257,0.725978,0.8873500000000001,-0.293505,1.315178,0.92365,-0.322195,0.92067,0.00197,-0.0004349999999999,1.07933,-0.00197,0.0004349999999999,0.8590380000000001,0.10882,-0.300355,1.141438,0.09942,-0.300845,0.911151,-0.1760199999999999,-0.156303,1.119548,-0.18225,-0.159999,1
177,1.024543,0.66804,-0.123723,0.8741,0.4792869999999999,-0.133142,0.74712,0.6864899999999999,-0.234016,1.15806,0.4790589999999999,-0.14243,1.26642,0.6885899999999999,-0.249855,0.7263200000000001,0.88516,-0.296885,1.31433,0.92452,-0.326445,0.920605,0.0011099999999999,-8.500000000000174e-05,1.079395,-0.00111,8.500000000000174e-05,0.85962,0.0934699999999998,-0.304155,1.14058,0.0848799999999999,-0.305165,0.911119,-0.19149,-0.159704,1.1199,-0.1977500000000001,-0.162894,1
178,1.024782,0.6692499999999999,-0.126472,0.874409,0.4756999999999999,-0.136026,0.747449,0.68517,-0.236729,1.157549,0.4768179999999999,-0.145841,1.266049,0.6884699999999999,-0.253818,0.726639,0.88467,-0.299625,1.313469,0.92531,-0.330065,0.920827,0.0006899999999999,0.000315,1.079173,-0.00069,-0.000315,0.860289,0.0780899999999999,-0.307295,1.139659,0.0703799999999999,-0.308955,0.911215,-0.20698,-0.16232,1.120119,-0.2134,-0.165043,1
179,1.0245105,0.66904,-0.12877,0.8740095,0.475027,-0.138472,0.7481595,0.68485,-0.238489,1.1567795,0.477581,-0.148674,1.2652595,0.68897,-0.256887,0.7263695,0.88727,-0.302005,1.3121195,0.92538,-0.332825,0.9207725,0.00062,0.0007049999999999,1.0792275,-0.00062,-0.000705,0.8604295,0.0605399999999999,-0.309915,1.1381695,0.05346,-0.312335,0.9109305,-0.22488,-0.164429,1.1197195,-0.2314999999999999,-0.166715,1
180,1.0244399999999998,0.67001,-0.130145,0.87422,0.474496,-0.140225,0.74821,0.68404,-0.23999,1.15626,0.4784239999999999,-0.150814,1.26471,0.69107,-0.259289,0.72624,0.8897200000000001,-0.303695,1.31168,0.92493,-0.335405,0.920493,0.0001999999999999,0.001035,1.079507,-0.0002,-0.001035,0.86092,0.04385,-0.3114949999999999,1.13697,0.03692,-0.3148849999999999,0.910964,-0.24257,-0.165735,1.11933,-0.24944,-0.167626,1
181,1.0242945,0.671185,-0.130682,0.8742865,0.47474,-0.141528,0.7480964999999999,0.683725,-0.241134,1.1554665,0.480502,-0.152398,1.2640065,0.689595,-0.260297,0.7258165,0.890845,-0.30479,1.3110465,0.921565,-0.33691,0.9202475,5.499999999997174e-05,0.0014299999999999,1.0797525,-5.500000000002725e-05,-0.00143,0.8612965,0.0267749999999999,-0.31276,1.1358965,0.0197749999999999,-0.31723,0.9109055,-0.261295,-0.166538,1.1187465,-0.2682449999999999,-0.168084,1
182,1.0239635,0.672485,-0.130668,0.8737625,0.473717,-0.142405,0.7476825,0.6831450000000001,-0.241776,1.1545425,0.482381,-0.1535699999999999,1.2630525,0.688515,-0.261043,0.7248525,0.890475,-0.30476,1.3102925,0.920635,-0.3377099999999999,0.9200035,-0.0005649999999999,0.0014399999999999,1.0799965,0.000565,-0.0014399999999999,0.8615625,0.009685,-0.31299,1.1349225,0.002655,-0.31881,0.9106485,-0.280505,-0.166866,1.1179425,-0.287485,-0.1681379999999999,1
183,1.023282,0.67473,-0.130643,0.8730800000000001,0.476341,-0.143297,0.7468700000000001,0.6838299999999999,-0.242266,1.15346,0.481738,-0.154381,1.26194,0.68935,-0.261141,0.72343,0.8902,-0.304705,1.30939,0.923,-0.337895,0.919611,0.001,0.0014549999999999,1.080389,-0.001,-0.001455,0.86168,-0.00717,-0.312995,1.13369,-0.0148599999999999,-0.319045,0.910249,-0.29996,-0.167056,1.11709,-0.30712,-0.168111,1
184,1.022241,0.6785699999999999,-0.1302209999999999,0.8720209999999999,0.477496,-0.143364,0.745161,0.6850499999999999,-0.242473,1.151991,0.482104,-0.1546189999999999,1.261031,0.69,-0.261075,0.721481,0.89138,-0.3042549999999999,1.308261,0.92563,-0.3374749999999999,0.919118,0.0014799999999999,0.001855,1.080882,-0.00148,-0.0018549999999999,0.861451,-0.02173,-0.312605,1.132131,-0.02983,-0.3186049999999999,0.909599,-0.31774,-0.1668019999999999,1.116111,-0.3251,-0.1679069999999999,1
185,1.0206265,0.6816549999999999,-0.1285339999999999,0.8703475,0.480035,-0.142418,0.7426375000000001,0.6872149999999999,-0.2416169999999999,1.1501075,0.484305,-0.153575,1.2594275,0.6905349999999999,-0.259608,0.7190275000000002,0.896625,-0.302375,1.3066475,0.923645,-0.335975,0.9188485,0.0018349999999999,0.002315,1.0811514999999998,-0.001835,-0.0023149999999999,0.8607775,-0.036775,-0.311135,1.1300175,-0.045255,-0.3170849999999999,0.9084955,-0.336835,-0.165373,1.1146575,-0.3445249999999999,-0.1666389999999999,1
186,1.01952,0.6851849999999999,-0.126049,0.8690630000000001,0.482615,-0.140804,0.7410130000000001,0.6889449999999999,-0.239661,1.149373,0.4868249999999999,-0.151652,1.258193,0.6936249999999999,-0.257442,0.7170430000000001,0.899535,-0.299995,1.305563,0.920035,-0.334035,0.918891,0.0021849999999999,0.0026749999999999,1.081109,-0.002185,-0.002675,0.8606130000000001,-0.051345,-0.308895,1.128633,-0.059795,-0.315135,0.907821,-0.356335,-0.163548,1.113793,-0.364485,-0.164758,1
187,1.018083,0.68708,-0.1227009999999999,0.8672,0.48563,-0.138621,0.73915,0.69118,-0.2373259999999999,1.14824,0.48954,-0.149077,1.25663,0.6957,-0.2542569999999999,0.71475,0.8994899999999999,-0.29671,1.30414,0.9224,-0.33102,0.918998,0.00207,0.00278,1.081002,-0.00207,-0.0027799999999999,0.86023,-0.06723,-0.30555,1.12699,-0.07583,-0.31217,0.906867,-0.3777,-0.161012,1.11283,-0.38664,-0.162151,1
188,1.0164505,0.69013,-0.118826,0.8653035,0.48649,-0.136074,0.7370135,0.69138,-0.234652,1.1472235,0.48876,-0.146144,1.2550735,0.69735,-0.250224,0.7124035,0.90053,-0.29283,1.3029135,0.92452,-0.32735,0.9190675,0.00167,0.0027699999999999,1.0809325,-0.00167,-0.00277,0.8598835000000001,-0.0819199999999999,-0.30131,1.1252935,-0.0904099999999999,-0.30813,0.9059135,-0.39833,-0.157883,1.1118835,-0.4074199999999999,-0.158965,1
189,1.0144555,0.69129,-0.114765,0.8630424999999999,0.48781,-0.133477,0.7346125,0.69108,-0.231546,1.1458025,0.49056,-0.143006,1.2531625,0.69782,-0.246077,0.7096525,0.89976,-0.288625,1.3010925,0.9245,-0.3231549999999999,0.9190095,0.0014799999999999,0.0027449999999999,1.0809905,-0.0014799999999999,-0.0027449999999999,0.8592225,-0.0980599999999999,-0.296225,1.1232125,-0.10598,-0.303455,0.9045375,-0.42066,-0.155584,1.1105325,-0.42903,-0.155987,1
190,1.0122295,0.69249,-0.11026,0.8609125,0.4904699999999999,-0.130122,0.7323925,0.69377,-0.227978,1.1439925,0.4890299999999999,-0.139503,1.2518625,0.69787,-0.24257,0.7068525,0.8996,-0.284205,1.2990525,0.92389,-0.3186449999999999,0.9189515,0.0015299999999999,0.002725,1.0810485,-0.0015299999999999,-0.002725,0.8584625,-0.1136499999999999,-0.290775,1.1211125,-0.12069,-0.2983449999999999,0.9028795,-0.4422,-0.153249,1.1090525,-0.44993,-0.153143,1
191,1.010084,0.694055,-0.105619,0.858941,0.495345,-0.126629,0.730221,0.695695,-0.223701,1.142331,0.489545,-0.136095,1.250061,0.698175,-0.23855,0.704531,0.898015,-0.27952,1.297051,0.920525,-0.31337,0.919272,0.001645,0.0027299999999999,1.080728,-0.001645,-0.00273,0.858081,-0.128945,-0.28428,1.119261,-0.135115,-0.29221,0.901296,-0.463165,-0.15103,1.107801,-0.4701350000000001,-0.150306,1
192,1.00809,0.698625,-0.101431,0.856922,0.497975,-0.123394,0.728102,0.699585,-0.220224,1.140792,0.490995,-0.133053,1.248332,0.700775,-0.234636,0.702322,0.903495,-0.27498,1.294862,0.923855,-0.3085299999999999,0.919672,0.001095,0.0028399999999999,1.080328,-0.0010949999999999,-0.00284,0.857672,-0.1401949999999999,-0.278,1.1174419999999998,-0.145555,-0.28648,0.899328,-0.479565,-0.149152,1.106662,-0.485935,-0.1483,1
193,1.0062209999999998,0.701655,-0.097056,0.854664,0.5022150000000001,-0.119702,0.726254,0.700995,-0.216245,1.139684,0.496085,-0.129321,1.246724,0.705475,-0.23041,0.700284,0.906995,-0.269885,1.292944,0.925145,-0.303095,0.920134,0.000505,0.0028149999999999,1.079866,-0.0005049999999999,-0.002815,0.8573640000000001,-0.153275,-0.270715,1.115864,-0.1576449999999999,-0.279835,0.89729,-0.497505,-0.147128,1.105934,-0.502825,-0.146977,1
194,1.004421,0.7056,-0.092695,0.852424,0.50532,-0.1158469999999999,0.724534,0.70247,-0.212583,1.138874,0.49836,-0.1251999999999999,1.2451139999999998,0.70969,-0.225983,0.6982740000000001,0.90738,-0.265115,1.291614,0.92733,-0.297745,0.920576,0.00039,0.002835,1.079424,-0.00039,-0.002835,0.857094,-0.1644699999999999,-0.2631949999999999,1.1145539999999998,-0.16866,-0.272485,0.895062,-0.5134799999999999,-0.144721,1.1054739999999998,-0.51791,-0.145054,1
195,1.0030074999999998,0.710515,-0.088347,0.8500795,0.509745,-0.111516,0.7229194999999999,0.705945,-0.208361,1.1382395,0.5022249999999999,-0.121268,1.2436595,0.711645,-0.2214769999999999,0.6964195,0.909435,-0.26021,1.2902995,0.928285,-0.29202,0.9212115,0.0002049999999999,0.0028799999999999,1.0787885,-0.000205,-0.0028799999999999,0.8579995,-0.176525,-0.25412,1.1133295,-0.180985,-0.26334,0.8931245,-0.529995,-0.141603,1.1053995,-0.533465,-0.142626,1
196,1.001883,0.7155900000000001,-0.084339,0.848306,0.51374,-0.107699,0.721546,0.70865,-0.20453,1.137856,0.50641,-0.117802,1.242676,0.71514,-0.217449,0.694806,0.91276,-0.25594,1.289276,0.93169,-0.28712,0.921886,-1.999999999999225e-05,0.00272,1.0781139999999998,1.999999999999225e-05,-0.00272,0.859116,-0.18759,-0.24544,1.112316,-0.1916599999999999,-0.25439,0.8913060000000002,-0.54459,-0.140266,1.105516,-0.54686,-0.139755,1
197,1.000905,0.72009,-0.079953,0.846649,0.517,-0.103811,0.720209,0.7109300000000001,-0.20029,1.137679,0.5126999999999999,-0.1139189999999999,1.242039,0.71712,-0.21337,0.693209,0.91,-0.251515,1.288189,0.93391,-0.281985,0.922592,-0.00025,0.002455,1.077408,0.00025,-0.0024549999999999,0.8606190000000001,-0.1988599999999999,-0.235305,1.111209,-0.2023999999999999,-0.244245,0.8892990000000001,-0.55895,-0.138662,1.105569,-0.56038,-0.136014,1
198,0.9998035,0.72394,-0.075826,0.8447655000000001,0.52013,-0.100215,0.7186955000000002,0.7132999999999999,-0.196539,1.1374955,0.51629,-0.110229,1.2413155,0.7183499999999999,-0.209482,0.6915155,0.91063,-0.24725,1.2870155,0.93621,-0.27722,0.9232625,-0.0001059999999999,0.00221,1.0767375,0.000106,-0.00221,0.8623155,-0.20963,-0.22486,1.1098955,-0.21273,-0.2339399999999999,0.8873255,-0.57197,-0.136271,1.1052255,-0.57346,-0.132132,1
199,0.998888,0.7283275,-0.072369,0.842998,0.5223375,-0.097337,0.7175279999999999,0.7126575,-0.193419,1.1373479999999998,0.5230575,-0.107076,1.240498,0.7214875000000001,-0.20616,0.6899780000000001,0.9127475,-0.243515,1.286408,0.9397275,-0.2730249999999999,0.923873,-0.0002494999999999,0.0019949999999999,1.076127,0.0002494999999999,-0.0019949999999999,0.8641380000000001,-0.2191524999999999,-0.215284,1.108388,-0.2224824999999999,-0.223205,0.885548,-0.5837625,-0.133066,1.1052179999999998,-0.5858725,-0.129087,1
200,0.998621,0.7333985,-0.069431,0.842104,0.5254085,-0.094913,0.7170540000000001,0.7141085,-0.190628,1.137764,0.5293085,-0.104247,1.240454,0.7291485,-0.203315,0.689244,0.9166485,-0.240565,1.286384,0.9441085,-0.269505,0.924017,-0.0002734999999999,0.0018249999999999,1.075983,0.0002735,-0.001825,0.866344,-0.2305014999999999,-0.206355,1.107344,-0.2360815,-0.212514,0.885454,-0.5962515,-0.130134,1.105194,-0.5992715,-0.126158,1
201,0.9985445,0.737025,-0.066604,0.8414405,0.528035,-0.092422,0.7168005,0.716275,-0.188089,1.1382605,0.5358350000000001,-0.101622,1.2405905,0.7330650000000001,-0.200675,0.6889005,0.916785,-0.237575,1.2865605,0.941555,-0.266095,0.9241725,-0.00032,0.0016449999999999,1.0758275,0.00032,-0.001645,0.8688105,-0.242525,-0.196581,1.1059205,-0.250115,-0.199581,0.8856105,-0.6093649999999999,-0.127164,1.1053505,-0.612865,-0.123188,1
202,0.9987405,0.7398635,-0.0609519999999999,0.8412925,0.5281235000000001,-0.0868439999999999,0.7167425000000001,0.7181035,-0.182358,1.1391025,0.5378335000000001,-0.096303,1.2410525,0.7339135,-0.195618,0.6889425,0.9167035,-0.2318,1.2869725,0.9454635,-0.26015,0.9243045,-6.349999999999759e-05,0.00134,1.0756955,6.350000000000106e-05,-0.0013399999999999,0.8715225,-0.2547265,-0.183272,1.1045325,-0.2645265,-0.18427,0.8859725,-0.6221365,-0.1210609999999999,1.1057525,-0.6269365,-0.115893,1
203,0.999352,0.7386769999999999,-0.0490785,0.841458,0.527377,-0.0759634999999999,0.717068,0.7147669999999999,-0.1706254999999999,1.140318,0.5391969999999999,-0.0850004999999999,1.242638,0.7330169999999999,-0.1849285,0.689538,0.913117,-0.2199995,1.2881479999999998,0.945207,-0.2479495,0.924572,0.0001209999999999,0.0006575,1.075428,-0.000121,-0.0006574999999999,0.876308,-0.271903,-0.1600295,1.103218,-0.283083,-0.1609185,0.886818,-0.6399630000000001,-0.1059094999999999,1.106588,-0.646053,-0.1008445,1
204,1.000016,0.7357005,-0.0378735,0.842028,0.5252804999999999,-0.0658175,0.717708,0.7101305,-0.1599305,1.141638,0.5386405,-0.0743154999999999,1.244428,0.7323505,-0.1748155,0.690348,0.9083105,-0.2087895,1.289358,0.9483605,-0.2362695,0.924946,0.0003024999999999,1.8500000000004624e-05,1.075054,-0.0003025,-1.8500000000004624e-05,0.880318,-0.2863095,-0.1386335,1.102108,-0.2967995,-0.1396525,0.888088,-0.6552295,-0.0907555,1.107388,-0.6612995,-0.0856055,1
205,1.0008499999999998,0.7326050000000001,-0.0265989999999999,0.842624,0.5233450000000001,-0.055868,0.7184740000000001,0.705895,-0.149386,1.143294,0.538315,-0.063586,1.245844,0.731355,-0.163995,0.691264,0.904165,-0.19746,1.290754,0.945185,-0.2242299999999999,0.925235,0.000577,-0.0005449999999999,1.074765,-0.0005769999999999,0.000545,0.884304,-0.299965,-0.116878,1.100994,-0.3097749999999999,-0.118045,0.889624,-0.670005,-0.075123,1.108024,-0.676145,-0.0690839999999999,1
206,1.0017699999999998,0.7297440000000001,-0.0158615,0.8434,0.521474,-0.0462115,0.7194,0.7028340000000001,-0.1391175,1.14468,0.536084,-0.0531565,1.24747,0.731894,-0.1538395,0.69233,0.902754,-0.1863395,1.29246,0.944144,-0.2124695,0.925413,0.000809,-0.0009535,1.074587,-0.0008089999999999,0.0009534999999999,0.88796,-0.311006,-0.0963395,1.09973,-0.320096,-0.0971955,0.89168,-0.6822159999999999,-0.0587935,1.10862,-0.688306,-0.0530475,1
207,1.0028785,0.7273080000000001,-0.00469,0.8445855,0.519798,-0.036071,0.7205355,0.700218,-0.128549,1.1462055,0.5346380000000001,-0.042498,1.2494255,0.7329880000000001,-0.143643,0.6940055,0.900548,-0.174936,1.2942355,0.944588,-0.200476,0.9252065,0.000766,-0.001273,1.0747935,-0.0007659999999999,0.0012729999999999,0.8912755,-0.320562,-0.076182,1.0980555,-0.330732,-0.076321,0.8938555,-0.692952,-0.042078,1.1093255,-0.700082,-0.036895,1
208,1.0039375,0.7246275,0.0065329999999999,0.8456695000000001,0.5179375,-0.025703,0.7216095,0.6979575,-0.117777,1.1476195,0.5313575,-0.03167,1.2514095,0.7339875,-0.1333929999999999,0.6956795,0.8981175,-0.163411,1.2957695,0.9463675,-0.188371,0.9251155,0.0009144999999999,-0.001654,1.0748844999999998,-0.0009144999999999,0.0016539999999999,0.8944795000000001,-0.3288725,-0.055175,1.0962595,-0.3404525,-0.055864,0.8963305,-0.7023625,-0.024704,1.1100195,-0.7108225,-0.02119,0
209,1.0049075,0.721149,0.0179705,0.8465885,0.515429,-0.0149955,0.7225485,0.695559,-0.1067545,1.1486485,0.528619,-0.0207845,1.2530185,0.731689,-0.1227075,0.6972885,0.895709,-0.1517205,1.2970385,0.948139,-0.1758005,0.9252065,0.001041,-0.0020975,1.0747935,-0.001041,0.0020974999999999,0.8974965,-0.337611,-0.0338575,1.0943445,-0.350821,-0.0360365,0.8984835,-0.712041,-0.0079485,1.1106185,-0.722031,-0.0053775,0
210,1.005635,0.7174545,0.0292645,0.8471540000000001,0.5132345,-0.0042285,0.723264,0.6912345000000001,-0.0954865,1.149484,0.5263845,-0.0097255,1.254424,0.7298245,-0.1118465,0.6986840000000001,0.8933545,-0.1399435,1.298134,0.9500645,-0.1630235,0.925281,0.0011344999999999,-0.0025915,1.074719,-0.0011344999999999,0.0025915,0.9002960000000001,-0.3462155,-0.0129295,1.092869,-0.3609555,-0.0178935,0.900232,-0.7213855,0.0084235,1.111074,-0.7328254999999999,0.0104534999999999,0
211,1.0062445,0.7143390000000001,0.0375114999999999,0.8475265000000001,0.5122389999999999,0.0035575,0.7238465000000001,0.688029,-0.0872135,1.1503365,0.5253889999999999,-0.0016115,1.2555165,0.729139,-0.1036935,0.6998765,0.8918790000000001,-0.1311004999999999,1.2990165,0.947499,-0.1530905,0.9253555,0.0010349999999999,-0.0028845,1.0746445,-0.001035,0.0028845,0.9029085,-0.354141,0.0036255,1.0913145,-0.369831,-0.0027345,0.9022805,-0.729771,0.0220464999999999,1.1115765,-0.7419709999999999,0.0223295,0
212,1.006508,0.7151485,0.0394245,0.8474560000000001,0.5127785,0.0055734999999999,0.724116,0.6896685,-0.0852445,1.150666,0.5260985,5.150000000000033e-05,1.255916,0.7311885,-0.1017945,0.7004360000000001,0.8936985000000001,-0.1287394999999999,1.299416,0.9502985,-0.1497995,0.925492,0.0009964999999999,-0.0028655,1.0745079999999998,-0.0009964999999999,0.0028655,0.903488,-0.3544414999999999,0.0095385,1.089656,-0.3701315,0.0033855,0.902831,-0.7300715,0.0260225,1.111956,-0.7424615,0.0260545,0
213,1.0067045,0.715855,0.041407,0.8473695,0.513145,0.007573,0.7242795,0.6906749999999999,-0.083184,1.1509195,0.526845,0.0017519999999999,1.2561695,0.732685,-0.09975,0.7007395000000001,0.893425,-0.126282,1.2997395,0.952825,-0.146502,0.9256125,0.0009829999999999,-0.002921,1.0743875,-0.0009829999999999,0.002921,0.9039625,-0.354715,0.015385,1.0879855,-0.370405,0.009465,0.9032385,-0.730345,0.029879,1.1122495,-0.742815,0.029697,0
214,1.006794,0.7164285,0.0433835,0.846971,0.5140785,0.0095395,0.724351,0.6912385,-0.0811865,1.151071,0.5273485,0.0034265,1.256331,0.7336885000000001,-0.0977565,0.700921,0.8932085000000001,-0.1237885,1.299931,0.9533085,-0.1436085,0.925699,0.0009874999999999,-0.0029905,1.074301,-0.0009875,0.0029905,0.904331,-0.3549314999999999,0.0205755,1.086421,-0.3706215,0.0149175,0.903545,-0.7305615,0.0335105,1.112461,-0.7430315,0.0331005,0
215,1.006801,0.7170545,0.0450995,0.846435,0.5150945,0.0114615,0.724425,0.6917045,-0.0794735,1.151005,0.5277545,0.0049355,1.256405,0.7346445,-0.0960435,0.701025,0.8937745,-0.1212455,1.300035,0.9537045,-0.1411055,0.92571,0.0009834999999999,-0.0030255,1.07429,-0.0009834999999999,0.0030254999999999,0.904581,-0.3536355,0.0249455,1.085263,-0.3686655,0.0191365,0.903748,-0.7303155,0.0367055,1.112575,-0.7430355,0.0359845,0
