sb224sc-HT22-VT27/4dt907/src/data/labeled_files/B19_kinect_mirrored.csv
FrameNo,nose_3d_x,nose_3d_y,nose_3d_z,left_shoulder_3d_x,left_shoulder_3d_y,left_shoulder_3d_z,left_elbow_3d_x,left_elbow_3d_y,left_elbow_3d_z,right_shoulder_3d_x,right_shoulder_3d_y,right_shoulder_3d_z,right_elbow_3d_x,right_elbow_3d_y,right_elbow_3d_z,left_wrist_3d_x,left_wrist_3d_y,left_wrist_3d_z,right_wrist_3d_x,right_wrist_3d_y,right_wrist_3d_z,left_hip_3d_x,left_hip_3d_y,left_hip_3d_z,right_hip_3d_x,right_hip_3d_y,right_hip_3d_z,left_knee_3d_x,left_knee_3d_y,left_knee_3d_z,right_knee_3d_x,right_knee_3d_y,right_knee_3d_z,left_ankle_3d_x,left_ankle_3d_y,left_ankle_3d_z,right_ankle_3d_x,right_ankle_3d_y,right_ankle_3d_z,activity_label
0,1.0132075,0.7655305,0.0514145,0.8415735,0.4856205,0.0167755,0.7755635000000001,0.2364905,0.0338635,1.1802835,0.4845505,0.0027825,1.2204335,0.2277505,-0.0157035,0.8404335,0.3427405,-0.2017264999999999,1.2003935,0.0302764999999999,-0.0890065,0.9258465,0.0026885,-0.0005295,1.0741535,-0.0026885,0.0005295,0.9002935,-0.3354595,0.0421335,1.0926745,-0.3303395,0.0274205,0.9024085,-0.6516495,0.0728885,1.0978835,-0.6503994999999999,0.0727085,0
1,1.013197,0.7654915,0.0516905,0.8417939999999999,0.4856115,0.0168184999999999,0.775774,0.2361115,0.0329165,1.180494,0.4846015,0.0028655,1.220664,0.2277415,-0.0155905,0.840164,0.3442315,-0.2019265,1.200564,0.0303184999999999,-0.0889465,0.925871,0.0027085,-0.0004975,1.074129,-0.0027085,0.0004974999999999,0.900474,-0.3356285,0.0420855,1.09298,-0.3302985,0.0274384999999999,0.902474,-0.6517285,0.0727265,1.098129,-0.6503685,0.0728824999999999,0
2,1.0130525,0.7655655,0.0521834999999999,0.8417835000000001,0.4856155,0.0169625,0.7759834999999999,0.2357655,0.0343025,1.1805335,0.4844155,0.0029564999999999,1.2205835,0.2279855,-0.0155615,0.8401935,0.3428555,-0.2010795,1.2005835,0.0307905,-0.0888595,0.9258885,0.0027045,-0.0004725,1.0741115,-0.0027045,0.0004724999999999,0.9008635,-0.3361845,0.0423864999999999,1.0930875,-0.3303045,0.0274494999999999,0.9027825,-0.6531545,0.0729025,1.0987595,-0.6527245,0.0724305,0
3,1.01291,0.7654825000000001,0.0523995,0.84178,0.4856125,0.0169754999999999,0.7759,0.2357125,0.0342544999999999,1.18053,0.4844325,0.0031244999999999,1.22052,0.2280125,-0.0154875,0.84023,0.3428325,-0.2010835,1.2002,0.0304755,-0.0890234999999999,0.925891,0.0026975,-0.0004335,1.074109,-0.0026975,0.0004334999999999,0.90088,-0.3361375,0.0423225,1.09306,-0.3303075,0.0274204999999999,0.902797,-0.6530475,0.0729455,1.098785,-0.6527675,0.0725745,0
4,1.012797,0.7653580000000001,0.0529069999999999,0.841762,0.485618,0.0171769999999999,0.776072,0.235708,0.034709,1.180592,0.484438,0.0032979999999999,1.2205119999999998,0.228028,-0.015397,0.839832,0.342358,-0.200998,1.199942,0.030294,-0.089128,0.925877,0.002703,-0.0004219999999999,1.074123,-0.002703,0.0004219999999999,0.900932,-0.336112,0.042345,1.09319,-0.330362,0.027402,0.902801,-0.652632,0.073083,1.098829,-0.6526019999999999,0.072631,0
5,1.012692,0.765359,0.053144,0.841742,0.485599,0.017195,0.776122,0.235809,0.034723,1.180492,0.484309,0.003749,1.220242,0.228029,-0.0154109999999999,0.839612,0.342279,-0.201151,1.199862,0.030289,-0.0891009999999999,0.925877,0.002693,-0.000431,1.074123,-0.002693,0.000431,0.901132,-0.336201,0.042359,1.093181,-0.330361,0.027392,0.902789,-0.652751,0.073024,1.098799,-0.652651,0.0726499999999999,0
6,1.012659,0.7653909999999999,0.0535125,0.841601,0.485671,0.0175624999999999,0.776201,0.235861,0.0347445,1.180571,0.484331,0.0038834999999999,1.220231,0.228201,-0.0152865,0.839311,0.342901,-0.2009615,1.199691,0.030657,-0.0888015,0.925859,0.0026969999999999,-0.0004175,1.074141,-0.0026969999999999,0.0004174999999999,0.901161,-0.336049,0.0423305,1.093119,-0.330119,0.0270194999999999,0.902736,-0.652059,0.0727555,1.098953,-0.6514390000000001,0.0725244999999999,0
7,1.0126579999999998,0.7653464999999999,0.053915,0.841616,0.4856265,0.017736,0.776296,0.2356565,0.035236,1.180656,0.4842965,0.00408,1.219996,0.2279564999999999,-0.0153709999999999,0.8397160000000001,0.3437165,-0.2002879999999999,1.199406,0.0303965,-0.088818,0.925869,0.0026934999999999,-0.0003919999999999,1.074131,-0.0026934999999999,0.000392,0.901196,-0.3359534999999999,0.042227,1.093176,-0.3303235,0.027232,0.902854,-0.6513935000000001,0.072828,1.098802,-0.6511335,0.07247,0
8,1.0126255,0.765331,0.054245,0.8415954999999999,0.485641,0.017885,0.7763855,0.235651,0.03544,1.1806955,0.484271,0.004302,1.2198955,0.227961,-0.0153579999999999,0.8398255,0.344131,-0.1998229999999999,1.1992155,0.030371,-0.088793,0.9258625,0.002693,-0.0003769999999999,1.0741375,-0.002693,0.000377,0.9012555,-0.335959,0.042212,1.0932165,-0.330329,0.027229,0.9028915,-0.651229,0.072803,1.0988585,-0.6511089999999999,0.0724269999999999,0
9,1.0126045,0.765334,0.054523,0.8415805000000001,0.485654,0.0180189999999999,0.7764705000000001,0.235624,0.0356589999999999,1.1807305,0.484254,0.00451,1.2197905,0.227954,-0.015323,0.8398505,0.344274,-0.199357,1.1990505,0.030333,-0.088757,0.9258585,0.002693,-0.000363,1.0741415,-0.002693,0.0003629999999999,0.9013205,-0.3359459999999999,0.042224,1.0932455,-0.330346,0.0272259999999999,0.9029325,-0.651046,0.072808,1.0989595,-0.651136,0.072385,0
10,1.0125965,0.7653285,0.0547995,0.8415675,0.4856585,0.0181645,0.7765575,0.2355885,0.0358865,1.1807775,0.4842485,0.0046705,1.2196775,0.2278885,-0.0152885,0.8400974999999999,0.3446685,-0.1986815,1.1988875,0.0302645,-0.0887215,0.9258535,0.0026965,-0.0003495,1.0741465,-0.0026965,0.0003495,0.9013775,-0.3359115,0.0422035,1.0932745,-0.3303615,0.0272234999999999,0.9029535,-0.6507515,0.0728024999999999,1.0990224999999998,-0.6509715,0.0723515,0
11,1.012586,0.765321,0.055053,0.841558,0.485661,0.018283,0.7766380000000002,0.235541,0.036128,1.180808,0.4842309999999999,0.004826,1.219548,0.227801,-0.0152489999999999,0.8407680000000001,0.345091,-0.19801,1.198748,0.030199,-0.08867,0.92585,0.002701,-0.000342,1.07415,-0.002701,0.000342,0.901428,-0.335889,0.042183,1.093256,-0.330419,0.027228,0.90298,-0.650519,0.072802,1.099076,-0.650929,0.072292,0
12,1.012589,0.7653135,0.0552594999999999,0.841594,0.4856735,0.0183484999999999,0.776754,0.2353935,0.0363634999999999,1.180844,0.4842335,0.0049354999999999,1.219454,0.2277235,-0.0152135,0.841124,0.3455135,-0.1975085,1.198624,0.0301374999999999,-0.0886185,0.925844,0.0027075,-0.0003355,1.074156,-0.0027075,0.0003354999999999,0.901474,-0.3358564999999999,0.0421625,1.093248,-0.3304665,0.0272174999999999,0.903002,-0.6502665000000001,0.0727935,1.099111,-0.6508465,0.0722385,0
13,1.0125795,0.765313,0.0554255,0.8416015,0.485683,0.0184195,0.7768415,0.235283,0.0365495,1.1808515,0.4842229999999999,0.0049405,1.2194015,0.227663,-0.0151785,0.8411815,0.345533,-0.1969855,1.1985515,0.030073,-0.0885555,0.9258395,0.002713,-0.0003285,1.0741605,-0.002713,0.0003284999999999,0.9014815,-0.335847,0.0421445,1.0932385,-0.330497,0.0272064999999999,0.9030045,-0.650127,0.0727845,1.0991215,-0.650817,0.0722025,0
14,1.0125615,0.7653185,0.0555424999999999,0.8416035,0.4856884999999999,0.0184725,0.7769535000000001,0.2351685,0.0368355,1.1808335,0.4842085,0.0049444999999999,1.2193535,0.2275985,-0.0151514999999999,0.8411035,0.3455485,-0.1965745,1.1985135,0.0300024999999999,-0.0885045,0.9258335,0.0027195,-0.0003195,1.0741665,-0.0027195,0.0003195,0.9014735,-0.3358515,0.0421215,1.0932274999999998,-0.3305015,0.0272234999999999,0.9029985,-0.6499915,0.0727965,1.0991555,-0.6508015,0.0722025,0
15,1.0125335,0.7653114999999999,0.055663,0.8416055,0.4856715,0.0185419999999999,0.7770655,0.2350415,0.0371619999999999,1.1807955,0.4841815,0.0049719999999999,1.2193155,0.2276015,-0.015097,0.8412155,0.3453215,-0.1961,1.1985255,0.0300054999999999,-0.08845,0.9258335,0.0027225,-0.000291,1.0741665,-0.0027225,0.0002909999999999,0.9014655,-0.3358585,0.0421109999999999,1.0932115,-0.3305185,0.0272599999999999,0.9029845,-0.6498385000000001,0.072826,1.0991885,-0.6508185000000001,0.072227,0
16,1.012512,0.765304,0.055764,0.8416049999999999,0.485664,0.01861,0.777185,0.234944,0.037495,1.180475,0.484154,0.004954,1.219285,0.227634,-0.015042,0.8412850000000001,0.345404,-0.195749,1.1985249999999998,0.029999,-0.088369,0.925833,0.002724,-0.0002589999999999,1.074167,-0.002724,0.000259,0.901455,-0.335856,0.042093,1.093189,-0.3305459999999999,0.027293,0.902968,-0.649756,0.07286,1.09925,-0.650856,0.072278,0
17,1.012478,0.7653019999999999,0.0558474999999999,0.841603,0.485652,0.0186714999999999,0.777303,0.234882,0.0377924999999999,1.180093,0.484162,0.0048434999999999,1.219263,0.227672,-0.0149775,0.841313,0.3454919999999999,-0.1956895,1.198533,0.030037,-0.0882795,0.925833,0.002726,-0.0002245,1.074167,-0.002726,0.0002244999999999,0.901443,-0.335848,0.0420734999999999,1.093178,-0.330558,0.0273244999999999,0.902951,-0.649748,0.0728864999999999,1.099282,-0.650988,0.0723375,0
18,1.0124475,0.7652965,0.0559444999999999,0.8416025,0.4856465,0.0187344999999999,0.7774125000000001,0.2348565,0.0380135,1.1796725,0.4841665,0.0046854999999999,1.2192725,0.2276965,-0.0148645,0.8413325,0.3454965,-0.1956655,1.1985325,0.0300415,-0.0882554999999999,0.9258335,0.0027295,-0.0001955,1.0741665,-0.0027295,0.0001955,0.9014425,-0.3358735,0.0420635,1.0931635,-0.3305735,0.0273585,0.9029425,-0.6497434999999999,0.0729085,1.0993105,-0.6511134999999999,0.0723965,0
19,1.012412,0.76529,0.0560159999999999,0.8416000000000001,0.4856399999999999,0.018791,0.77748,0.23481,0.038064,1.17919,0.48417,0.0045269999999999,1.21928,0.22772,-0.014743,0.84135,0.3455,-0.195656,1.19853,0.030046,-0.088236,0.925834,0.002731,-0.000162,1.074166,-0.002731,0.0001619999999999,0.90143,-0.33589,0.042052,1.093151,-0.33057,0.0273789999999999,0.902928,-0.64974,0.0729229999999999,1.099338,-0.65115,0.072459,0
20,1.012387,0.7652785,0.0560854999999999,0.8416049999999999,0.4856385,0.0188505,0.777495,0.2348184999999999,0.0380705,1.178715,0.4841785,0.0043655,1.219305,0.2277585,-0.0146065,0.840805,0.3454485,-0.1958395,1.198555,0.0301325,-0.0882194999999999,0.925832,0.0027325,-0.0001244999999999,1.074168,-0.0027325,0.0001244999999999,0.901445,-0.3359315,0.0420455,1.093166,-0.3305815,0.0273834999999999,0.902942,-0.6497415,0.0729265,1.09937,-0.6511715,0.0725415,0
21,1.01236,0.7652765,0.0561565,0.8416080000000001,0.4856364999999999,0.0189115,0.777508,0.2348265,0.0380275,1.178258,0.4841865,0.0042655,1.219328,0.2278565,-0.0144834999999999,0.8407979999999999,0.3453265,-0.1960435,1.198598,0.0304425,-0.0882635,0.92583,0.0027345,-8.74999999999973e-05,1.07417,-0.0027345,8.750000000000424e-05,0.901458,-0.3359335,0.0420355,1.093179,-0.3305835,0.0273995,0.902955,-0.6498035,0.0729325,1.099389,-0.6511735,0.0726455,0
22,1.0123585,0.7652835,0.056215,0.8416125,0.4856335,0.018978,0.7775325,0.2348235,0.038034,1.1778325,0.4842035,0.0042369999999999,1.2194425,0.2281234999999999,-0.0144839999999999,0.8412525,0.3453535,-0.196258,1.1986225,0.0310335,-0.088678,0.9258255,0.0027315,-5.8000000000002494e-05,1.0741745,-0.0027315,5.8000000000002494e-05,0.9014825,-0.3359465,0.042028,1.0932035,-0.3305865,0.027405,0.9029845,-0.6498865,0.072937,1.0994155,-0.6512665000000001,0.072683,0
23,1.0123605,0.765281,0.056269,0.8416195000000001,0.485631,0.019033,0.7775095000000001,0.235001,0.037382,1.1774595,0.484241,0.004249,1.2196895,0.228701,-0.0145139999999999,0.8418795,0.345351,-0.196384,1.1986195,0.0322729999999999,-0.090054,0.9258205,0.002726,-2.3999999999996247e-05,1.0741795,-0.002726,2.4000000000003185e-05,0.9015195,-0.335949,0.042014,1.0932665,-0.330549,0.027345,0.9030205,-0.649919,0.072912,1.0994585,-0.651379,0.07276,0
24,1.0123829999999998,0.7652975,0.056382,0.841677,0.4856275,0.019076,0.777347,0.2355175,0.036223,1.177127,0.4843275,0.004247,1.2200669999999998,0.2296575,-0.014567,0.841707,0.3455675,-0.196851,1.199167,0.0371755,-0.094201,0.925813,0.0027155,0.0,1.074187,-0.0027155,0.0,0.901617,-0.3359525,0.041984,1.093354,-0.3305325,0.027277,0.90308,-0.6499925,0.072866,1.099448,-0.6514925,0.07282,0
25,1.0123855,0.7652965,0.0565575,0.8417304999999999,0.4856565,0.0191574999999999,0.7768205,0.2367265,0.0331435,1.1770105,0.4844664999999999,0.0042064999999999,1.2210705,0.2329165,-0.0149795,0.8407505,0.3457964999999999,-0.1976515,1.2000705,0.0462934999999999,-0.1021715,0.9257695,0.0027064999999999,5.049999999999499e-05,1.0742305,-0.0027064999999999,-5.050000000000193e-05,0.9016905,-0.3359635,0.0419325,1.0934374999999998,-0.3305035,0.0272035,0.9031265,-0.6501334999999999,0.0727645,1.0993815,-0.6516035,0.0728385,0
26,1.0123985,0.7653139999999999,0.0569115,0.8417745,0.485634,0.0190574999999999,0.7760845000000001,0.238994,0.0280914999999999,1.1769345,0.484664,0.0041234999999999,1.2224645,0.238034,-0.0157985,0.8398945000000001,0.348034,-0.1984705,1.2016845,0.058587,-0.1129405,0.9257345,0.0026969999999999,0.0001494999999999,1.0742655,-0.0026969999999999,-0.0001495,0.9017345,-0.335976,0.0418264999999999,1.0935125,-0.330496,0.0271014999999999,0.9031695,-0.650366,0.0726185,1.0993065,-0.651726,0.0727785,0
27,1.012412,0.7653405,0.0573115,0.8418300000000001,0.4856105,0.0189075,0.7746600000000001,0.2421205,0.0217564999999999,1.1769,0.4848905,0.0040525,1.22433,0.2446305,-0.0177065,0.83926,0.3516505,-0.1994985,1.20439,0.0760385,-0.1258985,0.925702,0.0026795,0.0002354999999999,1.074298,-0.0026795,-0.0002354999999999,0.90175,-0.3359995,0.0417155,1.093586,-0.3304895,0.0269505,0.903212,-0.6505995,0.0724475,1.099261,-0.6518795000000001,0.0726644999999999,0
28,1.0124479999999998,0.7653475000000001,0.0577915,0.841946,0.4855575,0.0186965,0.7725960000000001,0.2467075,0.0133835,1.176886,0.4851075,0.0042045,1.226366,0.2530775,-0.0206414999999999,0.838556,0.3617375,-0.2014125,1.208626,0.0967185,-0.1414025,0.925671,0.0026405,0.0003285,1.074329,-0.0026405,-0.0003284999999999,0.901776,-0.3360125,0.0415005,1.093651,-0.3304525,0.0267445,0.903214,-0.6508324999999999,0.0722425,1.099216,-0.6520524999999999,0.0724945,0
29,1.0124635,0.765353,0.0585925,0.8431275,0.485023,0.0183655,0.7697375,0.251843,0.0044674999999999,1.1767375,0.485433,0.0044505,1.2312875,0.2625329999999999,-0.0318985,0.8349275,0.3718229999999999,-0.2055634999999999,1.2148575,0.118093,-0.1629735,0.9256155,0.002578,0.0004095,1.0743845,-0.002578,-0.0004095,0.9017675,-0.336037,0.0412625,1.0936775,-0.330347,0.0265255,0.9031815,-0.651097,0.0719675,1.0991054999999998,-0.652247,0.0722775,0
30,1.01248,0.7653380000000001,0.0594979999999999,0.844267,0.4844779999999999,0.0180289999999999,0.765617,0.2595179999999999,-0.007408,1.176577,0.4858079999999999,0.0047309999999999,1.236357,0.2743779999999999,-0.043852,0.831137,0.3869479999999999,-0.209751,1.221607,0.140968,-0.185111,0.925547,0.002494,0.0005039999999999,1.074453,-0.002494,-0.000504,0.901737,-0.335932,0.0409779999999999,1.093685,-0.330182,0.0263249999999999,0.903114,-0.651442,0.071629,1.098983,-0.6524719999999999,0.0720119999999999,0
31,1.012478,0.7653,0.0605435,0.845337,0.48394,0.0176835,0.760687,0.26979,-0.0214425,1.176267,0.48624,0.0049225,1.242907,0.28668,-0.0561495,0.826687,0.40259,-0.2142155,1.228507,0.17499,-0.2099155,0.925485,0.00241,0.0006185,1.074515,-0.00241,-0.0006185,0.901647,-0.33536,0.0406404999999999,1.093687,-0.33003,0.0260955,0.903008,-0.6517999999999999,0.0712625,1.098836,-0.65274,0.0717015,0
32,1.012477,0.765247,0.061744,0.846327,0.483427,0.01739,0.755187,0.282167,-0.0363779999999999,1.176007,0.486767,0.00509,1.249607,0.300807,-0.068635,0.820237,0.419887,-0.2185249999999999,1.236417,0.215837,-0.234815,0.925414,0.002323,0.00074,1.074586,-0.002323,-0.0007399999999999,0.901537,-0.3348629999999999,0.040297,1.093691,-0.329893,0.025857,0.902903,-0.652493,0.070861,1.098688,-0.653003,0.07134,0
33,1.012501,0.7651910000000001,0.0630729999999999,0.847234,0.483001,0.017168,0.748814,0.297431,-0.052629,1.175694,0.487251,0.005169,1.256974,0.314541,-0.081406,0.812024,0.441411,-0.222886,1.243914,0.259391,-0.256706,0.925333,0.002234,0.000895,1.074667,-0.002234,-0.000895,0.901424,-0.334379,0.039982,1.093694,-0.329769,0.0256339999999999,0.902786,-0.653079,0.0704559999999999,1.098551,-0.653269,0.07097,0
34,1.0125355,0.765146,0.064471,0.8479165,0.483116,0.016976,0.7417665,0.314896,-0.0683989999999999,1.1752565,0.487676,0.004886,1.2647065,0.328716,-0.094889,0.8030165,0.465316,-0.225849,1.2517865,0.304846,-0.272479,0.9252395,0.002145,0.001125,1.0747605,-0.0021449999999999,-0.001125,0.9013665,-0.333994,0.039724,1.0936845,-0.329644,0.02547,0.9026235,-0.653544,0.070084,1.0984215,-0.653464,0.070637,0
35,1.0125244999999998,0.7650644999999999,0.065724,0.8483745,0.4833645,0.0168309999999999,0.7338745,0.3336045,-0.082361,1.1750445,0.4881245,0.0046419999999999,1.2720645,0.3477145,-0.110771,0.7929745,0.4930745,-0.227761,1.2598545,0.3532545,-0.284281,0.9251385,0.0020375,0.0013449999999999,1.0748615,-0.0020375,-0.001345,0.9012345,-0.3336455,0.0395019999999999,1.0936215,-0.3295355,0.0253579999999999,0.9023805,-0.6539655000000001,0.069776,1.0982375,-0.6536755000000001,0.0703419999999999,0
36,1.012457,0.7649715,0.067015,0.848446,0.4836014999999999,0.016758,0.725976,0.3531215,-0.0927689999999999,1.174776,0.4887614999999999,0.00443,1.279726,0.3654214999999999,-0.125749,0.782036,0.5210815000000001,-0.228599,1.267436,0.4013514999999999,-0.292749,0.925031,0.0019065,0.001596,1.074969,-0.0019065,-0.0015959999999999,0.900996,-0.3333585,0.039329,1.0934929999999998,-0.3294285,0.025299,0.90206,-0.6543685,0.069511,1.097986,-0.6539085,0.070078,0
37,1.012458,0.764822,0.068344,0.848174,0.483702,0.016761,0.7169639999999999,0.375692,-0.10071,1.174484,0.489522,0.004199,1.289664,0.386832,-0.14051,0.769564,0.548702,-0.22804,1.275244,0.455162,-0.29734,0.924953,0.001765,0.0018509999999999,1.075047,-0.0017649999999999,-0.0018509999999999,0.900704,-0.333358,0.039165,1.09333,-0.329538,0.025221,0.901667,-0.655088,0.0692369999999999,1.097751,-0.654238,0.069802,0
38,1.012443,0.7643985,0.0692865,0.8478760000000001,0.4834084999999999,0.0167524999999999,0.7087060000000001,0.4006285,-0.1070565,1.174176,0.4905584999999999,0.0038924999999999,1.295516,0.4117384999999999,-0.1453065,0.758316,0.5793585,-0.2275765,1.281426,0.5130485,-0.2980065,0.924915,0.0016354999999999,0.0021194999999999,1.075085,-0.0016355,-0.0021195,0.900396,-0.3337215,0.0389464999999999,1.093149,-0.3299715,0.0250975,0.901243,-0.6560515,0.0689605,1.097498,-0.6547815,0.0694745,0
39,1.0124335,0.7637229999999999,0.0700575,0.8475905000000001,0.4833929999999999,0.0168375,0.7013805,0.425413,-0.1113155,1.1737605,0.491593,0.0035335,1.3011605,0.437133,-0.1491655,0.7464204999999999,0.6049129999999999,-0.2270455,1.2872805,0.571763,-0.2986255,0.9248965,0.0014889999999999,0.0023605,1.0751035,-0.0014889999999999,-0.0023605,0.9000905,-0.334507,0.0387535,1.0929675,-0.330717,0.0248855,0.9008085,-0.657247,0.0687115,1.0972615,-0.655537,0.0691745,0
40,1.0124175,0.7628665,0.0706305,0.8472775000000001,0.4838265,0.0170335,0.6949775,0.4489465,-0.1116445,1.1732275,0.4928965,0.0032225,1.3049075,0.4635265,-0.1516944999999999,0.7341975000000001,0.6319064999999999,-0.2229145,1.2930675,0.6227765,-0.2991745,0.9249105,0.0013265,0.0026675,1.0750895,-0.0013265,-0.0026674999999999,0.8998975,-0.3355535,0.0387325,1.0927415,-0.3317235,0.0247295,0.9003665,-0.6587335000000001,0.0685055,1.0970155,-0.6565635000000001,0.0689245,0
41,1.012406,0.76163,0.0711135,0.845804,0.48545,0.0179105,0.6892739999999999,0.47178,-0.1112374999999999,1.172664,0.49427,0.0028894999999999,1.3081839999999998,0.49291,-0.1528175,0.7230840000000001,0.6588400000000001,-0.2195675,1.298324,0.66639,-0.2958575,0.924935,0.0011229999999999,0.0029805,1.075065,-0.0011229999999999,-0.0029805,0.8998490000000001,-0.33688,0.0389505,1.09252,-0.33309,0.0247795,0.899949,-0.6604,0.0685345,1.096789,-0.65789,0.0688505,0
42,1.0123345,0.7602465,0.0714305,0.8444615,0.4868965,0.0189184999999999,0.6846814999999999,0.4954265,-0.1107215,1.1720715,0.4960165,0.0025924999999999,1.3104615,0.5230065,-0.1527515,0.7133015,0.6842465000000001,-0.2122915,1.3042115,0.7094565,-0.2910315,0.9249865,0.0009034999999999,0.0032534999999999,1.0750135,-0.0009035,-0.0032534999999999,0.8998195,-0.3384135,0.0393154999999999,1.0923095,-0.3344935,0.0250075,0.8995105,-0.6622134999999999,0.0687405,1.0965405,-0.6595635,0.0689315,0
43,1.0123084999999998,0.7584515,0.0717879999999999,0.8429515,0.4887615,0.020061,0.6812015,0.5160715,-0.1101449999999999,1.1717015,0.4979915,0.002313,1.3112715,0.5515915,-0.152445,0.7040615,0.7085315,-0.203235,1.3098815,0.7467014999999999,-0.281865,0.9250665,0.0006635,0.0036039999999999,1.0749335,-0.0006634999999999,-0.0036039999999999,0.8997935,-0.3405284999999999,0.0399,1.0921575,-0.3362584999999999,0.025292,0.8991215,-0.6645085000000001,0.069086,1.0963245,-0.6616685,0.069134,0
44,1.012386,0.756329,0.072185,0.8416669999999999,0.4908089999999999,0.0211799999999999,0.679147,0.535509,-0.107565,1.171407,0.500039,0.002123,1.311717,0.574599,-0.152075,0.695377,0.728869,-0.193295,1.315177,0.778809,-0.270205,0.925179,0.000523,0.0039979999999999,1.074821,-0.0005229999999999,-0.003998,0.8998,-0.342991,0.0404659999999999,1.092056,-0.338361,0.025611,0.8987670000000001,-0.666851,0.069502,1.096138,-0.664131,0.069359,0
45,1.0125925,0.75397,0.072578,0.8406335,0.4930399999999999,0.022309,0.6783835,0.55458,-0.102353,1.1711935,0.50214,0.00195,1.3114935,0.59838,-0.151523,0.6879335000000001,0.74861,-0.182163,1.3200035,0.8063899999999999,-0.257633,0.9253225,0.00042,0.004396,1.0746775,-0.00042,-0.0043959999999999,0.8998505,-0.34579,0.040969,1.0920025,-0.34075,0.025902,0.8984835,-0.66949,0.069927,1.0960405,-0.66683,0.069537,0
46,1.0128185,0.751135,0.0728795,0.8399265000000001,0.495445,0.0234615,0.6786665000000001,0.5699649999999999,-0.0946154999999999,1.1712365,0.504265,0.0021785,1.3114565,0.616925,-0.1485955,0.6823165,0.763095,-0.1701754999999999,1.3232265,0.824955,-0.2459755,0.9255085,0.0004389999999999,0.0046514999999999,1.0744915,-0.000439,-0.0046515,0.8999785,-0.349005,0.0414895,1.0919935,-0.343555,0.0262545,0.8982665,-0.672535,0.0704424999999999,1.0959675,-0.669955,0.0698375,0
47,1.013138,0.74838,0.0730615,0.839522,0.4976799999999999,0.0245774999999999,0.679072,0.58372,-0.0856125,1.171352,0.5061,0.0024744999999999,1.311712,0.6315000000000001,-0.1420225,0.6782520000000001,0.77676,-0.1573125,1.325852,0.8391900000000001,-0.2342525,0.925686,0.0004849999999999,0.0048504999999999,1.074314,-0.000485,-0.0048505,0.900191,-0.35181,0.0420904999999999,1.092015,-0.34636,0.0266695,0.8981020000000001,-0.6756099999999999,0.0710385,1.095938,-0.67314,0.0702415,0
48,1.0135325,0.7457325,0.0729789999999999,0.8394275,0.4997425,0.0256909999999999,0.6794175,0.5961925,-0.077717,1.1714775,0.5079524999999999,0.0028789999999999,1.3119275,0.6436925,-0.134357,0.6749875000000001,0.7911925,-0.144717,1.3281175,0.8540025,-0.220497,0.9258545,0.0005894999999999,0.0050119999999999,1.0741455,-0.0005894999999999,-0.005012,0.9004375,-0.3541975,0.0427979999999999,1.0920405,-0.3491275,0.0271629999999999,0.8979874999999999,-0.6788075,0.071718,1.0959295,-0.6762875,0.070753,0
49,1.01395,0.7429745000000001,0.072577,0.83937,0.5015645,0.026789,0.68087,0.6081245,-0.0698439999999999,1.17167,0.5096145000000001,0.0033269999999999,1.30964,0.6553245000000001,-0.1254839999999999,0.6729700000000001,0.8043245000000001,-0.132464,1.32986,0.8647545000000001,-0.207774,0.925993,0.0007204999999999,0.0050629999999999,1.074007,-0.0007205,-0.0050629999999999,0.9006100000000001,-0.3562555,0.043525,1.092107,-0.3517555,0.02769,0.8978900000000001,-0.6820155000000001,0.072452,1.095955,-0.6795255,0.071347,0
50,1.0144095,0.7404665,0.0720119999999999,0.8392995,0.5032165000000001,0.027754,0.6828095000000001,0.6197065,-0.06139,1.1716795,0.5112265,0.0038619999999999,1.3085095,0.6628065000000001,-0.117666,0.6716595000000001,0.8173565,-0.120386,1.3312595,0.8751965,-0.195266,0.9261145,0.0009165,0.0049589999999999,1.0738854999999998,-0.0009164999999999,-0.0049589999999999,0.9006575,-0.3580735,0.044245,1.0921755,-0.3542435,0.028214,0.8978095000000001,-0.6850835,0.07318,1.0959775,-0.6825635,0.07195,0
51,1.0150095,0.7379195000000001,0.0711345,0.8393055,0.5051195,0.0286395,0.6848055,0.6279495,-0.0535155,1.1717455,0.5124795000000001,0.0044024999999999,1.3074355,0.6699795000000001,-0.1098345,0.6710355,0.8275495,-0.1082845,1.3319355,0.8796895,-0.1838945,0.9262135,0.0011514999999999,0.0047794999999999,1.0737865,-0.0011514999999999,-0.0047794999999999,0.9007545,-0.3599105,0.0449395,1.0922655,-0.3568605,0.0287545,0.8977855,-0.6882505,0.0738824999999999,1.0960765,-0.6858204999999999,0.0725845,0
52,1.015685,0.735619,0.070138,0.839493,0.5066390000000001,0.029548,0.687283,0.636789,-0.0459029999999999,1.171803,0.513609,0.005003,1.306743,0.676559,-0.102634,0.670903,0.836909,-0.096634,1.332693,0.883649,-0.1723039999999999,0.926286,0.001447,0.0044109999999999,1.073714,-0.0014469999999999,-0.0044109999999999,0.900903,-0.3611709999999999,0.045545,1.092377,-0.359361,0.0293539999999999,0.897823,-0.691001,0.074595,1.096251,-0.688861,0.073188,0
53,1.016358,0.7335079999999999,0.0689839999999999,0.839948,0.5080279999999999,0.030388,0.689848,0.645118,-0.03891,1.171968,0.5145179999999999,0.0055369999999999,1.306088,0.682288,-0.096311,0.671128,0.847078,-0.084671,1.333378,0.886568,-0.161821,0.926358,0.0016629999999999,0.0040439999999999,1.073642,-0.001663,-0.004044,0.901055,-0.3621919999999999,0.046046,1.092497,-0.3617019999999999,0.0298999999999999,0.897868,-0.693582,0.07524,1.096442,-0.691662,0.073738,0
54,1.017067,0.7315715,0.0677075,0.8403160000000001,0.5093715,0.0311305,0.692356,0.6527215000000001,-0.0327055,1.172236,0.5151515,0.0059745,1.305476,0.6871415000000001,-0.0906595,0.671496,0.8564415,-0.0733795,1.334036,0.8890415,-0.1520995,0.926449,0.0018355,0.0037514999999999,1.073551,-0.0018354999999999,-0.0037514999999999,0.901226,-0.3630184999999999,0.0464905,1.092652,-0.3638585,0.0303825,0.897956,-0.6960284999999999,0.0758365,1.096635,-0.6943185,0.0742315,0
55,1.017767,0.7301605,0.066358,0.8406570000000001,0.5106805,0.031798,0.694817,0.6597705,-0.027281,1.172617,0.5155805,0.006315,1.304947,0.6923305,-0.085972,0.6719470000000001,0.8652105,-0.063512,1.334487,0.8916005,-0.143322,0.926519,0.0019494999999999,0.0035359999999999,1.073481,-0.0019494999999999,-0.0035359999999999,0.901366,-0.3634795,0.046804,1.092803,-0.3655095,0.030786,0.898027,-0.6979595,0.076354,1.096838,-0.6964695,0.074664,0
56,1.0184875,0.728801,0.064991,0.8409725,0.511761,0.032391,0.6971625,0.665671,-0.022372,1.1730425,0.515661,0.0066089999999999,1.3042825,0.697211,-0.081874,0.6724225000000001,0.871881,-0.054592,1.3345525,0.893961,-0.1353039999999999,0.9265865,0.002064,0.003325,1.0734134999999998,-0.0020639999999999,-0.003325,0.9014755,-0.364149,0.04715,1.0929905,-0.367019,0.031149,0.8981225,-0.6998489999999999,0.076861,1.0971025,-0.698549,0.075078,0
57,1.0191355,0.7276875,0.0637025,0.8411065,0.5128975,0.0329355,0.6994565000000001,0.6709375,-0.0181875,1.1733965,0.5157075,0.0067744999999999,1.3033165,0.7017675,-0.0785075,0.6729165000000001,0.8781775,-0.0460075,1.3343065,0.8934075,-0.1300875,0.9266445,0.0021424999999999,0.0031165,1.0733555,-0.0021424999999999,-0.0031165,0.9015605,-0.3648625,0.0474485,1.0931545,-0.3682825,0.0314485,0.8981965000000001,-0.7014425,0.0772855,1.0973235,-0.7002325,0.0754384999999999,0
58,1.019772,0.7268315000000001,0.0624205,0.841155,0.5139515,0.0333635,0.7017350000000001,0.6757615,-0.0144485,1.173485,0.5156315,0.0069654999999999,1.302135,0.7055015,-0.0753775,0.673335,0.8843615,-0.0380584999999999,1.333975,0.8933515000000001,-0.1246975,0.926697,0.0021725,0.0029264999999999,1.073303,-0.0021725,-0.0029264999999999,0.90164,-0.3654984999999999,0.0477265,1.093311,-0.3694085,0.0317245,0.8982450000000001,-0.7029285,0.0776905,1.097533,-0.7016985,0.0757875,0
59,1.0203995,0.7260800000000001,0.061127,0.8412215000000001,0.51481,0.033864,0.7040715,0.6796300000000001,-0.0113049999999999,1.1735115,0.5153300000000001,0.007052,1.3008115,0.70859,-0.07271,0.6736615,0.88888,-0.031321,1.3338315,0.8937900000000001,-0.11993,0.9267535,0.002168,0.002771,1.0732465,-0.0021679999999999,-0.0027709999999999,0.9017225,-0.3659799999999999,0.047971,1.0934385,-0.37038,0.031957,0.8982915,-0.70424,0.078052,1.0977405,-0.70304,0.076098,0
60,1.0209055,0.7252485,0.060087,0.8412675000000001,0.5158685,0.03443,0.7063575,0.6829685,-0.0084419999999999,1.1735175,0.5154785,0.0069979999999999,1.2993875,0.7110785,-0.07031,0.6738775,0.8935285,-0.025173,1.3340975,0.8938385,-0.1158699999999999,0.9268045,0.0020865,0.0026679999999999,1.0731955,-0.0020864999999999,-0.002668,0.9017845,-0.3665515,0.048218,1.0935505,-0.3714015,0.0321899999999999,0.8983275,-0.7056115000000001,0.078425,1.0979505,-0.7043215,0.07641,0
61,1.021342,0.724426,0.0591374999999999,0.841225,0.517066,0.0351325,0.7085950000000001,0.685886,-0.0060385,1.173505,0.515586,0.0068184999999999,1.297745,0.712816,-0.0682325,0.673975,0.897566,-0.0202885,1.334315,0.894366,-0.1124624999999999,0.926831,0.0019469999999999,0.0026414999999999,1.073169,-0.001947,-0.0026414999999999,0.901825,-0.367264,0.0484535,1.093656,-0.372334,0.0323935,0.898345,-0.706964,0.0787485,1.098083,-0.705674,0.0767115,0
62,1.021706,0.723684,0.0582684999999999,0.841072,0.518294,0.0358834999999999,0.710772,0.688334,-0.0039755,1.173432,0.515814,0.0066324999999999,1.296002,0.714314,-0.0663715,0.673972,0.898604,-0.0170775,1.334532,0.894944,-0.1092915,0.926843,0.001797,0.0026484999999999,1.073157,-0.001797,-0.0026485,0.901889,-0.367956,0.0486034999999999,1.093747,-0.373136,0.0325264999999999,0.8983620000000001,-0.708236,0.0790434999999999,1.09821,-0.706906,0.0769535,0
63,1.0219565,0.7229264999999999,0.0575455,0.8407985,0.5193665,0.0366645,0.7128685,0.6903064999999999,-0.0023395,1.1732585,0.5161465,0.0064494999999999,1.2942285,0.7158665,-0.0646954999999999,0.6738685000000001,0.8993464999999999,-0.0141724999999999,1.3348485,0.8956465,-0.1062655,0.9268615,0.0016764999999999,0.0026725,1.0731385,-0.0016765,-0.0026725,0.9019115,-0.3684935,0.0487115,1.0938025,-0.3737935,0.0326295,0.8983385,-0.7094635,0.0793165,1.0982905,-0.7081135000000001,0.0771535,0
64,1.0221315,0.7221390000000001,0.0568965,0.8404895,0.519989,0.0372595,0.7149295,0.692019,-0.0009984999999999,1.1729795,0.5167090000000001,0.0062295,1.2925494999999998,0.717099,-0.0633654999999999,0.6737495,0.8999590000000001,-0.0115314999999999,1.3352095,0.896999,-0.1032355,0.9268835,0.0015459999999999,0.0026955,1.0731165,-0.0015459999999999,-0.0026954999999999,0.9019955,-0.369141,0.0488355,1.0938675,-0.374401,0.0326905,0.8983195,-0.7107509999999999,0.0795635,1.0983655,-0.709421,0.0773175,0
65,1.022207,0.7214499999999999,0.056328,0.8401620000000001,0.52089,0.037804,0.7169019999999999,0.69365,-8.099999999999774e-05,1.172602,0.51755,0.006005,1.291002,0.71822,-0.062314,0.673612,0.90043,-0.00981,1.335712,0.8980199999999999,-0.100774,0.926904,0.0013959999999999,0.002748,1.073096,-0.001396,-0.002748,0.902111,-0.36965,0.048938,1.093911,-0.3749099999999999,0.032793,0.898302,-0.71189,0.079775,1.098378,-0.7106600000000001,0.077435,0
66,1.0222245,0.7206319999999999,0.0558185,0.8398464999999999,0.521662,0.0383315,0.7186665,0.694812,0.0004424999999999,1.1721965,0.518262,0.0057945,1.2896165,0.7191719999999999,-0.0614795,0.6734065,0.900412,-0.0088815,1.3362965,0.898682,-0.0987395,0.9269285,0.001252,0.0027884999999999,1.0730715,-0.0012519999999999,-0.0027884999999999,0.9022125,-0.3702479999999999,0.0490545,1.0939455,-0.375418,0.0328845,0.8982965,-0.713118,0.0799935,1.0983795,-0.7119880000000001,0.0775235,0
67,1.0221585,0.7197545000000001,0.0553769999999999,0.8395635000000001,0.5223845,0.038759,0.7202435,0.6955045,0.000606,1.1717735,0.5191945,0.0055339999999999,1.2884035,0.7199445,-0.060965,0.6732935,0.8996345000000001,-0.0086429999999999,1.3369434999999998,0.8989944999999999,-0.097415,0.9269515000000002,0.0011695,0.002846,1.0730484999999998,-0.0011694999999999,-0.002846,0.9022905,-0.3709455,0.049122,1.0939485,-0.3759655,0.03293,0.8982635,-0.7143854999999999,0.0801419999999999,1.0983725,-0.7132955000000001,0.077601,0
68,1.022111,0.7189335,0.055046,0.839211,0.5232435,0.039261,0.721651,0.6958835,0.000572,1.171351,0.5201135,0.005279,1.287301,0.7203735,-0.0607159999999999,0.673271,0.8988035,-0.0085839999999999,1.337611,0.8989535,-0.0965459999999999,0.926975,0.0010965,0.002902,1.073025,-0.0010965,-0.0029019999999999,0.902397,-0.3716065,0.049173,1.093952,-0.3764265,0.032976,0.8982410000000001,-0.7156565,0.080261,1.098385,-0.7144965000000001,0.077684,0
69,1.0220915,0.7183155,0.054756,0.8389325000000001,0.5237555,0.039643,0.7228825,0.6962455000000001,0.000522,1.1709625,0.5205855,0.005181,1.2862725,0.7209855000000001,-0.0605659999999999,0.6732724999999999,0.8978855,-0.0085539999999999,1.3384125,0.8990855000000001,-0.0957859999999999,0.9269765,0.0010745,0.002932,1.0730235,-0.0010744999999999,-0.0029319999999999,0.9025395,-0.3720344999999999,0.049211,1.0939875,-0.3766945,0.032999,0.8982225,-0.7166345,0.080353,1.0984145,-0.7154345,0.077749,0
70,1.022075,0.7178435,0.0545095,0.8387,0.5241535,0.0399005,0.7239800000000001,0.6965535,0.0004515,1.17066,0.5210435,0.0051505,1.28536,0.7216535000000001,-0.0604865,0.6732899999999999,0.8970235,-0.0085554999999999,1.33918,0.8992935,-0.0952664999999999,0.926984,0.0010785,0.0029315,1.073016,-0.0010784999999999,-0.0029314999999999,0.902681,-0.3722965,0.0492185,1.094035,-0.3768565,0.0329955,0.89822,-0.7175265,0.0804065,1.0984539999999998,-0.7162465,0.0777785,0
71,1.0219815,0.7174335,0.054318,0.8385005,0.5245335,0.040072,0.7248905,0.6972735,0.0001369999999999,1.1703405,0.5214635,0.005148,1.2846605,0.7223035,-0.06042,0.6732705,0.8962935,-0.0089259999999999,1.3397505,0.8995635,-0.09508,0.9269855,0.0010804999999999,0.002935,1.0730145,-0.0010804999999999,-0.002935,0.9027915,-0.3725665,0.049257,1.0940655,-0.3769165,0.03299,0.8982105,-0.7182565,0.080454,1.0984795,-0.7169165,0.07781,0
72,1.0218725,0.7170605,0.054124,0.8383175,0.5248904999999999,0.040196,0.7256175,0.6980105,-0.0003989999999999,1.1700375,0.5218105,0.005144,1.2841075,0.7226705,-0.0603849999999999,0.6733275000000001,0.8956704999999999,-0.0096689999999999,1.3400475,0.8996805,-0.0951249999999999,0.9269865,0.0010865,0.002959,1.0730135,-0.0010865,-0.0029589999999999,0.9029075,-0.3728795,0.049274,1.0941105,-0.3769995,0.032964,0.8982075,-0.7187695000000001,0.080478,1.0984935,-0.7175395,0.077836,0
73,1.021769,0.716742,0.0539575,0.838159,0.525172,0.0403105,0.726229,0.698792,-0.0010355,1.169789,0.5220020000000001,0.0051254999999999,1.283679,0.722682,-0.0603505,0.673489,0.8950020000000001,-0.0108015,1.340219,0.8992020000000001,-0.0951705,0.926979,0.0010889999999999,0.0029814999999999,1.073021,-0.001089,-0.0029815,0.903013,-0.3731379999999999,0.0492854999999999,1.094155,-0.377088,0.0329565,0.898209,-0.719248,0.0804915,1.098526,-0.717998,0.0778484999999999,0
74,1.021648,0.7164615,0.0537965,0.838043,0.5253614999999999,0.0404155,0.7266430000000001,0.6996315,-0.0018605,1.1695829999999998,0.5221515,0.0050954999999999,1.283303,0.7225514999999999,-0.0603765,0.673673,0.8943715,-0.0121025,1.340383,0.8987715,-0.0952165,0.926968,0.0010914999999999,0.0030104999999999,1.073032,-0.0010914999999999,-0.0030104999999999,0.903099,-0.3733885,0.0493215,1.094197,-0.3771784999999999,0.0329675,0.898223,-0.7196885000000001,0.0804855,1.098548,-0.7184985,0.0778435,0
75,1.021523,0.7162054999999999,0.0535734999999999,0.8379130000000001,0.5255555,0.0404634999999999,0.726933,0.7006255,-0.0028105,1.169403,0.5222555,0.0050204999999999,1.282943,0.7223255,-0.0604945,0.673863,0.8937955,-0.0135145,1.340533,0.8984055,-0.0953745,0.926953,0.0011015,0.0030434999999999,1.073047,-0.0011014999999999,-0.0030435,0.90318,-0.3736144999999999,0.0493215,1.094224,-0.3772945,0.0329084999999999,0.8982230000000001,-0.7200545,0.0803905,1.098567,-0.7189045000000001,0.0777844999999999,0
76,1.0214115,0.716082,0.0533635,0.8378135000000001,0.525742,0.0404645,0.7271335,0.701682,-0.0037825,1.1692735,0.522422,0.0049605,1.2825935,0.722132,-0.0606235,0.6740635000000001,0.893332,-0.0149125,1.3405635,0.898162,-0.0954935,0.9269405,0.0010919999999999,0.0030825,1.0730595,-0.0010919999999999,-0.0030825,0.9032585,-0.3737479999999999,0.0493105,1.0942595,-0.377368,0.0328585,0.8982335,-0.7203579999999999,0.0802855,1.0986235,-0.719088,0.0777075,0
77,1.0213075,0.7159544999999999,0.0531434999999999,0.8377125,0.5259245,0.0404335,0.7272825,0.7027344999999999,-0.0047415,1.1691425,0.5225645,0.0049374999999999,1.2822625,0.7219345,-0.0607865,0.6742825,0.8928845,-0.0162305,1.3405625,0.8979145,-0.0960265,0.9269255,0.0010935,0.0031025,1.0730745,-0.0010934999999999,-0.0031025,0.9033135,-0.3738555,0.0492655,1.0942755,-0.3774254999999999,0.0327405,0.8982625,-0.7206655000000001,0.0801685,1.0986725,-0.7192655,0.0776005,0
78,1.021214,0.7158525,0.0529155,0.837616,0.5261125,0.0403875,0.727386,0.7037925,-0.0056505,1.169036,0.5226925,0.0049024999999999,1.281986,0.7217425,-0.0609575,0.674496,0.8924525000000001,-0.0174085,1.340576,0.8976725000000001,-0.0964775,0.926919,0.0011064999999999,0.0031435,1.073081,-0.0011064999999999,-0.0031435,0.903351,-0.3739475,0.0491785,1.094305,-0.3774775,0.0326025,0.898286,-0.7209874999999999,0.0800464999999999,1.098726,-0.7194275000000001,0.0775085,0
79,1.0211445,0.7157800000000001,0.052716,0.8375525,0.5262199999999999,0.040329,0.7274425,0.7046699999999999,-0.0063809999999999,1.1689525,0.52278,0.004911,1.2817525,0.7216,-0.0610899999999999,0.6746725,0.89215,-0.0183609999999999,1.3409625,0.8975200000000001,-0.0966199999999999,0.9269085,0.001117,0.003174,1.0730915,-0.0011169999999999,-0.0031739999999999,0.9033905,-0.37399,0.04912,1.0943155,-0.37751,0.032493,0.8983025,-0.7212700000000001,0.079953,1.0987925,-0.7195499999999999,0.077411,0
80,1.0210905,0.7157125000000001,0.052543,0.8375155,0.5262425000000001,0.0402779999999999,0.7275155,0.7049625,-0.006891,1.1689055,0.5228425000000001,0.004926,1.2815455,0.7214625,-0.061193,0.6747855,0.8919525,-0.019015,1.3413555,0.8973925,-0.096743,0.9268945,0.0011395,0.0032029999999999,1.0731055,-0.0011395,-0.003203,0.9034255,-0.3740375,0.0490409999999999,1.0943215,-0.3776075,0.032392,0.8983155,-0.7215275,0.0798629999999999,1.0988555,-0.7196475,0.077306,0
81,1.021049,0.7156865000000001,0.052401,0.8374630000000001,0.5262365,0.040217,0.727533,0.7051864999999999,-0.0072559999999999,1.168853,0.5228865,0.004952,1.281373,0.7213665,-0.0612849999999999,0.6748730000000001,0.8918065,-0.019513,1.341873,0.9006765000000001,-0.0964849999999999,0.926883,0.0011644999999999,0.003216,1.073117,-0.0011644999999999,-0.0032159999999999,0.903428,-0.3740535,0.048975,1.094307,-0.3776735,0.032302,0.898323,-0.7217435000000001,0.0797819999999999,1.098903,-0.7197134999999999,0.077212,0
82,1.0210135,0.7156560000000001,0.052302,0.8374355,0.5262359999999999,0.04017,0.7275255,0.705136,-0.0075399999999999,1.1688155,0.5229060000000001,0.004992,1.2812154999999998,0.721266,-0.061347,0.6749155,0.891686,-0.0199109999999999,1.3424355,0.905056,-0.096047,0.9268725,0.001188,0.00323,1.0731275,-0.0011879999999999,-0.0032299999999999,0.9034215,-0.374124,0.04892,1.0942955,-0.377734,0.032222,0.8983255,-0.721914,0.079723,1.0989455,-0.7198039999999999,0.077128,0
83,1.020995,0.7156170000000001,0.052228,0.837391,0.526257,0.040132,0.727541,0.705057,-0.0077329999999999,1.168781,0.522947,0.005035,1.2810609999999998,0.721207,-0.0613969999999999,0.674921,0.891617,-0.020275,1.3432909999999998,0.909707,-0.095187,0.926865,0.001211,0.00324,1.073135,-0.001211,-0.00324,0.903417,-0.374203,0.048874,1.094279,-0.377793,0.032135,0.8983410000000001,-0.722033,0.079684,1.098981,-0.719913,0.076986,0
84,1.020987,0.7155925,0.05219,0.837391,0.5262325,0.040144,0.7275510000000001,0.7049725,-0.007844,1.168761,0.5229524999999999,0.005079,1.280921,0.7211425,-0.061425,0.674921,0.8915525,-0.0205839999999999,1.344091,0.9148225,-0.0942349999999999,0.926856,0.0012444999999999,0.003227,1.073144,-0.0012444999999999,-0.003227,0.903412,-0.3742474999999999,0.048851,1.094279,-0.3778775,0.032056,0.898361,-0.7221775,0.079647,1.099001,-0.7200375,0.076873,0
85,1.02097,0.7155564999999999,0.0521439999999999,0.8373820000000001,0.5262264999999999,0.040146,0.7275320000000001,0.7048865,-0.0079419999999999,1.168712,0.5229465,0.0051399999999999,1.280792,0.7210764999999999,-0.061463,0.674922,0.8915165,-0.0209359999999999,1.344772,0.9204565,-0.0931729999999999,0.926847,0.0012714999999999,0.003199,1.073153,-0.0012715,-0.003199,0.903397,-0.3743035,0.048805,1.094269,-0.3779635,0.031933,0.898392,-0.7222735,0.079603,1.099002,-0.7201735,0.076719,0
86,1.020957,0.7155195000000001,0.0521035,0.837376,0.5261795,0.0401995,0.727516,0.7047395000000001,-0.0080315,1.168666,0.5229595,0.0052175,1.280656,0.7209995,-0.0614964999999999,0.674926,0.8914695,-0.0212274999999999,1.345496,0.9264395,-0.0920165,0.926841,0.0012925,0.0031794999999999,1.073159,-0.0012925,-0.0031795,0.903377,-0.3743805,0.0487644999999999,1.09427,-0.3780605,0.0317854999999999,0.898406,-0.7224404999999999,0.0795575,1.099016,-0.7203505,0.0765415,0
87,1.0209445,0.715477,0.0520749999999999,0.8373984999999999,0.526077,0.040153,0.7274484999999999,0.7045870000000001,-0.0081509999999999,1.1686285,0.522977,0.005302,1.2804885,0.720917,-0.061563,0.6749285,0.891417,-0.02149,1.3462285,0.932457,-0.0910129999999999,0.9268345,0.0013039999999999,0.0031549999999999,1.0731655,-0.0013039999999999,-0.0031549999999999,0.9033475,-0.374513,0.048721,1.0942815,-0.378163,0.031571,0.8984385,-0.722613,0.079506,1.0990285,-0.720553,0.076343,0
88,1.0209105,0.7154465,0.0520545,0.8374225000000001,0.5259665,0.0401375,0.7273425,0.7043765000000001,-0.0083055,1.1685625,0.5229765000000001,0.0053464999999999,1.2803225,0.7208465000000001,-0.0616525,0.6748925,0.8913465,-0.0217935,1.3465925,0.9382465,-0.0900624999999999,0.9268285,0.0013055,0.0031264999999999,1.0731715,-0.0013055,-0.0031264999999999,0.9032965,-0.3746235,0.0486405,1.0942785,-0.3783235,0.0312355,0.8984624999999999,-0.7227534999999999,0.0794185,1.0990325,-0.7207635,0.0761044999999999,0
89,1.0208754999999998,0.7154659999999999,0.0519925,0.8374655,0.525866,0.0400545,0.7271655,0.704256,-0.0085915,1.1685055,0.523056,0.0053974999999999,1.2801655,0.720776,-0.0618115,0.6748355000000001,0.891266,-0.0221574999999999,1.3469555,0.944146,-0.0892815,0.9268265,0.001295,0.0030945,1.0731735,-0.001295,-0.0030945,0.9032155,-0.374734,0.0484485,1.0942775,-0.378584,0.0307224999999999,0.8985055,-0.722874,0.0792305,1.0990355,-0.7209340000000001,0.0757755,0
90,1.0208475,0.715547,0.0518585,0.8376435,0.525777,0.0399185,0.7269335,0.704167,-0.0090034999999999,1.1684534999999998,0.523147,0.0053554999999999,1.2800135,0.720767,-0.0620574999999999,0.6747235,0.891327,-0.0226285,1.3471235,0.946697,-0.0892275,0.9268155,0.0013169999999999,0.0030704999999999,1.0731845,-0.0013169999999999,-0.0030704999999999,0.9030245,-0.375123,0.0480535,1.0942505,-0.378933,0.0296475,0.8985535,-0.723423,0.0786105,1.0989935,-0.721103,0.0752735,0
91,1.0208505,0.715627,0.051581,0.8378675,0.5257269999999999,0.039531,0.7266874999999999,0.703807,-0.0096049999999999,1.1684575,0.523147,0.005151,1.2798775,0.720827,-0.0624539999999999,0.6746375,0.891427,-0.023244,1.3472675,0.948097,-0.089874,0.9267945,0.0013169999999999,0.00305,1.0732055,-0.0013169999999999,-0.0030499999999999,0.9027595,-0.375473,0.047316,1.0942595,-0.379523,0.027638,0.8985875000000001,-0.723933,0.077803,1.0988835,-0.721273,0.074373,0
92,1.020889,0.715627,0.051137,0.838136,0.525657,0.038975,0.7264360000000001,0.703467,-0.0103779999999999,1.168546,0.523147,0.004775,1.279796,0.720817,-0.063019,0.674566,0.891397,-0.02402,1.347386,0.949697,-0.0903789999999999,0.926761,0.0013169999999999,0.003063,1.073239,-0.0013169999999999,-0.0030629999999999,0.902409,-0.375943,0.046132,1.094281,-0.380323,0.025037,0.8986460000000001,-0.724553,0.076692,1.098642,-0.721603,0.072973,0
93,1.021012,0.715627,0.050343,0.838522,0.525587,0.038044,0.726272,0.703117,-0.0115209999999999,1.168752,0.523147,0.004084,1.279812,0.720797,-0.0639609999999999,0.674562,0.891377,-0.0252,1.347592,0.950697,-0.0912909999999999,0.926736,0.0013169999999999,0.002994,1.073264,-0.0013169999999999,-0.0029939999999999,0.90201,-0.376573,0.044282,1.094369,-0.381283,0.021549,0.898782,-0.725183,0.074981,1.098476,-0.721953,0.071147,0
94,1.021226,0.715941,0.0491415,0.839176,0.5243610000000001,0.0366405,0.726206,0.703091,-0.0130974999999999,1.169046,0.522691,0.0030405,1.279936,0.7210810000000001,-0.0653214999999999,0.6746460000000001,0.891671,-0.0267945,1.347976,0.951511,-0.0925814999999999,0.926674,0.001295,0.0029725,1.073326,-0.0012949999999999,-0.0029724999999999,0.901526,-0.3774389999999999,0.0415585,1.094536,-0.382189,0.0169175,0.898946,-0.725609,0.0726665,1.098413,-0.7224189999999999,0.0686475,0
95,1.0213935,0.7162554999999999,0.0475865,0.8397574999999999,0.5230454999999999,0.0349625,0.7261675000000001,0.7030155,-0.0150524999999999,1.1693175,0.5221255,0.0017045,1.2800175,0.7216555,-0.0670895,0.6747575,0.8922055,-0.0289194999999999,1.3480775,0.9521055,-0.0942195,0.9265835,0.0012355,0.0030115,1.0734165,-0.0012355,-0.0030115,0.9008375,-0.3781645,0.0379265,1.0946775,-0.3830245,0.0112675,0.8991275,-0.7258245,0.0698955,1.0983305,-0.7234945,0.0654975,0
96,1.0215295,0.7166049999999999,0.0455295,0.8402054999999999,0.521925,0.0328415,0.7261355,0.703015,-0.0175474999999999,1.1695855,0.521575,-9.249999999999536e-05,1.2800955,0.722405,-0.0694505,0.6748955,0.893045,-0.0316724999999999,1.3482255,0.953115,-0.0965304999999999,0.9264535,0.0011629999999999,0.0031395,1.0735465,-0.0011629999999999,-0.0031394999999999,0.8999055000000001,-0.378415,0.0331435,1.0949945,-0.383445,0.0046095,0.8993955,-0.7257750000000001,0.0664375,1.0982975,-0.724225,0.0617715,0
97,1.021622,0.7168025,0.042939,0.840945,0.5209825,0.030218,0.726125,0.7033125,-0.020605,1.169865,0.5211025,-0.002361,1.280095,0.7231124999999999,-0.072415,0.675035,0.8940925,-0.035086,1.348415,0.9545725,-0.099655,0.926286,0.0010784999999999,0.0032079999999999,1.073714,-0.0010784999999999,-0.003208,0.898825,-0.3781974999999999,0.027503,1.09542,-0.3834075,-0.002931,0.899645,-0.7253175000000001,0.062417,1.098285,-0.7245275,0.057437,0
98,1.0216375,0.7165779999999999,0.0399975,0.8417555,0.520168,0.0272765,0.7261155,0.703228,-0.0240085,1.1701555,0.5205879999999999,-0.0050174999999999,1.2800455,0.7237279999999999,-0.0759085,0.6751955000000001,0.894968,-0.0392794999999999,1.3478355,0.950728,-0.1049585,0.9260785,0.001003,0.0032494999999999,1.0739215,-0.0010029999999999,-0.0032494999999999,0.8976554999999999,-0.377642,0.0212485,1.0959035,-0.382972,-0.0109235,0.8998655,-0.724552,0.0579864999999999,1.0982945,-0.724462,0.0527475,0
99,1.021553,0.716006,0.0366065,0.842434,0.519116,0.0239665,0.726064,0.703156,-0.0279935,1.170244,0.520136,-0.0079304999999999,1.279864,0.7240960000000001,-0.0800205,0.675354,0.896146,-0.0440745,1.347224,0.947166,-0.1107105,0.925886,0.0008849999999999,0.0033235,1.074114,-0.0008849999999999,-0.0033235,0.896434,-0.376344,0.0142555,1.096441,-0.381944,-0.0191465,0.900154,-0.722954,0.0531715,1.0983489999999998,-0.723904,0.0474355,0
100,1.021343,0.7154315,0.0325865,0.843079,0.5176015,0.0199594999999999,0.7258789999999999,0.7031615,-0.0327785,1.170259,0.5201415,-0.0112074999999999,1.279579,0.7245415000000001,-0.0848435,0.6754789999999999,0.8975915,-0.0497355,1.345499,0.9416415,-0.1171235,0.925657,0.0008895,0.0032895,1.0743429999999998,-0.0008895,-0.0032895,0.8951890000000001,-0.3742985,0.0065425,1.096955,-0.3799685,-0.0274305,0.900399,-0.7205284999999999,0.0476415,1.098485,-0.7225085,0.0416615,0
101,1.0209605,0.714284,0.0282479999999999,0.8436905,0.516664,0.0154109999999999,0.7256705,0.702784,-0.038073,1.1702505,0.520274,-0.014947,1.2788405,0.723714,-0.090149,0.6756405000000001,0.899364,-0.0560159999999999,1.3437405,0.936444,-0.123999,0.9253745,0.0009659999999999,0.0031509999999999,1.0746255,-0.000966,-0.003151,0.8938505,-0.371506,-0.001577,1.0975565,-0.377506,-0.036068,0.9006205,-0.717506,0.041646,1.0985585,-0.720396,0.0356099999999999,1
102,1.020401,0.713491,0.02343,0.844312,0.5145810000000001,0.010621,0.725292,0.702701,-0.044113,1.169852,0.5201910000000001,-0.0187689999999999,1.277702,0.722821,-0.095953,0.675712,0.902061,-0.0632259999999999,1.3418219999999998,0.932351,-0.131403,0.925022,0.0009199999999999,0.003078,1.074978,-0.00092,-0.0030779999999999,0.892332,-0.367579,-0.0102459999999999,1.098168,-0.3739789999999999,-0.045054,0.900742,-0.713459,0.035214,1.09866,-0.717029,0.028954,1
103,1.0197215,0.7116635,0.018653,0.8449185,0.5137535000000001,0.005822,0.7247685000000001,0.7019935,-0.050219,1.1693585,0.5209035000000001,-0.022592,1.2762985,0.7210835000000001,-0.101733,0.6757085,0.9044035,-0.070674,1.3397785,0.9282235,-0.138793,0.9247135,0.0009605,0.00295,1.0752865,-0.0009605,-0.0029499999999999,0.8905185,-0.3635665,-0.019041,1.0987635,-0.3708965,-0.0536,0.9008185,-0.7092864999999999,0.028977,1.0986295,-0.7141065,0.021954,1
104,1.0190135,0.7102134999999999,0.013567,0.8454425,0.5125435,0.000753,0.7241925,0.7017435,-0.057035,1.1680725,0.5197035,-0.0266719999999999,1.2748725,0.7199835,-0.10782,0.6758425,0.9028035,-0.079615,1.3376525,0.9250635,-0.14664,0.9243655,0.0009964999999999,0.002837,1.0756345,-0.0009965,-0.002837,0.8886225000000001,-0.3585565,-0.028152,1.0994185,-0.3666265,-0.062401,0.9009325,-0.7036565,0.022489,1.0986954999999998,-0.7101065,0.014135,1
105,1.0184235,0.7083435,0.008487,0.8459685,0.5114735,-0.004249,0.7237285,0.7015635,-0.0637969999999999,1.1667885,0.5189735,-0.030688,1.2734885,0.7188535,-0.113836,0.6761085,0.9019835,-0.088467,1.3355985,0.9225035,-0.154486,0.9240125,0.0011045,0.002588,1.0759875,-0.0011045,-0.002588,0.8867985,-0.3534965,-0.037278,1.1000115,-0.3621265,-0.071114,0.9011785,-0.6972965,0.016123,1.0988725,-0.7055565,0.006051,1
106,1.0179375,0.7063515,0.003544,0.8463495,0.5103315,-0.008769,0.7233495,0.7005015,-0.07041,1.1654595,0.5180915,-0.034395,1.2720695,0.7177415,-0.119701,0.6765295,0.9007715,-0.0973059999999999,1.3334995,0.9205215,-0.1620609999999999,0.9236425,0.0012285,0.002515,1.0763575,-0.0012285,-0.002515,0.8850895,-0.3479784999999999,-0.046293,1.1006215,-0.3570485,-0.079717,0.9016395,-0.6907584999999999,0.009765,1.0991215,-0.7000385,-0.002162,1
107,1.0174455,0.704183,-0.0012079999999999,0.8465805,0.509503,-0.01326,0.7231605000000001,0.699323,-0.076907,1.1641205,0.5178630000000001,-0.0380449999999999,1.2705405,0.715883,-0.125294,0.6771105,0.898853,-0.106028,1.3318005,0.923623,-0.1679139999999999,0.9233085,0.00133,0.002513,1.0766915,-0.0013299999999999,-0.0025129999999999,0.8833405,-0.342797,-0.055387,1.1012605,-0.352437,-0.088669,0.9020705,-0.684117,0.0031839999999999,1.0993415,-0.694257,-0.010386,1
108,1.0170945,0.701312,-0.0056665,0.8472105,0.509472,-0.0180445,0.7232405,0.697242,-0.0834435,1.1631305,0.518002,-0.0418945,1.2691805,0.7140920000000001,-0.1307795,0.6778605,0.896672,-0.1148275,1.3300705,0.926352,-0.1735495,0.9229735,0.0015249999999999,0.0024264999999999,1.0770265,-0.001525,-0.0024265,0.8816705000000001,-0.337998,-0.0646315,1.1019945,-0.3477179999999999,-0.0976785,0.9027205,-0.677058,-0.0032955,1.0996995,-0.688088,-0.0184815,1
109,1.016958,0.6991175,-0.0097675,0.848083,0.5071574999999999,-0.0225725,0.723643,0.6960275,-0.0898114999999999,1.162433,0.5151775,-0.0450625,1.268053,0.7130575,-0.1358695,0.6788530000000002,0.8954375,-0.1233735,1.329483,0.9330075,-0.1790594999999999,0.922578,0.0016035,0.0023494999999999,1.077422,-0.0016034999999999,-0.0023495,0.880043,-0.3326425,-0.0739075,1.102951,-0.3421025,-0.1067765,0.903493,-0.6687625,-0.0096675,1.100225,-0.6805725,-0.0264205,1
110,1.017037,0.697627,-0.0138219999999999,0.8490940000000001,0.505407,-0.026885,0.724314,0.694877,-0.0960959999999999,1.161594,0.512657,-0.048071,1.267184,0.712767,-0.140886,0.680184,0.892717,-0.131966,1.328444,0.938877,-0.184336,0.922192,0.001662,0.002318,1.077808,-0.001662,-0.002318,0.878354,-0.327153,-0.083457,1.103817,-0.335743,-0.116087,0.904314,-0.659703,-0.0158589999999999,1.100787,-0.671863,-0.034126,1
111,1.0173709999999998,0.69539,-0.017366,0.850118,0.50375,-0.030608,0.7251879999999999,0.6934699999999999,-0.101612,1.161138,0.5102,-0.050946,1.266738,0.7127199999999999,-0.145407,0.6818580000000001,0.88984,-0.139727,1.327378,0.94382,-0.189057,0.921827,0.001877,0.0023529999999999,1.078173,-0.0018769999999999,-0.002353,0.877028,-0.32117,-0.092355,1.104803,-0.3293,-0.124833,0.905308,-0.6503,-0.021476,1.101526,-0.6627500000000001,-0.041247,1
112,1.0177745,0.6934235,-0.0208879999999999,0.8511005,0.5023535,-0.0344339999999999,0.7260805,0.6922635,-0.1071169999999999,1.1607205,0.5065135,-0.0539109999999999,1.2664605,0.7129235,-0.149943,0.6837605,0.8864535,-0.147303,1.3262805,0.9451735,-0.1943929999999999,0.9214565,0.0021445,0.002446,1.0785435,-0.0021445,-0.0024459999999999,0.8759205,-0.3144465,-0.101052,1.1057505,-0.3220365,-0.133674,0.9063305,-0.6400065,-0.0271639999999999,1.1021995,-0.6518865,-0.0479909999999999,1
113,1.018341,0.6911165,-0.023996,0.851994,0.5007765000000001,-0.037624,0.7270040000000001,0.6904465,-0.111842,1.161114,0.5051065,-0.056356,1.266164,0.7116965,-0.153912,0.6860040000000001,0.8846465,-0.153612,1.325214,0.9463165,-0.198732,0.921147,0.0024005,0.002431,1.078853,-0.0024005,-0.002431,0.874914,-0.3080635,-0.1093379999999999,1.10671,-0.3151135,-0.141683,0.907354,-0.6299735,-0.032375,1.102879,-0.6400735,-0.053523,1
114,1.0188455,0.688932,-0.0270925,0.8528595,0.499102,-0.0406915,0.7279895000000001,0.688242,-0.1167415,1.1615595,0.503692,-0.0586945,1.2658395,0.710822,-0.1576395,0.6883495,0.881732,-0.1598695,1.3239895,0.946922,-0.2030495,0.9209515,0.0024689999999999,0.0024994999999999,1.0790485,-0.0024689999999999,-0.0024995,0.8738195,-0.298278,-0.1173415,1.1076395,-0.304628,-0.1495395,0.9081795,-0.619548,-0.0373415,1.1033985,-0.627858,-0.0585805,1
115,1.0192865,0.6868065,-0.03042,0.8536595,0.4973165,-0.043825,0.7289895,0.6865065,-0.121589,1.1619495,0.5016565,-0.061122,1.2655995,0.7099065,-0.1614249999999999,0.6905695000000001,0.8786465,-0.165955,1.3228095,0.9477265,-0.207305,0.9208145,0.0025705,0.002396,1.0791855,-0.0025705,-0.002396,0.8726695,-0.2879235,-0.125359,1.1084445,-0.2936935,-0.157105,0.9090895,-0.6083035,-0.042176,1.1038505,-0.6156335000000001,-0.063222,1
116,1.019657,0.6849475,-0.0377519999999999,0.854357,0.4970175,-0.051125,0.730017,0.6854675,-0.130421,1.162067,0.5009075000000001,-0.0682229999999999,1.265387,0.7085075,-0.1689109999999999,0.692367,0.8771875,-0.175751,1.321597,0.9477975,-0.215561,0.920848,0.0026324999999999,0.0024139999999999,1.079152,-0.0026325,-0.0024139999999999,0.871387,-0.2760325,-0.137282,1.109182,-0.2811725,-0.168961,0.909907,-0.5954525,-0.050705,1.104206,-0.6019625,-0.071731,1
117,1.0198699999999998,0.6879249999999999,-0.0468314999999999,0.854815,0.494095,-0.0601764999999999,0.7311650000000001,0.688145,-0.1408495,1.161985,0.498785,-0.0767875,1.264715,0.710135,-0.1779865,0.694015,0.8807149999999999,-0.1872565,1.320275,0.950335,-0.2258565,0.920889,0.002535,0.0026125,1.079111,-0.0025349999999999,-0.0026124999999999,0.8679749999999999,-0.259075,-0.1550785,1.110273,-0.264365,-0.1851664999999999,0.910475,-0.578085,-0.0609314999999999,1.104265,-0.583955,-0.0817394999999999,1
118,1.0200325,0.6884349999999999,-0.055364,0.8551435000000001,0.494205,-0.068719,0.7323435,0.6890149999999999,-0.150731,1.1617235,0.499055,-0.0851929999999999,1.2643335,0.708005,-0.186749,0.6955635,0.8833850000000001,-0.198259,1.3189435,0.948375,-0.235749,0.9210115,0.002535,0.002878,1.0789885,-0.0025349999999999,-0.0028779999999999,0.8646235,-0.243415,-0.171953,1.1112545,-0.2492349999999999,-0.200479,0.9109135,-0.562265,-0.070533,1.1041685,-0.567755,-0.091128,1
119,1.020323,0.6892400000000001,-0.063624,0.856117,0.4924499999999999,-0.077024,0.7335870000000001,0.69028,-0.160283,1.161007,0.49666,-0.093388,1.263917,0.7071700000000001,-0.195299,0.696987,0.88586,-0.209649,1.318247,0.94633,-0.245929,0.921026,0.0026799999999999,0.0030239999999999,1.078974,-0.0026799999999999,-0.0030239999999999,0.861517,-0.22733,-0.188979,1.112567,-0.23334,-0.215629,0.911417,-0.5452699999999999,-0.079841,1.104162,-0.55076,-0.100077,1
120,1.020593,0.68979,-0.0720235,0.857158,0.49224,-0.0851655,0.734848,0.69128,-0.1700885,1.160428,0.49497,-0.1014255,1.263478,0.70652,-0.2036335,0.6984779999999999,0.88783,-0.2209035,1.317988,0.94533,-0.2561135,0.92104,0.0027399999999999,0.0031694999999999,1.07896,-0.0027399999999999,-0.0031695,0.858488,-0.21185,-0.2061135,1.113988,-0.21801,-0.2305935,0.911978,-0.5282899999999999,-0.0889335,1.104193,-0.5341699999999999,-0.1087605,1
121,1.020773,0.69004,-0.0803865,0.858287,0.4918099999999999,-0.0934265,0.7361270000000001,0.69161,-0.1796335,1.159697,0.49514,-0.1097995,1.263437,0.70631,-0.2117145,0.699847,0.8882,-0.2318245,1.317787,0.94811,-0.2656545,0.921109,0.00261,0.0033055,1.0788909999999998,-0.00261,-0.0033055,0.855677,-0.19687,-0.2228645,1.115407,-0.2033799999999999,-0.2450345,0.912467,-0.5114000000000001,-0.0978335,1.104197,-0.5177,-0.1169515,1
122,1.0209035,0.690835,-0.088901,0.8593595,0.490935,-0.102292,0.7370995,0.6928650000000001,-0.189238,1.1588095,0.493285,-0.118021,1.2633295,0.705145,-0.21984,0.7006795,0.892075,-0.24234,1.3175495,0.948325,-0.27501,0.9211455,0.0026349999999999,0.0034899999999999,1.0788545,-0.0026349999999999,-0.00349,0.8529095000000001,-0.181365,-0.23945,1.1166095,-0.187325,-0.25986,0.9127295,-0.4935349999999999,-0.106775,1.1040555,-0.500305,-0.125099,1
123,1.020826,0.69101,-0.097316,0.860164,0.49088,-0.11069,0.737834,0.6935800000000001,-0.198467,1.1577339999999998,0.49108,-0.126095,1.262734,0.7039,-0.22765,0.701384,0.89406,-0.2531,1.316784,0.94592,-0.28476,0.921081,0.00298,0.0036199999999999,1.078919,-0.0029799999999999,-0.0036199999999999,0.850144,-0.16658,-0.25528,1.117544,-0.17217,-0.27413,0.912764,-0.47604,-0.115516,1.103746,-0.48314,-0.132993,1
124,1.0204215,0.6913,-0.1058829999999999,0.8607925000000001,0.48971,-0.119014,0.7383325000000001,0.69518,-0.207546,1.1567425,0.49057,-0.134149,1.2619625,0.70278,-0.2353199999999999,0.7018625000000001,0.897,-0.26385,1.3157325,0.94298,-0.29446,0.9211175,0.00281,0.0036599999999999,1.0788825,-0.00281,-0.0036599999999999,0.8472625,-0.15072,-0.2707699999999999,1.1182425,-0.15579,-0.2881,0.9125405,-0.45803,-0.1242519999999999,1.1031225,-0.46536,-0.14068,1
125,1.0201495,0.6920999999999999,-0.110084,0.8615505,0.486,-0.123108,0.7390205000000001,0.69633,-0.212426,1.1562305,0.48775,-0.13753,1.2614305,0.70338,-0.23867,0.7025805,0.89967,-0.27036,1.3149505,0.94032,-0.30004,0.9211095,0.00273,0.00353,1.0788905,-0.00273,-0.00353,0.8448605000000001,-0.13474,-0.28202,1.1189305,-0.1394099999999999,-0.29716,0.9123665,-0.44046,-0.128943,1.1026275,-0.44797,-0.144104,1
126,1.0201375,0.687945,-0.112174,0.8622775,0.484655,-0.1250939999999999,0.7396875,0.694515,-0.215191,1.1555175,0.486085,-0.13916,1.2611375,0.697315,-0.23985,0.7037875,0.896225,-0.27469,1.3144475,0.934235,-0.30308,0.9210935,0.002705,0.00328,1.0789065,-0.002705,-0.0032799999999999,0.8445374999999999,-0.1221249999999999,-0.287,1.1192175,-0.126595,-0.30144,0.9125025,-0.427125,-0.131386,1.1022315,-0.434705,-0.145679,1
127,1.0200714999999998,0.686225,-0.114232,0.8629805,0.4831149999999999,-0.127323,0.7401705000000001,0.6915849999999999,-0.217833,1.1548105,0.483865,-0.141052,1.2610005,0.696325,-0.240995,0.7049405,0.893845,-0.278965,1.3140805,0.928655,-0.306455,0.9210335,0.0026049999999999,0.0031049999999999,1.0789665,-0.002605,-0.003105,0.8442405,-0.106925,-0.292265,1.1195705,-0.111585,-0.306005,0.9127585,-0.4118549999999999,-0.13379,1.1019205,-0.419435,-0.147327,1
128,1.0199425,0.68338,-0.115948,0.8628505000000001,0.48193,-0.128828,0.7406405,0.6892199999999999,-0.220459,1.1542605,0.48406,-0.14225,1.2608705,0.6953100000000001,-0.24203,0.7059705000000001,0.89306,-0.28205,1.3141805,0.92483,-0.30907,0.9207465,0.0022699999999999,0.003,1.0792535,-0.0022699999999999,-0.003,0.8439505,-0.0921599999999999,-0.29627,1.1196905,-0.09681,-0.3096,0.9129385,-0.3979499999999999,-0.135999,1.1015325,-0.40543,-0.148748,1
129,1.0198725,0.6813,-0.117406,0.8626475,0.4806799999999999,-0.129909,0.7409975000000001,0.68774,-0.222393,1.1538075,0.4825799999999999,-0.143271,1.2610575,0.69367,-0.243095,0.7073075000000001,0.89286,-0.284885,1.3139875,0.92176,-0.311145,0.9205955,0.0020799999999999,0.0028449999999999,1.0794045,-0.00208,-0.002845,0.8441175,-0.08053,-0.299735,1.1195775,-0.08511,-0.312895,0.9131115,-0.38236,-0.136667,1.1010635,-0.39049,-0.149901,1
130,1.0197945,0.6790149999999999,-0.118943,0.8627145,0.479265,-0.131179,0.7412945,0.686615,-0.2246719999999999,1.1536445,0.479905,-0.144236,1.2607545,0.6914549999999999,-0.244275,0.7082945,0.8906149999999999,-0.287895,1.3138945,0.918455,-0.313085,0.9202725,0.0020749999999999,0.0027449999999999,1.0797275,-0.0020749999999999,-0.0027449999999999,0.8445644999999999,-0.069435,-0.303165,1.1194544999999998,-0.073655,-0.3162049999999999,0.9132355,-0.3681649999999999,-0.138586,1.1006415,-0.375955,-0.151172,1
131,1.0195025,0.67662,-0.1202499999999999,0.8627475,0.4774199999999999,-0.1320879999999999,0.7412775,0.6847,-0.226674,1.1536675,0.4790799999999999,-0.144867,1.2604975,0.69086,-0.2453,0.7090475,0.8884599999999999,-0.29071,1.3133575,0.91745,-0.31472,0.9201325,0.0018499999999999,0.00265,1.0798675,-0.00185,-0.0026499999999999,0.8452275,-0.05823,-0.30595,1.1192875,-0.06245,-0.31872,0.9133155,-0.35468,-0.140198,1.1001335,-0.3620500000000001,-0.1521459999999999,1
132,1.0192795,0.6751050000000001,-0.121493,0.8629065,0.475025,-0.132919,0.7413065,0.682175,-0.228345,1.1536565,0.478295,-0.145323,1.2602965,0.6891750000000001,-0.246205,0.7097165,0.887015,-0.292925,1.3128965,0.918175,-0.316015,0.9200325,0.001425,0.0025449999999999,1.0799675,-0.001425,-0.002545,0.8460965,-0.0470349999999999,-0.308465,1.1190765,-0.052145,-0.320345,0.9134995,-0.341705,-0.141603,1.0996615,-0.3486249999999999,-0.153024,1
133,1.019025,0.6739299999999999,-0.122402,0.8629720000000001,0.474372,-0.133441,0.741502,0.6814,-0.229727,1.153622,0.476804,-0.145641,1.259732,0.68883,-0.246995,0.7102120000000001,0.88753,-0.294685,1.312422,0.91953,-0.317055,0.91991,0.0011799999999999,0.0025749999999999,1.08009,-0.00118,-0.0025749999999999,0.8472920000000002,-0.0332399999999999,-0.310165,1.118892,-0.03966,-0.321245,0.913695,-0.32685,-0.142834,1.0992639999999998,-0.33335,-0.1537879999999999,1
134,1.0188805,0.672515,-0.123348,0.8630665,0.474742,-0.133962,0.7414165000000001,0.681015,-0.2311389999999999,1.1537865,0.475681,-0.146039,1.2594865,0.688065,-0.2478449999999999,0.7105465,0.886125,-0.2963949999999999,1.3123565,0.921695,-0.318005,0.9199165,0.001055,0.002675,1.0800835,-0.0010549999999999,-0.0026749999999999,0.8487665,-0.019915,-0.311235,1.1188265,-0.0275549999999999,-0.321635,0.9140295,-0.3125249999999999,-0.143875,1.0990245,-0.318775,-0.154608,1
135,1.0187635,0.671185,-0.124576,0.8631745,0.475053,-0.134738,0.7413145,0.679155,-0.2328,1.1538745,0.47355,-0.146511,1.2593045,0.688245,-0.24888,0.7104345000000001,0.8856850000000001,-0.29817,1.3114045,0.919905,-0.31915,0.9199095,0.001055,0.0025699999999999,1.0800905,-0.0010549999999999,-0.00257,0.8503845000000001,-0.0070149999999999,-0.312,1.1187745,-0.0158749999999999,-0.32229,0.9142415000000002,-0.298515,-0.144831,1.0988845,-0.3046649999999999,-0.155487,1
136,1.018532,0.669745,-0.124805,0.8629370000000001,0.47367,-0.134504,0.741097,0.679805,-0.233605,1.153727,0.472314,-0.146208,1.258627,0.6881349999999999,-0.249025,0.710207,0.884215,-0.299065,1.310327,0.922135,-0.319445,0.919803,0.0006849999999999,0.0024449999999999,1.080197,-0.0006849999999999,-0.002445,0.851997,0.005535,-0.312085,1.118597,-0.004395,-0.322485,0.914291,-0.2849649999999999,-0.144832,1.098688,-0.291105,-0.155497,1
137,1.0182705,0.668875,-0.124863,0.8628005,0.473481,-0.134261,0.7408405,0.680195,-0.233945,1.1537105,0.471352,-0.145879,1.2581105,0.688145,-0.248885,0.7101205000000002,0.882825,-0.299905,1.3095705,0.924245,-0.3197149999999999,0.9196765,0.000645,0.0022449999999999,1.0803235,-0.000645,-0.0022449999999999,0.8537605,0.0185949999999999,-0.312135,1.1186305,0.0075649999999999,-0.322395,0.9144725,-0.271105,-0.144745,1.0986395,-0.277335,-0.155572,1
138,1.0179795,0.6677949999999999,-0.1249909999999999,0.8627665000000001,0.472948,-0.134259,0.7409065,0.679685,-0.2343799999999999,1.1538765,0.471576,-0.145503,1.2579865,0.6883549999999999,-0.2490299999999999,0.7101465,0.8806449999999999,-0.30055,1.3090465,0.925015,-0.32023,0.9195945,0.0002649999999999,0.0021,1.0804055,-0.000265,-0.0020999999999999,0.8553165,0.0303949999999999,-0.3123899999999999,1.1186965,0.0184449999999999,-0.32237,0.9147925,-0.258145,-0.144913,1.0987585,-0.264715,-0.1558469999999999,1
139,1.017822,0.66832,-0.1250389999999999,0.8630249999999999,0.4735709999999999,-0.1340029999999999,0.740865,0.68073,-0.2344949999999999,1.154075,0.4723819999999999,-0.145224,1.257905,0.68919,-0.249135,0.710245,0.88391,-0.300905,1.308775,0.92678,-0.320725,0.919309,0.0001899999999999,0.001965,1.080691,-0.00019,-0.0019649999999999,0.8567250000000001,0.0436399999999999,-0.312185,1.119085,0.0306399999999999,-0.321405,0.915325,-0.24423,-0.14506,1.099105,-0.25103,-0.1560119999999999,1
140,1.0175165,0.6678000000000001,-0.1249349999999999,0.8630715000000001,0.47541,-0.1335869999999999,0.7407315,0.68126,-0.234395,1.1539415,0.472811,-0.144931,1.2571415,0.68635,-0.249085,0.7100415,0.88462,-0.300805,1.3075515,0.92418,-0.321095,0.9192755,0.00019,0.001835,1.0807245,-0.0001899999999999,-0.001835,0.8577515,0.0556,-0.311515,1.1193915,0.04164,-0.320065,0.9157075,-0.2315999999999999,-0.144991,1.0993115,-0.2385899999999999,-0.155942,1
141,1.017202,0.668125,-0.124638,0.863263,0.476284,-0.133068,0.740583,0.683685,-0.23411,1.153723,0.4735179999999999,-0.144157,1.256293,0.6854549999999999,-0.24886,0.7095930000000001,0.887135,-0.3005,1.306203,0.920245,-0.32159,0.919344,0.0002149999999999,0.00153,1.080656,-0.000215,-0.00153,0.858523,0.0684649999999999,-0.3103599999999999,1.119703,0.0542649999999999,-0.31821,0.916049,-0.217935,-0.144537,1.09957,-0.225205,-0.155681,1
142,1.016752,0.66732,-0.12405,0.8635200000000001,0.475449,-0.13228,0.7403900000000001,0.6827700000000001,-0.23356,1.15343,0.4734400000000001,-0.14339,1.2556,0.6828700000000001,-0.24863,0.70884,0.88663,-0.3002,1.30471,0.91481,-0.32215,0.919452,0.0004400000000001,0.00117,1.080548,-0.0004399999999999,-0.00117,0.85892,0.07776,-0.30903,1.11996,0.06322,-0.31624,0.916345,-0.2079899999999999,-0.143702,1.099856,-0.2155099999999999,-0.155424,1
143,1.0163855,0.66716,-0.123141,0.8638375,0.47522,-0.131636,0.7400575,0.68276,-0.232865,1.1531875,0.474703,-0.142787,1.2548975,0.68171,-0.248485,0.7078675,0.8886499999999999,-0.299945,1.3032175,0.91049,-0.322855,0.9195445,0.0006899999999999,0.000805,1.0804555,-0.0006899999999999,-0.000805,0.8591475,0.08792,-0.307285,1.1202975,0.0729199999999999,-0.313745,0.9166195,-0.19726,-0.142954,1.1002585,-0.20503,-0.155207,1
144,1.016062,0.6677500000000001,-0.1218729999999999,0.864087,0.47524,-0.1308659999999999,0.7395970000000001,0.68461,-0.2319799999999999,1.152907,0.476584,-0.1420659999999999,1.254237,0.68352,-0.24821,0.7065870000000001,0.8911100000000001,-0.2995099999999999,1.302137,0.91121,-0.3237,0.919583,0.00097,0.00054,1.080417,-0.00097,-0.0005399999999999,0.859327,0.09804,-0.3054,1.120697,0.08278,-0.3115799999999999,0.916875,-0.18638,-0.141505,1.100699,-0.1946,-0.1549189999999999,1
145,1.015881,0.66779,-0.120243,0.864323,0.477029,-0.129553,0.739243,0.68592,-0.23085,1.152803,0.478386,-0.14115,1.253673,0.68335,-0.247875,0.7052229999999999,0.89339,-0.2985649999999999,1.301073,0.91035,-0.324285,0.919615,0.0016599999999999,7.499999999999174e-05,1.080385,-0.0016599999999999,-7.499999999999174e-05,0.859573,0.10677,-0.303375,1.121303,0.09137,-0.309145,0.917219,-0.1767799999999999,-0.139643,1.101314,-0.1852899999999999,-0.154343,1
146,1.0157415,0.6676200000000001,-0.118573,0.8644795000000001,0.477672,-0.12788,0.7388895000000001,0.68628,-0.229522,1.1527095,0.479912,-0.1403,1.2531195,0.6826800000000001,-0.247615,0.7037495,0.89553,-0.297695,1.2999295,0.90871,-0.325075,0.9196895,0.00201,-0.000345,1.0803105,-0.0020099999999999,0.0003449999999999,0.8596995000000001,0.11482,-0.301255,1.1219395,0.09917,-0.306585,0.9175245,-0.16781,-0.137706,1.1019255,-0.17684,-0.153713,1
147,1.015602,0.6675300000000001,-0.116341,0.86438,0.478582,-0.125742,0.7381500000000001,0.68676,-0.227866,1.15264,0.480797,-0.138949,1.25245,0.6820900000000001,-0.24701,0.7021,0.89731,-0.2962,1.29864,0.90645,-0.32536,0.919836,0.00268,-0.00062,1.080164,-0.00268,0.0006199999999999,0.8594300000000001,0.12236,-0.29858,1.12265,0.10636,-0.3036,0.917713,-0.1594999999999999,-0.135012,1.102363,-0.16908,-0.152352,1
148,1.015538,0.6668499999999999,-0.114408,0.864243,0.4783689999999999,-0.123875,0.737603,0.6864999999999999,-0.2266119999999999,1.152613,0.4819629999999999,-0.137966,1.251953,0.6815199999999999,-0.24687,0.7004630000000001,0.8979599999999999,-0.29495,1.2973329999999998,0.90332,-0.32602,0.920018,0.0029899999999999,-0.00081,1.079982,-0.00299,0.00081,0.858943,0.1287799999999999,-0.29616,1.123443,0.1123799999999999,-0.3014799999999999,0.91798,-0.15234,-0.1327289999999999,1.102804,-0.1625200000000001,-0.151164,1
149,1.0154569999999998,0.66639,-0.112472,0.864063,0.478461,-0.122106,0.736883,0.6857,-0.224709,1.152553,0.483056,-0.136942,1.251833,0.68429,-0.24678,0.698893,0.89949,-0.29363,1.296623,0.90348,-0.32654,0.92012,0.0033199999999999,-0.0009399999999999,1.07988,-0.0033199999999999,0.0009399999999999,0.858133,0.1348499999999999,-0.2938199999999999,1.124223,0.11808,-0.29935,0.918209,-0.14554,-0.130536,1.103227,-0.1563299999999999,-0.149929,1
150,1.015418,0.6650800000000001,-0.110779,0.863738,0.4790230000000001,-0.120367,0.7361679999999999,0.684825,-0.223088,1.152508,0.484001,-0.135878,1.251728,0.6860950000000001,-0.246675,0.697478,0.9007050000000001,-0.292595,1.295908,0.905605,-0.326745,0.920215,0.003665,-0.0009949999999999,1.079785,-0.0036649999999999,0.0009949999999999,0.857288,0.139925,-0.291495,1.124998,0.122925,-0.297335,0.918453,-0.1398249999999999,-0.128465,1.103587,-0.1512249999999999,-0.148825,1
151,1.0155315,0.6644680000000001,-0.109289,0.8636135,0.4808030000000001,-0.119043,0.7355235,0.68505,-0.221809,1.1526835,0.4853510000000001,-0.134816,1.2517535,0.6882300000000001,-0.246685,0.6964135,0.90238,-0.291795,1.2953735,0.9079,-0.326965,0.9203915,0.00414,-0.001115,1.0796085,-0.0041399999999999,0.0011149999999999,0.8565935,0.14494,-0.289245,1.1258635,0.1278,-0.295315,0.9188225,-0.1341899999999999,-0.126941,1.1039715,-0.1461299999999999,-0.147828,1
152,1.0156984999999998,0.6632269999999999,-0.108076,0.8635695,0.4816359999999999,-0.117978,0.7349795,0.68429,-0.22052,1.1531395,0.4853569999999999,-0.133765,1.2518995,0.6888799999999999,-0.24712,0.6956795,0.90293,-0.29098,1.2949995,0.90899,-0.32702,0.9204885,0.0044199999999999,-0.00115,1.0795115,-0.00442,0.0011499999999999,0.8558795,0.1482099999999999,-0.28747,1.1267395,0.1310699999999999,-0.29371,0.9192775,-0.13034,-0.125407,1.1043535,-0.14278,-0.146856,1
153,1.01583,0.662315,-0.106883,0.863552,0.482163,-0.116932,0.7347220000000001,0.6831750000000001,-0.219184,1.153682,0.485502,-0.132733,1.252012,0.6894950000000001,-0.247295,0.695222,0.902935,-0.289965,1.294642,0.909935,-0.326875,0.920546,0.004615,-0.001125,1.079454,-0.0046149999999999,0.0011249999999999,0.855192,0.151015,-0.285835,1.127552,0.133865,-0.292235,0.919608,-0.1271549999999999,-0.124482,1.104663,-0.1399249999999999,-0.145757,1
154,1.0161175,0.661328,-0.1058149999999999,0.8635685000000001,0.482559,-0.115951,0.7344385,0.682355,-0.217796,1.1543285,0.485432,-0.1317539999999999,1.2522585,0.690215,-0.247255,0.6951285,0.902635,-0.2889049999999999,1.2943685,0.910595,-0.3267649999999999,0.9206295,0.0047449999999999,-0.001085,1.0793705,-0.0047449999999999,0.001085,0.8545185000000001,0.153265,-0.284425,1.1283785,0.136085,-0.290925,0.9199395,-0.1245049999999999,-0.123666,1.1049025,-0.137575,-0.144598,1
155,1.016417,0.660675,-0.1049169999999999,0.863656,0.483391,-0.1153039999999999,0.734236,0.6819240000000001,-0.2166239999999999,1.155016,0.485369,-0.1307859999999999,1.252566,0.6905800000000001,-0.2472049999999999,0.695306,0.90218,-0.2879549999999999,1.294206,0.91094,-0.326685,0.920648,0.00495,-0.0010249999999999,1.079352,-0.0049499999999998,0.001025,0.8539260000000001,0.155,-0.283375,1.129256,0.13778,-0.289875,0.920304,-0.1226399999999999,-0.1230189999999999,1.105149,-0.13571,-0.1436249999999999,1
156,1.016708,0.660214,-0.104035,0.863727,0.4839,-0.114658,0.734147,0.682284,-0.215601,1.155607,0.4860449999999999,-0.129984,1.252877,0.69086,-0.247155,0.695477,0.90198,-0.287045,1.294087,0.91104,-0.326545,0.920641,0.0050099999999999,-0.000985,1.079359,-0.00501,0.000985,0.853417,0.1564499999999999,-0.282405,1.130067,0.1391099999999999,-0.288875,0.920616,-0.12129,-0.122518,1.105311,-0.13435,-0.142888,1
157,1.016916,0.659742,-0.103329,0.8636920000000001,0.483995,-0.114328,0.734022,0.6823990000000001,-0.214691,1.155932,0.48597,-0.129405,1.253152,0.6904950000000001,-0.247165,0.695592,0.901525,-0.286155,1.293992,0.910375,-0.326265,0.920627,0.004895,-0.000985,1.079373,-0.0048949999999999,0.000985,0.852932,0.157015,-0.281675,1.130692,0.139525,-0.288085,0.920741,-0.1210149999999999,-0.122137,1.105403,-0.134065,-0.142314,1
158,1.017021,0.659742,-0.102828,0.863662,0.483995,-0.114001,0.7340420000000001,0.6823990000000001,-0.214354,1.156152,0.48597,-0.128959,1.253352,0.6904950000000001,-0.247175,0.695702,0.901525,-0.285255,1.294012,0.910125,-0.325955,0.920627,0.004895,-0.000985,1.079373,-0.0048949999999999,0.000985,0.852492,0.157545,-0.280945,1.131182,0.139885,-0.287525,0.920773,-0.1209249999999999,-0.12164,1.105405,-0.1339249999999999,-0.141731,1
159,1.017158,0.659742,-0.10243,0.863672,0.483995,-0.113932,0.734062,0.6823990000000001,-0.214154,1.156222,0.48597,-0.128685,1.253472,0.6904950000000001,-0.2470149999999999,0.6960820000000001,0.901525,-0.284395,1.294032,0.910125,-0.3256449999999999,0.920627,0.004895,-0.000985,1.079373,-0.0048949999999999,0.000985,0.852062,0.158305,-0.280765,1.131532,0.140325,-0.287545,0.920784,-0.1209249999999999,-0.121465,1.105394,-0.1338149999999999,-0.141082,1
160,1.0172745,0.659737,-0.102365,0.8636355,0.48399,-0.1140719999999999,0.7340855,0.682704,-0.214146,1.1562255,0.486378,-0.128766,1.2534555,0.69049,-0.246915,0.6966355,0.90152,-0.283775,1.2940155,0.91012,-0.325555,0.9206335,0.00489,-0.0010449999999999,1.0793665,-0.0048899999999999,0.0010449999999999,0.8517155000000001,0.15908,-0.280965,1.1315855,0.14084,-0.287775,0.9207475,-0.1209299999999999,-0.121685,1.1053945,-0.13371,-0.140746,1
161,1.017276,0.660198,-0.1026219999999999,0.863478,0.4837879999999999,-0.114478,0.734048,0.684175,-0.2143,1.156118,0.4859239999999999,-0.129051,1.253408,0.689985,-0.24734,0.696798,0.901355,-0.28398,1.293858,0.909465,-0.32605,0.920575,0.004645,-0.0011199999999999,1.079425,-0.004645,0.00112,0.8514079999999999,0.1592349999999999,-0.28145,1.131418,0.1407049999999999,-0.28827,0.92057,-0.121585,-0.12218,1.105221,-0.134245,-0.140687,1
162,1.0172215,0.661254,-0.1033219999999999,0.8635565000000001,0.4842769999999999,-0.1149029999999999,0.7337665,0.68565,-0.2148029999999999,1.1559165,0.4852109999999999,-0.129741,1.2532465,0.68832,-0.248035,0.6967265,0.9002600000000001,-0.284675,1.2936165,0.90699,-0.326735,0.9204565,0.00431,-0.0011449999999999,1.0795435,-0.00431,0.001145,0.8509865,0.1574499999999999,-0.282135,1.1311265,0.13876,-0.289025,0.9200725,-0.12433,-0.1228509999999999,1.1048955,-0.13672,-0.1409409999999999,1
163,1.017146,0.6622789999999998,-0.103933,0.8637239999999999,0.4845259999999999,-0.115309,0.733204,0.6865599999999998,-0.215748,1.155694,0.4842049999999999,-0.1303419999999999,1.253074,0.68607,-0.24864,0.696434,0.8983099999999999,-0.28527,1.293714,0.90723,-0.32736,0.92039,0.0038899999999999,-0.0008299999999999,1.07961,-0.00389,0.0008299999999999,0.850624,0.1531499999999999,-0.28319,1.130754,0.1349799999999998,-0.29046,0.91942,-0.1292500000000001,-0.123754,1.104526,-0.1410200000000001,-0.141191,1
164,1.0170715,0.664557,-0.1044889999999999,0.8638585,0.4840529999999999,-0.1157849999999999,0.7329985,0.68755,-0.216074,1.1554585,0.4848329999999999,-0.1308879999999999,1.2527485,0.68799,-0.2491799999999999,0.6961085,0.8992,-0.28581,1.2942085,0.90922,-0.3283399999999999,0.9203195,0.00322,-0.0003699999999999,1.0796805,-0.00322,0.00037,0.8502585,0.14843,-0.28432,1.1301085,0.1305,-0.29217,0.9187535,-0.1349099999999999,-0.1249349999999999,1.1041505,-0.14604,-0.1414269999999999,1
165,1.0170825,0.66698,-0.105362,0.8641575000000001,0.481722,-0.116502,0.7332575,0.6870700000000001,-0.216538,1.1551975,0.485219,-0.13188,1.2527175,0.68859,-0.25005,0.6961675,0.8999600000000001,-0.28666,1.2949175,0.9104,-0.32967,0.9204085,0.0020499999999999,0.0,1.0795915,-0.0020499999999999,0.0,0.8499975000000001,0.14085,-0.28646,1.1294275,0.12299,-0.29517,0.9182455,-0.1435299999999999,-0.126394,1.1038725,-0.15403,-0.141902,1
166,1.0170899999999998,0.66774,-0.1064889999999999,0.864494,0.4813559999999999,-0.1173269999999999,0.7331639999999999,0.68658,-0.217337,1.154964,0.4834639999999999,-0.133175,1.253014,0.68768,-0.2513149999999999,0.696114,0.89967,-0.287645,1.295704,0.90731,-0.331395,0.920539,0.00173,0.000605,1.079461,-0.00173,-0.0006049999999999,0.849694,0.1281799999999999,-0.289635,1.128514,0.1105399999999999,-0.2996649999999999,0.917789,-0.15726,-0.1279409999999999,1.103598,-0.16714,-0.142334,1
167,1.016876,0.67012,-0.1075449999999999,0.864765,0.480879,-0.118028,0.733045,0.6871700000000001,-0.218021,1.154595,0.480926,-0.1345009999999999,1.253035,0.68689,-0.252585,0.696025,0.90005,-0.288715,1.296595,0.90886,-0.3331849999999999,0.920725,0.00136,0.001225,1.079275,-0.00136,-0.0012249999999999,0.849275,0.11478,-0.292935,1.127395,0.09731,-0.3040549999999999,0.917263,-0.1719399999999999,-0.1294449999999999,1.103186,-0.18118,-0.142615,1
168,1.0163835,0.673025,-0.109289,0.8644775,0.479259,-0.1192339999999999,0.7324075,0.686515,-0.2198129999999999,1.1537675,0.482599,-0.136434,1.2525175,0.688835,-0.25436,0.6957074999999999,0.903085,-0.29044,1.2968175,0.912335,-0.33535,0.9207045,0.000835,0.00164,1.0792955,-0.000835,-0.00164,0.8488975,0.099675,-0.2946499999999999,1.1261275,0.082565,-0.30666,0.9164985,-0.1882349999999999,-0.1316669999999999,1.1025155,-0.196875,-0.143501,1
169,1.0157545,0.675845,-0.11114,0.8641235,0.4818570000000001,-0.120829,0.7317135,0.6875950000000001,-0.22141,1.1528035,0.4841540000000001,-0.138474,1.2518035,0.6901250000000001,-0.25648,0.6951035000000001,0.905345,-0.29231,1.2974135,0.914515,-0.33827,0.9206775,0.000605,0.0018799999999999,1.0793225,-0.0006049999999999,-0.0018799999999999,0.8484735,0.0822150000000001,-0.29647,1.1247635,0.065595,-0.30925,0.9156125,-0.2066049999999999,-0.133951,1.1017175,-0.2148149999999999,-0.144343,1
170,1.0150739999999998,0.68207,-0.113113,0.863472,0.483528,-0.122386,0.731042,0.68844,-0.223047,1.151742,0.485741,-0.140386,1.251342,0.6923600000000001,-0.25862,0.6944320000000002,0.90704,-0.29427,1.297832,0.91601,-0.34102,0.920491,0.00063,0.0020799999999999,1.079509,-0.0006299999999999,-0.0020799999999999,0.848012,0.06324,-0.2978699999999999,1.123312,0.04695,-0.31154,0.914724,-0.2267399999999999,-0.13627,1.100877,-0.23463,-0.145089,1
171,1.0137485,0.681835,-0.1146669999999999,0.8622164999999999,0.482726,-0.1240379999999999,0.7297265,0.687715,-0.2245349999999999,1.1501465,0.484998,-0.1422999999999999,1.2499064999999998,0.690365,-0.2603499999999999,0.6932765000000001,0.905575,-0.29594,1.2973965,0.917215,-0.34319,0.9202905,0.0005249999999999,0.00248,1.0797095,-0.0005249999999999,-0.0024799999999999,0.8470265000000001,0.0398649999999999,-0.29867,1.1208065,0.023915,-0.3126299999999999,0.9134355,-0.2517649999999999,-0.1380409999999999,1.0995165,-0.259655,-0.145555,1
172,1.0121765,0.683135,-0.115645,0.8610835,0.482405,-0.125178,0.7285135,0.6875150000000001,-0.225602,1.1485835,0.485883,-0.143675,1.2487935,0.6934450000000001,-0.261795,0.6921135,0.907635,-0.297025,1.2966935,0.918795,-0.344615,0.9201625,0.000445,0.002805,1.0798375,-0.0004449999999999,-0.002805,0.8461135,0.017635,-0.298805,1.1186535,0.0021349999999999,-0.312685,0.9122025,-0.2762749999999999,-0.138738,1.0983005,-0.284165,-0.1453279999999999,1
173,1.010584,0.68423,-0.116289,0.8599500000000001,0.482197,-0.12593,0.72706,0.68698,-0.226439,1.14698,0.485029,-0.144728,1.24754,0.69223,-0.2625699999999999,0.69095,0.90441,-0.29716,1.29581,0.91733,-0.34519,0.920056,0.00065,0.0030499999999999,1.0799439999999998,-0.0006499999999999,-0.0030499999999999,0.8453200000000001,-0.00605,-0.29851,1.11692,-0.02076,-0.31234,0.911005,-0.30354,-0.138705,1.097231,-0.31096,-0.145002,1
174,1.008827,0.684985,-0.116712,0.8586860000000001,0.484805,-0.126858,0.725916,0.6885749999999999,-0.22711,1.145346,0.484315,-0.1455,1.246406,0.692285,-0.26317,0.689986,0.904305,-0.29686,1.294806,0.914765,-0.34567,0.920083,0.001425,0.00336,1.079917,-0.001425,-0.00336,0.844726,-0.0285849999999999,-0.29783,1.115336,-0.0424149999999999,-0.31192,0.909893,-0.329985,-0.138597,1.096277,-0.337235,-0.144622,1
175,1.0069629999999998,0.688155,-0.1168739999999999,0.8572649999999999,0.485245,-0.1277329999999999,0.724695,0.690085,-0.227815,1.143695,0.486965,-0.146059,1.245335,0.6941949999999999,-0.26327,0.6890350000000001,0.903955,-0.29651,1.293825,0.921325,-0.34557,0.920122,0.0011749999999999,0.00374,1.079878,-0.001175,-0.0037399999999999,0.844145,-0.048075,-0.29623,1.113865,-0.061095,-0.31074,0.908917,-0.3539650000000001,-0.138532,1.095326,-0.361425,-0.1441819999999999,1
176,1.005075,0.689255,-0.116739,0.8558120000000001,0.486445,-0.128293,0.723042,0.690025,-0.228382,1.1420819999999998,0.489375,-0.146382,1.243972,0.6956549999999999,-0.26249,0.688402,0.901295,-0.29578,1.292842,0.921445,-0.34481,0.920099,0.0009449999999999,0.0044299999999999,1.079901,-0.000945,-0.00443,0.8436620000000001,-0.068805,-0.29355,1.1123219999999998,-0.080375,-0.30877,0.907307,-0.380115,-0.139812,1.094403,-0.387045,-0.143432,1
177,1.0031775,0.690465,-0.116242,0.8542915,0.489475,-0.128912,0.7217914999999999,0.6905749999999999,-0.228415,1.1406915,0.487925,-0.146424,1.2422715,0.6953750000000001,-0.26141,0.6876715,0.8997850000000001,-0.29474,1.2916915,0.918885,-0.34356,0.9199965,0.001045,0.0051299999999999,1.0800035,-0.001045,-0.00513,0.8434215,-0.0887749999999999,-0.28925,1.1109015,-0.0993149999999999,-0.30517,0.9057065,-0.406645,-0.140823,1.0936085,-0.412475,-0.142752,1
178,1.001187,0.691405,-0.115273,0.852767,0.489135,-0.128924,0.720637,0.689365,-0.227996,1.139167,0.4872149999999999,-0.145943,1.240567,0.693705,-0.25987,0.686977,0.896355,-0.29336,1.290157,0.915225,-0.34169,0.920229,0.0008349999999999,0.0052299999999999,1.079771,-0.000835,-0.00523,0.843427,-0.107665,-0.28281,1.109557,-0.117555,-0.29888,0.903919,-0.432735,-0.14137,1.092896,-0.437555,-0.141948,1
179,0.999055,0.6897899999999999,-0.1138889999999999,0.850865,0.48958,-0.128628,0.718865,0.68907,-0.227302,1.137345,0.4863099999999999,-0.1454389999999999,1.238935,0.6909099999999999,-0.258005,0.686015,0.89226,-0.291365,1.287595,0.916,-0.339725,0.920408,0.0004299999999999,0.005115,1.079592,-0.00043,-0.0051149999999999,0.842975,-0.12604,-0.2753649999999999,1.107945,-0.13449,-0.2918349999999999,0.90141,-0.45776,-0.141623,1.091957,-0.46147,-0.1413869999999999,1
180,0.997603,0.694395,-0.1117669999999999,0.8496859999999999,0.492455,-0.127625,0.7177960000000001,0.690395,-0.2256349999999999,1.135866,0.489855,-0.1441899999999999,1.237276,0.697655,-0.255105,0.685686,0.895625,-0.288885,1.285706,0.920395,-0.336055,0.920639,0.0002649999999999,0.005055,1.079361,-0.0002649999999999,-0.0050549999999999,0.843156,-0.1396849999999999,-0.269165,1.1072559999999998,-0.146725,-0.286095,0.899326,-0.477245,-0.1414949999999999,1.091789,-0.4800150000000001,-0.1405209999999999,1
181,0.996453,0.6986600000000001,-0.1092359999999999,0.848508,0.49511,-0.126278,0.7167479999999999,0.69206,-0.2235189999999999,1.134588,0.49169,-0.142598,1.235708,0.69833,-0.2521299999999999,0.6854180000000001,0.89568,-0.28562,1.283998,0.92014,-0.33176,0.920856,2.000000000002e-05,0.005,1.079144,-1.999999999999225e-05,-0.0049999999999999,0.843448,-0.1540699999999999,-0.2621799999999999,1.106538,-0.1596599999999999,-0.27968,0.897038,-0.4971199999999999,-0.141149,1.091622,-0.49879,-0.1394379999999999,1
182,0.9959595,0.70289,-0.105906,0.8473185,0.50024,-0.124562,0.7159285,0.69559,-0.220992,1.1332785,0.49202,-0.140564,1.2341885,0.7000500000000001,-0.248735,0.6851285,0.90111,-0.282035,1.2823185,0.92461,-0.326685,0.9210865,9.000000000000674e-05,0.0049049999999999,1.0789135,-9.000000000000674e-05,-0.004905,0.8436985000000001,-0.1666,-0.255105,1.1056685,-0.1714699999999999,-0.272805,0.8940485,-0.51494,-0.14107,1.0915605,-0.51578,-0.139498,1
183,0.9948825,0.707515,-0.10133,0.8461855,0.503125,-0.1214799999999999,0.7152455,0.6971649999999999,-0.217092,1.1321155,0.496085,-0.137527,1.2326855,0.702495,-0.244025,0.6848655,0.901375,-0.277075,1.2807155,0.931725,-0.320705,0.9215465,-0.000335,0.004845,1.0784535,0.000335,-0.004845,0.8437855000000001,-0.179415,-0.245815,1.1046855,-0.183125,-0.263805,0.8910055,-0.532525,-0.139687,1.0915135,-0.532185,-0.138008,1
184,0.9938695,0.711015,-0.096773,0.8443855,0.507435,-0.118097,0.7144255000000002,0.700265,-0.213215,1.1312555,0.498005,-0.134273,1.2310655,0.705205,-0.238545,0.6844255,0.903445,-0.271635,1.2788255,0.933755,-0.313875,0.9221815,-0.0003549999999999,0.0047749999999999,1.0778185,0.0003549999999999,-0.004775,0.8441155,-0.191215,-0.235805,1.1033455,-0.194205,-0.254335,0.8878955,-0.548335,-0.138303,1.0912415,-0.547245,-0.134891,1
185,0.993044,0.715765,-0.0924069999999999,0.842533,0.510085,-0.114934,0.713563,0.704175,-0.20936,1.130293,0.502535,-0.131389,1.229293,0.709395,-0.2333299999999999,0.684153,0.911165,-0.26619,1.2767929999999998,0.937355,-0.30748,0.922798,-0.000575,0.0046199999999999,1.077202,0.0005749999999999,-0.0046199999999999,0.844433,-0.201725,-0.22652,1.101813,-0.204475,-0.24469,0.8854029999999999,-0.5620050000000001,-0.13533,1.090742,-0.560635,-0.1311459999999999,1
186,0.993103,0.7203355,-0.0883525,0.8417120000000001,0.5120755,-0.1116735,0.7137020000000001,0.7085454999999999,-0.2057785,1.130372,0.5056955,-0.1287055,1.228552,0.7128955,-0.2285585,0.684802,0.9144755,-0.2610985,1.275772,0.9411355,-0.3011085,0.922943,-0.0007455,0.0044015,1.077057,0.0007454999999999,-0.0044015,0.845602,-0.2104845,-0.2177184999999999,1.101212,-0.2141645,-0.2349585,0.883732,-0.5733545,-0.1308915,1.091285,-0.5731945,-0.1268505,1
187,0.9930775,0.7264615000000001,-0.083484,0.8409775000000002,0.5166815,-0.107817,0.7137275000000001,0.7110815,-0.201407,1.1303375,0.5116515,-0.1252349999999999,1.2286275,0.7174815,-0.223447,0.6854775,0.9183615,-0.255367,1.2750375,0.9451915,-0.294157,0.9231835,-0.0009585,0.004163,1.0768165,0.0009585,-0.004163,0.8466675000000001,-0.2227184999999999,-0.207417,1.1001775,-0.2281685,-0.223267,0.8834075000000001,-0.5866785,-0.125754,1.0913605,-0.5883885,-0.121739,1
188,0.993125,0.7310424999999999,-0.0789285,0.840509,0.5212825,-0.1041885,0.713939,0.7137525,-0.1972935,1.130559,0.5177025,-0.1218005,1.228749,0.7228424999999999,-0.2186435,0.6861889999999999,0.9231625,-0.2499635,1.274489,0.9456625,-0.2877735,0.923468,-0.0010154999999999,0.0040354999999999,1.0765319999999998,0.0010155,-0.0040355,0.8480990000000002,-0.2344274999999999,-0.1972135,1.098709,-0.2417375,-0.2109035,0.883499,-0.5994575000000001,-0.1207775,1.091482,-0.6029475000000001,-0.1169355,1
189,0.993689,0.734168,-0.0694274999999999,0.8406359999999999,0.523408,-0.0953405,0.7146760000000001,0.717048,-0.1885164999999999,1.131346,0.5201479999999999,-0.1132114999999999,1.229416,0.722268,-0.2088864999999999,0.687466,0.922998,-0.2395465,1.274496,0.942018,-0.2765165,0.923567,-0.000722,0.0039095,1.076433,0.000722,-0.0039094999999999,0.851356,-0.247612,-0.1797045,1.097826,-0.256382,-0.1924564999999999,0.884186,-0.613682,-0.1106365,1.092188,-0.6184419999999999,-0.1065754999999999,1
190,0.9944425,0.731934,-0.0569989999999999,0.8407295,0.522264,-0.0841819999999999,0.7154495000000001,0.7141540000000001,-0.176816,1.1322195,0.523044,-0.101774,1.2301495,0.725564,-0.197146,0.6892195,0.922074,-0.2263259999999999,1.2744795,0.940514,-0.262486,0.9236695,-0.0005129999999999,0.0033259999999999,1.0763305,0.0005129999999999,-0.0033259999999999,0.8573395,-0.2657859999999999,-0.156504,1.0963845,-0.275786,-0.169145,0.8851694999999999,-0.632826,-0.094775,1.0929755,-0.638896,-0.091289,1
191,0.9954035,0.7288884999999999,-0.0447549999999999,0.8412775,0.5193985,-0.073493,0.7166375,0.7103785,-0.165414,1.1331975,0.5274085,-0.090737,1.2315275,0.7281585,-0.186274,0.6911175,0.9182585,-0.213524,1.2750875,0.9398285,-0.246934,0.9239965,-0.0006384999999999,0.002746,1.0760035,0.0006385,-0.0027459999999999,0.8635075,-0.2839715,-0.133651,1.0951935,-0.2940315,-0.146177,0.8863275,-0.6515415,-0.0791119999999999,1.0938395,-0.6580115,-0.0757009999999999,1
192,0.996146,0.7269369999999999,-0.0332445,0.8416710000000001,0.518737,-0.0634535,0.717761,0.708237,-0.1546055,1.134611,0.528177,-0.0799025,1.232311,0.730017,-0.1757255,0.692861,0.916647,-0.2012755,1.274341,0.938187,-0.2319955,0.924323,-0.0004459999999999,0.0021665,1.075677,0.000446,-0.0021665,0.869711,-0.300353,-0.1118335,1.093938,-0.308073,-0.1241555,0.887641,-0.667913,-0.0630815,1.094407,-0.673873,-0.0601905,1
193,0.997009,0.7252744999999999,-0.0217144999999999,0.842422,0.5169445,-0.0536544999999999,0.719082,0.7046344999999999,-0.1438424999999999,1.136102,0.5299745,-0.0690824999999999,1.233342,0.7310845,-0.1652225,0.694782,0.9140445,-0.1894424999999999,1.273872,0.9362345,-0.2172625,0.924696,-0.0004804999999999,0.0015165,1.075304,0.0004805,-0.0015164999999999,0.876292,-0.3155755,-0.0901055,1.092859,-0.3212655,-0.1022764999999999,0.889362,-0.6831355,-0.0466694999999999,1.095137,-0.6886855000000001,-0.0444505,1
194,0.997574,0.7230435,-0.0102694999999999,0.842921,0.5164534999999999,-0.0438625,0.7201310000000001,0.7006935000000001,-0.1328925,1.137331,0.5305435000000001,-0.0580635,1.234491,0.7311034999999999,-0.1548525,0.696411,0.9074735,-0.1777524999999999,1.273951,0.9343335,-0.2032525,0.925028,-0.0003415,0.0009224999999999,1.074972,0.0003415,-0.0009224999999999,0.882641,-0.3300665,-0.0677335,1.091486,-0.3332565,-0.0801824999999999,0.891531,-0.6975865000000001,-0.0287805,1.095443,-0.7023765,-0.0269535,1
195,0.9984655,0.7200825,0.0014194999999999,0.8437405,0.5158325,-0.0338445,0.7215005,0.6962825,-0.1216695,1.1388605,0.5321225,-0.0467395,1.2356105,0.7309225,-0.1437495,0.6984405,0.9012425,-0.1658295,1.2738105,0.9329925,-0.1881595,0.9252455,-0.0004115,0.0003474999999999,1.0747545,0.0004114999999999,-0.0003475,0.8893905,-0.3438475,-0.0447805,1.0903205,-0.3462975,-0.0576225,0.8942005,-0.7113875,-0.0105385,1.0961615,-0.7166475,-0.0091435,1
196,0.999482,0.7157640000000001,0.0120525,0.845033,0.512124,-0.0244545,0.7229829999999999,0.693654,-0.1114645,1.140103,0.530634,-0.0364035,1.236823,0.732054,-0.1335745,0.700813,0.897624,-0.1549145,1.273733,0.935714,-0.1741945,0.925283,-0.0002389999999999,-0.0003105,1.074717,0.000239,0.0003105,0.896143,-0.355406,-0.0238414999999999,1.089342,-0.356276,-0.0374825,0.8970430000000001,-0.722796,0.0066665,1.0970689999999998,-0.727816,0.0065025,0
197,1.0004165,0.7117535,0.0228459999999999,0.8463985,0.5088435,-0.0149849999999999,0.7244785,0.6904835,-0.101169,1.1413385,0.5295435,-0.0259699999999999,1.2380885,0.7330135,-0.123429,0.7033185,0.8951835,-0.1439589999999999,1.2737385,0.9384335,-0.159989,0.9252945,-0.0001094999999999,-0.0009289999999999,1.0747055,0.0001094999999999,0.000929,0.9026485,-0.3664565,-0.00289,1.0886035,-0.3658165,-0.018171,0.8999885,-0.7335665,0.024089,1.0979695,-0.7383365000000001,0.021961,0
198,1.000695,0.708898,0.02831,0.847031,0.507488,-0.010849,0.725341,0.6864880000000001,-0.095826,1.141891,0.530448,-0.0208049999999999,1.238881,0.735568,-0.1189059999999999,0.705141,0.894198,-0.138326,1.273171,0.943208,-0.151306,0.925278,-0.000392,-0.001405,1.074722,0.000392,0.001405,0.90719,-0.376702,0.010528,1.08721,-0.373062,-0.0052339999999999,0.902451,-0.742952,0.034488,1.098244,-0.746452,0.031185,0
199,1.0007545,0.710423,0.0304979999999999,0.8473265,0.509373,-0.009261,0.7259964999999999,0.688103,-0.093803,1.1421265,0.531453,-0.018753,1.2390465,0.735783,-0.116783,0.7063165,0.893103,-0.136123,1.2725965,0.947223,-0.146053,0.9252965,-0.000431,-0.001388,1.0747035,0.000431,0.0013879999999999,0.9088555,-0.378537,0.01757,1.0862645,-0.3745469999999999,0.0022569999999999,0.9032065,-0.744957,0.038969,1.0985255,-0.7479370000000001,0.035257,0
200,1.0008035,0.711817,0.032738,0.8475515,0.511067,-0.0074979999999999,0.7266414999999999,0.688917,-0.091636,1.1423115,0.532437,-0.016581,1.2391915,0.735927,-0.1145459999999999,0.7074115000000001,0.893067,-0.134036,1.2718315,0.946927,-0.1431359999999999,0.9252965,-0.0004639999999999,-0.0013899999999999,1.0747035,0.000464,0.00139,0.9104375,-0.380393,0.024785,1.0852925,-0.376043,0.009627,0.9039415,-0.746753,0.043438,1.0987865,-0.749433,0.039334,0
201,1.0004365,0.7119745000000001,0.03497,0.8472235,0.5118045,-0.0055809999999999,0.7267235000000001,0.6892845,-0.089498,1.1420035,0.5335545,-0.0144049999999999,1.2388835,0.7361045,-0.1123179999999999,0.7079735,0.8938145000000001,-0.131828,1.2710235,0.9467045,-0.140228,0.9254195,-0.0004154999999999,-0.001471,1.0745805,0.0004154999999999,0.001471,0.9113075,-0.3819654999999999,0.031471,1.0839985,-0.3772655,0.016301,0.9041235,-0.7480255,0.047493,1.0985615,-0.7506555,0.043327,0
202,1.0002205,0.7122945,0.0369285,0.8470365,0.5125245,-0.0039794999999999,0.7268565,0.6897345,-0.0876705,1.1418165,0.5344345,-0.0126115,1.2385565,0.7365045,-0.1098805,0.7086165,0.8944345,-0.1300305,1.2704965,0.9471745,-0.1376605,0.9255425,-0.0003545,-0.0015055,1.0744575,0.0003544999999999,0.0015055,0.9118115,-0.3829155,0.0368085,1.0829415,-0.3751055,0.0218455,0.9044045,-0.7486855,0.0509575,1.0984875,-0.7497055,0.0467285,0
203,1.00012,0.7123729999999999,0.0388849999999999,0.84695,0.512883,-0.002278,0.72702,0.6900630000000001,-0.085817,1.14174,0.534943,-0.0107879999999999,1.23837,0.7367729999999999,-0.107487,0.70906,0.8956329999999999,-0.128197,1.27037,0.9459229999999998,-0.135297,0.925652,-0.0002449999999999,-0.001585,1.074348,0.000245,0.0015849999999999,0.912012,-0.383367,0.0410829999999999,1.082055,-0.372867,0.0264989999999999,0.904774,-0.7491369999999999,0.054166,1.098556,-0.748567,0.0499379999999999,0
204,1.0001475,0.7125515,0.040597,0.8469774999999999,0.5132915,-0.0007799999999999,0.7272375,0.6902615000000001,-0.084262,1.1417575,0.5351115000000001,-0.009207,1.2383375,0.7369115,-0.105472,0.7095775,0.8954215,-0.126682,1.2703575,0.9466115,-0.132972,0.9257255,-0.0001275,-0.0016719999999999,1.0742745,0.0001275,0.0016719999999999,0.9121555,-0.3835785,0.044528,1.0813825,-0.3718485,0.0299399999999999,0.9051535,-0.7493485,0.056836,1.0986975,-0.7475784999999999,0.05269,0
205,1.0002315,0.712811,0.042212,0.8470275,0.513651,0.000673,0.7274674999999999,0.690351,-0.082873,1.1418375,0.535191,-0.007696,1.2383775,0.736981,-0.103633,0.7098575,0.895361,-0.125343,1.2704275,0.947251,-0.130893,0.9257465,-6.699999999999762e-05,-0.0016629999999999,1.0742535,6.699999999999762e-05,0.001663,0.9123205,-0.383639,0.047385,1.0808575,-0.370799,0.032528,0.9055275,-0.749339,0.059237,1.0988345,-0.746579,0.054981,0
206,1.00032,0.7129880000000001,0.0435939999999999,0.847046,0.513938,0.0018729999999999,0.727626,0.6903480000000001,-0.081713,1.141926,0.535188,-0.006348,1.238486,0.7370880000000001,-0.1020129999999999,0.709916,0.8948480000000001,-0.124313,1.270486,0.947248,-0.129393,0.925748,-6.399999999999462e-05,-0.001639,1.074252,6.40000000000085e-05,0.0016389999999999,0.912455,-0.383252,0.0494659999999999,1.080449,-0.3697519999999999,0.0343669999999999,0.90583,-0.749172,0.061188,1.098963,-0.745672,0.056877,0
207,1.0003989999999998,0.713088,0.0448615,0.847062,0.514088,0.0029465,0.7277020000000001,0.6903480000000001,-0.0806765,1.142002,0.535188,-0.0052014999999999,1.238582,0.7370880000000001,-0.1005365,0.709982,0.893548,-0.1234464999999999,1.270582,0.947248,-0.1280464999999999,0.92576,-6.399999999999462e-05,-0.0016805,1.07424,6.40000000000085e-05,0.0016805,0.912497,-0.382992,0.0510775,1.0800729999999998,-0.368912,0.0356635,0.906092,-0.749072,0.0629214999999999,1.099084,-0.744802,0.0585095,0
208,1.000508,0.713202,0.046001,0.847091,0.514092,0.003815,0.7277910000000001,0.6903520000000001,-0.079817,1.142111,0.5352020000000001,-0.0041619999999999,1.238701,0.7370920000000001,-0.099267,0.710061,0.8931220000000001,-0.1228269999999999,1.270711,0.947252,-0.126887,0.92579,-5.9999999999990616e-05,-0.001756,1.07421,6.0000000000004494e-05,0.001756,0.912528,-0.382758,0.052392,1.079728,-0.3683079999999999,0.036834,0.906374,-0.748968,0.064461,1.099232,-0.744138,0.05993,0
209,1.000641,0.713306,0.0470115,0.8470790000000001,0.514146,0.0045434999999999,0.7278990000000001,0.6903360000000001,-0.0791525,1.142229,0.5352560000000001,-0.0032445,1.238849,0.7371460000000001,-0.0981825,0.710079,0.893506,-0.1223825,1.270829,0.946706,-0.1260125,0.925832,-5.999999999992123e-06,-0.0018435,1.074168,6.0000000000060005e-06,0.0018434999999999,0.912491,-0.3826039999999999,0.0535974999999999,1.079432,-0.3679139999999999,0.0378764999999999,0.906658,-0.748784,0.0658145,1.09938,-0.743684,0.0611575,0
210,1.0008115,0.7134595,0.0479185,0.8471185,0.5142595,0.0051684999999999,0.7280285,0.6902395,-0.0786935,1.1423785,0.5351695000000001,-0.0024544999999999,1.2390485,0.7372095000000001,-0.0972635,0.7100885,0.8938995000000001,-0.1221635,1.2709785,0.9462195,-0.1252335,0.9258445,3.349999999999187e-05,-0.0018955,1.0741555,-3.350000000000575e-05,0.0018955,0.9124365,-0.3824305,0.0546045,1.0791675,-0.3676304999999999,0.0387785,0.9069255,-0.7485005,0.0669775,1.0995215,-0.7433505,0.0621435,0
211,1.000965,0.7136225,0.0487145,0.8471810000000001,0.5144225,0.0058285,0.728021,0.6900525,-0.0784475,1.142591,0.5350925,-0.0017924999999999,1.239361,0.7372624999999999,-0.0964675,0.710101,0.8924825000000001,-0.1220675,1.271181,0.9459825,-0.1244275,0.925859,3.649999999999487e-05,-0.0019414999999999,1.074141,-3.650000000000875e-05,0.0019414999999999,0.912355,-0.3822675,0.0554865,1.078873,-0.3674675,0.0394095,0.907126,-0.7482175,0.0679225,1.099635,-0.7431775,0.0629885,0
212,1.0011495,0.7138375,0.0492935,0.8473094999999999,0.5145775,0.0064155,0.7278795,0.6896975000000001,-0.0785635,1.1428895,0.5350775,-0.0013924999999999,1.2398295,0.7371675000000001,-0.0959035,0.7099295,0.8913175,-0.1221434999999999,1.2715795,0.9457175,-0.1239535,0.9258565,2.9500000000001747e-05,-0.0019874999999999,1.0741435,-2.949999999998787e-05,0.0019875,0.9123115,-0.3820225,0.0560705,1.0786925,-0.3672324999999999,0.0398535,0.9073135,-0.7478425,0.0686075,1.0997895,-0.7429325,0.0636455,0
213,1.0014234999999998,0.7141145,0.0498825,0.8474615,0.5146945,0.0070385,0.7275915,0.6889945,-0.0789375,1.1433415,0.5348145,-0.0008874999999999,1.2405515,0.7368345,-0.0953975,0.7097614999999999,0.8903945,-0.1223874999999999,1.2722615,0.9456445,-0.1237875,0.9258615,3.949999999999787e-05,-0.0020355,1.0741385,-3.949999999999787e-05,0.0020355,0.9123565,-0.3816955,0.0566035,1.0786585,-0.3669055,0.0403315,0.9075805,-0.7473755,0.0693044999999999,1.1000585,-0.7426055,0.0643625,0
214,1.0017405,0.714696,0.0504185,0.8476005,0.513926,0.0076415,0.7269805,0.687936,-0.0794845,1.1438704999999998,0.534376,-0.0003234999999999,1.2415405,0.736346,-0.0950944999999999,0.7093805,0.890836,-0.1229245,1.2733005,0.945286,-0.1245444999999999,0.9258955,1.2999999999999123e-05,-0.0021034999999999,1.0741044999999998,-1.2999999999999123e-05,0.0021035,0.9124265,-0.381054,0.0570685,1.0786495,-0.3663039999999999,0.0407685,0.9078805,-0.746584,0.0699735,1.1003425,-0.7419640000000001,0.0650505,0
215,1.0020655,0.7154715,0.050995,0.8475115000000001,0.5129215,0.0083899999999999,0.7258015,0.6844215,-0.079986,1.1444615,0.5337715000000001,0.0002539999999999,1.2430415,0.7355815,-0.095116,0.7087915,0.8895615,-0.123956,1.2744915,0.9446315,-0.125766,0.9259315,-6.4500000000009e-05,-0.002152,1.0740685,6.449999999999512e-05,0.002152,0.9126475,-0.3802385,0.057619,1.0786685,-0.3655684999999999,0.041236,0.9081585,-0.7455885,0.070646,1.1006205,-0.7411785,0.065747,0
216,1.0024149999999998,0.7161360000000001,0.0515645,0.847379,0.5117959999999999,0.0093225,0.724379,0.6797759999999999,-0.0805615,1.145119,0.533196,0.0007935,1.245379,0.733306,-0.0953315,0.708089,0.8875360000000001,-0.1254815,1.275849,0.943666,-0.1275715,0.925997,-0.0001299999999999,-0.0021754999999999,1.074003,0.00013,0.0021755,0.912861,-0.379214,0.0581465,1.078711,-0.364874,0.0416635,0.908434,-0.7444139999999999,0.0712715,1.100884,-0.740434,0.0664105,0
