sb224sc-HT22-VT27/4dt907/src/data/labeled_files/B19_kinect.csv
FrameNo,nose_3d_x,nose_3d_y,nose_3d_z,left_shoulder_3d_x,left_shoulder_3d_y,left_shoulder_3d_z,left_elbow_3d_x,left_elbow_3d_y,left_elbow_3d_z,right_shoulder_3d_x,right_shoulder_3d_y,right_shoulder_3d_z,right_elbow_3d_x,right_elbow_3d_y,right_elbow_3d_z,left_wrist_3d_x,left_wrist_3d_y,left_wrist_3d_z,right_wrist_3d_x,right_wrist_3d_y,right_wrist_3d_z,left_hip_3d_x,left_hip_3d_y,left_hip_3d_z,right_hip_3d_x,right_hip_3d_y,right_hip_3d_z,left_knee_3d_x,left_knee_3d_y,left_knee_3d_z,right_knee_3d_x,right_knee_3d_y,right_knee_3d_z,left_ankle_3d_x,left_ankle_3d_y,left_ankle_3d_z,right_ankle_3d_x,right_ankle_3d_y,right_ankle_3d_z,activity_label
0,-0.0132075,0.7655305,0.0514145,-0.1802835,0.4845505,0.0027825,-0.2204335,0.2277505,-0.0157035,0.1584265,0.4856205,0.0167755,0.2244364999999999,0.2364905,0.0338635,-0.2003935,0.0302764999999999,-0.0890065,0.1595665,0.3427405,-0.2017264999999999,-0.0741535,-0.0026885,0.0005295,0.0741535,0.0026885,-0.0005295,-0.0926744999999999,-0.3303395,0.0274205,0.0997065,-0.3354595,0.0421335,-0.0978835,-0.6503994999999999,0.0727085,0.0975915,-0.6516495,0.0728885,0
1,-0.0131969999999999,0.7654915,0.0516905,-0.180494,0.4846015,0.0028655,-0.220664,0.2277415,-0.0155905,0.158206,0.4856115,0.0168184999999999,0.224226,0.2361115,0.0329165,-0.200564,0.0303184999999999,-0.0889465,0.159836,0.3442315,-0.2019265,-0.074129,-0.0027085,0.0004974999999999,0.074129,0.0027085,-0.0004975,-0.09298,-0.3302985,0.0274384999999999,0.099526,-0.3356285,0.0420855,-0.098129,-0.6503685,0.0728824999999999,0.097526,-0.6517285,0.0727265,0
2,-0.0130525,0.7655655,0.0521834999999999,-0.1805335,0.4844155,0.0029564999999999,-0.2205835,0.2279855,-0.0155615,0.1582164999999999,0.4856155,0.0169625,0.2240165,0.2357655,0.0343025,-0.2005835,0.0307905,-0.0888595,0.1598065,0.3428555,-0.2010795,-0.0741115,-0.0027045,0.0004724999999999,0.0741115,0.0027045,-0.0004725,-0.0930874999999999,-0.3303045,0.0274494999999999,0.0991364999999999,-0.3361845,0.0423864999999999,-0.0987595,-0.6527245,0.0724305,0.0972175,-0.6531545,0.0729025,0
3,-0.01291,0.7654825000000001,0.0523995,-0.18053,0.4844325,0.0031244999999999,-0.22052,0.2280125,-0.0154875,0.15822,0.4856125,0.0169754999999999,0.2241,0.2357125,0.0342544999999999,-0.2002,0.0304755,-0.0890234999999999,0.15977,0.3428325,-0.2010835,-0.074109,-0.0026975,0.0004334999999999,0.074109,0.0026975,-0.0004335,-0.09306,-0.3303075,0.0274204999999999,0.09912,-0.3361375,0.0423225,-0.098785,-0.6527675,0.0725745,0.097203,-0.6530475,0.0729455,0
4,-0.012797,0.7653580000000001,0.0529069999999999,-0.180592,0.484438,0.0032979999999999,-0.2205119999999999,0.228028,-0.015397,0.158238,0.485618,0.0171769999999999,0.223928,0.235708,0.034709,-0.199942,0.030294,-0.089128,0.160168,0.342358,-0.200998,-0.074123,-0.002703,0.0004219999999999,0.074123,0.002703,-0.0004219999999999,-0.09319,-0.330362,0.027402,0.0990679999999999,-0.336112,0.042345,-0.098829,-0.6526019999999999,0.072631,0.097199,-0.652632,0.073083,0
5,-0.012692,0.765359,0.053144,-0.1804919999999999,0.484309,0.003749,-0.220242,0.228029,-0.0154109999999999,0.158258,0.485599,0.017195,0.223878,0.235809,0.034723,-0.1998619999999999,0.030289,-0.0891009999999999,0.160388,0.342279,-0.201151,-0.074123,-0.002693,0.000431,0.074123,0.002693,-0.000431,-0.093181,-0.330361,0.027392,0.0988679999999999,-0.336201,0.042359,-0.098799,-0.652651,0.0726499999999999,0.0972109999999999,-0.652751,0.073024,0
6,-0.0126589999999999,0.7653909999999999,0.0535125,-0.180571,0.484331,0.0038834999999999,-0.220231,0.228201,-0.0152865,0.158399,0.485671,0.0175624999999999,0.223799,0.235861,0.0347445,-0.199691,0.030657,-0.0888015,0.160689,0.342901,-0.2009615,-0.074141,-0.0026969999999999,0.0004174999999999,0.074141,0.0026969999999999,-0.0004175,-0.093119,-0.330119,0.0270194999999999,0.098839,-0.336049,0.0423305,-0.098953,-0.6514390000000001,0.0725244999999999,0.097264,-0.652059,0.0727555,0
7,-0.0126579999999999,0.7653464999999999,0.053915,-0.1806559999999999,0.4842965,0.00408,-0.219996,0.2279564999999999,-0.0153709999999999,0.158384,0.4856265,0.017736,0.223704,0.2356565,0.035236,-0.1994059999999999,0.0303965,-0.088818,0.1602839999999999,0.3437165,-0.2002879999999999,-0.074131,-0.0026934999999999,0.000392,0.074131,0.0026934999999999,-0.0003919999999999,-0.093176,-0.3303235,0.027232,0.098804,-0.3359534999999999,0.042227,-0.098802,-0.6511335,0.07247,0.097146,-0.6513935000000001,0.072828,0
8,-0.0126254999999999,0.765331,0.054245,-0.1806955,0.484271,0.004302,-0.2198955,0.227961,-0.0153579999999999,0.1584045,0.485641,0.017885,0.2236145,0.235651,0.03544,-0.1992155,0.030371,-0.088793,0.1601745,0.344131,-0.1998229999999999,-0.0741375,-0.002693,0.000377,0.0741375,0.002693,-0.0003769999999999,-0.0932165,-0.330329,0.027229,0.0987445,-0.335959,0.042212,-0.0988584999999999,-0.6511089999999999,0.0724269999999999,0.0971085,-0.651229,0.072803,0
9,-0.0126045,0.765334,0.054523,-0.1807305,0.484254,0.00451,-0.2197905,0.227954,-0.015323,0.1584195,0.485654,0.0180189999999999,0.2235295,0.235624,0.0356589999999999,-0.1990505,0.030333,-0.088757,0.1601495,0.344274,-0.199357,-0.0741415,-0.002693,0.0003629999999999,0.0741415,0.002693,-0.000363,-0.0932455,-0.330346,0.0272259999999999,0.0986795,-0.3359459999999999,0.042224,-0.0989595,-0.651136,0.072385,0.0970675,-0.651046,0.072808,0
10,-0.0125964999999999,0.7653285,0.0547995,-0.1807775,0.4842485,0.0046705,-0.2196775,0.2278885,-0.0152885,0.1584325,0.4856585,0.0181645,0.2234425,0.2355885,0.0358865,-0.1988875,0.0302645,-0.0887215,0.1599025,0.3446685,-0.1986815,-0.0741465,-0.0026965,0.0003495,0.0741465,0.0026965,-0.0003495,-0.0932745,-0.3303615,0.0272234999999999,0.0986225,-0.3359115,0.0422035,-0.0990224999999999,-0.6509715,0.0723515,0.0970465,-0.6507515,0.0728024999999999,0
11,-0.012586,0.765321,0.055053,-0.180808,0.4842309999999999,0.004826,-0.219548,0.227801,-0.0152489999999999,0.158442,0.485661,0.018283,0.2233619999999999,0.235541,0.036128,-0.198748,0.030199,-0.08867,0.1592319999999999,0.345091,-0.19801,-0.07415,-0.002701,0.000342,0.07415,0.002701,-0.000342,-0.093256,-0.330419,0.027228,0.0985719999999999,-0.335889,0.042183,-0.099076,-0.650929,0.072292,0.09702,-0.650519,0.072802,0
12,-0.012589,0.7653135,0.0552594999999999,-0.180844,0.4842335,0.0049354999999999,-0.219454,0.2277235,-0.0152135,0.158406,0.4856735,0.0183484999999999,0.223246,0.2353935,0.0363634999999999,-0.198624,0.0301374999999999,-0.0886185,0.158876,0.3455135,-0.1975085,-0.074156,-0.0027075,0.0003354999999999,0.074156,0.0027075,-0.0003355,-0.093248,-0.3304665,0.0272174999999999,0.098526,-0.3358564999999999,0.0421625,-0.099111,-0.6508465,0.0722385,0.096998,-0.6502665000000001,0.0727935,0
13,-0.0125794999999999,0.765313,0.0554255,-0.1808515,0.4842229999999999,0.0049405,-0.2194015,0.227663,-0.0151785,0.1583985,0.485683,0.0184195,0.2231585,0.235283,0.0365495,-0.1985515,0.030073,-0.0885555,0.1588185,0.345533,-0.1969855,-0.0741604999999999,-0.002713,0.0003284999999999,0.0741604999999999,0.002713,-0.0003285,-0.0932385,-0.330497,0.0272064999999999,0.0985185,-0.335847,0.0421445,-0.0991215,-0.650817,0.0722025,0.0969955,-0.650127,0.0727845,0
14,-0.0125614999999999,0.7653185,0.0555424999999999,-0.1808334999999999,0.4842085,0.0049444999999999,-0.2193534999999999,0.2275985,-0.0151514999999999,0.1583965,0.4856884999999999,0.0184725,0.2230464999999999,0.2351685,0.0368355,-0.1985135,0.0300024999999999,-0.0885045,0.1588965,0.3455485,-0.1965745,-0.0741665,-0.0027195,0.0003195,0.0741665,0.0027195,-0.0003195,-0.0932274999999999,-0.3305015,0.0272234999999999,0.0985265,-0.3358515,0.0421215,-0.0991555,-0.6508015,0.0722025,0.0970015,-0.6499915,0.0727965,0
15,-0.0125335,0.7653114999999999,0.055663,-0.1807955,0.4841815,0.0049719999999999,-0.2193155,0.2276015,-0.015097,0.1583945,0.4856715,0.0185419999999999,0.2229345,0.2350415,0.0371619999999999,-0.1985255,0.0300054999999999,-0.08845,0.1587845,0.3453215,-0.1961,-0.0741665,-0.0027225,0.0002909999999999,0.0741665,0.0027225,-0.000291,-0.0932115,-0.3305185,0.0272599999999999,0.0985345,-0.3358585,0.0421109999999999,-0.0991885,-0.6508185000000001,0.072227,0.0970155,-0.6498385000000001,0.072826,0
16,-0.0125119999999999,0.765304,0.055764,-0.180475,0.484154,0.004954,-0.2192849999999999,0.227634,-0.015042,0.158395,0.485664,0.01861,0.222815,0.234944,0.037495,-0.1985249999999999,0.029999,-0.088369,0.158715,0.345404,-0.195749,-0.074167,-0.002724,0.000259,0.074167,0.002724,-0.0002589999999999,-0.093189,-0.3305459999999999,0.027293,0.098545,-0.335856,0.042093,-0.09925,-0.650856,0.072278,0.097032,-0.649756,0.07286,0
17,-0.012478,0.7653019999999999,0.0558474999999999,-0.180093,0.484162,0.0048434999999999,-0.2192629999999999,0.227672,-0.0149775,0.158397,0.485652,0.0186714999999999,0.222697,0.234882,0.0377924999999999,-0.198533,0.030037,-0.0882795,0.158687,0.3454919999999999,-0.1956895,-0.074167,-0.002726,0.0002244999999999,0.074167,0.002726,-0.0002245,-0.093178,-0.330558,0.0273244999999999,0.098557,-0.335848,0.0420734999999999,-0.099282,-0.650988,0.0723375,0.097049,-0.649748,0.0728864999999999,0
18,-0.0124475,0.7652965,0.0559444999999999,-0.1796724999999999,0.4841665,0.0046854999999999,-0.2192724999999999,0.2276965,-0.0148645,0.1583975,0.4856465,0.0187344999999999,0.2225875,0.2348565,0.0380135,-0.1985325,0.0300415,-0.0882554999999999,0.1586675,0.3454965,-0.1956655,-0.0741665,-0.0027295,0.0001955,0.0741665,0.0027295,-0.0001955,-0.0931635,-0.3305735,0.0273585,0.0985574999999999,-0.3358735,0.0420635,-0.0993105,-0.6511134999999999,0.0723965,0.0970574999999999,-0.6497434999999999,0.0729085,0
19,-0.012412,0.76529,0.0560159999999999,-0.17919,0.48417,0.0045269999999999,-0.2192799999999999,0.22772,-0.014743,0.1583999999999999,0.4856399999999999,0.018791,0.22252,0.23481,0.038064,-0.1985299999999999,0.030046,-0.088236,0.15865,0.3455,-0.195656,-0.074166,-0.002731,0.0001619999999999,0.074166,0.002731,-0.000162,-0.093151,-0.33057,0.0273789999999999,0.0985699999999999,-0.33589,0.042052,-0.099338,-0.65115,0.072459,0.0970719999999999,-0.64974,0.0729229999999999,0
20,-0.012387,0.7652785,0.0560854999999999,-0.178715,0.4841785,0.0043655,-0.219305,0.2277585,-0.0146065,0.158395,0.4856385,0.0188505,0.222505,0.2348184999999999,0.0380705,-0.198555,0.0301325,-0.0882194999999999,0.159195,0.3454485,-0.1958395,-0.074168,-0.0027325,0.0001244999999999,0.074168,0.0027325,-0.0001244999999999,-0.093166,-0.3305815,0.0273834999999999,0.0985549999999999,-0.3359315,0.0420455,-0.09937,-0.6511715,0.0725415,0.0970579999999999,-0.6497415,0.0729265,0
21,-0.01236,0.7652765,0.0561565,-0.178258,0.4841865,0.0042655,-0.219328,0.2278565,-0.0144834999999999,0.1583919999999999,0.4856364999999999,0.0189115,0.222492,0.2348265,0.0380275,-0.198598,0.0304425,-0.0882635,0.159202,0.3453265,-0.1960435,-0.07417,-0.0027345,8.750000000000424e-05,0.07417,0.0027345,-8.74999999999973e-05,-0.093179,-0.3305835,0.0273995,0.0985419999999999,-0.3359335,0.0420355,-0.099389,-0.6511735,0.0726455,0.0970449999999999,-0.6498035,0.0729325,0
22,-0.0123585,0.7652835,0.056215,-0.1778325,0.4842035,0.0042369999999999,-0.2194425,0.2281234999999999,-0.0144839999999999,0.1583875,0.4856335,0.018978,0.2224675,0.2348235,0.038034,-0.1986225,0.0310335,-0.088678,0.1587475,0.3453535,-0.196258,-0.0741745,-0.0027315,5.8000000000002494e-05,0.0741745,0.0027315,-5.8000000000002494e-05,-0.0932035,-0.3305865,0.027405,0.0985175,-0.3359465,0.042028,-0.0994155,-0.6512665000000001,0.072683,0.0970155,-0.6498865,0.072937,0
23,-0.0123605,0.765281,0.056269,-0.1774595,0.484241,0.004249,-0.2196895,0.228701,-0.0145139999999999,0.1583804999999999,0.485631,0.019033,0.2224904999999999,0.235001,0.037382,-0.1986195,0.0322729999999999,-0.090054,0.1581205,0.345351,-0.196384,-0.0741795,-0.002726,2.4000000000003185e-05,0.0741795,0.002726,-2.3999999999996247e-05,-0.0932665,-0.330549,0.027345,0.0984805,-0.335949,0.042014,-0.0994585,-0.651379,0.07276,0.0969795,-0.649919,0.072912,0
24,-0.0123829999999999,0.7652975,0.056382,-0.177127,0.4843275,0.004247,-0.2200669999999999,0.2296575,-0.014567,0.158323,0.4856275,0.019076,0.222653,0.2355175,0.036223,-0.1991669999999999,0.0371755,-0.094201,0.158293,0.3455675,-0.196851,-0.074187,-0.0027155,0.0,0.074187,0.0027155,0.0,-0.0933539999999999,-0.3305325,0.027277,0.098383,-0.3359525,0.041984,-0.099448,-0.6514925,0.07282,0.09692,-0.6499925,0.072866,0
25,-0.0123854999999999,0.7652965,0.0565575,-0.1770105,0.4844664999999999,0.0042064999999999,-0.2210705,0.2329165,-0.0149795,0.1582695,0.4856565,0.0191574999999999,0.2231795,0.2367265,0.0331435,-0.2000705,0.0462934999999999,-0.1021715,0.1592495,0.3457964999999999,-0.1976515,-0.0742305,-0.0027064999999999,-5.050000000000193e-05,0.0742305,0.0027064999999999,5.049999999999499e-05,-0.0934374999999999,-0.3305035,0.0272035,0.0983095,-0.3359635,0.0419325,-0.0993815,-0.6516035,0.0728385,0.0968735,-0.6501334999999999,0.0727645,0
26,-0.0123985,0.7653139999999999,0.0569115,-0.1769345,0.484664,0.0041234999999999,-0.2224645,0.238034,-0.0157985,0.1582255,0.485634,0.0190574999999999,0.2239155,0.238994,0.0280914999999999,-0.2016845,0.058587,-0.1129405,0.1601054999999999,0.348034,-0.1984705,-0.0742655,-0.0026969999999999,-0.0001495,0.0742655,0.0026969999999999,0.0001494999999999,-0.0935125,-0.330496,0.0271014999999999,0.0982654999999999,-0.335976,0.0418264999999999,-0.0993065,-0.651726,0.0727785,0.0968305,-0.650366,0.0726185,0
27,-0.012412,0.7653405,0.0573115,-0.1769,0.4848905,0.0040525,-0.22433,0.2446305,-0.0177065,0.1581699999999999,0.4856105,0.0189075,0.2253399999999999,0.2421205,0.0217564999999999,-0.20439,0.0760385,-0.1258985,0.16074,0.3516505,-0.1994985,-0.074298,-0.0026795,-0.0002354999999999,0.074298,0.0026795,0.0002354999999999,-0.093586,-0.3304895,0.0269505,0.09825,-0.3359995,0.0417155,-0.099261,-0.6518795000000001,0.0726644999999999,0.096788,-0.6505995,0.0724475,0
28,-0.0124479999999999,0.7653475000000001,0.0577915,-0.176886,0.4851075,0.0042045,-0.226366,0.2530775,-0.0206414999999999,0.158054,0.4855575,0.0186965,0.227404,0.2467075,0.0133835,-0.208626,0.0967185,-0.1414025,0.161444,0.3617375,-0.2014125,-0.074329,-0.0026405,-0.0003284999999999,0.074329,0.0026405,0.0003285,-0.0936509999999999,-0.3304525,0.0267445,0.098224,-0.3360125,0.0415005,-0.099216,-0.6520524999999999,0.0724945,0.096786,-0.6508324999999999,0.0722425,0
29,-0.0124634999999999,0.765353,0.0585925,-0.1767375,0.485433,0.0044505,-0.2312874999999999,0.2625329999999999,-0.0318985,0.1568725,0.485023,0.0183655,0.2302625,0.251843,0.0044674999999999,-0.2148574999999999,0.118093,-0.1629735,0.1650725,0.3718229999999999,-0.2055634999999999,-0.0743844999999999,-0.002578,-0.0004095,0.0743844999999999,0.002578,0.0004095,-0.0936775,-0.330347,0.0265255,0.0982325,-0.336037,0.0412625,-0.0991054999999999,-0.652247,0.0722775,0.0968185,-0.651097,0.0719675,0
30,-0.01248,0.7653380000000001,0.0594979999999999,-0.176577,0.4858079999999999,0.0047309999999999,-0.236357,0.2743779999999999,-0.043852,0.155733,0.4844779999999999,0.0180289999999999,0.234383,0.2595179999999999,-0.007408,-0.221607,0.140968,-0.185111,0.168863,0.3869479999999999,-0.209751,-0.074453,-0.002494,-0.000504,0.074453,0.002494,0.0005039999999999,-0.093685,-0.330182,0.0263249999999999,0.098263,-0.335932,0.0409779999999999,-0.098983,-0.6524719999999999,0.0720119999999999,0.096886,-0.651442,0.071629,0
31,-0.012478,0.7653,0.0605435,-0.1762669999999999,0.48624,0.0049225,-0.2429069999999999,0.28668,-0.0561495,0.154663,0.48394,0.0176835,0.239313,0.26979,-0.0214425,-0.228507,0.17499,-0.2099155,0.173313,0.40259,-0.2142155,-0.074515,-0.00241,-0.0006185,0.074515,0.00241,0.0006185,-0.0936869999999999,-0.33003,0.0260955,0.098353,-0.33536,0.0406404999999999,-0.098836,-0.65274,0.0717015,0.096992,-0.6517999999999999,0.0712625,0
32,-0.012477,0.765247,0.061744,-0.176007,0.486767,0.00509,-0.249607,0.300807,-0.068635,0.153673,0.483427,0.01739,0.244813,0.282167,-0.0363779999999999,-0.236417,0.215837,-0.234815,0.179763,0.419887,-0.2185249999999999,-0.074586,-0.002323,-0.0007399999999999,0.074586,0.002323,0.00074,-0.093691,-0.329893,0.025857,0.098463,-0.3348629999999999,0.040297,-0.098688,-0.653003,0.07134,0.097097,-0.652493,0.070861,0
33,-0.012501,0.7651910000000001,0.0630729999999999,-0.175694,0.487251,0.005169,-0.256974,0.314541,-0.081406,0.1527659999999999,0.483001,0.017168,0.251186,0.297431,-0.052629,-0.243914,0.259391,-0.256706,0.187976,0.441411,-0.222886,-0.074667,-0.002234,-0.000895,0.074667,0.002234,0.000895,-0.093694,-0.329769,0.0256339999999999,0.098576,-0.334379,0.039982,-0.098551,-0.653269,0.07097,0.097214,-0.653079,0.0704559999999999,0
34,-0.0125355,0.765146,0.064471,-0.1752565,0.487676,0.004886,-0.2647065,0.328716,-0.094889,0.1520835,0.483116,0.016976,0.2582335,0.314896,-0.0683989999999999,-0.2517865,0.304846,-0.272479,0.1969835,0.465316,-0.225849,-0.0747605,-0.0021449999999999,-0.001125,0.0747605,0.002145,0.001125,-0.0936845,-0.329644,0.02547,0.0986334999999999,-0.333994,0.039724,-0.0984215,-0.653464,0.070637,0.0973765,-0.653544,0.070084,0
35,-0.0125244999999999,0.7650644999999999,0.065724,-0.1750445,0.4881245,0.0046419999999999,-0.2720645,0.3477145,-0.110771,0.1516255,0.4833645,0.0168309999999999,0.2661255,0.3336045,-0.082361,-0.2598545,0.3532545,-0.284281,0.2070255,0.4930745,-0.227761,-0.0748615,-0.0020375,-0.001345,0.0748615,0.0020375,0.0013449999999999,-0.0936215,-0.3295355,0.0253579999999999,0.0987655,-0.3336455,0.0395019999999999,-0.0982374999999999,-0.6536755000000001,0.0703419999999999,0.0976195,-0.6539655000000001,0.069776,0
36,-0.012457,0.7649715,0.067015,-0.174776,0.4887614999999999,0.00443,-0.279726,0.3654214999999999,-0.125749,0.151554,0.4836014999999999,0.016758,0.274024,0.3531215,-0.0927689999999999,-0.267436,0.4013514999999999,-0.292749,0.217964,0.5210815000000001,-0.228599,-0.074969,-0.0019065,-0.0015959999999999,0.074969,0.0019065,0.001596,-0.0934929999999999,-0.3294285,0.025299,0.0990039999999999,-0.3333585,0.039329,-0.097986,-0.6539085,0.070078,0.09794,-0.6543685,0.069511,0
37,-0.0124579999999999,0.764822,0.068344,-0.1744839999999999,0.489522,0.004199,-0.289664,0.386832,-0.14051,0.151826,0.483702,0.016761,0.283036,0.375692,-0.10071,-0.275244,0.455162,-0.29734,0.230436,0.548702,-0.22804,-0.075047,-0.0017649999999999,-0.0018509999999999,0.075047,0.001765,0.0018509999999999,-0.09333,-0.329538,0.025221,0.099296,-0.333358,0.039165,-0.097751,-0.654238,0.069802,0.098333,-0.655088,0.0692369999999999,0
38,-0.0124429999999999,0.7643985,0.0692865,-0.174176,0.4905584999999999,0.0038924999999999,-0.295516,0.4117384999999999,-0.1453065,0.1521239999999999,0.4834084999999999,0.0167524999999999,0.291294,0.4006285,-0.1070565,-0.281426,0.5130485,-0.2980065,0.241684,0.5793585,-0.2275765,-0.075085,-0.0016355,-0.0021195,0.075085,0.0016354999999999,0.0021194999999999,-0.093149,-0.3299715,0.0250975,0.099604,-0.3337215,0.0389464999999999,-0.097498,-0.6547815,0.0694745,0.098757,-0.6560515,0.0689605,0
39,-0.0124334999999999,0.7637229999999999,0.0700575,-0.1737604999999999,0.491593,0.0035335,-0.3011605,0.437133,-0.1491655,0.1524094999999999,0.4833929999999999,0.0168375,0.2986195,0.425413,-0.1113155,-0.2872805,0.571763,-0.2986255,0.2535795,0.6049129999999999,-0.2270455,-0.0751035,-0.0014889999999999,-0.0023605,0.0751035,0.0014889999999999,0.0023605,-0.0929675,-0.330717,0.0248855,0.0999095,-0.334507,0.0387535,-0.0972615,-0.655537,0.0691745,0.0991915,-0.657247,0.0687115,0
40,-0.0124174999999999,0.7628665,0.0706305,-0.1732274999999999,0.4928965,0.0032225,-0.3049075,0.4635265,-0.1516944999999999,0.1527224999999999,0.4838265,0.0170335,0.3050225,0.4489465,-0.1116445,-0.2930675,0.6227765,-0.2991745,0.2658025,0.6319064999999999,-0.2229145,-0.0750895,-0.0013265,-0.0026674999999999,0.0750895,0.0013265,0.0026675,-0.0927415,-0.3317235,0.0247295,0.1001025,-0.3355535,0.0387325,-0.0970155,-0.6565635000000001,0.0689245,0.0996335,-0.6587335000000001,0.0685055,0
41,-0.012406,0.76163,0.0711135,-0.172664,0.49427,0.0028894999999999,-0.3081839999999999,0.49291,-0.1528175,0.154196,0.48545,0.0179105,0.310726,0.47178,-0.1112374999999999,-0.298324,0.66639,-0.2958575,0.276916,0.6588400000000001,-0.2195675,-0.0750649999999999,-0.0011229999999999,-0.0029805,0.0750649999999999,0.0011229999999999,0.0029805,-0.0925199999999999,-0.33309,0.0247795,0.1001509999999999,-0.33688,0.0389505,-0.096789,-0.65789,0.0688505,0.100051,-0.6604,0.0685345,0
42,-0.0123344999999999,0.7602465,0.0714305,-0.1720715,0.4960165,0.0025924999999999,-0.3104615,0.5230065,-0.1527515,0.1555385,0.4868965,0.0189184999999999,0.3153185,0.4954265,-0.1107215,-0.3042115,0.7094565,-0.2910315,0.2866984999999999,0.6842465000000001,-0.2122915,-0.0750135,-0.0009035,-0.0032534999999999,0.0750135,0.0009034999999999,0.0032534999999999,-0.0923095,-0.3344935,0.0250075,0.1001805,-0.3384135,0.0393154999999999,-0.0965405,-0.6595635,0.0689315,0.1004895,-0.6622134999999999,0.0687405,0
43,-0.0123084999999999,0.7584515,0.0717879999999999,-0.1717015,0.4979915,0.002313,-0.3112715,0.5515915,-0.152445,0.1570485,0.4887615,0.020061,0.3187985,0.5160715,-0.1101449999999999,-0.3098815,0.7467014999999999,-0.281865,0.2959385,0.7085315,-0.203235,-0.0749335,-0.0006634999999999,-0.0036039999999999,0.0749335,0.0006635,0.0036039999999999,-0.0921575,-0.3362584999999999,0.025292,0.1002065,-0.3405284999999999,0.0399,-0.0963245,-0.6616685,0.069134,0.1008785,-0.6645085000000001,0.069086,0
44,-0.012386,0.756329,0.072185,-0.171407,0.500039,0.002123,-0.311717,0.574599,-0.152075,0.158333,0.4908089999999999,0.0211799999999999,0.320853,0.535509,-0.107565,-0.315177,0.778809,-0.270205,0.304623,0.728869,-0.193295,-0.074821,-0.0005229999999999,-0.003998,0.074821,0.000523,0.0039979999999999,-0.092056,-0.338361,0.025611,0.1002,-0.342991,0.0404659999999999,-0.096138,-0.664131,0.069359,0.1012329999999999,-0.666851,0.069502,0
45,-0.0125925,0.75397,0.072578,-0.1711935,0.50214,0.00195,-0.3114935,0.59838,-0.151523,0.1593665,0.4930399999999999,0.022309,0.3216164999999999,0.55458,-0.102353,-0.3200035,0.8063899999999999,-0.257633,0.3120664999999999,0.74861,-0.182163,-0.0746775,-0.00042,-0.0043959999999999,0.0746775,0.00042,0.004396,-0.0920024999999999,-0.34075,0.025902,0.1001495,-0.34579,0.040969,-0.0960405,-0.66683,0.069537,0.1015165,-0.66949,0.069927,0
46,-0.0128185,0.751135,0.0728795,-0.1712365,0.504265,0.0021785,-0.3114565,0.616925,-0.1485955,0.1600734999999999,0.495445,0.0234615,0.3213335,0.5699649999999999,-0.0946154999999999,-0.3232265,0.824955,-0.2459755,0.3176835,0.763095,-0.1701754999999999,-0.0744915,-0.000439,-0.0046515,0.0744915,0.0004389999999999,0.0046514999999999,-0.0919935,-0.343555,0.0262545,0.1000215,-0.349005,0.0414895,-0.0959675,-0.669955,0.0698375,0.1017335,-0.672535,0.0704424999999999,0
47,-0.013138,0.74838,0.0730615,-0.171352,0.5061,0.0024744999999999,-0.311712,0.6315000000000001,-0.1420225,0.160478,0.4976799999999999,0.0245774999999999,0.320928,0.58372,-0.0856125,-0.325852,0.8391900000000001,-0.2342525,0.321748,0.77676,-0.1573125,-0.0743139999999999,-0.000485,-0.0048505,0.0743139999999999,0.0004849999999999,0.0048504999999999,-0.092015,-0.34636,0.0266695,0.099809,-0.35181,0.0420904999999999,-0.095938,-0.67314,0.0702415,0.1018979999999999,-0.6756099999999999,0.0710385,0
48,-0.0135324999999999,0.7457325,0.0729789999999999,-0.1714775,0.5079524999999999,0.0028789999999999,-0.3119275,0.6436925,-0.134357,0.1605725,0.4997425,0.0256909999999999,0.3205825,0.5961925,-0.077717,-0.3281175,0.8540025,-0.220497,0.3250125,0.7911925,-0.144717,-0.0741455,-0.0005894999999999,-0.005012,0.0741455,0.0005894999999999,0.0050119999999999,-0.0920405,-0.3491275,0.0271629999999999,0.0995625,-0.3541975,0.0427979999999999,-0.0959295,-0.6762875,0.070753,0.1020125,-0.6788075,0.071718,0
49,-0.01395,0.7429745000000001,0.072577,-0.17167,0.5096145000000001,0.0033269999999999,-0.3096399999999999,0.6553245000000001,-0.1254839999999999,0.16063,0.5015645,0.026789,0.31913,0.6081245,-0.0698439999999999,-0.32986,0.8647545000000001,-0.207774,0.32703,0.8043245000000001,-0.132464,-0.074007,-0.0007205,-0.0050629999999999,0.074007,0.0007204999999999,0.0050629999999999,-0.092107,-0.3517555,0.02769,0.0993899999999999,-0.3562555,0.043525,-0.095955,-0.6795255,0.071347,0.1021099999999999,-0.6820155000000001,0.072452,0
50,-0.0144094999999999,0.7404665,0.0720119999999999,-0.1716795,0.5112265,0.0038619999999999,-0.3085095,0.6628065000000001,-0.117666,0.1607005,0.5032165000000001,0.027754,0.3171905,0.6197065,-0.06139,-0.3312595,0.8751965,-0.195266,0.3283405,0.8173565,-0.120386,-0.0738854999999999,-0.0009164999999999,-0.0049589999999999,0.0738854999999999,0.0009165,0.0049589999999999,-0.0921755,-0.3542435,0.028214,0.0993425,-0.3580735,0.044245,-0.0959775,-0.6825635,0.07195,0.1021904999999999,-0.6850835,0.07318,0
51,-0.0150094999999999,0.7379195000000001,0.0711345,-0.1717455,0.5124795000000001,0.0044024999999999,-0.3074355,0.6699795000000001,-0.1098345,0.1606945,0.5051195,0.0286395,0.3151945,0.6279495,-0.0535155,-0.3319355,0.8796895,-0.1838945,0.3289645,0.8275495,-0.1082845,-0.0737865,-0.0011514999999999,-0.0047794999999999,0.0737865,0.0011514999999999,0.0047794999999999,-0.0922655,-0.3568605,0.0287545,0.0992455,-0.3599105,0.0449395,-0.0960765,-0.6858204999999999,0.0725845,0.1022145,-0.6882505,0.0738824999999999,0
52,-0.0156849999999999,0.735619,0.070138,-0.1718029999999999,0.513609,0.005003,-0.306743,0.676559,-0.102634,0.160507,0.5066390000000001,0.029548,0.312717,0.636789,-0.0459029999999999,-0.332693,0.883649,-0.1723039999999999,0.329097,0.836909,-0.096634,-0.073714,-0.0014469999999999,-0.0044109999999999,0.073714,0.001447,0.0044109999999999,-0.092377,-0.359361,0.0293539999999999,0.099097,-0.3611709999999999,0.045545,-0.0962509999999999,-0.688861,0.073188,0.102177,-0.691001,0.074595,0
53,-0.0163579999999999,0.7335079999999999,0.0689839999999999,-0.171968,0.5145179999999999,0.0055369999999999,-0.3060879999999999,0.682288,-0.096311,0.160052,0.5080279999999999,0.030388,0.310152,0.645118,-0.03891,-0.333378,0.886568,-0.161821,0.328872,0.847078,-0.084671,-0.073642,-0.001663,-0.004044,0.073642,0.0016629999999999,0.0040439999999999,-0.092497,-0.3617019999999999,0.0298999999999999,0.098945,-0.3621919999999999,0.046046,-0.096442,-0.691662,0.073738,0.102132,-0.693582,0.07524,0
54,-0.017067,0.7315715,0.0677075,-0.172236,0.5151515,0.0059745,-0.305476,0.6871415000000001,-0.0906595,0.159684,0.5093715,0.0311305,0.307644,0.6527215000000001,-0.0327055,-0.334036,0.8890415,-0.1520995,0.328504,0.8564415,-0.0733795,-0.073551,-0.0018354999999999,-0.0037514999999999,0.073551,0.0018355,0.0037514999999999,-0.092652,-0.3638585,0.0303825,0.098774,-0.3630184999999999,0.0464905,-0.096635,-0.6943185,0.0742315,0.102044,-0.6960284999999999,0.0758365,0
55,-0.0177669999999999,0.7301605,0.066358,-0.172617,0.5155805,0.006315,-0.304947,0.6923305,-0.085972,0.1593429999999999,0.5106805,0.031798,0.305183,0.6597705,-0.027281,-0.334487,0.8916005,-0.143322,0.328053,0.8652105,-0.063512,-0.0734809999999999,-0.0019494999999999,-0.0035359999999999,0.0734809999999999,0.0019494999999999,0.0035359999999999,-0.092803,-0.3655095,0.030786,0.098634,-0.3634795,0.046804,-0.096838,-0.6964695,0.074664,0.101973,-0.6979595,0.076354,0
56,-0.0184875,0.728801,0.064991,-0.1730425,0.515661,0.0066089999999999,-0.3042825,0.697211,-0.081874,0.1590275,0.511761,0.032391,0.3028375,0.665671,-0.022372,-0.3345525,0.893961,-0.1353039999999999,0.3275774999999999,0.871881,-0.054592,-0.0734134999999999,-0.0020639999999999,-0.003325,0.0734134999999999,0.002064,0.003325,-0.0929905,-0.367019,0.031149,0.0985244999999999,-0.364149,0.04715,-0.0971025,-0.698549,0.075078,0.1018775,-0.6998489999999999,0.076861,0
57,-0.0191355,0.7276875,0.0637025,-0.1733964999999999,0.5157075,0.0067744999999999,-0.3033165,0.7017675,-0.0785075,0.1588935,0.5128975,0.0329355,0.3005434999999999,0.6709375,-0.0181875,-0.3343065,0.8934075,-0.1300875,0.3270834999999999,0.8781775,-0.0460075,-0.0733554999999999,-0.0021424999999999,-0.0031165,0.0733554999999999,0.0021424999999999,0.0031165,-0.0931545,-0.3682825,0.0314485,0.0984395,-0.3648625,0.0474485,-0.0973235,-0.7002325,0.0754384999999999,0.1018034999999999,-0.7014425,0.0772855,0
58,-0.019772,0.7268315000000001,0.0624205,-0.173485,0.5156315,0.0069654999999999,-0.302135,0.7055015,-0.0753775,0.158845,0.5139515,0.0333635,0.2982649999999999,0.6757615,-0.0144485,-0.333975,0.8933515000000001,-0.1246975,0.326665,0.8843615,-0.0380584999999999,-0.073303,-0.0021725,-0.0029264999999999,0.073303,0.0021725,0.0029264999999999,-0.093311,-0.3694085,0.0317245,0.09836,-0.3654984999999999,0.0477265,-0.097533,-0.7016985,0.0757875,0.1017549999999999,-0.7029285,0.0776905,0
59,-0.0203994999999999,0.7260800000000001,0.061127,-0.1735115,0.5153300000000001,0.007052,-0.3008114999999999,0.70859,-0.07271,0.1587785,0.51481,0.033864,0.2959285,0.6796300000000001,-0.0113049999999999,-0.3338315,0.8937900000000001,-0.11993,0.3263385,0.88888,-0.031321,-0.0732464999999999,-0.0021679999999999,-0.0027709999999999,0.0732464999999999,0.002168,0.002771,-0.0934385,-0.37038,0.031957,0.0982774999999999,-0.3659799999999999,0.047971,-0.0977405,-0.70304,0.076098,0.1017085,-0.70424,0.078052,0
60,-0.0209055,0.7252485,0.060087,-0.1735175,0.5154785,0.0069979999999999,-0.2993875,0.7110785,-0.07031,0.1587325,0.5158685,0.03443,0.2936425,0.6829685,-0.0084419999999999,-0.3340975,0.8938385,-0.1158699999999999,0.3261225,0.8935285,-0.025173,-0.0731955,-0.0020864999999999,-0.002668,0.0731955,0.0020865,0.0026679999999999,-0.0935505,-0.3714015,0.0321899999999999,0.0982155,-0.3665515,0.048218,-0.0979505,-0.7043215,0.07641,0.1016725,-0.7056115000000001,0.078425,0
61,-0.021342,0.724426,0.0591374999999999,-0.173505,0.515586,0.0068184999999999,-0.297745,0.712816,-0.0682325,0.158775,0.517066,0.0351325,0.2914049999999999,0.685886,-0.0060385,-0.334315,0.894366,-0.1124624999999999,0.326025,0.897566,-0.0202885,-0.073169,-0.001947,-0.0026414999999999,0.073169,0.0019469999999999,0.0026414999999999,-0.0936559999999999,-0.372334,0.0323935,0.098175,-0.367264,0.0484535,-0.098083,-0.705674,0.0767115,0.101655,-0.706964,0.0787485,0
62,-0.021706,0.723684,0.0582684999999999,-0.173432,0.515814,0.0066324999999999,-0.296002,0.714314,-0.0663715,0.1589279999999999,0.518294,0.0358834999999999,0.289228,0.688334,-0.0039755,-0.334532,0.894944,-0.1092915,0.326028,0.898604,-0.0170775,-0.073157,-0.001797,-0.0026485,0.073157,0.001797,0.0026484999999999,-0.093747,-0.373136,0.0325264999999999,0.0981109999999999,-0.367956,0.0486034999999999,-0.09821,-0.706906,0.0769535,0.1016379999999999,-0.708236,0.0790434999999999,0
63,-0.0219565,0.7229264999999999,0.0575455,-0.1732584999999999,0.5161465,0.0064494999999999,-0.2942285,0.7158665,-0.0646954999999999,0.1592015,0.5193665,0.0366645,0.2871315,0.6903064999999999,-0.0023395,-0.3348485,0.8956465,-0.1062655,0.3261314999999999,0.8993464999999999,-0.0141724999999999,-0.0731385,-0.0016765,-0.0026725,0.0731385,0.0016764999999999,0.0026725,-0.0938025,-0.3737935,0.0326295,0.0980885,-0.3684935,0.0487115,-0.0982905,-0.7081135000000001,0.0771535,0.1016615,-0.7094635,0.0793165,0
64,-0.0221315,0.7221390000000001,0.0568965,-0.1729795,0.5167090000000001,0.0062295,-0.2925494999999999,0.717099,-0.0633654999999999,0.1595105,0.519989,0.0372595,0.2850705,0.692019,-0.0009984999999999,-0.3352095,0.896999,-0.1032355,0.3262505,0.8999590000000001,-0.0115314999999999,-0.0731165,-0.0015459999999999,-0.0026954999999999,0.0731165,0.0015459999999999,0.0026955,-0.0938674999999999,-0.374401,0.0326905,0.0980045,-0.369141,0.0488355,-0.0983655,-0.709421,0.0773175,0.1016805,-0.7107509999999999,0.0795635,0
65,-0.0222069999999999,0.7214499999999999,0.056328,-0.1726019999999999,0.51755,0.006005,-0.291002,0.71822,-0.062314,0.1598379999999999,0.52089,0.037804,0.283098,0.69365,-8.099999999999774e-05,-0.335712,0.8980199999999999,-0.100774,0.326388,0.90043,-0.00981,-0.073096,-0.001396,-0.002748,0.073096,0.0013959999999999,0.002748,-0.093911,-0.3749099999999999,0.032793,0.097889,-0.36965,0.048938,-0.098378,-0.7106600000000001,0.077435,0.101698,-0.71189,0.079775,0
66,-0.0222244999999999,0.7206319999999999,0.0558185,-0.1721964999999999,0.518262,0.0057945,-0.2896165,0.7191719999999999,-0.0614795,0.1601535,0.521662,0.0383315,0.2813335,0.694812,0.0004424999999999,-0.3362965,0.898682,-0.0987395,0.3265935,0.900412,-0.0088815,-0.0730715,-0.0012519999999999,-0.0027884999999999,0.0730715,0.001252,0.0027884999999999,-0.0939455,-0.375418,0.0328845,0.0977875,-0.3702479999999999,0.0490545,-0.0983795,-0.7119880000000001,0.0775235,0.1017035,-0.713118,0.0799935,0
67,-0.0221584999999999,0.7197545000000001,0.0553769999999999,-0.1717735,0.5191945,0.0055339999999999,-0.2884035,0.7199445,-0.060965,0.1604364999999999,0.5223845,0.038759,0.2797565,0.6955045,0.000606,-0.3369434999999999,0.8989944999999999,-0.097415,0.3267065,0.8996345000000001,-0.0086429999999999,-0.0730484999999999,-0.0011694999999999,-0.002846,0.0730484999999999,0.0011695,0.002846,-0.0939484999999999,-0.3759655,0.03293,0.0977095,-0.3709455,0.049122,-0.0983725,-0.7132955000000001,0.077601,0.1017365,-0.7143854999999999,0.0801419999999999,0
68,-0.022111,0.7189335,0.055046,-0.171351,0.5201135,0.005279,-0.287301,0.7203735,-0.0607159999999999,0.160789,0.5232435,0.039261,0.278349,0.6958835,0.000572,-0.337611,0.8989535,-0.0965459999999999,0.326729,0.8988035,-0.0085839999999999,-0.073025,-0.0010965,-0.0029019999999999,0.073025,0.0010965,0.002902,-0.093952,-0.3764265,0.032976,0.097603,-0.3716065,0.049173,-0.098385,-0.7144965000000001,0.077684,0.1017589999999999,-0.7156565,0.080261,0
69,-0.0220915,0.7183155,0.054756,-0.1709625,0.5205855,0.005181,-0.2862725,0.7209855000000001,-0.0605659999999999,0.1610674999999999,0.5237555,0.039643,0.2771175,0.6962455000000001,0.000522,-0.3384125,0.8990855000000001,-0.0957859999999999,0.3267275,0.8978855,-0.0085539999999999,-0.0730235,-0.0010744999999999,-0.0029319999999999,0.0730235,0.0010745,0.002932,-0.0939875,-0.3766945,0.032999,0.0974605,-0.3720344999999999,0.049211,-0.0984145,-0.7154345,0.077749,0.1017775,-0.7166345,0.080353,0
70,-0.022075,0.7178435,0.0545095,-0.17066,0.5210435,0.0051505,-0.28536,0.7216535000000001,-0.0604865,0.1613,0.5241535,0.0399005,0.27602,0.6965535,0.0004515,-0.33918,0.8992935,-0.0952664999999999,0.32671,0.8970235,-0.0085554999999999,-0.073016,-0.0010784999999999,-0.0029314999999999,0.073016,0.0010785,0.0029315,-0.094035,-0.3768565,0.0329955,0.0973189999999999,-0.3722965,0.0492185,-0.0984539999999999,-0.7162465,0.0777785,0.10178,-0.7175265,0.0804065,0
71,-0.0219815,0.7174335,0.054318,-0.1703405,0.5214635,0.005148,-0.2846605,0.7223035,-0.06042,0.1614995,0.5245335,0.040072,0.2751095,0.6972735,0.0001369999999999,-0.3397505,0.8995635,-0.09508,0.3267295,0.8962935,-0.0089259999999999,-0.0730145,-0.0010804999999999,-0.002935,0.0730145,0.0010804999999999,0.002935,-0.0940655,-0.3769165,0.03299,0.0972085,-0.3725665,0.049257,-0.0984795,-0.7169165,0.07781,0.1017895,-0.7182565,0.080454,0
72,-0.0218725,0.7170605,0.054124,-0.1700375,0.5218105,0.005144,-0.2841074999999999,0.7226705,-0.0603849999999999,0.1616824999999999,0.5248904999999999,0.040196,0.2743825,0.6980105,-0.0003989999999999,-0.3400475,0.8996805,-0.0951249999999999,0.3266725,0.8956704999999999,-0.0096689999999999,-0.0730135,-0.0010865,-0.0029589999999999,0.0730135,0.0010865,0.002959,-0.0941105,-0.3769995,0.032964,0.0970925,-0.3728795,0.049274,-0.0984935,-0.7175395,0.077836,0.1017925,-0.7187695000000001,0.080478,0
73,-0.021769,0.716742,0.0539575,-0.169789,0.5220020000000001,0.0051254999999999,-0.283679,0.722682,-0.0603505,0.161841,0.525172,0.0403105,0.273771,0.698792,-0.0010355,-0.340219,0.8992020000000001,-0.0951705,0.326511,0.8950020000000001,-0.0108015,-0.073021,-0.001089,-0.0029815,0.073021,0.0010889999999999,0.0029814999999999,-0.094155,-0.377088,0.0329565,0.096987,-0.3731379999999999,0.0492854999999999,-0.098526,-0.717998,0.0778484999999999,0.101791,-0.719248,0.0804915,0
74,-0.0216479999999999,0.7164615,0.0537965,-0.1695829999999999,0.5221515,0.0050954999999999,-0.2833029999999999,0.7225514999999999,-0.0603765,0.161957,0.5253614999999999,0.0404155,0.2733569999999999,0.6996315,-0.0018605,-0.340383,0.8987715,-0.0952165,0.326327,0.8943715,-0.0121025,-0.073032,-0.0010914999999999,-0.0030104999999999,0.073032,0.0010914999999999,0.0030104999999999,-0.094197,-0.3771784999999999,0.0329675,0.096901,-0.3733885,0.0493215,-0.098548,-0.7184985,0.0778435,0.101777,-0.7196885000000001,0.0804855,0
75,-0.021523,0.7162054999999999,0.0535734999999999,-0.169403,0.5222555,0.0050204999999999,-0.282943,0.7223255,-0.0604945,0.1620869999999999,0.5255555,0.0404634999999999,0.273067,0.7006255,-0.0028105,-0.340533,0.8984055,-0.0953745,0.326137,0.8937955,-0.0135145,-0.073047,-0.0011014999999999,-0.0030435,0.073047,0.0011015,0.0030434999999999,-0.094224,-0.3772945,0.0329084999999999,0.09682,-0.3736144999999999,0.0493215,-0.098567,-0.7189045000000001,0.0777844999999999,0.1017769999999999,-0.7200545,0.0803905,0
76,-0.0214115,0.716082,0.0533635,-0.1692735,0.522422,0.0049605,-0.2825935,0.722132,-0.0606235,0.1621864999999999,0.525742,0.0404645,0.2728665,0.701682,-0.0037825,-0.3405635,0.898162,-0.0954935,0.3259364999999999,0.893332,-0.0149125,-0.0730595,-0.0010919999999999,-0.0030825,0.0730595,0.0010919999999999,0.0030825,-0.0942595,-0.377368,0.0328585,0.0967415,-0.3737479999999999,0.0493105,-0.0986235,-0.719088,0.0777075,0.1017665,-0.7203579999999999,0.0802855,0
77,-0.0213075,0.7159544999999999,0.0531434999999999,-0.1691425,0.5225645,0.0049374999999999,-0.2822624999999999,0.7219345,-0.0607865,0.1622875,0.5259245,0.0404335,0.2727174999999999,0.7027344999999999,-0.0047415,-0.3405625,0.8979145,-0.0960265,0.3257175,0.8928845,-0.0162305,-0.0730745,-0.0010934999999999,-0.0031025,0.0730745,0.0010935,0.0031025,-0.0942755,-0.3774254999999999,0.0327405,0.0966865,-0.3738555,0.0492655,-0.0986725,-0.7192655,0.0776005,0.1017375,-0.7206655000000001,0.0801685,0
78,-0.021214,0.7158525,0.0529155,-0.169036,0.5226925,0.0049024999999999,-0.281986,0.7217425,-0.0609575,0.162384,0.5261125,0.0403875,0.272614,0.7037925,-0.0056505,-0.340576,0.8976725000000001,-0.0964775,0.325504,0.8924525000000001,-0.0174085,-0.073081,-0.0011064999999999,-0.0031435,0.073081,0.0011064999999999,0.0031435,-0.094305,-0.3774775,0.0326025,0.0966489999999999,-0.3739475,0.0491785,-0.098726,-0.7194275000000001,0.0775085,0.101714,-0.7209874999999999,0.0800464999999999,0
79,-0.0211445,0.7157800000000001,0.052716,-0.1689525,0.52278,0.004911,-0.2817525,0.7216,-0.0610899999999999,0.1624475,0.5262199999999999,0.040329,0.2725575,0.7046699999999999,-0.0063809999999999,-0.3409625,0.8975200000000001,-0.0966199999999999,0.3253275,0.89215,-0.0183609999999999,-0.0730915,-0.0011169999999999,-0.0031739999999999,0.0730915,0.001117,0.003174,-0.0943155,-0.37751,0.032493,0.0966094999999999,-0.37399,0.04912,-0.0987925,-0.7195499999999999,0.077411,0.1016975,-0.7212700000000001,0.079953,0
80,-0.0210904999999999,0.7157125000000001,0.052543,-0.1689055,0.5228425000000001,0.004926,-0.2815455,0.7214625,-0.061193,0.1624845,0.5262425000000001,0.0402779999999999,0.2724845,0.7049625,-0.006891,-0.3413555,0.8973925,-0.096743,0.3252145,0.8919525,-0.019015,-0.0731055,-0.0011395,-0.003203,0.0731055,0.0011395,0.0032029999999999,-0.0943215,-0.3776075,0.032392,0.0965745,-0.3740375,0.0490409999999999,-0.0988555,-0.7196475,0.077306,0.1016845,-0.7215275,0.0798629999999999,0
81,-0.021049,0.7156865000000001,0.052401,-0.168853,0.5228865,0.004952,-0.281373,0.7213665,-0.0612849999999999,0.162537,0.5262365,0.040217,0.272467,0.7051864999999999,-0.0072559999999999,-0.341873,0.9006765000000001,-0.0964849999999999,0.325127,0.8918065,-0.019513,-0.073117,-0.0011644999999999,-0.0032159999999999,0.073117,0.0011644999999999,0.003216,-0.094307,-0.3776735,0.032302,0.0965719999999999,-0.3740535,0.048975,-0.098903,-0.7197134999999999,0.077212,0.101677,-0.7217435000000001,0.0797819999999999,0
82,-0.0210135,0.7156560000000001,0.052302,-0.1688155,0.5229060000000001,0.004992,-0.2812154999999999,0.721266,-0.061347,0.1625645,0.5262359999999999,0.04017,0.2724744999999999,0.705136,-0.0075399999999999,-0.3424355,0.905056,-0.096047,0.3250845,0.891686,-0.0199109999999999,-0.0731275,-0.0011879999999999,-0.0032299999999999,0.0731275,0.001188,0.00323,-0.0942955,-0.377734,0.032222,0.0965785,-0.374124,0.04892,-0.0989455,-0.7198039999999999,0.077128,0.1016745,-0.721914,0.079723,0
83,-0.0209949999999999,0.7156170000000001,0.052228,-0.168781,0.522947,0.005035,-0.2810609999999999,0.721207,-0.0613969999999999,0.162609,0.526257,0.040132,0.272459,0.705057,-0.0077329999999999,-0.3432909999999999,0.909707,-0.095187,0.325079,0.891617,-0.020275,-0.073135,-0.001211,-0.00324,0.073135,0.001211,0.00324,-0.094279,-0.377793,0.032135,0.096583,-0.374203,0.048874,-0.0989809999999999,-0.719913,0.076986,0.101659,-0.722033,0.079684,0
84,-0.0209869999999999,0.7155925,0.05219,-0.168761,0.5229524999999999,0.005079,-0.280921,0.7211425,-0.061425,0.162609,0.5262325,0.040144,0.272449,0.7049725,-0.007844,-0.344091,0.9148225,-0.0942349999999999,0.325079,0.8915525,-0.0205839999999999,-0.073144,-0.0012444999999999,-0.003227,0.073144,0.0012444999999999,0.003227,-0.0942789999999999,-0.3778775,0.032056,0.096588,-0.3742474999999999,0.048851,-0.0990009999999999,-0.7200375,0.076873,0.101639,-0.7221775,0.079647,0
85,-0.02097,0.7155564999999999,0.0521439999999999,-0.168712,0.5229465,0.0051399999999999,-0.280792,0.7210764999999999,-0.061463,0.1626179999999999,0.5262264999999999,0.040146,0.272468,0.7048865,-0.0079419999999999,-0.3447719999999999,0.9204565,-0.0931729999999999,0.325078,0.8915165,-0.0209359999999999,-0.073153,-0.0012715,-0.003199,0.073153,0.0012714999999999,0.003199,-0.094269,-0.3779635,0.031933,0.096603,-0.3743035,0.048805,-0.099002,-0.7201735,0.076719,0.101608,-0.7222735,0.079603,0
86,-0.0209569999999999,0.7155195000000001,0.0521035,-0.1686659999999999,0.5229595,0.0052175,-0.280656,0.7209995,-0.0614964999999999,0.162624,0.5261795,0.0401995,0.272484,0.7047395000000001,-0.0080315,-0.345496,0.9264395,-0.0920165,0.325074,0.8914695,-0.0212274999999999,-0.073159,-0.0012925,-0.0031795,0.073159,0.0012925,0.0031794999999999,-0.0942699999999999,-0.3780605,0.0317854999999999,0.096623,-0.3743805,0.0487644999999999,-0.0990159999999999,-0.7203505,0.0765415,0.101594,-0.7224404999999999,0.0795575,0
87,-0.0209444999999999,0.715477,0.0520749999999999,-0.1686285,0.522977,0.005302,-0.2804885,0.720917,-0.061563,0.1626015,0.526077,0.040153,0.2725515,0.7045870000000001,-0.0081509999999999,-0.3462285,0.932457,-0.0910129999999999,0.3250715,0.891417,-0.02149,-0.0731655,-0.0013039999999999,-0.0031549999999999,0.0731655,0.0013039999999999,0.0031549999999999,-0.0942814999999999,-0.378163,0.031571,0.0966525,-0.374513,0.048721,-0.0990284999999999,-0.720553,0.076343,0.1015615,-0.722613,0.079506,0
88,-0.0209105,0.7154465,0.0520545,-0.1685625,0.5229765000000001,0.0053464999999999,-0.2803225,0.7208465000000001,-0.0616525,0.1625774999999999,0.5259665,0.0401375,0.2726575,0.7043765000000001,-0.0083055,-0.3465925,0.9382465,-0.0900624999999999,0.3251075,0.8913465,-0.0217935,-0.0731715,-0.0013055,-0.0031264999999999,0.0731715,0.0013055,0.0031264999999999,-0.0942785,-0.3783235,0.0312355,0.0967035,-0.3746235,0.0486405,-0.0990325,-0.7207635,0.0761044999999999,0.1015375,-0.7227534999999999,0.0794185,0
89,-0.0208754999999999,0.7154659999999999,0.0519925,-0.1685054999999999,0.523056,0.0053974999999999,-0.2801655,0.720776,-0.0618115,0.1625345,0.525866,0.0400545,0.2728345,0.704256,-0.0085915,-0.3469555,0.944146,-0.0892815,0.3251644999999999,0.891266,-0.0221574999999999,-0.0731735,-0.001295,-0.0030945,0.0731735,0.001295,0.0030945,-0.0942775,-0.378584,0.0307224999999999,0.0967845,-0.374734,0.0484485,-0.0990355,-0.7209340000000001,0.0757755,0.1014945,-0.722874,0.0792305,0
90,-0.0208474999999999,0.715547,0.0518585,-0.1684534999999999,0.523147,0.0053554999999999,-0.2800134999999999,0.720767,-0.0620574999999999,0.1623565,0.525777,0.0399185,0.2730665,0.704167,-0.0090034999999999,-0.3471235,0.946697,-0.0892275,0.3252765,0.891327,-0.0226285,-0.0731845,-0.0013169999999999,-0.0030704999999999,0.0731845,0.0013169999999999,0.0030704999999999,-0.0942505,-0.378933,0.0296475,0.0969755,-0.375123,0.0480535,-0.0989935,-0.721103,0.0752735,0.1014465,-0.723423,0.0786105,0
91,-0.0208505,0.715627,0.051581,-0.1684574999999999,0.523147,0.005151,-0.2798775,0.720827,-0.0624539999999999,0.1621325,0.5257269999999999,0.039531,0.2733125,0.703807,-0.0096049999999999,-0.3472675,0.948097,-0.089874,0.3253625,0.891427,-0.023244,-0.0732055,-0.0013169999999999,-0.0030499999999999,0.0732055,0.0013169999999999,0.00305,-0.0942595,-0.379523,0.027638,0.0972405,-0.375473,0.047316,-0.0988835,-0.721273,0.074373,0.1014124999999999,-0.723933,0.077803,0
92,-0.020889,0.715627,0.051137,-0.168546,0.523147,0.004775,-0.279796,0.720817,-0.063019,0.161864,0.525657,0.038975,0.273564,0.703467,-0.0103779999999999,-0.347386,0.949697,-0.0903789999999999,0.325434,0.891397,-0.02402,-0.073239,-0.0013169999999999,-0.0030629999999999,0.073239,0.0013169999999999,0.003063,-0.094281,-0.380323,0.025037,0.097591,-0.375943,0.046132,-0.098642,-0.721603,0.072973,0.101354,-0.724553,0.076692,0
93,-0.021012,0.715627,0.050343,-0.168752,0.523147,0.004084,-0.279812,0.720797,-0.0639609999999999,0.161478,0.525587,0.038044,0.2737279999999999,0.703117,-0.0115209999999999,-0.347592,0.950697,-0.0912909999999999,0.325438,0.891377,-0.0252,-0.073264,-0.0013169999999999,-0.0029939999999999,0.073264,0.0013169999999999,0.002994,-0.094369,-0.381283,0.021549,0.09799,-0.376573,0.044282,-0.098476,-0.721953,0.071147,0.101218,-0.725183,0.074981,0
94,-0.021226,0.715941,0.0491415,-0.169046,0.522691,0.0030405,-0.279936,0.7210810000000001,-0.0653214999999999,0.160824,0.5243610000000001,0.0366405,0.273794,0.703091,-0.0130974999999999,-0.347976,0.951511,-0.0925814999999999,0.325354,0.891671,-0.0267945,-0.073326,-0.0012949999999999,-0.0029724999999999,0.073326,0.001295,0.0029725,-0.094536,-0.382189,0.0169175,0.098474,-0.3774389999999999,0.0415585,-0.098413,-0.7224189999999999,0.0686475,0.101054,-0.725609,0.0726665,0
95,-0.0213935,0.7162554999999999,0.0475865,-0.1693174999999999,0.5221255,0.0017045,-0.2800175,0.7216555,-0.0670895,0.1602425,0.5230454999999999,0.0349625,0.2738325,0.7030155,-0.0150524999999999,-0.3480775,0.9521055,-0.0942195,0.3252425,0.8922055,-0.0289194999999999,-0.0734165,-0.0012355,-0.0030115,0.0734165,0.0012355,0.0030115,-0.0946775,-0.3830245,0.0112675,0.0991625,-0.3781645,0.0379265,-0.0983304999999999,-0.7234945,0.0654975,0.1008725,-0.7258245,0.0698955,0
96,-0.0215295,0.7166049999999999,0.0455295,-0.1695855,0.521575,-9.249999999999536e-05,-0.2800955,0.722405,-0.0694505,0.1597945,0.521925,0.0328415,0.2738645,0.703015,-0.0175474999999999,-0.3482255,0.953115,-0.0965304999999999,0.3251045,0.893045,-0.0316724999999999,-0.0735465,-0.0011629999999999,-0.0031394999999999,0.0735465,0.0011629999999999,0.0031395,-0.0949945,-0.383445,0.0046095,0.1000944999999999,-0.378415,0.0331435,-0.0982975,-0.724225,0.0617715,0.1006045,-0.7257750000000001,0.0664375,0
97,-0.021622,0.7168025,0.042939,-0.169865,0.5211025,-0.002361,-0.280095,0.7231124999999999,-0.072415,0.159055,0.5209825,0.030218,0.273875,0.7033125,-0.020605,-0.348415,0.9545725,-0.099655,0.324965,0.8940925,-0.035086,-0.073714,-0.0010784999999999,-0.003208,0.073714,0.0010784999999999,0.0032079999999999,-0.09542,-0.3834075,-0.002931,0.101175,-0.3781974999999999,0.027503,-0.098285,-0.7245275,0.057437,0.100355,-0.7253175000000001,0.062417,0
98,-0.0216375,0.7165779999999999,0.0399975,-0.1701555,0.5205879999999999,-0.0050174999999999,-0.2800455,0.7237279999999999,-0.0759085,0.1582445,0.520168,0.0272765,0.2738845,0.703228,-0.0240085,-0.3478355,0.950728,-0.1049585,0.3248045,0.894968,-0.0392794999999999,-0.0739215,-0.0010029999999999,-0.0032494999999999,0.0739215,0.001003,0.0032494999999999,-0.0959035,-0.382972,-0.0109235,0.1023445,-0.377642,0.0212485,-0.0982944999999999,-0.724462,0.0527475,0.1001345,-0.724552,0.0579864999999999,0
99,-0.021553,0.716006,0.0366065,-0.170244,0.520136,-0.0079304999999999,-0.279864,0.7240960000000001,-0.0800205,0.157566,0.519116,0.0239665,0.273936,0.703156,-0.0279935,-0.347224,0.947166,-0.1107105,0.324646,0.896146,-0.0440745,-0.074114,-0.0008849999999999,-0.0033235,0.074114,0.0008849999999999,0.0033235,-0.096441,-0.381944,-0.0191465,0.103566,-0.376344,0.0142555,-0.0983489999999999,-0.723904,0.0474355,0.099846,-0.722954,0.0531715,0
100,-0.0213429999999999,0.7154315,0.0325865,-0.170259,0.5201415,-0.0112074999999999,-0.2795789999999999,0.7245415000000001,-0.0848435,0.156921,0.5176015,0.0199594999999999,0.274121,0.7031615,-0.0327785,-0.345499,0.9416415,-0.1171235,0.324521,0.8975915,-0.0497355,-0.0743429999999999,-0.0008895,-0.0032895,0.0743429999999999,0.0008895,0.0032895,-0.0969549999999999,-0.3799685,-0.0274305,0.1048109999999999,-0.3742985,0.0065425,-0.0984849999999999,-0.7225085,0.0416615,0.099601,-0.7205284999999999,0.0476415,0
101,-0.0209605,0.714284,0.0282479999999999,-0.1702505,0.520274,-0.014947,-0.2788405,0.723714,-0.090149,0.1563095,0.516664,0.0154109999999999,0.2743295,0.702784,-0.038073,-0.3437405,0.936444,-0.123999,0.3243594999999999,0.899364,-0.0560159999999999,-0.0746255,-0.000966,-0.003151,0.0746255,0.0009659999999999,0.0031509999999999,-0.0975565,-0.377506,-0.036068,0.1061495,-0.371506,-0.001577,-0.0985585,-0.720396,0.0356099999999999,0.0993795,-0.717506,0.041646,1
102,-0.020401,0.713491,0.02343,-0.169852,0.5201910000000001,-0.0187689999999999,-0.277702,0.722821,-0.095953,0.155688,0.5145810000000001,0.010621,0.274708,0.702701,-0.044113,-0.3418219999999999,0.932351,-0.131403,0.324288,0.902061,-0.0632259999999999,-0.0749779999999999,-0.00092,-0.0030779999999999,0.0749779999999999,0.0009199999999999,0.003078,-0.098168,-0.3739789999999999,-0.045054,0.107668,-0.367579,-0.0102459999999999,-0.09866,-0.717029,0.028954,0.099258,-0.713459,0.035214,1
103,-0.0197215,0.7116635,0.018653,-0.1693585,0.5209035000000001,-0.022592,-0.2762985,0.7210835000000001,-0.101733,0.1550815,0.5137535000000001,0.005822,0.2752314999999999,0.7019935,-0.050219,-0.3397785,0.9282235,-0.138793,0.3242914999999999,0.9044035,-0.070674,-0.0752865,-0.0009605,-0.0029499999999999,0.0752865,0.0009605,0.00295,-0.0987635,-0.3708965,-0.0536,0.1094815,-0.3635665,-0.019041,-0.0986295,-0.7141065,0.021954,0.0991815,-0.7092864999999999,0.028977,1
104,-0.0190135,0.7102134999999999,0.013567,-0.1680725,0.5197035,-0.0266719999999999,-0.2748724999999999,0.7199835,-0.10782,0.1545575,0.5125435,0.000753,0.2758075,0.7017435,-0.057035,-0.3376524999999999,0.9250635,-0.14664,0.3241575,0.9028035,-0.079615,-0.0756345,-0.0009965,-0.002837,0.0756345,0.0009964999999999,0.002837,-0.0994184999999999,-0.3666265,-0.062401,0.1113774999999999,-0.3585565,-0.028152,-0.0986954999999999,-0.7101065,0.014135,0.0990675,-0.7036565,0.022489,1
105,-0.0184235,0.7083435,0.008487,-0.1667885,0.5189735,-0.030688,-0.2734884999999999,0.7188535,-0.113836,0.1540315,0.5114735,-0.004249,0.2762715,0.7015635,-0.0637969999999999,-0.3355984999999999,0.9225035,-0.154486,0.3238915,0.9019835,-0.088467,-0.0759875,-0.0011045,-0.002588,0.0759875,0.0011045,0.002588,-0.1000115,-0.3621265,-0.071114,0.1132015,-0.3534965,-0.037278,-0.0988725,-0.7055565,0.006051,0.0988214999999999,-0.6972965,0.016123,1
106,-0.0179375,0.7063515,0.003544,-0.1654595,0.5180915,-0.034395,-0.2720695,0.7177415,-0.119701,0.1536505,0.5103315,-0.008769,0.2766505,0.7005015,-0.07041,-0.3334995,0.9205215,-0.1620609999999999,0.3234705,0.9007715,-0.0973059999999999,-0.0763575,-0.0012285,-0.002515,0.0763575,0.0012285,0.002515,-0.1006215,-0.3570485,-0.079717,0.1149105,-0.3479784999999999,-0.046293,-0.0991215,-0.7000385,-0.002162,0.0983605,-0.6907584999999999,0.009765,1
107,-0.0174455,0.704183,-0.0012079999999999,-0.1641205,0.5178630000000001,-0.0380449999999999,-0.2705405,0.715883,-0.125294,0.1534195,0.509503,-0.01326,0.2768394999999999,0.699323,-0.076907,-0.3318005,0.923623,-0.1679139999999999,0.3228895,0.898853,-0.106028,-0.0766915,-0.0013299999999999,-0.0025129999999999,0.0766915,0.00133,0.002513,-0.1012605,-0.352437,-0.088669,0.1166595,-0.342797,-0.055387,-0.0993415,-0.694257,-0.010386,0.0979295,-0.684117,0.0031839999999999,1
108,-0.0170945,0.701312,-0.0056665,-0.1631305,0.518002,-0.0418945,-0.2691805,0.7140920000000001,-0.1307795,0.1527895,0.509472,-0.0180445,0.2767595,0.697242,-0.0834435,-0.3300705,0.926352,-0.1735495,0.3221395,0.896672,-0.1148275,-0.0770265,-0.001525,-0.0024265,0.0770265,0.0015249999999999,0.0024264999999999,-0.1019945,-0.3477179999999999,-0.0976785,0.1183294999999999,-0.337998,-0.0646315,-0.0996995,-0.688088,-0.0184815,0.0972794999999999,-0.677058,-0.0032955,1
109,-0.016958,0.6991175,-0.0097675,-0.162433,0.5151775,-0.0450625,-0.268053,0.7130575,-0.1358695,0.151917,0.5071574999999999,-0.0225725,0.2763569999999999,0.6960275,-0.0898114999999999,-0.329483,0.9330075,-0.1790594999999999,0.3211469999999999,0.8954375,-0.1233735,-0.0774219999999999,-0.0016034999999999,-0.0023495,0.0774219999999999,0.0016035,0.0023494999999999,-0.1029509999999999,-0.3421025,-0.1067765,0.119957,-0.3326425,-0.0739075,-0.100225,-0.6805725,-0.0264205,0.096507,-0.6687625,-0.0096675,1
110,-0.017037,0.697627,-0.0138219999999999,-0.161594,0.512657,-0.048071,-0.267184,0.712767,-0.140886,0.1509059999999999,0.505407,-0.026885,0.275686,0.694877,-0.0960959999999999,-0.3284439999999999,0.938877,-0.184336,0.319816,0.892717,-0.131966,-0.077808,-0.001662,-0.002318,0.077808,0.001662,0.002318,-0.103817,-0.335743,-0.116087,0.121646,-0.327153,-0.083457,-0.100787,-0.671863,-0.034126,0.095686,-0.659703,-0.0158589999999999,1
111,-0.0173709999999999,0.69539,-0.017366,-0.161138,0.5102,-0.050946,-0.266738,0.7127199999999999,-0.145407,0.149882,0.50375,-0.030608,0.274812,0.6934699999999999,-0.101612,-0.327378,0.94382,-0.189057,0.318142,0.88984,-0.139727,-0.078173,-0.0018769999999999,-0.002353,0.078173,0.001877,0.0023529999999999,-0.104803,-0.3293,-0.124833,0.122972,-0.32117,-0.092355,-0.101526,-0.6627500000000001,-0.041247,0.094692,-0.6503,-0.021476,1
112,-0.0177745,0.6934235,-0.0208879999999999,-0.1607205,0.5065135,-0.0539109999999999,-0.2664605,0.7129235,-0.149943,0.1488995,0.5023535,-0.0344339999999999,0.2739195,0.6922635,-0.1071169999999999,-0.3262805,0.9451735,-0.1943929999999999,0.3162395,0.8864535,-0.147303,-0.0785435,-0.0021445,-0.0024459999999999,0.0785435,0.0021445,0.002446,-0.1057505,-0.3220365,-0.133674,0.1240795,-0.3144465,-0.101052,-0.1021995,-0.6518865,-0.0479909999999999,0.0936694999999999,-0.6400065,-0.0271639999999999,1
113,-0.0183409999999999,0.6911165,-0.023996,-0.1611139999999999,0.5051065,-0.056356,-0.266164,0.7116965,-0.153912,0.148006,0.5007765000000001,-0.037624,0.2729959999999999,0.6904465,-0.111842,-0.325214,0.9463165,-0.198732,0.313996,0.8846465,-0.153612,-0.078853,-0.0024005,-0.002431,0.078853,0.0024005,0.002431,-0.10671,-0.3151135,-0.141683,0.125086,-0.3080635,-0.1093379999999999,-0.102879,-0.6400735,-0.053523,0.092646,-0.6299735,-0.032375,1
114,-0.0188455,0.688932,-0.0270925,-0.1615595,0.503692,-0.0586945,-0.2658395,0.710822,-0.1576395,0.1471405,0.499102,-0.0406915,0.2720105,0.688242,-0.1167415,-0.3239895,0.946922,-0.2030495,0.3116505,0.881732,-0.1598695,-0.0790485,-0.0024689999999999,-0.0024995,0.0790485,0.0024689999999999,0.0024994999999999,-0.1076395,-0.304628,-0.1495395,0.1261805,-0.298278,-0.1173415,-0.1033985,-0.627858,-0.0585805,0.0918205,-0.619548,-0.0373415,1
115,-0.0192865,0.6868065,-0.03042,-0.1619495,0.5016565,-0.061122,-0.2655995,0.7099065,-0.1614249999999999,0.1463405,0.4973165,-0.043825,0.2710105,0.6865065,-0.121589,-0.3228095,0.9477265,-0.207305,0.3094305,0.8786465,-0.165955,-0.0791854999999999,-0.0025705,-0.002396,0.0791854999999999,0.0025705,0.002396,-0.1084445,-0.2936935,-0.157105,0.1273305,-0.2879235,-0.125359,-0.1038505,-0.6156335000000001,-0.063222,0.0909105,-0.6083035,-0.042176,1
116,-0.019657,0.6849475,-0.0377519999999999,-0.162067,0.5009075000000001,-0.0682229999999999,-0.265387,0.7085075,-0.1689109999999999,0.145643,0.4970175,-0.051125,0.269983,0.6854675,-0.130421,-0.321597,0.9477975,-0.215561,0.307633,0.8771875,-0.175751,-0.079152,-0.0026325,-0.0024139999999999,0.079152,0.0026324999999999,0.0024139999999999,-0.109182,-0.2811725,-0.168961,0.128613,-0.2760325,-0.137282,-0.104206,-0.6019625,-0.071731,0.0900929999999999,-0.5954525,-0.050705,1
117,-0.0198699999999999,0.6879249999999999,-0.0468314999999999,-0.161985,0.498785,-0.0767875,-0.264715,0.710135,-0.1779865,0.145185,0.494095,-0.0601764999999999,0.268835,0.688145,-0.1408495,-0.320275,0.950335,-0.2258565,0.305985,0.8807149999999999,-0.1872565,-0.079111,-0.0025349999999999,-0.0026124999999999,0.079111,0.002535,0.0026125,-0.110273,-0.264365,-0.1851664999999999,0.132025,-0.259075,-0.1550785,-0.104265,-0.583955,-0.0817394999999999,0.089525,-0.578085,-0.0609314999999999,1
118,-0.0200324999999999,0.6884349999999999,-0.055364,-0.1617235,0.499055,-0.0851929999999999,-0.2643335,0.708005,-0.186749,0.1448565,0.494205,-0.068719,0.2676565,0.6890149999999999,-0.150731,-0.3189435,0.948375,-0.235749,0.3044365,0.8833850000000001,-0.198259,-0.0789884999999999,-0.0025349999999999,-0.0028779999999999,0.0789884999999999,0.002535,0.002878,-0.1112545,-0.2492349999999999,-0.200479,0.1353765,-0.243415,-0.171953,-0.1041685,-0.567755,-0.091128,0.0890865,-0.562265,-0.070533,1
119,-0.020323,0.6892400000000001,-0.063624,-0.1610069999999999,0.49666,-0.093388,-0.263917,0.7071700000000001,-0.195299,0.143883,0.4924499999999999,-0.077024,0.2664129999999999,0.69028,-0.160283,-0.318247,0.94633,-0.245929,0.303013,0.88586,-0.209649,-0.0789739999999999,-0.0026799999999999,-0.0030239999999999,0.0789739999999999,0.0026799999999999,0.0030239999999999,-0.112567,-0.23334,-0.215629,0.138483,-0.22733,-0.188979,-0.104162,-0.55076,-0.100077,0.088583,-0.5452699999999999,-0.079841,1
120,-0.0205929999999999,0.68979,-0.0720235,-0.160428,0.49497,-0.1014255,-0.263478,0.70652,-0.2036335,0.142842,0.49224,-0.0851655,0.265152,0.69128,-0.1700885,-0.317988,0.94533,-0.2561135,0.301522,0.88783,-0.2209035,-0.07896,-0.0027399999999999,-0.0031695,0.07896,0.0027399999999999,0.0031694999999999,-0.1139879999999999,-0.21801,-0.2305935,0.141512,-0.21185,-0.2061135,-0.104193,-0.5341699999999999,-0.1087605,0.088022,-0.5282899999999999,-0.0889335,1
121,-0.020773,0.69004,-0.0803865,-0.1596969999999999,0.49514,-0.1097995,-0.263437,0.70631,-0.2117145,0.141713,0.4918099999999999,-0.0934265,0.2638729999999999,0.69161,-0.1796335,-0.317787,0.94811,-0.2656545,0.300153,0.8882,-0.2318245,-0.0788909999999999,-0.00261,-0.0033055,0.0788909999999999,0.00261,0.0033055,-0.115407,-0.2033799999999999,-0.2450345,0.144323,-0.19687,-0.2228645,-0.104197,-0.5177,-0.1169515,0.087533,-0.5114000000000001,-0.0978335,1
122,-0.0209035,0.690835,-0.088901,-0.1588095,0.493285,-0.118021,-0.2633295,0.705145,-0.21984,0.1406405,0.490935,-0.102292,0.2629005,0.6928650000000001,-0.189238,-0.3175495,0.948325,-0.27501,0.2993205,0.892075,-0.24234,-0.0788545,-0.0026349999999999,-0.00349,0.0788545,0.0026349999999999,0.0034899999999999,-0.1166095,-0.187325,-0.25986,0.1470904999999999,-0.181365,-0.23945,-0.1040555,-0.500305,-0.125099,0.0872705,-0.4935349999999999,-0.106775,1
123,-0.0208259999999999,0.69101,-0.097316,-0.1577339999999999,0.49108,-0.126095,-0.262734,0.7039,-0.22765,0.139836,0.49088,-0.11069,0.262166,0.6935800000000001,-0.198467,-0.316784,0.94592,-0.28476,0.298616,0.89406,-0.2531,-0.078919,-0.0029799999999999,-0.0036199999999999,0.078919,0.00298,0.0036199999999999,-0.117544,-0.17217,-0.27413,0.149856,-0.16658,-0.25528,-0.1037459999999999,-0.48314,-0.132993,0.087236,-0.47604,-0.115516,1
124,-0.0204215,0.6913,-0.1058829999999999,-0.1567425,0.49057,-0.134149,-0.2619625,0.70278,-0.2353199999999999,0.1392074999999999,0.48971,-0.119014,0.2616675,0.69518,-0.207546,-0.3157325,0.94298,-0.29446,0.2981375,0.897,-0.26385,-0.0788825,-0.00281,-0.0036599999999999,0.0788825,0.00281,0.0036599999999999,-0.1182425,-0.15579,-0.2881,0.1527375,-0.15072,-0.2707699999999999,-0.1031225,-0.46536,-0.14068,0.0874595,-0.45803,-0.1242519999999999,1
125,-0.0201495,0.6920999999999999,-0.110084,-0.1562305,0.48775,-0.13753,-0.2614305,0.70338,-0.23867,0.1384495,0.486,-0.123108,0.2609795,0.69633,-0.212426,-0.3149504999999999,0.94032,-0.30004,0.2974195,0.89967,-0.27036,-0.0788905,-0.00273,-0.00353,0.0788905,0.00273,0.00353,-0.1189305,-0.1394099999999999,-0.29716,0.1551394999999999,-0.13474,-0.28202,-0.1026275,-0.44797,-0.144104,0.0876335,-0.44046,-0.128943,1
126,-0.0201375,0.687945,-0.112174,-0.1555174999999999,0.486085,-0.13916,-0.2611375,0.697315,-0.23985,0.1377225,0.484655,-0.1250939999999999,0.2603125,0.694515,-0.215191,-0.3144475,0.934235,-0.30308,0.2962125,0.896225,-0.27469,-0.0789065,-0.002705,-0.0032799999999999,0.0789065,0.002705,0.00328,-0.1192175,-0.126595,-0.30144,0.1554625,-0.1221249999999999,-0.287,-0.1022315,-0.434705,-0.145679,0.0874974999999999,-0.427125,-0.131386,1
127,-0.0200714999999999,0.686225,-0.114232,-0.1548105,0.483865,-0.141052,-0.2610005,0.696325,-0.240995,0.1370195,0.4831149999999999,-0.127323,0.2598295,0.6915849999999999,-0.217833,-0.3140805,0.928655,-0.306455,0.2950595,0.893845,-0.278965,-0.0789665,-0.002605,-0.003105,0.0789665,0.0026049999999999,0.0031049999999999,-0.1195705,-0.111585,-0.306005,0.1557595,-0.106925,-0.292265,-0.1019205,-0.419435,-0.147327,0.0872415,-0.4118549999999999,-0.13379,1
128,-0.0199425,0.68338,-0.115948,-0.1542605,0.48406,-0.14225,-0.2608705,0.6953100000000001,-0.24203,0.1371494999999999,0.48193,-0.128828,0.2593594999999999,0.6892199999999999,-0.220459,-0.3141805,0.92483,-0.30907,0.2940295,0.89306,-0.28205,-0.0792535,-0.0022699999999999,-0.003,0.0792535,0.0022699999999999,0.003,-0.1196905,-0.09681,-0.3096,0.1560494999999999,-0.0921599999999999,-0.29627,-0.1015325,-0.40543,-0.148748,0.0870614999999999,-0.3979499999999999,-0.135999,1
129,-0.0198725,0.6813,-0.117406,-0.1538074999999999,0.4825799999999999,-0.143271,-0.2610575,0.69367,-0.243095,0.1373525,0.4806799999999999,-0.129909,0.2590024999999999,0.68774,-0.222393,-0.3139875,0.92176,-0.311145,0.2926924999999999,0.89286,-0.284885,-0.0794044999999999,-0.00208,-0.002845,0.0794044999999999,0.0020799999999999,0.0028449999999999,-0.1195775,-0.08511,-0.312895,0.1558825,-0.08053,-0.299735,-0.1010635,-0.39049,-0.149901,0.0868885,-0.38236,-0.136667,1
130,-0.0197945,0.6790149999999999,-0.118943,-0.1536445,0.479905,-0.144236,-0.2607545,0.6914549999999999,-0.244275,0.1372855,0.479265,-0.131179,0.2587055,0.686615,-0.2246719999999999,-0.3138944999999999,0.918455,-0.313085,0.2917055,0.8906149999999999,-0.287895,-0.0797275,-0.0020749999999999,-0.0027449999999999,0.0797275,0.0020749999999999,0.0027449999999999,-0.1194544999999999,-0.073655,-0.3162049999999999,0.1554355,-0.069435,-0.303165,-0.1006415,-0.375955,-0.151172,0.0867645,-0.3681649999999999,-0.138586,1
131,-0.0195025,0.67662,-0.1202499999999999,-0.1536675,0.4790799999999999,-0.144867,-0.2604975,0.69086,-0.2453,0.1372525,0.4774199999999999,-0.1320879999999999,0.2587225,0.6847,-0.226674,-0.3133575,0.91745,-0.31472,0.2909525,0.8884599999999999,-0.29071,-0.0798675,-0.00185,-0.0026499999999999,0.0798675,0.0018499999999999,0.00265,-0.1192874999999999,-0.06245,-0.31872,0.1547725,-0.05823,-0.30595,-0.1001334999999999,-0.3620500000000001,-0.1521459999999999,0.0866845,-0.35468,-0.140198,1
132,-0.0192794999999999,0.6751050000000001,-0.121493,-0.1536565,0.478295,-0.145323,-0.2602965,0.6891750000000001,-0.246205,0.1370935,0.475025,-0.132919,0.2586935,0.682175,-0.228345,-0.3128965,0.918175,-0.316015,0.2902835,0.887015,-0.292925,-0.0799675,-0.001425,-0.002545,0.0799675,0.001425,0.0025449999999999,-0.1190765,-0.052145,-0.320345,0.1539035,-0.0470349999999999,-0.308465,-0.0996615,-0.3486249999999999,-0.153024,0.0865005,-0.341705,-0.141603,1
133,-0.019025,0.6739299999999999,-0.122402,-0.153622,0.476804,-0.145641,-0.259732,0.68883,-0.246995,0.1370279999999999,0.474372,-0.133441,0.258498,0.6814,-0.229727,-0.312422,0.91953,-0.317055,0.289788,0.88753,-0.294685,-0.08009,-0.00118,-0.0025749999999999,0.08009,0.0011799999999999,0.0025749999999999,-0.118892,-0.03966,-0.321245,0.1527079999999999,-0.0332399999999999,-0.310165,-0.0992639999999999,-0.33335,-0.1537879999999999,0.0863049999999999,-0.32685,-0.142834,1
134,-0.0188804999999999,0.672515,-0.123348,-0.1537865,0.475681,-0.146039,-0.2594865,0.688065,-0.2478449999999999,0.1369335,0.474742,-0.133962,0.2585834999999999,0.681015,-0.2311389999999999,-0.3123565,0.921695,-0.318005,0.2894535,0.886125,-0.2963949999999999,-0.0800835,-0.0010549999999999,-0.0026749999999999,0.0800835,0.001055,0.002675,-0.1188265,-0.0275549999999999,-0.321635,0.1512335,-0.019915,-0.311235,-0.0990245,-0.318775,-0.154608,0.0859705,-0.3125249999999999,-0.143875,1
135,-0.0187635,0.671185,-0.124576,-0.1538745,0.47355,-0.146511,-0.2593045,0.688245,-0.24888,0.1368255,0.475053,-0.134738,0.2586855,0.679155,-0.2328,-0.3114045,0.919905,-0.31915,0.2895655,0.8856850000000001,-0.29817,-0.0800905,-0.0010549999999999,-0.00257,0.0800905,0.001055,0.0025699999999999,-0.1187745,-0.0158749999999999,-0.32229,0.1496154999999999,-0.0070149999999999,-0.312,-0.0988845,-0.3046649999999999,-0.155487,0.0857584999999999,-0.298515,-0.144831,1
136,-0.0185319999999999,0.669745,-0.124805,-0.153727,0.472314,-0.146208,-0.258627,0.6881349999999999,-0.249025,0.137063,0.47367,-0.134504,0.258903,0.679805,-0.233605,-0.310327,0.922135,-0.319445,0.289793,0.884215,-0.299065,-0.0801969999999999,-0.0006849999999999,-0.002445,0.0801969999999999,0.0006849999999999,0.0024449999999999,-0.118597,-0.004395,-0.322485,0.148003,0.005535,-0.312085,-0.098688,-0.291105,-0.155497,0.085709,-0.2849649999999999,-0.144832,1
137,-0.0182705,0.668875,-0.124863,-0.1537105,0.471352,-0.145879,-0.2581105,0.688145,-0.248885,0.1371995,0.473481,-0.134261,0.2591595,0.680195,-0.233945,-0.3095705,0.924245,-0.3197149999999999,0.2898794999999999,0.882825,-0.299905,-0.0803234999999999,-0.000645,-0.0022449999999999,0.0803234999999999,0.000645,0.0022449999999999,-0.1186305,0.0075649999999999,-0.322395,0.1462395,0.0185949999999999,-0.312135,-0.0986394999999999,-0.277335,-0.155572,0.0855275,-0.271105,-0.144745,1
138,-0.0179795,0.6677949999999999,-0.1249909999999999,-0.1538765,0.471576,-0.145503,-0.2579865,0.6883549999999999,-0.2490299999999999,0.1372334999999999,0.472948,-0.134259,0.2590935,0.679685,-0.2343799999999999,-0.3090465,0.925015,-0.32023,0.2898535,0.8806449999999999,-0.30055,-0.0804054999999999,-0.000265,-0.0020999999999999,0.0804054999999999,0.0002649999999999,0.0021,-0.1186965,0.0184449999999999,-0.32237,0.1446835,0.0303949999999999,-0.3123899999999999,-0.0987585,-0.264715,-0.1558469999999999,0.0852074999999999,-0.258145,-0.144913,1
139,-0.0178219999999999,0.66832,-0.1250389999999999,-0.154075,0.4723819999999999,-0.145224,-0.257905,0.68919,-0.249135,0.136975,0.4735709999999999,-0.1340029999999999,0.259135,0.68073,-0.2344949999999999,-0.308775,0.92678,-0.320725,0.289755,0.88391,-0.300905,-0.080691,-0.00019,-0.0019649999999999,0.080691,0.0001899999999999,0.001965,-0.119085,0.0306399999999999,-0.321405,0.1432749999999999,0.0436399999999999,-0.312185,-0.099105,-0.25103,-0.1560119999999999,0.084675,-0.24423,-0.14506,1
140,-0.0175165,0.6678000000000001,-0.1249349999999999,-0.1539415,0.472811,-0.144931,-0.2571414999999999,0.68635,-0.249085,0.1369284999999999,0.47541,-0.1335869999999999,0.2592685,0.68126,-0.234395,-0.3075515,0.92418,-0.321095,0.2899585,0.88462,-0.300805,-0.0807245,-0.0001899999999999,-0.001835,0.0807245,0.00019,0.001835,-0.1193915,0.04164,-0.320065,0.1422485,0.0556,-0.311515,-0.0993115,-0.2385899999999999,-0.155942,0.0842924999999999,-0.2315999999999999,-0.144991,1
141,-0.0172019999999999,0.668125,-0.124638,-0.153723,0.4735179999999999,-0.144157,-0.256293,0.6854549999999999,-0.24886,0.136737,0.476284,-0.133068,0.259417,0.683685,-0.23411,-0.306203,0.920245,-0.32159,0.2904069999999999,0.887135,-0.3005,-0.080656,-0.000215,-0.00153,0.080656,0.0002149999999999,0.00153,-0.119703,0.0542649999999999,-0.31821,0.141477,0.0684649999999999,-0.3103599999999999,-0.0995699999999999,-0.225205,-0.155681,0.083951,-0.217935,-0.144537,1
142,-0.016752,0.66732,-0.12405,-0.15343,0.4734400000000001,-0.14339,-0.2556,0.6828700000000001,-0.24863,0.13648,0.475449,-0.13228,0.2596099999999999,0.6827700000000001,-0.23356,-0.30471,0.91481,-0.32215,0.29116,0.88663,-0.3002,-0.080548,-0.0004399999999999,-0.00117,0.080548,0.0004400000000001,0.00117,-0.11996,0.06322,-0.31624,0.14108,0.07776,-0.30903,-0.099856,-0.2155099999999999,-0.155424,0.083655,-0.2079899999999999,-0.143702,1
143,-0.0163855,0.66716,-0.123141,-0.1531875,0.474703,-0.142787,-0.2548975,0.68171,-0.248485,0.1361625,0.47522,-0.131636,0.2599424999999999,0.68276,-0.232865,-0.3032175,0.91049,-0.322855,0.2921325,0.8886499999999999,-0.299945,-0.0804555,-0.0006899999999999,-0.000805,0.0804555,0.0006899999999999,0.000805,-0.1202975,0.0729199999999999,-0.313745,0.1408525,0.08792,-0.307285,-0.1002585,-0.20503,-0.155207,0.0833805,-0.19726,-0.142954,1
144,-0.016062,0.6677500000000001,-0.1218729999999999,-0.152907,0.476584,-0.1420659999999999,-0.254237,0.68352,-0.24821,0.135913,0.47524,-0.1308659999999999,0.260403,0.68461,-0.2319799999999999,-0.302137,0.91121,-0.3237,0.293413,0.8911100000000001,-0.2995099999999999,-0.080417,-0.00097,-0.0005399999999999,0.080417,0.00097,0.00054,-0.120697,0.08278,-0.3115799999999999,0.140673,0.09804,-0.3054,-0.100699,-0.1946,-0.1549189999999999,0.083125,-0.18638,-0.141505,1
145,-0.015881,0.66779,-0.120243,-0.152803,0.478386,-0.14115,-0.253673,0.68335,-0.247875,0.135677,0.477029,-0.129553,0.260757,0.68592,-0.23085,-0.301073,0.91035,-0.324285,0.294777,0.89339,-0.2985649999999999,-0.080385,-0.0016599999999999,-7.499999999999174e-05,0.080385,0.0016599999999999,7.499999999999174e-05,-0.121303,0.09137,-0.309145,0.140427,0.10677,-0.303375,-0.101314,-0.1852899999999999,-0.154343,0.082781,-0.1767799999999999,-0.139643,1
146,-0.0157415,0.6676200000000001,-0.118573,-0.1527095,0.479912,-0.1403,-0.2531195,0.6826800000000001,-0.247615,0.1355205,0.477672,-0.12788,0.2611104999999999,0.68628,-0.229522,-0.2999295,0.90871,-0.325075,0.2962504999999999,0.89553,-0.297695,-0.0803105,-0.0020099999999999,0.0003449999999999,0.0803105,0.00201,-0.000345,-0.1219395,0.09917,-0.306585,0.1403005,0.11482,-0.301255,-0.1019255,-0.17684,-0.153713,0.0824755,-0.16781,-0.137706,1
147,-0.015602,0.6675300000000001,-0.116341,-0.15264,0.480797,-0.138949,-0.25245,0.6820900000000001,-0.24701,0.13562,0.478582,-0.125742,0.2618499999999999,0.68676,-0.227866,-0.29864,0.90645,-0.32536,0.2979,0.89731,-0.2962,-0.080164,-0.00268,0.0006199999999999,0.080164,0.00268,-0.00062,-0.12265,0.10636,-0.3036,0.1405699999999999,0.12236,-0.29858,-0.102363,-0.16908,-0.152352,0.082287,-0.1594999999999999,-0.135012,1
148,-0.015538,0.6668499999999999,-0.114408,-0.152613,0.4819629999999999,-0.137966,-0.251953,0.6815199999999999,-0.24687,0.135757,0.4783689999999999,-0.123875,0.262397,0.6864999999999999,-0.2266119999999999,-0.2973329999999999,0.90332,-0.32602,0.299537,0.8979599999999999,-0.29495,-0.079982,-0.00299,0.00081,0.079982,0.0029899999999999,-0.00081,-0.123443,0.1123799999999999,-0.3014799999999999,0.141057,0.1287799999999999,-0.29616,-0.102804,-0.1625200000000001,-0.151164,0.08202,-0.15234,-0.1327289999999999,1
149,-0.0154569999999999,0.66639,-0.112472,-0.152553,0.483056,-0.136942,-0.251833,0.68429,-0.24678,0.135937,0.478461,-0.122106,0.263117,0.6857,-0.224709,-0.2966229999999999,0.90348,-0.32654,0.301107,0.89949,-0.29363,-0.07988,-0.0033199999999999,0.0009399999999999,0.07988,0.0033199999999999,-0.0009399999999999,-0.124223,0.11808,-0.29935,0.141867,0.1348499999999999,-0.2938199999999999,-0.1032269999999999,-0.1563299999999999,-0.149929,0.081791,-0.14554,-0.130536,1
150,-0.0154179999999999,0.6650800000000001,-0.110779,-0.152508,0.484001,-0.135878,-0.251728,0.6860950000000001,-0.246675,0.136262,0.4790230000000001,-0.120367,0.263832,0.684825,-0.223088,-0.295908,0.905605,-0.326745,0.302522,0.9007050000000001,-0.292595,-0.079785,-0.0036649999999999,0.0009949999999999,0.079785,0.003665,-0.0009949999999999,-0.124998,0.122925,-0.297335,0.142712,0.139925,-0.291495,-0.1035869999999999,-0.1512249999999999,-0.148825,0.081547,-0.1398249999999999,-0.128465,1
151,-0.0155315,0.6644680000000001,-0.109289,-0.1526835,0.4853510000000001,-0.134816,-0.2517534999999999,0.6882300000000001,-0.246685,0.1363865,0.4808030000000001,-0.119043,0.2644765,0.68505,-0.221809,-0.2953735,0.9079,-0.326965,0.3035865,0.90238,-0.291795,-0.0796085,-0.0041399999999999,0.0011149999999999,0.0796085,0.00414,-0.001115,-0.1258635,0.1278,-0.295315,0.1434065,0.14494,-0.289245,-0.1039715,-0.1461299999999999,-0.147828,0.0811775,-0.1341899999999999,-0.126941,1
152,-0.0156984999999999,0.6632269999999999,-0.108076,-0.1531394999999999,0.4853569999999999,-0.133765,-0.2518995,0.6888799999999999,-0.24712,0.1364305,0.4816359999999999,-0.117978,0.2650205,0.68429,-0.22052,-0.2949994999999999,0.90899,-0.32702,0.3043205,0.90293,-0.29098,-0.0795115,-0.00442,0.0011499999999999,0.0795115,0.0044199999999999,-0.00115,-0.1267395,0.1310699999999999,-0.29371,0.1441205,0.1482099999999999,-0.28747,-0.1043534999999999,-0.14278,-0.146856,0.0807225,-0.13034,-0.125407,1
153,-0.01583,0.662315,-0.106883,-0.1536819999999999,0.485502,-0.132733,-0.252012,0.6894950000000001,-0.247295,0.136448,0.482163,-0.116932,0.2652779999999999,0.6831750000000001,-0.219184,-0.294642,0.909935,-0.326875,0.304778,0.902935,-0.289965,-0.079454,-0.0046149999999999,0.0011249999999999,0.079454,0.004615,-0.001125,-0.127552,0.133865,-0.292235,0.144808,0.151015,-0.285835,-0.104663,-0.1399249999999999,-0.145757,0.080392,-0.1271549999999999,-0.124482,1
154,-0.0161174999999999,0.661328,-0.1058149999999999,-0.1543285,0.485432,-0.1317539999999999,-0.2522585,0.690215,-0.247255,0.1364314999999999,0.482559,-0.115951,0.2655615,0.682355,-0.217796,-0.2943685,0.910595,-0.3267649999999999,0.3048715,0.902635,-0.2889049999999999,-0.0793705,-0.0047449999999999,0.001085,0.0793705,0.0047449999999999,-0.001085,-0.1283785,0.136085,-0.290925,0.1454814999999999,0.153265,-0.284425,-0.1049025,-0.137575,-0.144598,0.0800605,-0.1245049999999999,-0.123666,1
155,-0.016417,0.660675,-0.1049169999999999,-0.155016,0.485369,-0.1307859999999999,-0.252566,0.6905800000000001,-0.2472049999999999,0.136344,0.483391,-0.1153039999999999,0.265764,0.6819240000000001,-0.2166239999999999,-0.294206,0.91094,-0.326685,0.304694,0.90218,-0.2879549999999999,-0.079352,-0.0049499999999998,0.001025,0.079352,0.00495,-0.0010249999999999,-0.129256,0.13778,-0.289875,0.1460739999999999,0.155,-0.283375,-0.1051489999999999,-0.13571,-0.1436249999999999,0.0796959999999999,-0.1226399999999999,-0.1230189999999999,1
156,-0.016708,0.660214,-0.104035,-0.155607,0.4860449999999999,-0.129984,-0.252877,0.69086,-0.247155,0.136273,0.4839,-0.114658,0.265853,0.682284,-0.215601,-0.294087,0.91104,-0.326545,0.304523,0.90198,-0.287045,-0.079359,-0.00501,0.000985,0.079359,0.0050099999999999,-0.000985,-0.130067,0.1391099999999999,-0.288875,0.146583,0.1564499999999999,-0.282405,-0.1053109999999999,-0.13435,-0.142888,0.079384,-0.12129,-0.122518,1
157,-0.016916,0.659742,-0.103329,-0.155932,0.48597,-0.129405,-0.253152,0.6904950000000001,-0.247165,0.1363079999999999,0.483995,-0.114328,0.265978,0.6823990000000001,-0.214691,-0.293992,0.910375,-0.326265,0.304408,0.901525,-0.286155,-0.079373,-0.0048949999999999,0.000985,0.079373,0.004895,-0.000985,-0.130692,0.139525,-0.288085,0.147068,0.157015,-0.281675,-0.105403,-0.134065,-0.142314,0.079259,-0.1210149999999999,-0.122137,1
158,-0.017021,0.659742,-0.102828,-0.156152,0.48597,-0.128959,-0.2533519999999999,0.6904950000000001,-0.247175,0.136338,0.483995,-0.114001,0.2659579999999999,0.6823990000000001,-0.214354,-0.294012,0.910125,-0.325955,0.304298,0.901525,-0.285255,-0.079373,-0.0048949999999999,0.000985,0.079373,0.004895,-0.000985,-0.131182,0.139885,-0.287525,0.147508,0.157545,-0.280945,-0.105405,-0.1339249999999999,-0.141731,0.0792269999999999,-0.1209249999999999,-0.12164,1
159,-0.017158,0.659742,-0.10243,-0.156222,0.48597,-0.128685,-0.253472,0.6904950000000001,-0.2470149999999999,0.136328,0.483995,-0.113932,0.265938,0.6823990000000001,-0.214154,-0.294032,0.910125,-0.3256449999999999,0.3039179999999999,0.901525,-0.284395,-0.079373,-0.0048949999999999,0.000985,0.079373,0.004895,-0.000985,-0.131532,0.140325,-0.287545,0.147938,0.158305,-0.280765,-0.1053939999999999,-0.1338149999999999,-0.141082,0.079216,-0.1209249999999999,-0.121465,1
160,-0.0172745,0.659737,-0.102365,-0.1562255,0.486378,-0.128766,-0.2534555,0.69049,-0.246915,0.1363645,0.48399,-0.1140719999999999,0.2659145,0.682704,-0.214146,-0.2940155,0.91012,-0.325555,0.3033645,0.90152,-0.283775,-0.0793665,-0.0048899999999999,0.0010449999999999,0.0793665,0.00489,-0.0010449999999999,-0.1315855,0.14084,-0.287775,0.1482844999999999,0.15908,-0.280965,-0.1053945,-0.13371,-0.140746,0.0792525,-0.1209299999999999,-0.121685,1
161,-0.017276,0.660198,-0.1026219999999999,-0.156118,0.4859239999999999,-0.129051,-0.253408,0.689985,-0.24734,0.136522,0.4837879999999999,-0.114478,0.2659519999999999,0.684175,-0.2143,-0.293858,0.909465,-0.32605,0.3032019999999999,0.901355,-0.28398,-0.079425,-0.004645,0.00112,0.079425,0.004645,-0.0011199999999999,-0.131418,0.1407049999999999,-0.28827,0.148592,0.1592349999999999,-0.28145,-0.105221,-0.134245,-0.140687,0.07943,-0.121585,-0.12218,1
162,-0.0172214999999999,0.661254,-0.1033219999999999,-0.1559164999999999,0.4852109999999999,-0.129741,-0.2532465,0.68832,-0.248035,0.1364435,0.4842769999999999,-0.1149029999999999,0.2662335,0.68565,-0.2148029999999999,-0.2936164999999999,0.90699,-0.326735,0.3032735,0.9002600000000001,-0.284675,-0.0795435,-0.00431,0.001145,0.0795435,0.00431,-0.0011449999999999,-0.1311264999999999,0.13876,-0.289025,0.1490135,0.1574499999999999,-0.282135,-0.1048955,-0.13672,-0.1409409999999999,0.0799275,-0.12433,-0.1228509999999999,1
163,-0.017146,0.6622789999999998,-0.103933,-0.155694,0.4842049999999999,-0.1303419999999999,-0.253074,0.68607,-0.24864,0.136276,0.4845259999999999,-0.115309,0.266796,0.6865599999999998,-0.215748,-0.293714,0.90723,-0.32736,0.303566,0.8983099999999999,-0.28527,-0.07961,-0.00389,0.0008299999999999,0.07961,0.0038899999999999,-0.0008299999999999,-0.130754,0.1349799999999998,-0.29046,0.149376,0.1531499999999999,-0.28319,-0.104526,-0.1410200000000001,-0.141191,0.08058,-0.1292500000000001,-0.123754,1
164,-0.0170714999999999,0.664557,-0.1044889999999999,-0.1554585,0.4848329999999999,-0.1308879999999999,-0.2527485,0.68799,-0.2491799999999999,0.1361415,0.4840529999999999,-0.1157849999999999,0.2670015,0.68755,-0.216074,-0.2942085,0.90922,-0.3283399999999999,0.3038915,0.8992,-0.28581,-0.0796805,-0.00322,0.00037,0.0796805,0.00322,-0.0003699999999999,-0.1301085,0.1305,-0.29217,0.1497415,0.14843,-0.28432,-0.1041505,-0.14604,-0.1414269999999999,0.0812465,-0.1349099999999999,-0.1249349999999999,1
165,-0.0170825,0.66698,-0.105362,-0.1551975,0.485219,-0.13188,-0.2527175,0.68859,-0.25005,0.1358424999999999,0.481722,-0.116502,0.2667425,0.6870700000000001,-0.216538,-0.2949175,0.9104,-0.32967,0.3038325,0.8999600000000001,-0.28666,-0.0795915,-0.0020499999999999,0.0,0.0795915,0.0020499999999999,0.0,-0.1294275,0.12299,-0.29517,0.1500024999999999,0.14085,-0.28646,-0.1038725,-0.15403,-0.141902,0.0817545,-0.1435299999999999,-0.126394,1
166,-0.0170899999999999,0.66774,-0.1064889999999999,-0.154964,0.4834639999999999,-0.133175,-0.253014,0.68768,-0.2513149999999999,0.135506,0.4813559999999999,-0.1173269999999999,0.266836,0.68658,-0.217337,-0.2957039999999999,0.90731,-0.331395,0.303886,0.89967,-0.287645,-0.079461,-0.00173,-0.0006049999999999,0.079461,0.00173,0.000605,-0.128514,0.1105399999999999,-0.2996649999999999,0.150306,0.1281799999999999,-0.289635,-0.103598,-0.16714,-0.142334,0.082211,-0.15726,-0.1279409999999999,1
167,-0.0168759999999999,0.67012,-0.1075449999999999,-0.154595,0.480926,-0.1345009999999999,-0.253035,0.68689,-0.252585,0.135235,0.480879,-0.118028,0.266955,0.6871700000000001,-0.218021,-0.296595,0.90886,-0.3331849999999999,0.303975,0.90005,-0.288715,-0.079275,-0.00136,-0.0012249999999999,0.079275,0.00136,0.001225,-0.1273949999999999,0.09731,-0.3040549999999999,0.150725,0.11478,-0.292935,-0.103186,-0.18118,-0.142615,0.082737,-0.1719399999999999,-0.1294449999999999,1
168,-0.0163835,0.673025,-0.109289,-0.1537675,0.482599,-0.136434,-0.2525175,0.688835,-0.25436,0.1355225,0.479259,-0.1192339999999999,0.2675925,0.686515,-0.2198129999999999,-0.2968175,0.912335,-0.33535,0.3042925,0.903085,-0.29044,-0.0792954999999999,-0.000835,-0.00164,0.0792954999999999,0.000835,0.00164,-0.1261275,0.082565,-0.30666,0.1511025,0.099675,-0.2946499999999999,-0.1025155,-0.196875,-0.143501,0.0835015,-0.1882349999999999,-0.1316669999999999,1
169,-0.0157545,0.675845,-0.11114,-0.1528035,0.4841540000000001,-0.138474,-0.2518035,0.6901250000000001,-0.25648,0.1358765,0.4818570000000001,-0.120829,0.2682865,0.6875950000000001,-0.22141,-0.2974135,0.914515,-0.33827,0.3048964999999999,0.905345,-0.29231,-0.0793224999999999,-0.0006049999999999,-0.0018799999999999,0.0793224999999999,0.000605,0.0018799999999999,-0.1247635,0.065595,-0.30925,0.1515265,0.0822150000000001,-0.29647,-0.1017175,-0.2148149999999999,-0.144343,0.0843875,-0.2066049999999999,-0.133951,1
170,-0.0150739999999999,0.68207,-0.113113,-0.151742,0.485741,-0.140386,-0.251342,0.6923600000000001,-0.25862,0.136528,0.483528,-0.122386,0.268958,0.68844,-0.223047,-0.297832,0.91601,-0.34102,0.3055679999999999,0.90704,-0.29427,-0.079509,-0.0006299999999999,-0.0020799999999999,0.079509,0.00063,0.0020799999999999,-0.123312,0.04695,-0.31154,0.151988,0.06324,-0.2978699999999999,-0.100877,-0.23463,-0.145089,0.085276,-0.2267399999999999,-0.13627,1
171,-0.0137484999999999,0.681835,-0.1146669999999999,-0.1501465,0.484998,-0.1422999999999999,-0.2499064999999999,0.690365,-0.2603499999999999,0.1377835,0.482726,-0.1240379999999999,0.2702735,0.687715,-0.2245349999999999,-0.2973965,0.917215,-0.34319,0.3067235,0.905575,-0.29594,-0.0797095,-0.0005249999999999,-0.0024799999999999,0.0797095,0.0005249999999999,0.00248,-0.1208065,0.023915,-0.3126299999999999,0.1529734999999999,0.0398649999999999,-0.29867,-0.0995165,-0.259655,-0.145555,0.0865645,-0.2517649999999999,-0.1380409999999999,1
172,-0.0121765,0.683135,-0.115645,-0.1485834999999999,0.485883,-0.143675,-0.2487935,0.6934450000000001,-0.261795,0.1389165,0.482405,-0.125178,0.2714864999999999,0.6875150000000001,-0.225602,-0.2966935,0.918795,-0.344615,0.3078865,0.907635,-0.297025,-0.0798375,-0.0004449999999999,-0.002805,0.0798375,0.000445,0.002805,-0.1186535,0.0021349999999999,-0.312685,0.1538865,0.017635,-0.298805,-0.0983005,-0.284165,-0.1453279999999999,0.0877975,-0.2762749999999999,-0.138738,1
173,-0.010584,0.68423,-0.116289,-0.14698,0.485029,-0.144728,-0.24754,0.69223,-0.2625699999999999,0.1400499999999999,0.482197,-0.12593,0.27294,0.68698,-0.226439,-0.2958099999999999,0.91733,-0.34519,0.30905,0.90441,-0.29716,-0.0799439999999999,-0.0006499999999999,-0.0030499999999999,0.0799439999999999,0.00065,0.0030499999999999,-0.11692,-0.02076,-0.31234,0.1546799999999999,-0.00605,-0.29851,-0.097231,-0.31096,-0.145002,0.0889949999999999,-0.30354,-0.138705,1
174,-0.0088269999999999,0.684985,-0.116712,-0.145346,0.484315,-0.1455,-0.246406,0.692285,-0.26317,0.141314,0.484805,-0.126858,0.274084,0.6885749999999999,-0.22711,-0.294806,0.914765,-0.34567,0.310014,0.904305,-0.29686,-0.079917,-0.001425,-0.00336,0.079917,0.001425,0.00336,-0.115336,-0.0424149999999999,-0.31192,0.155274,-0.0285849999999999,-0.29783,-0.096277,-0.337235,-0.144622,0.090107,-0.329985,-0.138597,1
175,-0.0069629999999999,0.688155,-0.1168739999999999,-0.143695,0.486965,-0.146059,-0.245335,0.6941949999999999,-0.26327,0.142735,0.485245,-0.1277329999999999,0.275305,0.690085,-0.227815,-0.293825,0.921325,-0.34557,0.310965,0.903955,-0.29651,-0.079878,-0.001175,-0.0037399999999999,0.079878,0.0011749999999999,0.00374,-0.113865,-0.061095,-0.31074,0.155855,-0.048075,-0.29623,-0.095326,-0.361425,-0.1441819999999999,0.091083,-0.3539650000000001,-0.138532,1
176,-0.0050749999999999,0.689255,-0.116739,-0.1420819999999999,0.489375,-0.146382,-0.243972,0.6956549999999999,-0.26249,0.1441879999999999,0.486445,-0.128293,0.276958,0.690025,-0.228382,-0.292842,0.921445,-0.34481,0.311598,0.901295,-0.29578,-0.079901,-0.000945,-0.00443,0.079901,0.0009449999999999,0.0044299999999999,-0.1123219999999999,-0.080375,-0.30877,0.1563379999999999,-0.068805,-0.29355,-0.094403,-0.387045,-0.143432,0.092693,-0.380115,-0.139812,1
177,-0.0031775,0.690465,-0.116242,-0.1406915,0.487925,-0.146424,-0.2422714999999999,0.6953750000000001,-0.26141,0.1457085,0.489475,-0.128912,0.2782085,0.6905749999999999,-0.228415,-0.2916915,0.918885,-0.34356,0.3123285,0.8997850000000001,-0.29474,-0.0800035,-0.001045,-0.00513,0.0800035,0.001045,0.0051299999999999,-0.1109015,-0.0993149999999999,-0.30517,0.1565785,-0.0887749999999999,-0.28925,-0.0936085,-0.412475,-0.142752,0.0942935,-0.406645,-0.140823,1
178,-0.001187,0.691405,-0.115273,-0.139167,0.4872149999999999,-0.145943,-0.240567,0.693705,-0.25987,0.147233,0.489135,-0.128924,0.279363,0.689365,-0.227996,-0.290157,0.915225,-0.34169,0.313023,0.896355,-0.29336,-0.079771,-0.000835,-0.00523,0.079771,0.0008349999999999,0.0052299999999999,-0.109557,-0.117555,-0.29888,0.156573,-0.107665,-0.28281,-0.092896,-0.437555,-0.141948,0.096081,-0.432735,-0.14137,1
179,0.000945,0.6897899999999999,-0.1138889999999999,-0.137345,0.4863099999999999,-0.1454389999999999,-0.238935,0.6909099999999999,-0.258005,0.149135,0.48958,-0.128628,0.281135,0.68907,-0.227302,-0.287595,0.916,-0.339725,0.3139849999999999,0.89226,-0.291365,-0.079592,-0.00043,-0.0051149999999999,0.079592,0.0004299999999999,0.005115,-0.107945,-0.13449,-0.2918349999999999,0.157025,-0.12604,-0.2753649999999999,-0.091957,-0.46147,-0.1413869999999999,0.09859,-0.45776,-0.141623,1
180,0.002397,0.694395,-0.1117669999999999,-0.135866,0.489855,-0.1441899999999999,-0.237276,0.697655,-0.255105,0.150314,0.492455,-0.127625,0.2822039999999999,0.690395,-0.2256349999999999,-0.285706,0.920395,-0.336055,0.314314,0.895625,-0.288885,-0.0793609999999999,-0.0002649999999999,-0.0050549999999999,0.0793609999999999,0.0002649999999999,0.005055,-0.1072559999999999,-0.146725,-0.286095,0.156844,-0.1396849999999999,-0.269165,-0.091789,-0.4800150000000001,-0.1405209999999999,0.100674,-0.477245,-0.1414949999999999,1
181,0.0035469999999999,0.6986600000000001,-0.1092359999999999,-0.1345879999999999,0.49169,-0.142598,-0.235708,0.69833,-0.2521299999999999,0.151492,0.49511,-0.126278,0.283252,0.69206,-0.2235189999999999,-0.283998,0.92014,-0.33176,0.314582,0.89568,-0.28562,-0.0791439999999999,-1.999999999999225e-05,-0.0049999999999999,0.0791439999999999,2.000000000002e-05,0.005,-0.106538,-0.1596599999999999,-0.27968,0.156552,-0.1540699999999999,-0.2621799999999999,-0.091622,-0.49879,-0.1394379999999999,0.102962,-0.4971199999999999,-0.141149,1
182,0.0040405,0.70289,-0.105906,-0.1332785,0.49202,-0.140564,-0.2341885,0.7000500000000001,-0.248735,0.1526815,0.50024,-0.124562,0.2840715,0.69559,-0.220992,-0.2823185,0.92461,-0.326685,0.3148715,0.90111,-0.282035,-0.0789135,-9.000000000000674e-05,-0.004905,0.0789135,9.000000000000674e-05,0.0049049999999999,-0.1056685,-0.1714699999999999,-0.272805,0.1563014999999999,-0.1666,-0.255105,-0.0915604999999999,-0.51578,-0.139498,0.1059515,-0.51494,-0.14107,1
183,0.0051174999999999,0.707515,-0.10133,-0.1321155,0.496085,-0.137527,-0.2326855,0.702495,-0.244025,0.1538145,0.503125,-0.1214799999999999,0.2847545,0.6971649999999999,-0.217092,-0.2807155,0.931725,-0.320705,0.3151345,0.901375,-0.277075,-0.0784535,0.000335,-0.004845,0.0784535,-0.000335,0.004845,-0.1046855,-0.183125,-0.263805,0.1562144999999999,-0.179415,-0.245815,-0.0915135,-0.532185,-0.138008,0.1089945,-0.532525,-0.139687,1
184,0.0061305,0.711015,-0.096773,-0.1312555,0.498005,-0.134273,-0.2310655,0.705205,-0.238545,0.1556145,0.507435,-0.118097,0.2855744999999999,0.700265,-0.213215,-0.2788254999999999,0.933755,-0.313875,0.3155745,0.903445,-0.271635,-0.0778185,0.0003549999999999,-0.004775,0.0778185,-0.0003549999999999,0.0047749999999999,-0.1033454999999999,-0.194205,-0.254335,0.1558845,-0.191215,-0.235805,-0.0912415,-0.547245,-0.134891,0.1121045,-0.548335,-0.138303,1
185,0.006956,0.715765,-0.0924069999999999,-0.130293,0.502535,-0.131389,-0.229293,0.709395,-0.2333299999999999,0.157467,0.510085,-0.114934,0.286437,0.704175,-0.20936,-0.2767929999999999,0.937355,-0.30748,0.315847,0.911165,-0.26619,-0.0772019999999999,0.0005749999999999,-0.0046199999999999,0.0772019999999999,-0.000575,0.0046199999999999,-0.1018129999999999,-0.204475,-0.24469,0.155567,-0.201725,-0.22652,-0.0907419999999999,-0.560635,-0.1311459999999999,0.114597,-0.5620050000000001,-0.13533,1
186,0.0068969999999999,0.7203355,-0.0883525,-0.130372,0.5056955,-0.1287055,-0.228552,0.7128955,-0.2285585,0.1582879999999999,0.5120755,-0.1116735,0.2862979999999999,0.7085454999999999,-0.2057785,-0.275772,0.9411355,-0.3011085,0.315198,0.9144755,-0.2610985,-0.077057,0.0007454999999999,-0.0044015,0.077057,-0.0007455,0.0044015,-0.101212,-0.2141645,-0.2349585,0.154398,-0.2104845,-0.2177184999999999,-0.091285,-0.5731945,-0.1268505,0.116268,-0.5733545,-0.1308915,1
187,0.0069224999999999,0.7264615000000001,-0.083484,-0.1303375,0.5116515,-0.1252349999999999,-0.2286275,0.7174815,-0.223447,0.1590224999999999,0.5166815,-0.107817,0.2862725,0.7110815,-0.201407,-0.2750375,0.9451915,-0.294157,0.3145225,0.9183615,-0.255367,-0.0768165,0.0009585,-0.004163,0.0768165,-0.0009585,0.004163,-0.1001775,-0.2281685,-0.223267,0.1533324999999999,-0.2227184999999999,-0.207417,-0.0913605,-0.5883885,-0.121739,0.1165924999999999,-0.5866785,-0.125754,1
188,0.006875,0.7310424999999999,-0.0789285,-0.130559,0.5177025,-0.1218005,-0.228749,0.7228424999999999,-0.2186435,0.159491,0.5212825,-0.1041885,0.286061,0.7137525,-0.1972935,-0.274489,0.9456625,-0.2877735,0.313811,0.9231625,-0.2499635,-0.0765319999999999,0.0010155,-0.0040355,0.0765319999999999,-0.0010154999999999,0.0040354999999999,-0.0987089999999999,-0.2417375,-0.2109035,0.1519009999999999,-0.2344274999999999,-0.1972135,-0.091482,-0.6029475000000001,-0.1169355,0.116501,-0.5994575000000001,-0.1207775,1
189,0.006311,0.734168,-0.0694274999999999,-0.131346,0.5201479999999999,-0.1132114999999999,-0.229416,0.722268,-0.2088864999999999,0.159364,0.523408,-0.0953405,0.2853239999999999,0.717048,-0.1885164999999999,-0.274496,0.942018,-0.2765165,0.312534,0.922998,-0.2395465,-0.076433,0.000722,-0.0039094999999999,0.076433,-0.000722,0.0039095,-0.097826,-0.256382,-0.1924564999999999,0.148644,-0.247612,-0.1797045,-0.0921879999999999,-0.6184419999999999,-0.1065754999999999,0.115814,-0.613682,-0.1106365,1
190,0.0055575,0.731934,-0.0569989999999999,-0.1322195,0.523044,-0.101774,-0.2301494999999999,0.725564,-0.197146,0.1592705,0.522264,-0.0841819999999999,0.2845505,0.7141540000000001,-0.176816,-0.2744795,0.940514,-0.262486,0.3107805,0.922074,-0.2263259999999999,-0.0763305,0.0005129999999999,-0.0033259999999999,0.0763305,-0.0005129999999999,0.0033259999999999,-0.0963844999999999,-0.275786,-0.169145,0.1426605,-0.2657859999999999,-0.156504,-0.0929754999999999,-0.638896,-0.091289,0.1148305,-0.632826,-0.094775,1
191,0.0045965,0.7288884999999999,-0.0447549999999999,-0.1331975,0.5274085,-0.090737,-0.2315275,0.7281585,-0.186274,0.1587225,0.5193985,-0.073493,0.2833625,0.7103785,-0.165414,-0.2750875,0.9398285,-0.246934,0.3088825,0.9182585,-0.213524,-0.0760035,0.0006385,-0.0027459999999999,0.0760035,-0.0006384999999999,0.002746,-0.0951935,-0.2940315,-0.146177,0.1364925,-0.2839715,-0.133651,-0.0938394999999999,-0.6580115,-0.0757009999999999,0.1136725,-0.6515415,-0.0791119999999999,1
192,0.003854,0.7269369999999999,-0.0332445,-0.134611,0.528177,-0.0799025,-0.232311,0.730017,-0.1757255,0.158329,0.518737,-0.0634535,0.282239,0.708237,-0.1546055,-0.274341,0.938187,-0.2319955,0.307139,0.916647,-0.2012755,-0.075677,0.000446,-0.0021665,0.075677,-0.0004459999999999,0.0021665,-0.093938,-0.308073,-0.1241555,0.130289,-0.300353,-0.1118335,-0.0944069999999999,-0.673873,-0.0601905,0.112359,-0.667913,-0.0630815,1
193,0.0029909999999999,0.7252744999999999,-0.0217144999999999,-0.136102,0.5299745,-0.0690824999999999,-0.233342,0.7310845,-0.1652225,0.157578,0.5169445,-0.0536544999999999,0.280918,0.7046344999999999,-0.1438424999999999,-0.273872,0.9362345,-0.2172625,0.305218,0.9140445,-0.1894424999999999,-0.075304,0.0004805,-0.0015164999999999,0.075304,-0.0004804999999999,0.0015165,-0.092859,-0.3212655,-0.1022764999999999,0.123708,-0.3155755,-0.0901055,-0.095137,-0.6886855000000001,-0.0444505,0.110638,-0.6831355,-0.0466694999999999,1
194,0.0024259999999999,0.7230435,-0.0102694999999999,-0.137331,0.5305435000000001,-0.0580635,-0.234491,0.7311034999999999,-0.1548525,0.157079,0.5164534999999999,-0.0438625,0.279869,0.7006935000000001,-0.1328925,-0.273951,0.9343335,-0.2032525,0.303589,0.9074735,-0.1777524999999999,-0.074972,0.0003415,-0.0009224999999999,0.074972,-0.0003415,0.0009224999999999,-0.091486,-0.3332565,-0.0801824999999999,0.117359,-0.3300665,-0.0677335,-0.095443,-0.7023765,-0.0269535,0.108469,-0.6975865000000001,-0.0287805,1
195,0.0015345,0.7200825,0.0014194999999999,-0.1388605,0.5321225,-0.0467395,-0.2356105,0.7309225,-0.1437495,0.1562595,0.5158325,-0.0338445,0.2784995,0.6962825,-0.1216695,-0.2738105,0.9329925,-0.1881595,0.3015595,0.9012425,-0.1658295,-0.0747545,0.0004114999999999,-0.0003475,0.0747545,-0.0004115,0.0003474999999999,-0.0903205,-0.3462975,-0.0576225,0.1106095,-0.3438475,-0.0447805,-0.0961615,-0.7166475,-0.0091435,0.1057995,-0.7113875,-0.0105385,1
196,0.000518,0.7157640000000001,0.0120525,-0.140103,0.530634,-0.0364035,-0.236823,0.732054,-0.1335745,0.154967,0.512124,-0.0244545,0.277017,0.693654,-0.1114645,-0.273733,0.935714,-0.1741945,0.299187,0.897624,-0.1549145,-0.074717,0.000239,0.0003105,0.074717,-0.0002389999999999,-0.0003105,-0.089342,-0.356276,-0.0374825,0.103857,-0.355406,-0.0238414999999999,-0.0970689999999999,-0.727816,0.0065025,0.1029569999999999,-0.722796,0.0066665,0
197,-0.0004165,0.7117535,0.0228459999999999,-0.1413385,0.5295435,-0.0259699999999999,-0.2380885,0.7330135,-0.123429,0.1536015,0.5088435,-0.0149849999999999,0.2755215,0.6904835,-0.101169,-0.2737385,0.9384335,-0.159989,0.2966815,0.8951835,-0.1439589999999999,-0.0747055,0.0001094999999999,0.000929,0.0747055,-0.0001094999999999,-0.0009289999999999,-0.0886035,-0.3658165,-0.018171,0.0973515,-0.3664565,-0.00289,-0.0979695,-0.7383365000000001,0.021961,0.1000115,-0.7335665,0.024089,0
198,-0.000695,0.708898,0.02831,-0.141891,0.530448,-0.0208049999999999,-0.2388809999999999,0.735568,-0.1189059999999999,0.152969,0.507488,-0.010849,0.274659,0.6864880000000001,-0.095826,-0.273171,0.943208,-0.151306,0.294859,0.894198,-0.138326,-0.074722,0.000392,0.001405,0.074722,-0.000392,-0.001405,-0.08721,-0.373062,-0.0052339999999999,0.09281,-0.376702,0.010528,-0.098244,-0.746452,0.031185,0.097549,-0.742952,0.034488,0
199,-0.0007545,0.710423,0.0304979999999999,-0.1421265,0.531453,-0.018753,-0.2390465,0.735783,-0.116783,0.1526735,0.509373,-0.009261,0.2740035,0.688103,-0.093803,-0.2725965,0.947223,-0.146053,0.2936835,0.893103,-0.136123,-0.0747035,0.000431,0.0013879999999999,0.0747035,-0.000431,-0.001388,-0.0862645,-0.3745469999999999,0.0022569999999999,0.0911444999999999,-0.378537,0.01757,-0.0985255,-0.7479370000000001,0.035257,0.0967935,-0.744957,0.038969,0
200,-0.0008034999999999,0.711817,0.032738,-0.1423115,0.532437,-0.016581,-0.2391915,0.735927,-0.1145459999999999,0.1524485,0.511067,-0.0074979999999999,0.2733585,0.688917,-0.091636,-0.2718315,0.946927,-0.1431359999999999,0.2925885,0.893067,-0.134036,-0.0747035,0.000464,0.00139,0.0747035,-0.0004639999999999,-0.0013899999999999,-0.0852925,-0.376043,0.009627,0.0895624999999999,-0.380393,0.024785,-0.0987865,-0.749433,0.039334,0.0960584999999999,-0.746753,0.043438,0
201,-0.0004364999999999,0.7119745000000001,0.03497,-0.1420035,0.5335545,-0.0144049999999999,-0.2388835,0.7361045,-0.1123179999999999,0.1527765,0.5118045,-0.0055809999999999,0.2732765,0.6892845,-0.089498,-0.2710235,0.9467045,-0.140228,0.2920265,0.8938145000000001,-0.131828,-0.0745805,0.0004154999999999,0.001471,0.0745805,-0.0004154999999999,-0.001471,-0.0839985,-0.3772655,0.016301,0.0886925,-0.3819654999999999,0.031471,-0.0985615,-0.7506555,0.043327,0.0958765,-0.7480255,0.047493,0
202,-0.0002204999999999,0.7122945,0.0369285,-0.1418164999999999,0.5344345,-0.0126115,-0.2385565,0.7365045,-0.1098805,0.1529635,0.5125245,-0.0039794999999999,0.2731435,0.6897345,-0.0876705,-0.2704965,0.9471745,-0.1376605,0.2913835,0.8944345,-0.1300305,-0.0744575,0.0003544999999999,0.0015055,0.0744575,-0.0003545,-0.0015055,-0.0829415,-0.3751055,0.0218455,0.0881885,-0.3829155,0.0368085,-0.0984875,-0.7497055,0.0467285,0.0955955,-0.7486855,0.0509575,0
203,-0.00012,0.7123729999999999,0.0388849999999999,-0.14174,0.534943,-0.0107879999999999,-0.23837,0.7367729999999999,-0.107487,0.15305,0.512883,-0.002278,0.27298,0.6900630000000001,-0.085817,-0.27037,0.9459229999999998,-0.135297,0.29094,0.8956329999999999,-0.128197,-0.074348,0.000245,0.0015849999999999,0.074348,-0.0002449999999999,-0.001585,-0.0820549999999999,-0.372867,0.0264989999999999,0.087988,-0.383367,0.0410829999999999,-0.098556,-0.748567,0.0499379999999999,0.095226,-0.7491369999999999,0.054166,0
204,-0.0001475,0.7125515,0.040597,-0.1417575,0.5351115000000001,-0.009207,-0.2383375,0.7369115,-0.105472,0.1530225,0.5132915,-0.0007799999999999,0.2727625,0.6902615000000001,-0.084262,-0.2703575,0.9466115,-0.132972,0.2904225,0.8954215,-0.126682,-0.0742745,0.0001275,0.0016719999999999,0.0742745,-0.0001275,-0.0016719999999999,-0.0813825,-0.3718485,0.0299399999999999,0.0878444999999999,-0.3835785,0.044528,-0.0986975,-0.7475784999999999,0.05269,0.0948465,-0.7493485,0.056836,0
205,-0.0002315,0.712811,0.042212,-0.1418375,0.535191,-0.007696,-0.2383775,0.736981,-0.103633,0.1529724999999999,0.513651,0.000673,0.2725325,0.690351,-0.082873,-0.2704275,0.947251,-0.130893,0.2901424999999999,0.895361,-0.125343,-0.0742535,6.699999999999762e-05,0.001663,0.0742535,-6.699999999999762e-05,-0.0016629999999999,-0.0808575,-0.370799,0.032528,0.0876795,-0.383639,0.047385,-0.0988345,-0.746579,0.054981,0.0944725,-0.749339,0.059237,0
206,-0.0003199999999999,0.7129880000000001,0.0435939999999999,-0.141926,0.535188,-0.006348,-0.238486,0.7370880000000001,-0.1020129999999999,0.152954,0.513938,0.0018729999999999,0.272374,0.6903480000000001,-0.081713,-0.270486,0.947248,-0.129393,0.290084,0.8948480000000001,-0.124313,-0.074252,6.40000000000085e-05,0.0016389999999999,0.074252,-6.399999999999462e-05,-0.001639,-0.0804489999999999,-0.3697519999999999,0.0343669999999999,0.087545,-0.383252,0.0494659999999999,-0.098963,-0.745672,0.056877,0.09417,-0.749172,0.061188,0
207,-0.0003989999999999,0.713088,0.0448615,-0.142002,0.535188,-0.0052014999999999,-0.238582,0.7370880000000001,-0.1005365,0.152938,0.514088,0.0029465,0.272298,0.6903480000000001,-0.0806765,-0.270582,0.947248,-0.1280464999999999,0.290018,0.893548,-0.1234464999999999,-0.07424,6.40000000000085e-05,0.0016805,0.07424,-6.399999999999462e-05,-0.0016805,-0.0800729999999999,-0.368912,0.0356635,0.087503,-0.382992,0.0510775,-0.0990839999999999,-0.744802,0.0585095,0.093908,-0.749072,0.0629214999999999,0
208,-0.0005079999999999,0.713202,0.046001,-0.142111,0.5352020000000001,-0.0041619999999999,-0.238701,0.7370920000000001,-0.099267,0.152909,0.514092,0.003815,0.272209,0.6903520000000001,-0.079817,-0.270711,0.947252,-0.126887,0.289939,0.8931220000000001,-0.1228269999999999,-0.07421,6.0000000000004494e-05,0.001756,0.07421,-5.9999999999990616e-05,-0.001756,-0.079728,-0.3683079999999999,0.036834,0.087472,-0.382758,0.052392,-0.099232,-0.744138,0.05993,0.093626,-0.748968,0.064461,0
209,-0.0006409999999999,0.713306,0.0470115,-0.142229,0.5352560000000001,-0.0032445,-0.2388489999999999,0.7371460000000001,-0.0981825,0.1529209999999999,0.514146,0.0045434999999999,0.272101,0.6903360000000001,-0.0791525,-0.270829,0.946706,-0.1260125,0.289921,0.893506,-0.1223825,-0.074168,6.0000000000060005e-06,0.0018434999999999,0.074168,-5.999999999992123e-06,-0.0018435,-0.079432,-0.3679139999999999,0.0378764999999999,0.087509,-0.3826039999999999,0.0535974999999999,-0.09938,-0.743684,0.0611575,0.093342,-0.748784,0.0658145,0
