sb224sc-HT22-VT27/4dt907/src/data/labeled_files/B1_kinect.csv
FrameNo,nose_3d_x,nose_3d_y,nose_3d_z,left_shoulder_3d_x,left_shoulder_3d_y,left_shoulder_3d_z,left_elbow_3d_x,left_elbow_3d_y,left_elbow_3d_z,right_shoulder_3d_x,right_shoulder_3d_y,right_shoulder_3d_z,right_elbow_3d_x,right_elbow_3d_y,right_elbow_3d_z,left_wrist_3d_x,left_wrist_3d_y,left_wrist_3d_z,right_wrist_3d_x,right_wrist_3d_y,right_wrist_3d_z,left_hip_3d_x,left_hip_3d_y,left_hip_3d_z,right_hip_3d_x,right_hip_3d_y,right_hip_3d_z,left_knee_3d_x,left_knee_3d_y,left_knee_3d_z,right_knee_3d_x,right_knee_3d_y,right_knee_3d_z,left_ankle_3d_x,left_ankle_3d_y,left_ankle_3d_z,right_ankle_3d_x,right_ankle_3d_y,right_ankle_3d_z,activity_label
0,0.016998,0.748659,-0.0089429999999999,-0.1732739999999999,0.500529,0.013322,-0.231314,0.266239,0.038767,0.202366,0.477429,0.025714,0.209756,0.293109,-0.0877,-0.241364,0.0839439999999999,-0.0523489999999999,0.147836,0.377589,-0.27242,-0.071948,0.001194,0.000441,0.071948,-0.001194,-0.0004409999999999,-0.114324,-0.3313109999999999,0.022307,0.1108359999999999,-0.355651,0.048034,-0.1269239999999999,-0.666771,0.068429,0.121206,-0.6654110000000001,0.093073,0
1,0.016811,0.7486940000000001,-0.0092724999999999,-0.173318,0.5004740000000001,0.0133035,-0.231268,0.266134,0.0386795,0.202512,0.477274,0.0255985,0.209662,0.293064,-0.0875085,-0.241318,0.08389,-0.0524665,0.145232,0.3785139999999999,-0.2700285,-0.071938,0.001194,0.0004455,0.071938,-0.001194,-0.0004455,-0.114268,-0.331796,0.0223555,0.110922,-0.355716,0.0479615,-0.1266479999999999,-0.666186,0.0683855,0.120752,-0.666576,0.0927455,0
2,0.016677,0.7487675,-0.0095659999999999,-0.173456,0.5004075,0.013277,-0.231316,0.2660375,0.038599,0.202594,0.4771375,0.025645,0.209544,0.2928175,-0.086622,-0.241236,0.0838535,-0.052151,0.1409039999999999,0.3801075,-0.272272,-0.071938,0.0011875,0.0004639999999999,0.071938,-0.0011875,-0.0004639999999999,-0.114326,-0.3317125,0.022289,0.110944,-0.3558225,0.048095,-0.126546,-0.6660524999999999,0.068594,0.120954,-0.6670024999999999,0.0927149999999999,0
3,0.0165355,0.7487619999999999,-0.009813,-0.1735765,0.5003219999999999,0.013311,-0.2313065,0.265922,0.038601,0.2026235,0.476982,0.025597,0.2094635,0.292882,-0.086996,-0.2412065,0.083714,-0.0521419999999999,0.1405135,0.382402,-0.271296,-0.0719285,0.001179,0.000508,0.0719285,-0.001179,-0.000508,-0.1142865,-0.331548,0.0222769999999999,0.1109235,-0.3559879999999999,0.048193,-0.1264265,-0.665818,0.0683,0.1209335,-0.666478,0.09262,0
4,0.0163839999999999,0.748811,-0.0100335,-0.173673,0.500221,0.0132265,-0.231293,0.265781,0.0384775,0.202577,0.4769009999999999,0.0255795,0.209417,0.292741,-0.0860115,-0.241103,0.083562,-0.0521475,0.137167,0.378131,-0.2697515,-0.071926,0.001171,0.0005225,0.071926,-0.001171,-0.0005225,-0.114253,-0.331099,0.0222595,0.110857,-0.356079,0.0482785,-0.126343,-0.665829,0.0683045,0.120887,-0.666649,0.0924514999999999,0
5,0.0161164999999999,0.7487545,-0.0103995,-0.1737875,0.5001344999999999,0.0132004999999999,-0.2311275,0.2655845,0.0382784999999999,0.2015625,0.4778945,0.0259114999999999,0.2090525,0.2930245,-0.0874115,-0.2410675,0.0834314999999999,-0.0519575,0.1354825,0.3794645,-0.2708015,-0.0719245,0.0011305,0.0005654999999999,0.0719245,-0.0011305,-0.0005655,-0.1143575,-0.3310455,0.0221274999999999,0.1108125,-0.3559555,0.0481645,-0.1263375,-0.6658755000000001,0.0683435,0.1209824999999999,-0.6666855,0.0926395,0
6,0.0158735,0.7487109999999999,-0.0106744999999999,-0.1738985,0.499991,0.0133235,-0.2311085,0.265421,0.0384245,0.2009615,0.478521,0.0259695,0.2089015,0.292931,-0.0884785,-0.2409985,0.083341,-0.0518045,0.1373315,0.375621,-0.2693885,-0.0719195,0.001105,0.0005995,0.0719195,-0.001105,-0.0005994999999999,-0.1142585,-0.330789,0.0219915,0.1107414999999999,-0.355869,0.0480895,-0.1263285,-0.665749,0.0683805,0.1211214999999999,-0.6666890000000001,0.0930855,0
7,0.0158355,0.748667,-0.0106954999999999,-0.1739695,0.4998769999999999,0.0134925,-0.2309594999999999,0.265267,0.0386745,0.2016705,0.477877,0.0260205,0.2090005,0.292917,-0.0881555,-0.2408595,0.08312,-0.0515635,0.1381805,0.377547,-0.2708255,-0.0719045,0.0010819999999999,0.0006854999999999,0.0719045,-0.001082,-0.0006854999999999,-0.1142395,-0.330813,0.0221265,0.1108405,-0.355733,0.0481255,-0.1263695,-0.6659830000000001,0.0687835,0.1210904999999999,-0.666663,0.0931975,0
8,0.0156754999999999,0.748638,-0.010861,-0.1740635,0.4997879999999999,0.013565,-0.2308735,0.2651179999999999,0.03873,0.2016865,0.477858,0.026109,0.2089765,0.292918,-0.0883159999999999,-0.2408635,0.083057,-0.051474,0.1375765,0.3777979999999999,-0.270806,-0.0719015,0.001067,0.000724,0.0719015,-0.001067,-0.000724,-0.1142335,-0.330712,0.022129,0.1108464999999999,-0.355712,0.048167,-0.1263635,-0.6660119999999999,0.068863,0.1210864999999999,-0.6667019999999999,0.093229,0
9,0.015531,0.74861,-0.010997,-0.1741299999999999,0.4997,0.013651,-0.23088,0.26507,0.038833,0.20169,0.47781,0.0262449999999999,0.20897,0.29292,-0.0883029999999999,-0.24087,0.083019,-0.051371,0.13706,0.3782,-0.271113,-0.0718989999999999,0.001055,0.000765,0.0718989999999999,-0.001055,-0.000765,-0.11423,-0.33072,0.022156,0.11085,-0.35568,0.048211,-0.1263699999999999,-0.66605,0.068947,0.12109,-0.66664,0.093317,0
10,0.015413,0.7486054999999999,-0.0110539999999999,-0.174176,0.4996355,0.013742,-0.230886,0.2650455,0.038941,0.201684,0.4777755,0.026388,0.208964,0.2929455,-0.088195,-0.240876,0.0829945,-0.0512669999999999,0.137044,0.3809955,-0.272435,-0.071894,0.0010494999999999,0.0008109999999999,0.071894,-0.0010495,-0.0008109999999999,-0.114226,-0.3307445,0.022209,0.110834,-0.3556344999999999,0.048259,-0.126376,-0.6660745,0.069009,0.121094,-0.6665245000000001,0.093407,0
11,0.015318,0.748591,-0.010894,-0.174185,0.4995809999999999,0.0138789999999999,-0.230895,0.265021,0.039102,0.201675,0.4777409999999999,0.026593,0.208955,0.292971,-0.088034,-0.240935,0.08297,-0.051109,0.137015,0.383631,-0.273624,-0.071887,0.001044,0.0008489999999999,0.071887,-0.001044,-0.000849,-0.114245,-0.330769,0.022327,0.110825,-0.355589,0.0483489999999999,-0.126405,-0.6661090000000001,0.0691529999999999,0.121095,-0.666429,0.093565,0
12,0.0152209999999999,0.7485865,-0.0107054999999999,-0.174206,0.4995564999999999,0.0140675,-0.231036,0.2649965,0.0393575,0.201464,0.4779465,0.0267825,0.209034,0.2929965,-0.0878465,-0.241776,0.0835665,-0.0516554999999999,0.137764,0.3870765,-0.2739565,-0.071876,0.0010385,0.0008685,0.071876,-0.0010385,-0.0008684999999999,-0.114266,-0.3307434999999999,0.0224785,0.110814,-0.3555335,0.0484625,-0.126536,-0.6662335,0.0693055,0.121074,-0.6664035,0.0937975,0
13,0.0151235,0.748618,-0.010502,-0.1742325,0.4995379999999999,0.0142879999999999,-0.2318124999999999,0.2656579999999999,0.040121,0.2013075,0.478108,0.026969,0.2100475,0.2930179999999999,-0.086544,-0.2439925,0.086588,-0.053196,0.1388975,0.389978,-0.273614,-0.0718695,0.001045,0.0008439999999999,0.0718695,-0.001045,-0.000844,-0.1142925,-0.330722,0.02264,0.1107875,-0.355522,0.0486059999999999,-0.1266725,-0.6663720000000001,0.069478,0.1210475,-0.666382,0.0940449999999999,0
14,0.0150129999999999,0.748744,-0.010285,-0.1742659999999999,0.4995039999999999,0.014521,-0.233076,0.267634,0.041525,0.2011939999999999,0.478184,0.027162,0.211304,0.293074,-0.085058,-0.247436,0.092883,-0.055547,0.140064,0.3936739999999999,-0.2733279999999999,-0.071864,0.001064,0.000791,0.071864,-0.001064,-0.000791,-0.114336,-0.330736,0.022809,0.110754,-0.355516,0.048751,-0.126826,-0.666526,0.069671,0.120994,-0.666426,0.094303,0
15,0.0147315,0.74876,-0.009799,-0.1743555,0.4992,0.014782,-0.2349255,0.27111,0.0422779999999999,0.1957345,0.47939,0.026097,0.2127445,0.29372,-0.08338,-0.2520155,0.10294,-0.058636,0.1429645,0.39684,-0.27264,-0.0719175,0.000932,0.000681,0.0719175,-0.0009319999999999,-0.000681,-0.1145154999999999,-0.33108,0.022973,0.1105945,-0.35576,0.0489089999999999,-0.1271055,-0.66698,0.0698459999999999,0.1208245,-0.66675,0.094534,0
16,0.0143735,0.7488625,-0.0088995,-0.1744015,0.4988625,0.0151494999999999,-0.2371215,0.2748525,0.0425585,0.1907685,0.4801125,0.0250054999999999,0.2163884999999999,0.2943925,-0.0821045,-0.2583915,0.1177525,-0.0643945,0.1491984999999999,0.4002925,-0.2745145,-0.0720005,0.0007834999999999,0.0005044999999999,0.0720005,-0.0007835,-0.0005045,-0.1147115,-0.3315375,0.0232054999999999,0.1103985,-0.3559275,0.0490715,-0.1274215,-0.6675375,0.0700585,0.1206385,-0.6671475,0.0948094999999999,0
17,0.013895,0.7491875,-0.007468,-0.174366,0.4985175,0.0156169999999999,-0.2403659999999999,0.2793275,0.042863,0.186444,0.4800775,0.0240699999999999,0.221594,0.2958174999999999,-0.080895,-0.266326,0.1376675,-0.075035,0.1581739999999999,0.4010275,-0.270275,-0.072104,0.0006345,0.0002699999999999,0.072104,-0.0006344999999999,-0.0002699999999999,-0.114906,-0.3320425,0.023485,0.110234,-0.3557725,0.04935,-0.127716,-0.6681425,0.070243,0.120474,-0.6675924999999999,0.095124,0
18,0.0131484999999999,0.749822,-0.005553,-0.1744915,0.498172,0.016131,-0.2450715,0.284692,0.043163,0.1827885,0.479782,0.023285,0.2291985,0.299092,-0.0791959999999999,-0.2771815,0.165342,-0.0870959999999999,0.1700285,0.408012,-0.267206,-0.0722025,0.000495,1.5000000000001124e-05,0.0722025,-0.0004949999999999,-1.5000000000001124e-05,-0.1150915,-0.3326179999999999,0.023745,0.1100785,-0.355668,0.049609,-0.1279915,-0.6687679999999999,0.070477,0.1203285,-0.668138,0.0954349999999999,0
19,0.012059,0.750749,-0.003132,-0.174666,0.4978189999999999,0.0166509999999999,-0.255826,0.290519,0.039323,0.179634,0.479669,0.0224789999999999,0.2393239999999999,0.305549,-0.077376,-0.291946,0.199799,-0.097946,0.1841539999999999,0.417599,-0.263156,-0.072296,0.00038,-0.000243,0.072296,-0.00038,0.000243,-0.1152759999999999,-0.333231,0.024012,0.109934,-0.355591,0.049869,-0.128276,-0.6693610000000001,0.070714,0.120194,-0.668651,0.095762,0
20,0.0106589999999999,0.7520085000000001,-0.0001185,-0.174862,0.4974485,0.0168294999999999,-0.267302,0.3031385,0.0348044999999999,0.177058,0.4799885,0.0217604999999999,0.252698,0.3153585,-0.0751965,-0.3092519999999999,0.2435585,-0.1076565,0.205978,0.4312185,-0.2565165,-0.07236,0.0002925,-0.0004395,0.07236,-0.0002925,0.0004394999999999,-0.115482,-0.3339114999999999,0.0242764999999999,0.109768,-0.3554314999999999,0.0500964999999999,-0.128572,-0.6699415,0.0709154999999999,0.120038,-0.6691914999999999,0.0960485,0
21,0.0090509999999999,0.7535085,0.0031785,-0.175039,0.4970785,0.0168865,-0.281489,0.3202284999999999,0.0282865,0.1750209999999999,0.4810284999999999,0.0210325,0.268481,0.3262084999999999,-0.0716745,-0.327559,0.2940485,-0.1155944999999999,0.230711,0.4478585,-0.2453045,-0.0724279999999999,0.0002225,-0.0006104999999999,0.0724279999999999,-0.0002224999999999,0.0006104999999999,-0.115659,-0.3346415,0.0244975,0.109621,-0.3551015,0.0502655,-0.128789,-0.6705115,0.0709955,0.1199109999999999,-0.6697615,0.0962275,0
22,0.007246,0.7551840000000001,0.0067349999999999,-0.175839,0.4966339999999999,0.0168259999999999,-0.300219,0.3378839999999999,0.0202809999999999,0.173251,0.482934,0.0204919999999999,0.285601,0.3395439999999999,-0.06769,-0.346039,0.349614,-0.1215699999999999,0.258081,0.469334,-0.22974,-0.0725079999999999,0.0001419999999999,-0.000784,0.0725079999999999,-0.000142,0.000784,-0.115839,-0.335596,0.0246939999999999,0.109461,-0.354866,0.050342,-0.129029,-0.671156,0.070951,0.119761,-0.6705059999999999,0.0963219999999999,0
23,0.005328,0.7568069999999999,0.010525,-0.177292,0.496207,0.016697,-0.3172419999999999,0.360127,0.012048,0.171468,0.485087,0.019984,0.303948,0.356497,-0.062837,-0.364262,0.407447,-0.125767,0.286628,0.495407,-0.210517,-0.072587,6.400000000000069e-05,-0.001021,0.072587,-6.399999999999982e-05,0.001021,-0.116002,-0.336873,0.024888,0.109348,-0.354723,0.050389,-0.1292519999999999,-0.6719930000000001,0.070826,0.119638,-0.6714230000000001,0.096322,0
24,0.0034599999999999,0.7583095,0.014282,-0.178658,0.4961095,0.016429,-0.332918,0.3847195,0.004351,0.171342,0.4871395,0.019705,0.323332,0.3758795,-0.0571229999999999,-0.382218,0.4677995,-0.1284759999999999,0.314162,0.5240595,-0.188776,-0.0725389999999999,0.0001495,-0.0013089999999999,0.0725389999999999,-0.0001494999999999,0.0013089999999999,-0.116118,-0.3384505,0.024989,0.1093119999999999,-0.3547605,0.050301,-0.129428,-0.6729705,0.070577,0.119592,-0.6723805,0.096177,0
25,0.001597,0.7593865,0.0181125,-0.179954,0.4965865,0.0164584999999999,-0.347144,0.4131365,-0.0030815,0.171176,0.4886865,0.0193635,0.339946,0.3985265,-0.0505115,-0.398544,0.5275265,-0.1286275,0.338786,0.5582865,-0.1647775,-0.072423,0.0002904999999999,-0.0016535,0.072423,-0.0002905,0.0016535,-0.1162639999999999,-0.3404335,0.0250475,0.109266,-0.3553735,0.0501864999999999,-0.129654,-0.6745234999999999,0.0702935,0.119506,-0.6737935,0.0959785,0
26,-0.000224,0.7598775,0.0218254999999999,-0.181171,0.4975575,0.0164945,-0.359031,0.4447575,-0.0107915,0.170949,0.4901974999999999,0.0189804999999999,0.354519,0.4239874999999999,-0.0424895,-0.413451,0.5855675,-0.1288405,0.360849,0.5934674999999999,-0.1420305,-0.072293,0.0004255,-0.0020405,0.072293,-0.0004254999999999,0.0020405,-0.116421,-0.3430225,0.0250864999999999,0.109209,-0.3567125,0.0500414999999999,-0.129951,-0.6765325,0.0699195,0.119389,-0.6756825000000001,0.0956805,0
27,-0.0018804999999999,0.759726,0.025741,-0.1820495,0.499076,0.016386,-0.3678795,0.477276,-0.0171649999999999,0.1745405,0.487786,0.019822,0.3655605,0.448966,-0.033011,-0.4255295,0.637416,-0.1292019999999999,0.3793605,0.6284759999999999,-0.118072,-0.0721635,0.000546,-0.0025369999999999,0.0721635,-0.0005459999999999,0.002537,-0.1166295,-0.346174,0.025087,0.1091205,-0.358274,0.049794,-0.1303295,-0.6790740000000001,0.06942,0.1192705,-0.678004,0.095277,0
28,-0.003296,0.758968,0.0296505,-0.182566,0.5008779999999999,0.0160835,-0.369346,0.511228,-0.0185154999999999,0.177664,0.486368,0.0211965,0.372114,0.472308,-0.0227355,-0.433236,0.683628,-0.1285695,0.396904,0.6606879999999999,-0.0938595,-0.07202,0.0006339999999999,-0.0029505,0.07202,-0.000634,0.0029505,-0.116756,-0.349932,0.0250895,0.109044,-0.360232,0.0494525,-0.130706,-0.681972,0.0687345,0.1191639999999999,-0.680722,0.0947544999999999,0
29,-0.004553,0.757605,0.033415,-0.1828779999999999,0.5030950000000001,0.016022,-0.369708,0.540115,-0.0193649999999999,0.179962,0.485805,0.022893,0.3741919999999999,0.494325,-0.0111869999999999,-0.437248,0.721655,-0.1209789999999999,0.4069419999999999,0.6855450000000001,-0.071669,-0.071849,0.0006959999999999,-0.0032979999999999,0.071849,-0.0006959999999999,0.003298,-0.116878,-0.354195,0.02496,0.1088819999999999,-0.362855,0.048848,-0.131178,-0.685215,0.067887,0.119002,-0.683735,0.094051,0
30,-0.0057774999999999,0.7557685000000001,0.037335,-0.1832705,0.5054185000000001,0.016217,-0.3701405,0.5663785,-0.0204069999999999,0.1812695,0.4873485,0.025422,0.3738895,0.5181085000000001,-0.0010089999999999,-0.4387905,0.7541685,-0.113761,0.4155994999999999,0.7117385,-0.0524729999999999,-0.0716665,0.0007524999999999,-0.0036059999999999,0.0716665,-0.0007524999999999,0.003606,-0.1170505,-0.3588815,0.024647,0.1085995,-0.3658815,0.048092,-0.1317305,-0.6888215,0.066854,0.1187594999999999,-0.6870814999999999,0.093182,0
31,-0.006986,0.7533124999999999,0.0412955,-0.1837669999999999,0.5078125,0.0167195,-0.370657,0.5929125,-0.0215674999999999,0.181803,0.4899025,0.0287105,0.373483,0.5404224999999999,0.0080375,-0.439197,0.7798625,-0.1056304999999999,0.421273,0.7357024999999999,-0.0370775,-0.071467,0.0007864999999999,-0.0038694999999999,0.071467,-0.0007865,0.0038695,-0.117347,-0.3640175,0.0241265,0.108153,-0.3693475,0.0471005,-0.1323369999999999,-0.6926775000000001,0.0655825,0.118433,-0.6909375,0.0921135,0
32,-0.0081055,0.750569,0.0451945,-0.1842535,0.510329,0.0174794999999999,-0.3711235,0.614369,-0.0231025,0.1816765,0.4931689999999999,0.0320395,0.3730565,0.560269,0.0160174999999999,-0.4396235,0.8010390000000001,-0.0978445,0.4249365,0.755239,-0.0241805,-0.0712845,0.0007939999999999,-0.0041375,0.0712845,-0.0007939999999999,0.0041374999999999,-0.1177035,-0.369211,0.0233524999999999,0.1076565,-0.373011,0.0458825,-0.1329935,-0.696651,0.0641225,0.1180664999999999,-0.694911,0.0908065,0
33,-0.0092109999999999,0.747869,0.048868,-0.184224,0.512759,0.018292,-0.368234,0.632419,-0.022405,0.181186,0.496159,0.035521,0.371976,0.578359,0.022639,-0.440074,0.816279,-0.090824,0.427306,0.773099,-0.014022,-0.071146,0.000798,-0.0043289999999999,0.071146,-0.000798,0.004329,-0.118154,-0.374131,0.022329,0.107146,-0.376861,0.044603,-0.133724,-0.700541,0.062335,0.117686,-0.698761,0.089203,0
34,-0.010244,0.745414,0.052224,-0.183309,0.514674,0.019335,-0.359719,0.6467040000000001,-0.02022,0.1807309999999999,0.498824,0.038747,0.368661,0.593904,0.028005,-0.439499,0.8277140000000001,-0.0846119999999999,0.428601,0.785464,-0.007348,-0.071064,0.0007419999999999,-0.0045059999999999,0.071064,-0.0007419999999999,0.004506,-0.118599,-0.378716,0.021089,0.106691,-0.380366,0.043258,-0.134509,-0.704336,0.060218,0.117331,-0.702346,0.087338,0
35,-0.0111705,0.743189,0.0550955,-0.1815685,0.516159,0.0206825,-0.3521884999999999,0.657119,-0.0180285,0.1803515,0.501269,0.0417504999999999,0.3639015,0.605889,0.0315185,-0.4375684999999999,0.835809,-0.0795694999999999,0.4294915,0.796199,-0.0028105,-0.0709965,0.00071,-0.0046045,0.0709965,-0.0007099999999999,0.0046045,-0.1190285,-0.382891,0.0197075,0.1062515,-0.383521,0.0419575,-0.1353385,-0.707841,0.0578575,0.1169815,-0.705841,0.0851735,0
36,-0.0119255,0.741252,0.0571625,-0.1797445,0.517142,0.0220435,-0.3453645,0.665762,-0.0167495,0.1799555,0.503422,0.0442585,0.3579655,0.616422,0.0331195,-0.4343945,0.842262,-0.0755655,0.4296455,0.803802,-0.0007054999999999,-0.0709414999999999,0.0006919999999999,-0.0045905,0.0709414999999999,-0.0006919999999999,0.0045905,-0.1193745,-0.386698,0.0182635,0.1059155,-0.386328,0.0406885,-0.1361745,-0.710888,0.0555535,0.1166955,-0.709118,0.0827895,0
37,-0.0125589999999999,0.7396375000000001,0.058675,-0.177954,0.5179075,0.023018,-0.3396639999999999,0.6725775,-0.0162989999999999,0.179286,0.5051175,0.045892,0.352536,0.6253375,0.033248,-0.431154,0.8475975,-0.072761,0.429366,0.8114475,0.000195,-0.070906,0.0006735,-0.004638,0.070906,-0.0006735,0.004638,-0.119674,-0.3899725,0.016654,0.105606,-0.3888825,0.039469,-0.137054,-0.7134725,0.053479,0.116416,-0.7120925,0.080276,0
38,-0.0130815,0.7382605,0.0594504999999999,-0.1763025,0.5182605,0.0234255,-0.3352124999999999,0.6777505,-0.0164865,0.1785375,0.5065305,0.0468445,0.3475475,0.6322305,0.0324104999999999,-0.4275724999999999,0.8517205,-0.0709105,0.4291375,0.8193205,-8.750000000000077e-05,-0.0708895,0.0006575,-0.0046765,0.0708895,-0.0006574999999999,0.0046764999999999,-0.1199224999999999,-0.3929195,0.0149974999999999,0.1052875,-0.3912595,0.0383084999999999,-0.1378325,-0.7157695,0.0514644999999999,0.1161875,-0.7147595,0.0776895,0
39,-0.0133649999999999,0.737118,0.059652,-0.175068,0.518578,0.023434,-0.332308,0.681098,-0.017324,0.1778819999999999,0.506968,0.046668,0.343712,0.636388,0.030749,-0.423618,0.853988,-0.070172,0.429022,0.822788,-0.0020319999999999,-0.070877,0.0006369999999999,-0.004697,0.070877,-0.0006369999999999,0.004697,-0.120038,-0.395252,0.013269,0.105072,-0.393362,0.037382,-0.138478,-0.717732,0.049636,0.1160819999999999,-0.717122,0.075302,0
40,-0.0134709999999999,0.7363740000000001,0.05956,-0.174312,0.518904,0.022994,-0.330802,0.6829740000000001,-0.018499,0.1773279999999999,0.5067740000000001,0.0457189999999999,0.341818,0.639664,0.028728,-0.419872,0.8557140000000001,-0.069936,0.428678,0.823314,-0.0041349999999999,-0.070877,0.0006229999999999,-0.004731,0.070877,-0.0006229999999999,0.004731,-0.120152,-0.396656,0.011689,0.104908,-0.395086,0.036854,-0.139062,-0.719356,0.048114,0.116058,-0.7189359999999999,0.073283,0
41,-0.0135384999999999,0.735902,0.0595374999999999,-0.1740465,0.519022,0.0224725,-0.3298764999999999,0.684322,-0.0192355,0.1768635,0.506342,0.0448485,0.3409535,0.641922,0.0274655,-0.4170465,0.8564419999999999,-0.0700935,0.4274535,0.823692,-0.0053945,-0.0708775,0.0006029999999999,-0.0047465,0.0708775,-0.0006029999999999,0.0047464999999999,-0.1203465,-0.397528,0.0106845,0.1047734999999999,-0.396388,0.0367935,-0.1395765,-0.7206880000000001,0.0474195,0.1160435,-0.7203480000000001,0.0720105,0
42,-0.0136765,0.7355965000000001,0.059601,-0.1740535,0.5190765,0.0220129999999999,-0.3294435,0.6852165,-0.019845,0.1765564999999999,0.5059865,0.044247,0.3403764999999999,0.6430065,0.026868,-0.4150035,0.8567565,-0.070379,0.4240665,0.8234565,-0.0059599999999999,-0.0708775,0.0005725,-0.0047919999999999,0.0708775,-0.0005724999999999,0.004792,-0.1205835,-0.3981135,0.01018,0.1046864999999999,-0.3973335,0.037101,-0.1399735,-0.7217235,0.047335,0.1160165,-0.7214634999999999,0.071406,0
43,-0.0139285,0.735392,0.059625,-0.1740354999999999,0.519042,0.0220129999999999,-0.3294255,0.685692,-0.019845,0.1763245,0.505632,0.04425,0.3396145,0.643502,0.0268759999999999,-0.4136755,0.856672,-0.070394,0.4200845,0.823142,-0.0060819999999999,-0.0708685,0.0005649999999999,-0.0047919999999999,0.0708685,-0.000565,0.004792,-0.1207655,-0.398468,0.010182,0.1046245,-0.397818,0.037601,-0.1401855,-0.722478,0.047794,0.1159745,-0.722138,0.071407,0
44,-0.014141,0.7353705,0.059628,-0.1738489999999999,0.5189305,0.022011,-0.329239,0.6860305,-0.019847,0.176251,0.5054605,0.044251,0.338781,0.6441605,0.026402,-0.412579,0.8565005,-0.070406,0.416271,0.8229705,-0.006578,-0.070862,0.0005475,-0.004792,0.070862,-0.0005474999999999,0.004792,-0.120799,-0.3982495,0.010183,0.104661,-0.3979895,0.0376009999999999,-0.140069,-0.7228694999999999,0.048006,0.116071,-0.7223395,0.071395,0
45,-0.0143605,0.735402,0.0596305,-0.1735845,0.5188619999999999,0.0220075,-0.3289345,0.686292,-0.0199185,0.1762055,0.5054919999999999,0.0439775,0.3378655,0.644902,0.0257635,-0.4116745,0.856432,-0.0704165,0.4129755,0.822902,-0.0075344999999999,-0.0708755,0.000519,-0.0047915,0.0708755,-0.0005189999999999,0.0047915,-0.1207445,-0.397518,0.0101825,0.1047755,-0.398058,0.0375995,-0.1397645,-0.723038,0.0480025,0.1162655,-0.722408,0.0713425,0
46,-0.0145124999999999,0.7354035,0.0597889999999999,-0.1734655,0.5187934999999999,0.021607,-0.3285955,0.6863834999999999,-0.020474,0.1762945,0.5056634999999999,0.043209,0.3369845,0.6456835,0.025074,-0.4108155,0.8563634999999999,-0.070744,0.4101145,0.8227935,-0.0087239999999999,-0.0708845,0.0004975,-0.0047449999999999,0.0708845,-0.0004974999999999,0.004745,-0.1205755,-0.3966464999999999,0.010241,0.1049745,-0.3981265,0.037755,-0.1393455,-0.7231465,0.048155,0.1165745,-0.7224765000000001,0.071327,0
47,-0.014743,0.7353835,0.0601645,-0.173456,0.5187234999999999,0.0212435,-0.328466,0.6863535000000001,-0.0207755,0.1763839999999999,0.5055734999999999,0.0426305,0.336104,0.6464935,0.0246185,-0.4100959999999999,0.8562434999999999,-0.0708115,0.407374,0.8226335,-0.0094915,-0.070894,0.0004775,-0.0047285,0.070894,-0.0004774999999999,0.0047285,-0.1203259999999999,-0.3957465,0.0106415,0.105164,-0.3980065,0.0384815,-0.138896,-0.7231865,0.0488875,0.1169139999999999,-0.7225465,0.0718715,0
48,-0.0150294999999999,0.7353799999999999,0.0607435,-0.1735195,0.51855,0.0209625,-0.3285195,0.6862999999999999,-0.0208245,0.1763704999999999,0.5054799999999999,0.0422005,0.3353005,0.6473,0.0243245,-0.4095695,0.8560899999999999,-0.0705745,0.4048605,0.8224499999999999,-0.0098234999999999,-0.0709025,0.0004629999999999,-0.0047015,0.0709025,-0.000463,0.0047014999999999,-0.1200195,-0.39461,0.0112275,0.1053105,-0.3977199999999999,0.0393725,-0.1383595,-0.7232000000000001,0.0499934999999999,0.1171705,-0.72246,0.0728475,0
49,-0.015323,0.7353689999999999,0.0613955,-0.173636,0.518289,0.0207805,-0.328596,0.6862389999999999,-0.0206824999999999,0.176454,0.505139,0.0420665,0.334704,0.647979,0.0239315,-0.409026,0.8558589999999999,-0.0701025,0.402744,0.822189,-0.0101475,-0.070914,0.0004369999999999,-0.0045905,0.070914,-0.0004369999999999,0.0045905,-0.119676,-0.393451,0.0119725,0.1054539999999999,-0.397401,0.0403345,-0.137736,-0.723261,0.0510505,0.1174439999999999,-0.722241,0.0740705,0
50,-0.0155629999999999,0.735371,0.0622459999999999,-0.173753,0.5180309999999999,0.0207189999999999,-0.3287029999999999,0.6862109999999999,-0.020186,0.176617,0.504861,0.041989,0.334277,0.6485609999999999,0.023513,-0.408393,0.855631,-0.0694299999999999,0.401257,0.821801,-0.010648,-0.070926,0.0004,-0.004473,0.070926,-0.0003999999999999,0.0044729999999999,-0.1193029999999999,-0.392309,0.0127499999999999,0.105567,-0.397009,0.041294,-0.137063,-0.723379,0.052119,0.117727,-0.7219690000000001,0.075501,0
51,-0.015745,0.7353965,0.063062,-0.173844,0.5177565000000001,0.020769,-0.328804,0.6861165,-0.019715,0.176706,0.5048165,0.041976,0.333966,0.6488665,0.02264,-0.407844,0.8553065,-0.068817,0.4001659999999999,0.8213165,-0.01174,-0.070943,0.0003724999999999,-0.004309,0.070943,-0.0003725,0.004309,-0.119004,-0.3914335,0.013659,0.105606,-0.3967934999999999,0.041985,-0.1364439999999999,-0.7235135,0.0531969999999999,0.117926,-0.7217135,0.076816,0
52,-0.015831,0.735456,0.0635995,-0.173834,0.517556,0.0209255,-0.328824,0.686056,-0.0192655,0.176896,0.504646,0.0417315,0.3338359999999999,0.6490560000000001,0.0212634999999999,-0.407464,0.8550260000000001,-0.0684154999999999,0.399476,0.820706,-0.0134415,-0.070959,0.0003389999999999,-0.0040555,0.070959,-0.0003389999999999,0.0040554999999999,-0.118784,-0.390874,0.0143834999999999,0.105566,-0.396584,0.0423515,-0.1358639999999999,-0.723584,0.0540225,0.1181059999999999,-0.721584,0.0778784999999999,0
53,-0.015913,0.7355339999999999,0.063671,-0.173846,0.5175139999999999,0.020881,-0.328856,0.685774,-0.019196,0.176914,0.5043139999999999,0.04121,0.333794,0.649034,0.019357,-0.407366,0.8547539999999999,-0.068419,0.399104,0.820094,-0.0157509999999999,-0.070975,0.0003169999999999,-0.0038009999999999,0.070975,-0.000317,0.0038009999999999,-0.118766,-0.390796,0.014592,0.1054239999999999,-0.396536,0.042427,-0.135506,-0.723576,0.054296,0.1181339999999999,-0.721466,0.078407,0
54,-0.0159139999999999,0.735638,0.063508,-0.1738519999999999,0.517488,0.020709,-0.328852,0.685618,-0.019367,0.176898,0.504018,0.040346,0.333768,0.649008,0.016973,-0.407262,0.854648,-0.0686509999999999,0.399058,0.819558,-0.018618,-0.070972,0.0002909999999999,-0.0035609999999999,0.070972,-0.0002909999999999,0.003561,-0.1187419999999999,-0.390742,0.014466,0.1053679999999999,-0.396522,0.042172,-0.135242,-0.723542,0.054182,0.1181379999999999,-0.721352,0.078539,0
55,-0.0159179999999999,0.735763,0.0632105,-0.1738519999999999,0.5174529999999999,0.0206385,-0.328852,0.685573,-0.0195995,0.176908,0.503763,0.0394485,0.333748,0.648973,0.0145435,-0.407082,0.854613,-0.0689785,0.399018,0.819063,-0.0215915,-0.070972,0.00028,-0.0035544999999999,0.070972,-0.0002799999999999,0.0035544999999999,-0.118702,-0.3905969999999999,0.0141975,0.105358,-0.3965269999999999,0.0417515,-0.135042,-0.723457,0.0537825,0.118128,-0.721237,0.0784155,0
56,-0.0159189999999999,0.7358725,0.0631035,-0.1738519999999999,0.5173525,0.0206385,-0.328862,0.6854725,-0.0197105,0.176958,0.5039925000000001,0.0389744999999999,0.333718,0.6488725000000001,0.0125705,-0.406792,0.8545125,-0.0691935,0.398988,0.8185925000000001,-0.0240165,-0.070972,0.0002575,-0.0035544999999999,0.070972,-0.0002575,0.0035544999999999,-0.118572,-0.3905375,0.0141235,0.105358,-0.3966275,0.0415395,-0.134882,-0.7234975,0.0535005,0.118128,-0.7212275,0.0783215,0
57,-0.015898,0.7359585000000001,0.0631035,-0.173836,0.5173685,0.0206385,-0.328886,0.6853585,-0.0197105,0.177114,0.5041685,0.0388475,0.333824,0.6487785,0.0111695,-0.406446,0.8544085,-0.0693115,0.3988739999999999,0.8181385,-0.0259785,-0.070997,0.0002445,-0.0035544999999999,0.070997,-0.0002445,0.0035545,-0.118406,-0.3906215,0.0141225,0.105264,-0.3967015,0.0414275,-0.134856,-0.7235115,0.0533025,0.118064,-0.7212115,0.0782755,0
58,-0.0158434999999999,0.7360205,0.062952,-0.1738114999999999,0.5175405000000001,0.020487,-0.3288015,0.6852405,-0.019863,0.1771285,0.5044705,0.038663,0.3340085,0.6486405000000001,0.0101389999999999,-0.4061015,0.8543405000000001,-0.069537,0.3989284999999999,0.8178605,-0.027451,-0.0710244999999999,0.0002545,-0.003403,0.0710244999999999,-0.0002544999999999,0.0034029999999999,-0.1182715,-0.3908295,0.0139689999999999,0.1050585,-0.3968295,0.0412639999999999,-0.1349515,-0.7235195,0.0529839999999999,0.1178984999999999,-0.7212594999999999,0.0780859999999999,0
59,-0.015703,0.7360165,0.0625115,-0.173786,0.5176965,0.0202465,-0.328746,0.6851465,-0.0203015,0.177034,0.5045065,0.0381765,0.334224,0.6484665,0.0092345,-0.4057659999999999,0.8542865,-0.0699795,0.399184,0.8176665,-0.0286044999999999,-0.07107,0.0002544999999999,-0.0033074999999999,0.07107,-0.0002544999999999,0.0033075,-0.118176,-0.3912735,0.0135295,0.1048139999999999,-0.3970435,0.0408285,-0.135146,-0.7236035,0.0524355,0.117624,-0.7213635,0.0776044999999999,0
60,-0.015564,0.735997,0.0618135,-0.173668,0.517877,0.0198865,-0.3285679999999999,0.685107,-0.0209545,0.176972,0.504387,0.0374065,0.334412,0.648287,0.0084945,-0.405488,0.854267,-0.0707204999999999,0.399542,0.817487,-0.0294424999999999,-0.0711229999999999,0.00025,-0.0032344999999999,0.0711229999999999,-0.00025,0.0032345,-0.118198,-0.391933,0.0127625,0.104552,-0.397253,0.0400935,-0.135398,-0.723843,0.0515455,0.117312,-0.721533,0.0768085,0
61,-0.015391,0.7359625,0.0611105,-0.173516,0.5180625,0.0195095,-0.328356,0.6851324999999999,-0.0216484999999999,0.176874,0.5039224999999999,0.0365005,0.334504,0.6481024999999999,0.0075854999999999,-0.405296,0.8542725,-0.0716305,0.399914,0.8173024999999999,-0.0303535,-0.07118,0.0002455,-0.0032095,0.07118,-0.0002454999999999,0.0032094999999999,-0.118286,-0.3925575,0.0118544999999999,0.1043139999999999,-0.3974074999999999,0.0391045,-0.135656,-0.7242075,0.0505385,0.117004,-0.7216775000000001,0.0758745,0
62,-0.0152419999999999,0.7359215,0.0603845,-0.173338,0.5182215,0.0191294999999999,-0.328098,0.6851714999999999,-0.0223445,0.176782,0.5035215,0.0355905,0.334582,0.6479515,0.0065624999999999,-0.405168,0.8543115,-0.0726485,0.400182,0.8171215,-0.0313795,-0.071251,0.0002375,-0.0032005,0.071251,-0.0002374999999999,0.0032004999999999,-0.118428,-0.3930285,0.0106864999999999,0.104062,-0.3975385,0.0378494999999999,-0.135968,-0.7245285,0.0494085,0.116652,-0.7217985,0.0748155,0
63,-0.0150654999999999,0.735866,0.059729,-0.1731435,0.518446,0.018743,-0.3278135,0.685306,-0.023023,0.1766865,0.503276,0.034695,0.3346365,0.647826,0.0055269999999999,-0.4050335,0.854556,-0.073542,0.4002965,0.817126,-0.032478,-0.0713465,0.000212,-0.003216,0.0713465,-0.0002119999999999,0.003216,-0.1185034999999999,-0.393514,0.009354,0.1038864999999999,-0.397644,0.036656,-0.1362635,-0.724794,0.0482019999999999,0.1163365,-0.722004,0.073705,0
64,-0.0148464999999999,0.735866,0.0590239999999999,-0.1729575,0.518446,0.0183669999999999,-0.3274275,0.685596,-0.023699,0.1764425,0.503396,0.033759,0.3346125,0.647756,0.0046909999999999,-0.4047975,0.854726,-0.0744669999999999,0.4001525,0.817226,-0.033489,-0.0714645,0.000212,-0.0032739999999999,0.0714645,-0.0002119999999999,0.0032739999999999,-0.1186875,-0.394314,0.007902,0.1038625,-0.397634,0.035322,-0.1365675,-0.724954,0.0467729999999999,0.1160725,-0.7220840000000001,0.072404,0
65,-0.01456,0.735866,0.0580469999999999,-0.17293,0.518446,0.017778,-0.32708,0.685596,-0.024625,0.17604,0.503266,0.032555,0.3343899999999999,0.6475259999999999,0.0037369999999999,-0.40442,0.854726,-0.07568,0.39975,0.817226,-0.034753,-0.071635,0.000212,-0.0033179999999999,0.071635,-0.0002119999999999,0.0033179999999999,-0.11909,-0.394314,0.0062139999999999,0.10424,-0.397324,0.033276,-0.1368599999999999,-0.725234,0.04489,0.1159,-0.722124,0.070683,0
66,-0.0143755,0.7358765,0.0566635,-0.1731725,0.5184565,0.0168605,-0.3267525,0.6856065,-0.0260154999999999,0.1757175,0.5028865,0.0311364999999999,0.3340675,0.6474465,0.0024995,-0.4038724999999999,0.8547365,-0.0772335,0.3994275,0.8172365,-0.0363335,-0.0718755,0.0002095,-0.0033144999999999,0.0718755,-0.0002095,0.0033144999999999,-0.1194225,-0.3940835,0.0038865,0.1049374999999999,-0.3966435,0.0299655,-0.1371325,-0.7256435,0.0424245,0.1159274999999999,-0.7222135,0.0683185,0
67,-0.01438,0.7355555,0.0546925,-0.173422,0.5185055,0.0155164999999999,-0.326702,0.6856955,-0.0280495,0.175458,0.5027455,0.0292554999999999,0.333808,0.6474355,0.0004965,-0.403062,0.8548255,-0.0792645,0.3991679999999999,0.8173255,-0.0385715,-0.072113,0.0001705,-0.0033215,0.072113,-0.0001704999999999,0.0033215,-0.119702,-0.3938745,-0.0002345,0.106248,-0.3953245,0.0244795,-0.137402,-0.7259945,0.0390295,0.116128,-0.7224745,0.0648045,0
68,-0.0144725,0.7346865,0.051955,-0.1735465,0.5184565,0.0137599999999999,-0.3265565,0.6863765,-0.030853,0.1752735,0.5029264999999999,0.026673,0.3336735,0.6474465,-0.002453,-0.4019665,0.8553565,-0.081989,0.3988534999999999,0.8178565,-0.0417019999999999,-0.0722164999999999,0.0001565,-0.003366,0.0722164999999999,-0.0001564999999999,0.0033659999999999,-0.1200565,-0.3937235,-0.007669,0.1081235,-0.3939135,0.017025,-0.1375565,-0.7257935,0.034635,0.1165334999999999,-0.7222435,0.060328,0
69,-0.0145909999999999,0.7331985,0.048182,-0.173647,0.5181585000000001,0.011399,-0.326277,0.6872585,-0.034919,0.1749029999999999,0.5031285,0.022996,0.333433,0.6473385,-0.006623,-0.4006969999999999,0.8565685000000001,-0.085933,0.397903,0.8189585,-0.046104,-0.072292,0.0001234999999999,-0.003381,0.072292,-0.0001234999999999,0.003381,-0.1205369999999999,-0.3923215,-0.017677,0.110633,-0.3917215,0.007212,-0.137707,-0.7243514999999999,0.028731,0.116943,-0.7209114999999999,0.054428,1
70,-0.014613,0.730814,0.043692,-0.1737439999999999,0.518334,0.008181,-0.325944,0.687864,-0.039925,0.174496,0.504194,0.01868,0.332756,0.646134,-0.0115299999999999,-0.399294,0.858374,-0.090776,0.395396,0.817034,-0.051544,-0.0723709999999999,7.000000000000062e-05,-0.003449,0.0723709999999999,-7.000000000000062e-05,0.003449,-0.121064,-0.389836,-0.0300399999999999,0.114116,-0.388146,-0.004888,-0.1379739999999999,-0.722086,0.021712,0.117586,-0.718586,0.047249,1
71,-0.0143965,0.7284849999999999,0.038625,-0.1737785,0.519075,0.004147,-0.3254284999999999,0.689055,-0.046035,0.1735515,0.503315,0.0142739999999999,0.3320015,0.6462549999999999,-0.017469,-0.3975484999999999,0.861255,-0.096675,0.3926215,0.816525,-0.058093,-0.0726465,6.899999999999962e-05,-0.0035119999999999,0.0726465,-6.899999999999962e-05,0.003512,-0.1216685,-0.385005,-0.045251,0.1183215,-0.381505,-0.019618,-0.1381685,-0.7171150000000001,0.013094,0.1185914999999999,-0.714055,0.038443,1
72,-0.0142925,0.7258144999999999,0.033447,-0.1743164999999999,0.5181245,-0.000145,-0.3242965,0.6887645,-0.052353,0.1724635,0.5027845,0.009498,0.3308735,0.6466845,-0.024356,-0.3955365,0.8632945,-0.103296,0.3895335,0.8181744999999999,-0.065623,-0.0730275,-2.4500000000000216e-05,-0.003566,0.0730275,2.4500000000000216e-05,0.0035659999999999,-0.1224365,-0.3779154999999999,-0.062591,0.1233035,-0.3727155,-0.03679,-0.1384564999999999,-0.7092255000000001,0.0031729999999999,0.1197735,-0.7071455,0.028316,1
73,-0.0141929999999999,0.7231810000000001,0.028394,-0.174931,0.516841,-0.0047299999999999,-0.322991,0.6900510000000001,-0.059009,0.1711389999999999,0.502371,0.004806,0.329829,0.6472910000000001,-0.031899,-0.393571,0.867831,-0.110204,0.385829,0.8205610000000001,-0.073544,-0.073445,-0.000153,-0.0036029999999999,0.073445,0.000153,0.003603,-0.123551,-0.368759,-0.081622,0.128689,-0.362429,-0.055455,-0.138951,-0.698179,-0.0072049999999999,0.121099,-0.6972689999999999,0.017659,1
74,-0.013791,0.719688,0.0237824999999999,-0.174298,0.5150279999999999,-0.0093164999999999,-0.321008,0.6913279999999999,-0.0655735,0.169822,0.501648,0.0002764999999999,0.3287319999999999,0.647458,-0.0397635,-0.391108,0.874598,-0.1173665,0.382472,0.824958,-0.0815125,-0.073828,-0.0002069999999999,-0.0036674999999999,0.073828,0.000207,0.0036674999999999,-0.124808,-0.3560919999999999,-0.1016904999999999,0.1342819999999999,-0.3476519999999999,-0.0747255,-0.139388,-0.683832,-0.0176295,0.122612,-0.6841820000000001,0.0069494999999999,1
75,-0.01328,0.7161375,0.0193669999999999,-0.173656,0.5134274999999999,-0.014571,-0.318776,0.6929575,-0.072416,0.1683639999999999,0.4992375,-0.00474,0.327664,0.6477775,-0.047637,-0.387386,0.8784275,-0.125118,0.379444,0.8311875,-0.089546,-0.074099,-0.0001475,-0.00364,0.074099,0.0001474999999999,0.0036399999999999,-0.126106,-0.3405825,-0.122465,0.140334,-0.3295925,-0.094589,-0.139826,-0.6658525,-0.02834,0.124134,-0.6677025,-0.003983,1
76,-0.012352,0.7135594999999999,0.0103204999999999,-0.172681,0.5134194999999999,-0.0247485,-0.316221,0.6957495,-0.0845315,0.1671089999999999,0.4990895,-0.0147875,0.326839,0.6486894999999999,-0.0599505,-0.383021,0.8832994999999999,-0.1374915,0.376869,0.8387895000000001,-0.1025264999999999,-0.074437,-0.0002365,-0.0037405,0.074437,0.0002364999999999,0.0037405,-0.127171,-0.3212005,-0.1475285,0.1462389999999999,-0.3082905,-0.1185455,-0.139991,-0.6439204999999999,-0.0438175,0.1258989999999999,-0.6471804999999999,-0.0194215,1
77,-0.0110514999999999,0.7116535,0.000954,-0.1713855,0.5126435,-0.0358549999999999,-0.3122255,0.6974935,-0.0970029999999999,0.1659645,0.4981434999999999,-0.0259149999999999,0.3264944999999999,0.6503835,-0.072391,-0.3776255,0.8849635,-0.149978,0.3750745,0.8468435,-0.1158749999999999,-0.0746645,-0.0002455,-0.0036309999999999,0.0746645,0.0002454999999999,0.003631,-0.1281855,-0.2988065,-0.173178,0.1534845,-0.2851565,-0.1457359999999999,-0.1397554999999999,-0.6191765,-0.0593929999999999,0.1288945,-0.6239565,-0.0387019999999999,1
78,-0.0098295,0.71095,-0.008465,-0.1696645,0.5111,-0.047599,-0.3076745,0.6983400000000001,-0.108959,0.1649155,0.4968599999999999,-0.037042,0.3264455,0.6522100000000001,-0.084562,-0.3722245,0.88873,-0.161944,0.3738455,0.85409,-0.129433,-0.0748065,-0.0002599999999999,-0.003683,0.0748065,0.0002599999999999,0.0036829999999999,-0.1294945,-0.27432,-0.198146,0.1603555,-0.25999,-0.1723879999999999,-0.1394745,-0.59163,-0.074431,0.1304655,-0.59803,-0.054444,1
79,-0.0086585,0.710325,-0.0179654999999999,-0.1679655,0.508875,-0.0590365,-0.3032855,0.699015,-0.1204265,0.1638744999999999,0.494645,-0.0482065,0.3264745,0.655065,-0.0967235,-0.3672455,0.893105,-0.1744735,0.3735345,0.864295,-0.1428335,-0.0748895,-0.0003649999999999,-0.0036235,0.0748895,0.000365,0.0036235,-0.1310454999999999,-0.248815,-0.2214265,0.1664045,-0.2337349999999999,-0.1968665,-0.1389455,-0.561875,-0.0888365,0.1318245,-0.570125,-0.0692665,1
80,-0.0076795,0.7090050000000001,-0.027787,-0.1661905,0.5055350000000001,-0.070036,-0.2997605,0.6986650000000001,-0.131709,0.1634695,0.493235,-0.059181,0.3265795,0.656015,-0.108977,-0.3629705,0.8967050000000001,-0.187517,0.3734795,0.8723350000000001,-0.156552,-0.0747565,-0.0004649999999999,-0.003613,0.0747565,0.000465,0.003613,-0.1328804999999999,-0.2226249999999999,-0.242727,0.1717595,-0.2077149999999999,-0.219437,-0.1384905,-0.531965,-0.102459,0.1329395,-0.541615,-0.0831409999999999,1
81,-0.006764,0.7074499999999999,-0.0386239999999999,-0.164289,0.50358,-0.0810319999999999,-0.296219,0.69939,-0.1438289999999999,0.1630209999999999,0.49277,-0.0701499999999999,0.326691,0.65713,-0.12218,-0.359249,0.89731,-0.201757,0.373521,0.8788499999999999,-0.171098,-0.074602,-0.0005199999999999,-0.0034999999999999,0.074602,0.00052,0.0035,-0.134969,-0.1958599999999999,-0.2627,0.176221,-0.18063,-0.24044,-0.138079,-0.5019800000000001,-0.1155689999999999,0.133801,-0.5125899999999999,-0.096508,1
82,-0.0057439999999999,0.705355,-0.0498859999999999,-0.162434,0.501645,-0.0925349999999999,-0.292944,0.6980550000000001,-0.1567009999999999,0.162586,0.490495,-0.0814229999999999,0.326506,0.657395,-0.136175,-0.355774,0.896505,-0.2169689999999999,0.373386,0.883835,-0.186241,-0.074391,-0.0004649999999999,-0.0034449999999999,0.074391,0.000465,0.003445,-0.137004,-0.168395,-0.2812949999999999,0.180076,-0.1534649999999999,-0.2603649999999999,-0.137534,-0.471885,-0.128541,0.134486,-0.483175,-0.1097639999999999,1
83,-0.0044484999999999,0.7027000000000001,-0.061018,-0.1601425,0.50032,-0.104441,-0.2902525,0.6952,-0.169923,0.1622975,0.4892,-0.093358,0.3260875,0.6578900000000001,-0.150635,-0.3525125,0.8887700000000001,-0.23252,0.3733375,0.8867700000000001,-0.202111,-0.0742015,-0.0004499999999999,-0.00342,0.0742015,0.00045,0.00342,-0.1390525,-0.1420999999999999,-0.29838,0.1837575,-0.1268699999999999,-0.27891,-0.1368625,-0.4428299999999999,-0.141242,0.1352175,-0.4545,-0.12263,1
84,-0.0032794999999999,0.70075,-0.071485,-0.1578165,0.49802,-0.116175,-0.2881765,0.69265,-0.183374,0.1621335,0.48906,-0.104969,0.3258735,0.65838,-0.164494,-0.3510565,0.8871899999999999,-0.24769,0.3731035,0.8879999999999999,-0.217471,-0.0741135,-0.00067,-0.0035499999999999,0.0741135,0.00067,0.0035499999999999,-0.1415565,-0.11484,-0.31338,0.1865435,-0.1002899999999999,-0.29513,-0.1362865,-0.41331,-0.152772,0.1357935,-0.42501,-0.134171,1
85,-0.0025699999999999,0.69767,-0.077029,-0.155966,0.49411,-0.12268,-0.286756,0.6886,-0.191496,0.161854,0.48679,-0.111383,0.325214,0.65834,-0.172512,-0.350456,0.8845799999999999,-0.25773,0.372494,0.8881700000000001,-0.226985,-0.074021,-0.0007199999999999,-0.00349,0.074021,0.0007199999999999,0.0034899999999999,-0.1444659999999999,-0.0880699999999999,-0.32155,0.1886439999999999,-0.0756799999999999,-0.30453,-0.1359659999999999,-0.3850999999999999,-0.158364,0.135924,-0.3963199999999999,-0.139513,1
86,-0.0024194999999999,0.694275,-0.081919,-0.1556675,0.491205,-0.12802,-0.2867675,0.685395,-0.198754,0.1616925,0.485955,-0.11666,0.3245525,0.658415,-0.179094,-0.3504775,0.884355,-0.26644,0.3716025,0.888265,-0.235169,-0.0740975,-0.0009549999999999,-0.00354,0.0740975,0.000955,0.0035399999999999,-0.1472574999999999,-0.0619049999999999,-0.32562,0.1888825,-0.0506849999999999,-0.30864,-0.1358575,-0.3570649999999999,-0.162502,0.1357025,-0.3677749999999999,-0.14361,1
87,-0.0024539999999999,0.690085,-0.086331,-0.1557029999999999,0.4894949999999999,-0.131961,-0.286843,0.683005,-0.205126,0.161427,0.4858949999999999,-0.120725,0.323567,0.658525,-0.184698,-0.350563,0.880305,-0.27405,0.3706669999999999,0.888595,-0.241996,-0.0740929999999999,-0.001145,-0.00342,0.0740929999999999,0.0011449999999999,0.0034199999999999,-0.149983,-0.036075,-0.32898,0.188847,-0.026015,-0.31203,-0.1357229999999999,-0.330735,-0.165894,0.135337,-0.340715,-0.146996,1
88,-0.0023005,0.686885,-0.0898609999999999,-0.1555405,0.488307,-0.1349679999999999,-0.2867005,0.681285,-0.2101929999999999,0.1612895,0.485592,-0.1235459999999999,0.3229995,0.658515,-0.1892239999999999,-0.3504405,0.874635,-0.2800749999999999,0.3697195,0.8886750000000001,-0.247803,-0.0740355,-0.0010949999999999,-0.0032349999999999,0.0740355,0.001095,0.003235,-0.1526205,-0.0099749999999999,-0.331775,0.1890095,-0.0014149999999999,-0.314855,-0.1353405,-0.3050649999999999,-0.1687209999999999,0.1353695,-0.313995,-0.1498199999999999,1
89,-0.0023235,0.68357,-0.0919049999999999,-0.1555595,0.487328,-0.1366029999999999,-0.2869495,0.67948,-0.213331,0.1608505,0.486626,-0.1251759999999999,0.3225505,0.65927,-0.1920919999999999,-0.3512195,0.86912,-0.28402,0.3683105,0.88963,-0.25192,-0.0740335,-0.0011399999999999,-0.0030399999999999,0.0740335,0.00114,0.00304,-0.1553095,0.01191,-0.33309,0.1889905,0.0191999999999999,-0.31614,-0.1351595,-0.28064,-0.1703579999999999,0.1344305,-0.28861,-0.1475849999999999,1
90,-0.0023855,0.681695,-0.0919799999999999,-0.1558715,0.487822,-0.136675,-0.2881415,0.679235,-0.213782,0.1602085,0.486366,-0.125245,0.3218485,0.659705,-0.19217,-0.3523515,0.8656550000000001,-0.285085,0.3666385,0.890035,-0.2532419999999999,-0.0740224999999999,-0.0011249999999999,-0.0029649999999999,0.0740224999999999,0.001125,0.0029649999999999,-0.1579815,0.033395,-0.330455,0.1889084999999999,0.040235,-0.3138149999999999,-0.1349615,-0.2565349999999999,-0.169943,0.1343784999999999,-0.263325,-0.146626,1
91,-0.002726,0.6803100000000001,-0.091972,-0.156185,0.488799,-0.1366679999999999,-0.289435,0.6795100000000001,-0.2137639999999999,0.159405,0.488167,-0.125184,0.321085,0.66107,-0.192158,-0.3534049999999999,0.8621700000000001,-0.28518,0.365215,0.89144,-0.254055,-0.073987,-0.0012499999999999,-0.00297,0.073987,0.00125,0.00297,-0.160555,0.0533,-0.32742,0.188765,0.0603,-0.31116,-0.134575,-0.2340899999999999,-0.168449,0.134285,-0.2398799999999999,-0.145817,1
92,-0.003203,0.6802,-0.091968,-0.15644,0.489478,-0.1363079999999999,-0.29078,0.68109,-0.21375,0.15868,0.490576,-0.1245159999999999,0.32021,0.66303,-0.192149,-0.3545,0.8640300000000001,-0.28517,0.36383,0.89347,-0.2540409999999999,-0.07398,-0.0015999999999999,-0.00297,0.07398,0.0016,0.00297,-0.16279,0.07283,-0.3242899999999999,0.18873,0.08034,-0.30835,-0.13414,-0.2126599999999999,-0.1666429999999999,0.13417,-0.2176799999999999,-0.1448269999999999,1
93,-0.003779,0.68018,-0.0915449999999999,-0.156961,0.491585,-0.1349399999999999,-0.292231,0.68265,-0.2134209999999999,0.1579489999999999,0.492475,-0.1226179999999999,0.319369,0.6643600000000001,-0.1918269999999999,-0.355661,0.8636900000000001,-0.284845,0.362359,0.8949,-0.253712,-0.074041,-0.0013699999999999,-0.0026549999999999,0.074041,0.0013699999999999,0.002655,-0.164841,0.09038,-0.320665,0.1885889999999999,0.09922,-0.305195,-0.133681,-0.1934899999999999,-0.1639889999999999,0.134939,-0.1985,-0.143528,1
94,-0.00453,0.6799999999999999,-0.089692,-0.157538,0.493376,-0.132296,-0.293648,0.68376,-0.211862,0.1570619999999999,0.493797,-0.119345,0.318652,0.6651400000000001,-0.190119,-0.356958,0.86282,-0.28355,0.3612619999999999,0.8956500000000001,-0.252378,-0.074221,-0.00087,-0.00217,0.074221,0.00087,0.0021699999999999,-0.166918,0.1055499999999999,-0.31614,0.1883919999999999,0.11592,-0.30099,-0.133358,-0.17689,-0.160293,0.135822,-0.18225,-0.141241,1
95,-0.0053579999999999,0.679575,-0.087418,-0.158391,0.49456,-0.129112,-0.2943809999999999,0.684285,-0.209673,0.156189,0.4939260000000001,-0.115728,0.317779,0.6648850000000001,-0.187557,-0.3583909999999999,0.8621750000000001,-0.281755,0.360369,0.8952450000000001,-0.250698,-0.074386,-1.4999999999987246e-05,-0.0017449999999999,0.074386,1.5000000000098268e-05,0.0017449999999999,-0.168871,0.117835,-0.311475,0.188069,0.129385,-0.296465,-0.133071,-0.1635349999999999,-0.156097,0.136929,-0.1691949999999999,-0.138899,1
96,-0.0058105,0.6795399999999999,-0.0855329999999999,-0.1587575,0.4958589999999999,-0.1265929999999999,-0.2954975,0.6848399999999999,-0.2080339999999999,0.1554825,0.4931269999999999,-0.1125529999999999,0.3171325,0.6646,-0.1856449999999999,-0.3596775,0.8619899999999999,-0.2802749999999999,0.3595725,0.8946799999999999,-0.2494979999999999,-0.0745005,0.0006999999999999,-0.0014549999999999,0.0745005,-0.0007,0.001455,-0.1705675,0.1274999999999999,-0.307395,0.1878625,0.1398299999999999,-0.2923249999999999,-0.1326575,-0.1530500000000001,-0.1518599999999999,0.1378225,-0.1587400000000001,-0.1369069999999999,1
97,-0.005964,0.67981,-0.0852189999999999,-0.158902,0.4955219999999999,-0.1255629999999999,-0.295652,0.68441,-0.207609,0.155238,0.4928669999999999,-0.1112659999999999,0.316518,0.664519,-0.185325,-0.360892,0.86138,-0.28015,0.358878,0.89446,-0.249956,-0.074655,0.0010399999999999,-0.00125,0.074655,-0.00104,0.00125,-0.171882,0.1331899999999999,-0.30503,0.187738,0.1459299999999999,-0.29001,-0.132462,-0.14706,-0.14939,0.138478,-0.15253,-0.136357,1
98,-0.0062989999999999,0.681305,-0.085094,-0.159227,0.495288,-0.124971,-0.295977,0.684585,-0.207462,0.154913,0.491441,-0.110389,0.315603,0.664128,-0.184998,-0.362087,0.8624750000000001,-0.280205,0.358003,0.893865,-0.250508,-0.074855,0.001365,-0.0013849999999999,0.074855,-0.0013649999999999,0.0013849999999999,-0.173287,0.135845,-0.3034449999999999,0.187423,0.148745,-0.288145,-0.132617,-0.1446849999999999,-0.147314,0.138483,-0.149675,-0.135939,1
99,-0.006613,0.681305,-0.085254,-0.159541,0.495288,-0.125131,-0.296301,0.684585,-0.2077439999999999,0.154599,0.491441,-0.110549,0.315289,0.664128,-0.185158,-0.363021,0.8624750000000001,-0.280365,0.357159,0.893865,-0.251344,-0.075016,0.001365,-0.001225,0.075016,-0.0013649999999999,0.001225,-0.174541,0.135845,-0.303585,0.187219,0.148745,-0.288025,-0.132911,-0.144795,-0.1458829999999999,0.138469,-0.1493049999999999,-0.135771,1
100,-0.0065674999999999,0.681305,-0.085544,-0.1594155,0.495288,-0.125244,-0.2962255,0.684585,-0.2078559999999999,0.1544745,0.491441,-0.110659,0.3153945,0.664128,-0.185353,-0.3638355,0.8624750000000001,-0.280715,0.3567445,0.893865,-0.25221,-0.0748915,0.001365,-0.001145,0.0748915,-0.0013649999999999,0.001145,-0.1752254999999999,0.135845,-0.303525,0.1871145,0.149215,-0.288135,-0.1330354999999999,-0.1445949999999999,-0.145287,0.1383645,-0.1487349999999999,-0.135603,1
101,-0.00614,0.681305,-0.086091,-0.158907,0.495288,-0.125785,-0.295497,0.684585,-0.208399,0.154723,0.491441,-0.111196,0.3154829999999999,0.664128,-0.185889,-0.364007,0.8624750000000001,-0.28207,0.356583,0.893865,-0.253322,-0.0748959999999999,0.001365,-0.00125,0.0748959999999999,-0.0013649999999999,0.00125,-0.175657,0.136315,-0.30405,0.187103,0.149645,-0.28854,-0.132967,-0.1442749999999999,-0.145473,0.138423,-0.1480949999999999,-0.135991,1
102,-0.00549,0.6812599999999999,-0.088046,-0.157839,0.4935659999999999,-0.127297,-0.294029,0.6831599999999999,-0.2100699999999999,0.155521,0.4910469999999999,-0.1122219999999999,0.315511,0.6637449999999999,-0.187662,-0.363749,0.8644699999999998,-0.284415,0.3568409999999999,0.8937499999999999,-0.254975,-0.074874,0.0011799999999999,-0.002255,0.074874,-0.00118,0.002255,-0.1760489999999999,0.1323699999999999,-0.3050549999999999,0.187381,0.1447099999999999,-0.289555,-0.132709,-0.1493200000000001,-0.146487,0.138701,-0.15285,-0.136939,1
103,-0.0050489999999999,0.68055,-0.090806,-0.157557,0.491089,-0.130095,-0.2925169999999999,0.68084,-0.212533,0.156083,0.488906,-0.114532,0.315483,0.66182,-0.189745,-0.3637869999999999,0.8669199999999999,-0.28763,0.356813,0.8918900000000001,-0.25709,-0.074874,0.00121,-0.0025499999999999,0.074874,-0.00121,0.0025499999999999,-0.176527,0.12167,-0.3065,0.1873729999999999,0.1326399999999999,-0.29091,-0.133147,-0.16158,-0.147494,0.1386929999999999,-0.16481,-0.138008,1
104,-0.004062,0.6800849999999999,-0.093617,-0.156574,0.4889489999999999,-0.132956,-0.290304,0.6787349999999999,-0.215104,0.157186,0.4849889999999999,-0.116871,0.315436,0.658415,-0.191361,-0.363624,0.8651749999999999,-0.290415,0.357276,0.888485,-0.258704,-0.0748139999999999,0.0015849999999999,-0.002805,0.0748139999999999,-0.001585,0.002805,-0.176444,0.1050049999999999,-0.307655,0.187896,0.1149649999999999,-0.291765,-0.133174,-0.1807050000000001,-0.147992,0.139736,-0.1834650000000001,-0.138662,1
105,-0.002543,0.680625,-0.096967,-0.155194,0.486459,-0.136405,-0.287884,0.6770849999999999,-0.21817,0.1588159999999999,0.482293,-0.12017,0.3167959999999999,0.656445,-0.194018,-0.3626439999999999,0.8636550000000001,-0.29372,0.358376,0.886475,-0.261109,-0.074628,0.001515,-0.0035,0.074628,-0.001515,0.0034999999999999,-0.175484,0.0845449999999999,-0.30857,0.188696,0.093805,-0.29218,-0.132934,-0.205555,-0.148817,0.140976,-0.2080149999999999,-0.13931,1
106,-0.0006875,0.68208,-0.100229,-0.1536745,0.484512,-0.139406,-0.2853745,0.6759299999999999,-0.221141,0.1607755,0.4799699999999999,-0.123417,0.3185255,0.65463,-0.196819,-0.3613945,0.86376,-0.2967,0.3597555,0.8845,-0.263451,-0.0743135,0.0011199999999999,-0.00377,0.0743135,-0.00112,0.0037699999999999,-0.1742044999999999,0.0593399999999999,-0.30867,0.1894555,0.0673499999999999,-0.29201,-0.1325345,-0.23686,-0.14924,0.1423255,-0.23894,-0.13942,1
107,0.0007839999999999,0.684775,-0.1034899999999999,-0.15209,0.483685,-0.1425509999999999,-0.28279,0.676125,-0.2239999999999999,0.16249,0.478801,-0.1266489999999999,0.3201199999999999,0.653715,-0.1998269999999999,-0.36038,0.864575,-0.29912,0.36094,0.883555,-0.2658,-0.073947,0.000425,-0.0038099999999999,0.073947,-0.000425,0.00381,-0.17321,0.0301649999999999,-0.3085599999999999,0.18964,0.0370249999999999,-0.29178,-0.13357,-0.273245,-0.1522569999999999,0.14306,-0.2744749999999999,-0.1414019999999999,1
108,0.0018704999999999,0.68842,-0.1065749999999999,-0.1509205,0.483276,-0.1456319999999999,-0.2805205,0.6762999999999999,-0.2261059999999999,0.1638095,0.479431,-0.1301659999999999,0.3211595,0.65388,-0.2031289999999999,-0.3594905,0.8661,-0.3006649999999999,0.3617595,0.8837999999999999,-0.267265,-0.0736495,-0.00024,-0.0038449999999999,0.0736495,0.0002399999999999,0.003845,-0.1724305,-0.00199,-0.307905,0.1890595,0.0039899999999999,-0.291575,-0.1354005,-0.31345,-0.156355,0.1435695,-0.31369,-0.1444129999999999,1
109,0.0025289999999999,0.692185,-0.109215,-0.150032,0.485415,-0.148583,-0.279112,0.678445,-0.227919,0.165048,0.480215,-0.133532,0.322338,0.654345,-0.206251,-0.358642,0.869835,-0.30116,0.362548,0.884385,-0.26821,-0.073467,-0.0003949999999999,-0.00397,0.073467,0.0003949999999999,0.00397,-0.171162,-0.0356449999999999,-0.30681,0.187838,-0.031055,-0.29092,-0.137272,-0.355755,-0.159929,0.143888,-0.355535,-0.147483,1
110,0.0030275,0.696315,-0.110804,-0.1493104999999999,0.488115,-0.150885,-0.2781005,0.681025,-0.228793,0.1659495,0.482465,-0.136375,0.3232695,0.655725,-0.208713,-0.3580405,0.8722650000000001,-0.300365,0.3635795,0.885965,-0.267755,-0.0732915,-0.0004449999999999,-0.004255,0.0732915,0.000445,0.0042549999999999,-0.1696204999999999,-0.070145,-0.303975,0.1855095,-0.0667849999999999,-0.288865,-0.1392604999999999,-0.3991449999999999,-0.162332,0.1438995,-0.398655,-0.149389,1
111,0.0037264999999999,0.70188,-0.109995,-0.1485035,0.4920199999999999,-0.150751,-0.2772934999999999,0.68477,-0.227083,0.1668065,0.4826,-0.137107,0.3242564999999999,0.6563699999999999,-0.208521,-0.3573334999999999,0.87417,-0.29776,0.3649765,0.88635,-0.26516,-0.0731405,6.999999999995898e-05,-0.0042999999999999,0.0731405,-7.00000000000145e-05,0.0042999999999999,-0.1679135,-0.10194,-0.29857,0.1828865,-0.09979,-0.28426,-0.1407935,-0.43967,-0.161173,0.1434065,-0.43945,-0.148449,1
112,0.0048554999999999,0.708845,-0.105845,-0.1473305,0.496445,-0.146956,-0.2764005,0.6897150000000001,-0.221959,0.1681095,0.486535,-0.134689,0.3261795,0.659915,-0.205209,-0.3558405,0.876025,-0.292245,0.3669695,0.887085,-0.2596549999999999,-0.0731405,0.000375,-0.004305,0.0731405,-0.0003749999999999,0.004305,-0.1656004999999999,-0.1362549999999999,-0.289205,0.1802095,-0.1343349999999999,-0.2747549999999999,-0.1411504999999999,-0.4800449999999999,-0.155644,0.1427395,-0.479575,-0.142916,1
113,0.0063195,0.71564,-0.099393,-0.1461245,0.5021800000000001,-0.14104,-0.2756145,0.69564,-0.214722,0.1698055,0.49232,-0.130295,0.3282954999999999,0.66376,-0.199853,-0.3543145,0.8834500000000001,-0.284095,0.3691554999999999,0.88808,-0.252175,-0.0731314999999999,0.00055,-0.003515,0.0731314999999999,-0.0005499999999999,0.0035149999999999,-0.1620345,-0.16962,-0.274355,0.1770755,-0.1683299999999999,-0.260945,-0.1413645,-0.51894,-0.14813,0.1424255,-0.51911,-0.135401,1
114,0.0078459999999999,0.72155,-0.090332,-0.145089,0.50762,-0.13246,-0.2748089999999999,0.7006100000000001,-0.204788,0.171011,0.4976199999999999,-0.123515,0.329661,0.66711,-0.191577,-0.3526289999999999,0.8905500000000001,-0.273005,0.3720909999999999,0.8895500000000001,-0.241535,-0.073118,0.0007699999999999,-0.002335,0.073118,-0.0007699999999999,0.002335,-0.157609,-0.20309,-0.254025,0.173181,-0.20251,-0.241435,-0.141359,-0.55582,-0.138041,0.142231,-0.5567099999999999,-0.125317,1
115,0.008955,0.7238215,-0.073223,-0.144929,0.5117615,-0.116188,-0.274389,0.7029415,-0.186952,0.172881,0.5014415,-0.108532,0.330911,0.6676415,-0.17495,-0.351449,0.8905615,-0.253215,0.374281,0.8860515,-0.222605,-0.073051,0.0007414999999999,-0.001715,0.073051,-0.0007415,0.0017149999999999,-0.151949,-0.2371885,-0.221645,0.166121,-0.2369685,-0.2102,-0.141919,-0.5912085,-0.11835,0.141311,-0.5933085,-0.106569,1
116,0.0090475,0.7260765,-0.0564359999999999,-0.1456645,0.5153565,-0.100145,-0.2753744999999999,0.7050365,-0.169263,0.1739555,0.5046665,-0.0938229999999999,0.3309455,0.6684464999999999,-0.1583649999999999,-0.3507745,0.8906465,-0.233565,0.3751455,0.8814765,-0.204425,-0.0729684999999999,0.0008374999999999,-0.0011049999999999,0.0729684999999999,-0.0008374999999999,0.001105,-0.1472745,-0.2674735,-0.188629,0.1575655,-0.2675635,-0.178765,-0.1436144999999999,-0.6214935,-0.0988029999999999,0.1392655,-0.6249435,-0.087699,1
117,0.0088135,0.7274965,-0.0395089999999999,-0.1468124999999999,0.5180265000000001,-0.083957,-0.2771425,0.7069565,-0.151534,0.1745275,0.5063565,-0.078809,0.3312475,0.6682865,-0.14118,-0.3510325,0.8902765,-0.213893,0.3754975,0.8750265,-0.186593,-0.0729974999999999,0.0010634999999999,-0.000376,0.0729974999999999,-0.0010635,0.000376,-0.1424725,-0.2946835,-0.154856,0.1484675,-0.2950035,-0.146984,-0.1458424999999999,-0.6481035,-0.078913,0.1367875,-0.6522635,-0.068603,1
118,0.008383,0.7281965,-0.022805,-0.147735,0.5196465,-0.068116,-0.2787949999999999,0.7070965,-0.133673,0.175155,0.5083865,-0.063888,0.331315,0.6675765,-0.124145,-0.351275,0.8862865,-0.19436,0.375645,0.8675565,-0.16885,-0.072884,0.0010194999999999,7.699999999999374e-05,0.072884,-0.0010195,-7.700000000000762e-05,-0.138035,-0.3190335,-0.121234,0.139625,-0.3185735,-0.11519,-0.1479849999999999,-0.6711235,-0.058951,0.1341649999999999,-0.6754535,-0.049482,1
119,0.0079084999999999,0.728253,-0.0064789999999999,-0.1487925,0.5210830000000001,-0.052381,-0.2807524999999999,0.7063830000000001,-0.116286,0.1756474999999999,0.509973,-0.049104,0.3314574999999999,0.666053,-0.1073959999999999,-0.3513825,0.881403,-0.175488,0.3754674999999999,0.8590230000000001,-0.1515679999999999,-0.0728215,0.000819,0.0004909999999999,0.0728215,-0.000819,-0.0004909999999999,-0.1336725,-0.339557,-0.088581,0.1317775,-0.338017,-0.0836109999999999,-0.1488125,-0.690967,-0.036557,0.1307675,-0.694847,-0.028425,1
120,0.007277,0.7277325,0.0087684999999999,-0.150093,0.5215825000000001,-0.0377415,-0.282273,0.7048725,-0.1000185,0.176267,0.5130325,-0.0353495,0.331547,0.6649925,-0.0920505,-0.351893,0.8779925000000001,-0.1586855,0.375187,0.8509625000000001,-0.1353155,-0.072617,0.0005524999999999,0.0006175,0.072617,-0.0005524999999999,-0.0006175,-0.129323,-0.3558874999999999,-0.0579765,0.124257,-0.3536674999999999,-0.0532625,-0.149043,-0.7067875,-0.0144695,0.127297,-0.7099475,-0.0074914999999999,1
121,0.0062219999999999,0.7265625,0.0227005,-0.151795,0.5220225000000001,-0.0241595,-0.284315,0.7027725,-0.0850825,0.176545,0.5137225000000001,-0.0223825,0.330815,0.6620124999999999,-0.0782635,-0.353445,0.8730825,-0.1437585,0.374395,0.8437025,-0.1203985,-0.072295,0.0003204999999999,0.0006985,0.072295,-0.0003205,-0.0006985,-0.125525,-0.3677275,-0.0304175,0.117245,-0.3650075,-0.0258165,-0.149145,-0.7182575,0.0063574999999999,0.123625,-0.7206975,0.0123305,1
122,0.005046,0.7255039999999999,0.035198,-0.153338,0.5209539999999999,-0.011902,-0.286148,0.6995939999999999,-0.071588,0.176712,0.5130739999999999,-0.010439,0.3302219999999999,0.659154,-0.0660989999999999,-0.355278,0.869064,-0.130264,0.3736919999999999,0.836704,-0.107294,-0.0719539999999999,7.100000000000162e-05,0.0007499999999999,0.0719539999999999,-7.100000000000162e-05,-0.00075,-0.1222979999999999,-0.376966,-0.0068,0.111122,-0.373386,-0.001992,-0.1490179999999999,-0.726016,0.02547,0.120132,-0.7278260000000001,0.030427,0
123,0.0036665,0.7238665,0.0465045,-0.1549525,0.5198364999999999,-0.0009125,-0.2878825,0.6955465,-0.0598695,0.1766975,0.5123464999999999,0.0005295,0.3296875,0.6546164999999999,-0.0556005,-0.3570125,0.8663065,-0.1180315,0.3723675,0.8311465,-0.0963715,-0.0715395,-0.0001624999999999,0.0008695,0.0715395,0.0001625,-0.0008695,-0.1198825,-0.3857635,0.0131535,0.1059075,-0.3808835,0.0178825,-0.1492425,-0.7325435,0.0416645,0.1172175,-0.7337735,0.0460375,0
124,0.0025009999999999,0.7258565,0.050086,-0.156158,0.5198364999999999,0.0026429999999999,-0.289398,0.6955465,-0.055615,0.176072,0.5127265,0.00379,0.329522,0.6546164999999999,-0.053123,-0.358218,0.8663065,-0.113976,0.371552,0.8311465,-0.093346,-0.07124,-0.0001624999999999,0.0007279999999999,0.07124,0.0001625,-0.000728,-0.119158,-0.3861335,0.020587,0.1038119999999999,-0.3815134999999999,0.026006,-0.149808,-0.7331635,0.046893,0.1157419999999999,-0.7340035,0.051331,0
125,0.0016255,0.7267764999999999,0.0532855,-0.1572665,0.5198364999999999,0.0058874999999999,-0.2905265,0.6955465,-0.0518065,0.1757235,0.5127265,0.0064954999999999,0.3297235,0.6546164999999999,-0.0514305,-0.3601165,0.8663065,-0.1114604999999999,0.3708635,0.8311465,-0.0917105,-0.0709475,-0.0001624999999999,0.0006894999999999,0.0709475,0.0001625,-0.0006894999999999,-0.1183765,-0.3865035,0.0269565,0.1024335,-0.3822135,0.0330395,-0.1500565,-0.7337235,0.0514675,0.1146335,-0.7342635000000001,0.0557934999999999,0
126,0.0011614999999999,0.7270265,0.055912,-0.1580254999999999,0.5198364999999999,0.008605,-0.2922555,0.6955465,-0.0487149999999999,0.1758144999999999,0.5127265,0.008682,0.3303045,0.6546164999999999,-0.050511,-0.3618555,0.8635065,-0.1097129999999999,0.3699745,0.8273165,-0.091863,-0.0706495,-0.0001624999999999,0.000698,0.0706495,0.0001625,-0.000698,-0.1179155,-0.3868935,0.031542,0.1017945,-0.3827735,0.0385019999999999,-0.1500155,-0.7340335,0.05499,0.1139144999999999,-0.7345435,0.05943,0
127,0.000971,0.727138,0.0578455,-0.158212,0.519278,0.0103455,-0.295512,0.691978,-0.0464035,0.175628,0.512448,0.0106805,0.3314979999999999,0.651288,-0.0502814999999999,-0.363652,0.8593379999999999,-0.1088575,0.369658,0.822488,-0.0929275,-0.070438,-0.0001089999999999,0.0005885,0.070438,0.000109,-0.0005884999999999,-0.117672,-0.387112,0.0339905,0.101408,-0.382702,0.0422415,-0.149872,-0.733942,0.0573455,0.113568,-0.734612,0.0620695,0
128,0.0008079999999999,0.7278935,0.059155,-0.158135,0.5185535,0.011461,-0.301245,0.6836935,-0.044641,0.175615,0.5126035,0.012275,0.333705,0.6430735,-0.049389,-0.365855,0.8534435,-0.1085329999999999,0.369525,0.8163535,-0.094863,-0.070409,-0.0001035,0.000466,0.070409,0.0001035,-0.0004659999999999,-0.117505,-0.3869665,0.035749,0.101185,-0.3819465,0.044433,-0.149625,-0.7331865,0.058945,0.113395,-0.7332365,0.063872,0
129,0.00048,0.729617,0.060135,-0.158263,0.517817,0.0119909999999999,-0.309343,0.670597,-0.0429709999999999,0.175617,0.512097,0.0128659999999999,0.334247,0.630997,-0.048371,-0.367313,0.844257,-0.107649,0.369227,0.803797,-0.097379,-0.070408,-9.000000000000674e-05,0.0005219999999999,0.070408,8.999999999999286e-05,-0.000522,-0.1174829999999999,-0.386253,0.0369349999999999,0.101017,-0.380843,0.045693,-0.149343,-0.731503,0.059966,0.113257,-0.731513,0.064946,0
130,7.850000000000391e-05,0.7325984999999999,0.060564,-0.1587194999999999,0.5163384999999999,0.011966,-0.3151595,0.6533384999999999,-0.041667,0.1756405,0.5102585,0.012964,0.3342705,0.6139485,-0.0478619999999999,-0.3673595,0.8265684999999999,-0.10741,0.3680405,0.7899685,-0.10011,-0.0703895,-2.5499999999997747e-05,0.000623,0.0703895,2.5499999999997747e-05,-0.0006229999999999,-0.1174595,-0.3848014999999999,0.037727,0.1008805,-0.3792815,0.046546,-0.1491094999999999,-0.7288615,0.060472,0.1131205,-0.7285315,0.0655159999999999,0
131,-0.0003444999999999,0.736605,0.060434,-0.1591625,0.514515,0.011219,-0.3169025,0.629435,-0.0395679999999999,0.1750675,0.5076649999999999,0.01266,0.3343375,0.590895,-0.0478549999999999,-0.3673025,0.802275,-0.1085429999999999,0.3650775,0.769845,-0.103143,-0.0703225,0.0001649999999999,0.00063,0.0703225,-0.0001649999999999,-0.0006299999999999,-0.1173925,-0.382285,0.037734,0.1008675,-0.377095,0.047022,-0.1488625,-0.725175,0.060312,0.1129675,-0.724495,0.065611,0
132,-0.000657,0.7414035,0.0603365,-0.159468,0.5126335,0.0101115,-0.316508,0.5984535,-0.0354504999999999,0.173762,0.5043734999999999,0.0124315,0.334702,0.5619635,-0.0470885,-0.366968,0.7725234999999999,-0.1099275,0.360102,0.7428834999999999,-0.1061874999999999,-0.0703739999999999,0.0003145,0.0006304999999999,0.0703739999999999,-0.0003144999999999,-0.0006304999999999,-0.117038,-0.3786764999999999,0.0377295,0.101022,-0.3744765,0.0476985,-0.148368,-0.7204065000000001,0.0600825,0.113132,-0.7197265,0.0657485,0
133,-0.0007235,0.746716,0.0602275,-0.1596005,0.5104460000000001,0.0087555,-0.3158804999999999,0.562486,-0.0299365,0.1720795,0.500936,0.0116535,0.3318795,0.5249560000000001,-0.0451805,-0.3664205,0.7346560000000001,-0.1114934999999999,0.3519895,0.7092660000000001,-0.1100034999999999,-0.0704485,0.0004149999999999,0.0006315,0.0704485,-0.0004149999999999,-0.0006315,-0.1167005,-0.374604,0.0377265,0.1013395,-0.371814,0.0485715,-0.1476805,-0.715034,0.0598174999999999,0.1134895,-0.714654,0.0658775,0
134,-0.0005325,0.752251,0.059848,-0.1596425,0.508131,0.007473,-0.3150825,0.5229809999999999,-0.023542,0.1701375,0.497681,0.010454,0.3259575,0.486141,-0.042044,-0.3649225,0.6908709999999999,-0.113043,0.3400775,0.6705409999999999,-0.115003,-0.0705355,0.0005009999999999,0.000653,0.0705355,-0.000501,-0.000653,-0.1163825,-0.370469,0.0378649999999999,0.1018575,-0.369129,0.049596,-0.1468425,-0.709399,0.0594539999999999,0.1140275,-0.709319,0.066013,0
135,-0.0002134999999999,0.757573,0.058991,-0.1596285,0.505573,0.0060909999999999,-0.3116885,0.480913,-0.015418,0.1681815,0.494953,0.0089109999999999,0.3163415,0.445883,-0.0389679999999999,-0.3611085,0.637323,-0.1134669999999999,0.3242915,0.628273,-0.122477,-0.0706785,0.000549,0.000736,0.0706785,-0.000549,-0.000736,-0.1161384999999999,-0.366467,0.03783,0.1024315,-0.366407,0.050292,-0.1460084999999999,-0.7038369999999999,0.058735,0.1146315,-0.7040569999999999,0.065804,0
136,0.000205,0.762493,0.0577515,-0.1596969999999999,0.503703,0.0046605,-0.305937,0.440053,-0.0073155,0.164683,0.492473,0.0061065,0.304213,0.406163,-0.0369345,-0.355567,0.5764330000000001,-0.1140894999999999,0.305433,0.585113,-0.1336595,-0.070815,0.000604,0.0007964999999999,0.070815,-0.0006039999999999,-0.0007964999999999,-0.115977,-0.362657,0.0376495,0.102913,-0.363977,0.0507765,-0.145297,-0.698587,0.0577525,0.1151529999999999,-0.699137,0.0653225,0
137,0.0006929999999999,0.7668805,0.0561104999999999,-0.159812,0.5018705,0.0031524999999999,-0.299572,0.4018905,0.0005865,0.160468,0.4905405,0.0024824999999999,0.291638,0.3704005,-0.0361805,-0.345452,0.5124205000000001,-0.1141534999999999,0.284978,0.5417805,-0.1460535,-0.070952,0.0006024999999999,0.0008165,0.070952,-0.0006024999999999,-0.0008165,-0.115932,-0.3591395,0.0373085,0.1031779999999999,-0.3619795,0.0511055,-0.144722,-0.6937495,0.0565395,0.115558,-0.6946395,0.0646205,0
138,0.001017,0.7705730000000001,0.0540799999999999,-0.160277,0.5002730000000001,0.0015019999999999,-0.292447,0.3684429999999999,0.0065299999999999,0.157013,0.489273,-0.000706,0.278893,0.338503,-0.035799,-0.3348069999999999,0.445303,-0.113635,0.263703,0.501943,-0.158345,-0.071079,0.0004959999999999,0.0008139999999999,0.071079,-0.0004959999999999,-0.000814,-0.115927,-0.355677,0.036763,0.103323,-0.359877,0.051098,-0.144397,-0.689427,0.0551689999999999,0.115793,-0.690597,0.063687,0
139,0.001147,0.7731975,0.0519895,-0.160885,0.4992775,-0.0001404999999999,-0.283325,0.3394575,0.0116425,0.1548949999999999,0.4888375,-0.0027244999999999,0.265625,0.3118975,-0.0356424999999999,-0.323835,0.3852375,-0.1118755,0.243145,0.4634875,-0.1708555,-0.071176,0.0002994999999999,0.0008985,0.071176,-0.0002995,-0.0008985,-0.116035,-0.3526825,0.0361995,0.103325,-0.3578525,0.0509705,-0.144215,-0.6859325,0.0539095,0.115855,-0.6873925,0.0628665,0
140,0.0011235,0.7744185,0.0499364999999999,-0.1617345,0.4985985,-0.0010895,-0.2718245,0.3162185,0.0156455,0.1534755,0.4888284999999999,-0.0042974999999999,0.2514254999999999,0.2917785,-0.0362895,-0.3116345,0.3271084999999999,-0.1090655,0.2216255,0.4297185,-0.1843955,-0.0711745,8.549999999999877e-05,0.0010474999999999,0.0711745,-8.55000000000005e-05,-0.0010474999999999,-0.1162344999999999,-0.3505815,0.0356875,0.1032255,-0.3566615,0.0509585,-0.1442045,-0.6834115,0.0528355,0.1157855,-0.6852014999999999,0.0622225,0
141,0.0013085,0.77447,0.047838,-0.1625615,0.49801,-0.001699,-0.2576915,0.29971,0.0179319999999999,0.1532385,0.4891899999999999,-0.005488,0.2387185,0.27797,-0.036763,-0.2986915,0.2722299999999999,-0.105364,0.2007585,0.40214,-0.199344,-0.0711735,-5.10000000000007e-05,0.0011049999999999,0.0711735,5.10000000000007e-05,-0.001105,-0.1163614999999999,-0.34961,0.035295,0.1031985,-0.3563,0.050942,-0.1441815,-0.68216,0.0518239999999999,0.1157484999999999,-0.68401,0.061654,0
142,0.0017509999999999,0.773797,0.0455249999999999,-0.163407,0.497717,-0.00216,-0.245677,0.287987,0.019282,0.153233,0.4897269999999999,-0.0059589999999999,0.229763,0.272857,-0.037131,-0.286527,0.223717,-0.1005949999999999,0.182983,0.382287,-0.213015,-0.071173,-0.0001289999999999,0.0011459999999999,0.071173,0.000129,-0.001146,-0.116417,-0.349043,0.034877,0.103193,-0.3561129999999999,0.050815,-0.144157,-0.681413,0.050975,0.1157229999999999,-0.683323,0.061187,0
143,0.0023314999999999,0.7727285,0.0434264999999999,-0.1643155,0.4975985,-0.0024575,-0.2374755,0.2797685,0.0203464999999999,0.1531545,0.4903484999999999,-0.0062655,0.2237845,0.2703885,-0.0381095,-0.2747955,0.1807085,-0.0954214999999999,0.1688944999999999,0.3685985,-0.2249815,-0.0711925,-0.0002104999999999,0.0012854999999999,0.0711925,0.0002105,-0.0012855,-0.1165155,-0.3484615,0.0345705,0.1031245,-0.3559715,0.0507015,-0.1442055,-0.6807515,0.0503855,0.1156245,-0.6827715,0.0608815,0
144,0.0029645,0.7736395,0.0413135,-0.1654195,0.4976994999999999,-0.0022664999999999,-0.2338795,0.2747595,0.0207555,0.1528605,0.4908995,-0.0064534999999999,0.2211005,0.2707295,-0.0410245,-0.2651395,0.1474395,-0.0906395,0.1596705,0.3659295,-0.2341895,-0.0711275,-0.0002695,0.0014295,0.0711275,0.0002694999999999,-0.0014295,-0.1168095,-0.3477505,0.0343825,0.1028304999999999,-0.3558505,0.0506955,-0.1444495,-0.6799805,0.0498765,0.1153404999999999,-0.6821405,0.0607245,0
145,0.0036175,0.774601,0.0390685,-0.1666165,0.497821,-0.0015405,-0.2327665,0.270751,0.0212555,0.1540435,0.491261,-0.0059655,0.2203735,0.271691,-0.0452675,-0.2571865,0.122881,-0.0859765,0.1519435,0.362671,-0.2385665,-0.0710395,-0.000327,0.0015694999999999,0.0710395,0.0003269999999999,-0.0015695,-0.1171764999999999,-0.347029,0.0342455,0.1025435,-0.355669,0.0506695,-0.1447165,-0.679169,0.0494455,0.1150035,-0.681439,0.0605935,0
146,0.0042239999999999,0.7736379999999999,0.0368465,-0.167784,0.498038,-0.0007785,-0.232294,0.268288,0.0216454999999999,0.155746,0.491738,-0.0049765,0.219576,0.272788,-0.0505815,-0.252894,0.1045079999999999,-0.0804044999999999,0.145656,0.359618,-0.2415495,-0.070954,-0.000356,0.0017054999999999,0.070954,0.000356,-0.0017055,-0.117554,-0.346182,0.0339875,0.1023159999999999,-0.355292,0.0506135,-0.144894,-0.6781820000000001,0.0490275,0.114656,-0.680582,0.0604764999999999,0
147,0.0048215,0.7726474999999999,0.0346755,-0.1688155,0.4982475,-2.4999999999990308e-06,-0.2321455,0.2659175,0.0211705,0.1575745,0.4921975,-0.0038824999999999,0.2186945,0.2739175,-0.0560085,-0.2492055,0.0931675,-0.0768705,0.1403445,0.3557275,-0.2451014999999999,-0.0708755,-0.0003434999999999,0.0017785,0.0708755,0.0003435,-0.0017784999999999,-0.1179655,-0.3452624999999999,0.0337095,0.1021945,-0.3548925,0.0505845,-0.1450155,-0.6771325,0.0486775,0.1143345,-0.6796225,0.0604045,0
148,0.0053005,0.7716774999999999,0.032572,-0.1696724999999999,0.4984675,0.0007749999999999,-0.2321325,0.2639575,0.020222,0.1602775,0.4927375,-0.0020769999999999,0.2177975,0.2760775,-0.0604839999999999,-0.2462925,0.0844255,-0.074531,0.1348475,0.3539975,-0.2482619999999999,-0.0708055,-0.0002645,0.001881,0.0708055,0.0002645,-0.001881,-0.1183225,-0.3443025,0.033446,0.1021774999999999,-0.3544825,0.050561,-0.1450824999999999,-0.6760125,0.0483689999999999,0.1140675,-0.6785425,0.060354,0
149,0.0056284999999999,0.7707875,0.0305025,-0.1705065,0.4986974999999999,0.0016184999999999,-0.2325765,0.2632975,0.0191805,0.1634135,0.4932675,0.0002125,0.2175135,0.2780575,-0.0637835,-0.2446865,0.0795815,-0.0727315,0.1313335,0.3551675,-0.2502495,-0.0707455,-0.0001895,0.0020144999999999,0.0707455,0.0001894999999999,-0.0020144999999999,-0.1186364999999999,-0.3432825,0.0331635,0.1022935,-0.3540425,0.0505385,-0.1451165,-0.6748425,0.0480765,0.1138235,-0.6773725,0.0602725,0
150,0.0058395,0.7700675,0.0286445,-0.1713255,0.4989575,0.0026225,-0.2325955,0.2631274999999999,0.0191565,0.1655545,0.4937975,0.0017325,0.2173145,0.2802575,-0.0668365,-0.2442655,0.0787035,-0.0707815,0.1280345,0.3554275,-0.2516125,-0.0707035,-0.0001434999999999,0.0021855,0.0707035,0.0001435,-0.0021855,-0.1188454999999999,-0.3421525,0.0327925,0.1024145,-0.3535825,0.0505115,-0.1450755,-0.6737124999999999,0.0479355,0.1136245,-0.6763524999999999,0.0602435,0
151,0.005877,0.7696154999999999,0.027105,-0.172004,0.4993955,0.003541,-0.232674,0.2634655,0.019097,0.166206,0.4943855,0.002027,0.217206,0.2824355,-0.069766,-0.244234,0.0795655,-0.06953,0.125886,0.3560455,-0.2525219999999999,-0.070687,-9.55000000000001e-05,0.0023549999999999,0.070687,9.55000000000001e-05,-0.0023549999999999,-0.118944,-0.3410745,0.032445,0.102586,-0.3530345,0.050429,-0.144944,-0.6726345,0.04779,0.113526,-0.6753845,0.06017,0
152,0.005863,0.769189,0.02586,-0.172645,0.499859,0.004553,-0.232655,0.263939,0.019,0.166545,0.494919,0.002079,0.216675,0.2841889999999999,-0.072263,-0.244075,0.0802119999999999,-0.068728,0.123205,0.360259,-0.252588,-0.070685,-6.000000000000016e-05,0.002523,0.070685,5.999999999999973e-05,-0.0025229999999999,-0.118965,-0.340181,0.032113,0.102745,-0.352461,0.050331,-0.144765,-0.671731,0.04761,0.113505,-0.674611,0.060068,0
153,0.0058525,0.7688794999999999,0.0249075,-0.1732564999999999,0.5003394999999999,0.0055094999999999,-0.2326565,0.2644295,0.0192145,0.1665935,0.4952195,0.0019714999999999,0.2159935,0.2855995,-0.0739315,-0.2439064999999999,0.0807115,-0.0679435,0.1204435,0.3649695,-0.2527005,-0.0706835,-3.549999999999994e-05,0.0026654999999999,0.0706835,3.550000000000016e-05,-0.0026655,-0.1190465,-0.3393505,0.0317835,0.1028535,-0.3519905,0.0502115,-0.1446265,-0.6707705,0.0473964999999999,0.1134835,-0.6739805000000001,0.0599255,0
154,0.0058455,0.7687299999999999,0.0243124999999999,-0.1738485,0.50072,0.0064554999999999,-0.2330584999999999,0.2648,0.0199074999999999,0.1666015,0.49579,0.0018384999999999,0.2151715,0.2867,-0.0750895,-0.2437085,0.081118,-0.0671654999999999,0.1173815,0.36768,-0.2521865,-0.0706815,-1.999999999999984e-05,0.0028114999999999,0.0706815,2.000000000000005e-05,-0.0028115,-0.1192085,-0.33867,0.0315164999999999,0.1028815,-0.35161,0.0500904999999999,-0.1445084999999999,-0.66994,0.0472304999999999,0.1134714999999999,-0.6734899999999999,0.0597795,0
155,0.0058475,0.768674,0.0238855,-0.1744095,0.501024,0.0073075,-0.2335695,0.265044,0.0204495,0.1668005,0.4961239999999999,0.0018684999999999,0.2144404999999999,0.287614,-0.0758655,-0.2438295,0.081923,-0.0667055,0.1139905,0.369594,-0.2515285,-0.0706925,-3.700000000000003e-05,0.0030124999999999,0.0706925,3.700000000000003e-05,-0.0030125,-0.1193395,-0.337996,0.0312285,0.1029605,-0.351326,0.0499084999999999,-0.1443795,-0.6692560000000001,0.0470275,0.1135105,-0.673076,0.0595785,0
156,0.0057264999999999,0.768472,0.022665,-0.1754685,0.501562,0.008824,-0.2348285,0.2655119999999999,0.020908,0.1648715,0.496762,0.0003809999999999,0.2133115,0.288772,-0.077031,-0.2464885,0.085365,-0.071246,0.0900915,0.381892,-0.26437,-0.0707195,-8.8e-05,0.003277,0.0707195,8.800000000000001e-05,-0.0032769999999999,-0.1193285,-0.337558,0.030673,0.1034215,-0.350818,0.0497559999999999,-0.1441184999999999,-0.668078,0.04698,0.1138515,-0.671068,0.058811,0
157,0.0058535,0.768538,0.0224885,-0.1752824999999999,0.501668,0.0095925,-0.2346125,0.265608,0.0217165,0.1639475,0.497038,-0.0004014999999999,0.2131575,0.289288,-0.0779455,-0.2456124999999999,0.0846399999999999,-0.0692405,0.1005675,0.368918,-0.2548415,-0.0707355,-0.0001149999999999,0.0033225,0.0707355,0.0001149999999999,-0.0033224999999999,-0.1194524999999999,-0.336142,0.0300505,0.1037875,-0.350582,0.0494055,-0.1436925,-0.667662,0.0465715,0.1137875,-0.672592,0.0593485,0
158,0.005527,0.7684585,0.0226089999999999,-0.175584,0.5015985000000001,0.0106089999999999,-0.234424,0.2654385,0.0228699999999999,0.163016,0.4973585,-0.000869,0.212676,0.2896285,-0.078455,-0.245014,0.0839075,-0.067315,0.101516,0.3663885,-0.252729,-0.070767,-0.0001295,0.0033739999999999,0.070767,0.0001295,-0.003374,-0.119644,-0.3359014999999999,0.029788,0.103866,-0.3503815,0.049346,-0.143574,-0.6675615,0.0464959999999999,0.114096,-0.6732015,0.059576,0
159,0.005596,0.7687685,0.022057,-0.175528,0.5018585,0.010197,-0.233998,0.2656985,0.023137,0.162812,0.4978885,-0.0017509999999999,0.212702,0.2902885,-0.0792519999999999,-0.244158,0.0838054999999999,-0.065673,0.111262,0.3845385,-0.201813,-0.070873,-0.0002234999999999,0.003896,0.070873,0.0002235,-0.003896,-0.119488,-0.3358315,0.0293399999999999,0.103792,-0.3498914999999999,0.048748,-0.143278,-0.6670415,0.045532,0.114292,-0.6726815,0.058833,0
160,0.0052525,0.7686694999999999,0.021966,-0.1765245,0.5018594999999999,0.011636,-0.2339945,0.2653495,0.023776,0.1626955,0.4979295,-0.0025749999999999,0.2125655,0.2905095,-0.0799989999999999,-0.2435645,0.0834425,-0.063743,0.0934255,0.3799095,-0.259455,-0.0708715,-0.0001644999999999,0.004007,0.0708715,0.0001645,-0.004007,-0.1194745,-0.3352205,0.028744,0.1039355,-0.3500505,0.048142,-0.1431845,-0.6671405,0.044746,0.1142855,-0.6728905000000001,0.058522,0
161,0.0050655,0.768612,0.0216875,-0.1768925,0.502012,0.0120245,-0.2339425,0.265392,0.0241245,0.1624775,0.498122,-0.0030374999999999,0.2121875,0.290822,-0.0804775,-0.2433524999999999,0.083262,-0.0636554999999999,0.1014275,0.368962,-0.2514975,-0.0708635,-0.0001239999999999,0.0037115,0.0708635,0.0001239999999999,-0.0037114999999999,-0.1196224999999999,-0.334458,0.0283985,0.1036475,-0.350218,0.0476725,-0.1429825,-0.667208,0.0444445,0.1141975,-0.672748,0.0579724999999999,0
162,0.0051485,0.76897,0.020901,-0.1765785,0.50226,0.011465,-0.2339385,0.26571,0.023507,0.1640115,0.49707,-0.002098,0.2117715,0.2912,-0.079442,-0.2430485,0.083393,-0.063927,0.1031715,0.36717,-0.250851,-0.0709255,-7.800000000000016e-05,0.0037549999999999,0.0709255,7.799999999999994e-05,-0.0037549999999999,-0.1197584999999999,-0.33367,0.027551,0.1036915,-0.34989,0.046831,-0.1425685,-0.66694,0.043711,0.1142415,-0.67254,0.056942,0
