sb224sc-HT22-VT27/4dt907/src/data/labeled_files/B21_kinect.csv
FrameNo,nose_3d_x,nose_3d_y,nose_3d_z,left_shoulder_3d_x,left_shoulder_3d_y,left_shoulder_3d_z,left_elbow_3d_x,left_elbow_3d_y,left_elbow_3d_z,right_shoulder_3d_x,right_shoulder_3d_y,right_shoulder_3d_z,right_elbow_3d_x,right_elbow_3d_y,right_elbow_3d_z,left_wrist_3d_x,left_wrist_3d_y,left_wrist_3d_z,right_wrist_3d_x,right_wrist_3d_y,right_wrist_3d_z,left_hip_3d_x,left_hip_3d_y,left_hip_3d_z,right_hip_3d_x,right_hip_3d_y,right_hip_3d_z,left_knee_3d_x,left_knee_3d_y,left_knee_3d_z,right_knee_3d_x,right_knee_3d_y,right_knee_3d_z,left_ankle_3d_x,left_ankle_3d_y,left_ankle_3d_z,right_ankle_3d_x,right_ankle_3d_y,right_ankle_3d_z,activity_label
0,-0.0159155,0.756822,0.0525565,-0.1812355,0.473682,0.0088935,-0.2189155,0.218862,-0.0114304999999999,0.1494045,0.473062,0.0159325,0.2194945,0.245682,0.0026875,-0.1993355,0.026098,-0.0877565,0.1449445,0.3005919999999999,-0.1743765,-0.0721895,-0.002642,0.0001135,0.0721895,0.002642,-0.0001134999999999,-0.0919675,-0.347608,0.0277605,0.0986445,-0.353068,0.0472115,-0.0986975,-0.663888,0.0730955,0.0926174999999999,-0.658208,0.0929725,0
1,-0.015966,0.756768,0.052723,-0.181223,0.473648,0.0089789999999999,-0.218953,0.218768,-0.0113569999999999,0.149327,0.473208,0.0160839999999999,0.187197,0.231628,-0.060512,-0.199283,0.026103,-0.087693,0.144517,0.337418,-0.223453,-0.072185,-0.002663,0.0001589999999999,0.072185,0.002663,-0.0001589999999999,-0.091954,-0.347652,0.027844,0.098642,-0.353112,0.047293,-0.098654,-0.663972,0.073155,0.092661,-0.658282,0.093113,0
2,-0.015944,0.7567809999999999,0.0530165,-0.181153,0.473611,0.0090965,-0.218853,0.218721,-0.0112454999999999,0.149357,0.473251,0.0162465,0.1897869999999999,0.234231,-0.0571225,-0.199173,0.026084,-0.0875205,0.114847,0.334721,-0.2111805,-0.072181,-0.002652,0.0001294999999999,0.072181,0.002652,-0.0001294999999999,-0.091842,-0.3476189999999999,0.0279625,0.098755,-0.352389,0.0469085,-0.098621,-0.663649,0.0734114999999999,0.09277,-0.6582790000000001,0.0930955,0
3,-0.0159919999999999,0.756787,0.053105,-0.1811689999999999,0.473617,0.009125,-0.218849,0.218727,-0.0112219999999999,0.1493209999999999,0.473287,0.016232,0.192821,0.236937,-0.050275,-0.199139,0.026134,-0.087516,0.161851,0.303677,-0.236256,-0.072175,-0.0026569999999999,0.000151,0.072175,0.0026569999999999,-0.0001509999999999,-0.091838,-0.3476229999999999,0.027988,0.098778,-0.352373,0.046886,-0.098357,-0.6628930000000001,0.073396,0.092919,-0.658313,0.093103,0
4,-0.0161235,0.7567440000000001,0.0533624999999999,-0.1812435,0.473564,0.0092275,-0.2188435,0.218954,-0.0110775,0.1491465,0.473344,0.0161545,0.1929265,0.237384,-0.0503355,-0.1991335,0.026093,-0.0874815,0.1201065,0.3188839999999999,-0.2169415,-0.0721745,-0.002663,0.0001924999999999,0.0721745,0.002663,-0.0001925,-0.0918894999999999,-0.347246,0.0278225,0.0989225,-0.351986,0.0469544999999999,-0.0981394999999999,-0.662216,0.0735975,0.0929735,-0.658226,0.0929705,0
5,-0.016136,0.7567945,0.0537295,-0.181182,0.4736045,0.0093175,-0.218822,0.2195445,-0.0108645,0.149188,0.4733645,0.0161225,0.195698,0.2381645,-0.0450315,-0.199082,0.0260205,-0.0872595,0.121028,0.3174145,-0.2119295,-0.072166,-0.0026585,0.0001774999999999,0.072166,0.0026585,-0.0001774999999999,-0.09178,-0.3472055,0.0278305,0.099046,-0.3520355,0.0469745,-0.097991,-0.6621454999999999,0.0736545,0.0930149999999999,-0.6583455,0.0929504999999999,0
6,-0.0162905,0.7568225000000001,0.0540454999999999,-0.1812015,0.4736225,0.0093144999999999,-0.2188315,0.2194324999999999,-0.0108945,0.1491384999999999,0.4732925,0.0163064999999999,0.1956885,0.2382925,-0.0449815,-0.1991115,0.0260085,-0.0872315,0.1340485,0.3263625,-0.2127215,-0.0721665,-0.0026555,0.0001714999999999,0.0721665,0.0026555,-0.0001715,-0.0917545,-0.3472575,0.0279335,0.0989924999999999,-0.3520474999999999,0.0470965,-0.0980205,-0.6621575,0.0736845,0.0930745,-0.6583375,0.0930275,0
7,-0.016197,0.756918,0.054106,-0.181087,0.473608,0.009429,-0.218797,0.219288,-0.010909,0.149113,0.4732679999999999,0.016341,0.196203,0.237008,-0.041301,-0.1991069999999999,0.0262589999999999,-0.087252,0.1359429999999999,0.322498,-0.207672,-0.072172,-0.0026509999999999,0.000224,0.072172,0.0026509999999999,-0.000224,-0.09169,-0.347292,0.027935,0.09897,-0.352182,0.047145,-0.098219,-0.662192,0.073525,0.0929099999999999,-0.658002,0.093129,0
8,-0.016215,0.7569545000000001,0.054372,-0.181065,0.4736045,0.009526,-0.218795,0.2193445,-0.010839,0.149075,0.4732645,0.0164199999999999,0.196235,0.2364544999999999,-0.041405,-0.199075,0.0262555,-0.087191,0.132695,0.3233645,-0.207801,-0.072169,-0.0026505,0.0002339999999999,0.072169,0.0026505,-0.000234,-0.091624,-0.3472555,0.027957,0.098999,-0.3521455,0.047126,-0.098201,-0.6620855,0.073568,0.092913,-0.6579254999999999,0.093137,0
9,-0.0162234999999999,0.756995,0.0546325,-0.1810554999999999,0.473615,0.0096374999999999,-0.2188054999999999,0.219385,-0.0107835,0.1490445,0.473265,0.0165124999999999,0.1962545,0.236455,-0.0413935,-0.1990255,0.026173,-0.0871395,0.1293345,0.323365,-0.2047495,-0.0721665,-0.002648,0.0002454999999999,0.0721665,0.002648,-0.0002455,-0.0915515,-0.3472449999999999,0.0279805,0.0990345,-0.352105,0.0471375,-0.0981914999999999,-0.662065,0.0736085,0.0929285,-0.657845,0.0931215,0
10,-0.016232,0.7570515,0.054883,-0.1810469999999999,0.4736215,0.0097359999999999,-0.218807,0.2194015,-0.0107249999999999,0.149013,0.4732615,0.016631,0.196233,0.2361815,-0.040913,-0.198967,0.0260894999999999,-0.087107,0.134473,0.3215915,-0.205197,-0.072165,-0.0026455,0.000265,0.072165,0.0026455,-0.000265,-0.0915189999999999,-0.3472285,0.027967,0.099054,-0.3520684999999999,0.047173,-0.098163,-0.6620585,0.073635,0.0929369999999999,-0.6577385,0.09312,0
11,-0.0162365,0.757098,0.055125,-0.1810405,0.473638,0.0098929999999999,-0.2188105,0.219418,-0.010666,0.1489995,0.473248,0.016776,0.1962395,0.2356079999999999,-0.040911,-0.1989105,0.02596,-0.087075,0.1262995,0.322198,-0.201405,-0.0721625,-0.0026439999999999,0.0002839999999999,0.0721625,0.0026439999999999,-0.0002839999999999,-0.0915145,-0.347222,0.027957,0.0990725,-0.352062,0.047199,-0.0981485,-0.6620119999999999,0.073657,0.0929374999999999,-0.6576219999999999,0.093116,0
12,-0.0162494999999999,0.7571455,0.0553754999999999,-0.1810155,0.4736754999999999,0.0100404999999999,-0.2188054999999999,0.2194355,-0.0106095,0.1489845,0.4732355,0.0169404999999999,0.1963445,0.2346755,-0.0401005,-0.1988455,0.0258125,-0.0870475,0.1309645,0.3233255,-0.2007875,-0.0721595,-0.0026405,0.0003024999999999,0.0721595,0.0026405,-0.0003025,-0.0914975,-0.3472245,0.0279594999999999,0.0990935,-0.3520845,0.0472235,-0.0981715,-0.6619845,0.0736655,0.0929375,-0.6575145,0.0931245,0
13,-0.0162764999999999,0.7571825,0.0556414999999999,-0.1810044999999999,0.4737125,0.0101865,-0.2188044999999999,0.2194424999999999,-0.0105525,0.1489655,0.4732325,0.0171245,0.1960955,0.2338124999999999,-0.0398305,-0.1987845,0.0256715,-0.0870315,0.1293355,0.3248225,-0.1978415,-0.0721585,-0.0026385,0.0003195,0.0721585,0.0026385,-0.0003195,-0.0914804999999999,-0.3472475,0.0279585,0.0991085,-0.3521275,0.0472475,-0.0981915,-0.6619275,0.0736715,0.0929415,-0.6574275,0.0931435,0
14,-0.0162954999999999,0.7572205,0.0559185,-0.1809835,0.4737505,0.0104065,-0.2188034999999999,0.2194405,-0.0105024999999999,0.1489465,0.4732105,0.0173145,0.1958965,0.2332405,-0.0393635,-0.1986935,0.0255325,-0.0870145,0.1287665,0.3233405,-0.1978845,-0.0721595,-0.0026355,0.0003324999999999,0.0721595,0.0026355,-0.0003324999999999,-0.0914794999999999,-0.3472694999999999,0.0279415,0.0991315,-0.3521594999999999,0.0472645,-0.0982255,-0.6619195,0.0736705,0.0929405,-0.6573995,0.0931635,0
15,-0.0163114999999999,0.7572495,0.0561865,-0.1809734999999999,0.4737895,0.0106454999999999,-0.2188034999999999,0.2194495,-0.0104435,0.1489365,0.4731795,0.0174975,0.1954365,0.2325295,-0.0394865,-0.1985935,0.0254405,-0.0870104999999999,0.1290665,0.3201595,-0.1995105,-0.0721595,-0.0026385,0.0003485,0.0721595,0.0026385,-0.0003485,-0.0914804999999999,-0.3472905,0.0279205,0.0991605,-0.3522004999999999,0.0472745,-0.0982475,-0.6619205,0.0736745,0.0929395,-0.6573805,0.0931775,0
16,-0.0163324999999999,0.757289,0.056482,-0.1809754999999999,0.473849,0.010878,-0.2187955,0.219489,-0.010379,0.1489345,0.473149,0.017681,0.1949445,0.232069,-0.0397499999999999,-0.1985055,0.0254,-0.086987,0.1279745,0.317299,-0.2018269999999999,-0.0721575,-0.002642,0.000363,0.0721575,0.002642,-0.0003629999999999,-0.0914905,-0.347311,0.027894,0.0991885,-0.352181,0.047267,-0.0982855,-0.661931,0.073635,0.0929525,-0.657371,0.093189,0
17,-0.0163635,0.7573105,0.0568594999999999,-0.1809825,0.4739105,0.0110944999999999,-0.2187825,0.2195305,-0.0102765,0.1489175,0.4731105,0.0178755,0.1942775,0.2319305,-0.0405335,-0.1984125,0.0253935,-0.0869875,0.1255975,0.3122105,-0.2042775,-0.0721565,-0.0026455,0.0003774999999999,0.0721565,0.0026455,-0.0003775,-0.0915075,-0.3473395,0.0278765,0.0992105,-0.3521495,0.0472505,-0.0982915,-0.6619395,0.0735945,0.0929895,-0.6573295,0.0931515,0
18,-0.0164075,0.7573235,0.0572155,-0.1810245,0.4739635,0.0112965,-0.2187945,0.2195734999999999,-0.0101725,0.1488955,0.4730735,0.0180605,0.1937855,0.2317235,-0.0407215,-0.1983845,0.0254065,-0.0870185,0.1261655,0.3125235,-0.2076885,-0.0721555,-0.0026505,0.0003864999999999,0.0721555,0.0026505,-0.0003864999999999,-0.0915555,-0.3473665,0.0278395,0.0992245,-0.3521065,0.0472225,-0.0983535,-0.6619965,0.0736135,0.0930305,-0.6572765,0.0931035,0
19,-0.0164365,0.7573365000000001,0.0576029999999999,-0.1810574999999999,0.4740164999999999,0.0115519999999999,-0.2187975,0.2196265,-0.010084,0.1489125,0.4730164999999999,0.0182509999999999,0.1936625,0.2311565,-0.040755,-0.1983675,0.0254195,-0.087057,0.1288125,0.3064765,-0.211947,-0.0721555,-0.0026575,0.0003989999999999,0.0721555,0.0026575,-0.000399,-0.0916164999999999,-0.3473935,0.0278109999999999,0.0992395,-0.3521235,0.0471989999999999,-0.0984134999999999,-0.6620935,0.0736419999999999,0.0931045,-0.6572835,0.093079,0
20,-0.0164619999999999,0.7573545,0.058001,-0.181111,0.4740645,0.0118329999999999,-0.218851,0.2196645,-0.009963,0.148919,0.4729644999999999,0.0184079999999999,0.193639,0.2307645,-0.040794,-0.198351,0.0254275,-0.087136,0.133909,0.3021045,-0.2166659999999999,-0.072153,-0.0026665,0.0004079999999999,0.072153,0.0026665,-0.000408,-0.0917089999999999,-0.3473955,0.0277499999999999,0.099241,-0.3521555,0.047191,-0.098467,-0.6621855,0.073655,0.093164,-0.6572755,0.093051,0
21,-0.0164895,0.757365,0.058445,-0.1811355,0.474075,0.0121409999999999,-0.2188955,0.219735,-0.009846,0.1489345,0.472905,0.01857,0.1936844999999999,0.230465,-0.040458,-0.1983355,0.025743,-0.087265,0.1314644999999999,0.296605,-0.2173749999999999,-0.0721495,-0.002673,0.0004139999999999,0.0721495,0.002673,-0.000414,-0.0918125,-0.347425,0.0277009999999999,0.0992185,-0.3521849999999999,0.047183,-0.0985775,-0.6623950000000001,0.0736759999999999,0.0932065,-0.6572650000000001,0.093036,0
22,-0.0165354999999999,0.757364,0.058959,-0.1811625,0.474084,0.01246,-0.2189225,0.2198339999999999,-0.0097869999999999,0.1489375,0.472854,0.018737,0.1936574999999999,0.230084,-0.040426,-0.1983525,0.026134,-0.0877339999999999,0.1260575,0.2971439999999999,-0.214164,-0.0721455,-0.002685,0.000419,0.0721455,0.002685,-0.0004189999999999,-0.0918935,-0.347436,0.027646,0.0991905,-0.352226,0.047174,-0.0986855,-0.662596,0.073711,0.0932305,-0.657376,0.093012,0
23,-0.0165755,0.757369,0.059541,-0.1811994999999999,0.474099,0.012693,-0.2189795,0.220029,-0.009772,0.1489405,0.472859,0.0188769999999999,0.1936205,0.230059,-0.0415839999999999,-0.1982595,0.026915,-0.088658,0.1260505,0.2955089999999999,-0.214928,-0.0721395,-0.002693,0.000417,0.0721395,0.002693,-0.000417,-0.0919794999999999,-0.347441,0.027599,0.0991525,-0.352281,0.04716,-0.0988155,-0.6627310000000001,0.0737869999999999,0.0932284999999999,-0.657521,0.092979,0
24,-0.0166185,0.7573545,0.0601755,-0.1812475,0.4740945,0.0128815,-0.2190875,0.2202845,-0.0098214999999999,0.1489125,0.4728745,0.0190325,0.1943825,0.2303445,-0.0415965,-0.1982375,0.0282875,-0.0905655,0.1296625,0.2905545,-0.2196355,-0.0721344999999999,-0.0026995,0.0004074999999999,0.0721344999999999,0.0026995,-0.0004074999999999,-0.0920855,-0.3474355,0.0275494999999999,0.0990844999999999,-0.3523755,0.0471425,-0.0989435,-0.6628955,0.0738645,0.0931984999999999,-0.6576555,0.0929585,0
25,-0.016664,0.7573195,0.060891,-0.181318,0.4741195,0.013082,-0.219368,0.2209694999999999,-0.0098789999999999,0.1489019999999999,0.4728895,0.019249,0.195202,0.2306895,-0.0423179999999999,-0.198158,0.0322075,-0.094484,0.129182,0.2892395,-0.219704,-0.072125,-0.0027075,0.0003999999999999,0.072125,0.0027075,-0.0003999999999999,-0.092204,-0.3474204999999999,0.027502,0.098966,-0.3525005,0.047172,-0.099086,-0.6630505,0.073935,0.093123,-0.6578105,0.092934,0
26,-0.0167084999999999,0.7572775,0.0615155,-0.1812415,0.4741375,0.0133004999999999,-0.2198815,0.2221074999999999,-0.0099405,0.1487885,0.4728975,0.0195204999999999,0.1959785,0.2310775,-0.0424885,-0.1980315,0.0375235,-0.0998985,0.1330385,0.2874775,-0.2251285,-0.0721135,-0.0027155,0.0003955,0.0721135,0.0027155,-0.0003955,-0.0923334999999999,-0.3474124999999999,0.0274694999999999,0.0988385,-0.3526924999999999,0.0472005,-0.0992035,-0.6631125,0.0740055,0.0930285,-0.6579925,0.0929125,0
27,-0.016685,0.7572385,0.0621895,-0.18105,0.4741685,0.0135045,-0.2207,0.2244085,-0.0101175,0.1487,0.4729685,0.0198275,0.19668,0.2314585,-0.0437724999999999,-0.19794,0.0453435,-0.1067775,0.13311,0.2874885,-0.2283274999999999,-0.072113,-0.0027185,0.0003814999999999,0.072113,0.0027185,-0.0003814999999999,-0.092441,-0.3474015,0.0274275,0.098723,-0.3529015,0.0471985,-0.099302,-0.6631315,0.0740195,0.092983,-0.6581715,0.0928525,0
28,-0.016626,0.7571785,0.062889,-0.180853,0.4741985,0.01364,-0.221713,0.2276185,-0.0105929999999999,0.148617,0.4733585,0.02019,0.197597,0.2318785,-0.045037,-0.197933,0.0556225,-0.116385,0.135847,0.2874885,-0.229965,-0.0721209999999999,-0.0027185,0.000348,0.0721209999999999,0.0027185,-0.000348,-0.092546,-0.3474015,0.027332,0.0986199999999999,-0.3531415,0.047166,-0.099472,-0.6633315,0.073972,0.0929349999999999,-0.6583315,0.092723,0
29,-0.0164775,0.757082,0.0636185,-0.1805795,0.474252,0.0137034999999999,-0.2236794999999999,0.231242,-0.0108135,0.1483405,0.474112,0.0205725,0.1996105,0.232582,-0.0465455,-0.1987495,0.070468,-0.1293515,0.1389705,0.293852,-0.2322115,-0.0721455,-0.002732,0.0003214999999999,0.0721455,0.002732,-0.0003215,-0.0926105,-0.347398,0.0271784999999999,0.0985555,-0.353398,0.0470685,-0.0995985,-0.6635279999999999,0.0737505,0.0929125,-0.658488,0.0925205,0
30,-0.0163085,0.7569465,0.0642905,-0.1802765,0.4743065,0.0137275,-0.2262265,0.2363364999999999,-0.0119705,0.1468235,0.4759465,0.0209365,0.2018135,0.2341565,-0.0468495,-0.2012165,0.0902065,-0.1440405,0.1434735,0.2999565,-0.2361404999999999,-0.0721735,-0.0027475,0.0003015,0.0721735,0.0027475,-0.0003014999999999,-0.0926765,-0.3474035,0.0269615,0.0984864999999999,-0.3535135,0.0469215,-0.0997365,-0.6637935,0.0733975,0.0928755,-0.6585735,0.0922535,0
31,-0.016116,0.7568035,0.0649285,-0.1799549999999999,0.4743335,0.0134205,-0.229775,0.2429335,-0.0150005,0.143695,0.4786435,0.0217825,0.204555,0.2391435,-0.0497315,-0.206015,0.1133135,-0.1615435,0.1497649999999999,0.3082535,-0.2420435,-0.072215,-0.0027615,0.0001545,0.072215,0.0027615,-0.0001544999999999,-0.092788,-0.3473865,0.0266345,0.0983879999999999,-0.3536265,0.0466215,-0.09989,-0.6641465000000001,0.0729425,0.0928249999999999,-0.6585565000000001,0.0918275,0
32,-0.015889,0.7566360000000001,0.0656415,-0.179561,0.474366,0.0130215,-0.233851,0.250666,-0.0207465,0.140599,0.481356,0.0225515,0.207939,0.244186,-0.0527294999999999,-0.210791,0.139576,-0.1802735,0.156749,0.318676,-0.2480434999999999,-0.072272,-0.002787,3.449999999999981e-05,0.072272,0.002787,-3.449999999999981e-05,-0.092871,-0.347344,0.0263045,0.098307,-0.353594,0.0462605,-0.1000119999999999,-0.6643439999999999,0.0724305,0.092812,-0.658524,0.0913345,0
33,-0.0156415,0.7564814999999999,0.0664255,-0.1789285,0.4744615,0.0125814999999999,-0.2411885,0.2598215,-0.0278455,0.1376414999999999,0.4840615,0.0232415,0.2127615,0.2502315,-0.0565685,-0.2156584999999999,0.1706715,-0.2011715,0.1570115,0.3277515,-0.2543415,-0.0723385,-0.0028235,-7.350000000000412e-05,0.0723385,0.0028235,7.349999999999718e-05,-0.0929265,-0.3472685,0.0259454999999999,0.0982695,-0.3535485,0.0458634999999999,-0.1000435,-0.6640085,0.0718165,0.0927955,-0.6584785000000001,0.0907995,0
34,-0.0153995,0.7563529999999999,0.0672955,-0.1778335,0.474623,0.0120985,-0.2483535,0.269013,-0.0394034999999999,0.1363464999999999,0.484573,0.0234185,0.2184465,0.256513,-0.0609305,-0.2212235,0.206613,-0.2239135,0.1645265,0.340613,-0.2607635,-0.0723995,-0.002861,-0.0002094999999999,0.0723995,0.002861,0.0002095,-0.0929805,-0.347177,0.0255305,0.0982855,-0.353487,0.0453825,-0.1000675,-0.6638270000000001,0.0711145,0.0927945,-0.658397,0.0902044999999999,0
35,-0.0151654999999999,0.7562490000000001,0.06847,-0.1769075,0.474799,0.0115269999999999,-0.2554575,0.278909,-0.051084,0.1353825,0.484739,0.023486,0.2249025,0.267019,-0.065217,-0.2271274999999999,0.246949,-0.24526,0.1733725,0.359129,-0.26851,-0.0724705,-0.002894,-0.0003389999999999,0.0724705,0.002894,0.0003389999999999,-0.0930135,-0.347081,0.0251109999999999,0.0983255,-0.353161,0.044879,-0.1001285,-0.663801,0.070332,0.0928165,-0.658301,0.089602,0
36,-0.0149644999999999,0.7562155,0.069916,-0.1760044999999999,0.4750455,0.011031,-0.2625645,0.2924855,-0.065939,0.1345755,0.4847955,0.023462,0.2331955,0.2800755,-0.073862,-0.2339045,0.2906255,-0.264682,0.1820155,0.3794055,-0.275132,-0.0725555,-0.0029265,-0.0004689999999999,0.0725555,0.0029265,0.000469,-0.0930425,-0.3469744999999999,0.024698,0.0983665,-0.3528245,0.044394,-0.1001695,-0.6637445,0.069569,0.0928485,-0.6581945,0.089026,0
37,-0.014758,0.756347,0.0714725,-0.175006,0.475457,0.0106685,-0.269436,0.307607,-0.0810005,0.133864,0.484967,0.0232845,0.241784,0.294047,-0.0827905,-0.241446,0.337697,-0.2810404999999999,0.191944,0.401307,-0.2803705,-0.072673,-0.002896,-0.0006144999999999,0.072673,0.002896,0.0006145,-0.093028,-0.346763,0.0243225,0.0984329999999999,-0.352193,0.0439225,-0.100199,-0.663523,0.0689115,0.0929379999999999,-0.657953,0.0884805,0
38,-0.0145554999999999,0.7565965,0.0731779999999999,-0.1739965,0.4759564999999999,0.010302,-0.2759164999999999,0.3250065,-0.0960349999999999,0.1337134999999999,0.4852165,0.023024,0.2505935,0.3110265,-0.0935749999999999,-0.2488465,0.3847465,-0.292705,0.2021234999999999,0.4301365,-0.2842449999999999,-0.0728145,-0.0028244999999999,-0.0007889999999999,0.0728145,0.0028244999999999,0.000789,-0.0929754999999999,-0.3464935,0.023994,0.0985274999999999,-0.3513335,0.043511,-0.1001725,-0.6633435,0.068275,0.0930645,-0.6576234999999999,0.0879979999999999,0
39,-0.014367,0.756751,0.075034,-0.17307,0.476481,0.010081,-0.28245,0.344891,-0.1113629999999999,0.13384,0.4854909999999999,0.022687,0.25983,0.329541,-0.1052529999999999,-0.2557399999999999,0.4321509999999999,-0.301243,0.21154,0.4598109999999999,-0.2843329999999999,-0.072917,-0.002695,-0.0009779999999999,0.072917,0.002695,0.000978,-0.092912,-0.346309,0.023718,0.098639,-0.350599,0.043144,-0.1001499999999999,-0.663129,0.067726,0.0932149999999999,-0.657359,0.087568,0
40,-0.0142459999999999,0.7568125,0.0770049999999999,-0.172234,0.4771625,0.010074,-0.287834,0.3660725,-0.125312,0.133976,0.4857125,0.0223809999999999,0.269066,0.3477025,-0.116292,-0.261074,0.4795425,-0.305762,0.221236,0.4914925,-0.284242,-0.073017,-0.0026315,-0.001069,0.073017,0.0026315,0.001069,-0.092821,-0.3461975,0.023569,0.098748,-0.3499575,0.042929,-0.1001239999999999,-0.6629174999999999,0.067365,0.093371,-0.6571775,0.087313,0
41,-0.0142299999999999,0.7568205,0.0790525,-0.1714839999999999,0.4778205,0.0101265,-0.292614,0.3896405,-0.1361955,0.134076,0.4858305,0.0221934999999999,0.277986,0.3684305,-0.1273955,-0.2672339999999999,0.5283805,-0.3074355,0.230436,0.5235905,-0.2840455,-0.073073,-0.0026435,-0.0012225,0.073073,0.0026435,0.0012225,-0.092766,-0.3461595,0.0234445,0.098822,-0.3493795,0.0428145,-0.100044,-0.6629295,0.0671705,0.09351,-0.6570395,0.0871705,0
42,-0.0142395,0.756872,0.0809935,-0.1709935,0.479172,0.0101605,-0.2938435,0.419492,-0.1449785,0.1353265,0.485652,0.0220895,0.2849965,0.391452,-0.1359785,-0.2734135,0.5766720000000001,-0.3078785,0.2393165,0.558552,-0.2834184999999999,-0.0731375,-0.002653,-0.0014114999999999,0.0731375,0.002653,0.0014114999999999,-0.0927235,-0.346078,0.0233135,0.0988755,-0.3491479999999999,0.0427355,-0.0999635,-0.6629579999999999,0.0669765,0.0936164999999999,-0.656988,0.0870335,0
43,-0.0142165,0.7568985,0.0827405,-0.1709015,0.4811085,0.0102535,-0.2949915,0.4499585,-0.1485564999999999,0.1383285,0.4851385,0.0216135,0.2911085,0.4175685,-0.1433265,-0.2792415,0.6202985,-0.3082565,0.2474684999999999,0.5930185,-0.2821365,-0.0732134999999999,-0.0025694999999999,-0.0015464999999999,0.0732134999999999,0.0025694999999999,0.0015465,-0.0926464999999999,-0.3460415,0.0232275,0.0989595,-0.3490115,0.0426785,-0.0998614999999999,-0.6628615,0.0668344999999999,0.0937564999999999,-0.6570415,0.0869065,0
44,-0.0141764999999999,0.7568395,0.084232,-0.1707555,0.4832295,0.010378,-0.2956955,0.4816395,-0.151036,0.1414945,0.4848995,0.021264,0.2963245,0.4417095,-0.148446,-0.2850555,0.6600095,-0.308586,0.2555345,0.6233595000000001,-0.279096,-0.0733125,-0.0023305,-0.001635,0.0733125,0.0023305,0.001635,-0.0925955,-0.3461605,0.023146,0.0990515,-0.3491005,0.042656,-0.0997455,-0.6628404999999999,0.066775,0.0939085,-0.6572605,0.08683,0
45,-0.0141179999999999,0.7565605,0.0854635,-0.170513,0.4857205,0.0105825,-0.2958329999999999,0.5103804999999999,-0.1510615,0.144947,0.4844105,0.0209865,0.299647,0.4638705,-0.1483315,-0.290583,0.6963604999999999,-0.3055115,0.264047,0.6517605,-0.2757015,-0.073431,-0.0020565,-0.0016844999999999,0.073431,0.0020565,0.0016845,-0.0925209999999999,-0.3464795,0.0231285,0.099076,-0.3493695,0.0426365,-0.099603,-0.6631595,0.0667595,0.0941289999999999,-0.6577295000000001,0.0868215,0
46,-0.0140159999999999,0.755969,0.086513,-0.170206,0.4885989999999999,0.011227,-0.2956459999999999,0.537829,-0.151,0.146934,0.483589,0.021103,0.302624,0.486079,-0.14815,-0.295506,0.727129,-0.29792,0.272554,0.678639,-0.26985,-0.073506,-0.0017929999999999,-0.0017409999999999,0.073506,0.0017929999999999,0.001741,-0.092388,-0.347081,0.023187,0.099141,-0.350081,0.042693,-0.099396,-0.663801,0.06683,0.094398,-0.658511,0.086894,0
47,-0.013877,0.755117,0.087344,-0.169861,0.491557,0.011955,-0.295421,0.563877,-0.150879,0.148809,0.482667,0.0212079999999999,0.304269,0.505937,-0.147969,-0.300171,0.755647,-0.2889089999999999,0.280379,0.706147,-0.261969,-0.073554,-0.001527,-0.001855,0.073554,0.001527,0.0018549999999999,-0.092233,-0.347753,0.02323,0.099248,-0.351083,0.042809,-0.0991809999999999,-0.664683,0.06695,0.094698,-0.659553,0.087004,0
48,-0.0137185,0.7537255,0.08793,-0.1695034999999999,0.4947055,0.012711,-0.2952234999999999,0.5868655,-0.148805,0.1506165,0.4816755,0.021427,0.3051765,0.5248355,-0.147415,-0.3037435,0.7793355,-0.279275,0.2879065,0.7304455,-0.253345,-0.0735755,-0.0012445,-0.001999,0.0735755,0.0012445,0.001999,-0.0920545,-0.3486944999999999,0.023238,0.0993455,-0.3525745,0.042945,-0.0988935,-0.6660445,0.0670989999999999,0.0950325,-0.6610945,0.087142,0
49,-0.013487,0.7519825,0.0882655,-0.169147,0.4981224999999999,0.0136705,-0.294877,0.6077024999999999,-0.1454525,0.152493,0.4827525,0.0217565,0.3054329999999999,0.5419824999999999,-0.1454825,-0.306707,0.8008525,-0.2683925,0.2949429999999999,0.7521025,-0.2440325,-0.073596,-0.0009855,-0.0021265,0.073596,0.0009854999999999,0.0021265,-0.091803,-0.3498075,0.0232795,0.0995149999999999,-0.3544175,0.0431185,-0.098527,-0.6677675000000001,0.0673095,0.0954269999999999,-0.6629975,0.0873285,0
50,-0.0132509999999999,0.7496755,0.088583,-0.168817,0.5014455,0.01477,-0.293527,0.6255555,-0.14042,0.154293,0.4840655,0.022188,0.305593,0.5575955,-0.14038,-0.308887,0.8202655,-0.2561799999999999,0.301223,0.7704155,-0.2334,-0.073583,-0.0007844999999999,-0.002146,0.073583,0.0007845,0.002146,-0.091574,-0.3513645,0.023425,0.099699,-0.3567645,0.043337,-0.098147,-0.6702745,0.067646,0.095825,-0.6654945,0.087627,0
51,-0.013051,0.747097,0.088974,-0.168417,0.5041070000000001,0.015782,-0.2911169999999999,0.635957,-0.133913,0.156073,0.4860669999999999,0.022747,0.305673,0.570647,-0.133563,-0.3107069999999999,0.8346070000000001,-0.244603,0.306253,0.784267,-0.222493,-0.073557,-0.000672,-0.0021019999999999,0.073557,0.0006719999999999,0.002102,-0.091362,-0.353203,0.023646,0.09988,-0.359183,0.043576,-0.097777,-0.673133,0.068055,0.0962,-0.668353,0.087995,0
52,-0.0129025,0.744428,0.0894705,-0.1678645,0.506318,0.0168384999999999,-0.2884645,0.646128,-0.1262775,0.1577154999999999,0.4880379999999999,0.0234874999999999,0.3052855,0.581938,-0.1247775,-0.3119545,0.846348,-0.2329574999999999,0.3111155,0.796758,-0.2104975,-0.0735105,-0.000601,-0.0019665,0.0735105,0.0006009999999999,0.0019664999999999,-0.0911655,-0.355172,0.0239504999999999,0.1000504999999999,-0.361692,0.0438815,-0.0974145,-0.676382,0.0685155,0.0965655,-0.671432,0.0884404999999999,0
53,-0.0127654999999999,0.7416785,0.0898245,-0.1673405,0.5084485,0.0179465,-0.2857405,0.6547185,-0.1181935,0.1592495,0.4899685,0.0243415,0.3042495,0.5916885,-0.1149535,-0.3127405,0.8566984999999999,-0.2210535,0.3154794999999999,0.8113985,-0.1974235,-0.0734445,-0.0005714999999999,-0.0017505,0.0734445,0.0005714999999999,0.0017504999999999,-0.0909565,-0.3573214999999999,0.0243115,0.1001845,-0.3639914999999999,0.0441345,-0.0970605,-0.6793915,0.0691104999999999,0.0969235,-0.6747115,0.0889355,0
54,-0.01266,0.7388785,0.0900789999999999,-0.166707,0.5102085,0.0190289999999999,-0.283187,0.6635185,-0.110616,0.160423,0.4914685,0.0252709999999999,0.3034929999999999,0.6020385,-0.106566,-0.312887,0.8642685,-0.209156,0.3190329999999999,0.8253985,-0.184546,-0.073359,-0.0005754999999999,-0.001464,0.073359,0.0005754999999999,0.0014639999999999,-0.090751,-0.3596015,0.0248139999999999,0.100416,-0.3662915,0.044487,-0.096717,-0.6826015,0.06981,0.097279,-0.6781015,0.089589,0
55,-0.012625,0.736231,0.0901785,-0.166064,0.511601,0.0200095,-0.280724,0.671891,-0.1034235,0.161466,0.4927209999999999,0.0261475,0.302516,0.611761,-0.0985935,-0.313094,0.871481,-0.1965434999999999,0.321666,0.835721,-0.1719735,-0.073263,-0.000561,-0.0011714999999999,0.073263,0.0005609999999999,0.0011714999999999,-0.090597,-0.361739,0.0253515,0.100608,-0.368399,0.0448575,-0.0964039999999999,-0.685739,0.0705445,0.09761,-0.681409,0.0902835,0
56,-0.0126279999999999,0.7336555,0.090095,-0.165485,0.5130055,0.020922,-0.278535,0.6791255,-0.096731,0.162305,0.4938054999999999,0.027025,0.301485,0.6208555,-0.090801,-0.313305,0.8764455000000001,-0.1844509999999999,0.324125,0.8424455000000001,-0.1590909999999999,-0.0731469999999999,-0.0005585,-0.000871,0.0731469999999999,0.0005585,0.0008709999999999,-0.09047,-0.3639245,0.025924,0.100758,-0.3703345,0.045162,-0.0960649999999999,-0.6889445,0.0712609999999999,0.097919,-0.6847145,0.09096,0
57,-0.0127189999999999,0.731404,0.0897835,-0.165039,0.5141340000000001,0.0218044999999999,-0.276439,0.685354,-0.0907515,0.163071,0.495094,0.0278905,0.300351,0.628834,-0.0835315,-0.313519,0.880764,-0.1728215,0.326361,0.8489340000000001,-0.1460515,-0.073052,-0.000606,-0.0005575,0.073052,0.0006059999999999,0.0005574999999999,-0.090365,-0.366016,0.0265795,0.100888,-0.371896,0.0455365,-0.095758,-0.691896,0.0720285,0.098195,-0.687786,0.0916724999999999,0
58,-0.0129039999999999,0.729228,0.0893045,-0.164786,0.5146179999999999,0.0226215,-0.274686,0.690838,-0.0853235,0.163694,0.496478,0.0287875,0.298924,0.635968,-0.0764835,-0.313606,0.8837379999999999,-0.1620935,0.327944,0.8546579999999999,-0.1340735,-0.072958,-0.000717,-0.0002264999999999,0.072958,0.0007169999999999,0.0002264999999999,-0.090335,-0.3679719999999999,0.0271625,0.100942,-0.373382,0.0459065,-0.0955409999999999,-0.694872,0.0727985,0.098388,-0.6908120000000001,0.0924185,0
59,-0.0131119999999999,0.7273455,0.088736,-0.164582,0.5150155,0.023352,-0.2731619999999999,0.6958755,-0.0806959999999999,0.1643379999999999,0.4982855,0.029837,0.297448,0.6424755,-0.0700259999999999,-0.313212,0.8842255,-0.152376,0.329158,0.8611755,-0.122936,-0.07289,-0.0007935,-2.3999999999996247e-05,0.07289,0.0007935,2.4000000000003185e-05,-0.0902939999999999,-0.3696145,0.027701,0.10097,-0.3744245,0.04622,-0.0953449999999999,-0.6974045,0.073565,0.098553,-0.6935245,0.093098,0
60,-0.0133275,0.7256875,0.088154,-0.1644555,0.5154274999999999,0.0240589999999999,-0.2719955,0.7009375,-0.076319,0.1647745,0.4995175,0.0309339999999999,0.2959945,0.6485875000000001,-0.063639,-0.3126755,0.8853774999999999,-0.142599,0.3301145,0.8680675,-0.1118889999999999,-0.0728385,-0.0008475,0.000125,0.0728385,0.0008475,-0.000125,-0.0902735,-0.3709925,0.02819,0.1010005,-0.3754625,0.0465509999999999,-0.0951705,-0.6997225,0.074301,0.0987325,-0.6959925,0.093754,0
61,-0.0135409999999999,0.7241825,0.0875104999999999,-0.164326,0.5159925,0.0246105,-0.271246,0.7055925,-0.0721614999999999,0.165194,0.5005225,0.0319345,0.294774,0.6536225,-0.0582165,-0.311976,0.8868425,-0.1331215,0.330624,0.8750125,-0.1019515,-0.072795,-0.0008885,0.0002155,0.072795,0.0008885,-0.0002155,-0.090241,-0.3721475,0.0286165,0.10104,-0.3763174999999999,0.0468315,-0.094994,-0.7018375,0.0749595,0.098918,-0.6981975,0.0943065,0
62,-0.0137949999999999,0.7228995,0.0868105,-0.1641989999999999,0.5165595000000001,0.0249945,-0.270619,0.7097595000000001,-0.0685414999999999,0.165521,0.5013795000000001,0.0328765,0.293581,0.6584295,-0.0530404999999999,-0.311239,0.8880695000000001,-0.1243914999999999,0.330431,0.8782295,-0.0940514999999999,-0.072764,-0.0009184999999999,0.0002545,0.072764,0.0009185,-0.0002544999999999,-0.090237,-0.3730405,0.0289415,0.101087,-0.3772905,0.0471645,-0.094843,-0.7037005000000001,0.0755525,0.099084,-0.7002005,0.0948195,0
63,-0.0140554999999999,0.7217415,0.0860829999999999,-0.1640915,0.5171715,0.0252619999999999,-0.2701115,0.7119915,-0.064845,0.1657885,0.5026315,0.0339639999999999,0.2922285,0.6622015,-0.048255,-0.3112115,0.8900415,-0.116745,0.3301985,0.8807615,-0.086135,-0.0727245,-0.0009284999999999,0.0002609999999999,0.0727245,0.0009284999999999,-0.000261,-0.0902915,-0.3737685,0.0291499999999999,0.1010875,-0.3782085,0.047402,-0.0947355,-0.7054285,0.0760329999999999,0.0991785,-0.7020485,0.0952399999999999,0
64,-0.0143439999999999,0.7206085,0.085404,-0.164085,0.5176685000000001,0.025546,-0.269675,0.7134685000000001,-0.061298,0.166025,0.5038985,0.035029,0.290885,0.6658885,-0.043724,-0.310845,0.8919085,-0.110078,0.329945,0.8834385,-0.078638,-0.07269,-0.0009585,0.0002459999999999,0.07269,0.0009585,-0.000246,-0.090364,-0.3746015,0.029328,0.10103,-0.3791515,0.047589,-0.094679,-0.7071415,0.076487,0.099226,-0.7038614999999999,0.095648,0
65,-0.0146544999999999,0.719562,0.084787,-0.1641635,0.518042,0.0257379999999999,-0.2692635,0.714932,-0.057963,0.1660765,0.5051420000000001,0.0361009999999999,0.2893865,0.669682,-0.039609,-0.3104735,0.893892,-0.103609,0.3295265,0.8853420000000001,-0.072029,-0.0726585,-0.000948,0.0002049999999999,0.0726585,0.0009479999999999,-0.000205,-0.0904524999999999,-0.375498,0.0295309999999999,0.1009295,-0.380048,0.04776,-0.0946675,-0.708788,0.076926,0.0992635,-0.7055079999999999,0.0960669999999999,0
66,-0.0148604999999999,0.71858,0.0842025,-0.1642805,0.51836,0.0260065,-0.2688505,0.7163700000000001,-0.0548005,0.1660695,0.50648,0.0370475,0.2878294999999999,0.67337,-0.0358104999999999,-0.3101905,0.89609,-0.0960234999999999,0.3290094999999999,0.8869900000000001,-0.0658335,-0.0726275,-0.000903,0.0001375,0.0726275,0.000903,-0.0001374999999999,-0.0905364999999999,-0.37631,0.0296345,0.1008185,-0.38095,0.0478715,-0.0946545,-0.71034,0.0772815,0.0992775,-0.7070299999999999,0.0964075,0
67,-0.014998,0.7176285,0.0837795,-0.16438,0.5186585,0.0263245,-0.2684999999999999,0.7176985,-0.0518345,0.16604,0.5078785,0.0379265,0.28621,0.6768084999999999,-0.0323085,-0.30983,0.8980684999999999,-0.0891195,0.328,0.8883584999999999,-0.0598395,-0.072606,-0.0008165,4.250000000000087e-05,0.072606,0.0008164999999999,-4.250000000000087e-05,-0.0906049999999999,-0.3772115,0.0297885,0.100686,-0.3818114999999999,0.0479965,-0.094623,-0.7117115,0.0775985,0.099304,-0.7084515,0.0967045,0
68,-0.015122,0.7167739999999999,0.083375,-0.164462,0.519134,0.026607,-0.268242,0.7186739999999999,-0.049209,0.166038,0.5088239999999999,0.038586,0.284518,0.6797839999999999,-0.0290909999999999,-0.309492,0.899504,-0.083803,0.326388,0.889274,-0.0542089999999999,-0.072589,-0.0007549999999999,-2.4999999999997247e-05,0.072589,0.0007549999999999,2.5000000000004186e-05,-0.090684,-0.378156,0.029905,0.100513,-0.382696,0.048128,-0.094716,-0.7129960000000001,0.077792,0.099308,-0.7097760000000001,0.096964,0
69,-0.0152015,0.7159935000000001,0.082933,-0.1645255,0.5197235,0.0268479999999999,-0.2679855,0.7194135,-0.046813,0.1659845,0.5096035,0.0391279999999999,0.2828245,0.6825035,-0.0261809999999999,-0.3091655,0.9005135000000001,-0.079144,0.3242945,0.8897835000000001,-0.049129,-0.0725635,-0.0006824999999999,-7.599999999999968e-05,0.0725635,0.0006825,7.599999999999968e-05,-0.0907755,-0.3790565,0.0300199999999999,0.1003035,-0.3834465,0.048234,-0.0948305,-0.7143665,0.077973,0.0992915,-0.7110265,0.097198,0
70,-0.01518,0.7152625,0.0825525,-0.164539,0.5201625,0.0270744999999999,-0.267619,0.7198225,-0.0446784999999999,0.1658609999999999,0.5104725,0.0396505,0.281031,0.6855525,-0.0234785,-0.308939,0.9011525,-0.0751115,0.321831,0.8902924999999999,-0.0441514999999999,-0.072564,-0.0005985,-0.0001374999999999,0.072564,0.0005985,0.0001374999999999,-0.090858,-0.3799275,0.0301094999999999,0.100094,-0.3840975,0.0483035,-0.094927,-0.7156975,0.0781455,0.099287,-0.7122675,0.0973745,0
71,-0.015165,0.7145705,0.082249,-0.164556,0.5205105000000001,0.02732,-0.267256,0.7199405000000001,-0.0427119999999999,0.165444,0.5114004999999999,0.04015,0.279284,0.6885805,-0.020891,-0.308706,0.9014105,-0.071736,0.319104,0.8906105,-0.0396749999999999,-0.0725639999999999,-0.0005245,-0.0001869999999999,0.0725639999999999,0.0005244999999999,0.0001869999999999,-0.090929,-0.3807295,0.030209,0.099888,-0.3846495,0.048352,-0.095043,-0.7168995,0.078296,0.099271,-0.7134095,0.097537,0
72,-0.0151525,0.7140385,0.0819469999999999,-0.1645645,0.5207485000000001,0.027588,-0.2668745,0.7199085000000001,-0.040989,0.1649755,0.5118285,0.040391,0.2776955,0.6915585,-0.0185579999999999,-0.3085545,0.9015785,-0.068345,0.3162955,0.8908485,-0.0357699999999999,-0.0725615,-0.0004784999999999,-0.0002329999999999,0.0725615,0.0004784999999999,0.000233,-0.0909775,-0.3813815,0.030268,0.0996745,-0.3849714999999999,0.048391,-0.0951445,-0.7178615,0.07843,0.0992415,-0.7143415,0.097696,0
73,-0.015156,0.7135235,0.0816575,-0.164535,0.5209135,0.0278205,-0.266465,0.7198335,-0.0393634999999999,0.164435,0.5122335,0.0406165,0.276225,0.6942735,-0.0164104999999999,-0.308385,0.9016535,-0.0652804999999999,0.313245,0.8911235,-0.0319585,-0.072541,-0.0004154999999999,-0.0002734999999999,0.072541,0.0004154999999999,0.0002735,-0.0910459999999999,-0.3819365,0.0303145,0.0994319999999999,-0.3851865,0.0484445,-0.0952649999999999,-0.7186465,0.0785605,0.099193,-0.7151065,0.0978705,0
74,-0.015099,0.7131409999999999,0.0813595,-0.164509,0.521091,0.0280484999999999,-0.266099,0.7197009999999999,-0.0379605,0.163851,0.512571,0.0408054999999999,0.274951,0.6962809999999999,-0.0144285,-0.308229,0.901621,-0.0628065,0.310301,0.8914409999999999,-0.0282935,-0.072525,-0.000383,-0.0002915,0.072525,0.0003829999999999,0.0002915,-0.091116,-0.382389,0.0303204999999999,0.099211,-0.3853689999999999,0.0485035,-0.095409,-0.7193590000000001,0.0786534999999999,0.099134,-0.7157690000000001,0.0980125,0
75,-0.0150254999999999,0.7128085000000001,0.0811689999999999,-0.1644585,0.5211985,0.028255,-0.2658085,0.7195585,-0.0367399999999999,0.1631915,0.5126585,0.040989,0.2738915,0.6980385,-0.012652,-0.3081185,0.9012785,-0.062089,0.3075414999999999,0.8914885,-0.025055,-0.0725225,-0.0003584999999999,-0.000328,0.0725225,0.0003585,0.000328,-0.0911905,-0.3827715,0.030335,0.0990015,-0.3854714999999999,0.048546,-0.0955685,-0.7199715,0.078751,0.0990765,-0.7163315,0.098147,0
76,-0.014893,0.7126435,0.0809655,-0.164388,0.5213435,0.0284234999999999,-0.265578,0.7194235,-0.0356795,0.162542,0.5125934999999999,0.0410595,0.273022,0.6996435,-0.0110635,-0.3081779999999999,0.9010035,-0.0613724999999999,0.305272,0.8916335,-0.0224155,-0.072525,-0.0003545,-0.0003744999999999,0.072525,0.0003545,0.0003744999999999,-0.091252,-0.3830964999999999,0.0303104999999999,0.098834,-0.3855065,0.0485445,-0.095708,-0.7204665,0.0787954999999999,0.099037,-0.7167865,0.0982545,0
77,-0.014737,0.7125400000000001,0.080827,-0.1643089999999999,0.5213300000000001,0.028582,-0.265489,0.71929,-0.0348069999999999,0.161981,0.51226,0.041184,0.2723609999999999,0.70109,-0.0096699999999999,-0.308229,0.90074,-0.060654,0.303481,0.89183,-0.0203229999999999,-0.072541,-0.000346,-0.0004189999999999,0.072541,0.0003459999999999,0.000419,-0.091308,-0.38332,0.030278,0.098696,-0.38554,0.048578,-0.095809,-0.72093,0.078847,0.099005,-0.71715,0.098383,0
78,-0.014616,0.7124905,0.080755,-0.164268,0.5212205000000001,0.0286919999999999,-0.265488,0.7191505,-0.034085,0.1615019999999999,0.5119105,0.041225,0.271862,0.7025205,-0.008489,-0.308258,0.9003905,-0.060371,0.302112,0.8918805000000001,-0.018646,-0.072555,-0.0003425,-0.000467,0.072555,0.0003425,0.0004669999999999,-0.091338,-0.3834595,0.030236,0.0985719999999999,-0.3855695,0.048627,-0.095918,-0.7213695,0.0788939999999999,0.0989769999999999,-0.7174094999999999,0.09847,0
79,-0.0145,0.712502,0.0807175,-0.164242,0.5210619999999999,0.0288135,-0.265522,0.719062,-0.0334815,0.161108,0.511632,0.0412305,0.2715479999999999,0.703202,-0.0074584999999999,-0.308412,0.900342,-0.0596285,0.3011479999999999,0.891952,-0.0173294999999999,-0.072569,-0.0003509999999999,-0.0005144999999999,0.072569,0.0003509999999999,0.0005145,-0.091377,-0.383528,0.0301875,0.0984599999999999,-0.385578,0.0486775,-0.096012,-0.721758,0.0789475,0.0989569999999999,-0.717588,0.0985665,0
80,-0.0143825,0.71253,0.080678,-0.1641535,0.52093,0.0289009999999999,-0.2655435,0.71907,-0.032985,0.1608065,0.51142,0.041233,0.2713264999999999,0.7034699999999999,-0.006672,-0.3086735,0.90027,-0.058924,0.3004664999999999,0.89206,-0.016132,-0.0725905,-0.0003589999999999,-0.00055,0.0725905,0.000359,0.0005499999999999,-0.0914005,-0.38361,0.0301429999999999,0.0983555,-0.38558,0.0487079999999999,-0.0960935,-0.72197,0.0790019999999999,0.0989555,-0.7177100000000001,0.098609,0
81,-0.01428,0.7125465,0.0807145,-0.1640589999999999,0.5208265,0.0289895,-0.265559,0.7190865,-0.0325324999999999,0.160601,0.5111165,0.0412565,0.271161,0.7034865,-0.0059794999999999,-0.309009,0.9001764999999999,-0.0582115,0.300021,0.8921565,-0.0150334999999999,-0.072606,-0.0003464999999999,-0.0005835,0.072606,0.0003464999999999,0.0005835,-0.091421,-0.3837035,0.0301365,0.098272,-0.3856035,0.0487365,-0.096179,-0.7222135000000001,0.0790635,0.09895,-0.7178135,0.0986345,0
82,-0.0142275,0.7126535,0.0807175,-0.1639875,0.5208035,0.0290435,-0.2656575,0.7192135000000001,-0.0321805,0.1604624999999999,0.5106935,0.0412515,0.2710525,0.7034035000000001,-0.0054364999999999,-0.3097075,0.9001435,-0.0577405,0.2999425,0.8922235000000001,-0.0144064999999999,-0.0726125,-0.0003545,-0.0005844999999999,0.0726125,0.0003545,0.0005845,-0.0914445,-0.3836865,0.0301025,0.0982255,-0.3856165,0.0487345,-0.0962375,-0.7222965,0.0790715,0.0989475,-0.7177865,0.0986295,0
83,-0.0141715,0.7127524999999999,0.0807145,-0.1639165,0.5207824999999999,0.0291174999999999,-0.2658065,0.7193225000000001,-0.0318305,0.1603835,0.5101625000000001,0.0412424999999999,0.2709735,0.7033425,-0.0049825,-0.3104465,0.9001224999999999,-0.0573165,0.2999334999999999,0.8922524999999999,-0.0139005,-0.0726245,-0.0003575,-0.0005905,0.0726245,0.0003574999999999,0.0005905,-0.0914625,-0.3836475,0.0300594999999999,0.0982005,-0.3856175,0.0487374999999999,-0.0962465,-0.7223875,0.0790714999999999,0.0989515,-0.7177475,0.0986245,0
84,-0.0141145,0.7128694999999999,0.080707,-0.1638425,0.5208195,0.0291799999999999,-0.2659925,0.7194695,-0.0315089999999999,0.1603475,0.5095695,0.041226,0.2709074999999999,0.7033395,-0.0045229999999999,-0.3112025,0.9001895,-0.056896,0.2999275,0.8922494999999999,-0.01353,-0.0726375,-0.0003545,-0.000605,0.0726375,0.0003545,0.000605,-0.0914784999999999,-0.3835405,0.0300159999999999,0.0981815,-0.3856205,0.04875,-0.0962925,-0.7224505,0.079055,0.0989724999999999,-0.7177605,0.098606,0
85,-0.0140665,0.7129095,0.0807465,-0.1637715,0.5208695,0.0292535,-0.2662515,0.7196494999999999,-0.0311944999999999,0.1603385,0.5087995,0.0411865,0.2708985,0.7032495,-0.0041365,-0.3119214999999999,0.9001895,-0.0566795,0.2999185,0.8922795,-0.0131654999999999,-0.0726475,-0.0003545,-0.0006234999999999,0.0726475,0.0003545,0.0006234999999999,-0.0914975,-0.3833605,0.0299515,0.0981705,-0.3856205,0.0487315,-0.0963215,-0.7225305000000001,0.0790355,0.0989935,-0.7176905,0.0986275,0
86,-0.01402,0.7129300000000001,0.0807885,-0.163699,0.52091,0.0293395,-0.266509,0.7198100000000001,-0.0309424999999999,0.160321,0.50804,0.0411395,0.270901,0.70303,-0.0038214999999999,-0.312669,0.90025,-0.0563115,0.299961,0.89226,-0.0128905,-0.072661,-0.000371,-0.0006294999999999,0.072661,0.0003709999999999,0.0006294999999999,-0.091512,-0.3832,0.0298855,0.098183,-0.38563,0.0487185,-0.096319,-0.72272,0.0790455,0.099017,-0.71764,0.0986495,0
87,-0.013981,0.712947,0.0808155,-0.163636,0.5209469999999999,0.0294215,-0.266776,0.720017,-0.0307224999999999,0.160324,0.507257,0.0411065,0.2708939999999999,0.702777,-0.0035584999999999,-0.313236,0.900327,-0.0558855,0.300054,0.8922169999999999,-0.0127854999999999,-0.0726759999999999,-0.000383,-0.0006304999999999,0.0726759999999999,0.000383,0.0006304999999999,-0.091554,-0.3830829999999999,0.0297815,0.098184,-0.385633,0.0487015,-0.096316,-0.722843,0.0789865,0.099052,-0.717573,0.0986095,0
88,-0.013957,0.7129635,0.0808315,-0.163585,0.5209834999999999,0.0294735,-0.267015,0.7202035,-0.0305275,0.1603149999999999,0.5064235,0.0410554999999999,0.270915,0.7024535,-0.0034285,-0.313255,0.9004635,-0.0557164999999999,0.300195,0.8922335,-0.0127405,-0.072682,-0.0003965,-0.0006325,0.072682,0.0003965,0.0006325,-0.091595,-0.3830065,0.0296704999999999,0.098173,-0.3856465,0.0486725,-0.096325,-0.7229665000000001,0.0789145,0.099075,-0.7175565,0.0985385,0
89,-0.0139235,0.7129595,0.0808085,-0.1635194999999999,0.5210294999999999,0.0295145,-0.2671295,0.7203295,-0.0303704999999999,0.1603204999999999,0.5058294999999999,0.0409645,0.2710005,0.7022594999999999,-0.0034224999999999,-0.3132495,0.9007195,-0.0557764999999999,0.3003905,0.8922694999999999,-0.0128174999999999,-0.0726835,-0.0004065,-0.0006424999999999,0.0726835,0.0004064999999999,0.0006425,-0.0916205,-0.3829504999999999,0.0295345,0.0981965,-0.3856604999999999,0.0485925,-0.0963095,-0.7231105,0.0788295,0.0991245,-0.7175305000000001,0.0984555,0
90,-0.0138879999999999,0.7129755,0.0807455,-0.163455,0.5210855,0.0295285,-0.267165,0.7204754999999999,-0.0303075,0.160405,0.5054255,0.0408474999999999,0.271145,0.7021054999999999,-0.0035325,-0.313245,0.9009955,-0.0558925,0.300615,0.8923255,-0.0129244999999999,-0.072683,-0.0004074999999999,-0.0006595,0.072683,0.0004074999999999,0.0006595,-0.0916579999999999,-0.3829345,0.0293654999999999,0.09825,-0.3856845,0.0484785,-0.096255,-0.7232845,0.0787085,0.099168,-0.7175145,0.0983415,0
91,-0.0138385,0.71303,0.0806274999999999,-0.1633855,0.52114,0.0295185,-0.2671655,0.72063,-0.0303965,0.1604845,0.50521,0.0406535,0.2713445,0.70203,-0.0036964999999999,-0.3131955,0.90129,-0.0560624999999999,0.3008845,0.89241,-0.0130844999999999,-0.0726914999999999,-0.0004139999999999,-0.0006395,0.0726914999999999,0.000414,0.0006395,-0.0917115,-0.38292,0.0291445,0.0983135,-0.38569,0.0483085,-0.0961955,-0.72348,0.0785225,0.0992385,-0.71748,0.0981555,0
92,-0.0137605,0.7130745,0.080394,-0.1633315,0.5212145,0.02944,-0.2671715,0.7207545,-0.0306339999999999,0.1605484999999999,0.5052145,0.040419,0.2716085,0.7019145,-0.0039229999999999,-0.3129515,0.9015445,-0.0562889999999999,0.3012485,0.8923745,-0.0133309999999999,-0.0726965,-0.0004185,-0.0006419999999999,0.0726965,0.0004184999999999,0.000642,-0.0917885,-0.3829555,0.028857,0.0983904999999999,-0.3857255,0.048075,-0.0961315,-0.7236155,0.078226,0.0993064999999999,-0.7174955,0.097878,0
93,-0.0136589999999999,0.7131145,0.0800135,-0.1632279999999999,0.5213045,0.0292235,-0.2671779999999999,0.7208745,-0.0310184999999999,0.160692,0.5052145,0.0400405,0.271942,0.7017845,-0.0043575,-0.312598,0.9018145,-0.0569145,0.301702,0.8923245,-0.0140785,-0.0727,-0.0004185,-0.0006234999999999,0.0727,0.0004184999999999,0.0006234999999999,-0.0918259999999999,-0.3831055,0.0283885,0.098505,-0.3858155,0.0476625,-0.0960179999999999,-0.7238255,0.0776345,0.099416,-0.7176555,0.0973805,0
94,-0.013541,0.7131575,0.0794045,-0.163094,0.5214275,0.0287525,-0.267154,0.7210075,-0.0316314999999999,0.160816,0.5052075,0.0394695,0.2724459999999999,0.7015375,-0.0052534999999999,-0.311744,0.9018075,-0.0582245,0.302206,0.8922575,-0.0152954999999999,-0.072696,-0.0004254999999999,-0.0005934999999999,0.072696,0.0004255,0.0005935,-0.09189,-0.3833824999999999,0.0275915,0.098639,-0.3859625,0.0469895,-0.0959339999999999,-0.7241624999999999,0.0767165,0.099494,-0.7178424999999999,0.0966495,0
95,-0.0134295,0.71321,0.078501,-0.1629875,0.52157,0.02801,-0.2670875,0.72119,-0.032537,0.1613125,0.50534,0.038802,0.2730525,0.70128,-0.006633,-0.3109675,0.90238,-0.0600449999999999,0.3027324999999999,0.89221,-0.0169969999999999,-0.0727105,-0.000433,-0.000654,0.0727105,0.0004329999999999,0.000654,-0.0920344999999999,-0.3841,0.026331,0.0987315,-0.38613,0.04599,-0.0959675,-0.7246400000000001,0.075441,0.0995004999999999,-0.71807,0.095622,0
96,-0.0133799999999999,0.7133585,0.0771395,-0.162932,0.5217284999999999,0.0268425,-0.2670619999999999,0.7215585,-0.0339595,0.161628,0.5053084999999999,0.0376345,0.273608,0.7010685,-0.0085814999999999,-0.310262,0.9029585,-0.0624444999999999,0.303178,0.8920984999999999,-0.0193605,-0.072742,-0.0004415,-0.0007165,0.072742,0.0004414999999999,0.0007165,-0.0923109999999999,-0.3850715,0.0245115,0.098732,-0.3862715,0.0445075,-0.096122,-0.7251515000000001,0.0736995,0.099328,-0.7182615,0.0941385,0
97,-0.013274,0.713373,0.075532,-0.162878,0.521763,0.025455,-0.266978,0.722003,-0.035702,0.161892,0.505283,0.036194,0.274262,0.700693,-0.010983,-0.309498,0.903713,-0.0652369999999999,0.303642,0.891753,-0.022413,-0.0727869999999999,-0.0004559999999999,-0.0007769999999999,0.0727869999999999,0.000456,0.0007769999999999,-0.092583,-0.386247,0.0220889999999999,0.0988439999999999,-0.386527,0.042672,-0.0962679999999999,-0.726207,0.071417,0.09913,-0.718447,0.092411,0
98,-0.0131185,0.7133630000000001,0.0735495,-0.1627185,0.521803,0.0237115,-0.2668785,0.7225330000000001,-0.0378435,0.1621115,0.505283,0.0344195,0.2749615,0.7001430000000001,-0.0139185,-0.3088285,0.904333,-0.0684515,0.3040815,0.8913530000000001,-0.0259114999999999,-0.0728625,-0.0004679999999999,-0.0008284999999999,0.0728625,0.000468,0.0008285,-0.0929015,-0.387537,0.0189945,0.0989335,-0.386837,0.0404495,-0.0964785,-0.7272869999999999,0.0687575,0.0988815,-0.718637,0.0903355,1
99,-0.0128949999999999,0.7133510000000001,0.0710665,-0.162543,0.5218510000000001,0.0215405,-0.266793,0.7230610000000001,-0.0406885,0.162217,0.5053110000000001,0.0322445,0.275607,0.699361,-0.0174254999999999,-0.308193,0.904821,-0.0722135,0.304437,0.8908710000000001,-0.0299055,-0.072957,-0.0004569999999999,-0.0008074999999999,0.072957,0.000457,0.0008075,-0.093383,-0.388939,0.0151845,0.099028,-0.387159,0.0376385,-0.096753,-0.728379,0.0656495,0.098582,-0.718849,0.0877795,1
100,-0.0126364999999999,0.7134125,0.068055,-0.1624215,0.5220725,0.018937,-0.2667615,0.7233025000000001,-0.044144,0.1622084999999999,0.5054625,0.0296309999999999,0.2761785,0.6986125000000001,-0.021484,-0.3080414999999999,0.9050425,-0.076653,0.3046985,0.8904725,-0.034466,-0.0730875,-0.0003964999999999,-0.0009259999999999,0.0730875,0.0003965,0.0009259999999999,-0.0940184999999999,-0.3901175,0.010477,0.0991045,-0.3873275,0.0342839999999999,-0.0970815,-0.7294275,0.062061,0.0982335,-0.7189375,0.084684,1
101,-0.0122775,0.713411,0.064451,-0.1621395,0.522321,0.015857,-0.2666795,0.7237210000000001,-0.048295,0.1622104999999999,0.505601,0.026487,0.2767604999999999,0.697931,-0.0261049999999999,-0.3079095,0.905461,-0.0817459999999999,0.3048605,0.8901410000000001,-0.039665,-0.0732665,-0.0003149999999999,-0.000937,0.0732665,0.000315,0.000937,-0.0947285,-0.3911389999999999,0.005032,0.0992855,-0.387349,0.030212,-0.0974095,-0.730339,0.057987,0.0978285,-0.718909,0.080931,1
102,-0.0117565,0.713292,0.060483,-0.1618625,0.522522,0.01248,-0.2665325,0.724352,-0.053088,0.1620474999999999,0.505862,0.023093,0.2773375,0.697082,-0.031002,-0.3077725,0.905552,-0.0869099999999999,0.3049475,0.890022,-0.044954,-0.0734815,-0.0002129999999999,-0.0009409999999999,0.0734815,0.0002129999999999,0.000941,-0.0954915,-0.391738,-0.0009249999999999,0.0995575,-0.387198,0.025699,-0.0977825,-0.730798,0.053722,0.0974434999999999,-0.718608,0.076858,1
103,-0.0111405,0.7129954999999999,0.0560494999999999,-0.1615915,0.5228655,0.0088014999999999,-0.2663815,0.7252555,-0.0584135,0.1619084999999999,0.5060555,0.0195445,0.2777985,0.6960955,-0.0361365,-0.3076515,0.9063955,-0.0927725,0.3049185,0.8901555000000001,-0.0504084999999999,-0.0736795,-6.650000000000406e-05,-0.0010495,0.0736795,6.649999999999712e-05,0.0010494999999999,-0.0962745,-0.3919645,-0.0072185,0.0999905,-0.3867545,0.0207504999999999,-0.0983015,-0.7310544999999999,0.0491215,0.0970495,-0.7180145,0.0724225,1
104,-0.0104154999999999,0.7126100000000001,0.0514115,-0.1612265,0.52329,0.0049385,-0.2661865,0.72612,-0.0640955,0.1616334999999999,0.50639,0.0159975,0.2782335,0.69496,-0.0412795,-0.3074464999999999,0.9072,-0.0988335,0.3047635,0.89059,-0.0559595,-0.0738824999999999,9.800000000000086e-05,-0.0010615,0.0738824999999999,-9.800000000000086e-05,0.0010615,-0.0970274999999999,-0.39146,-0.0137445,0.1006715,-0.38614,0.0155205,-0.0987965,-0.7310399999999999,0.0443215,0.0967234999999999,-0.71729,0.0677305,1
105,-0.0096975,0.7121605,0.0466045,-0.1607635,0.5240205,0.0008664999999999,-0.2658735,0.7267305,-0.0701325,0.1614765,0.5062105,0.0122305,0.2787165,0.6937504999999999,-0.0464954999999999,-0.3071035,0.9076805,-0.1053365,0.3046865,0.8915905,-0.0615505,-0.0740735,0.0002704999999999,-0.0010345,0.0740735,-0.0002704999999999,0.0010345,-0.0976575,-0.3901795,-0.0206434999999999,0.1015795,-0.3850995,0.0099175,-0.0991535,-0.7306495000000001,0.0392755,0.0964735,-0.7160895,0.0627595,1
106,-0.0092035,0.7113585,0.0417985,-0.1602335,0.5238985,-0.0033045,-0.2656335,0.7272185,-0.0762195,0.1613965,0.5064185,0.0083075,0.2790264999999999,0.6928785000000001,-0.0516285,-0.3069835,0.9080585,-0.1119935,0.3045265,0.8933985,-0.0670525,-0.0743225,0.0003315,-0.0009364999999999,0.0743225,-0.0003314999999999,0.0009365,-0.0983555,-0.3884614999999999,-0.0278085,0.1025364999999999,-0.3835714999999999,0.0036465,-0.0996035,-0.7293415,0.0341275,0.0961725,-0.7143714999999999,0.0574235,1
107,-0.0089415,0.7105525,0.0366065,-0.1597685,0.5233625,-0.0077045,-0.2652385,0.7271725,-0.0824775,0.1609815,0.5063124999999999,0.0036485,0.2791215,0.6928225,-0.0568295,-0.3069185,0.9090925,-0.1189325,0.3043915,0.8961025,-0.0727265,-0.0745585,0.0004055,-0.0008835,0.0745585,-0.0004055,0.0008835,-0.0989985,-0.3859775,-0.0354625,0.1037215,-0.3812075,-0.0034835,-0.1000285,-0.7270575,0.0285645,0.0959195,-0.7116275,0.0515005,1
108,-0.0088534999999999,0.7095214999999999,0.031636,-0.1593875,0.5224015,-0.011814,-0.2645875,0.7252415,-0.088376,0.1605925,0.5069515,-0.000984,0.2789525,0.6928314999999999,-0.061806,-0.3070175,0.9097815,-0.125637,0.3041225,0.8992114999999999,-0.078062,-0.0748095,0.0003575,-0.0009459999999999,0.0748095,-0.0003574999999999,0.000946,-0.0995274999999999,-0.3839585,-0.043189,0.1050425,-0.3785385,-0.010852,-0.1003474999999999,-0.7247785,0.022678,0.0957865,-0.7085485,0.045537,1
109,-0.0089494999999999,0.708499,0.026736,-0.1589725,0.521289,-0.015801,-0.2640225,0.723349,-0.094234,0.1602075,0.507019,-0.005111,0.2787675,0.693199,-0.066639,-0.3071425,0.911269,-0.131989,0.3036775,0.903109,-0.0833319999999999,-0.0750565,0.0002659999999999,-0.000903,0.0750565,-0.000266,0.000903,-0.0999925,-0.381371,-0.050892,0.1066675,-0.3757709999999999,-0.018892,-0.1004724999999999,-0.7221810000000001,0.016537,0.0956565,-0.704891,0.039422,1
110,-0.0091029999999999,0.707878,0.0220074999999999,-0.158738,0.520078,-0.0197585,-0.263658,0.721528,-0.1000675,0.159772,0.506458,-0.0091395,0.278572,0.693818,-0.0713475,-0.307278,0.913618,-0.1381975,0.303132,0.908178,-0.0885175,-0.075308,0.0001789999999999,-0.0010685,0.075308,-0.000179,0.0010685,-0.100368,-0.377832,-0.0587995,0.108342,-0.372102,-0.0272565,-0.100658,-0.718382,0.0102305,0.095524,-0.700332,0.0332164999999999,1
111,-0.0094229999999999,0.7068225,0.0174154999999999,-0.158588,0.5180825,-0.0235585,-0.263628,0.7194825,-0.1055195,0.159192,0.5058225000000001,-0.0127475,0.278252,0.6944425000000001,-0.0759815,-0.307588,0.9165925,-0.1440595,0.302342,0.9140425,-0.0936325,-0.075644,-1.2499999999998623e-05,-0.0012475,0.075644,1.2499999999998623e-05,0.0012475,-0.100798,-0.3734475,-0.0670985,0.110042,-0.3679475,-0.0363025,-0.101018,-0.7139274999999999,0.0035624999999999,0.095332,-0.6950274999999999,0.0268085,1
112,-0.009767,0.706169,0.0130734999999999,-0.158482,0.5160290000000001,-0.0270705,-0.263652,0.717819,-0.1103615,0.158518,0.505109,-0.0159635,0.2778279999999999,0.694849,-0.0804215,-0.307882,0.920799,-0.1488115,0.300568,0.917649,-0.0989184999999999,-0.0759759999999999,-0.000195,-0.0012765,0.0759759999999999,0.000195,0.0012764999999999,-0.1012619999999999,-0.368561,-0.0758795,0.111728,-0.363271,-0.0455995,-0.101392,-0.708471,-0.0032795,0.0952689999999999,-0.6893009999999999,0.0203474999999999,1
113,-0.0101624999999999,0.7052634999999999,0.0087085,-0.1583724999999999,0.5140435,-0.0304585,-0.2637124999999999,0.7165035,-0.1147985,0.1575475,0.5034434999999999,-0.0191645,0.2771975,0.6956235,-0.0848345,-0.3081325,0.9256835,-0.1538745,0.2986975,0.9200535,-0.1042605,-0.0762895,-0.0004274999999999,-0.0013354999999999,0.0762895,0.0004275,0.0013354999999999,-0.1016825,-0.3627965,-0.0849465,0.1134575,-0.3575265,-0.0555845,-0.1018225,-0.7019065,-0.0101505,0.0953615,-0.6824765,0.0134924999999999,1
114,-0.0108674999999999,0.7034475,0.0049444999999999,-0.1584245,0.5113175,-0.0332325,-0.2640945,0.7154575000000001,-0.1188454999999999,0.1564955,0.5028075000000001,-0.0220245,0.2763255,0.6958875,-0.0887165,-0.3085345,0.9322275,-0.1583275,0.2964655,0.9230275,-0.1091735,-0.0766485,-0.0007025,-0.0014355,0.0766485,0.0007025,0.0014354999999999,-0.1022545,-0.3572924999999999,-0.0942554999999999,0.1150055,-0.3512524999999999,-0.0653985,-0.1022345,-0.6945525,-0.0167795,0.0953325,-0.6750824999999999,0.0068075,1
115,-0.0117115,0.7011965,0.0015705,-0.1587865,0.5101964999999999,-0.0359555,-0.2645165,0.7130565,-0.1229204999999999,0.1554635,0.5019465,-0.0247475,0.2752935,0.6952265,-0.0925455,-0.3089265,0.9375365,-0.1622984999999999,0.2941435,0.9222765,-0.1139185,-0.0769074999999999,-0.0008975,-0.0015494999999999,0.0769074999999999,0.0008975,0.0015495,-0.1028965,-0.3515534999999999,-0.1034215,0.1165934999999999,-0.3454434999999999,-0.0753534999999999,-0.1025765,-0.6867235,-0.0234015,0.0953975,-0.6674335,0.0001755,1
116,-0.0129199999999999,0.6998485,-0.0012894999999999,-0.159421,0.5071685,-0.0382625,-0.265171,0.7118885,-0.1264045,0.153969,0.5004885,-0.0272905,0.273769,0.6951185,-0.0959474999999999,-0.309261,0.9404185,-0.1661045,0.2912789999999999,0.9197585,-0.1184375,-0.077279,-0.0012624999999999,-0.0016714999999999,0.077279,0.0012624999999999,0.0016714999999999,-0.103881,-0.3444715,-0.1123815,0.117909,-0.3382314999999999,-0.0850835,-0.103031,-0.6772015,-0.0296475,0.095219,-0.6582715,-0.0063005,1
117,-0.0140474999999999,0.6973615,-0.003983,-0.1599465,0.5049715,-0.040517,-0.2657365,0.7119915,-0.129657,0.1526235,0.4991415,-0.029706,0.2723835,0.6939515,-0.099203,-0.3094965,0.9419115,-0.169653,0.2886235,0.9175115,-0.122765,-0.0775675,-0.0016154999999999,-0.001715,0.0775675,0.0016154999999999,0.0017149999999999,-0.1047664999999999,-0.3373885,-0.121277,0.1192135,-0.3313985,-0.094556,-0.1033465,-0.6672785,-0.035399,0.0950355,-0.6491385,-0.012892,1
118,-0.0149705,0.6949295,-0.0065679999999999,-0.1603355,0.5030195,-0.0426389999999999,-0.2660655,0.7115595,-0.13237,0.1511644999999999,0.4967295,-0.0324619999999999,0.2711044999999999,0.6926395,-0.102355,-0.3095755,0.9437295,-0.172653,0.2862145,0.9163895,-0.126927,-0.0778085,-0.0018754999999999,-0.0016549999999999,0.0778085,0.0018755,0.001655,-0.1054654999999999,-0.3295805,-0.130078,0.1204544999999999,-0.3231805,-0.1037889999999999,-0.1034255,-0.6557105,-0.040663,0.0951585,-0.6386205,-0.0193279999999999,1
119,-0.015606,0.691912,-0.0088369999999999,-0.160571,0.501072,-0.044499,-0.266421,0.710552,-0.134756,0.149809,0.495372,-0.0348609999999999,0.270039,0.690832,-0.105421,-0.309621,0.945652,-0.175758,0.283759,0.915452,-0.131991,-0.078057,-0.0022,-0.001438,0.078057,0.0021999999999999,0.001438,-0.106151,-0.321948,-0.138678,0.121699,-0.314828,-0.112786,-0.103331,-0.643648,-0.045632,0.095439,-0.627368,-0.025668,1
120,-0.0162934999999999,0.6883375,-0.0110789999999999,-0.1608435,0.5008475,-0.046381,-0.2670635,0.7088175,-0.137218,0.1484165,0.4938675,-0.037362,0.2691865,0.6879175000000001,-0.108651,-0.3096835,0.9466275,-0.178902,0.2812564999999999,0.9074975,-0.137348,-0.0782555,-0.0022724999999999,-0.001187,0.0782555,0.0022724999999999,0.001187,-0.1068335,-0.3148725,-0.146848,0.1227265,-0.3071525,-0.121629,-0.1032335,-0.6316925,-0.050207,0.0956205,-0.6164025,-0.03168,1
121,-0.017147,0.684904,-0.013432,-0.160856,0.498494,-0.047664,-0.267616,0.7050839999999999,-0.1395529999999999,0.146914,0.491294,-0.0397099999999999,0.268324,0.686004,-0.112069,-0.3098059999999999,0.944854,-0.181912,0.279624,0.903964,-0.1421609999999999,-0.078385,-0.002359,-0.0009199999999999,0.078385,0.002359,0.00092,-0.107556,-0.303316,-0.154502,0.123584,-0.2949259999999999,-0.1300919999999999,-0.103142,-0.618596,-0.0542739999999999,0.0957079999999999,-0.603956,-0.0374349999999999,1
122,-0.018285,0.681585,-0.0158405,-0.1610309999999999,0.4964849999999999,-0.0491155,-0.268061,0.701695,-0.1418305,0.145419,0.489395,-0.0418725,0.267359,0.683425,-0.1155645,-0.310341,0.939915,-0.1854175,0.277909,0.902585,-0.1467965,-0.078557,-0.002475,-0.0006055,0.078557,0.002475,0.0006055,-0.108531,-0.291975,-0.1619475,0.1241689999999999,-0.282625,-0.1380265,-0.103191,-0.605295,-0.0580825,0.095617,-0.591215,-0.0428915,1
123,-0.0192685,0.680305,-0.0230385,-0.1611615,0.496315,-0.0557025,-0.2681815,0.699605,-0.1487915,0.1441185,0.488345,-0.0488635,0.2666285,0.682725,-0.1239355,-0.3106615,0.936425,-0.1936685,0.2765385,0.897605,-0.1569175,-0.0787085,-0.0024349999999999,-0.0002325,0.0787085,0.002435,0.0002324999999999,-0.1093515,-0.278275,-0.1734284999999999,0.1250085,-0.268455,-0.1506875,-0.1030455,-0.590105,-0.0664225,0.0956785,-0.576775,-0.0529015,1
124,-0.0201555,0.68226,-0.0316259999999999,-0.1612525,0.49357,-0.063789,-0.2683224999999999,0.69958,-0.156717,0.1427475,0.48738,-0.0574709999999999,0.2657075,0.68499,-0.134101,-0.3107924999999999,0.93626,-0.2033319999999999,0.2753075,0.9001600000000001,-0.1683319999999999,-0.0788295,-0.0024299999999999,-0.0003129999999999,0.0788295,0.00243,0.000313,-0.1109425,-0.2607799999999999,-0.189342,0.1273274999999999,-0.2499699999999999,-0.168762,-0.1030125,-0.57117,-0.0757799999999999,0.0957275,-0.55845,-0.064052,1
125,-0.0210235,0.68221,-0.0400435,-0.1612345,0.4925199999999999,-0.0718935,-0.2686045,0.69874,-0.1645715,0.1414355,0.48565,-0.0659005,0.2648255,0.6842900000000001,-0.1444455,-0.3107845,0.93759,-0.2128405,0.2744855,0.90394,-0.1798505,-0.0789125,-0.0023799999999999,-0.0003724999999999,0.0789125,0.0023799999999999,0.0003724999999999,-0.1125045,-0.2428499999999999,-0.2055105,0.1294354999999999,-0.23112,-0.1870305,-0.1028685,-0.5521699999999999,-0.0849805,0.0957825,-0.53996,-0.0748805,1
126,-0.0215645,0.682605,-0.048726,-0.1608455,0.490785,-0.080077,-0.2686555,0.695215,-0.172841,0.1402244999999999,0.483635,-0.074125,0.2641345,0.685095,-0.154949,-0.3106855,0.937185,-0.222247,0.2739344999999999,0.902345,-0.1921169999999999,-0.0789305,-0.0022949999999999,-0.0004439999999999,0.0789305,0.002295,0.0004439999999999,-0.1138055,-0.2233149999999999,-0.221517,0.1315644999999999,-0.2111949999999999,-0.205357,-0.1024245,-0.531985,-0.094032,0.0958945,-0.520145,-0.085391,1
127,-0.0218534999999999,0.6829799999999999,-0.0575519999999999,-0.1603855,0.48947,-0.088349,-0.2683255,0.69341,-0.180694,0.1394445,0.48288,-0.082616,0.2637345,0.68574,-0.165435,-0.3106755,0.93681,-0.23201,0.2736745,0.90015,-0.20465,-0.0789235,-0.00213,-0.0006139999999999,0.0789235,0.0021299999999999,0.000614,-0.1148454999999999,-0.20428,-0.23722,0.1336045,-0.1918699999999999,-0.22327,-0.1017734999999999,-0.51201,-0.103168,0.0961615,-0.50068,-0.095757,1
128,-0.0218314999999999,0.682705,-0.066499,-0.1600565,0.487855,-0.096638,-0.2681064999999999,0.6931849999999999,-0.1887059999999999,0.1389135,0.481975,-0.091161,0.2635335,0.685745,-0.17583,-0.3108665,0.934645,-0.241695,0.2738035,0.895765,-0.216055,-0.0789435,-0.002095,-0.000805,0.0789435,0.002095,0.000805,-0.1156265,-0.185595,-0.252595,0.1356935,-0.173345,-0.2407349999999999,-0.1010045,-0.492345,-0.11217,0.0966245,-0.481465,-0.105946,1
129,-0.0215374999999999,0.684025,-0.075187,-0.1597695,0.4867749999999999,-0.10447,-0.2675595,0.694915,-0.196602,0.1387005,0.4785649999999999,-0.0994729999999999,0.2635605,0.6855549999999999,-0.185879,-0.3108895,0.932365,-0.25109,0.2744705,0.897785,-0.22709,-0.0789354999999999,-0.001695,-0.0009699999999999,0.0789354999999999,0.001695,0.0009699999999999,-0.1162395,-0.166425,-0.2675,0.1378204999999999,-0.154385,-0.25759,-0.1000635,-0.472055,-0.120823,0.0972244999999999,-0.461655,-0.1159029999999999,1
130,-0.0210204999999999,0.683825,-0.08381,-0.1588885,0.484925,-0.1123749999999999,-0.2669785,0.6964650000000001,-0.204301,0.1384815,0.477675,-0.1078919999999999,0.2635115,0.685905,-0.195674,-0.3109385,0.931075,-0.26051,0.2751015,0.897065,-0.23812,-0.0789465,-0.0016649999999999,-0.0011599999999999,0.0789465,0.001665,0.00116,-0.1168485,-0.1479149999999999,-0.28236,0.1398815,-0.1359649999999999,-0.27424,-0.0992194999999999,-0.451975,-0.129502,0.0976085,-0.4421649999999999,-0.1255959999999999,1
131,-0.020352,0.68477,-0.092505,-0.158193,0.48426,-0.120121,-0.266293,0.6957599999999999,-0.212247,0.138477,0.47702,-0.116313,0.263607,0.68677,-0.20532,-0.3107529999999999,0.9315,-0.26957,0.275757,0.8964000000000001,-0.2490399999999999,-0.078889,-0.0014,-0.0014699999999999,0.078889,0.0014,0.0014699999999999,-0.117363,-0.12772,-0.29695,0.141837,-0.11607,-0.29041,-0.098351,-0.43098,-0.13824,0.097994,-0.42178,-0.134867,1
132,-0.0200745,0.683515,-0.096326,-0.1577635,0.481655,-0.122851,-0.2658735,0.694605,-0.215222,0.1380765,0.475215,-0.119624,0.2635165,0.685875,-0.209928,-0.3109435,0.929335,-0.2738,0.2761365,0.895705,-0.25465,-0.0790855,-0.0014149999999999,-0.0017999999999999,0.0790855,0.0014149999999999,0.0017999999999999,-0.1182235,-0.1091749999999999,-0.30644,0.1432365,-0.0972049999999999,-0.30125,-0.0978665,-0.411915,-0.142127,0.0980724999999999,-0.403075,-0.139126,1
133,-0.01986,0.6795549999999999,-0.0985339999999999,-0.157074,0.479245,-0.1246099999999999,-0.265754,0.691885,-0.2170409999999999,0.137816,0.471915,-0.1212869999999999,0.263756,0.682285,-0.2128349999999999,-0.311204,0.926025,-0.2766999999999999,0.276426,0.8920549999999999,-0.2590099999999999,-0.079209,-0.001535,-0.0016799999999999,0.079209,0.0015349999999999,0.00168,-0.118384,-0.093195,-0.3107799999999999,0.143576,-0.081145,-0.30572,-0.097493,-0.3959750000000001,-0.1446469999999999,0.097912,-0.387415,-0.1420319999999999,1
134,-0.019691,0.67689,-0.10048,-0.156689,0.47905,-0.126192,-0.2657589999999999,0.6898,-0.218653,0.137711,0.47111,-0.122669,0.263951,0.6815100000000001,-0.215213,-0.311089,0.924,-0.279345,0.276671,0.8901699999999999,-0.2627549999999999,-0.079265,-0.00134,-0.0015749999999999,0.079265,0.00134,0.0015749999999999,-0.118619,-0.07722,-0.314125,0.1439409999999999,-0.06517,-0.309015,-0.097192,-0.3804099999999999,-0.146821,0.097688,-0.37212,-0.144391,1
135,-0.0192374999999999,0.6743549999999999,-0.102161,-0.1563705,0.4776849999999999,-0.127692,-0.2651604999999999,0.690495,-0.2198149999999999,0.1379495,0.4688749999999999,-0.124025,0.2640395,0.679265,-0.217082,-0.3107804999999999,0.924755,-0.281795,0.2771795,0.889265,-0.265865,-0.0792475,-0.001165,-0.0014349999999999,0.0792475,0.0011649999999999,0.0014349999999999,-0.1188704999999999,-0.062015,-0.316615,0.1442995,-0.049965,-0.3113749999999999,-0.0967065,-0.3655750000000001,-0.148884,0.0975125,-0.357595,-0.146414,1
136,-0.0187569999999999,0.672265,-0.103412,-0.156255,0.476939,-0.128694,-0.265115,0.6913050000000001,-0.221065,0.138235,0.468608,-0.1250679999999999,0.264385,0.678415,-0.2185889999999999,-0.310425,0.925875,-0.283695,0.277705,0.887975,-0.2684149999999999,-0.07938,-0.0012249999999999,-0.0012149999999999,0.07938,0.0012249999999999,0.0012149999999999,-0.119145,-0.0482549999999999,-0.318515,0.144035,-0.036515,-0.313095,-0.096195,-0.349765,-0.150526,0.097353,-0.342045,-0.1477669999999999,1
137,-0.018097,0.67039,-0.104372,-0.155972,0.477286,-0.129077,-0.2646719999999999,0.6901999999999999,-0.221859,0.138618,0.468654,-0.125848,0.264918,0.67728,-0.219376,-0.309732,0.92704,-0.28528,0.278328,0.88687,-0.27022,-0.079518,-0.0011599999999999,-0.00107,0.079518,0.0011599999999999,0.0010699999999999,-0.119472,-0.03521,-0.3198499999999999,0.1440779999999999,-0.02374,-0.31426,-0.095592,-0.33466,-0.151795,0.097334,-0.32728,-0.148571,1
138,-0.0179325,0.66934,-0.104451,-0.1562685,0.475415,-0.127942,-0.2648985,0.6885399999999999,-0.221954,0.1384615,0.469473,-0.125123,0.2649415,0.67801,-0.219461,-0.3095985,0.9267,-0.286155,0.2785115,0.88703,-0.270835,-0.0795215,-0.0013799999999999,-0.000985,0.0795215,0.0013799999999999,0.0009849999999999,-0.1202785,-0.0204799999999999,-0.320145,0.1438915,-0.00918,-0.314355,-0.0954845,-0.31795,-0.152371,0.0970385,-0.3108,-0.148668,1
139,-0.0178224999999999,0.66863,-0.104616,-0.1566014999999999,0.4764859999999999,-0.126831,-0.2651315,0.68872,-0.222134,0.1383285,0.469587,-0.124274,0.2650885,0.67774,-0.219625,-0.3094415,0.92703,-0.286815,0.2786984999999999,0.88761,-0.271265,-0.0795164999999999,-0.0013,-0.001095,0.0795164999999999,0.0012999999999999,0.0010949999999999,-0.1211114999999999,-0.00655,-0.320355,0.1438985,0.0048999999999999,-0.314525,-0.0953695,-0.3022,-0.152801,0.0968235,-0.2951100000000001,-0.148848,1
140,-0.0177754999999999,0.66754,-0.104702,-0.1569654999999999,0.475175,-0.125691,-0.2648755,0.69011,-0.221991,0.1382844999999999,0.46963,-0.123435,0.2651545,0.6764,-0.219757,-0.3092955,0.92804,-0.28702,0.2789645,0.88586,-0.27158,-0.0795105,-0.0015399999999999,-0.00123,0.0795105,0.0015399999999999,0.0012299999999999,-0.1219155,0.00568,-0.32052,0.1439045,0.0174199999999999,-0.31466,-0.0952615,-0.28822,-0.153029,0.0966605,-0.28118,-0.148909,1
141,-0.0178555,0.668315,-0.1042169999999999,-0.1574025,0.476816,-0.1243919999999999,-0.2645725,0.691025,-0.2216349999999999,0.1380974999999999,0.470904,-0.1225199999999999,0.2652475,0.677655,-0.2195869999999999,-0.3092025,0.930505,-0.2873949999999999,0.2792275,0.886115,-0.271625,-0.0795655,-0.001485,-0.0012949999999999,0.0795655,0.001485,0.001295,-0.1227325,0.020515,-0.320615,0.1438275,0.032395,-0.314365,-0.0952355,-0.2720849999999999,-0.1530909999999999,0.0965055,-0.264935,-0.1486829999999999,1
142,-0.0181919999999999,0.66874,-0.1038299999999999,-0.1580329999999999,0.47868,-0.1231309999999999,-0.264913,0.69314,-0.221372,0.137527,0.473234,-0.121253,0.265017,0.679,-0.218955,-0.3093329999999999,0.93245,-0.28768,0.279237,0.8851899999999999,-0.27162,-0.079534,-0.0014199999999999,-0.0012999999999999,0.079534,0.0014199999999999,0.0012999999999999,-0.123813,0.0349999999999999,-0.32005,0.143497,0.04698,-0.31332,-0.095502,-0.25673,-0.153094,0.096118,-0.24949,-0.1482699999999999,1
143,-0.0187255,0.668865,-0.103082,-0.1587205,0.478998,-0.1217,-0.2652905,0.691085,-0.220482,0.1368895,0.474375,-0.119738,0.2647095,0.678095,-0.218074,-0.3096805,0.930305,-0.28785,0.2790694999999999,0.882865,-0.27148,-0.0795935,-0.0016349999999999,-0.00134,0.0795935,0.0016349999999999,0.0013399999999999,-0.1249705,0.0480749999999999,-0.31885,0.1431995,0.0601049999999999,-0.31181,-0.0960025,-0.2428949999999999,-0.152974,0.0954825,-0.235595,-0.147659,1
144,-0.0193069999999999,0.6693199999999999,-0.101876,-0.15925,0.4804279999999999,-0.120186,-0.2657,0.6898799999999999,-0.2193729999999999,0.13618,0.476568,-0.1178559999999999,0.26438,0.67887,-0.216888,-0.31013,0.92748,-0.288085,0.27888,0.88408,-0.2709749999999999,-0.079629,-0.00174,-0.001365,0.079629,0.0017399999999999,0.001365,-0.12607,0.0612399999999999,-0.317455,0.14318,0.0734499999999999,-0.309655,-0.0964849999999999,-0.22918,-0.1526239999999999,0.094841,-0.22171,-0.146572,1
145,-0.0200139999999999,0.668655,-0.1000799999999999,-0.160166,0.480547,-0.1180789999999999,-0.266276,0.686945,-0.2178279999999999,0.135524,0.477773,-0.1153989999999999,0.263944,0.6785650000000001,-0.2148939999999999,-0.310676,0.923035,-0.287635,0.278634,0.8843650000000001,-0.2696849999999999,-0.079575,-0.0019649999999999,-0.0016849999999999,0.079575,0.0019649999999999,0.001685,-0.127506,0.072345,-0.315365,0.143194,0.084805,-0.3068349999999999,-0.097057,-0.2176549999999999,-0.151526,0.094066,-0.2098449999999999,-0.1444019999999999,1
146,-0.020637,0.668775,-0.098141,-0.16089,0.480158,-0.115844,-0.26685,0.684225,-0.216309,0.13518,0.478202,-0.112784,0.26371,0.678635,-0.212796,-0.31118,0.919295,-0.287225,0.2784999999999999,0.8852249999999999,-0.268185,-0.079624,-0.002035,-0.002055,0.079624,0.002035,0.0020549999999999,-0.12871,0.0833849999999999,-0.313255,0.1434399999999999,0.095945,-0.303905,-0.097508,-0.206465,-0.150352,0.093431,-0.1979349999999999,-0.14161,1
147,-0.021383,0.667465,-0.096067,-0.161891,0.4802789999999999,-0.114064,-0.267561,0.681155,-0.214729,0.134619,0.4786819999999999,-0.110327,0.263319,0.678295,-0.210537,-0.311801,0.917715,-0.286645,0.278179,0.8844749999999999,-0.266315,-0.0796129999999999,-0.0023349999999999,-0.0023849999999999,0.0796129999999999,0.0023349999999999,0.0023849999999999,-0.129991,0.0922549999999999,-0.311025,0.143529,0.1048049999999999,-0.301055,-0.0982069999999999,-0.197425,-0.149044,0.092691,-0.188405,-0.138691,1
148,-0.0222439999999999,0.6671499999999999,-0.093982,-0.162904,0.4796009999999999,-0.112169,-0.268344,0.6780499999999999,-0.213498,0.133876,0.4787249999999999,-0.107852,0.262866,0.67737,-0.208345,-0.312504,0.91552,-0.2860749999999999,0.2778359999999999,0.88348,-0.264595,-0.079651,-0.00268,-0.002725,0.079651,0.00268,0.002725,-0.131354,0.1004399999999999,-0.308595,0.143466,0.1128499999999999,-0.298135,-0.099093,-0.18924,-0.14768,0.091905,-0.17974,-0.135759,1
149,-0.02311,0.666215,-0.091747,-0.16404,0.4801689999999999,-0.110217,-0.26904,0.676105,-0.212352,0.13322,0.478938,-0.105239,0.26259,0.677275,-0.206018,-0.31333,0.913835,-0.28554,0.27766,0.8841749999999999,-0.26312,-0.079579,-0.002615,-0.00297,0.079579,0.0026149999999999,0.00297,-0.13275,0.1094549999999999,-0.30569,0.14343,0.1220149999999999,-0.29463,-0.099971,-0.180225,-0.146136,0.09095,-0.169745,-0.132184,1
150,-0.0235705,0.66402,-0.089904,-0.1647705,0.478528,-0.108679,-0.2697805,0.67423,-0.211495,0.1328895,0.478135,-0.102941,0.2628195,0.67494,-0.203958,-0.3139505,0.91062,-0.2853,0.2777794999999999,0.88575,-0.26207,-0.0796475,-0.00268,-0.00307,0.0796475,0.00268,0.0030699999999999,-0.1337905,0.11585,-0.30284,0.1436995,0.12824,-0.29133,-0.1005345,-0.1738199999999999,-0.144317,0.0903315,-0.16229,-0.128898,1
151,-0.0239995,0.662445,-0.0881439999999999,-0.1654915,0.478603,-0.107094,-0.2702115,0.672195,-0.2106469999999999,0.1326385,0.477483,-0.1007979999999999,0.2628385,0.672975,-0.202171,-0.3147215,0.906935,-0.2851399999999999,0.2779585,0.886365,-0.2612,-0.0796815,-0.0025749999999999,-0.0031599999999999,0.0796815,0.0025749999999999,0.00316,-0.1348115,0.1223249999999999,-0.3000699999999999,0.1439885,0.134185,-0.28824,-0.1009665,-0.167815,-0.142451,0.0896965,-0.154985,-0.125741,1
152,-0.0243985,0.6608689999999999,-0.086389,-0.1662115,0.4787009999999999,-0.105596,-0.2710515,0.67384,-0.2098709999999999,0.1324285,0.4769799999999999,-0.0987539999999999,0.2629285,0.67223,-0.200496,-0.3156115,0.90626,-0.285015,0.2781585,0.88638,-0.260375,-0.0797175,-0.00233,-0.0032549999999999,0.0797175,0.0023299999999999,0.003255,-0.1360115,0.1283099999999999,-0.2973249999999999,0.1441885,0.1398199999999999,-0.285325,-0.1014625,-0.1624,-0.1400209999999999,0.0889835,-0.14837,-0.1226829999999999,1
153,-0.0246965,0.6597310000000001,-0.08485,-0.1668394999999999,0.4791740000000001,-0.104217,-0.2717195,0.6750250000000001,-0.209423,0.1322904999999999,0.476508,-0.097035,0.2630605,0.670911,-0.198934,-0.3165495,0.906565,-0.2848,0.2784204999999999,0.8866450000000001,-0.25955,-0.0797565,-0.0021649999999999,-0.0034899999999999,0.0797565,0.002165,0.0034899999999999,-0.1371095,0.133755,-0.29454,0.1443505,0.144955,-0.28273,-0.1019295,-0.1574449999999999,-0.137795,0.0883035,-0.1423649999999999,-0.120049,1
154,-0.0248495,0.659409,-0.0835389999999999,-0.1673065,0.479981,-0.1031649999999999,-0.2722765,0.6763589999999999,-0.209376,0.1322935,0.4755649999999999,-0.0955269999999999,0.2632335,0.668435,-0.197259,-0.3174965,0.907015,-0.28486,0.2787635,0.8869549999999999,-0.25902,-0.0798085,-0.001865,-0.0033299999999999,0.0798085,0.001865,0.0033299999999999,-0.1379365,0.138835,-0.29193,0.1444835,0.1497949999999999,-0.2803099999999999,-0.1023215,-0.152945,-0.135451,0.0877525,-0.136875,-0.117944,1
155,-0.0249675,0.6589879999999999,-0.0823289999999999,-0.1677435,0.4805649999999999,-0.1021949999999999,-0.2729634999999999,0.6780879999999999,-0.2099519999999999,0.1323365,0.4747949999999999,-0.0941959999999999,0.2632765,0.666827,-0.195679,-0.3184035,0.907385,-0.284985,0.2791365,0.8874249999999999,-0.258565,-0.0798565,-0.001685,-0.0032249999999999,0.0798565,0.0016849999999999,0.003225,-0.1388135,0.1436649999999999,-0.289405,0.1447365,0.1543249999999999,-0.277915,-0.1026545,-0.148755,-0.133099,0.0871375,-0.1320150000000001,-0.1162959999999999,1
156,-0.0250744999999999,0.6585840000000001,-0.081256,-0.1680665,0.481375,-0.101449,-0.2736265,0.6794330000000001,-0.210588,0.1323835,0.4757950000000001,-0.093464,0.2633135,0.665227,-0.194308,-0.3192164999999999,0.907185,-0.28515,0.2794835,0.887575,-0.25832,-0.0798555,-0.0014949999999999,-0.00321,0.0798555,0.001495,0.0032099999999999,-0.1397765,0.147915,-0.28697,0.1451035,0.158265,-0.27557,-0.1029435,-0.1451049999999999,-0.130924,0.0865435,-0.1278049999999999,-0.114826,1
157,-0.025133,0.6579279999999998,-0.080237,-0.1683589999999999,0.4825549999999999,-0.100847,-0.274229,0.6808069999999999,-0.211155,0.132431,0.4766349999999999,-0.092757,0.263381,0.6639919999999999,-0.193117,-0.319889,0.907575,-0.285385,0.279791,0.8875249999999999,-0.258085,-0.079857,-0.001195,-0.003215,0.079857,0.0011949999999999,0.0032149999999999,-0.140669,0.1519849999999999,-0.284735,0.145531,0.1619849999999998,-0.273275,-0.103104,-0.141535,-0.128756,0.086028,-0.123805,-0.11356,1
158,-0.0251635,0.6575419999999998,-0.079519,-0.1683875,0.4830349999999999,-0.100424,-0.2746475,0.6814889999999999,-0.211585,0.1324525,0.4773649999999999,-0.092362,0.2634525,0.6629949999999999,-0.192292,-0.3203775,0.906885,-0.285715,0.2799725,0.8870449999999999,-0.257855,-0.0798555,-0.001175,-0.003225,0.0798555,0.0011749999999999,0.003225,-0.1413975,0.1546449999999999,-0.283135,0.1460725,0.1642849999999999,-0.271695,-0.1031845,-0.139225,-0.126907,0.0858285,-0.1215950000000001,-0.113138,1
159,-0.0250975,0.657654,-0.079087,-0.1683105,0.4832999999999999,-0.100054,-0.2748505,0.6817139999999999,-0.212032,0.1325895,0.4777499999999999,-0.092029,0.2636495,0.6622379999999999,-0.19168,-0.3206005,0.90614,-0.286025,0.2802195,0.8866099999999999,-0.257665,-0.0797585,-0.00118,-0.003265,0.0797585,0.0011799999999999,0.0032649999999999,-0.1419605,0.1567299999999999,-0.281905,0.1467995,0.1658799999999999,-0.270365,-0.1031275,-0.1373700000000001,-0.125491,0.0857565,-0.1199700000000001,-0.112727,1
160,-0.0250379999999999,0.6576510000000001,-0.0787199999999999,-0.168238,0.484155,-0.0999789999999999,-0.275018,0.681717,-0.212343,0.132692,0.4781850000000001,-0.0917719999999999,0.263742,0.6618520000000001,-0.191297,-0.320748,0.905565,-0.28635,0.280392,0.8869850000000001,-0.25754,-0.079703,-0.0011849999999999,-0.0033099999999999,0.079703,0.0011850000000001,0.00331,-0.1424979999999999,0.158285,-0.2808699999999999,0.147442,0.166995,-0.26926,-0.103213,-0.1359549999999999,-0.1241809999999999,0.085691,-0.118865,-0.1123349999999999,1
161,-0.024971,0.6577559999999999,-0.078493,-0.1681969999999999,0.4848799999999999,-0.0998979999999999,-0.275137,0.6817149999999998,-0.212695,0.132723,0.4782499999999999,-0.091582,0.2638129999999999,0.662677,-0.191215,-0.320857,0.90544,-0.2866999999999999,0.280493,0.8876099999999999,-0.25761,-0.079683,-0.00123,-0.0033799999999999,0.079683,0.0012299999999999,0.0033799999999999,-0.142897,0.1594799999999999,-0.28006,0.148053,0.1679399999999999,-0.2682799999999999,-0.103202,-0.1349000000000001,-0.123608,0.0857219999999999,-0.1181000000000001,-0.112255,1
162,-0.024939,0.657781,-0.078427,-0.168145,0.484905,-0.099833,-0.2750849999999999,0.6815169999999999,-0.212953,0.132745,0.4779949999999999,-0.09148,0.263845,0.6627019999999999,-0.19115,-0.320805,0.905315,-0.287055,0.280595,0.887635,-0.257655,-0.0796689999999999,-0.001205,-0.003395,0.0796689999999999,0.001205,0.0033949999999999,-0.143225,0.1598449999999999,-0.279725,0.148645,0.1681149999999999,-0.267705,-0.103181,-0.134865,-0.123294,0.085754,-0.118195,-0.11219,1
163,-0.0248885,0.657781,-0.078447,-0.1679545,0.484905,-0.100084,-0.2750245,0.6815169999999999,-0.213274,0.1328254999999999,0.4779949999999999,-0.091499,0.2638755,0.6627019999999999,-0.191171,-0.3207345,0.905315,-0.2875149999999999,0.2806855,0.887635,-0.257675,-0.0796554999999999,-0.001205,-0.003415,0.0796554999999999,0.001205,0.003415,-0.1434645,0.1601849999999999,-0.279755,0.1492355,0.1683049999999999,-0.267565,-0.1031305,-0.134865,-0.123314,0.0858045,-0.118415,-0.11221,1
164,-0.024727,0.657781,-0.078458,-0.167762,0.484905,-0.100296,-0.274952,0.6815169999999999,-0.2134329999999999,0.1329179999999999,0.4779949999999999,-0.0915129999999999,0.2637879999999999,0.6631929999999999,-0.192089,-0.320652,0.905315,-0.28805,0.2808279999999999,0.887635,-0.25778,-0.079626,-0.001205,-0.0034399999999999,0.079626,0.001205,0.0034399999999999,-0.143592,0.1604249999999999,-0.27978,0.149698,0.1685049999999999,-0.26756,-0.103204,-0.134965,-0.1233349999999999,0.086135,-0.1185749999999999,-0.1124,1
165,-0.0244969999999999,0.65775,-0.078464,-0.167437,0.4857999999999999,-0.10078,-0.274857,0.6814619999999999,-0.213445,0.1330029999999999,0.4779399999999999,-0.091526,0.2638729999999999,0.6642649999999999,-0.193119,-0.320587,0.90526,-0.288345,0.2810829999999999,0.88822,-0.258165,-0.079571,-0.00115,-0.003455,0.079571,0.0011499999999999,0.0034549999999999,-0.143697,0.1605999999999999,-0.2798049999999999,0.150033,0.1685399999999999,-0.267565,-0.1033869999999999,-0.13512,-0.123359,0.086474,-0.11884,-0.112583,1
166,-0.0240235,0.658703,-0.07908,-0.1669085,0.48649,-0.101488,-0.2744785,0.6815,-0.213793,0.1331715,0.47724,-0.09177,0.2642515,0.6660440000000001,-0.194704,-0.3202284999999999,0.90741,-0.289015,0.2814915,0.88889,-0.258945,-0.0794634999999999,-0.00095,-0.003365,0.0794634999999999,0.00095,0.0033649999999999,-0.1436085,0.15965,-0.280035,0.1504015,0.16766,-0.267725,-0.1036084999999999,-0.1360099999999999,-0.123736,0.0870314999999999,-0.1202099999999999,-0.113173,1
167,-0.023264,0.6602549999999999,-0.080488,-0.1661679999999999,0.4874349999999999,-0.102917,-0.2736679999999999,0.6811109999999999,-0.214652,0.133512,0.4758449999999999,-0.092633,0.264782,0.6673739999999999,-0.196806,-0.319648,0.908935,-0.290225,0.282152,0.889465,-0.260745,-0.079379,-0.0005750000000001,-0.003225,0.079379,0.0005749999999999,0.003225,-0.143388,0.1573149999999999,-0.280605,0.150632,0.1653249999999999,-0.268585,-0.103688,-0.138105,-0.124814,0.087972,-0.123075,-0.114824,1
168,-0.022305,0.661159,-0.082889,-0.165263,0.486632,-0.105013,-0.272803,0.6788460000000001,-0.216143,0.1340869999999999,0.4768,-0.094863,0.2654769999999999,0.6679010000000001,-0.199644,-0.319073,0.90878,-0.29226,0.282917,0.88788,-0.26347,-0.079312,-0.00078,-0.0034,0.079312,0.00078,0.0033999999999999,-0.143173,0.15177,-0.28176,0.150887,0.15978,-0.2707,-0.1037329999999999,-0.14349,-0.12657,0.089059,-0.1292299999999999,-0.117388,1
169,-0.0214339999999999,0.663255,-0.085855,-0.164472,0.4849840000000001,-0.107586,-0.271842,0.6802450000000001,-0.218188,0.134448,0.477535,-0.097661,0.266308,0.67105,-0.203324,-0.318652,0.911805,-0.295145,0.283618,0.8863850000000001,-0.266765,-0.079304,-0.0009349999999999,-0.003345,0.079304,0.000935,0.0033449999999999,-0.143092,0.145245,-0.2836849999999999,0.1510079999999999,0.153345,-0.273575,-0.103882,-0.1498949999999999,-0.128827,0.090184,-0.1363149999999999,-0.120686,1
170,-0.0201755,0.6623829999999999,-0.09105,-0.1632615,0.48372,-0.112409,-0.2705015,0.678835,-0.222976,0.1352585,0.475562,-0.102665,0.2675785,0.6697150000000001,-0.208865,-0.3181515,0.911185,-0.30004,0.2850185,0.884745,-0.2726,-0.0792255,-0.0007449999999999,-0.00291,0.0792255,0.0007449999999999,0.0029099999999999,-0.1420915,0.132035,-0.28807,0.1514385,0.140445,-0.27849,-0.1036914999999999,-0.1623449999999999,-0.133093,0.0916505,-0.1494149999999999,-0.126094,1
171,-0.018524,0.662585,-0.0959469999999999,-0.161707,0.4823199999999999,-0.117059,-0.268907,0.6790349999999999,-0.2277199999999999,0.136153,0.4742659999999999,-0.107345,0.269093,0.669495,-0.213964,-0.317277,0.910985,-0.3049199999999999,0.286503,0.882525,-0.2778899999999999,-0.079135,-0.000465,-0.0024799999999999,0.079135,0.0004649999999999,0.00248,-0.140787,0.1175449999999999,-0.2925299999999999,0.151813,0.1264049999999999,-0.28329,-0.103297,-0.176495,-0.136809,0.0931819999999999,-0.164255,-0.1311,1
172,-0.0167259999999999,0.6638749999999999,-0.1007589999999999,-0.159929,0.4804269999999999,-0.1212879999999999,-0.2671989999999999,0.679425,-0.232562,0.137191,0.4729679999999999,-0.1122209999999999,0.270691,0.669325,-0.2188069999999999,-0.316219,0.913835,-0.309695,0.288121,0.8798249999999999,-0.282455,-0.079047,-0.000565,-0.0021349999999999,0.079047,0.0005649999999999,0.0021349999999999,-0.139169,0.1013649999999999,-0.296935,0.152251,0.1104149999999999,-0.287975,-0.1027589999999999,-0.1926550000000001,-0.140505,0.094767,-0.1808750000000001,-0.1359759999999999,1
173,-0.0144134999999999,0.664905,-0.105365,-0.1574574999999999,0.47847,-0.125767,-0.2651175,0.679045,-0.23674,0.1386825,0.471651,-0.116974,0.2727425,0.667415,-0.222408,-0.3144675,0.914485,-0.314385,0.2901725,0.8818349999999999,-0.286745,-0.0789855,-0.0003549999999999,-0.0018849999999999,0.0789855,0.0003549999999999,0.0018849999999999,-0.1371275,0.0818749999999999,-0.300875,0.1530325,0.091055,-0.292865,-0.1018174999999999,-0.212225,-0.143936,0.0963405,-0.200785,-0.140268,1
174,-0.012113,0.666165,-0.109455,-0.155059,0.477494,-0.129798,-0.262799,0.680515,-0.24093,0.1403609999999999,0.471437,-0.121459,0.274881,0.666195,-0.225708,-0.312539,0.915305,-0.318675,0.292231,0.882035,-0.290495,-0.0790019999999999,-0.0001549999999999,-0.0016649999999999,0.0790019999999999,0.000155,0.0016649999999999,-0.134769,0.060535,-0.304515,0.153711,0.070055,-0.296935,-0.1008189999999999,-0.2337249999999999,-0.146884,0.097907,-0.222465,-0.144275,1
175,-0.009939,0.666715,-0.1123819999999999,-0.152771,0.474471,-0.1332189999999999,-0.260541,0.679385,-0.244216,0.1420789999999999,0.47331,-0.1252339999999999,0.2770289999999999,0.664915,-0.228203,-0.310421,0.911545,-0.3220999999999999,0.2944589999999999,0.880475,-0.29261,-0.0790319999999999,-0.000715,-0.0017099999999999,0.0790319999999999,0.000715,0.00171,-0.132091,0.0370249999999999,-0.3074199999999999,0.1543189999999999,0.0478149999999999,-0.29981,-0.099781,-0.257395,-0.1490919999999999,0.0993209999999999,-0.246135,-0.147555,1
176,-0.0080385,0.666875,-0.113859,-0.1503145,0.47479,-0.135499,-0.2584045,0.677335,-0.246098,0.1436555,0.474008,-0.127794,0.2790155,0.663255,-0.229311,-0.3081045,0.909475,-0.32306,0.2965755,0.876155,-0.29364,-0.0791085,-0.000705,-0.0016899999999999,0.0791085,0.000705,0.0016899999999999,-0.1292145,0.0122249999999999,-0.30871,0.1544454999999999,0.024365,-0.30124,-0.0987745,-0.2831349999999999,-0.150017,0.1003975,-0.271875,-0.14931,1
177,-0.0062129999999999,0.668255,-0.114175,-0.147938,0.474671,-0.136986,-0.256288,0.6808350000000001,-0.247724,0.145152,0.472952,-0.128977,0.280942,0.6639550000000001,-0.229613,-0.305778,0.912775,-0.3235099999999999,0.298942,0.8738049999999999,-0.29355,-0.079155,-0.000535,-0.0016899999999999,0.079155,0.000535,0.0016899999999999,-0.126098,-0.0108949999999999,-0.30892,0.154472,0.0020149999999999,-0.30125,-0.097598,-0.307885,-0.150129,0.101338,-0.296685,-0.150109,1
178,-0.004294,0.669,-0.1144979999999999,-0.1455389999999999,0.475009,-0.138484,-0.254299,0.6798,-0.2487249999999999,0.146911,0.472612,-0.130038,0.282621,0.66214,-0.229535,-0.303479,0.91056,-0.323605,0.301411,0.87486,-0.293435,-0.079205,-0.0003,-0.0016949999999999,0.079205,0.0003,0.001695,-0.122859,-0.03477,-0.308535,0.154441,-0.0216,-0.301245,-0.096359,-0.3342199999999999,-0.1502619999999999,0.1023039999999999,-0.32303,-0.150719,1
179,-0.0026544999999999,0.6732750000000001,-0.1144319999999999,-0.1434475,0.475415,-0.1398339999999999,-0.2525975,0.682975,-0.2486499999999999,0.1484125,0.475115,-0.13087,0.2839425,0.664995,-0.229483,-0.3013075,0.915725,-0.32352,0.3034825,0.876525,-0.29305,-0.0793125,-0.000495,-0.0016999999999999,0.0793125,0.000495,0.0017,-0.1205175,-0.054655,-0.30791,0.1542124999999999,-0.041285,-0.30126,-0.0955175,-0.357485,-0.150421,0.1031755,-0.3460749999999999,-0.151196,1
180,-0.0011939999999999,0.67692,-0.1141129999999999,-0.141739,0.4773199999999999,-0.1406569999999999,-0.2508789999999999,0.68499,-0.24828,0.150051,0.4771399999999999,-0.131344,0.285261,0.6671,-0.2291209999999999,-0.2997789999999999,0.92092,-0.32315,0.305671,0.87927,-0.2922399999999999,-0.07932,-0.0007,-0.0013999999999999,0.07932,0.0006999999999999,0.0014,-0.1183589999999999,-0.07412,-0.30633,0.154131,-0.0605,-0.30039,-0.0946289999999999,-0.3813000000000001,-0.1502279999999999,0.104164,-0.36958,-0.151357,1
181,-3.4999999999948267e-06,0.6799200000000001,-0.113059,-0.1405775,0.47829,-0.14056,-0.2496174999999999,0.6865,-0.247,0.1512025,0.4797099999999999,-0.13063,0.2863425,0.66919,-0.22778,-0.2978575,0.92154,-0.32154,0.3075124999999999,0.88619,-0.28927,-0.0791725,-0.00052,-0.00135,0.0791725,0.00052,0.0013499999999999,-0.1167175,-0.0928,-0.30378,0.1535425,-0.07959,-0.29802,-0.0940775,-0.4051099999999999,-0.149424,0.1047744999999999,-0.3941099999999999,-0.150576,1
182,0.000681,0.68391,-0.109697,-0.139788,0.4788599999999999,-0.137944,-0.2484479999999999,0.68892,-0.243559,0.152182,0.4819299999999999,-0.127721,0.286992,0.6725,-0.224264,-0.296168,0.92325,-0.31757,0.308922,0.88655,-0.28347,-0.078985,-0.00064,-0.00177,0.078985,0.0006399999999999,0.0017699999999999,-0.1154179999999999,-0.10821,-0.30009,0.152622,-0.09523,-0.29366,-0.093878,-0.4266,-0.146772,0.105583,-0.4165999999999999,-0.149728,1
183,0.0015054999999999,0.68684,-0.105521,-0.1390185,0.48072,-0.1346679999999999,-0.2471285,0.6885,-0.238808,0.1531715,0.48507,-0.1243949999999999,0.2876415,0.67411,-0.2197569999999999,-0.2945785,0.92211,-0.312185,0.3103415,0.88626,-0.2769049999999999,-0.0789265,-0.00078,-0.0021549999999999,0.0789265,0.00078,0.002155,-0.1140885,-0.1239799999999999,-0.295535,0.1517715,-0.11223,-0.288085,-0.0935685,-0.4485499999999999,-0.144127,0.1065015,-0.43993,-0.148066,1
184,0.002393,0.69076,-0.10095,-0.138174,0.48404,-0.131106,-0.246064,0.68955,-0.233251,0.1542259999999999,0.48705,-0.12107,0.2883759999999999,0.67825,-0.214855,-0.293134,0.92165,-0.30606,0.311516,0.88663,-0.27009,-0.078818,-0.00043,-0.0023499999999999,0.078818,0.00043,0.0023499999999999,-0.1131139999999999,-0.13815,-0.29007,0.150836,-0.12849,-0.2815,-0.093384,-0.46886,-0.14158,0.107476,-0.46208,-0.146062,1
185,0.0033365,0.69469,-0.096008,-0.1374945,0.48568,-0.12723,-0.2454345,0.69673,-0.227313,0.1552954999999999,0.49127,-0.117347,0.2891155,0.68238,-0.209483,-0.2927345,0.92108,-0.2993449999999999,0.3127755,0.88907,-0.262625,-0.0785845,-0.0006599999999999,-0.002465,0.0785845,0.0006599999999999,0.0024649999999999,-0.1124445,-0.1509899999999999,-0.282855,0.1500655,-0.14367,-0.273235,-0.0932844999999999,-0.48724,-0.139019,0.1085855,-0.48244,-0.143802,1
186,0.003889,0.6983550000000001,-0.091098,-0.137159,0.488325,-0.123309,-0.244829,0.698035,-0.221425,0.155991,0.494805,-0.113597,0.289441,0.685145,-0.204072,-0.292819,0.921455,-0.291395,0.313631,0.896195,-0.2546049999999999,-0.078342,-0.0003049999999999,-0.002545,0.078342,0.0003049999999999,0.0025449999999999,-0.1123089999999999,-0.163635,-0.2748049999999999,0.148801,-0.158335,-0.264435,-0.093639,-0.504995,-0.136498,0.109481,-0.502245,-0.141603,1
187,0.0046124999999999,0.7026049999999999,-0.086152,-0.1366385,0.491685,-0.119365,-0.2441185,0.702815,-0.215587,0.1568515,0.498085,-0.109844,0.2900615,0.688345,-0.198597,-0.2925985,0.922575,-0.283405,0.3146115,0.8988849999999999,-0.246645,-0.0777525,-0.0001649999999999,-0.002435,0.0777525,0.0001649999999999,0.002435,-0.1119685,-0.175465,-0.266505,0.1478715,-0.171835,-0.255265,-0.0940285,-0.521375,-0.134471,0.1107515,-0.520765,-0.1395,1
188,0.0056604999999999,0.707155,-0.081786,-0.1360005,0.495085,-0.116204,-0.2430005,0.706235,-0.210225,0.1580495,0.501865,-0.106529,0.2910495,0.6920250000000001,-0.193927,-0.2919805,0.926215,-0.27597,0.3157795,0.901685,-0.23936,-0.0772755,1.5000000000015e-05,-0.00239,0.0772755,-1.4999999999987246e-05,0.00239,-0.1111705,-0.1860549999999999,-0.2582399999999999,0.1473695,-0.1838249999999999,-0.2460299999999999,-0.0943105,-0.535955,-0.132049,0.1129295,-0.5376449999999999,-0.13781,1
189,0.006603,0.711805,-0.077542,-0.135673,0.497425,-0.113142,-0.2420429999999999,0.709425,-0.204913,0.159097,0.505295,-0.103239,0.291927,0.696115,-0.189332,-0.2912729999999999,0.929485,-0.2687049999999999,0.316887,0.903945,-0.2320849999999999,-0.076827,0.0002149999999999,-0.002285,0.076827,-0.000215,0.0022849999999999,-0.110293,-0.196035,-0.249695,0.146717,-0.195365,-0.236365,-0.094673,-0.5491650000000001,-0.12915,0.115227,-0.5534250000000001,-0.136393,1
190,0.0069015,0.717185,-0.073292,-0.1359794999999999,0.501935,-0.109984,-0.2416195,0.7123849999999999,-0.199556,0.1598204999999999,0.508955,-0.100086,0.2922705,0.699795,-0.184777,-0.2909095,0.932205,-0.2615699999999999,0.3175105,0.906925,-0.22559,-0.0763185,0.000475,-0.002,0.0763185,-0.000475,0.002,-0.1096994999999999,-0.205605,-0.24026,0.1455305,-0.206415,-0.22605,-0.0956195,-0.561625,-0.126333,0.1170905,-0.567725,-0.134702,1
191,0.0074479999999999,0.7200665,-0.068216,-0.136095,0.5088564999999999,-0.105995,-0.241255,0.7144965,-0.193632,0.160795,0.5124465,-0.095968,0.292875,0.7017765,-0.179531,-0.290705,0.9335865,-0.253635,0.318425,0.9088965,-0.218405,-0.075727,0.0006005,-0.0015949999999999,0.075727,-0.0006005,0.0015949999999999,-0.108545,-0.2160634999999999,-0.228935,0.144335,-0.2181635,-0.214065,-0.096205,-0.5748335,-0.121779,0.118535,-0.5819335,-0.129559,1
192,0.007277,0.72453,-0.064247,-0.136645,0.51279,-0.103013,-0.241545,0.7183,-0.189556,0.161245,0.51532,-0.0930139999999999,0.292905,0.70483,-0.1754409999999999,-0.290725,0.93715,-0.246969,0.318795,0.91282,-0.2124889999999999,-0.075623,0.0006449999999999,-0.0012409999999999,0.075623,-0.000645,0.001241,-0.107745,-0.22938,-0.2181489999999999,0.142475,-0.2309,-0.2035989999999999,-0.096685,-0.58954,-0.1177109999999999,0.118245,-0.59658,-0.1254829999999999,1
193,0.0069685,0.72718,-0.060095,-0.1374054999999999,0.51748,-0.100078,-0.2419155,0.72213,-0.185461,0.1615845,0.5184,-0.090019,0.2927345,0.7055400000000001,-0.171338,-0.2908655,0.94161,-0.240644,0.3191245,0.91621,-0.206984,-0.0754355,0.0007199999999999,-0.000987,0.0754355,-0.0007199999999999,0.000987,-0.1068155,-0.24321,-0.206934,0.1402045,-0.24392,-0.19284,-0.0970555,-0.60488,-0.113616,0.1178745,-0.61142,-0.121388,1
194,0.0066139999999999,0.7304855,-0.053031,-0.138232,0.5197455,-0.093941,-0.242892,0.7211055000000001,-0.178532,0.161878,0.5203255,-0.083939,0.292558,0.7069355,-0.164154,-0.291062,0.9444955,-0.231341,0.319308,0.9211855,-0.198731,-0.075321,0.0007274999999999,-0.000514,0.075321,-0.0007274999999999,0.000514,-0.105842,-0.2567645,-0.192551,0.137818,-0.2564445,-0.178066,-0.097492,-0.6198444999999999,-0.106443,0.1173879999999999,-0.6257944999999999,-0.11352,1
195,0.005831,0.729109,-0.041218,-0.139202,0.5212789999999999,-0.083415,-0.244232,0.723089,-0.167366,0.161748,0.518679,-0.073601,0.292048,0.7038490000000001,-0.152901,-0.291672,0.944129,-0.217893,0.318738,0.915409,-0.186473,-0.074993,0.000643,-7.100000000000162e-05,0.074993,-0.0006429999999999,7.099999999998774e-05,-0.104972,-0.2755309999999999,-0.170701,0.133118,-0.2739709999999999,-0.155867,-0.098482,-0.639921,-0.091628,0.116158,-0.644991,-0.097643,1
196,0.0051519999999999,0.7269535,-0.029841,-0.140048,0.5223435,-0.073292,-0.245668,0.7225235,-0.157515,0.161682,0.5172835,-0.06377,0.291522,0.7009535,-0.142348,-0.292538,0.9454735,-0.204979,0.3182319999999999,0.9111435,-0.174429,-0.074795,0.0006034999999999,0.0003599999999999,0.074795,-0.0006034999999999,-0.0003599999999999,-0.103948,-0.2932165,-0.14928,0.128462,-0.2905465,-0.134544,-0.099178,-0.6583365,-0.076557,0.1149419999999999,-0.6630365,-0.081945,1
197,0.004292,0.7245745,-0.0186515,-0.141503,0.5231445,-0.0628055,-0.246823,0.7219045,-0.1473475,0.161347,0.5155945,-0.0540594999999999,0.290707,0.6975945,-0.1318785,-0.293533,0.9411545,-0.1926825,0.317517,0.9061045,-0.1625424999999999,-0.074641,0.0006204999999999,0.0007365,0.074641,-0.0006204999999999,-0.0007365,-0.102963,-0.3086055,-0.1277645,0.1234069999999999,-0.3067355,-0.1133725,-0.099893,-0.6748855,-0.0609865,0.1134969999999999,-0.6797955,-0.0664105,1
198,0.0031685,0.722003,-0.0076724999999999,-0.1431315,0.524143,-0.0523155,-0.2483815,0.721063,-0.1374044999999999,0.1607485,0.513933,-0.0443985,0.2895685,0.6936129999999999,-0.1218755,-0.2946515,0.936493,-0.1806195,0.3162685,0.900903,-0.1508695,-0.0744305,0.0005349999999999,0.0010914999999999,0.0744305,-0.000535,-0.0010915,-0.1021115,-0.322547,-0.1059895,0.1178785,-0.3222669999999999,-0.0920745,-0.1007915,-0.6900270000000001,-0.0452285,0.1116485,-0.695517,-0.0508285,1
199,0.0018839999999999,0.718301,0.0032324999999999,-0.144943,0.523351,-0.0419545,-0.250083,0.7210110000000001,-0.1274855,0.159817,0.511781,-0.0350915,0.288277,0.6898610000000001,-0.1119905,-0.295963,0.933521,-0.1686705,0.314917,0.8966310000000001,-0.1393705,-0.074303,0.000322,0.0013524999999999,0.074303,-0.000322,-0.0013524999999999,-0.101313,-0.3346389999999999,-0.0845855,0.112397,-0.335829,-0.0713445,-0.101573,-0.703889,-0.0287265,0.109487,-0.7091689999999999,-0.0347215,1
200,0.0005715,0.7164794999999999,0.013183,-0.1463735,0.5214194999999999,-0.032456,-0.2517235,0.7216494999999999,-0.118421,0.1588165,0.5106195,-0.026756,0.2869765,0.6869595,-0.1028429999999999,-0.2970534999999999,0.9325695,-0.157695,0.3135465,0.8954995,-0.128835,-0.0742464999999999,0.0001864999999999,0.001603,0.0742464999999999,-0.0001864999999999,-0.001603,-0.1006735,-0.3443005,-0.06453,0.1070165,-0.3467805,-0.051448,-0.1021435,-0.7150605,-0.013665,0.1067065,-0.7200505,-0.018514,1
201,-0.000572,0.714049,0.0231835,-0.147648,0.519949,-0.0229055,-0.253538,0.7218289999999999,-0.1095215,0.157932,0.508369,-0.0178795,0.285772,0.684389,-0.0936755,-0.298088,0.932109,-0.1466724999999999,0.312172,0.894049,-0.1183024999999999,-0.074303,6.300000000000056e-05,0.0018845,0.074303,-6.300000000000056e-05,-0.0018844999999999,-0.099814,-0.353431,-0.0447915,0.1019519999999999,-0.356641,-0.0310525,-0.102518,-0.725541,0.0015605,0.1038719999999999,-0.729651,-0.0023435,0
202,-0.0016134999999999,0.7121165,0.0328655,-0.1488225,0.5188865,-0.0134075,-0.2551825,0.7228165,-0.1009835,0.1570475,0.5052165,-0.0090455,0.2846674999999999,0.6819965,-0.0848105,-0.2990625,0.9322365,-0.1360134999999999,0.3108174999999999,0.8947565,-0.1083735,-0.0743665,9.850000000000136e-05,0.0022395,0.0743665,-9.850000000000136e-05,-0.0022395,-0.0989495,-0.3622835,-0.0253965,0.0973655,-0.3660335,-0.0112725,-0.1028625,-0.7352035,0.0162165,0.1009575,-0.7385735,0.0136255,0
203,-0.0022935,0.7092944999999999,0.0392165,-0.1496165,0.5183745,-0.0074245,-0.2565865,0.7240044999999999,-0.0957665,0.1563235,0.5028545,-0.0035405,0.2837834999999999,0.6796445,-0.0792275,-0.2996665,0.9315245,-0.1289664999999999,0.3097735,0.8936645000000001,-0.1019664999999999,-0.0742454999999999,7.050000000000112e-05,0.0023915,0.0742454999999999,-7.050000000000112e-05,-0.0023914999999999,-0.0976345,-0.3713555,-0.0095085,0.0932935,-0.3763154999999999,0.0038855,-0.1029664999999999,-0.7449355,0.0275545,0.0984635,-0.7482154999999999,0.0256765,0
204,-0.0023905,0.7109230000000001,0.0405925,-0.1497845,0.519123,-0.0059155,-0.2567245,0.724503,-0.0941655,0.1563455,0.504193,-0.0025175,0.2835855,0.6816030000000001,-0.0781515,-0.2995945,0.930883,-0.1273555,0.3092054999999999,0.898763,-0.1006055,-0.0741915,-3.299999999999137e-05,0.0025535,0.0741915,3.300000000000525e-05,-0.0025535,-0.0958675,-0.372397,-0.0019574999999999,0.0919504999999999,-0.377777,0.0106275,-0.1027645,-0.745977,0.0312005,0.0978965,-0.7493569999999999,0.0294205,0
205,-0.0024004999999999,0.712213,0.042019,-0.1499265,0.519793,-0.004359,-0.2568465,0.7250530000000001,-0.092532,0.1563835,0.505073,-0.001347,0.2834135,0.682813,-0.076973,-0.2995965,0.930313,-0.125582,0.3085335,0.903273,-0.099202,-0.0741425,-9.699999999999986e-05,0.0026579999999999,0.0741425,9.699999999999986e-05,-0.002658,-0.0941525,-0.373367,0.0053029999999999,0.0906805,-0.379157,0.017341,-0.1027764999999999,-0.747167,0.034809,0.0973315,-0.750507,0.033021,0
206,-0.002444,0.7128915,0.0433275,-0.150054,0.5203615,-0.0029814999999999,-0.256964,0.7256914999999999,-0.0910835,0.156406,0.5056515,-0.0002114999999999,0.2832659999999999,0.6837915,-0.0758135,-0.299704,0.9296115,-0.1241335,0.3077359999999999,0.9077415,-0.0979335,-0.074101,-0.0001634999999999,0.0027654999999999,0.074101,0.0001634999999999,-0.0027655,-0.092687,-0.3740685,0.0116095,0.089665,-0.3802185,0.0234335,-0.102854,-0.7480085,0.0379965,0.096785,-0.7513585,0.0363345,0
207,-0.002419,0.713224,0.0445035,-0.150057,0.520864,-0.0017765,-0.256897,0.726314,-0.0897025,0.156493,0.506274,0.0007474999999999,0.282973,0.684514,-0.0748015,-0.299477,0.929054,-0.1230025,0.307133,0.913354,-0.0968325,-0.073976,-0.000226,0.0028494999999999,0.073976,0.000226,-0.0028495,-0.091491,-0.372316,0.0167725,0.089043,-0.380676,0.0284075,-0.102877,-0.747476,0.0407715,0.096332,-0.751266,0.0392875,0
208,-0.0023989999999999,0.7134834999999999,0.045378,-0.150042,0.5214435,-0.000863,-0.256842,0.7267235000000001,-0.088612,0.156588,0.5066234999999999,0.0017009999999999,0.282788,0.6851935,-0.074026,-0.299222,0.9286535,-0.122192,0.3065879999999999,0.9138235,-0.096012,-0.073856,-0.0002565,0.002888,0.073856,0.0002564999999999,-0.002888,-0.090545,-0.3705365,0.0206179999999999,0.0886,-0.3808865,0.032311,-0.102902,-0.7463365,0.042959,0.095986,-0.7507965000000001,0.041434,0
209,-0.0023879999999999,0.7136914999999999,0.0462795,-0.150032,0.5214515,7.749999999999944e-05,-0.256842,0.7271314999999999,-0.0875915,0.156678,0.5068714999999999,0.0026455,0.2826579999999999,0.6856415,-0.0732305,-0.298982,0.9283315,-0.1213814999999999,0.3060279999999999,0.9138015,-0.0952615,-0.073744,-0.0002595,0.0028725,0.073744,0.0002594999999999,-0.0028725,-0.089758,-0.3695485,0.0235375,0.0883569999999999,-0.3809085,0.0351895,-0.102932,-0.7452985000000001,0.0449205,0.095695,-0.7501885,0.0433115,0
