sb224sc-HT22-VT27/4dt907/src/data/labeled_files/B22_kinect.csv
FrameNo,nose_3d_x,nose_3d_y,nose_3d_z,left_shoulder_3d_x,left_shoulder_3d_y,left_shoulder_3d_z,left_elbow_3d_x,left_elbow_3d_y,left_elbow_3d_z,right_shoulder_3d_x,right_shoulder_3d_y,right_shoulder_3d_z,right_elbow_3d_x,right_elbow_3d_y,right_elbow_3d_z,left_wrist_3d_x,left_wrist_3d_y,left_wrist_3d_z,right_wrist_3d_x,right_wrist_3d_y,right_wrist_3d_z,left_hip_3d_x,left_hip_3d_y,left_hip_3d_z,right_hip_3d_x,right_hip_3d_y,right_hip_3d_z,left_knee_3d_x,left_knee_3d_y,left_knee_3d_z,right_knee_3d_x,right_knee_3d_y,right_knee_3d_z,left_ankle_3d_x,left_ankle_3d_y,left_ankle_3d_z,right_ankle_3d_x,right_ankle_3d_y,right_ankle_3d_z,activity_label
0,-0.016606,0.7501380000000001,0.057788,-0.1825719999999999,0.469888,0.0139609999999999,-0.219332,0.216418,-0.0123479999999999,0.148298,0.468688,0.019094,0.212238,0.249098,0.0102279999999999,-0.1981119999999999,0.020332,-0.085349,0.092306,0.179918,-0.180279,-0.072914,-0.002269,-0.000118,0.072914,0.002269,0.000118,-0.097566,-0.339492,0.02828,0.091775,-0.353622,0.048664,-0.102312,-0.657582,0.0720649999999999,0.099866,-0.6766719999999999,0.070951,0
1,-0.016614,0.7500875,0.0579225,-0.18273,0.4698775,0.0140855,-0.21938,0.2163975,-0.0123484999999999,0.14821,0.4686675,0.0192525,0.21087,0.2485875,0.0098355,-0.19817,0.0204905,-0.0853385,0.12236,0.2291375,-0.2025885,-0.072909,-0.0022765,-9.850000000000136e-05,0.072909,0.0022765,9.850000000000136e-05,-0.097698,-0.3398024999999999,0.0284265,0.091862,-0.3534225,0.0485435,-0.10228,-0.6578425,0.0718055,0.099837,-0.6760825,0.0708985,0
2,-0.0165395,0.7500935000000001,0.0579559999999999,-0.1827775,0.4698835,0.0141379999999999,-0.2193874999999999,0.2164035,-0.0123419999999999,0.1481425,0.4686735,0.0194589999999999,0.2101525,0.2494035,0.0102599999999999,-0.1981775,0.0207265,-0.085242,0.1335225,0.1952835,-0.166672,-0.0729145,-0.0022655,-6.899999999999962e-05,0.0729145,0.0022655,6.899999999999962e-05,-0.0977135,-0.3397665,0.028474,0.0918334999999999,-0.3534865,0.048603,-0.1022275,-0.6577164999999999,0.071831,0.0998965,-0.6761465,0.070793,0
3,-0.0164589999999999,0.749987,0.0579484999999999,-0.182775,0.469927,0.0141044999999999,-0.219455,0.216427,-0.0123535,0.150585,0.467517,0.0114884999999999,0.208375,0.247897,0.0087444999999999,-0.198175,0.020829,-0.0852615,0.117835,0.185277,-0.1777315,-0.072908,-0.0022459999999999,-0.0001145,0.072908,0.0022459999999999,0.0001144999999999,-0.09777,-0.339683,0.0283354999999999,0.091804,-0.353443,0.0485764999999999,-0.102195,-0.657753,0.0718494999999999,0.099929,-0.676163,0.0708135,0
4,-0.016349,0.7499595,0.058082,-0.182798,0.4699795,0.014082,-0.219508,0.2165395,-0.0122049999999999,0.149912,0.4677195,0.014628,0.230112,0.2378095,0.013715,-0.198458,0.0214775,-0.0849719999999999,0.104532,0.2221594999999999,-0.188382,-0.072911,-0.0022415,-0.0001539999999999,0.072911,0.0022415,0.000154,-0.097747,-0.3396705,0.02831,0.09181,-0.3538504999999999,0.048751,-0.102488,-0.6568105,0.071492,0.10003,-0.6762805,0.070873,0
5,-0.0161264999999999,0.749936,0.0583285,-0.1823015,0.469896,0.0140024999999999,-0.2196315,0.216606,-0.0117885,0.1494685,0.467926,0.0164094999999999,0.2173385,0.2529659999999999,0.0168154999999999,-0.1985115,0.021938,-0.0847615,0.1278585,0.1835159999999999,-0.1546914999999999,-0.0729095,-0.002232,-0.0001654999999999,0.0729095,0.002232,0.0001654999999999,-0.0976585,-0.339764,0.0283985,0.0919935,-0.353764,0.0487475,-0.1024215,-0.656844,0.0714635,0.1001505,-0.675994,0.0709815,0
6,-0.016028,0.7499265,0.058352,-0.182278,0.4698965,0.014019,-0.219638,0.2165265,-0.011871,0.149272,0.4679765,0.0170659999999999,0.210172,0.2514965,0.0092399999999999,-0.198508,0.0220865,-0.084867,0.086209,0.1852865,-0.190037,-0.072906,-0.0022275,-0.000147,0.072906,0.0022275,0.000147,-0.097635,-0.3397635,0.028413,0.091946,-0.3536835,0.0487719999999999,-0.102268,-0.6564835,0.07148,0.100146,-0.6761935,0.070945,0
7,-0.015979,0.7499515,0.0585949999999999,-0.1822579999999999,0.4698915,0.014039,-0.219818,0.2165515,-0.011762,0.148662,0.4681915,0.019006,0.209532,0.2530515,0.011455,-0.198618,0.0221675,-0.08497,0.117012,0.1971515,-0.18173,-0.07291,-0.0022545,-0.0001579999999999,0.07291,0.0022545,0.0001579999999999,-0.097608,-0.3397385,0.02828,0.091903,-0.3526685,0.048529,-0.102208,-0.6570085,0.071757,0.100178,-0.6761085,0.070785,0
8,-0.0158645,0.7499410000000001,0.0588425,-0.1821745,0.469881,0.0140375,-0.2199145,0.216581,-0.0116304999999999,0.1486655,0.4681909999999999,0.0191465,0.2092155,0.2534409999999999,0.0113985,-0.1987145,0.0224349999999999,-0.0849195,0.1175755,0.197151,-0.1817194999999999,-0.0729065,-0.002255,-0.0001754999999999,0.0729065,0.002255,0.0001755,-0.0975945,-0.339769,0.0282805,0.0919135,-0.352399,0.0485115,-0.1021745,-0.656949,0.0717565,0.1002224999999999,-0.676049,0.0707755,0
9,-0.0157604999999999,0.7499405,0.0590959999999999,-0.1820825,0.4698805,0.014032,-0.2200225,0.2166205,-0.0115139999999999,0.1486675,0.4681905,0.019343,0.2088775,0.2537905,0.011327,-0.1987725,0.0226305,-0.084899,0.1183575,0.1971505,-0.179009,-0.0729025,-0.0022545,-0.000196,0.0729025,0.0022545,0.000196,-0.0975765,-0.3397794999999999,0.028263,0.0919115,-0.3521395,0.0485,-0.1021525,-0.6569395,0.071776,0.1002565,-0.6760095,0.070741,0
10,-0.0156799999999999,0.7499370000000001,0.059323,-0.18202,0.469887,0.0140259999999999,-0.22011,0.216657,-0.011432,0.14867,0.468197,0.0195489999999999,0.20858,0.2538169999999999,0.0112109999999999,-0.19881,0.022725,-0.084888,0.11834,0.196767,-0.179058,-0.0728999999999999,-0.002255,-0.000216,0.0728999999999999,0.002255,0.000216,-0.097573,-0.339783,0.028246,0.091901,-0.351933,0.048492,-0.1021399999999999,-0.6569429999999999,0.071801,0.100278,-0.6759529999999999,0.070717,0
11,-0.0155989999999999,0.74992,0.0595605,-0.181975,0.46988,0.0140235,-0.2202049999999999,0.21669,-0.0113284999999999,0.148565,0.46829,0.0200305,0.208385,0.25381,0.0111965,-0.198865,0.02285,-0.0848765,0.119445,0.19811,-0.1785465,-0.072895,-0.002258,-0.0002304999999999,0.072895,0.002258,0.0002305,-0.0975569999999999,-0.33982,0.0282505,0.091891,-0.35167,0.0484915,-0.1021349999999999,-0.6569499999999999,0.0718255,0.100315,-0.67589,0.0706955,0
12,-0.015527,0.7499020000000001,0.0598235,-0.181942,0.469872,0.0140174999999999,-0.220292,0.2167319999999999,-0.0112225,0.148468,0.4683819999999999,0.0204055,0.207968,0.2538019999999999,0.0107424999999999,-0.198912,0.022951,-0.0848675,0.121498,0.197762,-0.1774975,-0.072892,-0.002262,-0.0002435,0.072892,0.002262,0.0002435,-0.097546,-0.339838,0.0282515,0.091876,-0.351468,0.0484755,-0.102102,-0.656998,0.0718844999999999,0.1003479999999999,-0.6757879999999999,0.0706575,0
13,-0.0154555,0.749893,0.0601005,-0.1819115,0.469883,0.0140594999999999,-0.2203615,0.216753,-0.0111064999999999,0.1483785,0.468483,0.0207875,0.2075385,0.253783,0.0101494999999999,-0.1989415,0.023041,-0.0848815,0.1213684999999999,0.200053,-0.1787315,-0.0728895,-0.002267,-0.0002575,0.0728895,0.002267,0.0002575,-0.0975365,-0.3398569999999999,0.0282375,0.0918535,-0.351307,0.0484605,-0.1020915,-0.6570469999999999,0.0719445,0.1003785,-0.675697,0.0706315,0
14,-0.015397,0.7498825,0.060394,-0.181924,0.4698925,0.014131,-0.220444,0.2167825,-0.0109469999999999,0.148316,0.4685924999999999,0.021109,0.207446,0.2543725,0.010244,-0.198964,0.0231025,-0.08491,0.1214659999999999,0.2025925,-0.1781499999999999,-0.072888,-0.0022725,-0.0002759999999999,0.072888,0.0022725,0.0002759999999999,-0.097526,-0.3398775,0.028224,0.091833,-0.3512675,0.048441,-0.102084,-0.6571675,0.071977,0.100416,-0.6756075,0.070601,0
15,-0.0153385,0.749892,0.0606779999999999,-0.1819245,0.469902,0.0142129999999999,-0.2204845,0.216802,-0.010826,0.1482655,0.468732,0.0213429999999999,0.2074155,0.254352,0.0101119999999999,-0.1989645,0.023155,-0.084939,0.1197554999999999,0.201002,-0.178889,-0.0728864999999999,-0.002275,-0.000295,0.0728864999999999,0.002275,0.0002949999999999,-0.0975145,-0.339898,0.02821,0.0918404999999999,-0.351198,0.0484249999999999,-0.1020845,-0.657178,0.071958,0.1004555,-0.6754880000000001,0.070583,0
16,-0.0152814999999999,0.7499009999999999,0.0609165,-0.1819275,0.469921,0.0143474999999999,-0.2205175,0.216831,-0.0107285,0.1482125,0.468871,0.0215714999999999,0.2073825,0.254181,0.0098404999999999,-0.1989675,0.023203,-0.0849665,0.1174625,0.200991,-0.1799665,-0.0728815,-0.002278,-0.0003125,0.0728815,0.002278,0.0003125,-0.0975245,-0.339939,0.0282494999999999,0.0918505,-0.351139,0.0484314999999999,-0.1020875,-0.657189,0.0719355,0.1004925,-0.675369,0.0705575,0
17,-0.0152325,0.7499085,0.061178,-0.1819705,0.4699385,0.014516,-0.2205605,0.2168485,-0.01065,0.1481695,0.4690085,0.021826,0.2073694999999999,0.2540485,0.009493,-0.1989705,0.0232595,-0.084989,0.1196195,0.2041585,-0.179149,-0.0728765,-0.0022815,-0.0003249999999999,0.0728765,0.0022815,0.0003249999999999,-0.0975355,-0.3399715,0.0283,0.0918455,-0.3510515,0.04844,-0.1021005,-0.6572015,0.071913,0.1005195,-0.6752615,0.070528,0
18,-0.015175,0.749905,0.0614475,-0.182007,0.469945,0.0147235,-0.220587,0.216895,-0.0106754999999999,0.148133,0.469125,0.0220235,0.207143,0.253605,0.0089365,-0.198977,0.023343,-0.0852344999999999,0.118093,0.206825,-0.1792145,-0.0728709999999999,-0.002285,-0.0003384999999999,0.0728709999999999,0.002285,0.0003385,-0.097546,-0.340015,0.0283535,0.0918279999999999,-0.351015,0.0484375,-0.102097,-0.657015,0.0718875,0.100553,-0.675155,0.0704955,0
19,-0.0151124999999999,0.749889,0.061755,-0.1820605,0.469959,0.0149399999999999,-0.2206205,0.216949,-0.010704,0.1480894999999999,0.469219,0.0222109999999999,0.2070095,0.253259,0.0084369999999999,-0.1989705,0.023604,-0.086022,0.1204395,0.2093489999999999,-0.179172,-0.0728625,-0.002291,-0.000348,0.0728625,0.002291,0.000348,-0.0975545,-0.340071,0.0284429999999999,0.0918145,-0.351011,0.0484319999999999,-0.1020905,-0.656841,0.071887,0.1005795,-0.675111,0.070474,0
20,-0.0150525,0.7498735000000001,0.0620659999999999,-0.1820725,0.4699735,0.015149,-0.2206624999999999,0.2170635,-0.0107379999999999,0.1480475,0.4693035,0.022375,0.2069975,0.2528735,0.00791,-0.1989325,0.0244015,-0.087525,0.1189475,0.2118235,-0.181935,-0.0728595,-0.0022965,-0.000355,0.0728595,0.0022965,0.000355,-0.0975615,-0.3401165,0.0285109999999999,0.0918095,-0.3510265,0.04842,-0.1021125,-0.6567065,0.0718169999999999,0.1005875,-0.6750864999999999,0.0704559999999999,0
21,-0.015011,0.7498705,0.062372,-0.182062,0.4699905,0.015368,-0.2207619999999999,0.2173505,-0.0107859999999999,0.148008,0.4693905,0.022542,0.207038,0.2524605,0.0067,-0.199482,0.0275965,-0.090748,0.1209379999999999,0.2151605,-0.182328,-0.072859,-0.0023005,-0.000362,0.072859,0.0023005,0.000362,-0.097577,-0.3401595,0.028579,0.091832,-0.3510695,0.048402,-0.102122,-0.6567395,0.0717609999999999,0.1005879999999999,-0.6750995,0.070434,0
22,-0.014978,0.749864,0.062709,-0.18207,0.470034,0.0155599999999999,-0.2211,0.218444,-0.011009,0.14797,0.4694839999999999,0.0226409999999999,0.20712,0.251934,0.0045889999999999,-0.2001,0.032338,-0.0953519999999999,0.12131,0.217344,-0.186772,-0.072859,-0.002294,-0.000351,0.072859,0.002294,0.0003509999999999,-0.097594,-0.340196,0.0286269999999999,0.091856,-0.351146,0.048386,-0.1021499999999999,-0.656796,0.07168,0.1005899999999999,-0.675086,0.07038,0
23,-0.014952,0.749867,0.0630245,-0.182065,0.470127,0.0157255,-0.221805,0.220667,-0.0113634999999999,0.147905,0.469577,0.0227175,0.207385,0.251227,0.0013424999999999,-0.200855,0.03916,-0.1013775,0.123735,0.223617,-0.1935875,-0.072857,-0.002287,-0.0003234999999999,0.072857,0.002287,0.0003234999999999,-0.09761,-0.340183,0.0286515,0.091876,-0.351213,0.0483535,-0.1021749999999999,-0.656873,0.0716005,0.1005949999999999,-0.6750929999999999,0.0703145,0
24,-0.014915,0.7498539999999999,0.063412,-0.182022,0.470244,0.015848,-0.222872,0.224574,-0.01206,0.147888,0.469634,0.022667,0.208078,0.250464,-0.00272,-0.202752,0.049893,-0.1103239999999999,0.125088,0.2254739999999999,-0.2017939999999999,-0.072861,-0.002275,-0.000244,0.072861,0.002275,0.000244,-0.097579,-0.340176,0.028628,0.091943,-0.351386,0.0483,-0.102182,-0.656946,0.071455,0.1006479999999999,-0.6750860000000001,0.070194,0
25,-0.0148035,0.7498319999999999,0.063872,-0.1818705,0.470432,0.0159829999999999,-0.2241405,0.230132,-0.013157,0.1479395,0.469682,0.0225599999999999,0.2094995,0.250882,-0.007975,-0.2059605,0.063678,-0.121863,0.1265595,0.2326119999999999,-0.210313,-0.0728805,-0.002257,-0.000124,0.0728805,0.002257,0.0001239999999999,-0.0974635,-0.340188,0.0285179999999999,0.0921105,-0.351458,0.0481999999999999,-0.1021005,-0.657018,0.071255,0.1007695,-0.675058,0.070016,0
26,-0.014639,0.749818,0.06426,-0.181647,0.470628,0.0160739999999999,-0.2260769999999999,0.237288,-0.015598,0.147923,0.469858,0.0223729999999999,0.2122629999999999,0.251438,-0.014415,-0.210087,0.081659,-0.136788,0.129153,0.241468,-0.220458,-0.072916,-0.002221,3.299999999999831e-05,0.072916,0.002221,-3.300000000000525e-05,-0.097311,-0.340192,0.0283439999999999,0.09235,-0.3515319999999999,0.0480429999999999,-0.101987,-0.657072,0.070944,0.100943,-0.675052,0.069777,0
27,-0.0144495,0.749786,0.064681,-0.1813615,0.470896,0.016108,-0.2303615,0.247476,-0.0233509999999999,0.1478185,0.470126,0.022112,0.2154485,0.252036,-0.0160559999999999,-0.2145515,0.101766,-0.155574,0.1338885,0.253706,-0.228844,-0.0729595,-0.002183,0.0002009999999999,0.0729595,0.002183,-0.0002009999999999,-0.0971185,-0.340204,0.028108,0.0926345,-0.351524,0.047782,-0.1018215,-0.6571440000000001,0.070573,0.1011384999999999,-0.674984,0.069476,0
28,-0.0142795,0.749775,0.065089,-0.1810125,0.4712949999999999,0.016092,-0.2346025,0.2592549999999999,-0.031839,0.1471275,0.470945,0.021761,0.2191375,0.2526549999999999,-0.022912,-0.2207025,0.1246149999999999,-0.176434,0.1400375,0.265515,-0.239164,-0.0730095,-0.002142,0.0003729999999999,0.0730095,0.002142,-0.0003729999999999,-0.0968965,-0.340205,0.0277579999999999,0.0929625,-0.351515,0.04746,-0.1016325,-0.657215,0.070134,0.1013274999999999,-0.674835,0.0690939999999999,0
29,-0.014114,0.7497575000000001,0.065612,-0.180518,0.4716975,0.0160369999999999,-0.238848,0.2710475,-0.040921,0.146542,0.4715175,0.0214819999999999,0.224302,0.2529175,-0.031588,-0.229028,0.1505675,-0.198458,0.151852,0.2781575,-0.250718,-0.073064,-0.0020975,0.0005119999999999,0.073064,0.0020975,-0.000512,-0.096645,-0.3402024999999999,0.0273659999999999,0.093313,-0.3514624999999999,0.047089,-0.101418,-0.6570425,0.0696529999999999,0.101532,-0.6746025,0.068661,0
30,-0.0139945,0.7497594999999999,0.0662225,-0.1798875,0.4723195,0.0159505,-0.2436375,0.2832495,-0.0508685,0.1460925,0.4718895,0.0211085,0.2301725,0.2539395,-0.0398095,-0.2372475,0.1811595,-0.2188884999999999,0.1651525,0.2918195,-0.2626485,-0.0731145,-0.0020445,0.0006045,0.0731145,0.0020445,-0.0006044999999999,-0.0963625,-0.3402705,0.0269285,0.0936355,-0.3514505,0.0466675,-0.1011875,-0.6572405,0.0691435,0.1017525,-0.6744405,0.0681815,0
31,-0.0139319999999999,0.749769,0.0670375,-0.179281,0.4730189999999999,0.0157954999999999,-0.250431,0.296029,-0.0616705,0.145739,0.4722889999999999,0.0206554999999999,0.237699,0.2610889999999999,-0.0481355,-0.245991,0.218649,-0.2408925,0.178449,0.310009,-0.2698225,-0.073167,-0.001986,0.0006224999999999,0.073167,0.001986,-0.0006225,-0.09609,-0.340261,0.0264894999999999,0.093947,-0.351481,0.0461904999999999,-0.1009509999999999,-0.6573709999999999,0.0685804999999999,0.101979,-0.674391,0.0676505,0
32,-0.013919,0.7498554999999999,0.0680709999999999,-0.178616,0.4737255,0.0155149999999999,-0.258476,0.3124255,-0.075414,0.145614,0.4727955,0.0201469999999999,0.245814,0.2723755,-0.062496,-0.255626,0.2655255,-0.261524,0.190964,0.3381055,-0.276424,-0.073225,-0.0019115,0.000578,0.073225,0.0019115,-0.000578,-0.095786,-0.3401945,0.026052,0.094286,-0.3516845,0.045706,-0.100646,-0.6574745000000001,0.068007,0.1022489999999999,-0.6744145,0.0670969999999999,0
33,-0.0139385,0.7499330000000001,0.0690495,-0.1779865,0.474583,0.0151925,-0.2673465,0.330833,-0.0906865,0.1456735,0.473493,0.0196805,0.2552135,0.288313,-0.0778664999999999,-0.2647365,0.314903,-0.2782265,0.2071835,0.371043,-0.2803965,-0.0732725,-0.001855,0.0004515,0.0732725,0.001855,-0.0004514999999999,-0.0955165,-0.340137,0.0256795,0.0945925,-0.351937,0.0452975,-0.1003865,-0.657557,0.0675025,0.1024775,-0.6743669999999999,0.0666325,0
34,-0.014037,0.7499945,0.0700435,-0.177598,0.4755445,0.0149504999999999,-0.276748,0.3496945,-0.1064435,0.145922,0.4742845,0.0193465,0.264332,0.3067945,-0.0905635,-0.273378,0.3657945,-0.2908834999999999,0.222922,0.4069945,-0.2814535,-0.073309,-0.0018265,0.0002305,0.073309,0.0018265,-0.0002305,-0.095308,-0.3400955,0.0253714999999999,0.094837,-0.3521955,0.0450114999999999,-0.100178,-0.6575854999999999,0.0670824999999999,0.102621,-0.6742855,0.0662524999999999,0
35,-0.0141845,0.7500855,0.0711215,-0.1773565,0.4764955,0.0147805,-0.2859165,0.3704855,-0.1214684999999999,0.1461335,0.4749555,0.0190735,0.2727835,0.3289155,-0.1004684999999999,-0.2820765,0.4177655,-0.2983685,0.2395735,0.4442955,-0.2812585,-0.0733475,-0.0018075,-6.849999999999912e-05,0.0733475,0.0018075,6.849999999999912e-05,-0.0951495,-0.3400345,0.0251705,0.0950345,-0.3522045,0.0447555,-0.0999864999999999,-0.6576045,0.0668084999999999,0.1027295,-0.6741645,0.0659545,0
36,-0.0143445,0.7501445,0.0720755,-0.1771625,0.4773845,0.0145215,-0.2928024999999999,0.3917144999999999,-0.1307475,0.1463275,0.4755844999999999,0.0188144999999999,0.2808275,0.3519545,-0.1121875,-0.2910925,0.4717145,-0.3000675,0.2545575,0.4805045,-0.2810775,-0.0733895,-0.0017565,-0.0003355,0.0733895,0.0017565,0.0003354999999999,-0.0950045,-0.3400055,0.0249795,0.0952075,-0.3519855,0.0444815,-0.0998125,-0.6575755,0.0665475,0.1028255,-0.6741155,0.0656995,0
37,-0.014446,0.7499605,0.0728989999999999,-0.176934,0.4788104999999999,0.014343,-0.299674,0.4175405,-0.138467,0.146616,0.4762405,0.018637,0.288496,0.3751505,-0.123207,-0.298764,0.5279805000000001,-0.3004869999999999,0.269266,0.5175005,-0.280827,-0.073416,-0.0016405,-0.000522,0.073416,0.0016405,0.000522,-0.0948459999999999,-0.3401695,0.024806,0.095397,-0.3520395,0.044301,-0.099604,-0.6577495,0.0663769999999999,0.1029799999999999,-0.6744195,0.065534,0
38,-0.014525,0.7495,0.07346,-0.176563,0.48058,0.014261,-0.306463,0.44463,-0.144645,0.1472669999999999,0.47716,0.018571,0.294687,0.39901,-0.130265,-0.304363,0.58314,-0.300735,0.2809669999999999,0.55487,-0.277285,-0.073444,-0.001477,-0.000608,0.073444,0.001477,0.000608,-0.094693,-0.34052,0.024726,0.095553,-0.3523099999999999,0.044203,-0.099363,-0.65816,0.066299,0.1031509999999999,-0.67502,0.065451,0
39,-0.01461,0.7487125,0.0737965,-0.176127,0.4822025,0.0142455,-0.312447,0.4733525,-0.1487524999999999,0.148293,0.4782524999999999,0.0186925,0.300433,0.4316125,-0.1332924999999999,-0.309667,0.6344625,-0.3008025,0.291733,0.5962025000000001,-0.2713625,-0.073473,-0.0013235,-0.0007045,0.073473,0.0013235,0.0007045,-0.09456,-0.3411675,0.0248255,0.095673,-0.3529575,0.0442575,-0.099127,-0.6589275,0.0663795,0.10332,-0.6760075,0.0655515,0
40,-0.014634,0.7476575000000001,0.0740115,-0.175618,0.4841875,0.0141764999999999,-0.315938,0.5029475,-0.1506185,0.150112,0.4792774999999999,0.0188424999999999,0.304872,0.4588474999999999,-0.1392284999999999,-0.314558,0.6793175,-0.2963285,0.302172,0.6330975000000001,-0.2646084999999999,-0.073489,-0.0011304999999999,-0.0009204999999999,0.073489,0.0011305,0.0009204999999999,-0.094375,-0.3421325,0.0250465,0.095779,-0.3539825,0.0443815,-0.098858,-0.6600425,0.0665785,0.103546,-0.6774024999999999,0.0657504999999999,0
41,-0.0146084999999999,0.7462075,0.0743185,-0.1751505,0.4863275,0.0140595,-0.3175905,0.5290675,-0.1503635,0.1518594999999999,0.4803775,0.0189215,0.3085994999999999,0.4837475,-0.1388035,-0.3188205,0.7159975,-0.2902134999999999,0.3105095,0.6617474999999999,-0.2579335,-0.0734895,-0.0009364999999999,-0.0012264999999999,0.0734895,0.0009364999999999,0.0012265,-0.0941765,-0.3434325,0.0253415,0.0958455,-0.3554524999999999,0.0445015,-0.0985905,-0.6617825,0.0669125,0.1038105,-0.6792525,0.0660435,0
42,-0.0145949999999999,0.7444200000000001,0.0746785,-0.174762,0.4885199999999999,0.0139345,-0.317662,0.55276,-0.1500044999999999,0.153548,0.48172,0.0191345,0.310388,0.5049100000000001,-0.1383945,-0.322502,0.7473500000000001,-0.2844645,0.317708,0.68621,-0.2502945,-0.073468,-0.000794,-0.0015494999999999,0.073468,0.0007939999999999,0.0015495,-0.0939629999999999,-0.3450999999999999,0.0256775,0.095915,-0.35731,0.0446235,-0.0982919999999999,-0.66396,0.0672985,0.1041209999999999,-0.68152,0.0663915,0
43,-0.014564,0.7423464999999999,0.0748325,-0.174363,0.4906365,0.0138044999999999,-0.317313,0.5754064999999999,-0.1494565,0.1552069999999999,0.4832265,0.0194484999999999,0.311537,0.5274065,-0.1378265,-0.325703,0.7750265,-0.2720065,0.323717,0.7117365,-0.2358065,-0.073433,-0.0006344999999999,-0.0018085,0.073433,0.0006344999999999,0.0018084999999999,-0.093713,-0.3469235,0.0260494999999999,0.095972,-0.3595035,0.0448274999999999,-0.097983,-0.6663635,0.0678275,0.10447,-0.6840535000000001,0.0669154999999999,0
44,-0.0145219999999999,0.7400125000000001,0.074755,-0.173987,0.4927924999999999,0.0137849999999999,-0.317007,0.5956325,-0.146882,0.156773,0.4853225,0.01995,0.311763,0.5463225,-0.132682,-0.327887,0.8008425,-0.2568919999999999,0.328523,0.7335325,-0.219882,-0.0733709999999999,-0.0005395,-0.001951,0.0733709999999999,0.0005395,0.001951,-0.0934359999999999,-0.3490775,0.0265509999999999,0.096008,-0.3616474999999999,0.045102,-0.097657,-0.6692075,0.068509,0.104827,-0.6869275,0.067574,0
45,-0.01448,0.737346,0.074545,-0.173572,0.495016,0.013869,-0.316792,0.612746,-0.141594,0.1581779999999999,0.487796,0.020607,0.311878,0.564546,-0.124084,-0.329402,0.822526,-0.241794,0.331718,0.754216,-0.204204,-0.0732859999999999,-0.0004489999999999,-0.002048,0.0732859999999999,0.000449,0.002048,-0.09317,-0.351334,0.027162,0.095976,-0.363684,0.045438,-0.0973719999999999,-0.672384,0.069366,0.1051739999999999,-0.690244,0.068399,0
46,-0.0144544999999999,0.7346370000000001,0.074077,-0.1730865,0.496797,0.0140059999999999,-0.3159265,0.624387,-0.134433,0.1592735,0.489887,0.0214299999999999,0.3119435,0.5819070000000001,-0.114593,-0.3303365,0.839507,-0.226523,0.3338335,0.773607,-0.188353,-0.0731985,-0.000483,-0.001989,0.0731985,0.000483,0.0019889999999999,-0.0928885,-0.353673,0.0278779999999999,0.0959055,-0.365593,0.0457589999999999,-0.0971565,-0.675603,0.070334,0.1055055,-0.6936129999999999,0.069397,0
47,-0.0144085,0.7320420000000001,0.073276,-0.1726855,0.4984719999999999,0.014265,-0.3144955,0.636312,-0.125642,0.1601545,0.491722,0.022268,0.3117445,0.599572,-0.1043719999999999,-0.3310755,0.854252,-0.211182,0.3350145,0.7920020000000001,-0.173632,-0.0730784999999999,-0.0005339999999999,-0.001904,0.0730784999999999,0.0005339999999999,0.001904,-0.0926355,-0.356068,0.028671,0.0958475,-0.367088,0.046197,-0.0969154999999999,-0.6788879999999999,0.071388,0.1057895,-0.6969179999999999,0.070497,0
48,-0.0143409999999999,0.729576,0.0722625,-0.1723279999999999,0.500326,0.0144235,-0.312898,0.647116,-0.1168015,0.160882,0.493276,0.0232065,0.311062,0.608696,-0.0943415,-0.331638,0.865886,-0.1965715,0.334802,0.804706,-0.1575415,-0.072956,-0.0005999999999999,-0.0017634999999999,0.072956,0.0005999999999999,0.0017635,-0.092397,-0.358414,0.0295295,0.095777,-0.368434,0.0467095,-0.096698,-0.682034,0.0725115,0.106041,-0.700144,0.0716575,0
49,-0.0143105,0.727288,0.071005,-0.1719035,0.501938,0.0145749999999999,-0.3111534999999999,0.656508,-0.108387,0.1615065,0.4946779999999999,0.0242309999999999,0.3100665,0.618418,-0.0840569999999999,-0.3320935,0.876608,-0.180357,0.3344665,0.820078,-0.140537,-0.0728345,-0.000715,-0.001568,0.0728345,0.000715,0.001568,-0.0922615,-0.360572,0.0303509999999999,0.0956664999999999,-0.369522,0.047214,-0.0965735,-0.685052,0.073654,0.1061815,-0.703252,0.07281,0
50,-0.014279,0.7250880000000001,0.069544,-0.1714959999999999,0.503278,0.014755,-0.309306,0.665098,-0.100361,0.162014,0.496568,0.025189,0.308934,0.626808,-0.074511,-0.332456,0.8837280000000001,-0.165331,0.334124,0.833558,-0.124831,-0.072728,-0.0008829999999999,-0.0013509999999999,0.072728,0.000883,0.0013509999999999,-0.092163,-0.3627519999999999,0.0311579999999999,0.095634,-0.370452,0.047728,-0.096486,-0.688072,0.074781,0.1062729999999999,-0.706332,0.073947,0
51,-0.0141874999999999,0.723074,0.0680984999999999,-0.1711815,0.5044240000000001,0.0148424999999999,-0.3075315,0.672864,-0.0926535,0.1623385,0.498504,0.0260654999999999,0.3066885,0.6355740000000001,-0.0649035,-0.3328315,0.889564,-0.1513135,0.3337285,0.846524,-0.1108235,-0.0726545,-0.0010099999999999,-0.0011475,0.0726545,0.00101,0.0011474999999999,-0.0921065,-0.364736,0.0319145,0.0956835,-0.371296,0.0483004999999999,-0.0964614999999999,-0.690886,0.0758295,0.1063195,-0.709156,0.0750575,0
52,-0.0140925,0.7212435,0.066612,-0.1708845,0.5054835,0.014847,-0.3057645,0.6798235,-0.085656,0.1625155,0.5004635,0.026949,0.3043855,0.6415435,-0.057326,-0.3331645,0.8942734999999999,-0.138406,0.3329554999999999,0.8539935,-0.097386,-0.0726105,-0.0011774999999999,-0.0009349999999999,0.0726105,0.0011774999999999,0.000935,-0.0920585,-0.3666865,0.032656,0.0957165,-0.3721065,0.048883,-0.0964744999999999,-0.6935565,0.076819,0.1063385,-0.7118265,0.076107,0
53,-0.0140279999999999,0.7195039999999999,0.0649629999999999,-0.170692,0.506544,0.014813,-0.303932,0.685914,-0.0792259999999999,0.162498,0.502014,0.027807,0.301968,0.648334,-0.049962,-0.333242,0.895344,-0.127516,0.331638,0.861314,-0.085066,-0.072592,-0.0012789999999999,-0.0007899999999999,0.072592,0.001279,0.0007899999999999,-0.092017,-0.368446,0.033362,0.095716,-0.3730759999999999,0.049451,-0.096522,-0.696096,0.077832,0.106324,-0.714336,0.07715,0
54,-0.0139889999999999,0.7179645,0.063245,-0.170538,0.5076345,0.0147199999999999,-0.302208,0.6916445,-0.073316,0.162462,0.5030844999999999,0.0285559999999999,0.299522,0.6553445,-0.043325,-0.333258,0.8962445,-0.117056,0.329872,0.8676745,-0.073436,-0.0725669999999999,-0.0013945,-0.000676,0.0725669999999999,0.0013945,0.0006759999999999,-0.0919569999999999,-0.3701755,0.0339899999999999,0.095687,-0.3741455,0.0499839999999999,-0.096558,-0.6983555,0.0788079999999999,0.106267,-0.7165955,0.0781449999999999,0
55,-0.0139669999999999,0.7166335,0.0615725,-0.170332,0.5086435,0.0145435,-0.300602,0.6969135,-0.0680004999999999,0.162388,0.5042135,0.0291635,0.2970779999999999,0.6621435,-0.0372715,-0.332962,0.8965835,-0.1072505,0.327468,0.8740034999999999,-0.0628905,-0.072519,-0.0014054999999999,-0.0006604999999999,0.072519,0.0014055,0.0006605,-0.091919,-0.3718165,0.0345505,0.095681,-0.3751665,0.0505285,-0.096612,-0.7004265000000001,0.0796765,0.106199,-0.7186365,0.0790065,0
56,-0.0139274999999999,0.7153285,0.0601304999999999,-0.1701405,0.5093485,0.0143104999999999,-0.2987605,0.7007384999999999,-0.0632995,0.1623295,0.5055385,0.0296654999999999,0.2946895,0.6682285,-0.0318785,-0.3326905,0.8968085,-0.0989495,0.3250895,0.8801185,-0.0527835,-0.0724674999999999,-0.0014335,-0.0006065,0.0724674999999999,0.0014334999999999,0.0006064999999999,-0.0918805,-0.3732215,0.0349685,0.0956915,-0.3764015,0.0509955,-0.0966305,-0.7025115000000001,0.0804655,0.1060875,-0.7205515,0.0797785,0
57,-0.013828,0.7141495,0.0587555,-0.169922,0.5098295,0.0142464999999999,-0.296772,0.7039095,-0.0588275,0.161618,0.5069195,0.0300234999999999,0.292248,0.6749795000000001,-0.0269945,-0.332432,0.8972995,-0.0911874999999999,0.322988,0.8854095000000001,-0.0439825,-0.072432,-0.0014365,-0.0005544999999999,0.072432,0.0014365,0.0005544999999999,-0.091823,-0.3743805,0.0352964999999999,0.095798,-0.3775405,0.0514354999999999,-0.096642,-0.7043905,0.0812205,0.105999,-0.7222704999999999,0.0804884999999999,0
58,-0.0137259999999999,0.7128905,0.057636,-0.169562,0.5103305,0.014219,-0.294552,0.7065305000000001,-0.054503,0.161008,0.5081505000000001,0.030416,0.289718,0.6810105,-0.0224399999999999,-0.3322119999999999,0.8967505,-0.085853,0.320768,0.8870405,-0.03682,-0.072407,-0.0014475,-0.000487,0.072407,0.0014474999999999,0.000487,-0.091778,-0.3753195,0.035565,0.095852,-0.3787395,0.051852,-0.0966119999999999,-0.7062695,0.082046,0.105888,-0.7239395,0.081236,0
59,-0.013627,0.711772,0.0567354999999999,-0.16913,0.510742,0.0143044999999999,-0.29206,0.708852,-0.0505065,0.16046,0.508912,0.0309254999999999,0.28708,0.687512,-0.0182244999999999,-0.33187,0.896662,-0.0805664999999999,0.31859,0.888962,-0.0300194999999999,-0.072424,-0.0014529999999999,-0.0003895,0.072424,0.001453,0.0003895,-0.091728,-0.376058,0.0358275,0.095896,-0.379818,0.0522554999999999,-0.09662,-0.707988,0.0828025,0.105809,-0.725438,0.0819715,0
60,-0.013484,0.710587,0.055996,-0.168547,0.511507,0.0145449999999999,-0.289427,0.710757,-0.046913,0.159883,0.509527,0.0315839999999999,0.284563,0.693317,-0.014346,-0.331377,0.896887,-0.075347,0.316583,0.890857,-0.023855,-0.072447,-0.0014609999999999,-0.000287,0.072447,0.0014609999999999,0.0002869999999999,-0.091675,-0.376863,0.0361089999999999,0.0959179999999999,-0.380723,0.0525989999999999,-0.096617,-0.709793,0.0836079999999999,0.105738,-0.727033,0.0827509999999999,0
61,-0.0133465,0.709442,0.0554835,-0.1678175,0.5126820000000001,0.0148765,-0.2867175,0.712612,-0.0436635,0.1593325,0.510042,0.0322365,0.2820925,0.698262,-0.0107885,-0.3308875,0.897532,-0.0685465,0.3144325,0.892792,-0.0177485,-0.0724635,-0.0014279999999999,-0.0001945,0.0724635,0.001428,0.0001945,-0.0916295,-0.377488,0.0363675,0.0959185,-0.381438,0.0528625,-0.0966075,-0.711568,0.0843785,0.1056884999999999,-0.7285379999999999,0.0834915,0
62,-0.0132165,0.7082959999999999,0.0551655,-0.1670715,0.513546,0.0152615,-0.2839615,0.714236,-0.0406514999999999,0.1585285,0.510886,0.0328745,0.2795885,0.702616,-0.0075985,-0.3304415,0.903566,-0.0607555,0.3124585,0.8944259999999999,-0.0123275,-0.0724785,-0.001421,-9.549999999999836e-05,0.0724785,0.0014209999999999,9.549999999999836e-05,-0.0916015,-0.377864,0.0364605,0.0958934999999999,-0.3821139999999999,0.0530295,-0.0966115,-0.713184,0.0850635,0.1056474999999999,-0.7301040000000001,0.0841804999999999,0
63,-0.0131034999999999,0.707388,0.0549495,-0.1663435,0.514248,0.0156375,-0.2812435,0.715998,-0.0378415,0.1578665,0.511718,0.0335195,0.2773064999999999,0.7066479999999999,-0.0048185,-0.3299835,0.910108,-0.0535104999999999,0.3105664999999999,0.8959779999999999,-0.0076195,-0.0724934999999999,-0.0014149999999999,2.0499999999999685e-05,0.0724934999999999,0.001415,-2.0499999999999685e-05,-0.0916085,-0.378142,0.0365265,0.0958695,-0.382642,0.0531065,-0.0966235,-0.714562,0.0856285,0.1056085,-0.731482,0.0847755,0
64,-0.0129679999999999,0.706609,0.0548215,-0.165689,0.514759,0.0160944999999999,-0.2786189999999999,0.7175990000000001,-0.0353505,0.157351,0.512489,0.0341455,0.275211,0.7102489999999999,-0.0024064999999999,-0.3296489999999999,0.918039,-0.0467534999999999,0.309021,0.8971690000000001,-0.0039135,-0.072524,-0.0014539999999999,0.0001504999999999,0.072524,0.0014539999999999,-0.0001504999999999,-0.091609,-0.378301,0.0365655,0.095863,-0.382991,0.0531145,-0.096639,-0.7159009999999999,0.0861514999999999,0.105585,-0.732691,0.0853295,0
65,-0.0128474999999999,0.7059219999999999,0.0547545,-0.1650295,0.515322,0.0166034999999999,-0.2763595,0.7189719999999999,-0.0332405,0.1568905,0.512972,0.0347585,0.2733405,0.713422,-0.0003235,-0.3293595,0.926152,-0.0402965,0.3075905,0.897882,-0.0009205,-0.0725514999999999,-0.0014469999999999,0.0002464999999999,0.0725514999999999,0.001447,-0.0002465,-0.0916245,-0.378468,0.0366674999999999,0.0957965,-0.383258,0.0531214999999999,-0.0966694999999999,-0.717098,0.0866675,0.1055735,-0.733838,0.0858535,0
66,-0.0127509999999999,0.70533,0.054793,-0.164357,0.51583,0.0170929999999999,-0.2743669999999999,0.71992,-0.031461,0.156653,0.5133599999999999,0.035274,0.271763,0.71504,0.0013989999999999,-0.3290869999999999,0.93382,-0.034412,0.306253,0.8984099999999999,0.0016289999999999,-0.0725919999999999,-0.001453,0.0003589999999999,0.0725919999999999,0.0014529999999999,-0.0003589999999999,-0.091636,-0.37864,0.036722,0.09569,-0.38342,0.05305,-0.096687,-0.71831,0.087127,0.1055909999999999,-0.7349100000000001,0.086295,0
67,-0.0126534999999999,0.7048905,0.0548015,-0.1638664999999999,0.5161705,0.0175105,-0.2728365,0.7207104999999999,-0.0299755,0.1564435,0.5137404999999999,0.0356095,0.2704335,0.7161704999999999,0.0027584999999999,-0.3287365,0.9412305,-0.0291924999999999,0.3050835,0.8990505,0.0037775,-0.0726455,-0.0014435,0.0004405,0.0726455,0.0014435,-0.0004405,-0.0916464999999999,-0.3789595,0.0368195,0.0955945,-0.3835095,0.0529545,-0.0967065,-0.7193395,0.0874485,0.1056135,-0.7358295,0.0866095,0
68,-0.012564,0.7045389999999999,0.054802,-0.163377,0.5166189999999999,0.017817,-0.271747,0.721309,-0.028743,0.156243,0.5138889999999999,0.035815,0.269493,0.7164389999999999,0.003721,-0.328497,0.948529,-0.024411,0.303973,0.899289,0.0055839999999999,-0.072687,-0.001392,0.000514,0.072687,0.0013919999999999,-0.000514,-0.091667,-0.379121,0.036795,0.095552,-0.3836009999999999,0.052826,-0.096727,-0.7202310000000001,0.087686,0.10564,-0.7365010000000001,0.086815,0
69,-0.012535,0.7044475,0.054751,-0.163133,0.5166875000000001,0.017964,-0.270963,0.7218075,-0.027822,0.156117,0.5139575000000001,0.036162,0.268787,0.7164875,0.0043839999999999,-0.328403,0.9555575,-0.020125,0.302927,0.8993475000000001,0.007098,-0.07272,-0.0013384999999999,0.000556,0.07272,0.0013385,-0.000556,-0.091714,-0.3791325,0.036693,0.0955149999999999,-0.3837024999999999,0.052645,-0.096763,-0.7208125,0.087793,0.105636,-0.7369625,0.086883,0
70,-0.0125249999999999,0.704448,0.0547005,-0.163084,0.5163179999999999,0.0181355,-0.270484,0.722058,-0.0270675,0.155986,0.513968,0.0364535,0.2683359999999999,0.716418,0.0047384999999999,-0.328254,0.959878,-0.0184035,0.302246,0.8992779999999999,0.0078544999999999,-0.072759,-0.001313,0.0005884999999999,0.072759,0.0013129999999999,-0.0005885,-0.091773,-0.379162,0.0365954999999999,0.095478,-0.383762,0.0524795,-0.096814,-0.7212820000000001,0.0878714999999999,0.105621,-0.7374820000000001,0.0869335,0
71,-0.0125184999999999,0.7046184999999999,0.0546139999999999,-0.1630194999999999,0.5161985,0.018219,-0.2702694999999999,0.7222885,-0.0265429999999999,0.1558705,0.5136985,0.036606,0.2680205,0.7164484999999999,0.0048799999999999,-0.3280094999999999,0.9608285,-0.018282,0.3016905,0.8993285,0.0081839999999999,-0.0727845,-0.0012925,0.000591,0.0727845,0.0012925,-0.000591,-0.0918195,-0.3793515,0.03653,0.0954575,-0.3838014999999999,0.052315,-0.0968595,-0.7216615000000001,0.08784,0.1056285,-0.7377815000000001,0.0868879999999999,0
72,-0.012588,0.704671,0.0546119999999999,-0.1630889999999999,0.5159910000000001,0.0182969999999999,-0.270249,0.7223010000000001,-0.026149,0.155841,0.513541,0.0367229999999999,0.2677609999999999,0.7163710000000001,0.0048959999999999,-0.327769,0.961621,-0.018275,0.301291,0.8992610000000001,0.008173,-0.0728159999999999,-0.0012859999999999,0.0005899999999999,0.0728159999999999,0.001286,-0.00059,-0.091914,-0.379759,0.0364319999999999,0.095392,-0.383849,0.052166,-0.096969,-0.722119,0.087796,0.1055599999999999,-0.738189,0.086825,0
73,-0.0126609999999999,0.7047345,0.0546095,-0.1631619999999999,0.5158245,0.0184445,-0.270332,0.7222545,-0.0258195,0.155868,0.5134545,0.0368455,0.267578,0.7162745,0.0048904999999999,-0.327842,0.9613545,-0.0182774999999999,0.300988,0.8991845,0.0081635,-0.072833,-0.0012675,0.0005894999999999,0.072833,0.0012674999999999,-0.0005894999999999,-0.092006,-0.3801255,0.0363275,0.095325,-0.3838955,0.0520375,-0.097072,-0.7225855,0.0877395,0.10549,-0.7385555,0.0867265,0
74,-0.012773,0.7048264999999999,0.0545724999999999,-0.163374,0.5156364999999999,0.0186345,-0.270454,0.7222965,-0.0255455,0.1557859999999999,0.5134565,0.0369505,0.267406,0.7162465,0.0048515,-0.327614,0.9611165,-0.0183065,0.300656,0.8991965,0.0081195,-0.072836,-0.0013174999999999,0.0006224999999999,0.072836,0.0013174999999999,-0.0006224999999999,-0.092134,-0.3804635,0.0361024999999999,0.095245,-0.3840234999999999,0.0518615,-0.097204,-0.7229235,0.0875165,0.105372,-0.7389635,0.0865944999999999,0
75,-0.0130705,0.7046525,0.0541085,-0.1636685,0.5156725,0.0188334999999999,-0.2706885,0.7222125,-0.0258025,0.1555015,0.5133625,0.0366725,0.2671515,0.7160525,0.0042524999999999,-0.3273785,0.9605925,-0.0188915,0.3001614999999999,0.8990725,0.0073564999999999,-0.0728215,-0.0013144999999999,0.0007264999999999,0.0728215,0.0013144999999999,-0.0007265,-0.0923435,-0.3811475,0.0344405,0.0953195,-0.3845575,0.0508034999999999,-0.0974185,-0.7241975,0.0860995,0.1051344999999999,-0.7396775,0.0857555,0
76,-0.0133754999999999,0.704447,0.0535465,-0.1639715,0.515807,0.0189365,-0.2709515,0.7221770000000001,-0.0262594999999999,0.1551584999999999,0.5133270000000001,0.0361864999999999,0.2668985,0.715967,0.0034015,-0.3271315,0.960117,-0.0201494999999999,0.2996385,0.899107,0.0061545,-0.0728075,-0.0013729999999999,0.0007775,0.0728075,0.0013729999999999,-0.0007775,-0.0925545,-0.381763,0.0322325,0.0955265,-0.385033,0.0492605,-0.0976215,-0.725503,0.0843725,0.1048885,-0.740653,0.0845975,0
77,-0.01369,0.7042895,0.0528035,-0.164174,0.5160994999999999,0.0189065,-0.271244,0.7223495,-0.0269605,0.154796,0.5132895,0.0354635,0.266646,0.7159295,0.0022485,-0.327024,0.9597195,-0.0216544999999999,0.299096,0.8991994999999999,0.0043665,-0.072791,-0.0014445,0.0008664999999999,0.072791,0.0014445,-0.0008664999999999,-0.092788,-0.3822805,0.0294365,0.0958199999999999,-0.3853305,0.0471555,-0.097834,-0.7268305,0.0823415,0.1046,-0.7415605000000001,0.0831075,0
78,-0.013989,0.7042095,0.0516705,-0.164403,0.5162795,0.0185175,-0.271563,0.7226895,-0.0281224999999999,0.154337,0.5132895,0.0343095,0.266337,0.7159695,0.0006325,-0.326963,0.9596395,-0.0236185,0.298497,0.8993795,0.0019725,-0.072762,-0.0015244999999999,0.0009615,0.072762,0.0015245,-0.0009614999999999,-0.093082,-0.3829405,0.0257885,0.096192,-0.3854105,0.0442565,-0.098093,-0.7281505,0.0797225,0.10424,-0.7423005,0.0811075,0
79,-0.0143334999999999,0.7042095,0.050291,-0.1646535,0.5162995,0.01781,-0.2719035,0.7228195000000001,-0.0297209999999999,0.1538064999999999,0.5132895,0.0327449999999999,0.2659865,0.7159695,-0.0014339999999999,-0.3269535,0.9595395,-0.0259439999999999,0.2978265,0.8993795,-0.0009769999999999,-0.0727635,-0.0015244999999999,0.0010599999999999,0.0727635,0.0015245,-0.0010599999999999,-0.0934115,-0.3837804999999999,0.021276,0.0966644999999999,-0.3855905,0.040663,-0.0982935,-0.7301005,0.076529,0.1038264999999999,-0.7430005,0.078653,0
80,-0.01472,0.7042095,0.0485779999999999,-0.164953,0.5162995,0.0167269999999999,-0.272283,0.7228095,-0.03176,0.153147,0.5132895,0.0307459999999999,0.265617,0.7159695,-0.003977,-0.326963,0.9594395,-0.028561,0.297107,0.8993795,-0.00449,-0.072773,-0.0015244999999999,0.0011419999999999,0.072773,0.0015245,-0.001142,-0.093802,-0.3848305,0.0159809999999999,0.0972519999999999,-0.3860705,0.0361539999999999,-0.098473,-0.7331305,0.072819,0.1033859999999999,-0.7440105,0.07574,0
81,-0.0150795,0.7039495,0.0467185,-0.1652314999999999,0.5162895,0.0154225,-0.2726415,0.7228095,-0.0342144999999999,0.1525584999999999,0.5132895,0.0284295,0.2652585,0.7159695,-0.0069844999999999,-0.3269215,0.9592395,-0.0315074999999999,0.2964285,0.8993795,-0.0086294999999999,-0.0728095,-0.0015244999999999,0.0012385,0.0728095,0.0015245,-0.0012384999999999,-0.0942215,-0.3861905,0.0097565,0.0979555,-0.3868405,0.0310235,-0.0986315,-0.7367205,0.0685175,0.1029495,-0.7450105,0.0723425,0
82,-0.0154825,0.7034450000000001,0.044584,-0.1654405,0.5163850000000001,0.0138269999999999,-0.2729605,0.723025,-0.03709,0.1519395,0.5132950000000001,0.025702,0.2647595,0.715835,-0.0104599999999999,-0.3269105,0.959255,-0.034698,0.2956195,0.899375,-0.013483,-0.0728645,-0.0016049999999999,0.001396,0.0728645,0.0016049999999999,-0.001396,-0.0947214999999999,-0.387425,0.002736,0.0988085,-0.387515,0.024968,-0.0988405,-0.740095,0.06364,0.1024455,-0.745775,0.068411,0
83,-0.015836,0.7028260000000001,0.042014,-0.165488,0.5167160000000001,0.011768,-0.273188,0.7234160000000001,-0.040535,0.151252,0.513256,0.02254,0.264252,0.715596,-0.0146259999999999,-0.326628,0.959626,-0.0385029999999999,0.294822,0.899286,-0.0188449999999999,-0.072986,-0.0016369999999999,0.001496,0.072986,0.0016369999999999,-0.0014959999999999,-0.095254,-0.388374,-0.0051069999999999,0.09983,-0.387884,0.01806,-0.099018,-0.743034,0.058253,0.1019569999999999,-0.7462639999999999,0.063785,0
84,-0.0160379999999999,0.7021685,0.0394935,-0.165373,0.5170085,0.0093975,-0.273183,0.7238985,-0.0440555,0.1505369999999999,0.5129585,0.0192265,0.263637,0.7143885,-0.0188185,-0.326363,0.9605185,-0.0424105,0.294027,0.8987784999999999,-0.0241025,-0.073154,-0.0016795,0.0015314999999999,0.073154,0.0016795,-0.0015314999999999,-0.095771,-0.3887115,-0.0122835,0.100816,-0.3878115,0.0112705,-0.099123,-0.7448715,0.0534175,0.101547,-0.7461515000000001,0.0591445,0
85,-0.0162145,0.7015545,0.036779,-0.1653455,0.5175145,0.006815,-0.2730455,0.7243645,-0.047928,0.1498245,0.5125445,0.015758,0.2629445,0.7127845,-0.0233419999999999,-0.3259255,0.9618445,-0.046651,0.2932345,0.8984045,-0.0297229999999999,-0.0733284999999999,-0.0016795,0.001589,0.0733284999999999,0.0016795,-0.001589,-0.0963485,-0.3886755,-0.0196849999999999,0.1019315,-0.3872655,0.004159,-0.0992255,-0.7462655,0.048317,0.1010585,-0.7453655,0.054107,0
86,-0.0163775,0.700604,0.0337785,-0.1654554999999999,0.517964,0.0037564999999999,-0.2727355,0.724774,-0.0521045,0.1490945,0.5120439999999999,0.0120455,0.2622445,0.710914,-0.0282924999999999,-0.3252355,0.963604,-0.0510155,0.2924545,0.898274,-0.0355455,-0.0735075,-0.0016359999999999,0.0015725,0.0735075,0.0016359999999999,-0.0015725,-0.0969765,-0.388136,-0.0271845,0.1031545,-0.386206,-0.0030915,-0.0993355,-0.747316,0.0429875,0.1005465,-0.744026,0.0488085,0
87,-0.0164264999999999,0.699395,0.0307635,-0.1651615,0.5182850000000001,0.0006185,-0.2723715,0.7253449999999999,-0.0564065,0.1484085,0.510635,0.0082265,0.2615585,0.7088049999999999,-0.0334015,-0.3243315,0.965625,-0.0554805,0.2917285,0.898515,-0.0415245,-0.0737235,-0.001694,0.0015975,0.0737235,0.001694,-0.0015974999999999,-0.0976465,-0.386635,-0.0346825,0.1045385,-0.384295,-0.0104415,-0.0994115,-0.7474750000000001,0.0375825,0.1000925,-0.741835,0.0434425,0
88,-0.016458,0.6979274999999999,0.027576,-0.164847,0.5190275,-0.0027869999999999,-0.271887,0.7259574999999999,-0.060887,0.147693,0.5088174999999999,0.004238,0.260863,0.7064575,-0.0387249999999999,-0.323217,0.9679175,-0.060419,0.290943,0.8988674999999999,-0.04776,-0.073943,-0.0016685,0.001574,0.073943,0.0016684999999999,-0.001574,-0.0983769999999999,-0.3846425,-0.042248,0.106083,-0.3816225,-0.0181669999999999,-0.0995669999999999,-0.7463225,0.032075,0.099756,-0.7392025000000001,0.03784,0
89,-0.016466,0.6960845,0.0245135,-0.164601,0.5201045,-0.0059385,-0.271361,0.7262145,-0.0653435,0.147119,0.5072245,0.0003235,0.260159,0.7038945,-0.0441504999999999,-0.321921,0.9697445,-0.0652825,0.290149,0.8995145,-0.0540824999999999,-0.0741759999999999,-0.0016435,0.0016325,0.0741759999999999,0.0016434999999999,-0.0016325,-0.0992609999999999,-0.3823255,-0.0497885,0.107789,-0.3782554999999999,-0.0259124999999999,-0.099741,-0.7436455000000001,0.0266075,0.099546,-0.7359355000000001,0.0321965,0
90,-0.0166765,0.694634,0.0211155,-0.1643775,0.518914,-0.0084545,-0.2706675,0.725654,-0.0700355,0.1463624999999999,0.505134,-0.0038555,0.2592824999999999,0.701544,-0.0497775,-0.3204175,0.970814,-0.0703565,0.2891924999999999,0.901414,-0.0605195,-0.0744535,-0.00164,0.0017515,0.0744535,0.0016399999999999,-0.0017515,-0.1003675,-0.378836,-0.0574465,0.1096325,-0.373756,-0.0341295,-0.1000675,-0.7391260000000001,0.0210045,0.0991954999999999,-0.731406,0.0263825,1
91,-0.01692,0.693484,0.0176545,-0.1642259999999999,0.518484,-0.0109755,-0.269706,0.724144,-0.0745655,0.145644,0.503224,-0.0079015,0.258414,0.699714,-0.0554865,-0.317946,0.967454,-0.0760625,0.2882039999999999,0.904354,-0.0669005,-0.074725,-0.001627,0.0018925,0.074725,0.0016269999999999,-0.0018925,-0.101606,-0.374936,-0.0651605,0.111664,-0.368926,-0.0425155,-0.100526,-0.733636,0.0153825,0.0987779999999999,-0.725976,0.0206315,1
92,-0.017259,0.692074,0.0147295,-0.164081,0.517594,-0.0133164999999999,-0.268901,0.723254,-0.0789935,0.145059,0.501324,-0.0117415,0.257379,0.697904,-0.0609155,-0.315911,0.965304,-0.0813765,0.286879,0.905764,-0.0736735,-0.075023,-0.0017249999999999,0.0021205,0.075023,0.001725,-0.0021205,-0.102971,-0.370826,-0.0728925,0.113939,-0.364316,-0.0511435,-0.101061,-0.727476,0.0097565,0.098269,-0.719836,0.0151655,1
93,-0.0176055,0.6907265,0.0118944999999999,-0.1639894999999999,0.5171264999999999,-0.0155024999999999,-0.2682395,0.7227264999999999,-0.0832354999999999,0.1445105,0.4991464999999999,-0.0153435,0.2564904999999999,0.6969065,-0.0659625,-0.3138695,0.9636265,-0.0864505,0.2857205,0.9087465,-0.0800365,-0.0753004999999999,-0.0018034999999999,0.0023575,0.0753004999999999,0.0018034999999999,-0.0023575,-0.1043095,-0.3666435,-0.0806095,0.1162405,-0.3595935,-0.0595345,-0.1015495,-0.7209735,0.0041235,0.0978574999999999,-0.7136335,0.0093405,1
94,-0.017943,0.6885865,0.00918,-0.163892,0.5175565000000001,-0.0175029999999999,-0.267672,0.7222965,-0.087171,0.143948,0.4975165,-0.01873,0.2557779999999999,0.6961265000000001,-0.070774,-0.311962,0.9625465,-0.091196,0.2845379999999999,0.9122765,-0.085997,-0.0755609999999999,-0.0018644999999999,0.0025129999999999,0.0755609999999999,0.0018645,-0.0025129999999999,-0.105672,-0.3624835,-0.088337,0.118448,-0.3544435,-0.06768,-0.102172,-0.7139435,-0.0016699999999999,0.0975,-0.7068835,0.003271,1
95,-0.0184954999999999,0.686871,0.0066849999999999,-0.1641185,0.5160710000000001,-0.019202,-0.2674585,0.722211,-0.0909379999999999,0.1431515,0.495581,-0.021615,0.2548915,0.695151,-0.075329,-0.3105385,0.962561,-0.095819,0.2830614999999999,0.916291,-0.091668,-0.0759425,-0.002119,0.0026589999999999,0.0759425,0.002119,-0.002659,-0.1072785,-0.357849,-0.096111,0.1203515,-0.348699,-0.0757029999999999,-0.1029984999999999,-0.705299,-0.007354,0.0968865,-0.698919,-0.0026,1
96,-0.019265,0.685865,0.0042169999999999,-0.164441,0.5150349999999999,-0.020789,-0.267351,0.722285,-0.094558,0.142219,0.494485,-0.024356,0.2540389999999999,0.695275,-0.079757,-0.309041,0.958245,-0.1010139999999999,0.281379,0.920485,-0.097287,-0.076299,-0.00226,0.0027689999999999,0.076299,0.00226,-0.002769,-0.108941,-0.352435,-0.103984,0.1221789999999999,-0.3430249999999999,-0.083878,-0.103831,-0.695575,-0.01303,0.0961779999999999,-0.690125,-0.008543,1
97,-0.020188,0.684728,0.001809,-0.164827,0.513438,-0.0220889999999999,-0.267377,0.721628,-0.09806,0.141253,0.493838,-0.026861,0.253113,0.694978,-0.0840549999999999,-0.307787,0.954998,-0.106165,0.2794029999999999,0.917608,-0.103753,-0.076663,-0.002486,0.002942,0.076663,0.0024859999999999,-0.002942,-0.110587,-0.3467719999999999,-0.111747,0.123693,-0.337472,-0.09154,-0.104667,-0.685172,-0.01847,0.095365,-0.680742,-0.014195,1
98,-0.021218,0.683656,-0.000569,-0.165243,0.511876,-0.023581,-0.267523,0.721636,-0.101382,0.140177,0.493356,-0.029196,0.252097,0.694126,-0.088299,-0.306603,0.950336,-0.1119349999999999,0.277667,0.915066,-0.109932,-0.076993,-0.0026809999999999,0.002978,0.076993,0.0026809999999999,-0.002978,-0.112133,-0.340964,-0.119505,0.124887,-0.331794,-0.099173,-0.105623,-0.674104,-0.023866,0.094406,-0.6707339999999999,-0.019624,1
99,-0.0220575,0.6825129999999999,-0.0028315,-0.1657475,0.510183,-0.0259285,-0.2676875,0.7214229999999999,-0.1046595,0.1391724999999999,0.492423,-0.0313695,0.2512025,0.693803,-0.0923585,-0.3056975,0.947163,-0.1175855,0.2757825,0.913323,-0.1159365,-0.0773275,-0.002845,0.0029964999999999,0.0773275,0.002845,-0.0029965,-0.1133875,-0.334527,-0.1270335,0.1258425,-0.325557,-0.1065105,-0.1064175,-0.662537,-0.0292585,0.0935304999999999,-0.660037,-0.0248555,1
100,-0.02312,0.681069,-0.0052085,-0.166307,0.508339,-0.0284435,-0.268567,0.722709,-0.1080405,0.138063,0.4918389999999999,-0.0335895,0.250183,0.693019,-0.0963705,-0.306017,0.948669,-0.1226215,0.273753,0.912389,-0.1217775,-0.077553,-0.003088,0.0029655,0.077553,0.003088,-0.0029654999999999,-0.114707,-0.327661,-0.1345335,0.126333,-0.319331,-0.1141375,-0.107277,-0.6508109999999999,-0.0347235,0.092556,-0.6488809999999999,-0.0301865,1
101,-0.0240805,0.678589,-0.0078265,-0.1670365,0.506849,-0.0307935,-0.2691565,0.721259,-0.1111575,0.1372335,0.492089,-0.0357245,0.2491435,0.6909890000000001,-0.1002155,-0.3061165,0.946839,-0.1275665,0.2720835,0.913569,-0.1271245,-0.0777405,-0.003345,0.0028865,0.0777405,0.003345,-0.0028865,-0.1158665,-0.320901,-0.1413725,0.1264135,-0.313271,-0.1211525,-0.1080365,-0.639281,-0.0397635,0.0916695,-0.6379509999999999,-0.0352785,1
102,-0.0249315,0.6768345,-0.0106559999999999,-0.1676115,0.5044744999999999,-0.033373,-0.2696314999999999,0.7207645,-0.11467,0.1363785,0.4899844999999999,-0.038088,0.2483584999999999,0.6896745,-0.10436,-0.3060414999999999,0.9451145,-0.133048,0.2704085,0.9093745,-0.133219,-0.0780285,-0.0034905,0.002788,0.0780285,0.0034904999999999,-0.0027879999999999,-0.1168815,-0.3124854999999999,-0.148149,0.1265685,-0.3058855,-0.1285589999999999,-0.1086814999999999,-0.6257055,-0.0446649999999999,0.0908865,-0.6247355,-0.039899,1
103,-0.0258725,0.6748795,-0.0137215,-0.1682815,0.5015495,-0.0360725,-0.2701115,0.7202594999999999,-0.1185705,0.1355084999999999,0.4879495,-0.0405915,0.2473584999999999,0.6881395,-0.1087185,-0.3059215,0.9391595,-0.1393575,0.2687485,0.9055195,-0.1393855,-0.0782005,-0.0036604999999999,0.0029234999999999,0.0782005,0.0036605,-0.0029235,-0.1178515,-0.3039305,-0.1546685,0.1266884999999999,-0.2990405,-0.1359195,-0.1093715,-0.6118805,-0.0492995,0.0898964999999999,-0.6114705,-0.0439395,1
104,-0.026721,0.67245,-0.0164825,-0.168638,0.49983,-0.0385505,-0.270438,0.71491,-0.1217315,0.1348019999999999,0.4866,-0.0431695,0.2465419999999999,0.68696,-0.1127375,-0.3055879999999999,0.93283,-0.1454375,0.267462,0.90347,-0.1454075,-0.078277,-0.0036299999999999,0.0030644999999999,0.078277,0.00363,-0.0030644999999999,-0.118638,-0.29232,-0.1606604999999999,0.1269219999999999,-0.28886,-0.1430605,-0.109938,-0.5983299999999999,-0.0536905,0.088965,-0.59841,-0.0477535,1
105,-0.027665,0.669865,-0.0192595,-0.168853,0.497145,-0.0410965,-0.270403,0.711835,-0.1251625,0.134157,0.484915,-0.0457655,0.245947,0.685885,-0.1168235,-0.305713,0.932795,-0.1509545,0.266017,0.900485,-0.1512745,-0.0783119999999999,-0.0037349999999999,0.0032504999999999,0.0783119999999999,0.003735,-0.0032505,-0.119473,-0.2793049999999999,-0.1661845,0.127107,-0.276445,-0.1498944999999999,-0.1103339999999999,-0.584095,-0.0578455,0.088073,-0.584185,-0.0513355,1
106,-0.028503,0.66936,-0.027088,-0.168827,0.4965299999999999,-0.049209,-0.270117,0.71032,-0.133358,0.133703,0.48447,-0.053499,0.245593,0.68536,-0.1259259999999999,-0.305407,0.93235,-0.16143,0.264713,0.90157,-0.1614499999999999,-0.078292,-0.00353,0.003442,0.078292,0.00353,-0.003442,-0.1200769999999999,-0.26527,-0.1763799999999999,0.127643,-0.26296,-0.16192,-0.110289,-0.56942,-0.066984,0.0874089999999999,-0.56916,-0.059983,1
107,-0.0295799999999999,0.67146,-0.036266,-0.168292,0.49361,-0.0588599999999999,-0.2698419999999999,0.7089799999999999,-0.143248,0.132848,0.48302,-0.062606,0.244908,0.6878299999999999,-0.136353,-0.3059219999999999,0.93587,-0.172864,0.263388,0.90545,-0.1732739999999999,-0.078297,-0.00348,0.0033249999999999,0.078297,0.0034799999999999,-0.0033249999999999,-0.1218819999999999,-0.24605,-0.191714,0.129438,-0.24437,-0.179424,-0.110428,-0.5502400000000001,-0.077449,0.086591,-0.54942,-0.070093,1
108,-0.0305615,0.6723049999999999,-0.044869,-0.1676615,0.493185,-0.067962,-0.2690415,0.708245,-0.152473,0.1319884999999999,0.482805,-0.071312,0.2440085,0.689475,-0.146598,-0.3064314999999999,0.938295,-0.183745,0.2620785,0.907355,-0.184635,-0.0782795,-0.003445,0.0031439999999999,0.0782795,0.003445,-0.003144,-0.1237014999999999,-0.228385,-0.206345,0.1312585,-0.227355,-0.196265,-0.1106495,-0.532765,-0.087192,0.0857775,-0.531385,-0.079786,1
109,-0.03141,0.67294,-0.0535375,-0.166769,0.49042,-0.0770635,-0.268589,0.7059599999999999,-0.1620214999999999,0.130991,0.48166,-0.0801625,0.2431209999999999,0.69072,-0.1568895,-0.306819,0.93907,-0.1944745,0.260611,0.90494,-0.1962845,-0.078278,-0.00337,0.0028485,0.078278,0.0033699999999999,-0.0028485,-0.125449,-0.2105,-0.2210745,0.133141,-0.20912,-0.2125345,-0.110884,-0.5145599999999999,-0.0966465,0.0852339999999999,-0.51268,-0.0893935,1
110,-0.0320784999999999,0.67415,-0.0620979999999999,-0.1658445,0.48813,-0.086005,-0.2677144999999999,0.7059,-0.1712179999999999,0.1302455,0.47988,-0.088993,0.2421454999999999,0.69339,-0.167175,-0.3074945,0.9394,-0.20586,0.2593355,0.90285,-0.20749,-0.0782345,-0.0032299999999999,0.002559,0.0782345,0.00323,-0.0025589999999999,-0.1270945,-0.19261,-0.2359,0.1352555,-0.1905799999999999,-0.22869,-0.1109245,-0.49581,-0.1059939999999999,0.0849065,-0.49338,-0.0990019999999999,1
111,-0.032483,0.674585,-0.0703729999999999,-0.1649769999999999,0.486395,-0.094833,-0.266607,0.704565,-0.180078,0.129593,0.4810649999999999,-0.097547,0.241233,0.694775,-0.177137,-0.308017,0.940305,-0.2167049999999999,0.258203,0.904795,-0.217975,-0.078124,-0.003335,0.0022749999999999,0.078124,0.003335,-0.0022749999999999,-0.128667,-0.176095,-0.250395,0.1373829999999999,-0.173615,-0.244305,-0.110763,-0.478195,-0.115059,0.084711,-0.475175,-0.108342,1
112,-0.0326765,0.6755599999999999,-0.078436,-0.1637414999999999,0.48499,-0.103298,-0.2651515,0.70363,-0.18839,0.1294285,0.4814699999999999,-0.105781,0.2406285,0.69644,-0.186549,-0.3082615,0.94367,-0.22681,0.2573085,0.9064,-0.22829,-0.0780484999999999,-0.00329,0.0019099999999999,0.0780484999999999,0.00329,-0.0019099999999999,-0.1299115,-0.15988,-0.26453,0.1395085,-0.15707,-0.25973,-0.1102394999999999,-0.46064,-0.123793,0.0848225,-0.45687,-0.117483,1
113,-0.0327004999999999,0.67706,-0.086431,-0.1625965,0.48455,-0.11159,-0.2648465,0.70767,-0.196466,0.1295234999999999,0.48016,-0.114025,0.2398735,0.69721,-0.1957229999999999,-0.3085665,0.94864,-0.23682,0.2565635,0.90672,-0.23851,-0.0781024999999999,-0.00317,0.00156,0.0781024999999999,0.00317,-0.0015599999999999,-0.1310265,-0.14231,-0.27912,0.1415934999999999,-0.13879,-0.27559,-0.1095575,-0.44193,-0.132434,0.0850455,-0.43739,-0.126703,1
114,-0.032603,0.6781550000000001,-0.093938,-0.161182,0.483105,-0.1197159999999999,-0.264502,0.708235,-0.204046,0.129598,0.479805,-0.1216799999999999,0.239218,0.698215,-0.2045079999999999,-0.308902,0.945195,-0.24623,0.255868,0.906405,-0.24816,-0.078104,-0.003025,0.0011099999999999,0.078104,0.003025,-0.0011099999999999,-0.131982,-0.1248449999999999,-0.2936499999999999,0.143508,-0.1207449999999999,-0.2909899999999999,-0.108891,-0.4237049999999999,-0.140627,0.08528,-0.4186549999999999,-0.13545,1
115,-0.0327295,0.67715,-0.096074,-0.1600955,0.47908,-0.122371,-0.2643955,0.7071400000000001,-0.206297,0.1292144999999999,0.47864,-0.123946,0.2383144999999999,0.6984600000000001,-0.207397,-0.3097455,0.94235,-0.25005,0.2551545,0.91084,-0.25202,-0.0781445,-0.0031799999999999,0.0006499999999999,0.0781445,0.00318,-0.00065,-0.1332055,-0.1074099999999999,-0.30301,0.1447844999999999,-0.1021699999999999,-0.30092,-0.1085545,-0.4057499999999999,-0.143429,0.0851504999999999,-0.4003299999999999,-0.138862,1
116,-0.032829,0.674105,-0.0966659999999999,-0.160072,0.477605,-0.1235279999999999,-0.264662,0.7035549999999999,-0.20731,0.128728,0.478355,-0.1245169999999999,0.237588,0.697225,-0.2088509999999999,-0.310672,0.938695,-0.2517149999999999,0.254378,0.912875,-0.2539849999999999,-0.078154,-0.003195,0.000565,0.078154,0.003195,-0.0005649999999999,-0.133662,-0.093175,-0.3066149999999999,0.144878,-0.087455,-0.3046649999999999,-0.108246,-0.391595,-0.1445149999999999,0.084921,-0.385915,-0.1406549999999999,1
117,-0.0328455,0.67123,-0.097301,-0.1599965,0.47417,-0.124632,-0.2648965,0.7,-0.208399,0.1282935,0.4778799999999999,-0.12505,0.2370335,0.6948799999999999,-0.210375,-0.3117765,0.93473,-0.253945,0.2536635,0.91429,-0.255845,-0.0781095,-0.0033799999999999,0.0005249999999999,0.0781095,0.0033799999999999,-0.0005249999999999,-0.1342365,-0.07845,-0.309965,0.1450335,-0.07273,-0.308235,-0.1078505,-0.37728,-0.145585,0.0847194999999999,-0.37148,-0.142281,1
118,-0.032883,0.669195,-0.0970679999999999,-0.15999,0.4741249999999999,-0.124847,-0.26502,0.699335,-0.208178,0.1276499999999999,0.4755649999999999,-0.1246849999999999,0.2363799999999999,0.693095,-0.21061,-0.3129599999999999,0.933985,-0.25534,0.25314,0.919165,-0.25649,-0.078103,-0.0029649999999999,0.00031,0.078103,0.0029649999999999,-0.00031,-0.13496,-0.062725,-0.31213,0.14509,-0.056755,-0.31012,-0.107529,-0.361905,-0.145823,0.0843539999999999,-0.356045,-0.142967,1
119,-0.032385,0.66754,-0.096354,-0.159492,0.47442,-0.124827,-0.265862,0.69886,-0.208058,0.127518,0.474658,-0.124009,0.236468,0.69228,-0.2106029999999999,-0.313242,0.9362,-0.25617,0.253258,0.92436,-0.25692,-0.07811,-0.0024999999999999,0.00031,0.07811,0.0025,-0.00031,-0.135562,-0.0487899999999999,-0.31389,0.145238,-0.0413699999999999,-0.31127,-0.106745,-0.3448099999999999,-0.145822,0.084348,-0.3389299999999999,-0.143308,1
120,-0.0317625,0.66577,-0.095704,-0.1589185,0.475568,-0.124821,-0.2660385,0.69861,-0.207949,0.1275615,0.473939,-0.1232979999999999,0.2364514999999999,0.69194,-0.210638,-0.3134085,0.93173,-0.25681,0.2536715,0.92308,-0.25736,-0.0781115,-0.00199,0.0002999999999999,0.0781115,0.0019899999999999,-0.0002999999999999,-0.1359485,-0.03516,-0.3154,0.1455515,-0.02634,-0.31204,-0.1058605,-0.32825,-0.145785,0.0844815,-0.32245,-0.143394,1
121,-0.0304664999999999,0.666285,-0.094934,-0.1584575,0.4734909999999999,-0.123833,-0.2661175,0.696545,-0.208197,0.1281525,0.473477,-0.122357,0.2374325,0.692565,-0.210634,-0.3129675,0.931665,-0.257385,0.2547025,0.924565,-0.257705,-0.0781294999999999,-0.002385,0.0002449999999999,0.0781294999999999,0.0023849999999999,-0.000245,-0.1360374999999999,-0.018165,-0.316555,0.1465525,-0.008215,-0.312265,-0.1043824999999999,-0.308805,-0.145701,0.0853035,-0.302995,-0.143344,1
122,-0.029282,0.66674,-0.0939339999999999,-0.158052,0.472382,-0.1227089999999999,-0.266082,0.6947300000000001,-0.207591,0.128768,0.475312,-0.1211189999999999,0.238468,0.69477,-0.2100759999999999,-0.312672,0.92983,-0.257565,0.255698,0.92584,-0.257795,-0.0781719999999999,-0.00251,-1.4999999999987246e-05,0.0781719999999999,0.00251,1.5000000000015e-05,-0.1362519999999999,-0.0018599999999999,-0.316585,0.147428,0.0089299999999999,-0.311975,-0.103031,-0.2906399999999999,-0.145337,0.086239,-0.2847399999999999,-0.143054,1
123,-0.0281114999999999,0.66678,-0.0925359999999999,-0.1577785,0.472655,-0.1211309999999999,-0.2660885,0.6942200000000001,-0.206949,0.1293315,0.476742,-0.1195879999999999,0.2395515,0.6958300000000001,-0.2092659999999999,-0.3126684999999999,0.93465,-0.25761,0.2566315,0.92643,-0.25758,-0.0783075,-0.0027099999999999,-0.0003099999999999,0.0783075,0.00271,0.00031,-0.1365584999999999,0.01406,-0.31598,0.1482415,0.02558,-0.3113399999999999,-0.1018395,-0.27342,-0.144646,0.0871545,-0.2673999999999999,-0.142418,1
124,-0.0271635,0.666885,-0.0910479999999999,-0.1577085,0.473314,-0.119335,-0.2659985,0.694135,-0.206138,0.1296014999999999,0.477767,-0.1179109999999999,0.2405115,0.697425,-0.2084359999999999,-0.3129385,0.937755,-0.2578749999999999,0.2576015,0.926885,-0.257275,-0.0783234999999999,-0.002925,-0.000585,0.0783234999999999,0.002925,0.000585,-0.1370885,0.0294849999999999,-0.315285,0.1490115,0.042025,-0.310605,-0.1008695,-0.2570449999999999,-0.143895,0.0879605,-0.250845,-0.1416029999999999,1
125,-0.026326,0.66711,-0.089292,-0.157673,0.473891,-0.117337,-0.265173,0.6965399999999999,-0.205216,0.129487,0.478589,-0.115843,0.241447,0.69823,-0.207609,-0.3132729999999999,0.93897,-0.25828,0.258497,0.92773,-0.25694,-0.078298,-0.0029799999999999,-0.0009,0.078298,0.0029799999999999,0.0008999999999999,-0.137643,0.04463,-0.3145,0.1499069999999999,0.05795,-0.30892,-0.099935,-0.2412399999999999,-0.143034,0.0888009999999999,-0.23484,-0.140338,1
126,-0.0256945,0.668525,-0.0874869999999999,-0.1576644999999999,0.476772,-0.1152869999999999,-0.2645345,0.699575,-0.2045139999999999,0.1291855,0.47956,-0.1134829999999999,0.2422655,0.7002349999999999,-0.2067129999999999,-0.3134745,0.937225,-0.258515,0.2592755,0.929985,-0.256645,-0.0782935,-0.0027949999999999,-0.0012649999999999,0.0782935,0.0027949999999999,0.001265,-0.1382745,0.0610149999999999,-0.313235,0.1506354999999999,0.0746649999999999,-0.306345,-0.0992675,-0.224735,-0.142084,0.0895074999999999,-0.218125,-0.138816,1
127,-0.0250474999999999,0.668795,-0.0855099999999999,-0.1576535,0.477635,-0.1130789999999999,-0.2639635,0.7004549999999999,-0.2037999999999999,0.1294865,0.482907,-0.1109159999999999,0.2432865,0.702245,-0.2057609999999999,-0.3134935,0.933915,-0.25877,0.2602164999999999,0.924235,-0.25671,-0.0782675,-0.0031649999999999,-0.0016999999999999,0.0782675,0.0031649999999999,0.0017,-0.1386735,0.0750549999999999,-0.3114099999999999,0.1514865,0.0886449999999999,-0.30326,-0.0984985,-0.210785,-0.1409689999999999,0.0903715,-0.203805,-0.136743,1
128,-0.0245655,0.6689649999999999,-0.083433,-0.1577475,0.4775669999999999,-0.110438,-0.2636275,0.7009049999999999,-0.202912,0.1297825,0.4849979999999999,-0.108213,0.2442125,0.7032649999999999,-0.204676,-0.3133675,0.929765,-0.259135,0.2611325,0.917475,-0.256585,-0.0783065,-0.003565,-0.002115,0.0783065,0.0035649999999999,0.002115,-0.1388475,0.0869449999999999,-0.308955,0.1522525,0.1004849999999999,-0.299545,-0.0978975,-0.1989050000000001,-0.139599,0.0911575,-0.191605,-0.134213,1
129,-0.024055,0.6689,-0.081472,-0.157862,0.476451,-0.107888,-0.263432,0.70074,-0.202214,0.130118,0.486622,-0.105652,0.2451479999999999,0.70416,-0.203575,-0.313142,0.93009,-0.25995,0.262138,0.91705,-0.25638,-0.078255,-0.00395,-0.00247,0.078255,0.00395,0.00247,-0.138992,0.09789,-0.30635,0.153098,0.11163,-0.2959,-0.097299,-0.18803,-0.138249,0.091871,-0.1801499999999999,-0.131609,1
130,-0.0238989999999999,0.667575,-0.07984,-0.157839,0.478637,-0.106157,-0.263739,0.698975,-0.2018309999999999,0.1301709999999999,0.487803,-0.103407,0.246131,0.703915,-0.202928,-0.313289,0.927725,-0.260995,0.262881,0.914115,-0.256615,-0.078095,-0.0032149999999999,-0.0026049999999999,0.078095,0.0032149999999999,0.0026049999999999,-0.139259,0.106205,-0.303745,0.153741,0.1200749999999999,-0.292095,-0.097088,-0.179715,-0.137093,0.092196,-0.171285,-0.129233,1
131,-0.0239115,0.6656899999999999,-0.0784129999999999,-0.1579665,0.4794259999999999,-0.104598,-0.2636365,0.69658,-0.201374,0.1302535,0.4882599999999999,-0.1014009999999999,0.2468235,0.7029099999999999,-0.2024619999999999,-0.3134565,0.92432,-0.262135,0.2635535,0.91041,-0.257005,-0.0779905,-0.00293,-0.0027249999999999,0.0779905,0.0029299999999999,0.002725,-0.1394765,0.1140299999999999,-0.301205,0.1543635,0.1272599999999999,-0.288655,-0.0969455,-0.1726700000000001,-0.135706,0.0925815,-0.16363,-0.12694,1
132,-0.023913,0.6643899999999999,-0.0770019999999999,-0.15828,0.4798389999999999,-0.102945,-0.26345,0.6940299999999999,-0.2007669999999999,0.13035,0.4887169999999999,-0.0994729999999999,0.24748,0.70188,-0.201934,-0.31351,0.9204,-0.26322,0.2642,0.90608,-0.25734,-0.0778649999999999,-0.0025899999999999,-0.0028599999999999,0.0778649999999999,0.0025899999999999,0.00286,-0.13982,0.1213699999999999,-0.29849,0.15495,0.1337199999999999,-0.28537,-0.0968989999999999,-0.1663300000000001,-0.134294,0.092925,-0.1567,-0.124498,1
133,-0.0239329999999999,0.663303,-0.075667,-0.1586689999999999,0.480489,-0.101471,-0.263849,0.69171,-0.2005529999999999,0.130461,0.489138,-0.097705,0.248161,0.7010000000000001,-0.2016089999999999,-0.313619,0.91663,-0.2642649999999999,0.264821,0.90137,-0.257695,-0.077675,-0.0022299999999999,-0.003025,0.077675,0.0022299999999999,0.003025,-0.1402489999999999,0.12823,-0.2958349999999999,0.155361,0.1395799999999999,-0.282335,-0.096949,-0.16046,-0.132737,0.093188,-0.15037,-0.122048,1
134,-0.0239005,0.6618310000000001,-0.074571,-0.1591265,0.48066,-0.100276,-0.2642764999999999,0.6889550000000001,-0.200489,0.1305835,0.489241,-0.096343,0.2486535,0.700165,-0.201401,-0.3137765,0.913175,-0.265205,0.2652635,0.8954550000000001,-0.258155,-0.0775464999999999,-0.0019849999999999,-0.0031449999999999,0.0775464999999999,0.001985,0.003145,-0.1406764999999999,0.133835,-0.2933949999999999,0.1556835,0.144045,-0.279675,-0.0970775,-0.155825,-0.131354,0.0931934999999999,-0.1453549999999999,-0.119689,1
135,-0.023621,0.660198,-0.0736419999999999,-0.15936,0.480673,-0.09928,-0.26458,0.68616,-0.2005239999999999,0.13096,0.488968,-0.0952409999999999,0.2493,0.69928,-0.201282,-0.31371,0.91343,-0.265935,0.26592,0.88907,-0.258635,-0.077436,-0.00173,-0.0031449999999999,0.077436,0.00173,0.003145,-0.1408,0.13855,-0.291185,0.15621,0.14783,-0.277385,-0.096761,-0.15193,-0.130104,0.093352,-0.1411799999999999,-0.117544,1
136,-0.0233065,0.6593330000000001,-0.072908,-0.1595725,0.48114,-0.098361,-0.2650925,0.68382,-0.2006919999999999,0.1312675,0.488873,-0.094341,0.2498575,0.69849,-0.201131,-0.3136425,0.9133,-0.266695,0.2665375,0.89022,-0.258715,-0.0773905,-0.0014499999999999,-0.0031149999999999,0.0773905,0.00145,0.003115,-0.1409824999999999,0.1429,-0.289055,0.1566775,0.15128,-0.275235,-0.0965574999999999,-0.14844,-0.128825,0.0933705,-0.13746,-0.115771,1
137,-0.022992,0.659088,-0.072586,-0.159654,0.48171,-0.097812,-0.265644,0.681568,-0.200981,0.131576,0.488395,-0.093576,0.250366,0.69759,-0.201139,-0.313474,0.91335,-0.267645,0.267156,0.89134,-0.258885,-0.077346,-0.0011999999999999,-0.003095,0.077346,0.0011999999999999,0.0030949999999999,-0.141094,0.14651,-0.287215,0.157116,0.15398,-0.2733649999999999,-0.096365,-0.14566,-0.127629,0.0932689999999999,-0.13475,-0.114198,1
138,-0.022852,0.659271,-0.072581,-0.1597539999999999,0.48197,-0.097579,-0.266314,0.679234,-0.201465,0.131736,0.488225,-0.09335,0.250706,0.69665,-0.201345,-0.313354,0.91479,-0.2686199999999999,0.267656,0.8924700000000001,-0.25927,-0.077319,-0.0010299999999999,-0.0030899999999999,0.077319,0.0010299999999999,0.00309,-0.141374,0.14916,-0.2858199999999999,0.157376,0.15592,-0.27195,-0.0963459999999999,-0.1436699999999999,-0.126545,0.093042,-0.13302,-0.113078,1
139,-0.0227139999999999,0.659271,-0.072577,-0.1598939999999999,0.48126,-0.0974329999999999,-0.266304,0.679234,-0.201787,0.131786,0.488225,-0.093349,0.251086,0.6964,-0.201658,-0.313334,0.91479,-0.26956,0.268036,0.8924700000000001,-0.25952,-0.077319,-0.0010299999999999,-0.0030899999999999,0.077319,0.0010299999999999,0.00309,-0.141724,0.14995,-0.2849399999999999,0.157516,0.15616,-0.27171,-0.096474,-0.14342,-0.125519,0.09304,-0.13295,-0.112833,1
140,-0.022441,0.659271,-0.072573,-0.1598939999999999,0.48126,-0.097384,-0.266304,0.679234,-0.201957,0.131876,0.488225,-0.093346,0.251316,0.6964,-0.201985,-0.313304,0.91479,-0.27049,0.2685559999999999,0.8924700000000001,-0.25995,-0.077319,-0.0010299999999999,-0.0030899999999999,0.077319,0.0010299999999999,0.00309,-0.1419139999999999,0.15028,-0.28422,0.157686,0.15624,-0.27152,-0.096529,-0.1432599999999999,-0.124865,0.09304,-0.13295,-0.112833,1
141,-0.0218189999999999,0.659271,-0.072625,-0.1597039999999999,0.48126,-0.097449,-0.266114,0.679234,-0.2020219999999999,0.132146,0.488225,-0.0934079999999999,0.251506,0.6964,-0.20205,-0.313084,0.91479,-0.2715349999999999,0.269406,0.8924700000000001,-0.260625,-0.077234,-0.0010299999999999,-0.0031149999999999,0.077234,0.0010299999999999,0.0031149999999999,-0.141734,0.15033,-0.283955,0.158066,0.15618,-0.271445,-0.0963069999999999,-0.14315,-0.124332,0.09323,-0.1329599999999999,-0.112898,1
142,-0.0212145,0.659664,-0.073305,-0.1597635,0.480775,-0.097829,-0.2660234999999999,0.6797740000000001,-0.202711,0.1322465,0.488732,-0.094041,0.2514465,0.6959150000000001,-0.202516,-0.3130334999999999,0.914665,-0.272795,0.2700465,0.8924350000000001,-0.261595,-0.0771615,-0.0013549999999999,-0.003155,0.0771615,0.0013550000000001,0.0031549999999999,-0.1417935,0.149845,-0.284335,0.1581564999999999,0.155695,-0.271825,-0.0962805,-0.1435849999999999,-0.124324,0.0931655,-0.1334449999999999,-0.113278,1
143,-0.0203865,0.6613539999999999,-0.0752739999999999,-0.1596065,0.4789549999999999,-0.0990859999999999,-0.2655865,0.6802549999999999,-0.2042569999999999,0.1323735,0.4886039999999999,-0.0956419999999999,0.2518235,0.6959449999999999,-0.204059,-0.3122764999999999,0.915825,-0.275105,0.2710335,0.895805,-0.263745,-0.0771615,-0.001655,-0.0031749999999999,0.0771615,0.0016549999999999,0.003175,-0.1417565,0.1479249999999999,-0.285595,0.1581935,0.1537749999999999,-0.273085,-0.0962635,-0.1455050000000001,-0.1252289999999999,0.0931635,-0.1355950000000001,-0.1145609999999999,1
144,-0.019618,0.6641870000000001,-0.078019,-0.159101,0.477385,-0.101171,-0.265161,0.681965,-0.206396,0.1324489999999999,0.487888,-0.097958,0.252139,0.6963050000000001,-0.206243,-0.311251,0.918265,-0.27789,0.271999,0.898485,-0.26658,-0.077246,-0.001815,-0.00313,0.077246,0.001815,0.0031299999999999,-0.141461,0.144535,-0.28748,0.158179,0.150245,-0.27498,-0.096253,-0.148895,-0.126767,0.093207,-0.1393449999999999,-0.116883,1
145,-0.0189025,0.66631,-0.0824419999999999,-0.1586415,0.4774039999999999,-0.1052829999999999,-0.2646715,0.6848949999999999,-0.2103649999999999,0.1326185,0.4861599999999999,-0.1021039999999999,0.2524185,0.6960549999999999,-0.209746,-0.3100615,0.922505,-0.28201,0.2728385,0.8996849999999998,-0.27052,-0.0773165,-0.001775,-0.0026799999999999,0.0773165,0.0017749999999999,0.00268,-0.1407914999999999,0.1345449999999999,-0.29059,0.1580985,0.1406849999999999,-0.2786999999999999,-0.0963705,-0.158375,-0.1296699999999999,0.0931595,-0.149205,-0.1207389999999999,1
146,-0.0182645,0.66601,-0.0866609999999999,-0.1579974999999999,0.4760069999999999,-0.1091479999999999,-0.2641475,0.6843999999999999,-0.2142,0.1327425,0.4840519999999999,-0.1065129999999999,0.2526025,0.6940299999999999,-0.2129549999999999,-0.3088175,0.92361,-0.285915,0.2735725,0.8981699999999999,-0.273825,-0.0773015,-0.00191,-0.0021749999999999,0.0773015,0.0019099999999999,0.002175,-0.1401075,0.1173999999999999,-0.293425,0.1578625,0.1242099999999999,-0.282805,-0.0965485,-0.17514,-0.13218,0.0931135,-0.16637,-0.1243939999999999,1
147,-0.0177029999999999,0.66684,-0.0911339999999999,-0.157272,0.4750189999999999,-0.113425,-0.263392,0.68528,-0.218242,0.132888,0.481981,-0.111277,0.253148,0.69245,-0.216444,-0.307492,0.92447,-0.289935,0.274188,0.90175,-0.277035,-0.077332,-0.00194,-0.001755,0.077332,0.0019399999999999,0.001755,-0.139402,0.09924,-0.296115,0.1574279999999999,0.1061399999999999,-0.287035,-0.096713,-0.19343,-0.134947,0.09305,-0.18503,-0.128345,1
148,-0.017364,0.6673800000000001,-0.095049,-0.156768,0.4740510000000001,-0.117437,-0.262868,0.6853,-0.221993,0.1328119999999999,0.479632,-0.115752,0.253592,0.6904300000000001,-0.2197569999999999,-0.306418,0.9231200000000002,-0.2935149999999999,0.2745019999999999,0.9014600000000002,-0.279695,-0.077482,-0.0020899999999999,-0.0013449999999999,0.077482,0.00209,0.001345,-0.138678,0.07672,-0.298505,0.156722,0.0837600000000001,-0.290835,-0.097085,-0.2160699999999998,-0.137424,0.092774,-0.2079399999999999,-0.13208,1
149,-0.0172475,0.66811,-0.09844,-0.1560765,0.474085,-0.120935,-0.2621965,0.6837,-0.224719,0.1329135,0.478236,-0.119545,0.2538235,0.68849,-0.222463,-0.3054965,0.91979,-0.29625,0.2745835,0.89967,-0.28171,-0.0776385,-0.00223,-0.0011,0.0776385,0.00223,0.0010999999999999,-0.1379465,0.0514999999999999,-0.3004799999999999,0.1558135,0.0592599999999999,-0.29386,-0.0975785,-0.2413499999999999,-0.139405,0.0924805,-0.2332199999999999,-0.135624,1
150,-0.0173605,0.67009,-0.100925,-0.1555715,0.474098,-0.1237699999999999,-0.2618515,0.6858,-0.227236,0.1328984999999999,0.478399,-0.12234,0.2532685,0.68969,-0.2237839999999999,-0.3048015,0.92121,-0.297535,0.2744685,0.89872,-0.283015,-0.0777735,-0.0023,-0.000895,0.0777735,0.0023,0.000895,-0.1370914999999999,0.02482,-0.301765,0.1547684999999999,0.0333999999999999,-0.295705,-0.0982545,-0.2684399999999999,-0.140686,0.0921194999999999,-0.26031,-0.13857,1
151,-0.0176185,0.67118,-0.1024219999999999,-0.1550445,0.474749,-0.126046,-0.2615645,0.68694,-0.22871,0.1329255,0.4772039999999999,-0.1241989999999999,0.2532355,0.68936,-0.22481,-0.3044145,0.92219,-0.298245,0.2741755,0.8976299999999999,-0.283745,-0.0779235,-0.00229,-0.000475,0.0779235,0.0022899999999999,0.000475,-0.1362145,-0.00273,-0.302295,0.1535755,0.0064499999999999,-0.296455,-0.0990345,-0.29755,-0.141428,0.0915925,-0.28942,-0.140146,1
152,-0.0176124999999999,0.673065,-0.102745,-0.1544714999999999,0.476007,-0.127471,-0.2610515,0.6892050000000001,-0.228973,0.1333385,0.477449,-0.125244,0.2528884999999999,0.689875,-0.224761,-0.3043515,0.920415,-0.298255,0.2738285,0.894515,-0.283575,-0.0779855,-0.0022049999999999,-0.000475,0.0779855,0.002205,0.000475,-0.1351715,-0.0305849999999999,-0.302065,0.1524885,-0.0209849999999999,-0.296495,-0.0995515,-0.328045,-0.141448,0.0913545,-0.3198949999999999,-0.14109,1
153,-0.0174425,0.673675,-0.1030039999999999,-0.1540085,0.478565,-0.1288109999999999,-0.2603985,0.690465,-0.2289419999999999,0.1338315,0.477005,-0.126526,0.2530615,0.689565,-0.2248339999999999,-0.3043085,0.922265,-0.2980049999999999,0.2735015,0.893255,-0.283035,-0.0779805,-0.002105,-0.000475,0.0779805,0.0021049999999999,0.000475,-0.1344685,-0.0588549999999999,-0.301485,0.1513815,-0.048655,-0.296525,-0.1000085,-0.359835,-0.141458,0.0911704999999999,-0.351755,-0.142,1
154,-0.017065,0.6758949999999999,-0.102997,-0.153134,0.479375,-0.129452,-0.259584,0.690085,-0.228887,0.1343659999999999,0.4793849999999999,-0.127266,0.253516,0.690905,-0.224742,-0.304154,0.921775,-0.297535,0.273486,0.895925,-0.281825,-0.077822,-0.002185,-0.000475,0.077822,0.0021849999999999,0.000475,-0.133854,-0.082495,-0.300135,0.150486,-0.072295,-0.296315,-0.100267,-0.388635,-0.142061,0.090997,-0.380535,-0.142775,1
155,-0.0171189999999999,0.68108,-0.1022699999999999,-0.152882,0.48392,-0.1292029999999999,-0.2590619999999999,0.69216,-0.2281439999999999,0.134578,0.48019,-0.126941,0.253698,0.69259,-0.2237249999999999,-0.304552,0.92263,-0.2962249999999999,0.273098,0.9006399999999999,-0.279365,-0.077938,-0.0017099999999999,-0.0001849999999999,0.077938,0.0017099999999999,0.000185,-0.133512,-0.1005699999999999,-0.2975649999999999,0.149298,-0.09082,-0.294675,-0.1010359999999999,-0.4125399999999999,-0.1422739999999999,0.090875,-0.40496,-0.144534,1
156,-0.017375,0.6852,-0.100489,-0.152759,0.4853699999999999,-0.127667,-0.259619,0.69276,-0.226381,0.134641,0.48402,-0.125499,0.253791,0.69638,-0.221933,-0.304909,0.92478,-0.29336,0.272451,0.89766,-0.2758899999999999,-0.078064,-0.00198,0.0001599999999999,0.078064,0.0019799999999999,-0.0001599999999999,-0.133399,-0.11921,-0.29315,0.147831,-0.10951,-0.29106,-0.102121,-0.43751,-0.14179,0.090759,-0.43062,-0.145284,1
157,-0.0173395,0.69068,-0.09669,-0.1527185,0.4881999999999999,-0.124301,-0.2605285,0.69333,-0.223124,0.1350315,0.49002,-0.12241,0.2539515,0.7003999999999999,-0.218408,-0.3054285,0.92812,-0.28892,0.2722015,0.89805,-0.27081,-0.0776725,-0.00201,9.9999999999989e-05,0.0776725,0.00201,-0.0001,-0.1330485,-0.13411,-0.28643,0.1466515,-0.12494,-0.2849,-0.1030215,-0.45948,-0.139722,0.0913045,-0.45323,-0.144917,1
158,-0.0176759999999999,0.696125,-0.0925379999999999,-0.153416,0.490615,-0.1210549999999999,-0.260766,0.699315,-0.2187429999999999,0.134734,0.4951149999999999,-0.1192719999999999,0.253154,0.705135,-0.214173,-0.306006,0.937045,-0.2837699999999999,0.2715039999999999,0.904095,-0.26487,-0.07686,-0.002225,5.000000000002225e-05,0.07686,0.002225,-4.999999999999449e-05,-0.133216,-0.147315,-0.2793,0.1450739999999999,-0.139705,-0.27766,-0.104459,-0.479815,-0.1379069999999999,0.091791,-0.474515,-0.145026,1
159,-0.0170474999999999,0.7010449999999999,-0.0880569999999999,-0.1532144999999999,0.494095,-0.1175009999999999,-0.2601045,0.703295,-0.213968,0.1354055,0.498845,-0.1159179999999999,0.2534055,0.707675,-0.20954,-0.3061845,0.941015,-0.277845,0.2716854999999999,0.911495,-0.258645,-0.0768544999999999,-0.002315,-0.0001249999999999,0.0768544999999999,0.0023149999999999,0.000125,-0.1327644999999999,-0.160095,-0.2715349999999999,0.1442155,-0.153395,-0.269825,-0.1051445,-0.499095,-0.1358249999999999,0.0932834999999999,-0.494545,-0.144368,1
160,-0.0160315,0.7068749999999999,-0.0830139999999999,-0.1527835,0.4993649999999999,-0.113507,-0.2591335,0.709085,-0.208615,0.1364665,0.504005,-0.111937,0.2538765,0.711915,-0.204131,-0.3060135,0.944995,-0.27127,0.2721165,0.920705,-0.25155,-0.0766195,-0.002145,-0.00042,0.0766195,0.002145,0.00042,-0.1320835,-0.171855,-0.26342,0.1435965,-0.166345,-0.26108,-0.1060234999999999,-0.5169250000000001,-0.133574,0.0953664999999999,-0.5132650000000001,-0.142832,1
161,-0.0151195,0.7129449999999999,-0.078399,-0.1521225,0.5044949999999999,-0.109824,-0.2582525,0.713975,-0.2036089999999999,0.1374075,0.507215,-0.108216,0.2544575,0.715975,-0.199052,-0.3057925,0.954115,-0.26533,0.2727275,0.929995,-0.24515,-0.0763245,-0.001815,-0.00053,0.0763245,0.0018149999999999,0.00053,-0.1312825,-0.182315,-0.25547,0.1430975,-0.177985,-0.25283,-0.1067625,-0.5325850000000001,-0.131585,0.0977275,-0.5303249999999999,-0.141474,1
162,-0.013732,0.716385,-0.072766,-0.151197,0.5058050000000001,-0.105078,-0.2569869999999999,0.714525,-0.197654,0.139093,0.511795,-0.103447,0.255293,0.717655,-0.1931189999999999,-0.3050469999999999,0.954325,-0.258845,0.273813,0.934475,-0.237985,-0.075997,-0.0016549999999999,-0.0003149999999999,0.075997,0.0016549999999999,0.0003149999999999,-0.129377,-0.195085,-0.244055,0.141923,-0.191625,-0.2411849999999999,-0.106907,-0.550375,-0.127542,0.100443,-0.548505,-0.139291,1
163,-0.0119384999999999,0.7201949999999999,-0.067422,-0.1499414999999999,0.508895,-0.100685,-0.2553215,0.7167049999999999,-0.191921,0.1411285,0.514955,-0.098873,0.2565885,0.719635,-0.18745,-0.3039815,0.955155,-0.25285,0.2751885,0.936225,-0.23148,-0.0758254999999999,-0.0014549999999999,-0.00034,0.0758254999999999,0.001455,0.0003399999999999,-0.1270015,-0.207165,-0.23254,0.1410385,-0.203845,-0.22946,-0.1062615,-0.566055,-0.122974,0.1035085,-0.5643849999999999,-0.135867,1
164,-0.010606,0.7243165,-0.06273,-0.149696,0.5105864999999999,-0.096524,-0.255726,0.7210565,-0.187683,0.142594,0.5196165,-0.094914,0.2576739999999999,0.7236665,-0.182416,-0.3036959999999999,0.9575365,-0.24778,0.2760939999999999,0.9377865,-0.22536,-0.075225,-0.0014534999999999,-0.00028,0.075225,0.0014534999999999,0.0002799999999999,-0.124906,-0.2228834999999999,-0.22087,0.139324,-0.2183235,-0.21777,-0.105876,-0.5825735,-0.118674,0.104114,-0.5805935,-0.13156,1
165,-0.0091979999999999,0.729635,-0.0584919999999999,-0.1497309999999999,0.514695,-0.092509,-0.255291,0.7255849999999999,-0.183668,0.143999,0.521285,-0.0910849999999999,0.258659,0.725905,-0.1779239999999999,-0.303541,0.958345,-0.243115,0.277089,0.941555,-0.219545,-0.074606,-0.000946,-0.0002549999999999,0.074606,0.000946,0.000255,-0.122201,-0.237275,-0.208275,0.137679,-0.231715,-0.206755,-0.105441,-0.5974550000000001,-0.1146589999999999,0.104589,-0.5948249999999999,-0.127544,1
166,-0.008056,0.7331805,-0.0509695,-0.149981,0.5158505,-0.0851035,-0.255111,0.7294205,-0.1761734999999999,0.145289,0.5218505,-0.0839345,0.259409,0.7275105,-0.1703625,-0.303351,0.9590105,-0.2347795,0.2777389999999999,0.9442805,-0.2102395,-0.074144,-0.0006815,-0.0001474999999999,0.074144,0.0006814999999999,0.0001474999999999,-0.118781,-0.2524295,-0.1897285,0.135549,-0.2460195,-0.1906105,-0.105281,-0.6132995,-0.1054895,0.104799,-0.6100595,-0.1200485,1
167,-0.007164,0.7310344999999999,-0.039543,-0.150296,0.5173445,-0.073936,-0.255546,0.7289144999999999,-0.165575,0.146474,0.5198545,-0.07356,0.260074,0.7229445,-0.159014,-0.3033659999999999,0.9512545,-0.222521,0.278384,0.9363445,-0.198171,-0.073665,-0.0003724999999999,0.0003499999999999,0.073665,0.0003725,-0.00035,-0.115516,-0.2742455,-0.166426,0.1301639999999999,-0.2675955,-0.166817,-0.105326,-0.6359355,-0.091024,0.1047039999999999,-0.6320155000000001,-0.105097,1
168,-0.0063704999999999,0.7286870000000001,-0.0286309999999999,-0.1505025,0.5183070000000001,-0.063272,-0.2560725,0.727147,-0.155721,0.1475475,0.5180469999999999,-0.0636009999999999,0.2608574999999999,0.7190570000000001,-0.148102,-0.3038125,0.949817,-0.21029,0.2792475,0.929197,-0.1865899999999999,-0.0734395,-9.099999999999732e-05,0.0008869999999999,0.0734395,9.10000000000008e-05,-0.0008869999999999,-0.1120625,-0.2944029999999999,-0.1438479999999999,0.1248775,-0.288083,-0.143748,-0.1051025,-0.6572229999999999,-0.07638,0.1046775,-0.652493,-0.0902319999999999,1
169,-0.0056755,0.725885,-0.0186995,-0.1506925,0.517275,-0.0532575,-0.2568224999999999,0.724835,-0.1469425,0.1485175,0.516155,-0.0542865,0.2616475,0.715665,-0.1378395,-0.3040825,0.949175,-0.1990745,0.2800975,0.920655,-0.1761545,-0.0734985,-3.899999999999997e-05,0.0015494999999999,0.0734985,3.899999999999997e-05,-0.0015495,-0.1082325,-0.310685,-0.1209555,0.1192475,-0.306905,-0.1210515,-0.1045825,-0.675925,-0.0622115,0.1044375,-0.671055,-0.0751995,1
170,-0.004556,0.7212765,-0.0086224999999999,-0.1507,0.5166765,-0.0431594999999999,-0.2571,0.7223265,-0.1379935,0.1499499999999999,0.5157265,-0.0448644999999999,0.26309,0.7112864999999999,-0.1275175,-0.30367,0.9447665,-0.1877635,0.28131,0.9116165,-0.1656234999999999,-0.074004,-0.0001355,0.0021644999999999,0.074004,0.0001355,-0.0021644999999999,-0.1038,-0.3261235,-0.0973624999999999,0.11365,-0.3251134999999999,-0.0975685,-0.10339,-0.6936935000000001,-0.0476775,0.1041899999999999,-0.6891335000000001,-0.0589974999999999,1
171,-0.0044349999999999,0.72007,0.000287,-0.1514029999999999,0.5187600000000001,-0.034239,-0.258063,0.7239,-0.12989,0.150237,0.51509,-0.0366929999999999,0.263677,0.7102200000000001,-0.118688,-0.304193,0.94437,-0.178312,0.281647,0.90613,-0.156372,-0.073928,-0.000128,0.002605,0.073928,0.000128,-0.0026049999999999,-0.100666,-0.33629,-0.07683,0.108137,-0.33725,-0.077147,-0.102883,-0.7057800000000001,-0.033989,0.102887,-0.7011400000000001,-0.044121,1
172,-0.0044494999999999,0.7177979999999999,0.0088745,-0.1517985,0.519228,-0.0253605,-0.2583285,0.7241879999999999,-0.1209775,0.1504915,0.5139079999999999,-0.0283545,0.2641715,0.707788,-0.1099155,-0.3047385,0.943778,-0.1684125,0.2819515,0.900548,-0.1470425,-0.0739055,-0.000129,0.0030735,0.0739055,0.0001289999999999,-0.0030735,-0.0972825,-0.3476019999999999,-0.0559615,0.1025715,-0.3492619999999999,-0.0566465,-0.1019385,-0.718122,-0.0195585,0.1010415,-0.7126020000000001,-0.0289415,1
173,-0.0044849999999999,0.7146269999999999,0.0172595,-0.1521969999999999,0.5185569999999999,-0.0165715,-0.259027,0.723077,-0.1128155,0.150733,0.5135670000000001,-0.0201455,0.264613,0.7048970000000001,-0.1015335,-0.305067,0.942367,-0.1590235,0.2822429999999999,0.8955569999999999,-0.1377634999999999,-0.073878,-0.0003259999999999,0.0035705,0.073878,0.0003259999999999,-0.0035705,-0.0941279999999999,-0.358353,-0.0357495,0.097396,-0.360813,-0.0366185,-0.100994,-0.7300629999999999,-0.0052155,0.098993,-0.723363,-0.0138775,1
174,-0.0047905,0.710055,0.02579,-0.1529734999999999,0.517845,-0.0077339999999999,-0.2601035,0.721535,-0.104767,0.1505765,0.5132650000000001,-0.0118439999999999,0.2647865,0.701245,-0.09299,-0.3055035,0.941205,-0.149333,0.2822365,0.890475,-0.1284229999999999,-0.0736305,-0.000505,0.00406,0.0736305,0.000505,-0.0040599999999999,-0.0917695,-0.370415,-0.016822,0.0920845,-0.374435,-0.016596,-0.1005535,-0.7427349999999999,0.008416,0.0970424999999999,-0.7359049999999999,0.001276,0
175,-0.005122,0.7060175,0.0306644999999999,-0.153882,0.5185474999999999,-0.0024524999999999,-0.261352,0.7214075,-0.1004735,0.150538,0.5119475,-0.0069394999999999,0.264908,0.6983375,-0.0880385,-0.306202,0.9420675,-0.1431885,0.282218,0.8866274999999999,-0.1227985,-0.073216,-0.0005774999999999,0.0044315,0.073216,0.0005774999999999,-0.0044315,-0.090419,-0.3802025,-0.0041014999999999,0.086986,-0.3861925,-0.0015034999999999,-0.100398,-0.7529025,0.0168915,0.0948499999999999,-0.7464725000000001,0.0119515,0
176,-0.005136,0.7072145,0.0318605,-0.153928,0.5183445,-0.0011784999999999,-0.2614479999999999,0.7218344999999999,-0.0990215,0.150552,0.5131145,-0.0055144999999999,0.265202,0.7007844999999999,-0.0869815,-0.306378,0.9477045,-0.1411235,0.282542,0.8891445,-0.1212935,-0.073211,-0.0004964999999999,0.0043635,0.073211,0.0004964999999999,-0.0043634999999999,-0.088709,-0.3808654999999999,0.0030505,0.085302,-0.3869355,0.0054965,-0.100049,-0.7535655,0.0201715,0.094368,-0.7472455,0.0155824999999999,0
177,-0.005154,0.7079335,0.0331945,-0.153963,0.5181435000000001,0.0001285,-0.261543,0.7222335,-0.0975024999999999,0.150527,0.5131935000000001,-0.0039915,0.265467,0.7020234999999999,-0.0857344999999999,-0.306523,0.9477434999999998,-0.1395315,0.283177,0.8899334999999999,-0.1197515,-0.073209,-0.0004374999999999,0.0042834999999999,0.073209,0.0004375,-0.0042835,-0.087138,-0.3815265,0.0098805,0.0836949999999999,-0.3875965,0.0125814999999999,-0.099822,-0.7542264999999999,0.0233034999999999,0.093884,-0.7479065,0.0190775,0
178,-0.0051905,0.7083195,0.034609,-0.1539985,0.5181294999999999,0.001431,-0.2616385,0.7224495,-0.096001,0.1504815,0.5131895,-0.002486,0.2656815,0.7025895,-0.084375,-0.3066184999999999,0.9478995,-0.137976,0.2838115,0.8906795000000001,-0.118226,-0.0732065,-0.0003664999999999,0.0041969999999999,0.0732065,0.0003665,-0.004197,-0.0858505,-0.3819705,0.0155959999999999,0.0825895,-0.3880405,0.018875,-0.0996425,-0.7546705,0.026317,0.0934655,-0.7483504999999999,0.022333,0
179,-0.0050394999999999,0.708674,0.0360599999999999,-0.1537685,0.518064,0.0028609999999999,-0.2615285,0.722564,-0.094431,0.1506114999999999,0.512954,-0.000941,0.2660415,0.702734,-0.082955,-0.3064685,0.947664,-0.136467,0.2845815,0.891104,-0.116707,-0.0731255,-0.0003739999999999,0.00412,0.0731255,0.000374,-0.00412,-0.0846085,-0.379846,0.020358,0.0821035,-0.3880159999999999,0.024189,-0.0993695,-0.754536,0.029208,0.0933535,-0.748396,0.025223,0
180,-0.0048684999999999,0.70852,0.037432,-0.1535275,0.51813,0.004163,-0.2614074999999999,0.72257,-0.093013,0.1507824999999999,0.5128,0.000416,0.2664425,0.70258,-0.081673,-0.3063174999999999,0.94681,-0.135265,0.2854125,0.89205,-0.115375,-0.0730125,-0.0003879999999999,0.004018,0.0730125,0.0003879999999999,-0.0040179999999999,-0.0835515,-0.3779599999999999,0.023999,0.0818455,-0.3879499999999999,0.028548,-0.0990995,-0.75414,0.031685,0.0933975,-0.74815,0.027935,0
181,-0.004667,0.708501,0.0386675,-0.153326,0.518171,0.0053985,-0.261236,0.722561,-0.0917655,0.1509839999999999,0.512781,0.0016565,0.266924,0.702561,-0.0805275,-0.306106,0.946091,-0.1342195,0.286264,0.893211,-0.1142595,-0.072884,-0.000407,0.0039385,0.072884,0.000407,-0.0039385,-0.0829449999999999,-0.3774689999999999,0.0263825,0.081788,-0.387969,0.0320685,-0.098893,-0.753999,0.0338025,0.0934879999999999,-0.747769,0.0301655,0
182,-0.004474,0.7084590000000001,0.039906,-0.153128,0.518209,0.006637,-0.261088,0.722569,-0.090528,0.151132,0.5124390000000001,0.002883,0.267382,0.702519,-0.079378,-0.305938,0.945449,-0.133161,0.287122,0.894429,-0.113371,-0.072752,-0.000449,0.003882,0.072752,0.000449,-0.003882,-0.082488,-0.377511,0.0283,0.081819,-0.387811,0.034941,-0.098714,-0.753891,0.0356869999999999,0.0936009999999999,-0.747421,0.0321829999999999,0
183,-0.0043239999999999,0.7084590000000001,0.0410395,-0.152977,0.518259,0.0077295,-0.261037,0.722569,-0.0894385,0.151163,0.5121690000000001,0.0039565,0.267833,0.702449,-0.0784075,-0.305827,0.944949,-0.1321885,0.287913,0.8955390000000001,-0.1130285,-0.072663,-0.000449,0.0037784999999999,0.072663,0.000449,-0.0037784999999999,-0.082132,-0.377361,0.0294185,0.0818639999999999,-0.387641,0.0371395,-0.0985659999999999,-0.7538309999999999,0.0371355,0.093669,-0.747041,0.0339415,0
184,-0.0041879999999999,0.7082689999999999,0.0421095,-0.152839,0.5183289999999999,0.0086955,-0.261049,0.722609,-0.0884865,0.151191,0.511529,0.0049035,0.268311,0.7021689999999999,-0.0775925,-0.3057189999999999,0.944389,-0.1313715,0.288551,0.8962789999999999,-0.1130515,-0.072588,-0.000489,0.0037295,0.072588,0.000489,-0.0037295,-0.0819059999999999,-0.377631,0.0303775,0.081965,-0.387491,0.0385795,-0.098409,-0.753781,0.0383205,0.093741,-0.746761,0.0353345,0
185,-0.004061,0.7080935,0.0433135,-0.1527329999999999,0.5184135,0.0097025,-0.261143,0.7226235,-0.0876415,0.151217,0.5108535,0.0059194999999999,0.268797,0.7015735,-0.0768115,-0.305603,0.9437735,-0.1304945,0.289107,0.8967335,-0.1131545,-0.072512,-0.0005415,0.0036865,0.072512,0.0005415,-0.0036865,-0.081742,-0.3780064999999999,0.0313555,0.082068,-0.3873465,0.0397655,-0.098285,-0.7538965,0.0394985,0.0938229999999999,-0.7464365,0.0366905,0
186,-0.003976,0.707958,0.044544,-0.152686,0.5185879999999999,0.010708,-0.261356,0.722588,-0.086875,0.151194,0.5102679999999999,0.006933,0.269274,0.700838,-0.076102,-0.305436,0.943148,-0.129811,0.289274,0.8969079999999999,-0.1133209999999999,-0.0724279999999999,-0.0005999999999999,0.003666,0.0724279999999999,0.0006,-0.003666,-0.081605,-0.377862,0.032329,0.082154,-0.387142,0.040774,-0.0981809999999999,-0.753722,0.040609,0.0939079999999999,-0.7460720000000001,0.038001,0
187,-0.003965,0.7079155,0.0457755,-0.15268,0.5187955,0.0116255,-0.2617199999999999,0.7222755,-0.0861894999999999,0.15116,0.5097755,0.0078775,0.26976,0.6998655,-0.0756375,-0.30523,0.9426555,-0.1292105,0.28943,0.8971155,-0.1135304999999999,-0.072355,-0.0006434999999999,0.0036725,0.072355,0.0006435,-0.0036725,-0.081469,-0.3776545,0.0328965,0.0822199999999999,-0.3869345,0.0416925,-0.098102,-0.7533945,0.0416385,0.093998,-0.7456445,0.0391535,0
188,-0.0039779999999999,0.7080150000000001,0.046894,-0.152717,0.519055,0.0124669999999999,-0.262387,0.7217549999999999,-0.085654,0.1510929999999999,0.5090749999999999,0.008716,0.270333,0.698575,-0.075461,-0.305157,0.942845,-0.128876,0.289603,0.897405,-0.114046,-0.072306,-0.00068,0.003708,0.072306,0.00068,-0.003708,-0.081325,-0.377595,0.033337,0.082307,-0.386645,0.042496,-0.098013,-0.753025,0.042563,0.094108,-0.7451650000000001,0.040138,0
189,-0.0040444999999999,0.708144,0.0480305,-0.1528125,0.5192939999999999,0.0132675,-0.2635225,0.720544,-0.0852255,0.1512275,0.508664,0.0095235,0.2711874999999999,0.6966939999999999,-0.0756265,-0.3049925,0.940774,-0.1291125,0.2896174999999999,0.896594,-0.1147525,-0.0722765,-0.0007309999999999,0.0037174999999999,0.0722765,0.0007309999999999,-0.0037175,-0.0812205,-0.377926,0.0337385,0.0823935,-0.3863459999999999,0.0432585,-0.0978955,-0.752596,0.0434385,0.0942205,-0.744726,0.0409295,0
190,-0.00418,0.708248,0.0492185,-0.153086,0.519368,0.0139964999999999,-0.265406,0.718188,-0.0850735,0.151364,0.508208,0.0102805,0.2723239999999999,0.692978,-0.0761015,-0.304746,0.936958,-0.1295225,0.289554,0.895128,-0.1159625,-0.072254,-0.0007629999999999,0.0037385,0.072254,0.0007629999999999,-0.0037384999999999,-0.0811669999999999,-0.378642,0.0341005,0.082451,-0.385962,0.0438675,-0.097778,-0.752232,0.0442435,0.094301,-0.744262,0.0416385,0
191,-0.0043694999999999,0.708194,0.0503715,-0.1534005,0.519404,0.0145955,-0.2679605,0.713744,-0.0852385,0.1514995,0.507744,0.0109735,0.2737295,0.6881240000000001,-0.0768035,-0.3044705,0.933194,-0.1301065,0.2893095,0.893134,-0.1176465,-0.0722325,-0.0007739999999999,0.0037635,0.0722325,0.0007739999999999,-0.0037634999999999,-0.0810715,-0.379536,0.0343465,0.0824755,-0.3857859999999999,0.0443365,-0.0976405,-0.751966,0.0449195,0.0943805,-0.743746,0.0422285,0
192,-0.0045975,0.7080609999999999,0.051569,-0.1537555,0.5193209999999999,0.01515,-0.2714554999999999,0.7068709999999999,-0.085925,0.1517745,0.5072409999999999,0.011939,0.2755345,0.682021,-0.077942,-0.3041655,0.927121,-0.1311699999999999,0.2889345,0.890461,-0.1197,-0.0722135,-0.000753,0.00379,0.0722135,0.000753,-0.00379,-0.0809015,-0.380399,0.034765,0.0825265,-0.3855989999999999,0.0447619999999999,-0.0975165,-0.751679,0.045545,0.0944504999999999,-0.743159,0.042787,0
193,-0.0048184999999999,0.708061,0.052913,-0.1545645,0.518391,0.015766,-0.2759844999999999,0.698371,-0.086804,0.1520555,0.5067510000000001,0.01298,0.2778955,0.674861,-0.079402,-0.3035144999999999,0.916771,-0.1331429999999999,0.2885355,0.8861410000000001,-0.122283,-0.0722035,-0.0007,0.003819,0.0722035,0.0006999999999999,-0.003819,-0.0806605,-0.3805889999999999,0.035204,0.0826415,-0.385119,0.045183,-0.0973175,-0.750849,0.046144,0.0945864999999999,-0.742269,0.043321,0
194,-0.0050759999999999,0.70848,0.054352,-0.155464,0.51703,0.016369,-0.281964,0.68775,-0.0879529999999999,0.152296,0.5061899999999999,0.013998,0.280896,0.66577,-0.081228,-0.302604,0.90627,-0.135241,0.288136,0.87612,-0.125971,-0.072193,-0.000706,0.0038559999999999,0.072193,0.0007059999999999,-0.003856,-0.080373,-0.38009,0.0356869999999999,0.082892,-0.38415,0.045665,-0.0971009999999999,-0.7495200000000001,0.0467379999999999,0.0947399999999999,-0.74087,0.043854,0
195,-0.0053749999999999,0.709203,0.0559645,-0.156377,0.515383,0.0169465,-0.288967,0.674793,-0.0897695,0.152503,0.505293,0.0151775,0.284373,0.654293,-0.0834065,-0.301527,0.888873,-0.1379515,0.287623,0.865663,-0.1303615,-0.072193,-0.0007159999999999,0.0038715,0.072193,0.0007159999999999,-0.0038715,-0.080039,-0.379867,0.0361275,0.0831689999999999,-0.382977,0.0461045,-0.096853,-0.7478170000000001,0.0472035,0.094916,-0.739017,0.0443435,0
196,-0.0056339999999999,0.710458,0.0576545,-0.157264,0.513308,0.0176495,-0.295674,0.657538,-0.0913684999999999,0.152776,0.5040479999999999,0.0163815,0.288126,0.640458,-0.0858714999999999,-0.300404,0.866978,-0.1405545,0.286246,0.854118,-0.1360245,-0.07222,-0.000794,0.0037655,0.07222,0.0007939999999999,-0.0037654999999999,-0.0796399999999999,-0.379462,0.0366625,0.083462,-0.381582,0.0466115,-0.09656,-0.745482,0.0477025,0.095106,-0.736672,0.0449005,0
197,-0.0059329999999999,0.712299,0.059554,-0.158452,0.511079,0.018378,-0.301492,0.637629,-0.092669,0.152948,0.502319,0.017255,0.2912079999999999,0.625009,-0.08897,-0.298532,0.841989,-0.143649,0.284488,0.835819,-0.142239,-0.0722859999999999,-0.0008299999999999,0.003588,0.0722859999999999,0.0008299999999999,-0.003588,-0.07921,-0.378751,0.037206,0.0837499999999999,-0.3806609999999999,0.047192,-0.096297,-0.742571,0.048198,0.095252,-0.733731,0.045493,0
198,-0.0062735,0.714665,0.0613465,-0.1597905,0.508435,0.0189925,-0.3057205,0.613445,-0.0924575,0.1530795,0.500605,0.0179155,0.2929995,0.607435,-0.0925975,-0.2965505,0.815075,-0.1464975,0.2824595,0.815435,-0.1486275,-0.0723895,-0.0008549999999999,0.0033884999999999,0.0723895,0.000855,-0.0033885,-0.0788214999999999,-0.378075,0.0379145,0.0839715,-0.379285,0.0477205,-0.0961134999999999,-0.7391650000000001,0.0486075,0.0953265,-0.730185,0.0459845,0
199,-0.0067635,0.7179055,0.06346,-0.1611185,0.5058655,0.019358,-0.3083085,0.5834254999999999,-0.092128,0.1531815,0.4983354999999999,0.018323,0.2933914999999999,0.5855055,-0.099688,-0.2923885,0.7821055,-0.150608,0.2777715,0.7928255,-0.156968,-0.0725305,-0.0008495,0.0031589999999999,0.0725305,0.0008494999999999,-0.003159,-0.0784225,-0.3770345,0.038659,0.0841754999999999,-0.3776245,0.0482439999999999,-0.0959885,-0.7348345000000001,0.049016,0.0953735,-0.7256945,0.046429,0
200,-0.007231,0.7218565,0.065491,-0.162319,0.5022865,0.019712,-0.308629,0.5521365,-0.091747,0.1532609999999999,0.4958064999999999,0.018723,0.2937309999999999,0.5630364999999999,-0.106637,-0.286919,0.7487564999999999,-0.155037,0.272161,0.7682665,-0.164897,-0.072655,-0.0008734999999999,0.002942,0.072655,0.0008735,-0.002942,-0.078069,-0.3754035,0.039448,0.084352,-0.3753235,0.048777,-0.095883,-0.7299635,0.049416,0.095397,-0.7207235000000001,0.046856,0
201,-0.007674,0.7263280000000001,0.06745,-0.162329,0.498978,0.020034,-0.3085489999999999,0.5190079999999999,-0.091358,0.1533109999999999,0.493558,0.019111,0.294021,0.5388580000000001,-0.113088,-0.280539,0.708188,-0.159298,0.265641,0.7445379999999999,-0.172938,-0.072741,-0.0008959999999999,0.002738,0.072741,0.000896,-0.0027379999999999,-0.077685,-0.373442,0.040196,0.084494,-0.370472,0.049154,-0.095848,-0.7247619999999999,0.049801,0.09541,-0.7154320000000001,0.047243,0
202,-0.0081015,0.7309465,0.0692639999999999,-0.1622875,0.4960465,0.0203059999999999,-0.3085275,0.4853264999999999,-0.090201,0.1532124999999999,0.4911865,0.0193279999999999,0.2942325,0.5134765,-0.118511,-0.2743175,0.6687365000000001,-0.163411,0.2576525,0.7159965,-0.180671,-0.0727855,-0.0009245,0.0024799999999999,0.0727855,0.0009244999999999,-0.0024799999999999,-0.0773085,-0.3714635,0.040907,0.0846355,-0.3656635,0.049519,-0.0958375,-0.7197235,0.050075,0.0953555,-0.7101335,0.047607,0
203,-0.0085114999999999,0.735339,0.070873,-0.1622845,0.4934489999999999,0.020196,-0.3086245,0.451609,-0.087044,0.1530155,0.488639,0.019029,0.2933255,0.488689,-0.123629,-0.2675145,0.624339,-0.168999,0.2480955,0.691499,-0.187929,-0.0728665,-0.0009029999999999,0.002219,0.0728665,0.000903,-0.0022189999999999,-0.0770325,-0.369751,0.041513,0.0847855,-0.361091,0.0497829999999999,-0.0958794999999999,-0.714931,0.050295,0.0952525,-0.705111,0.0479259999999999,0
204,-0.0089589999999999,0.7398125,0.072191,-0.1623679999999999,0.4905425,0.01905,-0.307898,0.4176224999999999,-0.082513,0.152222,0.4863425,0.017881,0.290182,0.4647425,-0.127578,-0.260498,0.5828025,-0.173388,0.238082,0.6664325,-0.194748,-0.073046,-0.0008395,0.001972,0.073046,0.0008395,-0.001972,-0.077056,-0.3672375,0.041949,0.084845,-0.3559575,0.04941,-0.096042,-0.7100175000000001,0.050396,0.095017,-0.6999775,0.048176,0
205,-0.0094129999999999,0.743854,0.073276,-0.162077,0.4880739999999999,0.017416,-0.304467,0.382974,-0.077376,0.151433,0.4845139999999999,0.016519,0.2853329999999999,0.441224,-0.128514,-0.253047,0.5393140000000001,-0.178714,0.227533,0.6398940000000001,-0.200314,-0.073282,-0.000667,0.001817,0.073282,0.000667,-0.0018169999999999,-0.077113,-0.364586,0.042251,0.084872,-0.351316,0.048923,-0.096246,-0.705606,0.050368,0.094736,-0.695336,0.048312,0
206,-0.0098535,0.7473195,0.0740895,-0.1621005,0.4856894999999999,0.0158675,-0.2980905,0.3543695,-0.0715185,0.1506295,0.4833194999999999,0.0151195,0.2791194999999999,0.4186395,-0.1295305,-0.2448705,0.4967094999999999,-0.1836705,0.2165395,0.6192695,-0.2053105,-0.0735325,-0.0005514999999999,0.0016784999999999,0.0735325,0.0005514999999999,-0.0016785,-0.0772355,-0.3621005,0.0423965,0.0847585,-0.3473105,0.0483255,-0.0964745,-0.7016005,0.0503535,0.0944525,-0.6913305,0.0484245,0
207,-0.010282,0.750149,0.074766,-0.16236,0.4837789999999999,0.014266,-0.2894799999999999,0.330359,-0.062212,0.14978,0.4822189999999999,0.01359,0.27129,0.396919,-0.130446,-0.23594,0.450739,-0.189516,0.20476,0.599099,-0.210146,-0.07377,-0.0004329999999999,0.001527,0.07377,0.0004329999999999,-0.001527,-0.077415,-0.359361,0.042571,0.084647,-0.343381,0.047749,-0.096699,-0.698191,0.050425,0.094178,-0.687901,0.048567,0
208,-0.010449,0.7520955,0.0749275,-0.162831,0.4818355,0.0127715,-0.2809009999999999,0.3118255,-0.0520445,0.1488489999999999,0.4816755,0.0120455,0.262039,0.3806955,-0.1308715,-0.229441,0.4096455,-0.1891615,0.194989,0.5809055,-0.2125915,-0.073936,-0.0003544999999999,0.0013725,0.073936,0.0003545,-0.0013725,-0.0775059999999999,-0.3569144999999999,0.0427354999999999,0.084658,-0.3396745,0.0472104999999999,-0.096844,-0.6957445,0.0504755,0.094012,-0.6854045,0.0487084999999999,0
209,-0.0105795,0.753503,0.0750879999999999,-0.1631035,0.480773,0.011114,-0.2705035,0.295483,-0.041292,0.1471065,0.480943,0.010163,0.2530265,0.3650629999999999,-0.131019,-0.2243935,0.364593,-0.1888389999999999,0.1857565,0.5648230000000001,-0.215009,-0.0740575,-0.000273,0.001251,0.0740575,0.0002729999999999,-0.0012509999999999,-0.0775925,-0.355047,0.042881,0.0847115,-0.335237,0.046463,-0.0970215,-0.6938169999999999,0.050545,0.0938705,-0.683357,0.048775,0
210,-0.0106285,0.754502,0.0751695,-0.1631925,0.479392,0.0093665,-0.2611525,0.283142,-0.0321334999999999,0.1449175,0.479282,0.0076364999999999,0.2448275,0.352052,-0.1312255,-0.2203525,0.326972,-0.1886455,0.1749475,0.548332,-0.2197855,-0.0741485,-0.0002079999999999,0.0011955,0.0741485,0.0002079999999999,-0.0011955,-0.0775665,-0.353568,0.0427945,0.0848265,-0.331138,0.0457055,-0.0971104999999999,-0.691998,0.0505845,0.0938104999999999,-0.6818179999999999,0.0487735,0
211,-0.0106135,0.755324,0.075001,-0.1631085,0.478574,0.008028,-0.2527085,0.272744,-0.0235599999999999,0.1420615,0.477134,0.004523,0.2374415,0.340854,-0.1279799999999999,-0.2165985,0.284794,-0.1839599999999999,0.1652815,0.5382440000000001,-0.2241699999999999,-0.0742785,-0.000158,0.0012309999999999,0.0742785,0.000158,-0.0012309999999999,-0.0775065,-0.351946,0.042641,0.0849695,-0.327586,0.04521,-0.0971104999999999,-0.690336,0.050718,0.0938104999999999,-0.680306,0.048817,0
