sb224sc-HT22-VT27/4dt907/src/data/labeled_files/B3_kinect.csv
FrameNo,nose_3d_x,nose_3d_y,nose_3d_z,left_shoulder_3d_x,left_shoulder_3d_y,left_shoulder_3d_z,left_elbow_3d_x,left_elbow_3d_y,left_elbow_3d_z,right_shoulder_3d_x,right_shoulder_3d_y,right_shoulder_3d_z,right_elbow_3d_x,right_elbow_3d_y,right_elbow_3d_z,left_wrist_3d_x,left_wrist_3d_y,left_wrist_3d_z,right_wrist_3d_x,right_wrist_3d_y,right_wrist_3d_z,left_hip_3d_x,left_hip_3d_y,left_hip_3d_z,right_hip_3d_x,right_hip_3d_y,right_hip_3d_z,left_knee_3d_x,left_knee_3d_y,left_knee_3d_z,right_knee_3d_x,right_knee_3d_y,right_knee_3d_z,left_ankle_3d_x,left_ankle_3d_y,left_ankle_3d_z,right_ankle_3d_x,right_ankle_3d_y,right_ankle_3d_z,activity_label
0,-0.00779,0.762771,0.0376385,-0.183905,0.486851,0.0075145,-0.334705,0.492191,-0.1017925,0.146305,0.482601,0.0142895,0.270385,0.3857009999999999,-0.1046225,-0.234835,0.644631,-0.1055325,0.195345,0.545431,-0.2083424999999999,-0.074346,0.000143,-0.0006504999999999,0.074346,-0.000143,0.0006505,-0.074245,-0.373719,0.0412955,0.076333,-0.394569,0.0475735,-0.0851809999999999,-0.686969,0.0570315,0.071238,-0.694959,0.0615595,0
1,-0.0101704999999999,0.7630929999999999,0.041317,-0.1839885,0.486683,0.0067139999999999,-0.3337285,0.502593,-0.1027339999999999,0.1469214999999999,0.482513,0.014616,0.2729715,0.390223,-0.105004,-0.2161385,0.675053,-0.082814,0.1987215,0.550333,-0.206104,-0.0743315,0.000205,-0.0012059999999999,0.0743315,-0.0002049999999999,0.0012059999999999,-0.0740635,-0.3731669999999999,0.04118,0.0771505,-0.395217,0.047669,-0.0846545,-0.687867,0.057512,0.0720975,-0.6957070000000001,0.0618419999999999,0
2,-0.0119995,0.762832,0.0441665,-0.1833295,0.486622,0.0066625,-0.3317795,0.512162,-0.1023555,0.1480105,0.482372,0.0151045,0.2767005,0.392792,-0.1046454999999999,-0.2146695,0.677052,-0.0777255,0.2021205,0.554582,-0.2028654999999999,-0.0741275,0.0002309999999999,-0.0013374999999999,0.0741275,-0.000231,0.0013375,-0.0728365,-0.3799079999999999,0.0423595,0.0785085,-0.396018,0.0480105,-0.0835555,-0.689008,0.0579625,0.0734285,-0.696358,0.0622935,0
3,-0.0145185,0.7624585,0.047031,-0.1827455,0.4864885,0.006835,-0.3298955,0.5195285,-0.1016369999999999,0.1488645,0.4824185,0.015704,0.2794844999999999,0.3947184999999999,-0.104807,-0.2090555,0.6854285,-0.069697,0.2047845,0.5595785,-0.199117,-0.0739845,0.0002624999999999,-0.0016959999999999,0.0739845,-0.0002625,0.001696,-0.0719835,-0.3774115,0.041938,0.0796315,-0.3965415,0.048246,-0.0822495,-0.6900215,0.058435,0.0743325,-0.6967615,0.062519,0
4,-0.016085,0.7623485,0.0490125,-0.181894,0.4863285,0.0068105,-0.328794,0.5250485,-0.0996565,0.150066,0.4822285,0.0160285,0.283236,0.3975185,-0.1048065,-0.206314,0.6890385,-0.0645665,0.207546,0.5652185000000001,-0.1936065,-0.073801,0.0002375,-0.0019964999999999,0.073801,-0.0002374999999999,0.0019964999999999,-0.0710339999999999,-0.3768515,0.0419225,0.080601,-0.3973015,0.0484195,-0.08118,-0.6903815,0.0585695,0.075365,-0.6971014999999999,0.0628365,0
5,-0.0167734999999999,0.7630085,0.0504714999999999,-0.1809345,0.4866385,0.0066834999999999,-0.3276645,0.5303785000000001,-0.0975575,0.1567255,0.4753285,0.0148324999999999,0.2886255,0.4011384999999999,-0.1033675,-0.2045345,0.6915885,-0.0597865,0.2127455,0.5746885,-0.1812475,-0.0736125,0.0002915,-0.0021855,0.0736125,-0.0002915,0.0021855,-0.0702875,-0.3755615,0.0418635,0.0814755,-0.3975615,0.0483035,-0.0800475,-0.6903115,0.0585544999999999,0.0764325,-0.6970115,0.0629084999999999,0
6,-0.0170595,0.7636,0.051457,-0.1801805,0.48718,0.006589,-0.3272204999999999,0.53558,-0.094481,0.1600995,0.47281,0.013981,0.2966795,0.40465,-0.0986809999999999,-0.2031204999999999,0.69378,-0.0551629999999999,0.2221294999999999,0.58182,-0.163361,-0.0732975,0.000366,-0.0019189999999999,0.0732975,-0.000366,0.001919,-0.0694655,-0.37525,0.041716,0.0823825,-0.39816,0.048244,-0.0788755,-0.69003,0.05846,0.0777095,-0.6971400000000001,0.062676,0
7,-0.015653,0.7620485,0.050739,-0.181639,0.4881784999999999,0.008263,-0.331039,0.5432985,-0.081162,0.161211,0.4798785,0.015497,0.310241,0.4256784999999999,-0.077552,-0.207819,0.6957185,-0.0458569999999999,0.211951,0.6057785,-0.121332,-0.073362,0.0004835,-0.0019199999999999,0.073362,-0.0004835,0.00192,-0.069244,-0.3751315,0.041737,0.082397,-0.3998515,0.048329,-0.07849,-0.6910215000000001,0.058482,0.0782279999999999,-0.6985115000000001,0.062644,0
8,-0.0156565,0.76122,0.051315,-0.1818185,0.48871,0.008598,-0.3319685,0.54865,-0.073712,0.1637615,0.48023,0.015742,0.3180715,0.4365799999999999,-0.068212,-0.2071084999999999,0.69733,-0.03964,0.2132514999999999,0.6192799999999999,-0.100422,-0.0732945,0.00059,-0.001993,0.0732945,-0.0005899999999999,0.001993,-0.0689015,-0.37505,0.041572,0.0827795,-0.40119,0.048363,-0.0779185,-0.69206,0.058567,0.0788295,-0.69964,0.062642,0
9,-0.015586,0.760289,0.0516545,-0.182208,0.489319,0.0090564999999999,-0.3333979999999999,0.553739,-0.0649035,0.166102,0.480409,0.0159985,0.323762,0.447479,-0.0578645,-0.207708,0.698519,-0.0331405,0.214042,0.632149,-0.0789935,-0.073248,0.00073,-0.0020205,0.073248,-0.0007299999999999,0.0020205,-0.068818,-0.374811,0.0412364999999999,0.082918,-0.402611,0.0483425,-0.077558,-0.6933010000000001,0.0586045,0.079191,-0.700901,0.0625945,0
10,-0.0155189999999999,0.7591005,0.0518845,-0.182783,0.4899604999999999,0.0097044999999999,-0.335333,0.5586205,-0.0553555,0.167667,0.4807404999999999,0.0163024999999999,0.329457,0.4582604999999999,-0.0464395,-0.2100729999999999,0.7002305,-0.0264915,0.214457,0.6440405,-0.0580355,-0.073235,0.0008675,-0.0020325,0.073235,-0.0008674999999999,0.0020324999999999,-0.0688989999999999,-0.3746395,0.0408775,0.082898,-0.4041095,0.0482854999999999,-0.077359,-0.6948195,0.0586405,0.07937,-0.7024795,0.0625204999999999,0
11,-0.0155625,0.757662,0.0520035,-0.1834335,0.490592,0.0104625,-0.3377735,0.563202,-0.0452275,0.1687765,0.481092,0.0166245,0.3342365,0.470892,-0.0345375,-0.2129535,0.701722,-0.0201545,0.2148865,0.6551619999999999,-0.0384375,-0.0732355,0.001015,-0.0020555,0.0732355,-0.001015,0.0020555,-0.0691674999999999,-0.374548,0.0404475,0.0827445,-0.405838,0.0482115,-0.0773264999999999,-0.6965180000000001,0.0586535,0.0794015,-0.7042780000000001,0.0624645,0
12,-0.0155975,0.756181,0.0522744999999999,-0.1839455,0.491211,0.0113244999999999,-0.3402755,0.5674509999999999,-0.0348275,0.1696845,0.481631,0.0170684999999999,0.3394445,0.484701,-0.0209045,-0.2161055,0.7032309999999999,-0.0141045,0.2139345,0.665761,-0.0208775,-0.0732365,0.001156,-0.0021205,0.0732365,-0.001156,0.0021204999999999,-0.0694265,-0.374639,0.0399634999999999,0.0826035,-0.407819,0.0480694999999999,-0.0773155,-0.6984589999999999,0.0585855,0.0794375,-0.706339,0.0623455,0
13,-0.0156169999999999,0.754666,0.0527075,-0.184358,0.4918659999999999,0.0123245,-0.342688,0.570996,-0.0248764999999999,0.170472,0.483126,0.0178075,0.342732,0.4973559999999999,-0.0098124999999999,-0.219278,0.7043159999999999,-0.0084244999999999,0.212322,0.6765359999999999,-0.0070514999999999,-0.073238,0.00129,-0.0021884999999999,0.073238,-0.0012899999999999,0.0021885,-0.069677,-0.375044,0.0395005,0.082526,-0.410004,0.0478735,-0.077329,-0.7006140000000001,0.0585055,0.079464,-0.708604,0.0622055,0
14,-0.0156144999999999,0.7532425,0.0533215,-0.1844075,0.4923125,0.0130914999999999,-0.3448075,0.5735825,-0.0156644999999999,0.1712325,0.4848125,0.0186025,0.3447725,0.5084725,0.0009774999999999,-0.2223675,0.7049525000000001,-0.0034474999999999,0.2094925,0.6839025000000001,0.0038054999999999,-0.0732555,0.0013764999999999,-0.0022505,0.0732555,-0.0013764999999999,0.0022505,-0.0699365,-0.3758775,0.0389475,0.0824525,-0.4120975,0.0475234999999999,-0.0773705,-0.7028875,0.0583005,0.0794695,-0.7109875,0.0619475,0
15,-0.0157359999999999,0.7522355000000001,0.0540755,-0.184577,0.4927755,0.0136965,-0.3467869999999999,0.5755655000000001,-0.0076595,0.171423,0.4859855,0.0191675,0.347103,0.5176055,0.0105905,-0.2256369999999999,0.7052755,0.0009975,0.208483,0.6877255,0.0121205,-0.073295,0.0014894999999999,-0.0023054999999999,0.073295,-0.0014895,0.0023055,-0.070328,-0.3772245,0.0382725,0.082254,-0.4138045,0.0470845,-0.077557,-0.7049745,0.0579935,0.079323,-0.7131544999999999,0.0616035,0
16,-0.015936,0.7514575,0.054903,-0.184832,0.4924975,0.0139579999999999,-0.348732,0.5769575,-0.0006989999999999,0.171238,0.4861775,0.01941,0.348968,0.5225175000000001,0.0178709999999999,-0.228312,0.7058975000000001,0.005323,0.206708,0.6897875,0.0185609999999999,-0.073329,0.0015814999999999,-0.002285,0.073329,-0.0015814999999999,0.002285,-0.0708719999999999,-0.3790325,0.037472,0.081977,-0.4151825,0.046543,-0.0778669999999999,-0.7070124999999999,0.057564,0.079075,-0.7153124999999999,0.061118,0
17,-0.016249,0.750892,0.0558835,-0.185168,0.4916219999999999,0.0139054999999999,-0.350668,0.5782320000000001,0.0055004999999999,0.170902,0.486292,0.0195685,0.351012,0.526912,0.0250064999999999,-0.230718,0.7065720000000001,0.0091785,0.204792,0.6919320000000001,0.0246655,-0.073356,0.001568,-0.0021745,0.073356,-0.001568,0.0021744999999999,-0.071469,-0.380988,0.0366045,0.081631,-0.416178,0.0458935,-0.078243,-0.708978,0.0569284999999999,0.0787559999999999,-0.7173679999999999,0.0604725,0
18,-0.0167059999999999,0.7506790000000001,0.057044,-0.1855119999999999,0.490559,0.0136729999999999,-0.352552,0.579219,0.0104109999999999,0.170428,0.486119,0.0195319999999999,0.352698,0.530919,0.0315889999999999,-0.233072,0.707339,0.0122949999999999,0.202798,0.694409,0.0300069999999999,-0.073385,0.0014869999999999,-0.00203,0.073385,-0.001487,0.0020299999999999,-0.072189,-0.382741,0.0357349999999999,0.081137,-0.417061,0.0451679999999999,-0.0788019999999999,-0.7107509999999999,0.0562039999999999,0.078297,-0.719231,0.0597459999999999,0
19,-0.017168,0.7509515,0.0583235,-0.185657,0.4893715,0.0131025,-0.354277,0.5799515000000001,0.0147155,0.169933,0.4863715,0.0193425,0.354333,0.5321715,0.0371725,-0.233507,0.7066415,0.0148144999999999,0.201393,0.6964715,0.0343935,-0.0733969999999999,0.0013764999999999,-0.0018595,0.0733969999999999,-0.0013765,0.0018595,-0.072873,-0.3841485,0.0346055,0.080654,-0.4176285,0.0443045,-0.079384,-0.7122385,0.0553435,0.077841,-0.7207285,0.0588825,0
20,-0.0175055,0.751585,0.0597295,-0.1856565,0.488255,0.0123475,-0.3555565,0.580475,0.0181665,0.1694435,0.486675,0.0191595,0.3549235,0.536275,0.0419065,-0.2338265,0.7059249999999999,0.0181025,0.1992435,0.699105,0.0384205,-0.0734265,0.0012129999999999,-0.0016375,0.0734265,-0.001213,0.0016375,-0.0733785,-0.385775,0.0331795,0.0802765,-0.417925,0.0433705,-0.0799135,-0.713535,0.0544115,0.0774794999999999,-0.7219450000000001,0.0579695,0
21,-0.0178629999999999,0.7523765,0.061216,-0.185797,0.4876565,0.011746,-0.356577,0.5807264999999999,0.020841,0.168873,0.4869965,0.0187659999999999,0.354703,0.5357565,0.044729,-0.234107,0.7050664999999999,0.0210619999999999,0.196973,0.7005365,0.041981,-0.073487,0.0010605,-0.0014149999999999,0.073487,-0.0010604999999999,0.0014149999999999,-0.0737879999999999,-0.3877434999999999,0.031596,0.079999,-0.4179135,0.042488,-0.080348,-0.7146035000000001,0.053415,0.077216,-0.7229035,0.0570429999999999,0
22,-0.018206,0.7532475,0.062868,-0.185782,0.4869774999999999,0.0109979999999999,-0.357272,0.5808175,0.0229239999999999,0.168328,0.4873275,0.0182689999999999,0.353978,0.5351175,0.0466209999999999,-0.2345819999999999,0.7052875,0.0237569999999999,0.194758,0.7016175,0.045027,-0.073558,0.0008825,-0.001183,0.073558,-0.0008824999999999,0.0011829999999999,-0.073994,-0.3894725,0.0298909999999999,0.079885,-0.4178625,0.0416509999999999,-0.080523,-0.7154925,0.052356,0.07715,-0.7236625,0.056116,0
23,-0.0183945,0.754119,0.0643785,-0.1857805,0.4864989999999999,0.0101664999999999,-0.3577705,0.5809190000000001,0.0245395,0.1676395,0.4877689999999999,0.0179114999999999,0.3528595,0.5346390000000001,0.0484845,-0.2353605,0.705689,0.0258895,0.1934395,0.702299,0.0477085,-0.0735545,0.0006379999999999,-0.0010044999999999,0.0735545,-0.0006379999999999,0.0010044999999999,-0.0741205,-0.391121,0.0280665,0.0798685,-0.417781,0.0408215,-0.0805105,-0.716181,0.0513225,0.0771554999999999,-0.724201,0.0552094999999999,1
24,-0.0185905,0.754875,0.0658665,-0.1857875,0.486525,0.0096774999999999,-0.3583075,0.580985,0.0258735,0.1667925,0.4885049999999999,0.0178285,0.3528925,0.533355,0.0501925,-0.2361174999999999,0.705535,0.0279535,0.1921925,0.702705,0.0495645,-0.0735535,0.0004429999999999,-0.0009604999999999,0.0735535,-0.0004429999999999,0.0009604999999999,-0.0742765,-0.393075,0.0261375,0.0798505,-0.417715,0.0399335,-0.0805365,-0.716815,0.0503625,0.0771385,-0.724655,0.0544035,1
25,-0.019182,0.7555065000000001,0.067545,-0.185798,0.4866065,0.009434,-0.3591379999999999,0.5810065,0.027111,0.165822,0.4892865,0.0180369999999999,0.352922,0.5325565,0.051843,-0.236978,0.7054665,0.02989,0.190972,0.7024965000000001,0.051688,-0.073555,0.0003744999999999,-0.0010399999999999,0.073555,-0.0003744999999999,0.0010399999999999,-0.074403,-0.3949235,0.024239,0.0798369999999999,-0.4177535,0.03934,-0.080553,-0.7174035,0.0495209999999999,0.077126,-0.7249935,0.053918,1
26,-0.0200505,0.7560655,0.0691625,-0.1856825,0.4867055,0.0093414999999999,-0.3601425,0.5810154999999999,0.0280485,0.1647275,0.4900855,0.0184485,0.3530675,0.5323454999999999,0.0534245,-0.2380425,0.7058255,0.0318165,0.1895775,0.7025355,0.0533635,-0.0736695,0.0004095,-0.0012905,0.0736695,-0.0004095,0.0012905,-0.0744525,-0.3964844999999999,0.0221345,0.0798374999999999,-0.4177944999999999,0.0389415,-0.0804545,-0.7179045000000001,0.0487835,0.0772235,-0.7252045,0.0535395,1
27,-0.0205775,0.75637,0.070583,-0.1858585,0.4866299999999999,0.009305,-0.3607285,0.58099,0.028669,0.1631515,0.49082,0.018938,0.3527315,0.5325500000000001,0.054691,-0.2381785,0.70618,0.033673,0.1882515,0.70226,0.054914,-0.0738065,0.000411,-0.001589,0.0738065,-0.0004109999999999,0.001589,-0.0736375,-0.39791,0.020104,0.0804594999999999,-0.41787,0.038608,-0.0794685,-0.7185999999999999,0.048079,0.0781715,-0.72547,0.053219,1
28,-0.0208975,0.756341,0.071761,-0.1860804999999999,0.486331,0.009136,-0.3614305,0.580871,0.028667,0.1612495,0.491251,0.019516,0.3522094999999999,0.5329510000000001,0.055849,-0.2375505,0.7062010000000001,0.035299,0.1869095,0.701891,0.056394,-0.0739265,0.000276,-0.0018739999999999,0.0739265,-0.0002759999999999,0.001874,-0.0721874999999999,-0.398659,0.018218,0.0815025,-0.417809,0.038135,-0.0777384999999999,-0.719349,0.047365,0.0797785,-0.725839,0.0529,1
29,-0.0215365,0.756294,0.0727795,-0.1866924999999999,0.486054,0.0089575,-0.3624024999999999,0.581034,0.0284205,0.1590875,0.491604,0.0200145,0.3491075,0.5326740000000001,0.0571255,-0.2363925,0.7063440000000001,0.0359185,0.1852275,0.7016140000000001,0.0576855,-0.0740685,-1.000000000001e-06,-0.0021364999999999,0.0740685,1.000000000001e-06,0.0021365,-0.0704525,-0.399026,0.0166995,0.0829165,-0.417686,0.0375095,-0.0752845,-0.7199859999999999,0.0467635,0.0819215,-0.7260559999999999,0.0526535,1
30,-0.0227675,0.7561205,0.073876,-0.1875435,0.4857105,0.0087109999999999,-0.3638235,0.5813305,0.0282049999999999,0.1568265,0.4917905,0.0207389999999999,0.3454765,0.5335805,0.058381,-0.2356535,0.7063905,0.036555,0.1834065,0.7016805,0.0585519999999999,-0.0741295,-0.0003445,-0.002368,0.0741295,0.0003445,0.0023679999999999,-0.0686955,-0.3993695,0.0156359999999999,0.0846365,-0.4176195,0.036636,-0.0724235,-0.7206895,0.046168,0.0845445,-0.7261895,0.0524219999999999,1
31,-0.02364,0.7558455,0.074679,-0.1879779999999999,0.4860055,0.008721,-0.365068,0.5815855,0.027904,0.154832,0.4924155,0.021343,0.341192,0.5347755,0.059279,-0.234518,0.7062355,0.036893,0.182072,0.7013455,0.0591919999999999,-0.074172,-0.0007285,-0.002658,0.074172,0.0007285,0.002658,-0.066341,-0.3998144999999999,0.014719,0.0867199999999999,-0.4175445,0.034798,-0.068617,-0.7213245,0.045606,0.087991,-0.7261545,0.052092,1
32,-0.024861,0.755538,0.0753745,-0.187827,0.486498,0.0088635,-0.366477,0.581748,0.0276005,0.153393,0.4925879999999999,0.0217795,0.337263,0.536078,0.0598804999999999,-0.232837,0.706098,0.0370335,0.180113,0.7003680000000001,0.0597045,-0.074202,-0.001081,-0.0029654999999999,0.074202,0.0010809999999999,0.0029654999999999,-0.063544,-0.400302,0.0142075,0.0896889999999999,-0.417532,0.0323175,-0.064123,-0.721872,0.0451855,0.091999,-0.7259319999999999,0.0522134999999999,1
33,-0.0260574999999999,0.7551685,0.075926,-0.1870465,0.4870385,0.008922,-0.3682665,0.5817685,0.027149,0.1523735,0.4924385,0.022002,0.3332735,0.5374285,0.060212,-0.2309665,0.7058785,0.037013,0.1771135,0.7006485,0.060148,-0.0742164999999999,-0.0013935,-0.0032209999999999,0.0742164999999999,0.0013934999999999,0.003221,-0.0605915,-0.4005115,0.013756,0.0931984999999999,-0.4148415,0.027782,-0.0590505,-0.7226015,0.044691,0.0963035,-0.7244015,0.054648,1
34,-0.0266385,0.7544265,0.076309,-0.1879405,0.4874265,0.0089169999999999,-0.3697505,0.5812864999999999,0.026782,0.1510895,0.4918865,0.022187,0.3297695,0.5383264999999999,0.06027,-0.2285105,0.7062164999999999,0.037034,0.1742695,0.7010164999999999,0.060519,-0.0740805,-0.0018965,-0.003549,0.0740805,0.0018964999999999,0.003549,-0.0580285,-0.4000435,0.0132779999999999,0.0971535,-0.4089534999999999,0.0209649999999999,-0.0533935,-0.7238535,0.044152,0.1012405,-0.7201335,0.0595389999999999,1
35,-0.027371,0.7534765000000001,0.0767009999999999,-0.189212,0.4874065,0.0087999999999999,-0.3713019999999999,0.5806264999999999,0.026438,0.149588,0.4910764999999999,0.02242,0.326438,0.5388265000000001,0.06019,-0.226072,0.7062965000000001,0.037221,0.171008,0.7013564999999999,0.060865,-0.073922,-0.0025845,-0.00397,0.0739219999999999,0.0025844999999999,0.0039699999999999,-0.055837,-0.3993635,0.012773,0.101488,-0.3960635,0.0075469999999999,-0.04779,-0.7245935000000001,0.043675,0.106041,-0.7095935,0.064466,1
36,-0.0283235,0.7523305,0.077061,-0.1900775,0.4867304999999999,0.008406,-0.3729475,0.5798005,0.025977,0.1486025,0.4902204999999999,0.02256,0.3231624999999999,0.5390105,0.0599009999999999,-0.2239975,0.7059405,0.0373509999999999,0.1679125,0.7015305,0.060819,-0.0737475,-0.0034135,-0.004579,0.0737475,0.0034135,0.004579,-0.0541465,-0.3987195,0.0122969999999999,0.1055915,-0.3827995,-0.006377,-0.0427604999999999,-0.7255095,0.043087,0.1103305,-0.6962795,0.070883,1
37,-0.029494,0.7512215,0.077278,-0.191093,0.4857614999999999,0.008012,-0.374513,0.5789415,0.025222,0.147883,0.4893515,0.022502,0.320377,0.5391115,0.059335,-0.2220929999999999,0.7053315,0.0375,0.165427,0.7015415,0.060528,-0.073623,-0.0043414999999999,-0.005291,0.073623,0.0043414999999999,0.005291,-0.052873,-0.3981885,0.011914,0.108997,-0.3689584999999999,-0.022033,-0.038646,-0.7260285,0.042525,0.113842,-0.6751785,0.072219,1
38,-0.030116,0.749924,0.0772714999999999,-0.1915799999999999,0.4844139999999999,0.0073715,-0.37546,0.577664,0.0240745,0.1475469999999999,0.488284,0.0222235,0.32115,0.5378240000000001,0.0584525,-0.22033,0.7047140000000001,0.0374985,0.16435,0.7012339999999999,0.0598885,-0.07354,-0.0053189999999999,-0.0059955,0.07354,0.005319,0.0059955,-0.05136,-0.397966,0.0115315,0.11225,-0.352826,-0.0433355,-0.0348809999999999,-0.7268060000000001,0.0417015,0.117019,-0.652876,0.0726125,1
39,-0.0302164999999999,0.7485014999999999,0.0768975,-0.1917454999999999,0.4829515,0.0066605,-0.3759355,0.5760415000000001,0.0228245,0.1474725,0.4872515,0.0217925,0.3216545,0.5358315,0.0574415,-0.2188655,0.7040415,0.0373055,0.1627745,0.7011315,0.0592945,-0.0735455,-0.0063235,-0.0067384999999999,0.0735455,0.0063234999999999,0.0067385,-0.0495154999999999,-0.3973885,0.0109745,0.1154075,-0.3351785,-0.0668405,-0.0315774999999999,-0.7282185000000001,0.0405545,0.1191615,-0.6305385000000001,0.0738395,1
40,-0.0307095,0.746792,0.0767255,-0.1924254999999999,0.481232,0.0061045,-0.3767855,0.5743419999999999,0.0216835,0.1479025,0.4860319999999999,0.0216145,0.3225945,0.533422,0.0565645,-0.2181354999999999,0.7029519999999999,0.0372125,0.1609075,0.700672,0.0589395,-0.0735655,-0.007431,-0.0072804999999999,0.0735655,0.007431,0.0072805,-0.0480555,-0.3975579999999999,0.0105385,0.1181965,-0.3206179999999999,-0.0802264999999999,-0.0288544999999999,-0.7303080000000001,0.0395005,0.1207545,-0.6125280000000001,0.0801765,1
41,-0.0304875,0.7450635,0.076622,-0.1930555,0.4794535,0.0057079999999999,-0.3768555,0.5724235000000001,0.020662,0.1490885,0.4845535,0.021648,0.3238645,0.5309335000000001,0.0555419999999999,-0.2168155,0.7015735000000001,0.037276,0.1604215,0.7000735,0.058578,-0.0737155,-0.0084245,-0.007703,0.0737154999999999,0.0084244999999999,0.007703,-0.0463855,-0.3976065,0.010041,0.1211065,-0.3101865,-0.093655,-0.0259145,-0.7325665,0.038483,0.1223595,-0.5988764999999999,0.0867319999999999,1
42,-0.0300684999999999,0.743013,0.0768745,-0.1938285,0.477483,0.0056304999999999,-0.3763985,0.570143,0.0200435,0.1500975,0.482973,0.0219745,0.3254215,0.528293,0.0546215,-0.2150085,0.700013,0.0375755,0.1614285,0.698113,0.0584424999999999,-0.0739784999999999,-0.0093579999999999,-0.0081145,0.0739785,0.0093579999999999,0.0081144999999999,-0.0446485,-0.398097,0.0093464999999999,0.1232854999999999,-0.298317,-0.1138025,-0.0228895,-0.735127,0.0376995,0.1235025,-0.578537,0.0856675,1
43,-0.029823,0.7409085000000001,0.077744,-0.192703,0.4753185,0.005951,-0.375763,0.5677185,0.02009,0.151667,0.4811684999999999,0.022669,0.326767,0.5259285,0.054223,-0.213293,0.6984385000000001,0.03826,0.162565,0.6959285000000001,0.0587899999999999,-0.074473,-0.0100705,-0.008516,0.074473,0.0100704999999999,0.008516,-0.042473,-0.3995615,0.008842,0.1246769999999999,-0.2865815,-0.1323679999999999,-0.02017,-0.7376214999999999,0.03722,0.1234279999999999,-0.5575914999999999,0.085028,1
44,-0.028491,0.7389915,0.079246,-0.1907209999999999,0.4734215,0.0067819999999999,-0.374241,0.5653715,0.0210419999999999,0.154418,0.4794015,0.0238309999999999,0.328819,0.5238915000000001,0.054298,-0.2109209999999999,0.6966015000000001,0.039359,0.165166,0.6937115,0.0600509999999999,-0.0750509999999999,-0.0102724999999999,-0.008639,0.075051,0.0102724999999999,0.0086389999999999,-0.039631,-0.4014885,0.0086509999999999,0.127033,-0.2805685,-0.146002,-0.0171009999999999,-0.7399684999999999,0.037106,0.12338,-0.5376084999999999,0.084895,1
45,-0.0272584999999999,0.7379095,0.0809085,-0.1891185,0.4724795,0.0076755,-0.3730985,0.5641895,0.0222515,0.1570595,0.4782194999999999,0.0247015,0.3302615,0.5229295,0.0543145,-0.2090985,0.6954195000000001,0.0410615,0.1674375,0.6925295,0.0611135,-0.0754885,-0.0098885,-0.0086305,0.0754885,0.0098885,0.0086305,-0.0374584999999999,-0.4026705,0.0086075,0.1287495,-0.2726505,-0.1636544999999999,-0.0146334999999999,-0.7411504999999999,0.0370675,0.1224175,-0.5174405,0.0641255,1
46,-0.026336,0.7373179999999999,0.0823349999999999,-0.1880359999999999,0.471888,0.00831,-0.372316,0.5635979999999999,0.0231439999999999,0.15853,0.477628,0.0255579999999999,0.330914,0.522338,0.0541409999999999,-0.2082759999999999,0.694828,0.042307,0.168904,0.6919379999999999,0.061765,-0.076086,-0.009368,-0.008618,0.076086,0.009368,0.008618,-0.036346,-0.403262,0.0085849999999999,0.128655,-0.262062,-0.191474,-0.0131809999999999,-0.741742,0.037038,0.120352,-0.505642,0.018526,1
47,-0.0253275,0.7372145,0.0832635,-0.1870375,0.4717845,0.0086315,-0.3715675,0.5634845,0.0235845,0.1595345,0.4775244999999999,0.0260405,0.3314825,0.5221645,0.0542165,-0.2075675,0.6947245000000001,0.0429294999999999,0.1699025,0.6918345,0.0619254999999999,-0.0765075,-0.0092645,-0.0087905,0.0765075,0.0092645,0.0087905,-0.0358075,-0.4033655,0.0085265,0.1272464999999999,-0.2544855,-0.2196135,-0.0121835,-0.7426355,0.0371315,0.1196345,-0.4985455,-0.0345405,1
48,-0.0242835,0.7372145,0.0843154999999999,-0.1860035,0.4717845,0.0095225,-0.3705335,0.5630245,0.0244755,0.1606765,0.4775244999999999,0.0269295,0.3325165,0.5221645,0.0550485,-0.2065334999999999,0.6946045000000001,0.0438205,0.1709365,0.6915745,0.0628165,-0.0767535,-0.0092645,-0.0089725,0.0767535,0.0092645,0.0089725,-0.0354535,-0.4035855,0.0084225,0.1257975,-0.2540655,-0.2481325,-0.0111534999999999,-0.7436554999999999,0.0378475,0.1193535,-0.4979255,-0.0992625,1
49,-0.0229415,0.7368345000000001,0.086628,-0.1846614999999999,0.4717345,0.011835,-0.3691915,0.5620045,0.026788,0.1626115,0.4773945,0.02923,0.3338585,0.5221245,0.057349,-0.2066115,0.6943445,0.046162,0.1723565,0.6909345,0.065127,-0.0768415,-0.0092645,-0.0087649999999999,0.0768415,0.0092645,0.008765,-0.0348514999999999,-0.4042855,0.008728,0.1253125,-0.2540655,-0.2713799999999999,-0.0091974999999999,-0.7455255,0.040052,0.1192715,-0.4979255,-0.16797,1
50,-0.0218985,0.736301,0.0908425,-0.1837385,0.471641,0.0160515,-0.3684285,0.561101,0.0310075,0.1644324999999999,0.477261,0.0334285,0.3346015,0.522151,0.0609885,-0.2070785,0.693931,0.0504055,0.1739445,0.690281,0.0692385,-0.0764585,-0.008688,-0.0085755,0.0764584999999999,0.008688,0.0085755,-0.0346485,-0.4050789999999999,0.0098215,0.1236154999999999,-0.254479,-0.2897105,-0.0071735,-0.747329,0.0438565,0.1184964999999999,-0.5008090000000001,-0.2404204999999999,1
51,-0.0203549999999999,0.736301,0.0970139999999999,-0.182445,0.4719109999999999,0.0216099999999999,-0.367375,0.560651,0.036688,0.1665579999999999,0.4774109999999999,0.039172,0.336095,0.521501,0.065781,-0.207335,0.693881,0.056218,0.176076,0.689861,0.074556,-0.0761049999999999,-0.007758,-0.008148,0.0761049999999999,0.007758,0.0081479999999999,-0.034705,-0.405049,0.011699,0.121655,-0.259629,-0.304428,-0.004999,-0.747479,0.049309,0.119131,-0.515109,-0.307338,1
52,-0.0179114999999999,0.73645,0.104707,-0.1811414999999999,0.47308,0.029078,-0.3655515,0.56019,0.043615,0.1684915,0.4774899999999999,0.046054,0.3376985,0.52157,0.072173,-0.2061915,0.69166,0.062137,0.1799245,0.68869,0.08072,-0.0758615,-0.006508,-0.0076079999999999,0.0758615,0.006508,0.007608,-0.0350515,-0.40432,0.014523,0.1202415,-0.26843,-0.312773,-0.0031395,-0.74634,0.056291,0.1205445,-0.5318,-0.368723,1
53,-0.014769,0.7369264999999999,0.1138685,-0.179059,0.4741265,0.0370835,-0.362799,0.5607765,0.0521815,0.1708049999999999,0.4778165,0.0537864999999999,0.339991,0.5218565,0.0795415,-0.2048489999999999,0.6904764999999999,0.0698854999999999,0.184286,0.6880565,0.0885535,-0.0756989999999999,-0.0053054999999999,-0.0070915,0.075699,0.0053054999999999,0.0070914999999999,-0.035639,-0.4025935,0.0179264999999999,0.118713,-0.2765635,-0.3202315,-0.0014229999999999,-0.7439035,0.0649085,0.121682,-0.5409035,-0.4228615,1
54,-0.0114755,0.7375735,0.1238245,-0.1769555,0.4754535000000001,0.0459425,-0.3594255,0.5620335000000001,0.0619285,0.1733445,0.4782535,0.0618855,0.3431145,0.5216935,0.0868454999999999,-0.2036255,0.6899835000000001,0.0784644999999999,0.1883855,0.6879835000000001,0.0977105,-0.0755255,-0.0040944999999999,-0.0063755,0.0755255,0.0040945,0.0063754999999999,-0.0367954999999999,-0.4001165,0.0216365,0.1174055,-0.2857065,-0.3182225,7.550000000000612e-05,-0.7405165,0.0752515,0.1228845,-0.5498365,-0.4512625,1
55,-0.007949,0.738415,0.1344785,-0.174986,0.477345,0.0557354999999999,-0.355526,0.563995,0.0719865,0.17589,0.478765,0.0704965,0.346404,0.521405,0.0941994999999999,-0.202486,0.689905,0.0876115,0.1925239999999999,0.687625,0.1058855,-0.075296,-0.0029,-0.0054535,0.0752959999999999,0.0029,0.0054535,-0.038426,-0.3970349999999999,0.0258204999999999,0.11656,-0.291865,-0.3041835,0.0014929999999999,-0.736045,0.0871025,0.125633,-0.557435,-0.4556834999999999,1
56,-0.0052819999999999,0.739108,0.1446645,-0.173436,0.478868,0.0649215,-0.352016,0.566048,0.0816045,0.17814,0.479138,0.0782665,0.3508139999999999,0.5193880000000001,0.0990785,-0.201456,0.690208,0.0966055,0.197124,0.686208,0.1132265,-0.0750859999999999,-0.002061,-0.0043985,0.075086,0.002061,0.0043985,-0.0402059999999999,-0.393362,0.0305655,0.116749,-0.293712,-0.2903925,0.002157,-0.7309519999999999,0.1001015,0.128445,-0.561462,-0.4520825,1
57,-0.002129,0.7392235,0.154399,-0.171098,0.4794635,0.073072,-0.347808,0.5677535,0.0907119999999999,0.180468,0.4791235,0.0854969999999999,0.355232,0.5171235000000001,0.1048399999999999,-0.200088,0.6893935,0.104221,0.202142,0.6843935,0.1210919999999999,-0.075028,-0.0017274999999999,-0.0033849999999999,0.075028,0.0017275,0.0033849999999999,-0.041328,-0.3899065,0.03623,0.115904,-0.3024064999999999,-0.276195,0.0030139999999999,-0.7256965,0.1144279999999999,0.131485,-0.5791765,-0.437825,1
58,0.0005315,0.7394044999999999,0.163504,-0.1690245,0.4802445,0.081041,-0.3438845,0.5697644999999999,0.099323,0.1830155,0.4789245,0.091861,0.3594254999999999,0.5148744999999999,0.110711,-0.1991245,0.6884944999999999,0.112051,0.2066755,0.6827945,0.129198,-0.0746745,-0.0013244999999999,-0.002535,0.0746745,0.0013244999999999,0.0025349999999999,-0.0427845,-0.3860655,0.042501,0.1146305,-0.3196555,-0.260585,0.0033624999999999,-0.7197955,0.129937,0.1343945,-0.5972255000000001,-0.420905,1
59,0.002512,0.739379,0.171711,-0.16708,0.480799,0.08778,-0.34056,0.570879,0.106561,0.1854,0.478309,0.097254,0.36305,0.512889,0.115875,-0.19847,0.687689,0.118647,0.21019,0.681199,0.135985,-0.0744,-0.001043,-0.0017299999999999,0.0744,0.001043,0.00173,-0.04475,-0.382421,0.049178,0.112858,-0.336171,-0.24427,0.002836,-0.7138410000000001,0.145511,0.135105,-0.616271,-0.40328,1
60,0.0041405,0.7390135,0.178335,-0.1660395,0.4812035,0.094827,-0.3374495,0.5717435,0.112759,0.1870005,0.4776035,0.102772,0.3657705,0.5119435,0.119085,-0.1979894999999999,0.6867935,0.124378,0.2131505,0.6798235,0.141222,-0.0741095,-0.0009145,-0.0010099999999999,0.0741095,0.0009145,0.00101,-0.0470294999999999,-0.3793165,0.05533,0.1106294999999999,-0.3483865,-0.2263699999999999,0.0017385,-0.7085365,0.160902,0.1341795,-0.6315065,-0.38497,1
61,0.0057689999999999,0.738918,0.182494,-0.16461,0.4810979999999999,0.1002379999999999,-0.33406,0.5727679999999999,0.1173639999999999,0.18878,0.477248,0.1064269999999999,0.36876,0.510908,0.1201069999999999,-0.1972499999999999,0.688648,0.12955,0.21481,0.679678,0.1449029999999999,-0.07332,-0.000972,-0.000415,0.07332,0.000972,0.0004149999999999,-0.04851,-0.376312,0.0607049999999999,0.109107,-0.355172,-0.208605,0.0010499999999999,-0.703722,0.175342,0.133122,-0.6418820000000001,-0.364715,1
62,0.0068504999999999,0.7385825,0.1845719999999999,-0.1638224999999999,0.4812425,0.1026479999999999,-0.3314125,0.5730325000000001,0.120289,0.1904075,0.4768725,0.1066609999999999,0.3708475,0.5098325,0.119616,-0.1970425,0.6896125,0.131179,0.2164875,0.6789725,0.145724,-0.0726925,-0.0010985,0.0002049999999999,0.0726925,0.0010985,-0.000205,-0.0499625,-0.3739375,0.0659549999999999,0.1076835,-0.3610974999999999,-0.193205,0.0001265,-0.7000375,0.18858,0.1320355,-0.6474575,-0.340035,1
63,0.0073059999999999,0.7383845,0.184852,-0.163893,0.4813245,0.104665,-0.330643,0.5729744999999999,0.121771,0.1908969999999999,0.4767345,0.105885,0.369897,0.5110745,0.118595,-0.198823,0.6896245,0.131657,0.216857,0.6781944999999999,0.144312,-0.072293,-0.0012404999999999,0.0006349999999999,0.072293,0.0012405,-0.0006349999999999,-0.051613,-0.3719155,0.070915,0.106636,-0.3652555,-0.179655,-0.001167,-0.6971055,0.200003,0.1306749999999999,-0.6525655,-0.316635,1
64,0.0066589999999999,0.7382164999999999,0.184651,-0.164267,0.4811364999999999,0.105585,-0.3314769999999999,0.5726365,0.122931,0.190263,0.4769164999999999,0.1048849999999999,0.368823,0.5119965,0.117005,-0.199727,0.6887865,0.132793,0.2160329999999999,0.6784365,0.144058,-0.0720769999999999,-0.0013525,0.0007749999999999,0.072077,0.0013524999999999,-0.0007749999999999,-0.053117,-0.3701935,0.074515,0.1055349999999999,-0.3682735,-0.168095,-0.002568,-0.6950335,0.2091009999999999,0.129385,-0.6549235,-0.298675,1
65,0.00585,0.738238,0.1840539999999999,-0.165166,0.481118,0.1062549999999999,-0.332726,0.572128,0.1233749999999999,0.1889839999999999,0.477218,0.1044149999999999,0.367434,0.5133979999999999,0.1179349999999999,-0.201056,0.687828,0.1326089999999999,0.214804,0.6789879999999999,0.1437909999999999,-0.071996,-0.0014169999999999,0.0006549999999999,0.071996,0.001417,-0.000655,-0.0544159999999999,-0.3693519999999999,0.0765149999999999,0.104723,-0.371732,-0.158775,-0.0032529999999999,-0.693752,0.21513,0.128185,-0.6570020000000001,-0.288275,1
66,0.005774,0.7382265,0.182721,-0.165192,0.4813565,0.107245,-0.3327719999999999,0.5714764999999999,0.123175,0.1889279999999999,0.4774065,0.103765,0.3673579999999999,0.5139265,0.116895,-0.2011119999999999,0.6874965,0.132315,0.215108,0.6790664999999999,0.142226,-0.072042,-0.0013544999999999,0.000705,0.072042,0.0013545,-0.0007049999999999,-0.0545819999999999,-0.3687134999999999,0.076955,0.104783,-0.3733335,-0.1533549999999999,-0.002865,-0.6932835,0.21743,0.1281209999999999,-0.6576035,-0.284145,1
67,0.005747,0.7382805,0.181363,-0.165202,0.4812005,0.106865,-0.332782,0.5700905,0.122905,0.188898,0.4775105,0.102505,0.367338,0.5141905,0.115825,-0.201142,0.6866504999999999,0.131055,0.215088,0.6793305,0.141088,-0.072042,-0.0013305,0.000705,0.072042,0.0013304999999999,-0.0007049999999999,-0.054652,-0.3692995,0.076565,0.104799,-0.3748295,-0.152565,-0.0027449999999999,-0.6934795,0.216275,0.127961,-0.6584695,-0.2830449999999999,1
68,0.005747,0.7382805,0.181363,-0.165202,0.4812005,0.106865,-0.332782,0.5696305,0.122905,0.188898,0.4775105,0.102505,0.364978,0.5164805,0.115875,-0.201142,0.6859405,0.131055,0.214548,0.6799805,0.141098,-0.072042,-0.0013305,0.000705,0.072042,0.0013304999999999,-0.0007049999999999,-0.054652,-0.3702995,0.076565,0.104795,-0.3748295,-0.152775,-0.002751,-0.6934795,0.215993,0.127929,-0.6584695,-0.2830449999999999,1
69,0.0050499999999999,0.7382805,0.1813719999999999,-0.166647,0.4812005,0.1068799999999999,-0.334287,0.5696305,0.1229299999999999,0.1876229999999999,0.4775105,0.1025199999999999,0.362083,0.5187205,0.1159299999999999,-0.203677,0.6859405,0.1311,0.213683,0.6810905,0.141111,-0.072057,-0.0013305,0.0007099999999999,0.072057,0.0013304999999999,-0.00071,-0.054637,-0.3708695,0.0765599999999999,0.104498,-0.3748295,-0.15566,-0.0027409999999999,-0.6931195,0.2157009999999999,0.127922,-0.6584695,-0.28415,1
70,0.004641,0.7382805,0.1809799999999999,-0.167034,0.4812005,0.10649,-0.335504,0.5696305,0.1225599999999999,0.187026,0.4775105,0.1021399999999999,0.360076,0.5206705,0.1155699999999999,-0.205624,0.6863905,0.13074,0.211526,0.6815705,0.140754,-0.072134,-0.0013305,0.0005699999999999,0.072134,0.0013304999999999,-0.00057,-0.0536639999999999,-0.3707395,0.0761399999999999,0.105065,-0.3748295,-0.15897,-0.0012529999999999,-0.6926495,0.21503,0.130031,-0.6584695,-0.28507,1
71,0.0046694999999999,0.7379885,0.178313,-0.1678885,0.4812785,0.10611,-0.3357985,0.5691885,0.12142,0.1860915,0.4778185,0.10073,0.3585715,0.5222085000000001,0.11361,-0.2064085,0.6866385,0.128763,0.2096115,0.6819285,0.138341,-0.0722085,-0.0014295,0.00045,0.0722085,0.0014295,-0.0004499999999999,-0.0522385,-0.3708515,0.07402,0.1059254999999999,-0.3748815,-0.16564,0.0012624999999999,-0.6936715,0.210444,0.1326945,-0.6552015,-0.29537,1
72,0.004617,0.7380165,0.175128,-0.16811,0.4811965,0.103145,-0.3368099999999999,0.5681365,0.119265,0.18575,0.4783465,0.097605,0.35641,0.5244965,0.112525,-0.20795,0.6862965,0.126155,0.20702,0.6838365,0.135875,-0.07235,-0.0015455,0.000175,0.07235,0.0015455,-0.000175,-0.0498599999999999,-0.3720835,0.071195,0.107739,-0.3708935,-0.174165,0.004006,-0.6951235,0.202935,0.13613,-0.6483935,-0.314025,1
73,0.004097,0.738124,0.17181,-0.1680429999999999,0.480934,0.0985899999999999,-0.3381929999999999,0.566824,0.1159629999999999,0.185027,0.478874,0.0942699999999999,0.353977,0.5267339999999999,0.1113049999999999,-0.2064029999999999,0.685504,0.1224699999999999,0.204137,0.686294,0.133401,-0.072573,-0.0016129999999999,-0.00016,0.072573,0.0016129999999999,0.0001599999999999,-0.0470029999999999,-0.373586,0.0671099999999999,0.110388,-0.3642559999999999,-0.1871,0.0071579999999999,-0.697246,0.1932459999999999,0.139759,-0.6391260000000001,-0.34539,1
74,0.0034445,0.73812,0.1680519999999999,-0.1681244999999999,0.48025,0.0955499999999999,-0.3398044999999999,0.56507,0.1114409999999999,0.1839385,0.47928,0.0926099999999999,0.3518455,0.52851,0.1097169999999999,-0.2072145,0.68367,0.1190039999999999,0.2005555,0.68845,0.1310549999999999,-0.0729845,-0.0016079999999999,-0.00041,0.0729845,0.001608,0.0004099999999999,-0.0437845,-0.37508,0.0620599999999999,0.1136815,-0.35438,-0.2047,0.0108055,-0.70016,0.1815949999999999,0.1437335,-0.6246,-0.38273,1
75,0.002318,0.737791,0.164018,-0.168487,0.479231,0.09109,-0.341107,0.563011,0.106002,0.182348,0.4795709999999999,0.090623,0.350983,0.528881,0.107633,-0.207747,0.681071,0.114589,0.197573,0.690011,0.128287,-0.073457,-0.001843,-0.0008599999999999,0.073457,0.001843,0.0008599999999999,-0.0410769999999999,-0.377139,0.05719,0.116655,-0.339199,-0.22459,0.013937,-0.704079,0.169005,0.146548,-0.605779,-0.41192,1
76,0.0012125,0.7375475,0.158634,-0.1691585,0.4778675,0.085782,-0.3425085,0.5613975,0.099598,0.1808165,0.4797875,0.087485,0.3495515,0.5291375,0.10513,-0.2080284999999999,0.6807575,0.107858,0.1945895,0.6914275000000001,0.124427,-0.0739785,-0.0020995,-0.0013199999999999,0.0739785,0.0020995,0.0013199999999999,-0.0387684999999999,-0.3794925,0.05352,0.1195155,-0.3204825,-0.24777,0.0166635,-0.7079624999999999,0.156446,0.1498185,-0.5853025,-0.43848,1
77,3.999999999999837e-05,0.7371675000000001,0.152688,-0.169618,0.4763075,0.080119,-0.343958,0.5598375000000001,0.0931449999999999,0.179311,0.4800975,0.083739,0.348992,0.5289175,0.101295,-0.2111679999999999,0.6804275000000001,0.101441,0.19134,0.6925675,0.1199089999999999,-0.074538,-0.0023915,-0.00173,0.074538,0.0023914999999999,0.00173,-0.036428,-0.3822325,0.0503499999999999,0.122055,-0.2954325,-0.26838,0.018817,-0.7121325,0.145167,0.151424,-0.5612125,-0.45457,1
78,-0.0015395,0.7364145,0.146191,-0.1696895,0.4742945,0.0734209999999999,-0.3452595,0.5582545,0.0864589999999999,0.1782004999999999,0.4802545,0.0795129999999999,0.3478704999999999,0.5281644999999999,0.0970529999999999,-0.2088195,0.6799445,0.0942779999999999,0.1876115,0.6926844999999999,0.1145859999999999,-0.0747795,-0.0027434999999999,-0.00264,0.0747795,0.0027434999999999,0.0026399999999999,-0.0342895,-0.3851755,0.0468589999999999,0.1242134999999999,-0.2679355,-0.28537,0.0202914999999999,-0.7166455,0.1344409999999999,0.1524555,-0.5372155000000001,-0.46742,1
79,-0.0031449999999999,0.735351,0.139122,-0.1710549999999999,0.472841,0.0684899999999999,-0.346985,0.556781,0.0793629999999999,0.1766059999999999,0.479931,0.0753899999999999,0.347075,0.5269109999999999,0.0915309999999999,-0.2070449999999999,0.679681,0.0868879999999999,0.186712,0.691881,0.1076509999999999,-0.074975,-0.003072,-0.003575,0.074975,0.0030719999999999,0.0035749999999999,-0.0327249999999999,-0.388409,0.0434809999999999,0.12585,-0.237179,-0.299565,0.021358,-0.721759,0.1247739999999999,0.152774,-0.510049,-0.478615,1
80,-0.0050899999999999,0.734199,0.131937,-0.17228,0.4711689999999999,0.062791,-0.3489899999999999,0.555419,0.072457,0.175408,0.479129,0.070049,0.34613,0.525209,0.085391,-0.2091699999999999,0.679929,0.080105,0.185249,0.691209,0.101143,-0.07526,-0.003059,-0.0045599999999999,0.07526,0.0030589999999999,0.0045599999999999,-0.0317499999999999,-0.389831,0.04033,0.127103,-0.205171,-0.3132,0.022097,-0.726441,0.11577,0.153262,-0.485601,-0.48899,1
81,-0.0061805,0.7332095,0.125424,-0.1724305,0.4699495,0.0583399999999999,-0.3496405,0.5543295,0.0666269999999999,0.1752455,0.4783995,0.065068,0.3465395,0.5232895,0.079313,-0.2093505,0.6801295,0.0748409999999999,0.1856674999999999,0.6897095,0.094952,-0.0753804999999999,-0.0028385,-0.0053949999999999,0.0753805,0.0028385,0.0053949999999999,-0.0297604999999999,-0.3905805,0.0381539999999999,0.1300235,-0.1761305,-0.323185,0.0239555,-0.7300005,0.108346,0.1561914999999999,-0.4542405,-0.4852849999999999,1
82,-0.0066509999999999,0.7321804999999999,0.1197355,-0.1725109999999999,0.4689305,0.0547005,-0.349991,0.5533405,0.0621195,0.175588,0.4777805,0.0607435,0.347519,0.5213205000000001,0.0736495,-0.2085209999999999,0.6808205,0.0709735,0.186773,0.6875605,0.0889805,-0.075281,-0.0025764999999999,-0.0060795,0.075281,0.0025765,0.0060795,-0.0270309999999999,-0.3906495,0.0370305,0.133437,-0.1512595,-0.3317495,0.025851,-0.7329995,0.1029395,0.157809,-0.4240795,-0.4705695,1
83,-0.0081335,0.7313645,0.115128,-0.1740735,0.4681945,0.0518269999999999,-0.3515935,0.5528145,0.0587299999999999,0.1746285,0.4772844999999999,0.0570489999999999,0.3472165,0.5196645,0.068576,-0.2087434999999999,0.6818445,0.0684789999999999,0.1866825,0.6855545000000001,0.08385,-0.0751935,-0.0023575,-0.006774,0.0751935,0.0023574999999999,0.0067739999999999,-0.0254035,-0.3905355,0.0363849999999999,0.1367795,-0.1334515,-0.339104,0.0262005,-0.7353755,0.0985359999999999,0.1587165,-0.4065355,-0.443254,1
84,-0.0102724999999999,0.730989,0.1105265,-0.1761624999999999,0.468029,0.0487384999999999,-0.3536525,0.5528489999999999,0.0551974999999999,0.1733935,0.4770089999999999,0.0528724999999999,0.3464275,0.518799,0.0632855,-0.2080224999999999,0.6836089999999999,0.0658194999999999,0.1859845,0.684539,0.0789884999999999,-0.0752424999999999,-0.002043,-0.0074165,0.0752425,0.002043,0.0074164999999999,-0.0250225,-0.389631,0.0349854999999999,0.1401765,-0.134936,-0.3442655,0.0259405,-0.7366010000000001,0.0939815,0.1587515,-0.403041,-0.4063555,1
85,-0.0121659999999999,0.7305935,0.1055614999999999,-0.1780959999999999,0.4682635,0.0452114999999999,-0.355256,0.5523735000000001,0.0510254999999999,0.172198,0.4769935,0.0486124999999999,0.345654,0.5180035000000001,0.0575804999999999,-0.207396,0.6829535,0.0627784999999999,0.18534,0.6837735,0.0737945,-0.075436,-0.0019795,-0.0081715,0.075436,0.0019795,0.0081714999999999,-0.0250559999999999,-0.3884565,0.0326584999999999,0.142947,-0.1375245,-0.3443625,0.025096,-0.7374465,0.0888704999999999,0.157552,-0.4039265,-0.3482125,1
86,-0.0139874999999999,0.730475,0.1003534999999999,-0.1801475,0.468815,0.0414434999999999,-0.3569575,0.552095,0.0461714999999999,0.1707795,0.477055,0.0441364999999999,0.3445725,0.517365,0.0518584999999999,-0.2063875,0.683865,0.0592754999999999,0.1844555,0.683275,0.0684724999999999,-0.0756675,-0.0020449999999999,-0.0088635,0.0756675,0.002045,0.0088634999999999,-0.0255775,-0.387275,0.0301584999999999,0.1454535,-0.139853,-0.3397045,0.0232705,-0.737705,0.0830475,0.1558995,-0.406255,-0.2794345,1
87,-0.0155174999999999,0.7309045,0.0956835,-0.1822375,0.4700745,0.0381265,-0.3588175,0.5526045,0.0413395,0.1690225,0.4773545,0.0399115,0.3433525,0.5172145,0.0469525,-0.2059674999999999,0.6857145,0.0558085,0.1834165,0.6835445,0.0638635,-0.0757575,-0.0021265,-0.0091745,0.0757575,0.0021264999999999,0.0091745,-0.0264774999999999,-0.3865854999999999,0.0284735,0.1475645,-0.1414135,-0.3208965,0.0209045,-0.7374455,0.0777855,0.1536925,-0.4078155,-0.2182865,1
88,-0.0175975,0.7317785,0.0910769999999999,-0.1842674999999999,0.4708684999999999,0.0333269999999999,-0.3611175,0.5538485,0.036257,0.1664485,0.4781384999999999,0.0358049999999999,0.3412725,0.5175784999999999,0.0424699999999999,-0.2081675,0.6883085,0.0511699999999999,0.1813965,0.6841984999999999,0.0594239999999999,-0.0757875,-0.0025205,-0.009465,0.0757875,0.0025205,0.0094649999999999,-0.0286174999999999,-0.3865615,0.0271679999999999,0.1464625,-0.1447195,-0.298517,0.0173595,-0.7368315000000001,0.072699,0.1503924999999999,-0.4087015,-0.157107,1
89,-0.019727,0.7328640000000001,0.0872125,-0.186407,0.4717039999999999,0.0286875,-0.363257,0.555384,0.0315855,0.164203,0.4790739999999999,0.0322645,0.339153,0.518344,0.0389555,-0.2057969999999999,0.6900940000000001,0.0485515,0.179279,0.685154,0.0557835,-0.075677,-0.0029749999999999,-0.0097845,0.075677,0.002975,0.0097845,-0.030837,-0.387016,0.0263355,0.14487,-0.154549,-0.2759415,0.0139379999999999,-0.7371359999999999,0.0683265,0.1469639999999999,-0.422296,-0.1045215,1
90,-0.0215199999999999,0.734134,0.0833955,-0.18822,0.472604,0.0236625,-0.36508,0.557404,0.0265725,0.162406,0.479684,0.0282265,0.33737,0.5193639999999999,0.0354415,-0.20464,0.6917439999999999,0.0437575,0.177488,0.686394,0.0520295,-0.07548,-0.003105,-0.0099925,0.07548,0.0031049999999999,0.0099925,-0.03257,-0.387146,0.0254125,0.143612,-0.169206,-0.2531255,0.010681,-0.737266,0.0639585,0.144517,-0.4401359999999999,-0.0690855,1
91,-0.0235185,0.735304,0.07979,-0.1901285,0.4734739999999999,0.018879,-0.3670985,0.559384,0.021609,0.1603985,0.480054,0.024159,0.3353715,0.5203139999999999,0.032143,-0.2034985,0.6931339999999999,0.039155,0.1755634999999999,0.687734,0.048689,-0.0751385,-0.003105,-0.010283,0.0751385,0.0031049999999999,0.010283,-0.0343885,-0.387146,0.02478,0.1420944999999999,-0.196036,-0.224344,0.0074574999999999,-0.737266,0.059461,0.1427054999999999,-0.468466,-0.0413789999999999,1
92,-0.0252764999999999,0.73661,0.076154,-0.1916264999999999,0.4745199999999999,0.014114,-0.3690564999999999,0.5614,0.016741,0.1581805,0.48075,0.020389,0.3332035,0.5215299999999999,0.028996,-0.2057465,0.6935899999999999,0.033862,0.1739105,0.68929,0.045714,-0.0747065,-0.003086,-0.0104659999999999,0.0747065,0.0030859999999999,0.010466,-0.0363364999999999,-0.38678,0.024324,0.1401445,-0.22773,-0.1935069999999999,0.0037935,-0.73681,0.055249,0.1414905,-0.50048,-0.0182009999999999,1
93,-0.0280455,0.7378405,0.0735224999999999,-0.1946155,0.4754005,0.0103075,-0.3723654999999999,0.5633205,0.0128845,0.1543835,0.4812805,0.0173975,0.3292945,0.5225605,0.0267235,-0.2098855,0.6953805,0.0298365,0.1707295,0.6905804999999999,0.0434605,-0.0744955,-0.0035665,-0.0103735,0.0744955,0.0035665,0.0103735,-0.0400054999999999,-0.3871394999999999,0.0246125,0.1355635,-0.2635695,-0.1614545,-0.0016894999999999,-0.7373795000000001,0.0520495,0.1378445,-0.5449695,0.0022544999999999,1
94,-0.0307285,0.738911,0.07215,-0.1981385,0.476211,0.0077659999999999,-0.3756184999999999,0.565241,0.0103709999999999,0.1507335,0.481991,0.015526,0.3253315,0.523651,0.025525,-0.2144184999999999,0.6952510000000001,0.026894,0.1677535,0.691781,0.04221,-0.0743685,-0.0041899999999999,-0.0099519999999999,0.0743684999999999,0.0041899999999999,0.0099519999999999,-0.0439185,-0.388509,0.0255789999999999,0.1304334999999999,-0.298679,-0.1286189999999999,-0.0070645,-0.737749,0.049788,0.1341474999999999,-0.591689,0.0133609999999999,1
95,-0.031927,0.7399645,0.071694,-0.199767,0.4771145,0.006162,-0.376777,0.5670744999999999,0.008964,0.14894,0.4828945,0.014324,0.322853,0.5245544999999999,0.024916,-0.214977,0.6971244999999999,0.025631,0.166553,0.6926844999999999,0.04191,-0.074147,-0.0047324999999999,-0.009516,0.074147,0.0047325,0.009516,-0.0461569999999999,-0.3900955,0.027048,0.125356,-0.3311855,-0.095384,-0.0107489999999999,-0.7377555,0.048526,0.130972,-0.6314455,0.018796,1
96,-0.032006,0.7408895000000001,0.0717685,-0.200206,0.4780395,0.0051885,-0.376946,0.5688395,0.0081705,0.1479909999999999,0.4837594999999999,0.0132655,0.321314,0.5254795,0.0246965,-0.214366,0.6984995,0.0249855,0.166075,0.6936095,0.0416595,-0.073996,-0.0051155,-0.0090854999999999,0.073996,0.0051154999999999,0.0090855,-0.047576,-0.3918605,0.0287735,0.119062,-0.3498505,-0.0731365,-0.0138339999999999,-0.7376705,0.0478185,0.128282,-0.6616205,0.0237045,1
97,-0.0309674999999999,0.7418435000000001,0.072408,-0.1993875,0.4789935,0.004837,-0.3760175,0.5701935,0.00807,0.1485345,0.4842935,0.012997,0.3208625,0.5264335,0.024665,-0.2137175,0.6994535,0.024954,0.1667805,0.6945634999999999,0.041616,-0.0737375,-0.0054015,-0.0086839999999999,0.0737375,0.0054014999999999,0.008684,-0.0481074999999999,-0.3938565,0.030604,0.1137475,-0.3684365,-0.0501449999999999,-0.0161424999999999,-0.7382664999999999,0.047597,0.1271275,-0.6897065,0.026397,1
98,-0.0292455,0.7431775,0.0731925,-0.1979755,0.4802475,0.0045154999999999,-0.3742855,0.5717274999999999,0.0079385,0.1495745,0.4849175,0.0128965,0.3233745,0.5265175,0.0243335,-0.2131055,0.7007875,0.0250235,0.1696585,0.6952175,0.0416674999999999,-0.0735255,-0.0052165,-0.0083244999999999,0.0735255,0.0052164999999999,0.0083244999999999,-0.0481555,-0.3953325,0.0320535,0.1084044999999999,-0.3864925,-0.0282105,-0.0182145,-0.7389425000000001,0.0475425,0.1265454999999999,-0.7067125,0.0286844999999999,1
99,-0.0275439999999999,0.744591,0.074154,-0.196434,0.481451,0.0044709999999999,-0.371894,0.573151,0.0081509999999999,0.150399,0.4853909999999999,0.0129399999999999,0.326156,0.5263709999999999,0.0241169999999999,-0.212594,0.700241,0.0250139999999999,0.173936,0.6947209999999999,0.041731,-0.073394,-0.004901,-0.008166,0.073394,0.0049009999999999,0.0081659999999999,-0.0479739999999999,-0.396179,0.033317,0.103165,-0.402689,-0.009243,-0.0205789999999999,-0.739529,0.0475919999999999,0.124583,-0.720049,0.0307399999999999,1
100,-0.0246145,0.7460355,0.075358,-0.1945724999999999,0.4826755,0.00466,-0.3690425,0.5746955,0.008738,0.1521684999999999,0.4859555,0.013186,0.3290975,0.5261755,0.024088,-0.2120024999999999,0.7000255,0.024894,0.1789974999999999,0.6945855,0.042284,-0.0733525,-0.0042705,-0.007955,0.0733524999999999,0.0042704999999999,0.007955,-0.0476025,-0.3959645,0.034366,0.0997944999999999,-0.4106245,0.001716,-0.0229425,-0.7397945,0.047792,0.1230284999999999,-0.7267345,0.031504,1
101,-0.021957,0.747335,0.0768555,-0.19269,0.4838249999999999,0.0052995,-0.36644,0.576175,0.0096775,0.153844,0.4864649999999999,0.0137375,0.33238,0.5257649999999999,0.0244685,-0.21154,0.700195,0.0250525,0.1833,0.6942349999999999,0.0431555,-0.07334,-0.003562,-0.0075384999999999,0.07334,0.003562,0.0075385,-0.0473399999999999,-0.395345,0.0355725,0.096718,-0.415695,0.0107275,-0.0258339999999999,-0.738865,0.0483505,0.120762,-0.729965,0.0327335,1
102,-0.0193669999999999,0.7481464999999999,0.0785345,-0.19075,0.4846065,0.0061365,-0.36371,0.5770265,0.0107645,0.1555699999999999,0.4870865,0.0144045,0.33589,0.5250665,0.0250925,-0.2117,0.6997764999999999,0.0256205,0.18739,0.6937764999999999,0.0442285,-0.07343,-0.0029795,-0.0069344999999999,0.07343,0.0029794999999999,0.0069345,-0.0470499999999999,-0.3947635,0.0366685,0.0932689999999999,-0.4175135,0.0174265,-0.0289029999999999,-0.7380935000000001,0.0491065,0.1182729999999999,-0.7313235,0.0341155,1
103,-0.0169025,0.7487379999999999,0.0802269999999999,-0.1884315,0.485158,0.006987,-0.3609715,0.577618,0.011726,0.1575345,0.487528,0.014992,0.3397685,0.5242779999999999,0.025556,-0.2124414999999999,0.6992879999999999,0.026196,0.1907085,0.6927279999999999,0.045095,-0.0734815,-0.0024329999999999,-0.006307,0.0734815,0.0024329999999999,0.006307,-0.0462215,-0.394332,0.037671,0.0895815,-0.418492,0.022849,-0.0318364999999999,-0.7373620000000001,0.049792,0.1146805,-0.7317520000000001,0.035492,1
104,-0.0145255,0.7491745,0.0819584999999999,-0.1865955,0.4855745,0.0079244999999999,-0.3589354999999999,0.5780845,0.0127214999999999,0.1592145,0.4879544999999999,0.0156895,0.3436045,0.5232945,0.0259984999999999,-0.2136955,0.6986945,0.0262185,0.1941544999999999,0.6917344999999999,0.0459104999999999,-0.0735055,-0.0019725,-0.0057164999999999,0.0735055,0.0019724999999999,0.0057164999999999,-0.0456355,-0.3941555,0.0386245,0.0856015,-0.4183854999999999,0.0270235,-0.0352945,-0.7365255,0.0504504999999999,0.1107225,-0.7319955,0.0364645,1
105,-0.012603,0.7494395,0.0834965,-0.184856,0.4858495,0.0090755,-0.356886,0.5782295,0.0137035,0.1610639999999999,0.4882995,0.0169205,0.347584,0.5219395,0.0264525,-0.215546,0.6979495,0.0262405,0.197374,0.6900094999999999,0.0464965,-0.073546,-0.0015735,-0.0052014999999999,0.073546,0.0015734999999999,0.0052015,-0.045074,-0.3941605,0.0396195,0.082675,-0.4182805,0.0304935,-0.038274,-0.7358605,0.0511945,0.1067239999999999,-0.7321205,0.0380995,1
106,-0.011025,0.7497125,0.0845505,-0.1838,0.4861024999999999,0.0101464999999999,-0.3548199999999999,0.5780825,0.0143524999999999,0.1624799999999999,0.4886025,0.0180534999999999,0.35133,0.5205225,0.0267665,-0.2172799999999999,0.6972225000000001,0.0260054999999999,0.20084,0.6884025,0.0468035,-0.07358,-0.0011955,-0.0047895,0.0735799999999999,0.0011955,0.0047894999999999,-0.044525,-0.3942575,0.0404345,0.080021,-0.4181875,0.0332485,-0.041291,-0.7350074999999999,0.0518354999999999,0.102667,-0.7319775,0.0396435,1
107,-0.0099824999999999,0.7499150000000001,0.085099,-0.1836705,0.4862749999999999,0.011101,-0.3531805,0.5777049999999999,0.014876,0.1638995,0.488895,0.018872,0.3523595,0.520475,0.027058,-0.2190505,0.697695,0.02661,0.2022195,0.6874849999999999,0.046818,-0.0736105,-0.0008869999999999,-0.0044989999999999,0.0736105,0.0008869999999999,0.004499,-0.0443655,-0.394335,0.04114,0.0776065,-0.418105,0.03529,-0.0436975,-0.734205,0.0523,0.0986775,-0.731635,0.040803,1
108,-0.0092245,0.750018,0.0855394999999999,-0.1841115,0.4863879999999999,0.0118505,-0.3541215,0.577058,0.0153505,0.1656385,0.4891679999999999,0.0196765,0.3526685,0.520608,0.0271515,-0.2205815,0.696888,0.0258805,0.2025885,0.687078,0.0464835,-0.0736815,-0.0006269999999999,-0.0042654999999999,0.0736815,0.000627,0.0042654999999999,-0.0444465,-0.394382,0.0417105,0.0757795,-0.418062,0.0366024999999999,-0.0458304999999999,-0.733452,0.0526345,0.0949224999999999,-0.731262,0.0416384999999999,1
109,-0.0095944999999999,0.750004,0.0857805,-0.1842454999999999,0.486584,0.0123505,-0.3547754999999999,0.5759839999999999,0.0155975,0.1665145,0.4894739999999999,0.0202175,0.3508945,0.519984,0.0265135,-0.2224554999999999,0.696244,0.0245375,0.2025045,0.686534,0.0459635,-0.0737454999999999,-0.0004269999999999,-0.0041114999999999,0.0737454999999999,0.000427,0.0041115,-0.0443904999999999,-0.394386,0.0420855,0.0745565,-0.4180159999999999,0.0374335,-0.0474044999999999,-0.7327560000000001,0.0528415,0.0916335,-0.730846,0.0421985,1
110,-0.0099574999999999,0.7499405,0.0854375,-0.1843675,0.4868004999999999,0.0127494999999999,-0.3545775,0.5735804999999999,0.0152594999999999,0.1671425,0.4892105,0.0207284999999999,0.3481725,0.5148205,0.0246475,-0.2251675,0.6946105,0.0227735,0.2047725,0.6837005,0.0445475,-0.0737975,-0.0002624999999999,-0.0039375,0.0737975,0.0002624999999999,0.0039375,-0.0439804999999999,-0.3945395,0.0424024999999999,0.0738305,-0.4179795,0.0379045,-0.0485665,-0.7320195,0.0530024999999999,0.0889665,-0.7302895,0.0425615,0
111,-0.0101204999999999,0.7497895,0.083962,-0.1845645,0.4871095,0.0130359999999999,-0.3546345,0.5648895,0.0141019999999999,0.1672955,0.4890494999999999,0.0212189999999999,0.3458255,0.5052895000000001,0.0218019999999999,-0.2275045,0.6915895000000001,0.0204389999999999,0.2078655,0.6789995,0.0414079999999999,-0.0737645,-0.0001875,-0.003882,0.0737645,0.0001875,0.0038819999999999,-0.0437365,-0.3948505,0.042517,0.0730325,-0.4178005,0.0381389999999999,-0.0495984999999999,-0.7312805,0.05304,0.0867295,-0.7296305,0.0427909999999999,0
112,-0.0103805,0.750444,0.0815945,-0.1853175,0.487384,0.0137325,-0.3547875,0.554654,0.0141695,0.1665125,0.488114,0.0219595,0.3436225,0.492734,0.0188845,-0.2297274999999999,0.687134,0.0165745,0.2111025,0.6719740000000001,0.0351725,-0.0737075,-0.000163,-0.0037804999999999,0.0737075,0.0001629999999999,0.0037804999999999,-0.0441695,-0.394826,0.0426365,0.0716435,-0.4169859999999999,0.0381815,-0.0509074999999999,-0.729796,0.0530995,0.0846775,-0.728166,0.0428975,0
113,-0.010457,0.7515185,0.0790835,-0.185658,0.4877884999999999,0.0147625,-0.354598,0.5384685,0.0141615,0.165272,0.4869685,0.0225875,0.3403319999999999,0.4758685,0.0155955,-0.234218,0.6754585,0.0095975,0.210902,0.6601485,0.0252355,-0.0736479999999999,-0.0001594999999999,-0.0037304999999999,0.0736479999999999,0.0001594999999999,0.0037305,-0.044739,-0.3942415,0.0426735,0.07049,-0.4154715,0.0382345,-0.0518869999999999,-0.7276015,0.0530225,0.082989,-0.7260515000000001,0.0429395,0
114,-0.010074,0.752873,0.0756815,-0.185141,0.488143,0.0158255,-0.351981,0.516803,0.0140495,0.163819,0.485913,0.0224615,0.334279,0.453923,0.0119375,-0.239451,0.661893,0.0001945,0.210969,0.644933,0.0109415,-0.073571,-0.0001899999999999,-0.0035764999999999,0.073571,0.0001899999999999,0.0035765,-0.0452779999999999,-0.394197,0.0429795,0.069146,-0.413457,0.0381635,-0.0528549999999999,-0.724837,0.0528875,0.081538,-0.723517,0.0428305,0
115,-0.0091819999999999,0.754378,0.071864,-0.183644,0.488378,0.016818,-0.345284,0.490048,0.014263,0.162736,0.4847079999999999,0.022257,0.325036,0.429718,0.00833,-0.241644,0.637918,-0.012921,0.210016,0.6214580000000001,-0.0072549999999999,-0.073498,-0.000231,-0.003415,0.073498,0.0002309999999999,0.003415,-0.045719,-0.394342,0.043199,0.068064,-0.411152,0.038009,-0.053595,-0.721822,0.052681,0.080473,-0.720682,0.042652,0
116,-0.0078779999999999,0.7557745,0.0678625,-0.181769,0.4884745,0.0176735,-0.3357989999999999,0.4585245,0.0172695,0.161841,0.4832144999999999,0.0219475,0.312411,0.4047145,0.0037205,-0.242309,0.6071945000000001,-0.0285194999999999,0.2087609999999999,0.5967645,-0.0317284999999999,-0.073425,-0.0002785,-0.0032804999999999,0.073425,0.0002785,0.0032805,-0.046069,-0.3943155,0.0433205,0.067242,-0.4086655,0.0377485,-0.054351,-0.7186855,0.0523385,0.07961,-0.7176954999999999,0.0423595,0
117,-0.006121,0.757024,0.063801,-0.179488,0.4885239999999999,0.018463,-0.3250079999999999,0.427214,0.020343,0.1605919999999999,0.481774,0.021489,0.298862,0.378554,-0.0010119999999999,-0.244328,0.565004,-0.0418059999999999,0.2074919999999999,0.5690540000000001,-0.055646,-0.07331,-0.000337,-0.0032119999999999,0.07331,0.000337,0.003212,-0.046383,-0.394306,0.043503,0.06647,-0.406066,0.037374,-0.054999,-0.715526,0.051958,0.078844,-0.714656,0.041993,0
118,-0.0039704999999999,0.7582274999999999,0.059804,-0.1772505,0.4886174999999999,0.019325,-0.3107205,0.3958474999999999,0.025869,0.1586095,0.4797275,0.020582,0.2852794999999999,0.3530875,-0.0056039999999999,-0.2469005,0.5149675,-0.054644,0.2062295,0.5392975,-0.081493,-0.0731985,-0.0003674999999999,-0.0030989999999999,0.0731985,0.0003674999999999,0.003099,-0.0466695,-0.3944125,0.043709,0.0654795,-0.4033525,0.037082,-0.0555605,-0.7123125,0.051593,0.0781105,-0.7115625,0.041608,0
119,-0.0015674999999999,0.759408,0.056246,-0.1751255,0.488718,0.020301,-0.2967055,0.364778,0.031024,0.1557444999999999,0.478098,0.019338,0.2715645,0.331668,-0.009369,-0.2493455,0.459948,-0.063367,0.2048444999999999,0.511228,-0.108577,-0.0730985,-0.0004009999999999,-0.002924,0.0730985,0.000401,0.0029239999999999,-0.0471535,-0.3943819999999999,0.0439289999999999,0.0643535,-0.400512,0.036888,-0.0559215,-0.709082,0.051419,0.0772855,-0.7085319999999999,0.041287,0
120,0.0008839999999999,0.7605765,0.053341,-0.173043,0.4887265,0.021376,-0.282903,0.3395865,0.035976,0.152457,0.4763765,0.017889,0.258177,0.3144665,-0.013053,-0.251763,0.4026865,-0.069916,0.202387,0.4853065,-0.134486,-0.073032,-0.0003965,-0.002708,0.073032,0.0003964999999999,0.0027079999999999,-0.047607,-0.3941334999999999,0.044154,0.062866,-0.3977635,0.036753,-0.056274,-0.7060135000000001,0.051326,0.076472,-0.7056035,0.041051,0
121,0.0034779999999999,0.7609309999999999,0.0508175,-0.170495,0.488871,0.0220275,-0.268715,0.315581,0.0411645,0.149215,0.475491,0.0163115,0.246935,0.300151,-0.0167794999999999,-0.253535,0.342401,-0.0729974999999999,0.200325,0.461861,-0.1577575,-0.073013,-0.0003969999999999,-0.0025524999999999,0.073013,0.0003969999999999,0.0025525,-0.0478829999999999,-0.394079,0.0443745,0.061489,-0.395689,0.0366875,-0.056491,-0.703689,0.0512945,0.075817,-0.7033290000000001,0.0408905,0
122,0.006019,0.760868,0.04804,-0.168346,0.488998,0.022366,-0.254166,0.297548,0.046731,0.145844,0.474868,0.014752,0.237944,0.290108,-0.0201259999999999,-0.255216,0.286798,-0.073075,0.195784,0.442208,-0.178475,-0.073011,-0.0003859999999999,-0.0024399999999999,0.073011,0.000386,0.00244,-0.048174,-0.394132,0.044615,0.06014,-0.394202,0.036677,-0.056767,-0.7019219999999999,0.051296,0.075155,-0.701572,0.040776,0
123,0.008315,0.7605985,0.0455855,-0.166892,0.4892085,0.0224575,-0.242332,0.2845985,0.0528755,0.142478,0.4743584999999999,0.0129975,0.231338,0.2851585,-0.0232614999999999,-0.2560619999999999,0.2318985,-0.0731774999999999,0.1899279999999999,0.4262285,-0.1957775,-0.073022,-0.0003474999999999,-0.0023204999999999,0.073022,0.0003475,0.0023205,-0.048497,-0.3934415,0.0445015,0.058779,-0.3930815,0.0366995,-0.05716,-0.7004715,0.0512925,0.074358,-0.7001715000000001,0.0406635,0
124,0.010439,0.7601875,0.0431805,-0.166049,0.4895775,0.0225574999999999,-0.234519,0.2765675,0.0571204999999999,0.138961,0.4735575,0.0103524999999999,0.227521,0.2825175,-0.0264975,-0.256959,0.1866175,-0.0732415,0.184421,0.4178675,-0.2084214999999999,-0.07305,-0.0003225,-0.0021525,0.07305,0.0003224999999999,0.0021524999999999,-0.0487959999999999,-0.3923925,0.0444254999999999,0.057835,-0.3920425,0.0368014999999999,-0.057592,-0.6990725,0.0513415,0.073518,-0.6989225,0.0405834999999999,0
125,0.012444,0.7610175,0.0406845,-0.16562,0.4901175,0.0226574999999999,-0.22945,0.2733875,0.0583445,0.13573,0.4728875,0.0075364999999999,0.22654,0.2806275,-0.0289654999999999,-0.25502,0.1485075,-0.0725675,0.18143,0.4106975,-0.2160675,-0.073091,-0.0002924999999999,-0.0019834999999999,0.073091,0.0002925,0.0019834999999999,-0.049093,-0.3913525,0.0443485,0.0569179999999999,-0.3910025,0.0369494999999999,-0.058048,-0.6977224999999999,0.0513394999999999,0.072678,-0.6976625,0.0405154999999999,0
126,0.014159,0.7605225,0.0383315,-0.165432,0.4907424999999999,0.0228215,-0.226052,0.2702425,0.0592825,0.133058,0.4721825,0.0053244999999999,0.225538,0.2798325,-0.0312324999999999,-0.253302,0.1224024999999999,-0.0703175,0.178218,0.4068124999999999,-0.2238575,-0.073141,-0.0002604999999999,-0.0017794999999999,0.073141,0.0002605,0.0017794999999999,-0.04932,-0.3903375,0.0442275,0.0559579999999999,-0.3899875,0.0371305,-0.058545,-0.6964174999999999,0.0514644999999999,0.071837,-0.6963874999999999,0.0404705,0
127,0.0154269999999999,0.7602315,0.0362345,-0.165438,0.4913315,0.0229745,-0.226248,0.2676915,0.0592625,0.130942,0.4720215,0.0034005,0.224492,0.2793315,-0.0330094999999999,-0.253598,0.1052015,-0.0651644999999999,0.175312,0.4053915,-0.2296114999999999,-0.073193,-0.0002435,-0.0015734999999999,0.073193,0.0002434999999999,0.0015735,-0.049527,-0.3889284999999999,0.0441385,0.0549459999999999,-0.3890285,0.0373425,-0.059089,-0.6951985,0.0516745,0.070934,-0.6951885,0.0404645,0
128,0.0163775,0.760155,0.0343705,-0.1654525,0.491875,0.0230755,-0.2265525,0.266665,0.0592204999999999,0.1293075,0.471945,0.0017224999999999,0.2236075,0.2791849999999999,-0.0343805,-0.2541724999999999,0.0943919999999999,-0.0579105,0.1727074999999999,0.405175,-0.2334184999999999,-0.0732355,-0.000231,-0.0013314999999999,0.0732355,0.0002309999999999,0.0013314999999999,-0.0497295,-0.387565,0.0440244999999999,0.0539335,-0.388305,0.0375415,-0.0599425,-0.694145,0.0518425,0.0700015,-0.694065,0.0404225,0
129,0.0170595,0.7601565,0.0328515,-0.1653935,0.4923265,0.0231755,-0.2268535,0.2664165,0.0592015,0.1282465,0.4727765,0.0012654999999999,0.2232164999999999,0.2790265,-0.0349735,-0.2547235,0.0871295,-0.0532675,0.1705365,0.4053265,-0.2361924999999999,-0.0732765,-0.0002344999999999,-0.0010734999999999,0.0732765,0.0002344999999999,0.0010735,-0.0500725,-0.3865535,0.0439294999999999,0.0529045,-0.3877334999999999,0.0377705,-0.0607644999999999,-0.6931735,0.0520355,0.0690755,-0.6930235,0.0403695,0
130,0.0175479999999999,0.7600395,0.0316645,-0.165383,0.4926095,0.0233105,-0.227933,0.2647994999999999,0.0575495,0.127197,0.4733695,0.0012765,0.222717,0.2787495,-0.0355274999999999,-0.255173,0.0845525,-0.0489405,0.168537,0.4054795,-0.2383915,-0.073305,-0.0002545,-0.0008304999999999,0.073305,0.0002544999999999,0.0008305,-0.050386,-0.3857805,0.0438435,0.0518759999999999,-0.3874505,0.0379925,-0.0615769999999999,-0.6923905,0.0522545,0.068156,-0.6923005,0.0403225,0
131,0.0179554999999999,0.7599045,0.0308755,-0.1652615,0.4927545,0.0234515,-0.2289215,0.2640145,0.0562015,0.1262385,0.4737745,0.0013055,0.2222785,0.2784145,-0.0363275,-0.2561215,0.0840804999999999,-0.0483094999999999,0.1675785,0.4051045,-0.2383625,-0.0733325,-0.0002744999999999,-0.0006424999999999,0.0733325,0.0002745,0.0006425,-0.0505985,-0.3851954999999999,0.0437725,0.0509464999999999,-0.3873554999999999,0.0382185,-0.0622744999999999,-0.6918755,0.0524705,0.0673045,-0.6917255,0.0402925,0
132,0.01784,0.76081,0.0287625,-0.1653109999999999,0.4940199999999999,0.0238215,-0.229451,0.26408,0.0575865,0.122709,0.47064,-0.0042425,0.222059,0.2794399999999999,-0.0358695,-0.256551,0.078299,-0.0317305,0.166659,0.40164,-0.2441374999999999,-0.0733149999999999,-0.000234,-9.750000000000036e-05,0.0733149999999999,0.000234,9.750000000000036e-05,-0.050744,-0.38274,0.0439255,0.049756,-0.38625,0.0386385,-0.063282,-0.6902999999999999,0.0534375,0.065968,-0.6900799999999999,0.0404015,0
133,0.0182235,0.7612295,0.0288755,-0.1646365,0.4942995,0.0237865,-0.2304665,0.2642595,0.0548945,0.1226035,0.4704795,-0.0045824999999999,0.2211135,0.2791195,-0.0372675,-0.2574265,0.0845145,-0.0397355,0.1632835,0.4061295,-0.2418285,-0.0733605,-0.0001844999999999,-0.0001055,0.0733605,0.0001844999999999,0.0001055,-0.0516415,-0.3816805,0.0437925,0.0487695,-0.3857505,0.0389055,-0.0634764999999999,-0.6893905,0.0536115,0.0653945,-0.6892105,0.0401865,0
134,0.0183679999999999,0.761602,0.0292914999999999,-0.164921,0.4946919999999999,0.0241434999999999,-0.231601,0.264332,0.0519044999999999,0.122289,0.470262,-0.0044205,0.220029,0.278892,-0.0379005,-0.257911,0.090526,-0.0479095,0.1617289999999999,0.408892,-0.2403484999999999,-0.073385,-0.0002279999999999,-8.500000000001562e-06,0.073385,0.000228,8.499999999994623e-06,-0.051896,-0.380518,0.0435544999999999,0.047762,-0.385798,0.0389835,-0.0645729999999999,-0.6882379999999999,0.0531084999999999,0.064414,-0.688708,0.0401914999999999,0
135,0.0192325,0.7617695,0.0295105,-0.1643405,0.4948595,0.0243535,-0.2314304999999999,0.2662394999999999,0.0500535,0.1224595,0.4703495,-0.0047634999999999,0.2200694999999999,0.2785694999999999,-0.0406565,-0.2574305,0.0943295,-0.0515505,0.1613595,0.4099395,-0.2420544999999999,-0.0733675,-0.0002154999999999,3.249999999999781e-05,0.0733675,0.0002154999999999,-3.249999999999781e-05,-0.0519285,-0.3799505,0.0433595,0.0474015,-0.3857605,0.0389565,-0.0648505,-0.6877304999999999,0.0531135,0.0642234999999999,-0.6879704999999999,0.0401195,0
136,0.0189925,0.760599,0.0302384999999999,-0.1652345,0.493769,0.0243354999999999,-0.2328744999999999,0.265959,0.0480364999999999,0.1285455,0.486009,0.0050314999999999,0.2183255,0.277139,-0.0404495,-0.2574345,0.092547,-0.0565485,0.1600455,0.408789,-0.2417844999999999,-0.0732265,-0.0003149999999999,-0.0001355,0.0732265,0.000315,0.0001354999999999,-0.0535525,-0.380501,0.0432524999999999,0.0456695,-0.387271,0.0390385,-0.0663455,-0.688771,0.0535734999999999,0.0623745,-0.688991,0.0402554999999999,0
137,0.020012,0.759834,0.030602,-0.165372,0.493004,0.024272,-0.233112,0.265414,0.046837,0.130718,0.491814,0.010353,0.217628,0.276084,-0.040611,-0.256262,0.089754,-0.059222,0.160218,0.407394,-0.24244,-0.073161,-0.000347,-0.0001579999999999,0.073161,0.000347,0.0001579999999999,-0.054113,-0.381006,0.043115,0.044815,-0.388146,0.03895,-0.06719,-0.688876,0.053569,0.061638,-0.689676,0.040218,0
138,0.0208835,0.7591955,0.0303905,-0.1654395,0.4924254999999999,0.0239885,-0.2328595,0.2649855,0.0464535,0.1321705,0.4931955,0.0110125,0.2169405,0.2752455,-0.0409465,-0.2553195,0.0857845,-0.0602655,0.1679005,0.3843955,-0.2207235,-0.0731405,-0.0004065,-0.0002434999999999,0.0731405,0.0004065,0.0002435,-0.0547675,-0.3812745,0.0427645,0.0441075,-0.3890145,0.0387915,-0.0679424999999999,-0.6899045,0.0532045,0.0610545,-0.6900745,0.0397655,0
