sb224sc-HT22-VT27/4dt907/src/data/labeled_files/B5_kinect.csv
FrameNo,nose_3d_x,nose_3d_y,nose_3d_z,left_shoulder_3d_x,left_shoulder_3d_y,left_shoulder_3d_z,left_elbow_3d_x,left_elbow_3d_y,left_elbow_3d_z,right_shoulder_3d_x,right_shoulder_3d_y,right_shoulder_3d_z,right_elbow_3d_x,right_elbow_3d_y,right_elbow_3d_z,left_wrist_3d_x,left_wrist_3d_y,left_wrist_3d_z,right_wrist_3d_x,right_wrist_3d_y,right_wrist_3d_z,left_hip_3d_x,left_hip_3d_y,left_hip_3d_z,right_hip_3d_x,right_hip_3d_y,right_hip_3d_z,left_knee_3d_x,left_knee_3d_y,left_knee_3d_z,right_knee_3d_x,right_knee_3d_y,right_knee_3d_z,left_ankle_3d_x,left_ankle_3d_y,left_ankle_3d_z,right_ankle_3d_x,right_ankle_3d_y,right_ankle_3d_z,activity_label
0,0.019133,0.739166,0.023126,-0.1511799999999999,0.501476,-0.031751,-0.3474899999999999,0.5995360000000001,-0.09573,0.20764,0.493686,0.061792,0.35799,0.506586,0.124333,-0.19012,0.712646,-0.0469939999999999,0.21381,0.642866,0.049821,-0.069995,0.001887,-0.0050019999999999,0.069995,-0.001887,0.005002,-0.10629,-0.3338939999999999,0.126255,0.11577,-0.337304,-0.1109999999999999,-0.1397499999999999,-0.6605139999999999,0.29849,0.14942,-0.651404,-0.2335999999999999,0
1,0.020871,0.7398939999999999,0.0230285,-0.150703,0.5008539999999999,-0.0330555,-0.3474129999999999,0.599884,-0.0976814999999999,0.210257,0.492624,0.0654715,0.361297,0.5077039999999999,0.1261645,-0.190053,0.7136039999999999,-0.0483364999999999,0.214237,0.6437339999999999,0.0512685,-0.06924,0.002002,-0.0054224999999999,0.06924,-0.002002,0.0054225,-0.106833,-0.333326,0.1247075,0.115397,-0.337056,-0.1116815,-0.140433,-0.660046,0.2972685,0.149277,-0.652626,-0.2361115,0
2,0.022125,0.73985,0.023555,-0.149897,0.50008,-0.03399,-0.346967,0.60024,-0.099021,0.212623,0.49288,0.067899,0.363733,0.50805,0.128396,-0.189757,0.7140500000000001,-0.0493869999999999,0.213923,0.6439400000000001,0.051663,-0.068835,0.002163,-0.0057929999999999,0.068835,-0.002163,0.005793,-0.106887,-0.33274,0.123621,0.115023,-0.33757,-0.1119209999999999,-0.140927,-0.65952,0.296279,0.149293,-0.6534899999999999,-0.2376609999999999,0
3,0.0225205,0.7398745,0.0232744999999999,-0.1494725,0.5000145,-0.0345335,-0.3465025,0.6004845,-0.0998194999999999,0.2143075,0.4932944999999999,0.0689185,0.3652875,0.5076045,0.1298435,-0.1894424999999999,0.7140645,-0.0505035,0.2141075,0.6444044999999999,0.0530205,-0.0686225,0.0023685,-0.0060995,0.0686225,-0.0023685,0.0060994999999999,-0.1067925,-0.3327155,0.1226194999999999,0.1151275,-0.3382955,-0.1116895,-0.1410625,-0.6595755,0.2959605,0.1500675,-0.6581355,-0.2404394999999999,0
4,0.022652,0.739425,0.0227864999999999,-0.149559,0.499975,-0.0348605,-0.3461889999999999,0.600495,-0.1003815,0.215561,0.4938849999999999,0.0705375,0.366581,0.507415,0.1315494999999999,-0.1901989999999999,0.713125,-0.0512175,0.217761,0.643265,0.0542644999999999,-0.068309,0.002454,-0.0062675,0.068309,-0.002454,0.0062674999999999,-0.106859,-0.332435,0.1219635,0.1146409999999999,-0.337825,-0.1117514999999999,-0.141419,-0.659505,0.2954084999999999,0.148831,-0.6545150000000001,-0.2376715,0
5,0.0228864999999999,0.739225,0.022763,-0.1493885,0.499575,-0.035006,-0.3458485,0.600495,-0.100825,0.2158915,0.493315,0.07136,0.3667415,0.508005,0.132435,-0.1911085,0.7123250000000001,-0.051924,0.2164415,0.642695,0.0541209999999999,-0.0681045,0.002441,-0.006356,0.0681045,-0.002441,0.0063559999999999,-0.1069785,-0.332385,0.121844,0.1143715,-0.337675,-0.111735,-0.1417385,-0.659565,0.295305,0.1487015,-0.654515,-0.238595,0
6,0.0235489999999999,0.739082,0.022196,-0.149402,0.499422,-0.035252,-0.345482,0.600642,-0.101526,0.215928,0.492762,0.071717,0.366358,0.508872,0.133254,-0.191332,0.712292,-0.052352,0.224938,0.640242,0.05842,-0.067991,0.002454,-0.0064229999999999,0.067991,-0.002454,0.006423,-0.1070219999999999,-0.332528,0.1216049999999999,0.114328,-0.3369479999999999,-0.111696,-0.141802,-0.659498,0.295184,0.148138,-0.653408,-0.238056,0
7,0.021333,0.7397594999999999,0.02226,-0.1504279999999999,0.5008695,-0.03554,-0.345278,0.5991795,-0.102471,0.214042,0.4948795,0.069096,0.363592,0.5088395,0.132619,-0.190408,0.7119694999999999,-0.0517549999999999,0.214672,0.6427195,0.055553,-0.06802,0.0022825,-0.0064479999999999,0.06802,-0.0022825,0.006448,-0.1069479999999999,-0.3327205,0.121756,0.114392,-0.3375105,-0.111561,-0.141428,-0.6593805,0.295209,0.147762,-0.6518305000000001,-0.236491,0
8,0.021192,0.7397594999999999,0.0222005,-0.15054,0.5008695,-0.0356705,-0.34503,0.5987994999999999,-0.1031435,0.21391,0.4950395,0.0690305,0.36351,0.5091494999999999,0.1327465,-0.19054,0.7116294999999999,-0.0520425,0.21426,0.6426394999999999,0.0558695,-0.067919,0.0022825,-0.0065054999999999,0.067919,-0.0022825,0.0065055,-0.10696,-0.3327905,0.1216085,0.1143,-0.3375105,-0.1115535,-0.14143,-0.6593805,0.2951264999999999,0.14784,-0.6519705,-0.2365035,0
9,0.0211024999999999,0.7397725,0.0222025,-0.1506715,0.5009725,-0.0358625,-0.3448115,0.5983725000000001,-0.1037855,0.2138385,0.4953825,0.0690215,0.3634285,0.5094725,0.1327945,-0.1904015,0.7115625000000001,-0.0521425,0.2137385,0.6426425,0.0560135,-0.0678395,0.0022795,-0.0065365,0.0678395,-0.0022795,0.0065365,-0.1069315,-0.3328575,0.1215634999999999,0.1142485,-0.3375075,-0.1115354999999999,-0.1413815,-0.6593574999999999,0.2950744999999999,0.1479085,-0.6519575,-0.2363355,0
10,0.020773,0.7398525,0.0220754999999999,-0.150813,0.5012425,-0.0360995,-0.344603,0.5979525,-0.1044775,0.213767,0.4957425,0.0689994999999999,0.363157,0.5098625,0.1329024999999999,-0.190243,0.7115625000000001,-0.0522455,0.213247,0.6426425,0.0561394999999999,-0.067781,0.0022795,-0.0065554999999999,0.067781,-0.0022795,0.0065554999999999,-0.106883,-0.3329175,0.1215035,0.114237,-0.3375575,-0.1115274999999999,-0.1413029999999999,-0.6593275,0.2950025,0.147897,-0.6518174999999999,-0.2361875,0
11,0.0203365,0.7400329999999999,0.021958,-0.1508985,0.5015229999999999,-0.036386,-0.3444385,0.597603,-0.105151,0.2138115,0.495683,0.068895,0.3627315,0.510543,0.1329989999999999,-0.1900485,0.711623,-0.0523509999999999,0.2126815,0.6427029999999999,0.0562929999999999,-0.0677255,0.002289,-0.0065349999999999,0.0677255,-0.002289,0.0065349999999999,-0.1068585,-0.332927,0.121456,0.1142315,-0.337497,-0.111531,-0.1412485,-0.6591870000000001,0.294909,0.1478515,-0.6515470000000001,-0.2361309999999999,0
12,0.0197089999999999,0.7401975000000001,0.0218605,-0.151023,0.5016975,-0.0367055,-0.344383,0.5970875,-0.1059624999999999,0.213617,0.4960974999999999,0.0689065,0.362317,0.5105275,0.1329775,-0.189743,0.7115775000000001,-0.0523535,0.211777,0.6426975,0.0565115,-0.067671,0.0022535,-0.0065094999999999,0.067671,-0.0022535,0.0065095,-0.106873,-0.3331325,0.1213755,0.114147,-0.3374925,-0.1115325,-0.141233,-0.6591425,0.2947875,0.147837,-0.6513424999999999,-0.2360725,0
13,0.0189454999999999,0.740378,0.021786,-0.1511725,0.501938,-0.0369959999999999,-0.3443225,0.596618,-0.1067579999999999,0.2133775,0.496658,0.068891,0.3617674999999999,0.5104679999999999,0.132842,-0.1891525,0.7117479999999999,-0.052194,0.2109275,0.642768,0.056851,-0.0676285,0.00222,-0.0064719999999999,0.0676285,-0.00222,0.0064719999999999,-0.1068625,-0.333412,0.121318,0.1140975,-0.337562,-0.1115279999999999,-0.1412425,-0.6591020000000001,0.294672,0.1477574999999999,-0.6512720000000001,-0.236108,0
14,0.018102,0.7405309999999999,0.021751,-0.1513499999999999,0.502091,-0.03736,-0.34425,0.596171,-0.107623,0.21298,0.497421,0.06846,0.36089,0.510701,0.132587,-0.1892599999999999,0.711741,-0.052351,0.20992,0.642911,0.056717,-0.067584,0.002189,-0.006419,0.067584,-0.002189,0.0064189999999999,-0.10686,-0.333719,0.1212689999999999,0.11406,-0.337679,-0.1115229999999999,-0.14128,-0.659089,0.294537,0.14776,-0.651239,-0.236183,0
15,0.0170309999999999,0.7402175,0.021656,-0.151748,0.5015775,-0.0378159999999999,-0.344428,0.5953475,-0.108595,0.210352,0.5074175,0.068592,0.3574219999999999,0.5104975,0.13104,-0.189628,0.7113675,-0.052549,0.208832,0.6425875,0.0565,-0.067415,0.0019225,-0.006376,0.067415,-0.0019225,0.006376,-0.107128,-0.3345125,0.1211579999999999,0.113782,-0.3382425,-0.111565,-0.1416079999999999,-0.6594925,0.294295,0.147492,-0.6517425,-0.2364049999999999,0
16,0.0155854999999999,0.7393985,0.0214945,-0.1523715,0.5006185,-0.0383905,-0.3449014999999999,0.5940585,-0.1097115,0.2074685,0.5168585,0.0686915,0.3537685,0.5097685,0.1295425,-0.1906915,0.7103885,-0.0531805,0.2075685,0.6417385,0.0561875,-0.0671465,0.0015085,-0.0064245,0.0671465,-0.0015085,0.0064245,-0.1076915,-0.3358415,0.1209575,0.1132385,-0.3392815,-0.1117115,-0.1421915,-0.6603815,0.2939585,0.1470385,-0.6527315,-0.2367815,0
17,0.014089,0.738377,0.021401,-0.153091,0.499527,-0.038931,-0.3455809999999999,0.5924969999999999,-0.110951,0.204319,0.525357,0.068913,0.349699,0.508837,0.128162,-0.191701,0.709347,-0.053707,0.2062989999999999,0.640717,0.055968,-0.0668199999999999,0.001096,-0.0065179999999999,0.0668199999999999,-0.001096,0.0065179999999999,-0.108351,-0.337333,0.1208009999999999,0.112599,-0.340483,-0.111831,-0.142871,-0.661463,0.293619,0.146539,-0.653993,-0.2372409999999999,0
18,0.0126095,0.7372835,0.0213085,-0.1537915,0.4983435,-0.0395025,-0.3463215,0.5909534999999999,-0.1122085,0.2011085,0.5336434999999999,0.0692435,0.3455285,0.5078235,0.1268015,-0.1928214999999999,0.7084235,-0.0542174999999999,0.2048585,0.6396735,0.0558105,-0.0664615,0.0006845,-0.0066215,0.0664615,-0.0006844999999999,0.0066214999999999,-0.1090815,-0.3388665,0.1206615,0.1119285,-0.3417165,-0.1119585,-0.1436414999999999,-0.6625765,0.2932615,0.1460185,-0.6553065,-0.2377385,0
19,0.011125,0.7364195,0.021295,-0.1544039999999999,0.4973695,-0.039979,-0.347014,0.5895994999999999,-0.113458,0.2004659999999999,0.5325095,0.0690409999999999,0.344876,0.5071895,0.126602,-0.193434,0.7077895,-0.0543,0.203536,0.6388395,0.055781,-0.066107,0.0003544999999999,-0.0066529999999999,0.066107,-0.0003545,0.006653,-0.109684,-0.3402005,0.120594,0.111376,-0.3427605,-0.112038,-0.1442939999999999,-0.6635005,0.292962,0.145586,-0.6565305,-0.238178,0
20,0.0099285,0.7360610000000001,0.0214339999999999,-0.1547754999999999,0.496891,-0.040332,-0.3474555,0.588721,-0.114612,0.1996745,0.5319210000000001,0.068742,0.3433544999999999,0.507071,0.126501,-0.1933755,0.707721,-0.053931,0.2025745,0.638491,0.055838,-0.0658995,7.300000000000015e-05,-0.006579,0.0658995,-7.300000000000015e-05,0.0065789999999999,-0.1100255,-0.341019,0.1206299999999999,0.1110645,-0.343329,-0.112022,-0.1446655,-0.663899,0.292778,0.1453345,-0.657129,-0.2384119999999999,0
21,0.0089455,0.735911,0.0216395,-0.1550305,0.4966009999999999,-0.0406655,-0.3477705,0.588181,-0.1156035,0.1988295,0.530761,0.0684335,0.3418895,0.507491,0.1261955,-0.1930805,0.707791,-0.0534905,0.2017195,0.638321,0.0558025,-0.0657695,-0.0001869999999999,-0.0065034999999999,0.0657695,0.000187,0.0065034999999999,-0.1102805,-0.341539,0.1207014999999999,0.1108595,-0.343699,-0.1119935,-0.1449405,-0.664089,0.2926364999999999,0.1451395,-0.657389,-0.2385234999999999,0
22,0.008115,0.7358520000000001,0.0218574999999999,-0.155188,0.4962519999999999,-0.0410045,-0.348028,0.5876720000000001,-0.1165795,0.197822,0.529862,0.0679424999999999,0.340572,0.507942,0.1255534999999999,-0.192558,0.707932,-0.0530105,0.201332,0.6381220000000001,0.0554014999999999,-0.065662,-0.000392,-0.0064255,0.065662,0.000392,0.0064254999999999,-0.110518,-0.341968,0.1207665,0.110652,-0.344048,-0.1119695,-0.145218,-0.664148,0.2924705,0.144882,-0.657588,-0.2385494999999999,0
23,0.0075009999999999,0.7357875,0.022045,-0.1553979999999999,0.4958574999999999,-0.041144,-0.348178,0.5871675,-0.1175989999999999,0.196762,0.5290875,0.067443,0.339452,0.5084275,0.1245749999999999,-0.192848,0.7083275,-0.053244,0.200982,0.6380475,0.0550579999999999,-0.065594,-0.0005934999999999,-0.0063739999999999,0.065594,0.0005935,0.006374,-0.110748,-0.3422625,0.1208249999999999,0.110452,-0.3443725,-0.111929,-0.145468,-0.6641625,0.292321,0.144652,-0.6577425,-0.2385389999999999,0
24,0.0073544999999999,0.7358849999999999,0.022146,-0.1554444999999999,0.4956649999999999,-0.041256,-0.3479845,0.586675,-0.118963,0.1958755,0.528555,0.066876,0.3389355,0.5090049999999999,0.1232279999999999,-0.1924645,0.708965,-0.053194,0.2005955,0.638065,0.0540839999999999,-0.0656404999999999,-0.000621,-0.0063579999999999,0.0656404999999999,0.000621,0.0063579999999999,-0.1108045,-0.342275,0.120846,0.1104254999999999,-0.344515,-0.111923,-0.1455345,-0.664045,0.292187,0.1446155,-0.657645,-0.238503,0
25,0.0073429999999999,0.735976,0.0222355,-0.1554269999999999,0.495556,-0.0413395,-0.347567,0.585996,-0.1206255,0.1952829999999999,0.528056,0.0661745,0.338453,0.509666,0.1219575,-0.192377,0.709646,-0.0532895,0.200793,0.638056,0.0529015,-0.065673,-0.0006419999999999,-0.0063304999999999,0.065673,0.000642,0.0063304999999999,-0.110837,-0.342254,0.1208725,0.110403,-0.344664,-0.1118555,-0.145587,-0.663904,0.2920545,0.1445929999999999,-0.657544,-0.2384255,0
26,0.0073105,0.7360325,0.0222915,-0.1554705,0.4955225,-0.0413775,-0.3468005,0.5853825,-0.1225294999999999,0.1947395,0.5283725,0.0651635,0.3380895,0.5088025,0.1210425,-0.1924405,0.7103325,-0.0535025,0.2021795,0.6378925,0.0511034999999999,-0.0657265,-0.0006284999999999,-0.0063345,0.0657265,0.0006284999999999,0.0063344999999999,-0.1108905,-0.3422675,0.1208664999999999,0.1103795,-0.3448475,-0.1118295,-0.1456205,-0.6638875,0.2920405,0.1445995,-0.6575575,-0.2383695,0
27,0.00739,0.7363185,0.022508,-0.155422,0.4958485,-0.0412879999999999,-0.345522,0.5849885,-0.124565,0.195898,0.5177085,0.063701,0.339988,0.5102485,0.120502,-0.192422,0.7112485000000001,-0.0536709999999999,0.203718,0.6378985,0.049095,-0.065809,-0.0005434999999999,-0.0062909999999999,0.065809,0.0005435,0.006291,-0.110842,-0.3419815,0.120943,0.1104779999999999,-0.3447515,-0.111755,-0.145562,-0.6635215,0.292115,0.1446879999999999,-0.6573215,-0.238375,0
28,0.008025,0.737092,0.0228535,-0.15504,0.496622,-0.0411475,-0.34363,0.5851419999999999,-0.1265085,0.19734,0.507632,0.0623755,0.34296,0.512182,0.1195915,-0.19178,0.7125319999999999,-0.0536245,0.20549,0.638282,0.0468905,-0.066039,-0.000298,-0.0061865,0.066039,0.0002979999999999,0.0061865,-0.11048,-0.340948,0.1209665,0.1108,-0.344148,-0.1115984999999999,-0.14527,-0.662658,0.2922715,0.14501,-0.656568,-0.2380685,0
29,0.0088914999999999,0.738047,0.0231055,-0.1545975,0.497367,-0.0410914999999999,-0.3413275,0.585597,-0.1284145,0.1992625,0.498457,0.0609285,0.3467325,0.514347,0.1185104999999999,-0.1902174999999999,0.714267,-0.0531015,0.2074925,0.638677,0.0448655,-0.0663195,-4.200000000000037e-05,-0.0060764999999999,0.0663195,4.199999999999994e-05,0.0060765,-0.1099575,-0.339623,0.1208655,0.1111925,-0.343363,-0.1114844999999999,-0.1449175,-0.661623,0.2923455,0.1454825,-0.655783,-0.2379144999999999,0
30,0.0100164999999999,0.7390340000000001,0.0232465,-0.1542825,0.498304,-0.0409944999999999,-0.3388825,0.5862940000000001,-0.1300655,0.2011375,0.489804,0.0595195,0.3501975,0.516684,0.1170335,-0.1884225,0.7158540000000001,-0.0525555,0.2095675,0.6390340000000001,0.0424295,-0.0666655,0.00023,-0.0060194999999999,0.0666655,-0.0002299999999999,0.0060195,-0.1094125,-0.338156,0.1205914999999999,0.1115575,-0.342506,-0.1114655,-0.1446124999999999,-0.6605359999999999,0.2923345,0.1458175,-0.654936,-0.2377454999999999,0
31,0.0114534999999999,0.7397885,0.02347,-0.1539785,0.4988985,-0.040907,-0.3362985,0.5869885,-0.131123,0.2013615,0.4906185,0.058983,0.3518914999999999,0.5187984999999999,0.115938,-0.1866985,0.7172085,-0.052096,0.2117615,0.6391185,0.040038,-0.0669525,0.0004335,-0.0059729999999999,0.0669525,-0.0004334999999999,0.0059729999999999,-0.1089685,-0.3368715,0.120301,0.1118214999999999,-0.3417515,-0.111423,-0.1444185,-0.6596315,0.292317,0.1460014999999999,-0.6542415,-0.237753,0
32,0.012774,0.7400465,0.02371,-0.153237,0.4988465,-0.040795,-0.334087,0.5873365,-0.1318829999999999,0.201403,0.4909665,0.058634,0.353333,0.5198565,0.11529,-0.185327,0.7176665,-0.0518069999999999,0.212953,0.6394665,0.037709,-0.06707,0.0005874999999999,-0.005933,0.06707,-0.0005874999999999,0.005933,-0.108737,-0.3359735,0.12006,0.111853,-0.3414935,-0.111303,-0.144497,-0.6592335,0.292357,0.146003,-0.6541735,-0.237813,0
33,0.0141985,0.7401260000000001,0.0240285,-0.1522954999999999,0.498666,-0.0406024999999999,-0.3322655,0.587516,-0.1325055,0.2015545,0.490696,0.0585845,0.3551045,0.520616,0.1153245,-0.1841654999999999,0.717846,-0.0514595,0.2144345,0.639646,0.0362365,-0.0672085,0.000709,-0.0058855,0.0672085,-0.000709,0.0058855,-0.1084455,-0.335244,0.1198315,0.1118645,-0.3413839999999999,-0.1111355,-0.1446354999999999,-0.659014,0.2924145,0.1459145,-0.654064,-0.2376154999999999,0
34,0.015842,0.740136,0.024449,-0.151233,0.498316,-0.040394,-0.330903,0.587646,-0.133065,0.201327,0.491066,0.058565,0.354917,0.520486,0.11529,-0.182983,0.717976,-0.0510009999999999,0.214787,0.639776,0.035652,-0.067436,0.000788,-0.005905,0.067436,-0.000788,0.005905,-0.108213,-0.3345939999999999,0.119559,0.111857,-0.3413239999999999,-0.111005,-0.144833,-0.658844,0.292465,0.145777,-0.654014,-0.237505,0
35,0.0174495,0.7401639999999999,0.0248064999999999,-0.1501005,0.4979639999999999,-0.0402185,-0.3300205,0.587934,-0.1333725,0.2010295,0.491444,0.0583245,0.3562694999999999,0.520684,0.1144895,-0.1821404999999999,0.718064,-0.0506925,0.2144595,0.640014,0.0354245,-0.0677355,0.000889,-0.0060525,0.0677355,-0.000889,0.0060524999999999,-0.1080305,-0.334006,0.1191475,0.1118095,-0.341266,-0.1110125,-0.1451305,-0.6586960000000001,0.2923175,0.1455195,-0.654076,-0.2376825,0
36,0.0187855,0.7401865,0.025131,-0.1488874999999999,0.4977265,-0.039993,-0.3294975,0.5885564999999999,-0.132993,0.2013625,0.4917265,0.058099,0.3570525,0.5208165,0.113738,-0.1814075,0.7178764999999999,-0.0503389999999999,0.2141425,0.6402764999999999,0.035482,-0.0679585,0.0010345,-0.0062219999999999,0.0679585,-0.0010345,0.0062219999999999,-0.1079574999999999,-0.3335134999999999,0.118638,0.1116825,-0.3411935,-0.111133,-0.1455375,-0.6585335,0.292037,0.1452425,-0.6542635,-0.238033,0
37,0.0197755,0.7402185,0.0254525,-0.1476455,0.4976685,-0.0396964999999999,-0.3291855,0.5895684999999999,-0.1319285,0.2021545,0.4921585,0.0582625,0.3579544999999999,0.5209485,0.1129315,-0.1809655,0.7174785,-0.0499494999999999,0.2141045,0.6406185,0.0355695,-0.0681305,0.0012045,-0.0064034999999999,0.0681305,-0.0012045,0.0064034999999999,-0.1080555,-0.3333015,0.1180745,0.1114945,-0.3411115,-0.1112985,-0.1460655,-0.6583715,0.2916115,0.1448945,-0.6543815000000001,-0.2385885,0
38,0.0206374999999999,0.7402695,0.0257699999999999,-0.1465185,0.4977094999999999,-0.039344,-0.3290185,0.5907395,-0.130354,0.2032615,0.4924995,0.058806,0.3583315,0.5209595,0.113337,-0.1803384999999999,0.7173495,-0.0488279999999999,0.2131615,0.6403795,0.03508,-0.0682405,0.0013875,-0.006601,0.0682405,-0.0013875,0.0066009999999999,-0.1083685,-0.3331705,0.117368,0.1112315,-0.3410105,-0.111564,-0.1467385,-0.6581105,0.291046,0.1443415,-0.6545305,-0.2393739999999999,0
39,0.0211174999999999,0.7403780000000001,0.026024,-0.1453635,0.4975279999999999,-0.039033,-0.3287635,0.5919580000000001,-0.128551,0.2043765,0.492658,0.0595519999999999,0.3584165,0.5206780000000001,0.114631,-0.1798235,0.7167380000000001,-0.047682,0.2122465,0.640278,0.035771,-0.0682695,0.001569,-0.0068299999999999,0.0682695,-0.001569,0.0068299999999999,-0.1088534999999999,-0.333012,0.116611,0.1108265,-0.340842,-0.111941,-0.1475334999999999,-0.6577419999999999,0.290369,0.1436965,-0.654512,-0.240251,0
40,0.0215024999999999,0.740521,0.0263415,-0.1443575,0.497201,-0.0387835,-0.3285875,0.593021,-0.1266924999999999,0.2064225,0.492831,0.0613535,0.3587225,0.519601,0.1176025,-0.1796175,0.716071,-0.0466155,0.2125625,0.640281,0.0380815,-0.0682185,0.001742,-0.0070735,0.0682185,-0.001742,0.0070735,-0.1094675,-0.332839,0.1158435,0.1102625,-0.340659,-0.1124525,-0.1485275,-0.657359,0.2895574999999999,0.1428825,-0.654339,-0.2410925,0
41,0.0219115,0.740641,0.026694,-0.1439435,0.497361,-0.038524,-0.3284735,0.5939709999999999,-0.124829,0.2083765,0.492991,0.063139,0.3585765,0.519331,0.120973,-0.1794935,0.715231,-0.045701,0.2123565,0.640801,0.041429,-0.0680935,0.001902,-0.0072949999999999,0.0680935,-0.001902,0.0072949999999999,-0.1101135,-0.3327589999999999,0.115127,0.1096864999999999,-0.340479,-0.112999,-0.1496235,-0.657019,0.288641,0.1420165,-0.654209,-0.241939,1
42,0.0224149999999999,0.7407009999999999,0.0270165,-0.143629,0.4972709999999999,-0.0381395,-0.328409,0.594711,-0.1230945,0.210221,0.493121,0.0649195,0.359611,0.517521,0.1251115,-0.179539,0.714151,-0.0451065,0.212031,0.641251,0.0454995,-0.067918,0.002073,-0.0074684999999999,0.067918,-0.002073,0.0074684999999999,-0.110769,-0.332469,0.1145284999999999,0.1091409999999999,-0.340199,-0.1134645,-0.150799,-0.656689,0.2876555,0.1409909999999999,-0.654109,-0.2428944999999999,1
43,0.0228615,0.7408155000000001,0.0270985,-0.1435875,0.4971755,-0.0380095,-0.3286374999999999,0.5954155,-0.1216975,0.2119025,0.4930755,0.0665285,0.3601025,0.5155955,0.1292825,-0.1798475,0.7127755,-0.0455405,0.2127425,0.6413055,0.0488765,-0.0677805,0.0022724999999999,-0.0076845,0.0677805,-0.0022724999999999,0.0076845,-0.1113575,-0.3321245,0.1137955,0.1085125,-0.3400245,-0.1142575,-0.1521075,-0.6563045,0.2865425,0.1399125,-0.6541345,-0.2440375,1
44,0.0234605,0.740896,0.0271945,-0.1432804999999999,0.497166,-0.0377635,-0.3287204999999999,0.5959260000000001,-0.1204625,0.2131695,0.492706,0.0675425,0.3606495,0.513096,0.1329075,-0.1798505,0.711396,-0.0460625,0.2127595,0.641516,0.0520555,-0.0675765,0.002434,-0.0078235,0.0675765,-0.002434,0.0078235,-0.1119205,-0.3317839999999999,0.1130805,0.1080295,-0.339684,-0.1153325,-0.1534305,-0.655874,0.2855775,0.1390795,-0.6541239999999999,-0.2450625,1
45,0.0246739999999999,0.7408465000000001,0.0279175,-0.1423849999999999,0.4971765,-0.0369305,-0.328435,0.5962265,-0.1188334999999999,0.213515,0.4921965,0.0667514999999999,0.361205,0.5106265,0.1361365,-0.178885,0.7099465,-0.0462025,0.213115,0.6417265,0.0566945,-0.06738,0.0025905,-0.0080354999999999,0.06738,-0.0025905,0.0080355,-0.112405,-0.3315535,0.1124815,0.1082849999999999,-0.3393135,-0.1162935,-0.1546749999999999,-0.6554535,0.2852464999999999,0.139885,-0.6540135,-0.2459734999999999,1
46,0.0265455,0.7406699999999999,0.028792,-0.1404645,0.49722,-0.0358939999999999,-0.3275045,0.59654,-0.1172049999999999,0.2139754999999999,0.49169,0.066165,0.3616655,0.5082099999999999,0.138885,-0.1777845,0.70829,-0.046252,0.2148955,0.64164,0.061127,-0.0672575,0.0027559999999999,-0.0082619999999999,0.0672575,-0.0027559999999999,0.008262,-0.1127545,-0.33116,0.112172,0.1106455,-0.33919,-0.117525,-0.1557545,-0.65503,0.285265,0.1422355,-0.65385,-0.246715,1
47,0.0298154999999999,0.7402885,0.030065,-0.1379135,0.4972985,-0.034984,-0.3255234999999999,0.5973785,-0.1155979999999999,0.2144065,0.4913485,0.06593,0.3616465,0.5063485,0.140602,-0.1761835,0.7071885,-0.046157,0.2177465,0.6408585,0.065658,-0.0673035,0.0031634999999999,-0.0083369999999999,0.0673035,-0.0031635,0.008337,-0.1131035,-0.3303015,0.112202,0.1130465,-0.3386515,-0.118438,-0.1568135,-0.6543215,0.285552,0.1446965,-0.6535315,-0.246668,1
48,0.0342815,0.739897,0.0309425,-0.1344715,0.497497,-0.0345105,-0.3228715,0.5983970000000001,-0.1143835,0.2151985,0.490037,0.0656575,0.3623185,0.504247,0.1412565,-0.1727014999999999,0.7064670000000001,-0.0464575,0.2210885,0.640047,0.0699845,-0.0675425,0.0036689999999999,-0.0082554999999999,0.0675425,-0.003669,0.0082555,-0.1134614999999999,-0.3290329999999999,0.1123235,0.1157085,-0.338033,-0.1192835,-0.1576515,-0.653323,0.2858065,0.1471085,-0.653183,-0.2460034999999999,1
49,0.0393629999999999,0.7394105,0.0311425,-0.130698,0.4978105,-0.0343404999999999,-0.319278,0.5993505,-0.1138555,0.215972,0.4886405,0.0649575,0.365152,0.5014005,0.1423545,-0.169178,0.7055604999999999,-0.0476615,0.229522,0.6392205,0.0712515,-0.067886,0.0043215,-0.0081374999999999,0.067886,-0.0043215,0.0081375,-0.113658,-0.3276395,0.1123494999999999,0.1180719999999999,-0.3373395,-0.1197955,-0.157968,-0.6522395,0.2858745,0.150162,-0.6531395,-0.2452855,1
50,0.0449419999999999,0.738843,0.030694,-0.1269,0.498193,-0.034376,-0.31517,0.600163,-0.113914,0.21694,0.487153,0.063607,0.36667,0.500623,0.141876,-0.16494,0.704303,-0.049126,0.23847,0.638213,0.07216,-0.068181,0.004998,-0.008076,0.068181,-0.004998,0.008076,-0.11386,-0.326157,0.112223,0.12001,-0.336977,-0.120164,-0.15801,-0.651127,0.285856,0.15276,-0.652417,-0.2441539999999999,1
51,0.049779,0.738339,0.029903,-0.12334,0.498559,-0.0345969999999999,-0.3111699999999999,0.600989,-0.114476,0.21793,0.485609,0.062152,0.36834,0.500339,0.141564,-0.16063,0.703289,-0.0507349999999999,0.24391,0.637999,0.072485,-0.068322,0.005688,-0.008131,0.068322,-0.005688,0.008131,-0.11403,-0.324601,0.112081,0.12165,-0.336891,-0.1203759999999999,-0.1579,-0.650011,0.286004,0.15538,-0.6524909999999999,-0.244286,1
52,0.0538904999999999,0.7378665,0.029063,-0.1198965,0.4988865,-0.034655,-0.3075865,0.6016865,-0.115139,0.2185135,0.4842065,0.059552,0.3691735,0.5004565,0.140911,-0.1579265,0.7024865,-0.052535,0.2489935,0.6374065,0.072402,-0.0683415,0.0063205,-0.008189,0.0683415,-0.0063205,0.008189,-0.1140865,-0.3229335,0.11192,0.1223835,-0.3368335,-0.1204489999999999,-0.1575765,-0.6488935,0.286371,0.1571835,-0.6522735,-0.244329,1
53,0.0575414999999999,0.7374605000000001,0.0286479999999999,-0.1169905,0.4990905,-0.034759,-0.3044105,0.6019805,-0.1153879999999999,0.2191094999999999,0.4827705,0.056961,0.3700394999999999,0.5006805,0.139562,-0.1557005,0.7015505000000001,-0.054187,0.2544395,0.6368005000000001,0.072824,-0.0684565,0.0069255,-0.0081929999999999,0.0684565,-0.0069255,0.0081929999999999,-0.1140505,-0.3211195,0.1116979999999999,0.1226294999999999,-0.3367795,-0.120248,-0.1572105,-0.6477094999999999,0.286792,0.1581894999999999,-0.6523395,-0.243838,1
54,0.060268,0.7373235,0.0288165,-0.114676,0.4994035,-0.0344505,-0.3017459999999999,0.6024035,-0.1152045,0.219574,0.4815935,0.0546785,0.3708439999999999,0.5009635,0.1382455,-0.153686,0.7009635,-0.0556355,0.255074,0.6370935,0.0737075,-0.068744,0.0074975,-0.0080615,0.068744,-0.0074975,0.0080615,-0.113976,-0.3196765,0.1114595,0.122974,-0.3370665,-0.1202045,-0.156676,-0.6465665,0.2872754999999999,0.158824,-0.6525265,-0.2429545,1
55,0.0622489999999999,0.7372775,0.0295309999999999,-0.112997,0.4996075,-0.033462,-0.299757,0.6028275000000001,-0.114698,0.220033,0.4804075,0.05301,0.3711129999999999,0.5014175000000001,0.137382,-0.152577,0.7001275,-0.057473,0.254513,0.6373475000000001,0.074642,-0.069072,0.0081164999999999,-0.00785,0.069072,-0.0081165,0.00785,-0.114007,-0.3185525,0.111367,0.123663,-0.3372225,-0.1198279999999999,-0.155857,-0.6455124999999999,0.287982,0.159683,-0.6529124999999999,-0.242078,1
56,0.063384,0.737449,0.030287,-0.111663,0.4997089999999999,-0.032125,-0.298783,0.602959,-0.114411,0.220837,0.4793389999999999,0.052354,0.371697,0.501679,0.136519,-0.151913,0.6992590000000001,-0.059282,0.255727,0.6375190000000001,0.076022,-0.069454,0.008322,-0.0077519999999999,0.069454,-0.008322,0.0077519999999999,-0.1139429999999999,-0.317821,0.1114629999999999,0.124707,-0.337651,-0.119331,-0.154713,-0.644821,0.288749,0.160847,-0.653381,-0.241241,1
57,0.064429,0.7374539999999999,0.0299475,-0.1103599999999999,0.499614,-0.0316985,-0.29794,0.602594,-0.1153244999999999,0.22228,0.479344,0.0531805,0.3726,0.501854,0.1357755,-0.15166,0.698414,-0.0619175,0.25764,0.637524,0.0760145,-0.069864,0.008327,-0.0076925,0.069864,-0.008327,0.0076925,-0.11391,-0.317436,0.1115175,0.12506,-0.3379359999999999,-0.1188544999999999,-0.15348,-0.6444960000000001,0.2889555,0.16076,-0.6533760000000001,-0.2404244999999999,1
58,0.065349,0.7374539999999999,0.028924,-0.109188,0.499534,-0.031991,-0.297218,0.6019939999999999,-0.1169319999999999,0.223732,0.479344,0.053713,0.373632,0.501914,0.135188,-0.151208,0.6979639999999999,-0.0643159999999999,0.256622,0.637814,0.075006,-0.070233,0.008327,-0.0076449999999999,0.070233,-0.008327,0.007645,-0.113908,-0.317226,0.111402,0.123132,-0.338536,-0.117972,-0.1522279999999999,-0.644366,0.2889279999999999,0.159152,-0.653126,-0.2397419999999999,1
59,0.0654125,0.7375705,0.0269704999999999,-0.1081035,0.4995305,-0.0325275,-0.2968635,0.6011905,-0.1194615,0.2254065,0.4793205,0.0539935,0.3745365,0.5021605,0.1349085,-0.1506035,0.6979405,-0.0671745,0.2559765,0.6382205,0.0745975,-0.0704115,0.0083505,-0.0077095,0.0704115,-0.0083505,0.0077094999999999,-0.1137435,-0.3172395,0.1111745,0.1212164999999999,-0.3388795,-0.1170915,-0.1507534999999999,-0.6443895,0.2887685,0.1575365,-0.6528595,-0.2399514999999999,1
60,0.0639875,0.7377969999999999,0.025349,-0.1080285,0.499487,-0.032837,-0.2974185,0.6002369999999999,-0.121907,0.2268915,0.479267,0.054368,0.3740615,0.503707,0.135823,-0.1517585,0.697967,-0.070467,0.2551115,0.6388469999999999,0.075607,-0.0703874999999999,0.008474,-0.0078459999999999,0.0703874999999999,-0.0084739999999999,0.0078459999999999,-0.1133585,-0.317363,0.110932,0.1192215,-0.339313,-0.115437,-0.1493285,-0.644513,0.288593,0.1560514999999999,-0.653113,-0.240987,1
61,0.061554,0.7381605,0.0241435,-0.1083669999999999,0.4993305,-0.0330395,-0.299107,0.5989705000000001,-0.1239605,0.227753,0.4793305,0.0550554999999999,0.371633,0.5062505,0.1373895,-0.153117,0.6977905000000001,-0.0716705,0.247543,0.6401505000000001,0.0760345,-0.070296,0.0084075,-0.0079875,0.070296,-0.0084075,0.0079874999999999,-0.112967,-0.3175395,0.1108895,0.117423,-0.3398195,-0.1140205,-0.148237,-0.6446894999999999,0.2886495,0.154323,-0.6532895,-0.2421205,1
62,0.058001,0.738659,0.023531,-0.108981,0.499179,-0.033176,-0.301681,0.5972989999999999,-0.125611,0.228169,0.479499,0.055947,0.369619,0.508119,0.138729,-0.155641,0.697639,-0.072641,0.239799,0.6413089999999999,0.077026,-0.070169,0.008291,-0.008135,0.070169,-0.008291,0.008135,-0.112581,-0.317691,0.111014,0.1155789999999999,-0.340481,-0.112901,-0.147341,-0.6448710000000001,0.288869,0.152679,-0.653771,-0.2435709999999999,1
63,0.0544814999999999,0.7391695,0.0234195,-0.1097045,0.4990195,-0.0332704999999999,-0.3047045,0.5954495,-0.1267505,0.2284655,0.4798095,0.0569715,0.3677355,0.5099994999999999,0.1405295,-0.1581644999999999,0.6974795,-0.0733105,0.2346055,0.6424295,0.0780165,-0.0700145,0.0081595,-0.0083615,0.0700145,-0.0081595,0.0083615,-0.1121844999999999,-0.3180005,0.1111465,0.1135654999999999,-0.3410405,-0.1120905,-0.1465845,-0.6452005000000001,0.2891195,0.1518055,-0.6539305,-0.2432704999999999,1
64,0.0510155,0.7397385,0.0235604999999999,-0.1104415,0.4988585,-0.0334915,-0.3076615,0.5936385000000001,-0.1275775,0.2287585,0.4803085,0.0580285,0.3657585,0.5119685,0.1415925,-0.1602314999999999,0.6978985,-0.0731975,0.2295685,0.6434885,0.0788985,-0.0698545,0.0079985,-0.0085925,0.0698545,-0.0079985,0.0085924999999999,-0.1117415,-0.3185314999999999,0.1113104999999999,0.1121885,-0.3415515,-0.1115175,-0.1459515,-0.6457415,0.2892125,0.1512985,-0.6537515,-0.2430775,1
65,0.047553,0.7403175,0.023823,-0.111148,0.4985975,-0.0338459999999999,-0.310328,0.5922274999999999,-0.128055,0.2289719999999999,0.4814475,0.060012,0.364352,0.5138075,0.143855,-0.162068,0.6983174999999999,-0.0729249999999999,0.2245619999999999,0.6441874999999999,0.079924,-0.069612,0.0078074999999999,-0.0087949999999999,0.069612,-0.0078075,0.008795,-0.111258,-0.3193025,0.111326,0.1110019999999999,-0.3419925,-0.111035,-0.145408,-0.6463825000000001,0.2891849999999999,0.151362,-0.6541125,-0.243505,1
66,0.0446705,0.74077,0.024099,-0.1116395,0.49833,-0.034304,-0.3126595,0.59113,-0.128364,0.2294305,0.48163,0.06216,0.3633205,0.51573,0.146166,-0.1636995,0.69857,-0.0727039999999999,0.2236105,0.64481,0.080157,-0.0692595,0.007595,-0.008893,0.0692595,-0.007595,0.008893,-0.1106595,-0.32016,0.11126,0.1099005,-0.3424399999999999,-0.110684,-0.1447495,-0.647,0.289066,0.1518805,-0.6539699999999999,-0.244144,1
67,0.041995,0.7412255,0.024439,-0.113115,0.4978255,-0.035509,-0.314685,0.5902155,-0.1286719999999999,0.229225,0.4828255,0.063588,0.362495,0.5174555000000001,0.146888,-0.164965,0.6992055,-0.072502,0.222695,0.6452655,0.08024,-0.068796,0.0073355,-0.008985,0.068796,-0.0073355,0.008985,-0.110075,-0.3211644999999999,0.1111659999999999,0.109095,-0.3438645,-0.110402,-0.1439649999999999,-0.6475845,0.288968,0.152615,-0.6544745,-0.244582,1
68,0.039784,0.741707,0.0248715,-0.114812,0.497357,-0.0369805,-0.316182,0.589457,-0.1288255,0.228998,0.484197,0.0644855,0.362068,0.518927,0.1473045,-0.166092,0.699797,-0.0722155,0.221968,0.645597,0.0803045,-0.06825,0.007111,-0.0090635,0.06825,-0.0071109999999999,0.0090634999999999,-0.109422,-0.322133,0.1110655,0.108508,-0.345263,-0.1100154999999999,-0.143142,-0.648143,0.2889245,0.153598,-0.654563,-0.2449154999999999,1
69,0.0374235,0.7422245,0.0250575,-0.1165575,0.4969745,-0.0386134999999999,-0.3177775,0.5887844999999999,-0.1294334999999999,0.2293325,0.4846545,0.0668645,0.3627125,0.5201045,0.1492665,-0.1670575,0.7005245,-0.0717635,0.2225525,0.6458545,0.0810605,-0.0676115,0.0069325,-0.0091134999999999,0.0676115,-0.0069325,0.0091135,-0.1087475,-0.3231055,0.1110965,0.1082655,-0.3464355,-0.1094935,-0.1422575,-0.6486455,0.2889865,0.1546525,-0.6543755,-0.2450735,1
70,0.0353165,0.7427905,0.0252665,-0.1180725,0.4966204999999999,-0.0404835,-0.3192425,0.5882605,-0.1304015,0.2294975,0.4861605,0.0689905,0.3625874999999999,0.5212105,0.1513085,-0.1678224999999999,0.7012805,-0.0712215,0.2228675,0.6459604999999999,0.0816475,-0.0669994999999999,0.0067214999999999,-0.0092355,0.0669994999999999,-0.0067215,0.0092355,-0.1079924999999999,-0.3239895,0.1112465,0.1084044999999999,-0.3475695,-0.1089614999999999,-0.1411625,-0.6489895,0.2892085,0.1557375,-0.6542695000000001,-0.2452315,1
71,0.0333155,0.7433765,0.0254124999999999,-0.1195385,0.4963665,-0.0420635,-0.3204585,0.5879165,-0.1315255,0.2283015,0.4877465,0.0715555,0.3622015,0.5223365,0.1534045,-0.1677785,0.7021465,-0.0708055,0.2237414999999999,0.6461064999999999,0.0822955,-0.0663354999999999,0.0064675,-0.0092215,0.0663354999999999,-0.0064675,0.0092214999999999,-0.1071884999999999,-0.3247835,0.1115285,0.1088185,-0.3485235,-0.1084155,-0.1400185,-0.6491835,0.2896145,0.1568715,-0.6539735000000001,-0.2453155,1
72,0.031332,0.743919,0.0253655,-0.121026,0.496109,-0.0437035,-0.321476,0.587539,-0.1330515,0.228754,0.488519,0.0743895,0.3622539999999999,0.523319,0.1561485,-0.167456,0.703119,-0.0705214999999999,0.223064,0.646299,0.0836665,-0.065685,0.0062039999999999,-0.0091125,0.065685,-0.0062039999999999,0.0091124999999999,-0.106416,-0.325491,0.1119125,0.109336,-0.349301,-0.1080115,-0.138886,-0.649251,0.2901984999999999,0.158044,-0.653541,-0.2451915,1
73,0.029365,0.7444945,0.0251785,-0.122558,0.4957844999999999,-0.0455375,-0.3225179999999999,0.5871244999999999,-0.1346854999999999,0.227102,0.4901945,0.0764345,0.3617019999999999,0.5242445,0.1578245,-0.167158,0.7040345,-0.0702555,0.222292,0.6464145,0.0847875,-0.065068,0.0059515,-0.0090895,0.065068,-0.0059515,0.0090895,-0.105748,-0.3260755,0.1123695,0.10983,-0.3497755,-0.1074354999999999,-0.137828,-0.6491955,0.2908945,0.159182,-0.6530655,-0.2450155,1
74,0.027467,0.7450304999999999,0.0248575,-0.124167,0.4954205,-0.0475324999999999,-0.323577,0.5866705,-0.1366095,0.2255629999999999,0.4917605,0.0783955,0.360813,0.5249904999999999,0.1595605,-0.166877,0.7048405,-0.0700094999999999,0.2214229999999999,0.6466605,0.0858115,-0.064509,0.0057025,-0.0090804999999999,0.064509,-0.0057025,0.0090805,-0.105207,-0.3265495,0.1128935,0.1101429999999999,-0.3502195,-0.1070295,-0.136797,-0.6491095,0.2916805,0.160213,-0.6526795000000001,-0.2447595,1
75,0.0256325,0.7454305,0.0245639999999999,-0.1257805,0.4950604999999999,-0.04935,-0.3244305,0.5862105000000001,-0.138538,0.2236595,0.4933705,0.080549,0.3597495,0.5256005,0.161162,-0.1666705,0.7055305000000001,-0.069968,0.2206095,0.6470305000000001,0.086667,-0.0640445,0.0054525,-0.009083,0.0640445,-0.0054525,0.0090829999999999,-0.1048205,-0.3269695,0.11348,0.1104195,-0.3499695,-0.106578,-0.1359005,-0.6490695,0.292632,0.1610795,-0.6523194999999999,-0.244468,1
76,0.024167,0.7456595,0.0243374999999999,-0.126243,0.4949095,-0.0503835,-0.325193,0.5856895000000001,-0.1404375,0.222207,0.4947695,0.0826655,0.358077,0.5260695000000001,0.1627125,-0.166403,0.7060895,-0.0699974999999999,0.220217,0.6472695,0.0874895,-0.063701,0.0052435,-0.0090044999999999,0.063701,-0.0052435,0.0090044999999999,-0.104433,-0.3271705,0.1141945,0.110834,-0.3497605,-0.1060575,-0.135093,-0.6490505,0.2937825,0.161987,-0.6519704999999999,-0.2439974999999999,1
77,0.02286,0.745883,0.0238309999999999,-0.126405,0.4947729999999999,-0.051452,-0.325835,0.585233,-0.142489,0.220285,0.495813,0.08402,0.3560149999999999,0.526393,0.163801,-0.166205,0.706553,-0.070399,0.221035,0.647213,0.087813,-0.063474,0.005068,-0.008971,0.063474,-0.005068,0.008971,-0.104095,-0.327227,0.114908,0.1113099999999999,-0.349537,-0.105719,-0.134425,-0.649027,0.294921,0.162655,-0.6512370000000001,-0.243449,1
78,0.0221595,0.7461074999999999,0.0232189999999999,-0.1264765,0.4946175,-0.052439,-0.3260165,0.5848074999999999,-0.144277,0.2211135,0.4956475,0.085622,0.3555035,0.5273075,0.1655329999999999,-0.1661665,0.7067775000000001,-0.0711469999999999,0.2216535,0.6471475,0.0882189999999999,-0.0633895,0.0049194999999999,-0.008931,0.0633895,-0.0049195,0.0089309999999999,-0.1038264999999999,-0.3270025,0.115616,0.1116355,-0.3492425,-0.105357,-0.1339765,-0.6488225000000001,0.296133,0.1632635,-0.6510125,-0.242687,1
79,0.0215999999999999,0.7463055,0.022379,-0.126644,0.4943855,-0.05327,-0.326434,0.5843455,-0.145842,0.221636,0.4949854999999999,0.086803,0.355936,0.5283455,0.166508,-0.1663639999999999,0.7069755,-0.072032,0.221906,0.6469955,0.088644,-0.063263,0.0048185,-0.0088909999999999,0.063263,-0.0048185,0.008891,-0.103674,-0.3268045,0.116386,0.1118629999999999,-0.3486645,-0.105022,-0.133804,-0.6486245,0.297378,0.163566,-0.6508145000000001,-0.2415319999999999,1
80,0.021276,0.74635,0.021432,-0.127047,0.49405,-0.054423,-0.3269869999999999,0.58383,-0.147443,0.220673,0.49483,0.086735,0.355303,0.52838,0.166407,-0.166777,0.70712,-0.073253,0.220663,0.6471399999999999,0.0890249999999999,-0.063261,0.004735,-0.0088849999999999,0.063261,-0.004735,0.0088849999999999,-0.103467,-0.3266599999999999,0.117005,0.111928,-0.3477599999999999,-0.1048329999999999,-0.133427,-0.6484800000000001,0.2984969999999999,0.163673,-0.6502800000000001,-0.240293,1
81,0.020987,0.74625,0.020585,-0.127436,0.4936799999999999,-0.0555829999999999,-0.327516,0.5832999999999999,-0.1489829999999999,0.2205339999999999,0.4950299999999999,0.086338,0.355214,0.52742,0.166137,-0.167296,0.7071999999999999,-0.074783,0.2201739999999999,0.6463599999999999,0.087331,-0.063259,0.004667,-0.0088799999999999,0.063259,-0.0046669999999999,0.00888,-0.103286,-0.32653,0.11751,0.112016,-0.34617,-0.104583,-0.133066,-0.64834,0.299537,0.163654,-0.64954,-0.2391129999999999,1
82,0.0206615,0.7460665,0.019712,-0.1275035,0.4933165,-0.0566659999999999,-0.3275535,0.5826865,-0.150642,0.2230565,0.4937765,0.086104,0.3561765,0.5275465,0.1668879999999999,-0.1678435,0.7070465,-0.077102,0.2205965,0.6447865,0.085374,-0.0632545,0.0046365,-0.0089409999999999,0.0632545,-0.0046365,0.0089409999999999,-0.1031135,-0.3262635,0.118095,0.1123745,-0.3439335,-0.104832,-0.1327035,-0.6481034999999999,0.300678,0.1640265,-0.6486535,-0.237952,1
83,0.02059,0.7457360000000001,0.0191395,-0.127335,0.492796,-0.0575365,-0.327415,0.581976,-0.1520865,0.225525,0.492016,0.0861045,0.357235,0.527676,0.1679935,-0.168315,0.706546,-0.0792865,0.219405,0.643176,0.0829265,-0.063245,0.004606,-0.0090635,0.063245,-0.004606,0.0090635,-0.1030649999999999,-0.326104,0.1186935,0.113213,-0.341194,-0.1051864999999999,-0.132635,-0.647414,0.3020334999999999,0.164135,-0.647654,-0.2362065,1
84,0.0204895,0.7450895000000001,0.018727,-0.1280215,0.4919194999999999,-0.0580259999999999,-0.3274315,0.5809995,-0.153396,0.2241385,0.4914195,0.086439,0.3561485,0.5268295000000001,0.169034,-0.1693715,0.7054495000000001,-0.081436,0.2186285,0.6416095,0.080767,-0.0632635,0.0044625,-0.0094799999999999,0.0632635,-0.0044624999999999,0.00948,-0.1033914999999999,-0.3259305,0.119503,0.1146435,-0.3373804999999999,-0.106266,-0.1331215,-0.6462605,0.3039739999999999,0.1635585,-0.6463705,-0.233586,1
85,0.0199475,0.7442685,0.0186299999999999,-0.1290125,0.4909385,-0.058322,-0.3279625,0.5800685,-0.154252,0.2238575,0.4902185,0.087091,0.3562675,0.5239885,0.169638,-0.1712425,0.7041185,-0.083542,0.2176175,0.6394685,0.0803369999999999,-0.0633025,0.0042435,-0.009798,0.0633025,-0.0042434999999999,0.0097979999999999,-0.1041925,-0.3252115,0.120435,0.1164725,-0.3326915,-0.108492,-0.1345325,-0.6442915,0.306658,0.1617775,-0.6448115,-0.230192,1
86,0.018836,0.743278,0.019012,-0.130626,0.489958,-0.0578059999999999,-0.328886,0.579048,-0.154306,0.223514,0.492048,0.088637,0.355904,0.521548,0.171094,-0.174166,0.702588,-0.0851659999999999,0.216254,0.637928,0.080042,-0.063413,0.004012,-0.0101129999999999,0.063413,-0.004012,0.010113,-0.105056,-0.323622,0.120972,0.119304,-0.326892,-0.1122159999999999,-0.136756,-0.640942,0.310104,0.159604,-0.643162,-0.2260259999999999,1
87,0.017196,0.742036,0.020084,-0.1328299999999999,0.488596,-0.057087,-0.33042,0.577706,-0.1539869999999999,0.22083,0.495606,0.092313,0.35523,0.518946,0.173953,-0.17794,0.7003860000000001,-0.0862969999999999,0.2146,0.634626,0.080426,-0.06338,0.003771,-0.0106279999999999,0.06338,-0.003771,0.010628,-0.10642,-0.3215139999999999,0.120499,0.12246,-0.320634,-0.116977,-0.13967,-0.636124,0.313923,0.15675,-0.640784,-0.221027,1
88,0.0144949999999999,0.740469,0.0211735,-0.136005,0.4872289999999999,-0.0557564999999999,-0.332525,0.5757690000000001,-0.1534865,0.219275,0.4969989999999999,0.0963815,0.353765,0.514209,0.1768235,-0.181575,0.698069,-0.0870264999999999,0.211895,0.630819,0.0811435,-0.0629349999999999,0.003454,-0.0116104999999999,0.0629349999999999,-0.0034539999999999,0.0116105,-0.108685,-0.319091,0.1185815,0.125295,-0.314931,-0.1225064999999999,-0.143645,-0.629761,0.3177535,0.152975,-0.6374909999999999,-0.2154465,1
89,0.0108624999999999,0.7382295,0.0229344999999999,-0.1392565,0.4845695,-0.0545045,-0.3351065,0.5737295,-0.1523545,0.2153135,0.4982195,0.0973535,0.3505935,0.5094394999999999,0.1777845,-0.1858365,0.6956895,-0.0866545,0.2085735,0.6270595,0.0820095,-0.0626724999999999,0.0029385,-0.0125165,0.0626724999999999,-0.0029385,0.0125165,-0.1116865,-0.3163304999999999,0.1153235,0.1277635,-0.3099405,-0.1283145,-0.1484265,-0.6221605,0.3215155,0.1485534999999999,-0.6333605,-0.2087945,1
90,0.0071855,0.736027,0.025336,-0.1422505,0.481827,-0.052925,-0.3375405,0.571577,-0.1507949999999999,0.2089695,0.500667,0.099587,0.3460195,0.505207,0.179443,-0.1901405,0.693337,-0.0856849999999999,0.2051395,0.6235769999999999,0.087606,-0.0624065,0.0023689999999999,-0.013295,0.0624065,-0.0023689999999999,0.013295,-0.1141505,-0.3120429999999999,0.108899,0.1307995,-0.304143,-0.135595,-0.1539505,-0.614033,0.323455,0.1436195,-0.627653,-0.201005,1
91,0.003548,0.733294,0.0283394999999999,-0.145641,0.479564,-0.0502255,-0.340171,0.569014,-0.1488654999999999,0.201899,0.504444,0.1025254999999999,0.341179,0.5005740000000001,0.1814104999999999,-0.1933309999999999,0.691474,-0.0832155,0.200059,0.622244,0.0919894999999999,-0.0622319999999999,0.0017679999999999,-0.0138455,0.0622319999999999,-0.001768,0.0138454999999999,-0.116091,-0.308266,0.1006064999999999,0.1336689999999999,-0.296876,-0.1428155,-0.160181,-0.604446,0.3240444999999999,0.138259,-0.620476,-0.1926655,1
92,-0.0001755,0.7305429999999999,0.031422,-0.1486685,0.476303,-0.04808,-0.3428085,0.5665129999999999,-0.14674,0.1951115,0.510343,0.105713,0.3356215,0.495933,0.1836499999999999,-0.1961885,0.6895429999999999,-0.08037,0.1933915,0.619853,0.094493,-0.0618835,0.0011079999999999,-0.0146099999999999,0.0618835,-0.0011079999999999,0.0146099999999999,-0.1179475,-0.304757,0.09156,0.1363415,-0.287727,-0.15029,-0.1672285,-0.593767,0.32425,0.1323315,-0.611527,-0.18368,1
93,-0.0035194999999999,0.727899,0.034638,-0.1512675,0.473279,-0.046215,-0.3449275,0.564329,-0.144725,0.1888825,0.5173989999999999,0.108042,0.3317925,0.489549,0.18568,-0.1985075,0.687919,-0.077515,0.1862625,0.616729,0.095174,-0.0614165,0.0006349999999999,-0.014905,0.0614165,-0.000635,0.014905,-0.1192395,-0.301741,0.0815859999999999,0.1389825,-0.277511,-0.158615,-0.1744175,-0.582081,0.323915,0.1260125,-0.6009410000000001,-0.175235,1
94,-0.0064529999999999,0.725247,0.03757,-0.153581,0.470767,-0.0443,-0.346801,0.562307,-0.1430699999999999,0.183169,0.524047,0.109815,0.326559,0.486687,0.188237,-0.200871,0.6863969999999999,-0.07552,0.179519,0.615877,0.097307,-0.060895,0.000166,-0.0149199999999999,0.060895,-0.0001659999999999,0.01492,-0.11946,-0.2998729999999999,0.07017,0.141399,-0.268153,-0.16645,-0.181251,-0.569163,0.32331,0.119359,-0.589053,-0.1661599999999999,1
95,-0.008527,0.7224809999999999,0.0404199999999999,-0.155151,0.467801,-0.04292,-0.348451,0.560261,-0.14221,0.177629,0.528651,0.1111289999999999,0.3215389999999999,0.483881,0.1900389999999999,-0.202421,0.685091,-0.07402,0.174099,0.615491,0.1038639999999999,-0.060359,-0.000489,-0.01521,0.060359,0.0004889999999999,0.01521,-0.119895,-0.298649,0.0592519999999999,0.142639,-0.2595389999999999,-0.17324,-0.188001,-0.554909,0.32309,0.112399,-0.576679,-0.15665,1
96,-0.0106374999999999,0.719916,0.042825,-0.1568835,0.466076,-0.040995,-0.3500735,0.5578960000000001,-0.141465,0.1722665,0.533066,0.1116119999999999,0.3156565,0.4813759999999999,0.191029,-0.2036835,0.6843060000000001,-0.072655,0.1689665,0.613496,0.1055059999999999,-0.0600765,-0.001152,-0.015335,0.0600765,0.001152,0.0153349999999999,-0.1198015,-0.297884,0.0487949999999999,0.1431765,-0.251864,-0.180255,-0.1948035,-0.5393239999999999,0.322585,0.1052565,-0.564014,-0.146975,1
97,-0.012559,0.71767,0.045655,-0.15783,0.4636,-0.039995,-0.35158,0.55672,-0.140435,0.16734,0.53663,0.110938,0.31184,0.4817599999999999,0.192197,-0.2066,0.6829500000000001,-0.072375,0.1647199999999999,0.61319,0.109251,-0.06017,-0.0018399999999999,-0.014825,0.06017,0.00184,0.014825,-0.118496,-0.29774,0.0388449999999999,0.1437299999999999,-0.2444499999999999,-0.1878649999999999,-0.20099,-0.52257,0.321915,0.09834,-0.54896,-0.136865,1
98,-0.0139294999999999,0.71608,0.0476649999999999,-0.1588294999999999,0.46333,-0.0382649999999999,-0.3526885,0.5552900000000001,-0.140045,0.1649815,0.54029,0.1134869999999999,0.3112415,0.48046,0.195638,-0.2093785,0.68117,-0.0732549999999999,0.1617115,0.61117,0.112869,-0.0600915,-0.0023299999999999,-0.0144549999999999,0.0600915,0.0023299999999999,0.0144549999999999,-0.1158875,-0.29811,0.029615,0.1446015,-0.23697,-0.195735,-0.2061585,-0.506,0.321115,0.0923015,-0.53238,-0.127435,1
99,-0.015161,0.7146950000000001,0.049545,-0.159363,0.462775,-0.0370949999999999,-0.353396,0.554915,-0.1397649999999999,0.164314,0.542715,0.114932,0.3111739999999999,0.480655,0.198674,-0.211706,0.6806450000000001,-0.0738249999999999,0.1619939999999999,0.611745,0.115156,-0.059874,-0.002555,-0.0139249999999999,0.059874,0.002555,0.013925,-0.112768,-0.299945,0.023435,0.1461139999999999,-0.230115,-0.203225,-0.210036,-0.4896749999999999,0.322515,0.0873139999999999,-0.5143749999999999,-0.118695,1
100,-0.0167025,0.7140249999999999,0.0503349999999999,-0.1596175,0.461885,-0.0368649999999999,-0.3537355,0.554195,-0.139985,0.1633445,0.544095,0.1160649999999999,0.3110845,0.480145,0.201286,-0.2146354999999999,0.679295,-0.074845,0.1640444999999999,0.609395,0.1203569999999999,-0.0594545,-0.002985,-0.013725,0.0594545,0.0029849999999999,0.0137249999999999,-0.1100425,-0.301445,0.0191449999999999,0.1475245,-0.222935,-0.210285,-0.2132155,-0.474925,0.325505,0.0834745,-0.496655,-0.110555,1
101,-0.0184549999999999,0.71319,0.05131,-0.160263,0.46177,-0.03619,-0.353968,0.55423,-0.14026,0.162782,0.54283,0.11658,0.311302,0.48102,0.203366,-0.218888,0.67753,-0.0779699999999999,0.165952,0.6081,0.12421,-0.059222,-0.0032,-0.0134399999999999,0.059222,0.0032,0.01344,-0.1071749999999999,-0.30249,0.01579,0.149302,-0.21499,-0.21785,-0.215898,-0.46019,0.32922,0.079662,-0.47877,-0.10319,1
102,-0.0199945,0.7122200000000001,0.05198,-0.1606305,0.46174,-0.0356299999999999,-0.3543914999999999,0.55416,-0.14055,0.1623184999999999,0.54217,0.11736,0.3102585,0.48415,0.204942,-0.2232115,0.6764300000000001,-0.0809099999999999,0.1682785,0.60885,0.12725,-0.0591385,-0.0036799999999999,-0.0134699999999999,0.0591385,0.00368,0.01347,-0.1041335,-0.3034099999999999,0.01349,0.1509785,-0.20708,-0.22429,-0.2179515,-0.4451499999999999,0.333296,0.0762185,-0.4616099999999999,-0.0957099999999999,1
103,-0.021099,0.711205,0.05286,-0.160507,0.461415,-0.03526,-0.354482,0.554235,-0.14076,0.1622179999999999,0.541485,0.11806,0.310528,0.483525,0.206223,-0.226622,0.6754549999999999,-0.08288,0.172148,0.606725,0.13024,-0.059128,-0.004035,-0.0138999999999999,0.059128,0.004035,0.0138999999999999,-0.101612,-0.3035949999999999,0.0128,0.152878,-0.198785,-0.2305499999999999,-0.219742,-0.431395,0.337195,0.073058,-0.445125,-0.0886899999999999,1
104,-0.0220134999999999,0.710545,0.05376,-0.1600895,0.461705,-0.0348,-0.3540965,0.554805,-0.14053,0.1625535,0.541035,0.11867,0.3114235,0.483015,0.207762,-0.2291065,0.674415,-0.08421,0.1769335,0.603335,0.13375,-0.0590234999999999,-0.0041749999999999,-0.0139799999999999,0.0590234999999999,0.004175,0.01398,-0.0984285,-0.303705,0.01226,0.1553935,-0.1905549999999999,-0.2367099999999999,-0.2206365,-0.4188649999999999,0.340295,0.0706535,-0.429075,-0.0824999999999999,1
105,-0.0218039999999999,0.7102550000000001,0.054895,-0.1585539999999999,0.461245,-0.034795,-0.352619,0.556325,-0.140095,0.163851,0.540875,0.1193249999999999,0.313451,0.482735,0.209426,-0.230539,0.6737850000000001,-0.0853849999999999,0.180681,0.604075,0.136855,-0.0588409999999999,-0.0042949999999999,-0.0141149999999999,0.058841,0.0042949999999999,0.0141149999999999,-0.0949559999999999,-0.303615,0.012355,0.158521,-0.182365,-0.241925,-0.220439,-0.4056749999999999,0.343887,0.069391,-0.413565,-0.077315,1
106,-0.0203124999999999,0.709955,0.055775,-0.1564915,0.461625,-0.0343649999999999,-0.3504155,0.557455,-0.1398849999999999,0.1657745,0.5407850000000001,0.120055,0.3150745,0.481905,0.2103,-0.2302955,0.674015,-0.085725,0.1853645,0.6044750000000001,0.138735,-0.0586945,-0.0042749999999999,-0.014405,0.0586945,0.004275,0.014405,-0.0916345,-0.303115,0.013355,0.1617945,-0.1747649999999999,-0.246115,-0.2194955,-0.3930549999999999,0.347942,0.0694444999999999,-0.400535,-0.073735,1
107,-0.0182175,0.709685,0.056875,-0.1542025,0.461055,-0.034455,-0.3479765,0.558925,-0.1394449999999999,0.1680235,0.540545,0.120505,0.3154535,0.482565,0.21073,-0.2292064999999999,0.674705,-0.085615,0.1899134999999999,0.606695,0.140975,-0.0586435,-0.0042349999999999,-0.0146649999999999,0.0586435,0.0042349999999999,0.0146649999999999,-0.0886015,-0.302415,0.0150049999999999,0.1651234999999999,-0.1678049999999999,-0.2498249999999999,-0.2183864999999999,-0.380835,0.35163,0.0701434999999999,-0.3892049999999999,-0.0710049999999999,1
108,-0.0161675,0.70919,0.0575,-0.1525345,0.46091,-0.0341599999999999,-0.3459225,0.55959,-0.1389499999999999,0.1696774999999999,0.54037,0.12122,0.3159174999999999,0.48125,0.211001,-0.2283025,0.67422,-0.08609,0.1918674999999999,0.6066,0.14292,-0.0587175,-0.0043699999999999,-0.01522,0.0587174999999999,0.00437,0.01522,-0.0863495,-0.30177,0.01689,0.1672874999999999,-0.1618399999999999,-0.2526599999999999,-0.2172625,-0.3739399999999999,0.355208,0.0714575,-0.38076,-0.0691,1
109,-0.0139394999999999,0.7085049999999999,0.05868,-0.1508105,0.460695,-0.0339499999999999,-0.3440125,0.561185,-0.1382399999999999,0.1715375,0.539435,0.12164,0.3166375,0.481115,0.211002,-0.2276725,0.674335,-0.08676,0.1933275,0.607845,0.14544,-0.0589175,-0.0042849999999999,-0.0155399999999999,0.0589175,0.004285,0.0155399999999999,-0.0839915,-0.301025,0.01863,0.1694775,-0.1563049999999999,-0.25556,-0.2157625,-0.368005,0.358327,0.0732675,-0.373355,-0.0676199999999999,1
110,-0.01214,0.7080949999999999,0.0594649999999999,-0.149624,0.460905,-0.0334749999999999,-0.342612,0.562155,-0.137415,0.1725779999999999,0.539745,0.122375,0.317198,0.4798449999999999,0.2108769999999999,-0.226392,0.675195,-0.0854849999999999,0.1956079999999999,0.609765,0.146735,-0.059008,-0.0043449999999999,-0.015805,0.059008,0.0043449999999999,0.015805,-0.082249,-0.300505,0.020405,0.1707979999999999,-0.151975,-0.257385,-0.214132,-0.362415,0.361005,0.074878,-0.367925,-0.066365,1
111,-0.0109665,0.708115,0.060125,-0.1490185,0.461425,-0.0328649999999999,-0.3416225,0.563235,-0.1365349999999999,0.1730075,0.540335,0.123065,0.3174975,0.478335,0.21066,-0.2253325,0.675705,-0.084345,0.1968175,0.6096349999999999,0.148395,-0.0590875,-0.004195,-0.0160349999999999,0.0590875,0.004195,0.016035,-0.0810905,-0.299915,0.021865,0.1715375,-0.148445,-0.258695,-0.2126525,-0.358295,0.363495,0.0762375,-0.363885,-0.0655049999999999,1
112,-0.0105149999999999,0.708115,0.060335,-0.148848,0.4617249999999999,-0.032445,-0.34099,0.563955,-0.135895,0.17318,0.540735,0.123485,0.31756,0.479525,0.21051,-0.22463,0.676185,-0.0835449999999999,0.19715,0.610605,0.148715,-0.05917,-0.004105,-0.0161949999999999,0.05917,0.0041049999999999,0.016195,-0.080325,-0.299535,0.022905,0.17169,-0.145495,-0.259675,-0.21137,-0.353335,0.3659,0.0769499999999999,-0.361015,-0.0648649999999999,1
113,-0.0101109999999999,0.708005,0.0599849999999999,-0.148331,0.461825,-0.032465,-0.34034,0.564245,-0.135835,0.17364,0.540995,0.1233049999999999,0.31789,0.480365,0.2099629999999999,-0.2241,0.676685,-0.083505,0.19815,0.611945,0.1494749999999999,-0.0593,-0.004065,-0.016415,0.0592999999999999,0.0040649999999999,0.0164149999999999,-0.079514,-0.299265,0.0234749999999999,0.17198,-0.143545,-0.260625,-0.20983,-0.350465,0.3672289999999999,0.07769,-0.359125,-0.064755,1
114,-0.0098125,0.7074,0.0591699999999999,-0.1479335,0.4615399999999999,-0.03299,-0.3400535,0.56377,-0.13666,0.1739765,0.54064,0.1226199999999999,0.3183565,0.48058,0.2096299999999999,-0.2237535,0.67643,-0.08419,0.1989365,0.61195,0.1496299999999999,-0.0594265,-0.00406,-0.01663,0.0594264999999999,0.00406,0.0166299999999999,-0.0788385,-0.29908,0.0236699999999999,0.1721865,-0.14301,-0.26171,-0.2083735,-0.34998,0.3675819999999999,0.0783365,-0.35859,-0.06541,1
115,-0.0091105,0.7074,0.058725,-0.1473205,0.4615399999999999,-0.0332049999999999,-0.3393885,0.56377,-0.1372249999999999,0.1743214999999999,0.54064,0.122335,0.3187115,0.48058,0.209505,-0.2229884999999999,0.67643,-0.084455,0.1990214999999999,0.61195,0.149535,-0.0595215,-0.00406,-0.0165949999999999,0.0595214999999999,0.00406,0.016595,-0.0779985,-0.29908,0.023375,0.1728715,-0.14301,-0.262215,-0.2069285,-0.35085,0.367562,0.0791914999999999,-0.35832,-0.0657149999999999,1
116,-0.0083519999999999,0.7074,0.0584599999999999,-0.146973,0.4615399999999999,-0.03332,-0.338533,0.56377,-0.13752,0.1745069999999999,0.54064,0.1222599999999999,0.3191569999999999,0.48058,0.2093509999999999,-0.2223029999999999,0.67643,-0.08469,0.1998769999999999,0.6119699999999999,0.1492399999999999,-0.0596269999999999,-0.00406,-0.01656,0.059627,0.00406,0.0165599999999999,-0.0771429999999999,-0.29908,0.0230799999999999,0.173507,-0.14253,-0.26243,-0.2058129999999999,-0.35128,0.36799,0.080047,-0.35832,-0.06601,1
117,-0.0083249999999999,0.7074,0.0584549999999999,-0.147147,0.4615399999999999,-0.033255,-0.338051,0.56377,-0.137675,0.174359,0.54064,0.1223149999999999,0.319279,0.48058,0.209312,-0.222231,0.67643,-0.0847149999999999,0.199789,0.61294,0.148145,-0.059809,-0.00406,-0.0164949999999999,0.059809,0.00406,0.0164949999999999,-0.076418,-0.29908,0.023245,0.173499,-0.14169,-0.2624249999999999,-0.204831,-0.35084,0.3686939999999999,0.080619,-0.35832,-0.066205,1
118,-0.0091789999999999,0.70731,0.0581649999999999,-0.148009,0.46129,-0.033445,-0.338125,0.56331,-0.138235,0.173565,0.5404599999999999,0.122005,0.318555,0.48267,0.2091219999999999,-0.222405,0.6756,-0.0849449999999999,0.198565,0.61469,0.148445,-0.0599449999999999,-0.00422,-0.0166649999999999,0.059945,0.00422,0.0166649999999999,-0.075401,-0.29905,0.024075,0.172785,-0.14156,-0.2627649999999999,-0.204005,-0.3482699999999999,0.368678,0.080925,-0.35965,-0.0668949999999999,1
119,-0.0112194999999999,0.7070150000000001,0.0579149999999999,-0.1497235,0.460745,-0.033395,-0.3397735,0.5622250000000001,-0.138465,0.1719165,0.5401450000000001,0.121875,0.3172965,0.484785,0.208253,-0.2238335,0.6753850000000001,-0.084805,0.1957465,0.6152550000000001,0.147305,-0.0600064999999999,-0.0042749999999999,-0.0168749999999999,0.0600065,0.004275,0.016875,-0.0751635,-0.2991349999999999,0.024355,0.1705365,-0.1440849999999999,-0.262065,-0.2039535,-0.3494049999999999,0.367273,0.0806865,-0.364405,-0.0683249999999999,1
120,-0.0140269999999999,0.7081850000000001,0.0586,-0.151716,0.459445,-0.0336099999999999,-0.34251,0.561995,-0.13787,0.1697,0.539165,0.12146,0.3159499999999999,0.486625,0.208316,-0.2246,0.6769050000000001,-0.0822699999999999,0.19226,0.617775,0.14667,-0.06009,-0.0044449999999999,-0.0173299999999999,0.06009,0.004445,0.01733,-0.077319,-0.2989449999999999,0.02559,0.16763,-0.1482749999999999,-0.2603099999999999,-0.20544,-0.354085,0.366318,0.0802,-0.3717049999999999,-0.0702499999999999,1
121,-0.0179395,0.708755,0.0595199999999999,-0.1545205,0.458265,-0.03311,-0.3456205,0.560495,-0.13664,0.1665295,0.5386850000000001,0.1219599999999999,0.3149794999999999,0.486805,0.2092119999999999,-0.2256205,0.6768350000000001,-0.07902,0.1869794999999999,0.6177950000000001,0.1468499999999999,-0.0601995,-0.004475,-0.01752,0.0601995,0.004475,0.0175199999999999,-0.0805095,-0.298935,0.0262699999999999,0.1639895,-0.155105,-0.25673,-0.2074905,-0.363805,0.3642249999999999,0.0793195,-0.3840149999999999,-0.07302,1
122,-0.0222235,0.70932,0.06031,-0.1576345,0.45733,-0.0325599999999999,-0.3488805,0.55829,-0.1351599999999999,0.1630694999999999,0.53864,0.1228,0.3117295,0.48933,0.209685,-0.2273505,0.67582,-0.0763699999999999,0.1828595,0.61776,0.14658,-0.0604394999999999,-0.00462,-0.0182399999999999,0.0604394999999999,0.0046199999999999,0.01824,-0.0845155,-0.2988700000000001,0.02701,0.1595194999999999,-0.16322,-0.2517899999999999,-0.2101505,-0.37817,0.361066,0.0792295,-0.40143,-0.0778599999999999,1
123,-0.02585,0.71095,0.0605499999999999,-0.160652,0.45691,-0.0321099999999999,-0.35194,0.55577,-0.13428,0.1599399999999999,0.53929,0.12353,0.3092,0.4895,0.209256,-0.22859,0.6753899999999999,-0.07362,0.17598,0.61775,0.14489,-0.06041,-0.0046899999999999,-0.01833,0.06041,0.00469,0.01833,-0.089934,-0.29867,0.02807,0.15496,-0.17274,-0.24619,-0.21294,-0.39368,0.356041,0.0800399999999999,-0.42259,-0.0849699999999999,1
124,-0.0295059999999999,0.712665,0.0608749999999999,-0.1631949999999999,0.456635,-0.031835,-0.354666,0.554015,-0.133005,0.157144,0.5398050000000001,0.123915,0.306974,0.490385,0.208564,-0.228556,0.6770050000000001,-0.070345,0.170944,0.6194850000000001,0.142945,-0.060474,-0.0045949999999999,-0.018265,0.060474,0.004595,0.018265,-0.095617,-0.298265,0.0297449999999999,0.150224,-0.184435,-0.238505,-0.2149059999999999,-0.412555,0.351305,0.081624,-0.446555,-0.0939649999999999,1
125,-0.0327465,0.71448,0.061095,-0.1653745,0.45626,-0.031945,-0.3570465,0.55261,-0.131765,0.1547235,0.54027,0.123615,0.3047034999999999,0.49129,0.207293,-0.2295165,0.67658,-0.067715,0.1671035,0.61923,0.140967,-0.0605835,-0.0044899999999999,-0.018195,0.0605835,0.0044899999999999,0.0181949999999999,-0.1017555,-0.29723,0.0331549999999999,0.1453935,-0.19769,-0.229045,-0.2164965,-0.4398499999999999,0.345105,0.0840234999999999,-0.47218,-0.105075,1
126,-0.0353599999999999,0.716555,0.06067,-0.167161,0.455395,-0.03311,-0.359284,0.551405,-0.13086,0.153666,0.541665,0.123757,0.302876,0.491785,0.205188,-0.2307739999999999,0.676745,-0.0661699999999999,0.162976,0.620555,0.1381399999999999,-0.0605659999999999,-0.0042649999999999,-0.0182299999999999,0.0605659999999999,0.0042649999999999,0.0182299999999999,-0.109183,-0.298065,0.03875,0.1401359999999999,-0.214185,-0.2179,-0.2173439999999999,-0.4689249999999999,0.33972,0.0870659999999999,-0.4997749999999999,-0.11781,1
127,-0.036996,0.717175,0.058685,-0.169048,0.454285,-0.0346149999999999,-0.361418,0.548875,-0.1313949999999999,0.153392,0.551285,0.126383,0.301222,0.490045,0.201998,-0.230648,0.676635,-0.0644449999999999,0.160792,0.617955,0.13411,-0.060042,-0.0041249999999999,-0.0181849999999999,0.060042,0.004125,0.018185,-0.1170819999999999,-0.3016149999999999,0.044005,0.135172,-0.2336949999999999,-0.2072149999999999,-0.217438,-0.5001749999999999,0.333895,0.091382,-0.5297649999999999,-0.1321049999999999,1
128,-0.0374539999999999,0.71864,0.056455,-0.169456,0.4539,-0.036615,-0.361986,0.54785,-0.132215,0.154474,0.5605800000000001,0.127574,0.300724,0.488,0.1992499999999999,-0.228896,0.67655,-0.063715,0.1605039999999999,0.6176,0.131593,-0.0595439999999999,-0.0041199999999999,-0.018165,0.059544,0.0041199999999999,0.0181649999999999,-0.1244599999999999,-0.30589,0.051565,0.131724,-0.25263,-0.197085,-0.2162759999999999,-0.52808,0.329485,0.097234,-0.55738,-0.147185,1
129,-0.0365015,0.718766,0.0530749999999999,-0.1689635,0.4545559999999999,-0.038495,-0.3610735,0.5458959999999999,-0.134305,0.1557065,0.571836,0.129137,0.2997665,0.4871259999999999,0.195567,-0.2268835,0.674666,-0.064525,0.1616665,0.614946,0.1281749999999999,-0.0588464999999999,-0.003863,-0.017735,0.0588465,0.0038629999999999,0.017735,-0.1287955,-0.310864,0.0582949999999999,0.1295065,-0.2717739999999999,-0.187515,-0.2122335,-0.553624,0.323785,0.1047965,-0.584144,-0.163675,1
130,-0.0344409999999999,0.7195905,0.0497289999999999,-0.167634,0.4552205,-0.04108,-0.359714,0.5454105,-0.13691,0.157606,0.5835005,0.130601,0.298696,0.4879205,0.191221,-0.225564,0.6745905,-0.06654,0.164656,0.6150205,0.1243239999999999,-0.0581159999999999,-0.0037044999999999,-0.01744,0.058116,0.0037044999999999,0.0174399999999999,-0.131874,-0.3156295,0.0653509999999999,0.126966,-0.2901095,-0.17757,-0.206954,-0.5776495,0.31816,0.113286,-0.6064795000000001,-0.1803,1
131,-0.0314835,0.7205045,0.046275,-0.1650285,0.4556445,-0.0446949999999999,-0.3578485,0.5460945,-0.139585,0.1607615,0.5934745,0.130387,0.3000915,0.4864645,0.18687,-0.2231085,0.6738145,-0.068465,0.1672015,0.6152545,0.120897,-0.0571295,-0.0034555,-0.016525,0.0571295,0.0034555,0.0165249999999999,-0.1336965,-0.3206954999999999,0.0724269999999999,0.1255615,-0.3083055,-0.168585,-0.2004185,-0.5988755,0.3129349999999999,0.1225615,-0.6246955,-0.196505,1
132,-0.0289799999999999,0.7204195,0.04321,-0.162709,0.4559395,-0.047241,-0.355919,0.5470995000000001,-0.141621,0.163851,0.6024295000000001,0.13035,0.300641,0.4875895,0.183282,-0.2200789999999999,0.6736495,-0.069851,0.172531,0.6154595,0.118115,-0.056421,-0.0032344999999999,-0.016381,0.056421,0.0032345,0.0163809999999999,-0.133799,-0.3262805,0.078664,0.124161,-0.3254205,-0.160101,-0.192899,-0.6159905,0.308559,0.131771,-0.6396505,-0.211681,1
133,-0.026513,0.7202295000000001,0.0403745,-0.160938,0.4561194999999999,-0.0490694999999999,-0.354518,0.5473295,-0.1432795,0.166712,0.6112095000000001,0.1306605,0.300542,0.4878794999999999,0.1796355,-0.218088,0.6715295,-0.0714694999999999,0.175912,0.6143195,0.1164425,-0.0556969999999999,-0.0030724999999999,-0.0163694999999999,0.0556969999999999,0.0030724999999999,0.0163694999999999,-0.133578,-0.3324805,0.0839105,0.122392,-0.3390605,-0.1531495,-0.185848,-0.6296305,0.3031505,0.140432,-0.6521604999999999,-0.2255995,1
134,-0.0243585,0.719877,0.038458,-0.1598545,0.456327,-0.049948,-0.3535045,0.547377,-0.144098,0.1699254999999999,0.619857,0.13357,0.3004055,0.487667,0.176762,-0.2168245,0.670867,-0.071628,0.1772655,0.6143069999999999,0.114046,-0.0549965,-0.0028989999999999,-0.0164389999999999,0.0549965,0.0028989999999999,0.0164389999999999,-0.1328645,-0.3393029999999999,0.087047,0.1210855,-0.349273,-0.148358,-0.1789345,-0.640533,0.298822,0.1487254999999999,-0.662373,-0.238048,1
135,-0.0227225,0.7198025,0.0379225,-0.1591865,0.4575025,-0.0490965,-0.3528765,0.5477425,-0.1433765,0.1721434999999999,0.6279325,0.1364695,0.2996535,0.4881224999999999,0.1747135,-0.2143465,0.6698725000000001,-0.0687364999999999,0.1789734999999999,0.6139325000000001,0.1134655,-0.0543914999999999,-0.0028094999999999,-0.0162905,0.0543914999999999,0.0028094999999999,0.0162905,-0.1310665,-0.3442075,0.0876875,0.1206335,-0.3568975,-0.1451164999999999,-0.1724665,-0.6490174999999999,0.2938935,0.1562935,-0.6696574999999999,-0.2487565,1
136,-0.021733,0.7207985,0.0394705,-0.157903,0.4589185,-0.0478055,-0.352083,0.5493985,-0.1406615,0.174217,0.6278085,0.1366525,0.300057,0.4869885,0.1745285,-0.213173,0.6695385,-0.0662915,0.179977,0.6145585,0.1147205,-0.054291,-0.0024945,-0.0161695,0.054291,0.0024945,0.0161695,-0.1290529999999999,-0.3462715,0.0882725,0.120647,-0.3623315,-0.1416415,-0.166493,-0.6548515,0.2899885,0.162717,-0.6728715,-0.2576615,1
137,-0.021348,0.7213149999999999,0.041739,-0.157164,0.460015,-0.0462819999999999,-0.351674,0.5503049999999999,-0.137552,0.175716,0.628135,0.137868,0.300046,0.486265,0.1752179999999999,-0.213144,0.668895,-0.0629639999999999,0.180706,0.613885,0.115947,-0.05416,-0.0021709999999999,-0.015978,0.05416,0.0021709999999999,0.015978,-0.126974,-0.3475149999999999,0.087169,0.1205359999999999,-0.368685,-0.1386919999999999,-0.161014,-0.6586850000000001,0.285868,0.167596,-0.675535,-0.264852,1
138,-0.0216949999999999,0.7219715,0.0447955,-0.156773,0.4608615,-0.0447585,-0.351643,0.5514614999999999,-0.1336655,0.178267,0.6274415,0.1387345,0.300567,0.4861115,0.1763845,-0.214333,0.6691014999999999,-0.0604145,0.181347,0.6134314999999999,0.1185755,-0.054153,-0.0019954999999999,-0.0160625,0.054153,0.0019955,0.0160625,-0.125613,-0.3482085,0.0859345,0.120147,-0.3734985,-0.1362155,-0.156963,-0.6610585,0.2825445,0.171447,-0.6771885000000001,-0.2706455,1
139,-0.0222005,0.7226815,0.0481894999999999,-0.1565295,0.4616515,-0.0432715,-0.3519195,0.5525215,-0.1294615,0.1810805,0.6274415,0.1389785,0.3014605,0.4861115,0.1788084999999999,-0.2148395,0.6694414999999999,-0.0571335,0.1821704999999999,0.6134314999999999,0.1221885,-0.0542155,-0.0019954999999999,-0.0161725,0.0542155,0.0019955,0.0161724999999999,-0.1248195,-0.3481984999999999,0.0849185,0.1206275,-0.3774484999999999,-0.1358715,-0.1540395,-0.6627585,0.2802585,0.1744305,-0.6786185,-0.2754115,1
140,-0.0231395,0.7230814999999999,0.052239,-0.1571745,0.4622015,-0.040805,-0.3525145,0.5528615,-0.125246,0.1831355,0.6274415,0.1407139999999999,0.3022654999999999,0.4861115,0.181864,-0.2156345,0.6697614999999999,-0.053367,0.1827955,0.6134314999999999,0.1258739999999999,-0.0543494999999999,-0.0019954999999999,-0.0161919999999999,0.0543494999999999,0.0019955,0.0161919999999999,-0.1245345,-0.3481785,0.083819,0.1208185,-0.3809285,-0.136046,-0.1521945,-0.6641485,0.278624,0.1764655,-0.6801885000000001,-0.2789959999999999,0
141,-0.0241555,0.7232915,0.0566735,-0.1575935,0.4622015,-0.0388205,-0.3532435,0.5529915,-0.1206764999999999,0.1853365,0.6231114999999999,0.1422435,0.3032965,0.4852215,0.1851435,-0.2170835,0.6700315,-0.0495645,0.1834865,0.6134314999999999,0.1302035,-0.0545685,-0.0019954999999999,-0.0159615,0.0545684999999999,0.0019955,0.0159615,-0.1245635,-0.3481785,0.0832155,0.1211924999999999,-0.3840485,-0.1364064999999999,-0.1511235,-0.6651785,0.2779235,0.1778964999999999,-0.6816385,-0.2814565,0
142,-0.024806,0.7236435,0.061338,-0.157758,0.4624435,-0.0369329999999999,-0.353638,0.5533535,-0.1162779999999999,0.187382,0.6166535000000001,0.143742,0.306562,0.4838635,0.188082,-0.218488,0.6697735,-0.045554,0.185732,0.6128535,0.134242,-0.054786,-0.0017905,-0.015716,0.054786,0.0017905,0.015716,-0.124618,-0.3484564999999999,0.0832369999999999,0.1222859999999999,-0.3858965,-0.137058,-0.150298,-0.6656865,0.278032,0.179272,-0.6826065,-0.283118,0
143,-0.025193,0.7243944999999999,0.065607,-0.157586,0.4630444999999999,-0.035212,-0.353926,0.5540745,-0.112091,0.188524,0.6112945,0.143599,0.309064,0.4823745,0.191329,-0.217976,0.6699944999999999,-0.041912,0.188104,0.6120545,0.138429,-0.054975,-0.0015745,-0.0153269999999999,0.054975,0.0015744999999999,0.015327,-0.1247559999999999,-0.3482955,0.083745,0.123123,-0.3867355,-0.136981,-0.1497359999999999,-0.6655855,0.2785689999999999,0.180394,-0.6829555,-0.283761,0
144,-0.0252485,0.725265,0.0689765,-0.1573605,0.463705,-0.0334775,-0.3538105,0.5550350000000001,-0.1087805,0.1891594999999999,0.606315,0.1436695,0.3109495,0.480495,0.1943395,-0.2183405,0.670225,-0.0406575,0.1899795,0.611245,0.1416995,-0.0552565,-0.001413,-0.0150585,0.0552565,0.0014129999999999,0.0150584999999999,-0.1248105,-0.347755,0.0842735,0.1238785,-0.387075,-0.1368505,-0.1492804999999999,-0.665015,0.2792095,0.1813195,-0.682995,-0.2842005,0
145,-0.024708,0.727121,0.071078,-0.156814,0.4652509999999999,-0.032328,-0.353254,0.556991,-0.106363,0.190096,0.598091,0.143777,0.313176,0.478921,0.197287,-0.218204,0.672071,-0.040018,0.191656,0.611571,0.143547,-0.05572,-0.001109,-0.01486,0.0557199999999999,0.0011089999999999,0.01486,-0.124534,-0.345909,0.084554,0.1248799999999999,-0.386039,-0.136723,-0.148664,-0.663169,0.279497,0.182326,-0.681829,-0.284563,0
146,-0.023832,0.729069,0.072214,-0.156385,0.466949,-0.031197,-0.3526049999999999,0.559089,-0.1049509999999999,0.191165,0.5903689999999999,0.143929,0.315655,0.477579,0.199299,-0.2176249999999999,0.674339,-0.039808,0.192965,0.6121289999999999,0.1445489999999999,-0.0561819999999999,-0.0008159999999999,-0.014638,0.056182,0.000816,0.0146379999999999,-0.1242949999999999,-0.343961,0.084764,0.125838,-0.384731,-0.136561,-0.1481849999999999,-0.6612210000000001,0.279649,0.183165,-0.680521,-0.284971,0
147,-0.022947,0.730944,0.0725885,-0.156102,0.4686039999999999,-0.0300825,-0.351972,0.561014,-0.1044865,0.192318,0.5827840000000001,0.1443035,0.318508,0.476594,0.2009735,-0.216942,0.676204,-0.0400235,0.193928,0.6125440000000001,0.1450135,-0.056603,-0.000525,-0.0144245,0.0566029999999999,0.0005249999999999,0.0144245,-0.124072,-0.342086,0.0848705,0.126614,-0.383336,-0.1362765,-0.147862,-0.659346,0.2797135,0.183898,-0.679276,-0.2851965,0
148,-0.022361,0.732842,0.072465,-0.155716,0.470302,-0.029196,-0.351386,0.562912,-0.10461,0.1930339999999999,0.573812,0.14338,0.321494,0.478492,0.20143,-0.216526,0.677862,-0.040652,0.1945039999999999,0.614442,0.1449,-0.057097,-0.0002009999999999,-0.014179,0.057097,0.0002009999999999,0.014179,-0.123866,-0.340038,0.084906,0.12726,-0.381778,-0.13587,-0.147516,-0.657308,0.27967,0.1846539999999999,-0.677978,-0.28538,0
149,-0.0217974999999999,0.7346465,0.072392,-0.1554025,0.4720364999999999,-0.0282839999999999,-0.3508225,0.5648164999999999,-0.104683,0.1937775,0.5615665,0.142937,0.3240075,0.4803965,0.201067,-0.2160025,0.6795464999999999,-0.040831,0.1950675,0.6163465,0.1448269999999999,-0.0575875,0.0001615,-0.013892,0.0575875,-0.0001615,0.013892,-0.1235424999999999,-0.3378635,0.0849139999999999,0.1278785,-0.3800435,-0.135463,-0.1470624999999999,-0.6551935,0.2796369999999999,0.1853874999999999,-0.6766535,-0.285513,0
150,-0.0210964999999999,0.7362605,0.072307,-0.1549195,0.4737205,-0.028184,-0.3503095,0.5665505,-0.1047039999999999,0.1945805,0.5535005,0.142666,0.3264105,0.4821305,0.200396,-0.2155395,0.6812805,-0.040836,0.1955805,0.6180805,0.144806,-0.0580055,0.0005065,-0.013595,0.0580055,-0.0005065,0.013595,-0.1231595,-0.3357695,0.084938,0.1284585,-0.3783095,-0.135074,-0.1465595,-0.6531495,0.279616,0.1860605,-0.6753995,-0.285484,0
151,-0.0201149999999999,0.7377395000000001,0.0721695,-0.154418,0.4753595,-0.0278195,-0.3497579999999999,0.5680795000000001,-0.1045195,0.1949219999999999,0.5445595000000001,0.1415904999999999,0.328932,0.4847895,0.2000805,-0.2150979999999999,0.6829195,-0.0417195,0.195242,0.6204395,0.1430005,-0.058323,0.0008015,-0.0134205,0.058323,-0.0008015,0.0134205,-0.122658,-0.3337105,0.0853025,0.129008,-0.3766705,-0.1343895,-0.1460779999999999,-0.6511804999999999,0.2799304999999999,0.186752,-0.6741204999999999,-0.2849495,0
152,-0.0188705,0.739253,0.0713985,-0.1539225,0.477083,-0.0271605,-0.3492325,0.5695330000000001,-0.1050005,0.1946975,0.535383,0.1398595,0.3313675,0.485093,0.1999095,-0.2150625,0.683693,-0.0435635,0.1951075,0.6217830000000001,0.1402495,-0.0586805,0.001142,-0.0132655,0.0586805,-0.001142,0.0132655,-0.1221925,-0.331387,0.0858675,0.1295755,-0.374897,-0.1335205,-0.1456525,-0.6489469999999999,0.2803795,0.1874075,-0.672577,-0.2841005,0
153,-0.017512,0.7407954999999999,0.0699994999999999,-0.1534559999999999,0.4789255,-0.0262285,-0.348726,0.5707555,-0.1062085,0.194124,0.5259555,0.1377315,0.333734,0.4849055,0.1994415,-0.2157059999999999,0.6841155,-0.0469315,0.194924,0.6232455,0.1367315,-0.059066,0.0014795,-0.0130835,0.059066,-0.0014795,0.0130834999999999,-0.1217159999999999,-0.3288545,0.0868255,0.130106,-0.3729445,-0.1324085,-0.145256,-0.6464845,0.2811115,0.187994,-0.6706945,-0.2829284999999999,0
154,-0.0160895,0.7413495,0.0677505,-0.1530635,0.4799595,-0.0255915,-0.3484735,0.5702094999999999,-0.1085885,0.1930465,0.5195195,0.1345315,0.3343265,0.4845494999999999,0.1975115,-0.2165535,0.6835195,-0.0505894999999999,0.1944365,0.6237794999999999,0.1323315,-0.0594315,0.0016145,-0.0129375,0.0594315,-0.0016145,0.0129375,-0.1213935,-0.3272105,0.0878665,0.1304604999999999,-0.3716905,-0.1311685,-0.1449935,-0.6449005,0.2819915,0.1883765,-0.6695405,-0.2816285,0
155,-0.0144929999999999,0.7420785,0.064831,-0.152375,0.4811985,-0.0255929999999999,-0.347875,0.5678685,-0.112081,0.191025,0.5126685,0.128939,0.334225,0.4839985,0.193449,-0.218055,0.6816285,-0.056178,0.196485,0.6228984999999999,0.126979,-0.059841,0.0018234999999999,-0.012753,0.059841,-0.0018235,0.012753,-0.121005,-0.3257215,0.089086,0.130721,-0.3702315,-0.129871,-0.144695,-0.6434615,0.283209,0.188675,-0.6682015,-0.280101,0
156,-0.0126329999999999,0.7431639999999999,0.0612864999999999,-0.151361,0.482784,-0.0264084999999999,-0.346321,0.562094,-0.1140844999999999,0.188459,0.506104,0.1227455,0.332179,0.478784,0.1880555,-0.220281,0.678184,-0.0637804999999999,0.201839,0.619814,0.1209055,-0.060216,0.002084,-0.0124535,0.060216,-0.002084,0.0124535,-0.120641,-0.324016,0.0905355,0.130875,-0.368546,-0.1283545,-0.144591,-0.641756,0.2847455,0.188739,-0.666496,-0.2782645,0
157,-0.009895,0.7448335,0.0573225,-0.15037,0.4846335,-0.0269224999999999,-0.3431099999999999,0.5532535,-0.1132205,0.18665,0.5014135,0.1149195,0.3287,0.4709035,0.1808595,-0.22142,0.6733735,-0.0720375,0.20697,0.6158335,0.1130095,-0.060716,0.0024575,-0.0118625,0.060716,-0.0024574999999999,0.0118625,-0.12026,-0.3217665,0.0924634999999999,0.130909,-0.3662965,-0.1264005,-0.14468,-0.6395065,0.2867294999999999,0.18856,-0.6641765,-0.2760305,0
158,-0.006559,0.746708,0.053134,-0.149402,0.486338,-0.02726,-0.339252,0.537778,-0.11236,0.184838,0.496668,0.1068559999999999,0.323768,0.456708,0.17106,-0.2212219999999999,0.665758,-0.082902,0.212018,0.610748,0.101628,-0.0612679999999999,0.002811,-0.01117,0.061268,-0.0028109999999999,0.01117,-0.119952,-0.319302,0.094843,0.131026,-0.363822,-0.1242699999999999,-0.144932,-0.636892,0.28901,0.188138,-0.661422,-0.2734999999999999,0
159,-0.0029129999999999,0.7490705,0.048996,-0.1479929999999999,0.4874505,-0.027746,-0.334623,0.5186205,-0.111716,0.182707,0.4884405,0.097583,0.318397,0.4407505,0.159174,-0.221293,0.6496204999999999,-0.098046,0.218627,0.5998605,0.08726,-0.062033,0.0031244999999999,-0.0105209999999999,0.062033,-0.0031245,0.0105209999999999,-0.119803,-0.3163995,0.097418,0.131419,-0.3613595,-0.1223559999999999,-0.145313,-0.6338595,0.2914339999999999,0.1875569999999999,-0.6582495,-0.270906,0
160,0.0009935,0.7519875,0.0447435,-0.1463985,0.4882975,-0.0284824999999999,-0.3291785,0.4953075,-0.1110505,0.1806415,0.4852875,0.0891385,0.3114215,0.4236474999999999,0.1461195,-0.2187885,0.6294675000000001,-0.1159805,0.2266015,0.5836475,0.0720315,-0.0627955,0.0032895,-0.0099955,0.0627955,-0.0032895,0.0099955,-0.1199484999999999,-0.3132724999999999,0.0999874999999999,0.1319505,-0.3592525,-0.1213205,-0.1460084999999999,-0.6302725,0.2937495,0.1868115,-0.6547025,-0.2686504999999999,0
161,0.0048584999999999,0.7553195,0.0406959999999999,-0.1454355,0.4896295,-0.028773,-0.3209555,0.4678595,-0.1073099999999999,0.1783845,0.4824395,0.080382,0.3033745,0.4001895,0.13388,-0.2180855,0.6004895,-0.12703,0.2344645,0.5631195,0.056051,-0.0635645,0.0033584999999999,-0.00957,0.0635645,-0.0033585,0.00957,-0.1202155,-0.3099605,0.102408,0.1324265,-0.3568105,-0.12056,-0.1468755,-0.6263105,0.29585,0.1858945,-0.6505005,-0.26661,0
162,0.009196,0.7585124999999999,0.036858,-0.1451599999999999,0.4906825,-0.028675,-0.31248,0.4382925,-0.100526,0.1757,0.4794125,0.070892,0.29391,0.3764125,0.121561,-0.21819,0.5603824999999999,-0.135216,0.24063,0.5407725,0.037154,-0.0644899999999999,0.0033644999999999,-0.0091749999999999,0.0644899999999999,-0.0033644999999999,0.0091749999999999,-0.1207099999999999,-0.3069575,0.104392,0.132856,-0.3545275,-0.120066,-0.14786,-0.6225675,0.297504,0.18477,-0.6464075,-0.265056,0
163,0.0136119999999999,0.761564,0.0335774999999999,-0.145399,0.491534,-0.0280945,-0.303519,0.409204,-0.0905935,0.1729109999999999,0.4764739999999999,0.0620485,0.2835709999999999,0.350444,0.1085325,-0.219399,0.511274,-0.1414834999999999,0.247081,0.515294,0.0160734999999999,-0.065418,0.003303,-0.0088244999999999,0.065418,-0.003303,0.0088244999999999,-0.121439,-0.3042559999999999,0.1062355,0.133141,-0.3524659999999999,-0.1197534999999999,-0.149029,-0.619066,0.2989565,0.1834509999999999,-0.642516,-0.2637635,0
164,0.017879,0.7641475,0.030877,-0.146474,0.4920575,-0.027343,-0.294314,0.3815975,-0.079156,0.171056,0.4741075,0.056068,0.273696,0.3275575,0.095854,-0.221074,0.4591275,-0.144306,0.249176,0.4915275,-0.007377,-0.066284,0.0031794999999999,-0.0085,0.066284,-0.0031794999999999,0.0085,-0.1224339999999999,-0.3020224999999999,0.107864,0.133206,-0.3508124999999999,-0.119696,-0.150314,-0.6159325,0.3000939999999999,0.181966,-0.6388725000000001,-0.262816,0
165,0.021672,0.7661555,0.0289915,-0.148309,0.4923754999999999,-0.0266585,-0.2855189999999999,0.3573655,-0.0664464999999999,0.169421,0.4718354999999999,0.0512605,0.263081,0.3091555,0.0828025,-0.222909,0.4039055,-0.1436215,0.246971,0.4676654999999999,-0.0314515,-0.067083,0.0030264999999999,-0.0082835,0.067083,-0.0030265,0.0082835,-0.123809,-0.3003745,0.1093865,0.132981,-0.3495144999999999,-0.1197815,-0.151859,-0.6132345,0.3009585,0.180311,-0.6355845,-0.2618915,0
166,0.024553,0.767507,0.0280064999999999,-0.149968,0.492427,-0.0260915,-0.277108,0.335807,-0.0524515,0.167292,0.472067,0.0487485,0.252262,0.294067,0.0709515,-0.224568,0.346787,-0.1430545,0.243662,0.447087,-0.0550805,-0.067769,0.002721,-0.0080495,0.067769,-0.0027209999999999,0.0080494999999999,-0.1251479999999999,-0.299303,0.1108415,0.132902,-0.348773,-0.1199445,-0.153228,-0.611033,0.3017255,0.178802,-0.632933,-0.2611945,0
167,0.0266509999999999,0.7685395,0.027289,-0.1511239999999999,0.4925595,-0.024938,-0.268884,0.3191394999999999,-0.0368489999999999,0.165276,0.4722895,0.04678,0.242736,0.2854895,0.0615239999999999,-0.225954,0.2893995,-0.142581,0.241006,0.4258395,-0.075121,-0.068263,0.0023694999999999,-0.00788,0.068263,-0.0023695,0.00788,-0.126214,-0.2983805,0.112244,0.132886,-0.3482105,-0.119941,-0.1543439999999999,-0.6091105,0.302359,0.177576,-0.6305005,-0.2606009999999999,0
168,0.028527,0.769004,0.0265825,-0.151698,0.493254,-0.0231775,-0.261638,0.305284,-0.0219954999999999,0.1638919999999999,0.472654,0.0455804999999999,0.235182,0.279054,0.0535235,-0.2271079999999999,0.2385939999999999,-0.1408865,0.237522,0.410504,-0.0900565,-0.068759,0.0020659999999999,-0.0077755,0.068759,-0.0020659999999999,0.0077755,-0.126778,-0.2978659999999999,0.1135735,0.132842,-0.3474359999999999,-0.1199865,-0.154988,-0.607606,0.3027535,0.1768219999999999,-0.628576,-0.2602264999999999,0
169,0.030125,0.768574,0.025876,-0.152291,0.493774,-0.0212479999999999,-0.256211,0.2948639999999999,-0.010049,0.163159,0.472624,0.044681,0.229689,0.273554,0.045819,-0.229731,0.190664,-0.137204,0.233129,0.399924,-0.105054,-0.069361,0.001895,-0.0079059999999999,0.069361,-0.001895,0.007906,-0.127011,-0.298116,0.11445,0.132479,-0.346716,-0.120394,-0.155421,-0.607016,0.302626,0.176559,-0.627496,-0.260444,0
170,0.03181,0.7676065,0.025603,-0.153145,0.4937065,-0.0191359999999999,-0.2529949999999999,0.2885065,-0.0015049999999999,0.162655,0.4724565,0.043938,0.225305,0.2733664999999999,0.03725,-0.234095,0.1526465,-0.130331,0.228525,0.3932965,-0.120191,-0.069904,0.0018284999999999,-0.0081409999999999,0.069904,-0.0018285,0.0081409999999999,-0.127335,-0.2989835,0.115047,0.132035,-0.3466435,-0.121141,-0.155915,-0.6068835,0.302189,0.176375,-0.6270935,-0.261061,0
171,0.03329,0.766544,0.0257309999999999,-0.154519,0.493634,-0.016596,-0.250629,0.284404,0.004069,0.1622009999999999,0.472214,0.042862,0.222041,0.273064,0.029063,-0.237909,0.126421,-0.1191319999999999,0.225411,0.388494,-0.132352,-0.0702499999999999,0.001804,-0.008278,0.0702499999999999,-0.001804,0.0082779999999999,-0.127589,-0.299986,0.115401,0.1317009999999999,-0.346576,-0.121872,-0.156459,-0.606636,0.301488,0.176251,-0.626706,-0.261962,0
172,0.0346014999999999,0.765476,0.0259954999999999,-0.1563115,0.493896,-0.0137755,-0.2493215,0.280726,0.0064824999999999,0.1614685,0.472026,0.0414154999999999,0.2194885,0.272826,0.0222875,-0.2440115,0.109634,-0.1051985,0.2229084999999999,0.385426,-0.1425485,-0.0704704999999999,0.001812,-0.0083565,0.0704704999999999,-0.001812,0.0083565,-0.1278515,-0.301024,0.1152795,0.1314985,-0.346514,-0.1223485,-0.1570615,-0.606434,0.3004115,0.1758185,-0.626274,-0.2632085,0
173,0.035836,0.7645075,0.026197,-0.157407,0.4941475,-0.0114539999999999,-0.249067,0.2773975,0.007731,0.160993,0.4716775,0.040522,0.217483,0.2730775,0.016904,-0.247667,0.0973074999999999,-0.098086,0.221323,0.3834375,-0.149456,-0.070692,0.0018625,-0.008403,0.070692,-0.0018624999999999,0.008403,-0.128087,-0.3020625,0.114885,0.131343,-0.3464525,-0.122906,-0.157637,-0.6064025000000001,0.299214,0.175423,-0.6257125,-0.264566,0
174,0.03726,0.763586,0.026455,-0.1575629999999999,0.494146,-0.009699,-0.249133,0.273836,0.0079969999999999,0.161337,0.471856,0.040982,0.216327,0.273256,0.013995,-0.249963,0.089823,-0.093625,0.220267,0.381926,-0.155125,-0.070793,0.001827,-0.008405,0.070793,-0.001827,0.008405,-0.128333,-0.303104,0.1143869999999999,0.131207,-0.346514,-0.123425,-0.1581729999999999,-0.606514,0.298135,0.175207,-0.625184,-0.265875,0
175,0.0387145,0.7626885,0.026111,-0.1574905,0.4940385,-0.008746,-0.2494005,0.2706584999999999,0.007986,0.1616995,0.4720285,0.041246,0.2156795,0.2734285,0.011324,-0.2508705,0.0855535,-0.09149,0.2195295,0.3813685,-0.16019,-0.0708365,0.0018675,-0.0084629999999999,0.0708365,-0.0018675,0.008463,-0.1287605,-0.3041315,0.113823,0.1309395,-0.3465915,-0.12394,-0.1588705,-0.6066915,0.29709,0.1749395,-0.6246615000000001,-0.26704,0
176,0.040424,0.7618045,0.0246985,-0.157676,0.4941345,-0.0085734999999999,-0.249046,0.2693645,0.0067585,0.162124,0.4720445,0.0406455,0.215574,0.2736045,0.0088085,-0.251006,0.0844235,-0.0911645,0.219334,0.3809645,-0.1627445,-0.070927,0.0020065,-0.0085454999999999,0.070927,-0.0020065,0.0085455,-0.129266,-0.3050255,0.1130595,0.130634,-0.3466955,-0.1244745,-0.159616,-0.6069055,0.2961155,0.174714,-0.6241055,-0.2681745,0
177,0.04255,0.7610224999999999,0.022231,-0.158086,0.4943225,-0.009355,-0.2479759999999999,0.2690425,0.0046559999999999,0.162814,0.4718624999999999,0.0392109999999999,0.215624,0.2730325,0.006366,-0.251666,0.0841674999999999,-0.092679,0.219084,0.3800725,-0.165959,-0.071017,0.0021944999999999,-0.00862,0.071017,-0.0021945,0.00862,-0.129716,-0.3057275,0.112017,0.130504,-0.3469975,-0.125069,-0.160316,-0.6070975000000001,0.295041,0.174584,-0.6235475,-0.2694089999999999,0
178,0.0454765,0.7601929999999999,0.0194405,-0.1583755,0.494493,-0.0110475,-0.2466854999999999,0.269143,0.0024214999999999,0.1639445,0.471443,0.0370345,0.2160445,0.2723029999999999,0.0036124999999999,-0.2523155,0.083894,-0.0942475,0.2192145,0.379043,-0.1693875,-0.0711675,0.0023649999999999,-0.0087295,0.0711675,-0.0023649999999999,0.0087295,-0.1301755,-0.306237,0.1106625,0.1304045,-0.347327,-0.1257375,-0.1610255,-0.6072569999999999,0.2938425,0.1743545,-0.622967,-0.2706375,0
179,0.0495825,0.759315,0.0235025,-0.1574775,0.494245,-0.0060875,-0.2451175,0.269255,0.0050274999999999,0.1669825,0.470265,0.0386745,0.2172525,0.272685,0.0014504999999999,-0.2539975,0.085875,-0.0944945,0.2191025,0.381275,-0.1699145,-0.0717065,0.0026259999999999,-0.0087745,0.0717065,-0.002626,0.0087745,-0.1291075,-0.307005,0.1082385,0.1320625,-0.348115,-0.1269245,-0.1602775,-0.6073550000000001,0.2914954999999999,0.1764525,-0.622355,-0.2728245,0
180,0.0538634999999999,0.758257,0.0217325,-0.1569295,0.493987,-0.0069095,-0.2420995,0.270437,0.0018314999999999,0.1689105,0.469897,0.0382664999999999,0.2184805,0.270677,-0.0020485,-0.2507495,0.0878839999999999,-0.0988495,0.2184805,0.379937,-0.1703395,-0.0716285,0.0026249999999999,-0.0088745,0.0716285,-0.002625,0.0088744999999999,-0.1299195,-0.307483,0.1077245,0.1312105,-0.348563,-0.1271594999999999,-0.1613595,-0.607993,0.2915905,0.1759705,-0.622223,-0.2727495,0
181,0.057911,0.7580475,0.018219,-0.155301,0.4942875,-0.009946,-0.238871,0.2689375,-0.003653,0.170049,0.4696475,0.035675,0.2185689999999999,0.2696475,-0.004757,-0.248341,0.0910084999999999,-0.10348,0.219229,0.3721075,-0.17652,-0.071724,0.0027314999999999,-0.009138,0.071724,-0.0027314999999999,0.0091379999999999,-0.130881,-0.3076025,0.106963,0.129879,-0.3483525,-0.12697,-0.163151,-0.6078725,0.29116,0.174209,-0.6211425,-0.2732,0
182,0.0619935,0.7570184999999999,0.011785,-0.1536215,0.4945585,-0.014351,-0.2389615,0.2686485,-0.0064549999999999,0.1723785,0.4689185,0.0329659999999999,0.2186485,0.2678485,-0.007636,-0.2462815,0.0904035,-0.106998,0.2177885,0.3710685,-0.177808,-0.0716125,0.0027975,-0.0094729999999999,0.0716125,-0.0027975,0.009473,-0.1326915,-0.3079015,0.10585,0.1280585,-0.3487615,-0.127228,-0.1654715,-0.6079515000000001,0.290362,0.1714085,-0.6208215,-0.2742679999999999,0
183,0.068635,0.756548,0.0023864999999999,-0.151275,0.495658,-0.0195765,-0.235535,0.270428,-0.0122495,0.175305,0.468128,0.0289575,0.218345,0.266448,-0.0104924999999999,-0.244335,0.0909099999999999,-0.1091405,0.222885,0.354888,-0.1730305,-0.071387,0.0028899999999999,-0.0094475,0.071387,-0.00289,0.0094475,-0.133405,-0.307362,0.1048045,0.127795,-0.350192,-0.1277905,-0.1670249999999999,-0.607622,0.2902694999999999,0.170795,-0.6207820000000001,-0.2737505,0
184,0.0735955,0.7543495,-0.007767,-0.1481295,0.4967695,-0.026862,-0.2343295,0.2705695,-0.017402,0.1781005,0.4688095,0.023561,0.2185705,0.2651495,-0.015553,-0.2416594999999999,0.0868145,-0.1139969999999999,0.2214505,0.3516795,-0.181547,-0.0710395,0.0029495,-0.009423,0.0710395,-0.0029495,0.0094229999999999,-0.1345795,-0.3073404999999999,0.10445,0.1273705,-0.3516105,-0.128547,-0.1687594999999999,-0.6074505,0.289993,0.1693305,-0.6201605,-0.272877,0
185,0.078702,0.753182,-0.01811,-0.145169,0.4975819999999999,-0.0327139999999999,-0.233069,0.270012,-0.022354,0.181411,0.468672,0.018892,0.218471,0.263962,-0.01781,-0.2410389999999999,0.086853,-0.115538,0.220941,0.3501019999999999,-0.182998,-0.07094,0.003032,-0.009433,0.07094,-0.003032,0.009433,-0.135119,-0.307178,0.104349,0.126921,-0.352018,-0.128318,-0.169919,-0.606988,0.2899919999999999,0.168471,-0.619948,-0.272188,0
