sb224sc-HT22-VT27/4dt907/src/data/labeled_files/B8_kinect.csv
FrameNo,nose_3d_x,nose_3d_y,nose_3d_z,left_shoulder_3d_x,left_shoulder_3d_y,left_shoulder_3d_z,left_elbow_3d_x,left_elbow_3d_y,left_elbow_3d_z,right_shoulder_3d_x,right_shoulder_3d_y,right_shoulder_3d_z,right_elbow_3d_x,right_elbow_3d_y,right_elbow_3d_z,left_wrist_3d_x,left_wrist_3d_y,left_wrist_3d_z,right_wrist_3d_x,right_wrist_3d_y,right_wrist_3d_z,left_hip_3d_x,left_hip_3d_y,left_hip_3d_z,right_hip_3d_x,right_hip_3d_y,right_hip_3d_z,left_knee_3d_x,left_knee_3d_y,left_knee_3d_z,right_knee_3d_x,right_knee_3d_y,right_knee_3d_z,left_ankle_3d_x,left_ankle_3d_y,left_ankle_3d_z,right_ankle_3d_x,right_ankle_3d_y,right_ankle_3d_z,activity_label
0,0.006563,0.7648085,0.028804,-0.173249,0.4968285,0.013815,-0.215219,0.2455585,-0.0008299999999999,0.133821,0.4765185,-0.004845,0.242031,0.2818785,-0.0451839999999999,-0.214439,0.0613735,-0.075356,0.188131,0.4152185,-0.224056,-0.074764,-0.0013815,-0.000675,0.074764,0.0013815,0.000675,-0.093693,-0.3287315,0.042063,0.095593,-0.3147415,0.0562,-0.096437,-0.6622815000000001,0.06991,0.096145,-0.6544115,0.066371,0
1,0.006586,0.7648784999999999,0.0287965,-0.173005,0.4967985,0.0137065,-0.215325,0.2457985,-0.0007945,0.133855,0.4765685,-0.0048354999999999,0.2420649999999999,0.2818685,-0.0452664999999999,-0.214715,0.0619225,-0.0756095,0.1881749999999999,0.4149885,-0.2240694999999999,-0.074763,-0.0013665,-0.0006525,0.074763,0.0013665,0.0006525,-0.093815,-0.3287515,0.0419675,0.095477,-0.3158515,0.0564145,-0.096346,-0.6620115000000001,0.0699955,0.096131,-0.6543115,0.0664015,0
2,0.0066724999999999,0.7647565,0.0286065,-0.1729865,0.4968165,0.0136695,-0.2153965,0.2456065,-0.0009914999999999,0.1338734999999999,0.4765665,-0.0049005,0.2421035,0.2818664999999999,-0.0453074999999999,-0.2146965,0.0619475,-0.0756495,0.1881835,0.4147865,-0.2244495,-0.0747595,-0.0013755,-0.0006255,0.0747595,0.0013755,0.0006255,-0.0938415,-0.3287035,0.0419355,0.0959484999999999,-0.3119435,0.0552875,-0.0962975,-0.6617935,0.0700065,0.0961084999999999,-0.6539935,0.0663785,0
3,0.006684,0.7648320000000001,0.0286,-0.172771,0.4967519999999999,0.01334,-0.215431,0.245672,-0.0009899999999999,0.1338889999999999,0.4765419999999999,-0.0049379999999999,0.2421289999999999,0.2818719999999999,-0.045436,-0.214781,0.0622,-0.075526,0.188209,0.414792,-0.224476,-0.074765,-0.001371,-0.0006139999999999,0.074765,0.001371,0.000614,-0.093276,-0.328458,0.041964,0.095427,-0.314708,0.055772,-0.0965719999999999,-0.662748,0.069456,0.0962079999999999,-0.653868,0.066379,0
4,0.0067244999999999,0.7647484999999999,0.028578,-0.1727985,0.4967885,0.013392,-0.2154384999999999,0.2458185,-0.0010499999999999,0.1338214999999999,0.4764185,-0.0051119999999999,0.2419914999999999,0.2819785,-0.0453349999999999,-0.2148185,0.0623835,-0.075651,0.1882015,0.4150285,-0.2249609999999999,-0.0747675,-0.0013774999999999,-0.000668,0.0747675,0.0013774999999999,0.000668,-0.0932215,-0.3283514999999999,0.041915,0.0952745,-0.3156015,0.056038,-0.0965895,-0.6630615000000001,0.069567,0.0962055,-0.6538015,0.066417,0
5,0.006816,0.764757,0.0286805,-0.172808,0.496847,0.0134865,-0.215398,0.245807,-0.0009814999999999,0.133812,0.476417,-0.0051064999999999,0.242012,0.281977,-0.0450715,-0.214788,0.062384,-0.0755855,0.188232,0.415157,-0.2246955,-0.0747589999999999,-0.0013809999999999,-0.0006294999999999,0.0747589999999999,0.0013809999999999,0.0006295,-0.092867,-0.328273,0.0420075,0.094986,-0.3069329999999999,0.0531045,-0.096408,-0.662293,0.0695535,0.096269,-0.652753,0.0665395,0
6,0.0068595,0.764728,0.028661,-0.1728025,0.4968579999999999,0.013453,-0.2155225,0.246278,-0.0007739999999999,0.1338275,0.476458,-0.0051379999999999,0.2419475,0.281908,-0.04441,-0.2147725,0.062435,-0.075751,0.1882175,0.4153179999999999,-0.224361,-0.0747625,-0.001379,-0.0006009999999999,0.0747625,0.001379,0.0006009999999999,-0.0927375,-0.328282,0.041974,0.0951085,-0.305942,0.053007,-0.0962495,-0.662052,0.0698,0.0963205,-0.652872,0.066813,0
7,0.0068024999999999,0.764807,0.02863,-0.1727085,0.496697,0.013293,-0.2155685,0.246217,-0.00107,0.1338115,0.476467,-0.0051439999999999,0.2423315,0.281437,-0.043695,-0.2148985,0.062681,-0.075894,0.1883515,0.415237,-0.224484,-0.0747665,-0.001372,-0.0005879999999999,0.0747665,0.001372,0.000588,-0.0932885,-0.327713,0.041868,0.0952005,-0.313913,0.055636,-0.0962965,-0.661713,0.0697639999999999,0.0962674999999999,-0.653133,0.066612,0
8,0.006816,0.7648015,0.0286094999999999,-0.172661,0.4966615,0.0132574999999999,-0.215611,0.2463415,-0.0011775,0.133789,0.4764515,-0.0051955,0.242389,0.2813415,-0.0434545,-0.214951,0.0628175,-0.0759815,0.188379,0.4152515,-0.2245215,-0.074769,-0.0013695,-0.0005695,0.074769,0.0013695,0.0005694999999999,-0.093239,-0.3274984999999999,0.0418034999999999,0.095104,-0.3135285,0.0554304999999999,-0.096277,-0.6615885,0.0697435,0.096286,-0.6530285,0.0666345,0
9,0.006826,0.7648105,0.0285985,-0.172613,0.4966305,0.0131875,-0.215683,0.2465005,-0.0012734999999999,0.133767,0.4764605,-0.0052194999999999,0.242457,0.2812705,-0.0431985,-0.214993,0.0629515,-0.0760614999999999,0.188417,0.4153205,-0.2245315,-0.074773,-0.0013655,-0.0005434999999999,0.074773,0.0013655,0.0005435,-0.093193,-0.3273195,0.0417725,0.095003,-0.3128295,0.0552115,-0.096258,-0.6614595,0.0697835,0.096309,-0.6528995000000001,0.0666845,0
10,0.006833,0.7648400000000001,0.0285649999999999,-0.172576,0.49661,0.0130839999999999,-0.2157659999999999,0.24667,-0.001358,0.133754,0.47647,-0.005243,0.242514,0.2812,-0.042935,-0.215056,0.063095,-0.076157,0.188454,0.41545,-0.224537,-0.074777,-0.001365,-0.0005199999999999,0.074777,0.001365,0.0005199999999999,-0.093163,-0.32714,0.041766,0.094899,-0.31284,0.055286,-0.096249,-0.6612699999999999,0.069838,0.096332,-0.6528499999999999,0.0667379999999999,0
11,0.0068394999999999,0.764879,0.0285329999999999,-0.1725395,0.496609,0.0129809999999999,-0.2158295,0.246809,-0.001451,0.1337404999999999,0.476479,-0.005277,0.2425905,0.281139,-0.042749,-0.2151395,0.063232,-0.076265,0.1885005,0.415549,-0.2245349999999999,-0.0747795,-0.001365,-0.000488,0.0747795,0.001365,0.0004879999999999,-0.0931515,-0.326971,0.041761,0.0947865,-0.312691,0.0553149999999999,-0.0962165,-0.6610410000000001,0.0699289999999999,0.0963494999999999,-0.652811,0.066797,0
12,0.006846,0.764918,0.0284975,-0.172512,0.496608,0.0128705,-0.2158919999999999,0.2469279999999999,-0.0015495,0.133728,0.476488,-0.0053134999999999,0.242668,0.281178,-0.0426815,-0.215212,0.063362,-0.0763575,0.188508,0.415648,-0.2244775,-0.074782,-0.001365,-0.0004605,0.074782,0.001365,0.0004604999999999,-0.093153,-0.3268419999999999,0.0417615,0.094655,-0.312602,0.0553474999999999,-0.0961829999999999,-0.660822,0.0700015,0.096363,-0.652772,0.0668485,0
13,0.0068464999999999,0.764939,0.028462,-0.1724835,0.496639,0.012797,-0.2159535,0.247059,-0.0016609999999999,0.1337165,0.4764989999999999,-0.0053469999999999,0.2427065,0.281219,-0.0426229999999999,-0.2152835,0.063444,-0.076448,0.1885164999999999,0.4157389999999999,-0.224448,-0.0747855,-0.001365,-0.0004299999999999,0.0747855,0.001365,0.0004299999999999,-0.0931835,-0.326711,0.041765,0.0945265,-0.313191,0.055627,-0.0961495,-0.660601,0.070076,0.0963735,-0.652731,0.066896,0
14,0.0068445,0.7649805000000001,0.0284274999999999,-0.1724735,0.4966905,0.0127294999999999,-0.2160335,0.2472105,-0.0017925,0.1337065,0.4765205,-0.0053815,0.2427465,0.2812705,-0.0425595,-0.2153435,0.0635385,-0.0765245,0.1885264999999999,0.4158005,-0.2244445,-0.0747895,-0.0013645,-0.0004005,0.0747895,0.0013645,0.0004004999999999,-0.0931835,-0.3266595,0.0417834999999999,0.0944184999999999,-0.3136195,0.0558665,-0.0961325,-0.6603995,0.0701125,0.0963825,-0.6526695,0.0669154999999999,0
15,0.006834,0.765031,0.0283889999999999,-0.1724669999999999,0.496751,0.0126629999999999,-0.216117,0.247351,-0.001847,0.133693,0.4765609999999999,-0.005395,0.242763,0.2813609999999999,-0.042595,-0.215397,0.063624,-0.076553,0.188533,0.415871,-0.224433,-0.074796,-0.001367,-0.000371,0.074796,0.001367,0.0003709999999999,-0.093187,-0.326599,0.041851,0.094404,-0.313559,0.055963,-0.09612,-0.660199,0.070186,0.096402,-0.652609,0.066938,0
16,0.0068315,0.7650954999999999,0.0283495,-0.1724724999999999,0.4968355,0.0125835,-0.2161725,0.2474955,-0.0018685,0.1336875,0.4766155,-0.0054104999999999,0.2427774999999999,0.2814855,-0.0426695,-0.2154525,0.0637305,-0.0765885,0.1885275,0.4159655,-0.2243985,-0.0748055,-0.0013695,-0.0003405,0.0748055,0.0013695,0.0003405,-0.0931965,-0.3264145,0.0419075,0.0944005,-0.3135145,0.0560535,-0.0960965,-0.6600745,0.0702705,0.0964215,-0.6525145,0.0669885,0
17,0.0068344999999999,0.765172,0.028319,-0.1724615,0.496932,0.012483,-0.2162315,0.247662,-0.001895,0.1336885,0.4767019999999999,-0.0054079999999999,0.2427984999999999,0.2816419999999999,-0.042737,-0.2154915,0.063837,-0.076627,0.1885084999999999,0.416072,-0.224367,-0.0748215,-0.00138,-0.0003189999999999,0.0748215,0.00138,0.0003189999999999,-0.0931975,-0.326218,0.04197,0.0944214999999999,-0.313048,0.055984,-0.0960685,-0.659848,0.070338,0.0964545,-0.6523880000000001,0.067056,0
18,0.0068469999999999,0.7652415,0.028273,-0.172446,0.4970315,0.0124209999999999,-0.216266,0.2478115,-0.001911,0.133684,0.4767915,-0.00541,0.2428239999999999,0.2817815,-0.042821,-0.215526,0.0639345,-0.0766709999999999,0.188494,0.4162215,-0.224351,-0.0748379999999999,-0.0013915,-0.0003039999999999,0.0748379999999999,0.0013915,0.0003039999999999,-0.093176,-0.3261185,0.042016,0.094414,-0.3126485,0.05605,-0.0960429999999999,-0.6597284999999999,0.070381,0.096491,-0.6522585,0.067113,0
19,0.0068594999999999,0.765323,0.028244,-0.1724294999999999,0.497133,0.012398,-0.2162995,0.247943,-0.0019209999999999,0.1336905,0.476873,-0.0054119999999999,0.2428505,0.281923,-0.0428709999999999,-0.2155595,0.064055,-0.0766729999999999,0.1884605,0.416353,-0.224343,-0.0748534999999999,-0.001395,-0.0002829999999999,0.0748534999999999,0.001395,0.000283,-0.0931475,-0.325997,0.042063,0.0945115,-0.312027,0.055969,-0.0960044999999999,-0.659627,0.070424,0.0965294999999999,-0.6521170000000001,0.067169,0
20,0.0068729999999999,0.7654044999999999,0.028213,-0.172401,0.4972345,0.012376,-0.216341,0.2480645,-0.0019339999999999,0.133689,0.4769745,-0.0054159999999999,0.242859,0.2820645,-0.042927,-0.215571,0.0641505,-0.076663,0.188409,0.4164945,-0.224373,-0.0748689999999999,-0.0013975,-0.000271,0.0748689999999999,0.0013975,0.000271,-0.093107,-0.3258855,0.042106,0.094612,-0.3113255,0.055882,-0.095971,-0.6595255,0.070462,0.0965689999999999,-0.6519855,0.067217,0
21,0.0068824999999999,0.765475,0.028182,-0.1724165,0.497345,0.0123519999999999,-0.2163865,0.248165,-0.001935,0.1336735,0.477065,-0.005424,0.2428435,0.282325,-0.043195,-0.2155965,0.064241,-0.076655,0.1883135,0.416645,-0.2244149999999999,-0.0748855,-0.001401,-0.000258,0.0748855,0.001401,0.0002579999999999,-0.0930645,-0.325795,0.042155,0.0945544999999999,-0.311335,0.0560419999999999,-0.0959305,-0.6594249999999999,0.07052,0.0966025,-0.6518349999999999,0.0672619999999999,0
22,0.0068989999999999,0.7655645000000001,0.0281495,-0.172426,0.4974544999999999,0.0123355,-0.216426,0.2482645,-0.0019174999999999,0.133674,0.4771645,-0.0054255,0.242844,0.2825845,-0.0434554999999999,-0.215636,0.0643185,-0.0766335,0.188214,0.4167445,-0.2244835,-0.074901,-0.0014025,-0.0002464999999999,0.074901,0.0014025,0.0002465,-0.0930209999999999,-0.3257055,0.0422085,0.094594,-0.3107355,0.0560455,-0.0958799999999999,-0.6593855,0.0705765,0.096638,-0.6517054999999999,0.0673195,0
23,0.006908,0.7656474999999999,0.028112,-0.172444,0.4975475,0.012292,-0.216444,0.2483575,-0.0018799999999999,0.133656,0.4772575,-0.005419,0.242786,0.2828575,-0.043745,-0.215694,0.0643665,-0.076599,0.188086,0.4168475,-0.224539,-0.074915,-0.0014025,-0.0002219999999999,0.074915,0.0014025,0.0002219999999999,-0.0929899999999999,-0.3256425,0.042276,0.094696,-0.3104025,0.056119,-0.095828,-0.6593825000000001,0.070644,0.096671,-0.6515625,0.067381,0
24,0.006915,0.765745,0.0280839999999999,-0.172459,0.497635,0.0122379999999999,-0.216479,0.2484249999999999,-0.0018419999999999,0.133651,0.477345,-0.005427,0.242691,0.283215,-0.044222,-0.215739,0.06442,-0.076547,0.187931,0.416935,-0.224617,-0.07493,-0.001397,-0.0001999999999999,0.07493,0.001397,0.0001999999999999,-0.092959,-0.325565,0.04235,0.09472,-0.310465,0.056186,-0.095798,-0.659485,0.0707059999999999,0.096694,-0.651455,0.0674329999999999,0
25,0.0069104999999999,0.7658130000000001,0.028072,-0.1724985,0.4977029999999999,0.0121949999999999,-0.2165085,0.248453,-0.001813,0.1336415,0.477413,-0.005435,0.2426114999999999,0.283533,-0.044651,-0.2158085,0.064445,-0.0765,0.1878014999999999,0.416963,-0.2247199999999999,-0.0749415,-0.0013909999999999,-0.0001789999999999,0.0749415,0.0013909999999999,0.0001789999999999,-0.0929285,-0.325527,0.042381,0.0948685,-0.310447,0.0560829999999999,-0.0957675,-0.6596069999999999,0.070753,0.0967145,-0.6513869999999999,0.067473,0
26,0.006892,0.765864,0.0280695,-0.172522,0.497754,0.0121825,-0.2165419999999999,0.248444,-0.0017835,0.133628,0.477474,-0.0054395,0.242518,0.283824,-0.0450315,-0.215862,0.064456,-0.0764495,0.187688,0.416984,-0.2248095,-0.074948,-0.0013779999999999,-0.0001454999999999,0.074948,0.0013779999999999,0.0001454999999999,-0.092902,-0.325486,0.0424365,0.095011,-0.309956,0.0559725,-0.0957409999999999,-0.6598360000000001,0.0708034999999999,0.096747,-0.6512960000000001,0.0675185,0
27,0.0068449999999999,0.7659105,0.0280775,-0.172555,0.4978005,0.0121675,-0.216565,0.2484205,-0.0017604999999999,0.133615,0.4775305,-0.0054554999999999,0.242425,0.2841105,-0.0453804999999999,-0.215915,0.0644375,-0.0764335,0.187575,0.4170105,-0.2249135,-0.0749519999999999,-0.0013665,-0.0001134999999999,0.0749519999999999,0.0013665,0.0001135,-0.092867,-0.3254595,0.0424865,0.0951239999999999,-0.3094395,0.0557925,-0.095705,-0.6600795,0.0708785,0.0967859999999999,-0.6512295,0.0675625,0
28,0.006793,0.765959,0.02812,-0.172593,0.497829,0.0121579999999999,-0.216603,0.248399,-0.001731,0.133607,0.477579,-0.005459,0.242357,0.284389,-0.045825,-0.215963,0.064441,-0.076406,0.187507,0.417019,-0.225036,-0.074955,-0.001359,-8.400000000000074e-05,0.074955,0.001359,8.39999999999938e-05,-0.0928259999999999,-0.325421,0.0425329999999999,0.095235,-0.308691,0.0555829999999999,-0.0956569999999999,-0.6602410000000001,0.0709569999999999,0.096826,-0.6511610000000001,0.067619,0
29,0.006718,0.766018,0.0281645,-0.172624,0.497858,0.0121514999999999,-0.2166239999999999,0.248438,-0.0016994999999999,0.133606,0.477618,-0.0054535,0.242316,0.284688,-0.0462724999999999,-0.216004,0.06448,-0.0763815,0.187496,0.417088,-0.2251415,-0.074959,-0.001352,-5.050000000000193e-05,0.074959,0.001352,5.050000000000193e-05,-0.092788,-0.325272,0.0425325,0.095346,-0.3082419999999999,0.0553634999999999,-0.095608,-0.660212,0.0710385,0.096862,-0.651112,0.0676674999999999,0
30,0.0066254999999999,0.766107,0.028214,-0.1726545,0.497887,0.012154,-0.2166445,0.248477,-0.0016569999999999,0.1336055,0.477667,-0.005441,0.2423455,0.284847,-0.046486,-0.2160545,0.0645189999999999,-0.076353,0.1875254999999999,0.417157,-0.225223,-0.0749615,-0.001346,-1.9999999999999185e-05,0.0749615,0.001346,1.9999999999999185e-05,-0.0927425,-0.3251429999999999,0.042535,0.0953965,-0.308303,0.055317,-0.0955595,-0.660093,0.071134,0.0968904999999999,-0.651053,0.067715,0
31,0.0065074999999999,0.766236,0.0282669999999999,-0.1726855,0.497926,0.0121719999999999,-0.2166755,0.248516,-0.001614,0.1336145,0.4777059999999999,-0.00542,0.2423745,0.285026,-0.046713,-0.2161055,0.0645579999999999,-0.0764499999999999,0.1875544999999999,0.417246,-0.22529,-0.0749645,-0.001345,0.0,0.0749645,0.001345,0.0,-0.0926945,-0.325144,0.042588,0.0954645,-0.308264,0.0553189999999999,-0.0955235,-0.660054,0.071237,0.0969194999999999,-0.651004,0.067771,0
32,0.0063515,0.7664030000000001,0.0283075,-0.1726915,0.497973,0.0121964999999999,-0.2167215,0.2485629999999999,-0.0016315,0.1336284999999999,0.477763,-0.0054094999999999,0.2423985,0.285203,-0.0469605,-0.2161915,0.064711,-0.0768465,0.1875784999999999,0.417353,-0.2253865,-0.0749674999999999,-0.0013449999999999,2.2500000000001685e-05,0.0749674999999999,0.001345,-2.2500000000001685e-05,-0.0926385,-0.325177,0.0426075,0.0955145,-0.307947,0.0551395,-0.0954895,-0.6600269999999999,0.0713065,0.0969434999999999,-0.650967,0.0678095,0
33,0.00615,0.7666105,0.0284074999999999,-0.172694,0.4980005,0.0122284999999999,-0.216934,0.2488305,-0.0015985,0.133656,0.4778105,-0.0053775,0.242506,0.2852905,-0.0470895,-0.216424,0.0650795,-0.0775345,0.187636,0.4174205,-0.2254645,-0.074972,-0.0013405,5.55e-05,0.074972,0.0013405,-5.55e-05,-0.09259,-0.3251995,0.0426444999999999,0.095638,-0.3075795,0.0550465,-0.095452,-0.6599995,0.0713824999999999,0.096967,-0.6509295,0.0678445,0
34,0.0059014999999999,0.7668505,0.0285929999999999,-0.1726625,0.4980205,0.0122619999999999,-0.2173125,0.2494605,-0.001615,0.1336875,0.4778505,-0.005344,0.2427075,0.2853705,-0.047244,-0.2168425,0.0659545,-0.078741,0.1877975,0.4175205,-0.225621,-0.0749765,-0.0013385,8.89999999999988e-05,0.0749765,0.0013385,-8.900000000000574e-05,-0.0925375,-0.3252195,0.0426919999999999,0.0957345,-0.3072395,0.0549109999999999,-0.0954055,-0.6597095,0.071463,0.0969985,-0.6509095,0.067896,0
35,0.0055945,0.767165,0.0289105,-0.1726155,0.4980549999999999,0.0123064999999999,-0.2178455,0.250465,-0.0016715,0.1337245,0.477885,-0.0053295,0.2430345,0.285505,-0.0474595,-0.2174154999999999,0.067559,-0.0811465,0.1881145,0.417655,-0.2256165,-0.0749815,-0.001334,0.0001034999999999,0.0749815,0.001334,-0.0001035,-0.0924905,-0.325255,0.0427125,0.0957715,-0.307685,0.0549225,-0.0953485,-0.659435,0.0715125,0.0970355,-0.6509050000000001,0.0679545,0
36,0.0052664999999999,0.767475,0.029277,-0.1725695,0.498135,0.01236,-0.2187195,0.252345,-0.001791,0.1337805,0.477935,-0.0053399999999999,0.2435305,0.285665,-0.047624,-0.2186595,0.070839,-0.085147,0.1886905,0.417975,-0.225897,-0.0749905,-0.001334,0.000114,0.0749905,0.001334,-0.000114,-0.0924365,-0.325265,0.04271,0.0959334999999999,-0.307685,0.054844,-0.0953125,-0.659065,0.071523,0.0970735,-0.6509050000000001,0.0679869999999999,0
37,0.0049205,0.767795,0.029677,-0.1724935,0.498255,0.0124249999999999,-0.2200635,0.2551049999999999,-0.0019199999999999,0.1338965,0.478005,-0.005359,0.2442365,0.286135,-0.048006,-0.2206235,0.07644,-0.090968,0.1895565,0.418725,-0.226178,-0.0750015,-0.001334,0.000135,0.0750015,0.001334,-0.000135,-0.0923565,-0.325265,0.042685,0.0961154999999999,-0.307945,0.054784,-0.0952695,-0.658765,0.071502,0.0971305,-0.6509050000000001,0.068018,0
38,0.0045645,0.7681709999999999,0.0301815,-0.1723595,0.498421,0.0125025,-0.2219495,0.2589809999999999,-0.0020764999999999,0.1341304999999999,0.478131,-0.0053284999999999,0.2454805,0.2870609999999999,-0.0489715,-0.2238795,0.085227,-0.0991184999999999,0.1911405,0.419581,-0.2266385,-0.0750165,-0.00133,0.0001645,0.0750165,0.0013299999999999,-0.0001644999999999,-0.0922625,-0.325229,0.0426765,0.0963555,-0.308629,0.0549045,-0.0952094999999999,-0.658599,0.0714715,0.0972165,-0.650949,0.0680465,0
39,0.0042244999999999,0.768529,0.0307495,-0.1721555,0.498659,0.0126255,-0.2241155,0.264349,-0.0023105,0.1345045,0.478309,-0.0053034999999999,0.2472745,0.288519,-0.0505844999999999,-0.2279655,0.096815,-0.1095955,0.1932945,0.421199,-0.2272754999999999,-0.0750405,-0.001311,0.0002295,0.0750405,0.001311,-0.0002295,-0.0921085,-0.325181,0.0426335,0.0966364999999999,-0.308921,0.0548425,-0.0950564999999999,-0.658231,0.0713965,0.0973815,-0.651021,0.0680365,0
40,0.0038974999999999,0.7688254999999999,0.0313275,-0.1718965,0.4989254999999999,0.0127965,-0.2265065,0.2711154999999999,-0.0027804999999999,0.1350434999999999,0.4785755,-0.0052465,0.2498735,0.2907355,-0.0528205,-0.2333165,0.1130255,-0.1208284999999999,0.1963035,0.4241355,-0.2288484999999999,-0.0750685,-0.0012875,0.0002974999999999,0.0750685,0.0012874999999999,-0.0002974999999999,-0.0919295,-0.3251145,0.0425825,0.0968155,-0.3089745,0.0547795,-0.0948944999999999,-0.6580745,0.0713155,0.0975655,-0.6511345000000001,0.0680175,0
41,0.0035535,0.769065,0.03196,-0.1715864999999999,0.499195,0.013082,-0.2300765,0.279245,-0.0040369999999999,0.1357935,0.479025,-0.0050979999999999,0.2531935,0.294855,-0.056679,-0.2389264999999999,0.133595,-0.137331,0.1997534999999999,0.428995,-0.2310209999999999,-0.0751035,-0.001253,0.000382,0.0751035,0.0012529999999999,-0.000382,-0.0918035,-0.325185,0.0425,0.0969855,-0.309275,0.054667,-0.0947905,-0.658145,0.071206,0.0977535,-0.651215,0.067971,0
42,0.003204,0.769259,0.032629,-0.171266,0.499459,0.0134009999999999,-0.235406,0.288959,-0.009593,0.137214,0.480249,-0.004551,0.256874,0.299699,-0.060692,-0.244656,0.157979,-0.15764,0.204014,0.435639,-0.23364,-0.075136,-0.00122,0.0004809999999999,0.075136,0.00122,-0.000481,-0.091676,-0.3251909999999999,0.042418,0.097176,-0.3096109999999999,0.0545839999999999,-0.094725,-0.658111,0.071111,0.097936,-0.651331,0.067916,0
43,0.0028495,0.7693525,0.033319,-0.1710344999999999,0.4996025,0.013685,-0.2405545,0.2984524999999999,-0.0153439999999999,0.1388855,0.4817525,-0.00383,0.2617355,0.3062824999999999,-0.0658359999999999,-0.2518745,0.1863725,-0.177736,0.2092355,0.4445825,-0.236726,-0.0751695,-0.0011684999999999,0.0006169999999999,0.0751695,0.0011684999999999,-0.0006169999999999,-0.0915385,-0.3252575,0.042313,0.0973645,-0.3101875,0.054629,-0.0946685,-0.6581775,0.070977,0.0981275,-0.6515175,0.067817,0
44,0.002483,0.7694155,0.03405,-0.170822,0.4996855,0.013975,-0.246182,0.3078155,-0.02151,0.1407479999999999,0.4833055,-0.003033,0.267338,0.3148355,-0.071945,-0.259522,0.2201955,-0.196785,0.215358,0.4560055,-0.239845,-0.075209,-0.0011115,0.0007689999999999,0.075209,0.0011115,-0.0007689999999999,-0.0913809999999999,-0.3254245,0.042236,0.0975709999999999,-0.3108245,0.054653,-0.094608,-0.6582645,0.070836,0.098324,-0.6517145,0.067698,0
45,0.0020824999999999,0.7694705,0.0348999999999999,-0.1706234999999999,0.4997505,0.0142269999999999,-0.2536635,0.3185805,-0.028212,0.1426865,0.4849205,-0.00215,0.2738865,0.3259005,-0.078792,-0.2697035,0.2572705,-0.214322,0.2222265,0.4698405,-0.242962,-0.0752485,-0.0010645,0.0009129999999999,0.0752485,0.0010645,-0.000913,-0.0912455,-0.3255895,0.0421429999999999,0.0978065,-0.3112795,0.0545439999999999,-0.0945735,-0.6584195,0.070658,0.0985085,-0.6519595,0.067561,0
46,0.0016329999999999,0.769533,0.035889,-0.17045,0.499763,0.014465,-0.26366,0.328763,-0.035346,0.14482,0.486523,-0.0012379999999999,0.28156,0.339213,-0.086616,-0.28025,0.298183,-0.230696,0.22967,0.486213,-0.246416,-0.0752829999999999,-0.001019,0.00109,0.0752829999999999,0.001019,-0.0010899999999999,-0.091092,-0.325837,0.041989,0.098031,-0.3116569999999999,0.054396,-0.094584,-0.658617,0.070417,0.0986789999999999,-0.652227,0.067359,0
47,0.0011534999999999,0.769561,0.036985,-0.1703285,0.499731,0.014591,-0.2740585,0.339721,-0.0429009999999999,0.1470215,0.488081,-0.0003279999999999,0.2897515,0.355351,-0.094641,-0.2900485,0.341401,-0.2451809999999999,0.2373515,0.505561,-0.248191,-0.0753145,-0.000984,0.001261,0.0753145,0.000984,-0.0012609999999999,-0.0909555,-0.326069,0.041814,0.0981904999999999,-0.312559,0.054357,-0.0946315,-0.658899,0.070171,0.0988125,-0.652469,0.06709,0
48,0.0006419999999999,0.7695325000000001,0.0381394999999999,-0.170176,0.4995925,0.0147944999999999,-0.285246,0.3532125,-0.0534045,0.149424,0.4897425,0.0008314999999999,0.298004,0.3714925,-0.1007015,-0.2997459999999999,0.3876625,-0.2571515,0.245134,0.5265625,-0.2484215,-0.075339,-0.0009584999999999,0.0013914999999999,0.075339,0.0009584999999999,-0.0013915,-0.090865,-0.3263775,0.0417034999999999,0.098278,-0.3135575,0.0543614999999999,-0.094725,-0.6592675,0.0699735,0.09888,-0.6527875,0.0668675,0
49,9.00000000000024e-05,0.7694975000000001,0.039542,-0.1699919999999999,0.4995175,0.015078,-0.296772,0.3672375,-0.0642409999999999,0.1519579999999999,0.4916475,0.002391,0.306428,0.3893275,-0.1055509999999999,-0.308432,0.4336175,-0.267631,0.252918,0.5520675,-0.248541,-0.075363,-0.0009625,0.001432,0.075363,0.0009625,-0.0014319999999999,-0.090824,-0.3267725,0.04174,0.098279,-0.3145025,0.054572,-0.094876,-0.6597124999999999,0.069819,0.098924,-0.6531625,0.066748,0
50,-0.0004185,0.769346,0.040972,-0.1701145,0.4995759999999999,0.014999,-0.3070645,0.387706,-0.077401,0.1544955,0.493496,0.003918,0.3145555,0.405846,-0.107881,-0.3167645,0.479556,-0.2712409999999999,0.2611555,0.575796,-0.2486509999999999,-0.0753745,-0.000973,0.0014699999999999,0.0753745,0.000973,-0.0014699999999999,-0.0907745,-0.327334,0.041781,0.0982395,-0.315624,0.054798,-0.0949635,-0.660324,0.069686,0.0989815,-0.653694,0.066648,0
51,-0.000889,0.7691304999999999,0.0424375,-0.170294,0.4998405,0.0149535,-0.3149639999999999,0.4063104999999999,-0.0863464999999999,0.156586,0.4946405,0.0051375,0.322746,0.4224004999999999,-0.1113765,-0.324484,0.5263105,-0.2712565,0.269676,0.5977705,-0.2487265,-0.075387,-0.0009564999999999,0.0014665,0.075387,0.0009564999999999,-0.0014664999999999,-0.090732,-0.3279895,0.0418485,0.098124,-0.3167095,0.0551155,-0.095049,-0.6611195,0.0695975,0.099047,-0.6543595,0.0665725,0
52,-0.0013195,0.7687355,0.043804,-0.1704755,0.5001555,0.01491,-0.3228654999999999,0.4282055,-0.0967209999999999,0.1587044999999999,0.4955855,0.006195,0.3297245,0.4375955,-0.113131,-0.3300455,0.5724955,-0.271281,0.2780945,0.6180355,-0.246841,-0.0753935,-0.0009005,0.001423,0.0753935,0.0009004999999999,-0.001423,-0.0906925,-0.3288145,0.041915,0.0980304999999999,-0.3179045,0.055415,-0.0951875,-0.6621245,0.069509,0.0991275,-0.6553545,0.066479,0
53,-0.0016635,0.767905,0.0449905,-0.1705775,0.5011249999999999,0.0145565,-0.3293175,0.4523149999999999,-0.1064925,0.1608625,0.496645,0.0072075,0.3356125,0.453105,-0.1132724999999999,-0.3350175,0.616045,-0.2713925,0.2862425,0.636965,-0.2430225,-0.0753945,-0.0008489999999999,0.0013015,0.0753945,0.0008489999999999,-0.0013014999999999,-0.0906265,-0.329995,0.0418125,0.0979424999999999,-0.319445,0.0556245,-0.0953644999999999,-0.663675,0.0693495,0.0992115,-0.6567350000000001,0.0663105,0
54,-0.0019344999999999,0.7667269999999999,0.045908,-0.1706005,0.502317,0.013722,-0.3324805,0.477227,-0.115741,0.1630595,0.497807,0.008116,0.3382095,0.470667,-0.113481,-0.3361805,0.656887,-0.269991,0.2936795,0.6573669999999999,-0.237871,-0.0754055,-0.0007819999999999,0.0011029999999999,0.0754055,0.000782,-0.0011029999999999,-0.0905445,-0.331493,0.041611,0.0978205,-0.320903,0.05562,-0.0955445,-0.665493,0.069107,0.0992825,-0.658413,0.066079,0
55,-0.0021205,0.7652135,0.046664,-0.1705404999999999,0.5038035000000001,0.012953,-0.3324305,0.5039835,-0.120572,0.1646695,0.4991535,0.009151,0.3388695,0.4857935,-0.113572,-0.3361105,0.6951935,-0.267362,0.3007295,0.6772335,-0.231432,-0.0754145,-0.0007014999999999,0.000995,0.0754145,0.0007014999999999,-0.000995,-0.0904275,-0.3332765,0.04152,0.0977985,-0.3222064999999999,0.055472,-0.0956605,-0.6675865,0.0689849999999999,0.0993874999999999,-0.6603065,0.06596,0
56,-0.0022089999999999,0.7633165000000001,0.0472569999999999,-0.170448,0.5056765,0.0124529999999999,-0.332358,0.5313665,-0.124833,0.165972,0.5006365,0.0104389999999999,0.338962,0.4981365,-0.113103,-0.336008,0.7293865,-0.264433,0.307122,0.6954065,-0.2240329999999999,-0.075423,-0.0006064999999999,0.0008559999999999,0.075423,0.0006065,-0.000856,-0.09028,-0.3351335,0.0414659999999999,0.097805,-0.3243534999999999,0.0554609999999999,-0.095728,-0.6698935,0.068912,0.099529,-0.6625535,0.065921,0
57,-0.0022339999999999,0.7611224999999999,0.047807,-0.170122,0.5078825,0.012196,-0.3322319999999999,0.5577424999999999,-0.1254839999999999,0.1667779999999999,0.5019724999999999,0.011634,0.339088,0.5151325,-0.111494,-0.335872,0.7615025,-0.260534,0.312888,0.7140225,-0.2151639999999999,-0.075432,-0.0005055,0.000747,0.075432,0.0005054999999999,-0.0007469999999999,-0.0900499999999999,-0.3370875,0.041554,0.09777,-0.3267875,0.055551,-0.0957819999999999,-0.6726975000000001,0.068933,0.099715,-0.6650775,0.06598,0
58,-0.0022054999999999,0.7584679999999999,0.0481724999999999,-0.1694575,0.510488,0.0119234999999999,-0.3292374999999999,0.585618,-0.1253185,0.1672825,0.503198,0.0125734999999999,0.3392625,0.5326979999999999,-0.1077085,-0.3351275,0.792548,-0.2531985,0.3175825,0.730308,-0.2040684999999999,-0.0754445,-0.000414,0.0005714999999999,0.0754445,0.0004139999999999,-0.0005715,-0.0898345,-0.339462,0.0417294999999999,0.0976775,-0.329252,0.0557275,-0.0957275,-0.675942,0.0690615,0.0999445,-0.668012,0.0661265,0
59,-0.0021814999999999,0.755616,0.0483839999999999,-0.1684845,0.513396,0.0116889999999999,-0.3252345,0.606576,-0.125154,0.1681554999999999,0.504186,0.013484,0.3386155,0.550366,-0.1028639999999999,-0.3336845,0.819136,-0.244874,0.3210955,0.748036,-0.1933139999999999,-0.0754425,-0.000372,0.000396,0.0754425,0.000372,-0.000396,-0.0895975,-0.342034,0.041878,0.0974245,-0.331284,0.055746,-0.0956745,-0.679384,0.069188,0.1001715,-0.671104,0.066273,0
60,-0.002129,0.7523445,0.0485645,-0.167322,0.5160045,0.0114044999999999,-0.319162,0.6281445,-0.1249935,0.1687179999999999,0.5052845,0.0144534999999999,0.336988,0.5683845000000001,-0.0982535,-0.331302,0.8420545,-0.2354534999999999,0.323128,0.7667745,-0.1830735,-0.075437,-0.0003855,0.0002155,0.075437,0.0003854999999999,-0.0002155,-0.089353,-0.3447854999999999,0.0419835,0.097111,-0.3333954999999999,0.0557084999999999,-0.0956019999999999,-0.6832455,0.0693215,0.100419,-0.6745855,0.0664245,0
61,-0.0021305,0.749085,0.0487035,-0.1660875,0.5185949999999999,0.0112225,-0.3126475,0.647385,-0.1245355,0.1694125,0.506425,0.0154015,0.3338525,0.586965,-0.0932455,-0.3286475,0.861895,-0.2257154999999999,0.3240725,0.785945,-0.1728955,-0.0754185,-0.00046,0.0001495,0.0754185,0.0004599999999999,-0.0001494999999999,-0.0891645,-0.347485,0.0419665,0.0967194999999999,-0.3352549999999999,0.0554385,-0.0955274999999999,-0.687165,0.0694015,0.1005524999999999,-0.6782050000000001,0.0665365,0
62,-0.0021485,0.7457644999999999,0.0489024999999999,-0.1647705,0.5204845,0.0114174999999999,-0.3061105,0.6646145,-0.1204165,0.1697795,0.5081045,0.0169124999999999,0.3296095,0.6043645,-0.0879265,-0.3260004999999999,0.8803845,-0.2154665,0.3242095,0.8046045,-0.1631665,-0.0754005,-0.0005735,0.0001714999999999,0.0754005,0.0005735,-0.0001715,-0.0889805,-0.3501355,0.0420085,0.0963195,-0.3370355,0.0552005,-0.0954305,-0.6909255,0.0696005,0.1006745,-0.6818355,0.0667265,0
63,-0.0021829999999999,0.7426145,0.0490395,-0.163612,0.5223644999999999,0.0116295,-0.299242,0.6794344999999999,-0.1155815,0.169868,0.5095244999999999,0.0184035,0.3243479999999999,0.6180945,-0.0821515,-0.323692,0.8970444999999999,-0.2054615,0.324338,0.8225944999999999,-0.1524115,-0.075374,-0.0006955,0.0003065,0.075374,0.0006955,-0.0003065,-0.088817,-0.3525355,0.0420375,0.096036,-0.3385154999999999,0.0548655,-0.095372,-0.6944955,0.0698155,0.1007629999999999,-0.6853055,0.0669415,0
64,-0.00225,0.739612,0.04912,-0.162598,0.5240520000000001,0.011875,-0.292078,0.6925220000000001,-0.108553,0.169782,0.5112720000000001,0.019801,0.318392,0.632932,-0.076623,-0.321598,0.911672,-0.1945629999999999,0.324422,0.838302,-0.1419929999999999,-0.075346,-0.0007959999999999,0.000467,0.075346,0.000796,-0.000467,-0.088675,-0.354848,0.04208,0.095723,-0.339898,0.054529,-0.095338,-0.698078,0.0700959999999999,0.1008169999999999,-0.6885779999999999,0.06719,0
65,-0.0023554999999999,0.7368915,0.049139,-0.1612115,0.5255015000000001,0.012305,-0.2855415,0.7038615,-0.101245,0.1692785,0.5129015,0.021079,0.3123885,0.6480815000000001,-0.070715,-0.3192215,0.9250315,-0.182715,0.3244285,0.8553815,-0.130885,-0.0753195,-0.0009364999999999,0.0007629999999999,0.0753195,0.0009364999999999,-0.0007629999999999,-0.0884995,-0.3566785,0.042105,0.0953895,-0.3397385,0.0539469999999999,-0.0953115,-0.7013585,0.070412,0.1008465,-0.6916684999999999,0.067491,0
66,-0.0025109999999999,0.7344905,0.0491825,-0.15996,0.5268605,0.0133364999999999,-0.2799,0.7125805,-0.0934245,0.1688,0.5146105,0.0224254999999999,0.30822,0.6586905,-0.0644245,-0.3172199999999999,0.9350605,-0.1705545,0.32414,0.8702605,-0.1201445,-0.075318,-0.0010775,0.0011525,0.075318,0.0010775,-0.0011525,-0.08837,-0.3585295,0.0422064999999999,0.095101,-0.3397495,0.0535675,-0.09533,-0.7044595,0.0707985,0.100839,-0.6946295,0.0678805,0
67,-0.002641,0.7324695,0.049086,-0.159089,0.5278895,0.0143179999999999,-0.277049,0.7180995,-0.089087,0.168341,0.5161795,0.0237469999999999,0.304331,0.6670794999999999,-0.058647,-0.315809,0.9419995,-0.159997,0.323271,0.8820095,-0.111467,-0.075317,-0.0011824999999999,0.0014699999999999,0.075317,0.0011825,-0.00147,-0.088259,-0.3600405,0.042223,0.0948779999999999,-0.3399405,0.053285,-0.095339,-0.7071905,0.0711229999999999,0.100828,-0.6972705,0.068187,0
68,-0.0027209999999999,0.7306984999999999,0.0489334999999999,-0.158462,0.5286584999999999,0.0151224999999999,-0.2740519999999999,0.7227684999999999,-0.0843035,0.167808,0.5179784999999999,0.0251284999999999,0.300658,0.6756385,-0.0527595,-0.314512,0.9491685,-0.1489935,0.322018,0.8931285,-0.1021535,-0.075312,-0.0012405,0.0017734999999999,0.075312,0.0012404999999999,-0.0017735,-0.088148,-0.3613015,0.0422184999999999,0.094776,-0.3404015,0.0530885,-0.095352,-0.7096815000000001,0.0714305,0.100816,-0.6996515000000001,0.0684765,0
69,-0.002829,0.7292664999999999,0.048627,-0.157918,0.5294865,0.0157339999999999,-0.271418,0.7271065,-0.079468,0.167382,0.5198765,0.026462,0.2971819999999999,0.6836565,-0.047584,-0.313288,0.9556065,-0.138218,0.3205019999999999,0.9019465,-0.093228,-0.075273,-0.0012515,0.0020229999999999,0.075273,0.0012514999999999,-0.002023,-0.088088,-0.3625535,0.042175,0.094677,-0.3408235,0.052857,-0.095418,-0.7120435,0.071712,0.100736,-0.7017835,0.068693,0
70,-0.0030014999999999,0.7278725,0.0483249999999999,-0.1576034999999999,0.5306225,0.0164269999999999,-0.2692735,0.7305825,-0.074682,0.1668565,0.5214325,0.0277249999999999,0.2937565,0.6912625,-0.042478,-0.3121635,0.9617725,-0.127132,0.3189765,0.9092925,-0.084702,-0.0752255,-0.0012624999999999,0.0022379999999999,0.0752255,0.0012624999999999,-0.002238,-0.0881285,-0.3636075,0.0420969999999999,0.0945304999999999,-0.3410975,0.052631,-0.0956035,-0.7143075,0.071933,0.1005695,-0.7038175,0.068887,0
71,-0.00316,0.7269985,0.0479925,-0.157378,0.5317485000000001,0.0170655,-0.267558,0.7337185,-0.0699945,0.166482,0.5222085000000001,0.0283665,0.290802,0.6977285000000001,-0.0378725,-0.310928,0.9659985,-0.1170244999999999,0.317612,0.9157585,-0.0766044999999999,-0.075192,-0.0012474999999999,0.0024055,0.075192,0.0012475,-0.0024054999999999,-0.088152,-0.3642915,0.0419725,0.0943749999999999,-0.3410815,0.0524155,-0.095788,-0.7160715,0.0721325,0.100393,-0.7054914999999999,0.0690585,0
72,-0.003341,0.726355,0.047611,-0.157257,0.532705,0.017672,-0.2661469999999999,0.736475,-0.06561,0.166283,0.522995,0.028938,0.288133,0.703265,-0.0335059999999999,-0.3096569999999999,0.969905,-0.10708,0.316333,0.918635,-0.06977,-0.075183,-0.00124,0.002572,0.075183,0.0012399999999999,-0.0025719999999999,-0.088199,-0.364895,0.041821,0.094194,-0.340955,0.052188,-0.0960169999999999,-0.717635,0.072287,0.1002089999999999,-0.706915,0.069199,0
73,-0.0035025,0.7258505000000001,0.0472545,-0.1572465,0.5335405000000001,0.0182885,-0.2649865,0.7389605,-0.0615355,0.1661135,0.5231205,0.0295025,0.2860034999999999,0.7077205000000001,-0.0295404999999999,-0.3086065,0.9723305,-0.0985655,0.3151434999999999,0.9213305,-0.0631755,-0.0751905,-0.0012565,0.0027454999999999,0.0751905,0.0012565,-0.0027454999999999,-0.0882335,-0.3652995,0.0416525,0.0941205,-0.3405495,0.0518595,-0.0962365,-0.7189295,0.0724664999999999,0.1000355,-0.7081495,0.0693635,0
74,-0.003658,0.725421,0.046968,-0.157191,0.534401,0.01885,-0.264011,0.740691,-0.057815,0.165649,0.523131,0.030019,0.284169,0.711601,-0.0260779999999999,-0.307791,0.974611,-0.090842,0.314169,0.921841,-0.0578249999999999,-0.0752,-0.001229,0.00288,0.0752,0.001229,-0.00288,-0.08828,-0.366119,0.041647,0.0941,-0.341399,0.051908,-0.096451,-0.720099,0.07268,0.099859,-0.709209,0.069533,0
75,-0.0038045,0.7250264999999999,0.0466964999999999,-0.1571595,0.5350765,0.0193444999999999,-0.2631795,0.7420065,-0.0544545,0.1652905,0.5229965,0.0305024999999999,0.2827205,0.7149065,-0.0232725,-0.3071695,0.9764965,-0.0844455,0.3132105,0.9213765,-0.0530635,-0.0752085,-0.0011974999999999,0.0030274999999999,0.0752085,0.0011975,-0.0030275,-0.0883114999999999,-0.3669334999999999,0.0416034999999999,0.0940834999999999,-0.3422135,0.0519645,-0.0966495,-0.7211435,0.0728584999999999,0.0996995,-0.7101335000000001,0.0696675,0
76,-0.0039434999999999,0.7247285,0.046488,-0.1571575,0.5355985000000001,0.019804,-0.2625575,0.7430185,-0.0516169999999999,0.1649324999999999,0.5226485000000001,0.030735,0.2816825,0.7174385000000001,-0.0210719999999999,-0.3066375,0.9783385,-0.0788659999999999,0.3124024999999999,0.9206485,-0.0488279999999999,-0.0752155,-0.0011664999999999,0.003156,0.0752155,0.0011665,-0.0031559999999999,-0.0883455,-0.3675915,0.041519,0.0940915,-0.3429415,0.052003,-0.0968475,-0.7220015,0.072992,0.0995415,-0.7109515,0.069753,0
77,-0.0040525,0.7245105000000001,0.0463285,-0.1571515,0.5359905,0.0201775,-0.2621315,0.7439405,-0.0493134999999999,0.1646685,0.5221505,0.0310265,0.2809085,0.7190705000000001,-0.0194025,-0.3061315,0.9797305,-0.0743445,0.3117585,0.9199405,-0.0463195,-0.0752265,-0.0011374999999999,0.0032524999999999,0.0752265,0.0011374999999999,-0.0032524999999999,-0.0883645,-0.3680995,0.0413705,0.0941225,-0.3439095,0.0520545,-0.0970215,-0.7227695,0.0730415,0.0993875,-0.7116595,0.0697945,0
78,-0.004117,0.7244674999999999,0.0463315,-0.157161,0.5364275,0.0205095,-0.261851,0.7446075,-0.0475695,0.164479,0.5217175,0.0310725,0.280339,0.7201275,-0.0182024999999999,-0.305771,0.9807975,-0.0709585,0.311619,0.9205275,-0.0445005,-0.075248,-0.0011144999999999,0.0033015,0.075248,0.0011144999999999,-0.0033014999999999,-0.088364,-0.3683325,0.0412215,0.09417,-0.3444825,0.0520995,-0.097191,-0.7232025,0.0730905,0.099253,-0.7120525,0.0698185,0
79,-0.004147,0.724551,0.046362,-0.157136,0.536521,0.020845,-0.261636,0.7450209999999999,-0.046227,0.164324,0.5214409999999999,0.031104,0.280134,0.720611,-0.017557,-0.3054759999999999,0.981121,-0.068888,0.311514,0.921271,-0.043453,-0.07527,-0.0010589999999999,0.0033549999999999,0.07527,0.001059,-0.0033549999999999,-0.088284,-0.368419,0.041034,0.0942679999999999,-0.344869,0.052147,-0.097316,-0.7234590000000001,0.0731219999999999,0.0991809999999999,-0.7122890000000001,0.069833,0
80,-0.0041725,0.7246064999999999,0.046334,-0.1570765,0.5366664999999999,0.021135,-0.2615365,0.7452765,-0.045354,0.1642135,0.5211764999999999,0.031076,0.2800335,0.7209964999999999,-0.0172319999999999,-0.3053165,0.9811565,-0.067726,0.3114135,0.9210065,-0.043127,-0.0752684999999999,-0.0009855,0.0033829999999999,0.0752684999999999,0.0009855,-0.0033829999999999,-0.0882185,-0.3685135,0.040824,0.0943495,-0.3452235,0.052155,-0.0974565,-0.7236835,0.073106,0.0991074999999999,-0.7125535000000001,0.069804,0
81,-0.0041849999999999,0.7245795,0.046291,-0.157005,0.5368595,0.021448,-0.261465,0.7452495,-0.044812,0.164115,0.5209195,0.0310329999999999,0.279935,0.7212495,-0.017256,-0.3052249999999999,0.9810995,-0.067029,0.311385,0.9208895,-0.04317,-0.075255,-0.0008985,0.0034259999999999,0.075255,0.0008984999999999,-0.0034259999999999,-0.088144,-0.3686104999999999,0.04061,0.094461,-0.3455405,0.05218,-0.097575,-0.7238804999999999,0.073107,0.099064,-0.7128504999999999,0.0697339999999999,0
82,-0.0041519999999999,0.724549,0.046304,-0.156894,0.537129,0.0217739999999999,-0.2614039999999999,0.745139,-0.044496,0.164036,0.520689,0.0309949999999999,0.279856,0.721479,-0.017294,-0.305164,0.980969,-0.066717,0.311636,0.920699,-0.043209,-0.075235,-0.0008169999999999,0.0034639999999999,0.075235,0.0008169999999999,-0.003464,-0.088058,-0.368701,0.0404639999999999,0.094501,-0.345791,0.0521829999999999,-0.097674,-0.724021,0.073111,0.0990399999999999,-0.713131,0.069669,0
83,-0.0040955,0.724548,0.0464179999999999,-0.1568765,0.5372979999999999,0.0220979999999999,-0.2613765,0.744988,-0.044365,0.1639735,0.520488,0.0309259999999999,0.2798834999999999,0.721508,-0.017364,-0.3051764999999999,0.980868,-0.066786,0.3121035,0.920498,-0.04328,-0.0752105,-0.0007489999999999,0.0035329999999999,0.0752105,0.0007489999999999,-0.003533,-0.0879955,-0.368752,0.0403069999999999,0.0945285,-0.346032,0.05223,-0.0977765,-0.724152,0.073128,0.0990114999999999,-0.713402,0.069574,0
84,-0.0040895,0.724414,0.0465285,-0.1569305,0.537394,0.0222955,-0.2614605,0.7447640000000001,-0.0444615,0.1641795,0.520804,0.0312595,0.2800295,0.7213440000000001,-0.0175105,-0.3052805,0.980584,-0.0669314999999999,0.3127595,0.921454,-0.0438844999999999,-0.0751805,-0.0007059999999999,0.0035715,0.0751805,0.0007059999999999,-0.0035714999999999,-0.0879825,-0.368866,0.0401005,0.0945165,-0.346326,0.0522075,-0.0979305,-0.724436,0.0730695,0.0989315,-0.7138559999999999,0.0693985,0
85,-0.004102,0.7241879999999999,0.0466484999999999,-0.157054,0.5374479999999999,0.0224704999999999,-0.261614,0.744398,-0.0446915,0.164416,0.5211079999999999,0.0315074999999999,0.280246,0.7210679999999999,-0.0179065,-0.305434,0.980168,-0.0671615,0.313456,0.922568,-0.0447655,-0.075141,-0.000647,0.0035904999999999,0.075141,0.000647,-0.0035905,-0.088011,-0.369122,0.0398044999999999,0.094465,-0.347182,0.0522734999999999,-0.0981239999999999,-0.7247520000000001,0.0729475,0.0988179999999999,-0.7144320000000001,0.0691384999999999,0
86,-0.0041225,0.7238715,0.046735,-0.1572184999999999,0.5374415,0.0225979999999999,-0.2617985,0.7438815000000001,-0.044993,0.1645815,0.5215615,0.031715,0.2804315,0.7207215,-0.018516,-0.3055885,0.9796515,-0.067563,0.3139815,0.9238415,-0.045901,-0.0750885,-0.0006034999999999,0.003601,0.0750885,0.0006034999999999,-0.003601,-0.0880905,-0.3694685,0.039484,0.0943905,-0.3479985,0.0522259999999999,-0.0983385,-0.7251384999999999,0.0727019999999999,0.0986765,-0.7149285,0.068806,0
87,-0.00412,0.7235685000000001,0.0468195,-0.157365,0.5374385,0.0227285,-0.261945,0.7433985,-0.0452945,0.164695,0.5220685,0.0318635,0.280595,0.7203785,-0.0192584999999999,-0.305705,0.9790485,-0.0682545,0.3144949999999999,0.9251685,-0.0471365,-0.0750359999999999,-0.0005694999999999,0.0035934999999999,0.0750359999999999,0.0005695,-0.0035934999999999,-0.088144,-0.3697815,0.0391695,0.094343,-0.3487515,0.0521445,-0.098545,-0.7254815,0.0724495,0.098554,-0.7155414999999999,0.0684885,0
88,-0.004137,0.723259,0.0468685,-0.157502,0.5374089999999999,0.0226635,-0.262102,0.7429089999999999,-0.0456235,0.164628,0.522099,0.0317395,0.280708,0.7200289999999999,-0.0200815,-0.3058019999999999,0.978389,-0.0691035,0.314538,0.924609,-0.0483284999999999,-0.074985,-0.0005549999999999,0.0035535,0.074985,0.0005549999999999,-0.0035535,-0.088237,-0.370121,0.0388255,0.094255,-0.349501,0.0520285,-0.098782,-0.725821,0.0721805,0.0984009999999999,-0.7161810000000001,0.0681435,0
89,-0.004133,0.7229155,0.0469064999999999,-0.157649,0.5374055,0.0226064999999999,-0.262229,0.7423854999999999,-0.0459745,0.164481,0.5222154999999999,0.0316194999999999,0.2807309999999999,0.7197555,-0.0209065,-0.305859,0.9774955,-0.0700655,0.314741,0.9247355,-0.0494085,-0.074947,-0.0005675,0.0035144999999999,0.074947,0.0005674999999999,-0.0035145,-0.088304,-0.3704745,0.0385094999999999,0.094183,-0.3501545,0.0518384999999999,-0.098999,-0.7261344999999999,0.0719255,0.0982659999999999,-0.7168645,0.0678354999999999,0
90,-0.004123,0.7226025,0.0468895,-0.157806,0.5374025,0.0225005,-0.262366,0.7418825,-0.0463515,0.164264,0.5225124999999999,0.0314575,0.280694,0.7195725,-0.0217315,-0.305856,0.9767125,-0.0710455,0.314754,0.9254725,-0.0503695,-0.074913,-0.0005755,0.0034775,0.074913,0.0005754999999999,-0.0034775,-0.088491,-0.3708175,0.0382025,0.0940959999999999,-0.3507975,0.0516115,-0.099176,-0.7264975,0.0716555,0.098129,-0.7175175,0.0675405,0
91,-0.0041299999999999,0.7223219999999999,0.046833,-0.157949,0.5373620000000001,0.022402,-0.262459,0.7413719999999999,-0.046738,0.164071,0.522972,0.031316,0.280611,0.7194419999999999,-0.022555,-0.305819,0.975832,-0.072042,0.314571,0.925482,-0.051609,-0.074875,-0.0005929999999999,0.0034389999999999,0.074875,0.000593,-0.003439,-0.088674,-0.371078,0.037887,0.09402,-0.351438,0.051345,-0.099379,-0.7269079999999999,0.071389,0.098039,-0.718178,0.0671829999999999,0
92,-0.004156,0.7220405,0.0467265,-0.158084,0.5372605,0.0222484999999999,-0.262524,0.7408605,-0.0471925,0.163876,0.5235204999999999,0.0311685,0.280536,0.7191905,-0.0233675,-0.3057539999999999,0.9750405,-0.0730665,0.314386,0.9252505,-0.0528365,-0.07485,-0.0005954999999999,0.0034024999999999,0.07485,0.0005954999999999,-0.0034025,-0.088859,-0.3712295,0.0375044999999999,0.093924,-0.3520695,0.0510805,-0.099564,-0.7274195,0.0711245,0.0979579999999999,-0.7188395,0.0668265,0
93,-0.004145,0.7219194999999999,0.0466085,-0.158159,0.5372195,0.0220454999999999,-0.262509,0.7404495,-0.0476665,0.163961,0.5235995,0.0311375,0.280491,0.7191595,-0.0241785,-0.305629,0.9742695,-0.0740475,0.314251,0.9252595,-0.0540775,-0.07484,-0.0005954999999999,0.0033724999999999,0.07484,0.0005954999999999,-0.0033725,-0.089006,-0.3710105,0.0368574999999999,0.093856,-0.3526005,0.0508295,-0.099699,-0.7279005000000001,0.0708415,0.097937,-0.7193805,0.0664375,0
94,-0.0040925,0.721881,0.046415,-0.1581775,0.537201,0.021781,-0.2624375,0.740171,-0.048204,0.1641025,0.523711,0.031037,0.2804724999999999,0.7193309999999999,-0.025053,-0.3054375,0.973601,-0.0750919999999999,0.3140124999999999,0.925031,-0.0552939999999999,-0.0748544999999999,-0.000597,0.00335,0.0748544999999999,0.000597,-0.0033499999999999,-0.0891805,-0.370569,0.03589,0.0938485,-0.353049,0.050495,-0.0997774999999999,-0.728289,0.070455,0.0979805,-0.719799,0.065978,0
95,-0.004026,0.7219555000000001,0.046142,-0.158156,0.5371855,0.021511,-0.2623459999999999,0.7399555,-0.048767,0.164184,0.5238855,0.030849,0.280424,0.7195355,-0.026016,-0.3052559999999999,0.9729955,-0.076093,0.313654,0.9247955,-0.0565349999999999,-0.074893,-0.0005894999999999,0.003333,0.074893,0.0005895,-0.003333,-0.089347,-0.3700645,0.034573,0.093873,-0.3534745,0.049969,-0.099806,-0.7285944999999999,0.069931,0.098053,-0.7201845,0.065471,0
96,-0.0040029999999999,0.7219165,0.0455685,-0.158122,0.5369365,0.0209825,-0.262252,0.7396365,-0.0496435,0.163918,0.5239465,0.0300645,0.280358,0.7195565,-0.0272444999999999,-0.305102,0.9724465,-0.0773875,0.313178,0.9246265,-0.0581205,-0.074939,-0.0006045,0.0033585,0.074939,0.0006044999999999,-0.0033585,-0.0896029999999999,-0.3697035,0.0324625,0.0939349999999999,-0.3539935,0.0489005,-0.0998119999999999,-0.7289435,0.0691095,0.098157,-0.7206135,0.0645965,0
97,-0.0040039999999999,0.7218559999999999,0.0448265,-0.158026,0.536776,0.0202665,-0.262156,0.739476,-0.0507424999999999,0.1635539999999999,0.5239159999999999,0.0290614999999999,0.280294,0.719396,-0.0287185,-0.305006,0.972086,-0.0788185,0.312644,0.924356,-0.0599505,-0.074962,-0.0006419999999999,0.0034625,0.074962,0.000642,-0.0034625,-0.089956,-0.369544,0.0297125,0.094065,-0.354344,0.0472235,-0.099786,-0.729174,0.0680205,0.09826,-0.720794,0.0634585,0
98,-0.004029,0.7218559999999999,0.0438705,-0.157939,0.536776,0.0192915,-0.262069,0.739476,-0.0520885,0.163171,0.523706,0.0278955,0.280211,0.719396,-0.0305194999999999,-0.304919,0.971886,-0.0804525,0.3120509999999999,0.924096,-0.0619714999999999,-0.074992,-0.0006419999999999,0.0035735,0.074992,0.000642,-0.0035735,-0.090453,-0.369544,0.0260095,0.094254,-0.354634,0.0448495,-0.099819,-0.729614,0.0664405,0.0983479999999999,-0.7211540000000001,0.0618435,0
99,-0.00411,0.7218559999999999,0.0423374999999999,-0.157722,0.536776,0.0177504999999999,-0.261962,0.739476,-0.0540115,0.162798,0.523706,0.0262804999999999,0.280088,0.719396,-0.0329135,-0.304892,0.971686,-0.0826505,0.311478,0.923676,-0.0646595,-0.075031,-0.0006419999999999,0.0037494999999999,0.075031,0.000642,-0.0037495,-0.091072,-0.369544,0.0213454999999999,0.09458,-0.3550639999999999,0.0412795,-0.099942,-0.730334,0.0640755,0.098427,-0.721654,0.0595084999999999,0
100,-0.0042005,0.7218559999999999,0.0404285,-0.1575215,0.536746,0.0158424999999999,-0.2617515,0.739206,-0.0562085,0.1626785,0.523286,0.0242704999999999,0.2797084999999999,0.719066,-0.0356995,-0.3049115,0.971286,-0.0852505,0.3109085,0.923126,-0.0675515,-0.0751185,-0.0006419999999999,0.0040114999999999,0.0751185,0.000642,-0.0040115,-0.0918585,-0.369544,0.0157795,0.0951245,-0.355634,0.0364785,-0.1000715,-0.731374,0.0611135,0.0983834999999999,-0.722444,0.0566814999999999,0
101,-0.0044389999999999,0.721818,0.038071,-0.15736,0.536498,0.013566,-0.26166,0.738838,-0.0588009999999999,0.1622,0.522968,0.021765,0.27911,0.718398,-0.0390399999999999,-0.30501,0.970748,-0.088387,0.31012,0.922758,-0.070898,-0.075242,-0.0006679999999999,0.004239,0.075242,0.000668,-0.004239,-0.092946,-0.369692,0.008935,0.095713,-0.356172,0.030517,-0.10031,-0.732562,0.057383,0.098148,-0.723342,0.053157,0
102,-0.0047925,0.7216429999999999,0.035292,-0.1572745,0.536083,0.010954,-0.2616144999999999,0.7385029999999999,-0.061796,0.1615855,0.523023,0.018772,0.2783355,0.717653,-0.042822,-0.3051545,0.970073,-0.09178,0.3090355,0.921783,-0.07471,-0.0753935,-0.000769,0.0044809999999999,0.0753935,0.0007689999999999,-0.0044809999999999,-0.0941015,-0.3696669999999999,0.001249,0.0963515,-0.3565669999999999,0.023494,-0.1006644999999999,-0.7337170000000001,0.052816,0.0977895,-0.723977,0.049047,0
103,-0.0052425,0.720994,0.032219,-0.1571655,0.535324,0.008129,-0.2616155,0.738024,-0.065359,0.1609545,0.523644,0.015825,0.2774445,0.716864,-0.046957,-0.3052355,0.968904,-0.095342,0.3074544999999999,0.921694,-0.079232,-0.0756305,-0.000842,0.00469,0.0756305,0.0008419999999999,-0.00469,-0.0953655,-0.3694659999999999,-0.007195,0.0970685,-0.3567559999999999,0.015506,-0.1011255,-0.7344860000000001,0.047663,0.0973345,-0.724506,0.044338,0
104,-0.005761,0.7197645,0.0288785,-0.157125,0.5349745,0.0049285,-0.261645,0.7375444999999999,-0.0693095,0.1603149999999999,0.5232145,0.0127355,0.276445,0.7163545,-0.0513555,-0.305355,0.9684245,-0.0998905,0.305455,0.9205645,-0.0841205,-0.0758679999999999,-0.0008784999999999,0.0049075,0.0758679999999999,0.0008785,-0.0049074999999999,-0.096761,-0.3690455,-0.0163565,0.09809,-0.3564754999999999,0.0063495,-0.101665,-0.7349255,0.0419645,0.0968209999999999,-0.7246255,0.0390385,0
105,-0.0063259999999999,0.718268,0.0255485,-0.157143,0.5349980000000001,0.0015824999999999,-0.261703,0.736978,-0.0733755,0.159667,0.5228780000000001,0.0094025,0.275267,0.715308,-0.0554795,-0.305493,0.968588,-0.1046365,0.303217,0.919278,-0.0890265,-0.076149,-0.0008579999999999,0.0050894999999999,0.076149,0.000858,-0.0050895,-0.098166,-0.368232,-0.0257495,0.099337,-0.355772,-0.0035125,-0.1022629999999999,-0.734772,0.0356615,0.096291,-0.7241219999999999,0.0335115,0
106,-0.007011,0.717024,0.021968,-0.157287,0.533544,-0.000906,-0.261187,0.7339640000000001,-0.076889,0.1585329999999999,0.521524,0.0058759999999999,0.273943,0.714484,-0.060195,-0.305257,0.967664,-0.109764,0.300883,0.919114,-0.094044,-0.076515,-0.0007559999999999,0.005219,0.076515,0.0007559999999999,-0.005219,-0.09963,-0.366466,-0.035558,0.1007329999999999,-0.354056,-0.0139379999999999,-0.102967,-0.733306,0.028816,0.095702,-0.722386,0.027329,0
107,-0.0077889999999999,0.7153820000000001,0.0183815,-0.1574829999999999,0.5321220000000001,-0.0034665,-0.260883,0.731592,-0.0806095,0.157287,0.5205620000000001,0.0024315,0.272527,0.713712,-0.0651404999999999,-0.3049429999999999,0.962902,-0.1149215,0.298417,0.919482,-0.0994215,-0.076928,-0.0006889999999999,0.0053125,0.076928,0.000689,-0.0053125,-0.1010969999999999,-0.363938,-0.0454965,0.102307,-0.351648,-0.0250395,-0.103823,-0.730568,0.0218744999999999,0.095002,-0.719428,0.0210745,0
108,-0.0086485,0.7135555,0.015141,-0.1578475,0.5311455,-0.0056589999999999,-0.2606374999999999,0.7293755,-0.084102,0.1557625,0.5191755,-0.0006969999999999,0.2710425,0.7128555,-0.069932,-0.3047175,0.9595955,-0.119831,0.2958225,0.9208455,-0.104321,-0.0773605,-0.0006475,0.005263,0.0773605,0.0006475,-0.005263,-0.1026935,-0.3603845,-0.055506,0.1041024999999999,-0.3487645,-0.036216,-0.1046975,-0.7263845,0.014985,0.0941855,-0.7152445,0.014802,1
109,-0.0097269999999999,0.7116410000000001,0.012008,-0.158222,0.5289710000000001,-0.007804,-0.2608319999999999,0.727761,-0.08753,0.154058,0.518181,-0.00365,0.2695079999999999,0.713021,-0.074576,-0.304732,0.957731,-0.124876,0.292668,0.920781,-0.109356,-0.077847,-0.000612,0.005014,0.077847,0.0006119999999999,-0.005014,-0.104502,-0.355449,-0.065616,0.105708,-0.344729,-0.047273,-0.105792,-0.720499,0.0080509999999999,0.093122,-0.709469,0.008346,1
110,-0.010762,0.7094195000000001,0.0092909999999999,-0.158644,0.5275695,-0.009861,-0.260954,0.7262295000000001,-0.090658,0.152556,0.5173795,-0.006323,0.268106,0.7124195,-0.078599,-0.304774,0.9562995,-0.12946,0.289516,0.9190295,-0.11416,-0.078296,-0.0006404999999999,0.00481,0.078296,0.0006405,-0.00481,-0.106184,-0.3503005,-0.075374,0.1074459999999999,-0.3406205,-0.057924,-0.106864,-0.7138605,0.00152,0.0920999999999999,-0.7031805,0.00219,1
111,-0.0118799999999999,0.7072385,0.0067489999999999,-0.1591969999999999,0.5252285,-0.011688,-0.261287,0.7249985,-0.0938539999999999,0.150843,0.5156584999999999,-0.008762,0.266573,0.7128585,-0.082615,-0.3049469999999999,0.9566685,-0.133919,0.286213,0.9167985,-0.1189689999999999,-0.0787819999999999,-0.0007405,0.0046929999999999,0.0787819999999999,0.0007404999999999,-0.004693,-0.1080269999999999,-0.3439915,-0.0853289999999999,0.1090029999999999,-0.3347914999999999,-0.068398,-0.108047,-0.7052615000000001,-0.004817,0.090941,-0.6951715,-0.003988,1
112,-0.012986,0.7054295,0.00439,-0.159756,0.5237495,-0.013339,-0.261636,0.7244794999999999,-0.096813,0.149414,0.5137995,-0.0111689999999999,0.265144,0.7125695,-0.086205,-0.305236,0.9582695,-0.138012,0.283344,0.9164395,-0.123332,-0.0792269999999999,-0.0007924999999999,0.004497,0.0792269999999999,0.0007924999999999,-0.0044969999999999,-0.109766,-0.3378205,-0.095316,0.110624,-0.3286505,-0.078615,-0.109176,-0.6957805,-0.011163,0.0899109999999999,-0.6863805,-0.009883,1
113,-0.0141015,0.704285,0.0021504999999999,-0.1602255,0.521105,-0.0147795,-0.2620255,0.723305,-0.0998325,0.1478045,0.513225,-0.0136145,0.2636845,0.712085,-0.0895435,-0.3051555,0.955905,-0.1420715,0.2804045,0.915085,-0.1278615,-0.0797315,-0.0009729999999999,0.0043225,0.0797315,0.0009729999999999,-0.0043225,-0.1114555,-0.330675,-0.1049365,0.1119145,-0.321685,-0.0883545,-0.1102755,-0.684685,-0.0177355,0.0888085,-0.6762050000000001,-0.0156775,1
114,-0.0151719999999999,0.7025565,-2.1499999999997216e-05,-0.160671,0.5193265,-0.0160364999999999,-0.262411,0.7224465,-0.1028314999999999,0.146389,0.5113465,-0.0157625,0.262379,0.7112765,-0.0925235,-0.305021,0.9538865,-0.1458205,0.277829,0.9130165,-0.1326205,-0.080166,-0.0011774999999999,0.0041425,0.080166,0.0011774999999999,-0.0041424999999999,-0.1132209999999999,-0.3246734999999999,-0.1143134999999999,0.113079,-0.3150035,-0.0977784999999999,-0.111201,-0.6730134999999999,-0.0237454999999999,0.087717,-0.6655535,-0.0213044999999999,1
115,-0.0161535,0.700829,-0.002032,-0.1612144999999999,0.517189,-0.018066,-0.2633045,0.724329,-0.106516,0.1452755,0.511009,-0.017808,0.2611655,0.710969,-0.095656,-0.3050144999999999,0.952159,-0.149393,0.2751555,0.911429,-0.136763,-0.0805195,-0.0016649999999999,0.0039609999999999,0.0805195,0.0016649999999999,-0.003961,-0.1149945,-0.318581,-0.123311,0.1141855,-0.307991,-0.106891,-0.1119844999999999,-0.660731,-0.02942,0.0867135,-0.654331,-0.026601,1
116,-0.0168705,0.6994100000000001,-0.0041314999999999,-0.1614675,0.51513,-0.0202124999999999,-0.2639575,0.7256900000000001,-0.1099695,0.1444625,0.50966,-0.0201195,0.2602125,0.7102900000000001,-0.0988275,-0.3048075,0.95395,-0.1535105,0.2727825,0.91076,-0.1408705,-0.0807565,-0.0021149999999999,0.0038595,0.0807565,0.0021149999999999,-0.0038595,-0.1165775,-0.31183,-0.1318265,0.1153724999999999,-0.30035,-0.1155055,-0.1124975,-0.6476299999999999,-0.0349854999999999,0.0859945,-0.64227,-0.0320125,1
117,-0.0175745,0.697344,-0.0065119999999999,-0.1619225,0.512914,-0.0226279999999999,-0.2646225,0.726584,-0.1134999999999999,0.1436275,0.508724,-0.0226419999999999,0.2592075,0.709704,-0.10235,-0.3045225,0.954644,-0.1578629999999999,0.2704675,0.910024,-0.144903,-0.0810235,-0.002471,0.004,0.0810235,0.002471,-0.0039999999999999,-0.1181525,-0.305056,-0.140146,0.1162875,-0.2924759999999999,-0.1237829999999999,-0.1129625,-0.6341760000000001,-0.0403669999999999,0.0851555,-0.629606,-0.037263,1
118,-0.0180505,0.695203,-0.0088055,-0.1622535,0.5108630000000001,-0.0250115,-0.2650235,0.726113,-0.1168595,0.1432065,0.506883,-0.0250945,0.2584165,0.707903,-0.1059415,-0.3039535,0.953113,-0.1624455,0.2689964999999999,0.906163,-0.1487355,-0.0811834999999999,-0.0027749999999999,0.0041985,0.0811834999999999,0.0027749999999999,-0.0041985,-0.1194235,-0.295697,-0.1479155,0.1172064999999999,-0.282167,-0.1316594999999999,-0.1131554999999999,-0.6208370000000001,-0.0455125,0.0846985,-0.616967,-0.0421815,1
119,-0.0184844999999999,0.6930685000000001,-0.0114025,-0.1624845,0.5090185,-0.0274975,-0.2649344999999999,0.7238285,-0.1203415,0.1427755,0.5043685,-0.0276335,0.2576454999999999,0.7072185,-0.1098285,-0.3032745,0.9476485,-0.1662105,0.2676055,0.9055185,-0.1525805,-0.0813585,-0.0029235,0.0043334999999999,0.0813585,0.0029234999999999,-0.0043335,-0.1205845,-0.2844315,-0.1553405,0.1181255,-0.2702615,-0.1395755,-0.1132865,-0.6063415000000001,-0.0506555,0.0842305,-0.6030314999999999,-0.0470785,1
120,-0.018653,0.6921999999999999,-0.0192479999999999,-0.162592,0.50946,-0.0352939999999999,-0.264432,0.7228399999999999,-0.128567,0.142398,0.50426,-0.0354269999999999,0.257068,0.70624,-0.1185119999999999,-0.302422,0.94398,-0.174588,0.266598,0.90803,-0.1613979999999999,-0.08144,-0.00289,0.004472,0.08144,0.00289,-0.0044719999999999,-0.121452,-0.27171,-0.167068,0.1191079999999999,-0.25717,-0.152127,-0.113157,-0.59062,-0.0606179999999999,0.083955,-0.58802,-0.0568989999999999,1
121,-0.018768,0.69329,-0.0281544999999999,-0.161726,0.50656,-0.0443004999999999,-0.263496,0.72126,-0.1372145,0.142044,0.50446,-0.0444054999999999,0.256494,0.7077,-0.1282395,-0.3015259999999999,0.94261,-0.1836165,0.265814,0.90848,-0.1716065,-0.081492,-0.0028499999999999,0.0041775,0.081492,0.00285,-0.0041775,-0.123636,-0.25565,-0.1823265,0.1220739999999999,-0.2411499999999999,-0.1703065,-0.11297,-0.57256,-0.0711754999999999,0.083597,-0.57013,-0.0678874999999999,1
122,-0.018876,0.69333,-0.037012,-0.160821,0.50488,-0.05335,-0.262521,0.7204299999999999,-0.14546,0.141739,0.50498,-0.053458,0.255829,0.7076500000000001,-0.1376109999999999,-0.300981,0.94484,-0.193249,0.265189,0.90856,-0.181289,-0.081544,-0.00295,0.0038959999999999,0.081544,0.00295,-0.0038959999999999,-0.125881,-0.2405,-0.197239,0.125059,-0.22648,-0.187799,-0.112769,-0.55568,-0.081005,0.083265,-0.5533399999999999,-0.078523,1
123,-0.018999,0.695145,-0.0463765,-0.1598089999999999,0.502675,-0.0628935,-0.261539,0.7207450000000001,-0.1545155,0.1410509999999999,0.5041450000000001,-0.0631275,0.255021,0.709045,-0.1474315,-0.3002789999999999,0.947615,-0.2036835,0.264711,0.911945,-0.1919835,-0.081539,-0.002915,0.0034374999999999,0.081539,0.002915,-0.0034374999999999,-0.128309,-0.222625,-0.2126934999999999,0.128031,-0.2095749999999999,-0.2055934999999999,-0.112605,-0.537295,-0.0911875,0.082768,-0.534825,-0.0894495,1
124,-0.019108,0.69538,-0.0557964999999999,-0.158871,0.50084,-0.0724614999999999,-0.260401,0.71964,-0.1638775,0.1402989999999999,0.50343,-0.0727024999999999,0.254189,0.7099099999999999,-0.1573494999999999,-0.299411,0.95022,-0.2141405,0.264219,0.91162,-0.2025305,-0.081561,-0.00282,0.0030895,0.081561,0.0028199999999999,-0.0030894999999999,-0.130661,-0.20551,-0.2279805,0.130739,-0.19281,-0.2229305,-0.112812,-0.51922,-0.1009814999999999,0.082171,-0.51674,-0.1000134999999999,1
125,-0.019169,0.695495,-0.065314,-0.157893,0.498725,-0.082205,-0.259193,0.718305,-0.17337,0.139397,0.5033350000000001,-0.08244,0.253367,0.710685,-0.16778,-0.2987329999999999,0.948435,-0.22483,0.263837,0.910175,-0.21304,-0.081532,-0.0027349999999999,0.00272,0.081532,0.002735,-0.00272,-0.132973,-0.1887249999999999,-0.24322,0.133137,-0.176095,-0.23998,-0.1131139999999999,-0.5009950000000001,-0.110721,0.081574,-0.4984449999999999,-0.110516,1
126,-0.019169,0.69602,-0.074939,-0.156752,0.4967,-0.09197,-0.257882,0.71555,-0.183075,0.1385279999999999,0.50282,-0.092199,0.252628,0.71129,-0.178474,-0.298112,0.94789,-0.2355999999999999,0.263498,0.90693,-0.22321,-0.081479,-0.00272,0.0022,0.081479,0.00272,-0.0021999999999999,-0.135182,-0.1715799999999999,-0.2581299999999999,0.1353879999999999,-0.15984,-0.25664,-0.113393,-0.48275,-0.1204809999999999,0.080955,-0.48014,-0.1210239999999999,1
127,-0.0189055,0.696385,-0.084825,-0.1556605,0.496065,-0.101959,-0.2561205,0.715285,-0.192579,0.1378095,0.502925,-0.1019849999999999,0.2521394999999999,0.712755,-0.1889529999999999,-0.2972505,0.949615,-0.246375,0.2634695,0.908285,-0.233565,-0.0813985,-0.002655,0.0016849999999999,0.0813985,0.0026549999999999,-0.001685,-0.1371305,-0.154155,-0.2730249999999999,0.1378095,-0.143085,-0.273075,-0.1134015,-0.464575,-0.130366,0.0805975,-0.461505,-0.13154,1
128,-0.018806,0.69641,-0.0944609999999999,-0.154674,0.49395,-0.1116939999999999,-0.254834,0.7168300000000001,-0.2022179999999999,0.137196,0.50305,-0.1114219999999999,0.2516759999999999,0.71284,-0.1991919999999999,-0.296654,0.95504,-0.25688,0.263316,0.90762,-0.24405,-0.08132,-0.0027399999999999,0.00115,0.08132,0.00274,-0.0011499999999999,-0.139134,-0.1371899999999999,-0.28747,0.139736,-0.1271899999999999,-0.2888799999999999,-0.113477,-0.44733,-0.1399569999999999,0.080189,-0.4434899999999999,-0.1418459999999999,1
129,-0.018659,0.694715,-0.0987479999999999,-0.153265,0.491225,-0.1160519999999999,-0.253585,0.717365,-0.2062009999999999,0.136515,0.501625,-0.1154339999999999,0.251345,0.711745,-0.204002,-0.296005,0.958235,-0.26191,0.263235,0.903915,-0.24927,-0.08127,-0.002825,0.00058,0.08127,0.0028249999999999,-0.0005799999999999,-0.141105,-0.121525,-0.2965,0.141625,-0.112395,-0.29935,-0.113514,-0.431605,-0.1440419999999999,0.079901,-0.426845,-0.1466039999999999,1
130,-0.0183975,0.6921200000000001,-0.101734,-0.1526495,0.49046,-0.119388,-0.2532295,0.7175,-0.209106,0.1359705,0.49908,-0.118081,0.2511005,0.71007,-0.207535,-0.2952795,0.95868,-0.265405,0.2632105,0.90406,-0.253315,-0.0811645,-0.0029899999999999,0.0005749999999999,0.0811645,0.0029899999999999,-0.0005749999999999,-0.1418395,-0.10658,-0.301185,0.1417205,-0.0979599999999999,-0.303525,-0.1135905,-0.4169499999999999,-0.146736,0.0796435,-0.41159,-0.149799,1
131,-0.0183845,0.6888700000000001,-0.104596,-0.1521485,0.4899,-0.122532,-0.2530084999999999,0.71799,-0.211867,0.1355515,0.49604,-0.120703,0.2509415,0.7086,-0.210967,-0.2948485,0.95251,-0.269385,0.2630415,0.90522,-0.257375,-0.0811455,-0.0028099999999999,0.0005449999999999,0.0811455,0.00281,-0.000545,-0.1426685,-0.0910199999999999,-0.305465,0.1417215,-0.0821399999999999,-0.307505,-0.1138025,-0.4023599999999999,-0.149177,0.0792895,-0.39635,-0.152803,1
132,-0.018079,0.6861200000000001,-0.106956,-0.151353,0.4866399999999999,-0.125303,-0.252593,0.7155,-0.214525,0.135857,0.4959099999999999,-0.122885,0.251187,0.70787,-0.2140139999999999,-0.294483,0.94771,-0.273065,0.263067,0.90587,-0.2608749999999999,-0.081039,-0.0030499999999999,0.000595,0.081039,0.0030499999999999,-0.0005949999999999,-0.142983,-0.07489,-0.308585,0.142027,-0.06601,-0.3104449999999999,-0.113862,-0.38685,-0.1515359999999999,0.079386,-0.38083,-0.155361,1
133,-0.0182339999999999,0.684175,-0.109103,-0.151192,0.485365,-0.127698,-0.252672,0.7119150000000001,-0.217743,0.1354179999999999,0.495345,-0.125245,0.251018,0.7067950000000001,-0.21677,-0.294582,0.944005,-0.27646,0.262728,0.904725,-0.26429,-0.081046,-0.0031149999999999,0.0005499999999999,0.081046,0.0031149999999999,-0.0005499999999999,-0.143712,-0.0622349999999999,-0.31079,0.141558,-0.054255,-0.31265,-0.114381,-0.3717149999999999,-0.153783,0.079098,-0.364865,-0.157551,1
134,-0.0184029999999999,0.682545,-0.110849,-0.15108,0.484605,-0.129578,-0.25239,0.7101850000000001,-0.22032,0.13511,0.494465,-0.127044,0.25079,0.706455,-0.218961,-0.29469,0.946865,-0.27949,0.26231,0.903675,-0.26737,-0.08113,-0.0033949999999999,0.0004899999999999,0.08113,0.003395,-0.0004899999999999,-0.14442,-0.049485,-0.31253,0.14102,-0.0416149999999999,-0.31439,-0.114981,-0.3564549999999999,-0.155676,0.078801,-0.348855,-0.159252,1
135,-0.018799,0.68086,-0.112228,-0.151093,0.48368,-0.1308939999999999,-0.252333,0.71058,-0.22214,0.1347269999999999,0.4942,-0.128323,0.250407,0.70531,-0.2206159999999999,-0.294893,0.94862,-0.282165,0.261797,0.90401,-0.2700349999999999,-0.0811429999999999,-0.0036499999999999,0.000405,0.0811429999999999,0.0036499999999999,-0.0004049999999999,-0.145353,-0.03714,-0.313845,0.1401869999999999,-0.029,-0.315705,-0.115711,-0.3416099999999999,-0.157236,0.07844,-0.33332,-0.1605019999999999,1
136,-0.0193994999999999,0.679505,-0.1138899999999999,-0.1512555,0.482615,-0.1323939999999999,-0.2526955,0.709765,-0.2241189999999999,0.1340245,0.4926049999999999,-0.129552,0.2498445,0.7046250000000001,-0.222488,-0.2956155,0.949165,-0.285045,0.2611445,0.903645,-0.272895,-0.0810615,-0.0039549999999999,7.50000000000195e-05,0.0810615,0.0039549999999999,-7.499999999999174e-05,-0.1464454999999999,-0.024625,-0.314915,0.1390045,-0.016235,-0.316075,-0.1163954999999999,-0.3263649999999999,-0.1586499999999999,0.0780775,-0.3179949999999999,-0.162124,1
137,-0.020051,0.67953,-0.1149989999999999,-0.151573,0.482928,-0.1335039999999999,-0.253523,0.70612,-0.225667,0.133187,0.49284,-0.130205,0.2491769999999999,0.70562,-0.2239209999999999,-0.296473,0.94504,-0.288205,0.260457,0.90447,-0.275015,-0.080927,-0.0041499999999999,-0.0001949999999999,0.080927,0.0041499999999999,0.000195,-0.147663,-0.0106899999999999,-0.314965,0.137747,-0.0022699999999999,-0.315995,-0.117093,-0.31017,-0.1595639999999999,0.077702,-0.30166,-0.1632729999999999,1
138,-0.0207255,0.6795599999999999,-0.1156869999999999,-0.1520865,0.482044,-0.13401,-0.2537965,0.70253,-0.226858,0.1325535,0.492202,-0.1303679999999999,0.2486835,0.70607,-0.225158,-0.2972065,0.94053,-0.29084,0.2599035,0.90423,-0.27658,-0.0808155,-0.00423,-0.0005,0.0808155,0.0042299999999999,0.0005,-0.1487965,0.0027299999999999,-0.31455,0.1366735,0.0111599999999999,-0.31543,-0.1176465,-0.2945500000000001,-0.159966,0.0775184999999999,-0.2861100000000001,-0.1639979999999999,1
139,-0.0218189999999999,0.678805,-0.116285,-0.1528609999999999,0.482284,-0.134448,-0.254341,0.701125,-0.227902,0.131459,0.493112,-0.130703,0.247779,0.705995,-0.22631,-0.298131,0.937085,-0.2935149999999999,0.259059,0.902925,-0.278305,-0.080777,-0.0041549999999999,-0.000805,0.080777,0.004155,0.000805,-0.150061,0.015705,-0.314105,0.1352789999999999,0.024415,-0.314805,-0.118501,-0.2796349999999999,-0.160487,0.077014,-0.2712249999999999,-0.164713,1
140,-0.0229255,0.67972,-0.116926,-0.1538045,0.481875,-0.134433,-0.2554245,0.69946,-0.228894,0.1303554999999999,0.493986,-0.130854,0.2468055,0.7075,-0.226964,-0.2988845,0.94078,-0.29551,0.2581454999999999,0.90309,-0.27998,-0.0807425,-0.0042599999999999,-0.00112,0.0807425,0.0042599999999999,0.00112,-0.1512645,0.02978,-0.3133599999999999,0.1340955,0.03894,-0.31401,-0.1193545,-0.2639499999999999,-0.161141,0.0764735,-0.25557,-0.165368,1
141,-0.0238675,0.678995,-0.1171819999999999,-0.1544755,0.4838,-0.1341349999999999,-0.2558855,0.700015,-0.2296099999999999,0.1292845,0.494589,-0.1307149999999999,0.2459245,0.7077450000000001,-0.2273569999999999,-0.2992555,0.942445,-0.297165,0.2576145,0.902215,-0.2817349999999999,-0.0806505,-0.0040649999999999,-0.0012849999999999,0.0806505,0.0040649999999999,0.001285,-0.1521855,0.042345,-0.312215,0.1331745,0.0519149999999999,-0.312725,-0.1200355,-0.250095,-0.1615349999999999,0.0760805,-0.2418149999999999,-0.1656439999999999,1
142,-0.0250485,0.6778949999999999,-0.11718,-0.1550814999999999,0.485132,-0.133802,-0.2566215,0.702415,-0.230743,0.1278985,0.494992,-0.130436,0.2448584999999999,0.706735,-0.227596,-0.3000015,0.943155,-0.298715,0.2568585,0.905075,-0.283225,-0.0806745,-0.003925,-0.001395,0.0806745,0.0039249999999999,0.001395,-0.1533515,0.0536949999999999,-0.3104449999999999,0.1321285,0.0637049999999999,-0.311045,-0.1209715,-0.237585,-0.161615,0.0754245,-0.2293049999999999,-0.165777,1
143,-0.026279,0.67653,-0.1169419999999999,-0.155811,0.486158,-0.133289,-0.257311,0.70341,-0.231593,0.1264289999999999,0.495937,-0.1300359999999999,0.2436689999999999,0.70312,-0.227677,-0.300701,0.94163,-0.29998,0.256099,0.90702,-0.2843799999999999,-0.080629,-0.0036499999999999,-0.0014699999999999,0.080629,0.0036499999999999,0.0014699999999999,-0.154641,0.06377,-0.30837,0.131009,0.0738099999999999,-0.3091899999999999,-0.121931,-0.22663,-0.161525,0.074714,-0.2182699999999999,-0.1655589999999999,1
144,-0.0275385,0.675905,-0.1162599999999999,-0.1573925,0.4874179999999999,-0.1325059999999999,-0.2581525,0.704835,-0.232217,0.1246475,0.4961259999999999,-0.1294179999999999,0.2425775,0.702995,-0.2277739999999999,-0.3015525,0.941575,-0.30122,0.2552175,0.906285,-0.28542,-0.0805275,-0.0032849999999999,-0.0014699999999999,0.0805275,0.0032849999999999,0.0014699999999999,-0.1559425,0.0754349999999999,-0.30562,0.1298475,0.0854149999999999,-0.3063599999999999,-0.1230025,-0.214045,-0.1613139999999999,0.0738725,-0.205615,-0.164677,1
145,-0.0281515,0.67496,-0.1155429999999999,-0.1584315,0.4888930000000001,-0.1318499999999999,-0.2580515,0.7063600000000001,-0.2330249999999999,0.1235985,0.497294,-0.1288699999999999,0.2421785,0.7014900000000001,-0.227983,-0.3018915,0.93482,-0.3031149999999999,0.2548785,0.90637,-0.2863949999999999,-0.0803685,-0.0028399999999999,-0.0014849999999999,0.0803685,0.00284,0.001485,-0.1566615,0.08608,-0.3036949999999999,0.1295184999999999,0.09575,-0.304755,-0.1233715,-0.2028799999999999,-0.1611189999999999,0.0735255,-0.1944499999999999,-0.1632179999999999,1
146,-0.0286879999999999,0.6738600000000001,-0.11456,-0.159666,0.489161,-0.130778,-0.258426,0.71048,-0.233738,0.122754,0.497641,-0.128052,0.241904,0.70035,-0.228088,-0.3020359999999999,0.93367,-0.3040049999999999,0.254604,0.90669,-0.287245,-0.0802239999999999,-0.0026799999999999,-0.001615,0.0802239999999999,0.00268,0.001615,-0.1573459999999999,0.09579,-0.3020549999999999,0.129244,0.10521,-0.302765,-0.123646,-0.1923799999999998,-0.160744,0.0730109999999999,-0.1840899999999999,-0.16085,1
147,-0.0291489999999999,0.6733100000000001,-0.113408,-0.16094,0.4898570000000001,-0.129742,-0.25869,0.7138300000000001,-0.234324,0.12192,0.4989430000000001,-0.127112,0.2416299999999999,0.7005800000000001,-0.227955,-0.30202,0.93244,-0.30487,0.2543399999999999,0.90876,-0.28791,-0.08011,-0.0027399999999999,-0.00182,0.08011,0.00274,0.0018199999999999,-0.15803,0.10549,-0.30033,0.129,0.11482,-0.30056,-0.1239,-0.1822099999999998,-0.159644,0.07246,-0.1737999999999999,-0.158158,1
148,-0.0294014999999999,0.6722899999999999,-0.11168,-0.1620165,0.490432,-0.12821,-0.2587865,0.7153,-0.23436,0.1215935,0.499731,-0.125444,0.2416135,0.70017,-0.2273919999999999,-0.3018265,0.93008,-0.3050549999999999,0.2543335,0.91004,-0.2877849999999999,-0.0799435,-0.0029599999999999,-0.0017749999999999,0.0799435,0.0029599999999999,0.0017749999999999,-0.1586165,0.1139799999999999,-0.298355,0.1290635,0.1231899999999999,-0.297495,-0.1239465,-0.17328,-0.157996,0.0720835,-0.1648,-0.154882,1
149,-0.0298695,0.6704,-0.110263,-0.1632735,0.490945,-0.127047,-0.2595235,0.7127,-0.23475,0.1208565,0.500416,-0.124222,0.2413165,0.69901,-0.226864,-0.3017235,0.92677,-0.3054949999999999,0.2541064999999999,0.90985,-0.287795,-0.0799065,-0.00312,-0.0017049999999999,0.0799065,0.00312,0.001705,-0.1595035,0.12112,-0.296035,0.1288265,0.13023,-0.294685,-0.1241335,-0.1657499999999999,-0.156269,0.0714085,-0.15713,-0.151464,1
150,-0.0303325,0.668185,-0.109209,-0.1645205,0.4910629999999999,-0.126272,-0.2602505,0.709605,-0.235355,0.1201795,0.501007,-0.123348,0.2411695,0.696815,-0.226828,-0.3016405,0.922325,-0.30639,0.2538795,0.908125,-0.28792,-0.0798895,-0.003295,-0.0017099999999999,0.0798895,0.003295,0.0017099999999999,-0.1605404999999999,0.1271749999999999,-0.29402,0.1286095,0.1361649999999999,-0.29215,-0.1243005,-0.1593149999999999,-0.154677,0.0707055,-0.150625,-0.148396,1
151,-0.03079,0.66722,-0.108236,-0.165743,0.490856,-0.125552,-0.260853,0.70761,-0.235621,0.1195069999999999,0.50185,-0.1226,0.241067,0.6967,-0.226673,-0.301693,0.91916,-0.307455,0.253677,0.90701,-0.288065,-0.079847,-0.0035199999999999,-0.0017149999999999,0.079847,0.0035199999999999,0.0017149999999999,-0.1618029999999999,0.13385,-0.291965,0.128367,0.14281,-0.289205,-0.124443,-0.15203,-0.15325,0.069956,-0.1433999999999999,-0.145346,1
152,-0.0310485,0.666291,-0.107406,-0.1667584999999999,0.490687,-0.124943,-0.2611585,0.705665,-0.235931,0.1190214999999999,0.502112,-0.122044,0.2411115,0.698295,-0.226564,-0.3016884999999999,0.916805,-0.308605,0.2537515,0.905915,-0.288755,-0.0796815,-0.003645,-0.0017149999999999,0.0796815,0.003645,0.0017149999999999,-0.1629085,0.1406049999999999,-0.290025,0.1283015,0.1495449999999999,-0.286195,-0.1243285,-0.1446049999999999,-0.151801,0.0693705,-0.1360749999999999,-0.142499,1
153,-0.0312845,0.665197,-0.107051,-0.1676045,0.490519,-0.124348,-0.2615045,0.7031449999999999,-0.236188,0.1185254999999999,0.503019,-0.121755,0.2409954999999999,0.697535,-0.226389,-0.3017645,0.912615,-0.30986,0.2536954999999999,0.906865,-0.28957,-0.0795055,-0.003875,-0.00171,0.0795055,0.0038749999999999,0.0017099999999999,-0.1640345,0.145015,-0.28893,0.1282555,0.1537949999999999,-0.2841,-0.1242845,-0.1397749999999999,-0.150258,0.0687435,-0.131265,-0.140216,1
154,-0.031462,0.6645449999999999,-0.106886,-0.1684379999999999,0.4899319999999999,-0.1238459999999999,-0.261638,0.7001449999999999,-0.236401,0.118112,0.504195,-0.12159,0.2409719999999999,0.6977049999999999,-0.226493,-0.301858,0.914575,-0.310745,0.253652,0.907455,-0.290365,-0.079332,-0.004245,-0.0017649999999999,0.079332,0.0042449999999999,0.001765,-0.1650579999999999,0.1487249999999999,-0.287865,0.128232,0.1574149999999999,-0.282355,-0.124318,-0.135595,-0.1489359999999999,0.06819,-0.127205,-0.138514,1
155,-0.031584,0.66393,-0.106836,-0.168782,0.489719,-0.123795,-0.261772,0.697055,-0.236654,0.117778,0.504756,-0.121539,0.241148,0.696975,-0.226942,-0.301882,0.915135,-0.311835,0.253648,0.907045,-0.291325,-0.0791979999999999,-0.004345,-0.0017749999999999,0.0791979999999999,0.004345,0.0017749999999999,-0.165842,0.150605,-0.287035,0.128268,0.1592449999999999,-0.281285,-0.124202,-0.133495,-0.147741,0.067952,-0.1252649999999999,-0.137897,1
156,-0.0319229999999999,0.6639309999999999,-0.1068259999999999,-0.1691049999999999,0.489289,-0.1237849999999999,-0.262665,0.693935,-0.2372909999999999,0.117235,0.5049819999999999,-0.121528,0.241085,0.696255,-0.2275729999999999,-0.3021749999999999,0.914675,-0.312975,0.253435,0.906045,-0.292545,-0.079185,-0.004435,-0.0017849999999999,0.079185,0.0044349999999999,0.001785,-0.166625,0.1510849999999999,-0.286435,0.128085,0.159765,-0.2808549999999999,-0.124245,-0.132815,-0.14676,0.067579,-0.124715,-0.137674,1
157,-0.0322565,0.6639309999999999,-0.1068969999999999,-0.1693375,0.489289,-0.1237849999999999,-0.2632475,0.691835,-0.237834,0.1167724999999999,0.5049819999999999,-0.1215909999999999,0.2411025,0.696255,-0.228323,-0.3023875,0.914025,-0.3141549999999999,0.2532525,0.905635,-0.2937849999999999,-0.0791725,-0.004435,-0.0017849999999999,0.0791725,0.0044349999999999,0.001785,-0.1669375,0.1510349999999999,-0.285995,0.1278824999999999,0.159765,-0.2808549999999999,-0.1242175,-0.1327249999999999,-0.1461319999999999,0.0673465,-0.124715,-0.137674,1
158,-0.0323225,0.6639309999999999,-0.1075179999999999,-0.1693775,0.489289,-0.1239519999999999,-0.2632875,0.691835,-0.2383989999999999,0.1164824999999999,0.5049819999999999,-0.122,0.2412225,0.696255,-0.229256,-0.3024275,0.914025,-0.3155,0.2532725,0.905635,-0.29528,-0.0792125,-0.004435,-0.0018299999999999,0.0792125,0.0044349999999999,0.0018299999999999,-0.1669775,0.1510649999999999,-0.28598,0.1278425,0.1595749999999999,-0.2809399999999999,-0.1240775,-0.1327249999999999,-0.146037,0.0673065,-0.124785,-0.137759,1
159,-0.0324065,0.6639309999999999,-0.108634,-0.1694075,0.489289,-0.12445,-0.2633175,0.691835,-0.239117,0.1162125,0.5049819999999999,-0.12264,0.2411825,0.696255,-0.230422,-0.3024975,0.914025,-0.316875,0.2533225,0.905635,-0.296865,-0.0792425,-0.004435,-0.0018449999999999,0.0792425,0.0044349999999999,0.001845,-0.1670075,0.1511249999999999,-0.2861249999999999,0.1278125,0.1594749999999999,-0.281085,-0.1239375,-0.1327249999999999,-0.146182,0.0672965,-0.124885,-0.137913,1
160,-0.0324259999999999,0.664984,-0.110175,-0.169351,0.4887229999999999,-0.125474,-0.263311,0.690785,-0.240001,0.115979,0.504802,-0.123691,0.241189,0.695535,-0.231673,-0.302521,0.912975,-0.31829,0.253369,0.904585,-0.29879,-0.079249,-0.0044549999999999,-0.0018299999999999,0.079249,0.0044549999999999,0.0018299999999999,-0.167001,0.1501449999999999,-0.28647,0.127809,0.1583649999999999,-0.28167,-0.1238209999999999,-0.1337749999999999,-0.146527,0.067384,-0.126145,-0.138604,1
161,-0.0324229999999999,0.6653610000000001,-0.113324,-0.1689,0.4872550000000001,-0.128355,-0.26309,0.6890100000000001,-0.242092,0.1158199999999999,0.503021,-0.126373,0.2414199999999999,0.6937700000000001,-0.234267,-0.30245,0.91286,-0.32111,0.25355,0.9013600000000002,-0.30167,-0.07933,-0.0044499999999999,-0.0017199999999999,0.07933,0.00445,0.0017199999999999,-0.16659,0.1458000000000001,-0.28806,0.12767,0.15375,-0.28391,-0.1235899999999999,-0.1384299999999999,-0.148108,0.067917,-0.1307899999999999,-0.141673,1
162,-0.0323055,0.66811,-0.1167679999999999,-0.1684265,0.485552,-0.131262,-0.2626664999999999,0.69129,-0.244665,0.1158935,0.501307,-0.1290339999999999,0.2417634999999999,0.6946399999999999,-0.2369419999999999,-0.3022965,0.91581,-0.324725,0.2541935,0.90301,-0.305115,-0.0794635,-0.0044699999999999,-0.0016349999999999,0.0794635,0.0044699999999999,0.0016349999999999,-0.1657365,0.1412999999999999,-0.2897849999999999,0.1273935,0.1490099999999999,-0.286265,-0.1233465,-0.14351,-0.149558,0.0684985,-0.1355699999999999,-0.145147,1
163,-0.031845,0.67073,-0.121157,-0.167366,0.486741,-0.1351399999999999,-0.261756,0.6936100000000001,-0.248905,0.116344,0.497368,-0.132266,0.242184,0.69324,-0.240132,-0.3015859999999999,0.91581,-0.329045,0.255244,0.90263,-0.309235,-0.079464,-0.0037599999999999,-0.001365,0.079464,0.0037599999999999,0.001365,-0.164076,0.13349,-0.292415,0.127344,0.14099,-0.2897349999999999,-0.1227959999999999,-0.1519699999999999,-0.151662,0.069435,-0.14368,-0.149281,1
164,-0.0313455,0.6704150000000001,-0.125393,-0.1657895,0.484128,-0.139273,-0.2605895,0.692675,-0.252937,0.1168405,0.4947020000000001,-0.136031,0.2429504999999999,0.6914450000000001,-0.243567,-0.3008295,0.912135,-0.33346,0.2565604999999999,0.9000750000000001,-0.3133,-0.0794605,-0.0036149999999999,-0.00127,0.0794605,0.003615,0.0012699999999999,-0.1622495,0.119115,-0.29519,0.1272505,0.1265150000000001,-0.29383,-0.1221894999999999,-0.1670949999999998,-0.153678,0.0704165,-0.1583449999999999,-0.153289,1
165,-0.0307864999999999,0.671285,-0.129161,-0.1643375,0.482592,-0.14307,-0.2592175,0.692625,-0.256837,0.1173925,0.491802,-0.139504,0.2441225,0.690525,-0.247023,-0.3000274999999999,0.914725,-0.338155,0.2580925,0.8982950000000001,-0.317065,-0.0794125,-0.003545,-0.001255,0.0794125,0.003545,0.0012549999999999,-0.1603475,0.103825,-0.297805,0.1270725,0.111105,-0.297805,-0.1215075,-0.183305,-0.155702,0.0714605,-0.173945,-0.157243,1
166,-0.0302395,0.6741649999999999,-0.132348,-0.1628875,0.4805219999999999,-0.146555,-0.2580175,0.692655,-0.259663,0.1178325,0.4886979999999999,-0.142426,0.2450425,0.690325,-0.249418,-0.2994175,0.917245,-0.342475,0.2594925,0.902185,-0.320265,-0.0791225,-0.003515,-0.0011849999999999,0.0791225,0.0035149999999999,0.0011849999999999,-0.1587075,0.0883749999999999,-0.300295,0.1267125,0.0955449999999999,-0.301245,-0.1210535,-0.2002250000000001,-0.157233,0.0722935,-0.190295,-0.160801,1
167,-0.0289499999999999,0.674945,-0.134175,-0.161043,0.480066,-0.148896,-0.256223,0.6926749999999999,-0.260904,0.118767,0.4872579999999999,-0.144251,0.2467069999999999,0.689855,-0.250422,-0.298273,0.917325,-0.345435,0.2614269999999999,0.902565,-0.322195,-0.079258,-0.0034549999999999,-0.001085,0.079258,0.0034549999999999,0.001085,-0.1566229999999999,0.0692149999999999,-0.302345,0.126907,0.076245,-0.304175,-0.12014,-0.220895,-0.157672,0.073521,-0.2106549999999999,-0.16318,1
168,-0.027469,0.67724,-0.135005,-0.159136,0.4809759999999999,-0.151033,-0.254336,0.69375,-0.262764,0.1198139999999999,0.486434,-0.145887,0.248374,0.68998,-0.25133,-0.296906,0.91805,-0.348445,0.263734,0.90367,-0.3233749999999999,-0.0794349999999999,-0.00329,-0.0010249999999999,0.0794349999999999,0.0032899999999999,0.0010249999999999,-0.154556,0.0500899999999999,-0.304465,0.127104,0.0573499999999999,-0.306745,-0.119127,-0.24158,-0.15807,0.074819,-0.23134,-0.165381,1
169,-0.0258745,0.6792050000000001,-0.135582,-0.1570825,0.48424,-0.152721,-0.2525525,0.694545,-0.264512,0.1209375,0.487987,-0.147235,0.2500575,0.689835,-0.251989,-0.2951824999999999,0.921765,-0.3499649999999999,0.2662475,0.903945,-0.323695,-0.0796294999999999,-0.003145,-0.0010249999999999,0.0796294999999999,0.003145,0.0010249999999999,-0.1524825,0.030135,-0.306425,0.1273175,0.037785,-0.308925,-0.1181305,-0.263845,-0.158246,0.0759855,-0.253555,-0.166856,1
170,-0.0239025,0.6794800000000001,-0.135641,-0.1553284999999999,0.483431,-0.153777,-0.2507285,0.69352,-0.266173,0.1223715,0.486981,-0.147923,0.2520914999999999,0.6900900000000001,-0.252496,-0.2932785,0.92028,-0.351605,0.2692715,0.90483,-0.323705,-0.0799955,-0.0030499999999999,-0.0010249999999999,0.0799955,0.00305,0.0010249999999999,-0.1502985,0.00827,-0.308395,0.1279015,0.01618,-0.310705,-0.1168735,-0.28855,-0.158464,0.0771685,-0.27805,-0.167649,1
171,-0.021931,0.680955,-0.135648,-0.1533479999999999,0.484239,-0.154655,-0.249268,0.693935,-0.266908,0.123762,0.487749,-0.1483229999999999,0.254212,0.689805,-0.252611,-0.291448,0.919365,-0.35199,0.271962,0.901945,-0.32371,-0.080261,-0.002995,-0.0010199999999999,0.080261,0.0029949999999999,0.00102,-0.148328,-0.013705,-0.3096799999999999,0.128612,-0.004865,-0.31161,-0.115615,-0.313875,-0.1588679999999999,0.078321,-0.3032250000000001,-0.168089,1
172,-0.0199859999999999,0.68154,-0.134886,-0.151531,0.48317,-0.154358,-0.247811,0.69389,-0.266332,0.125609,0.49099,-0.148107,0.256319,0.69138,-0.25185,-0.289861,0.92397,-0.351225,0.274489,0.90315,-0.322955,-0.08069,-0.0033799999999999,-0.000945,0.08069,0.0033799999999999,0.000945,-0.146531,-0.0356199999999999,-0.309345,0.1293389999999999,-0.02606,-0.311115,-0.114492,-0.33965,-0.158435,0.079428,-0.32877,-0.167858,1
173,-0.0180535,0.685935,-0.1324489999999999,-0.1501265,0.4858049999999999,-0.151919,-0.2467565,0.6966749999999999,-0.263892,0.1280735,0.493675,-0.1458559999999999,0.2585935,0.6943549999999999,-0.249413,-0.2882065,0.931795,-0.348785,0.2768835,0.905725,-0.320195,-0.0811284999999999,-0.003325,-0.0009049999999999,0.0811284999999999,0.0033249999999999,0.0009049999999999,-0.1446665,-0.052315,-0.306915,0.1301435,-0.042255,-0.308675,-0.1134385,-0.3608950000000001,-0.156396,0.0805164999999999,-0.3500150000000001,-0.165881,1
174,-0.0160794999999999,0.6893050000000001,-0.129002,-0.1485884999999999,0.487815,-0.149145,-0.2455385,0.698075,-0.261117,0.1305515,0.497735,-0.143349,0.2606615,0.6960550000000001,-0.246516,-0.2863384999999999,0.931035,-0.34602,0.2794014999999999,0.906325,-0.3157,-0.0815265,-0.0030649999999999,-0.00104,0.0815265,0.003065,0.00104,-0.1425084999999999,-0.0706049999999999,-0.3041399999999999,0.1309715,-0.0597349999999999,-0.3059,-0.1122845,-0.384545,-0.154062,0.0820755,-0.3739449999999999,-0.16433,1
175,-0.014131,0.69099,-0.123953,-0.146903,0.49053,-0.145586,-0.2441229999999999,0.7006600000000001,-0.256746,0.1334969999999999,0.50122,-0.1399719999999999,0.262897,0.6972499999999999,-0.2429589999999999,-0.284213,0.92968,-0.34221,0.282197,0.905,-0.3097999999999999,-0.081936,-0.00275,-0.0013399999999999,0.081936,0.0027499999999999,0.00134,-0.140063,-0.08949,-0.3005799999999999,0.131757,-0.0783099999999999,-0.30234,-0.111078,-0.40869,-0.151076,0.083757,-0.3987699999999999,-0.1621729999999999,1
176,-0.0126824999999999,0.6940949999999999,-0.1180499999999999,-0.1454135,0.4918849999999999,-0.141259,-0.2425935,0.702155,-0.251577,0.1362364999999999,0.5025949999999999,-0.1357449999999999,0.2646965,0.697985,-0.2376709999999999,-0.2824635,0.928935,-0.3371699999999999,0.2846765,0.904545,-0.3030699999999999,-0.0820714999999999,-0.002335,-0.0015999999999999,0.0820714999999999,0.0023349999999999,0.0016,-0.1376935,-0.106195,-0.29622,0.1321965,-0.094565,-0.2973599999999999,-0.1101175,-0.4307850000000001,-0.148222,0.0852595,-0.421385,-0.159548,1
177,-0.0112935,0.69624,-0.1119749999999999,-0.1439445,0.49184,-0.1367109999999999,-0.2409945,0.70423,-0.2458759999999999,0.1390654999999999,0.5044,-0.131346,0.2665355,0.70028,-0.2326889999999999,-0.2808545,0.92649,-0.3308149999999999,0.2869155,0.90348,-0.2961049999999999,-0.0819475,-0.00206,-0.0017049999999999,0.0819475,0.00206,0.001705,-0.1352445,-0.1231599999999999,-0.291375,0.1325954999999999,-0.11129,-0.2921049999999999,-0.1092625,-0.45306,-0.145563,0.0869315,-0.44419,-0.1574189999999999,1
178,-0.0097074999999999,0.69721,-0.105395,-0.1421265,0.49043,-0.131671,-0.2400865,0.70643,-0.239923,0.1423735,0.50613,-0.126555,0.2685535,0.70184,-0.227193,-0.2793764999999999,0.92188,-0.323435,0.2893435,0.90278,-0.288335,-0.0819305,-0.00183,-0.0017449999999999,0.0819305,0.0018299999999999,0.0017449999999999,-0.1327065,-0.13978,-0.285355,0.1332335,-0.12802,-0.286035,-0.1081195,-0.4745399999999999,-0.142575,0.0890025,-0.4662699999999999,-0.154864,1
179,-0.0084485,0.70262,-0.099384,-0.1407005,0.49511,-0.127166,-0.2391005,0.7153700000000001,-0.23426,0.1453195,0.51181,-0.122168,0.2701395,0.70491,-0.222195,-0.2784205,0.92846,-0.31515,0.2913095,0.90772,-0.28099,-0.0816955,-0.0015099999999999,-0.0017,0.0816955,0.00151,0.0016999999999999,-0.1304705,-0.15176,-0.2791,0.1334195,-0.14044,-0.27958,-0.1075005,-0.49115,-0.140651,0.0909175,-0.48389,-0.153176,1
180,-0.0072245,0.70556,-0.093012,-0.1394564999999999,0.49748,-0.1222579999999999,-0.2381265,0.71785,-0.228024,0.1482935,0.51524,-0.117184,0.2715235,0.70743,-0.216206,-0.2775565,0.93311,-0.306475,0.2930935,0.91031,-0.273405,-0.0814525,-0.00114,-0.001535,0.0814525,0.00114,0.001535,-0.1282665,-0.16458,-0.271735,0.1334335,-0.1543199999999999,-0.272375,-0.1071265,-0.50846,-0.138104,0.0931765,-0.5021,-0.152036,1
181,-0.00594,0.710295,-0.086861,-0.138121,0.5011650000000001,-0.117168,-0.237251,0.721005,-0.2221739999999999,0.150709,0.519985,-0.1122989999999999,0.272879,0.710115,-0.210474,-0.276921,0.936635,-0.29838,0.294849,0.912335,-0.26614,-0.081019,-0.0009049999999999,-0.0015199999999999,0.081019,0.000905,0.00152,-0.126101,-0.176145,-0.26383,0.133309,-0.1665749999999999,-0.26456,-0.106991,-0.524215,-0.1361119999999999,0.095559,-0.518635,-0.15113,1
182,-0.004562,0.71385,-0.080627,-0.136707,0.5057400000000001,-0.112038,-0.236407,0.72405,-0.216602,0.152953,0.52362,-0.107408,0.274283,0.71256,-0.204769,-0.276397,0.93971,-0.29049,0.296643,0.91449,-0.25912,-0.080362,-0.0005,-0.00151,0.080362,0.0005,0.0015099999999999,-0.123597,-0.1876499999999999,-0.25513,0.1336429999999999,-0.17847,-0.2561,-0.106827,-0.53922,-0.133987,0.0981529999999999,-0.53431,-0.150213,1
183,-0.0034384999999999,0.71772,-0.074595,-0.1354294999999999,0.5097200000000001,-0.106864,-0.2356994999999999,0.72729,-0.209811,0.1549805,0.5252600000000001,-0.102532,0.2754105,0.7151799999999999,-0.198991,-0.2758494999999999,0.94379,-0.28234,0.2981805,0.91732,-0.25234,-0.0797435,-0.0002699999999999,-0.00124,0.0797435,0.00027,0.00124,-0.1210294999999999,-0.19807,-0.24566,0.1338905,-0.1894899999999999,-0.2473199999999999,-0.1068794999999999,-0.5525100000000001,-0.130448,0.1004205,-0.54799,-0.148192,1
184,-0.0021714999999999,0.722675,-0.068837,-0.1342995,0.5131950000000001,-0.101783,-0.2348294999999999,0.730355,-0.203294,0.1565905,0.527725,-0.097645,0.2764705,0.718675,-0.193359,-0.2755395,0.948865,-0.27443,0.2995605,0.922335,-0.2462499999999999,-0.0791915,-5.000000000005e-06,-0.0010099999999999,0.0791915,5.000000000005e-06,0.0010099999999999,-0.1184295,-0.207855,-0.2364399999999999,0.1344305,-0.199605,-0.239,-0.1068694999999999,-0.564855,-0.126326,0.1027005,-0.560395,-0.14599,1
185,-0.0009284999999999,0.7277545,-0.063967,-0.1330595,0.5162145,-0.097396,-0.2340795,0.7352745,-0.197242,0.1582905,0.5308745,-0.093409,0.2775205,0.7237345000000001,-0.188413,-0.2748494999999999,0.9561345,-0.26713,0.3009205,0.9292345,-0.2407699999999999,-0.0785335,0.0001614999999999,-0.0006199999999999,0.0785335,-0.0001614999999999,0.0006199999999999,-0.1158795,-0.2162454999999999,-0.22746,0.1348005,-0.2075555,-0.23137,-0.1065295,-0.5755055,-0.121945,0.1057805,-0.5705455,-0.144147,1
186,-6.499999999999735e-05,0.731938,-0.059192,-0.132566,0.524958,-0.092859,-0.233636,0.737008,-0.19163,0.159364,0.535728,-0.089466,0.278034,0.724768,-0.183465,-0.274676,0.962798,-0.26022,0.301674,0.933708,-0.23541,-0.078079,0.0005349999999999,-0.0002999999999999,0.078079,-0.000535,0.0002999999999999,-0.113676,-0.225102,-0.21682,0.134524,-0.2161519999999999,-0.22263,-0.106716,-0.586642,-0.117843,0.1076739999999999,-0.581052,-0.140139,1
187,0.00056,0.737072,-0.0555789999999999,-0.132658,0.5325920000000001,-0.0892439999999999,-0.233868,0.740452,-0.187826,0.1599519999999999,0.538362,-0.086334,0.278372,0.727452,-0.179852,-0.274798,0.969442,-0.255065,0.302072,0.939192,-0.2314449999999999,-0.077974,0.000938,-0.0001049999999999,0.077974,-0.000938,0.000105,-0.111708,-0.236848,-0.206575,0.133882,-0.226288,-0.214575,-0.106808,-0.597738,-0.114228,0.107582,-0.592298,-0.1365239999999999,1
188,0.0009954999999999,0.741436,-0.052406,-0.1327455,0.538416,-0.086194,-0.2339555,0.744196,-0.184651,0.1605145,0.541006,-0.083623,0.2787644999999999,0.729706,-0.176678,-0.2749755,0.968266,-0.25113,0.3023745,0.940056,-0.22807,-0.0778765,0.001235,-2.0000000000006124e-05,0.0778765,-0.001235,1.999999999999225e-05,-0.1096055,-0.248554,-0.195844,0.1332345,-0.2360939999999999,-0.20657,-0.1069055,-0.6092839999999999,-0.111053,0.1074944999999999,-0.6031139999999999,-0.133349,1
189,0.001028,0.7443385,-0.0487565,-0.1332,0.5432285,-0.0827515,-0.23491,0.7468484999999999,-0.1811605,0.16065,0.5420685,-0.0802985,0.27885,0.7302885,-0.1730825,-0.2754299999999999,0.9636485,-0.2468185,0.3022899999999999,0.9404985,-0.2243085,-0.07741,0.0008634999999999,0.0002274999999999,0.07741,-0.0008635,-0.0002275,-0.10792,-0.2611415,-0.1841655,0.13176,-0.2472115,-0.1962665,-0.10736,-0.6220115,-0.1068865,0.10704,-0.6147715,-0.1296975,1
190,0.000195,0.742125,-0.038335,-0.134706,0.542815,-0.072303,-0.236216,0.744075,-0.170247,0.1605339999999999,0.5396150000000001,-0.069964,0.278394,0.7258650000000001,-0.162192,-0.276536,0.952735,-0.235244,0.301454,0.937085,-0.213384,-0.0770329999999999,0.00061,0.0008109999999999,0.0770329999999999,-0.0006099999999999,-0.000811,-0.106466,-0.278165,-0.162863,0.127574,-0.263955,-0.174353,-0.108466,-0.639705,-0.092851,0.105754,-0.6318349999999999,-0.11478,1
191,-0.0005635,0.740491,-0.0283839999999999,-0.1363105,0.5420309999999999,-0.0623709999999999,-0.2380904999999999,0.742761,-0.160055,0.1601395,0.537991,-0.0601459999999999,0.2779594999999999,0.7219209999999999,-0.15191,-0.2775705,0.949121,-0.2229249999999999,0.3005994999999999,0.934971,-0.202935,-0.0766435,0.000304,0.001372,0.0766435,-0.000304,-0.0013719999999999,-0.1052875,-0.293469,-0.142365,0.1233995,-0.2796289999999999,-0.153272,-0.1093905,-0.655819,-0.078497,0.1042395,-0.647679,-0.09983,1
192,-0.0012219999999999,0.73867,-0.019333,-0.1378059999999999,0.54196,-0.053086,-0.239806,0.74153,-0.1503519999999999,0.159774,0.53677,-0.050973,0.2775439999999999,0.71862,-0.142736,-0.278526,0.94664,-0.211011,0.299764,0.93375,-0.193031,-0.076326,4.799999999999943e-05,0.0018989999999999,0.076326,-4.800000000000117e-05,-0.0018989999999999,-0.104194,-0.30698,-0.122538,0.119154,-0.29401,-0.1332539999999999,-0.110096,-0.67025,-0.064316,0.1024239999999999,-0.66211,-0.084162,1
193,-0.0021519999999999,0.7356315,-0.010264,-0.1399119999999999,0.5422415,-0.043883,-0.240972,0.7397515,-0.140539,0.158908,0.5354615,-0.041969,0.276858,0.7145815,-0.133775,-0.279512,0.9440815,-0.199148,0.298598,0.9271715,-0.183518,-0.076053,-0.0002325,0.002429,0.076053,0.0002325,-0.002429,-0.103435,-0.3201985,-0.102528,0.114538,-0.3078385,-0.112667,-0.110822,-0.6842285,-0.049605,0.100028,-0.6760185,-0.067844,1
194,-0.0032025,0.7324419999999999,-0.0013144999999999,-0.1421815,0.542782,-0.0347484999999999,-0.2425215,0.738132,-0.1312025,0.1577184999999999,0.5339119999999999,-0.0332094999999999,0.2760085,0.709812,-0.1247824999999999,-0.2808115,0.941332,-0.1872915,0.2973385,0.921372,-0.1737915,-0.0759595,-0.000493,0.0029365,0.0759595,0.000493,-0.0029364999999999,-0.1026545,-0.333418,-0.0825545,0.1097985,-0.320968,-0.0917355,-0.1115715,-0.6978380000000001,-0.0346335,0.0973784999999999,-0.689288,-0.0514595,1
195,-0.004268,0.729033,0.0074784999999999,-0.144316,0.5381830000000001,-0.0256705,-0.2442559999999999,0.7384130000000001,-0.1224455,0.156514,0.529853,-0.0242235,0.275104,0.7069230000000001,-0.1161255,-0.281916,0.940603,-0.1758855,0.296134,0.918003,-0.1640755,-0.075869,-0.0008939999999999,0.0034174999999999,0.075869,0.0008939999999999,-0.0034175,-0.101869,-0.344557,-0.0639155,0.105084,-0.331737,-0.0715805,-0.112266,-0.708907,-0.0205805,0.094624,-0.7001269999999999,-0.0354075,1
196,-0.005276,0.7254475,0.0163615,-0.14639,0.5339575,-0.0164935,-0.24609,0.7373475,-0.1136155,0.15538,0.5264675,-0.0155295,0.27413,0.7035075,-0.1072695,-0.28292,0.9399375,-0.1641585,0.29499,0.9143875,-0.1542485,-0.075801,-0.0013335,0.0039275,0.075801,0.0013335,-0.0039275,-0.101056,-0.3555725,-0.0452165,0.1004499999999999,-0.3414125,-0.0512004999999999,-0.1129,-0.7197525,-0.0064445,0.09189,-0.7107225,-0.0191005,0
197,-0.006323,0.721423,0.025317,-0.148468,0.530273,-0.007231,-0.247918,0.733833,-0.104853,0.154272,0.523353,-0.00685,0.273082,0.700143,-0.098312,-0.2840479999999999,0.939783,-0.152443,0.293692,0.911023,-0.144323,-0.0759,-0.0017669999999999,0.004479,0.0759,0.001767,-0.004479,-0.100361,-0.366287,-0.026798,0.0952919999999999,-0.351097,-0.030905,-0.113568,-0.729737,0.0077529999999999,0.088282,-0.721187,-0.002515,0
198,-0.0068505,0.7184665,0.0332955,-0.1498765,0.5285265,0.0009774999999999,-0.2491765,0.7323664999999999,-0.0970655,0.1536634999999999,0.5222165,0.0007994999999999,0.2724835,0.6979265,-0.0903715,-0.2848365,0.9433665,-0.1418715,0.2928235,0.9097265,-0.1354315,-0.0760375,-0.0015225,0.0047825,0.0760375,0.0015224999999999,-0.0047825,-0.0991275,-0.3761735,-0.0095455,0.0916035,-0.3597235,-0.0128375,-0.1138165,-0.7386035000000001,0.0205765,0.0856335,-0.7305035000000001,0.0117885,0
199,-0.0067755,0.719443,0.0341859999999999,-0.1501825,0.5302830000000001,0.001891,-0.2496325,0.7353230000000001,-0.09623,0.1536074999999999,0.5227930000000001,0.000923,0.2724875,0.700273,-0.089687,-0.2851025,0.950733,-0.139126,0.2924475,0.910373,-0.134206,-0.0760375,-0.001478,0.004876,0.0760375,0.0014779999999999,-0.0048759999999999,-0.0977845,-0.377007,-0.0025369999999999,0.0906974999999999,-0.360457,-0.006919,-0.1136325,-0.739337,0.023384,0.0852955,-0.731237,0.014211,0
200,-0.0067639999999999,0.7202815,0.0351365,-0.150449,0.5316615,0.0028564999999999,-0.249889,0.7369615,-0.0952085,0.153521,0.5232815000000001,0.0010395,0.272481,0.7019715000000001,-0.0889514999999999,-0.285439,0.9514015,-0.1378184999999999,0.291961,0.9109115,-0.1328485,-0.076037,-0.0014134999999999,0.0049335,0.076037,0.0014134999999999,-0.0049335,-0.096414,-0.3777485,0.0045655,0.089851,-0.3611885,-0.0008235,-0.113409,-0.7400685,0.0262424999999999,0.085045,-0.7319685,0.0168265,0
201,-0.0067599999999999,0.7208895,0.0360585,-0.1506749999999999,0.5322695,0.0038164999999999,-0.250145,0.7386995,-0.0942125,0.153295,0.5238395,0.0010804999999999,0.272485,0.7031495,-0.0881095,-0.285775,0.9522095,-0.1365775,0.291495,0.9112595,-0.1314275,-0.076037,-0.0013264999999999,0.0049425,0.076037,0.0013265,-0.0049425,-0.0952029999999999,-0.3782405,0.0108884999999999,0.089105,-0.3616804999999999,0.0051435,-0.1131899999999999,-0.7405605000000001,0.0289555,0.084784,-0.7324605000000001,0.0194225,0
202,-0.0063855,0.7212405,0.0370895,-0.1505495,0.5328705,0.0048664999999999,-0.2500595,0.7399105,-0.0931785,0.1529205,0.5243405,0.0012575,0.2726405,0.7038105,-0.0870995,-0.2853995,0.9525505,-0.1353035,0.2914305,0.9111605,-0.1298335,-0.0758765,-0.0012635,0.0049885,0.0758765,0.0012635,-0.0049885,-0.0937525,-0.3777195,0.0166375,0.0889805,-0.3602395,0.0105655,-0.1126585,-0.7408595,0.0315935,0.0849665,-0.7323395,0.0219405,0
203,-0.0059655,0.7216530000000001,0.0380304999999999,-0.1503185,0.533433,0.0057265,-0.2498385,0.740443,-0.0921765,0.1526615,0.524853,0.0014285,0.2728115,0.7042630000000001,-0.0862235,-0.2853085,0.950923,-0.1345725,0.2914815,0.910983,-0.1284725,-0.0757315,-0.0012259999999999,0.0050165,0.0757315,0.001226,-0.0050164999999999,-0.0924965,-0.377207,0.0216095,0.0890614999999999,-0.358577,0.0152165,-0.1120965,-0.7403869999999999,0.0338935,0.0852334999999999,-0.7318469999999999,0.0243495,0
204,-0.0054565,0.7220035,0.038907,-0.1499915,0.5339335,0.0065229999999999,-0.2495215,0.7408435,-0.091255,0.1525485,0.5253935,0.001576,0.2731585,0.7042835,-0.085332,-0.2854215,0.9514335,-0.133563,0.2916985,0.9108935,-0.127293,-0.0755565,-0.0011695,0.0050799999999999,0.0755565,0.0011695,-0.0050799999999999,-0.0913644999999999,-0.3770765,0.0256869999999999,0.0893984999999999,-0.3573465,0.01915,-0.1114125,-0.7397365,0.035943,0.0856365,-0.7317065,0.026653,0
205,-0.004865,0.7222584999999999,0.0397775,-0.149588,0.5344285,0.0072935,-0.249138,0.7411485,-0.0904015,0.152802,0.5255384999999999,0.0020784999999999,0.273622,0.7042084999999999,-0.0845264999999999,-0.285458,0.9528585,-0.1327615,0.292052,0.9108985,-0.1263415,-0.075388,-0.0010944999999999,0.0051075,0.075388,0.0010944999999999,-0.0051075,-0.090287,-0.3769615,0.0287995,0.089902,-0.3564414999999999,0.0225035,-0.1106399999999999,-0.7389615,0.0378685,0.0861069999999999,-0.7314415000000001,0.0289515,0
206,-0.0042159999999999,0.7224055,0.0406194999999999,-0.149148,0.5348955,0.0079935,-0.248708,0.7411854999999999,-0.0897044999999999,0.153142,0.5255555,0.0026245,0.274172,0.7042054999999999,-0.0838105,-0.285288,0.9545555,-0.1321275,0.292482,0.9108955,-0.1254675,-0.0752279999999999,-0.0010914999999999,0.0050975,0.0752279999999999,0.0010915,-0.0050975,-0.089391,-0.3769045,0.0310564999999999,0.090502,-0.3550044999999999,0.0253145,-0.109818,-0.7383145,0.0395665,0.086633,-0.7311245000000001,0.0311085,0
207,-0.0035555,0.7224055,0.0413805,-0.1487235,0.5352055,0.0086035,-0.2483235,0.7411854999999999,-0.0891385,0.1534865,0.5255555,0.0031334999999999,0.2747465,0.7042054999999999,-0.0832315,-0.2851835,0.9563555,-0.1316284999999999,0.2930465,0.9108155,-0.1246885,-0.0750754999999999,-0.0010914999999999,0.0050945,0.0750754999999999,0.0010915,-0.0050945,-0.0885745,-0.3768445,0.0325495,0.0910864999999999,-0.3533745,0.0274314999999999,-0.1089924999999999,-0.7376645000000001,0.0410905,0.0871645,-0.7304745,0.0329775,0
208,-0.0029194999999999,0.7224125,0.0420925,-0.1483325,0.5355025,0.0091455,-0.2479724999999999,0.7411924999999999,-0.0886455,0.1537775,0.5255624999999999,0.0035645,0.2753375,0.7040825,-0.0827405,-0.2847925,0.9567624999999998,-0.1312925,0.2936275,0.9106725,-0.1239825,-0.0749315,-0.0010845,0.0050495,0.0749315,0.0010845,-0.0050495,-0.0879225,-0.3767475,0.0335055,0.0916475,-0.3526175,0.0289145,-0.1081755,-0.7370375,0.0425265,0.0876895,-0.7298275000000001,0.0345465,0
209,-0.0022824999999999,0.7224820000000001,0.042796,-0.1479325,0.535782,0.0096519999999999,-0.2476525,0.741262,-0.088191,0.1540274999999999,0.525632,0.004009,0.2759875,0.7037720000000001,-0.082307,-0.2841725,0.955632,-0.131419,0.2942075,0.910372,-0.123529,-0.0747995,-0.001015,0.0050019999999999,0.0747995,0.001015,-0.0050019999999999,-0.0872725,-0.3765779999999999,0.034209,0.0921675,-0.3517679999999999,0.0299989999999999,-0.1074135,-0.736578,0.04371,0.0882075,-0.7293379999999999,0.035829,0
210,-0.0016429999999999,0.722588,0.0434834999999999,-0.1475679999999999,0.536068,0.0101605,-0.247358,0.741278,-0.0877835,0.154312,0.5256780000000001,0.0044845,0.276642,0.703358,-0.0819184999999999,-0.283698,0.955768,-0.1315915,0.294782,0.910158,-0.1232915,-0.07467,-0.000945,0.0049675,0.07467,0.000945,-0.0049675,-0.086618,-0.376322,0.0348965,0.092682,-0.351182,0.0308105,-0.106651,-0.735972,0.0448984999999999,0.088741,-0.728792,0.0370765,0
