sb224sc-HT22-VT27/4dt907/src/data/labeled_files/B9_kinect.csv
FrameNo,nose_3d_x,nose_3d_y,nose_3d_z,left_shoulder_3d_x,left_shoulder_3d_y,left_shoulder_3d_z,left_elbow_3d_x,left_elbow_3d_y,left_elbow_3d_z,right_shoulder_3d_x,right_shoulder_3d_y,right_shoulder_3d_z,right_elbow_3d_x,right_elbow_3d_y,right_elbow_3d_z,left_wrist_3d_x,left_wrist_3d_y,left_wrist_3d_z,right_wrist_3d_x,right_wrist_3d_y,right_wrist_3d_z,left_hip_3d_x,left_hip_3d_y,left_hip_3d_z,right_hip_3d_x,right_hip_3d_y,right_hip_3d_z,left_knee_3d_x,left_knee_3d_y,left_knee_3d_z,right_knee_3d_x,right_knee_3d_y,right_knee_3d_z,left_ankle_3d_x,left_ankle_3d_y,left_ankle_3d_z,right_ankle_3d_x,right_ankle_3d_y,right_ankle_3d_z,activity_label
0,-0.012353,0.7652505,0.0341034999999999,-0.172452,0.4893305,0.0162824999999999,-0.219512,0.2458605,0.0029194999999999,0.157198,0.4828205,0.0117624999999999,0.244148,0.2715404999999999,-0.0279525,-0.222042,0.0591605,-0.0743105,0.233058,0.4149204999999999,-0.1843105,-0.075319,-0.0007895,-0.0006775,0.075319,0.0007895,0.0006774999999999,-0.0979889999999999,-0.3405295,0.0328225,0.091361,-0.3386495,0.0508444999999999,-0.106802,-0.6670695,0.0676515,0.086945,-0.6525995,0.0626954999999999,0
1,-0.0121774999999999,0.7651905,0.0342209999999999,-0.1724125,0.4892605,0.016307,-0.2195525,0.2459705,0.0028969999999999,0.1570775,0.4827905,0.013019,0.2444075,0.2721905,-0.029232,-0.2220825,0.0592155,-0.074416,0.2319775,0.4207605,-0.195036,-0.0753165,-0.0007975,-0.000708,0.0753165,0.0007975,0.000708,-0.0979795,-0.3405195,0.032803,0.0913404999999999,-0.3389295,0.051154,-0.1068524999999999,-0.6669995000000001,0.0675689999999999,0.0869475,-0.6526495,0.062736,0
2,-0.012006,0.7653345,0.034246,-0.1723879999999999,0.4892245,0.016313,-0.2196779999999999,0.2461944999999999,0.003014,0.156942,0.4828545,0.013635,0.244632,0.2706445,-0.025507,-0.222148,0.0593715,-0.074546,0.232262,0.4220145,-0.194236,-0.075331,-0.0008065,-0.000745,0.075331,0.0008065,0.000745,-0.09807,-0.3405855,0.032688,0.091337,-0.3389054999999999,0.051077,-0.106808,-0.6668655,0.06747,0.086931,-0.6527755,0.062786,0
3,-0.011657,0.7654375,0.034323,-0.172319,0.4892375,0.01643,-0.219849,0.2463675,0.003047,0.156891,0.4832075,0.013175,0.244421,0.2719074999999999,-0.0271509999999999,-0.222169,0.0593835,-0.074659,0.232201,0.4233975,-0.193629,-0.0753409999999999,-0.0008165,-0.000799,0.0753409999999999,0.0008165,0.000799,-0.098131,-0.3411025,0.03289,0.091195,-0.3390625,0.05105,-0.106799,-0.6666825000000001,0.067412,0.086724,-0.6529125,0.062634,0
4,-0.0113389999999999,0.7656875,0.0344775,-0.1723469999999999,0.4892675,0.0163775,-0.219887,0.2463775,0.0030115,0.1568729999999999,0.4832875,0.0125775,0.244253,0.2722975,-0.0278824999999999,-0.222167,0.0593855,-0.0746755,0.231953,0.4196175,-0.1885155,-0.075351,-0.0008175,-0.0008254999999999,0.075351,0.0008175,0.0008254999999999,-0.09817,-0.3410925,0.0328215,0.091233,-0.3388625,0.0509875,-0.1067569999999999,-0.6664925,0.0673255,0.086576,-0.6524025,0.0625955,0
5,-0.011129,0.765897,0.0346385,-0.17227,0.489197,0.0161615,-0.22003,0.246427,0.0030174999999999,0.15675,0.483417,0.0135755,0.24386,0.272627,-0.0289344999999999,-0.22229,0.059621,-0.0746344999999999,0.2322,0.418227,-0.1860645,-0.075361,-0.000824,-0.0008114999999999,0.075361,0.000824,0.0008114999999999,-0.098634,-0.339763,0.0327035,0.091064,-0.338863,0.0509675,-0.10611,-0.664843,0.0679925,0.0861379999999999,-0.653193,0.0622595,0
6,-0.010628,0.766654,0.035147,-0.172313,0.489234,0.015951,-0.220153,0.246544,0.002932,0.156817,0.4835339999999999,0.014369,0.244397,0.272804,-0.0277339999999999,-0.222403,0.059823,-0.074791,0.232747,0.416834,-0.183601,-0.075367,-0.000816,-0.0008849999999999,0.075367,0.000816,0.000885,-0.098597,-0.340186,0.032583,0.0911479999999999,-0.339196,0.051101,-0.106223,-0.665046,0.067817,0.086118,-0.653446,0.062215,0
7,-0.0103725,0.766775,0.0355964999999999,-0.1723245,0.489365,0.0157355,-0.2207845,0.247205,0.0028455,0.1568455,0.483415,0.0124804999999999,0.2447355,0.273775,-0.0295404999999999,-0.2231445,0.063018,-0.0763525,0.2332054999999999,0.418865,-0.1879825,-0.0753705,-0.000831,-0.0009025,0.0753705,0.000831,0.0009025,-0.0984375,-0.340105,0.0324965,0.0911144999999999,-0.339155,0.0511244999999999,-0.1066145,-0.665605,0.0677494999999999,0.0863535,-0.653165,0.0624114999999999,0
8,-0.0100545,0.767069,0.035983,-0.1722885,0.4893889999999999,0.015528,-0.2214384999999999,0.248099,0.002786,0.1568315,0.483469,0.012418,0.2449715,0.274459,-0.0301309999999999,-0.2241485,0.0653929999999999,-0.079165,0.2335014999999999,0.420409,-0.1903849999999999,-0.0753815,-0.000833,-0.0009199999999999,0.0753815,0.000833,0.00092,-0.0984765,-0.340021,0.032452,0.0910924999999999,-0.339131,0.051128,-0.1066285,-0.665461,0.067771,0.0863195,-0.653141,0.062383,0
9,-0.0097165,0.7673425,0.036482,-0.1722115,0.4894525,0.015297,-0.2226115,0.2499624999999999,0.002656,0.1567984999999999,0.4834925,0.012175,0.2453584999999999,0.2754725,-0.0310889999999999,-0.2258015,0.0689145,-0.0834149999999999,0.2340585,0.4217525,-0.1916749999999999,-0.0753975,-0.0008365,-0.0009249999999999,0.0753975,0.0008365,0.000925,-0.0985075,-0.3399375,0.032397,0.0910985,-0.3391175,0.051109,-0.1066415,-0.6653475,0.067771,0.0862965,-0.6531275,0.062369,0
10,-0.0093815,0.767606,0.037015,-0.1721244999999999,0.489566,0.015025,-0.2244944999999999,0.252956,0.0019979999999999,0.1567855,0.483516,0.011851,0.2459455,0.276826,-0.0326339999999999,-0.2290845,0.075369,-0.091097,0.2346955,0.423236,-0.193147,-0.0754094999999999,-0.000839,-0.0009249999999999,0.0754094999999999,0.000839,0.000925,-0.0985385,-0.339864,0.032339,0.0911144999999999,-0.339094,0.051082,-0.1066445,-0.665324,0.067705,0.0862715,-0.653094,0.062363,0
11,-0.009059,0.7678245,0.037633,-0.172013,0.4897244999999999,0.0147879999999999,-0.227223,0.2575044999999999,0.0008739999999999,0.156777,0.4835345,0.011542,0.247157,0.2791344999999999,-0.035661,-0.233033,0.0840005,-0.100368,0.2355669999999999,0.4263245,-0.195158,-0.075418,-0.0008424999999999,-0.0008939999999999,0.075418,0.0008424999999999,0.0008939999999999,-0.098583,-0.3398155,0.0323079999999999,0.091143,-0.3390555,0.05106,-0.106653,-0.6653055,0.067674,0.086278,-0.6531855,0.062325,0
12,-0.00873,0.7680435,0.0382765,-0.171847,0.4899235,0.0145295,-0.230477,0.2635035,-0.0007684999999999,0.156763,0.4835035,0.0111505,0.248793,0.2825535,-0.0400735,-0.238417,0.0976274999999999,-0.1122985,0.236473,0.4327035,-0.1992085,-0.0754219999999999,-0.0008415,-0.0008535,0.0754219999999999,0.0008415,0.0008535,-0.0986219999999999,-0.3397564999999999,0.0322685,0.0912109999999999,-0.3390364999999999,0.0510285,-0.106657,-0.6652365,0.0676335,0.086307,-0.6533065,0.0622635,0
13,-0.0084179999999999,0.768231,0.0389164999999999,-0.171717,0.490231,0.0143024999999999,-0.233767,0.2710809999999999,-0.0031055,0.156623,0.4835009999999999,0.0104784999999999,0.250843,0.287361,-0.0457765,-0.2447269999999999,0.114041,-0.1256035,0.237483,0.440131,-0.2041035,-0.075432,-0.000839,-0.0008085,0.075432,0.000839,0.0008084999999999,-0.0986129999999999,-0.339719,0.0322384999999999,0.091293,-0.339019,0.0509834999999999,-0.106697,-0.665219,0.0676025,0.086383,-0.653369,0.0622184999999999,0
14,-0.008108,0.7684085,0.039594,-0.171623,0.4905385,0.014085,-0.238493,0.2796085,-0.0072319999999999,0.156377,0.4834985,0.009771,0.253367,0.2934184999999999,-0.052776,-0.251843,0.1352985,-0.142011,0.238767,0.4487784999999999,-0.209731,-0.075456,-0.0008355,-0.0007299999999999,0.075456,0.0008355,0.00073,-0.098604,-0.3396215,0.032175,0.091389,-0.3389615,0.050911,-0.106723,-0.6652015,0.067542,0.0864709999999999,-0.6534614999999999,0.062129,0
15,-0.0078384999999999,0.7685660000000001,0.0402725,-0.1715835,0.490846,0.0138944999999999,-0.2441035,0.289616,-0.0146365,0.1560965,0.483446,0.0090764999999999,0.2563565,0.300736,-0.0607155,-0.2596434999999999,0.156116,-0.1606345,0.2403865,0.459316,-0.2160645,-0.0754955,-0.000831,-0.0006104999999999,0.0754955,0.000831,0.0006104999999999,-0.0985735,-0.339564,0.0321155,0.0914995,-0.338924,0.0508254999999999,-0.1067335,-0.665184,0.0674505,0.0865645,-0.653534,0.0619964999999999,0
16,-0.0076269999999999,0.7687245,0.0410905,-0.1715439999999999,0.4911545,0.0136375,-0.2495939999999999,0.2994445,-0.0221094999999999,0.155816,0.4833845,0.0083095,0.260336,0.3098545,-0.0701535,-0.267304,0.1765645,-0.1785435,0.242506,0.4724745,-0.2230035,-0.075543,-0.0008225,-0.0004594999999999,0.075543,0.0008225,0.0004595,-0.0985549999999999,-0.3394755,0.0320765,0.091657,-0.3389255,0.0507275,-0.1067139999999999,-0.6648355,0.0673445,0.086671,-0.6536755,0.0618665,0
17,-0.0074514999999999,0.7688845,0.0420045,-0.1714844999999999,0.4914145,0.0134325,-0.2560345,0.3100845,-0.0305364999999999,0.1555755,0.4833945,0.0075365,0.2649455,0.3206645,-0.0808945,-0.2785445,0.2076945,-0.1968145,0.2446155,0.4862345,-0.2281645,-0.0755945,-0.0008225,-0.0003024999999999,0.0755945,0.0008225,0.0003024999999999,-0.0985544999999999,-0.3393755,0.0320285,0.0918555,-0.3389355,0.0506475,-0.1066544999999999,-0.6644955,0.0672375,0.0868085,-0.6540655,0.0617415,0
18,-0.0073434999999999,0.7690945,0.043004,-0.1714255,0.4916545,0.013269,-0.2656555,0.3209845,-0.0399169999999999,0.1553844999999999,0.4834145,0.006804,0.2699245,0.3338245,-0.092708,-0.2901154999999999,0.2449045,-0.217568,0.2469645,0.5033545,-0.2340279999999999,-0.0756485,-0.0008225,-0.000132,0.0756485,0.0008225,0.000132,-0.0985745,-0.3392755,0.032055,0.0920645,-0.3389355,0.050566,-0.1065855,-0.6640055,0.0671539999999999,0.0869665,-0.6543955,0.061595,0
19,-0.0072189999999999,0.7693209999999999,0.0442025,-0.17149,0.491971,0.0131135,-0.27487,0.339251,-0.0529614999999999,0.15529,0.483431,0.0058765,0.27632,0.351331,-0.1060324999999999,-0.30032,0.287011,-0.2362125,0.24955,0.528991,-0.2404825,-0.075707,-0.000819,5.7500000000002e-05,0.075707,0.000819,-5.7500000000002e-05,-0.098579,-0.339169,0.0320854999999999,0.092294,-0.339129,0.0504835,-0.1064799999999999,-0.663509,0.0670844999999999,0.087197,-0.6549290000000001,0.0614485,0
20,-0.0070739999999999,0.7695200000000001,0.045473,-0.17174,0.49243,0.012858,-0.28391,0.35869,-0.066646,0.15536,0.48339,0.004951,0.2826999999999999,0.36922,-0.1183659999999999,-0.31004,0.33591,-0.252106,0.25222,0.55289,-0.2456959999999999,-0.075765,-0.000798,0.000281,0.075765,0.000798,-0.0002809999999999,-0.09855,-0.33913,0.032106,0.092509,-0.33956,0.050385,-0.1063399999999999,-0.6630499999999999,0.066984,0.087472,-0.65553,0.061279,0
21,-0.0068645,0.769637,0.046844,-0.1720765,0.4931169999999999,0.012496,-0.2931465,0.3772169999999999,-0.080211,0.1555535,0.483477,0.004105,0.2892834999999999,0.387907,-0.1298309999999999,-0.3177565,0.386997,-0.2644209999999999,0.2555835,0.574937,-0.248931,-0.0758205,-0.000761,0.0005039999999999,0.0758205,0.000761,-0.0005039999999999,-0.0984565,-0.339273,0.032148,0.0927405,-0.340093,0.050308,-0.1061165,-0.662473,0.066881,0.0877995,-0.656273,0.061087,0
22,-0.0065965,0.7696615,0.0483085,-0.1725245,0.4940015,0.0120185,-0.3026745,0.3960915,-0.0929794999999999,0.1558155,0.4836815,0.0034855,0.2957255,0.4077415,-0.1404795,-0.3241245,0.4377815,-0.2743195,0.2595955,0.5983015,-0.2509194999999999,-0.0758645,-0.0007185,0.0006364999999999,0.0758645,0.0007185,-0.0006364999999999,-0.0983145,-0.3395085,0.0322965,0.0930375,-0.3408885,0.0503035,-0.1058745,-0.6619585,0.0669035,0.0881685,-0.6572285,0.0609595,0
23,-0.0063009999999999,0.7694880000000001,0.04981,-0.1727679999999999,0.495118,0.0114989999999999,-0.310248,0.417388,-0.104266,0.156192,0.484038,0.0028159999999999,0.300672,0.428408,-0.1495459999999999,-0.329418,0.488678,-0.280786,0.263852,0.622438,-0.252536,-0.0758969999999999,-0.0006429999999999,0.0006919999999999,0.0758969999999999,0.000643,-0.0006919999999999,-0.098048,-0.3399419999999999,0.032476,0.093414,-0.3417719999999999,0.050338,-0.1055079999999999,-0.661642,0.06694,0.088597,-0.658152,0.06095,0
24,-0.0060929999999999,0.7692,0.051424,-0.1728529999999999,0.4961,0.010988,-0.315903,0.44345,-0.1140559999999999,0.156667,0.4849299999999999,0.0023029999999999,0.304567,0.4505599999999999,-0.155096,-0.333783,0.54427,-0.283336,0.268197,0.64612,-0.253106,-0.075912,-0.00058,0.000743,0.075912,0.00058,-0.000743,-0.0977629999999999,-0.3405,0.032637,0.0937959999999999,-0.34264,0.050376,-0.105133,-0.66147,0.06701,0.089039,-0.65923,0.060935,0
25,-0.0059015,0.768592,0.0528545,-0.1726225,0.497612,0.0102354999999999,-0.3207124999999999,0.470802,-0.1239585,0.1573574999999999,0.486122,0.0019744999999999,0.3072875,0.472852,-0.1581884999999999,-0.3374324999999999,0.6024120000000001,-0.2846385,0.2726675,0.668612,-0.2530785,-0.0759175,-0.000479,0.0007925,0.0759175,0.0004789999999999,-0.0007925,-0.0974025,-0.3413779999999999,0.0327655,0.0942365,-0.343798,0.0504155,-0.1047424999999999,-0.6616679999999999,0.0670645,0.0895495,-0.660648,0.0608905,0
26,-0.005711,0.7676835000000001,0.054199,-0.172152,0.4994734999999999,0.0093189999999999,-0.323632,0.4980435,-0.132619,0.158168,0.4874435,0.0017749999999999,0.309238,0.4953535,-0.159229,-0.3369419999999999,0.6517735,-0.284539,0.277398,0.6950735,-0.252999,-0.075916,-0.0003654999999999,0.0007929999999999,0.075916,0.0003654999999999,-0.000793,-0.097002,-0.3425565,0.0329439999999999,0.094682,-0.3450065,0.0504149999999999,-0.104302,-0.6621765,0.067184,0.090066,-0.6621165,0.0609089999999999,0
27,-0.0055824999999999,0.766345,0.055382,-0.1716625,0.5016550000000001,0.0084649999999999,-0.3231725,0.526755,-0.139169,0.1590775,0.488965,0.0017529999999999,0.3104775,0.515345,-0.1590389999999999,-0.3364525,0.696655,-0.284349,0.2820175,0.717765,-0.252829,-0.0758655,-0.0002399999999999,0.00068,0.0758655,0.00024,-0.00068,-0.0965825,-0.344115,0.033134,0.0950865,-0.346615,0.050424,-0.1038625,-0.663075,0.0673739999999999,0.0905655,-0.663995,0.0609949999999999,0
28,-0.005506,0.764583,0.0563235,-0.171217,0.504173,0.0077845,-0.322717,0.550183,-0.1388924999999999,0.159973,0.490673,0.0020275,0.310933,0.531203,-0.1587624999999999,-0.335997,0.737193,-0.2840725,0.286583,0.734023,-0.2518025,-0.075751,-0.000164,0.0005255,0.075751,0.000164,-0.0005254999999999,-0.096217,-0.346097,0.0334115,0.0953799999999999,-0.348627,0.0505175,-0.103477,-0.664417,0.0676375,0.091027,-0.666057,0.0611695,0
29,-0.0055084999999999,0.7625014999999999,0.0570964999999999,-0.1707985,0.5067115,0.0073694999999999,-0.3222985,0.5727215,-0.1388185,0.1608415,0.4923514999999999,0.0024095,0.3113515,0.5471015,-0.1583784999999999,-0.3342885,0.7704115,-0.2818285,0.2910215,0.7499815,-0.2492685,-0.0756325,-0.0001494999999999,0.0003794999999999,0.0756325,0.0001495,-0.0003794999999999,-0.0958785,-0.3483685,0.0337955,0.0955885,-0.3509385,0.0505915,-0.1031585,-0.6661085,0.0679984999999999,0.0914455,-0.6683685,0.0614725,0
30,-0.005628,0.7601285,0.0577525,-0.170319,0.5089285,0.0071735,-0.320899,0.5956385000000001,-0.1383405,0.1615909999999999,0.4945385,0.0028965,0.311681,0.5624385000000001,-0.1566205,-0.333929,0.7973785,-0.2740005,0.294921,0.7649085,-0.2444805,-0.075489,-0.0001245,0.0001635,0.075489,0.0001244999999999,-0.0001634999999999,-0.095679,-0.3508415,0.0342395,0.0957119999999999,-0.3534315,0.0507055,-0.102929,-0.6682115,0.0684535,0.091775,-0.6709615,0.0618855,0
31,-0.0058545,0.7574465,0.0583869999999999,-0.1696545,0.5112765,0.0073389999999999,-0.3175044999999999,0.6180565,-0.137718,0.1623655,0.4965265,0.0035999999999999,0.3108855,0.5761365,-0.152118,-0.3327945,0.8232365,-0.263098,0.2982255,0.7776765,-0.237838,-0.0753475,-0.0001594999999999,-4.000000000004e-06,0.0753475,0.0001594999999999,3.9999999999970615e-06,-0.0955645,-0.3536435,0.034815,0.0957305,-0.3560035,0.05094,-0.1027745,-0.6706934999999999,0.069057,0.0919915,-0.6738934999999999,0.0624659999999999,0
32,-0.0061685,0.7545555,0.0591015,-0.1687695,0.5135155,0.0076624999999999,-0.3133895,0.6393255,-0.1346454999999999,0.1627605,0.4985655,0.0043805,0.3092805,0.5884855,-0.1467955,-0.3314495,0.8458155,-0.2515655,0.3012205,0.7898055,-0.2305554999999999,-0.0752225,-0.0002455,-0.0001844999999999,0.0752225,0.0002454999999999,0.0001844999999999,-0.0955895,-0.3564744999999999,0.0354425,0.0955454999999999,-0.3575045,0.0509205,-0.1027095,-0.6733245,0.0697245,0.0920764999999999,-0.6769045,0.0631355,0
33,-0.0064569999999999,0.751456,0.0599345,-0.1676129999999999,0.515946,0.0080674999999999,-0.308053,0.654556,-0.1313935,0.163187,0.500196,0.0054255,0.306517,0.599326,-0.1390934999999999,-0.330493,0.863986,-0.2399934999999999,0.303787,0.801356,-0.2223235,-0.075093,-0.0003319999999999,-0.0003114999999999,0.075093,0.000332,0.0003114999999999,-0.095733,-0.359074,0.0360305,0.095328,-0.359204,0.0510064999999999,-0.102653,-0.676204,0.0705095,0.092137,-0.680204,0.0639255,0
34,-0.0067639999999999,0.7483785,0.0606675,-0.166342,0.5181285,0.0086734999999999,-0.301992,0.6691285,-0.1278445,0.163578,0.5015585,0.0065714999999999,0.303188,0.6092385,-0.1302045,-0.329612,0.8807785,-0.2274245,0.305628,0.8185285,-0.2125845,-0.074986,-0.0004584999999999,-0.0003355,0.074986,0.0004585,0.0003354999999999,-0.095942,-0.3614315,0.0365924999999999,0.095084,-0.3607114999999999,0.0511195,-0.102552,-0.6793615000000001,0.0712825,0.0921859999999999,-0.6834215,0.0647415,0
35,-0.0071245,0.7453299999999999,0.061158,-0.1651895,0.52028,0.009383,-0.2959695,0.6830299999999999,-0.122912,0.1639705,0.50274,0.007913,0.3006105,0.6185499999999999,-0.121012,-0.3287795,0.89848,-0.2133519999999999,0.3070405,0.8295699999999999,-0.202652,-0.0749025,-0.00059,-0.000299,0.0749025,0.00059,0.000299,-0.0961995,-0.36339,0.037033,0.0948114999999999,-0.36191,0.051196,-0.1024694999999999,-0.68249,0.072079,0.0922345,-0.6866000000000001,0.065594,0
36,-0.0075485,0.7424810000000001,0.0613059999999999,-0.1642355,0.5221210000000001,0.0101269999999999,-0.2905955,0.694561,-0.115502,0.1643145,0.504481,0.0093009999999999,0.2980945,0.628621,-0.113542,-0.3280855,0.913661,-0.200022,0.3079845,0.8407910000000001,-0.192322,-0.0748475,-0.0007779999999999,-0.000136,0.0748475,0.000778,0.0001359999999999,-0.0965155,-0.365049,0.0374369999999999,0.0945355,-0.3628989999999999,0.0512219999999999,-0.1024455,-0.685699,0.072901,0.0922505,-0.689809,0.066452,0
37,-0.0080139999999999,0.739838,0.061273,-0.163537,0.523698,0.010911,-0.285777,0.7032879999999999,-0.1077819999999999,0.164543,0.506168,0.01063,0.295323,0.6390180000000001,-0.1065919999999999,-0.327537,0.925528,-0.186752,0.308583,0.8502479999999999,-0.1817119999999999,-0.074802,-0.000933,6.699999999999762e-05,0.074802,0.0009329999999999,-6.699999999999762e-05,-0.096887,-0.366422,0.037769,0.09424,-0.363772,0.051239,-0.102497,-0.688742,0.073729,0.092184,-0.6928719999999999,0.06731,0
38,-0.0084314999999999,0.7372875000000001,0.061101,-0.1630015,0.5251574999999999,0.011721,-0.2813914999999999,0.7104275,-0.099659,0.1647684999999999,0.5081875,0.011966,0.2922085,0.6502874999999999,-0.099899,-0.3269014999999999,0.9354575,-0.173379,0.3085685,0.8609475,-0.170349,-0.0747235,-0.0010474999999999,0.0002629999999999,0.0747235,0.0010474999999999,-0.0002629999999999,-0.0972814999999999,-0.3675725,0.037994,0.0939305,-0.3648325,0.051302,-0.1025715,-0.6917925,0.074473,0.0920945,-0.6958925,0.068115,0
39,-0.0087835,0.7349085,0.0606685,-0.1625535,0.5264885,0.0125495,-0.2775335,0.7171185,-0.0918395,0.1648465,0.5100785,0.0133395,0.2887565,0.6605885,-0.0934894999999999,-0.3260235,0.9441385,-0.1602294999999999,0.3085465,0.8729785,-0.1588895,-0.0746475,-0.0011885,0.0005455,0.0746475,0.0011885,-0.0005454999999999,-0.0975935,-0.3686915,0.0381895,0.0936745,-0.3659115,0.0513685,-0.1026435,-0.6947915,0.0751885,0.0920165,-0.6988615,0.0689005,0
40,-0.009102,0.732864,0.060104,-0.162241,0.527334,0.01329,-0.275301,0.722674,-0.086015,0.164869,0.512314,0.0146629999999999,0.284899,0.671054,-0.087235,-0.325031,0.952094,-0.147535,0.308509,0.885324,-0.147685,-0.074614,-0.0013499999999999,0.0007809999999999,0.074614,0.00135,-0.000781,-0.097851,-0.369456,0.038277,0.093501,-0.3666459999999999,0.051336,-0.102711,-0.697556,0.075778,0.091908,-0.701466,0.069587,0
41,-0.0094105,0.7311234999999999,0.059504,-0.1620764999999999,0.5279134999999999,0.013984,-0.2731165,0.7261335,-0.0811089999999999,0.1647635,0.5143734999999999,0.015938,0.2807935,0.6811634999999999,-0.0809089999999999,-0.3239765,0.9578135,-0.136149,0.3084335,0.8964234999999999,-0.137339,-0.0745945,-0.0015304999999999,0.0010259999999999,0.0745945,0.0015304999999999,-0.0010259999999999,-0.0980965,-0.3701365,0.038342,0.0933845,-0.3681365,0.051574,-0.1027665,-0.7000065000000001,0.0763389999999999,0.0917635,-0.7038865000000001,0.070249,0
42,-0.0097274999999999,0.7295929999999999,0.058839,-0.1621195,0.528313,0.014571,-0.2713295,0.729703,-0.076184,0.1646205,0.516423,0.017089,0.2769605,0.6899029999999999,-0.076174,-0.3228195,0.963173,-0.1253139999999999,0.3079705,0.906653,-0.1282039999999999,-0.0745765,-0.001716,0.001223,0.0745765,0.001716,-0.001223,-0.0982595,-0.370997,0.038409,0.0932395,-0.369337,0.051698,-0.1028594999999999,-0.7022470000000001,0.076797,0.0915935,-0.706047,0.070809,0
43,-0.0100459999999999,0.7282805000000001,0.0581599999999999,-0.162204,0.5282804999999999,0.0150139999999999,-0.269844,0.7325405,-0.071919,0.164426,0.5185005,0.0181619999999999,0.273246,0.6976705000000001,-0.071839,-0.321654,0.9670005000000002,-0.116079,0.307156,0.9095305,-0.120779,-0.074573,-0.0019154999999999,0.0014139999999999,0.074573,0.0019155,-0.001414,-0.098424,-0.3718395,0.038411,0.093074,-0.3703495,0.0517269999999999,-0.102974,-0.7043195,0.0771719999999999,0.091395,-0.7080394999999999,0.0713179999999999,0
44,-0.0103365,0.7271325000000001,0.0575025,-0.1623645,0.5278625,0.0153054999999999,-0.2687145,0.7348425000000001,-0.0683475,0.1641155,0.5206825,0.0191184999999999,0.2696655,0.7041025000000001,-0.0679775,-0.3202745,0.9673925,-0.1085975,0.3061655,0.9125325,-0.1133975,-0.0746005,-0.0021395,0.0016264999999999,0.0746005,0.0021394999999999,-0.0016265,-0.0986345,-0.3729075,0.0384204999999999,0.0929635,-0.3714075,0.0517635,-0.1031345,-0.7062275,0.0774235,0.0911605,-0.7098774999999999,0.0717005,0
45,-0.0105505,0.7261225,0.056867,-0.1625565,0.5274025,0.015491,-0.2678865,0.7368025,-0.065312,0.1637935,0.5220525,0.019828,0.2665335,0.7096325000000001,-0.064612,-0.3188164999999999,0.9677025,-0.101562,0.3052135,0.9153825,-0.1067719999999999,-0.0746135,-0.0023264999999999,0.001792,0.0746135,0.0023265,-0.0017919999999999,-0.0988265,-0.3737675,0.038395,0.0928785,-0.3723875,0.051832,-0.1033065,-0.7079375000000001,0.077563,0.0909685,-0.7114974999999999,0.071997,0
46,-0.01079,0.725229,0.0562765,-0.162762,0.526749,0.0156355,-0.267272,0.738469,-0.0627175,0.163498,0.523329,0.0204945,0.263748,0.714419,-0.0616774999999999,-0.317402,0.967809,-0.0956875,0.304208,0.917719,-0.1009075,-0.0746449999999999,-0.002515,0.0019204999999999,0.0746449999999999,0.0025149999999999,-0.0019204999999999,-0.098992,-0.374571,0.0383685,0.092759,-0.373071,0.0518485,-0.103502,-0.709441,0.0776635,0.0907449999999999,-0.712831,0.0722165,0
47,-0.0110374999999999,0.7245029999999999,0.0557055,-0.1629845,0.525933,0.0157894999999999,-0.2668945,0.7398530000000001,-0.0606605,0.1632955,0.5243530000000001,0.0210535,0.2614355,0.717023,-0.0590805,-0.3163045,0.968133,-0.0911805,0.3034754999999999,0.919673,-0.0962104999999999,-0.0746935,-0.002692,0.0020164999999999,0.0746935,0.002692,-0.0020165,-0.0991445,-0.375267,0.0383494999999999,0.0927065,-0.373537,0.0518235,-0.1037045,-0.710847,0.0777275,0.0905165,-0.7139869999999999,0.0724235,0
48,-0.0112555,0.7239614999999999,0.0553455,-0.1631795,0.5252815,0.0159625,-0.2666895,0.7407515,-0.0592705,0.1629605,0.5248915000000001,0.0214615,0.2597305,0.7191615,-0.0571005,-0.3155195,0.9687815,-0.0880205,0.3030305,0.9203115,-0.0930205,-0.0747465,-0.0028685,0.0020654999999999,0.0747465,0.0028684999999999,-0.0020654999999999,-0.0992595,-0.3757985,0.0383795,0.0926684999999999,-0.3736885,0.0517685,-0.1038795,-0.7119285,0.0777455,0.0903394999999999,-0.7148185,0.0725995,0
49,-0.0113925,0.723417,0.055014,-0.1633015,0.5247069999999999,0.016115,-0.2665115,0.741297,-0.058283,0.1627085,0.5251469999999999,0.021767,0.2587485,0.720177,-0.0557629999999999,-0.3149515,0.968797,-0.086153,0.3027385,0.920567,-0.090733,-0.0747545,-0.0029749999999999,0.002078,0.0747545,0.0029749999999999,-0.0020779999999999,-0.0992915,-0.376303,0.038386,0.0926464999999999,-0.373733,0.051678,-0.1039715,-0.712783,0.077764,0.0902154999999999,-0.715553,0.072725,0
50,-0.011489,0.72293,0.0547265,-0.163397,0.52425,0.0162585,-0.266427,0.74164,-0.0575805,0.162503,0.52541,0.0220725,0.258143,0.72064,-0.0547105,-0.314567,0.96883,-0.0847005,0.302643,0.92102,-0.0889705,-0.074756,-0.0030579999999999,0.0020955,0.074756,0.0030579999999999,-0.0020955,-0.099327,-0.37674,0.0383685,0.092636,-0.37368,0.0515935,-0.104047,-0.71353,0.0777465,0.090114,-0.7161,0.0728115,0
51,-0.0115515,0.722501,0.054481,-0.1634765,0.523681,0.016384,-0.2664065,0.741521,-0.057037,0.1624235,0.5256909999999999,0.022416,0.2578435,0.7209209999999999,-0.0538469999999999,-0.3143465,0.969461,-0.0836069999999999,0.3025935,0.921691,-0.087457,-0.0747485,-0.0031189999999999,0.002132,0.0747485,0.0031189999999999,-0.0021319999999999,-0.0993564999999999,-0.377119,0.038336,0.0925995,-0.3736089999999999,0.051528,-0.1040865,-0.714249,0.07771,0.0900485,-0.716489,0.072889,0
52,-0.0115899999999999,0.7220635,0.0543269999999999,-0.1635339999999999,0.5238435,0.0166099999999999,-0.266404,0.7413935,-0.056635,0.162406,0.5258335,0.0227139999999999,0.257786,0.7210535,-0.053201,-0.314264,0.9699735,-0.083025,0.302576,0.9224035,-0.0863449999999999,-0.074738,-0.0031525,0.0021799999999999,0.074738,0.0031525,-0.00218,-0.0993739999999999,-0.3774765,0.0382879999999999,0.092582,-0.3735165,0.0514769999999999,-0.104074,-0.7148465,0.077662,0.090033,-0.7168065,0.072956,0
53,-0.011628,0.7217125,0.0541865,-0.163583,0.5240425,0.0168315,-0.266403,0.7412225,-0.0563134999999999,0.1623969999999999,0.5259425,0.0230005,0.257787,0.7206625,-0.0526575,-0.3142729999999999,0.9705825,-0.0826635,0.302797,0.9232825,-0.0855235,-0.0747289999999999,-0.0031704999999999,0.0022155,0.0747289999999999,0.0031704999999999,-0.0022155,-0.099383,-0.3777375,0.0382365,0.0925729999999999,-0.3734975,0.0514095,-0.104053,-0.7153375000000001,0.0776245,0.090028,-0.7170375,0.0730035,0
54,-0.011665,0.721376,0.0540615,-0.163625,0.5242359999999999,0.0170315,-0.266405,0.741016,-0.0560905,0.1623949999999999,0.5260659999999999,0.0232735,0.257785,0.720306,-0.0521605,-0.3142749999999999,0.971126,-0.0825804999999999,0.303275,0.924096,-0.0849104999999999,-0.0747269999999999,-0.003179,0.0022474999999999,0.0747269999999999,0.003179,-0.0022474999999999,-0.099385,-0.378074,0.0382005,0.0925709999999999,-0.373534,0.0513225,-0.1040349999999999,-0.715784,0.0776025,0.090013,-0.717224,0.0730245,0
55,-0.0117029999999999,0.7210995,0.0539645,-0.1636969999999999,0.5244295,0.0172145,-0.266407,0.7407095,-0.0559574999999999,0.162393,0.5261494999999999,0.0235025,0.257783,0.7199995,-0.0517455,-0.314277,0.9719195,-0.0826075,0.303973,0.9248095,-0.0845974999999999,-0.074726,-0.0031754999999999,0.0022675,0.074726,0.0031754999999999,-0.0022674999999999,-0.0993869999999999,-0.3783805,0.0381695,0.092544,-0.3736105,0.0512255,-0.104017,-0.7161405000000001,0.0775505,0.090012,-0.7173605000000001,0.0730035,0
56,-0.0117334999999999,0.7208805,0.0538935,-0.1637354999999999,0.5246405,0.0173765,-0.2664255,0.7404705,-0.0558285,0.1624145,0.5262505,0.0237405,0.2579745,0.7196505,-0.0512185,-0.3146855,0.9728805,-0.0826585,0.3046545,0.9248005,-0.0845185,-0.0747145,-0.0031745,0.0022744999999999,0.0747145,0.0031744999999999,-0.0022744999999999,-0.0993855,-0.3785995,0.0381715,0.0924825,-0.3736195,0.0511685,-0.1039755,-0.7163995,0.0775225,0.0900255,-0.7174495,0.0729825,0
57,-0.0117574999999999,0.7206729999999999,0.053821,-0.1637725,0.5249330000000001,0.0175549999999999,-0.2664825,0.740243,-0.055671,0.1624975,0.5263230000000001,0.0239689999999999,0.2582175,0.7192130000000001,-0.050685,-0.3151525,0.973653,-0.082731,0.3054175,0.924823,-0.084461,-0.0746915,-0.0031749999999999,0.0022809999999999,0.0746915,0.0031749999999999,-0.002281,-0.0993824999999999,-0.378817,0.038172,0.0924105,-0.373627,0.051128,-0.1039225,-0.716637,0.0775069999999999,0.0900475,-0.7175469999999999,0.0729539999999999,0
58,-0.0117664999999999,0.720512,0.0537585,-0.1637915,0.525292,0.0177395,-0.2665714999999999,0.740032,-0.0555195,0.1625985,0.5264220000000001,0.0241795,0.2585285,0.718612,-0.0501795,-0.3155914999999999,0.974162,-0.0827995,0.3062485,0.924872,-0.0844095,-0.0746604999999999,-0.003172,0.0022934999999999,0.0746604999999999,0.003172,-0.0022935,-0.0993814999999999,-0.379008,0.0381785,0.0923585,-0.373648,0.0511065,-0.1038415,-0.716928,0.0774785,0.0900904999999999,-0.717698,0.0729055,0
59,-0.0117834999999999,0.7203839999999999,0.053727,-0.1638015,0.525654,0.017907,-0.2666914999999999,0.739784,-0.055361,0.1626985,0.526474,0.02434,0.2588385,0.7179139999999999,-0.0496929999999999,-0.3160715,0.974694,-0.082851,0.3070085,0.924754,-0.084341,-0.0746275,-0.0031549999999999,0.002304,0.0746275,0.0031549999999999,-0.002304,-0.0993715,-0.379236,0.038185,0.0923205,-0.373696,0.051091,-0.1037515,-0.7170960000000001,0.077464,0.0901465,-0.7178460000000001,0.07286,0
60,-0.0117864999999999,0.720255,0.0537425,-0.1638994999999999,0.526115,0.0182985,-0.2668295,0.739475,-0.0552244999999999,0.1628105,0.526465,0.0244565,0.2591405,0.717235,-0.0492315,-0.3165095,0.974705,-0.0829345,0.3077304999999999,0.924605,-0.0842344999999999,-0.0745995,-0.00313,0.0023115,0.0745995,0.0031299999999999,-0.0023115,-0.0993295,-0.379425,0.0381455,0.0923135,-0.373765,0.0510605,-0.1036395,-0.717265,0.0774425,0.0902045,-0.717945,0.0728105,0
61,-0.0118129999999999,0.720178,0.053826,-0.164042,0.526238,0.0185939999999999,-0.267002,0.739228,-0.055045,0.162908,0.526508,0.0245759999999999,0.2594079999999999,0.716588,-0.048793,-0.316912,0.974678,-0.082995,0.308368,0.924508,-0.084095,-0.074589,-0.003118,0.0023179999999999,0.074589,0.0031179999999999,-0.002318,-0.099312,-0.379552,0.0381259999999999,0.092322,-0.373812,0.0510749999999999,-0.103572,-0.717392,0.077436,0.090274,-0.718072,0.07278,0
62,-0.0118544999999999,0.720133,0.0539529999999999,-0.1641655,0.5262830000000001,0.0188599999999999,-0.2671955,0.738973,-0.054823,0.1629945,0.526553,0.0246979999999999,0.2596845,0.7160730000000001,-0.04848,-0.3172355,0.974553,-0.082983,0.3088945,0.924443,-0.083973,-0.0745784999999999,-0.003107,0.0023229999999999,0.0745784999999999,0.0031069999999999,-0.002323,-0.0992855,-0.379687,0.0381109999999999,0.0923305,-0.373877,0.0510609999999999,-0.1035055,-0.717517,0.077413,0.0903245,-0.718197,0.072752,0
63,-0.0119079999999999,0.7201029999999999,0.054123,-0.1642769999999999,0.526323,0.019115,-0.267367,0.738773,-0.054603,0.163073,0.526613,0.024825,0.259953,0.7156129999999999,-0.0481879999999999,-0.317437,0.974843,-0.082993,0.309293,0.924373,-0.083843,-0.074566,-0.0030999999999999,0.0023139999999999,0.074566,0.0030999999999999,-0.002314,-0.0992569999999999,-0.379817,0.038113,0.0923549999999999,-0.373927,0.05106,-0.103437,-0.717637,0.077429,0.090369,-0.718257,0.072736,0
64,-0.0119594999999999,0.7200925,0.0543125,-0.1644415,0.5262425000000001,0.0193625,-0.2675515,0.7386125,-0.0543724999999999,0.1631385,0.5266725,0.0249485,0.2601385,0.7151125,-0.0479054999999999,-0.3174815,0.9744425,-0.0830025,0.3095684999999999,0.9243225,-0.0837125,-0.0745535,-0.0030844999999999,0.0023045,0.0745535,0.0030844999999999,-0.0023044999999999,-0.0992315,-0.3799275,0.0381085,0.0923605,-0.3739575,0.0510655,-0.1034015,-0.7178775,0.0774195,0.0904415,-0.7182875,0.0726365,0
65,-0.0120165,0.7200709999999999,0.054559,-0.1645975,0.526181,0.019617,-0.2677075,0.7384710000000001,-0.05413,0.1632025,0.526721,0.02507,0.2602824999999999,0.7149810000000001,-0.0477849999999999,-0.3174175,0.974341,-0.083003,0.3096325,0.924181,-0.083603,-0.0745475,-0.0030699999999999,0.002304,0.0745475,0.00307,-0.0023039999999999,-0.0992075,-0.379999,0.038092,0.0923715,-0.3739989999999999,0.051082,-0.1033574999999999,-0.7181690000000001,0.077419,0.0905015,-0.718329,0.072542,0
66,-0.0120625,0.7200445000000001,0.0547949999999999,-0.1647225,0.5261245,0.0198439999999999,-0.2678525,0.7383645000000001,-0.053942,0.1632675,0.5267545,0.0251559999999999,0.2603675,0.7148745000000001,-0.047666,-0.3173525,0.9742345,-0.082889,0.3096974999999999,0.9239645,-0.083479,-0.0745495,-0.0030434999999999,0.0022999999999999,0.0745495,0.0030434999999999,-0.0023,-0.0991925,-0.3800755,0.0380859999999999,0.0923824999999999,-0.3740655,0.0510979999999999,-0.1033025,-0.7184455,0.077397,0.0905585,-0.7183854999999999,0.072446,0
67,-0.0121059999999999,0.720045,0.0550635,-0.164833,0.5260849999999999,0.0200664999999999,-0.2679729999999999,0.7382550000000001,-0.0537445,0.163337,0.526775,0.0252314999999999,0.260437,0.7147650000000001,-0.0475185,-0.3172729999999999,0.974125,-0.0826745,0.309777,0.923745,-0.0832545,-0.07455,-0.0030199999999999,0.0022944999999999,0.07455,0.00302,-0.0022945,-0.0991729999999999,-0.380185,0.0380864999999999,0.092391,-0.3741649999999999,0.0511115,-0.1032829999999999,-0.7187749999999999,0.0773725,0.090627,-0.718545,0.0723574999999999,0
68,-0.0121259999999999,0.7200344999999999,0.0553485,-0.164928,0.5260545000000001,0.0202855,-0.268048,0.7381445,-0.0535485,0.163412,0.5267744999999999,0.0253085,0.260512,0.7147745000000001,-0.0473825,-0.316818,0.9735145,-0.0823414999999999,0.309772,0.9235245,-0.0830314999999999,-0.074556,-0.0029855,0.0022674999999999,0.074556,0.0029854999999999,-0.0022674999999999,-0.099148,-0.3802955,0.0380935,0.092406,-0.3742755,0.0511525,-0.103258,-0.7191055,0.0773675,0.090702,-0.7187655,0.0722875,0
69,-0.01216,0.7200415,0.0556105,-0.164919,0.5259915000000001,0.0203215,-0.268109,0.7380815000000001,-0.0533595,0.163431,0.5268015,0.0253805,0.260551,0.7148715,-0.0472314999999999,-0.316389,0.9730515,-0.0820155,0.309531,0.9233315,-0.0828455,-0.074557,-0.0029625,0.0022355,0.074557,0.0029625,-0.0022355,-0.099169,-0.3803185,0.0380755,0.092393,-0.3743384999999999,0.0511945,-0.103289,-0.7193885,0.0773615,0.090758,-0.7190084999999999,0.0722095,0
70,-0.012183,0.7200535,0.0558585,-0.164904,0.5259335,0.0203574999999999,-0.268164,0.7380535,-0.0531825,0.163436,0.5268235,0.0254464999999999,0.2605159999999999,0.7149835,-0.0470925,-0.315974,0.9726935,-0.0816495,0.309036,0.9230535,-0.0826595,-0.0745629999999999,-0.0029395,0.0022054999999999,0.0745629999999999,0.0029394999999999,-0.0022055,-0.099194,-0.3803465,0.0380524999999999,0.0923799999999999,-0.3744065,0.0512464999999999,-0.103324,-0.7196365,0.0773395,0.09085,-0.7191965,0.0720995,0
71,-0.012198,0.720058,0.056074,-0.164871,0.5258780000000001,0.020391,-0.268181,0.738038,-0.053089,0.163449,0.526838,0.025494,0.260449,0.715138,-0.046984,-0.315541,0.972338,-0.081286,0.308359,0.922818,-0.082466,-0.074569,-0.002915,0.00218,0.074569,0.002915,-0.00218,-0.099211,-0.380362,0.038027,0.0923689999999999,-0.374542,0.051302,-0.103381,-0.7198519999999999,0.077333,0.090941,-0.719382,0.07199,0
72,-0.012197,0.7200475000000001,0.0562595,-0.164848,0.5256475,0.0203765,-0.268198,0.7380275000000001,-0.0529995,0.163452,0.5268275,0.0255265,0.260342,0.7153175,-0.0468975,-0.315068,0.9720775,-0.0809034999999999,0.307482,0.9223975,-0.0822834999999999,-0.074576,-0.0028954999999999,0.0021455,0.074576,0.0028955,-0.0021455,-0.099228,-0.3803825,0.0380034999999999,0.0923769999999999,-0.3746725,0.0513565,-0.103438,-0.7200624999999999,0.0773145,0.091038,-0.7195325,0.0718825,0
73,-0.0121905,0.720044,0.0564245,-0.1648125,0.5254340000000001,0.0203545,-0.2681825,0.738064,-0.0529395,0.1634475,0.526804,0.0255495,0.2602275,0.7155440000000001,-0.0468384999999999,-0.3146124999999999,0.971714,-0.0805305,0.3065675,0.921984,-0.0821105,-0.0745835,-0.002882,0.0021205,0.0745835,0.0028819999999999,-0.0021204999999999,-0.0992325,-0.3804059999999999,0.0379665,0.0924125,-0.3748559999999999,0.0514255,-0.1034525,-0.720186,0.0772915,0.0911375,-0.7196359999999999,0.0718175,0
74,-0.0121894999999999,0.7200624999999999,0.056537,-0.1647895,0.5252724999999999,0.0203459999999999,-0.2681894999999999,0.7381325,-0.052862,0.1634405,0.5267824999999999,0.0255729999999999,0.2600405,0.7157924999999999,-0.046796,-0.3142095,0.9714525,-0.080188,0.3056105,0.9215525,-0.081938,-0.0745985,-0.0028665,0.0021009999999999,0.0745985,0.0028664999999999,-0.002101,-0.0992494999999999,-0.3804375,0.0379269999999999,0.0924365,-0.3750175,0.051474,-0.1034495,-0.7202475,0.077265,0.0912055,-0.7196675,0.071765,0
75,-0.0122015,0.720086,0.056632,-0.1647815,0.525126,0.02033,-0.2681814999999999,0.7381660000000001,-0.052823,0.1633984999999999,0.5267660000000001,0.025578,0.2598285,0.716046,-0.046782,-0.3138915,0.971396,-0.079978,0.3045785,0.921076,-0.081818,-0.0746064999999999,-0.0028639999999999,0.00209,0.0746064999999999,0.002864,-0.00209,-0.0992615,-0.380484,0.037878,0.0924444999999999,-0.375154,0.0514919999999999,-0.1034515,-0.720304,0.077215,0.0912474999999999,-0.719714,0.071714,0
76,-0.0122165,0.7200820000000001,0.056678,-0.1647715,0.5249919999999999,0.020301,-0.2682015,0.7382420000000001,-0.052798,0.1633585,0.526742,0.02557,0.2596285,0.716342,-0.0467809999999999,-0.3136715,0.971442,-0.079788,0.3035285,0.920572,-0.081808,-0.0746064999999999,-0.0028609999999999,0.00209,0.0746064999999999,0.002861,-0.00209,-0.0992815,-0.380528,0.037813,0.0924454999999999,-0.375258,0.05148,-0.1034515,-0.720358,0.0771459999999999,0.0912435,-0.7195879999999999,0.071657,0
77,-0.0122325,0.7200850000000001,0.0567135,-0.1647715,0.524845,0.0202614999999999,-0.2682115,0.738315,-0.0527744999999999,0.1633184999999999,0.526725,0.0255475,0.2594385,0.7166250000000001,-0.0467785,-0.3134814999999999,0.971595,-0.0796685,0.3026285,0.920025,-0.0818085,-0.0746064999999999,-0.0028759999999999,0.0020895,0.0746064999999999,0.002876,-0.0020895,-0.0992815,-0.380545,0.0377735,0.0924694999999999,-0.375415,0.0514765,-0.1034515,-0.720395,0.0770655,0.0912514999999999,-0.7195149999999999,0.0716094999999999,0
78,-0.0122535,0.7201009999999999,0.0567585,-0.1647755,0.5247010000000001,0.0202175,-0.2682555,0.7384809999999999,-0.0527544999999999,0.1632845,0.5267010000000001,0.0255265,0.2592645,0.716861,-0.0467805,-0.3133255,0.971441,-0.0796315,0.3017845,0.919441,-0.0818115,-0.0746105,-0.002893,0.0020865,0.0746105,0.0028929999999999,-0.0020864999999999,-0.0992855,-0.380589,0.0377365,0.0925135,-0.375609,0.0514735,-0.1034555,-0.7205090000000001,0.0769735,0.0912605,-0.719579,0.0715605,0
79,-0.0123029999999999,0.72014,0.056763,-0.164787,0.52454,0.020128,-0.268327,0.7386699999999999,-0.052783,0.163213,0.52667,0.0254649999999999,0.259113,0.71714,-0.046853,-0.313207,0.97118,-0.0796669999999999,0.300963,0.91888,-0.081867,-0.0746169999999999,-0.00291,0.0020849999999999,0.0746169999999999,0.0029099999999999,-0.002085,-0.0993169999999999,-0.38065,0.037652,0.092588,-0.37579,0.051392,-0.1034769999999999,-0.72062,0.076806,0.091236,-0.71974,0.0714839999999999,0
80,-0.012403,0.720194,0.0566865,-0.164861,0.5244040000000001,0.0199665,-0.268451,0.7388539999999999,-0.0529075,0.163099,0.526624,0.0253185,0.258909,0.717344,-0.0470154999999999,-0.313291,0.971214,-0.0797975,0.300189,0.918354,-0.0820375,-0.0746169999999999,-0.0029309999999999,0.0020864999999999,0.0746169999999999,0.002931,-0.0020864999999999,-0.0994009999999999,-0.380716,0.0374675,0.092633,-0.375946,0.0511945,-0.103521,-0.7207159999999999,0.0765475,0.091171,-0.719956,0.0713125,0
81,-0.012521,0.7202854999999999,0.0565564999999999,-0.164946,0.5242755,0.0197605,-0.268596,0.7390355,-0.0530895,0.162954,0.5265854999999999,0.0251165,0.258704,0.7175555,-0.0472804999999999,-0.313396,0.9714355,-0.0799794999999999,0.299524,0.9179755,-0.0822695,-0.074614,-0.0029444999999999,0.0020804999999999,0.074614,0.0029445,-0.0020804999999999,-0.099476,-0.3808344999999999,0.0370805,0.092749,-0.3761345,0.0508335,-0.103476,-0.7208145,0.0762265,0.091104,-0.7202045,0.0710775,0
82,-0.0126534999999999,0.7203799999999999,0.056362,-0.1650414999999999,0.5241399999999999,0.019517,-0.2687315,0.73918,-0.053326,0.1627985,0.5265099999999999,0.024856,0.2584885,0.7175999999999999,-0.0476149999999999,-0.3134615,0.97156,-0.080236,0.2988585,0.91763,-0.0825559999999999,-0.0746095,-0.002958,0.002086,0.0746095,0.002958,-0.0020859999999999,-0.0995715,-0.38095,0.036459,0.0929175,-0.37621,0.050266,-0.1034315,-0.7209500000000001,0.075795,0.0910105,-0.72028,0.070789,0
83,-0.012842,0.72046,0.0559675,-0.165208,0.52405,0.0190855,-0.268928,0.7393200000000001,-0.0537575,0.162592,0.5264500000000001,0.0244245,0.258252,0.7175900000000001,-0.0481485,-0.313628,0.97197,-0.0808474999999999,0.298122,0.91727,-0.0830974999999999,-0.074602,-0.0029849999999999,0.0021485,0.074602,0.002985,-0.0021484999999999,-0.099738,-0.38125,0.0353265,0.0930889999999999,-0.37632,0.0492565,-0.103378,-0.72143,0.0749555,0.0908659999999999,-0.72037,0.0702105,0
84,-0.013049,0.7204395,0.055408,-0.165383,0.5239495,0.018485,-0.269113,0.7393995,-0.054379,0.162367,0.5263495,0.023816,0.257987,0.7175195,-0.048862,-0.313793,0.9720695,-0.081708,0.297417,0.9169195,-0.083848,-0.074607,-0.0030114999999999,0.002203,0.074607,0.0030115,-0.0022029999999999,-0.099933,-0.3818804999999999,0.033677,0.0932679999999999,-0.3764404999999999,0.047751,-0.1032329999999999,-0.7220805,0.073895,0.090698,-0.7205305000000001,0.0693469999999999,0
85,-0.013271,0.720429,0.0545225,-0.165564,0.5238889999999999,0.0175585,-0.269314,0.739389,-0.0553245,0.161996,0.526339,0.0228715,0.257676,0.717509,-0.0499015,-0.313934,0.972059,-0.0829945,0.296676,0.916659,-0.0849844999999999,-0.074624,-0.003022,0.0023025,0.074624,0.0030219999999999,-0.0023024999999999,-0.100144,-0.382721,0.0314805,0.093522,-0.376431,0.0453835,-0.103074,-0.722991,0.0722485,0.090627,-0.720831,0.0679235,0
86,-0.0135055,0.720429,0.053144,-0.1657465,0.5238489999999999,0.016422,-0.2695265,0.739389,-0.056749,0.1615635,0.5263289999999999,0.021448,0.2573435,0.717509,-0.051444,-0.3141265,0.972059,-0.0848489999999999,0.2959235,0.916429,-0.086699,-0.0746324999999999,-0.003022,0.002373,0.0746324999999999,0.0030219999999999,-0.002373,-0.1004465,-0.383571,0.028388,0.0938545,-0.3763809999999999,0.042064,-0.1030065,-0.723971,0.070033,0.0906025,-0.721141,0.065927,0
87,-0.0137644999999999,0.720429,0.0514285,-0.1659295,0.523789,0.0149345,-0.2697495,0.739389,-0.0585254999999999,0.1610605,0.5262789999999999,0.0196675,0.2569705,0.717509,-0.0532835,-0.3143195,0.971959,-0.0870504999999999,0.2951305,0.916249,-0.0888504999999999,-0.0746555,-0.003022,0.0024295,0.0746555,0.0030219999999999,-0.0024294999999999,-0.1008194999999999,-0.384461,0.0246365,0.0942665,-0.376471,0.0378275,-0.1030794999999999,-0.7251810000000001,0.0674045,0.0906385,-0.7216210000000001,0.0631945,0
88,-0.014036,0.720329,0.049337,-0.166094,0.523779,0.013059,-0.269934,0.739409,-0.0607399999999999,0.160456,0.526099,0.01748,0.256566,0.717499,-0.055498,-0.314524,0.971599,-0.089585,0.2943759999999999,0.916179,-0.0914249999999999,-0.074714,-0.003062,0.0025869999999999,0.074714,0.0030619999999999,-0.0025869999999999,-0.101294,-0.385371,0.02009,0.094731,-0.376571,0.032925,-0.1032339999999999,-0.726411,0.064317,0.090668,-0.722321,0.059893,0
89,-0.014327,0.7199405,0.0468445,-0.166194,0.5237205,0.0108524999999999,-0.269974,0.7389505000000001,-0.0634255,0.1598359999999999,0.5259105000000001,0.0148305,0.2560759999999999,0.7174705,-0.0582065,-0.314754,0.9712105,-0.0924744999999999,0.293466,0.9160005,-0.0945445,-0.074805,-0.0030925,0.0028115,0.074805,0.0030924999999999,-0.0028115,-0.101784,-0.3862295,0.0147785,0.095369,-0.3766195,0.0270814999999999,-0.103464,-0.7276294999999999,0.0607305,0.090669,-0.7231295,0.0559115,0
90,-0.0146095,0.719355,0.0438055,-0.1661725,0.523855,0.0083095,-0.2699625,0.738345,-0.0666205,0.1585774999999999,0.5252349999999999,0.0116235,0.2551974999999999,0.7168049999999999,-0.0615084999999999,-0.3149525,0.970315,-0.0957715,0.2916475,0.913605,-0.0982315,-0.0749415,-0.002994,0.0029695,0.0749415,0.0029939999999999,-0.0029695,-0.1023725,-0.386875,0.0087925,0.0960465,-0.376305,0.0204835,-0.1037225,-0.7284250000000001,0.0564315,0.0906295,-0.7236149999999999,0.0512975,0
91,-0.014932,0.7185954999999999,0.0402799999999999,-0.1662159999999999,0.5240855,0.0051119999999999,-0.269926,0.7375955,-0.070259,0.157244,0.5248655,0.0077559999999999,0.254114,0.7160854999999999,-0.065436,-0.315216,0.9697255,-0.099711,0.289764,0.9115455,-0.102661,-0.075148,-0.0028955,0.0030479999999999,0.075148,0.0028955,-0.003048,-0.103106,-0.3871145,0.0022139999999999,0.09675,-0.3756145,0.0131369999999999,-0.104056,-0.7288145,0.0515029999999999,0.090515,-0.7236745,0.046044,0
92,-0.0152769999999999,0.717459,0.0363185,-0.166243,0.524389,0.0013824999999999,-0.269903,0.736799,-0.0743035,0.155847,0.524789,0.0034094999999999,0.252877,0.715019,-0.0699515,-0.315503,0.969229,-0.1041935,0.287827,0.909749,-0.1075935,-0.075477,-0.002771,0.0031064999999999,0.075477,0.002771,-0.0031065,-0.103933,-0.386821,-0.0049855,0.097678,-0.374621,0.0050244999999999,-0.104433,-0.728461,0.0461525,0.090358,-0.723511,0.0401285,0
93,-0.015656,0.7157725,0.032131,-0.1660839999999999,0.5236325000000001,-0.0018899999999999,-0.269864,0.7359625,-0.078671,0.154106,0.5236025,-0.0011909999999999,0.251556,0.7141225,-0.074698,-0.315784,0.9696125,-0.109386,0.285776,0.9082525,-0.112826,-0.0758369999999999,-0.0026974999999999,0.003322,0.0758369999999999,0.0026974999999999,-0.0033219999999999,-0.104864,-0.3854475,-0.012877,0.098806,-0.3728075,-0.0035569999999999,-0.104994,-0.7272675,0.040462,0.090172,-0.7225675,0.033875,0
94,-0.0160599999999999,0.7137855000000001,0.027687,-0.165941,0.5233855000000001,-0.0054839999999999,-0.269771,0.7344455000000001,-0.083191,0.1523189999999999,0.5228355,-0.006135,0.250269,0.7128855000000001,-0.079778,-0.316001,0.9701355,-0.11494,0.283719,0.9071155,-0.11838,-0.076222,-0.0026025,0.003478,0.076222,0.0026025,-0.0034779999999999,-0.105901,-0.3837945,-0.0213079999999999,0.100031,-0.3705545,-0.012327,-0.1056209999999999,-0.7252544999999999,0.034499,0.089787,-0.7210044999999999,0.027387,0
95,-0.0164445,0.711981,0.023111,-0.1657155,0.5231910000000001,-0.0090279999999999,-0.2690055,0.730971,-0.087347,0.1505545,0.521341,-0.010755,0.2489545,0.712171,-0.085034,-0.3156055,0.968571,-0.120562,0.2816945,0.907111,-0.124142,-0.0766575,-0.0024689999999999,0.003618,0.0766575,0.0024689999999999,-0.0036179999999999,-0.1068655,-0.381469,-0.030152,0.1014245,-0.367469,-0.021495,-0.1063655,-0.722139,0.028076,0.0893865,-0.718199,0.0205979999999999,0
96,-0.0167495,0.710074,0.018414,-0.1654535,0.523304,-0.012347,-0.2681835,0.728184,-0.091545,0.1484865,0.518864,-0.015424,0.2475665,0.711334,-0.090335,-0.3151635,0.963814,-0.126251,0.2797465,0.907844,-0.130071,-0.0771314999999999,-0.00238,0.003843,0.0771314999999999,0.00238,-0.003843,-0.1077335,-0.3785659999999999,-0.039315,0.1029664999999999,-0.363746,-0.030739,-0.1073335,-0.717926,0.021243,0.0890445,-0.714276,0.013885,1
97,-0.0169525,0.7080515,0.01375,-0.1651794999999999,0.5231115,-0.015381,-0.2674094999999999,0.7258515,-0.095658,0.1465205,0.5167514999999999,-0.019944,0.2461005,0.7102115,-0.095546,-0.3147095,0.9606215,-0.1315829999999999,0.2774305,0.9060915,-0.135813,-0.0775625,-0.0021474999999999,0.0039,0.0775625,0.0021475,-0.0039,-0.1085595,-0.3747585,-0.048831,0.1047205,-0.3603285,-0.040491,-0.1083794999999999,-0.7133785,0.014043,0.0887235,-0.7094885000000001,0.007213,1
98,-0.0171339999999999,0.7060995,0.0092505,-0.1645309999999999,0.5215395,-0.0182975,-0.266721,0.7242595000000001,-0.0998034999999999,0.144589,0.5150095,-0.0242594999999999,0.244689,0.7092995,-0.1006904999999999,-0.3141609999999999,0.9587395,-0.1368225,0.275099,0.9046395,-0.1416325,-0.078018,-0.0019474999999999,0.0038805,0.078018,0.0019475,-0.0038804999999999,-0.1094509999999999,-0.3700604999999999,-0.0587475,0.106489,-0.3561105,-0.0503225,-0.109321,-0.7079305,0.0063225,0.088326,-0.7034905,0.0005485,1
99,-0.017268,0.7047025,0.004907,-0.163994,0.5205624999999999,-0.02132,-0.266094,0.7235524999999999,-0.103882,0.143266,0.5138925,-0.028095,0.243576,0.7092725,-0.1057849999999999,-0.313604,0.9584925,-0.142,0.273516,0.9062625,-0.14748,-0.078438,-0.0019384999999999,0.0037839999999999,0.078438,0.0019385,-0.0037839999999999,-0.110264,-0.3638774999999999,-0.068799,0.1082559999999999,-0.3506675,-0.060617,-0.110104,-0.7011875000000001,-0.0018239999999999,0.087793,-0.6961375000000001,-0.006085,1
100,-0.0174124999999999,0.702476,0.0009314999999999,-0.1634715,0.5201260000000001,-0.0239745,-0.2655315,0.722496,-0.1078155,0.1419585,0.512436,-0.0314065,0.2424385,0.7074060000000001,-0.1101705,-0.3128515,0.957826,-0.1468795,0.2717585,0.904406,-0.1530194999999999,-0.0788175,-0.0018799999999999,0.0037164999999999,0.0788175,0.0018799999999999,-0.0037165,-0.1113115,-0.357944,-0.0792225,0.1099585,-0.345354,-0.0708095,-0.1108514999999999,-0.694194,-0.0096885,0.0872305,-0.689164,-0.0123625,1
101,-0.01752,0.701187,-0.003071,-0.162696,0.5178969999999999,-0.026179,-0.264966,0.722197,-0.111794,0.1404439999999999,0.509867,-0.034628,0.241624,0.7068369999999999,-0.114537,-0.311916,0.959007,-0.15173,0.270184,0.904167,-0.1586,-0.079206,-0.001944,0.0036699999999999,0.079206,0.001944,-0.0036699999999999,-0.112396,-0.350863,-0.089971,0.1114339999999999,-0.338223,-0.080955,-0.111416,-0.6854830000000001,-0.017562,0.0868009999999999,-0.6804330000000001,-0.018711,1
102,-0.0177189999999999,0.7001620000000001,-0.0069064999999999,-0.1621709999999999,0.516552,-0.0289745,-0.264501,0.721702,-0.1155325,0.139189,0.508742,-0.0377315,0.240899,0.705982,-0.1188075,-0.310311,0.956382,-0.1565535,0.268579,0.904732,-0.1640535,-0.079685,-0.0020759999999999,0.0036264999999999,0.079685,0.002076,-0.0036265,-0.1136409999999999,-0.343468,-0.1004625,0.112769,-0.330748,-0.0912655,-0.111901,-0.675738,-0.0253935,0.086354,-0.670738,-0.0251495,1
103,-0.0179345,0.6988845,-0.0103885,-0.1616965,0.5148445,-0.0314665,-0.2640865,0.7218045,-0.1192135,0.1381835,0.5069345,-0.0404865,0.2402835,0.7056845,-0.1227315,-0.3087865,0.9544245,-0.1611545,0.2672835,0.9056345,-0.1692045,-0.0801445,-0.0023094999999999,0.0036425,0.0801445,0.0023094999999999,-0.0036425,-0.1148464999999999,-0.3354855,-0.1106955,0.1139535,-0.3234654999999999,-0.1012285,-0.1123665,-0.6652255,-0.0328265,0.0858695,-0.6603855,-0.0312085,1
104,-0.018168,0.697127,-0.0134789999999999,-0.161144,0.513827,-0.034186,-0.264254,0.7239469999999999,-0.123006,0.137156,0.505277,-0.043273,0.2397659999999999,0.703997,-0.126434,-0.307664,0.953047,-0.165627,0.266256,0.905917,-0.174117,-0.080525,-0.0025219999999999,0.003721,0.080525,0.002522,-0.0037209999999999,-0.116034,-0.327593,-0.12042,0.114886,-0.316363,-0.110545,-0.112774,-0.654623,-0.039761,0.085374,-0.650153,-0.036848,1
105,-0.0184375,0.695724,-0.016433,-0.1606585,0.510614,-0.036977,-0.2646285,0.724574,-0.127147,0.1365715,0.504894,-0.045918,0.2393515,0.702654,-0.130476,-0.3064385,0.954244,-0.170138,0.2654615,0.903024,-0.178958,-0.0809225,-0.002631,0.0037249999999999,0.0809225,0.002631,-0.003725,-0.1172385,-0.318976,-0.129906,0.1157515,-0.309246,-0.119845,-0.1131985,-0.6432859999999999,-0.046317,0.0848565,-0.639346,-0.04241,1
106,-0.018767,0.6936195,-0.0192345,-0.160163,0.5081595,-0.0398635,-0.264803,0.7247494999999999,-0.1307635,0.136147,0.5041495,-0.0483615,0.238937,0.7001694999999999,-0.1340474999999999,-0.305733,0.9545395,-0.1744845,0.264847,0.9038695,-0.1838645,-0.08133,-0.0029035,0.0037924999999999,0.08133,0.0029034999999999,-0.0037925,-0.118393,-0.3076005,-0.1387615,0.116337,-0.2983505,-0.1285915,-0.113633,-0.6310505,-0.0523185,0.0844269999999999,-0.6278904999999999,-0.0476645,1
107,-0.019287,0.6919704999999999,-0.022319,-0.160234,0.5064505,-0.043129,-0.264964,0.7245505,-0.13447,0.135536,0.5030105,-0.051133,0.238316,0.6987905,-0.137874,-0.305324,0.9539205,-0.1789359999999999,0.264186,0.9068005,-0.188906,-0.081582,-0.0031754999999999,0.003802,0.081582,0.0031754999999999,-0.003802,-0.119654,-0.2949395,-0.147295,0.116626,-0.2861295,-0.137088,-0.114174,-0.6174895,-0.057927,0.083731,-0.6153795000000001,-0.05298,1
108,-0.0199135,0.6902364999999999,-0.0302395,-0.1604445,0.5059065,-0.0512675,-0.2651045,0.7249365,-0.1429905,0.1347954999999999,0.5028165,-0.0591234999999999,0.2378654999999999,0.6975064999999999,-0.1465315,-0.3049845,0.9519765,-0.1879315,0.2634455,0.9092265,-0.1986814999999999,-0.0817035,-0.0032665,0.0037774999999999,0.0817035,0.0032665,-0.0037774999999999,-0.1210644999999999,-0.2825835,-0.1604915,0.1168454999999999,-0.2738835,-0.1501145,-0.1145144999999999,-0.6039435000000001,-0.0677155,0.0829425,-0.6028535,-0.0630495,1
109,-0.0204959999999999,0.692735,-0.0394744999999999,-0.159385,0.5027349999999999,-0.0605094999999999,-0.264925,0.724125,-0.1523545,0.134325,0.502175,-0.0675954999999999,0.237725,0.700595,-0.1564614999999999,-0.305055,0.950325,-0.1988255,0.262825,0.914885,-0.2094255,-0.081705,-0.003395,0.0035275,0.081705,0.0033949999999999,-0.0035274999999999,-0.123235,-0.265295,-0.1774255,0.118805,-0.256715,-0.1680295,-0.114775,-0.585655,-0.0780424999999999,0.082078,-0.5848450000000001,-0.0743765,1
110,-0.021025,0.693515,-0.0482824999999999,-0.1588129999999999,0.501465,-0.0695664999999999,-0.264703,0.721645,-0.1609805,0.133857,0.502455,-0.0755555,0.237717,0.701895,-0.1657394999999999,-0.305103,0.947015,-0.2088785,0.262497,0.918785,-0.2197985,-0.081656,-0.0034349999999999,0.0032015,0.081656,0.0034349999999999,-0.0032014999999999,-0.125303,-0.2494749999999999,-0.1930785,0.120757,-0.241555,-0.1849084999999999,-0.115093,-0.569195,-0.0876845,0.081236,-0.568475,-0.0848775,1
111,-0.0213609999999999,0.6940700000000001,-0.0572855,-0.158245,0.49946,-0.0786935,-0.264125,0.71977,-0.1695185,0.133525,0.50086,-0.0835505,0.237965,0.7028800000000001,-0.1751295,-0.305615,0.94775,-0.2189285,0.261905,0.91815,-0.2301085,-0.081491,-0.0033499999999999,0.0027564999999999,0.081491,0.0033499999999999,-0.0027564999999999,-0.127295,-0.2334699999999999,-0.2085985,0.122815,-0.22606,-0.2016685,-0.115255,-0.55238,-0.0971375,0.080593,-0.55174,-0.0950475,1
112,-0.021805,0.69465,-0.066584,-0.157625,0.49836,-0.087742,-0.263795,0.71885,-0.178275,0.132765,0.49997,-0.09176,0.238325,0.70373,-0.18459,-0.306495,0.94863,-0.22938,0.261685,0.91784,-0.24052,-0.081317,-0.0031199999999999,0.0022589999999999,0.081317,0.00312,-0.002259,-0.129545,-0.2171199999999999,-0.2239,0.124695,-0.2099099999999999,-0.21858,-0.115385,-0.53557,-0.106637,0.079794,-0.53431,-0.105295,1
113,-0.0225809999999999,0.69545,-0.075609,-0.157739,0.4949,-0.096968,-0.2638689999999999,0.7166399999999999,-0.186774,0.132081,0.49958,-0.100221,0.238221,0.70514,-0.194043,-0.3072589999999999,0.94968,-0.2397449999999999,0.261251,0.91862,-0.250715,-0.0811419999999999,-0.00317,0.0017749999999999,0.0811419999999999,0.00317,-0.0017749999999999,-0.132169,-0.2004099999999999,-0.239095,0.126221,-0.19354,-0.2354649999999999,-0.115839,-0.51814,-0.116043,0.078607,-0.5163,-0.11562,1
114,-0.0233545,0.695595,-0.084771,-0.1579435,0.493645,-0.106126,-0.2637035,0.715675,-0.19517,0.1312965,0.498765,-0.108747,0.2381465,0.705835,-0.20342,-0.3086235,0.951755,-0.250005,0.2608065,0.917845,-0.260795,-0.0809675,-0.0032149999999999,0.001185,0.0809675,0.0032149999999999,-0.001185,-0.1347435,-0.183695,-0.254145,0.1275565,-0.176815,-0.251865,-0.1163635,-0.500465,-0.125481,0.0774285,-0.498005,-0.125787,1
115,-0.0237995,0.6964250000000001,-0.093952,-0.1575035,0.492095,-0.115311,-0.2631535,0.7122649999999999,-0.203584,0.1307664999999999,0.497325,-0.117322,0.2379464999999999,0.7080150000000001,-0.212764,-0.3096435,0.950515,-0.260705,0.2605765,0.916505,-0.270545,-0.0806834999999999,-0.0031849999999999,0.0006649999999999,0.0806834999999999,0.0031849999999999,-0.000665,-0.1369235,-0.166325,-0.269105,0.1291665,-0.160065,-0.268155,-0.1165335,-0.4823849999999999,-0.134854,0.0766345,-0.479365,-0.136061,1
116,-0.0241349999999999,0.6955100000000001,-0.102884,-0.15682,0.49087,-0.124221,-0.2631,0.70627,-0.212309,0.13038,0.49687,-0.125668,0.23836,0.70931,-0.222068,-0.31063,0.94675,-0.27175,0.26038,0.91225,-0.28008,-0.080511,-0.0030699999999999,0.00026,0.080511,0.00307,-0.00026,-0.13893,-0.1475999999999999,-0.28393,0.13077,-0.1418399999999999,-0.2843299999999999,-0.11655,-0.4631399999999999,-0.143924,0.076022,-0.45952,-0.1461,1
117,-0.0242365,0.693825,-0.106726,-0.1557205,0.488045,-0.12801,-0.2630505,0.699285,-0.215889,0.1301894999999999,0.495455,-0.128702,0.2387794999999999,0.707875,-0.226034,-0.3115105,0.941785,-0.277425,0.2604194999999999,0.906075,-0.2842949999999999,-0.0803965,-0.0031149999999999,5.000000000005e-06,0.0803965,0.003115,-5.000000000005e-06,-0.1406305,-0.1298349999999999,-0.293165,0.1321294999999999,-0.1240949999999999,-0.294815,-0.1164705,-0.4449149999999999,-0.147639,0.0755845,-0.440805,-0.150848,1
118,-0.024309,0.6908,-0.109438,-0.155774,0.48612,-0.130411,-0.263024,0.69731,-0.21809,0.130176,0.4928099999999999,-0.130642,0.239196,0.7056,-0.228627,-0.312224,0.93941,-0.281515,0.260696,0.90352,-0.286905,-0.080488,-0.00312,1.4999999999987246e-05,0.080488,0.00312,-1.5000000000015e-05,-0.141174,-0.11351,-0.298165,0.131916,-0.10758,-0.299965,-0.116484,-0.42823,-0.149505,0.075285,-0.42363,-0.154072,1
119,-0.0243215,0.68805,-0.112112,-0.1556045,0.48419,-0.132871,-0.2630345,0.69668,-0.220225,0.1304555,0.4906399999999999,-0.132409,0.2398354999999999,0.70383,-0.231199,-0.3125545,0.93685,-0.2855499999999999,0.2611355,0.90111,-0.28947,-0.0804904999999999,-0.0033299999999999,9.999999999982244e-06,0.0804904999999999,0.0033299999999999,-1.000000000001e-05,-0.1415445,-0.09594,-0.30304,0.1318955,-0.08986,-0.30513,-0.1164245,-0.41091,-0.151338,0.0751274999999999,-0.40575,-0.157159,1
120,-0.0243304999999999,0.685425,-0.114254,-0.1556125,0.483305,-0.134959,-0.2630425,0.6944250000000001,-0.22213,0.1304475,0.490265,-0.13397,0.2399575,0.7030449999999999,-0.233003,-0.3128725,0.933825,-0.289245,0.2616974999999999,0.902565,-0.291795,-0.0804904999999999,-0.003425,2.4999999999997247e-05,0.0804904999999999,0.003425,-2.4999999999997247e-05,-0.1416025,-0.078455,-0.307015,0.1318774999999999,-0.072235,-0.308995,-0.1164125,-0.3942549999999999,-0.152969,0.0749634999999999,-0.3883549999999999,-0.1598939999999999,1
121,-0.0243395,0.682845,-0.11643,-0.1560395,0.480175,-0.136776,-0.2633494999999999,0.691485,-0.224532,0.1301505,0.488685,-0.135695,0.2405305,0.7016450000000001,-0.235198,-0.3130495,0.929785,-0.2927849999999999,0.2622005,0.899005,-0.294415,-0.0804905,-0.0036649999999999,-1.4999999999987246e-05,0.0804905,0.003665,1.4999999999987246e-05,-0.1416494999999999,-0.064975,-0.310505,0.1316105,-0.0590649999999999,-0.312235,-0.1164195,-0.3780949999999999,-0.154508,0.0747685,-0.3711249999999999,-0.161603,1
122,-0.0242489999999999,0.6803699999999999,-0.1180089999999999,-0.156291,0.4784899999999999,-0.1379189999999999,-0.263301,0.68909,-0.226458,0.129979,0.48711,-0.1367529999999999,0.241079,0.70015,-0.236844,-0.313161,0.92719,-0.29594,0.262809,0.8936200000000001,-0.29638,-0.080624,-0.0035999999999999,3.0000000000002247e-05,0.080624,0.0035999999999999,-2.999999999997449e-05,-0.1416509999999999,-0.05202,-0.31316,0.1313889999999999,-0.0464,-0.31475,-0.116241,-0.36264,-0.155576,0.074695,-0.3550399999999999,-0.1633389999999999,1
123,-0.023844,0.6797599999999999,-0.118862,-0.156117,0.47943,-0.138404,-0.263127,0.68946,-0.2279739999999999,0.130143,0.48665,-0.137259,0.242053,0.7005699999999999,-0.2378139999999999,-0.312847,0.92751,-0.29851,0.263913,0.89558,-0.2977499999999999,-0.080602,-0.0033799999999999,0.00024,0.080602,0.0033799999999999,-0.0002399999999999,-0.1411369999999999,-0.0361199999999999,-0.3150199999999999,0.131373,-0.0307299999999999,-0.31649,-0.115547,-0.34459,-0.156076,0.075109,-0.3364,-0.164204,1
124,-0.023133,0.678215,-0.119236,-0.155708,0.479692,-0.138406,-0.262458,0.6914450000000001,-0.22885,0.130622,0.486871,-0.137216,0.2431519999999999,0.7004049999999999,-0.2380189999999999,-0.312128,0.930145,-0.300165,0.265242,0.894865,-0.298695,-0.080496,-0.0031249999999999,0.0002449999999999,0.080496,0.0031249999999999,-0.0002449999999999,-0.140328,-0.0216149999999999,-0.3162049999999999,0.131612,-0.0161049999999999,-0.3174249999999999,-0.114738,-0.327905,-0.156385,0.075857,-0.319125,-0.16448,1
125,-0.0219115,0.678105,-0.119455,-0.1546375,0.480975,-0.138409,-0.2617275,0.694045,-0.229885,0.1317325,0.48724,-0.137159,0.2444825,0.699945,-0.2380229999999999,-0.3108275,0.929825,-0.30159,0.2668025,0.895065,-0.29886,-0.0805095,-0.0031849999999999,0.0002399999999999,0.0805095,0.0031849999999999,-0.0002399999999999,-0.1388375,-0.008205,-0.31674,0.1324225,-0.002835,-0.31742,-0.1132275,-0.313095,-0.156634,0.0772074999999999,-0.303655,-0.164629,1
126,-0.0204959999999999,0.67825,-0.119499,-0.153349,0.4821439999999999,-0.138369,-0.260449,0.6969099999999999,-0.231107,0.1330609999999999,0.487718,-0.137036,0.246431,0.70112,-0.23818,-0.309179,0.93124,-0.30291,0.269121,0.89672,-0.29933,-0.080507,-0.00313,0.0002399999999999,0.080507,0.0031299999999999,-0.00024,-0.137229,0.0060299999999999,-0.31718,0.133501,0.0111299999999999,-0.31743,-0.111549,-0.29786,-0.156797,0.078808,-0.2878400000000001,-0.164642,1
127,-0.0193215,0.67668,-0.119298,-0.1525795,0.482083,-0.13771,-0.2590295,0.6967,-0.23188,0.1341505,0.49116,-0.136454,0.2482705,0.7004699999999999,-0.238091,-0.3076995,0.93182,-0.30349,0.2712005,0.89598,-0.2994799999999999,-0.0805825,-0.00363,0.0001599999999999,0.0805825,0.00363,-0.0001599999999999,-0.1360795,0.0184699999999999,-0.31698,0.1343305,0.0233999999999999,-0.31723,-0.1101395,-0.2844,-0.156697,0.0801935,-0.2737799999999999,-0.164441,1
128,-0.01806,0.6771499999999999,-0.118602,-0.1516,0.48389,-0.136286,-0.25747,0.69768,-0.231855,0.13526,0.4913679999999999,-0.13504,0.24996,0.7009,-0.237156,-0.30628,0.93397,-0.303695,0.27327,0.8933800000000001,-0.298905,-0.080675,-0.00334,9.500000000001174e-05,0.080675,0.00334,-9.500000000001174e-05,-0.13489,0.03253,-0.316285,0.13535,0.03736,-0.316365,-0.10874,-0.26948,-0.1561,0.081698,-0.25831,-0.163746,1
129,-0.0168809999999999,0.6768700000000001,-0.11793,-0.150669,0.484452,-0.134833,-0.255949,0.6995100000000001,-0.231804,0.136361,0.491336,-0.133638,0.251721,0.70038,-0.236427,-0.3048689999999999,0.93537,-0.303795,0.275381,0.8898,-0.298525,-0.08072,-0.0032999999999999,-6.50000000000095e-05,0.08072,0.0033,6.50000000000095e-05,-0.133779,0.04556,-0.315615,0.136601,0.05035,-0.315365,-0.1074389999999999,-0.2557399999999999,-0.155333,0.083161,-0.24395,-0.163072,1
130,-0.0158864999999999,0.67757,-0.1168669999999999,-0.1502534999999999,0.48672,-0.133046,-0.2545135,0.70183,-0.2309589999999999,0.1372165,0.4928289999999999,-0.132012,0.2534465,0.7013699999999999,-0.235558,-0.3036135,0.93635,-0.303745,0.2772365,0.8918299999999999,-0.297925,-0.0805745,-0.0032,-0.000195,0.0805745,0.0031999999999999,0.000195,-0.1326635,0.0591399999999999,-0.314025,0.1378165,0.0639799999999999,-0.313195,-0.1061334999999999,-0.24111,-0.1543629999999999,0.0845335,-0.22916,-0.1620819999999999,1
131,-0.0151345,0.6783250000000001,-0.115481,-0.1503365,0.489624,-0.130994,-0.2532965,0.7053050000000001,-0.23,0.1378134999999999,0.494807,-0.130268,0.2546935,0.702835,-0.23432,-0.3026565,0.934465,-0.303255,0.2788035,0.894455,-0.297285,-0.0803005,-0.0031349999999999,-0.000215,0.0803005,0.003135,0.0002149999999999,-0.1318765,0.072755,-0.311965,0.1388734999999999,0.077615,-0.310655,-0.1051365,-0.226495,-0.153072,0.0856295,-0.214415,-0.160813,1
132,-0.014675,0.67737,-0.113514,-0.150615,0.4897399999999999,-0.128381,-0.252315,0.7057899999999999,-0.228692,0.138195,0.495976,-0.128171,0.255545,0.70218,-0.232667,-0.302095,0.92973,-0.3024,0.280045,0.89419,-0.29625,-0.080169,-0.0032699999999999,-0.00026,0.080169,0.0032699999999999,0.0002599999999999,-0.131855,0.0826299999999999,-0.30947,0.139655,0.0877399999999999,-0.30765,-0.104515,-0.21563,-0.151437,0.086189,-0.20332,-0.158595,1
133,-0.0142235,0.677135,-0.1116389999999999,-0.1508255,0.4892540000000001,-0.125892,-0.2514655,0.706315,-0.2273669999999999,0.1385445,0.497554,-0.1261449999999999,0.2563445,0.7018650000000001,-0.231035,-0.3014954999999999,0.926005,-0.301525,0.2810945,0.8957550000000001,-0.294825,-0.0801245,-0.0036649999999999,-0.000445,0.0801245,0.003665,0.000445,-0.1320454999999999,0.092775,-0.306905,0.1404145,0.097995,-0.304565,-0.1039155,-0.2046949999999999,-0.150111,0.0866855,-0.1921049999999999,-0.1563169999999999,1
134,-0.01386,0.6761249999999999,-0.1095899999999999,-0.151204,0.4879299999999999,-0.123482,-0.250944,0.7086649999999999,-0.225773,0.139056,0.4981259999999999,-0.1241869999999999,0.256486,0.7006649999999999,-0.229246,-0.301164,0.927425,-0.3004,0.282106,0.8963949999999998,-0.2935999999999999,-0.079988,-0.003905,-0.00073,0.079988,0.0039049999999999,0.00073,-0.132554,0.1016349999999999,-0.30423,0.140926,0.1069349999999998,-0.3015799999999999,-0.103434,-0.1950950000000001,-0.148735,0.086947,-0.1822650000000001,-0.154104,1
135,-0.0136004999999999,0.6754549999999999,-0.107699,-0.1516355,0.4867019999999999,-0.121223,-0.2505755,0.7106249999999998,-0.22427,0.1394345,0.4990239999999999,-0.122336,0.2568545,0.7005649999999999,-0.2278879999999999,-0.3009255,0.928375,-0.299265,0.2829745,0.8973949999999999,-0.292425,-0.0799035,-0.004195,-0.0011649999999999,0.0799035,0.0041949999999999,0.0011649999999999,-0.1331955,0.1102249999999999,-0.301935,0.1413845,0.1157449999999998,-0.298795,-0.1030755,-0.1856350000000001,-0.147424,0.0870705,-0.172765,-0.152004,1
136,-0.0133999999999999,0.674715,-0.1060489999999999,-0.152051,0.487625,-0.1196039999999999,-0.250301,0.7121649999999999,-0.223206,0.139709,0.498752,-0.120664,0.257049,0.700965,-0.226764,-0.300701,0.927435,-0.29851,0.283619,0.8975249999999999,-0.29154,-0.079822,-0.003885,-0.0013399999999999,0.079822,0.0038849999999999,0.00134,-0.133901,0.1174349999999999,-0.29984,0.141809,0.1232149999999999,-0.29602,-0.102851,-0.177525,-0.1463539999999999,0.086905,-0.164525,-0.149527,1
137,-0.013022,0.67322,-0.1041189999999999,-0.152344,0.4874860000000001,-0.1179079999999999,-0.250294,0.7097300000000001,-0.2219459999999999,0.140506,0.498259,-0.1181319999999999,0.257556,0.7001400000000001,-0.2254729999999999,-0.300374,0.92512,-0.297505,0.2842159999999999,0.8999400000000001,-0.290555,-0.079668,-0.0037499999999999,-0.0014349999999999,0.079668,0.00375,0.001435,-0.134534,0.1234,-0.2972249999999999,0.142316,0.12933,-0.292975,-0.102604,-0.1707999999999999,-0.1450429999999999,0.08685,-0.1576199999999999,-0.147002,1
138,-0.0125925,0.6731199999999999,-0.1020409999999999,-0.1525505,0.4884559999999999,-0.1160459999999999,-0.2501704999999999,0.7082299999999999,-0.22057,0.1413495,0.4983149999999999,-0.1155439999999999,0.2581795,0.7002499999999999,-0.224155,-0.2999905,0.92333,-0.29642,0.2848294999999999,0.90323,-0.2894899999999999,-0.0795145,-0.00347,-0.0014799999999999,0.0795145,0.0034699999999999,0.00148,-0.1352205,0.1299099999999999,-0.2943599999999999,0.1429095,0.1359699999999999,-0.2895999999999999,-0.1022505,-0.1637,-0.1434819999999999,0.0868315,-0.15027,-0.1443699999999999,1
139,-0.0122584999999999,0.6724249999999999,-0.100042,-0.1526215,0.488706,-0.114269,-0.2500415,0.706135,-0.219148,0.1421784999999999,0.497725,-0.113067,0.2588585,0.699525,-0.222844,-0.2996615,0.921885,-0.295355,0.2853684999999999,0.904675,-0.288475,-0.0793234999999999,-0.003225,-0.001515,0.0793234999999999,0.0032249999999999,0.0015149999999999,-0.1361315,0.1351349999999999,-0.291915,0.1434285,0.1414149999999999,-0.286655,-0.1021215,-0.157855,-0.141991,0.0866265,-0.144295,-0.141719,1
140,-0.0118965,0.6715599999999999,-0.098332,-0.1524135,0.4886839999999999,-0.112787,-0.2498535,0.7036499999999999,-0.217866,0.1428465,0.4968629999999999,-0.110833,0.2594865,0.6989299999999999,-0.221901,-0.2993035,0.92298,-0.294425,0.2858965,0.90572,-0.287875,-0.0792575,-0.00301,-0.001615,0.0792575,0.0030099999999999,0.001615,-0.1370735,0.1396099999999999,-0.289705,0.1441265,0.1460699999999999,-0.283905,-0.1020335,-0.15273,-0.140517,0.0864284999999999,-0.13911,-0.139218,1
141,-0.0114604999999999,0.6712080000000001,-0.096569,-0.1520355,0.488439,-0.11125,-0.2497655,0.701335,-0.216338,0.1436345,0.4961100000000001,-0.10864,0.2601144999999999,0.6993550000000001,-0.220667,-0.2988855,0.923825,-0.293405,0.2864145,0.906575,-0.287135,-0.0791155,-0.0028049999999999,-0.001735,0.0791155,0.002805,0.0017349999999999,-0.1377755,0.1438250000000001,-0.287605,0.1448845,0.1503850000000001,-0.281185,-0.1018755,-0.1479249999999998,-0.139016,0.0863775,-0.1345449999999999,-0.136925,1
142,-0.010882,0.671426,-0.0948789999999999,-0.151608,0.489295,-0.109793,-0.249818,0.699975,-0.215033,0.144372,0.495339,-0.106721,0.260772,0.699855,-0.219596,-0.298438,0.924525,-0.292715,0.286952,0.907525,-0.286485,-0.07899,-0.002375,-0.001755,0.07899,0.002375,0.001755,-0.138338,0.1478249999999999,-0.285635,0.145672,0.1544249999999999,-0.278475,-0.101668,-0.1433849999999999,-0.137503,0.086408,-0.130235,-0.134678,1
143,-0.0102515,0.6725110000000001,-0.0933399999999999,-0.1511415,0.490552,-0.1083769999999999,-0.2498915,0.698885,-0.213824,0.1450985,0.494588,-0.1049209999999999,0.2612885,0.701245,-0.218746,-0.2978515,0.925285,-0.29195,0.2875085,0.909115,-0.2858699999999999,-0.0788794999999999,-0.0018449999999999,-0.0017199999999999,0.0788794999999999,0.0018449999999999,0.0017199999999999,-0.1388315,0.151765,-0.2836999999999999,0.1464484999999999,0.158365,-0.2758,-0.1014315,-0.1389449999999999,-0.1362789999999999,0.0864645,-0.1260949999999999,-0.1324439999999999,1
144,-0.0095225,0.6730349999999999,-0.092194,-0.1505065,0.4911609999999999,-0.107389,-0.2497865,0.6968799999999999,-0.212995,0.1458735,0.494398,-0.1037299999999999,0.2619835,0.70224,-0.2184209999999999,-0.2971565,0.9251,-0.291545,0.2881835,0.90985,-0.285665,-0.0788254999999999,-0.00151,-0.0016549999999999,0.0788254999999999,0.00151,0.0016549999999999,-0.1391665,0.15435,-0.282215,0.1472735,0.1609499999999999,-0.273845,-0.1011565,-0.13572,-0.1354199999999999,0.0867294999999999,-0.12344,-0.130779,1
145,-0.008986,0.67375,-0.09171,-0.150139,0.491535,-0.107167,-0.249759,0.694785,-0.212527,0.146391,0.49384,-0.103323,0.262551,0.702955,-0.218422,-0.2966189999999999,0.924115,-0.291475,0.288681,0.910005,-0.285835,-0.078806,-0.0013349999999999,-0.0016549999999999,0.078806,0.0013349999999999,0.0016549999999999,-0.139559,0.155065,-0.281375,0.147861,0.161705,-0.272815,-0.101069,-0.134345,-0.135102,0.087099,-0.1227249999999999,-0.1304,1
146,-0.0087124999999999,0.67375,-0.091534,-0.1499385,0.491535,-0.107031,-0.2496185,0.694785,-0.2124579999999999,0.1466715,0.49384,-0.103322,0.2628615,0.702955,-0.218513,-0.2962685,0.924115,-0.291475,0.2889415,0.910005,-0.285835,-0.0788405,-0.0013349999999999,-0.0016549999999999,0.0788405,0.0013349999999999,0.0016549999999999,-0.1400685,0.1550949999999999,-0.281085,0.1482115,0.161745,-0.272615,-0.1011685,-0.133595,-0.134791,0.0872395,-0.1227249999999999,-0.1304,1
147,-0.0085154999999999,0.67375,-0.0915399999999999,-0.1498185,0.491535,-0.1070359999999999,-0.2496185,0.694785,-0.212333,0.1466815,0.49384,-0.1033269999999999,0.2630515,0.702955,-0.2185379999999999,-0.2960485,0.924115,-0.2914799999999999,0.2891315,0.910005,-0.28584,-0.0788405,-0.0013349999999999,-0.0016499999999999,0.0788405,0.0013349999999999,0.00165,-0.1404885,0.155215,-0.2810899999999999,0.1482115,0.1619749999999999,-0.27262,-0.1011985,-0.133135,-0.1347659999999999,0.0872395,-0.1227249999999999,-0.1304049999999999,1
148,-0.0081009999999999,0.674546,-0.091731,-0.149535,0.491535,-0.107227,-0.249595,0.694785,-0.212523,0.146805,0.49384,-0.103517,0.263525,0.703265,-0.21878,-0.295745,0.924115,-0.29168,0.289515,0.910005,-0.2860399999999999,-0.0788649999999999,-0.0013349999999999,-0.00161,0.0788649999999999,0.0013349999999999,0.00161,-0.1405249999999999,0.155545,-0.28128,0.148235,0.162395,-0.27281,-0.1011749999999999,-0.1328749999999999,-0.134956,0.087405,-0.1228049999999999,-0.130672,1
149,-0.0076219999999999,0.675721,-0.0922729999999999,-0.149067,0.4915119999999999,-0.1077689999999999,-0.248967,0.694715,-0.2131099999999999,0.146403,0.4960739999999999,-0.1047609999999999,0.263623,0.704735,-0.21932,-0.295147,0.924805,-0.29239,0.289953,0.909505,-0.28676,-0.0788649999999999,-0.001455,-0.0016499999999999,0.0788649999999999,0.0014549999999999,0.00165,-0.1405269999999999,0.1548349999999999,-0.2818199999999999,0.148233,0.1615449999999999,-0.27335,-0.101127,-0.134025,-0.1354959999999999,0.0875519999999999,-0.124225,-0.1312459999999999,1
150,-0.0071579999999999,0.677272,-0.09329,-0.1483189999999999,0.491846,-0.108858,-0.248289,0.69418,-0.214096,0.145841,0.497243,-0.106522,0.264161,0.70562,-0.220614,-0.294509,0.92532,-0.29364,0.2903909999999999,0.90873,-0.28795,-0.078934,-0.0015699999999999,-0.0016899999999999,0.078934,0.0015699999999999,0.0016899999999999,-0.1406089999999999,0.15247,-0.2827699999999999,0.148121,0.15875,-0.27472,-0.1012289999999999,-0.13687,-0.136545,0.087644,-0.12719,-0.132326,1
151,-0.0067064999999999,0.6779200000000001,-0.0955469999999999,-0.1472595,0.4917270000000001,-0.1113299999999999,-0.2475995,0.6961600000000001,-0.216577,0.1456205,0.4979860000000001,-0.109512,0.2645904999999999,0.7057100000000001,-0.223124,-0.2939495,0.9265,-0.296555,0.2909205,0.90964,-0.290895,-0.0789425,-0.0016199999999999,-0.001555,0.0789425,0.00162,0.001555,-0.1407695,0.14717,-0.284995,0.1475405,0.1530400000000001,-0.277705,-0.1013395,-0.1424999999999999,-0.138675,0.0877725,-0.1330599999999999,-0.134872,1
152,-0.0061689999999999,0.68039,-0.0983569999999999,-0.14622,0.491846,-0.1141349999999999,-0.2469599999999999,0.6983900000000001,-0.2193729999999999,0.1454,0.498014,-0.1127119999999999,0.26512,0.7058900000000001,-0.225929,-0.2933699999999999,0.92859,-0.29973,0.29149,0.91072,-0.2942399999999999,-0.079026,-0.0015699999999999,-0.0013199999999999,0.079026,0.00157,0.00132,-0.1406799999999999,0.14106,-0.2876499999999999,0.14659,0.14675,-0.28112,-0.1014699999999999,-0.1490099999999999,-0.141064,0.0879,-0.1397799999999999,-0.138013,1
153,-0.005905,0.679465,-0.102463,-0.145443,0.4905299999999999,-0.1183869999999999,-0.246573,0.698005,-0.2234209999999999,0.144887,0.4975439999999999,-0.11749,0.264837,0.7039249999999999,-0.229546,-0.293093,0.925035,-0.30416,0.2917369999999999,0.908265,-0.29886,-0.079175,-0.001735,-0.001,0.079175,0.0017349999999999,0.001,-0.140773,0.1284149999999999,-0.29168,0.145127,0.1340049999999999,-0.28639,-0.1019829999999999,-0.162115,-0.14482,0.0878789999999999,-0.153085,-0.142825,1
154,-0.0059364999999999,0.6795800000000001,-0.106986,-0.1448995,0.486649,-0.122824,-0.2465695,0.69547,-0.228073,0.1440005,0.494523,-0.122247,0.2646905,0.7005100000000001,-0.233835,-0.2931494999999999,0.92448,-0.30879,0.2917404999999999,0.90439,-0.30362,-0.0796145,-0.0018199999999999,-0.00075,0.0796145,0.00182,0.00075,-0.1411195,0.1121,-0.29598,0.1430505,0.11745,-0.29212,-0.1028594999999999,-0.1790099999999999,-0.148583,0.0874555,-0.1701799999999999,-0.148094,1
155,-0.0059415,0.6802849999999999,-0.111686,-0.1441945,0.4833849999999999,-0.127582,-0.2465245,0.6938349999999999,-0.232983,0.1433655,0.4920199999999999,-0.127132,0.2645754999999999,0.6981449999999999,-0.2383969999999999,-0.2932045,0.924645,-0.31369,0.2920655,0.901995,-0.3085,-0.0800154999999999,-0.001975,-0.0005499999999999,0.0800154999999999,0.0019749999999999,0.00055,-0.1413545,0.0952649999999998,-0.3001899999999999,0.1404955,0.1008049999999999,-0.29818,-0.1036344999999999,-0.1964350000000001,-0.152523,0.0870344999999999,-0.187865,-0.1534279999999999,1
156,-0.006203,0.68194,-0.1159849999999999,-0.143803,0.480342,-0.132036,-0.246623,0.69323,-0.237616,0.142397,0.4883959999999999,-0.1317199999999999,0.264317,0.69631,-0.242662,-0.293493,0.92541,-0.31843,0.292527,0.90487,-0.3132199999999999,-0.08036,-0.0020499999999999,-0.0003499999999999,0.08036,0.0020499999999999,0.00035,-0.141723,0.0780099999999999,-0.3038999999999999,0.137517,0.0839699999999999,-0.30349,-0.104573,-0.21452,-0.1561329999999999,0.086229,-0.20599,-0.1582789999999999,1
157,-0.006279,0.681365,-0.1190979999999999,-0.14313,0.479744,-0.135949,-0.24677,0.693605,-0.2415339999999999,0.1421599999999999,0.487163,-0.135346,0.26444,0.694185,-0.246079,-0.29341,0.926025,-0.3225449999999999,0.29326,0.904965,-0.3167149999999999,-0.080658,-0.001975,-0.0002349999999999,0.080658,0.001975,0.000235,-0.14157,0.0579649999999999,-0.3065949999999999,0.1348899999999999,0.064985,-0.307535,-0.10506,-0.235375,-0.158873,0.085698,-0.2269549999999999,-0.16215,1
158,-0.0064995,0.680975,-0.121313,-0.1425555,0.479743,-0.139276,-0.2468455,0.692915,-0.244703,0.1421445,0.484411,-0.138222,0.2646245,0.691425,-0.248474,-0.2935855,0.922265,-0.325835,0.2940345,0.904275,-0.318875,-0.0809955,-0.001605,-0.000115,0.0809955,0.0016049999999999,0.000115,-0.1412255,0.0363649999999999,-0.308575,0.1322945,0.0453249999999999,-0.310555,-0.1055155,-0.2579950000000001,-0.160923,0.0851235,-0.249575,-0.16499,1
159,-0.006774,0.68031,-0.122644,-0.142367,0.478248,-0.1418859999999999,-0.2470069999999999,0.69452,-0.247335,0.142143,0.4839839999999999,-0.140509,0.264553,0.69019,-0.250117,-0.293937,0.92264,-0.327775,0.294663,0.90314,-0.3202049999999999,-0.081294,-0.0017199999999999,3.500000000000725e-05,0.081294,0.0017199999999999,-3.500000000000725e-05,-0.140927,0.0137399999999999,-0.309915,0.1296729999999999,0.0241699999999999,-0.312415,-0.106177,-0.28247,-0.162253,0.084507,-0.2738900000000001,-0.167097,1
160,-0.0067444999999999,0.680755,-0.122641,-0.1420605,0.4773759999999999,-0.1428289999999999,-0.2473904999999999,0.692785,-0.248278,0.1424195,0.483241,-0.141393,0.2645995,0.688975,-0.250112,-0.2942504999999999,0.921405,-0.32823,0.2954894999999999,0.899315,-0.32023,-0.0816775,-0.001645,4.000000000001225e-05,0.0816775,0.0016449999999999,-3.999999999998449e-05,-0.1404705,-0.008155,-0.30991,0.1278695,0.0037749999999999,-0.3124,-0.1064905,-0.3068349999999999,-0.162248,0.0842085,-0.298085,-0.167677,1
161,-0.006768,0.6802900000000001,-0.1226419999999999,-0.1416059999999999,0.476364,-0.1437649999999999,-0.247606,0.69179,-0.2488189999999999,0.142914,0.48276,-0.142167,0.264984,0.6882300000000001,-0.250149,-0.294456,0.91786,-0.32871,0.296474,0.8995000000000001,-0.32033,-0.081883,-0.0016499999999999,4.000000000001225e-05,0.081883,0.00165,-3.999999999998449e-05,-0.140006,-0.0307799999999999,-0.3096799999999999,0.126474,-0.0178399999999999,-0.3124,-0.1066159999999999,-0.3327399999999999,-0.1622489999999999,0.0840819999999999,-0.3240099999999999,-0.1679999999999999,1
162,-0.0067455,0.68364,-0.1226169999999999,-0.1412584999999999,0.4766499999999999,-0.144537,-0.2478884999999999,0.69258,-0.2494779999999999,0.1435115,0.4829099999999999,-0.1426569999999999,0.2653415,0.6896100000000001,-0.250374,-0.2946985,0.92358,-0.3290499999999999,0.2976015,0.90206,-0.3203399999999999,-0.0820915,-0.00157,4.000000000001225e-05,0.0820915,0.0015699999999999,-3.999999999998449e-05,-0.1393385,-0.04842,-0.30918,0.1254015,-0.03501,-0.31239,-0.1067684999999999,-0.35474,-0.162349,0.0839945,-0.34602,-0.1681649999999999,1
163,-0.0067069999999999,0.686245,-0.122076,-0.141257,0.480695,-0.144461,-0.247837,0.6961250000000001,-0.249153,0.1438829999999999,0.485305,-0.142865,0.265903,0.692555,-0.250501,-0.294697,0.925655,-0.328805,0.298703,0.904635,-0.319285,-0.082092,-0.001305,-9.500000000001174e-05,0.082092,0.001305,9.4999999999984e-05,-0.138417,-0.064525,-0.308065,0.124533,-0.0503349999999999,-0.311975,-0.106767,-0.375955,-0.162032,0.084016,-0.3672049999999999,-0.167941,1
164,-0.0065,0.6881200000000001,-0.120646,-0.141181,0.4837,-0.143904,-0.247411,0.6988000000000001,-0.2482639999999999,0.144399,0.48707,-0.142485,0.266449,0.69444,-0.249914,-0.2942909999999999,0.926,-0.327875,0.299549,0.90931,-0.317485,-0.082166,-0.00107,-0.000425,0.082166,0.00107,0.000425,-0.137181,-0.0821399999999999,-0.3060049999999999,0.124169,-0.0673599999999999,-0.310295,-0.106711,-0.39919,-0.1611719999999999,0.08446,-0.39033,-0.167885,1
165,-0.0064289999999999,0.69055,-0.1176319999999999,-0.1410239999999999,0.4871199999999999,-0.142007,-0.247384,0.70127,-0.2454529999999999,0.144956,0.4905799999999999,-0.1402109999999999,0.266786,0.6961999999999999,-0.247108,-0.2944739999999999,0.9247,-0.325445,0.299866,0.90772,-0.314455,-0.082134,-0.0008,-0.0006349999999999,0.082134,0.0007999999999999,0.000635,-0.136044,-0.09973,-0.301775,0.123886,-0.08481,-0.3062749999999999,-0.1068239999999999,-0.42259,-0.1590589999999999,0.08503,-0.41385,-0.1664149999999999,1
166,-0.006009,0.69289,-0.1139119999999999,-0.140608,0.48835,-0.139599,-0.247238,0.70024,-0.242213,0.145902,0.49284,-0.137653,0.267652,0.69879,-0.243869,-0.294398,0.922,-0.32276,0.300632,0.9063,-0.31061,-0.081855,-0.00062,-0.0010199999999999,0.081855,0.00062,0.00102,-0.134368,-0.1157599999999999,-0.29629,0.1241019999999999,-0.1015599999999999,-0.30025,-0.106658,-0.4447299999999999,-0.156792,0.086036,-0.43628,-0.165265,1
167,-0.005371,0.696405,-0.1096219999999999,-0.140022,0.488475,-0.1364429999999999,-0.246782,0.700265,-0.2385199999999999,0.147028,0.4977049999999999,-0.134539,0.268708,0.701545,-0.2401669999999999,-0.293982,0.924995,-0.3190699999999999,0.301608,0.907285,-0.3055799999999999,-0.081504,-0.0008849999999999,-0.0011999999999999,0.081504,0.0008849999999999,0.0012,-0.132632,-0.1301349999999999,-0.2904099999999999,0.124688,-0.1176649999999999,-0.2936799999999999,-0.106522,-0.4650449999999999,-0.1545819999999999,0.087398,-0.4573149999999999,-0.1635319999999999,1
168,-0.004513,0.6998949999999999,-0.104677,-0.1393579999999999,0.491085,-0.132905,-0.246618,0.702195,-0.2346659999999999,0.148202,0.500715,-0.130705,0.2698819999999999,0.703155,-0.236262,-0.293618,0.925765,-0.3144949999999999,0.302772,0.906665,-0.299745,-0.081351,-0.0006649999999999,-0.001285,0.081351,0.0006649999999999,0.001285,-0.130888,-0.143645,-0.283595,0.125262,-0.132455,-0.286505,-0.106408,-0.484065,-0.152314,0.089143,-0.4769049999999999,-0.16192,1
169,-0.0035644999999999,0.7038800000000001,-0.099608,-0.1387505,0.49382,-0.1289819999999999,-0.2461404999999999,0.70533,-0.229655,0.1494694999999999,0.5042,-0.126473,0.2709395,0.7053499999999999,-0.231126,-0.2932705,0.92603,-0.30934,0.3041495,0.91245,-0.2939,-0.0812455,-0.00057,-0.0011899999999999,0.0812455,0.0005699999999999,0.0011899999999999,-0.1290005,-0.15593,-0.2764999999999999,0.1257995,-0.1466799999999999,-0.27896,-0.1064205,-0.5016100000000001,-0.150619,0.0910965,-0.49555,-0.160379,1
170,-0.0025619999999999,0.708285,-0.0944359999999999,-0.138119,0.496205,-0.1245119999999999,-0.245689,0.707545,-0.2246159999999999,0.1507609999999999,0.507145,-0.1225209999999999,0.272101,0.7084050000000001,-0.225869,-0.293099,0.932355,-0.30376,0.305451,0.914775,-0.28849,-0.081029,-0.0003849999999999,-0.0011999999999999,0.081029,0.0003849999999999,0.0012,-0.126939,-0.167505,-0.2693299999999999,0.1264009999999999,-0.1592449999999999,-0.2712299999999999,-0.106429,-0.517925,-0.148967,0.093525,-0.512355,-0.158763,1
171,-0.001373,0.7116399999999999,-0.088452,-0.137431,0.50161,-0.119165,-0.2449609999999999,0.70982,-0.218572,0.152789,0.51242,-0.117539,0.273469,0.71055,-0.219969,-0.292891,0.93394,-0.29747,0.306929,0.91599,-0.2819399999999999,-0.080529,3.0000000000002247e-05,-0.0012699999999999,0.080529,-3.0000000000002247e-05,0.0012699999999999,-0.124391,-0.18015,-0.26012,0.127519,-0.17264,-0.26162,-0.106321,-0.5342100000000001,-0.146361,0.096213,-0.52957,-0.156772,1
172,-0.000288,0.71449,-0.082598,-0.137318,0.5045,-0.113765,-0.244248,0.71198,-0.212622,0.154482,0.51703,-0.112776,0.2744919999999999,0.71361,-0.214207,-0.292818,0.93641,-0.29132,0.308272,0.92248,-0.27535,-0.079765,-7.00000000000145e-05,-0.0010799999999999,0.079765,6.999999999998674e-05,0.0010799999999999,-0.1219279999999999,-0.19191,-0.25056,0.128292,-0.18544,-0.25125,-0.106568,-0.54914,-0.143186,0.098662,-0.54536,-0.155211,1
173,0.0010025,0.7194999999999999,-0.076875,-0.1371715,0.51119,-0.108563,-0.2433215,0.71397,-0.206557,0.1562984999999999,0.52288,-0.108285,0.2756885,0.71681,-0.208566,-0.2921114999999999,0.93888,-0.28532,0.3096585,0.92405,-0.26885,-0.0788335,1.999999999999225e-05,-0.0007,0.0788335,-2.0000000000006124e-05,0.0006999999999999,-0.1193415,-0.20287,-0.2406599999999999,0.1291385,-0.19682,-0.24162,-0.1063814999999999,-0.5633400000000001,-0.138563,0.1014555,-0.55918,-0.152748,1
174,0.0023079999999999,0.724197,-0.071416,-0.1365489999999999,0.517277,-0.103922,-0.242429,0.7167669999999999,-0.200728,0.1579709999999999,0.526527,-0.103826,0.276821,0.720227,-0.203016,-0.291259,0.943247,-0.2794999999999999,0.310981,0.927127,-0.26246,-0.077959,0.0003289999999999,-0.0004099999999999,0.077959,-0.0003289999999999,0.00041,-0.116759,-0.213153,-0.23047,0.129791,-0.207313,-0.23213,-0.105929,-0.576003,-0.1339219999999999,0.1041069999999999,-0.571823,-0.148331,1
175,0.0028525,0.7307805,-0.066622,-0.1368744999999999,0.5231505000000001,-0.099745,-0.2423444999999999,0.7230405,-0.196518,0.1588955,0.5285305,-0.099893,0.2770755,0.7224904999999999,-0.198412,-0.2911245,0.9493105,-0.27372,0.3114755,0.9333205,-0.25649,-0.0776024999999999,0.0004765,-0.0001,0.0776024999999999,-0.0004765,9.9999999999989e-05,-0.1149645,-0.2261495,-0.22034,0.1295455,-0.2194595,-0.22346,-0.1060245,-0.5899295,-0.129711,0.1042715,-0.5846994999999999,-0.144122,1
176,0.003262,0.736753,-0.062391,-0.1374449999999999,0.528963,-0.096005,-0.242525,0.729893,-0.192772,0.159525,0.529583,-0.096526,0.277075,0.7257129999999999,-0.194463,-0.291165,0.954823,-0.267915,0.311635,0.937723,-0.2513849999999999,-0.0772539999999999,0.000633,0.0001349999999999,0.0772539999999999,-0.000633,-0.000135,-0.112495,-0.239057,-0.207794,0.128735,-0.231297,-0.214515,-0.106125,-0.603737,-0.125966,0.1041759999999999,-0.596987,-0.140377,1
177,0.0038645,0.7406735,-0.054686,-0.1379435,0.5343735000000001,-0.0891319999999999,-0.2427035,0.7291734999999999,-0.1854859999999999,0.1602965,0.5331935,-0.089824,0.2772265,0.7254735000000001,-0.187178,-0.2910534999999999,0.9549035,-0.2586699999999999,0.3119665,0.9408335,-0.2429,-0.0769515,0.0007584999999999,0.00053,0.0769515,-0.0007585,-0.0005299999999999,-0.1097334999999999,-0.2543865,-0.190925,0.1278465,-0.2456864999999999,-0.199265,-0.1060835,-0.6197665000000001,-0.117481,0.1042105,-0.6119965,-0.132387,1
178,0.0040184999999999,0.7387324999999999,-0.041686,-0.1384575,0.5354924999999999,-0.077193,-0.2434575,0.7292424999999999,-0.173112,0.1607625,0.5313525,-0.077571,0.2772825,0.7220725,-0.174394,-0.2912375,0.9569525,-0.243704,0.3117225,0.9350825,-0.229114,-0.0762835,0.0007255,0.000959,0.0762835,-0.0007255,-0.000959,-0.1074575,-0.2733975,-0.16733,0.1241025,-0.2643375,-0.175378,-0.1063274999999999,-0.6392575,-0.102133,0.1039674999999999,-0.6310075,-0.116927,1
179,0.004234,0.7361705000000001,-0.029175,-0.138842,0.5372005000000001,-0.065444,-0.2442619999999999,0.7292505,-0.162043,0.161308,0.5305005,-0.065806,0.277388,0.7178605,-0.161963,-0.291442,0.9544105,-0.229492,0.311528,0.9292305,-0.215702,-0.075807,0.0005735,0.0014749999999999,0.075807,-0.0005735,-0.001475,-0.1052819999999999,-0.2912095,-0.143944,0.120388,-0.2825595,-0.151936,-0.106502,-0.6576595,-0.086351,0.1036489999999999,-0.6494095,-0.100991,1
180,0.0046185,0.7344465,-0.017691,-0.1394854999999999,0.5365265,-0.0544179999999999,-0.2446554999999999,0.7297765,-0.1514229999999999,0.1615645,0.5270665,-0.0552039999999999,0.2776445,0.7147165,-0.1506009999999999,-0.2911654999999999,0.9530365,-0.2161759999999999,0.3115145,0.9258465,-0.2035259999999999,-0.0754955,0.0003734999999999,0.001985,0.0754955,-0.0003735,-0.001985,-0.1031955,-0.3057634999999999,-0.1222999999999999,0.1167044999999999,-0.2975235,-0.130234,-0.1063254999999999,-0.6726735,-0.0709569999999999,0.1031415,-0.6645835,-0.0849709999999999,1
181,0.0048585,0.7331019999999999,-0.0063704999999999,-0.1402295,0.537222,-0.0437414999999999,-0.2449694999999999,0.729752,-0.1407215,0.1618105,0.5243519999999999,-0.0447954999999999,0.2777705,0.7105619999999999,-0.1397465,-0.2909995,0.952532,-0.2030645,0.3114105,0.918802,-0.1917545,-0.0750975,0.000451,0.0023375,0.0750975,-0.000451,-0.0023374999999999,-0.1012895,-0.319548,-0.1005554999999999,0.1124905,-0.3113479999999999,-0.1089965,-0.1060895,-0.6874680000000001,-0.0549025,0.1023554999999999,-0.678498,-0.0688005,1
182,0.0048779999999999,0.7296739999999999,0.005073,-0.1411819999999999,0.535084,-0.03292,-0.245862,0.7302139999999999,-0.130213,0.162288,0.522094,-0.034177,0.277728,0.706224,-0.12885,-0.290742,0.952634,-0.18987,0.311158,0.913364,-0.17998,-0.074549,0.0004839999999999,0.0025309999999999,0.074549,-0.0004839999999999,-0.0025309999999999,-0.099502,-0.332306,-0.07853,0.107908,-0.323836,-0.086633,-0.105802,-0.701106,-0.038363,0.100932,-0.691276,-0.0514919999999999,1
183,0.0045005,0.725511,0.0163975,-0.1421425,0.533291,-0.0217725,-0.2466325,0.7296910000000001,-0.1193895,0.1623075,0.520411,-0.0234875,0.2773175,0.701201,-0.1179425,-0.2906924999999999,0.952241,-0.1768545,0.3105475,0.908221,-0.1682544999999999,-0.0742075,0.00032,0.0027874999999999,0.0742075,-0.0003199999999999,-0.0027875,-0.0979325,-0.345639,-0.0565685,0.1030665,-0.336839,-0.0638765,-0.1058425,-0.714979,-0.0216395,0.0992224999999999,-0.7043790000000001,-0.0343445,1
184,0.0043889999999999,0.7207570000000001,0.0278124999999999,-0.142813,0.5318769999999999,-0.0105015,-0.247303,0.7284569999999999,-0.1088195,0.162597,0.519577,-0.0125885,0.277177,0.696577,-0.1070315,-0.2904629999999999,0.952387,-0.1639614999999999,0.310077,0.902937,-0.1565514999999999,-0.074128,0.0002649999999999,0.0031334999999999,0.074128,-0.000265,-0.0031335,-0.096153,-0.358143,-0.0351045,0.09844,-0.348883,-0.0411245,-0.105403,-0.727543,-0.0052475,0.097828,-0.7163729999999999,-0.0174395,0
185,0.0040269999999999,0.715229,0.0395865,-0.143555,0.530549,0.0005754999999999,-0.248255,0.726989,-0.0980385,0.162765,0.5189090000000001,-0.0016084999999999,0.2768649999999999,0.691669,-0.0957635,-0.290665,0.949489,-0.1516685,0.309505,0.897839,-0.1445685,-0.074312,0.000283,0.0035294999999999,0.074312,-0.0002829999999999,-0.0035294999999999,-0.095245,-0.370711,-0.0158125,0.094052,-0.361731,-0.0186045,-0.105455,-0.7400209999999999,0.0098795,0.095612,-0.7289709999999999,0.0005325,0
186,0.0037074999999999,0.711479,0.0472605,-0.1443035,0.5283089999999999,0.0084645,-0.2492935,0.728939,-0.0915515,0.1628965,0.515629,0.0059685,0.2765165,0.689959,-0.0885445,-0.2909335,0.949969,-0.1433605,0.3089065,0.8962589999999999,-0.1365305,-0.0745145,0.000322,0.0037565,0.0745145,-0.000322,-0.0037565,-0.0943805,-0.379281,-0.0013505,0.0900475,-0.3700509999999999,-0.0023495,-0.1055735,-0.747861,0.0203115,0.0933005,-0.737911,0.0127455,0
187,0.0037155,0.7130105,0.0490755,-0.1447845,0.5302705,0.0104545,-0.2495544999999999,0.7296305,-0.0896405,0.1630655,0.5177305,0.0076415,0.2765155,0.6914505,-0.0869615,-0.2909245,0.9501305,-0.1412044999999999,0.3085955,0.8985205,-0.1344945,-0.0745145,0.0003995,0.0038505,0.0745145,-0.0003994999999999,-0.0038504999999999,-0.0930355,-0.3802195,0.0061795,0.0889745,-0.3711395,0.0051215,-0.1054644999999999,-0.7487995,0.0237535,0.0929734999999999,-0.7392295,0.0162445,0
188,0.0037225,0.7139795,0.0509885,-0.1452055,0.5316795,0.0125185,-0.2498355,0.7301595,-0.0876435,0.1631745,0.5197195,0.0093815,0.2765245,0.6923195,-0.0852715,-0.2909155,0.9502795,-0.1389705,0.3082545,0.9000794999999999,-0.1325905,-0.0745135,0.0004445,0.0039655,0.0745135,-0.0004445,-0.0039655,-0.0917665,-0.3810705,0.0136035,0.0879495,-0.3719905,0.0125745,-0.1053355,-0.7496505,0.0271925,0.0926455,-0.7402405000000001,0.0197575,0
189,0.0036134999999999,0.7145895,0.0528435,-0.1455965,0.5326895,0.0145605,-0.2501065,0.7305395000000001,-0.0857235,0.1632735,0.5215695,0.0110265,0.2765335,0.6928395,-0.0836165,-0.2909065,0.9505495000000002,-0.1368214999999999,0.3078734999999999,0.9009895,-0.1307615,-0.0745135,0.0004385,0.0041175,0.0745135,-0.0004384999999999,-0.0041175,-0.0906525,-0.3818005,0.0204015,0.0871374999999999,-0.3727205,0.0195445,-0.1052265,-0.7503804999999999,0.0305394999999999,0.0923855,-0.7410905000000001,0.0230384999999999,0
190,0.00372,0.7149915,0.054629,-0.14571,0.5335315,0.016301,-0.25016,0.7308515,-0.0839039999999999,0.16355,0.5235114999999999,0.012393,0.2765,0.6934315,-0.082005,-0.29079,0.9502815,-0.134894,0.30766,0.9015215,-0.129084,-0.0744209999999999,0.0003584999999999,0.004269,0.0744209999999999,-0.0003584999999999,-0.004269,-0.0894629999999999,-0.3811985,0.0261539999999999,0.086843,-0.3720885,0.025626,-0.10485,-0.7497784999999999,0.033828,0.092366,-0.7417585,0.0262379999999999,0
191,0.0038039999999999,0.7153375,0.0561995,-0.145793,0.5336075,0.0176695,-0.250123,0.7307174999999999,-0.0823484999999999,0.163787,0.5237474999999999,0.0134885,0.276397,0.6940075,-0.0806534999999999,-0.290763,0.9500775,-0.1333375,0.307287,0.9017075,-0.1276875,-0.074327,0.0001955,0.0044725,0.074327,-0.0001955,-0.0044724999999999,-0.088556,-0.3798525,0.0305595,0.086823,-0.3712625,0.0304345,-0.104473,-0.7482525,0.0368225,0.092343,-0.7419925,0.0290935,0
192,0.0038659999999999,0.7155915,0.0575915,-0.145872,0.5335915,0.0187875,-0.250072,0.7306315,-0.0810014999999999,0.1640579999999999,0.5238315,0.0144304999999999,0.276288,0.6946015000000001,-0.0795285,-0.290972,0.9499915,-0.1320744999999999,0.306818,0.9016215,-0.1265244999999999,-0.074255,0.0001125,0.0046264999999999,0.074255,-0.0001125,-0.0046265,-0.087826,-0.3785485,0.0341155,0.086959,-0.3704485,0.0344445,-0.104112,-0.7467284999999999,0.0394685,0.092348,-0.7420985,0.0318035,0
193,0.0039194999999999,0.7158180000000001,0.0589035,-0.1459825,0.533598,0.0198025,-0.2500725,0.730598,-0.0797855,0.1643474999999999,0.523898,0.0152594999999999,0.2761575,0.695098,-0.0785065,-0.2912025,0.949358,-0.1309245,0.3062574999999999,0.901588,-0.1255544999999999,-0.0742155,9.699999999999986e-05,0.0047044999999999,0.0742155,-9.699999999999986e-05,-0.0047045,-0.0872175,-0.3774119999999999,0.0369285,0.0871255,-0.369342,0.0373784999999999,-0.1037325,-0.745172,0.0418785,0.0923795,-0.742112,0.0343735,0
194,0.0039485,0.715918,0.060064,-0.1461205,0.533658,0.020591,-0.2501004999999999,0.730598,-0.078813,0.1643295,0.523898,0.016096,0.2760694999999999,0.695388,-0.077661,-0.2914905,0.948758,-0.1300569999999999,0.3056795,0.901588,-0.124847,-0.0741985,9.699999999999986e-05,0.004732,0.0741985,-9.699999999999986e-05,-0.004732,-0.0868395,-0.376442,0.03894,0.0873265,-0.3681819999999999,0.039667,-0.1033505,-0.743532,0.04406,0.0924815,-0.7420019999999999,0.036552,0
195,0.0039645,0.7159575,0.0610565,-0.1463114999999999,0.5337675,0.0212095,-0.2501015,0.7304975,-0.0780005,0.1643485,0.5239375,0.0167485,0.2760085,0.6957274999999999,-0.0770275,-0.2917815,0.9480975,-0.1293945,0.3051385,0.9015075,-0.1243245,-0.0741655,5.7500000000002e-05,0.0047544999999999,0.0741655,-5.7500000000002e-05,-0.0047545,-0.0864695,-0.3755425,0.0403175,0.0875384999999999,-0.3671125,0.0411545,-0.1029515,-0.7421425,0.0457985,0.0926515,-0.7419525,0.0383764999999999,0
196,0.003966,0.7160295000000001,0.0619365,-0.146537,0.5339095,0.0217395,-0.250087,0.7303195,-0.0772905,0.164333,0.5239895000000001,0.0172835,0.275983,0.6960495,-0.0765825,-0.292037,0.9474695,-0.1288425,0.3046729999999999,0.9011095,-0.1239025,-0.07415,1.4500000000000624e-05,0.0047814999999999,0.07415,-1.4499999999986746e-05,-0.0047815,-0.086035,-0.3746405,0.0412695,0.087763,-0.3661005,0.0421075,-0.1024569999999999,-0.7409505000000001,0.0473465,0.092891,-0.7418804999999999,0.0399604999999999,0
197,0.003951,0.7161405000000001,0.0626515,-0.146777,0.5340005,0.0221155,-0.250077,0.7301605,-0.0766755,0.164063,0.5240205,0.0175255,0.275983,0.6964405,-0.0763225,-0.292247,0.9469805,-0.1283695,0.304263,0.9006705,-0.1236195,-0.074136,-6.449999999999512e-05,0.0047555,0.074136,6.4500000000009e-05,-0.0047554999999999,-0.0855549999999999,-0.3738295,0.0420725,0.088008,-0.3652295,0.0429105,-0.1019269999999999,-0.7398395,0.0486334999999999,0.09315,-0.7417695,0.0414045,0
198,0.0038884999999999,0.7162775,0.0632305,-0.1470285,0.5341075,0.0224485,-0.2500985,0.7298875,-0.0761725,0.1636715,0.5239775,0.0175595,0.2760415,0.6966375,-0.0761565,-0.2924485,0.9471175,-0.1279955,0.3039015,0.8999575,-0.1234454999999999,-0.0741455,-0.0001334999999999,0.0046895,0.0741455,0.0001335,-0.0046894999999999,-0.0852335,-0.3730025,0.0427575,0.0883014999999999,-0.3650725,0.0435955,-0.1013485,-0.7388725,0.0497854999999999,0.0935015,-0.7416325,0.0425805,0
199,0.003798,0.716366,0.0635995,-0.147268,0.534206,0.0226695,-0.2501879999999999,0.729596,-0.0758515,0.163402,0.523856,0.0175935,0.276152,0.696736,-0.0761695,-0.2925879999999999,0.947016,-0.1277805,0.303602,0.899076,-0.1234205,-0.074146,-0.0001799999999999,0.0046715,0.074146,0.00018,-0.0046714999999999,-0.085058,-0.372314,0.0431465,0.088628,-0.364974,0.0438815,-0.100728,-0.7382340000000001,0.0506605,0.093897,-0.741554,0.0435455,0
200,0.0036654999999999,0.7164320000000001,0.0639205,-0.1474655,0.5342720000000001,0.0229565,-0.2502955,0.729372,-0.0755715,0.1629445,0.523572,0.0174645,0.2762945,0.6968420000000001,-0.0762355,-0.2926755,0.946822,-0.1275855,0.3034745,0.898282,-0.1234455,-0.0741485,-0.000154,0.0046795,0.0741485,0.000154,-0.0046795,-0.0848615,-0.372208,0.0433285,0.0889095,-0.3648679999999999,0.0440465,-0.1001455,-0.738028,0.0512945,0.0943384999999999,-0.7414879999999999,0.0444014999999999,0
201,0.0035164999999999,0.7164645000000001,0.064229,-0.1477185,0.5342845,0.023276,-0.2504285,0.7292145,-0.075271,0.1623215,0.5231545000000001,0.0173,0.2764515,0.6969445000000001,-0.0763409999999999,-0.2929485,0.9466245,-0.127362,0.3034115,0.8975645,-0.1235219999999999,-0.0741545,-0.0001444999999999,0.004696,0.0741545,0.0001445,-0.0046959999999999,-0.0847295,-0.3721055,0.043471,0.0890774999999999,-0.3650255,0.044189,-0.0995685,-0.7378655,0.05186,0.0947845,-0.7414255,0.045111,0
202,0.0032924999999999,0.716486,0.0644405,-0.1480215,0.534276,0.0236205,-0.2506415,0.728966,-0.0749894999999999,0.1615985,0.522726,0.0170835,0.2768385,0.696906,-0.0765915,-0.2931815,0.946416,-0.1272415,0.3033885,0.896976,-0.1236315,-0.0741555,-0.0001,0.0047165,0.0741555,0.0001,-0.0047164999999999,-0.0846345,-0.372014,0.0434965,0.0892125,-0.365064,0.0442445,-0.0990315,-0.737714,0.0523165,0.0951775,-0.741414,0.0456835,0
203,0.002997,0.7165325,0.064597,-0.14836,0.5343125000000001,0.023914,-0.25105,0.7285125,-0.074772,0.16079,0.5222225,0.016778,0.2773299999999999,0.6966025,-0.0769179999999999,-0.29328,0.9461025,-0.127151,0.3033599999999999,0.8963525,-0.123841,-0.074144,-5.7500000000002e-05,0.004741,0.074144,5.7500000000002e-05,-0.0047409999999999,-0.084563,-0.3719975,0.043457,0.089304,-0.3654475,0.044269,-0.09854,-0.7376075,0.052709,0.095534,-0.7414575,0.0461,0
204,0.0027029999999999,0.7165999999999999,0.0648685,-0.148764,0.5343800000000001,0.0242225,-0.2517339999999999,0.7276100000000001,-0.0745325,0.1599259999999999,0.52155,0.0165425,0.277816,0.6959500000000001,-0.0774585,-0.293064,0.94574,-0.1270565,0.303396,0.89591,-0.1241265,-0.074162,1.000000000001e-06,0.0047174999999999,0.074162,-1.000000000001e-06,-0.0047174999999999,-0.08451,-0.37193,0.0434055,0.0894049999999999,-0.36569,0.0442845,-0.098054,-0.7374700000000001,0.0530835,0.0958969999999999,-0.7413799999999999,0.0465405,0
205,0.002387,0.7166365,0.065187,-0.14934,0.5343965,0.024553,-0.2529499999999999,0.7260565,-0.074281,0.15922,0.5206965,0.016493,0.27827,0.6929865000000001,-0.0779509999999999,-0.29274,0.9451565,-0.1271209999999999,0.30311,0.8928765,-0.125081,-0.074164,7.250000000000312e-05,0.0047029999999999,0.074164,-7.250000000000312e-05,-0.0047029999999999,-0.084532,-0.3718535,0.043345,0.089464,-0.3659834999999999,0.044509,-0.0976,-0.7372535,0.0534339999999999,0.096231,-0.7411935,0.046992,0
206,0.002079,0.7167224999999999,0.065593,-0.1500419999999999,0.5342525,0.0249999999999999,-0.254932,0.7235425,-0.0739269999999999,0.158748,0.5198624999999999,0.016834,0.278748,0.6888025,-0.078538,-0.292282,0.9438825,-0.127448,0.3030779999999999,0.8899925,-0.126018,-0.074149,0.0001364999999999,0.0047129999999999,0.074149,-0.0001365,-0.004713,-0.084509,-0.3716475,0.043369,0.089492,-0.3660675,0.0448139999999999,-0.097152,-0.7368275,0.053869,0.096574,-0.7408375,0.047473,0
207,0.0017904999999999,0.7167395000000001,0.0660129999999999,-0.1508415,0.5337194999999999,0.0254849999999999,-0.2577615,0.7193995,-0.073755,0.1584185,0.5188895,0.017254,0.2795285,0.6837994999999999,-0.079211,-0.2918615,0.9405195,-0.127791,0.3029485,0.8861695,-0.127211,-0.0741285,0.0001974999999999,0.0047479999999999,0.0741285,-0.0001975,-0.004748,-0.0844685,-0.3714905,0.043479,0.0895015,-0.3659305,0.04516,-0.0967215,-0.7361905,0.0543369999999999,0.0968775,-0.7402405000000001,0.0480059999999999,0
