sb224sc-HT22-VT27/4dt907/src/ml-research/a12/datafiles/kinect_good_preprocessed_not_cut_A11_mediapipe/A101_kinect_mirrored.csv
FrameNo,nose_3d_x,nose_3d_y,nose_3d_z,left_shoulder_3d_x,left_shoulder_3d_y,left_shoulder_3d_z,left_elbow_3d_x,left_elbow_3d_y,left_elbow_3d_z,right_shoulder_3d_x,right_shoulder_3d_y,right_shoulder_3d_z,right_elbow_3d_x,right_elbow_3d_y,right_elbow_3d_z,left_wrist_3d_x,left_wrist_3d_y,left_wrist_3d_z,right_wrist_3d_x,right_wrist_3d_y,right_wrist_3d_z,left_hip_3d_x,left_hip_3d_y,left_hip_3d_z,right_hip_3d_x,right_hip_3d_y,right_hip_3d_z,left_knee_3d_x,left_knee_3d_y,left_knee_3d_z,right_knee_3d_x,right_knee_3d_y,right_knee_3d_z,left_ankle_3d_x,left_ankle_3d_y,left_ankle_3d_z,right_ankle_3d_x,right_ankle_3d_y,right_ankle_3d_z
2,1.010137,0.759861,0.129068,0.826665,0.566031,0.128775,0.7241949999999999,0.801441,0.07293,1.171075,0.566941,0.1163469999999999,1.251925,0.829221,0.0244819999999999,0.706485,1.0496409999999998,0.0006599999999999,1.241875,1.096941,-0.022396,0.922119,3.700000000000003e-05,-0.000699,1.077881,-3.699999999999992e-05,0.0006989999999999,0.875045,-0.524159,0.0230999999999999,1.1362249999999998,-0.481759,-0.017396,0.860125,-0.913939,0.0198119999999999,1.148995,-0.876029,0.0098229999999999
3,1.0104035,0.7596145,0.12845,0.8267465,0.5661445,0.128991,0.7245265000000001,0.8013945,0.073373,1.1704865,0.5667745000000001,0.118534,1.2518265,0.8169645,0.026201,0.7070865,1.0497744999999998,0.000572,1.2419065,1.0963744999999998,-0.022219,0.9221315,1.7499999999999937e-05,-0.000503,1.0778685,-1.7500000000000046e-05,0.0005029999999999,0.8749264999999999,-0.5241454999999999,0.023439,1.1394365,-0.5210355,-0.010695,0.8608865,-0.9147855,0.021636,1.1480965,-0.8776455,0.008501
4,1.0105785,0.7592705,0.1280275,0.8267685000000001,0.5661805,0.1289064999999999,0.7249384999999999,0.8014305,0.0735545,1.1701285,0.5670905,0.1206585,1.2517385,0.8222005,0.0246044999999999,0.7074885,1.0500005,0.0006064999999999,1.2419485,1.0963005,-0.0221735,0.9221595,6.550000000000002e-05,-0.0005535,1.0778405,-6.550000000000002e-05,0.0005534999999999,0.8750885000000002,-0.5240995,0.0234855,1.1364385,-0.4848895,-0.0167605,0.8616485,-0.9150295,0.0216675,1.1484285,-0.8774695,0.0088894999999999
5,1.010695,0.758921,0.1277435,0.8267519999999999,0.566101,0.1286495,0.7254419999999999,0.801071,0.0737255,1.169962,0.567201,0.1220815,1.252442,0.8245709999999999,0.0245025,0.707812,1.050781,0.0006864999999999,1.241952,1.096081,-0.0223714999999999,0.922181,-0.000195,-0.0006784999999999,1.077819,0.000195,0.0006785,0.8752820000000001,-0.524359,0.0234945,1.137812,-0.500919,-0.0130524999999999,0.861332,-0.914929,0.0217025,1.147432,-0.880839,0.0096005
6,1.0107005,0.758423,0.1276255,0.8267855,0.566233,0.1284415,0.7256655000000001,0.801103,0.0737945,1.1716355,0.567233,0.1164045,1.2519655,0.815793,0.0257104999999999,0.7080355,1.050793,0.0008014999999999,1.2420155,1.095993,-0.0224985,0.9221785,-0.000214,-0.0006675,1.0778215,0.000214,0.0006674999999999,0.8752655,-0.5243570000000001,0.0236134999999999,1.1382255,-0.5091870000000001,-0.0126065,0.8617455,-0.915797,0.0202114999999999,1.1475455,-0.880347,0.0104814999999999
7,1.010943,0.7591385,0.1280315,0.827825,0.5664985,0.1288025,0.725695,0.8014685,0.0741015,1.171495,0.5663485,0.1163265,1.252885,0.8253685000000001,0.0246225,0.7080950000000001,1.0507085,0.0010895,1.242365,1.0965085,-0.0227764999999999,0.922218,-3.149999999999995e-05,-0.0005254999999999,1.077782,3.150000000000006e-05,0.0005254999999999,0.875345,-0.5241915,0.0238105,1.139015,-0.4992014999999999,-0.0140825,0.860555,-0.9163515,0.0187024999999999,1.148665,-0.8767015,0.0106985
8,1.0110659999999998,0.759027,0.1280555,0.828128,0.566507,0.1288155,0.725858,0.801427,0.0742765,1.171698,0.566187,0.1157625,1.253268,0.824147,0.0246305,0.708168,1.050717,0.0012324999999999,1.242528,1.0964170000000002,-0.0228734999999999,0.922231,-3.200000000000002e-05,-0.0004994999999999,1.077769,3.1999999999999965e-05,0.0004994999999999,0.875348,-0.5241830000000001,0.0237925,1.1390179999999999,-0.499193,-0.0141524999999999,0.860708,-0.916403,0.0185835,1.1488379999999998,-0.8772530000000001,0.0105345
9,1.011167,0.7589085,0.1280775,0.828438,0.5665185,0.1288254999999999,0.725948,0.8014185,0.0745065,1.1719879999999998,0.5660285,0.1151615,1.253798,0.8229785,0.0247225,0.7081780000000001,1.0507385,0.0014405,1.242698,1.0962385,-0.0229634999999999,0.922235,-5.049999999999998e-05,-0.0004704999999999,1.077765,5.050000000000004e-05,0.0004704999999999,0.875378,-0.5241915,0.0238055,1.1390179999999999,-0.4991715,-0.0141234999999999,0.860788,-0.9168815,0.0178595,1.148998,-0.8778215,0.0104315
10,1.0112629999999998,0.758741,0.1281095,0.828726,0.566591,0.1290125,0.725986,0.801711,0.0749315,1.1721059999999999,0.565831,0.1152465,1.254336,0.822711,0.0248545,0.708186,1.0508110000000002,0.0019635,1.242836,1.096011,-0.0230584999999999,0.92226,7.10000000000001e-05,-0.0004454999999999,1.07774,-7.10000000000001e-05,0.0004455,0.875446,-0.524069,0.0238035,1.139086,-0.498539,-0.0142414999999999,0.860876,-0.917419,0.0172015,1.149096,-0.877689,0.0104565
11,1.0113604999999999,0.7585729999999999,0.128285,0.8289835,0.566653,0.129218,0.7259835,0.802023,0.0753659999999999,1.1722335,0.565663,0.114928,1.2548335,0.823813,0.0248229999999999,0.7081835000000001,1.050883,0.0025209999999999,1.2429735,1.0957830000000002,-0.0231509999999999,0.9222945,0.000146,-0.0004209999999999,1.0777055,-0.0001459999999999,0.0004209999999999,0.8754935000000001,-0.523997,0.023808,1.1391635,-0.495527,-0.014904,0.8608235,-0.917987,0.0164069999999999,1.1492935,-0.877347,0.0105339999999999
12,1.0114589999999999,0.7584190000000001,0.1285835,0.829187,0.566729,0.1294425,0.725977,0.8023290000000001,0.0758225,1.172407,0.565579,0.1144085,1.2553670000000001,0.824459,0.0249385,0.708187,1.050979,0.0031215,1.243087,1.095479,-0.0232384999999999,0.9223290000000001,0.0002229999999999,-0.0003854999999999,1.0776709999999998,-0.000223,0.0003855,0.875547,-0.523921,0.0238125,1.139407,-0.497961,-0.0144714999999999,0.860697,-0.918511,0.0155115,1.149497,-0.8770009999999999,0.0106125
13,1.011529,0.7582575,0.1288935,0.8291980000000001,0.5667875,0.1296905,0.725948,0.8026475000000001,0.0762765,1.172368,0.5655075,0.1144195,1.255818,0.8249375,0.0249625,0.7081379999999999,1.0508875,0.0037265,1.243178,1.0951875,-0.0233294999999999,0.9223520000000001,0.0002955,-0.0003224999999999,1.077648,-0.0002954999999999,0.0003225,0.8756180000000001,-0.5238524999999999,0.0237985,1.139578,-0.4952925,-0.0150285,0.8606680000000001,-0.9186325,0.0149605,1.149748,-0.8761025,0.0106265
14,1.011531,0.7581755,0.129194,0.829144,0.5668755,0.129939,0.725904,0.8029955,0.076714,1.172374,0.5655755,0.11425,1.256114,0.8262355,0.024777,0.7080240000000001,1.0508255,0.00434,1.243144,1.0952255,-0.0235449999999999,0.9223580000000001,0.0003725,-0.0002759999999999,1.077642,-0.0003725,0.0002759999999999,0.875664,-0.5237845,0.023726,1.1397439999999999,-0.4919945,-0.015585,0.860594,-0.9185045,0.014676,1.149924,-0.8754645000000001,0.010552
15,1.0114895,0.7580100000000001,0.1295275,0.8290635,0.56691,0.1301795,0.7258235,0.8033,0.0771594999999999,1.1723335,0.56569,0.1142665,1.2562735,0.8272,0.0246544999999999,0.7078335,1.05076,0.0050404999999999,1.2430335,1.09526,-0.0238335,0.9223574999999999,0.00045,-0.0002345,1.0776425,-0.0004499999999999,0.0002344999999999,0.8756935,-0.52372,0.0236394999999999,1.1399235,-0.48844,-0.0161955,0.8605435,-0.91875,0.0141714999999999,1.1500135,-0.8750199999999999,0.0104014999999999
16,1.0114035,0.757757,0.1298825,0.8289735,0.5668970000000001,0.1303945,0.7256835000000001,0.803597,0.0776284999999999,1.1723335,0.5657970000000001,0.1138204999999999,1.2563434999999998,0.8276570000000001,0.0246524999999999,0.7075935,1.050697,0.0057544999999999,1.2429135,1.096197,-0.0241535,0.9223435,0.000525,-0.0001835,1.0776565,-0.000525,0.0001834999999999,0.8757235,-0.523663,0.0235044999999999,1.1400835,-0.488543,-0.0161455,0.8605535,-0.918913,0.0140844999999999,1.1500835,-0.874593,0.0102854999999999
17,1.011298,0.7575200000000001,0.1302295,0.8288329999999999,0.5668700000000001,0.1305735,0.725483,0.80388,0.0781554999999999,1.172173,0.5659500000000001,0.1141065,1.256233,0.8280500000000001,0.0245395,0.707183,1.05063,0.0064204999999999,1.242763,1.09603,-0.0245705,0.922317,0.000575,-0.0001014999999999,1.077683,-0.000575,0.0001014999999999,0.875763,-0.52365,0.0233045,1.1401729999999999,-0.48954,-0.0160874999999999,0.860643,-0.91869,0.0139975,1.150063,-0.8742599999999999,0.0101265
18,1.0111839999999999,0.757284,0.1305625,0.828588,0.566894,0.1306425,0.725268,0.804234,0.0785765,1.171938,0.5660839999999999,0.1139935,1.256098,0.828754,0.0243935,0.7066779999999999,1.050534,0.0069284999999999,1.242568,1.095634,-0.0250205,0.92229,0.0005479999999999,2.4499999999996747e-05,1.07771,-0.0005479999999999,-2.4500000000003685e-05,0.875798,-0.523726,0.0230914999999999,1.140408,-0.493346,-0.0153845,0.860708,-0.917986,0.0138725,1.150038,-0.8744160000000001,0.0099504999999999
19,1.0110135,0.7571545,0.130703,0.8284355000000001,0.5669845,0.130641,0.7250455,0.8043545,0.078726,1.1718055,0.5661444999999999,0.113904,1.2559555,0.8281345,0.024188,0.7061155,1.0506945,0.007056,1.2420455,1.0948945,-0.0256849999999999,0.9222405,0.0004134999999999,0.000182,1.0777595,-0.0004135,-0.000182,0.8757655,-0.5239055,0.0229,1.1406455,-0.4963955,-0.0150819999999999,0.8608655000000001,-0.9178255,0.014085,1.1499955,-0.8744055000000001,0.009774
20,1.0107715,0.7571545,0.1305315,0.8281795000000001,0.5669845,0.1304705,0.7247695000000001,0.8043545,0.0785575,1.1714695,0.5661444999999999,0.1136195,1.2557995,0.8274245,0.0239724999999999,0.7053895,1.0506945,0.0069144999999999,1.2414695,1.0948945,-0.0267805,0.9221795,0.0004134999999999,0.0003354999999999,1.0778205,-0.0004135,-0.0003355,0.8757395,-0.5239055,0.0227155,1.1408395,-0.4986655,-0.0144665,0.8610295,-0.9177355,0.0144264999999999,1.1499495,-0.8744055000000001,0.0095904999999999
21,1.010508,0.7571545,0.130352,0.827893,0.5669845,0.130293,0.7244630000000001,0.8043545,0.078381,1.171073,0.5661444999999999,0.113449,1.255453,0.8277245,0.0233419999999999,0.704573,1.0506945,0.0067689999999999,1.2409029999999999,1.0948945,-0.0279639999999999,0.922126,0.0004134999999999,0.0004919999999999,1.077874,-0.0004135,-0.0004919999999999,0.875723,-0.5239055,0.022522,1.1409429999999998,-0.4976955,-0.014669,0.861213,-0.9177155,0.0144159999999999,1.149953,-0.8744055000000001,0.0093949999999999
22,1.010288,0.7571505000000001,0.1301189999999999,0.827623,0.5669305,0.1300629999999999,0.7241230000000001,0.8043205,0.078155,1.170663,0.5662205,0.112713,1.254783,0.8282005,0.022545,0.703623,1.0506305,0.00658,1.2402929999999999,1.0961305,-0.0294719999999999,0.922083,0.0004105,0.00067,1.077917,-0.0004105,-0.0006699999999999,0.875673,-0.5238995,0.022299,1.140923,-0.4977595,-0.0146649999999999,0.8613230000000001,-0.9169495,0.014928,1.1499030000000001,-0.8743095,0.009368
23,1.0098775,0.757144,0.1296709999999999,0.8273175,0.567034,0.129723,0.7235775,0.804334,0.077805,1.1700974999999998,0.566644,0.111727,1.2537975000000001,0.826934,0.021221,0.7023575,1.0503840000000002,0.00599,1.2394475,1.098384,-0.0316349999999999,0.9220495,0.0001889999999999,0.000883,1.0779505,-0.0001889999999999,-0.000883,0.8756775,-0.524206,0.022229,1.1408975,-0.494796,-0.0153509999999999,0.8613474999999999,-0.916256,0.015244,1.1499575,-0.874156,0.009349
24,1.009401,0.7570975,0.1291014999999999,0.827024,0.5672075000000001,0.1293395,0.7229840000000001,0.8043775000000001,0.0773655,1.169564,0.5672175,0.1107055,1.2525439999999999,0.8256475,0.0193324999999999,0.701024,1.0501975,0.0052644999999999,1.238254,1.1005975,-0.0338845,0.922023,-8.550000000000007e-05,0.0011024999999999,1.077977,8.550000000000007e-05,-0.0011025,0.875694,-0.5245725,0.0221374999999999,1.140784,-0.4924225,-0.0158655,0.8613040000000001,-0.9158625,0.0151834999999999,1.1500139999999999,-0.8738925,0.0093024999999999
25,1.0089285,0.757201,0.1284825,0.8268285000000001,0.567411,0.1289135,0.7223984999999999,0.804401,0.0768645,1.1690985,0.567891,0.1089705,1.2513085,0.824871,0.0174605,0.6996285,1.049851,0.0044214999999999,1.2367185,1.103251,-0.0361074999999999,0.9219805000000001,-0.000386,0.0012674999999999,1.0780195,0.0003859999999999,-0.0012674999999999,0.8757585,-0.5250090000000001,0.0220005,1.1407785,-0.494939,-0.0157465,0.8613185000000001,-0.915289,0.0153405,1.1501585,-0.873789,0.0090195
26,1.008481,0.7572939999999999,0.127813,0.826601,0.567634,0.128453,0.7217709999999999,0.804414,0.076297,1.168561,0.568604,0.107296,1.250141,0.823124,0.015593,0.698231,1.049414,0.003386,1.235181,1.105314,-0.038339,0.92195,-0.0006709999999999,0.0014489999999999,1.07805,0.0006709999999999,-0.0014489999999999,0.8757910000000001,-0.5254260000000001,0.021806,1.140881,-0.497216,-0.015702,0.861371,-0.915026,0.015231,1.150251,-0.873846,0.008639
27,1.0080055,0.7575489999999999,0.1269535,0.8263365000000001,0.5678789999999999,0.1279215,0.7210565,0.8043089999999999,0.0756415,1.1680465,0.569279,0.1055165,1.2490965,0.822089,0.0135475,0.6968065,1.048779,0.0021375,1.2336865,1.108279,-0.0405635,0.9219585,-0.000964,0.0016484999999999,1.0780415,0.000964,-0.0016484999999999,0.8757565,-0.525891,0.0213615,1.1407665,-0.497621,-0.0163825,0.8614565000000001,-0.914531,0.0152915,1.1504165,-0.873801,0.0082104999999999
28,1.0075765,0.7578655000000001,0.1259704999999999,0.8260645,0.5681555,0.1273355,0.7201945000000001,0.8041755,0.0748745,1.1676045,0.5699055000000001,0.1031275,1.2481645,0.8201055,0.0104324999999999,0.6953445,1.0479755,0.0006074999999999,1.2327945,1.1077755,-0.0430675,0.9219625,-0.0012305,0.0019334999999999,1.0780375,0.0012305,-0.0019335,0.8757345,-0.5263445,0.0207504999999999,1.1407445,-0.4988245,-0.0169665,0.8615545,-0.9138345,0.0154095,1.1505245,-0.8740545,0.0077024999999999
29,1.007102,0.7582285,0.124879,0.825728,0.5684984999999999,0.126755,0.719198,0.8039985,0.07384,1.167208,0.5704085,0.100755,1.247398,0.8187684999999999,0.007476,0.6937180000000001,1.0471985,-0.001183,1.231948,1.1065985,-0.045248,0.921962,-0.0014995,0.0022519999999999,1.078038,0.0014995,-0.0022519999999999,0.875718,-0.5267915000000001,0.020155,1.140908,-0.5022515000000001,-0.017547,0.861728,-0.9131015,0.01533,1.150788,-0.8741215,0.007168
30,1.006539,0.758669,0.123458,0.8253,0.568849,0.126021,0.71802,0.803779,0.072632,1.1669,0.570879,0.098106,1.2466599999999999,0.817809,0.003732,0.69177,1.046429,-0.0034869999999999,1.23101,1.106529,-0.049417,0.9219390000000001,-0.0017389999999999,0.002638,1.078061,0.001739,-0.0026379999999999,0.87572,-0.527211,0.019424,1.14109,-0.505881,-0.0182859999999999,0.86189,-0.912761,0.015139,1.1510699999999998,-0.873841,0.006562
31,1.0059905,0.7591455,0.12195,0.8248665,0.5692255,0.125126,0.7167465,0.8034755,0.071325,1.1667965,0.5713355,0.095567,1.2463265,0.8170655,-3.9999999999970615e-06,0.6898565,1.0454455,-0.005954,1.2300465,1.1027455,-0.054664,0.9219015,-0.0019474999999999,0.003024,1.0780985,0.0019475,-0.0030239999999999,0.8757365,-0.5274945,0.018715,1.1411164999999999,-0.5070645,-0.019482,0.8620265000000001,-0.9125645,0.014994,1.1512164999999999,-0.8739945,0.0058929999999999
32,1.005581,0.7593315,0.1207195,0.824497,0.5692615,0.1244385,0.7156470000000001,0.8034715,0.0703505,1.166697,0.5713315,0.0932865,1.246167,0.8174315,-0.0037035,0.688187,1.0454415,-0.0079985,1.229237,1.1036415,-0.0595825,0.921865,-0.0019515,0.0033574999999999,1.078135,0.0019515,-0.0033574999999999,0.875767,-0.5274985,0.0179914999999999,1.140977,-0.5034485,-0.0206335,0.8621670000000001,-0.9123885,0.0147764999999999,1.1512769999999999,-0.8736484999999999,0.0053564999999999
33,1.0051889999999999,0.7595715000000001,0.1193095,0.824165,0.5692915000000001,0.1237274999999999,0.714595,0.8034715,0.0693435,1.1666050000000001,0.5713315,0.0909735,1.245995,0.8165015,-0.0072015,0.686585,1.0454415,-0.0101025,1.2288350000000001,1.1036415,-0.0646954999999999,0.9218300000000001,-0.0019515,0.0037314999999999,1.0781699999999999,0.0019515,-0.0037314999999999,0.8758150000000001,-0.5274985,0.0172025,1.140935,-0.4999685,-0.0216005,0.862115,-0.9123385,0.0139195,1.151395,-0.8736484999999999,0.0047705
34,1.004753,0.7595715000000001,0.1176895,0.8237909999999999,0.5692915000000001,0.1230645,0.713571,0.8034715,0.0683334999999999,1.1665510000000001,0.5713315,0.0888335,1.245701,0.8165015,-0.0108064999999999,0.685011,1.0454415,-0.0122164999999999,1.228211,1.1036415,-0.0700715,0.921791,-0.0019515,0.0041624999999999,1.078209,0.0019515,-0.0041624999999999,0.875971,-0.5274985,0.0162825,1.140861,-0.4970485,-0.0230355,0.862291,-0.9123385,0.0130835,1.1515309999999999,-0.8736484999999999,0.0040135
35,1.0042455,0.7598050000000001,0.115785,0.8234745,0.5695950000000001,0.122449,0.7125945,0.8032250000000001,0.067303,1.1665545,0.5715950000000001,0.086474,1.2454645,0.8165950000000001,-0.014521,0.6835545000000001,1.0447449999999998,-0.014261,1.2275545,1.1031449999999998,-0.0757,0.9217565,-0.002112,0.0046359999999999,1.0782435,0.002112,-0.004636,0.8761045000000001,-0.527795,0.0150909999999999,1.1409145,-0.4970449999999999,-0.024596,0.8623445000000001,-0.912595,0.0118209999999999,1.1516445,-0.873675,0.0030819999999999
36,1.0038235,0.7600079999999999,0.113987,0.8232075,0.569878,0.121893,0.7117375,0.8029679999999999,0.06632,1.1665575,0.5716979999999999,0.084153,1.2454275,0.8153079999999999,-0.018033,0.6822174999999999,1.044128,-0.0162439999999999,1.2269174999999999,1.100628,-0.081171,0.9217215,-0.0022349999999999,0.0050319999999999,1.0782785,0.002235,-0.0050319999999999,0.8762675,-0.5280720000000001,0.013972,1.1409875,-0.497192,-0.0261239999999999,0.8624475,-0.912802,0.010824,1.1518175,-0.873842,0.002238
37,1.0032755,0.7605839999999999,0.1123065,0.8228915,0.570044,0.1214234999999999,0.7109015000000001,0.8025939999999999,0.0653795,1.1665215,0.571824,0.0820885,1.2454815,0.8155439999999999,-0.0207085,0.6809115,1.043414,-0.0180575,1.2263715,1.099114,-0.0862624999999999,0.9217225,-0.002292,0.0053214999999999,1.0782775,0.002292,-0.0053215,0.8764015,-0.528096,0.0127164999999999,1.1412315,-0.499626,-0.0273735,0.8626315,-0.912786,0.0098774999999999,1.1519515,-0.873916,0.0014034999999999
38,1.0027735,0.7611469999999999,0.1105235,0.8226575,0.570257,0.1209175,0.7102375000000001,0.802277,0.0644875,1.1664775,0.5719569999999999,0.0800585,1.2456875,0.816187,-0.0234045,0.6799175,1.042947,-0.0197924999999999,1.2259175,1.097847,-0.0911405,0.9217215,-0.002302,0.0055715,1.0782785,0.002302,-0.0055715,0.8765375000000001,-0.5282030000000001,0.0113184999999999,1.1414475,-0.501233,-0.0287135,0.8628575,-0.912713,0.0089585,1.1520675,-0.874163,0.0004245
39,1.0023585,0.7617645,0.1089355,0.8225795,0.5704545,0.1204605,0.7097795,0.8020845,0.0636815,1.1664695,0.5720545,0.0781815,1.2459895,0.8164445,-0.0256375,0.6793295000000001,1.0425745,-0.0210705,1.2255894999999999,1.0965745,-0.0943515,0.9217075,-0.0023205,0.0057704999999999,1.0782925,0.0023205,-0.0057704999999999,0.8766495,-0.5282155000000001,0.0099815,1.1416695,-0.5016555,-0.0300415,0.8631295,-0.9121055,0.0085005,1.1521995,-0.8744255,-0.0004515
40,1.0020194999999998,0.762378,0.107321,0.8226735000000001,0.570638,0.12,0.7094435,0.801968,0.062998,1.1664335,0.572188,0.076354,1.2462835,0.815268,-0.027825,0.6788835,1.042318,-0.022202,1.2254735,1.096718,-0.0966239999999999,0.9216825,-0.002366,0.005974,1.0783175,0.002366,-0.005974,0.8767735000000001,-0.5282519999999999,0.008617,1.1418235,-0.501162,-0.031722,0.8634435,-0.911822,0.008294,1.1522435,-0.8746619999999999,-0.001316
41,1.001719,0.762859,0.1056535,0.822777,0.570779,0.1195865,0.709187,0.801809,0.0622795,1.166427,0.572369,0.0746594999999999,1.246567,0.815739,-0.0300695,0.6785670000000001,1.041899,-0.0231795,1.225467,1.096199,-0.0987665,0.921665,-0.002404,0.0061995,1.078335,0.002404,-0.0061995,0.876897,-0.528421,0.0070985,1.141927,-0.500091,-0.0339255,0.863657,-0.911301,0.0078445,1.152197,-0.874851,-0.0020835
42,1.0014939999999999,0.7632885,0.1039755,0.822864,0.5709185,0.1190375,0.708904,0.8016385,0.0613055,1.1663540000000001,0.5726085,0.0728645,1.246824,0.8152685,-0.0321515,0.678274,1.0413485,-0.0244835,1.225124,1.0952485,-0.1015824999999999,0.921636,-0.0024395,0.0063975,1.078364,0.0024395,-0.0063975,0.877084,-0.5285015,0.0051845,1.142004,-0.4985115,-0.0364425,0.863814,-0.9113315,0.0070745,1.152164,-0.8750515,-0.0028765
43,1.0013365,0.763527,0.1022155,0.8229785000000001,0.570897,0.1181555,0.7086285,0.801487,0.0600615,1.1662685,0.572827,0.0709515,1.2469985000000001,0.8159369999999999,-0.0342275,0.6780085,1.040747,-0.0259595,1.2244785,1.094847,-0.1042895,0.9215975,-0.002449,0.0065605,1.0784025,0.002449,-0.0065605,0.8771085,-0.528343,0.0029875,1.1421585,-0.4997029999999999,-0.0388904999999999,0.8639085,-0.911523,0.0060724999999999,1.1521885,-0.875143,-0.0036275
44,1.0013305,0.76368,0.100698,0.8230824999999999,0.57091,0.117276,0.7083825,0.80132,0.058601,1.1661925,0.5729500000000001,0.069156,1.2470425,0.81592,-0.036709,0.6777325000000001,1.04009,-0.0276659999999999,1.2239325,1.09489,-0.106832,0.9215485,-0.002446,0.006713,1.0784515,0.0024459999999999,-0.0067129999999999,0.8770725,-0.52816,0.000525,1.1421625,-0.49856,-0.0415959999999999,0.8639525,-0.91156,0.004404,1.1523025,-0.8753,-0.0044999999999999
45,1.001337,0.7637225,0.098979,0.823168,0.5709025,0.116337,0.708088,0.8011825,0.056923,1.166218,0.5730325,0.067483,1.247048,0.8160625,-0.039428,0.677258,1.0394625,-0.029601,1.2234180000000001,1.0942625,-0.109782,0.921458,-0.0024495,0.006908,1.0785420000000001,0.0024495,-0.0069079999999999,0.877048,-0.5276975,-0.002141,1.142168,-0.4977775,-0.044632,0.8639680000000001,-0.9114575,0.0028679999999999,1.152328,-0.8754675000000001,-0.005579
46,1.001364,0.763591,0.0971085,0.8233820000000001,0.570891,0.1152455,0.7078520000000001,0.801141,0.0550564999999999,1.166242,0.572991,0.0656775,1.247022,0.815631,-0.0421405,0.676732,1.038471,-0.0318785,1.223382,1.092671,-0.1127835,0.921343,-0.002417,0.0070784999999999,1.078657,0.0024169999999999,-0.0070785,0.8769920000000001,-0.526989,-0.0053065,1.142262,-0.4962689999999999,-0.0483015,0.864012,-0.911809,0.0012544999999999,1.152372,-0.875509,-0.0063875
47,1.001426,0.7634305,0.0952845,0.823773,0.5707405,0.1141615,0.707633,0.8010404999999999,0.0531405,1.166303,0.5727905,0.0637675,1.247123,0.8152305,-0.0451415,0.6760729999999999,1.0372905,-0.0341765,1.223353,1.0909905,-0.1159854999999999,0.9212200000000001,-0.0024194999999999,0.0072415,1.0787799999999999,0.0024194999999999,-0.0072415,0.876863,-0.5262395000000001,-0.0086254999999999,1.142533,-0.4957594999999999,-0.0521994999999999,0.864123,-0.9120595,-0.0001684999999999,1.152513,-0.8755795000000001,-0.0070074999999999
48,1.0014555,0.763378,0.0932435,0.8241895,0.570688,0.1129645,0.7075195000000001,0.801048,0.0510155,1.1663395,0.572608,0.0618365,1.2473995,0.813018,-0.0479854999999999,0.6753195000000001,1.036128,-0.0368025,1.2232895,1.088928,-0.1196944999999999,0.9210745,-0.002347,0.0073504999999999,1.0789255,0.002347,-0.0073505,0.8766595000000001,-0.5251020000000001,-0.0121684999999999,1.1428095,-0.494692,-0.0566855,0.8642495,-0.911472,-0.0010714999999999,1.1525895,-0.8755820000000001,-0.0080515
49,1.0016384999999999,0.763351,0.091165,0.8247625000000001,0.570621,0.111652,0.7074125,0.8010510000000001,0.048652,1.1664825,0.5723410000000001,0.059823,1.2478325,0.811191,-0.0508869999999999,0.6745725,1.034751,-0.039819,1.2232425,1.086551,-0.123505,0.9209015,-0.002236,0.007391,1.0790985,0.002236,-0.007391,0.8763525,-0.5235989999999999,-0.015898,1.1431125,-0.493489,-0.061525,0.8643825,-0.910379,-0.0017409999999999,1.1526425,-0.875409,-0.0090449999999999
50,1.0018889999999998,0.7633125000000001,0.089006,0.82541,0.5705325,0.110173,0.70732,0.8010125,0.045973,1.16686,0.5719125,0.057715,1.2482199999999999,0.8097925,-0.053442,0.67388,1.0334124999999998,-0.0432459999999999,1.22326,1.0852125,-0.1275669999999999,0.920716,-0.0021615,0.007422,1.079284,0.0021615,-0.0074219999999999,0.87594,-0.5218575,-0.0197969999999999,1.14344,-0.4911675,-0.066065,0.86466,-0.9090075,-0.0021689999999999,1.15266,-0.8752274999999999,-0.0099869999999999
51,1.0023455,0.7630975,0.086566,0.8261925,0.5704275000000001,0.108553,0.7072125,0.8002075000000001,0.042863,1.1673325,0.5714375,0.055563,1.2485525,0.8077275,-0.056462,0.6732525,1.0323275,-0.047318,1.2238324999999999,1.0840275,-0.1316959999999999,0.9205135,-0.0019605,0.007497,1.0794865,0.0019605,-0.007497,0.8753225,-0.5197525,-0.02415,1.1437725,-0.4886525,-0.071103,0.8648625,-0.9075025,-0.0028919999999999,1.1526225,-0.8747725,-0.0111279999999999
52,1.0028075,0.763003,0.0841075,0.8268945,0.570503,0.1070815,0.7069645,0.799673,0.0397605,1.1678045,0.570923,0.0533525,1.2490045,0.806303,-0.0595734999999999,0.6726845,1.031273,-0.0513984999999999,1.2245145,1.082773,-0.1361685,0.9202925,-0.001726,0.0075885,1.0797075,0.0017259999999999,-0.0075884999999999,0.8746345,-0.516957,-0.0283824999999999,1.1440845,-0.486137,-0.0758484999999999,0.8649745,-0.905897,-0.0038744999999999,1.1525445,-0.874417,-0.0122854999999999
53,1.0032275,0.762881,0.0814205,0.8277005,0.570291,0.1051525,0.7067405,0.7994709999999999,0.0366885,1.1683505,0.570291,0.0511785,1.2495205,0.804541,-0.0624585,0.6722105,1.030391,-0.0557825,1.2251905,1.081391,-0.1408675,0.9200315,-0.0014519999999999,0.0076264999999999,1.0799685,0.001452,-0.0076265,0.8738505,-0.513899,-0.0325285,1.1443405,-0.483449,-0.0805175,0.8650805,-0.903979,-0.0045035,1.1523805,-0.873519,-0.0132975
54,1.003698,0.76285,0.0786804999999999,0.828519,0.57031,0.1031965,0.706499,0.79958,0.0335334999999999,1.168939,0.56981,0.0490194999999999,1.250139,0.80306,-0.0654545,0.6720189999999999,1.02921,-0.0600195,1.225979,1.08031,-0.1453755,0.919758,-0.0011799999999999,0.0076334999999999,1.080242,0.00118,-0.0076335,0.872949,-0.51063,-0.0369205,1.1445789999999998,-0.4805,-0.0852355,0.8650789999999999,-0.90176,-0.0049585,1.1522890000000001,-0.87237,-0.0141795
55,1.004084,0.763384,0.0756395,0.8293280000000001,0.569884,0.1005605,0.706078,0.8003439999999999,0.0296975,1.169498,0.568734,0.0463645,1.250918,0.802584,-0.0690655,0.671738,1.028884,-0.0649515,1.227008,1.079384,-0.1506424999999999,0.919435,-0.0009189999999999,0.0076375,1.080565,0.0009189999999999,-0.0076374999999999,0.871998,-0.506366,-0.0411475,1.144598,-0.4773159999999999,-0.0901025,0.864948,-0.898866,-0.0054374999999999,1.152018,-0.870376,-0.0149945
56,1.0044345,0.7639060000000001,0.072414,0.8301215,0.5694560000000001,0.097916,0.7056215,0.800076,0.025797,1.1700315,0.568006,0.043852,1.2517315,0.8014060000000001,-0.072609,0.6714215,1.028786,-0.069862,1.2281615,1.078796,-0.1558379999999999,0.9191205,-0.0006309999999999,0.007533,1.0808795,0.0006309999999999,-0.0075329999999999,0.8710615000000002,-0.502014,-0.0453489999999999,1.1445215,-0.473724,-0.094868,0.8649115,-0.895694,-0.0057309999999999,1.1517615,-0.867814,-0.0157249999999999
57,1.004899,0.7642610000000001,0.0692995,0.830968,0.5691510000000001,0.0954695,0.705218,0.799681,0.0221125,1.170758,0.567121,0.0415085,1.252638,0.803261,-0.0762645,0.671118,1.029071,-0.0747645,1.229628,1.078521,-0.1605045,0.918765,-0.000324,0.0074145,1.081235,0.0003239999999999,-0.0074144999999999,0.870198,-0.4974189999999999,-0.0493524999999999,1.144448,-0.469689,-0.0991645,0.864858,-0.8923789999999999,-0.0060334999999999,1.151448,-0.8648589999999999,-0.0160654999999999
58,1.0052875,0.7645395,0.0656135,0.8317145,0.5689095000000001,0.0924524999999999,0.7047545,0.7989695,0.0178084999999999,1.1716345,0.5655895000000001,0.0385995,1.2535245,0.8051695000000001,-0.0808435,0.6708545,1.0295495,-0.0806235,1.2312445,1.0782695,-0.1658535,0.9184505000000001,-4.149999999999987e-05,0.0073434999999999,1.0815495,4.149999999999987e-05,-0.0073434999999999,0.8693245000000001,-0.4931205,-0.0537065,1.1443145,-0.4657705,-0.1031735,0.8647945,-0.8886004999999999,-0.0064254999999999,1.1511045,-0.8614904999999999,-0.0165624999999999
59,1.005731,0.7650675,0.062042,0.832396,0.5687375,0.089373,0.704306,0.7983574999999999,0.013575,1.172536,0.5641375,0.035672,1.254436,0.8061975,-0.085762,0.6707460000000001,1.0300175,-0.086532,1.233106,1.0778675000000002,-0.171412,0.918133,0.0003114999999999,0.007353,1.081867,-0.0003114999999999,-0.0073529999999999,0.8685760000000001,-0.4887825,-0.057992,1.144136,-0.4617725,-0.107532,0.864706,-0.8850125,-0.0072179999999999,1.150716,-0.8578725,-0.017104
60,1.0060494999999998,0.7656394999999999,0.058534,0.8329075000000001,0.5684895,0.08618,0.7038175,0.7983994999999999,0.009597,1.1733874999999998,0.5625294999999999,0.03281,1.2553475,0.8067894999999999,-0.0902379999999999,0.6707675,1.0303995,-0.092118,1.2349175,1.0778195000000002,-0.1763279999999999,0.9177955,0.0005065,0.007369,1.0822045,-0.0005065,-0.007369,0.8680475,-0.4847305,-0.0615449999999999,1.1440075,-0.4579205,-0.111178,0.8646675,-0.8816205,-0.0081419999999999,1.1504875,-0.8543205,-0.0174739999999999
61,1.0063715,0.7660039999999999,0.054413,0.8332085000000001,0.5680839999999999,0.082449,0.7032385,0.797844,0.004874,1.1740485,0.561044,0.029672,1.2567085,0.8070839999999999,-0.095312,0.6705085,1.029094,-0.0985019999999999,1.2368885,1.077684,-0.182162,0.9174205,0.000694,0.007316,1.0825795,-0.000694,-0.007316,0.8676285,-0.480166,-0.065054,1.1438585,-0.453756,-0.114782,0.8645885,-0.877646,-0.009086,1.1501985000000001,-0.8501960000000001,-0.01792
62,1.0066075,0.766493,0.049989,0.8332335000000001,0.5679529999999999,0.078501,0.7026335,0.797083,-0.0003609999999999,1.1745835,0.559713,0.026208,1.2580434999999999,0.8074129999999999,-0.1007249999999999,0.6701334999999999,1.027873,-0.1049249999999999,1.2386635,1.077733,-0.188335,0.9170935,0.000891,0.007148,1.0829065,-0.0008909999999999,-0.007148,0.8672635000000001,-0.475477,-0.068656,1.1436935,-0.449257,-0.1184049999999999,0.8644535,-0.8734970000000001,-0.010699,1.1501235,-0.845867,-0.018603
63,1.0065715,0.7671785,0.045239,0.8331495,0.5678285,0.073891,0.7015995000000002,0.7955384999999999,-0.006371,1.1749295,0.5582885,0.022264,1.2592495000000001,0.8074585,-0.106553,0.6694895000000001,1.0267585,-0.1123029999999999,1.2400195,1.0774285,-0.195653,0.9168765,0.0011045,0.006828,1.0831235,-0.0011045,-0.006828,0.8668395,-0.4707415,-0.07235,1.1433395,-0.4450314999999999,-0.121943,0.8641495000000001,-0.8700315000000001,-0.013248,1.1499095,-0.8414715,-0.019822
64,1.0065395,0.767341,0.0400035,0.8328425,0.568231,0.0691615,0.7006025,0.793361,-0.0124065,1.1752025,0.557271,0.0182745,1.2601525,0.806781,-0.1122955,0.6688925,1.025221,-0.1195755,1.2409425,1.076941,-0.2029555,0.9166945,0.0012559999999999,0.0064945,1.0833055,-0.001256,-0.0064945,0.8664625,-0.4665289999999999,-0.0759405,1.1431125,-0.441119,-0.1250155,0.8638525,-0.866819,-0.0156075,1.1496325,-0.837249,-0.0216405
65,1.0063765,0.767538,0.0342685,0.8323855,0.568818,0.0637175,0.6994355,0.792158,-0.0191474999999999,1.1753255,0.556208,0.0137325,1.2608155,0.8060980000000001,-0.1186265,0.6681855,1.023018,-0.1275765,1.2415555,1.076378,-0.2111365,0.9164575000000001,0.0013179999999999,0.0062345,1.0835424999999999,-0.0013179999999999,-0.0062345,0.8660055,-0.462092,-0.0797565,1.1428455,-0.436732,-0.1283265,0.8633855,-0.8631519999999999,-0.0184054999999999,1.1492455,-0.8328519999999999,-0.0243845
66,1.0059079999999998,0.767584,0.0279715,0.831785,0.568794,0.0572825,0.6979150000000001,0.7906439999999999,-0.0265774999999999,1.174955,0.555584,0.0088515,1.261235,0.8049839999999999,-0.1253765,0.667205,1.020024,-0.1362165,1.241655,1.076014,-0.2197665,0.916137,0.0012399999999999,0.0060145,1.083863,-0.00124,-0.0060144999999999,0.865475,-0.457966,-0.0837364999999999,1.1425049999999999,-0.4331259999999999,-0.1318765,0.862825,-0.8594759999999999,-0.0216594999999999,1.148855,-0.828676,-0.0277585
67,1.005339,0.7676455,0.0213045,0.831133,0.5687255,0.0505085,0.6963430000000002,0.7887755000000001,-0.0344155,1.174303,0.5555055,0.0036865,1.261553,0.8039155,-0.1321325,0.6661430000000002,1.0163255,-0.1447425,1.241473,1.0756855,-0.2286625,0.915793,0.0012155,0.0057804999999999,1.084207,-0.0012154999999999,-0.0057805,0.865063,-0.4536844999999999,-0.0877525,1.142183,-0.4295344999999999,-0.1354325,0.862343,-0.8557045,-0.0252505,1.148473,-0.8243045,-0.0313675
68,1.004583,0.7675565,0.0141215,0.830356,0.5684865,0.0433235,0.694646,0.7868065,-0.0426345,1.173566,0.5557165,-0.0016594999999999,1.261796,0.8035465,-0.1389455,0.664906,1.0124765,-0.1534255,1.240876,1.0757965,-0.2377755,0.915426,0.0011174999999999,0.0055675,1.084574,-0.0011175,-0.0055674999999999,0.864706,-0.4493635,-0.0918954999999999,1.141916,-0.4256434999999999,-0.1387854999999999,0.861756,-0.8517335,-0.0290795,1.147996,-0.8197835,-0.0353524999999999
69,1.0036185,0.7670790000000001,0.0065835,0.8294325,0.568179,0.0358485,0.6928825000000001,0.784519,-0.0508905,1.1727225,0.555929,-0.0071665,1.2619125,0.803349,-0.1460594999999999,0.6634625000000001,1.008519,-0.1621294999999999,1.2398525,1.075799,-0.2472694999999999,0.9150645,0.0010749999999999,0.0053065,1.0849355,-0.001075,-0.0053065,0.8642925,-0.445071,-0.0962395,1.1415525,-0.421601,-0.1422995,0.8610925,-0.847611,-0.0330195,1.1472825,-0.815021,-0.0393625
70,1.0026965,0.766851,-0.0002869999999999,0.8285695,0.567661,0.028779,0.6911295,0.782431,-0.058695,1.1719095,0.556071,-0.012351,1.2614095,0.803271,-0.152609,0.6621794999999999,1.006141,-0.1704089999999999,1.2388595,1.075891,-0.255849,0.9147915000000001,0.000945,0.005108,1.0852084999999998,-0.000945,-0.005108,0.8638895,-0.441029,-0.100449,1.1410995,-0.418029,-0.145649,0.8604995,-0.843849,-0.036961,1.1465795,-0.810599,-0.043312
71,1.001803,0.7665595000000001,-0.0069064999999999,0.8277010000000001,0.5670595,0.0219975,0.6893910000000001,0.7801995,-0.0662295,1.170691,0.5560395,-0.0172515,1.260811,0.8029795000000001,-0.1590095,0.660981,1.0027695,-0.1790395,1.237901,1.0758395,-0.2641095,0.914554,0.0008225,0.0048685,1.085446,-0.0008225,-0.0048684999999999,0.8635010000000001,-0.4371705,-0.1046695,1.140651,-0.4146504999999999,-0.1489395,0.8599510000000001,-0.8404805,-0.0405675,1.145931,-0.8064705,-0.0472395
72,1.0009934999999999,0.7658634999999999,-0.0134919999999999,0.8269305,0.5661635,0.01541,0.6878005,0.7783835,-0.073409,1.1694605,0.5558935,-0.021966,1.2601905,0.8025534999999999,-0.165146,0.6599205,0.9994935,-0.187416,1.2371305,1.0757935,-0.271756,0.9143955,0.0006295,0.004747,1.0856045,-0.0006295,-0.004747,0.8633005,-0.4345865,-0.108966,1.1403005,-0.4113665000000001,-0.152176,0.8595205000000001,-0.8369465,-0.043766,1.1454105,-0.8024965000000001,-0.051126
73,1.0001745,0.76498,-0.0196229999999999,0.8264135,0.5651700000000001,0.0093169999999999,0.6864535,0.77613,-0.080359,1.1683634999999999,0.55569,-0.026336,1.2597735,0.8020200000000001,-0.170979,0.6592135,0.99621,-0.195599,1.2364335,1.07542,-0.279129,0.9142975,0.00044,0.004637,1.0857025,-0.0004399999999999,-0.004637,0.8633635,-0.4333899999999999,-0.1129889999999999,1.1400235,-0.4082099999999999,-0.155259,0.8592635,-0.83361,-0.046937,1.1451035,-0.79875,-0.054754
74,0.9995345000000001,0.76387,-0.025527,0.8260425,0.5640000000000001,0.0036069999999999,0.6853825,0.7738700000000001,-0.086976,1.1674425,0.5553400000000001,-0.0304569999999999,1.2595524999999999,0.8012100000000001,-0.176528,0.6586825000000001,0.99334,-0.203578,1.2359625,1.07499,-0.286188,0.9142455,0.0003299999999999,0.00447,1.0857545,-0.0003299999999999,-0.00447,0.8635925,-0.4316,-0.116638,1.1398825,-0.4053,-0.158178,0.8591825000000001,-0.8304699999999999,-0.050002,1.1448725,-0.7952699999999999,-0.057798
75,0.998971,0.7630349999999999,-0.0311364999999999,0.8257550000000001,0.5631550000000001,-0.0016005,0.684565,0.7721450000000001,-0.0937025,1.166565,0.5548850000000001,-0.0345075,1.2593649999999998,0.8005850000000001,-0.1817824999999999,0.6582049999999999,0.991055,-0.2115525,1.235535,1.074565,-0.2932425,0.914231,0.0002449999999999,0.0042404999999999,1.085769,-0.0002449999999999,-0.0042405,0.863795,-0.4299449999999999,-0.1202525,1.139705,-0.401995,-0.1609925,0.859205,-0.8273250000000001,-0.0532665,1.144695,-0.791785,-0.0607815
76,0.9984285,0.7623599999999999,-0.0365645,0.8254855,0.5623100000000001,-0.0066795,0.6837855000000002,0.7708299999999999,-0.1000975,1.1656455000000001,0.55447,-0.0382795,1.2591955000000001,0.79955,-0.1867815,0.6577455,0.98876,-0.2193415,1.2351155,1.07421,-0.3001715,0.9142155,0.0001499999999999,0.0039805,1.0857845,-0.0001499999999999,-0.0039805,0.8639355,-0.4281299999999999,-0.1237315,1.1395255,-0.39889,-0.1640115,0.8592255,-0.8243100000000001,-0.0567535,1.1444955,-0.7883500000000001,-0.0639815
77,0.9980615,0.7608849999999999,-0.0418315,0.8253035,0.561425,-0.0115805,0.6831235,0.7683949999999999,-0.1064485,1.1647735,0.552725,-0.0419105,1.2590835,0.7970649999999999,-0.1915504999999999,0.6573635000000001,0.985125,-0.2270605,1.2348435,1.072435,-0.3069405,0.9141845000000001,0.0001749999999999,0.0037174999999999,1.0858154999999998,-0.000175,-0.0037175,0.8639034999999999,-0.425975,-0.1268205,1.1393635,-0.396735,-0.1669405,0.8590234999999999,-0.8221550000000001,-0.0598314999999999,1.1441435,-0.786035,-0.0670125
78,0.9979500000000001,0.759605,-0.046722,0.825324,0.560945,-0.016135,0.682804,0.766655,-0.112784,1.164214,0.551275,-0.0453699999999999,1.259204,0.794945,-0.19603,0.6574139999999999,0.981715,-0.2347,1.235544,1.067805,-0.3132,0.914072,0.0001649999999999,0.003436,1.085928,-0.000165,-0.0034359999999999,0.8640140000000001,-0.4272749999999999,-0.12984,1.139364,-0.394745,-0.16926,0.859044,-0.820185,-0.063146,1.143914,-0.783905,-0.069633
79,0.9980765,0.7587600000000001,-0.0519849999999999,0.8256455,0.56052,-0.020807,0.6828155,0.76501,-0.119094,1.1639355,0.55004,-0.0489939999999999,1.2596155,0.7928599999999999,-0.2007499999999999,0.6580055,0.97836,-0.2427599999999999,1.2365855,1.06323,-0.31941,0.9139915,0.0002399999999999,0.0031039999999999,1.0860085,-0.00024,-0.0031039999999999,0.8644155,-0.42841,-0.13313,1.1395255,-0.39236,-0.17181,0.8593855000000001,-0.81799,-0.066458,1.1439955,-0.78163,-0.072469
80,0.9984625000000001,0.75777,-0.057802,0.8262535,0.56011,-0.0259189999999999,0.6831335000000001,0.76349,-0.125962,1.1641535,0.5489999999999999,-0.052983,1.2605635,0.79076,-0.205932,0.6590635,0.97612,-0.251132,1.2382035,1.0583900000000002,-0.326332,0.9139325,0.00016,0.00289,1.0860675,-0.0001599999999999,-0.00289,0.8650335,-0.42972,-0.136292,1.1397535,-0.3896699999999999,-0.174012,0.8599935,-0.81446,-0.069639,1.1440535,-0.77788,-0.07526
81,0.9990845000000002,0.757075,-0.0636145,0.8270685,0.559705,-0.0308475,0.6837285,0.762035,-0.1327995,1.1646585,0.547895,-0.0570144999999999,1.2617885,0.788675,-0.2113395,0.6604085,0.973655,-0.2594995,1.2401485,1.053675,-0.3333695,0.9139335,0.0001749999999999,0.0027364999999999,1.0860665,-0.0001749999999999,-0.0027364999999999,0.8658785,-0.431485,-0.1390495,1.1401685,-0.3869549999999999,-0.1758795,0.8608085,-0.810975,-0.0728285,1.1444485,-0.7742049999999999,-0.0780665
82,0.999924,0.756165,-0.069499,0.82797,0.559405,-0.036077,0.68451,0.7607050000000001,-0.139702,1.16548,0.5468149999999999,-0.0610909999999999,1.2631000000000001,0.786805,-0.2169319999999999,0.66186,0.970495,-0.268332,1.24227,1.048935,-0.340652,0.913869,0.000365,0.002589,1.086131,-0.000365,-0.0025889999999999,0.8669,-0.432775,-0.141822,1.14081,-0.384675,-0.1777719999999999,0.8617900000000001,-0.807595,-0.076104,1.14493,-0.770795,-0.081171
83,1.0008819999999998,0.75569,-0.075687,0.829126,0.5594,-0.041796,0.6854359999999999,0.7597700000000001,-0.147005,1.166406,0.54562,-0.06556,1.264536,0.7849999999999999,-0.2228349999999999,0.663486,0.96703,-0.277125,1.244586,1.04387,-0.348315,0.913781,0.0003599999999999,0.002429,1.086219,-0.0003599999999999,-0.002429,0.868016,-0.4336199999999999,-0.144675,1.141586,-0.3825099999999999,-0.179815,0.8628660000000001,-0.80399,-0.079645,1.1457060000000001,-0.7673099999999999,-0.0846359999999999
84,1.001957,0.7549600000000001,-0.0820505,0.830407,0.5591700000000001,-0.0475435,0.686447,0.7583000000000001,-0.1544725,1.167347,0.54355,-0.0700965,1.265897,0.78274,-0.2288925,0.665297,0.96365,-0.2856425,1.246987,1.0378,-0.3561225,0.913675,0.0005,0.0023455,1.086325,-0.0005,-0.0023455,0.869287,-0.43438,-0.1471825,1.142407,-0.3804599999999999,-0.1817025,0.8638669999999999,-0.8004899999999999,-0.0836505,1.146557,-0.76364,-0.0880285
85,1.0030055,0.7541249999999999,-0.088528,0.8316325,0.558335,-0.053295,0.6873625,0.7574350000000001,-0.162014,1.1681625,0.541865,-0.07471,1.2670025,0.7805150000000001,-0.235184,0.6669725,0.960885,-0.294784,1.2490925,1.031725,-0.363734,0.9135405,0.000535,0.0024539999999999,1.0864595,-0.000535,-0.002454,0.8702025000000001,-0.433575,-0.149534,1.1431625,-0.3778649999999999,-0.183284,0.8647724999999999,-0.796605,-0.087507,1.1473025,-0.7597750000000001,-0.091472
86,1.004006,0.753015,-0.095164,0.832903,0.557535,-0.059132,0.688273,0.756475,-0.1698339999999999,1.168923,0.540115,-0.079498,1.267963,0.7785249999999999,-0.241744,0.668723,0.958735,-0.304304,1.2509929999999998,1.025575,-0.371444,0.913407,0.000675,0.0025649999999999,1.086593,-0.000675,-0.002565,0.8711330000000002,-0.432615,-0.151954,1.143933,-0.375285,-0.184854,0.865783,-0.7923450000000001,-0.090906,1.148123,-0.7553449999999999,-0.094599
87,1.0049394999999999,0.7516149999999999,-0.1021035,0.8341575,0.5566850000000001,-0.0652355,0.6892775,0.7551650000000001,-0.1779204999999999,1.1696675,0.537795,-0.0847535,1.2689175,0.775755,-0.2486304999999999,0.6704775000000001,0.956755,-0.3144205,1.2520275,1.022005,-0.3798205,0.9133065,0.000795,0.0026505,1.0866935,-0.0007949999999999,-0.0026505,0.8721175000000001,-0.430675,-0.1546205,1.1448274999999999,-0.372775,-0.1869805,0.8666275,-0.788025,-0.0951045,1.1489875,-0.750775,-0.0978885
88,1.0057135,0.750315,-0.108741,0.8352665,0.555635,-0.071354,0.6901665,0.754005,-0.185966,1.1701665,0.535755,-0.090127,1.2697165,0.773325,-0.255476,0.6720465,0.954825,-0.323906,1.2528065,1.019035,-0.388356,0.9131724999999999,0.000895,0.002825,1.0868275,-0.0008949999999999,-0.002825,0.8729365,-0.4292049999999999,-0.1573459999999999,1.1456265,-0.369895,-0.1888959999999999,0.8674165,-0.783205,-0.0988189999999999,1.1497265,-0.745685,-0.101028
89,1.0064095,0.748735,-0.1149885,0.8362674999999999,0.5549850000000001,-0.0768675,0.6910075,0.752725,-0.1935235,1.1705075,0.533575,-0.0952554999999999,1.2703875,0.770805,-0.2618435,0.6733175,0.953175,-0.3331334999999999,1.2534275,1.016425,-0.3962035,0.9130245,0.001145,0.0028945,1.0869755,-0.0011449999999999,-0.0028945,0.8737275000000001,-0.4282549999999999,-0.1604935,1.1463875,-0.367075,-0.1910535,0.8682775,-0.779625,-0.1024445,1.1505275,-0.742015,-0.1044205
90,1.0070665,0.74613,-0.1215209999999999,0.8371155,0.55475,-0.082407,0.6918255,0.75131,-0.200735,1.1706055,0.53121,-0.1005649999999999,1.2708955,0.76823,-0.268075,0.6744755,0.95048,-0.341945,1.2540354999999999,1.0137,-0.403725,0.9128465,0.0013699999999999,0.002918,1.0871534999999999,-0.00137,-0.0029179999999999,0.8744855,-0.42596,-0.1638649999999999,1.1470955,-0.36352,-0.193525,0.8689555,-0.77607,-0.106347,1.1512455,-0.73846,-0.1081159999999999
91,1.007723,0.74362,-0.1280485,0.8379449999999999,0.55454,-0.0875155,0.6927650000000001,0.74814,-0.2075885,1.170735,0.52859,-0.1059855,1.271205,0.76534,-0.2741885,0.6756250000000001,0.94765,-0.3498684999999999,1.2546549999999999,1.01109,-0.4107484999999999,0.912664,0.0016299999999999,0.0029455,1.087336,-0.00163,-0.0029455,0.875255,-0.4233599999999999,-0.1672285,1.147815,-0.35996,-0.1959584999999999,0.869545,-0.77251,-0.1102855,1.151965,-0.7349,-0.1116875
92,1.007852,0.7418,-0.1340589999999999,0.838348,0.55253,-0.0925729999999999,0.693378,0.74531,-0.213815,1.170428,0.52678,-0.111319,1.270808,0.7632800000000001,-0.2800249999999999,0.676058,0.94614,-0.357595,1.254578,1.00932,-0.417055,0.91271,0.0017199999999999,0.003001,1.08729,-0.0017199999999999,-0.003001,0.875698,-0.4187299999999999,-0.170715,1.148308,-0.35538,-0.199455,0.870008,-0.76791,-0.114475,1.152498,-0.7303999999999999,-0.115186
93,1.007828,0.740805,-0.1396855,0.8385870000000001,0.550765,-0.0974755,0.693867,0.743255,-0.2192555,1.170007,0.525605,-0.1166845,1.270427,0.762005,-0.2856355,0.676147,0.945145,-0.3649855,1.254197,1.008945,-0.4228255,0.912813,0.001805,0.0030434999999999,1.087187,-0.001805,-0.0030435,0.875897,-0.4136649999999999,-0.1741555,1.148637,-0.3503349999999999,-0.2028955,0.870477,-0.763805,-0.1180615,1.152847,-0.725455,-0.1186275
94,1.007488,0.74037,-0.1495905,0.838615,0.5502100000000001,-0.1067775,0.6941550000000001,0.7415700000000001,-0.2289185,1.169265,0.5251300000000001,-0.1265455,1.269935,0.76185,-0.2957685,0.6760550000000001,0.9452,-0.3761285,1.253525,1.00901,-0.4329285,0.913011,0.00183,0.0031024999999999,1.086989,-0.0018299999999999,-0.0031024999999999,0.875895,-0.4078499999999999,-0.1821285,1.148745,-0.34456,-0.2108785,0.870565,-0.7589,-0.1268065,1.153095,-0.71966,-0.1266195
95,1.0067395,0.742565,-0.1600355,0.8380555000000001,0.5501050000000001,-0.1167145,0.6944155000000001,0.742725,-0.2390695,1.1683255,0.526615,-0.1371365,1.2693855,0.763255,-0.3068794999999999,0.6759755000000001,0.947305,-0.3876395,1.2524155000000001,1.010945,-0.4435194999999999,0.9131495000000001,0.001815,0.0033134999999999,1.0868505,-0.001815,-0.0033134999999999,0.8741055,-0.390965,-0.1975895,1.1501855,-0.334115,-0.2241995,0.8705855,-0.749855,-0.1389314999999999,1.1532955,-0.710815,-0.1355895
96,1.00582,0.744755,-0.1698589999999999,0.837498,0.550155,-0.1261,0.694678,0.743085,-0.248574,1.167468,0.528455,-0.14706,1.268988,0.764035,-0.317724,0.675968,0.948455,-0.397984,1.251388,1.011755,-0.453354,0.913304,0.0017749999999999,0.0035859999999999,1.0866959999999999,-0.0017749999999999,-0.003586,0.872368,-0.374525,-0.212714,1.151718,-0.324105,-0.237274,0.870668,-0.742395,-0.150803,1.153538,-0.7024050000000001,-0.144202
97,1.004627,0.746275,-0.179544,0.836835,0.550785,-0.135067,0.694825,0.743555,-0.257875,1.166625,0.5303249999999999,-0.156623,1.268705,0.764435,-0.328695,0.6758850000000001,0.949795,-0.408285,1.250635,1.011085,-0.462905,0.913456,0.0018349999999999,0.0037649999999999,1.086544,-0.001835,-0.003765,0.870645,-0.357925,-0.227725,1.153305,-0.314265,-0.250545,0.870505,-0.735275,-0.163166,1.1537549999999999,-0.694205,-0.152604
98,1.0034175,0.748105,-0.1891749999999999,0.8361245000000002,0.5507850000000001,-0.144342,0.6949745,0.7443550000000001,-0.26737,1.1655845,0.530975,-0.166499,1.2683244999999999,0.7649650000000001,-0.34013,0.6757745,0.950965,-0.41833,1.2503745,1.010205,-0.47282,0.9137105000000001,0.001895,0.00404,1.0862895,-0.0018949999999999,-0.00404,0.8690345000000002,-0.341145,-0.24274,1.1549945,-0.3040449999999999,-0.26405,0.8703845,-0.7279450000000001,-0.175786,1.1539044999999999,-0.685945,-0.161486
99,1.00225,0.75016,-0.198631,0.8352730000000002,0.55037,-0.153563,0.6951230000000002,0.74509,-0.277355,1.1647129999999999,0.53182,-0.176071,1.267943,0.76519,-0.351705,0.675433,0.95344,-0.429095,1.2503929999999999,1.00896,-0.483285,0.913936,0.00195,0.004315,1.086064,-0.0019499999999999,-0.0043149999999999,0.867503,-0.32474,-0.257765,1.156723,-0.29403,-0.277565,0.870583,-0.72082,-0.187549,1.154033,-0.6778,-0.17034
100,1.0011335,0.751765,-0.208055,0.8344935,0.549175,-0.1628859999999999,0.6953335,0.7472449999999999,-0.28783,1.1639035,0.5330550000000001,-0.1855329999999999,1.2676235,0.765015,-0.3631999999999999,0.6750535,0.956065,-0.44076,1.2504435,1.007225,-0.49448,0.9140935,0.001925,0.00461,1.0859065,-0.001925,-0.0046099999999999,0.8660435,-0.308405,-0.27296,1.1585935,-0.2838949999999999,-0.2914299999999999,0.8706335000000001,-0.713875,-0.200061,1.1542035,-0.6697649999999999,-0.1792069999999999
101,1.000092,0.75299,-0.217488,0.8337950000000001,0.5497799999999999,-0.171584,0.695655,0.74919,-0.298565,1.163175,0.53437,-0.194691,1.267735,0.7641500000000001,-0.374305,0.6747350000000001,0.95827,-0.452655,1.250515,1.00479,-0.506235,0.914247,0.00191,0.0050049999999999,1.085753,-0.0019099999999999,-0.005005,0.864645,-0.2929,-0.287885,1.160555,-0.2739799999999999,-0.305225,0.870645,-0.70791,-0.212757,1.1544249999999998,-0.6622300000000001,-0.187837
102,0.9991250000000002,0.7537200000000001,-0.227253,0.833175,0.5488,-0.180422,0.695945,0.7510600000000001,-0.30973,1.162485,0.5341199999999999,-0.203837,1.2678449999999999,0.76321,-0.38554,0.6747450000000002,0.96023,-0.46523,1.250565,1.0018,-0.51877,0.914492,0.0019699999999999,0.0052899999999999,1.085508,-0.0019699999999999,-0.00529,0.863295,-0.27829,-0.30259,1.162515,-0.26395,-0.319,0.870695,-0.70142,-0.225261,1.154635,-0.65435,-0.196468
103,0.9985985000000001,0.7538050000000001,-0.232585,0.8329005,0.546955,-0.184604,0.6965304999999999,0.752335,-0.316835,1.1619905,0.532745,-0.208251,1.2682905,0.7613049999999999,-0.391995,0.6750005,0.961275,-0.473835,1.2511105,0.998335,-0.5269349999999999,0.9147745,0.002195,0.0054249999999999,1.0852255,-0.002195,-0.005425,0.8621505,-0.264625,-0.312385,1.1647405,-0.254525,-0.327615,0.8709505,-0.6957150000000001,-0.233256,1.1551005,-0.647275,-0.2004179999999999
104,0.9987610000000001,0.75134,-0.23724,0.833473,0.54469,-0.188004,0.697523,0.75003,-0.323295,1.161903,0.52935,-0.2118519999999999,1.2690730000000001,0.75694,-0.3978549999999999,0.675443,0.96003,-0.4819549999999999,1.252183,0.99291,-0.534485,0.91499,0.0025,0.005335,1.08501,-0.0025,-0.005335,0.862793,-0.26046,-0.315475,1.165793,-0.25036,-0.330735,0.871803,-0.69155,-0.236363,1.155803,-0.64339,-0.203516
105,0.9990125000000001,0.74846,-0.242339,0.8338765,0.54196,-0.191692,0.6984465,0.7481800000000001,-0.32977,1.1616465,0.52596,-0.2157,1.2698065,0.75349,-0.40367,0.6756565000000001,0.95917,-0.49114,1.2531465,0.98846,-0.54253,0.9152645000000001,0.0027099999999999,0.00531,1.0847354999999999,-0.0027099999999999,-0.00531,0.8632565,-0.25605,-0.31881,1.1666765,-0.24595,-0.33409,0.8725265,-0.6871400000000001,-0.239707,1.1563365,-0.6393,-0.206741
106,0.99939,0.745855,-0.247962,0.8343300000000001,0.538965,-0.195749,0.69983,0.745375,-0.336465,1.16139,0.522355,-0.219868,1.27048,0.7505550000000001,-0.409285,0.67607,0.958505,-0.501005,1.2543199999999999,0.984915,-0.550895,0.915581,0.002845,0.0052149999999999,1.084419,-0.0028449999999999,-0.0052149999999999,0.8636100000000001,-0.251545,-0.322505,1.16745,-0.241445,-0.337815,0.87317,-0.682635,-0.243422,1.15678,-0.634875,-0.210402
107,1.000024,0.74274,-0.253495,0.835071,0.53638,-0.199462,0.701701,0.7419100000000001,-0.34294,1.1618609999999998,0.52014,-0.223621,1.271521,0.74693,-0.41425,0.677271,0.9571,-0.51073,1.256341,0.97961,-0.5594,0.915532,0.0029599999999999,0.0051799999999999,1.084468,-0.00296,-0.00518,0.8644510000000001,-0.24922,-0.3247,1.168511,-0.23823,-0.34035,0.8745010000000001,-0.67776,-0.2416309999999999,1.157381,-0.631,-0.213428
108,1.00064,0.7397549999999999,-0.259111,0.835808,0.5338749999999999,-0.203202,0.703648,0.737895,-0.3491149999999999,1.162208,0.517965,-0.227401,1.272698,0.741455,-0.419405,0.678798,0.955295,-0.519825,1.258278,0.974165,-0.567495,0.915492,0.0030949999999999,0.005205,1.084508,-0.003095,-0.0052049999999999,0.8652880000000001,-0.247045,-0.326585,1.169588,-0.235175,-0.342765,0.875778,-0.672015,-0.240336,1.1579679999999999,-0.6273350000000001,-0.2162369999999999
109,1.0015824999999998,0.7362150000000001,-0.265218,0.8365184999999999,0.532095,-0.207043,0.7058185,0.7339150000000001,-0.355465,1.1625585,0.515745,-0.231207,1.2738885,0.736675,-0.424585,0.6806885,0.948005,-0.528455,1.2602885,0.967735,-0.575575,0.9154285,0.003295,0.005135,1.0845715,-0.0032949999999999,-0.005135,0.8660585000000001,-0.244965,-0.328775,1.1706685000000001,-0.2320449999999999,-0.344865,0.8770285,-0.665755,-0.239012,1.1585685,-0.623715,-0.218962
110,1.002663,0.73281,-0.271474,0.8375980000000001,0.52815,-0.211538,0.708088,0.73016,-0.3621149999999999,1.162888,0.51242,-0.235345,1.274998,0.73121,-0.430135,0.6825680000000001,0.94054,-0.5371049999999999,1.261978,0.96205,-0.583505,0.915318,0.0035,0.004975,1.084682,-0.0035,-0.004975,0.8666780000000001,-0.2422599999999999,-0.3319149999999999,1.171688,-0.2283,-0.347295,0.878318,-0.65924,-0.237313,1.159128,-0.6195900000000001,-0.222087
111,1.003695,0.729075,-0.277471,0.8387910000000001,0.525515,-0.216018,0.710501,0.725765,-0.368805,1.1630909999999999,0.510255,-0.239477,1.276021,0.725515,-0.435425,0.684421,0.933045,-0.545605,1.263471,0.955405,-0.591465,0.915191,0.003605,0.0048549999999999,1.084809,-0.0036049999999999,-0.0048549999999999,0.867051,-0.2396749999999999,-0.334885,1.1725809999999999,-0.2246049999999999,-0.349705,0.879431,-0.652345,-0.235725,1.159561,-0.615675,-0.22501
112,1.0053315,0.72434,-0.285157,0.8406845000000001,0.52242,-0.222375,0.7134345,0.7194400000000001,-0.377415,1.1635545,0.50842,-0.245071,1.2770445000000001,0.71719,-0.443035,0.6866945000000001,0.92258,-0.555295,1.2652245,0.94651,-0.601665,0.9149545,0.00369,0.0046549999999999,1.0850455,-0.0036899999999999,-0.004655,0.8670645000000001,-0.23507,-0.338945,1.1739145,-0.2186099999999999,-0.353375,0.8806445,-0.64304,-0.234927,1.1600545,-0.60937,-0.229286
113,1.0064594999999998,0.719475,-0.29291,0.8420025,0.518845,-0.228924,0.7152425,0.7138249999999999,-0.38591,1.1633224999999998,0.505715,-0.25081,1.2775425,0.710785,-0.45003,0.6881825000000001,0.910595,-0.5644100000000001,1.2660624999999999,0.938685,-0.61189,0.9148225000000001,0.0037449999999999,0.0043799999999999,1.0851775,-0.0037449999999999,-0.0043799999999999,0.8662025,-0.2295249999999999,-0.34347,1.1745125,-0.211945,-0.3573699999999999,0.8810325,-0.632745,-0.2343609999999999,1.1599125,-0.6023850000000001,-0.233567
114,1.007644,0.714545,-0.30031,0.843404,0.5157349999999999,-0.23509,0.717034,0.708015,-0.39426,1.163194,0.503225,-0.256151,1.2782239999999998,0.7043649999999999,-0.45677,0.689484,0.898505,-0.5725,1.267094,0.929375,-0.62217,0.914614,0.0039149999999999,0.0040999999999999,1.085386,-0.003915,-0.0040999999999999,0.865394,-0.223835,-0.34757,1.175294,-0.205425,-0.36116,0.881494,-0.622355,-0.233333,1.159854,-0.5951850000000001,-0.237665
115,1.008711,0.71011,-0.30733,0.8446930000000001,0.51332,-0.241001,0.718253,0.7026,-0.40229,1.163043,0.49969,-0.261254,1.278713,0.6976,-0.46359,0.690423,0.88629,-0.5802,1.268063,0.91904,-0.6323300000000001,0.914533,0.00417,0.004,1.085467,-0.0041699999999999,-0.004,0.864463,-0.21755,-0.35158,1.176013,-0.1986299999999999,-0.36517,0.882193,-0.61142,-0.231382,1.159673,-0.58783,-0.241336
116,1.009523,0.70672,-0.31413,0.845791,0.50949,-0.246947,0.719051,0.6980299999999999,-0.41035,1.162781,0.4963999999999999,-0.266338,1.278751,0.68982,-0.47075,0.690871,0.87475,-0.58796,1.268751,0.91083,-0.64184,0.914341,0.0040699999999999,0.00378,1.085659,-0.00407,-0.00378,0.863121,-0.21044,-0.35551,1.176491,-0.19101,-0.36921,0.882061,-0.60336,-0.235385,1.159291,-0.57959,-0.244958
117,1.0102875,0.703165,-0.32063,0.8467804999999999,0.504905,-0.252913,0.7195705,0.6931050000000001,-0.41835,1.1625605,0.492925,-0.271348,1.2782505,0.684675,-0.47727,0.6908905000000001,0.862905,-0.59622,1.2693705,0.902325,-0.65137,0.9141505,0.003945,0.0034499999999999,1.0858495,-0.0039449999999999,-0.00345,0.8617405000000001,-0.2030949999999999,-0.35954,1.1768705,-0.1832549999999999,-0.37313,0.8818505,-0.595115,-0.238855,1.1588705,-0.5711849999999999,-0.248619
118,1.010724,0.70074,-0.326785,0.847646,0.5006,-0.258735,0.7198260000000001,0.68876,-0.425745,1.162336,0.49026,-0.276281,1.278006,0.6798,-0.483715,0.690266,0.85678,-0.604555,1.269876,0.89474,-0.6603950000000001,0.9139460000000001,0.00364,0.0033449999999999,1.0860539999999999,-0.0036399999999999,-0.003345,0.860176,-0.19504,-0.363715,1.177236,-0.1748999999999999,-0.376915,0.881416,-0.58624,-0.2427,1.158466,-0.56211,-0.252217
119,1.011005,0.6982550000000001,-0.3324499999999999,0.8481380000000001,0.498115,-0.263722,0.719858,0.6837249999999999,-0.43239,1.162188,0.4874549999999999,-0.280599,1.277708,0.675875,-0.48956,0.6894979999999999,0.8499650000000001,-0.61271,1.270228,0.887135,-0.66907,0.9136680000000001,0.0034649999999999,0.00327,1.0863319999999999,-0.0034649999999999,-0.0032699999999999,0.858568,-0.187395,-0.36755,1.1776579999999999,-0.167125,-0.38002,0.880688,-0.5777650000000001,-0.24623,1.158098,-0.553285,-0.255227
120,1.0113539999999999,0.6954549999999999,-0.33782,0.848738,0.4953349999999999,-0.268352,0.719838,0.677265,-0.4381,1.161998,0.4850449999999999,-0.284481,1.277498,0.671345,-0.49527,0.6889179999999999,0.841675,-0.6204500000000001,1.2705479999999998,0.8796249999999999,-0.67683,0.9133080000000001,0.003305,0.00323,1.086692,-0.003305,-0.00323,0.856988,-0.180145,-0.37156,1.178278,-0.159925,-0.38305,0.880158,-0.5701050000000001,-0.249559,1.157898,-0.5454749999999999,-0.258298
121,1.010899,0.6936249999999999,-0.34123,0.848624,0.4930449999999999,-0.270995,0.719354,0.672425,-0.44152,1.161714,0.482705,-0.28675,1.277234,0.667815,-0.49881,0.688284,0.8354550000000001,-0.62646,1.270354,0.874045,-0.68219,0.912964,0.0031249999999999,0.00328,1.087036,-0.0031249999999999,-0.00328,0.855514,-0.175145,-0.3739099999999999,1.178484,-0.155275,-0.38498,0.879364,-0.564725,-0.251834,1.157604,-0.539735,-0.260017
122,1.0102719999999998,0.691545,-0.34416,0.84814,0.4909749999999999,-0.273224,0.71872,0.6673749999999999,-0.44449,1.16111,0.481075,-0.288721,1.27645,0.6627749999999999,-0.50204,0.6873199999999999,0.829885,-0.63243,1.26986,0.867105,-0.68712,0.91268,0.0029349999999999,0.0034299999999999,1.08732,-0.002935,-0.00343,0.8537399999999999,-0.171265,-0.37542,1.1784599999999998,-0.151675,-0.38664,0.8783,-0.560315,-0.253884,1.15708,-0.535485,-0.261502
123,1.0096905,0.6905950000000001,-0.347,0.8476895,0.489005,-0.275655,0.7181295000000001,0.662855,-0.44745,1.1606595,0.479615,-0.290782,1.2757695,0.658215,-0.50516,0.6861695000000001,0.8245750000000001,-0.63859,1.2691895,0.862025,-0.69166,0.9124995,0.0027449999999999,0.00361,1.0875005,-0.0027449999999999,-0.00361,0.8518495,-0.1666649999999999,-0.37701,1.1785295,-0.147525,-0.38832,0.8772295,-0.555385,-0.255703,1.1565794999999999,-0.530565,-0.263057
124,1.0091405,0.68872,-0.349705,0.8472665,0.4863,-0.277814,0.7173165,0.6586700000000001,-0.450225,1.1601865,0.47949,-0.292551,1.2752665,0.6534,-0.507725,0.6845165,0.81898,-0.6444449999999999,1.2685365,0.85785,-0.695995,0.9125465000000001,0.00246,0.0036549999999999,1.0874534999999999,-0.00246,-0.0036549999999999,0.8495465,-0.1629899999999999,-0.378335,1.1785765,-0.1438199999999999,-0.389785,0.8761464999999999,-0.55126,-0.257355,1.1562165,-0.52705,-0.264293
125,1.008708,0.68617,-0.352265,0.847172,0.4849699999999999,-0.279783,0.716682,0.65371,-0.452635,1.160082,0.47938,-0.29414,1.275172,0.65023,-0.509705,0.6830620000000001,0.81281,-0.650225,1.268262,0.85286,-0.7005750000000001,0.912552,0.0024599999999999,0.003725,1.087448,-0.00246,-0.003725,0.8467920000000001,-0.16009,-0.379535,1.179102,-0.14076,-0.391135,0.8754520000000001,-0.54803,-0.258837,1.156252,-0.52449,-0.265389
126,1.0082319999999998,0.684435,-0.35472,0.847118,0.484495,-0.281682,0.716118,0.649375,-0.45488,1.159988,0.479726,-0.295727,1.275048,0.646425,-0.51172,0.681478,0.806875,-0.65547,1.267988,0.848365,-0.70508,0.9125580000000001,0.0023949999999999,0.00384,1.0874419999999998,-0.0023949999999999,-0.00384,0.8429180000000001,-0.157205,-0.38015,1.179928,-0.1378749999999999,-0.39242,0.8747680000000001,-0.544975,-0.260216,1.156348,-0.522055,-0.266449
127,1.0075215,0.682685,-0.3566499999999999,0.8470575,0.483775,-0.283317,0.7154375,0.644685,-0.4569999999999999,1.1599075,0.479262,-0.2970509999999999,1.2749475,0.6421650000000001,-0.51343,0.6799175,0.8006150000000001,-0.66003,1.2673975,0.844185,-0.7091099999999999,0.9125575,0.0025749999999999,0.00384,1.0874425,-0.0025749999999999,-0.0038399999999999,0.8380675,-0.155245,-0.3801,1.1812975,-0.1359149999999999,-0.39297,0.8739175,-0.5429550000000001,-0.261136,1.1565275,-0.5204850000000001,-0.267104
128,1.007132,0.68086,-0.358655,0.847443,0.48345,-0.285053,0.7152229999999999,0.64032,-0.459195,1.160203,0.47978,-0.298481,1.275013,0.63815,-0.515355,0.678713,0.79471,-0.664105,1.267213,0.8399300000000001,-0.712825,0.9127730000000001,0.00268,0.003775,1.087227,-0.00268,-0.003775,0.8329730000000001,-0.15362,-0.379685,1.183563,-0.1342199999999999,-0.393005,0.873613,-0.5411600000000001,-0.2618209999999999,1.157113,-0.51925,-0.26813
129,1.006488,0.67944,-0.36073,0.847696,0.483538,-0.286763,0.714936,0.63748,-0.46159,1.160286,0.480422,-0.299913,1.275036,0.63466,-0.51722,0.677576,0.7898700000000001,-0.6677500000000001,1.266906,0.83664,-0.7164200000000001,0.913016,0.0028,0.0037399999999999,1.086984,-0.0027999999999999,-0.00374,0.8267059999999999,-0.1512299999999999,-0.37922,1.186486,-0.13249,-0.39288,0.8732260000000001,-0.53927,-0.262531,1.157646,-0.51794,-0.269175
130,1.0061125,0.678255,-0.362625,0.8482505000000001,0.483628,-0.288433,0.7150305,0.634905,-0.4639149999999999,1.1606305,0.481012,-0.3013409999999999,1.2754005,0.633115,-0.518895,0.6770205,0.785855,-0.6711050000000001,1.2667405,0.8339449999999999,-0.7196750000000001,0.9133205000000001,0.002865,0.003705,1.0866794999999998,-0.002865,-0.0037049999999999,0.8208905,-0.1492849999999999,-0.378545,1.1898705,-0.130675,-0.392495,0.8734805,-0.5376749999999999,-0.2638709999999999,1.1586105,-0.516815,-0.270288
131,1.0056915,0.67746,-0.364325,0.8488855000000001,0.4840529999999999,-0.289927,0.7151555,0.63278,-0.466225,1.1608755,0.4819989999999999,-0.302707,1.2757555,0.63217,-0.520455,0.6766155,0.78253,-0.674105,1.2665355,0.83187,-0.722745,0.9136155,0.0029299999999999,0.003685,1.0863845,-0.0029299999999999,-0.0036849999999999,0.8154255000000001,-0.14725,-0.377805,1.1932755,-0.12866,-0.3920749999999999,0.8739855000000001,-0.5359200000000001,-0.264302,1.1597555,-0.5158,-0.271441
132,1.005275,0.67638,-0.365915,0.849564,0.484218,-0.291322,0.7153940000000001,0.63049,-0.468475,1.161354,0.482206,-0.304064,1.276184,0.6308900000000001,-0.522055,0.6764140000000001,0.7793000000000001,-0.676835,1.266454,0.82976,-0.725585,0.913924,0.00292,0.0036049999999999,1.086076,-0.0029199999999999,-0.0036049999999999,0.810384,-0.14603,-0.3769949999999999,1.1964739999999998,-0.12746,-0.391425,0.874584,-0.5354099999999999,-0.265196,1.160924,-0.5156499999999999,-0.272494
133,1.0048115,0.675825,-0.36738,0.8500115,0.484309,-0.292876,0.7154214999999999,0.6283650000000001,-0.47075,1.1616115,0.482245,-0.305544,1.2761315,0.6299750000000001,-0.52353,0.6760315,0.776195,-0.6793,1.2661814999999998,0.828195,-0.72817,0.9141215,0.002895,0.00356,1.0858785,-0.0028949999999999,-0.00356,0.8057715,-0.144945,-0.37629,1.1993814999999999,-0.126255,-0.3908399999999999,0.8749315,-0.535015,-0.265746,1.1615915,-0.5156149999999999,-0.273759
134,1.0036079999999998,0.6750750000000001,-0.368805,0.8501520000000001,0.484598,-0.294423,0.7152320000000001,0.626715,-0.472945,1.1615820000000001,0.482034,-0.306914,1.275772,0.629325,-0.525075,0.6754720000000001,0.773745,-0.681295,1.265702,0.8273250000000001,-0.730325,0.914382,0.002925,0.0035649999999999,1.085618,-0.0029249999999999,-0.003565,0.802212,-0.1436649999999999,-0.375675,1.2017419999999999,-0.1248249999999999,-0.390275,0.874932,-0.534365,-0.266421,1.161902,-0.5152749999999999,-0.275046
135,1.0021685,0.6745450000000001,-0.3702,0.8500635000000001,0.484547,-0.295946,0.7148635,0.625405,-0.47526,1.1614034999999998,0.482034,-0.308295,1.2752535,0.629325,-0.52661,0.6748535,0.771385,-0.68326,1.2651335000000001,0.8264450000000001,-0.73224,0.9146235,0.002925,0.0035899999999999,1.0853765,-0.0029249999999999,-0.00359,0.7996635000000001,-0.142455,-0.3754699999999999,1.2035135000000001,-0.123475,-0.38984,0.8747535000000001,-0.533905,-0.266911,1.1620635,-0.5151549999999999,-0.276356
136,1.000664,0.673535,-0.37137,0.8497650000000001,0.484377,-0.297453,0.7143550000000001,0.6239650000000001,-0.47757,1.161065,0.482034,-0.309622,1.2745549999999999,0.629325,-0.5280199999999999,0.674015,0.7689950000000001,-0.68519,1.264515,0.825635,-0.73419,0.9146950000000001,0.002925,0.00358,1.085305,-0.0029249999999999,-0.00358,0.7981450000000001,-0.1412749999999999,-0.37543,1.204475,-0.1220249999999999,-0.3896,0.8744950000000001,-0.533445,-0.267312,1.161795,-0.5151549999999999,-0.277655
137,0.999302,0.672515,-0.37313,0.84897,0.484182,-0.299808,0.71387,0.622845,-0.48059,1.16014,0.481053,-0.311555,1.27359,0.629215,-0.53005,0.67337,0.767045,-0.68776,1.26414,0.824845,-0.73682,0.9147,0.0027949999999999,0.0036899999999999,1.0853,-0.0027949999999999,-0.0036899999999999,0.79757,-0.1398049999999999,-0.37583,1.20504,-0.120325,-0.39014,0.87443,-0.532875,-0.268424,1.1619499999999998,-0.514675,-0.279566
138,0.997969,0.6712899999999999,-0.375075,0.848276,0.482478,-0.302335,0.7132960000000002,0.62156,-0.484035,1.159216,0.479421,-0.3136069999999999,1.2724959999999998,0.62881,-0.532565,0.672636,0.76486,-0.690235,1.2639559999999999,0.82379,-0.739845,0.914706,0.0027099999999999,0.0037649999999999,1.085294,-0.0027099999999999,-0.0037649999999999,0.797496,-0.1378499999999999,-0.376085,1.205046,-0.11754,-0.390845,0.874336,-0.5312300000000001,-0.269804,1.162006,-0.5125200000000001,-0.2813839999999999
139,0.9962735,0.669815,-0.377175,0.8472815000000001,0.480394,-0.305215,0.7123015000000001,0.619945,-0.4880649999999999,1.1579415,0.477196,-0.315818,1.2710415,0.628105,-0.535255,0.6715315,0.761995,-0.693085,1.2634515,0.8223050000000001,-0.743085,0.9147615,0.0026849999999999,0.003825,1.0852385,-0.0026849999999999,-0.0038249999999999,0.7969515,-0.1358549999999999,-0.376695,1.2049315,-0.1154349999999999,-0.391955,0.8739315,-0.529765,-0.271316,1.1617315,-0.510505,-0.2833489999999999
140,0.9942520000000001,0.66836,-0.37954,0.845967,0.4783729999999999,-0.308397,0.710917,0.61851,-0.49231,1.156317,0.474919,-0.3181319999999999,1.269217,0.6274,-0.53808,0.6700269999999999,0.7587299999999999,-0.69614,1.262597,0.82054,-0.74656,0.914817,0.0025899999999999,0.0038999999999999,1.085183,-0.00259,-0.0038999999999999,0.796017,-0.1336899999999999,-0.37746,1.204547,-0.1133199999999999,-0.39325,0.873177,-0.5282100000000001,-0.273041,1.161127,-0.5084500000000001,-0.285456
141,0.9921495000000001,0.66694,-0.38192,0.8446485000000001,0.476485,-0.311508,0.7093885000000001,0.61661,-0.4964499999999999,1.1545385,0.472558,-0.320376,1.2677085,0.62676,-0.5410299999999999,0.6681885000000001,0.75526,-0.69958,1.2618385,0.81738,-0.75034,0.9148935,0.0023499999999999,0.00395,1.0851065,-0.00235,-0.0039499999999999,0.7955285000000001,-0.1314199999999999,-0.37822,1.2039785,-0.1111099999999999,-0.39461,0.8724085000000001,-0.5266,-0.274777,1.1602785,-0.50656,-0.2873549999999999
142,0.9892225000000001,0.665785,-0.38427,0.8424365,0.474728,-0.3145369999999999,0.7068465000000002,0.6145349999999999,-0.50083,1.1518964999999999,0.4703759999999999,-0.3225289999999999,1.2654665,0.626395,-0.54404,0.6654365000000001,0.751555,-0.7033,1.2603465,0.813985,-0.7542199999999999,0.9151295,0.0020349999999999,0.004,1.0848705,-0.002035,-0.0039999999999999,0.7941564999999999,-0.128875,-0.37878,1.2022864999999998,-0.108895,-0.39592,0.8706865000000001,-0.524645,-0.276119,1.1586265,-0.504285,-0.289207
143,0.9865960000000001,0.664755,-0.386505,0.840375,0.473159,-0.3175149999999999,0.704125,0.612205,-0.505235,1.149065,0.467833,-0.32463,1.263095,0.6260749999999999,-0.547325,0.6624950000000001,0.747525,-0.707295,1.2588949999999999,0.810585,-0.758215,0.915311,0.001805,0.003995,1.084689,-0.001805,-0.0039949999999999,0.7925050000000001,-0.126085,-0.3793249999999999,1.200375,-0.106445,-0.3972049999999999,0.868785,-0.522445,-0.2774159999999999,1.156805,-0.5017149999999999,-0.2910079999999999
144,0.9837705000000001,0.66438,-0.388745,0.8380315,0.471433,-0.320594,0.7009515,0.61,-0.5099750000000001,1.1458915,0.464914,-0.326795,1.2603615000000001,0.62366,-0.550645,0.6592215,0.74315,-0.711255,1.2573115000000001,0.80706,-0.7624650000000001,0.9155015,0.00145,0.0039649999999999,1.0844985,-0.00145,-0.0039649999999999,0.7904515,-0.12311,-0.379885,1.1981614999999999,-0.10364,-0.398525,0.8665115,-0.52043,-0.279616,1.1546115000000001,-0.49884,-0.292669
145,0.9811895,0.66406,-0.3906999999999999,0.8358035,0.469634,-0.323574,0.6979635,0.60778,-0.5145,1.1428334999999998,0.462086,-0.3288859999999999,1.2579335,0.62088,-0.55386,0.6560835,0.7389699999999999,-0.7151399999999999,1.2558835,0.8033399999999999,-0.76655,0.9157615,0.0011499999999999,0.00393,1.0842385,-0.00115,-0.0039299999999999,0.7886235,-0.12014,-0.3803299999999999,1.1962035,-0.10105,-0.3995999999999999,0.8641035,-0.51841,-0.282049,1.1525135,-0.49593,-0.294307
146,0.9788045,0.663725,-0.39216,0.8337485,0.468041,-0.325704,0.6952485000000002,0.605575,-0.51816,1.1406585,0.460208,-0.330366,1.2558485,0.618315,-0.55644,0.6530085,0.734855,-0.7185600000000001,1.2547085,0.799515,-0.77027,0.9159625,0.000925,0.00379,1.0840375,-0.000925,-0.00379,0.7871385,-0.117295,-0.38054,1.1945185,-0.098685,-0.40026,0.8618285,-0.516345,-0.283669,1.1505785,-0.492865,-0.295411
147,0.9765020000000001,0.66364,-0.393605,0.83169,0.468189,-0.3275849999999999,0.69262,0.60319,-0.521215,1.13853,0.458953,-0.3316789999999999,1.25376,0.61635,-0.5587949999999999,0.64991,0.7305900000000001,-0.721735,1.2536100000000001,0.7955099999999999,-0.773705,0.916219,0.0007099999999999,0.003705,1.083781,-0.0007099999999999,-0.0037049999999999,0.7855300000000001,-0.11593,-0.3808249999999999,1.19284,-0.09736,-0.400995,0.85965,-0.5151300000000001,-0.284929,1.14861,-0.4913399999999999,-0.296458
148,0.974474,0.6635500000000001,-0.394875,0.829919,0.468564,-0.328911,0.6903090000000001,0.6006400000000001,-0.523385,1.1366290000000001,0.45805,-0.3326369999999999,1.2518289999999999,0.61509,-0.560825,0.6470290000000001,0.72655,-0.724405,1.252649,0.79171,-0.776715,0.91645,0.00063,0.0036149999999999,1.08355,-0.0006299999999999,-0.0036149999999999,0.784049,-0.1147899999999999,-0.380795,1.191329,-0.0962499999999999,-0.401505,0.857769,-0.51405,-0.285587,1.146919,-0.4897199999999999,-0.297218
149,0.9726090000000001,0.66291,-0.39593,0.828743,0.468464,-0.329891,0.688123,0.59735,-0.5253,1.134813,0.457414,-0.333485,1.250183,0.61354,-0.56262,0.644223,0.72268,-0.72673,1.2516829999999999,0.78774,-0.77912,0.9166300000000001,0.00045,0.0035399999999999,1.08337,-0.00045,-0.0035399999999999,0.782353,-0.11429,-0.38059,1.190043,-0.0957799999999999,-0.4018899999999999,0.856023,-0.51358,-0.286054,1.145343,-0.48865,-0.297758
150,0.97081,0.66288,-0.3969399999999999,0.8274750000000001,0.468893,-0.3308379999999999,0.685905,0.59533,-0.52722,1.133045,0.456572,-0.3342969999999999,1.248775,0.61205,-0.56451,0.641545,0.7196,-0.72861,1.250515,0.78583,-0.78089,0.916763,0.00041,0.00348,1.083237,-0.0004099999999999,-0.0034799999999999,0.7807650000000002,-0.11334,-0.38032,1.1889750000000001,-0.0951199999999999,-0.4022899999999999,0.854295,-0.51297,-0.286691,1.143765,-0.48722,-0.2982749999999999
151,0.9695250000000001,0.6622950000000001,-0.397565,0.82672,0.468065,-0.331729,0.6842900000000001,0.5933350000000001,-0.528745,1.13175,0.455275,-0.335015,1.24805,0.610695,-0.566495,0.63933,0.716715,-0.730145,1.24996,0.783755,-0.7818350000000001,0.9166930000000001,0.000425,0.003415,1.0833069999999998,-0.0004249999999999,-0.003415,0.77968,-0.112785,-0.380165,1.18823,-0.0947949999999999,-0.402655,0.85292,-0.512645,-0.287586,1.14265,-0.4863149999999999,-0.298699
152,0.9682185,0.6618600000000001,-0.398395,0.8259665,0.46715,-0.332687,0.6827165,0.59177,-0.530135,1.1305465,0.454048,-0.335689,1.2476664999999998,0.60954,-0.568485,0.6370565,0.71424,-0.731085,1.2500065,0.78216,-0.7825249999999999,0.9166795000000001,0.00034,0.003365,1.0833205,-0.0003399999999999,-0.003365,0.7786065,-0.1124499999999999,-0.379965,1.1874065,-0.0945399999999999,-0.403015,0.8514965,-0.5122399999999999,-0.288716,1.1415165,-0.48541,-0.299102
153,0.9671395,0.66124,-0.399005,0.8253115,0.466385,-0.333374,0.6815815000000001,0.5902499999999999,-0.530525,1.1295215,0.45394,-0.336167,1.2472714999999999,0.6094999999999999,-0.5703050000000001,0.6349315,0.71234,-0.731875,1.2508115,0.78084,-0.7830250000000001,0.9166555,0.00028,0.0032949999999999,1.0833445,-0.00028,-0.0032949999999999,0.7778214999999999,-0.1123,-0.379675,1.1866515,-0.09448,-0.403225,0.8503115,-0.5121100000000001,-0.289589,1.1406215,-0.48445,-0.299282
154,0.9660325,0.660255,-0.39961,0.8245685,0.4655249999999999,-0.334321,0.6802085,0.589015,-0.53098,1.1285185,0.453934,-0.33698,1.2470485,0.609115,-0.5723400000000001,0.6325585,0.710935,-0.73277,1.2522985,0.7798350000000001,-0.78366,0.9166385,0.0001849999999999,0.00318,1.0833615,-0.0001849999999999,-0.00318,0.7771085,-0.112215,-0.37964,1.1857385,-0.0936449999999999,-0.40356,0.8492085,-0.5119849999999999,-0.290221,1.1395785,-0.483265,-0.299539
155,0.9653325,0.659575,-0.400175,0.8236635,0.46462,-0.335319,0.6789535,0.5878950000000001,-0.5313749999999999,1.1276635,0.453491,-0.337774,1.2470534999999998,0.608455,-0.5743050000000001,0.6300435,0.709885,-0.733595,1.2545435,0.779375,-0.7841849999999999,0.9166445,0.000115,0.003085,1.0833555,-0.0001149999999999,-0.003085,0.7765835,-0.112125,-0.379625,1.1850435,-0.092735,-0.403735,0.8481434999999999,-0.511815,-0.291021,1.1386635,-0.482105,-0.299798
156,0.964796,0.658165,-0.400615,0.822885,0.463647,-0.336299,0.6779649999999999,0.586105,-0.531415,1.127045,0.453146,-0.338483,1.247515,0.607765,-0.575725,0.627575,0.7092449999999999,-0.734315,1.257615,0.779185,-0.784215,0.916625,-7.499999999999174e-05,0.0028449999999999,1.083375,7.499999999999174e-05,-0.002845,0.776265,-0.112265,-0.379725,1.184505,-0.091855,-0.403725,0.8470750000000001,-0.511405,-0.291617,1.137855,-0.481005,-0.299955
157,0.9642955,0.656405,-0.40107,0.8219955000000001,0.462238,-0.33733,0.6770054999999999,0.583345,-0.53137,1.1264655000000001,0.452935,-0.339168,1.2482355,0.6075250000000001,-0.57704,0.6248555,0.708435,-0.73523,1.2618755,0.777495,-0.78359,0.9166375,-0.0002749999999999,0.00262,1.0833625,0.000275,-0.00262,0.7758855,-0.1124149999999999,-0.37988,1.1840155,-0.0908849999999999,-0.4037,0.8460255,-0.5112549999999999,-0.292197,1.1370355,-0.4802849999999999,-0.30014
158,0.9639805000000001,0.654265,-0.40153,0.8211855,0.460927,-0.338475,0.6760755,0.580525,-0.53121,1.1259855,0.453132,-0.34014,1.2492355,0.607335,-0.57843,0.6220654999999999,0.706935,-0.7360500000000001,1.2667455,0.7748550000000001,-0.78229,0.9166505000000001,-0.0005249999999999,0.0023599999999999,1.0833495,0.0005249999999999,-0.00236,0.7754055,-0.112745,-0.38006,1.1835355,-0.0901049999999999,-0.40369,0.8451655,-0.5111049999999999,-0.292483,1.1362355,-0.480185,-0.300259
159,0.963753,0.651715,-0.40199,0.820466,0.459582,-0.339558,0.675156,0.577705,-0.5311600000000001,1.125556,0.453092,-0.3410849999999999,1.250556,0.606885,-0.57884,0.619246,0.704545,-0.73722,1.2722959999999999,0.771485,-0.78054,0.916679,-0.0007149999999999,0.00211,1.083321,0.000715,-0.00211,0.774956,-0.1129949999999999,-0.38033,1.1831260000000001,-0.089275,-0.4036,0.8445460000000001,-0.510555,-0.292481,1.135526,-0.480025,-0.300404
160,0.963742,0.64924,-0.4025299999999999,0.819925,0.4583739999999999,-0.340582,0.674345,0.57487,-0.5311999999999999,1.125325,0.4532369999999999,-0.3420029999999999,1.252225,0.6068199999999999,-0.57922,0.616615,0.7021999999999999,-0.73883,1.278545,0.76766,-0.77839,0.916704,-0.00086,0.00187,1.083296,0.0008599999999999,-0.0018699999999999,0.7746850000000001,-0.11306,-0.38059,1.182985,-0.08842,-0.40351,0.844095,-0.5097,-0.292429,1.134965,-0.4798800000000001,-0.30049
161,0.963875,0.6464300000000001,-0.4030249999999999,0.819549,0.456757,-0.3417219999999999,0.673559,0.57192,-0.531365,1.125209,0.453497,-0.342865,1.254389,0.6069100000000001,-0.579595,0.613979,0.6995,-0.740435,1.2850489999999999,0.7633300000000001,-0.7763150000000001,0.916681,-0.00112,0.001655,1.083319,0.00112,-0.001655,0.7745490000000002,-0.1129099999999999,-0.380815,1.183069,-0.0874099999999999,-0.403425,0.843709,-0.50903,-0.292201,1.1346289999999999,-0.47955,-0.300506
162,0.964102,0.64329,-0.4035449999999999,0.8192820000000001,0.454774,-0.3429559999999999,0.6727920000000001,0.5689500000000001,-0.531615,1.125162,0.453178,-0.3441029999999999,1.256752,0.60507,-0.579995,0.611462,0.69667,-0.742345,1.291502,0.75892,-0.7745449999999999,0.916663,-0.0014299999999999,0.001435,1.083337,0.00143,-0.0014349999999999,0.774462,-0.1126599999999999,-0.3810749999999999,1.183292,-0.0862699999999999,-0.4033549999999999,0.8433520000000001,-0.50844,-0.292002,1.134472,-0.47922,-0.3005859999999999
163,0.964403,0.6405700000000001,-0.404075,0.81916,0.453289,-0.343869,0.67212,0.56585,-0.531925,1.12517,0.452026,-0.345384,1.25969,0.6012500000000001,-0.579895,0.60902,0.6938500000000001,-0.744365,1.29779,0.75455,-0.773355,0.916641,-0.0017699999999999,0.0012549999999999,1.083359,0.0017699999999999,-0.001255,0.77447,-0.1123599999999999,-0.381395,1.18357,-0.0857,-0.403205,0.84312,-0.5078400000000001,-0.292136,1.13442,-0.47833,-0.300692
164,0.964532,0.637895,-0.404545,0.819113,0.451767,-0.344768,0.671543,0.562855,-0.532145,1.125233,0.450597,-0.346736,1.262543,0.596955,-0.5793349999999999,0.606833,0.691145,-0.746235,1.303763,0.750035,-0.7723850000000001,0.916604,-0.002105,0.001085,1.083396,0.002105,-0.001085,0.774473,-0.1119449999999999,-0.381755,1.1837929999999999,-0.085025,-0.403125,0.842983,-0.507205,-0.291895,1.134303,-0.477805,-0.300834
165,0.9645950000000001,0.635985,-0.40498,0.819075,0.4503979999999999,-0.3455209999999999,0.6710050000000001,0.5609649999999999,-0.53242,1.125315,0.44902,-0.34804,1.265155,0.592665,-0.57854,0.604805,0.688415,-0.7480100000000001,1.309255,0.7456849999999999,-0.77168,0.916573,-0.002415,0.00097,1.083427,0.002415,-0.0009699999999999,0.7745250000000001,-0.111305,-0.38215,1.184075,-0.084325,-0.4030399999999999,0.842865,-0.506505,-0.291331,1.134285,-0.477115,-0.300851
166,0.964715,0.634555,-0.405295,0.819067,0.449382,-0.34611,0.670527,0.5604750000000001,-0.532385,1.1254170000000001,0.447472,-0.349305,1.268097,0.5878950000000001,-0.577345,0.6031770000000001,0.6863250000000001,-0.749315,1.313737,0.742935,-0.771325,0.916536,-0.002475,0.000825,1.083464,0.002475,-0.000825,0.774537,-0.1107949999999999,-0.382415,1.184507,-0.083455,-0.402905,0.842647,-0.505485,-0.291137,1.134387,-0.476585,-0.300717
167,0.9647745000000001,0.633375,-0.4056099999999999,0.8191165000000001,0.448471,-0.346585,0.6701165,0.559335,-0.5322899999999999,1.1254665,0.44596,-0.3502569999999999,1.2709964999999999,0.582925,-0.57582,0.6017865,0.684385,-0.7503799999999999,1.3177765,0.740875,-0.7711,0.9165055,-0.0024649999999999,0.00076,1.0834945,0.0024649999999999,-0.0007599999999999,0.7745265,-0.1102749999999999,-0.3826099999999999,1.1850665,-0.082515,-0.4028699999999999,0.8426165,-0.504945,-0.2905319999999999,1.1344665,-0.4763449999999999,-0.300687
168,0.9649035,0.6325299999999999,-0.405975,0.8193175,0.4476139999999999,-0.347068,0.6697474999999999,0.5582199999999999,-0.5329349999999999,1.1255875,0.4443709999999999,-0.351355,1.2737675,0.57856,-0.5746150000000001,0.6006175,0.68331,-0.751295,1.3212975,0.73949,-0.7710250000000001,0.9164235000000001,-0.00236,0.0007449999999999,1.0835765,0.0023599999999999,-0.0007449999999999,0.7744975000000001,-0.10984,-0.382745,1.1857875,-0.08172,-0.402895,0.8426775,-0.50441,-0.289964,1.1345675,-0.47621,-0.300678
169,0.965061,0.63202,-0.406265,0.819531,0.446926,-0.347526,0.669421,0.55732,-0.533555,1.125741,0.442781,-0.352457,1.2763010000000001,0.5742700000000001,-0.573605,0.599591,0.68231,-0.751995,1.324281,0.7383900000000001,-0.771105,0.916354,-0.0021899999999999,0.0007249999999999,1.0836459999999999,0.00219,-0.000725,0.774501,-0.1093399999999999,-0.382835,1.1865409999999998,-0.0810699999999999,-0.402915,0.842691,-0.50345,-0.289364,1.134571,-0.4761999999999999,-0.300759
170,0.9652885000000001,0.63179,-0.406505,0.8198825000000001,0.4461159999999999,-0.347954,0.6693325,0.55689,-0.534055,1.1259325,0.441275,-0.353475,1.2780425,0.57083,-0.5726249999999999,0.5988625000000001,0.68218,-0.752605,1.3265225,0.73794,-0.771135,0.9162965,-0.002,0.0006849999999999,1.0837035,0.002,-0.0006849999999999,0.7744525,-0.1086099999999999,-0.382985,1.1873524999999998,-0.08034,-0.402895,0.8429425,-0.50198,-0.28881,1.1345425,-0.47604,-0.300818
171,0.9655835,0.631875,-0.40675,0.8203235,0.4452899999999999,-0.348484,0.6692735000000001,0.556655,-0.53447,1.1262035,0.4402669999999999,-0.35417,1.2794035,0.568435,-0.57211,0.5982835,0.682265,-0.75309,1.3283735,0.737495,-0.77112,0.9162295,-0.0018449999999999,0.00064,1.0837705,0.0018449999999999,-0.0006399999999999,0.7744635,-0.107815,-0.38324,1.1882135,-0.0796049999999999,-0.40284,0.8432535,-0.5007550000000001,-0.2882989999999999,1.1345635,-0.475645,-0.3009
172,0.965977,0.63203,-0.406985,0.820889,0.444454,-0.3488909999999999,0.669269,0.55664,-0.534815,1.126489,0.439966,-0.3545319999999999,1.280039,0.56757,-0.5716049999999999,0.598009,0.68248,-0.753215,1.3297889999999999,0.7371300000000001,-0.771475,0.916183,-0.0018299999999999,0.0005749999999999,1.083817,0.0018299999999999,-0.0005749999999999,0.774479,-0.1070799999999999,-0.383565,1.189079,-0.07888,-0.402795,0.843599,-0.49981,-0.28774,1.134599,-0.47529,-0.300952
173,0.9663660000000001,0.631975,-0.40728,0.8214589999999999,0.443937,-0.349196,0.669279,0.556615,-0.53503,1.126699,0.439921,-0.354787,1.280999,0.566995,-0.5708500000000001,0.598049,0.682615,-0.7529399999999999,1.331149,0.737015,-0.7719400000000001,0.916159,-0.0017849999999999,0.00057,1.083841,0.0017849999999999,-0.00057,0.774479,-0.1062849999999999,-0.38389,1.189969,-0.0781149999999999,-0.4028,0.843819,-0.498765,-0.287725,1.134809,-0.4745049999999999,-0.301118
174,0.9668270000000001,0.63186,-0.407435,0.822067,0.443558,-0.349508,0.669447,0.55675,-0.535115,1.126927,0.440085,-0.354967,1.281787,0.56662,-0.570085,0.5981370000000001,0.683,-0.752575,1.332507,0.73698,-0.7723450000000001,0.916119,-0.0016999999999999,0.000585,1.083881,0.0016999999999999,-0.000585,0.774517,-0.10531,-0.384145,1.190807,-0.07715,-0.402855,0.843927,-0.4973499999999999,-0.287741,1.135067,-0.47355,-0.30112
175,0.9673295,0.631675,-0.40759,0.8227535,0.443341,-0.349837,0.6697535,0.557015,-0.53515,1.1272035,0.440605,-0.355111,1.2821035,0.567345,-0.56944,0.5982635000000001,0.6834549999999999,-0.7521599999999999,1.3339635,0.737325,-0.77254,0.9160195,-0.001715,0.0006099999999999,1.0839805,0.001715,-0.0006099999999999,0.7745934999999999,-0.1039649999999999,-0.38459,1.1915435,-0.075795,-0.40297,0.8441035,-0.495545,-0.287751,1.1353935,-0.4714549999999999,-0.301095
176,0.9679525,0.631405,-0.4076499999999999,0.8234765,0.4432979999999999,-0.350074,0.6701965000000001,0.557615,-0.53497,1.1275165,0.441055,-0.355229,1.2824564999999999,0.567565,-0.56875,0.5985665,0.682105,-0.75011,1.3355965,0.737635,-0.77251,0.9159215,-0.001705,0.0006599999999999,1.0840785,0.001705,-0.0006599999999999,0.7747265,-0.102565,-0.38504,1.1922465,-0.074425,-0.40307,0.8445965,-0.493695,-0.287339,1.1358065,-0.469715,-0.3011
177,0.968599,0.631115,-0.40768,0.82421,0.44334,-0.350334,0.6708000000000001,0.558205,-0.53476,1.12785,0.441531,-0.35529,1.28272,0.568315,-0.56802,0.5987800000000001,0.680875,-0.7482500000000001,1.33732,0.7380450000000001,-0.7724899999999999,0.915814,-0.001705,0.00067,1.084186,0.001705,-0.00067,0.7749700000000002,-0.100795,-0.38561,1.19288,-0.073155,-0.40315,0.84505,-0.491725,-0.286753,1.13628,-0.467405,-0.301127
178,0.969233,0.630605,-0.407605,0.825008,0.443392,-0.350596,0.671448,0.558675,-0.534425,1.128218,0.442142,-0.355291,1.2829979999999999,0.569555,-0.567245,0.599028,0.679665,-0.746055,1.339058,0.738715,-0.772305,0.915694,-0.001695,0.000705,1.084306,0.001695,-0.000705,0.775208,-0.0988249999999999,-0.386265,1.193458,-0.071475,-0.403345,0.845548,-0.489635,-0.28593,1.136668,-0.464735,-0.301083
179,0.9698655,0.62992,-0.407285,0.8258565,0.443503,-0.350915,0.6722665,0.5583899999999999,-0.5340450000000001,1.1286464999999999,0.44255,-0.355162,1.2831865,0.57016,-0.566635,0.5992865,0.67789,-0.743885,1.3408665,0.73924,-0.7719050000000001,0.9155485,-0.0016499999999999,0.0007149999999999,1.0844515,0.0016499999999999,-0.000715,0.7755265,-0.09697,-0.386945,1.1940465,-0.06971,-0.403535,0.8460265,-0.4877499999999999,-0.28545,1.1370065,-0.46276,-0.300914
180,0.970503,0.629355,-0.40682,0.8266789999999999,0.443741,-0.351096,0.673129,0.557895,-0.53362,1.129099,0.443024,-0.354987,1.283399,0.570965,-0.5661400000000001,0.599529,0.676145,-0.7417100000000001,1.342759,0.739895,-0.77136,0.9154190000000001,-0.001585,0.00073,1.084581,0.001585,-0.00073,0.7759090000000001,-0.095025,-0.38762,1.1946189999999999,-0.067845,-0.40378,0.8465590000000001,-0.485885,-0.285477,1.137429,-0.460575,-0.300857
181,0.9710605,0.62867,-0.40641,0.8274225,0.44408,-0.351198,0.6738825000000002,0.55732,-0.5332399999999999,1.1295425,0.443503,-0.354794,1.2835925000000001,0.5718799999999999,-0.56572,0.5996925,0.67425,-0.73966,1.3446525,0.74046,-0.77099,0.9152835,-0.0014399999999999,0.00078,1.0847165,0.0014399999999999,-0.00078,0.7763225,-0.09292,-0.3882799999999999,1.1950325,-0.0658699999999999,-0.4040899999999999,0.8469025,-0.48391,-0.2851479999999999,1.1379425,-0.4583399999999999,-0.300828
182,0.9716585,0.62812,-0.406065,0.8281105,0.444593,-0.351077,0.6744505000000001,0.5565100000000001,-0.532885,1.1300505,0.444138,-0.35457,1.2838505,0.57218,-0.5648850000000001,0.5999905,0.67229,-0.737285,1.3465205,0.74091,-0.7707050000000001,0.9151265,-0.0013099999999999,0.0007949999999999,1.0848735,0.00131,-0.000795,0.7768005,-0.0904599999999999,-0.388985,1.1953805,-0.0634,-0.404375,0.8471005,-0.4815699999999999,-0.285461,1.1382905,-0.45599,-0.30046
183,0.9721170000000001,0.627775,-0.405745,0.828739,0.445161,-0.350773,0.674939,0.555705,-0.532575,1.130519,0.444673,-0.354281,1.2840690000000001,0.572475,-0.5641050000000001,0.600239,0.670225,-0.7347750000000001,1.348179,0.741205,-0.770475,0.9149970000000001,-0.001255,0.0008249999999999,1.085003,0.001255,-0.000825,0.777319,-0.088285,-0.389775,1.195689,-0.0612449999999999,-0.404655,0.847209,-0.4793949999999999,-0.285862,1.1385290000000001,-0.453935,-0.300115
184,0.9724020000000001,0.627875,-0.405225,0.829159,0.445609,-0.350522,0.675219,0.555455,-0.532235,1.130889,0.444907,-0.354027,1.284219,0.5728150000000001,-0.563195,0.6003689999999999,0.668345,-0.7323550000000001,1.349659,0.741325,-0.770105,0.914857,-0.001145,0.0008349999999999,1.085143,0.001145,-0.000835,0.7777689999999999,-0.0865549999999999,-0.3904849999999999,1.195919,-0.059605,-0.405085,0.847209,-0.477695,-0.286512,1.138769,-0.452115,-0.299853
185,0.9726005,0.62878,-0.40442,0.8293765,0.445837,-0.350381,0.6753765,0.55617,-0.53196,1.1311065,0.445125,-0.353885,1.2842864999999999,0.57408,-0.5624199999999999,0.6002965,0.66961,-0.73193,1.3508165,0.7420100000000001,-0.7696099999999999,0.9147065,-0.0011399999999999,0.0008199999999999,1.0852935,0.00114,-0.0008199999999999,0.7781465,-0.0850999999999999,-0.3912299999999999,1.1958765,-0.0585999999999999,-0.40559,0.8471765,-0.47644,-0.287009,1.1387165,-0.45072,-0.299694
186,0.9727910000000001,0.629275,-0.4035749999999999,0.82952,0.445682,-0.3502929999999999,0.67555,0.5566650000000001,-0.5314349999999999,1.1313,0.445025,-0.3538229999999999,1.28445,0.5745750000000001,-0.561545,0.60025,0.6701050000000001,-0.731605,1.3514599999999999,0.742505,-0.7689549999999999,0.914573,-0.0011149999999999,0.000815,1.085427,0.001115,-0.0008149999999999,0.77864,-0.0844949999999999,-0.3919649999999999,1.19566,-0.0583849999999999,-0.4061849999999999,0.84741,-0.4759649999999999,-0.287143,1.13872,-0.4499449999999999,-0.299585
187,0.9728665000000001,0.629275,-0.4023,0.8296275000000001,0.445682,-0.3499099999999999,0.6755975000000001,0.5566650000000001,-0.53082,1.1313975,0.445025,-0.3537269999999999,1.2844475,0.5745750000000001,-0.56028,0.6001974999999999,0.6701050000000001,-0.7311799999999999,1.3515975,0.742505,-0.7681899999999999,0.9144885000000001,-0.0011149999999999,0.00084,1.0855115,0.001115,-0.0008399999999999,0.7793075,-0.0843649999999999,-0.39241,1.1952175,-0.0586349999999999,-0.40668,0.8475275000000001,-0.4762149999999999,-0.2876399999999999,1.1386075,-0.4498149999999999,-0.299624
188,0.9728335,0.629275,-0.400655,0.8297065,0.445682,-0.349433,0.6753465000000001,0.5566650000000001,-0.529645,1.1314665,0.445025,-0.353431,1.2839365,0.5759850000000001,-0.5588850000000001,0.5999065,0.672645,-0.730305,1.3517065,0.742505,-0.767055,0.9144194999999999,-0.0011149999999999,0.0008149999999999,1.0855805,0.001115,-0.000815,0.7802965,-0.084395,-0.392605,1.1941765,-0.0589749999999999,-0.406845,0.8477065,-0.476375,-0.288165,1.1381665,-0.4498949999999999,-0.29953
189,0.9726275,0.630685,-0.398275,0.8297795,0.445682,-0.348846,0.6750594999999999,0.557365,-0.5278750000000001,1.1315395,0.445025,-0.352966,1.2834995,0.578265,-0.557095,0.6000194999999999,0.675705,-0.729355,1.3518695,0.7440450000000001,-0.765275,0.9143365,-0.0011149999999999,0.0008249999999999,1.0856635,0.001115,-0.000825,0.7816295,-0.0843749999999999,-0.392685,1.1926695,-0.0589749999999999,-0.406745,0.8480095,-0.476595,-0.288534,1.1377195,-0.4499849999999999,-0.299455
190,0.9722940000000001,0.633375,-0.39539,0.829129,0.447927,-0.345894,0.674519,0.559545,-0.52537,1.131629,0.446856,-0.350651,1.283239,0.580365,-0.55528,0.599979,0.680485,-0.72829,1.351809,0.746665,-0.7625299999999999,0.914227,-0.001155,0.00085,1.085773,0.001155,-0.0008499999999999,0.783269,-0.0849549999999999,-0.39276,1.1906189999999999,-0.0597349999999999,-0.4065999999999999,0.8482390000000001,-0.4772749999999999,-0.288751,1.1371689999999999,-0.451155,-0.2991439999999999
191,0.9718430000000001,0.637725,-0.392325,0.828175,0.4498769999999999,-0.342575,0.673575,0.564665,-0.523055,1.131495,0.449109,-0.348254,1.283125,0.583495,-0.553105,0.600015,0.686735,-0.726515,1.351225,0.750255,-0.759055,0.914078,-0.0014149999999999,0.0008949999999999,1.085922,0.0014149999999999,-0.000895,0.785425,-0.086685,-0.393025,1.187995,-0.061865,-0.406575,0.848225,-0.479255,-0.289434,1.136545,-0.453705,-0.299174
192,0.9713475,0.6415949999999999,-0.38893,0.8271634999999999,0.4515809999999999,-0.33882,0.6724135,0.569595,-0.52041,1.1310535,0.4515499999999999,-0.345393,1.2832735,0.5859049999999999,-0.5504100000000001,0.5998435000000001,0.692865,-0.7227300000000001,1.3500135,0.754215,-0.75502,0.9138605,-0.001655,0.0008999999999999,1.0861395,0.0016549999999999,-0.0009,0.7881835,-0.090655,-0.39282,1.1846335,-0.066385,-0.40646,0.8481035,-0.483475,-0.29015,1.1358335,-0.458535,-0.299158
193,0.9710115,0.6465299999999999,-0.38505,0.8261455,0.4535229999999999,-0.33436,0.6712955,0.57541,-0.51708,1.1307055,0.454638,-0.342153,1.2829555,0.58924,-0.54694,0.5998955,0.70015,-0.71828,1.3486555,0.76122,-0.7507900000000001,0.9137275,-0.00197,0.0008599999999999,1.0862725,0.0019699999999999,-0.00086,0.7916255,-0.09632,-0.39203,1.1809455,-0.07272,-0.40594,0.8481055,-0.48946,-0.290515,1.1352555,-0.46495,-0.298874
194,0.9706445,0.6523650000000001,-0.38054,0.8252045,0.454152,-0.329934,0.6701045,0.583105,-0.5129600000000001,1.1304045,0.456267,-0.338878,1.2824844999999998,0.5939450000000001,-0.54314,0.5999945,0.709335,-0.7130000000000001,1.3469445,0.769215,-0.74607,0.9136394999999999,-0.0021849999999999,0.0008699999999999,1.0863605,0.002185,-0.00087,0.7958045,-0.103615,-0.39079,1.1769945,-0.0802949999999999,-0.40488,0.8482244999999999,-0.497035,-0.290628,1.1350245,-0.472715,-0.298597
195,0.9702515,0.659545,-0.374805,0.8243765000000001,0.458652,-0.324132,0.6690465,0.591045,-0.507425,1.1299265,0.46129,-0.334171,1.2823565000000001,0.5993850000000001,-0.538225,0.6002565,0.720495,-0.7066250000000001,1.3450265,0.778455,-0.739455,0.9135075,-0.002485,0.000875,1.0864925,0.002485,-0.000875,0.8005665000000001,-0.112905,-0.389135,1.1724364999999999,-0.0895949999999999,-0.4030749999999999,0.8484265,-0.5064649999999999,-0.290796,1.1347765,-0.482475,-0.298457
196,0.970098,0.666175,-0.368955,0.823291,0.462308,-0.3183,0.668111,0.599645,-0.501275,1.129591,0.465163,-0.32937,1.282831,0.6087049999999999,-0.533455,0.6008009999999999,0.732415,-0.699605,1.343111,0.7893049999999999,-0.731705,0.913315,-0.002665,0.0008849999999999,1.086685,0.0026649999999999,-0.000885,0.805801,-0.124245,-0.386635,1.1676909999999998,-0.100815,-0.400545,0.849051,-0.5178550000000001,-0.290839,1.134491,-0.494105,-0.298336
197,0.9705905000000001,0.67485,-0.3619079999999999,0.8228605,0.464642,-0.3120999999999999,0.6676805,0.60874,-0.4948899999999999,1.1298605,0.4686169999999999,-0.324138,1.2840004999999999,0.61634,-0.52818,0.6021105,0.7426999999999999,-0.6914399999999999,1.3419605,0.79892,-0.7227699999999999,0.9130175000000001,-0.00274,0.00098,1.0869825,0.0027399999999999,-0.0009799999999999,0.8117005000000002,-0.13723,-0.3833299999999999,1.1637705,-0.114,-0.3974,0.8499205,-0.53118,-0.2904739999999999,1.1349505,-0.5071,-0.2978659999999999
198,0.9715080000000001,0.68201,-0.354385,0.8223050000000001,0.4712099999999999,-0.304159,0.667315,0.61913,-0.48751,1.130465,0.4745699999999999,-0.317573,1.285425,0.62254,-0.52254,0.6034349999999999,0.75346,-0.68173,1.3412950000000001,0.8112999999999999,-0.71397,0.912938,-0.0026,0.00113,1.087062,0.0025999999999999,-0.0011299999999999,0.817535,-0.15171,-0.37944,1.160205,-0.12881,-0.3933999999999999,0.851055,-0.54627,-0.28967,1.135685,-0.5217700000000001,-0.2969819999999999
199,0.972478,0.68954,-0.346078,0.822326,0.475,-0.297761,0.667116,0.62885,-0.47925,1.131116,0.47863,-0.312104,1.286516,0.62993,-0.51561,0.605186,0.76657,-0.67001,1.341136,0.8233,-0.70497,0.9129039999999999,-0.0024199999999999,0.0013799999999999,1.087096,0.00242,-0.0013799999999999,0.8229960000000001,-0.16676,-0.37447,1.156896,-0.14415,-0.38869,0.852236,-0.56206,-0.288472,1.136476,-0.53716,-0.295644
200,0.9736170000000001,0.696565,-0.337252,0.822606,0.479615,-0.290629,0.6671560000000001,0.637545,-0.469425,1.1319460000000001,0.483255,-0.306134,1.288156,0.6376850000000001,-0.507955,0.607576,0.7787649999999999,-0.658115,1.341126,0.836155,-0.6959150000000001,0.912879,-0.002145,0.0016249999999999,1.087121,0.002145,-0.0016249999999999,0.828036,-0.179485,-0.368895,1.153886,-0.1591949999999999,-0.383605,0.8529059999999999,-0.5800649999999999,-0.292137,1.137446,-0.552495,-0.293858
201,0.974637,0.70441,-0.327102,0.8225720000000001,0.4867599999999999,-0.282719,0.666962,0.6472199999999999,-0.458535,1.132922,0.4899599999999999,-0.2996459999999999,1.2902019999999998,0.64669,-0.499015,0.609782,0.79172,-0.646225,1.341502,0.8496999999999999,-0.685295,0.912978,-0.00189,0.001925,1.087022,0.00189,-0.001925,0.8320620000000001,-0.1915699999999999,-0.363135,1.151652,-0.1724,-0.377915,0.853072,-0.5972500000000001,-0.295203,1.138112,-0.5677300000000001,-0.291373
202,0.9754715,0.712555,-0.3162239999999999,0.8223985,0.493285,-0.274738,0.6662684999999999,0.658935,-0.447665,1.1338485,0.495735,-0.2924319999999999,1.2922085,0.660015,-0.489425,0.6116385000000001,0.8067850000000001,-0.634325,1.3416685,0.8634949999999999,-0.673145,0.9131545000000001,-0.001655,0.002105,1.0868455,0.001655,-0.0021049999999999,0.8352485000000001,-0.2033149999999999,-0.3569449999999999,1.1500385,-0.185445,-0.3718749999999999,0.8530285,-0.613685,-0.2971979999999999,1.1387185,-0.581995,-0.288133
203,0.97608,0.72098,-0.304586,0.821968,0.50199,-0.265455,0.665538,0.6689,-0.436235,1.134568,0.5029399999999999,-0.283905,1.294128,0.67081,-0.479555,0.612838,0.82389,-0.621895,1.341918,0.8762000000000001,-0.660115,0.913416,-0.00146,0.002375,1.086584,0.00146,-0.0023749999999999,0.837508,-0.2153999999999999,-0.350163,1.148758,-0.19861,-0.365245,0.852818,-0.62988,-0.298244,1.139438,-0.59816,-0.284752
204,0.9768990000000001,0.7285949999999999,-0.293102,0.82141,0.5068649999999999,-0.256691,0.66469,0.6793849999999999,-0.42435,1.13545,0.507705,-0.275554,1.29574,0.6806349999999999,-0.4698299999999999,0.61353,0.838075,-0.6099,1.34232,0.8894449999999999,-0.64693,0.9138040000000001,-0.001125,0.0026,1.086196,0.0011249999999999,-0.0026,0.8391100000000001,-0.2264750000000001,-0.342793,1.1482700000000001,-0.210335,-0.35874,0.85252,-0.645325,-0.298478,1.14006,-0.613855,-0.281065
205,0.9775310000000001,0.73736,-0.280015,0.8211200000000001,0.51163,-0.247224,0.6638999999999999,0.68852,-0.41156,1.13632,0.51442,-0.26582,1.29706,0.68824,-0.45913,0.6148899999999999,0.85224,-0.5959399999999999,1.3425500000000001,0.90244,-0.63296,0.914102,-0.0011499999999999,0.00287,1.085898,0.0011499999999999,-0.0028699999999999,0.83989,-0.23711,-0.334893,1.14819,-0.22122,-0.35169,0.85208,-0.66067,-0.297783,1.1406,-0.62915,-0.276869
206,0.9779110000000001,0.743525,-0.267101,0.820576,0.519795,-0.23668,0.663036,0.697945,-0.397935,1.136776,0.522015,-0.255489,1.298196,0.697165,-0.446585,0.615836,0.864765,-0.581335,1.342566,0.917865,-0.617835,0.914104,-0.0011349999999999,0.0029049999999999,1.085896,0.0011349999999999,-0.0029049999999999,0.8404659999999999,-0.2471149999999999,-0.326693,1.148346,-0.231825,-0.344105,0.851336,-0.675985,-0.296352,1.141236,-0.643675,-0.273673
207,0.978325,0.7513400000000001,-0.253631,0.820282,0.5247900000000001,-0.226738,0.662372,0.7069000000000001,-0.384665,1.137402,0.5280100000000001,-0.2451789999999999,1.2991920000000001,0.7072400000000001,-0.4327149999999999,0.6166119999999999,0.8779000000000001,-0.566045,1.342612,0.92986,-0.600465,0.914101,-0.0013399999999999,0.0028549999999999,1.085899,0.00134,-0.0028549999999999,0.841012,-0.25639,-0.317654,1.148822,-0.2416399999999999,-0.3362549999999999,0.850552,-0.69102,-0.294633,1.142042,-0.65768,-0.27052
208,0.9787615,0.756785,-0.239483,0.8200784999999999,0.529215,-0.216361,0.6616885,0.716135,-0.371195,1.1382385,0.5332049999999999,-0.234424,1.3001485,0.718145,-0.417635,0.6174885,0.8941250000000001,-0.551695,1.3428185,0.943875,-0.580935,0.9143995,-0.0016049999999999,0.0027449999999999,1.0856005,0.001605,-0.0027449999999999,0.8416085,-0.265265,-0.308462,1.1493685,-0.251075,-0.327866,0.8498085,-0.705625,-0.2922329999999999,1.1431784999999999,-0.671485,-0.267221
209,0.9788545,0.7631000000000001,-0.224365,0.8188085,0.53395,-0.204761,0.6603685,0.7240599999999999,-0.35699,1.1385585,0.53999,-0.221792,1.3005985,0.7276100000000001,-0.4017,0.6180384999999999,0.90937,-0.53681,1.3424785,0.95657,-0.55955,0.9149925,-0.0019299999999999,0.0026499999999999,1.0850075,0.00193,-0.00265,0.8413285,-0.27691,-0.29796,1.1494485,-0.2606699999999999,-0.318241,0.8492185,-0.7201899999999999,-0.286382,1.1438585,-0.6858599999999999,-0.263324
210,0.9787365000000001,0.76799,-0.208987,0.8174695000000001,0.5353399999999999,-0.193706,0.6590595,0.73228,-0.342805,1.1385095,0.5435099999999999,-0.209456,1.3005795,0.7372,-0.385775,0.6183695,0.92488,-0.521285,1.3418595,0.96924,-0.538205,0.9154905,-0.00221,0.0024849999999999,1.0845095,0.0022099999999999,-0.002485,0.8411695000000001,-0.28928,-0.286954,1.1493095,-0.27067,-0.308565,0.8487495,-0.73353,-0.280467,1.1445295,-0.69904,-0.258734
211,0.9784505,0.76988,-0.193031,0.8161015,0.54035,-0.181171,0.6580015,0.7372299999999999,-0.32779,1.1382415,0.5454399999999999,-0.197193,1.3003415,0.7435999999999999,-0.36727,0.6185315,0.93656,-0.50465,1.3415115,0.97644,-0.51451,0.9160425000000001,-0.00221,0.0023299999999999,1.0839575,0.0022099999999999,-0.0023299999999999,0.8408615,-0.30279,-0.2751,1.1488915,-0.28021,-0.298275,0.8481015000000001,-0.7474000000000001,-0.274292,1.1456315,-0.7125400000000001,-0.253539
212,0.978166,0.769425,-0.176529,0.814703,0.5436350000000001,-0.168838,0.6569130000000001,0.742125,-0.312565,1.138373,0.550595,-0.183372,1.299663,0.751275,-0.348465,0.618313,0.947945,-0.488265,1.341213,0.985915,-0.491135,0.9165280000000001,-0.0024249999999999,0.0020949999999999,1.083472,0.002425,-0.002095,0.840693,-0.317835,-0.262429,1.148533,-0.289365,-0.287213,0.847923,-0.758825,-0.264496,1.146683,-0.7263149999999999,-0.247403
213,0.9784355,0.767695,-0.159826,0.8136515000000001,0.546665,-0.156979,0.6561115,0.747025,-0.298232,1.1388915,0.554075,-0.170403,1.2997115,0.7598449999999999,-0.32971,0.6185915,0.959675,-0.47144,1.3410315,0.993605,-0.46918,0.9170185,-0.002615,0.0018499999999999,1.0829815,0.0026149999999999,-0.00185,0.8416715000000001,-0.333135,-0.247138,1.1484714999999999,-0.304665,-0.275942,0.8484115,-0.772405,-0.251907,1.1468515,-0.740075,-0.240622
214,0.9789030000000001,0.765045,-0.144436,0.812942,0.552805,-0.145015,0.655592,0.7517849999999999,-0.285034,1.139632,0.5569850000000001,-0.1577009999999999,1.301112,0.764985,-0.3118849999999999,0.618872,0.968715,-0.456375,1.341132,1.000935,-0.447905,0.917468,-0.0024549999999999,0.001575,1.082532,0.002455,-0.0015749999999999,0.8430219999999999,-0.348265,-0.232636,1.148692,-0.319795,-0.264525,0.849332,-0.785965,-0.2400129999999999,1.147202,-0.754985,-0.233926
215,0.9798905,0.760275,-0.124657,0.8124865,0.556565,-0.129027,0.6555565,0.754645,-0.267788,1.1407465,0.557985,-0.140712,1.3026065,0.769435,-0.289645,0.6190065,0.975655,-0.435945,1.3414864999999998,1.008585,-0.423005,0.9178285,-0.0025749999999999,0.0013449999999999,1.0821715,0.002575,-0.001345,0.8450165000000001,-0.363475,-0.212517,1.1493065,-0.335005,-0.247437,0.8505265000000001,-0.800705,-0.223732,1.1474665,-0.771255,-0.222589
