sb224sc-HT22-VT27/4dt907/src/ml-research/a12/datafiles/kinect_good_preprocessed_not_cut_A11_mediapipe/A156_kinect.csv
FrameNo,nose_3d_x,nose_3d_y,nose_3d_z,left_shoulder_3d_x,left_shoulder_3d_y,left_shoulder_3d_z,left_elbow_3d_x,left_elbow_3d_y,left_elbow_3d_z,right_shoulder_3d_x,right_shoulder_3d_y,right_shoulder_3d_z,right_elbow_3d_x,right_elbow_3d_y,right_elbow_3d_z,left_wrist_3d_x,left_wrist_3d_y,left_wrist_3d_z,right_wrist_3d_x,right_wrist_3d_y,right_wrist_3d_z,left_hip_3d_x,left_hip_3d_y,left_hip_3d_z,right_hip_3d_x,right_hip_3d_y,right_hip_3d_z,left_knee_3d_x,left_knee_3d_y,left_knee_3d_z,right_knee_3d_x,right_knee_3d_y,right_knee_3d_z,left_ankle_3d_x,left_ankle_3d_y,left_ankle_3d_z,right_ankle_3d_x,right_ankle_3d_y,right_ankle_3d_z
0,-0.0471555,0.7565695,-0.0015919999999999962,-0.2097855,0.4864795,-0.009144999999999993,-0.2438855,0.22101949999999998,-0.0014839999999999923,0.1383745,0.4952395,-0.028154,0.2189045,0.23269949999999998,-0.018751999999999998,-0.2003655,-0.0220415,-0.08027799999999999,0.2247145,-0.0119785,-0.09802799999999999,-0.0787305,-0.0054135,-8.59999999999958e-05,0.0787305,0.0054135,8.600000000000274e-05,-0.0947965,-0.4588805,0.036604000000000005,0.1216845,-0.4681805,0.033711000000000005,-0.1057855,-0.8323605,0.07406100000000002,0.1506545,-0.8400605,0.059016000000000006
1,-0.0460355,0.7559795,-0.0017440000000000025,-0.2094905,0.4865595,-0.008051000000000003,-0.2415805,0.2206895,-0.0006140000000000034,0.13920949999999999,0.49474949999999995,-0.027881000000000003,0.21874949999999999,0.2323695,-0.019247,-0.1910105,-0.0228325,-0.079358,0.22304949999999998,-0.012441500000000001,-0.09821800000000001,-0.0788305,-0.0054725,-2.000000000002e-06,0.0788305,0.0054725,2.000000000002e-06,-0.09519849999999999,-0.4605205,0.038361,0.12144949999999999,-0.4683005,0.034251,-0.1074505,-0.8328105,0.073931,0.1491595,-0.8402405000000001,0.05923
2,-0.044829499999999994,0.75572,-0.0011349999999999971,-0.20872249999999998,0.48684,-0.007398999999999996,-0.24036249999999998,0.22048,-0.0002699999999999994,0.1393875,0.49465000000000003,-0.027881000000000003,0.2180375,0.23234000000000002,-0.019691,-0.18796249999999998,-0.023632999999999998,-0.07854799999999999,0.2211575,-0.012251000000000001,-0.099398,-0.0789885,-0.005463,0.0004040000000000016,0.0789885,0.005463,-0.00040399999999999464,-0.0950765,-0.4626,0.039701,0.1213375,-0.46852,0.034495000000000005,-0.1085025,-0.8319000000000001,0.074491,0.1482075,-0.83955,0.059443
3,-0.04535,0.755705,-0.0014315000000000022,-0.208567,0.486935,-0.0081185,-0.240757,0.220525,-0.0008834999999999954,0.139063,0.494185,-0.028651499999999996,0.21629299999999999,0.232455,-0.0205565,-0.186287,-0.021876,-0.0771855,0.218903,-0.011916,-0.1010755,-0.079047,-0.00539,0.0007915000000000005,0.079047,0.00539,-0.0007915000000000005,-0.096391,-0.463225,0.039497500000000005,0.120613,-0.469185,0.0332625,-0.110267,-0.831825,0.0736555,0.146563,-0.8392850000000001,0.0587785
4,-0.044223,0.7559165,-0.0016005000000000047,-0.207425,0.4873865,-0.008310500000000005,-0.24029499999999998,0.22033650000000002,-0.0010125000000000065,0.14011500000000002,0.4939265,-0.0288855,0.21557500000000002,0.2323165,-0.021393500000000003,-0.18498499999999998,-0.022906500000000003,-0.0759735,0.21743500000000002,-0.0121175,-0.10241350000000002,-0.07916500000000001,-0.0052645,0.0006604999999999944,0.07916500000000001,0.0052645,-0.0006605000000000014,-0.096639,-0.4640935,0.0393925,0.11998500000000001,-0.46862349999999997,0.032571499999999996,-0.110875,-0.8323135,0.0728155,0.145935,-0.8392535,0.0582945
5,-0.0422445,0.75576,-0.0031375000000000014,-0.2068635,0.48869999999999997,-0.009274499999999998,-0.2396735,0.22174000000000002,-0.0020384999999999986,0.14100649999999998,0.49409,-0.0300845,0.2147665,0.23176000000000002,-0.023483500000000004,-0.1851635,-0.022872999999999998,-0.0759195,0.21330649999999998,-0.012537999999999999,-0.1052095,-0.0793005,-0.004978,0.0005424999999999978,0.0793005,0.004978,-0.0005425000000000013,-0.0973475,-0.46449,0.0385925,0.1188565,-0.46792,0.031877499999999996,-0.11220350000000001,-0.83181,0.0714065,0.1449065,-0.8381500000000001,0.057167499999999996
6,-0.041153,0.7558710000000001,-0.0034485,-0.205716,0.489041,-0.0088465,-0.239096,0.22185100000000002,-0.0022755000000000067,0.14216399999999998,0.494301,-0.030024500000000003,0.214754,0.23198100000000002,-0.023929500000000006,-0.18504600000000002,-0.023434,-0.07576650000000001,0.21173399999999998,-0.012261,-0.1065865,-0.079325,-0.004834,0.0006114999999999975,0.079325,0.004834,-0.0006115000000000009,-0.097131,-0.46448900000000004,0.038314499999999994,0.11977399999999999,-0.467459,0.0326275,-0.11230599999999999,-0.831519,0.0709545,0.14529399999999998,-0.837429,0.0568515
7,-0.0396525,0.756508,-0.004089499999999999,-0.2040365,0.488608,-0.0102025,-0.2392965,0.221938,-0.0028845000000000016,0.1433835,0.493628,-0.0298675,0.2148335,0.23219800000000002,-0.023965499999999997,-0.1947565,-0.022834,-0.0751085,0.21095350000000002,-0.011738,-0.1059785,-0.0793275,-0.004489,0.0006505000000000018,0.0793275,0.004489,-0.0006505000000000018,-0.0965415,-0.46300199999999997,0.0378785,0.12091350000000001,-0.467452,0.0333185,-0.1117165,-0.830762,0.0705925,0.1457735,-0.837372,0.056403499999999995
8,-0.038267999999999996,0.7565915,-0.0047805,-0.202884,0.4889415,-0.010732499999999999,-0.239124,0.2221715,-0.0033504999999999993,0.14440599999999998,0.4935015,-0.030026500000000005,0.214596,0.2322215,-0.0246185,-0.19513399999999997,-0.0230105,-0.0751785,0.209246,-0.0117505,-0.10663850000000001,-0.079374,-0.0042495,0.0006264999999999986,0.079374,0.0042495,-0.0006265000000000021,-0.096427,-0.4627785,0.0374715,0.12119600000000001,-0.4672885,0.0333715,-0.11183399999999999,-0.8302485000000001,0.0699765,0.145746,-0.8369585,0.0559105
9,-0.0369835,0.7567,-0.005432500000000003,-0.2018235,0.48924,-0.011364500000000003,-0.2390835,0.22248,-0.003837499999999997,0.14538649999999997,0.49339,-0.030138500000000002,0.21448649999999997,0.2323,-0.025220500000000003,-0.1969435,-0.023134000000000002,-0.07571750000000001,0.20759650000000002,-0.011746000000000001,-0.10718749999999999,-0.0794145,-0.003986,0.0006005000000000003,0.0794145,0.003986,-0.0006005000000000003,-0.09628350000000001,-0.46251,0.0370075,0.12156650000000001,-0.46713,0.0334285,-0.1118635,-0.82966,0.0693905,0.14576650000000002,-0.83648,0.055391499999999996
10,-0.035858,0.756719,-0.005923499999999998,-0.200779,0.489469,-0.011851500000000001,-0.239129,0.222749,-0.004212500000000001,0.146311,0.493249,-0.030115500000000003,0.214501,0.232519,-0.0256715,-0.199349,-0.022976999999999997,-0.0759255,0.206711,-0.011708000000000001,-0.10759550000000001,-0.079423,-0.0037470000000000003,0.0005795000000000002,0.079423,0.003747,-0.0005795000000000002,-0.09606999999999999,-0.462281,0.036643499999999996,0.12205099999999999,-0.46698100000000003,0.0335945,-0.111759,-0.8292109999999999,0.06894349999999999,0.145891,-0.836151,0.0550345
11,-0.034767000000000006,0.756656,-0.006492000000000005,-0.199823,0.48970600000000003,-0.012285000000000004,-0.239183,0.22301600000000002,-0.0045590000000000006,0.147127,0.49309600000000003,-0.03009,0.21451699999999999,0.232746,-0.026070000000000003,-0.202283,-0.02275,-0.075932,0.206657,-0.011498999999999999,-0.107992,-0.079426,-0.00351,0.0005519999999999969,0.079426,0.0035100000000000005,-0.0005520000000000004,-0.095872,-0.462024,0.036302999999999995,0.12246699999999999,-0.46672399999999997,0.033649,-0.111643,-0.828784,0.068548,0.14596699999999999,-0.835904,0.054742
12,-0.0337735,0.7563205,-0.007341000000000004,-0.1989115,0.4899205,-0.012642999999999998,-0.2392415,0.2232105,-0.004830000000000004,0.1478085,0.49302050000000003,-0.030102,0.2145585,0.2328905,-0.026297000000000004,-0.20567149999999998,-0.022603500000000002,-0.075584,0.20659850000000002,-0.011616500000000002,-0.10826400000000001,-0.07943149999999999,-0.0033485,0.0005170000000000001,0.07943149999999999,0.003348499999999999,-0.0005170000000000001,-0.09569349999999999,-0.4617595,0.035976999999999995,0.12275850000000002,-0.4664895,0.033553,-0.11151150000000001,-0.8283295,0.06825099999999999,0.1460085,-0.8357595,0.054532
13,-0.0328975,0.756006,-0.008176000000000003,-0.1981675,0.49003599999999997,-0.013014000000000005,-0.2397275,0.223826,-0.004619999999999999,0.14842249999999998,0.493016,-0.030196,0.2148125,0.233016,-0.025899000000000005,-0.2088675,-0.022441,-0.07521,0.2065525,-0.01149,-0.10798000000000002,-0.0794605,-0.0032080000000000008,0.00048799999999999885,0.0794605,0.003208,-0.0004880000000000023,-0.09551950000000001,-0.461414,0.035671999999999995,0.12295249999999999,-0.46629400000000004,0.033248,-0.1113775,-0.827904,0.06802,0.1460325,-0.835644,0.054306999999999994
14,-0.0323115,0.7556425,-0.009183499999999997,-0.19785149999999999,0.4900925,-0.0134735,-0.2410215,0.2246825,-0.0037364999999999968,0.1488485,0.4930725,-0.030511499999999997,0.21558850000000002,0.2331925,-0.0250615,-0.2122615,-0.0221575,-0.0749035,0.2069685,-0.0116385,-0.10677350000000001,-0.07945749999999999,-0.0031235000000000004,0.0005024999999999995,0.07945749999999999,0.0031235,-0.0005024999999999995,-0.09547049999999999,-0.4611075,0.0353395,0.12296850000000001,-0.4661375,0.0329175,-0.1113815,-0.8275875,0.0677465,0.14589850000000001,-0.8355775,0.0540275
15,-0.032087500000000005,0.7550305,-0.010770500000000002,-0.1979935,0.4900505,-0.013887500000000004,-0.2439635,0.2262305,-0.0014345000000000017,0.14916649999999998,0.49303050000000004,-0.0307915,0.2180765,0.23349050000000002,-0.023238500000000002,-0.21667350000000002,-0.0217765,-0.07173850000000001,0.21137650000000002,-0.0116695,-0.10171249999999998,-0.0793985,-0.0030815,0.0005244999999999972,0.0793985,0.0030814999999999996,-0.0005245000000000007,-0.0955705,-0.4610095,0.035074499999999995,0.12273650000000001,-0.4661295,0.0326565,-0.1115235,-0.8275995,0.0675365,0.1456465,-0.8356695,0.0538105
16,-0.0319745,0.7544235,-0.012475,-0.19826850000000001,0.4901435,-0.014308000000000001,-0.2476185,0.2278135,0.0020349999999999986,0.1494815,0.4929835,-0.030986,0.2218115,0.23420349999999998,-0.020744000000000005,-0.2209285,-0.021492499999999998,-0.06672600000000001,0.2183515,-0.011825500000000001,-0.09335600000000001,-0.0793295,-0.0030345,0.0005439999999999993,0.0793295,0.0030345000000000003,-0.0005440000000000028,-0.0956985,-0.4609465,0.03487,0.12247150000000001,-0.4660665,0.032431999999999996,-0.11165850000000001,-0.8276365,0.067383,0.1453915,-0.8357665,0.053709999999999994
17,-0.031938,0.7538485,-0.014608000000000003,-0.198458,0.49035850000000003,-0.014778,-0.25158800000000003,0.22951850000000001,0.006356999999999998,0.149862,0.49296850000000003,-0.031188,0.226402,0.2350585,-0.017192000000000006,-0.223248,-0.0209665,-0.05748500000000001,0.224332,-0.011890500000000002,-0.08251700000000001,-0.079273,-0.0029695,0.0005769999999999977,0.079273,0.0029695000000000004,-0.0005770000000000011,-0.095752,-0.4609315,0.034633,0.12229200000000001,-0.4659415,0.032105999999999996,-0.111718,-0.8277015,0.067242,0.145212,-0.8358715,0.053570999999999994
18,-0.032002,0.7531884999999999,-0.016991500000000003,-0.19866299999999998,0.49056849999999996,-0.0150935,-0.253823,0.2313285,0.0126525,0.15024700000000002,0.4930985,-0.03134049999999999,0.23017700000000002,0.2361485,-0.011391500000000002,-0.22453299999999998,-0.0197465,-0.0431255,0.226807,-0.011925500000000002,-0.0658195,-0.079241,-0.0028925,0.0005754999999999996,0.079241,0.0028924999999999997,-0.0005754999999999996,-0.095834,-0.4609415,0.0345455,0.12209700000000001,-0.4655415,0.031767500000000004,-0.111813,-0.8277915,0.0672515,0.145047,-0.8359615,0.0536135
19,-0.0323615,0.7524445,-0.0196555,-0.1989645,0.4907345,-0.0154925,-0.2552845,0.2331145,0.0203345,0.1506655,0.49331450000000004,-0.0316855,0.2332155,0.2371345,-0.004020500000000003,-0.2240945,-0.0174425,-0.0238045,0.2295755,-0.0119445,-0.045566499999999996,-0.0792135,-0.0028545000000000003,0.0005744999999999986,0.0792135,0.0028545000000000003,-0.0005744999999999986,-0.0960145,-0.4610355,0.0344595,0.12180550000000001,-0.4651955,0.0313275,-0.1119945,-0.8280155,0.0672585,0.1447955,-0.8361355,0.0536585
20,-0.032734,0.751634,-0.0224755,-0.199473,0.490794,-0.0159555,-0.255583,0.234864,0.0294775,0.151167,0.49353400000000003,-0.0323065,0.234797,0.239044,0.006131499999999998,-0.22351300000000002,-0.011779,-0.0004504999999999995,0.231677,-0.010239999999999999,-0.0208595,-0.079183,-0.0028209999999999997,0.0005735000000000011,0.079183,0.0028210000000000006,-0.0005735000000000011,-0.09620599999999999,-0.46116599999999996,0.0343145,0.121497,-0.464896,0.0308445,-0.112183,-0.828356,0.0672655,0.144537,-0.836416,0.053664500000000004
21,-0.0331525,0.7506765,-0.025705,-0.2001795,0.4906165,-0.016399999999999998,-0.2554495,0.23704650000000002,0.041372,0.1515205,0.4939065,-0.03324,0.2358305,0.24220650000000002,0.017216000000000002,-0.2228495,-0.0055675,0.025996000000000002,0.23334049999999998,-0.0031465,0.007155000000000002,-0.0791315,-0.0028275,0.000623000000000002,0.0791315,0.0028275,-0.0006229999999999986,-0.0964575,-0.46145349999999996,0.034236,0.12112049999999999,-0.4646635,0.030279,-0.1124095,-0.8289934999999999,0.067381,0.14428049999999998,-0.8368435,0.053767999999999996
22,-0.033559,0.7495335000000001,-0.02926,-0.200955,0.4903635,-0.016814000000000003,-0.255325,0.2395435,0.052361,0.151785,0.4942535,-0.034303,0.235925,0.2457435,0.02736,-0.221505,0.0014864999999999998,0.051934999999999995,0.23406500000000002,0.0041845,0.034391,-0.079086,-0.0028645,0.0006549999999999993,0.079086,0.0028645,-0.0006550000000000028,-0.096709,-0.4618265,0.034303,0.120765,-0.46448649999999997,0.029803999999999997,-0.112625,-0.8297365,0.067661,0.14404499999999998,-0.8374165,0.054084
23,-0.033999,0.7483075,-0.032912500000000004,-0.201649,0.49004749999999997,-0.017278500000000002,-0.255169,0.2424875,0.0613735,0.152041,0.4945775,-0.0354005,0.236081,0.2507575,0.0361625,-0.219609,0.0087395,0.07642550000000001,0.234821,0.013020499999999999,0.0599115,-0.079099,-0.0029335,0.0007414999999999991,0.079099,0.0029335000000000003,-0.0007415000000000026,-0.096863,-0.4622325,0.034465499999999996,0.12049099999999999,-0.46422250000000004,0.029342499999999997,-0.112729,-0.8305024999999999,0.0680485,0.143941,-0.8380225,0.0545185
24,-0.0344205,0.747101,-0.036434,-0.20240350000000001,0.48966099999999996,-0.017703000000000003,-0.2547235,0.245171,0.067378,0.1522465,0.494861,-0.036513,0.2362265,0.256191,0.043553,-0.2170435,0.016243999999999998,0.096002,0.2354765,0.022435,0.08115900000000001,-0.0791375,-0.002978,0.0008349999999999989,0.0791375,0.0029779999999999997,-0.0008350000000000024,-0.0969785,-0.462519,0.034693,0.12031649999999999,-0.46403900000000003,0.02915,-0.11276349999999999,-0.831169,0.068552,0.14386649999999998,-0.838539,0.055039
25,-0.034771,0.745818,-0.03995750000000001,-0.2031,0.48924799999999996,-0.018098500000000003,-0.25327,0.24845799999999998,0.0719925,0.15244,0.495098,-0.0376225,0.23629,0.261078,0.0502175,-0.21381,0.024204,0.1131275,0.23582,0.031625,0.0989875,-0.079186,-0.003022,0.0009394999999999994,0.079186,0.0030219999999999995,-0.0009394999999999994,-0.097075,-0.462772,0.0349595,0.12016000000000002,-0.46395200000000003,0.0290855,-0.11280000000000001,-0.831802,0.0690195,0.1439,-0.838992,0.0554525
26,-0.034991999999999995,0.7446005,-0.0430935,-0.203639,0.48890049999999996,-0.018480499999999997,-0.250839,0.2513805,0.0755565,0.152591,0.49523049999999996,-0.038700500000000006,0.23545100000000002,0.2656805,0.0557995,-0.210139,0.0316825,0.1256965,0.234601,0.0405165,0.11431649999999999,-0.07924300000000001,-0.0030635,0.0009974999999999984,0.07924300000000001,0.0030635000000000003,-0.0009974999999999984,-0.097134,-0.4629595,0.0353345,0.120061,-0.4637895,0.0291605,-0.112789,-0.8323594999999999,0.0695935,0.14400100000000002,-0.8393594999999999,0.0559295
27,-0.0350745,0.743465,-0.04586699999999999,-0.2039955,0.48861499999999997,-0.01901,-0.24698550000000002,0.254015,0.077156,0.15276450000000003,0.495285,-0.03978999999999999,0.23291450000000002,0.270005,0.059384000000000006,-0.2049455,0.03845,0.133145,0.22954449999999998,0.049444999999999996,0.12414700000000001,-0.0792675,-0.003102,0.0010340000000000037,0.0792675,0.0031019999999999997,-0.0010340000000000002,-0.0971125,-0.462995,0.035809,0.12007449999999999,-0.46375500000000003,0.029373000000000003,-0.11268550000000001,-0.832895,0.070264,0.1441945,-0.839615,0.056431
28,-0.03515599999999999,0.7425109999999999,-0.0483245,-0.204272,0.488261,-0.0196155,-0.242432,0.256591,0.07767450000000001,0.152808,0.495221,-0.040742499999999994,0.229148,0.27432100000000004,0.061449500000000004,-0.199522,0.044128,0.1353785,0.22209800000000002,0.058274,0.1304555,-0.079304,-0.00315,0.0010834999999999977,0.079304,0.00315,-0.0010835000000000011,-0.097106,-0.462929,0.0362645,0.12009800000000001,-0.463699,0.0296465,-0.112582,-0.8333590000000001,0.0709175,0.14438800000000002,-0.839839,0.056925500000000004
29,-0.03525300000000001,0.741697,-0.050572000000000006,-0.20442200000000002,0.487727,-0.020436000000000003,-0.23750200000000002,0.259067,0.078182,0.15283799999999997,0.495157,-0.041536000000000003,0.22458799999999998,0.27776700000000004,0.062303,-0.19535200000000003,0.046501,0.13591599999999998,0.215748,0.065496,0.132136,-0.079367,-0.0032119999999999996,0.0011439999999999992,0.079367,0.0032119999999999996,-0.0011439999999999992,-0.09713,-0.462833,0.036784,0.12008799999999997,-0.463613,0.029935,-0.11250200000000002,-0.833713,0.071572,0.144528,-0.839953,0.057426000000000005
30,-0.0353055,0.741078,-0.0522435,-0.20451350000000001,0.487188,-0.0213335,-0.2342635,0.260988,0.07853650000000001,0.1528165,0.495138,-0.0421865,0.2209065,0.27989800000000004,0.06291050000000001,-0.1918235,0.048205,0.1362595,0.2132165,0.067319,0.1326995,-0.0794475,-0.003231,0.0011855000000000025,0.0794475,0.003231,-0.001185499999999999,-0.09721450000000001,-0.46265199999999995,0.037138500000000005,0.12005649999999998,-0.463512,0.0301795,-0.1124735,-0.833872,0.0720345,0.1446265,-0.839932,0.057676500000000006
31,-0.0352595,0.740568,-0.053592499999999994,-0.20458849999999998,0.486578,-0.022393500000000004,-0.2318385,0.26202800000000004,0.0781355,0.1528015,0.495138,-0.042710500000000005,0.2179615,0.281438,0.0633685,-0.1903685,0.048732,0.1365615,0.2108115,0.06879,0.1331415,-0.07951549999999999,-0.003231,0.0011955000000000021,0.07951549999999999,0.003231,-0.0011955000000000021,-0.0972845,-0.462452,0.037407499999999996,0.1200515,-0.46344199999999997,0.0303955,-0.11242849999999999,-0.8339719999999999,0.0723525,0.1447215,-0.839882,0.0577695
32,-0.035132000000000004,0.740148,-0.054698,-0.204668,0.48594800000000005,-0.023417999999999994,-0.230578,0.26230800000000004,0.076122,0.152662,0.495138,-0.04313299999999999,0.21657200000000001,0.281438,0.062193000000000005,-0.189368,0.048792999999999996,0.134523,0.209262,0.06879,0.133523,-0.07954900000000001,-0.003231,0.0011410000000000031,0.07954900000000001,0.003231,-0.0011409999999999962,-0.09736600000000001,-0.462242,0.037691,0.12005199999999999,-0.463422,0.030645000000000006,-0.11238800000000002,-0.834102,0.07263800000000001,0.144752,-0.8398019999999999,0.057844000000000007
33,-0.034956,0.7399089999999999,-0.055358000000000004,-0.20471599999999998,0.485419,-0.024444000000000007,-0.230046,0.262349,0.07139899999999999,0.15257400000000002,0.494959,-0.043504,0.215674,0.281479,0.059985,-0.189026,0.048833999999999995,0.129487,0.20827400000000001,0.068831,0.131296,-0.07955999999999999,-0.003272,0.0010569999999999954,0.07955999999999999,0.003272,-0.0010570000000000024,-0.09742899999999999,-0.462051,0.03790999999999999,0.120084,-0.463341,0.030821999999999995,-0.112346,-0.834151,0.072836,0.144814,-0.839761,0.057851
34,-0.034674,0.7398725,-0.055637500000000006,-0.204743,0.48496249999999996,-0.025325500000000008,-0.23009300000000002,0.2624725,0.0673115,0.152547,0.49479249999999997,-0.04372250000000001,0.215587,0.2816025,0.058332499999999995,-0.18918300000000002,0.0489575,0.1252835,0.208147,0.0689545,0.1296425,-0.079575,-0.0033095,0.0009734999999999952,0.079575,0.0033095,-0.0009735000000000021,-0.097494,-0.46174750000000003,0.03823549999999999,0.120117,-0.4631775,0.031121499999999996,-0.11230300000000001,-0.8341175,0.07318449999999999,0.144837,-0.8395475,0.0580865
35,-0.0344145,0.739886,-0.055678,-0.2047565,0.484536,-0.026015000000000003,-0.2301765,0.262616,0.06471099999999999,0.15250350000000001,0.494666,-0.04371100000000001,0.2155635,0.281596,0.057689000000000004,-0.1892665,0.049101,0.122665,0.2081335,0.068944,0.128999,-0.07958950000000001,-0.00332,0.0009079999999999991,0.07958950000000001,0.00332,-0.0009079999999999991,-0.09754550000000001,-0.461424,0.038621,0.1201635,-0.462954,0.031530999999999997,-0.1122465,-0.834074,0.073627,0.1448835,-0.839284,0.058413
36,-0.0342635,0.7399915,-0.0554475,-0.2047585,0.48422149999999997,-0.026383499999999997,-0.23018850000000002,0.2625615,0.06407750000000001,0.1524815,0.49460149999999997,-0.0435185,0.21558149999999998,0.2809815,0.0576435,-0.18927850000000002,0.048911500000000004,0.1220285,0.2081515,0.0683195,0.1289535,-0.0796265,-0.0033265,0.0009065000000000045,0.0796265,0.0033265,-0.0009064999999999976,-0.0975835,-0.46116850000000004,0.039149500000000004,0.1202315,-0.46271850000000003,0.032073500000000005,-0.1121885,-0.8339785000000001,0.0741985,0.1449415,-0.8390085,0.058911500000000006
37,-0.034231,0.7401135,-0.05513649999999999,-0.20474799999999999,0.48400350000000003,-0.02653749999999999,-0.230188,0.2618635,0.0637785,0.15245199999999998,0.4945135,-0.04332949999999999,0.215592,0.2805035,0.057682500000000005,-0.189328,0.0482155,0.1217315,0.20817200000000002,0.0678485,0.1289935,-0.079661,-0.0033365,0.0009205000000000046,0.079661,0.0033365,-0.0009204999999999977,-0.097619,-0.4608265,0.039672500000000006,0.120302,-0.4624165,0.032636500000000006,-0.112138,-0.8338865,0.0748135,0.14500200000000002,-0.8387465,0.059474500000000007
38,-0.034193499999999995,0.7402200000000001,-0.05466,-0.20474949999999997,0.48392,-0.026321999999999998,-0.2304095,0.26145,0.063835,0.15248050000000002,0.49446999999999997,-0.043149999999999994,0.2159005,0.28023,0.05765100000000001,-0.18958950000000002,0.047792999999999995,0.12179000000000001,0.2084605,0.06757300000000001,0.12896200000000002,-0.0796935,-0.00335,0.0009910000000000058,0.0796935,0.0033500000000000005,-0.0009909999999999988,-0.09763849999999999,-0.46051000000000003,0.040271,0.1203705,-0.46212000000000003,0.033280000000000004,-0.11205949999999999,-0.8337699999999999,0.075538,0.1450705,-0.8384699999999999,0.060128
39,-0.0341475,0.7403190000000001,-0.054095,-0.2047435,0.483819,-0.025975000000000005,-0.2304835,0.261169,0.064051,0.1525065,0.494389,-0.043001000000000004,0.21616649999999998,0.27991900000000003,0.057651999999999995,-0.1896635,0.04752,0.122008,0.20872649999999998,0.067266,0.128964,-0.0797175,-0.0033750000000000004,0.0010980000000000018,0.0797175,0.0033750000000000004,-0.0010980000000000018,-0.09762850000000001,-0.460221,0.040898,0.12044649999999998,-0.461821,0.033894,-0.1119735,-0.833651,0.076263,0.1451365,-0.838231,0.060862
40,-0.0341045,0.7403695,-0.05348649999999999,-0.20475549999999998,0.4837595,-0.025472499999999995,-0.23055550000000002,0.2609195,0.0645175,0.15243449999999997,0.4942595,-0.0430325,0.2163945,0.2795095,0.0574615,-0.1897455,0.0472665,0.1224765,0.20894449999999998,0.0668585,0.12877450000000001,-0.0797315,-0.0033924999999999997,0.0012655000000000027,0.0797315,0.0033924999999999997,-0.0012654999999999958,-0.0976165,-0.4599705,0.041461500000000005,0.12052449999999999,-0.4615605,0.034447500000000006,-0.1118855,-0.8335905,0.0769435,0.1451845,-0.8380505,0.0615545
41,-0.034196,0.7404050000000001,-0.052850499999999995,-0.20481,0.48373499999999997,-0.024916500000000008,-0.23063,0.260745,0.0649875,0.15233000000000002,0.494145,-0.0431595,0.21661000000000002,0.27907499999999996,0.0571085,-0.18983,0.047089,0.1229475,0.20916,0.066424,0.1284215,-0.079745,-0.00341,0.0014664999999999956,0.079745,0.00341,-0.0014665000000000025,-0.097607,-0.459735,0.0419275,0.12061999999999999,-0.461295,0.034902499999999996,-0.1118,-0.833545,0.0775435,0.14518999999999999,-0.837765,0.062170500000000004
42,-0.034509,0.740485,-0.05214350000000001,-0.204917,0.483725,-0.024308499999999997,-0.230707,0.260575,0.0654835,0.152163,0.494035,-0.043368500000000004,0.216813,0.278575,0.05667849999999999,-0.189907,0.046921000000000004,0.1234445,0.209353,0.065917,0.12799149999999998,-0.07975299999999999,-0.00343,0.0017214999999999939,0.07975299999999999,0.00343,-0.0017215000000000008,-0.09758800000000001,-0.459525,0.0423915,0.120703,-0.461065,0.035324499999999995,-0.11169699999999999,-0.833565,0.0781455,0.14519300000000002,-0.8374750000000001,0.0628195
43,-0.0349355,0.7405655,-0.05154,-0.2050575,0.4836955,-0.023764999999999994,-0.2307875,0.2603955,0.065999,0.1519825,0.49395550000000005,-0.043659,0.2169925,0.2781555,0.056241,-0.1899875,0.046738499999999995,0.123959,0.20953249999999998,0.06550349999999999,0.127554,-0.07975650000000001,-0.0034405,0.0019829999999999987,0.07975650000000001,0.0034405,-0.0019829999999999987,-0.0975655,-0.45932449999999997,0.042789,0.1207725,-0.4608445,0.035653000000000004,-0.1116075,-0.8335745,0.07867099999999999,0.1451825,-0.8372245,0.063343
44,-0.035419,0.7406524999999999,-0.051018,-0.20518599999999998,0.4836725,-0.023300999999999995,-0.230876,0.2602025,0.066439,0.151784,0.4938725,-0.04403100000000001,0.217144,0.2778525,0.055637,-0.190076,0.0465475,0.12439900000000001,0.209684,0.06520050000000001,0.126949,-0.07975499999999999,-0.0034475,0.002249000000000001,0.07975499999999999,0.0034475,-0.002249000000000001,-0.09754099999999999,-0.4591275,0.04308,0.120864,-0.4606975,0.035872999999999995,-0.111516,-0.8335675,0.079125,0.14519400000000002,-0.8369875,0.063816
45,-0.0359235,0.740749,-0.0506895,-0.20534750000000002,0.483659,-0.0230345,-0.2309775,0.26005900000000004,0.0666045,0.15159250000000002,0.493799,-0.0444755,0.21727249999999998,0.277669,0.0549225,-0.1901875,0.046411,0.1245655,0.2098125,0.065009,0.1262345,-0.0797435,-0.0034519999999999998,0.0024524999999999963,0.0797435,0.0034519999999999998,-0.0024525000000000033,-0.0975285,-0.45897099999999996,0.043241499999999995,0.1209425,-0.460601,0.03595449999999999,-0.1114375,-0.833531,0.07943149999999999,0.1451925,-0.8367709999999999,0.0641245
46,-0.0364705,0.740875,-0.05037,-0.2055085,0.483635,-0.022842,-0.2310785,0.259925,0.066661,0.15139149999999998,0.493745,-0.044945,0.2173915,0.277515,0.054093999999999996,-0.1902885,0.046273,0.124622,0.20992149999999998,0.064856,0.12540600000000002,-0.0797365,-0.003466,0.0026329999999999965,0.0797365,0.0034659999999999995,-0.0026330000000000034,-0.0975015,-0.45892499999999997,0.043405,0.12103149999999999,-0.460565,0.035963999999999996,-0.1113785,-0.8335450000000001,0.079682,0.14520149999999998,-0.836565,0.06437699999999999
47,-0.0369535,0.7409945,-0.05019749999999999,-0.2056565,0.48360450000000005,-0.022806499999999993,-0.2311765,0.25978450000000003,0.0665845,0.1512135,0.49370450000000005,-0.04545149999999999,0.2174735,0.2774645,0.0533915,-0.19038650000000001,0.046129500000000004,0.1245465,0.2100135,0.0648115,0.12470350000000001,-0.0797355,-0.0034935,0.002735500000000002,0.0797355,0.0034935,-0.002735499999999995,-0.0974745,-0.45889549999999996,0.0434505,0.12111349999999999,-0.46055549999999995,0.03583650000000001,-0.1113465,-0.8335255,0.0797825,0.14520349999999999,-0.8363655,0.06449350000000001
48,-0.037412,0.741097,-0.050025,-0.205809,0.483557,-0.02273,-0.231279,0.259647,0.06639800000000001,0.151051,0.493657,-0.04596599999999999,0.217541,0.277427,0.052716000000000006,-0.190489,0.045992,0.124361,0.210071,0.064774,0.124029,-0.079738,-0.003531,0.002807000000000004,0.079738,0.003531,-0.002806999999999997,-0.097459,-0.458883,0.043454000000000007,0.121191,-0.460563,0.035669000000000006,-0.11133900000000001,-0.833503,0.07992,0.145191,-0.8361829999999999,0.06457700000000001
49,-0.0378555,0.7412194999999999,-0.0498525,-0.20595850000000002,0.48350950000000004,-0.0226815,-0.2313685,0.25948950000000004,0.06619749999999999,0.1509615,0.49360950000000003,-0.04633349999999999,0.2175915,0.2773795,0.0522025,-0.1905685,0.0458385,0.12416150000000001,0.2101215,0.0647265,0.1235155,-0.07973849999999999,-0.0035735,0.002849499999999998,0.07973849999999999,0.0035735000000000003,-0.002849499999999998,-0.0974575,-0.4589105,0.0434275,0.1212615,-0.46060049999999997,0.035486500000000004,-0.1113285,-0.8334705,0.0800285,0.1451915,-0.8360105,0.0647075
50,-0.038303500000000004,0.7413660000000001,-0.0497485,-0.2061155,0.483446,-0.0227175,-0.23150549999999998,0.25933599999999996,0.06588649999999999,0.1509145,0.493556,-0.0466525,0.2176345,0.27732599999999996,0.051901499999999996,-0.19071549999999998,0.045684,0.12385049999999999,0.21016449999999998,0.064673,0.12321649999999999,-0.0797375,-0.003621,0.002849499999999998,0.0797375,0.003621,-0.002849500000000005,-0.0974665,-0.45896400000000004,0.04339049999999999,0.1213045,-0.460654,0.035351499999999994,-0.1113555,-0.833434,0.08008849999999999,0.14517449999999998,-0.836004,0.0648455
51,-0.0386255,0.741502,-0.0496885,-0.2062095,0.483372,-0.022862499999999994,-0.23167949999999998,0.259222,0.0655395,0.15088050000000003,0.493522,-0.04684049999999999,0.2176905,0.277472,0.051832500000000004,-0.1908895,0.045568000000000004,0.1235035,0.21022049999999998,0.06481100000000001,0.12314750000000001,-0.0797315,-0.0036550000000000003,0.002857499999999999,0.0797315,0.0036550000000000003,-0.002857499999999999,-0.0974575,-0.458998,0.0433575,0.1213605,-0.460688,0.035334500000000005,-0.11137949999999999,-0.8333780000000001,0.0801245,0.14517049999999998,-0.835978,0.0649705
52,-0.038942,0.741654,-0.049638,-0.206307,0.48326399999999997,-0.023134000000000002,-0.231857,0.25906399999999996,0.065179,0.15085300000000001,0.493554,-0.04700499999999999,0.217733,0.277854,0.051818,-0.191067,0.045413,0.123143,0.210263,0.065194,0.123133,-0.079726,-0.003683,0.0028700000000000045,0.079726,0.003683,-0.0028699999999999976,-0.097455,-0.458996,0.043345,0.121423,-0.460726,0.035320000000000004,-0.11140699999999999,-0.833356,0.080168,0.145143,-0.8359559999999999,0.065084
53,-0.03923850000000001,0.7417785,-0.049654,-0.2064475,0.4831085,-0.023546000000000004,-0.2320475,0.2588585,0.06468499999999999,0.15081250000000002,0.4935985,-0.04713899999999999,0.2176925,0.27838850000000004,0.051793,-0.1912575,0.0452035,0.12265000000000001,0.2102225,0.0657315,0.123108,-0.0797265,-0.0037085,0.0028769999999999976,0.0797265,0.0037085,-0.0028769999999999976,-0.09746650000000001,-0.4589915,0.043308,0.1214625,-0.4608015,0.035292,-0.1114475,-0.8333415,0.080234,0.1450925,-0.8359415,0.06517
54,-0.0395185,0.7419089999999999,-0.049805,-0.20658849999999998,0.482949,-0.024175000000000002,-0.2322485,0.258539,0.064065,0.1507915,0.493649,-0.047344,0.21764150000000002,0.27908900000000003,0.051633,-0.1914585,0.044891,0.12203,0.2101715,0.066429,0.122948,-0.07973250000000001,-0.003728,0.002799999999999997,0.07973250000000001,0.003728,-0.002800000000000004,-0.09749050000000001,-0.458981,0.043147,0.12148150000000002,-0.46086099999999997,0.035129,-0.11151849999999999,-0.833341,0.080151,0.14504150000000002,-0.8359610000000001,0.065123
55,-0.039735000000000006,0.7419815000000001,-0.049979499999999996,-0.20673,0.48278150000000003,-0.024834499999999995,-0.23247,0.25816150000000004,0.0634325,0.15076,0.4936915,-0.0475255,0.21758,0.2797615,0.0514815,-0.19168,0.0445105,0.1213975,0.21011,0.06708950000000001,0.1227975,-0.079746,-0.0037435000000000003,0.0027024999999999966,0.079746,0.0037435000000000003,-0.0027025000000000035,-0.097542,-0.4589585,0.0429665,0.1215,-0.4608985,0.0349875,-0.1116,-0.8332685,0.0800555,0.145,-0.8359685,0.0650055
56,-0.0399615,0.742074,-0.05023849999999999,-0.2069505,0.482504,-0.025779499999999997,-0.2327805,0.257414,0.0625915,0.1507095,0.493724,-0.047759499999999996,0.2174895,0.28055399999999997,0.0515225,-0.1919905,0.043761,0.1205555,0.2100195,0.067879,0.1228385,-0.0797695,-0.003764,0.002538499999999999,0.0797695,0.003764,-0.002538499999999999,-0.09761149999999999,-0.458876,0.0427555,0.1214895,-0.460936,0.0348515,-0.1116905,-0.833276,0.0799065,0.1449695,-0.8359759999999999,0.0648475
57,-0.040198000000000005,0.742173,-0.050538999999999994,-0.207177,0.48218300000000003,-0.026871,-0.233107,0.256583,0.061724,0.150643,0.493763,-0.048006,0.217333,0.281443,0.051707,-0.19231700000000002,0.042939000000000005,0.11968799999999999,0.209863,0.06876700000000001,0.123025,-0.079797,-0.0037860000000000003,0.002357999999999999,0.079797,0.0037860000000000003,-0.002357999999999999,-0.09768399999999999,-0.458777,0.042547,0.12146299999999999,-0.460957,0.034742,-0.11180700000000002,-0.833217,0.07974400000000001,0.144953,-0.8359770000000001,0.064682
58,-0.040439,0.7422485,-0.05097550000000001,-0.20742100000000002,0.48178849999999995,-0.028139499999999998,-0.23345100000000002,0.25566849999999997,0.060427499999999995,0.150559,0.4938185,-0.0482105,0.21703899999999998,0.2825485,0.0521925,-0.192661,0.0420275,0.1183905,0.20956899999999998,0.0698735,0.1235115,-0.07982500000000001,-0.0038165,0.002099499999999997,0.07982500000000001,0.0038165,-0.002099499999999997,-0.09775600000000001,-0.4586615,0.0423295,0.12143899999999999,-0.46097150000000003,0.0347475,-0.11192099999999999,-0.8331715000000001,0.07957149999999999,0.14492899999999997,-0.8360215,0.0644235
59,-0.040669,0.7423080000000001,-0.051470499999999995,-0.207737,0.481278,-0.0295785,-0.233737,0.254698,0.0589885,0.150493,0.493868,-0.048278499999999995,0.216523,0.283778,0.052721500000000004,-0.192947,0.041061,0.11695050000000001,0.209053,0.07109900000000001,0.1240405,-0.079849,-0.0038650000000000004,0.0018164999999999987,0.079849,0.0038650000000000004,-0.0018164999999999987,-0.09782099999999999,-0.458552,0.0420885,0.121413,-0.461002,0.0347425,-0.11204700000000001,-0.8331219999999999,0.0794275,0.144923,-0.836092,0.0641715
60,-0.040896,0.7423230000000001,-0.052003999999999995,-0.208048,0.48085300000000003,-0.031134999999999996,-0.233968,0.253763,0.057447,0.150422,0.49391300000000005,-0.048319,0.21593199999999999,0.284913,0.053266,-0.193178,0.04012,0.115409,0.208462,0.072236,0.124586,-0.079878,-0.003909,0.0015140000000000015,0.079878,0.003909,-0.0015140000000000015,-0.097892,-0.458397,0.041835,0.121392,-0.461037,0.034738,-0.112178,-0.833077,0.07927000000000001,0.14491199999999999,-0.836197,0.06389500000000001
61,-0.041152,0.7423265,-0.052629499999999996,-0.208367,0.4805165,-0.032879500000000006,-0.234187,0.2528165,0.056931499999999996,0.150333,0.49396650000000003,-0.0483455,0.215123,0.2861765,0.0538615,-0.193407,0.0391735,0.1144945,0.20766300000000001,0.0734865,0.1251825,-0.079899,-0.0039415,0.0012225000000000014,0.079899,0.0039415,-0.0012225000000000014,-0.097955,-0.4582235,0.0415475,0.121363,-0.4610835,0.0347805,-0.112297,-0.8330535,0.0790665,0.144883,-0.8364035000000001,0.0635665
62,-0.0414005,0.7423204999999999,-0.0532565,-0.2086325,0.4802405,-0.0345655,-0.2343625,0.2519305,0.0566145,0.1501975,0.4940505,-0.048365500000000006,0.2151175,0.2861805,0.0545385,-0.1936125,0.0382915,0.1134545,0.2072075,0.0734905,0.12582749999999998,-0.0799175,-0.0039645,0.0009634999999999991,0.0799175,0.0039645,-0.0009634999999999991,-0.0979705,-0.4580295,0.041257499999999996,0.12136749999999999,-0.46112949999999997,0.0348505,-0.1123725,-0.8330395,0.0788285,0.1448775,-0.8366595,0.0632085
63,-0.041729,0.742329,-0.0539515,-0.208898,0.480119,-0.0358585,-0.234608,0.251149,0.0552585,0.14999200000000001,0.494159,-0.0483305,0.215082,0.286169,0.0544945,-0.193848,0.037517,0.1121805,0.207152,0.073479,0.1255575,-0.07992199999999999,-0.0040160000000000005,0.0007535000000000042,0.07992199999999999,0.0040160000000000005,-0.0007534999999999972,-0.09801400000000002,-0.457831,0.04101950000000001,0.12135200000000002,-0.461181,0.03494950000000001,-0.112478,-0.833041,0.0785595,0.144862,-0.836931,0.06291150000000001
64,-0.0420855,0.742339,-0.05431949999999999,-0.2091595,0.480099,-0.036739499999999994,-0.2354595,0.249589,0.053929500000000005,0.14945050000000001,0.494359,-0.048225500000000004,0.21504050000000002,0.286149,0.0542265,-0.19420949999999998,0.035918,0.1108835,0.20710050000000002,0.073459,0.1252895,-0.0799205,-0.004083,0.0005505000000000024,0.0799205,0.004083,-0.0005504999999999954,-0.09805049999999998,-0.457701,0.0407865,0.12133050000000001,-0.461281,0.0351035,-0.1125795,-0.833061,0.0782945,0.14485050000000002,-0.837241,0.0626275
65,-0.0424605,0.7423344999999999,-0.054626499999999995,-0.2093675,0.4800645,-0.037054500000000004,-0.2371875,0.24839450000000002,0.0525255,0.1488925,0.4945645,-0.04818449999999999,0.2150925,0.2853345,0.0539045,-0.1982075,0.0333945,0.10977150000000001,0.2070725,0.0724245,0.1249705,-0.0798995,-0.0041465,0.0003865000000000049,0.0798995,0.0041465,-0.00038649999999999796,-0.0980575,-0.4576255,0.0405075,0.12130250000000001,-0.4613255,0.0352035,-0.1126575,-0.8330855,0.0779635,0.1448525,-0.8375355000000001,0.062268500000000004
66,-0.042874,0.7423245,-0.05498599999999999,-0.209581,0.4800245,-0.037420999999999996,-0.244171,0.2483545,0.048806,0.148359,0.4947645,-0.048178,0.218149,0.2857245,0.05341800000000001,-0.209981,0.0333545,0.101162,0.214849,0.07054650000000001,0.120558,-0.079905,-0.0042125,0.0002380000000000021,0.079905,0.0042125,-0.00023799999999999516,-0.098051,-0.4576655,0.040169,0.121309,-0.4613555,0.035243000000000003,-0.112711,-0.8331054999999999,0.077544,0.144889,-0.8378654999999999,0.061875
67,-0.043404500000000006,0.7423185,-0.055301,-0.2097735,0.4801685,-0.037749000000000005,-0.2531835,0.2482985,0.042676,0.1478365,0.4949585,-0.048183000000000004,0.2261565,0.28698850000000004,0.048765,-0.2282435,0.0332985,0.086844,0.2294765,0.07180550000000001,0.110536,-0.0799085,-0.0042685,0.0001490000000000033,0.0799085,0.0042685,-0.00014899999999999636,-0.09805849999999999,-0.4576415,0.039894,0.12130650000000001,-0.4614115,0.035232,-0.1127535,-0.8330715000000001,0.077183,0.1449065,-0.8381715000000001,0.061520000000000005
68,-0.0439505,0.742487,-0.054947499999999996,-0.2098965,0.48063700000000004,-0.0381165,-0.2648465,0.248237,0.0335335,0.1472635,0.495217,-0.0483025,0.2356135,0.288187,0.0415065,-0.25155649999999996,0.033237,0.0648925,0.25115350000000003,0.073001,0.0925875,-0.0798975,-0.00433,0.00014050000000000173,0.0798975,0.00433,-0.0001404999999999948,-0.0980625,-0.45764299999999997,0.03962450000000001,0.12131349999999999,-0.46147299999999997,0.035209500000000005,-0.1127765,-0.833043,0.0768005,0.1449335,-0.838363,0.061118500000000006
69,-0.04427299999999999,0.742706,-0.053836999999999996,-0.20987899999999998,0.481326,-0.03812399999999999,-0.277719,0.250956,0.021886000000000006,0.14672100000000002,0.495596,-0.0484,0.247211,0.289356,0.029933000000000008,-0.27958900000000003,0.035198,0.03563100000000001,0.27713099999999996,0.074173,0.06584400000000001,-0.07985400000000001,-0.004399,0.00017000000000000348,0.07985400000000001,0.004399,-0.00016999999999999654,-0.09804399999999999,-0.45768400000000004,0.03936800000000001,0.12132100000000001,-0.46146400000000004,0.035169000000000006,-0.112759,-0.833024,0.07638500000000001,0.144981,-0.838474,0.06066300000000001
70,-0.044343999999999995,0.743387,-0.0514965,-0.209748,0.482257,-0.037624500000000005,-0.291478,0.256137,0.008695500000000002,0.146362,0.496127,-0.04819949999999999,0.259192,0.292547,0.0162975,-0.311008,0.045577000000000006,0.0015795000000000045,0.305542,0.080032,0.031134500000000002,-0.079804,-0.00447,0.00022950000000000054,0.079804,0.00447,-0.00022950000000000054,-0.09794599999999999,-0.457803,0.0390965,0.121372,-0.461403,0.0350135,-0.11266799999999999,-0.833093,0.0759155,0.14507199999999998,-0.838603,0.060187500000000005
71,-0.04417449999999999,0.7440964999999999,-0.048632,-0.20951749999999997,0.4834765,-0.036742000000000004,-0.3067175,0.2655165,-0.006471999999999999,0.1463425,0.4967565,-0.047760000000000004,0.27172250000000003,0.2982165,0.0009149999999999991,-0.34499749999999996,0.0645305,-0.036456999999999996,0.33434250000000004,0.0961895,-0.008530999999999997,-0.0797355,-0.0045325,0.00026600000000000235,0.0797355,0.0045325,-0.00026600000000000235,-0.09776449999999999,-0.4579435,0.038738,0.12151250000000001,-0.46131350000000004,0.034723000000000004,-0.11248749999999999,-0.8331835000000001,0.075256,0.14526250000000002,-0.8388235,0.059554
72,-0.0436895,0.7448305000000001,-0.04443249999999999,-0.2091075,0.4849205,-0.0352535,-0.32492750000000004,0.2820105,-0.025235499999999994,0.14671250000000002,0.4976505,-0.0467735,0.28636249999999996,0.3113605,-0.018445499999999997,-0.3834175,0.0991385,-0.08164849999999998,0.36479249999999996,0.12758049999999999,-0.05633849999999999,-0.0796615,-0.0045495,0.0003125000000000003,0.0796615,0.0045495,-0.0003125000000000003,-0.0975765,-0.4582595,0.0382955,0.12171249999999999,-0.4612795,0.0342565,-0.1121875,-0.8333695,0.0743695,0.14555249999999997,-0.8391995,0.0586725
73,-0.043123,0.7456550000000001,-0.039723499999999995,-0.208626,0.486375,-0.0333045,-0.343256,0.301875,-0.04400949999999999,0.147144,0.49865499999999996,-0.04551949999999999,0.302014,0.328385,-0.0399615,-0.422786,0.141345,-0.12788549999999999,0.392714,0.16673500000000002,-0.10709549999999998,-0.079593,-0.004523,0.0003845000000000029,0.079593,0.004523,-0.00038449999999999596,-0.0974,-0.45866500000000004,0.0378645,0.12190400000000001,-0.461305,0.033730500000000004,-0.111836,-0.833635,0.07343150000000001,0.145914,-0.8396349999999999,0.057758500000000004
74,-0.0424395,0.746509,-0.03447750000000001,-0.2079415,0.48808900000000005,-0.03100850000000001,-0.3611615,0.32411900000000005,-0.0628095,0.1476985,0.49972900000000003,-0.04399750000000001,0.3177485,0.34957900000000003,-0.06458950000000001,-0.4580615,0.19250899999999999,-0.1740065,0.4190985,0.215039,-0.1609965,-0.07953450000000001,-0.0044469999999999996,0.0004014999999999991,0.07953450000000001,0.0044469999999999996,-0.000401500000000006,-0.09716449999999999,-0.459231,0.037606499999999994,0.12213850000000001,-0.46142099999999997,0.0334065,-0.1113915,-0.8340110000000001,0.0726405,0.1463785,-0.840111,0.0569635
75,-0.041368999999999996,0.747459,-0.0283625,-0.206811,0.49012900000000004,-0.0287575,-0.37566099999999997,0.353109,-0.0790845,0.148929,0.501699,-0.0421355,0.331249,0.374549,-0.08867449999999999,-0.484021,0.258709,-0.20826450000000002,0.434479,0.279499,-0.20640450000000002,-0.079482,-0.004246,0.00036850000000000077,0.079482,0.004246,-0.00036850000000000077,-0.09679399999999999,-0.460011,0.0375875,0.122529,-0.46225099999999997,0.033335500000000004,-0.110731,-0.8346210000000001,0.07201350000000001,0.14699900000000002,-0.8409810000000001,0.0563375
76,-0.040136500000000006,0.7481975000000001,-0.022472,-0.2055195,0.4922075,-0.026994999999999998,-0.38752949999999997,0.3884075,-0.09245999999999999,0.1506405,0.5037675,-0.04026,0.3388305,0.4053775,-0.1084,-0.5022495,0.3331875,-0.23432,0.4417805,0.3496175,-0.24383000000000002,-0.07942250000000001,-0.0040195000000000005,0.00034500000000000156,0.07942250000000001,0.0040195000000000005,-0.0003449999999999981,-0.09640850000000001,-0.4609625,0.037617000000000005,0.12292050000000002,-0.4633625,0.033362,-0.1100295,-0.8354825,0.07141900000000001,0.1476405,-0.8420124999999999,0.055752
77,-0.038765,0.7485769999999999,-0.017170499999999998,-0.20409,0.49450700000000003,-0.025576499999999995,-0.39649,0.425037,-0.1022835,0.15245999999999998,0.5058269999999999,-0.0382375,0.34454999999999997,0.44090700000000005,-0.1251235,-0.51426,0.413737,-0.2503835,0.4416,0.429337,-0.27063349999999997,-0.07935800000000001,-0.0037600000000000003,0.0003135000000000013,0.07935800000000001,0.0037599999999999995,-0.0003135000000000013,-0.096002,-0.462063,0.0377465,0.12336,-0.464783,0.0334485,-0.10927,-0.836613,0.07090650000000001,0.14831,-0.843323,0.0552155
78,-0.037147999999999994,0.748695,-0.012462500000000001,-0.20262799999999997,0.497035,-0.024309499999999998,-0.401158,0.462535,-0.1074395,0.15455200000000002,0.508495,-0.0362685,0.34506200000000004,0.480605,-0.1347895,-0.5204080000000001,0.49904499999999996,-0.25725950000000003,0.44186200000000003,0.519635,-0.28728950000000003,-0.07928299999999999,-0.0034779999999999998,0.0002944999999999996,0.07928299999999999,0.0034779999999999993,-0.0002944999999999996,-0.09554599999999999,-0.463555,0.0379525,0.12376200000000001,-0.46665500000000004,0.0338005,-0.10844799999999999,-0.838195,0.0706405,0.14900200000000002,-0.845055,0.054857500000000003
79,-0.0354455,0.7482715,-0.008952500000000002,-0.2012435,0.4995115,-0.0233125,-0.40473349999999997,0.49960150000000003,-0.11056750000000001,0.1566765,0.5111614999999999,-0.0346755,0.3456365,0.5190115,-0.1423175,-0.5222235,0.5781315,-0.2574775,0.4424665,0.6024615,-0.2939975,-0.0791905,-0.003179500000000001,0.00027249999999999844,0.0791905,0.0031795,-0.0002725000000000019,-0.0951055,-0.4650785,0.038223499999999994,0.12414649999999999,-0.46861850000000005,0.034242499999999995,-0.1076835,-0.8398685,0.0704485,0.1496665,-0.8468985,0.0545625
80,-0.0337355,0.7477130000000001,-0.006033500000000004,-0.1999885,0.501823,-0.0224525,-0.4062785,0.533493,-0.11078249999999999,0.15891149999999998,0.5140330000000001,-0.033409499999999995,0.3462215,0.555803,-0.14770250000000001,-0.5214385,0.650323,-0.2575725,0.4421815,0.6761830000000001,-0.2940525,-0.0790955,-0.002906999999999999,0.0003125000000000003,0.0790955,0.002907,-0.0003125000000000003,-0.09470550000000001,-0.466667,0.0386735,0.1244715,-0.47069700000000003,0.0348415,-0.10695850000000001,-0.841567,0.0703555,0.1502715,-0.848907,0.0544915
81,-0.0323455,0.7470530000000001,-0.004603999999999997,-0.19899050000000001,0.504023,-0.022113,-0.4056005,0.563473,-0.11080799999999999,0.16112949999999998,0.516923,-0.032878000000000004,0.34678950000000003,0.586983,-0.148968,-0.5207605,0.708933,-0.257598,0.43609950000000003,0.735483,-0.293838,-0.07898949999999999,-0.0026750000000000003,0.00031000000000000125,0.07898949999999999,0.0026750000000000003,-0.0003099999999999978,-0.0943155,-0.468047,0.039061,0.12471949999999998,-0.47280700000000003,0.03544,-0.1063405,-0.8433069999999999,0.070332,0.15074949999999998,-0.850837,0.054465
82,-0.031195999999999998,0.7462154999999999,-0.0037599999999999995,-0.198164,0.5062455,-0.021968,-0.404974,0.5902855,-0.11083099999999999,0.163196,0.5198554999999999,-0.032722999999999995,0.34688599999999997,0.6148055,-0.148971,-0.520134,0.7605155,-0.257621,0.425796,0.7879855,-0.29346099999999997,-0.07888500000000001,-0.0024704999999999987,0.00030599999999999725,0.07888500000000001,0.0024705000000000005,-0.0003060000000000007,-0.093938,-0.4694045,0.039401,0.124976,-0.4749845,0.035963999999999996,-0.105794,-0.8450245000000001,0.070312,0.151166,-0.8527645,0.054418999999999995
83,-0.030257000000000003,0.745349,-0.0033270000000000036,-0.197525,0.508259,-0.021816000000000002,-0.40441499999999997,0.615209,-0.11085099999999999,0.165035,0.522889,-0.032684000000000005,0.346005,0.640849,-0.14893099999999998,-0.517325,0.803749,-0.250741,0.414065,0.836489,-0.29291100000000003,-0.078754,-0.0023099999999999996,0.0003009999999999992,0.078754,0.0023099999999999996,-0.0003009999999999992,-0.093618,-0.47075100000000003,0.039703,0.125205,-0.47730100000000003,0.036426,-0.105375,-0.8467509999999999,0.070313,0.151525,-0.854721,0.054402
84,-0.0298385,0.744416,-0.0031614999999999976,-0.1971455,0.509846,-0.021437499999999998,-0.4030655,0.6338159999999999,-0.10696449999999999,0.1659945,0.5250859999999999,-0.032516500000000004,0.3424945,0.663706,-0.1486245,-0.5092955,0.832476,-0.23524450000000002,0.4000245,0.869566,-0.2828245,-0.0786125,-0.0022830000000000003,0.00034149999999999806,0.0786125,0.0022830000000000003,-0.0003415000000000015,-0.09341550000000001,-0.471934,0.0401055,0.12530449999999999,-0.479374,0.0369625,-0.1051655,-0.848284,0.0704735,0.1517445,-0.856374,0.0545365
85,-0.0295195,0.743784,-0.0029124999999999984,-0.1968265,0.511124,-0.020964500000000004,-0.4007465,0.647514,-0.10210549999999999,0.1667235,0.527254,-0.032157500000000006,0.3375535,0.681854,-0.1465655,-0.4992165,0.854704,-0.2175155,0.3879735,0.898064,-0.2679855,-0.0784695,-0.0022980000000000014,0.00038649999999999796,0.0784695,0.0022980000000000014,-0.0003865000000000014,-0.0932355,-0.472886,0.040542499999999995,0.1254035,-0.481406,0.037511499999999996,-0.1049765,-0.849616,0.0707235,0.15192350000000002,-0.857846,0.0547545
86,-0.029264500000000002,0.7433329999999999,-0.002598000000000003,-0.1965635,0.511953,-0.020492000000000003,-0.3978135,0.6609729999999999,-0.09719900000000001,0.1672265,0.5293629999999999,-0.031713000000000005,0.3314665,0.6979329999999999,-0.141249,-0.4891435,0.872483,-0.199709,0.3764865,0.922233,-0.24891899999999997,-0.0783195,-0.0023619999999999995,0.000501999999999999,0.0783195,0.0023619999999999995,-0.0005020000000000024,-0.09310550000000001,-0.47368699999999997,0.040923,0.1254365,-0.483297,0.038048,-0.1048235,-0.8507370000000001,0.07097,0.1520665,-0.858977,0.054995
87,-0.0291015,0.7430015,-0.002488500000000001,-0.1966395,0.5124815,-0.0203265,-0.3927795,0.6695814999999999,-0.0923925,0.1673905,0.5307215,-0.03154849999999999,0.3246505,0.7089615,-0.1354025,-0.48016949999999997,0.8813215,-0.1858125,0.3678205,0.9377815,-0.23328249999999998,-0.07820150000000001,-0.0024395000000000007,0.0006295000000000016,0.07820150000000001,0.0024395000000000007,-0.0006295000000000016,-0.09303349999999999,-0.4741085,0.0411865,0.1255105,-0.48441850000000003,0.0382995,-0.10467950000000001,-0.8513985000000001,0.0711495,0.1521405,-0.8597685,0.055140499999999995
88,-0.029028500000000002,0.7427075000000001,-0.002438500000000003,-0.1968725,0.5129075000000001,-0.020257500000000005,-0.3882325,0.6761975,-0.0876565,0.1675275,0.5320775000000001,-0.0314895,0.3186975,0.7179875,-0.1292665,-0.4722625,0.8880875,-0.1743065,0.3602975,0.9515075000000001,-0.2198765,-0.0781075,-0.0025325,0.0006874999999999971,0.0781075,0.0025325,-0.0006875000000000006,-0.09297849999999999,-0.47443250000000003,0.041346499999999994,0.1255675,-0.4853525,0.0384505,-0.1045625,-0.8520025,0.0712385,0.1521975,-0.8604725,0.05523449999999999
89,-0.029146499999999995,0.7425345000000001,-0.002415500000000001,-0.1972585,0.5133544999999999,-0.019993499999999997,-0.3836985,0.6818445,-0.08323049999999999,0.1676515,0.5332645,-0.0314375,0.31310150000000003,0.7260745,-0.1234005,-0.4650185,0.8934044999999999,-0.1649805,0.3538315,0.9636745,-0.20854050000000002,-0.0780265,-0.002597499999999999,0.0007345000000000025,0.0780265,0.0025975000000000026,-0.000734499999999999,-0.0929245,-0.4746255,0.0415075,0.1256315,-0.4861355,0.0385845,-0.1044485,-0.8524955000000001,0.07132050000000001,0.1522215,-0.8610755000000001,0.0553015
90,-0.029416499999999998,0.7424284999999999,-0.002541500000000002,-0.19762249999999998,0.5136784999999999,-0.019736499999999997,-0.3820425,0.6845585,-0.08076449999999999,0.1677475,0.5342285,-0.031301499999999996,0.31065750000000003,0.7323385,-0.1203245,-0.4585825,0.8968085,-0.1575045,0.3481675,0.9749184999999999,-0.1988545,-0.0779685,-0.002649499999999999,0.0007425000000000001,0.0779685,0.0026495000000000025,-0.0007425000000000001,-0.0928835,-0.4747615,0.0416155,0.1256875,-0.4868115,0.0386445,-0.1043425,-0.8527415,0.0713295,0.1522575,-0.8615615000000001,0.055289500000000005
91,-0.0297635,0.742328,-0.0026045000000000026,-0.1979225,0.513888,-0.0193525,-0.3804725,0.687068,-0.0785935,0.1676675,0.534868,-0.031128500000000003,0.3083075,0.737828,-0.1173635,-0.4527125,0.8997080000000001,-0.15173350000000002,0.3435575,0.9849180000000001,-0.1913935,-0.0779055,-0.0027089999999999996,0.0008155000000000003,0.0779055,0.0027089999999999996,-0.0008155000000000037,-0.0928285,-0.47490200000000005,0.0417425,0.1257375,-0.48749200000000004,0.0387145,-0.1042525,-0.852892,0.0713365,0.1522775,-0.862072,0.0552135
92,-0.030165499999999998,0.742244,-0.0026650000000000007,-0.19823949999999999,0.514034,-0.018914,-0.3794495,0.689144,-0.077491,0.1674305,0.535374,-0.030976000000000004,0.3063805,0.740634,-0.11472099999999999,-0.4488995,0.902044,-0.149071,0.3403805,0.9893839999999999,-0.185781,-0.0778655,-0.0027609999999999996,0.0008899999999999984,0.0778655,0.0027609999999999996,-0.0008900000000000019,-0.09280749999999999,-0.47495600000000004,0.041902999999999996,0.12575050000000002,-0.48805600000000005,0.038828,-0.1041995,-0.853046,0.071338,0.15226050000000002,-0.862396,0.055194999999999994
93,-0.030579500000000006,0.7421234999999999,-0.0028115000000000015,-0.1985175,0.5141334999999999,-0.0185665,-0.3785875,0.6912735,-0.07707449999999999,0.1670725,0.5356635,-0.030816499999999997,0.30474249999999997,0.7425735,-0.1125845,-0.4457375,0.9040435,-0.14812450000000002,0.3374425,0.9927535,-0.1817245,-0.0778335,-0.002794500000000002,0.0009984999999999994,0.0778335,0.0027944999999999984,-0.0009984999999999994,-0.09278750000000001,-0.4750165,0.0420445,0.12573249999999997,-0.4886365,0.0389035,-0.1041575,-0.8532465,0.0712695,0.15222249999999998,-0.8627265000000001,0.0550635
94,-0.030926000000000002,0.7419035,-0.0031879999999999964,-0.19872299999999998,0.5143035,-0.018463,-0.37788299999999997,0.6931735,-0.07749700000000001,0.16674699999999998,0.5359235,-0.030786,0.303607,0.7432535,-0.11154700000000001,-0.443283,0.9052035,-0.148617,0.335217,0.9949735,-0.179787,-0.077818,-0.0028245000000000006,0.0011329999999999986,0.077818,0.0028245000000000006,-0.001133000000000002,-0.092734,-0.4752065,0.042116,0.125747,-0.48912649999999996,0.038762,-0.104113,-0.8534364999999999,0.071018,0.15220699999999998,-0.8630365,0.054728
95,-0.0312805,0.7416815000000001,-0.003636500000000001,-0.1989825,0.5145915000000001,-0.0186155,-0.3772625,0.6945515,-0.0780875,0.16631749999999998,0.5361615,-0.0308275,0.30259749999999996,0.7432615,-0.1109775,-0.4408725,0.9063315000000001,-0.1492775,0.3333975,0.9946815,-0.1791075,-0.0778105,-0.002841499999999997,0.0012464999999999976,0.0778105,0.0028415000000000003,-0.001246500000000001,-0.0927305,-0.4754985,0.0420015,0.12568749999999998,-0.4895485,0.0381935,-0.1040825,-0.8537284999999999,0.07069149999999999,0.15210749999999998,-0.8633685,0.0542215
96,-0.03152,0.741411,-0.004207500000000003,-0.199165,0.514771,-0.018916500000000003,-0.376725,0.696091,-0.07873150000000001,0.165875,0.536451,-0.0309865,0.301665,0.742991,-0.11079149999999999,-0.43866499999999997,0.907361,-0.1499815,0.331525,0.9944109999999999,-0.17867149999999998,-0.07780799999999999,-0.0028719999999999996,0.0013454999999999995,0.07780799999999999,0.002872000000000003,-0.0013454999999999995,-0.09276400000000001,-0.475769,0.0416775,0.125585,-0.489949,0.037573499999999996,-0.104045,-0.853929,0.0702585,0.15198499999999998,-0.863659,0.0536765
97,-0.0316745,0.7412105,-0.005095499999999996,-0.19927650000000002,0.5149104999999999,-0.0196145,-0.3761665,0.6978205,-0.07987849999999999,0.1655335,0.5363505,-0.0316775,0.3008735,0.7428104999999999,-0.11131850000000001,-0.43634649999999997,0.9085805,-0.1509985,0.32959350000000004,0.9942304999999999,-0.1788085,-0.0778145,-0.0029184999999999975,0.001521500000000002,0.0778145,0.002918500000000001,-0.0015214999999999985,-0.0928375,-0.47594949999999997,0.040752500000000004,0.1254135,-0.4902995,0.036651500000000004,-0.1040665,-0.8541095000000001,0.06940450000000001,0.15185349999999997,-0.8638695000000001,0.0528435
98,-0.031696,0.7410825,-0.006161999999999997,-0.199298,0.5149425,-0.020681,-0.375678,0.6993024999999999,-0.081415,0.165302,0.5362625,-0.032737,0.300362,0.7427225,-0.11236499999999999,-0.434238,0.9098125,-0.152565,0.328202,0.9925424999999999,-0.179825,-0.077825,-0.0029525000000000003,0.0016889999999999995,0.077825,0.0029525000000000003,-0.0016889999999999995,-0.09290799999999999,-0.4760475,0.039688,0.125162,-0.4905875,0.035364,-0.10408800000000001,-0.8541975,0.068382,0.151722,-0.8639975,0.051847000000000004
99,-0.031743,0.7410625,-0.007454499999999996,-0.199345,0.5149425,-0.0219735,-0.375275,0.7006125,-0.0834375,0.165145,0.5362625,-0.0340255,0.30006499999999997,0.7422425,-0.11364750000000001,-0.432155,0.9107425,-0.1548475,0.326995,0.9917425,-0.1810775,-0.07782,-0.0029525000000000003,0.0018355000000000003,0.07782,0.0029525000000000003,-0.0018354999999999969,-0.093005,-0.4761375,0.0383955,0.12466500000000001,-0.4905875,0.0329565,-0.104135,-0.8541975,0.0670895,0.15153499999999998,-0.8641075,0.0505595
100,-0.0317985,0.7408925,-0.008725499999999997,-0.1994005,0.5149425,-0.0232445,-0.3749005,0.7004025,-0.0856485,0.1650295,0.5362625,-0.0352945,0.3000095,0.7412025,-0.1149185,-0.4301605,0.9107725,-0.1572885,0.3259495,0.9907425000000001,-0.1823085,-0.0778245,-0.0029525000000000003,0.001964500000000001,0.0778245,0.0029525000000000003,-0.001964500000000001,-0.0931815,-0.4764175,0.0366735,0.1242295,-0.4905775,0.0290965,-0.10415050000000001,-0.8542975,0.0658165,0.1512795,-0.8642675,0.0492965
101,-0.031840999999999994,0.7405225,-0.010205000000000002,-0.19930799999999999,0.5149425,-0.024652999999999998,-0.374438,0.7002925,-0.08824,0.164862,0.5359825,-0.036687,0.299932,0.7397125,-0.11631000000000001,-0.428058,0.9107725,-0.15983999999999998,0.324922,0.9896425,-0.18381999999999998,-0.077846,-0.0029525000000000003,0.0021070000000000012,0.077846,0.0029525000000000003,-0.0021070000000000012,-0.09380999999999999,-0.4769875,0.033125,0.12390200000000001,-0.4905775,0.02398,-0.104198,-0.8544475,0.064424,0.15101199999999998,-0.8644675,0.04791
102,-0.031823500000000005,0.739904,-0.011739500000000003,-0.1991005,0.5147740000000001,-0.0262495,-0.3737905,0.700304,-0.0907695,0.1646595,0.535464,-0.038323499999999996,0.29976949999999997,0.736484,-0.11803949999999999,-0.4256905,0.910834,-0.16265949999999998,0.3238695,0.988004,-0.1855495,-0.0779115,-0.0029840000000000005,0.002264499999999999,0.0779115,0.0029840000000000005,-0.002264499999999999,-0.0948205,-0.477416,0.0280515,0.1235695,-0.490396,0.0176935,-0.1044205,-0.855306,0.0626115,0.1507595,-0.864606,0.0465035
103,-0.03171500000000001,0.738811,-0.014116000000000004,-0.198741,0.5144610000000001,-0.028470000000000002,-0.372641,0.701011,-0.094019,0.164299,0.534041,-0.041144,0.299409,0.732591,-0.12095900000000001,-0.423051,0.911621,-0.16597900000000002,0.322519,0.982491,-0.188599,-0.07802100000000001,-0.003013000000000002,0.002527999999999999,0.07802100000000001,0.0030129999999999983,-0.0025280000000000025,-0.09629000000000001,-0.476929,0.020932,0.122999,-0.489369,0.009014999999999997,-0.10481100000000002,-0.855649,0.060038999999999995,0.15039899999999998,-0.8640289999999999,0.044525999999999996
104,-0.031573500000000004,0.737533,-0.016909499999999997,-0.1984515,0.513943,-0.0309845,-0.3713515,0.701613,-0.0974055,0.1638285,0.532043,-0.0446275,0.2991785,0.7286630000000001,-0.1245055,-0.4203115,0.912933,-0.1696055,0.32128850000000003,0.977623,-0.1920255,-0.0781685,-0.0030230000000000014,0.0027875,0.0781685,0.0030230000000000014,-0.0027874999999999983,-0.0979795,-0.47591700000000003,0.012632500000000001,0.12230849999999999,-0.487877,-0.0010424999999999983,-0.10530149999999999,-0.8553069999999999,0.05697050000000001,0.1499685,-0.862807,0.0420615
105,-0.03140699999999999,0.7358355,-0.019936000000000002,-0.198239,0.5131755,-0.033729,-0.370089,0.7006455,-0.101224,0.163271,0.5301155000000001,-0.048312999999999995,0.29903100000000005,0.7241255,-0.128554,-0.41745899999999997,0.9144755,-0.173464,0.319991,0.9731955,-0.195664,-0.07833899999999999,-0.003057500000000001,0.003063999999999999,0.07833899999999999,0.0030574999999999977,-0.0030640000000000008,-0.100025,-0.47456450000000006,0.0030289999999999987,0.12149100000000002,-0.4860945,-0.012609000000000002,-0.10591899999999999,-0.8544845,0.053508,0.149441,-0.8611345,0.039313
106,-0.0312745,0.7339154999999999,-0.0230735,-0.1979875,0.5117754999999999,-0.0365925,-0.3689275,0.6997855,-0.10510649999999999,0.1625925,0.5279754999999999,-0.0520365,0.2989325,0.7198355,-0.1328765,-0.4144875,0.9166354999999999,-0.1775065,0.3186425,0.9695954999999999,-0.19949650000000002,-0.07854749999999999,-0.0030825,0.0032945000000000006,0.07854749999999999,0.0030824999999999984,-0.003294499999999999,-0.10240450000000001,-0.4723945,-0.0076945,0.12069250000000001,-0.48347450000000003,-0.0251425,-0.1066675,-0.8528345,0.0496805,0.1487325,-0.8587545,0.0363115
107,-0.031181499999999997,0.7319104999999999,-0.0263615,-0.1976305,0.5105605,-0.0395925,-0.36786050000000003,0.6985505,-0.1091585,0.1618995,0.5257805,-0.05586350000000001,0.29883950000000004,0.7158104999999999,-0.1373985,-0.4115105,0.9190805,-0.1818085,0.3171695,0.9666905,-0.2035485,-0.0787895,-0.0030445000000000003,0.0034764999999999987,0.0787895,0.003044500000000002,-0.0034765000000000004,-0.1052005,-0.4694095,-0.0194095,0.11992950000000001,-0.4800595,-0.03794550000000001,-0.1075405,-0.8503895,0.045525499999999997,0.1478995,-0.8555495000000001,0.0330825
108,-0.0310995,0.7298005,-0.029343,-0.19713050000000001,0.5092405,-0.042624999999999996,-0.3667205,0.6967405,-0.11329,0.1612395,0.5233905,-0.05960699999999999,0.2988095,0.7123204999999999,-0.14176,-0.40858049999999996,0.9220204999999999,-0.18608000000000002,0.3156495,0.9647205,-0.20753,-0.0790525,-0.0029855000000000003,0.003718000000000001,0.0790525,0.0029855000000000003,-0.003717999999999999,-0.10832049999999999,-0.4655795,-0.031828,0.11927950000000001,-0.4758695,-0.050471,-0.10849049999999999,-0.8471295000000001,0.041024,0.1470195,-0.8513895,0.029778
109,-0.031144999999999996,0.727296,-0.032161,-0.19675700000000002,0.507916,-0.045711,-0.36554699999999996,0.694216,-0.11744,0.160513,0.521076,-0.063238,0.29874300000000004,0.708276,-0.14589,-0.405557,0.9246260000000001,-0.19049,0.313883,0.963236,-0.2113,-0.07930999999999999,-0.002915,0.003915000000000001,0.07930999999999999,0.002915,-0.003915,-0.11177699999999999,-0.461374,-0.044415,0.11871300000000001,-0.471144,-0.062200000000000005,-0.109627,-0.8433539999999999,0.036255,0.146013,-0.846814,0.026225
110,-0.031181999999999998,0.7247669999999999,-0.0347185,-0.19652699999999998,0.5066769999999999,-0.0486165,-0.364317,0.691727,-0.12146850000000001,0.159803,0.519057,-0.0666155,0.29862299999999997,0.704757,-0.14966849999999998,-0.40237700000000004,0.927557,-0.1948585,0.311963,0.9624069999999999,-0.2146085,-0.079575,-0.0028770000000000002,0.0041355,0.079575,0.0028770000000000002,-0.0041355,-0.11493700000000001,-0.456323,-0.0558815,0.118333,-0.465503,-0.0732275,-0.11085700000000001,-0.8386830000000001,0.0314195,0.14500300000000002,-0.8414330000000001,0.022706499999999998
111,-0.0312505,0.7222675,-0.037247999999999996,-0.19637949999999998,0.5051775000000001,-0.051469999999999995,-0.3633195,0.6896675,-0.125604,0.1590905,0.5171375,-0.069777,0.2984305,0.7028274999999999,-0.153174,-0.39924950000000003,0.9305775,-0.199354,0.3099805,0.9620375,-0.21746400000000002,-0.07981150000000001,-0.002824499999999999,0.0043879999999999995,0.07981150000000001,0.0028245000000000006,-0.0043879999999999995,-0.1179395,-0.4506125,-0.06653200000000001,0.11839050000000001,-0.4592125,-0.08376800000000001,-0.11223949999999999,-0.8327825,0.026563999999999997,0.1440205,-0.8355525,0.019107
112,-0.0314955,0.720372,-0.039535,-0.1964815,0.503742,-0.053874,-0.3629015,0.688052,-0.12918400000000002,0.1584185,0.516242,-0.072104,0.2981885,0.701182,-0.155504,-0.3963915,0.9338219999999999,-0.203544,0.3080185,0.965762,-0.219504,-0.0799445,-0.0028059999999999995,0.004506,0.0799445,0.002806000000000001,-0.004506,-0.1208515,-0.44466799999999995,-0.075956,0.11855850000000001,-0.45282799999999995,-0.092546,-0.1136515,-0.8264980000000001,0.021959,0.1430885,-0.829518,0.015848
113,-0.03188,0.7182270000000001,-0.041707,-0.196643,0.502177,-0.056051,-0.362433,0.685997,-0.13250499999999998,0.157687,0.516007,-0.07428000000000001,0.297857,0.6993670000000001,-0.157375,-0.393863,0.936817,-0.20729499999999998,0.305977,0.9691770000000001,-0.221275,-0.079991,-0.0028509999999999994,0.004659,0.079991,0.0028509999999999994,-0.004659,-0.123893,-0.438633,-0.08476600000000001,0.11868699999999999,-0.44660299999999997,-0.100452,-0.11533299999999999,-0.820063,0.017576,0.142117,-0.8235629999999999,0.012864999999999998
114,-0.0322795,0.7163664999999999,-0.0436775,-0.1967505,0.5009365,-0.0581445,-0.3620205,0.6850765,-0.1354445,0.15699950000000001,0.5153464999999999,-0.0762965,0.2974595,0.6984064999999999,-0.15924449999999998,-0.39117050000000003,0.9395365,-0.2108045,0.3040795,0.9724364999999999,-0.2229145,-0.0800095,-0.002848499999999997,0.004713500000000001,0.0800095,0.0028485000000000003,-0.004713500000000001,-0.1268105,-0.4320635,-0.09288550000000001,0.1188695,-0.4402435,-0.10719450000000001,-0.1172105,-0.8135435000000001,0.013364500000000001,0.14118950000000002,-0.8171035000000001,0.0099965
115,-0.0326385,0.7149045,-0.045404,-0.1968605,0.4998345,-0.060163999999999995,-0.3614305,0.6833845000000001,-0.13833,0.1564595,0.5143245,-0.078118,0.29714949999999996,0.6958345,-0.16121,-0.38793049999999996,0.9368045,-0.21385,0.3025095,0.9749145,-0.22352,-0.0799945,-0.002874499999999995,0.004683,0.0799945,0.002874500000000002,-0.0046830000000000005,-0.1297005,-0.42521549999999997,-0.10057100000000001,0.11911949999999999,-0.43353549999999996,-0.11373,-0.1187905,-0.8065654999999999,0.009483,0.1402795,-0.8101355,0.007117
116,-0.032891000000000004,0.7133750000000001,-0.0469035,-0.196936,0.498245,-0.0621825,-0.360516,0.680235,-0.1410715,0.156044,0.512785,-0.07962749999999999,0.297124,0.693465,-0.16296149999999998,-0.384846,0.934135,-0.21644149999999998,0.301144,0.9769450000000001,-0.2237815,-0.079968,-0.0028859999999999997,0.0046914999999999995,0.079968,0.0028859999999999997,-0.0046914999999999995,-0.132226,-0.418845,-0.10753149999999999,0.119444,-0.426655,-0.1199715,-0.120296,-0.7995249999999999,0.0058355,0.139464,-0.803175,0.004425500000000001
117,-0.033140499999999996,0.711673,-0.048215999999999995,-0.1971775,0.496503,-0.064095,-0.3596975,0.6777329999999999,-0.14354,0.1555725,0.511513,-0.08090699999999999,0.2971425,0.6910029999999999,-0.16439,-0.3817675,0.930963,-0.21872,0.30058250000000003,0.9783529999999999,-0.22490000000000002,-0.0799025,-0.002902000000000002,0.004713,0.0799025,0.002902000000000002,-0.004713,-0.13465749999999999,-0.412857,-0.11376,0.1197625,-0.420047,-0.12601,-0.1217075,-0.7925270000000001,0.0027550000000000005,0.1385825,-0.796647,0.0018460000000000004
118,-0.033299499999999996,0.71033,-0.04922,-0.1973675,0.49486,-0.065793,-0.35893749999999996,0.67594,-0.146053,0.1552125,0.51006,-0.082173,0.2973525,0.6891299999999999,-0.165473,-0.3788775,0.92804,-0.220603,0.30010250000000005,0.9793,-0.225773,-0.07982149999999999,-0.0028950000000000017,0.004750000000000001,0.07982149999999999,0.0028950000000000017,-0.00475,-0.1368575,-0.40668,-0.119263,0.12014249999999999,-0.4135,-0.131583,-0.1229275,-0.78637,5.400000000000023e-05,0.1377825,-0.79005,-0.0005389999999999995
119,-0.033421000000000006,0.709283,-0.050087999999999994,-0.19750800000000002,0.49320300000000006,-0.067428,-0.358348,0.674103,-0.14860500000000001,0.15489199999999997,0.5083030000000001,-0.083597,0.297562,0.686633,-0.166215,-0.376288,0.923853,-0.222395,0.299622,0.979503,-0.226335,-0.07972,-0.0027219999999999883,0.004710000000000001,0.07972,0.002722000000000002,-0.00471,-0.139038,-0.40109700000000004,-0.124275,0.120632,-0.407157,-0.136805,-0.124048,-0.7802169999999999,-0.0025199999999999997,0.13702199999999998,-0.783507,-0.0028779999999999995
120,-0.033377000000000004,0.7077005,-0.050999,-0.197577,0.4918205,-0.06873699999999999,-0.35769700000000004,0.6717305,-0.150786,0.154703,0.5064005,-0.08492,0.297913,0.6841005,-0.16680599999999998,-0.374027,0.9192405,-0.22367599999999999,0.299813,0.9724805,-0.226466,-0.07963100000000001,-0.0026014999999999927,0.004591,0.07963100000000001,0.0026015000000000066,-0.004591,-0.141167,-0.39606949999999996,-0.128646,0.12113300000000002,-0.4012295,-0.141426,-0.12509699999999999,-0.7743295,-0.004274,0.13645300000000002,-0.7769995000000001,-0.004922
121,-0.033085,0.7058245,-0.0521335,-0.197453,0.4903845,-0.0701975,-0.35703300000000004,0.6703545,-0.1529655,0.154797,0.5042345,-0.08640149999999999,0.298477,0.6818745,-0.1678955,-0.37189300000000003,0.9148845,-0.2247655,0.30051700000000003,0.9652945,-0.2264855,-0.079612,-0.0024445000000000022,0.004590500000000001,0.079612,0.0024445000000000022,-0.0045905,-0.143063,-0.39173549999999996,-0.1327355,0.121837,-0.3961155,-0.14603549999999998,-0.125943,-0.7686054999999999,-0.0057185,0.135917,-0.7706054999999999,-0.0068745
122,-0.0325865,0.7043815,-0.053707500000000005,-0.1970775,0.4891315,-0.0719415,-0.3565975,0.6697115,-0.15543849999999998,0.1550125,0.5020415,-0.08832050000000001,0.2993125,0.6797615,-0.16975849999999998,-0.36971750000000003,0.9102115000000001,-0.22603849999999998,0.30151249999999996,0.9587815000000001,-0.22698849999999998,-0.0796205,-0.0022765000000000007,0.004590500000000001,0.0796205,0.0022765000000000007,-0.0045905,-0.1448175,-0.3879485,-0.1368085,0.1226325,-0.3910885,-0.1506285,-0.12649749999999998,-0.7628285,-0.007088499999999999,0.1356425,-0.7639485,-0.0088335
123,-0.032091,0.7030850000000001,-0.056223499999999996,-0.196771,0.48760499999999996,-0.0740845,-0.35623099999999996,0.668245,-0.15861350000000002,0.155219,0.49965499999999996,-0.0911525,0.300099,0.677135,-0.1728035,-0.36777099999999996,0.904655,-0.22785350000000001,0.302419,0.951365,-0.2287335,-0.07965,-0.002144999999999994,0.0045725,0.07965,0.002145000000000008,-0.004572499999999999,-0.14689100000000002,-0.384625,-0.14121350000000002,0.12354899999999999,-0.386695,-0.15586350000000002,-0.127141,-0.7557849999999999,-0.0087125,0.135039,-0.7570549999999999,-0.011238499999999998
124,-0.031412999999999996,0.7011400000000001,-0.058912,-0.19628600000000002,0.48629,-0.076168,-0.355956,0.66673,-0.161747,0.155414,0.49788,-0.094121,0.30104400000000003,0.67546,-0.17660700000000001,-0.36664599999999997,0.90408,-0.229747,0.30343400000000004,0.9440299999999999,-0.230807,-0.079666,-0.0019600000000000034,0.004428,0.079666,0.0019599999999999895,-0.004428,-0.14883600000000002,-0.38228,-0.145197,0.124564,-0.38338,-0.160537,-0.127766,-0.74936,-0.0103,0.134374,-0.7507299999999999,-0.01334
125,-0.030765499999999998,0.699445,-0.061368000000000006,-0.1957625,0.48523499999999997,-0.078109,-0.3560525,0.666545,-0.16504,0.15568749999999998,0.49687499999999996,-0.096991,0.3017175,0.673825,-0.18092,-0.3655225,0.902745,-0.23194,0.3043475,0.937025,-0.23332,-0.0797225,-0.001695000000000002,0.004316,0.0797225,0.001695000000000002,-0.0043159999999999995,-0.15104250000000002,-0.379995,-0.14912999999999998,0.1257275,-0.380705,-0.16505999999999998,-0.1284325,-0.742825,-0.011609999999999999,0.1336175,-0.744085,-0.015286000000000001
126,-0.0301685,0.697835,-0.06421400000000001,-0.19527550000000002,0.48439499999999996,-0.080121,-0.3562855,0.666275,-0.168628,0.15569449999999999,0.49582499999999996,-0.09994499999999999,0.30214450000000004,0.671905,-0.185788,-0.3646255,0.901605,-0.234458,0.3050645,0.929465,-0.236598,-0.0796985,-0.001605000000000023,0.0043879999999999995,0.0796985,0.0016049999999999953,-0.0043879999999999995,-0.1535555,-0.37782499999999997,-0.153358,0.12674449999999998,-0.37805500000000003,-0.169398,-0.12913550000000001,-0.736005,-0.012673,0.13262449999999998,-0.736845,-0.017085
127,-0.0296045,0.696445,-0.068083,-0.1948785,0.483275,-0.083143,-0.3567185,0.6658649999999999,-0.173062,0.15567150000000002,0.494945,-0.103758,0.30238149999999997,0.6703049999999999,-0.191722,-0.36397850000000004,0.900625,-0.238432,0.30549149999999997,0.922345,-0.241612,-0.0796365,-0.0016049999999999953,0.004417,0.0796365,0.0016049999999999953,-0.004417,-0.15630850000000002,-0.375775,-0.158422,0.12743149999999998,-0.375535,-0.174572,-0.12999850000000002,-0.728075,-0.014443999999999999,0.1314615,-0.7293050000000001,-0.019506
128,-0.029154,0.69453,-0.071704,-0.194522,0.48208,-0.086233,-0.357192,0.6650900000000001,-0.17746699999999999,0.154868,0.49434,-0.10740999999999999,0.302588,0.66735,-0.197807,-0.363162,0.90069,-0.242347,0.305788,0.91125,-0.247797,-0.07957800000000001,-0.0016299999999999926,0.00448,0.07957800000000001,0.0016300000000000203,-0.00448,-0.159112,-0.37092,-0.163387,0.127798,-0.37149999999999994,-0.179647,-0.131152,-0.7207899999999999,-0.015892,0.130298,-0.7219,-0.021842
129,-0.028741000000000003,0.6928350000000001,-0.07595450000000001,-0.19417,0.48111499999999996,-0.0896535,-0.35777000000000003,0.664655,-0.1826275,0.15392999999999998,0.492965,-0.11175750000000001,0.30272,0.6650449999999999,-0.2042775,-0.36246,0.8981049999999999,-0.2477975,0.30462,0.908865,-0.2532075,-0.079514,-0.0015150000000000163,0.0045095000000000005,0.079514,0.0015149999999999886,-0.0045095,-0.16183,-0.36425500000000005,-0.1690375,0.12791,-0.365725,-0.1854075,-0.13234,-0.7121250000000001,-0.0176195,0.12922,-0.7132449999999999,-0.0245065
130,-0.028505000000000003,0.69205,-0.0823115,-0.193967,0.48039000000000004,-0.0954855,-0.358317,0.66407,-0.1902045,0.15279299999999998,0.49191,-0.1184345,0.30267299999999997,0.6628000000000001,-0.2130645,-0.361877,0.89556,-0.2554645,0.303233,0.90746,-0.2609945,-0.079402,-0.0014099999999999946,0.0050715,0.079402,0.0014100000000000223,-0.0050715,-0.16478700000000002,-0.35666999999999993,-0.1767745,0.127633,-0.35883,-0.19321449999999998,-0.133787,-0.70253,-0.021503500000000002,0.127853,-0.70374,-0.0294065
131,-0.029143999999999996,0.694765,-0.0916275,-0.193718,0.481035,-0.1050125,-0.359638,0.667385,-0.2008115,0.150712,0.493095,-0.12825150000000002,0.301682,0.6636949999999999,-0.2245715,-0.362008,0.897195,-0.2662115,0.301072,0.908725,-0.2718115,-0.079362,-0.0013849999999999973,0.0050044999999999985,0.079362,0.0013849999999999973,-0.0050045,-0.170398,-0.345105,-0.1929915,0.126082,-0.348425,-0.21009150000000001,-0.137758,-0.693015,-0.0334955,0.12554200000000001,-0.6907449999999999,-0.0384245
132,-0.029643999999999997,0.696625,-0.100632,-0.193349,0.48146500000000003,-0.114261,-0.36072899999999997,0.670465,-0.211188,0.149011,0.49495500000000003,-0.137228,0.300931,0.664405,-0.235308,-0.361989,0.899325,-0.27667800000000004,0.299171,0.910145,-0.28166800000000003,-0.079231,-0.0014149999999999996,0.004935999999999999,0.079231,0.0014149999999999996,-0.004935999999999999,-0.17538900000000002,-0.334025,-0.20854799999999998,0.12428099999999999,-0.3385849999999999,-0.22613799999999998,-0.14130900000000002,-0.685215,-0.045122999999999996,0.12347100000000001,-0.6788649999999999,-0.046939999999999996
133,-0.0304325,0.69675,-0.10958749999999999,-0.1929795,0.48083000000000004,-0.1238575,-0.3618895,0.67186,-0.2222505,0.1473405,0.4973,-0.1461005,0.2998905,0.6652100000000001,-0.2462705,-0.3614495,0.9003000000000001,-0.2879305,0.2970605,0.9111800000000001,-0.2919705,-0.07913049999999999,-0.001679999999999987,0.004886500000000002,0.07913049999999999,0.0016800000000000148,-0.0048864999999999985,-0.1803195,-0.32310999999999995,-0.2243405,0.1223505,-0.32859,-0.2419905,-0.1448395,-0.6775100000000001,-0.056721499999999994,0.1212405,-0.66702,-0.055390499999999995
134,-0.0313195,0.69643,-0.119285,-0.1926185,0.48037,-0.133449,-0.36302850000000003,0.6733800000000001,-0.233239,0.1458915,0.49911,-0.155169,0.29894149999999997,0.66484,-0.257149,-0.3606885,0.90138,-0.29907900000000004,0.2950715,0.91178,-0.302379,-0.0789715,-0.0021100000000000008,0.0048889999999999975,0.0789715,0.0021100000000000008,-0.004889000000000001,-0.1847085,-0.31299999999999994,-0.24015899999999998,0.12066149999999999,-0.31860999999999995,-0.257749,-0.1462085,-0.6668999999999999,-0.06411,0.1192315,-0.65574,-0.064016
135,-0.032286999999999996,0.6967,-0.12899100000000002,-0.19242900000000002,0.47984000000000004,-0.143454,-0.363979,0.67518,-0.24446400000000001,0.144151,0.49871,-0.164904,0.298211,0.6648,-0.267974,-0.359859,0.90157,-0.310494,0.292961,0.9132199999999999,-0.31276400000000004,-0.07889099999999999,-0.002260000000000012,0.004857,0.07889099999999999,0.002260000000000012,-0.004857,-0.188549,-0.30296,-0.255964,0.119201,-0.30883000000000005,-0.273764,-0.147239,-0.65619,-0.07198,0.11730099999999999,-0.64444,-0.072823
136,-0.033337000000000006,0.69738,-0.13866099999999998,-0.192239,0.47973,-0.15332099999999999,-0.364829,0.67688,-0.255941,0.14245100000000002,0.49867000000000006,-0.174431,0.29755099999999995,0.66452,-0.278521,-0.358819,0.90125,-0.322061,0.290801,0.91462,-0.323071,-0.078861,-0.0022999999999999965,0.004856000000000006,0.078861,0.0022999999999999965,-0.004855999999999999,-0.191829,-0.29316,-0.271611,0.117661,-0.29943999999999993,-0.28974099999999997,-0.148029,-0.6455299999999999,-0.07994699999999999,0.11570099999999998,-0.63335,-0.081626
137,-0.0341175,0.698045,-0.1486185,-0.1922315,0.479835,-0.1632585,-0.3656615,0.678895,-0.2676085,0.1407985,0.498605,-0.1840885,0.29687850000000005,0.665795,-0.28892850000000003,-0.35788149999999996,0.9005050000000001,-0.33383850000000004,0.28875850000000003,0.9199250000000001,-0.3326785,-0.0788885,-0.002454999999999985,0.004809500000000001,0.0788885,0.0024550000000000127,-0.004809499999999994,-0.19380150000000002,-0.283425,-0.28748850000000004,0.11580850000000001,-0.290135,-0.3058385,-0.1485415,-0.6345449999999999,-0.0881575,0.11430850000000001,-0.6222650000000001,-0.0905485
138,-0.034863500000000006,0.6996,-0.1579895,-0.1923935,0.47892,-0.1729575,-0.36646350000000005,0.67986,-0.2786575,0.1391965,0.4998,-0.19321750000000001,0.2961065,0.66637,-0.2990575,-0.3572735,0.90323,-0.3441575,0.2864465,0.92391,-0.3421775,-0.0789665,-0.002819999999999989,0.0047285000000000035,0.0789665,0.002819999999999989,-0.0047285000000000035,-0.1953835,-0.27431999999999995,-0.3028175,0.1137165,-0.28180999999999995,-0.3212975,-0.1490335,-0.6247199999999999,-0.0963765,0.1129665,-0.6125,-0.0991905
139,-0.0354905,0.699975,-0.16424450000000002,-0.1925365,0.477815,-0.1791345,-0.3671365,0.680315,-0.2862345,0.1373735,0.498135,-0.1990445,0.29546350000000005,0.6669149999999999,-0.30601449999999997,-0.3566065,0.905605,-0.35153449999999997,0.28425350000000005,0.9269449999999999,-0.34832450000000004,-0.0790635,-0.0030649999999999844,0.004123500000000002,0.0790635,0.0030649999999999844,-0.004123500000000002,-0.19632650000000001,-0.265145,-0.3149145,0.1113635,-0.27352499999999996,-0.33356450000000004,-0.1494165,-0.6152949999999999,-0.1014715,0.1118935,-0.603275,-0.10465250000000001
140,-0.036127000000000006,0.696295,-0.16786399999999999,-0.192718,0.475375,-0.181854,-0.367398,0.676185,-0.291224,0.136492,0.49511499999999997,-0.20205399999999998,0.29521200000000003,0.6630849999999999,-0.310524,-0.355958,0.904225,-0.356534,0.28239200000000003,0.921355,-0.352144,-0.079092,-0.0032050000000000134,0.004280000000000006,0.079092,0.003204999999999958,-0.004279999999999992,-0.196548,-0.258375,-0.318954,0.108512,-0.26737500000000003,-0.337244,-0.149388,-0.608735,-0.103044,0.11075199999999999,-0.5965550000000001,-0.10651999999999999
141,-0.037056,0.6935,-0.17128749999999998,-0.192882,0.47275,-0.1844675,-0.367802,0.67239,-0.2959175,0.135638,0.49228000000000005,-0.2052075,0.294948,0.65958,-0.31504750000000004,-0.355552,0.89986,-0.36173750000000005,0.280678,0.91647,-0.3558675,-0.079098,-0.003339999999999954,0.004425499999999999,0.079098,0.0033400000000000096,-0.004425499999999999,-0.196762,-0.2512,-0.3228075,0.105268,-0.2602,-0.34082749999999995,-0.149252,-0.60183,-0.10469149999999999,0.109538,-0.58946,-0.10860349999999999
142,-0.03807,0.692615,-0.174792,-0.193026,0.4712550000000001,-0.186612,-0.368406,0.670455,-0.29981199999999997,0.134744,0.48895500000000003,-0.20847200000000002,0.294534,0.6561950000000001,-0.31892200000000004,-0.355706,0.897675,-0.36605200000000004,0.279354,0.9114650000000001,-0.359282,-0.079094,-0.0032749999999999724,0.004605999999999999,0.079094,0.003275000000000028,-0.004606000000000013,-0.196936,-0.24448499999999995,-0.325912,0.10184399999999999,-0.2533949999999999,-0.34394199999999997,-0.149126,-0.5953149999999999,-0.10633500000000001,0.10835399999999998,-0.5827249999999999,-0.11066600000000001
143,-0.03894,0.691505,-0.1780005,-0.19359800000000002,0.469475,-0.18890050000000003,-0.369018,0.667905,-0.3035905,0.133932,0.48582499999999995,-0.2118005,0.294232,0.653065,-0.3230005,-0.355688,0.895365,-0.37037050000000005,0.278512,0.905735,-0.36298050000000004,-0.079102,-0.0031849999999999934,0.004784499999999997,0.079102,0.0031849999999999934,-0.004784500000000011,-0.194808,-0.24069500000000005,-0.32872049999999997,0.09825199999999999,-0.249705,-0.3467405,-0.146778,-0.5862449999999999,-0.1039245,0.107112,-0.576565,-0.11237650000000002
144,-0.0398555,0.68962,-0.18108749999999998,-0.1941895,0.46746,-0.1907875,-0.36971950000000003,0.66437,-0.3068575,0.1334005,0.48516000000000004,-0.21424749999999998,0.2937805,0.64923,-0.3270275,-0.35567950000000004,0.8934900000000001,-0.37427750000000004,0.27782049999999997,0.9043300000000001,-0.3666775,-0.0791405,-0.003280000000000005,0.005016500000000007,0.0791405,0.003280000000000005,-0.005016499999999993,-0.1926495,-0.23806,-0.3306875,0.09470049999999999,-0.24684,-0.3484975,-0.1444495,-0.57893,-0.1017085,0.10588050000000002,-0.5723400000000001,-0.1138255
145,-0.040736,0.68705,-0.184068,-0.194953,0.46504,-0.192848,-0.37061299999999997,0.66296,-0.309878,0.13282700000000003,0.48395,-0.216808,0.293317,0.6456,-0.331048,-0.355663,0.8917900000000001,-0.37790799999999997,0.277287,0.90239,-0.37030799999999997,-0.079177,-0.003379999999999994,0.005202000000000012,0.079177,0.0033800000000000496,-0.005201999999999998,-0.190463,-0.23597999999999997,-0.33283799999999997,0.091077,-0.24456,-0.35043799999999997,-0.142173,-0.5729099999999999,-0.09967899999999999,0.104637,-0.5695899999999999,-0.11584799999999999
146,-0.041425500000000004,0.68483,-0.18708049999999998,-0.1956275,0.46245,-0.19496049999999998,-0.3714775,0.6612100000000001,-0.3127405,0.1322325,0.48258999999999996,-0.21925050000000001,0.2929225,0.64201,-0.33509049999999996,-0.3557875,0.8901000000000001,-0.38134049999999997,0.2768725,0.8972800000000001,-0.37401049999999997,-0.0792325,-0.003489999999999993,0.005408499999999997,0.0792325,0.003489999999999993,-0.005408499999999997,-0.1881875,-0.23452999999999996,-0.3350605,0.0876025,-0.24281000000000003,-0.3524505,-0.1417375,-0.5711599999999999,-0.1016005,0.1034225,-0.56803,-0.1179425
147,-0.042105500000000004,0.682275,-0.190165,-0.1961815,0.46086499999999997,-0.197365,-0.37245150000000005,0.660495,-0.315835,0.1316285,0.480925,-0.22175499999999998,0.29240849999999996,0.638755,-0.339235,-0.35601150000000004,0.8878550000000001,-0.384835,0.2763685,0.894215,-0.378365,-0.0792785,-0.0035049999999999804,0.005523,0.0792785,0.0035049999999999804,-0.005523,-0.1859115,-0.23395499999999997,-0.337385,0.0841585,-0.24223500000000003,-0.354635,-0.1413315,-0.5705849999999999,-0.10387300000000001,0.1022285,-0.5675650000000001,-0.12033
148,-0.042705999999999994,0.681145,-0.192927,-0.196684,0.46086499999999997,-0.19994699999999999,-0.374494,0.660495,-0.319217,0.131186,0.480925,-0.22439699999999999,0.291876,0.636555,-0.342787,-0.356404,0.886325,-0.387997,0.275466,0.8919950000000001,-0.38287699999999997,-0.079316,-0.0035049999999999804,0.005625000000000005,0.079316,0.0035049999999999804,-0.005624999999999991,-0.183744,-0.23395499999999997,-0.339277,0.081696,-0.24223500000000003,-0.356297,-0.140974,-0.5705849999999999,-0.106343,0.10119600000000001,-0.567615,-0.12289199999999999
149,-0.043037000000000006,0.681145,-0.1954545,-0.19711599999999999,0.46086499999999997,-0.2020045,-0.376516,0.660495,-0.3221645,0.130544,0.480925,-0.2269045,0.291384,0.636555,-0.34576450000000003,-0.356876,0.886155,-0.3906645,0.27448399999999995,0.8919950000000001,-0.3867245,-0.079284,-0.0035049999999999804,0.005610500000000004,0.079284,0.0035049999999999804,-0.005610500000000004,-0.182466,-0.23395499999999997,-0.3403045,0.08050399999999999,-0.24222499999999997,-0.3571245,-0.140826,-0.5706850000000001,-0.1086905,0.10095400000000002,-0.5677749999999999,-0.1252835
150,-0.043325999999999996,0.681145,-0.1981155,-0.19759100000000002,0.46086499999999997,-0.2038855,-0.378221,0.660495,-0.3247755,0.12983899999999998,0.480925,-0.2295555,0.290879,0.636555,-0.3485355,-0.357101,0.8860349999999999,-0.3933355,0.27348900000000004,0.8919950000000001,-0.3905355,-0.079239,-0.0035049999999999804,0.0056184999999999985,0.079239,0.0035049999999999804,-0.0056184999999999985,-0.181461,-0.233755,-0.3408055,0.079849,-0.24188499999999996,-0.3574355,-0.140631,-0.5706850000000001,-0.1110495,0.10097899999999999,-0.567925,-0.1275995
151,-0.043694000000000004,0.6798,-0.2014595,-0.19822,0.45993,-0.2057195,-0.37985,0.65964,-0.3280695,0.1291,0.48147,-0.2323195,0.29049,0.63521,-0.3518795,-0.35744,0.88469,-0.39667949999999996,0.27266,0.89065,-0.3946995,-0.07915,-0.0035499999999999976,0.005646499999999999,0.07915,0.0035499999999999976,-0.005646499999999999,-0.18048999999999998,-0.23416000000000003,-0.3404395,0.07987999999999999,-0.24183999999999994,-0.3569295,-0.14049,-0.57203,-0.1134465,0.10101999999999998,-0.56941,-0.1302125
152,-0.044098,0.6779,-0.204791,-0.198891,0.45913,-0.207491,-0.38131099999999996,0.65901,-0.331411,0.128419,0.48089,-0.235221,0.28997900000000004,0.63279,-0.35524100000000003,-0.35784099999999996,0.88133,-0.400051,0.27149900000000005,0.89205,-0.39854100000000003,-0.07907900000000001,-0.003520000000000023,0.005694999999999992,0.07907900000000001,0.0035199999999999676,-0.005695000000000006,-0.179921,-0.23557000000000006,-0.339291,0.07985899999999999,-0.24289000000000005,-0.355821,-0.140541,-0.57536,-0.115862,0.100879,-0.57275,-0.13234300000000002
153,-0.044417,0.676115,-0.207926,-0.199476,0.458915,-0.209136,-0.382636,0.658315,-0.334636,0.127914,0.480035,-0.237806,0.289534,0.630585,-0.35854600000000003,-0.358156,0.880605,-0.403076,0.270424,0.893215,-0.402096,-0.079014,-0.003454999999999986,0.005784000000000011,0.079014,0.0034550000000000414,-0.0057839999999999975,-0.179376,-0.23734500000000003,-0.337936,0.079874,-0.24446499999999993,-0.35449600000000003,-0.140566,-0.579405,-0.118171,0.10078400000000001,-0.5767749999999999,-0.134207
154,-0.044686,0.674545,-0.2107955,-0.199949,0.45872499999999994,-0.2106155,-0.383829,0.657875,-0.3375855,0.127591,0.479025,-0.2401655,0.28908100000000003,0.628915,-0.36172550000000003,-0.35850899999999997,0.8786349999999999,-0.40599549999999995,0.26932100000000003,0.8946649999999999,-0.40546550000000003,-0.078971,-0.003405000000000047,0.005864500000000009,0.078971,0.0034049999999999914,-0.005864499999999995,-0.178999,-0.239425,-0.3364755,0.079821,-0.24629500000000004,-0.3531655,-0.140709,-0.5841350000000001,-0.12043949999999999,0.10076099999999999,-0.581385,-0.1359095
155,-0.044865,0.673765,-0.21328049999999998,-0.200357,0.458405,-0.21205049999999998,-0.384867,0.657755,-0.34014049999999996,0.127433,0.478325,-0.2420805,0.28868299999999997,0.628085,-0.3644505,-0.35874700000000004,0.8765750000000001,-0.4087705,0.26831299999999997,0.8968050000000001,-0.4087105,-0.07892300000000001,-0.003375000000000017,0.005929500000000004,0.07892300000000001,0.003375000000000017,-0.00592949999999999,-0.178647,-0.24157500000000004,-0.33492049999999995,0.080483,-0.248145,-0.3517805,-0.140777,-0.5886549999999999,-0.1226905,0.10124300000000001,-0.5861749999999999,-0.13754349999999999
156,-0.045042,0.673555,-0.215296,-0.20069599999999999,0.45833500000000005,-0.21301599999999998,-0.385756,0.6583650000000001,-0.342286,0.127274,0.477235,-0.24368599999999999,0.288424,0.6278250000000001,-0.366686,-0.35892599999999997,0.875035,-0.411026,0.26768400000000003,0.896935,-0.411586,-0.078844,-0.0032649999999999624,0.006054000000000004,0.078844,0.003265000000000018,-0.00605399999999999,-0.178346,-0.24338499999999996,-0.333446,0.081704,-0.24980499999999994,-0.35065599999999997,-0.140826,-0.592665,-0.124526,0.101794,-0.590505,-0.139127
157,-0.045271,0.67345,-0.216885,-0.200896,0.45792,-0.21396500000000002,-0.385986,0.6571,-0.344055,0.127064,0.47624,-0.244805,0.288184,0.62778,-0.36857500000000004,-0.35915600000000003,0.87344,-0.412725,0.26734399999999997,0.89476,-0.41430500000000003,-0.078714,-0.003170000000000006,0.006175,0.078714,0.003170000000000006,-0.006175,-0.17815599999999998,-0.24527000000000004,-0.331855,0.083654,-0.25138,-0.349555,-0.140926,-0.5965499999999999,-0.126102,0.10234400000000002,-0.5947199999999999,-0.140578
158,-0.0453925,0.67353,-0.21797499999999997,-0.20102650000000002,0.45766,-0.214555,-0.3861465,0.6554800000000001,-0.345315,0.12696349999999998,0.47525,-0.245565,0.2880135,0.62791,-0.369935,-0.3592865,0.87216,-0.413935,0.2670935,0.89306,-0.416615,-0.0786035,-0.0030799999999999716,0.006295000000000009,0.0786035,0.003080000000000027,-0.006294999999999995,-0.17798650000000002,-0.24697000000000002,-0.330325,0.0859835,-0.25275000000000003,-0.348605,-0.1409465,-0.59984,-0.12747,0.10298349999999999,-0.59828,-0.14181
159,-0.045519000000000004,0.6736249999999999,-0.218635,-0.201294,0.45713499999999996,-0.215555,-0.38641400000000004,0.6538349999999999,-0.346325,0.126796,0.474275,-0.246285,0.28774599999999995,0.628025,-0.370935,-0.359514,0.8712949999999999,-0.41478499999999996,0.26689599999999997,0.891905,-0.41818500000000003,-0.078546,-0.00303500000000001,0.006375000000000006,0.078546,0.0030349999999999544,-0.006375000000000006,-0.178054,-0.24841500000000005,-0.329005,0.088336,-0.253675,-0.347835,-0.14111400000000002,-0.602595,-0.128618,0.10350599999999999,-0.601015,-0.142992
160,-0.045558,0.674235,-0.218605,-0.201503,0.45605500000000004,-0.216495,-0.386123,0.652935,-0.346055,0.12676700000000002,0.473965,-0.24642499999999998,0.28751699999999997,0.628625,-0.371325,-0.359663,0.871205,-0.415065,0.266727,0.891955,-0.418695,-0.078507,-0.0030649999999999844,0.006415000000000004,0.078507,0.00306500000000004,-0.00641499999999999,-0.178273,-0.24905499999999992,-0.328155,0.090287,-0.253865,-0.347365,-0.141283,-0.6040749999999999,-0.129484,0.10388700000000001,-0.602305,-0.14374199999999998
161,-0.045589000000000005,0.67479,-0.21837,-0.201518,0.45518000000000003,-0.21716000000000002,-0.38540800000000003,0.65181,-0.34495,0.12684199999999998,0.47397,-0.24635,0.287232,0.62941,-0.37146999999999997,-0.359738,0.87163,-0.41484,0.266352,0.89223,-0.41886999999999996,-0.078492,-0.003159999999999996,0.006409999999999999,0.078492,0.003159999999999996,-0.006409999999999999,-0.178628,-0.24943000000000004,-0.32755,0.09207199999999999,-0.25377000000000005,-0.34704,-0.141548,-0.60488,-0.130082,0.10406199999999999,-0.60295,-0.144719
162,-0.045583,0.6751100000000001,-0.218,-0.201366,0.45500000000000007,-0.21749000000000002,-0.384856,0.65163,-0.34402,0.126994,0.47434000000000004,-0.24631999999999998,0.286984,0.63005,-0.37152999999999997,-0.359686,0.8725700000000001,-0.41442999999999997,0.265944,0.89286,-0.419,-0.078454,-0.003339999999999954,0.006370000000000001,0.078454,0.0033400000000000096,-0.006370000000000001,-0.17901599999999998,-0.24922,-0.32745,0.093834,-0.25300999999999996,-0.34715,-0.141896,-0.60478,-0.130586,0.104124,-0.6027,-0.145587
163,-0.045424000000000006,0.6751100000000001,-0.217475,-0.200949,0.45500000000000007,-0.217695,-0.384249,0.65163,-0.343115,0.12717099999999998,0.47434000000000004,-0.246255,0.28680100000000003,0.63005,-0.371355,-0.359519,0.8731800000000001,-0.413495,0.265681,0.89347,-0.418845,-0.078391,-0.003339999999999954,0.006295000000000009,0.078391,0.0033400000000000096,-0.006294999999999995,-0.179579,-0.24907999999999997,-0.327685,0.095291,-0.25256,-0.347605,-0.142169,-0.60458,-0.130983,0.10413099999999999,-0.60232,-0.146357
164,-0.04527899999999999,0.6751100000000001,-0.2168,-0.200525,0.45500000000000007,-0.21769,-0.38370499999999996,0.65144,-0.34209,0.127385,0.47434000000000004,-0.24606,0.28673499999999996,0.63005,-0.37104,-0.359275,0.8737,-0.41234,0.26544500000000004,0.8937,-0.41834,-0.078375,-0.003339999999999954,0.006190000000000001,0.078375,0.0033400000000000096,-0.006190000000000001,-0.18018499999999998,-0.24907999999999997,-0.3281,0.096605,-0.25234,-0.34818,-0.142395,-0.60458,-0.131191,0.10403500000000002,-0.60181,-0.146893
165,-0.04514850000000001,0.675115,-0.216035,-0.2002195,0.454175,-0.217705,-0.3831995,0.650945,-0.340915,0.1274705,0.474345,-0.24573499999999998,0.2866105,0.630055,-0.37050500000000003,-0.35923950000000004,0.873705,-0.41114500000000004,0.26523050000000004,0.893705,-0.417545,-0.07829050000000001,-0.003344999999999987,0.006065000000000001,0.0782905,0.003344999999999987,-0.006065000000000001,-0.1810995,-0.249075,-0.328475,0.0975105,-0.25233500000000003,-0.348625,-0.14273950000000002,-0.6045750000000001,-0.131273,0.1037505,-0.6013949999999999,-0.14741300000000002
166,-0.04486,0.67543,-0.21537299999999998,-0.19991199999999998,0.45339,-0.217465,-0.382622,0.6501399999999999,-0.339865,0.12759800000000002,0.47472000000000003,-0.245575,0.286608,0.63043,-0.370095,-0.359092,0.8742300000000001,-0.410075,0.26522799999999996,0.8942300000000001,-0.41680500000000004,-0.07819799999999999,-0.0034500000000000086,0.005925,0.07819799999999999,0.0034500000000000086,-0.005925,-0.18193199999999998,-0.24855,-0.328725,0.09800800000000001,-0.25181000000000003,-0.348925,-0.142992,-0.60405,-0.131319,0.10353800000000002,-0.6006100000000001,-0.147894
167,-0.044576500000000005,0.675435,-0.214806,-0.1996095,0.452675,-0.21723,-0.38208949999999997,0.649445,-0.33884000000000003,0.1276605,0.475135,-0.24543,0.28672050000000004,0.630605,-0.3698,-0.3589095,0.875235,-0.40908,0.26530050000000005,0.895235,-0.41620999999999997,-0.07809050000000001,-0.003574999999999995,0.0057799999999999935,0.0780905,0.003574999999999995,-0.005780000000000007,-0.1828095,-0.24772499999999997,-0.32889999999999997,0.09833049999999999,-0.25080500000000006,-0.34925,-0.14325949999999998,-0.603085,-0.131391,0.10329050000000001,-0.599405,-0.148428
168,-0.044305,0.6753500000000001,-0.214419,-0.19934800000000003,0.4519500000000001,-0.216951,-0.38157800000000003,0.6484700000000001,-0.337765,0.127712,0.47562000000000004,-0.245255,0.286852,0.63077,-0.369675,-0.358838,0.87643,-0.40822499999999995,0.265492,0.89666,-0.41581500000000005,-0.077982,-0.003689999999999971,0.005655000000000007,0.077982,0.0036900000000000266,-0.005654999999999993,-0.183838,-0.24661999999999995,-0.329225,0.098672,-0.24944,-0.34979499999999997,-0.143548,-0.6017399999999999,-0.13151,0.103032,-0.59778,-0.148958
169,-0.044027000000000004,0.67534,-0.21421400000000002,-0.199349,0.45177999999999996,-0.21701399999999998,-0.381019,0.64726,-0.3368,0.12788100000000002,0.47548999999999997,-0.24493,0.286921,0.63043,-0.36980999999999997,-0.358869,0.87747,-0.40756000000000003,0.26569099999999995,0.89838,-0.41593,-0.077901,-0.003750000000000031,0.005569999999999992,0.077901,0.0037499999999999756,-0.0055700000000000055,-0.185259,-0.24477000000000004,-0.33004,0.09913099999999998,-0.24766,-0.35077,-0.143889,-0.59957,-0.13181500000000002,0.10269099999999999,-0.5953200000000001,-0.149818
170,-0.0437525,0.675205,-0.214179,-0.1993645,0.451785,-0.217136,-0.3808145,0.646495,-0.33653500000000003,0.1280955,0.475295,-0.244725,0.2869855,0.629965,-0.370265,-0.3589945,0.878565,-0.407355,0.2658955,0.9001349999999999,-0.41646500000000003,-0.07782549999999999,-0.003794999999999993,0.005474999999999994,0.0778255,0.003794999999999993,-0.005475000000000008,-0.18680449999999998,-0.24271499999999996,-0.331085,0.09960550000000001,-0.24573499999999998,-0.35202500000000003,-0.1441845,-0.597175,-0.13246100000000002,0.1022855,-0.592705,-0.150781
171,-0.0433815,0.67498,-0.21423699999999998,-0.1993885,0.45191000000000003,-0.217221,-0.3804685,0.6456500000000001,-0.336335,0.1283615,0.47497,-0.244415,0.28714150000000005,0.62927,-0.370815,-0.35908850000000003,0.87942,-0.40729499999999996,0.2661715,0.90161,-0.41710499999999995,-0.0777915,-0.0037800000000000056,0.005405000000000007,0.0777915,0.0037800000000000056,-0.005404999999999993,-0.1882485,-0.24063999999999997,-0.331825,0.10013150000000001,-0.24392999999999998,-0.353105,-0.14442850000000002,-0.59484,-0.133101,0.1019815,-0.59019,-0.15182299999999999
172,-0.043064,0.674635,-0.214402,-0.199405,0.452015,-0.21666300000000002,-0.380105,0.644765,-0.33609500000000003,0.128625,0.474595,-0.24422500000000003,0.287305,0.628425,-0.37146500000000005,-0.359095,0.880155,-0.407675,0.266495,0.9025650000000001,-0.417775,-0.077765,-0.003784999999999983,0.005434999999999995,0.077765,0.003784999999999983,-0.005435000000000009,-0.189645,-0.23861499999999997,-0.332465,0.100725,-0.24222499999999997,-0.35396500000000003,-0.144675,-0.592635,-0.133718,0.101695,-0.587845,-0.15283300000000002
173,-0.042741499999999995,0.6742900000000001,-0.214661,-0.1993895,0.45267,-0.216392,-0.3796895,0.6448,-0.336015,0.1289105,0.47435,-0.24410500000000002,0.28742049999999997,0.6274500000000001,-0.371985,-0.35898949999999996,0.88027,-0.40812499999999996,0.26689050000000003,0.90272,-0.41844499999999996,-0.0777005,-0.003740000000000021,0.005464999999999998,0.0777005,0.003740000000000021,-0.005464999999999998,-0.19082949999999999,-0.23709999999999998,-0.33308499999999996,0.10127050000000001,-0.24089000000000005,-0.354645,-0.1449095,-0.5911,-0.134288,0.10146050000000001,-0.58627,-0.153808
174,-0.042368,0.674255,-0.2152,-0.199233,0.45323500000000005,-0.216301,-0.379183,0.644565,-0.336245,0.129287,0.47381500000000004,-0.244365,0.287647,0.626995,-0.372655,-0.358703,0.880035,-0.408895,0.267287,0.9024650000000001,-0.419225,-0.07771700000000001,-0.003544999999999965,0.005535000000000012,0.07771700000000001,0.0035450000000000204,-0.005534999999999998,-0.191613,-0.23653499999999994,-0.33396499999999996,0.10197700000000001,-0.240325,-0.355585,-0.144973,-0.5905349999999999,-0.135127,0.10142699999999999,-0.585635,-0.15497899999999998
175,-0.0420685,0.674255,-0.215745,-0.1990695,0.45323500000000005,-0.216171,-0.3789095,0.644565,-0.33643,0.1296005,0.473685,-0.24459999999999998,0.2878705,0.626995,-0.37347,-0.3583495,0.8799250000000001,-0.40972,0.2676505,0.902455,-0.41989,-0.0777405,-0.003544999999999965,0.005569999999999992,0.0777405,0.0035450000000000204,-0.005569999999999992,-0.1923095,-0.23653499999999994,-0.33493,0.10272049999999999,-0.240325,-0.35660000000000003,-0.1450595,-0.590495,-0.136053,0.10141049999999999,-0.585565,-0.15621
176,-0.041565500000000005,0.674255,-0.216072,-0.1986645,0.45323500000000005,-0.215911,-0.3785645,0.644565,-0.33642,0.1300355,0.473685,-0.24486999999999998,0.2882555,0.626995,-0.37429999999999997,-0.3580445,0.8799250000000001,-0.41040999999999994,0.2681255,0.902455,-0.42064,-0.07778550000000001,-0.003544999999999965,0.005640000000000006,0.0777855,0.0035450000000000204,-0.005639999999999992,-0.1927945,-0.23653499999999994,-0.33541,0.1037855,-0.240325,-0.35741,-0.1451145,-0.590465,-0.13702699999999998,0.10151550000000001,-0.5854349999999999,-0.157333
177,-0.041070999999999996,0.674255,-0.216312,-0.198324,0.45365500000000003,-0.21565,-0.378314,0.644565,-0.33630000000000004,0.13037600000000002,0.473685,-0.24516,0.28871600000000003,0.626995,-0.37512,-0.357904,0.8799250000000001,-0.41089,0.268646,0.902455,-0.42161000000000004,-0.077796,-0.003544999999999965,0.005700000000000011,0.077796,0.0035450000000000204,-0.005699999999999997,-0.193164,-0.236255,-0.33541,0.10478600000000002,-0.24011499999999997,-0.35792,-0.145274,-0.590465,-0.137896,0.101546,-0.585235,-0.15839999999999999
178,-0.04060999999999999,0.67442,-0.21595999999999999,-0.197932,0.45471,-0.21481,-0.378012,0.64607,-0.33565500000000004,0.130538,0.47341,-0.245255,0.289418,0.6269899999999999,-0.375505,-0.357372,0.87965,-0.410755,0.269568,0.90218,-0.422185,-0.07777799999999999,-0.003400000000000014,0.005785000000000012,0.077778,0.003400000000000014,-0.0057849999999999985,-0.19324199999999997,-0.23614000000000002,-0.33465500000000004,0.105748,-0.23987000000000003,-0.35772499999999996,-0.14540199999999998,-0.59066,-0.138364,0.101618,-0.58527,-0.159012
179,-0.0400305,0.675035,-0.214889,-0.1975355,0.45587500000000003,-0.213473,-0.37782550000000004,0.647485,-0.33435499999999996,0.1307145,0.473075,-0.244775,0.29013449999999996,0.627085,-0.374955,-0.3569455,0.8794550000000001,-0.409495,0.2708045,0.901975,-0.422105,-0.0777845,-0.003145000000000009,0.005895000000000011,0.0777845,0.003145000000000009,-0.0058949999999999975,-0.1933455,-0.23666499999999996,-0.332925,0.10671450000000002,-0.24006500000000003,-0.356655,-0.1455255,-0.5917349999999999,-0.138312,0.10168450000000001,-0.586325,-0.15913
180,-0.039476500000000005,0.67544,-0.21362599999999998,-0.1970715,0.45738999999999996,-0.212079,-0.37762150000000005,0.64947,-0.332715,0.1309285,0.47282,-0.24394499999999997,0.2908185,0.62721,-0.37399499999999997,-0.3567815,0.8791599999999999,-0.40779499999999996,0.27235849999999995,0.90167,-0.42184499999999997,-0.0777785,-0.002970000000000028,0.005895000000000011,0.0777785,0.0029699999999999727,-0.005894999999999984,-0.1933915,-0.23787000000000003,-0.330765,0.10765849999999999,-0.24084000000000005,-0.35511499999999996,-0.1456715,-0.59382,-0.13807499999999998,0.10174849999999999,-0.58839,-0.159126
