sb224sc-HT22-VT27/4dt907/src/ml-research/a12/datafiles/kinect_good_preprocessed_not_cut_A11_mediapipe/A39_kinect_mirrored.csv
FrameNo,nose_3d_x,nose_3d_y,nose_3d_z,left_shoulder_3d_x,left_shoulder_3d_y,left_shoulder_3d_z,left_elbow_3d_x,left_elbow_3d_y,left_elbow_3d_z,right_shoulder_3d_x,right_shoulder_3d_y,right_shoulder_3d_z,right_elbow_3d_x,right_elbow_3d_y,right_elbow_3d_z,left_wrist_3d_x,left_wrist_3d_y,left_wrist_3d_z,right_wrist_3d_x,right_wrist_3d_y,right_wrist_3d_z,left_hip_3d_x,left_hip_3d_y,left_hip_3d_z,right_hip_3d_x,right_hip_3d_y,right_hip_3d_z,left_knee_3d_x,left_knee_3d_y,left_knee_3d_z,right_knee_3d_x,right_knee_3d_y,right_knee_3d_z,left_ankle_3d_x,left_ankle_3d_y,left_ankle_3d_z,right_ankle_3d_x,right_ankle_3d_y,right_ankle_3d_z
0,0.9817240000000002,0.7590585,0.0593955,0.833132,0.4571385,0.0631325,0.811982,0.2090685,0.0588195,1.154192,0.4617385,0.0681545,1.178552,0.2101184999999999,0.0678225,0.8025720000000001,0.0096805,-0.0233435,1.201922,0.0093405,-0.0069475,0.927663,-0.0035975,0.0004325,1.072337,0.0035975,-0.0004325,0.893902,-0.4211315,0.0059654999999999,1.128472,-0.3777115,-0.0099824999999999,0.895382,-0.7410915,-0.0261235,1.136232,-0.7374015,-0.0106605
1,0.981948,0.7591140000000001,0.059744,0.83287,0.457264,0.063173,0.81194,0.2089939999999999,0.058778,1.15419,0.461724,0.067924,1.17842,0.2099639999999999,0.067964,0.8065599999999999,0.005214,-0.024389,1.20203,0.008792,-0.005502,0.927649,-0.003601,0.0003729999999999,1.072351,0.0036009999999999,-0.0003729999999999,0.89384,-0.421006,0.00585,1.12843,-0.376876,-0.0098979999999999,0.89542,-0.738596,-0.0238649999999999,1.13622,-0.742036,-0.012663
2,0.982015,0.7591924999999999,0.0599445,0.832819,0.4575525,0.0631655,0.812069,0.2095125,0.0592415,1.1541489999999999,0.4618125,0.0678275,1.178279,0.2100025,0.0680335,0.806509,0.0045665,-0.0246345,1.201629,0.0088245,-0.0054935,0.9276290000000001,-0.0035625,0.0002404999999999,1.072371,0.0035625,-0.0002405,0.893779,-0.4208975,0.0058254999999999,1.128239,-0.3749375,-0.0101215,0.896809,-0.7413475,-0.0234935,1.1362489999999998,-0.7401075,-0.0114335
3,0.9819695,0.7591915,0.0600165,0.8338025,0.4573315,0.0632955,0.8122925,0.2094815,0.0590255,1.1541024999999998,0.4618315,0.0678945,1.1781825,0.2100015,0.0680635,0.8065325,0.0042315,-0.0249014999999999,1.2011325,0.0086714999999999,-0.0051404999999999,0.9276145,-0.0035445,0.0003015,1.0723855,0.0035445,-0.0003014999999999,0.8937425,-0.4205985,0.0058385,1.1281425,-0.3751084999999999,-0.0102594999999999,0.8970925,-0.7415885,-0.0232654999999999,1.1361525000000001,-0.7384085,-0.0108744999999999
4,0.982055,0.7592245,0.0602145,0.8335589999999999,0.4574944999999999,0.0634965,0.8122389999999999,0.2095445,0.0590944999999999,1.154039,0.4618744999999999,0.0678775,1.177889,0.2098445,0.0678135,0.806439,0.0040025,-0.0251315,1.200119,0.0084345,-0.0054115,0.927639,-0.0035615,0.0002814999999999,1.072361,0.0035614999999999,-0.0002815,0.893659,-0.4205555,0.0058834999999999,1.127999,-0.3740955,-0.0108294999999999,0.894949,-0.7392155,-0.0252405,1.136189,-0.7387655,-0.0107355
5,0.9783505,0.759064,0.0623975,0.8311145,0.456604,0.0648845,0.8114645,0.208644,0.0598435,1.1517445,0.462414,0.0689444999999999,1.1767345,0.210494,0.0681875,0.8062545,0.002865,-0.0250924999999999,1.1958445,0.009913,-0.0085195,0.9276775,-0.0039089999999999,0.0003135,1.0723225,0.003909,-0.0003135,0.8955245000000001,-0.421056,0.0049415,1.1296445,-0.373496,-0.0118964999999999,0.8984865,-0.739546,-0.0266474999999999,1.1392845,-0.740426,-0.0129634999999999
6,0.9783270000000001,0.759054,0.0625865,0.830962,0.456714,0.0650125,0.811562,0.208664,0.0600305,1.151632,0.462484,0.0690135,1.176532,0.210474,0.0681015,0.806292,0.0024609999999999,-0.0251074999999999,1.197092,0.010263,-0.0092394999999999,0.9276550000000001,-0.0038989999999999,0.0002334999999999,1.0723449999999999,0.0038989999999999,-0.0002334999999999,0.895502,-0.420426,0.0049295,1.129562,-0.372056,-0.0120865,0.8979820000000001,-0.738816,-0.0267345,1.139152,-0.740216,-0.0134155
7,0.979295,0.759183,0.062227,0.8314810000000001,0.456933,0.064812,0.812071,0.2087929999999999,0.060174,1.152261,0.462343,0.068603,1.176661,0.210443,0.067716,0.806351,0.004318,-0.0243729999999999,1.197261,0.010847,-0.0097609999999999,0.927671,-0.0038069999999999,8.700000000000374e-05,1.072329,0.003807,-8.69999999999968e-05,0.894941,-0.420417,0.005197,1.129411,-0.3748169999999999,-0.0114329999999999,0.896921,-0.738347,-0.0267039999999999,1.138681,-0.739737,-0.0128329999999999
8,0.9789415,0.7591985,0.0625905,0.8312515,0.4568885,0.0651144999999999,0.8120815,0.2087485,0.0603915,1.1519915,0.4624185,0.0686565,1.1763914999999998,0.2105385,0.0676475,0.8064315,0.0041545,-0.0244045,1.1965715,0.0113245,-0.0105255,0.9276795,-0.0038355,2.3500000000002685e-05,1.0723205,0.0038355,-2.3500000000002685e-05,0.8950615000000001,-0.4202615,0.0051154999999999,1.1295915,-0.3744015,-0.0116295,0.8969715,-0.7381215,-0.0269965,1.1390315,-0.7397214999999999,-0.0130745
9,0.9785245,0.7592175,0.0629535,0.8309955,0.4568175,0.0654265,0.8120655,0.2087075,0.0605855,1.1516755,0.4625075,0.0687305,1.1761255,0.2106674999999999,0.0674964999999999,0.8064755,0.0040155,-0.0243675,1.1963055,0.0118215,-0.0114855,0.9276805,-0.0038705,-3.950000000000481e-05,1.0723195,0.0038705,3.949999999999787e-05,0.8951455000000001,-0.4201025,0.0050414999999999,1.1297755,-0.3738725,-0.0118335,0.8969755000000001,-0.7378724999999999,-0.0272605,1.1393455000000001,-0.7391225,-0.0130975
10,0.978367,0.7592384999999999,0.063043,0.830869,0.4568084999999999,0.065558,0.812159,0.2087385,0.060674,1.151519,0.4625185,0.068741,1.175969,0.2107085,0.067317,0.806449,0.0040564999999999,-0.024277,1.195849,0.0118625,-0.0124729999999999,0.927681,-0.0038665,-7.800000000000168e-05,1.072319,0.0038664999999999,7.800000000000168e-05,0.895029,-0.4200615,0.005041,1.129829,-0.3738415,-0.011968,0.897069,-0.7382515000000001,-0.027398,1.139319,-0.7390915,-0.0131239999999999
11,0.9782445000000001,0.7592384999999999,0.063069,0.8307465,0.4568084999999999,0.065584,0.8122564999999999,0.2087385,0.0607,1.1513965,0.4625185,0.068767,1.1758465,0.2107085,0.067135,0.8065065000000001,0.0040564999999999,-0.024094,1.1957365,0.0118625,-0.0134309999999999,0.9276765,-0.0038665,-0.000105,1.0723235,0.0038664999999999,0.000105,0.8949065,-0.4200615,0.0050669999999999,1.1297465,-0.3738415,-0.012083,0.8969465000000001,-0.7382515000000001,-0.027372,1.1391965,-0.7390915,-0.0130979999999999
12,0.978126,0.7592384999999999,0.063093,0.830628,0.4568084999999999,0.065608,0.812338,0.2087385,0.060724,1.151278,0.4625185,0.068791,1.1757279999999999,0.2107085,0.066981,0.806598,0.0040564999999999,-0.024069,1.195438,0.0118625,-0.0144079999999999,0.927674,-0.0038665,-0.0001289999999999,1.072326,0.0038664999999999,0.000129,0.894788,-0.4200615,0.005091,1.129678,-0.3738415,-0.0121959999999999,0.896828,-0.7382515000000001,-0.0273479999999999,1.1390779999999998,-0.7390915,-0.0132509999999999
13,0.9781045,0.7592485,0.06312,0.8306745,0.4568385,0.065635,0.8124445,0.2087385,0.060752,1.1512445,0.4625185,0.068749,1.1756345,0.2107285,0.066748,0.8066745,0.0046354999999999,-0.0240579999999999,1.1955545,0.0121035,-0.0152039999999999,0.9276675,-0.0038665,-0.0001509999999999,1.0723325,0.0038664999999999,0.0001509999999999,0.8946745,-0.4199515,0.005118,1.1296344999999999,-0.3736915,-0.01231,0.8966145000000001,-0.7378615000000001,-0.0272489999999999,1.1389645,-0.7387515,-0.0133199999999999
14,0.978343,0.759347,0.063004,0.830774,0.456937,0.065637,0.812334,0.208727,0.060518,1.151324,0.462507,0.068567,1.175594,0.210897,0.06633,0.806694,0.004814,-0.02407,1.195614,0.012744,-0.016361,0.9276570000000001,-0.003822,-0.0001939999999999,1.0723429999999998,0.003822,0.0001939999999999,0.8944640000000001,-0.419753,0.005233,1.129594,-0.374053,-0.0123399999999999,0.896454,-0.738113,-0.027004,1.138734,-0.7389330000000001,-0.0133059999999999
15,0.9785840000000001,0.759439,0.062951,0.830876,0.457039,0.065591,0.812226,0.208729,0.0598449999999999,1.151406,0.462499,0.068349,1.175646,0.211289,0.065436,0.806586,0.0045509999999999,-0.024585,1.195836,0.01359,-0.018425,0.927654,-0.0037729999999999,-0.000195,1.072346,0.003773,0.000195,0.8943860000000001,-0.419381,0.0053299999999999,1.129636,-0.3740909999999999,-0.01236,0.896476,-0.7386210000000001,-0.0265229999999999,1.138466,-0.7390410000000001,-0.013322
16,0.978848,0.7595230000000001,0.0629245,0.831014,0.457143,0.0654925,0.812134,0.208883,0.0588255,1.151504,0.462493,0.0680865,1.175744,0.211723,0.0642195,0.806424,0.005217,-0.0254814999999999,1.197224,0.014506,-0.0208614999999999,0.927644,-0.003719,-0.0002184999999999,1.072356,0.003719,0.0002185,0.8943240000000001,-0.4190669999999999,0.0053795,1.129694,-0.373917,-0.0123834999999999,0.8964740000000001,-0.739017,-0.0258575,1.138174,-0.739187,-0.0134284999999999
17,0.9791395,0.7596315,0.062954,0.8312165,0.4572515,0.065328,0.8118565,0.2111215,0.055484,1.1516165,0.4625015,0.067824,1.1766565,0.2140515,0.060669,0.8063565,0.0061405,-0.030233,1.1995565,0.0156275,-0.0302389999999999,0.9276165000000001,-0.0036654999999999,-0.000243,1.0723835,0.0036655,0.000243,0.8942765,-0.4187484999999999,0.005433,1.1297665000000001,-0.3736084999999999,-0.0124,0.8965765,-0.7397085,-0.025189,1.1378765,-0.7390785,-0.013547
18,0.9795835,0.7597284999999999,0.06297,0.8318955,0.4575085,0.064977,0.8100955,0.2157785,0.049912,1.1516255,0.4626085,0.0675969999999999,1.1793255,0.2193385,0.05387,0.8041055,0.0141494999999999,-0.040624,1.2041455,0.0245995,-0.043227,0.9275875000000001,-0.0036215,-0.000264,1.0724125,0.0036215,0.000264,0.8942755,-0.4178515,0.0056049999999999,1.1298655,-0.3733815,-0.012419,0.8965755,-0.7399815000000001,-0.024612,1.1376055,-0.7389815000000001,-0.013544
19,0.9800715,0.7598499999999999,0.062968,0.8325525,0.45778,0.0645719999999999,0.8072825000000001,0.22097,0.0430779999999999,1.1515724999999999,0.46278,0.067324,1.1829025,0.22538,0.0454409999999999,0.8012625,0.024252,-0.055227,1.2103125000000001,0.0356,-0.05899,0.9275345,-0.003582,-0.00026,1.0724655,0.003582,0.0002599999999999,0.8942925,-0.41678,0.0058019999999999,1.1299225,-0.3730199999999999,-0.012426,0.8966925,-0.7405900000000001,-0.024185,1.1373225,-0.7389800000000001,-0.0137
20,0.980594,0.759955,0.062929,0.833661,0.458165,0.063821,0.803851,0.227275,0.033613,1.151511,0.463045,0.067029,1.187551,0.232765,0.0346929999999999,0.797771,0.036215,-0.072348,1.216971,0.048303,-0.077608,0.927472,-0.0035459999999999,-0.0002349999999999,1.072528,0.003546,0.0002349999999999,0.894341,-0.415635,0.0059869999999999,1.129961,-0.372675,-0.012362,0.896845,-0.741535,-0.023743,1.137021,-0.738955,-0.013842
21,0.9811570000000001,0.7600225,0.0628445,0.834948,0.4586625,0.0628235,0.799968,0.2345425,0.0222665,1.151438,0.4636225,0.0665965,1.192868,0.2413525,0.0227015,0.793918,0.0491845,-0.0913705,1.224578,0.0641315,-0.0989204999999999,0.927382,-0.0034855,-0.0002394999999999,1.072618,0.0034855,0.0002395,0.894388,-0.4143675,0.0060555,1.129918,-0.3724575,-0.0122904999999999,0.897061,-0.7419874999999999,-0.0231964999999999,1.1367180000000001,-0.7389374999999999,-0.0138974999999999
22,0.981755,0.7600144999999999,0.062679,0.836361,0.4593145,0.061493,0.795221,0.2437544999999999,0.0084599999999999,1.151361,0.4641445,0.06595,1.199951,0.2532045,0.0069679999999999,0.7896510000000001,0.0689365,-0.117097,1.232601,0.0846755,-0.1287269999999999,0.927262,-0.0033964999999999,-0.000328,1.072738,0.0033964999999999,0.000328,0.894441,-0.4130655,0.00594,1.129801,-0.3721555,-0.012339,0.8972,-0.7422255,-0.022889,1.1363509999999999,-0.7388555,-0.014149
23,0.9821270000000001,0.7598885,0.0625044999999999,0.837698,0.4599885,0.0599424999999999,0.7900380000000001,0.2550685,-0.0076745,1.150888,0.4649185,0.0651915,1.208048,0.2670485,-0.0096895,0.785278,0.0918045,-0.1462955,1.240518,0.1102384999999999,-0.1596955,0.927079,-0.0033825,-0.0005485,1.072921,0.0033824999999999,0.0005485,0.894458,-0.4118914999999999,0.0055914999999999,1.129638,-0.3708214999999999,-0.0125305,0.897119,-0.7418315,-0.0230115,1.136188,-0.7382314999999999,-0.0146055
24,0.9825460000000001,0.7596655,0.0620925,0.8390150000000001,0.4606355,0.0578355,0.783455,0.2668855,-0.0238554999999999,1.149765,0.4661455,0.0640305,1.216485,0.2845555,-0.0282914999999999,0.780565,0.1185955,-0.1762534999999999,1.251025,0.1393255,-0.1915035,0.926859,-0.0033755,-0.0008605,1.073141,0.0033755,0.0008605,0.894475,-0.4108245,0.0051665,1.129435,-0.3692445,-0.0128355,0.897092,-0.7422845,-0.0233885,1.136005,-0.7376345,-0.0152404999999999
25,0.9829585,0.7594175000000001,0.0615965,0.8403955000000001,0.4612575,0.0555325,0.7763154999999999,0.2787475,-0.0402305,1.1484955000000001,0.4674875,0.0626885,1.2253255,0.3042775,-0.0475245,0.7757955,0.1453075,-0.2059905,1.2607055,0.1741175,-0.2250605,0.9266245,-0.0033864999999999,-0.0012775,1.0733755,0.0033864999999999,0.0012775,0.8945055,-0.4098225,0.0046425,1.1292054999999999,-0.3679325,-0.0133164999999999,0.8969575,-0.7428425,-0.0239735,1.1358255,-0.7369724999999999,-0.0160265
26,0.9833605000000001,0.75914,0.061406,0.8417735,0.46218,0.052897,0.7693535,0.29573,-0.061377,1.1470835,0.4688,0.0610379999999999,1.2335235,0.325,-0.065713,0.7704934999999999,0.18334,-0.2405459999999999,1.2700035,0.2173,-0.252256,0.9263485,-0.0033629999999999,-0.001774,1.0736515,0.0033629999999999,0.001774,0.8946035,-0.40886,0.003879,1.1290135000000001,-0.36707,-0.0139819999999999,0.8970225000000001,-0.74402,-0.0247759999999999,1.1355935,-0.73669,-0.017106
27,0.983734,0.7586700000000001,0.061119,0.843232,0.46347,0.050053,0.763872,0.31388,-0.080063,1.145592,0.47014,0.058893,1.240172,0.3470499999999999,-0.081093,0.766222,0.22096,-0.269793,1.2765819999999999,0.2577399999999999,-0.277283,0.926072,-0.0032969999999999,-0.002315,1.073928,0.003297,0.0023149999999999,0.8946020000000001,-0.40865,0.0027489999999999,1.128792,-0.36605,-0.01492,0.8970720000000001,-0.74551,-0.025919,1.135392,-0.73651,-0.018323
28,0.984085,0.7580725,0.060771,0.844949,0.4651225,0.047146,0.759499,0.3352525,-0.0974869999999999,1.144089,0.4714725,0.056687,1.245689,0.3728625,-0.094647,0.762509,0.2647425,-0.296257,1.2812489999999999,0.3039325,-0.299787,0.925819,-0.0032155,-0.0028559999999999,1.074181,0.0032155,0.002856,0.894569,-0.4086975,0.001418,1.128579,-0.3656775,-0.0159829999999999,0.897079,-0.7467275,-0.0272929999999999,1.135189,-0.7365174999999999,-0.0196649999999999
29,0.984387,0.757338,0.0602935,0.845869,0.467118,0.0442325,0.755789,0.358868,-0.1123424999999999,1.142589,0.472538,0.0542875,1.249959,0.3992279999999999,-0.1060124999999999,0.7593690000000001,0.311178,-0.3202025,1.285089,0.351758,-0.3187824999999999,0.925557,-0.003098,-0.0034385,1.074443,0.003098,0.0034385,0.894499,-0.409032,-0.0002034999999999,1.128339,-0.365642,-0.0173195,0.897205,-0.748082,-0.0287364999999999,1.134999,-0.736542,-0.0211664999999999
30,0.98467,0.756351,0.059485,0.846814,0.469041,0.041081,0.752554,0.385011,-0.125627,1.141204,0.474001,0.051642,1.253404,0.426451,-0.116477,0.756544,0.361261,-0.341797,1.287524,0.401261,-0.334857,0.925301,-0.002995,-0.0040329999999999,1.074699,0.0029949999999999,0.004033,0.894454,-0.409809,-0.002165,1.128074,-0.3664889999999999,-0.019068,0.89735,-0.7496590000000001,-0.03034,1.1348539999999998,-0.7372890000000001,-0.023249
31,0.9849205,0.755243,0.05835,0.8477745,0.470763,0.038241,0.7505045,0.410203,-0.136778,1.1398645,0.475763,0.049128,1.2551845,0.451123,-0.123888,0.7541445,0.406303,-0.355198,1.2890044999999999,0.447033,-0.343678,0.9250535,-0.0028919999999999,-0.00447,1.0749465,0.002892,0.0044699999999999,0.8942545,-0.410917,-0.004326,1.1277645,-0.3685469999999999,-0.020931,0.8974785,-0.7517170000000001,-0.032433,1.1347345,-0.738537,-0.025353
32,0.9851695,0.7540190000000001,0.056855,0.8488265,0.472559,0.03559,0.7489465,0.434309,-0.145682,1.1389565,0.477399,0.046656,1.2557865,0.474289,-0.130412,0.7518365000000001,0.449909,-0.366842,1.2903464999999998,0.488419,-0.351032,0.9248825,-0.0027779999999999,-0.0047209999999999,1.0751175,0.002778,0.004721,0.8941265,-0.412211,-0.00648,1.1275465,-0.370621,-0.0229059999999999,0.8976695000000001,-0.753791,-0.0344379999999999,1.1347165,-0.739811,-0.0275069999999999
33,0.985371,0.7527675,0.0548125,0.849906,0.4743775,0.0332515,0.748696,0.4585375,-0.1551364999999999,1.138696,0.4787275,0.0442845,1.255876,0.4940274999999999,-0.1351765,0.749756,0.4904575,-0.3775165,1.290266,0.5266175,-0.3566365,0.9247650000000001,-0.0026444999999999,-0.0049025,1.075235,0.0026444999999999,0.0049025,0.894036,-0.4134625,-0.0085945,1.127386,-0.3718725,-0.0250204999999999,0.898053,-0.7551825,-0.0365515,1.134736,-0.7410625000000001,-0.0296325
34,0.9856280000000001,0.7514550000000001,0.0516395,0.850833,0.476865,0.0298335,0.748533,0.485295,-0.1654105,1.138533,0.480365,0.0407905,1.255783,0.514105,-0.1405805,0.748243,0.534045,-0.3891104999999999,1.290173,0.562415,-0.3626105,0.924667,-0.0025119999999999,-0.0050294999999999,1.075333,0.002512,0.0050295,0.893903,-0.414775,-0.0119874999999999,1.1272929999999999,-0.373375,-0.0281944999999999,0.898345,-0.7566149999999999,-0.0397255,1.134763,-0.742375,-0.0328065
35,0.9858820000000001,0.7502715000000001,0.0483525,0.851655,0.4791315,0.0264184999999999,0.7483350000000001,0.5051915,-0.1699574999999999,1.138435,0.4821614999999999,0.0372105,1.255725,0.5318315,-0.1455074999999999,0.746235,0.5669515,-0.3940175,1.2901150000000001,0.5900315,-0.3684875,0.924594,-0.0023864999999999,-0.0051004999999999,1.075406,0.0023864999999999,0.0051005,0.8937150000000001,-0.4157285,-0.0158285,1.127225,-0.3754585,-0.0314814999999999,0.8982950000000001,-0.7576885,-0.0430124999999999,1.134855,-0.7435585,-0.0360935
36,0.9860665000000001,0.7490565,0.044029,0.8518895,0.4805764999999999,0.021925,0.7483695,0.5223964999999999,-0.175652,1.1383195,0.4838765,0.0326469999999999,1.2556395,0.5462265,-0.152082,0.7456395,0.5944564999999999,-0.398462,1.2882795,0.6135965,-0.375822,0.9245405,-0.0022685,-0.004956,1.0754595,0.0022684999999999,0.004956,0.8934095,-0.4163435,-0.021258,1.1271395,-0.3782635,-0.036014,0.8982105,-0.7590535,-0.047638,1.1348795,-0.7446535000000001,-0.040914
37,0.9862105000000001,0.7479239999999999,0.0390245,0.8520235,0.481434,0.0170175,0.7483635,0.536454,-0.1816835,1.1381735,0.485504,0.0277805,1.2549835,0.557074,-0.1592935,0.7449835,0.614544,-0.4031335,1.2857535,0.6317039999999999,-0.3826835,0.9245075,-0.0022109999999999,-0.0048085,1.0754925,0.002211,0.0048085,0.8929635,-0.4163059999999999,-0.0273345,1.1270835,-0.380426,-0.0409635,0.8980955,-0.759826,-0.0526515,1.1349135,-0.745216,-0.0461624999999999
38,0.9863140000000001,0.7462139999999999,0.032648,0.8519050000000001,0.481434,0.011613,0.747715,0.547024,-0.186833,1.137965,0.486684,0.022414,1.253885,0.5660339999999999,-0.167113,0.744235,0.630294,-0.406943,1.282495,0.646664,-0.390613,0.924438,-0.0022109999999999,-0.0047599999999999,1.075562,0.002211,0.00476,0.892335,-0.4161559999999999,-0.034244,1.127105,-0.382486,-0.04689,0.897908,-0.7602960000000001,-0.058654,1.134725,-0.745776,-0.0519349999999999
39,0.9863415000000001,0.7441939999999999,0.025358,0.8516895000000001,0.481434,0.0059189999999999,0.7474995,0.553584,-0.192214,1.1377495,0.486684,0.016731,1.2524395,0.572634,-0.174564,0.7434495,0.641434,-0.4112039999999999,1.2795595,0.656764,-0.397064,0.9243385000000001,-0.0022109999999999,-0.00474,1.0756614999999998,0.002211,0.0047399999999999,0.8915995,-0.415896,-0.041645,1.1271195,-0.3845159999999999,-0.053187,0.8975945,-0.760966,-0.065118,1.1345095,-0.7463660000000001,-0.057996
40,0.986187,0.741744,0.0169855,0.851363,0.481434,-0.0004325,0.747293,0.558414,-0.1986145,1.1374929999999999,0.486684,0.0104975,1.251033,0.578074,-0.1829045,0.742853,0.650264,-0.4169445,1.2767529999999998,0.666034,-0.4026645,0.924167,-0.0022109999999999,-0.0046875,1.075833,0.002211,0.0046875,0.890723,-0.415626,-0.0498785,1.127183,-0.386366,-0.0600015,0.89728,-0.761636,-0.0719575,1.134313,-0.746996,-0.0646945
41,0.9859580000000001,0.739232,0.0073019999999999,0.850868,0.481672,-0.0074609999999999,0.747058,0.559172,-0.2048249999999999,1.137118,0.487392,0.003619,1.249558,0.5802620000000001,-0.1907249999999999,0.742008,0.658492,-0.423095,1.2740179999999999,0.675032,-0.409005,0.9239360000000001,-0.0021609999999999,-0.004712,1.076064,0.0021609999999999,0.004712,0.889628,-0.415138,-0.0590399999999999,1.127308,-0.388048,-0.067494,0.89673,-0.761868,-0.079708,1.134218,-0.747688,-0.072061
42,0.9857365,0.7355225,-0.0028859999999999,0.8503705,0.4813725,-0.014836,0.7466904999999999,0.5608425,-0.212261,1.1366805,0.4883225,-0.0038009999999999,1.2480905,0.5821825,-0.198871,0.7411905000000001,0.6664425,-0.4290009999999999,1.2712805,0.6840325,-0.4140009999999999,0.9236975000000001,-0.0021065,-0.0046509999999999,1.0763025,0.0021065,0.0046509999999999,0.8884704999999999,-0.4139275,-0.0687789999999999,1.1275105,-0.3885774999999999,-0.075391,0.8960425,-0.7613075,-0.087899,1.1341405,-0.7471274999999999,-0.079432
43,0.985586,0.73181,-0.0137819999999999,0.849802,0.48092,-0.022632,0.745942,0.5643,-0.219204,1.136112,0.48903,-0.011521,1.246422,0.58564,-0.205594,0.740612,0.6727,-0.433944,1.2689219999999999,0.6908,-0.419704,0.9235059999999999,-0.0021499999999999,-0.004413,1.076494,0.00215,0.004413,0.887372,-0.41106,-0.079023,1.128332,-0.3873,-0.0847749999999999,0.895585,-0.75845,-0.095758,1.134152,-0.7447,-0.087056
44,0.985239,0.726735,-0.026438,0.849537,0.480145,-0.032273,0.744057,0.572445,-0.227407,1.1353369999999998,0.4894949999999999,-0.020993,1.243287,0.593785,-0.213797,0.739887,0.681885,-0.439967,1.265647,0.701375,-0.427607,0.923298,-0.0020819999999999,-0.00417,1.076702,0.002082,0.00417,0.8861870000000001,-0.404335,-0.092471,1.129297,-0.383575,-0.097786,0.895357,-0.7520450000000001,-0.10691,1.134767,-0.7398750000000001,-0.098604
45,0.984583,0.721593,-0.037809,0.8489869999999999,0.478373,-0.041065,0.742217,0.5808530000000001,-0.234678,1.134447,0.489463,-0.029601,1.239997,0.6029530000000001,-0.221078,0.739117,0.691083,-0.444728,1.262557,0.711913,-0.434888,0.923038,-0.001966,-0.004143,1.076962,0.001966,0.004143,0.884787,-0.395147,-0.105021,1.130137,-0.374407,-0.110151,0.895266,-0.743277,-0.1165229999999999,1.135027,-0.732497,-0.108998
46,0.9838465000000001,0.716415,-0.049719,0.8482025,0.4756149999999999,-0.0506559999999999,0.7404625,0.586975,-0.242364,1.1334825,0.4882849999999999,-0.0386249999999999,1.2366025,0.6104550000000001,-0.228754,0.7382625,0.702565,-0.450624,1.2599425,0.723395,-0.440574,0.9228745,-0.0019249999999999,-0.0042149999999999,1.0771255,0.0019249999999999,0.0042149999999999,0.8832025,-0.383165,-0.118602,1.1309125,-0.362875,-0.1234519999999999,0.8949855,-0.732955,-0.126689,1.1351725,-0.722885,-0.1186899999999999
47,0.9833910000000001,0.7118985,-0.066765,0.847934,0.4738985,-0.065441,0.7389940000000002,0.5943185,-0.25509,1.132434,0.4879985,-0.052882,1.233384,0.6176285,-0.24053,0.737384,0.7168785,-0.45953,1.257844,0.7377085,-0.45065,0.922757,-0.0019554999999999,-0.0040639999999999,1.077243,0.0019555,0.0040639999999999,0.8814240000000001,-0.3680815,-0.137682,1.131584,-0.3483115,-0.141535,0.8947210000000001,-0.7203815,-0.141638,1.135494,-0.7110515,-0.134037
48,0.983026,0.7073085,-0.083544,0.847688,0.4712485,-0.07968,0.738448,0.6008085,-0.2669479999999999,1.131158,0.4853585,-0.066703,1.230298,0.6243085,-0.251138,0.736588,0.7320785,-0.4674979999999999,1.256048,0.7529085,-0.4601579999999999,0.922641,-0.0019904999999999,-0.003748,1.077359,0.0019904999999999,0.003748,0.8789480000000001,-0.3498115,-0.159493,1.132658,-0.3319715,-0.1626699999999999,0.894517,-0.7051915,-0.154212,1.135188,-0.6973915,-0.147633
49,0.9827525,0.7012809999999999,-0.100318,0.8474095,0.468851,-0.093977,0.7381694999999999,0.607861,-0.27886,1.1297195,0.482881,-0.080833,1.2273495,0.629651,-0.26222,0.7358895,0.7479709999999999,-0.47502,1.2544195,0.768201,-0.46706,0.9225775,-0.001963,-0.003403,1.0774225,0.0019629999999999,0.003403,0.8763995,-0.329689,-0.181578,1.1337895,-0.313679,-0.184369,0.8944385,-0.687749,-0.166929,1.1347995,-0.681569,-0.161238
50,0.9824795000000001,0.694172,-0.117755,0.8471315,0.466072,-0.108749,0.7378615,0.6148119999999999,-0.290505,1.1285015,0.479472,-0.095452,1.2245615,0.635292,-0.273795,0.7351015000000001,0.764652,-0.481975,1.2529915,0.781462,-0.471995,0.9225755,-0.00195,-0.0030649999999999,1.0774245,0.0019499999999999,0.0030649999999999,0.8737915,-0.307838,-0.204139,1.1350215,-0.2944879999999999,-0.206952,0.8946195000000001,-0.6679080000000001,-0.179551,1.1343815,-0.6628080000000001,-0.1749899999999999
51,0.982438,0.688215,-0.13574,0.847411,0.463435,-0.124217,0.737811,0.621435,-0.302355,1.1273710000000001,0.476255,-0.110653,1.222041,0.6401749999999999,-0.285495,0.734561,0.781115,-0.4882849999999999,1.251921,0.796335,-0.476995,0.922573,-0.0019049999999999,-0.0027749999999999,1.077427,0.001905,0.0027749999999999,0.871151,-0.284355,-0.227125,1.136541,-0.273715,-0.230015,0.895315,-0.646055,-0.192305,1.1341809999999999,-0.642135,-0.188632
52,0.982451,0.68211,-0.152152,0.8480460000000001,0.46049,-0.138487,0.7381960000000001,0.6269199999999999,-0.31288,1.126686,0.47346,-0.124876,1.220156,0.64436,-0.2965,0.7339260000000001,0.7957799999999999,-0.49339,1.2513459999999998,0.81016,-0.48107,0.922588,-0.00189,-0.00254,1.077412,0.0018899999999999,0.0025399999999999,0.868656,-0.26208,-0.2487,1.137726,-0.25377,-0.25095,0.8960049999999999,-0.6243400000000001,-0.204258,1.134156,-0.62144,-0.201567
53,0.9825745,0.67759,-0.166729,0.8492215,0.45799,-0.1512389999999999,0.7388315,0.63132,-0.322315,1.1264315,0.47101,-0.137395,1.2201115,0.6476900000000001,-0.3049849999999999,0.7336015,0.80631,-0.497805,1.2514515,0.8198,-0.485695,0.9225125,-0.0019899999999999,-0.0023049999999999,1.0774875,0.00199,0.002305,0.8663315,-0.2421499999999999,-0.2673649999999999,1.1390915,-0.2365999999999999,-0.268625,0.8967775,-0.60476,-0.214492,1.1345615,-0.60281,-0.2127509999999999
54,0.9828335,0.67317,-0.181218,0.8505995,0.4561,-0.163828,0.7395095,0.6354200000000001,-0.33192,1.1262694999999998,0.46673,-0.1498429999999999,1.2202395,0.6504300000000001,-0.31316,0.7332595,0.81654,-0.50205,1.2516295,0.82785,-0.49015,0.9224175,-0.0018899999999999,-0.0020299999999999,1.0775825,0.00189,0.00203,0.8641695,-0.2219899999999999,-0.28588,1.1406895,-0.2187099999999999,-0.28608,0.8976295,-0.58401,-0.2244189999999999,1.1350995,-0.58307,-0.2241199999999999
55,0.9833905000000001,0.66788,-0.194773,0.8521955,0.45431,-0.175707,0.7406455000000001,0.63883,-0.341155,1.1264055,0.46464,-0.161675,1.2204755,0.65194,-0.321065,0.7330355,0.82462,-0.5061450000000001,1.2518655,0.83498,-0.495105,0.9223475,-0.0019899999999999,-0.001735,1.0776525,0.00199,0.0017349999999999,0.8622355000000002,-0.20144,-0.303715,1.1423355,-0.1984199999999999,-0.302665,0.8984575,-0.56275,-0.233779,1.1356955,-0.5627099999999999,-0.234939
56,0.9844435,0.662485,-0.202896,0.8542745,0.451045,-0.182526,0.7428745,0.640315,-0.345255,1.1266445,0.459785,-0.168287,1.2207045,0.6521049999999999,-0.3243749999999999,0.7326444999999999,0.830065,-0.5050250000000001,1.2528845,0.840805,-0.495305,0.9223055,-0.001735,-0.001615,1.0776945,0.0017349999999999,0.001615,0.8606445,-0.178335,-0.316235,1.1438944999999998,-0.174795,-0.314505,0.8991925000000001,-0.539145,-0.236195,1.1354245,-0.5397750000000001,-0.239089
57,0.9853495,0.6568350000000001,-0.210775,0.8563235000000001,0.4487649999999999,-0.1893969999999999,0.7450734999999999,0.641005,-0.34926,1.1267435,0.457135,-0.17497,1.2208035,0.650825,-0.3283899999999999,0.7320435000000001,0.834495,-0.5044500000000001,1.2541435,0.844105,-0.49596,0.9221595,-0.001505,-0.0015799999999999,1.0778405,0.001505,0.0015799999999999,0.8597935,-0.156175,-0.32543,1.1449135,-0.152635,-0.32286,0.8996045,-0.515315,-0.2384839999999999,1.1348335,-0.517435,-0.2429759999999999
58,0.9858265,0.65167,-0.218077,0.8580235,0.44699,-0.195636,0.7464735,0.64044,-0.35274,1.1264735,0.45421,-0.18088,1.2209035,0.6500600000000001,-0.33205,0.7311235,0.83735,-0.50409,1.2551135,0.8430500000000001,-0.49724,0.9220275,-0.0012499999999999,-0.00173,1.0779725,0.0012499999999999,0.00173,0.8588135,-0.13522,-0.33319,1.1456235,-0.13168,-0.33003,0.8997225000000001,-0.49328,-0.240293,1.1339335,-0.49648,-0.245895
59,0.9861390000000001,0.64714,-0.224013,0.859245,0.44448,-0.201392,0.7477050000000001,0.63872,-0.35596,1.126115,0.45149,-0.185855,1.220995,0.6484,-0.33616,0.7301150000000001,0.83826,-0.5039199999999999,1.255605,0.8442999999999999,-0.50013,0.9219680000000001,-0.0010399999999999,-0.0018899999999999,1.0780319999999999,0.0010399999999999,0.00189,0.857945,-0.11581,-0.33974,1.1460650000000001,-0.11232,-0.33582,0.899725,-0.4736599999999999,-0.241892,1.133085,-0.47712,-0.248294
60,0.986556,0.64203,-0.23006,0.860459,0.4415099999999999,-0.206827,0.7482690000000001,0.63664,-0.35946,1.126069,0.44806,-0.190598,1.221069,0.64636,-0.33971,0.7287790000000001,0.838,-0.50467,1.256199,0.84426,-0.50278,0.92193,-0.00085,-0.00201,1.07807,0.00085,0.00201,0.857529,-0.0986799999999999,-0.34508,1.146439,-0.09598,-0.34068,0.8996999999999999,-0.4541699999999999,-0.24437,1.132409,-0.45833,-0.25019
61,0.987141,0.6372599999999999,-0.235865,0.861668,0.43909,-0.212027,0.748518,0.6357299999999999,-0.36276,1.126558,0.44416,-0.195353,1.2215079999999998,0.6420699999999999,-0.34365,0.727718,0.8382999999999999,-0.5058,1.257258,0.8423499999999999,-0.5052099999999999,0.921798,-0.00053,-0.00214,1.078202,0.0005299999999999,0.0021399999999999,0.857448,-0.08107,-0.34992,1.146988,-0.07946,-0.34524,0.899908,-0.43472,-0.246748,1.132008,-0.43916,-0.252623
62,0.9876690000000001,0.6311500000000001,-0.241626,0.862512,0.43724,-0.216824,0.748522,0.63171,-0.3659799999999999,1.126892,0.44065,-0.199713,1.221962,0.6365000000000001,-0.3470499999999999,0.726622,0.83595,-0.50743,1.258292,0.8381000000000001,-0.50766,0.921798,-0.0003599999999999,-0.00213,1.078202,0.00036,0.0021299999999999,0.857452,-0.0643699999999999,-0.35359,1.147452,-0.06377,-0.3490499999999999,0.8999300000000001,-0.4167299999999999,-0.248848,1.131562,-0.42093,-0.253978
63,0.988117,0.62554,-0.247328,0.863199,0.434909,-0.221532,0.748889,0.62898,-0.368785,1.127059,0.437266,-0.204037,1.222389,0.62944,-0.350345,0.725049,0.8348599999999999,-0.5090250000000001,1.259349,0.83423,-0.509745,0.921631,-0.00031,-0.0021249999999999,1.078369,0.0003099999999999,0.002125,0.857329,-0.04746,-0.356555,1.147809,-0.04763,-0.3520149999999999,0.899797,-0.39857,-0.250564,1.131119,-0.4035500000000001,-0.256159
64,0.9885495000000001,0.6204099999999999,-0.252823,0.8636794999999999,0.4324719999999999,-0.225601,0.7485295000000001,0.62673,-0.3713349999999999,1.1271295000000001,0.432617,-0.207874,1.2226795,0.62328,-0.3525749999999999,0.7236095,0.83244,-0.510355,1.2603095,0.82983,-0.511835,0.9214495,0.0002899999999999,-0.0021249999999999,1.0785505,-0.00029,0.002125,0.8571495,-0.03223,-0.358355,1.1482695,-0.03328,-0.3541849999999999,0.8996175,-0.3829100000000001,-0.252064,1.1307095,-0.3886200000000001,-0.25749
65,0.9890765,0.613685,-0.257895,0.8638975,0.430036,-0.2294319999999999,0.7481575,0.626115,-0.374115,1.1270875,0.4301149999999999,-0.2114789999999999,1.2228075,0.619225,-0.354255,0.7223775,0.8310150000000001,-0.5113449999999999,1.2612375,0.825105,-0.514485,0.9211955000000001,0.000315,-0.0017649999999999,1.0788045,-0.000315,0.001765,0.8569775,-0.0186649999999999,-0.3593349999999999,1.1487375,-0.020135,-0.3551649999999999,0.8993655,-0.369135,-0.253214,1.1307975,-0.375535,-0.259459
66,0.9892975,0.60836,-0.262837,0.8640045000000001,0.427484,-0.233481,0.7470945,0.6223799999999999,-0.37713,1.1267245,0.42777,-0.215391,1.2231144999999999,0.61604,-0.35695,0.7209445000000001,0.82897,-0.51257,1.2619245000000001,0.82027,-0.51834,0.9209805000000001,0.0003199999999999,-0.0016599999999999,1.0790194999999998,-0.0003199999999999,0.0016599999999999,0.8566045,-0.0052699999999999,-0.36056,1.1486844999999999,-0.0068,-0.35639,0.8984315,-0.3555,-0.254927,1.1305945,-0.36278,-0.261749
67,0.989577,0.60397,-0.267227,0.864242,0.424428,-0.237341,0.745992,0.6191300000000001,-0.380295,1.126242,0.426479,-0.218972,1.2234720000000001,0.6119100000000001,-0.359515,0.719312,0.82687,-0.5141249999999999,1.262652,0.81772,-0.522615,0.920789,-1.999999999996449e-05,-0.0014949999999999,1.079211,2.000000000002e-05,0.0014949999999999,0.856262,0.0076,-0.361685,1.148402,0.00607,-0.357515,0.897373,-0.34268,-0.2577089999999999,1.130182,-0.35075,-0.264021
68,0.989862,0.600475,-0.2711699999999999,0.864696,0.4228989999999999,-0.240776,0.7451760000000001,0.6179049999999999,-0.383215,1.125616,0.4246749999999999,-0.222651,1.2245059999999999,0.607645,-0.364125,0.717436,0.8257349999999999,-0.5167649999999999,1.2636859999999999,0.813155,-0.526705,0.920871,1.4999999999987246e-05,-0.0013149999999999,1.079129,-1.5000000000042755e-05,0.001315,0.855946,0.0222249999999999,-0.3609949999999999,1.147806,0.0206449999999999,-0.357865,0.896807,-0.327405,-0.258121,1.129546,-0.336895,-0.265391
69,0.990047,0.59749,-0.27443,0.864859,0.422057,-0.243773,0.744699,0.61606,-0.385695,1.125129,0.423528,-0.225791,1.225389,0.60471,-0.368975,0.7159690000000001,0.82516,-0.519765,1.264719,0.8072,-0.5313749999999999,0.921078,-1.000000000001e-05,-0.0010749999999999,1.078922,1.000000000001e-05,0.001075,0.855649,0.03542,-0.359415,1.146999,0.03347,-0.357325,0.895801,-0.3146799999999999,-0.260206,1.129059,-0.32462,-0.266475
70,0.991032,0.593175,-0.277673,0.865823,0.421306,-0.24688,0.744983,0.6129950000000001,-0.38828,1.125203,0.422412,-0.22882,1.226333,0.5996250000000001,-0.37356,0.715433,0.822895,-0.52315,1.2661229999999999,0.800285,-0.5362100000000001,0.921235,5.000000000032756e-06,-0.00074,1.078765,-4.999999999977245e-06,0.0007399999999999,0.855483,0.047255,-0.35773,1.147003,0.044875,-0.35655,0.894991,-0.303145,-0.262041,1.129533,-0.3135549999999999,-0.267769
71,0.9920440000000001,0.5896399999999999,-0.280892,0.866851,0.418384,-0.250353,0.745171,0.61016,-0.39133,1.125471,0.4195489999999999,-0.232715,1.2273209999999999,0.59632,-0.37898,0.715051,0.81956,-0.52695,1.266581,0.7945199999999999,-0.54181,0.921489,3.999999999998449e-05,-0.00044,1.078511,-4.000000000004e-05,0.0004399999999999,0.8552310000000001,0.0596199999999999,-0.35553,1.146741,0.0567299999999999,-0.35535,0.893989,-0.29112,-0.264019,1.130251,-0.3019200000000001,-0.269556
72,0.993182,0.585445,-0.284203,0.868011,0.415786,-0.254025,0.745201,0.606215,-0.394985,1.125941,0.418346,-0.236976,1.228501,0.593315,-0.385495,0.714711,0.8151649999999999,-0.5314650000000001,1.266891,0.788545,-0.5485450000000001,0.9216620000000001,-0.000155,-5.499999999999949e-05,1.0783379999999998,0.0001549999999999,5.499999999999949e-05,0.855051,0.0708749999999999,-0.353195,1.146571,0.0672249999999999,-0.354065,0.8931020000000001,-0.281135,-0.266583,1.131471,-0.291435,-0.272159
73,0.9943690000000001,0.5806800000000001,-0.288389,0.869657,0.409913,-0.25877,0.745387,0.60261,-0.400015,1.126817,0.416855,-0.2427409999999999,1.2297969999999998,0.5869,-0.3933949999999999,0.7144270000000001,0.81184,-0.537455,1.2672970000000001,0.7812300000000001,-0.556785,0.921955,-0.0005999999999999,0.000185,1.078045,0.0006,-0.0001849999999999,0.8543769999999999,0.07935,-0.351815,1.1464869999999998,0.07471,-0.353275,0.892164,-0.2747199999999999,-0.2705999999999999,1.133297,-0.28515,-0.2764219999999999
74,0.9951835,0.5750259999999999,-0.28948,0.8709375,0.4042359999999999,-0.260507,0.7450175,0.593815,-0.40244,1.1273575,0.4121299999999999,-0.245476,1.2308474999999999,0.5788479999999999,-0.39824,0.7137775,0.803415,-0.54088,1.2671975,0.7703949999999999,-0.5626,0.9220765,-0.000775,0.00089,1.0779235,0.0007749999999999,-0.00089,0.8533475,0.0863249999999999,-0.34848,1.1465275,0.0824849999999999,-0.35095,0.8908294999999999,-0.269945,-0.272009,1.1349775,-0.279595,-0.278075
75,0.9964050000000001,0.570172,-0.294373,0.8723650000000001,0.39964,-0.265579,0.7449049999999999,0.589451,-0.408525,1.128275,0.408481,-0.251428,1.231585,0.570749,-0.404835,0.713335,0.7971999999999999,-0.548075,1.2678150000000001,0.76129,-0.5716049999999999,0.922345,9.9999999999989e-05,0.001515,1.077655,-9.9999999999989e-05,-0.0015149999999999,0.853415,0.0960499999999999,-0.347925,1.146195,0.0873599999999999,-0.350255,0.8907309999999999,-0.26148,-0.278322,1.137095,-0.27599,-0.283856
76,0.9976625000000001,0.5678280000000001,-0.299366,0.8735364999999999,0.39621,-0.270922,0.7452665,0.586222,-0.41447,1.1292765,0.4044400000000001,-0.257708,1.2324865,0.5668770000000001,-0.41249,0.7131865,0.79239,-0.55564,1.2689264999999998,0.75397,-0.58022,0.9227835,0.00136,0.0017699999999999,1.0772165,-0.0013599999999999,-0.0017699999999999,0.8537165000000001,0.10438,-0.34777,1.1455465,0.09599,-0.3497099999999999,0.8907655000000001,-0.2543099999999999,-0.284713,1.1392765,-0.2676599999999999,-0.290482
77,0.9985565,0.566389,-0.304604,0.8736675,0.39627,-0.276161,0.7453875,0.5823510000000001,-0.4200399999999999,1.1301275,0.40465,-0.262947,1.2332775,0.562846,-0.4187499999999999,0.7128875,0.78722,-0.5625899999999999,1.2700075,0.74847,-0.58927,0.9232015000000001,0.00219,0.00198,1.0767985,-0.00219,-0.0019799999999999,0.8539375,0.10777,-0.34895,1.1446075,0.09975,-0.35001,0.8906185000000001,-0.25166,-0.291192,1.1408274999999999,-0.2640399999999999,-0.296833
78,0.9991085,0.565334,-0.309508,0.8737895,0.3947,-0.281066,0.7445195,0.578551,-0.425365,1.1303995,0.40315,-0.26785,1.2336895,0.557257,-0.424355,0.7122595,0.7809900000000001,-0.569015,1.2708895,0.74211,-0.597215,0.9238995,0.00258,0.002065,1.0761005,-0.00258,-0.0020649999999999,0.8539595,0.10709,-0.350745,1.1433895,0.09965,-0.351095,0.8903285,-0.2524799999999999,-0.2975989999999999,1.1409995,-0.2646499999999999,-0.3021379999999999
79,0.9994415000000001,0.565334,-0.31468,0.8741005,0.3947,-0.28634,0.7442305,0.576844,-0.43064,1.1307705000000001,0.40315,-0.273124,1.2344805,0.557257,-0.42991,0.7117605,0.77722,-0.57559,1.2716605,0.73952,-0.6050599999999999,0.9247385,0.00258,0.0025,1.0752615,-0.00258,-0.0025,0.8540605,0.10603,-0.35354,1.1424305,0.09891,-0.35307,0.8896315,-0.25285,-0.302631,1.1409005,-0.2655499999999999,-0.307756
80,1.000019,0.565334,-0.315278,0.8745980000000001,0.3947,-0.286758,0.7448779999999999,0.576844,-0.43215,1.131688,0.40315,-0.274307,1.235648,0.557257,-0.4316,0.7122580000000001,0.77722,-0.57824,1.2733780000000001,0.73952,-0.60864,0.924958,0.00258,0.0019399999999999,1.075042,-0.00258,-0.0019399999999999,0.8547580000000001,0.10532,-0.35473,1.142698,0.09769,-0.35426,0.890447,-0.2534799999999999,-0.303391,1.141398,-0.2655499999999999,-0.308946
81,1.0003704999999998,0.565334,-0.315361,0.8746214999999999,0.39473,-0.286839,0.7457315,0.576844,-0.433185,1.1324515,0.40315,-0.275014,1.2366415,0.557257,-0.432635,0.7126215,0.77722,-0.5807549999999999,1.2751315,0.73952,-0.6113850000000001,0.9250285,0.00258,0.001585,1.0749715,-0.00258,-0.0015849999999999,0.8552215,0.10501,-0.355765,1.1427215,0.09661,-0.355295,0.8912975,-0.25385,-0.30349,1.1417515,-0.2655499999999999,-0.309981
82,1.0007385,0.5676129999999999,-0.314618,0.8746425,0.3932799999999999,-0.2861869999999999,0.7464925,0.575394,-0.434085,1.1330125,0.40318,-0.27498,1.2382225,0.5564429999999999,-0.433645,0.7129925000000001,0.77577,-0.583495,1.2768825,0.73807,-0.613355,0.9248025,0.0028799999999999,0.001255,1.0751975,-0.0028799999999999,-0.001255,0.8557725,0.1035599999999999,-0.356665,1.1427025,0.0949299999999999,-0.3560149999999999,0.8923245,-0.2553000000000001,-0.303294,1.1421225,-0.267,-0.310587
83,1.0010839999999999,0.571385,-0.312285,0.874642,0.394435,-0.283453,0.747132,0.574022,-0.43455,1.133602,0.405355,-0.273375,1.2403819999999999,0.553142,-0.43355,0.713082,0.770645,-0.58767,1.279102,0.731175,-0.61505,0.924478,0.0028449999999999,0.00115,1.075522,-0.0028449999999999,-0.00115,0.856252,0.094605,-0.35761,1.142662,0.085975,-0.35617,0.892674,-0.264255,-0.304023,1.141812,-0.2759549999999999,-0.3099389999999999
84,1.0014714999999998,0.576432,-0.309175,0.8747145000000001,0.395908,-0.28015,0.7478545,0.571824,-0.434635,1.1342645,0.407006,-0.270852,1.2428245,0.550633,-0.432965,0.7135345,0.7626700000000001,-0.592575,1.2814145,0.7224700000000001,-0.6160749999999999,0.9240555,0.00292,0.001165,1.0759445,-0.0029199999999999,-0.0011649999999999,0.8568445,0.08184,-0.3590649999999999,1.1428045,0.07316,-0.3563849999999999,0.8933155,-0.27635,-0.3036649999999999,1.1412345,-0.2884799999999999,-0.309202
85,1.001177,0.58477,-0.30413,0.8732710000000001,0.402633,-0.27471,0.7476309999999999,0.5680339999999999,-0.43294,1.133981,0.4093139999999999,-0.265807,1.243641,0.550696,-0.4321,0.713441,0.75227,-0.5968,1.283501,0.71254,-0.6156900000000001,0.923795,0.00322,0.0009799999999999,1.076205,-0.00322,-0.00098,0.858031,0.0693999999999999,-0.35887,1.142161,0.06079,-0.35585,0.893866,-0.2873,-0.302093,1.139361,-0.29954,-0.307022
86,1.000719,0.59582,-0.296516,0.871373,0.409023,-0.266733,0.747323,0.56625,-0.42843,1.133883,0.414971,-0.258338,1.2442829999999998,0.5501050000000001,-0.42854,0.713353,0.7412700000000001,-0.59929,1.285453,0.7022700000000001,-0.6133,0.923421,0.00351,0.0007699999999999,1.076579,-0.0035099999999999,-0.0007699999999999,0.859443,0.05291,-0.35707,1.1416529999999998,0.04384,-0.35422,0.894727,-0.30221,-0.29896,1.137353,-0.3152699999999999,-0.3029159999999999
87,1.0004035,0.60704,-0.287449,0.8699224999999999,0.414375,-0.257674,0.7475425,0.56374,-0.424355,1.1340125,0.418586,-0.249973,1.2449225,0.5495300000000001,-0.424065,0.7135325,0.72687,-0.6018950000000001,1.2857224999999999,0.69096,-0.610255,0.9231405,0.00272,0.0005649999999999,1.0768595,-0.00272,-0.000565,0.8603625,0.03099,-0.353265,1.1414725,0.02538,-0.350635,0.8960275,-0.32306,-0.295039,1.1356025,-0.33143,-0.297647
88,0.999858,0.617295,-0.27594,0.868503,0.421361,-0.24678,0.748033,0.555555,-0.419925,1.134023,0.423879,-0.239724,1.245143,0.542975,-0.419135,0.714353,0.701055,-0.604515,1.2859530000000001,0.670915,-0.607895,0.922901,0.0017949999999999,0.000845,1.077099,-0.0017949999999999,-0.000845,0.861523,0.0010749999999999,-0.348825,1.141283,-0.0050149999999999,-0.346415,0.897295,-0.353245,-0.289948,1.133943,-0.362185,-0.290693
89,0.999669,0.62844,-0.266818,0.86754,0.426042,-0.239404,0.74927,0.54462,-0.419075,1.13436,0.4265299999999999,-0.233062,1.24584,0.53349,-0.417715,0.71711,0.66841,-0.612525,1.28666,0.64568,-0.609755,0.9225490000000001,0.0010799999999999,0.0002849999999999,1.077451,-0.00108,-0.000285,0.8631800000000001,-0.03123,-0.346865,1.14144,-0.03737,-0.343345,0.898268,-0.38715,-0.288689,1.13281,-0.3961100000000001,-0.287806
90,0.9993345,0.64246,-0.248603,0.8667565,0.43294,-0.224121,0.7517065,0.52886,-0.41105,1.1339065,0.43246,-0.218942,1.2471265,0.51833,-0.40914,0.7215365,0.62851,-0.61337,1.2873865,0.61205,-0.60463,0.9220185,0.00081,-6.0000000000004494e-05,1.0779815,-0.0008099999999999,6.0000000000004494e-05,0.8649665,-0.0669099999999999,-0.33874,1.1414465,-0.0715299999999999,-0.33529,0.8989075,-0.4273599999999999,-0.278821,1.1325065,-0.4337,-0.27765
91,0.9990295,0.65516,-0.2292679999999999,0.8661985,0.43911,-0.2077079999999999,0.7525284999999999,0.5117,-0.3993449999999999,1.1334184999999999,0.43722,-0.203725,1.2474385,0.50136,-0.397725,0.7259585,0.58849,-0.6081650000000001,1.2857085,0.57577,-0.595205,0.9213415000000001,0.00051,-0.0007049999999999,1.0786585,-0.00051,0.000705,0.8667385,-0.10092,-0.328585,1.1413885,-0.10475,-0.325705,0.8991315,-0.46618,-0.267738,1.1321485,-0.47053,-0.265644
92,0.9986835,0.66842,-0.212476,0.8655855,0.44458,-0.194986,0.7547355,0.49451,-0.39008,1.1325255,0.44084,-0.191276,1.2471955000000001,0.48421,-0.38739,0.7305455000000001,0.5528,-0.6033,1.2824255,0.53993,-0.58832,0.9215035,0.00066,-0.00064,1.0784965,-0.0006599999999999,0.00064,0.8680755,-0.13015,-0.32029,1.1408555,-0.13282,-0.31806,0.8984535,-0.50007,-0.259489,1.1319854999999999,-0.50288,-0.256564
93,0.9982175,0.681265,-0.194522,0.8650205,0.449905,-0.181261,0.7571705,0.475385,-0.37918,1.1316805,0.445625,-0.177546,1.2467305,0.466335,-0.37276,0.7354005,0.517685,-0.5967800000000001,1.2781605,0.504815,-0.57962,0.9217335000000001,0.000705,-0.00047,1.0782664999999998,-0.000705,0.0004699999999999,0.8693605,-0.158225,-0.31023,1.1402305,-0.1598649999999999,-0.30853,0.8986685000000001,-0.5329349999999999,-0.250669,1.1321605,-0.5342450000000001,-0.246551
94,0.9977165000000001,0.692985,-0.1757729999999999,0.8642995,0.453815,-0.167315,0.7597995000000001,0.456055,-0.36784,1.1309495,0.450015,-0.1636139999999999,1.2458095,0.448115,-0.3571999999999999,0.7410795,0.483725,-0.58721,1.2728795,0.470955,-0.57041,0.9220285,0.0005149999999999,-0.00028,1.0779715,-0.0005149999999999,0.00028,0.8703795,-0.1847849999999999,-0.29882,1.1397995,-0.1853449999999999,-0.2976499999999999,0.8989475000000001,-0.564705,-0.241099,1.1323695,-0.5643450000000001,-0.2360259999999999
95,0.9967820000000001,0.705735,-0.156773,0.863292,0.458175,-0.153661,0.761722,0.437285,-0.35555,1.129532,0.453305,-0.1497629999999999,1.243372,0.430085,-0.3409999999999999,0.746642,0.449175,-0.5771,1.264372,0.431405,-0.56028,0.922208,0.000335,-0.0001299999999999,1.077792,-0.0003349999999999,0.00013,0.870932,-0.2095849999999999,-0.28497,1.139002,-0.209165,-0.28417,0.898219,-0.594325,-0.2309999999999999,1.132172,-0.593205,-0.224487
96,0.9963750000000001,0.7166899999999999,-0.1364959999999999,0.862658,0.4635499999999999,-0.1389549999999999,0.7643380000000001,0.41507,-0.340005,1.128948,0.4583899999999999,-0.1340599999999999,1.2412079999999999,0.4088,-0.322395,0.752368,0.4124899999999999,-0.5653349999999999,1.256368,0.39142,-0.548445,0.922614,0.0001499999999999,4.500000000001725e-05,1.077386,-0.0001499999999999,-4.499999999998949e-05,0.8721880000000001,-0.24078,-0.2694249999999999,1.138788,-0.23736,-0.268745,0.898027,-0.62451,-0.2179859999999999,1.132278,-0.62249,-0.2115019999999999
97,0.9963225,0.7270825,-0.1171099999999999,0.8619855000000001,0.4660725,-0.124345,0.7672255,0.3947625,-0.32249,1.1289254999999998,0.4620925,-0.118366,1.2389155,0.3876425,-0.30074,0.7572955,0.3729725,-0.54558,1.2485455,0.3580525,-0.53496,0.9231745,-4.5000000000045e-06,0.0,1.0768255,4.5000000000045e-06,0.0,0.8733555,-0.2642875,-0.25302,1.1387955,-0.2597075,-0.25143,0.8981695,-0.6473075,-0.203837,1.1327654999999999,-0.6446375000000001,-0.197761
98,0.9964245,0.7353580000000001,-0.09601,0.8613725,0.466328,-0.107175,0.7699025000000002,0.375578,-0.30025,1.1291025000000001,0.465038,-0.099999,1.2364225,0.368458,-0.27522,0.7606025000000001,0.336998,-0.5172100000000001,1.2415425,0.326528,-0.5079,0.9238385,-0.0004429999999999,0.0005599999999999,1.0761615,0.0004429999999999,-0.00056,0.8744325,-0.283472,-0.23317,1.1387025,-0.278892,-0.23034,0.8982875000000001,-0.665882,-0.186273,1.1333425,-0.662932,-0.180747
99,0.9966280000000001,0.7407505,-0.077842,0.860716,0.4660205,-0.0912579999999999,0.772506,0.3630605,-0.27551,1.129696,0.4656605,-0.082704,1.233366,0.3559405,-0.2477899999999999,0.762736,0.3060305,-0.48434,1.235646,0.2983305,-0.47714,0.9243850000000001,-0.0005555,-9.999999999996125e-06,1.075615,0.0005555,1.000000000001e-05,0.8762860000000001,-0.2959895,-0.2101,1.137396,-0.2914095,-0.20676,0.898068,-0.6783995,-0.169205,1.133736,-0.6754495,-0.1644709999999999
100,0.9968365000000001,0.7456245,-0.0599009999999999,0.8602655,0.4662145,-0.075125,0.7740755,0.3511145,-0.2499259999999999,1.1303355,0.4659545,-0.065305,1.2301855,0.3439945,-0.220126,0.7649255,0.2748245,-0.447156,1.2320055,0.2670745,-0.441986,0.9248835,-0.0006764999999999,-0.000574,1.0751165,0.0006765,0.000574,0.8780555,-0.3095155,-0.187273,1.1360855,-0.3033555,-0.182937,0.8977155,-0.6903455,-0.152961,1.1343155,-0.6873954999999999,-0.148366
101,0.997127,0.749238,-0.0436845,0.8597239999999999,0.466698,-0.0592855,0.775754,0.340088,-0.2230635,1.131074,0.466278,-0.0482725,1.226954,0.333008,-0.1923535,0.766814,0.243718,-0.4106535,1.228514,0.234138,-0.4048935,0.925272,-0.0007629999999999,-0.0010415,1.074728,0.0007629999999999,0.0010415,0.879884,-0.322952,-0.1647005,1.134844,-0.314552,-0.1595794999999999,0.897526,-0.700812,-0.1373445,1.134964,-0.697862,-0.1327195
102,0.9973985000000001,0.753123,-0.0278984999999999,0.8593495,0.467323,-0.0437274999999999,0.7771095,0.327443,-0.1904175,1.1321595,0.466663,-0.0320544999999999,1.2233995,0.321223,-0.1647675,0.7685895,0.2129829999999999,-0.3653975,1.2255295,0.202183,-0.3628075,0.9257455,-0.0008069999999999,-0.0014754999999999,1.0742545,0.000807,0.0014755,0.8816395,-0.336437,-0.1420285,1.1334894999999998,-0.327987,-0.1363754999999999,0.8976455,-0.709207,-0.1223414999999999,1.1356095,-0.707537,-0.1169335
103,0.9977365000000001,0.7565915,-0.0123729999999999,0.8592145,0.4677015,-0.0286849999999999,0.7784044999999999,0.3157715,-0.1589809999999999,1.1332545,0.4667315,-0.0165269999999999,1.2196245000000001,0.3093215,-0.136476,0.7703845000000001,0.1822615,-0.320061,1.2231845,0.1713715,-0.320141,0.9261035,-0.0007775,-0.0021209999999999,1.0738965,0.0007775,0.002121,0.8833645,-0.3497385,-0.11984,1.1320545,-0.3404685,-0.113786,0.8976445,-0.7173885000000001,-0.107375,1.1360545,-0.7164285,-0.101246
104,0.9978980000000001,0.7588145,0.0032604999999999,0.858993,0.4680344999999999,-0.0140525,0.779573,0.3039245,-0.1252495,1.134393,0.4670645,-0.0008914999999999,1.214513,0.2965244999999999,-0.1056375,0.771853,0.1513445,-0.2718265,1.222583,0.1490345,-0.2731965,0.926302,-0.0007924999999999,-0.0027065,1.073698,0.0007924999999999,0.0027065,0.885013,-0.3631255,-0.0973505,1.130653,-0.3526455,-0.0912015,0.8976010000000001,-0.7253255000000001,-0.0919375,1.136243,-0.7248455,-0.0850465
105,0.9980945000000001,0.760772,0.017754,0.8589675000000001,0.467032,-0.0005159999999999,0.7815275,0.2915419999999999,-0.092655,1.1358675,0.466762,0.013963,1.2094075,0.2857119999999999,-0.075586,0.7732375000000001,0.118322,-0.223303,1.2217375,0.127302,-0.225823,0.9263945000000001,-0.000927,-0.003303,1.0736055,0.0009269999999999,0.003303,0.8865975000000001,-0.375988,-0.075399,1.1294375,-0.362938,-0.069767,0.8976125000000001,-0.7325280000000001,-0.0772429999999999,1.1363175,-0.732438,-0.069603
106,0.9982815,0.7617515,0.0296864999999999,0.8591934999999999,0.4659715,0.0107055,0.7836135,0.2806715,-0.0619244999999999,1.1375935,0.4656515,0.0272875,1.2050735,0.2759615,-0.0476264999999999,0.7746735,0.0978805,-0.1826635,1.2208435,0.1076815,-0.1791135,0.9264545,-0.0010544999999999,-0.0036135,1.0735455,0.0010544999999999,0.0036135,0.8881935,-0.3872184999999999,-0.0549394999999999,1.1282735,-0.3712384999999999,-0.0505054999999999,0.8976235,-0.7376785,-0.0638745,1.1363935,-0.7379184999999999,-0.0555574999999999
107,0.9982575,0.7628615,0.036485,0.8594685,0.4657115,0.01723,0.7856785,0.2692515,-0.035675,1.1393085,0.4648815,0.036088,1.2005284999999999,0.2647215,-0.022583,0.7765485,0.0802865,-0.146359,1.2201585,0.0887595,-0.143249,0.9264185,-0.0010325,-0.0044449999999999,1.0735815,0.0010325,0.004445,0.8897385,-0.3967085,-0.0384199999999999,1.1271985,-0.3777485,-0.0362489999999999,0.8975585000000001,-0.7408285,-0.054074,1.1363785,-0.7411785000000001,-0.044932
108,0.9979325000000001,0.764099,0.0404745,0.8596615,0.465519,0.0210185,0.7881015,0.260539,-0.0135885,1.1405615,0.465059,0.0415824999999999,1.1964115,0.255929,-0.0011855,0.7786215,0.06543,-0.1133755,1.2191315,0.072729,-0.1101455,0.9264715,-0.001237,-0.0044705,1.0735285,0.0012369999999999,0.0044704999999999,0.8901114999999999,-0.398321,-0.0286345,1.1273715,-0.378671,-0.0281465,0.8973315,-0.741861,-0.0467254999999999,1.1364614999999998,-0.7423109999999999,-0.0359995
109,0.9976165,0.765201,0.043775,0.8599565,0.465161,0.02389,0.7905365,0.252191,0.007164,1.1417365,0.465241,0.046266,1.1925565,0.247691,0.01904,0.7804765000000001,0.052018,-0.082621,1.2179465,0.058218,-0.079561,0.9265545,-0.001364,-0.004567,1.0734455,0.001364,0.004567,0.8905165,-0.399699,-0.0195119999999999,1.1276165,-0.379389,-0.020675,0.8974265,-0.7424489999999999,-0.039854,1.1367765,-0.7427889999999999,-0.028118
110,0.9971985000000001,0.7659889999999999,0.0468489999999999,0.8601975,0.464949,0.0262619999999999,0.7934475,0.244129,0.0260189999999999,1.1428575,0.465549,0.050127,1.1887175,0.240169,0.037618,0.7819275,0.040385,-0.055579,1.2168675,0.045714,-0.051584,0.9266545,-0.001507,-0.004708,1.0733455,0.001507,0.0047079999999999,0.8908775,-0.401051,-0.010657,1.1278875,-0.379831,-0.013375,0.8977675,-0.7429110000000001,-0.033027,1.1370075,-0.743171,-0.020239
111,0.9967545000000001,0.7663125000000001,0.049284,0.8602705000000002,0.4648925,0.02784,0.7964505,0.2368525,0.0406129999999999,1.1437605,0.4655125,0.052872,1.1852305,0.2336224999999999,0.0521579999999999,0.7842805000000002,0.0303415,-0.033945,1.2155505,0.0354535,-0.0288579999999999,0.9267515,-0.0015135,-0.004822,1.0732485,0.0015135,0.004822,0.8911505000000001,-0.4021475,-0.003325,1.1280705,-0.3796375,-0.0072149999999999,0.8974605,-0.7432175,-0.02748,1.1372305,-0.7432274999999999,-0.0132779999999999
112,0.996264,0.7662895000000001,0.0513254999999999,0.8600559999999999,0.4648695,0.0287575,0.798926,0.2294995,0.0529754999999999,1.144536,0.4653494999999999,0.0549845,1.182186,0.2273395,0.0631305,0.785836,0.0213765,-0.0166075,1.213736,0.0268375,-0.0127455,0.926844,-0.0015455,-0.0046815,1.073156,0.0015455,0.0046814999999999,0.891376,-0.4032405,0.0023074999999999,1.128216,-0.3794905,-0.0015825,0.896916,-0.7434105,-0.0224285,1.137456,-0.7434204999999999,-0.0071375
113,0.9958645,0.76617,0.052893,0.8598455,0.46464,0.028956,0.8002255,0.2225599999999999,0.061492,1.1447655,0.46523,0.056033,1.1806855,0.2221199999999999,0.068989,0.7860555,0.013288,-0.0039189999999999,1.2125054999999998,0.020715,-0.0041299999999999,0.9269315,-0.001599,-0.0046379999999999,1.0730685,0.001599,0.004638,0.8915955,-0.40363,0.006988,1.1281755,-0.37909,0.003098,0.8964955,-0.74347,-0.018196,1.1377054999999998,-0.74393,-0.0016529999999999
114,0.9954095000000001,0.7662215,0.0541915,0.8594425,0.4642914999999999,0.0290495,0.8005025,0.2177315,0.0680675,1.1450625,0.4652115,0.0569365,1.1793925,0.2181115,0.0733315,0.7863325,0.0104125,0.0067605,1.2114025,0.0163115,0.0008645,0.9270205,-0.0016705,-0.0045804999999999,1.0729795,0.0016705,0.0045805,0.8918425,-0.4033585,0.0113335,1.1283725,-0.3781485,0.0074435,0.8962825,-0.7430985,-0.0140054999999999,1.1380525,-0.7442185,0.0032495
115,0.9946615,0.7664425,0.055,0.8589585,0.4638825,0.029358,0.8012285,0.2141525,0.07447,1.1457985,0.4653325,0.057692,1.1782685,0.2148325,0.0777569999999999,0.7870485,0.0083015,0.0167329999999999,1.2103685,0.0128475,0.0052899999999999,0.9271505,-0.0018405,-0.0045089999999999,1.0728495,0.0018405,0.0045089999999999,0.8921485000000001,-0.4032775,0.015604,1.1290485000000001,-0.3779274999999999,0.011769,0.8964585,-0.7426475,-0.0097879999999999,1.1387585,-0.7441274999999999,0.0079129999999999
116,0.993077,0.766713,0.0546145,0.8579030000000001,0.463323,0.0299844999999999,0.802583,0.212753,0.0790845,1.144143,0.465743,0.0556925,1.177583,0.214253,0.0820005,0.7879929999999999,0.006685,0.0228725,1.209883,0.012649,0.0095345,0.927289,-0.00196,-0.0044454999999999,1.072711,0.00196,0.0044454999999999,0.892773,-0.403177,0.0184324999999999,1.130393,-0.377387,0.0155215,0.897313,-0.7421070000000001,-0.0057935,1.140063,-0.743757,0.0121604999999999
117,0.9913595000000001,0.7667634999999999,0.0532275,0.8561305000000001,0.4633535,0.0316685,0.8044305,0.2124035,0.0834095,1.1432905,0.4659235,0.0541915,1.1774105,0.2148035,0.0851215,0.7883405,0.0064765,0.0271955,1.2106305,0.0131995,0.0138575,0.9274614999999999,-0.0019554999999999,-0.0039135,1.0725385,0.0019555,0.0039135,0.8941105,-0.4033664999999999,0.0197585,1.1325405,-0.3768364999999999,0.0185525,0.8996705,-0.7418865,-0.0020994999999999,1.1429205,-0.7436265000000001,0.0164875
118,0.9891245,0.766723,0.0506935,0.8538515,0.463823,0.0346595,0.8067215,0.212533,0.0886175,1.1424715,0.466113,0.0518315,1.1785815,0.215773,0.0860705,0.7886215,0.006794,0.0324005,1.2125515,0.014141,0.0155915,0.9277245000000001,-0.002016,-0.0031044999999999,1.0722755,0.002016,0.0031044999999999,0.8970815,-0.403217,0.0206785,1.1353815,-0.3764369999999999,0.0200965,0.9048615,-0.741327,0.0024134999999999,1.1485615,-0.743437,0.0217015
119,0.9870960000000001,0.7664759999999999,0.0473235,0.85213,0.4644459999999999,0.0377425,0.80861,0.213566,0.0933825,1.14176,0.466466,0.0490665,1.18011,0.216806,0.0841535,0.7886299999999999,0.007827,0.0371615,1.21536,0.014123,0.0133584999999999,0.927954,-0.002112,-0.0020214999999999,1.072046,0.002112,0.0020214999999999,0.90036,-0.402744,0.0201915,1.13816,-0.377334,0.0194025,0.91126,-0.740764,0.0063084999999999,1.15526,-0.7428440000000001,0.0258984999999999
120,0.9853675,0.7660210000000001,0.0432184999999999,0.8503335000000001,0.465131,0.0408795,0.8105835,0.214781,0.0964235,1.1412735,0.466821,0.0455675,1.1823235,0.218231,0.0800535,0.7888535,0.009042,0.0404024999999999,1.2174935,0.01534,0.0062824999999999,0.9282005,-0.002329,-0.0008745,1.0717995,0.002329,0.0008745,0.9039835,-0.403429,0.0193004999999999,1.1403035,-0.376139,0.0159614999999999,0.9192435,-0.7404189999999999,0.0096094999999999,1.1630535,-0.7414189999999999,0.0280814999999999
121,0.9835945,0.7643345,0.0368535,0.8497545000000001,0.4652845,0.0452545,0.8132445,0.2157545,0.0998005,1.1418845,0.4669345,0.0402675,1.1861545,0.2195445,0.0749895,0.7907744999999999,0.0100155,0.0431565,1.2218244999999999,0.0164535,-0.0002734999999999,0.9285345,-0.0025585,0.0006385,1.0714655,0.0025584999999999,-0.0006385,0.9130245,-0.4057655,0.0199405,1.1395025,-0.3751655,0.0049645,0.9332945,-0.7416555,0.0112325,1.1690245,-0.7401255,0.0231855
122,0.9812900000000001,0.762587,0.0297455,0.848371,0.465497,0.0493465,0.815701,0.217207,0.1026545,1.143014,0.466947,0.0354355,1.189711,0.220397,0.0702275,0.791581,0.011487,0.0441155,1.2242009999999999,0.017356,-0.0065355,0.928831,-0.0027709999999999,0.0023785,1.071169,0.002771,-0.0023784999999999,0.922261,-0.409273,0.0226565,1.133764,-0.374073,-0.0120055,0.947981,-0.740263,0.0131625,1.166211,-0.738583,0.0105405
123,0.979006,0.760885,0.0222834999999999,0.847126,0.4657449999999999,0.0531744999999999,0.8181560000000001,0.219245,0.1052075,1.142563,0.4671349999999999,0.0286904999999999,1.193536,0.221245,0.0654444999999999,0.791696,0.0141529999999999,0.0436794999999999,1.227506,0.0184739999999999,-0.0127465,0.928976,-0.003019,0.0040665,1.071024,0.0030189999999999,-0.0040665,0.932336,-0.412955,0.0240615,1.1264560000000001,-0.372905,-0.0349464999999999,0.9633760000000001,-0.738085,0.0120894999999999,1.159169,-0.735855,-0.0067564999999999
124,0.9764275000000001,0.758765,0.0134829999999999,0.8471175000000001,0.466205,0.0556549999999999,0.8209375000000001,0.221755,0.106232,1.1429974999999999,0.467375,0.0218759999999999,1.1974874999999998,0.222315,0.061395,0.7927075,0.017641,0.04212,1.2317175,0.019506,-0.0144349999999999,0.9293575000000001,-0.0032639999999999,0.0060749999999999,1.0706425,0.003264,-0.0060749999999999,0.9450775,-0.415785,0.0283169999999999,1.1163305000000001,-0.370235,-0.062245,0.9819875,-0.735665,0.0198409999999999,1.1445975,-0.729015,-0.034765
125,0.9744500000000001,0.7563135000000001,0.005595,0.8476000000000001,0.4658335,0.056938,0.8229000000000001,0.2242035,0.10608,1.14533,0.4669635,0.016085,1.201386,0.2236135,0.0581939999999999,0.7931900000000001,0.0218104999999999,0.038609,1.23467,0.0202385,-0.013465,0.9293500000000001,-0.0035165,0.007605,1.07065,0.0035164999999999,-0.007605,0.9587200000000001,-0.4174165,0.033707,1.105003,-0.3643865,-0.090005,0.9998700000000001,-0.7329365,0.020955,1.12066,-0.7149065,-0.069695
126,0.9716775,0.7531595,-0.002315,0.8481675,0.4640494999999999,0.057088,0.8239475,0.2264695,0.104026,1.1468215,0.4659895,0.010175,1.2047715,0.2245895,0.0552519999999999,0.7931975,0.0255105,0.032555,1.2360375,0.0203285,-0.0110649999999999,0.9293175,-0.0036804999999999,0.008865,1.0706825,0.0036804999999999,-0.008865,0.9723175,-0.4183005,0.041465,1.0934355,-0.3590705,-0.1166249999999999,1.0194975,-0.7293505,0.031785,1.0928464999999998,-0.7002805,-0.108245
127,0.9704030000000001,0.749436,-0.0087899999999999,0.8503230000000002,0.461126,0.0574579999999999,0.8251930000000001,0.227546,0.1008469999999999,1.147577,0.464636,0.00406,1.208132,0.224596,0.0537099999999999,0.793733,0.0285339999999999,0.0243,1.237727,0.019513,-0.00608,0.9291830000000001,-0.003707,0.0100099999999999,1.070817,0.003707,-0.0100099999999999,0.985483,-0.419844,0.050053,1.080857,-0.3545339999999999,-0.1428,1.037633,-0.727814,0.04155,1.063264,-0.693064,-0.14585
128,0.9692020000000001,0.746636,-0.0147049999999999,0.852252,0.459126,0.057435,0.826572,0.2285559999999999,0.097348,1.149567,0.463506,-0.0002749999999999,1.211458,0.225236,0.052135,0.794152,0.031504,0.015415,1.239329,0.019049,-0.0005849999999999,0.928902,-0.003707,0.010935,1.071098,0.003707,-0.010935,0.9995320000000001,-0.4200939999999999,0.058345,1.068039,-0.349784,-0.1674649999999999,1.056102,-0.726244,0.051995,1.033772,-0.6852739999999999,-0.1823349999999999
129,0.968295,0.745746,-0.01949,0.854695,0.459026,0.0579499999999999,0.827885,0.2297759999999999,0.0941139999999999,1.152086,0.463416,-0.00372,1.2145009999999998,0.2257459999999999,0.0515699999999999,0.7947150000000001,0.034776,0.0063199999999999,1.2424719999999998,0.019318,0.0059899999999999,0.928755,-0.003707,0.0121999999999999,1.071245,0.003707,-0.0122,1.0145449999999998,-0.4217039999999999,0.0682299999999999,1.054115,-0.3447639999999999,-0.18913,1.0750549999999999,-0.7243539999999999,0.0641199999999999,1.001815,-0.677024,-0.21723
130,0.9674300000000001,0.7456735,-0.0223899999999999,0.85585,0.4589534999999999,0.05663,0.8281000000000001,0.2308035,0.0896,1.15309,0.4633434999999999,-0.00608,1.215708,0.2267335,0.0513,0.79361,0.0380665,-0.00336,1.244271,0.0196435,0.01095,0.9283100000000001,-0.0037795,0.01284,1.07169,0.0037795,-0.0128399999999999,1.0246099999999998,-0.4226365,0.07773,1.04328,-0.3377065,-0.20223,1.08941,-0.7197665,0.07533,0.9702900000000001,-0.6686665,-0.24244
131,0.96783,0.744737,-0.02396,0.85805,0.4580169999999999,0.05595,0.82891,0.230557,0.0861099999999999,1.1542810000000001,0.4624069999999999,-0.00817,1.217671,0.226317,0.0508899999999999,0.79439,0.040291,-0.01092,1.248915,0.0187069999999999,0.0164699999999999,0.9277,-0.00373,0.01288,1.0723,0.0037299999999999,-0.01288,1.03506,-0.423943,0.0816599999999999,1.03684,-0.330233,-0.20931,1.10472,-0.7150230000000001,0.0891599999999999,0.9494300000000001,-0.6605530000000001,-0.25695
132,0.968035,0.7428765,-0.025135,0.859685,0.4561564999999999,0.055425,0.829385,0.2307965,0.082475,1.156059,0.4605964999999999,-0.0091049999999999,1.219142,0.2267165,0.049795,0.7953250000000001,0.0424774999999999,-0.017745,1.252443,0.0168465,0.018875,0.927465,-0.0039885,0.0129849999999999,1.0725349999999998,0.0039885,-0.0129849999999999,1.0443049999999998,-0.4260335,0.088245,1.032085,-0.3277635,-0.2081549999999999,1.1204749999999999,-0.7128135,0.109025,0.935805,-0.6546234999999999,-0.2619249999999999
133,0.968095,0.741378,-0.0245949999999999,0.860325,0.4550079999999999,0.056285,0.829115,0.2313079999999999,0.080295,1.156395,0.458768,-0.0098249999999999,1.220422,0.2265579999999999,0.049405,0.7950349999999999,0.04486,-0.0241649999999999,1.2541799999999999,0.016,0.017125,0.926985,-0.00422,0.0119049999999999,1.073015,0.00422,-0.0119049999999999,1.051035,-0.425142,0.091985,1.0289949999999999,-0.330022,-0.2024749999999999,1.1292849999999999,-0.707082,0.127565,0.930055,-0.653222,-0.254475
134,0.968445,0.7404465,-0.0236649999999999,0.8612850000000001,0.4540265,0.0580649999999999,0.8299850000000001,0.2326065,0.0790249999999999,1.157525,0.4576065,-0.009315,1.222052,0.2270865,0.048705,0.7960750000000001,0.0475765,-0.0293749999999999,1.2568540000000001,0.0173075,0.013295,0.927315,-0.0045455,0.011535,1.0726849999999999,0.0045455,-0.011535,1.056885,-0.4243734999999999,0.0965349999999999,1.026925,-0.3319235,-0.1957049999999999,1.130735,-0.7042035,0.144165,0.9347650000000001,-0.6528135,-0.238375
135,0.970105,0.7398790000000001,-0.0216549999999999,0.8636650000000001,0.453059,0.060765,0.831845,0.234339,0.079305,1.158745,0.4569089999999999,-0.008355,1.224148,0.228989,0.0483049999999999,0.7981250000000001,0.051168,-0.0326049999999999,1.259925,0.019976,0.008045,0.9283350000000001,-0.00487,0.012815,1.071665,0.0048699999999999,-0.012815,1.059485,-0.422621,0.106165,1.025685,-0.333801,-0.187865,1.124845,-0.701531,0.147755,0.9436650000000001,-0.6522709999999999,-0.2170549999999999
136,0.967935,0.7398585,-0.02104,0.863355,0.4524485,0.0613699999999999,0.830545,0.2362285,0.0779999999999999,1.158855,0.4577485,-0.00635,1.2238419999999999,0.2330985,0.0466299999999999,0.795635,0.0562895,-0.03799,1.259729,0.0264535,-0.00173,0.928735,-0.0050525,0.0134499999999999,1.071265,0.0050525,-0.01345,1.056475,-0.4217915,0.1263899999999999,1.0280449999999999,-0.3359715,-0.17479,1.104935,-0.6980815,0.1370399999999999,0.955065,-0.6516515,-0.1921400000000001
137,0.964935,0.7402465,-0.020465,0.8628450000000001,0.4527465,0.061765,0.828675,0.2376765,0.076735,1.157335,0.4593164999999999,-0.0054549999999999,1.223245,0.2379165,0.0455249999999999,0.791775,0.0623235,-0.0441249999999999,1.258293,0.0341415,-0.0127249999999999,0.9291650000000001,-0.0053174999999999,0.0139449999999999,1.070835,0.0053175,-0.0139449999999999,1.042895,-0.4157235,0.1016449999999999,1.031335,-0.3406535,-0.161485,1.084235,-0.6927734999999999,0.125325,0.965725,-0.6564135,-0.167735
138,0.9603300000000001,0.740765,-0.0214399999999999,0.86107,0.453735,0.06043,0.8265,0.2392149999999999,0.07547,1.1548,0.461275,-0.005,1.22174,0.243675,0.04363,0.78525,0.0685679999999999,-0.05251,1.255229,0.042924,-0.0243399999999999,0.92932,-0.005577,0.0136499999999999,1.07068,0.0055769999999999,-0.0136499999999999,1.02406,-0.407315,0.07313,1.0369499999999998,-0.3455049999999999,-0.14818,1.0556599999999998,-0.6849850000000001,0.10381,0.97872,-0.662675,-0.1429999999999999
139,0.95517,0.7417015,-0.0221649999999999,0.8590599999999999,0.4549815,0.059335,0.8244400000000001,0.2402315,0.075155,1.15237,0.4639514999999999,-0.0037849999999999,1.22057,0.2500015,0.042225,0.7791399999999999,0.0751515,-0.0590249999999999,1.25112,0.0523305,-0.0362649999999999,0.9297,-0.0058235,0.0133949999999999,1.0702999999999998,0.0058235,-0.0133949999999999,1.00454,-0.3979285,0.045045,1.04319,-0.3503685,-0.134865,1.02317,-0.6761585,0.074075,0.99403,-0.6647885,-0.119155
140,0.94863,0.742139,-0.02347,0.8564,0.455949,0.0576999999999999,0.82087,0.242549,0.0733899999999999,1.14896,0.4672989999999999,-0.00289,1.21918,0.256059,0.0414299999999999,0.76862,0.082936,-0.06966,1.2467199999999998,0.0612369999999999,-0.04796,0.93027,-0.0062069999999999,0.0133499999999999,1.0697299999999998,0.006207,-0.01335,0.9841300000000001,-0.388731,0.0165799999999999,1.04996,-0.354631,-0.1203,0.98858,-0.668781,0.0454499999999999,1.0082099999999998,-0.666281,-0.09659
141,0.941335,0.741417,-0.02504,0.853545,0.455767,0.0555499999999999,0.816745,0.243987,0.0719799999999999,1.1460149999999998,0.470477,-0.0009399999999999,1.217935,0.260467,0.04209,0.758705,0.090977,-0.0808299999999999,1.242985,0.068738,-0.056,0.930585,-0.006303,0.01311,1.069415,0.006303,-0.01311,0.963755,-0.379183,-0.00628,1.056595,-0.356913,-0.10686,0.951835,-0.661483,0.0079799999999999,1.019965,-0.667413,-0.07766
142,0.93409,0.740647,-0.0265299999999999,0.85044,0.455167,0.05285,0.80955,0.244887,0.0654199999999999,1.14254,0.473407,0.00108,1.2165899999999998,0.264887,0.04348,0.7460900000000001,0.0999169999999999,-0.0942699999999999,1.2405,0.074548,-0.05947,0.93081,-0.0063089999999999,0.0133699999999999,1.0691899999999999,0.0063089999999999,-0.0133699999999999,0.9431700000000001,-0.370063,-0.0281799999999999,1.06456,-0.359623,-0.0931699999999999,0.92052,-0.6545629999999999,-0.0280099999999999,1.03147,-0.665713,-0.05944
143,0.925145,0.740059,-0.0286899999999999,0.8459850000000001,0.454629,0.04911,0.802235,0.245169,0.06165,1.1374849999999999,0.475849,0.0036399999999999,1.213475,0.268629,0.04671,0.7343649999999999,0.105359,-0.1046599999999999,1.238405,0.078712,-0.05786,0.930535,-0.006109,0.01284,1.069465,0.006109,-0.0128399999999999,0.922965,-0.362321,-0.05064,1.0735549999999998,-0.362681,-0.07923,0.8956050000000001,-0.648991,-0.0592199999999999,1.042905,-0.665221,-0.04042
144,0.9153,0.739582,-0.0317899999999999,0.8402500000000002,0.454192,0.04399,0.79386,0.245672,0.05675,1.13162,0.478072,0.00552,1.20985,0.271142,0.05098,0.7223400000000001,0.109362,-0.11473,1.2365,0.081276,-0.0533599999999999,0.9295300000000001,-0.0060529999999999,0.0105399999999999,1.07047,0.0060529999999999,-0.0105399999999999,0.9058000000000002,-0.352888,-0.0742499999999999,1.08071,-0.363958,-0.0673199999999999,0.8791300000000001,-0.642468,-0.0764399999999999,1.05334,-0.665178,-0.0228999999999999
145,0.907655,0.7387155,-0.0345199999999999,0.835885,0.4537555,0.0391,0.7846950000000001,0.2459055,0.04862,1.128095,0.4789954999999999,0.00822,1.206505,0.2717555,0.05623,0.714655,0.1113355,-0.1213999999999999,1.236535,0.0808195,-0.0434299999999999,0.929175,-0.0062315,0.0086699999999999,1.070825,0.0062314999999999,-0.0086699999999999,0.8934750000000001,-0.3449145,-0.10196,1.085355,-0.3644145,-0.05996,0.873165,-0.6378145000000001,-0.07982,1.061805,-0.6650345,-0.00992
146,0.9000350000000001,0.736977,-0.038235,0.831125,0.453187,0.0338249999999999,0.776565,0.2457869999999999,0.0410749999999999,1.122105,0.480617,0.0090149999999999,1.202585,0.271937,0.0620149999999999,0.706135,0.112547,-0.130225,1.237075,0.080351,-0.0308249999999999,0.9289150000000002,-0.006393,0.0068749999999999,1.071085,0.006393,-0.0068749999999999,0.8916850000000001,-0.342253,-0.1004749999999999,1.0914149999999998,-0.364883,-0.0522749999999999,0.8692250000000001,-0.635173,-0.080575,1.071425,-0.665103,0.003395
147,0.8933450000000001,0.7351580000000001,-0.04144,0.827075,0.452888,0.02954,0.7680550000000002,0.245938,0.0325299999999999,1.1166749999999999,0.482158,0.01026,1.1989049999999999,0.2716679999999999,0.06815,0.700095,0.114918,-0.1366399999999999,1.238345,0.080082,-0.01682,0.928805,-0.006309,0.00531,1.071195,0.0063089999999999,-0.00531,0.8941749999999999,-0.342342,-0.0965399999999999,1.097225,-0.365152,-0.04505,0.871405,-0.634512,-0.0771,1.0808149999999999,-0.6648719999999999,0.01617
148,0.8867200000000001,0.73344,-0.0451549999999999,0.8231200000000001,0.45248,0.025735,0.7593300000000001,0.2458899999999999,0.023495,1.11175,0.48329,0.011695,1.1948400000000001,0.2717,0.074305,0.69374,0.11692,-0.1446049999999999,1.23971,0.079512,-0.0037849999999999,0.92866,-0.0067169999999999,0.0038449999999999,1.07134,0.006717,-0.0038449999999999,0.89697,-0.3418799999999999,-0.092615,1.107,-0.36371,-0.038845,0.8766700000000001,-0.63398,-0.0701649999999999,1.08994,-0.66484,0.0277749999999999
149,0.880525,0.7315105,-0.04918,0.817795,0.4518605,0.0208699999999999,0.751435,0.2460205,0.0156199999999999,1.105875,0.4843904999999999,0.0119199999999999,1.190265,0.2714505,0.0801099999999999,0.691165,0.1179605,-0.14934,1.2403149999999998,0.0782315,0.0079599999999999,0.928495,-0.0069725,0.0024399999999999,1.071505,0.0069724999999999,-0.0024399999999999,0.900125,-0.3415995,-0.08854,1.115235,-0.3621495,-0.0339099999999999,0.8831550000000001,-0.6335995,-0.06264,1.0983349999999998,-0.6650595,0.0380399999999999
150,0.875075,0.7297119999999999,-0.0533650000000001,0.8128150000000001,0.451152,0.0163349999999999,0.7440850000000001,0.246052,0.0076749999999999,1.100055,0.485522,0.0114549999999999,1.1854149999999999,0.271112,0.0853249999999999,0.686825,0.117712,-0.153935,1.240055,0.076461,0.0174849999999999,0.928355,-0.007205,0.0012049999999999,1.071645,0.007205,-0.001205,0.9034550000000001,-0.342048,-0.084595,1.121095,-0.360448,-0.030145,0.8907150000000001,-0.6330180000000001,-0.053735,1.106355,-0.665628,0.0470149999999999
151,0.8704450000000001,0.7272005,-0.0582949999999999,0.8083750000000001,0.4502705,0.0117749999999999,0.740345,0.2451605,0.004645,1.095205,0.4865505,0.0104549999999999,1.1807050000000001,0.2700005,0.0895549999999999,0.686195,0.1151905,-0.155395,1.2393049999999999,0.0733534999999999,0.0273149999999999,0.928265,-0.0074235,8.500000000000174e-05,1.0717349999999999,0.0074234999999999,-8.500000000000174e-05,0.9068650000000001,-0.3436595,-0.0805949999999999,1.1244049999999999,-0.3588295,-0.0270449999999999,0.897905,-0.6333695,-0.045545,1.1139649999999999,-0.6665995,0.0552449999999999
152,0.8673950000000001,0.7250295,-0.06301,0.804925,0.4490095,0.008,0.736595,0.2437295,-0.00065,1.091935,0.4876795,0.00909,1.176895,0.2689895,0.0924,0.685395,0.1137495,-0.1593799999999999,1.237275,0.0699155,0.0340399999999999,0.928315,-0.0076574999999999,-0.00063,1.071685,0.0076575,0.00063,0.9097850000000001,-0.3452905,-0.0771699999999999,1.127075,-0.3578405,-0.02487,0.9039150000000001,-0.6350405,-0.03966,1.120495,-0.6679105,0.06135
153,0.86478,0.723103,-0.0676099999999999,0.8016099999999999,0.447683,0.0049,0.7337400000000001,0.2421829999999999,-0.0043199999999999,1.08854,0.4889529999999999,0.00744,1.1724299999999999,0.268133,0.09408,0.68609,0.109073,-0.16202,1.2340799999999998,0.067276,0.0404099999999999,0.92843,-0.00791,-0.00124,1.07157,0.00791,0.00124,0.91234,-0.346837,-0.0734,1.12974,-0.356847,-0.0225499999999999,0.90942,-0.636557,-0.03427,1.12668,-0.669197,0.06701
154,0.86271,0.7211850000000001,-0.0716249999999999,0.79843,0.446255,0.002325,0.73422,0.2406549999999999,-0.0025149999999999,1.0842399999999999,0.4902849999999999,0.005035,1.1685699999999999,0.267265,0.095345,0.6869700000000001,0.1072249999999999,-0.1631549999999999,1.23053,0.065171,0.046345,0.92855,-0.0081339999999999,-0.0017449999999999,1.07145,0.008134,0.0017449999999999,0.9145,-0.348365,-0.069585,1.1323599999999998,-0.3559049999999999,-0.0199949999999999,0.91422,-0.6379549999999999,-0.0292749999999999,1.1322999999999999,-0.6705249999999999,0.0722249999999999
155,0.861125,0.7196155,-0.0748149999999999,0.795255,0.4450155,0.000735,0.7346649999999999,0.2392355,-0.0005749999999999,1.0824449999999999,0.4910955,0.004395,1.1648649999999998,0.2664355,0.095515,0.691245,0.1036155,-0.1590549999999999,1.226295,0.0638015,0.0501449999999999,0.928735,-0.0082265,-0.002055,1.071265,0.0082264999999999,0.002055,0.915755,-0.3493445,-0.066215,1.1343249999999998,-0.3551645,-0.017575,0.917435,-0.6387445,-0.025185,1.1365349999999999,-0.6717245,0.0762549999999999
156,0.8595700000000002,0.718103,-0.07767,0.79164,0.443703,-0.00082,0.7357200000000002,0.237863,0.0021799999999999,1.08039,0.491873,0.0035899999999999,1.16137,0.265943,0.0953399999999999,0.6951900000000001,0.099683,-0.1550399999999999,1.22202,0.062479,0.0522899999999999,0.9288600000000001,-0.0082779999999999,-0.00236,1.07114,0.008278,0.00236,0.91667,-0.350107,-0.06289,1.13598,-0.354677,-0.01514,0.92001,-0.639387,-0.02126,1.14015,-0.672677,0.07996
157,0.85852,0.716702,-0.0797949999999999,0.7879700000000001,0.442462,-0.0022149999999999,0.73776,0.2356019999999999,0.0056950000000001,1.07809,0.4925719999999999,0.002635,1.1580499999999998,0.265442,0.094855,0.6986400000000001,0.094702,-0.1513849999999998,1.2182899999999999,0.061238,0.0523850000000001,0.92902,-0.008331,-0.0025149999999999,1.0709799999999998,0.008331,0.002515,0.9175,-0.350738,-0.0593949999999999,1.1374900000000001,-0.3544879999999999,-0.0125949999999999,0.92219,-0.6399180000000001,-0.0176049999999999,1.1434199999999999,-0.6733680000000001,0.083605
158,0.85761,0.7154425,-0.081515,0.78594,0.4413125,-0.002105,0.74073,0.2337525,0.0077549999999999,1.07706,0.4928925,0.0026049999999999,1.15494,0.2651325,0.0938949999999999,0.70129,0.0896625,-0.149945,1.2147000000000001,0.0602625,0.0499549999999999,0.92921,-0.0083725,-0.0025249999999999,1.07079,0.0083724999999999,0.0025249999999999,0.91828,-0.3510975,-0.056165,1.13877,-0.3545375,-0.010035,0.9238100000000001,-0.6402275,-0.014365,1.14634,-0.6741075,0.0868249999999999
159,0.8569050000000001,0.7143625,-0.08282,0.783895,0.4402625,-0.0017099999999999,0.743355,0.2315424999999999,0.0107099999999999,1.076355,0.4931425,0.00285,1.152165,0.2649924999999999,0.0928299999999999,0.7039150000000001,0.0847525,-0.14678,1.211605,0.0598624999999999,0.04602,0.9294250000000001,-0.0084265,-0.00239,1.070575,0.0084264999999999,0.00239,0.919215,-0.3514375,-0.0532099999999999,1.139915,-0.3547575,-0.0074999999999999,0.925035,-0.6412575,-0.01141,1.148965,-0.6748975,0.08976
160,0.85502,0.7140695,-0.0854649999999999,0.77898,0.4410294999999999,-0.0026249999999999,0.73946,0.2300495,0.013265,1.07437,0.4940894999999999,0.002555,1.14705,0.2672795,0.090475,0.7056100000000001,0.0871395,-0.1477649999999999,1.20373,0.0601655,0.037275,0.9298600000000001,-0.0085125,-0.0023849999999999,1.07014,0.0085125,0.002385,0.9205400000000001,-0.3517405,-0.0513849999999999,1.14188,-0.3551605,-0.0037749999999999,0.92687,-0.6431005000000001,-0.0094149999999999,1.15285,-0.6755905,0.094525
161,0.8549550000000001,0.713842,-0.084775,0.7774850000000001,0.438882,-0.001415,0.7425050000000001,0.2274719999999999,0.0179549999999999,1.073745,0.493912,0.0031449999999999,1.146175,0.267682,0.0894049999999999,0.7131050000000001,0.073612,-0.1333849999999999,1.203705,0.061309,0.030375,0.9300050000000001,-0.00857,-0.0017749999999999,1.069995,0.00857,0.0017749999999999,0.9211950000000001,-0.351928,-0.048435,1.142345,-0.3549879999999999,-0.002175,0.9279350000000001,-0.643318,-0.0066749999999999,1.154315,-0.675308,0.0964549999999999
162,0.854185,0.713543,-0.0842250000000001,0.779435,0.438723,0.0009349999999999,0.744595,0.227383,0.0209049999999999,1.074865,0.493753,0.0047749999999999,1.145275,0.268133,0.0878849999999999,0.7213149999999999,0.062902,-0.119765,1.2037849999999999,0.06141,0.0223549999999999,0.930075,-0.008527,-0.001365,1.069925,0.008527,0.0013649999999999,0.921645,-0.351987,-0.045555,1.142655,-0.355317,-0.0009150000000001,0.9279850000000001,-0.643417,-0.004025,1.1550749999999999,-0.676347,0.0982849999999999
163,0.8541350000000001,0.713298,-0.0831649999999999,0.777115,0.436598,0.0023849999999999,0.748845,0.224428,0.024595,1.074325,0.493598,0.005425,1.145035,0.267348,0.087705,0.726955,0.057502,-0.1133349999999999,1.204435,0.0621169999999999,0.018425,0.930255,-0.008624,-0.000835,1.069745,0.008624,0.000835,0.922435,-0.352182,-0.0424949999999999,1.143295,-0.355362,0.000435,0.9282150000000001,-0.643582,-0.000835,1.156165,-0.676462,0.099875
164,0.8545050000000001,0.713199,-0.082385,0.7763250000000002,0.435639,0.0034449999999999,0.754245,0.222999,0.0283249999999999,1.074465,0.4933189999999999,0.0062749999999999,1.144865,0.266079,0.0869949999999999,0.733705,0.0504019999999999,-0.102415,1.2047750000000002,0.0621979999999999,0.0154249999999999,0.930355,-0.0086679999999999,-0.000445,1.069645,0.008668,0.0004449999999999,0.9230150000000001,-0.352301,-0.039005,1.143725,-0.355341,0.0012849999999999,0.9279650000000002,-0.643611,0.0030549999999999,1.157185,-0.676461,0.1012049999999999
165,0.85534,0.713314,-0.0811199999999999,0.7756000000000001,0.434754,0.00518,0.7670000000000001,0.169694,0.01885,1.07495,0.493144,0.00711,1.1455,0.265564,0.08737,0.72262,0.019247,-0.1317499999999999,1.20518,0.062701,0.01409,0.9303200000000001,-0.0087479999999999,-0.00036,1.06968,0.0087479999999999,0.00036,0.9241000000000001,-0.352446,-0.0334799999999999,1.14481,-0.3553159999999999,0.0019299999999999,0.9275900000000001,-0.643636,0.00912,1.1587299999999998,-0.6757059999999999,0.10218
166,0.856,0.7133780000000001,-0.0802249999999998,0.77593,0.434498,0.0062550000000001,0.7701700000000001,0.220698,0.0336550000000001,1.0756000000000001,0.493258,0.0080850000000001,1.14548,0.2646179999999999,0.087365,0.75042,0.034764,-0.0764449999999998,1.20554,0.062636,0.013835,0.93024,-0.008732,-0.0005449999999999,1.0697599999999998,0.008732,0.000545,0.92422,-0.352382,-0.0296449999999999,1.1456799999999998,-0.355722,0.0022550000000001,0.92799,-0.643652,0.012545,1.15991,-0.6759919999999999,0.1032750000000001
