sb224sc-HT22-VT27/4dt907/src/ml-research/a12/datafiles/kinect_good_preprocessed_not_cut_A11_mediapipe/B16_kinect_mirrored.csv
FrameNo,nose_3d_x,nose_3d_y,nose_3d_z,left_shoulder_3d_x,left_shoulder_3d_y,left_shoulder_3d_z,left_elbow_3d_x,left_elbow_3d_y,left_elbow_3d_z,right_shoulder_3d_x,right_shoulder_3d_y,right_shoulder_3d_z,right_elbow_3d_x,right_elbow_3d_y,right_elbow_3d_z,left_wrist_3d_x,left_wrist_3d_y,left_wrist_3d_z,right_wrist_3d_x,right_wrist_3d_y,right_wrist_3d_z,left_hip_3d_x,left_hip_3d_y,left_hip_3d_z,right_hip_3d_x,right_hip_3d_y,right_hip_3d_z,left_knee_3d_x,left_knee_3d_y,left_knee_3d_z,right_knee_3d_x,right_knee_3d_y,right_knee_3d_z,left_ankle_3d_x,left_ankle_3d_y,left_ankle_3d_z,right_ankle_3d_x,right_ankle_3d_y,right_ankle_3d_z
0,1.0181835,0.7612805,0.0533115,0.8409965,0.4744704999999999,0.0135884999999999,0.8083565,0.2240005,0.0349544999999999,1.1847865,0.4797805,-0.0014095,1.2255665,0.2235005,-0.0240395,0.8890165,0.3934304999999999,-0.1519705,1.2018865,0.0275645,-0.0968605,0.9270315000000001,0.0015344999999999,-0.0007455,1.0729685,-0.0015344999999999,0.0007454999999999,0.9001965000000001,-0.3423795,0.0459845,1.1001745,-0.3353495,0.0101514999999999,0.8970665,-0.6696894999999999,0.0671305,1.1088165,-0.6468695,0.0443255
1,1.018047,0.7619495000000001,0.0535475,0.840131,0.4746995,0.0149405,0.798541,0.2332495,0.0292675,1.185001,0.4802295,-0.0004914999999999,1.225711,0.2246795,-0.0235744999999999,0.8896809999999999,0.3984094999999999,-0.1566365,1.201681,0.0279855,-0.0964864999999999,0.926974,0.0015135,-0.0008574999999999,1.073026,-0.0015135,0.0008575,0.8997310000000001,-0.3415305,0.0459495,1.100206,-0.3339305,0.0102985,0.896781,-0.6689305,0.0673705,1.108841,-0.6457904999999999,0.0443795
2,1.0180285,0.762035,0.053596,0.8400894999999999,0.475245,0.0149759999999999,0.8041595000000001,0.227145,0.0342349999999999,1.1850095,0.480205,-0.000313,1.2257595000000001,0.224805,-0.023559,0.8894095,0.394605,-0.15242,1.2017795,0.028727,-0.09641,0.9269655,0.001514,-0.000933,1.0730345,-0.001514,0.0009329999999999,0.8995695,-0.341475,0.045895,1.1001805,-0.333865,0.0103329999999999,0.8967495,-0.668885,0.067406,1.1088695,-0.645795,0.0444289999999999
3,1.0180115,0.762228,0.0536429999999999,0.8402935,0.475288,0.014512,0.8073735,0.224168,0.037498,1.1851335,0.480258,-0.0001219999999999,1.2256535,0.224738,-0.0235859999999999,0.8896035,0.392638,-0.1496259999999999,1.2016335,0.027954,-0.0965459999999999,0.9269285,0.0014979999999999,-0.0010039999999999,1.0730715,-0.0014979999999999,0.0010039999999999,0.8995435,-0.341182,0.045951,1.1000715,-0.333912,0.010464,0.8967035,-0.669102,0.067273,1.1087635,-0.6456919999999999,0.044364
4,1.0180855,0.7621964999999999,0.0536215,0.8402725,0.4755465,0.0144195,0.8082825,0.2234665,0.0355655,1.1852425,0.4801465,-9.149999999999436e-05,1.2256225,0.2246965,-0.0235714999999999,0.8901125,0.3932865,-0.1504515,1.2020625,0.0286835,-0.0964715,0.9269365,0.0015325,-0.0010314999999999,1.0730635,-0.0015325,0.0010315,0.8996225,-0.3413335,0.0458735,1.1001475,-0.3339635,0.0104805,0.8968625,-0.6688835000000001,0.0671615,1.1088025,-0.6455335,0.0445915
5,1.018153,0.762186,0.053613,0.8400799999999999,0.476136,0.014789,0.80088,0.231656,0.024862,1.1852099999999999,0.480086,-2.2999999999995246e-05,1.22565,0.224716,-0.0235229999999999,0.89113,0.400676,-0.157797,1.20195,0.027911,-0.096947,0.926931,0.001546,-0.0010579999999999,1.073069,-0.0015459999999999,0.001058,0.8997100000000001,-0.341494,0.045603,1.100172,-0.334184,0.010642,0.89686,-0.666694,0.067794,1.10874,-0.645644,0.044353
6,1.018064,0.7624345,0.0537904999999999,0.839939,0.4756745,0.0148444999999999,0.798799,0.2333045,0.0244164999999999,1.1850990000000001,0.4804645,0.0001824999999999,1.225469,0.2250145,-0.0232475,0.8909590000000001,0.4017045,-0.1578505,1.201689,0.0276365,-0.0969005,0.92691,0.0014575,-0.0013055,1.07309,-0.0014575,0.0013054999999999,0.899609,-0.3412055,0.0458055,1.100183,-0.3337555,0.0106554999999999,0.896779,-0.6663855,0.0679755,1.108649,-0.6453755,0.0445485
7,1.018274,0.762305,0.053974,0.840009,0.476065,0.014897,0.8017290000000001,0.232825,0.023706,1.185189,0.480185,0.000283,1.225459,0.224845,-0.0233229999999999,0.891559,0.402055,-0.158763,1.201369,0.026927,-0.097203,0.92694,0.001548,-0.0011779999999999,1.07306,-0.001548,0.001178,0.8996390000000001,-0.341605,0.045741,1.100238,-0.334045,0.010733,0.896909,-0.667755,0.067789,1.108759,-0.645385,0.044587
8,1.018325,0.7623325,0.0541045,0.83995,0.4762125,0.0150204999999999,0.80165,0.2328525,0.0233835,1.18523,0.4801725,0.0003985,1.22545,0.2248925,-0.0232185,0.89168,0.4023425,-0.1588675,1.20124,0.0266185,-0.0973275,0.926926,0.0015545,-0.0012334999999999,1.073074,-0.0015545,0.0012334999999999,0.89963,-0.3416875,0.0457474999999999,1.100258,-0.3340175,0.0108515,0.89695,-0.6676775,0.0678894999999999,1.10877,-0.6453075,0.0446305
9,1.0183925,0.7623695,0.0542035,0.8399135,0.4762495,0.0150745,0.8018135,0.2331494999999999,0.0223125,1.1852734999999999,0.4801795,0.0005005,1.2254535,0.2249294999999999,-0.0231704999999999,0.8920735,0.4030694999999999,-0.1594245,1.2011335,0.0263505,-0.0974845,0.9269205,0.0015515,-0.0013054999999999,1.0730795,-0.0015515,0.0013055,0.8996335,-0.3417505,0.0457365,1.1002695,-0.3340505,0.0109495,0.8969735,-0.6676504999999999,0.0679535,1.1087835,-0.6452304999999999,0.0446655
10,1.018457,0.762404,0.054307,0.839901,0.476274,0.015124,0.801351,0.234214,0.021013,1.185311,0.480174,0.000599,1.2254509999999998,0.224944,-0.023118,0.892361,0.404074,-0.160277,1.201011,0.026066,-0.097587,0.926916,0.001549,-0.0013659999999999,1.073084,-0.001549,0.001366,0.899631,-0.341806,0.045764,1.100273,-0.334076,0.011037,0.897001,-0.667616,0.068019,1.108801,-0.645136,0.044717
11,1.0185289999999998,0.762424,0.0543935,0.839887,0.476304,0.0151534999999999,0.801357,0.234264,0.0205714999999999,1.1853369999999999,0.480164,0.0006764999999999,1.225457,0.224964,-0.0230845,0.892667,0.404104,-0.1602195,1.200917,0.025871,-0.0976695,0.926914,0.00154,-0.0013995,1.073086,-0.00154,0.0013994999999999,0.899627,-0.341856,0.0457705,1.100289,-0.334086,0.0110974999999999,0.897037,-0.667586,0.0680725,1.108807,-0.6450260000000001,0.0447705
12,1.0186015,0.762483,0.0544884999999999,0.8398795,0.476333,0.0151875,0.8011595,0.234903,0.0199554999999999,1.1853795,0.480193,0.0007505,1.2254895,0.224993,-0.0230585,0.8929295,0.404753,-0.1607215,1.2008495,0.025726,-0.0977214999999999,0.9269095,0.001552,-0.0014295,1.0730905,-0.001552,0.0014295,0.8996295,-0.341877,0.0458105,1.1003115,-0.334077,0.0111584999999999,0.8970695,-0.667527,0.0681205,1.1088195,-0.644897,0.0448525
13,1.0186795,0.7625445,0.054611,0.8399295,0.4762445,0.01517,0.8012795,0.2355344999999999,0.019705,1.1854195,0.4802245,0.0008459999999999,1.2255395,0.2250144999999999,-0.0230249999999999,0.8930595,0.4053345,-0.161241,1.2008095,0.0256255,-0.0977309999999999,0.9269005,0.0015595,-0.001465,1.0730995,-0.0015595,0.001465,0.8996495,-0.3418355,0.04588,1.1003384999999999,-0.3339955,0.011242,0.8970994999999999,-0.6676555,0.068105,1.1088395,-0.6447355,0.04496
14,1.018737,0.762608,0.0547179999999999,0.83997,0.476178,0.0151369999999999,0.80149,0.236068,0.019398,1.18546,0.480248,0.0009239999999999,1.22558,0.225018,-0.022994,0.89315,0.4056579999999999,-0.161496,1.20082,0.025641,-0.097686,0.926888,0.001578,-0.001511,1.073112,-0.001578,0.0015109999999999,0.8996500000000001,-0.341782,0.045936,1.100351,-0.333932,0.0112989999999999,0.89711,-0.667752,0.068075,1.10886,-0.644592,0.04505
15,1.0187865,0.76266,0.0548145,0.8400045,0.4759799999999999,0.0150945,0.8015045000000001,0.23612,0.0190655,1.1854945,0.48028,0.0009895,1.2256245,0.22505,-0.0229764999999999,0.8931145,0.4058699999999999,-0.1618005,1.2008645,0.025693,-0.0976504999999999,0.9268745,0.001594,-0.0015534999999999,1.0731255,-0.001594,0.0015535,0.8996645,-0.34173,0.0459785,1.1003715,-0.33389,0.0113495,0.8971145000000001,-0.66782,0.0680515,1.1088745,-0.6445099999999999,0.0451295
16,1.0188275,0.7627125,0.0548904999999999,0.8400425,0.4756825,0.0149974999999999,0.8022225000000001,0.2357225,0.0191835,1.1855125,0.4803125,0.0010304999999999,1.2256525,0.2250725,-0.0229675,0.8931225,0.4057625,-0.1618325,1.2008925,0.0257555,-0.0976225,0.9268625,0.0016095,-0.0015814999999999,1.0731375,-0.0016095,0.0015814999999999,0.8996625,-0.3416775,0.0460075,1.1003895,-0.3338275,0.0113664999999999,0.8971125000000001,-0.6678775,0.0680245,1.1088825,-0.6444075,0.0451925
17,1.0188564999999998,0.7627865,0.0549439999999999,0.8401005,0.4753565,0.0148809999999999,0.8017505,0.2363964999999999,0.0188749999999999,1.1854805,0.4803565,0.0010459999999999,1.2256705,0.2250865,-0.022968,0.8930405,0.4061565,-0.162272,1.2009205,0.0258295,-0.097612,0.9268575,0.0016255,-0.0015949999999999,1.0731424999999999,-0.0016255,0.0015949999999999,0.8996505,-0.3416134999999999,0.04602,1.1003995,-0.3338035,0.0113869999999999,0.8971205,-0.6679435,0.067977,1.1088905,-0.6443335,0.045251
18,1.0188819999999998,0.7628634999999999,0.0549965,0.840175,0.4750435,0.0147465,0.8018850000000001,0.2364834999999999,0.0190015,1.185435,0.4804235,0.0010635,1.225685,0.2251034999999999,-0.0229754999999999,0.8929650000000001,0.4062335,-0.1621524999999999,1.200945,0.0259475,-0.0975924999999999,0.9268500000000001,0.0016325,-0.0016114999999999,1.0731499999999998,-0.0016324999999999,0.0016115,0.899645,-0.3415065,0.0460465,1.10041,-0.3337564999999999,0.0113995,0.897115,-0.6679965,0.0679345,1.108905,-0.6442465,0.0453365
19,1.018909,0.7629915,0.055074,0.840312,0.4748815,0.0145319999999999,0.801902,0.2370515,0.0184699999999999,1.185402,0.4805415,0.0010999999999999,1.225692,0.2250915,-0.02299,0.893082,0.4055915,-0.16213,1.200972,0.0261265,-0.09755,0.92684,0.0016415,-0.001629,1.0731600000000001,-0.0016415,0.0016289999999999,0.899642,-0.3413585,0.0460939999999999,1.100422,-0.3336485,0.0114349999999999,0.897102,-0.6680385,0.06791,1.108922,-0.6440985,0.045471
20,1.0189365,0.7631355,0.0551505,0.8404625,0.4748155,0.0143405,0.8025625000000001,0.2369955,0.0183185,1.1853825,0.4806955,0.0011365,1.2257125,0.2251255,-0.0230054999999999,0.8933025,0.4048955,-0.1613645,1.2010225,0.0263354999999999,-0.0974944999999999,0.9268285,0.0016524999999999,-0.0016484999999999,1.0731715,-0.0016525,0.0016485,0.8996525000000001,-0.3411945,0.0461675,1.1004385,-0.3335245,0.0114655,0.8970925,-0.6680445,0.0679035,1.1089525,-0.6439645,0.0456325
21,1.018954,0.7632289999999999,0.055231,0.840635,0.474799,0.014128,0.802945,0.237029,0.017878,1.185365,0.480809,0.001175,1.225725,0.225149,-0.0230169999999999,0.893355,0.405139,-0.161789,1.201075,0.026525,-0.097439,0.9268190000000001,0.001653,-0.0016629999999999,1.073181,-0.001653,0.001663,0.899665,-0.341051,0.046205,1.100448,-0.333411,0.011483,0.897095,-0.668011,0.067913,1.108985,-0.6438710000000001,0.045769
22,1.0189625,0.7633085000000001,0.055306,0.8408125,0.4748885,0.013957,0.8031025,0.2373385,0.017347,1.1853525,0.4809085,0.001205,1.2257225,0.2252085,-0.0230189999999999,0.8935125,0.4056485,-0.162252,1.2011025,0.0267304999999999,-0.097422,0.9268155,0.0016575,-0.0016539999999999,1.0731845,-0.0016575,0.001654,0.8996725,-0.3409215,0.04623,1.1004575,-0.3333215,0.011496,0.8971125000000001,-0.6679815,0.067938,1.1090025,-0.6438115,0.045877
23,1.0189665,0.763374,0.055432,0.8409584999999999,0.475004,0.013804,0.8025885,0.2379939999999999,0.016887,1.1853385,0.480994,0.001233,1.2257185,0.225274,-0.023028,0.8935185,0.406934,-0.163526,1.2011185,0.026938,-0.097416,0.9268115000000001,0.001663,-0.0016429999999999,1.0731884999999999,-0.001663,0.001643,0.8996685000000001,-0.340786,0.046255,1.1004735,-0.333246,0.011526,0.8971285,-0.667936,0.067964,1.1090285,-0.643756,0.045978
24,1.018971,0.763446,0.055584,0.841113,0.474956,0.013676,0.802563,0.238256,0.016515,1.185313,0.481086,0.00126,1.225703,0.225366,-0.02302,0.893513,0.407236,-0.163844,1.201133,0.027259,-0.097444,0.926805,0.0016709999999999,-0.0016179999999999,1.073195,-0.001671,0.001618,0.899673,-0.3406639999999999,0.046306,1.1004859999999999,-0.333154,0.011581,0.897143,-0.667854,0.068007,1.109073,-0.6437039999999999,0.04609
25,1.0189805,0.7634685,0.0557545,0.8412445,0.4751185,0.0135755,0.8025445,0.2384985,0.0160825,1.1853045,0.4811285,0.0012954999999999,1.2257045,0.2254584999999999,-0.0230135,0.8935645,0.4075884999999999,-0.1642725,1.2011445,0.0275365,-0.0974925,0.9267985,0.0016855,-0.0016175,1.0732015,-0.0016855,0.0016175,0.8996745,-0.3405815,0.0463625,1.1005055,-0.3330315,0.0116405,0.8971545,-0.6678015,0.0680355,1.1091145,-0.6436815,0.0461855
26,1.0189955,0.763445,0.0559395,0.8413465,0.475195,0.0135054999999999,0.8018965,0.239145,0.0155415,1.1853265,0.481155,0.0013615,1.2257265,0.225515,-0.0229805,0.8935165,0.408955,-0.1650015,1.2011265,0.02778,-0.0975714999999999,0.9267885,0.00171,-0.0016154999999999,1.0732115,-0.0017099999999999,0.0016154999999999,0.8996965,-0.340555,0.0464215,1.1005144999999998,-0.3329749999999999,0.0117054999999999,0.8972065,-0.667745,0.0680715,1.1091665,-0.643675,0.0462805
27,1.0190074999999998,0.7633965,0.0561519999999999,0.8413695,0.4752165,0.0135789999999999,0.8013895,0.2393664999999999,0.0152609999999999,1.1853495,0.4811565,0.0014559999999999,1.2257495,0.2255364999999999,-0.022889,0.8935795,0.4090565,-0.165217,1.2011295,0.0281235,-0.097747,0.9267795,0.0017315,-0.001605,1.0732205,-0.0017315,0.0016049999999999,0.8997195,-0.3405535,0.046484,1.1005235,-0.3329534999999999,0.0117779999999999,0.8972595,-0.6677335,0.068116,1.1092095,-0.6436535,0.046407
28,1.0190305,0.76333,0.0563725,0.8414035,0.47546,0.0136794999999999,0.8010935,0.23958,0.0150204999999999,1.1853835,0.48113,0.0015565,1.2257735,0.22556,-0.0228565,0.8936935,0.40907,-0.1654465,1.2011335,0.028291,-0.0980365,0.9267704999999999,0.001735,-0.0016074999999999,1.0732295,-0.001735,0.0016074999999999,0.8997535,-0.34058,0.0465605,1.1005354999999999,-0.33296,0.0118374999999999,0.8973234999999999,-0.66773,0.0681785,1.1092635,-0.64365,0.0465094999999999
29,1.0190605,0.7632599999999999,0.0566159999999999,0.8414435,0.47573,0.0137859999999999,0.8008435,0.23988,0.0146149999999999,1.1854435,0.48111,0.0016619999999999,1.2258335,0.22577,-0.022791,0.8936735000000001,0.40864,-0.16581,1.2010535,0.028291,-0.09852,0.9267665,0.001735,-0.001605,1.0732335,-0.001735,0.0016049999999999,0.8998135,-0.34058,0.0466349999999999,1.1005445,-0.33296,0.0119119999999999,0.8974035,-0.6677200000000001,0.0682619999999999,1.1093335,-0.64365,0.0465859999999999
30,1.0191155,0.7631955,0.0569019999999999,0.8415045000000001,0.4760755,0.0138849999999999,0.8007745,0.2402055,0.0141499999999999,1.1855345,0.4811054999999999,0.0017849999999999,1.2259545,0.2262655,-0.022697,0.8936945000000001,0.4085355,-0.166231,1.2004145,0.0285845,-0.099591,0.9267665,0.0017445,-0.001607,1.0732335,-0.0017445,0.0016069999999999,0.8998945,-0.3405845,0.046694,1.1005855,-0.3329645,0.0119919999999999,0.8974845000000001,-0.6677145,0.06835,1.1094045,-0.6436745,0.0466589999999999
31,1.019175,0.7630985,0.0571925,0.841526,0.4764285,0.0140915,0.800226,0.2409185,0.0132765,1.185616,0.4810585,0.0019104999999999,1.226206,0.2271785,-0.0226525,0.893746,0.4088885,-0.1671085,1.200356,0.0288915,-0.1012585,0.9267680000000001,0.0017755,-0.0016164999999999,1.073232,-0.0017754999999999,0.0016164999999999,0.899976,-0.3406315,0.0467355,1.100649,-0.3330114999999999,0.0120744999999999,0.897606,-0.6676815,0.0684295,1.109486,-0.6437315,0.0467355
32,1.0192405,0.7629775000000001,0.0574665,0.8415025,0.4767274999999999,0.0143484999999999,0.7998725,0.2412375,0.0124844999999999,1.1856924999999998,0.4809874999999999,0.0020384999999999,1.2266425,0.2285275,-0.0226295,0.8938225,0.4090875,-0.1682305,1.2002225,0.0292365,-0.1039705,0.9267685,0.0018085,-0.0016345,1.0732315,-0.0018084999999999,0.0016344999999999,0.9000425,-0.3407025,0.0467615,1.1007194999999999,-0.3330225,0.0121474999999999,0.8977525000000001,-0.6676624999999999,0.0685065,1.1095724999999999,-0.6437725,0.0468254999999999
33,1.0193215,0.762816,0.057823,0.8415035000000001,0.476976,0.014582,0.7994135,0.241636,0.01166,1.1857935,0.480926,0.0021989999999999,1.2272635,0.230316,-0.022634,0.8938235,0.409566,-0.169358,1.2001235000000001,0.029982,-0.1067979999999999,0.9267655,0.001845,-0.001654,1.0732345,-0.001845,0.001654,0.9001335,-0.340704,0.046779,1.1008054999999999,-0.333034,0.0122059999999999,0.8978935,-0.667674,0.068545,1.1096635,-0.643854,0.0469119999999999
34,1.0194265,0.7626670000000001,0.058211,0.8414935,0.477137,0.0148089999999999,0.7989935,0.241987,0.0110579999999999,1.1859135,0.480887,0.0023749999999999,1.2280834999999999,0.2326369999999999,-0.022654,0.8936835,0.4094669999999999,-0.170372,1.2000135,0.0373379999999999,-0.1122519999999999,0.9267635,0.001889,-0.001671,1.0732365,-0.001889,0.0016709999999999,0.9002335,-0.340683,0.0467779999999999,1.1009055,-0.333043,0.0122639999999999,0.8980535000000001,-0.667693,0.0685699999999999,1.1097735,-0.643903,0.0469819999999999
35,1.019491,0.762514,0.0586435,0.841425,0.477174,0.0150075,0.798305,0.242644,0.0100085,1.185965,0.480904,0.0025625,1.229125,0.235964,-0.0228454999999999,0.8934950000000002,0.4093639999999999,-0.1714175,1.199895,0.045446,-0.1182174999999999,0.926754,0.001933,-0.0016804999999999,1.073246,-0.001933,0.0016805,0.9002950000000001,-0.340636,0.0467335,1.100967,-0.333076,0.0122935,0.8981550000000001,-0.667716,0.0685615,1.109835,-0.643956,0.0470165
36,1.019524,0.7623495,0.0590925,0.841225,0.4771995,0.0152315,0.797505,0.2433195,0.0091275,1.1859250000000001,0.4809495,0.0027595,1.230735,0.2403894999999999,-0.0233724999999999,0.893365,0.4096595,-0.1724175,1.199765,0.0557995,-0.1268975,0.926754,0.0019785,-0.0016804999999999,1.073246,-0.0019785,0.0016805,0.900275,-0.3406005,0.0466595,1.100967,-0.3331105,0.0122935,0.8981850000000001,-0.6677305,0.0685185,1.109835,-0.6440205,0.0470185
37,1.019563,0.7621950000000001,0.0596175,0.840945,0.477345,0.0154795,0.796745,0.244065,0.0076995,1.1858749999999998,0.481065,0.0029895,1.232795,0.2460449999999999,-0.0242705,0.891835,0.409835,-0.1734575,1.200475,0.069539,-0.1366375,0.926754,0.002015,-0.0016804999999999,1.073246,-0.002015,0.0016805,0.900255,-0.340485,0.0465775,1.100964,-0.3331349999999999,0.0122935,0.898235,-0.667715,0.0684825,1.109825,-0.644075,0.0470325
38,1.0196085,0.762051,0.060306,0.8409485,0.4772409999999999,0.015474,0.7953485,0.245851,0.004399,1.1857985,0.481261,0.00329,1.2349885,0.252851,-0.025659,0.8890085000000001,0.410111,-0.1770769999999999,1.2021385,0.086434,-0.1476869999999999,0.9267515,0.002023,-0.0016809999999999,1.0732485,-0.002023,0.001681,0.9002384999999999,-0.340379,0.046548,1.1009575,-0.333169,0.012294,0.8982785000000001,-0.667709,0.068481,1.1098085,-0.6441589999999999,0.047046
39,1.0196195,0.761817,0.060993,0.8409305,0.477187,0.015736,0.7934205,0.248087,0.000299,1.1856505,0.481447,0.003514,1.2376904999999998,0.259847,-0.0277229999999999,0.8858205,0.412857,-0.1813489999999999,1.2049305,0.107587,-0.160449,0.9267185,0.001988,-0.0017059999999999,1.0732815,-0.001988,0.001706,0.9001805,-0.340313,0.046507,1.1009255,-0.333273,0.01226,0.8982805,-0.667783,0.068453,1.1097505,-0.644343,0.047017
40,1.0195735,0.7614175000000001,0.0618144999999999,0.8408045,0.4769975,0.0159064999999999,0.7908745,0.2510775,-0.0048375,1.1853544999999999,0.4815175,0.0037854999999999,1.2412245,0.2673775,-0.0317235,0.8821345,0.4171775,-0.1864195,1.2079944999999999,0.1323275,-0.1756695,0.9266755,0.0019605,-0.0016315,1.0733245,-0.0019605,0.0016315,0.9000545,-0.3403725,0.0463805,1.1008065,-0.3335325,0.0122774999999999,0.8981545,-0.6679925,0.0684195,1.1095845,-0.6446925,0.0469835
41,1.0194925,0.7608885000000001,0.06275,0.8423645000000001,0.4766685,0.015884,0.7876345000000001,0.2566885,-0.0127199999999999,1.1849545,0.4815885,0.004101,1.2455045,0.2746885,-0.0365849999999999,0.8777345,0.4247185,-0.191594,1.2116145,0.1603784999999999,-0.192774,0.9265655,0.0019195,-0.0014739999999999,1.0734345,-0.0019195,0.001474,0.8998545,-0.3405415,0.046182,1.1006895,-0.3339415,0.012275,0.8979545,-0.6683614999999999,0.068324,1.1093445,-0.6452215,0.046872
42,1.019399,0.7601530000000001,0.0636375,0.8447140000000001,0.4760729999999999,0.0156425,0.7837540000000001,0.262923,-0.0219205,1.184234,0.481643,0.0043474999999999,1.2510539999999999,0.281883,-0.0442455,0.8723540000000001,0.434083,-0.1970775,1.216884,0.191913,-0.2131974999999999,0.926461,0.001915,-0.0011745,1.073539,-0.001915,0.0011745,0.8996240000000001,-0.340647,0.0458705,1.100556,-0.334477,0.0121614999999999,0.897724,-0.6689269999999999,0.0681085,1.1090740000000001,-0.645987,0.0466085
43,1.0193285,0.7592085000000001,0.064498,0.8468605000000001,0.4753484999999999,0.0155429999999999,0.7787904999999999,0.2718985,-0.032138,1.1830605,0.4815985,0.0045179999999999,1.2574405,0.2892685,-0.052813,0.8646505,0.4432284999999999,-0.202366,1.2216305,0.2216485,-0.231106,0.9263585,0.0018775,-0.000765,1.0736415,-0.0018775,0.0007649999999999,0.8993805,-0.3405515,0.045451,1.1004275,-0.3350515,0.0119799999999999,0.8974905,-0.6696415,0.0677799999999999,1.1087605,-0.6469714999999999,0.0462729999999999
44,1.0192645,0.758236,0.0654615,0.8489295,0.474566,0.0154954999999999,0.7733695,0.2815459999999999,-0.0435395,1.1818695,0.481616,0.0046454999999999,1.2638695,0.298186,-0.0644335,0.8560695,0.454376,-0.2078335,1.2271895,0.256146,-0.2491135,0.9262645,0.001834,-0.0002904999999999,1.0737355,-0.0018339999999999,0.0002904999999999,0.8991995000000002,-0.340244,0.0450015,1.1002885,-0.335694,0.0117724999999999,0.8972295000000001,-0.6702239999999999,0.0674155,1.1084195000000001,-0.6480239999999999,0.0459134999999999
45,1.019192,0.7572800000000001,0.066494,0.850759,0.47386,0.0156599999999999,0.7671490000000001,0.2935999999999999,-0.05675,1.180709,0.48173,0.0047049999999999,1.269739,0.30706,-0.076027,0.846109,0.469,-0.213497,1.234219,0.2925,-0.2644269999999999,0.926188,0.001774,0.0002599999999999,1.073812,-0.001774,-0.00026,0.898989,-0.34003,0.0445629999999999,1.100122,-0.33638,0.0115219999999999,0.896929,-0.67086,0.067006,1.108039,-0.6490699999999999,0.0454879999999999
46,1.019091,0.756368,0.067686,0.85254,0.473248,0.0160389999999999,0.75997,0.307318,-0.070079,1.17976,0.4818179999999999,0.0046599999999999,1.27606,0.316348,-0.087799,0.83615,0.485108,-0.218719,1.24132,0.331648,-0.2773989999999999,0.9261300000000001,0.0017029999999999,0.0008899999999999,1.0738699999999999,-0.001703,-0.00089,0.89876,-0.339952,0.044083,1.099911,-0.337102,0.0112769999999999,0.89659,-0.6714819999999999,0.06656,1.10761,-0.650142,0.045014
47,1.019049,0.755518,0.0688085,0.854334,0.472758,0.0165225,0.7523340000000001,0.322778,-0.0822905,1.179054,0.4818679999999999,0.0045264999999999,1.2822339999999999,0.3304979999999999,-0.1014605,0.826004,0.504518,-0.2201604999999999,1.248184,0.373398,-0.2881205,0.926077,0.00165,0.0015154999999999,1.073923,-0.00165,-0.0015155,0.898564,-0.340002,0.0436315,1.0997460000000001,-0.337912,0.0110794999999999,0.896284,-0.672122,0.0661435,1.107204,-0.651142,0.0445515
48,1.019145,0.7548255,0.0701565,0.8561500000000001,0.4724255,0.0171555,0.74415,0.3397555,-0.0935545,1.1786699999999999,0.4819255,0.0042734999999999,1.2883499999999999,0.3460955,-0.1152145,0.81528,0.5235055,-0.2200145,1.25502,0.4146455,-0.2958745,0.926069,0.0016344999999999,0.0021315,1.073931,-0.0016345,-0.0021315,0.89848,-0.3401544999999999,0.0432155,1.099669,-0.3386345,0.0108895,0.89611,-0.6726745,0.0657645,1.1068699999999998,-0.6520645,0.0440855
49,1.0193325,0.754336,0.0715335,0.8578655,0.472366,0.0178475,0.7354555,0.357906,-0.1024415,1.1785055,0.482276,0.0038965,1.2947655,0.361716,-0.1274814999999999,0.8041455,0.544096,-0.2178215,1.2629055,0.457126,-0.3000015,0.9260975,0.0016109999999999,0.0027425,1.0739025,-0.001611,-0.0027424999999999,0.8984354999999999,-0.3402239999999999,0.0428355,1.0996345,-0.3392139999999999,0.0106755,0.8959555,-0.673124,0.0654435,1.1065755,-0.652764,0.0436325
50,1.019592,0.7539975,0.0728415,0.857847,0.4724575,0.0188064999999999,0.726387,0.3761675,-0.1078225,1.178387,0.4827875,0.0035184999999999,1.3010570000000001,0.3799174999999999,-0.1393025,0.791167,0.5630175000000001,-0.2172425,1.2710270000000001,0.4994975,-0.3010025,0.926174,0.0015814999999999,0.0033254999999999,1.073826,-0.0015815,-0.0033255,0.898467,-0.3402925,0.0425974999999999,1.099628,-0.3396725,0.0105034999999999,0.8958470000000001,-0.6734224999999999,0.0651605,1.106337,-0.6533025,0.0432585
51,1.0198845,0.7538165,0.0741955,0.8578515,0.4727365,0.0201235,0.7173915,0.3953065,-0.1114044999999999,1.1782815,0.4835165,0.0033364999999999,1.3064115,0.4009665,-0.1490044999999999,0.7781815,0.5822765,-0.2164544999999999,1.2785815,0.5429065,-0.3017545,0.9262395,0.0014905,0.0038375,1.0737605000000001,-0.0014904999999999,-0.0038375,0.8985515,-0.3405335,0.0426175,1.0996165,-0.3400134999999999,0.0105135,0.8957615000000001,-0.6735635,0.0651125,1.1061115,-0.6537335,0.0430745
52,1.0202309999999999,0.753752,0.075521,0.857872,0.473222,0.0214359999999999,0.708932,0.4119319999999999,-0.111869,1.178202,0.484392,0.0032109999999999,1.310692,0.4275219999999999,-0.156139,0.7662720000000001,0.602232,-0.2155289999999999,1.286532,0.5859719999999999,-0.302479,0.926308,0.0013839999999999,0.0042199999999999,1.073692,-0.0013839999999999,-0.00422,0.8986020000000001,-0.340768,0.042696,1.099618,-0.340248,0.0105549999999999,0.895702,-0.673668,0.065113,1.1059219999999998,-0.654068,0.0429419999999999
53,1.0206575,0.753492,0.0766955,0.8573975,0.474042,0.0231465,0.7007975,0.432272,-0.1113525,1.1783275,0.485332,0.0030494999999999,1.3145875,0.451922,-0.1598125,0.7538875,0.6225120000000001,-0.2112125,1.2942775,0.6252920000000001,-0.3024325,0.9263844999999999,0.00127,0.0046134999999999,1.0736155,-0.00127,-0.0046134999999999,0.8986475,-0.341198,0.0427525,1.0996575,-0.340678,0.0106265,0.8956675000000001,-0.674098,0.0651135,1.1057675,-0.654578,0.0428225
54,1.021145,0.7530785000000001,0.0778155,0.855954,0.4751685,0.0249455,0.694044,0.4510185,-0.1108635,1.178714,0.4863085,0.0029025,1.318274,0.4767285,-0.1622735,0.741784,0.6445585,-0.2061935,1.301294,0.6627585,-0.2978635,0.9265,0.0011605,0.0049865,1.0735,-0.0011605,-0.0049864999999999,0.898724,-0.3418215,0.0428615,1.099712,-0.3414015,0.0107765,0.895644,-0.6747215,0.0651925,1.105644,-0.6552914999999999,0.0427615
55,1.021604,0.752396,0.078767,0.8545360000000001,0.476286,0.0267209999999999,0.688566,0.467796,-0.1103089999999999,1.179286,0.487396,0.0029599999999999,1.3206959999999999,0.503776,-0.1624489999999999,0.730286,0.664696,-0.201469,1.307956,0.696176,-0.291479,0.926639,0.0010519999999999,0.0052379999999999,1.073361,-0.001052,-0.005238,0.898786,-0.343104,0.043174,1.099727,-0.342724,0.0110829999999999,0.895606,-0.675614,0.065429,1.105466,-0.656244,0.0428399999999999
56,1.0219895,0.7514235,0.079622,0.8530285,0.4777035,0.028661,0.6846085,0.4823235,-0.1075059999999999,1.1797685,0.4885635,0.0030919999999999,1.3225984999999998,0.5250835,-0.162366,0.7198184999999999,0.6818735,-0.194556,1.3142685,0.7247235000000001,-0.284306,0.9267865000000001,0.0009364999999999,0.0055069999999999,1.0732134999999998,-0.0009365,-0.005507,0.8988185,-0.3449265,0.043556,1.0996845,-0.3443265,0.011437,0.8955385,-0.6768464999999999,0.065732,1.1052385,-0.6574865,0.0429919999999999
57,1.0223095,0.750122,0.080196,0.8516255,0.479292,0.03072,0.6821455000000001,0.500202,-0.101945,1.1801255,0.490002,0.003383,1.3237755,0.546262,-0.162135,0.7100155,0.699822,-0.185065,1.3198855,0.751232,-0.2760649999999999,0.9269505,0.0007799999999999,0.005813,1.0730495,-0.0007799999999999,-0.0058129999999999,0.8988255,-0.346968,0.043955,1.0996255,-0.346168,0.011863,0.8954455,-0.678408,0.066122,1.1050255,-0.659068,0.043205
58,1.022607,0.748141,0.0805144999999999,0.850184,0.481341,0.0331845,0.6811940000000001,0.517271,-0.0945485,1.180184,0.491421,0.0037195,1.323564,0.568181,-0.1617785,0.7012940000000001,0.716941,-0.1740885,1.324784,0.776761,-0.2659785,0.927141,0.0006659999999999,0.0061394999999999,1.072859,-0.0006659999999999,-0.0061394999999999,0.898844,-0.349539,0.0442945,1.099564,-0.348659,0.0122584999999999,0.8953240000000001,-0.680729,0.0665365,1.104774,-0.661459,0.0434215
59,1.022886,0.7459345000000001,0.0808305,0.848845,0.4834145,0.0355555,0.681605,0.5327445000000001,-0.0855545,1.180035,0.4929744999999999,0.0040684999999999,1.3235649999999999,0.5882245,-0.1584645,0.693365,0.7347945,-0.1623145,1.328985,0.7990345,-0.2559545,0.927359,0.0005655,0.0064604999999999,1.072641,-0.0005655,-0.0064605,0.898855,-0.3521755,0.0446315,1.099475,-0.3511655,0.0126024999999999,0.895185,-0.6832754999999999,0.0669425,1.104515,-0.6640054999999999,0.0436245
60,1.023185,0.7436125,0.081177,0.847417,0.4853325,0.037821,0.682107,0.5481324999999999,-0.0756999999999999,1.179837,0.4944525,0.0044659999999999,1.323687,0.6058125,-0.1536499999999999,0.6869470000000001,0.7511125,-0.1505999999999999,1.3326069999999999,0.8175724999999999,-0.2455699999999999,0.927588,0.0004994999999999,0.006732,1.072412,-0.0004995,-0.006732,0.898887,-0.3548575,0.044998,1.099427,-0.3538475,0.012976,0.895047,-0.6860075,0.067349,1.104277,-0.6666675000000001,0.043855
61,1.0234815,0.7410755,0.081563,0.8461925000000001,0.4875755,0.04003,0.6825924999999999,0.5643555,-0.06601,1.1796425,0.4959355,0.004921,1.3236925,0.6177954999999999,-0.14753,0.6816725,0.7685255,-0.13743,1.3359325,0.8312554999999999,-0.2346899999999999,0.9278005,0.0005385,0.006909,1.0721995,-0.0005385,-0.0069089999999999,0.8989335,-0.3578145,0.045401,1.0993825,-0.3568044999999999,0.013404,0.8949025,-0.6890145000000001,0.067805,1.1040525,-0.6696145,0.044141
62,1.023777,0.738475,0.081803,0.845321,0.489565,0.041852,0.683111,0.576875,-0.0561679999999999,1.179521,0.497275,0.005405,1.322131,0.630075,-0.14014,0.677891,0.784515,-0.12492,1.338711,0.843495,-0.22354,0.927977,0.0006089999999999,0.007016,1.072023,-0.000609,-0.0070159999999999,0.8989860000000001,-0.360865,0.045751,1.099381,-0.3597349999999999,0.013802,0.894781,-0.692135,0.068293,1.103861,-0.6726449999999999,0.044456
63,1.0240639999999999,0.7356875,0.0819405,0.84479,0.4916175,0.0436775,0.68452,0.5892175000000001,-0.0458725,1.17926,0.4984075,0.0060945,1.3207200000000001,0.6413075,-0.1312105,0.6752,0.7954875,-0.1114105,1.341,0.8536875,-0.2123805,0.928148,0.0007195,0.0070565,1.071852,-0.0007194999999999,-0.0070565,0.899077,-0.3639825,0.0460535,1.09941,-0.3627424999999999,0.0142165,0.89467,-0.6954224999999999,0.0687985,1.1036899999999998,-0.6758625,0.0448255
64,1.024341,0.732934,0.081961,0.844471,0.493694,0.0453849999999999,0.686851,0.602494,-0.037046,1.178881,0.499494,0.0069089999999999,1.3194309999999998,0.6496339999999999,-0.1233479999999999,0.673021,0.8069339999999999,-0.097658,1.343111,0.8643139999999999,-0.199318,0.928324,0.000857,0.007035,1.071676,-0.0008569999999999,-0.007035,0.899192,-0.366956,0.046353,1.099471,-0.3656459999999999,0.0146189999999999,0.894571,-0.698666,0.069323,1.1035409999999999,-0.6790860000000001,0.045221
65,1.0246365,0.7303005,0.0818305,0.8439915,0.4954304999999999,0.0470044999999999,0.6898115,0.6160405000000001,-0.0292875,1.1784515,0.5007305000000001,0.0079044999999999,1.3177815,0.6581905,-0.1151595,0.6714815000000001,0.8180105000000001,-0.0848895,1.3451214999999999,0.8762905000000001,-0.1867495,0.9285005,0.0010165,0.0068784999999999,1.0714995,-0.0010164999999999,-0.0068785,0.8993405,-0.3696695,0.0466985,1.0995314999999999,-0.3684595,0.0150644999999999,0.8945015000000001,-0.7018694999999999,0.0699024999999999,1.1034115,-0.6822895,0.0457224999999999
66,1.0249145,0.7278085,0.0814415,0.8437875,0.4969884999999999,0.0483785,0.6923475,0.6248685,-0.0221044999999999,1.1780475,0.5017485,0.0088765,1.3160675,0.6655085,-0.1075185,0.6703775000000001,0.8267385,-0.0730485,1.3472475,0.8877185,-0.1737085,0.9286385,0.0012114999999999,0.0066355,1.0713615,-0.0012115,-0.0066354999999999,0.8995095,-0.3721815,0.0470035,1.0995575,-0.3709715,0.0154415,0.8944275,-0.7049715,0.0704735,1.1032875,-0.6853815,0.0462485
67,1.0251515,0.7258135,0.0809215,0.8435035000000001,0.4982835,0.0493155,0.6948235,0.6332035,-0.0157155,1.1778935,0.5027835,0.0097075,1.3144935,0.6716835,-0.1011005,0.6697934999999999,0.8330535,-0.0624205,1.3488735,0.8936935,-0.1629405,0.9287235000000001,0.0013554999999999,0.0064164999999999,1.0712765,-0.0013555,-0.0064164999999999,0.8996875,-0.3740065,0.0472785,1.0995035,-0.3727465,0.0156825,0.8943835,-0.7075265,0.0709585,1.1032134999999998,-0.6878865,0.0467105
68,1.0254085,0.7238145,0.0804415,0.8432035,0.4999945,0.0504285,0.6972135000000002,0.6408745,-0.0096494999999999,1.1778035,0.5035045,0.0106075,1.3130335,0.6771245,-0.0948804999999999,0.6695035,0.8376945,-0.0525635,1.3505635,0.8988845,-0.1523505,0.9287715,0.0015214999999999,0.0061765,1.0712285,-0.0015215,-0.0061765,0.8999015000000001,-0.3758155,0.0475865,1.0994635,-0.3742955,0.0158605,0.8943935000000001,-0.7100455,0.0714745,1.1031835,-0.6904055,0.0472105
69,1.025672,0.7219125,0.0798234999999999,0.842943,0.5017625,0.0515565,0.6996629999999999,0.6475125,-0.0041874999999999,1.177733,0.5041525,0.0114385,1.3116029999999999,0.6823725,-0.0890235,0.669293,0.8419125,-0.0429994999999999,1.352263,0.9049925,-0.1421535,0.928809,0.0016744999999999,0.0059495,1.071191,-0.0016745,-0.0059494999999999,0.900109,-0.3774175,0.0477985,1.099423,-0.3756975,0.0160015,0.894393,-0.7125075,0.0719575,1.103163,-0.6927775,0.0476675
70,1.0259224999999998,0.7201415000000001,0.079205,0.8429445,0.5033115,0.0527539999999999,0.7021245,0.6533215,0.000738,1.1776645000000001,0.5047415000000001,0.0122689999999999,1.3101544999999999,0.6871715,-0.083791,0.6687645000000001,0.8485215,-0.033687,1.3539245,0.9110315,-0.132631,0.9288325,0.0017515,0.0057229999999999,1.0711675,-0.0017514999999999,-0.0057229999999999,0.9003235,-0.3789185,0.047994,1.0993845,-0.3769285,0.016099,0.8944045,-0.7147785,0.072401,1.1031545,-0.6949185,0.04809
71,1.0261479999999998,0.7184765,0.0785695,0.8429599999999999,0.5050465,0.0541575,0.70487,0.6586664999999999,0.0052854999999999,1.1776200000000001,0.5053265,0.0131414999999999,1.30866,0.6915065,-0.0788794999999999,0.6683399999999999,0.8546765,-0.0250985,1.35554,0.9160865,-0.1240795,0.928869,0.0018034999999999,0.0054885,1.071131,-0.0018034999999999,-0.0054885,0.900553,-0.3802635,0.0481625,1.09937,-0.3781135,0.0161254999999999,0.8944300000000001,-0.7169235,0.0728215,1.10317,-0.6970435,0.0484845
72,1.026335,0.7168844999999999,0.0779805,0.842989,0.5066245,0.0556305,0.7077990000000001,0.6638345,0.0093734999999999,1.1775989999999998,0.5059045,0.0139564999999999,1.307119,0.6957145,-0.0744565,0.6681889999999999,0.8607345,-0.0173435,1.357449,0.9203245,-0.1155465,0.9289050000000001,0.0018304999999999,0.0052914999999999,1.071095,-0.0018304999999999,-0.0052915,0.90076,-0.3812755,0.0481614999999999,1.099329,-0.3791655,0.0161454999999999,0.894469,-0.7188955,0.0732334999999999,1.103189,-0.6990555,0.0488834999999999
73,1.0265105,0.7153105000000001,0.0774285,0.8429225000000001,0.5082105,0.0573325,0.7110225,0.6685005,0.0130105,1.1774925,0.5064205,0.0147655,1.3056125,0.6993005,-0.0703435,0.6682025,0.8665305,-0.0105574999999999,1.3592724999999999,0.9219505,-0.1095735,0.9289315,0.0018155,0.0051445,1.0710685,-0.0018154999999999,-0.0051445,0.9009285,-0.3821695,0.0481435,1.0992925,-0.3802295,0.0162024999999999,0.8945125,-0.7208195,0.0736605,1.1032325,-0.7010295,0.0493365
74,1.0266565,0.7138235,0.0768915,0.8429035,0.5097635,0.0589925,0.7145635,0.6730435,0.0163964999999999,1.1773535,0.5068535000000001,0.0154284999999999,1.3041435,0.7025535,-0.0665725,0.6686635000000001,0.8728235,-0.0041095,1.3609835,0.9218635,-0.1036125,0.9289465000000001,0.0017575,0.0050445,1.0710534999999999,-0.0017575,-0.0050445,0.9010935,-0.3829065,0.0480245,1.0992235,-0.3811765,0.0162235,0.8945735,-0.7225765,0.0740645,1.1033135,-0.7028665,0.0497395
75,1.0267449999999998,0.712331,0.076472,0.843174,0.5115010000000001,0.0607289999999999,0.718214,0.677201,0.0196529999999999,1.177194,0.5073110000000001,0.0160799999999999,1.302764,0.705551,-0.063037,0.669124,0.879201,0.0019109999999999,1.362274,0.921371,-0.099237,0.9289590000000001,0.0016849999999999,0.0049829999999999,1.071041,-0.0016849999999999,-0.004983,0.901215,-0.383639,0.0478659999999999,1.099094,-0.382029,0.0161669999999999,0.894614,-0.7242989999999999,0.0743959999999999,1.103394,-0.704629,0.050064
76,1.0268065,0.7108985,0.0761075,0.8434115,0.5132185,0.0627015,0.7217615,0.6807585,0.0225064999999999,1.1770215,0.5076485,0.0167274999999999,1.3015715,0.7083385,-0.0597385,0.6695415,0.8854585,0.0071754999999999,1.3630214999999999,0.9197085,-0.0946885,0.9289835,0.0016555,0.0049564999999999,1.0710165,-0.0016554999999999,-0.0049565,0.9013285,-0.3843015,0.0476435,1.0989415,-0.3828015,0.0160744999999999,0.8946815,-0.7260115,0.0746894999999999,1.1034715,-0.7063615,0.0503644999999999
77,1.026856,0.709637,0.0757265,0.843622,0.514517,0.0644625,0.725202,0.6839270000000001,0.0250185,1.176812,0.508107,0.0173235,1.300532,0.710937,-0.0569505,0.6699120000000001,0.891027,0.0115805,1.363762,0.918287,-0.0893104999999999,0.9290039999999999,0.001618,0.0049825,1.070996,-0.001618,-0.0049825,0.901441,-0.384723,0.0473165,1.098792,-0.383583,0.0159935,0.894732,-0.727563,0.0749114999999999,1.103552,-0.707903,0.0505595
78,1.0268629999999999,0.7083665,0.0754355,0.843783,0.5158465,0.0661745,0.7285630000000001,0.6867765,0.0272805,1.176623,0.5085265,0.0179025,1.299623,0.7130164999999999,-0.0544464999999999,0.6707529999999999,0.8963565,0.0155684999999999,1.3641429999999999,0.9155465,-0.0845944999999999,0.929033,0.0015985,0.0050344999999999,1.070967,-0.0015985,-0.0050344999999999,0.9015680000000001,-0.3851835,0.0470085,1.0986529999999999,-0.3843434999999999,0.0158755,0.894773,-0.7290835,0.0750885,1.1036229999999998,-0.7093935,0.0507235
79,1.0268665,0.7072195,0.0751755,0.8439155,0.5169794999999999,0.0676625,0.7317955,0.6895994999999999,0.0292535,1.1763955,0.5089695,0.0184434999999999,1.2988955,0.7148494999999999,-0.0521895,0.6717655,0.8977495,0.0180035,1.3644855,0.9126195,-0.0803995,0.9290675,0.0015744999999999,0.0051225,1.0709325,-0.0015745,-0.0051225,0.9016895,-0.3855005,0.0467005,1.0985655,-0.3849905,0.0157595,0.8948155000000001,-0.7304505,0.0751915,1.1036855,-0.7107305,0.0508465
80,1.026864,0.7061995,0.074957,0.844326,0.5178095,0.068895,0.734746,0.6920695,0.030941,1.176206,0.5094295,0.01899,1.298356,0.7164395,-0.0502199999999999,0.6730860000000001,0.8989695,0.020165,1.3647960000000001,0.9098495,-0.076398,0.929106,0.0015555,0.005212,1.070894,-0.0015555,-0.005212,0.9017890000000001,-0.3856805,0.046362,1.098496,-0.3855505,0.015719,0.894856,-0.7316805,0.075282,1.1037460000000001,-0.7119405,0.050917
81,1.0268465,0.7054015,0.074754,0.8445165,0.5183515000000001,0.069801,0.7372965,0.6941115,0.03227,1.1760165,0.5099215,0.019452,1.2979064999999999,0.7176715,-0.0485589999999999,0.6745065,0.8997715000000001,0.021863,1.3648464999999999,0.9078215,-0.07356,0.9291175,0.0015364999999999,0.00522,1.0708825,-0.0015365,-0.0052199999999999,0.9018705,-0.3858985,0.046111,1.0985065,-0.3860085,0.01567,0.8948765,-0.7327184999999999,0.075289,1.1038065,-0.7129685,0.050917
82,1.0267955,0.704792,0.07467,0.8448325,0.518732,0.07051,0.7393725000000001,0.695742,0.033441,1.1759325,0.5104019999999999,0.019891,1.2975425,0.718532,-0.0471319999999999,0.6767425,0.900412,0.023234,1.3647425,0.907312,-0.07105,0.9291215,0.001541,0.00522,1.0708785,-0.001541,-0.0052199999999999,0.9019475000000001,-0.386088,0.045882,1.0984925,-0.386248,0.015619,0.8948925000000001,-0.7335480000000001,0.075288,1.1038525,-0.7137680000000001,0.050905
83,1.026735,0.7042189999999999,0.0746675,0.845252,0.519139,0.0712945,0.740882,0.696669,0.0343214999999999,1.175902,0.510709,0.0203454999999999,1.297242,0.718969,-0.0457935,0.679092,0.900529,0.0241614999999999,1.365342,0.907769,-0.0687775,0.929122,0.001591,0.0052274999999999,1.070878,-0.0015909999999999,-0.0052275,0.902032,-0.386281,0.0457234999999999,1.098492,-0.3864109999999999,0.0155774999999999,0.8949120000000002,-0.734311,0.0752694999999999,1.103882,-0.714541,0.0508574999999999
84,1.0266495,0.703696,0.0745955,0.8456315,0.519226,0.0719205,0.7420515,0.6972659999999999,0.0348975,1.1758815,0.510946,0.0208405,1.2968915,0.719016,-0.0445674999999999,0.6813115000000001,0.899996,0.0244705,1.3656315,0.907506,-0.0667234999999999,0.9291425,0.0016499999999999,0.0053035,1.0708575,-0.00165,-0.0053034999999999,0.9021045,-0.386364,0.0455015,1.0984915,-0.386664,0.0154995,0.8949015,-0.7350340000000001,0.0751725,1.1039415,-0.715414,0.0507185
85,1.0265265,0.7033180000000001,0.074448,0.8459955,0.5191380000000001,0.07232,0.7430455,0.6977279999999999,0.03523,1.1758655,0.511158,0.021266,1.2965054999999999,0.718728,-0.043655,0.6834255,0.8994280000000001,0.024504,1.3656655,0.909748,-0.065187,0.9291665,0.001677,0.00537,1.0708335,-0.0016769999999999,-0.00537,0.9021345000000001,-0.386412,0.04523,1.0984755,-0.386872,0.015343,0.8948655,-0.735622,0.075001,1.1039555,-0.716202,0.050509
86,1.026414,0.7030109999999999,0.074306,0.846384,0.519041,0.072604,0.743894,0.698081,0.035429,1.1758440000000001,0.511271,0.021623,1.296124,0.718371,-0.042881,0.685164,0.898931,0.024352,1.365554,0.912581,-0.065028,0.929187,0.001695,0.005422,1.070813,-0.001695,-0.0054219999999999,0.902149,-0.386479,0.044947,1.098484,-0.387069,0.015148,0.894804,-0.736169,0.074801,1.103974,-0.717019,0.050269
87,1.0263,0.7027505000000001,0.074184,0.8467290000000001,0.5189705,0.072854,0.744569,0.6982805000000001,0.0354709999999999,1.175829,0.5113005,0.0219479999999999,1.295719,0.7179505,-0.042303,0.686469,0.8984905000000001,0.0240449999999999,1.365349,0.9158805,-0.064871,0.929204,0.0016945,0.0054639999999999,1.070796,-0.0016945,-0.005464,0.902133,-0.3865495,0.044653,1.098509,-0.3872995,0.0149729999999999,0.894749,-0.7366794999999999,0.074587,1.103969,-0.7177895,0.0500109999999999
88,1.026172,0.7025165,0.0740755,0.847012,0.5188765,0.0731355,0.7450420000000001,0.6982365,0.0353755,1.175802,0.5113165,0.0223135,1.295312,0.7175365,-0.0418385,0.687452,0.8979765,0.0237495,1.3651119999999999,0.9191165,-0.0647155,0.929218,0.0017075,0.0054975,1.070782,-0.0017075,-0.0054974999999999,0.902075,-0.3866135,0.0443305,1.098512,-0.3875435,0.0148025,0.894702,-0.7371935,0.0743495,1.1039519999999998,-0.7185635,0.0497155
89,1.0260405,0.7023225,0.074026,0.8470545,0.5187825,0.073413,0.7453645,0.6979825,0.035125,1.1757045,0.5112925,0.022595,1.2948944999999998,0.7171425,-0.041595,0.6882645000000001,0.8975725,0.023462,1.3647844999999998,0.9187225,-0.064923,0.9292305,0.0017134999999999,0.005504,1.0707695,-0.0017135,-0.005504,0.9020075,-0.3866875,0.043995,1.0985245,-0.3878775,0.014654,0.8946345,-0.7376775,0.0740929999999999,1.1039245,-0.7193375,0.049406
90,1.0259235,0.702145,0.074042,0.8470715,0.518675,0.073672,0.7455915,0.6976249999999999,0.03486,1.1755915,0.511275,0.022865,1.2944915,0.716785,-0.041447,0.6888814999999999,0.897085,0.022983,1.3643015,0.922035,-0.0649619999999999,0.9292385,0.001709,0.005498,1.0707615,-0.001709,-0.0054979999999999,0.9019205,-0.386765,0.043647,1.0985615,-0.388145,0.014512,0.8945715,-0.738115,0.073816,1.1038815,-0.720085,0.04907
91,1.0257795,0.7019675,0.0740649999999999,0.8470205,0.5185075,0.07391,0.7457205,0.6972475,0.034582,1.1754405,0.5112475,0.0231349999999999,1.2940405,0.7163675,-0.041361,0.6893405,0.8964475,0.0221949999999999,1.3641405,0.9267175,-0.064859,0.9292445,0.0017005,0.0054849999999999,1.0707555,-0.0017004999999999,-0.005485,0.9017985,-0.3868425,0.0433,1.0985705000000001,-0.3884625,0.0143799999999999,0.8944505000000001,-0.7385825,0.0735359999999999,1.1038105,-0.7208625,0.048719
92,1.0256445,0.701836,0.0741035,0.8469465,0.518336,0.0740494999999999,0.7458265,0.696916,0.0342485,1.1752965,0.511286,0.0234375,1.2935965,0.715956,-0.0413484999999999,0.6896964999999999,0.895786,0.0212925,1.3638465,0.931516,-0.0647265,0.9292475,0.001671,0.0054825,1.0707525,-0.0016709999999999,-0.0054825,0.9016705,-0.386934,0.0429665,1.0986164999999999,-0.388724,0.0142645,0.8943465,-0.738994,0.0732655,1.1037365,-0.721634,0.0483725
93,1.025543,0.7018195,0.074223,0.846862,0.5182895,0.0740899999999999,0.745932,0.6967194999999999,0.033832,1.175162,0.5112995,0.023649,1.293202,0.7156494999999999,-0.041353,0.689962,0.8952495,0.0202639999999999,1.363762,0.9368895,-0.064494,0.9292400000000001,0.0016494999999999,0.0054719999999999,1.07076,-0.0016494999999999,-0.005472,0.90156,-0.3870105,0.042719,1.098592,-0.3888605,0.0141869999999999,0.894262,-0.7393005,0.073075,1.103642,-0.7221505,0.048137
94,1.0254585,0.7017765,0.07428,0.8467525000000001,0.5182565,0.074075,0.7460325,0.6964965,0.033337,1.1750725,0.5113065,0.023821,1.2927525,0.7153465,-0.0413729999999999,0.6902425,0.8947265,0.019076,1.3636925,0.9427765,-0.0643509999999999,0.9292285000000001,0.0016334999999999,0.005452,1.0707715,-0.0016334999999999,-0.0054519999999999,0.9014595,-0.3870734999999999,0.042468,1.0985825,-0.3889935,0.014132,0.8941825,-0.7395835000000001,0.072872,1.1035725,-0.7226035000000001,0.047896
95,1.0253934999999998,0.7017245,0.0743035,0.8466935,0.5182145,0.0740315,0.7461335,0.6962444999999999,0.0327364999999999,1.1749835,0.5113245,0.0239454999999999,1.2922735,0.7150845,-0.0414195,0.6905635,0.8942045,0.0177614999999999,1.3636135,0.9445645,-0.0644885,0.9292165,0.0016005,0.0054024999999999,1.0707835,-0.0016004999999999,-0.0054025,0.9013765,-0.3871455,0.0422165,1.0985635,-0.3891255,0.0140734999999999,0.8941235,-0.7398655000000001,0.0726565,1.1035035,-0.7229655,0.0476184999999999
96,1.025339,0.7016805,0.0743395,0.846637,0.5181505,0.0739625,0.746237,0.6960105,0.0320855,1.174877,0.5113505,0.0240405,1.291767,0.7148305,-0.0414545,0.6909069999999999,0.8935705,0.0163515,1.3635069999999998,0.9462605,-0.0646665,0.929203,0.0015764999999999,0.0053495,1.070797,-0.0015765,-0.0053495,0.901307,-0.3872095,0.0419955,1.098537,-0.3892695,0.0140185,0.894067,-0.7400895,0.0724375,1.103447,-0.7233295,0.0473305
97,1.0253074999999998,0.7016389999999999,0.0743555,0.8465905,0.518089,0.0738455,0.7463504999999999,0.695829,0.0314105,1.1747705,0.5113890000000001,0.0240615,1.2912205,0.714629,-0.0415305,0.6912905,0.892909,0.0148655,1.3633205,0.947879,-0.0648435,0.9291865,0.0015509999999999,0.0052935,1.0708135,-0.0015509999999999,-0.0052935,0.9012585,-0.387271,0.0418065,1.0985305,-0.389371,0.0139775,0.8940205,-0.7402709999999999,0.0722315,1.1034004999999998,-0.723641,0.0470615
98,1.025276,0.701599,0.0743205,0.8464900000000001,0.518069,0.0736705,0.74646,0.695669,0.0306905,1.17466,0.511429,0.0240565,1.29063,0.714429,-0.0416255,0.69171,0.892179,0.0133745,1.3623699999999999,0.949419,-0.0650284999999999,0.929166,0.001547,0.0052325,1.070834,-0.0015469999999999,-0.0052325,0.901213,-0.387301,0.0416115,1.09852,-0.389401,0.0139085,0.89398,-0.740431,0.0720185,1.10336,-0.723941,0.0467935
99,1.0252485,0.701586,0.074241,0.8464005,0.518096,0.073491,0.7465805,0.695526,0.029966,1.1745305,0.511486,0.024053,1.2900105,0.714286,-0.041754,0.6921805,0.891406,0.011846,1.3613905,0.950376,-0.065273,0.9291455,0.001546,0.00517,1.0708545,-0.001546,-0.0051699999999999,0.9011575000000001,-0.387324,0.041429,1.0985105,-0.389424,0.013833,0.8939505,-0.740574,0.071819,1.1033205,-0.724214,0.046537
100,1.02524,0.7015815,0.0741455,0.846337,0.5181415,0.0733155,0.746707,0.6954115,0.0292385,1.174367,0.5115415,0.0240335,1.289407,0.7141715,-0.0418875,0.6926570000000001,0.8906815,0.0104424999999999,1.3604370000000001,0.9511615,-0.0655314999999999,0.929139,0.0015355,0.0050925,1.070861,-0.0015354999999999,-0.0050925,0.9011040000000001,-0.3873485,0.0412535,1.098507,-0.3893885,0.0137445,0.8939070000000001,-0.7406785,0.0716205,1.103297,-0.7244585,0.0462785
101,1.0252279999999998,0.701576,0.0740375,0.846284,0.518216,0.0731415,0.746784,0.695326,0.0285525,1.174244,0.511576,0.0239645,1.288774,0.714066,-0.0420194999999999,0.693094,0.889986,0.0090755,1.359504,0.951756,-0.0658195,0.929134,0.001529,0.0050214999999999,1.070866,-0.001529,-0.0050214999999999,0.90103,-0.387364,0.0411095,1.098494,-0.389324,0.0136435,0.893864,-0.740764,0.0714225,1.1032739999999999,-0.724694,0.0460025
102,1.025211,0.7015425,0.0738824999999999,0.846241,0.5182825,0.0729404999999999,0.746821,0.6952324999999999,0.0279634999999999,1.174181,0.5116525000000001,0.0239084999999999,1.288141,0.7139424999999999,-0.0421655,0.6935009999999999,0.8893125,0.0078944999999999,1.358611,0.9522325,-0.0663615,0.9291260000000001,0.0015305,0.0049374999999999,1.0708739999999999,-0.0015305,-0.0049375,0.900945,-0.3873775,0.0409714999999999,1.098491,-0.3893375,0.0135274999999999,0.893821,-0.7408675,0.0712095,1.103241,-0.7249675,0.0457005
103,1.025224,0.701515,0.0736965,0.846232,0.518335,0.0726955,0.746862,0.695145,0.0273525,1.174142,0.511745,0.0238054999999999,1.287642,0.713875,-0.0423465,0.693882,0.888705,0.0068544999999999,1.357872,0.952505,-0.0669545,0.9291000000000001,0.001543,0.0048694999999999,1.0709,-0.001543,-0.0048694999999999,0.900864,-0.387365,0.0408655,1.098512,-0.389375,0.0133224999999999,0.893802,-0.740985,0.0709755,1.103242,-0.725185,0.0453765
104,1.025269,0.7014755,0.07348,0.84627,0.5183755,0.072416,0.74691,0.6950755000000001,0.026779,1.17414,0.5118655000000001,0.023699,1.28717,0.7138555000000001,-0.0425949999999999,0.69426,0.8881155000000001,0.005874,1.35724,0.9528655,-0.0676119999999999,0.92908,0.0015784999999999,0.004807,1.07092,-0.0015784999999999,-0.0048069999999999,0.9008039999999999,-0.3873345,0.04076,1.09855,-0.3894245,0.013093,0.8938200000000001,-0.7411145,0.070738,1.10328,-0.7253645,0.045065
105,1.0253154999999998,0.701453,0.073248,0.8463105000000001,0.518413,0.07213,0.7469505000000001,0.695003,0.0262029999999999,1.1741605,0.511973,0.0236089999999999,1.2866705,0.713883,-0.042933,0.6945605,0.887703,0.005072,1.3566805,0.953123,-0.068355,0.9290615,0.0016059999999999,0.004754,1.0709385,-0.001606,-0.004754,0.9007315,-0.387307,0.040662,1.0985805,-0.389487,0.0128619999999999,0.8938405,-0.741227,0.070497,1.1033205,-0.725557,0.04476
106,1.0253665,0.7014435,0.073023,0.8463674999999999,0.5183035,0.071841,0.7469975,0.6951134999999999,0.025568,1.1741675,0.5120735,0.023501,1.2862175,0.7139435,-0.0433409999999999,0.6948175,0.8873835,0.004359,1.3561874999999999,0.9529935,-0.069061,0.9290455,0.0016255,0.004716,1.0709545,-0.0016255,-0.0047159999999999,0.9006495,-0.3873065,0.040578,1.0986175,-0.3894365,0.012639,0.8938675000000001,-0.7413265,0.070263,1.1033675,-0.7257165,0.044472
107,1.025416,0.7014714999999999,0.0728109999999999,0.846435,0.5182215,0.0715639999999999,0.747035,0.6952214999999999,0.0249849999999999,1.174185,0.5121715,0.023384,1.285835,0.7140415,-0.043774,0.6950149999999999,0.8871614999999999,0.0037069999999999,1.355735,0.9528615,-0.069705,0.929027,0.0016415,0.0047049999999999,1.070973,-0.0016415,-0.004705,0.900564,-0.3873085,0.0404989999999999,1.098675,-0.3895085,0.0124249999999999,0.893905,-0.7414185,0.070052,1.103415,-0.7258485,0.0441919999999999
108,1.0254729999999999,0.7014724999999999,0.072605,0.846497,0.5181025,0.071295,0.747077,0.6953425,0.024445,1.174197,0.5122725,0.023248,1.285497,0.7141625,-0.0442179999999999,0.6951070000000001,0.8870425,0.003171,1.355367,0.9527425,-0.070199,0.929009,0.0016525,0.004705,1.070991,-0.0016525,-0.004705,0.900485,-0.3873475,0.040366,1.098727,-0.3896275,0.012205,0.893927,-0.7415175,0.0698469999999999,1.103467,-0.7260275,0.043925
109,1.0255265,0.7014940000000001,0.072406,0.8467475000000001,0.5179940000000001,0.070736,0.7471075,0.695484,0.023938,1.1742175,0.5123840000000001,0.023121,1.2851675,0.714294,-0.0446579999999999,0.6951575,0.886934,0.002669,1.3549875,0.952734,-0.070669,0.9289875,0.001661,0.004711,1.0710125,-0.0016609999999999,-0.004711,0.9003885000000001,-0.3873959999999999,0.040179,1.0987775,-0.3897359999999999,0.011878,0.8939675,-0.741626,0.069639,1.1035175,-0.7261759999999999,0.04367
110,1.025573,0.7015235,0.072171,0.847021,0.5178735000000001,0.070154,0.747101,0.6956035,0.023468,1.174231,0.5124735,0.022967,1.2848709999999999,0.7144035,-0.0451319999999999,0.695211,0.8868134999999999,0.002245,1.354561,0.9528135,-0.0711739999999999,0.928966,0.0016725,0.004722,1.071034,-0.0016724999999999,-0.0047219999999999,0.9002910000000001,-0.3874865,0.039966,1.098791,-0.3898665,0.011478,0.894001,-0.7417465000000001,0.069413,1.103551,-0.7263664999999999,0.043389
111,1.02559,0.7015825,0.071917,0.847341,0.5178225,0.069337,0.7470209999999999,0.6957425,0.022975,1.174191,0.5125425,0.0227469999999999,1.284611,0.7145525,-0.045611,0.6952310000000002,0.8867525,0.0018139999999999,1.354271,0.9529225,-0.071568,0.9289270000000001,0.0016725,0.004761,1.071073,-0.0016724999999999,-0.004761,0.9001400000000002,-0.3875775,0.039736,1.098721,-0.3900274999999999,0.0109159999999999,0.894041,-0.7418375,0.06915,1.103571,-0.7265175,0.0430399999999999
112,1.0256109999999998,0.7016995,0.0716755,0.8475779999999999,0.5178495,0.0684835,0.746918,0.6959295,0.0225175,1.174148,0.5126095,0.0225345,1.284358,0.7146795,-0.0460955,0.695248,0.8868095,0.0013444999999999,1.353988,0.9530495,-0.0719674999999999,0.92891,0.0016535,0.0047924999999999,1.07109,-0.0016535,-0.0047924999999999,0.900016,-0.3876505,0.0395045,1.098568,-0.3903205,0.0101825,0.894078,-0.7419405,0.0688615,1.103578,-0.7267305,0.0426095
113,1.025609,0.7018504999999999,0.0713925,0.847754,0.5178704999999999,0.0676125,0.746734,0.6961105000000001,0.0220455,1.174054,0.5126405,0.0222825,1.2841339999999999,0.7147705,-0.0465855,0.695184,0.8869305000000001,0.0008475,1.353734,0.9532005,-0.0723885,0.9289060000000001,0.0016044999999999,0.0048525,1.071094,-0.0016045,-0.0048524999999999,0.899863,-0.3876995,0.0390925,1.098284,-0.3907795,0.0090525,0.8940939999999999,-0.7420495,0.0684785,1.103554,-0.7271194999999999,0.0420825
114,1.025571,0.7019489999999999,0.0709545,0.847857,0.517829,0.0665825,0.746437,0.696279,0.0214194999999999,1.173867,0.512589,0.0218634999999999,1.283927,0.7147789999999999,-0.0471935,0.695067,0.887019,0.0002034999999999,1.353577,0.953149,-0.0729785,0.928883,0.0015529999999999,0.0048925,1.071117,-0.0015529999999999,-0.0048925,0.899672,-0.3878209999999999,0.0382985,1.097947,-0.3912609999999999,0.0072824999999999,0.894067,-0.742251,0.0677375,1.103477,-0.7276910000000001,0.0412434999999999
115,1.0255245,0.702009,0.070278,0.8478835,0.517729,0.065316,0.7460635,0.696279,0.020581,1.1736435,0.512589,0.021243,1.2837535,0.7147789999999999,-0.0480079999999999,0.6948835,0.8870089999999999,-0.0006959999999999,1.3535135,0.953149,-0.073791,0.9288375,0.0015529999999999,0.004917,1.0711625,-0.0015529999999999,-0.0049169999999999,0.8994745,-0.388021,0.037029,1.0976534999999998,-0.391791,0.004697,0.8940835,-0.742421,0.0667,1.1033935,-0.728511,0.039955
116,1.0254569999999998,0.7020155,0.0694309999999999,0.848201,0.5175755,0.063832,0.7456309999999999,0.6962855,0.0195109999999999,1.173341,0.5125955,0.020442,1.283561,0.7147855,-0.04895,0.6946110000000001,0.8870055,-0.001774,1.353491,0.9531555,-0.074782,0.928774,0.0015465,0.0048959999999999,1.071226,-0.0015464999999999,-0.004896,0.8991439999999999,-0.3883845,0.0349639999999999,1.097422,-0.3924445,0.0009759999999999,0.894011,-0.7426345,0.065389,1.103301,-0.7302545,0.0380179999999999
117,1.025336,0.7020550000000001,0.068344,0.848339,0.517415,0.062096,0.745079,0.6963250000000001,0.018089,1.172969,0.512615,0.019362,1.283369,0.714825,-0.050121,0.694239,0.8870450000000001,-0.0031509999999999,1.353439,0.953095,-0.076087,0.928694,0.0015069999999999,0.004832,1.071306,-0.0015069999999999,-0.0048319999999999,0.898705,-0.388895,0.031991,1.097147,-0.393205,-0.0032479999999999,0.8939090000000001,-0.742945,0.063657,1.103159,-0.7324949999999999,0.035552
118,1.025144,0.7022635,0.0668975,0.848263,0.5173835,0.0602584999999999,0.7443930000000001,0.6964535,0.0161914999999999,1.172513,0.5125635,0.0179054999999999,1.2831730000000001,0.7149535,-0.0516915,0.693743,0.8872135,-0.0050595,1.353193,0.9532035,-0.0777475,0.928617,0.0014254999999999,0.0047424999999999,1.071383,-0.0014254999999999,-0.0047425,0.8981820000000001,-0.3893665,0.0281064999999999,1.096812,-0.3941265,-0.0080735,0.893733,-0.7432165,0.0612044999999999,1.1029529999999999,-0.7350365,0.0324674999999999
119,1.024824,0.702649,0.064957,0.848025,0.516829,0.0575979999999999,0.7435350000000001,0.696709,0.0135959999999999,1.171955,0.512849,0.0160149999999999,1.282865,0.715179,-0.053743,0.693145,0.887689,-0.007484,1.352865,0.953619,-0.07983,0.928491,0.0014179999999999,0.0046469999999999,1.071509,-0.001418,-0.004647,0.897364,-0.389621,0.0229939999999999,1.096407,-0.394841,-0.013673,0.893435,-0.743131,0.0580939999999999,1.102675,-0.737381,0.0288449999999999
120,1.024345,0.70307,0.06253,0.847695,0.51637,0.054456,0.7424650000000002,0.69705,0.010301,1.171345,0.5136099999999999,0.013576,1.2824449999999998,0.71546,-0.056476,0.6925950000000001,0.8883399999999999,-0.01079,1.352445,0.95423,-0.082609,0.928283,0.001347,0.004539,1.071717,-0.001347,-0.004539,0.896325,-0.38954,0.016992,1.096112,-0.39496,-0.0199869999999999,0.893005,-0.74246,0.054204,1.102335,-0.7392200000000001,0.024635
121,1.0236904999999998,0.702686,0.059527,0.8471725,0.515946,0.050739,0.7412624999999999,0.6971860000000001,0.0062249999999999,1.1706825,0.5146160000000001,0.0106599999999999,1.2819525,0.7155360000000001,-0.059896,0.6921525,0.888916,-0.014809,1.3512825,0.948066,-0.086759,0.9280425,0.001272,0.0044649999999999,1.0719575,-0.0012719999999999,-0.004465,0.8951425000000001,-0.389054,0.0102219999999999,1.0959235,-0.394614,-0.0268909999999999,0.8924825,-0.741324,0.04971,1.1019025,-0.740664,0.019909
122,1.0229715,0.7020314999999999,0.055955,0.8466765,0.5156514999999999,0.046413,0.7400465,0.6972315,0.001286,1.1700265,0.5156315,0.007246,1.2812565,0.7146215,-0.064051,0.6917065,0.8896314999999999,-0.019616,1.3501865,0.9426815,-0.091483,0.9278205,0.0011875,0.004394,1.0721795,-0.0011874999999999,-0.0043939999999999,0.8938765,-0.3878785,0.002752,1.0959035,-0.3935785,-0.034256,0.8919665,-0.7395985,0.044625,1.1014765,-0.7412885,0.014578
123,1.022104,0.700712,0.0520035,0.846222,0.515552,0.0417005,0.738812,0.6970419999999999,-0.0041815,1.169322,0.516692,0.0035454999999999,1.280422,0.712992,-0.0686125,0.691172,0.888362,-0.0252335,1.3490820000000001,0.937642,-0.0965965,0.927555,0.0011769999999999,0.0042704999999999,1.072445,-0.001177,-0.0042705,0.892472,-0.386318,-0.0051955,1.096072,-0.392158,-0.0417785,0.891452,-0.737248,0.0391445,1.101032,-0.741168,0.0090324999999999
124,1.0212234999999998,0.6996715,0.04736,0.8457895,0.5146015,0.036415,0.7377595,0.6976915,-0.010443,1.1684095,0.5143515,-0.000446,1.2795095,0.7117615,-0.0738139999999999,0.6906495,0.8879015,-0.031846,1.3479795,0.9342715,-0.102432,0.9271905,0.0012515,0.0040649999999999,1.0728095,-0.0012514999999999,-0.0040649999999999,0.8909495000000001,-0.3833185,-0.014042,1.0965995,-0.3892985,-0.0498949999999999,0.8909994999999999,-0.7333284999999999,0.032886,1.1005794999999998,-0.7391085,0.0029809999999999
125,1.0201955,0.6989044999999999,0.0423285,0.8454225,0.5135244999999999,0.0307475,0.7368525,0.6982745,-0.0171874999999999,1.1675125,0.5130144999999999,-0.0049275,1.2785625,0.7110445,-0.0794385,0.6899325000000001,0.8880644999999999,-0.0389435,1.3468925,0.9317745,-0.1087705,0.9267375,0.0013135,0.0039455,1.0732625,-0.0013135,-0.0039454999999999,0.8892025,-0.3802255,-0.0233285,1.0974125,-0.3854955,-0.0577054999999999,0.8906324999999999,-0.7281855,0.0263295,1.1002525,-0.7349755,-0.0030054999999999
126,1.019146,0.6980265,0.0369829999999999,0.84528,0.5114464999999999,0.0242809999999999,0.73611,0.6988365,-0.024269,1.16658,0.5123565,-0.009709,1.27747,0.7103765,-0.085502,0.6896800000000001,0.8888665,-0.046545,1.34582,0.9304265,-0.115394,0.926327,0.0013844999999999,0.003871,1.073673,-0.0013845,-0.003871,0.88746,-0.3759635,-0.032565,1.09829,-0.3806735,-0.065893,0.89026,-0.7217435,0.019581,1.09999,-0.7294235,-0.009231
127,1.018093,0.6966315,0.0315395,0.845425,0.5089115,0.0175975,0.735665,0.6987315000000001,-0.0315085,1.165805,0.5122115,-0.0145265,1.276335,0.7093915000000001,-0.0917434999999999,0.689145,0.8902215,-0.0540665,1.344825,0.9296215,-0.1222014999999999,0.925986,0.0014564999999999,0.0037615,1.074014,-0.0014564999999999,-0.0037615,0.8856650000000001,-0.3709685,-0.0418705,1.099345,-0.3753285,-0.0742844999999999,0.889925,-0.7145684999999999,0.0129635,1.099795,-0.7228585,-0.0155895
128,1.0171694999999998,0.695705,0.025832,0.8458245,0.507715,0.011137,0.7352745,0.699105,-0.038914,1.1649745,0.510065,-0.019577,1.2753245,0.709305,-0.098297,0.6893945,0.892755,-0.06178,1.3439245,0.929865,-0.129335,0.9256515,0.0014079999999999,0.0037719999999999,1.0743485,-0.001408,-0.003772,0.8839045000000001,-0.364825,-0.051227,1.1005945,-0.368895,-0.083117,0.8897745,-0.706095,0.0062039999999999,1.0997045,-0.714695,-0.022219
129,1.0162695,0.6931419999999999,0.0204955,0.8463795000000001,0.5068919999999999,0.0052745,0.7349495000000001,0.6982619999999999,-0.0459624999999999,1.1641695,0.5078619999999999,-0.0242855,1.2743295,0.7082419999999999,-0.1045485,0.6898095,0.894922,-0.0691905,1.3427795,0.929012,-0.1363085,0.9253105000000001,0.001478,0.0038315,1.0746894999999999,-0.001478,-0.0038315,0.8822995000000001,-0.359728,-0.0605594999999999,1.1018895,-0.363218,-0.0918385,0.8896495000000001,-0.697898,4.499999999999296e-06,1.0995995,-0.706588,-0.0284425
130,1.015459,0.6920195,0.0149094999999999,0.847133,0.5044795000000001,-0.0005995,0.7349129999999999,0.6982695,-0.0529764999999999,1.1633129999999998,0.5051195,-0.0292145,1.273323,0.7083095,-0.1108365,0.6907030000000001,0.8956995000000001,-0.0767635,1.342033,0.9358895,-0.1425005,0.92482,0.0016905,0.0037904999999999,1.07518,-0.0016904999999999,-0.0037905,0.880873,-0.3528205,-0.0701585,1.103283,-0.3557205,-0.1008485,0.889673,-0.6876304999999999,-0.0062115,1.099623,-0.6961904999999999,-0.0347365
131,1.0147864999999998,0.690625,0.0096,0.8477885000000001,0.502585,-0.0061299999999999,0.7350185,0.698325,-0.059723,1.1625885,0.502455,-0.033811,1.2722785,0.708695,-0.1167719999999999,0.6919285,0.896445,-0.084048,1.3406885,0.941585,-0.148321,0.9242385,0.001817,0.003728,1.0757615,-0.001817,-0.0037279999999999,0.8792885,-0.345885,-0.08007,1.1046485,-0.348045,-0.1100009999999999,0.8898985,-0.676765,-0.012497,1.0997785,-0.684865,-0.04077
132,1.0143959999999999,0.689947,0.0046024999999999,0.848902,0.499477,-0.0116375,0.735322,0.698527,-0.0661635,1.1620219999999999,0.498847,-0.0378915,1.271172,0.709807,-0.1225285,0.693372,0.900877,-0.0906175,1.338882,0.946997,-0.1538195,0.923651,0.001804,0.0038515,1.076349,-0.001804,-0.0038515,0.877742,-0.337873,-0.0899525,1.1059919999999999,-0.339523,-0.1191825,0.890362,-0.6647730000000001,-0.0185185,1.100072,-0.672243,-0.0466395
133,1.014038,0.6885045,0.0001734999999999,0.850156,0.4972745,-0.0166185,0.735716,0.6977245,-0.0719485,1.161766,0.4982745,-0.0415155,1.269946,0.7102645,-0.1278345,0.695516,0.9009445,-0.0968835,1.336736,0.9486945,-0.1602465,0.9232,0.0018974999999999,0.0040385,1.0768,-0.0018974999999999,-0.0040385,0.876206,-0.3300455,-0.0993175,1.106996,-0.3314054999999999,-0.1275985,0.8908360000000001,-0.6531455,-0.0240365,1.100306,-0.6598855,-0.0521055
134,1.0137305,0.685122,-0.0045045,0.8510825000000001,0.495552,-0.0214285,0.7362025,0.695862,-0.0785215,1.1613625,0.497702,-0.0454345,1.2688125000000001,0.709592,-0.1336595,0.6979425,0.898782,-0.1041545,1.3338025,0.949452,-0.1670795,0.9229175000000001,0.001923,0.0041614999999999,1.0770825,-0.0019229999999999,-0.0041615,0.8744125,-0.318268,-0.1094665,1.1079325,-0.3199079999999999,-0.1373095,0.8912925,-0.639688,-0.0298915,1.1004025,-0.645758,-0.0579165
135,1.013602,0.6820375,-0.0091424999999999,0.852113,0.4928075,-0.0260205,0.736773,0.6941875,-0.0850765,1.161043,0.4941475,-0.0492745,1.267363,0.7084675,-0.1392835,0.700433,0.8980775,-0.1111055,1.330493,0.9456175,-0.1744735,0.922595,0.0020425,0.0042805,1.077405,-0.0020425,-0.0042805,0.872593,-0.3050724999999999,-0.1197485,1.108973,-0.3069024999999999,-0.1468635,0.891903,-0.6252624999999999,-0.0356115,1.100593,-0.6300825,-0.0634335
136,1.0134444999999999,0.679153,-0.0180724999999999,0.8529855,0.492383,-0.0345614999999999,0.7372755000000001,0.693093,-0.0957895,1.1605655,0.491923,-0.0575674999999999,1.2659055000000001,0.7055629999999999,-0.1487985,0.7026255,0.8981129999999999,-0.1224904999999999,1.3268655,0.942853,-0.1858385,0.9224885,0.0022179999999999,0.0044725,1.0775115,-0.0022179999999999,-0.0044724999999999,0.8707755,-0.291057,-0.1340175,1.1097455,-0.2929469999999999,-0.1603085,0.8923755,-0.609627,-0.0452774999999999,1.1007255,-0.613297,-0.0726975
137,1.0132595,0.67954,-0.0283234999999999,0.8536965,0.49076,-0.0445145,0.7376665,0.6943,-0.1076375,1.1594065,0.49046,-0.0673045,1.2642665,0.70455,-0.1593135,0.7044665,0.8998400000000001,-0.1361205,1.3229465,0.94223,-0.1984735,0.9224035,0.0023399999999999,0.0047924999999999,1.0775965,-0.0023399999999999,-0.0047924999999999,0.8676865,-0.27274,-0.1529535,1.1107165,-0.27444,-0.1786535,0.8927265,-0.58956,-0.0563035,1.1007064999999998,-0.59215,-0.0830785
138,1.0133645,0.6803000000000001,-0.0388115,0.8544905,0.48761,-0.0545084999999999,0.7381905,0.69522,-0.1196925,1.1583605,0.48904,-0.0770835,1.2627305,0.70451,-0.1698355,0.7065305,0.8989800000000001,-0.1498625,1.3203105,0.94247,-0.2110054999999999,0.9223215,0.00235,0.0050465,1.0776785,-0.0023499999999999,-0.0050464999999999,0.8647104999999999,-0.25364,-0.1713954999999999,1.1116205,-0.2553399999999999,-0.1965155,0.8932305,-0.5691200000000001,-0.0672914999999999,1.1007705,-0.5707899999999999,-0.0933725
139,1.013562,0.679815,-0.0487534999999999,0.855112,0.486215,-0.0640144999999999,0.738702,0.695525,-0.1314405,1.157332,0.486915,-0.0864585,1.261582,0.7026249999999999,-0.1798485,0.708152,0.899805,-0.1632075,1.318192,0.940835,-0.2232785,0.922315,0.002305,0.0054215,1.077685,-0.002305,-0.0054214999999999,0.861442,-0.235205,-0.1895184999999999,1.112412,-0.236865,-0.2141085,0.893602,-0.549165,-0.0777745,1.100732,-0.550135,-0.1031395
140,1.013569,0.67954,-0.0588804999999999,0.855826,0.4839599999999999,-0.0738854999999999,0.739176,0.69581,-0.1431875,1.156096,0.48343,-0.0963955,1.260126,0.69896,-0.1898135,0.709576,0.90125,-0.1764974999999999,1.316706,0.93732,-0.2357334999999999,0.922348,0.00248,0.0057365,1.077652,-0.00248,-0.0057364999999999,0.8583660000000001,-0.21516,-0.2073735,1.1130859999999998,-0.21727,-0.2315335,0.893846,-0.5279699999999999,-0.0880415,1.1004159999999998,-0.5287,-0.1129175
141,1.013364,0.6790050000000001,-0.0689225,0.856401,0.482435,-0.0837665,0.739441,0.694875,-0.1547515,1.154781,0.481575,-0.1061855,1.258741,0.696785,-0.1994705,0.711101,0.897835,-0.1906904999999999,1.315581,0.934455,-0.2492305,0.922351,0.002595,0.0058854999999999,1.077649,-0.0025949999999999,-0.0058855,0.855431,-0.1955449999999999,-0.2249805,1.113581,-0.1981149999999999,-0.2484905,0.8939410000000001,-0.506945,-0.0979615,1.099841,-0.507725,-0.1224895
142,1.01322,0.67876,-0.078854,0.8568439999999999,0.48194,-0.092947,0.739564,0.6943699999999999,-0.166044,1.153434,0.48089,-0.115592,1.258254,0.6957,-0.20903,0.711994,0.89775,-0.20389,1.314754,0.93365,-0.26099,0.922338,0.0025399999999999,0.0061399999999999,1.077662,-0.00254,-0.00614,0.852764,-0.1765,-0.2419,1.114104,-0.1793,-0.26489,0.894084,-0.4859,-0.107289,1.099274,-0.4870299999999999,-0.131445
143,1.0129139999999999,0.68001,-0.08818,0.857332,0.4793699999999999,-0.102131,0.7398020000000001,0.6949000000000001,-0.176327,1.152142,0.47834,-0.124746,1.257552,0.6950799999999999,-0.217795,0.712222,0.8996,-0.215885,1.314052,0.93343,-0.272105,0.922541,0.00256,0.0062849999999999,1.077459,-0.00256,-0.0062849999999999,0.850402,-0.15871,-0.257555,1.114412,-0.16177,-0.279875,0.894012,-0.4655,-0.1161099999999999,1.098542,-0.46689,-0.139653
144,1.0126354999999998,0.6799850000000001,-0.097083,0.8579275,0.478425,-0.110899,0.7402575,0.694975,-0.186376,1.1510375,0.477005,-0.133731,1.2570975,0.693875,-0.22638,0.7123875,0.898265,-0.2281099999999999,1.3134575,0.936015,-0.28257,0.9226335,0.0025049999999999,0.0064199999999999,1.0773665000000001,-0.0025049999999999,-0.0064199999999999,0.8482175000000001,-0.141625,-0.27278,1.1148475,-0.144855,-0.29456,0.8940075,-0.445955,-0.124874,1.0978774999999998,-0.4476249999999999,-0.147701
145,1.0129655,0.679335,-0.101992,0.8590595,0.4757849999999999,-0.1153309999999999,0.7411895,0.692485,-0.192324,1.1504794999999999,0.4723449999999999,-0.138515,1.2570895,0.692545,-0.231265,0.7130695,0.896745,-0.236125,1.3131595,0.933985,-0.289495,0.9226125000000001,0.0028649999999999,0.006585,1.0773875,-0.002865,-0.0065849999999999,0.8465695,-0.124045,-0.283605,1.1159395,-0.127705,-0.305455,0.8946895,-0.426205,-0.129401,1.0977095000000001,-0.427875,-0.151397
146,1.0136725,0.6755500000000001,-0.105013,0.8602955,0.47396,-0.11771,0.7420455,0.68967,-0.196577,1.1505255,0.47045,-0.141365,1.2571155,0.68991,-0.23443,0.7138555,0.89437,-0.24178,1.3133455,0.93079,-0.29464,0.9225315000000001,0.00278,0.00649,1.0774685,-0.00278,-0.0064899999999999,0.8462455,-0.1077099999999999,-0.2889,1.1165355,-0.1108699999999999,-0.3102399999999999,0.8954955,-0.40908,-0.131857,1.0975645,-0.41067,-0.153271
147,1.0144825,0.67252,-0.107677,0.8615345,0.47215,-0.12003,0.7431245,0.68761,-0.200489,1.1505845,0.46801,-0.143826,1.2575045,0.68681,-0.237905,0.7146144999999999,0.89497,-0.247285,1.3142945,0.92747,-0.299935,0.9224635,0.00291,0.006445,1.0775365,-0.0029099999999999,-0.006445,0.8459245,-0.0896199999999999,-0.293805,1.1171244999999999,-0.0929699999999999,-0.314725,0.8962745,-0.39127,-0.134124,1.0974104999999998,-0.39288,-0.155001
148,1.014969,0.670195,-0.110087,0.862284,0.4701349999999999,-0.122017,0.743564,0.6854450000000001,-0.20384,1.150144,0.466275,-0.145996,1.2574239999999999,0.684855,-0.24091,0.7148639999999999,0.891505,-0.2529599999999999,1.314664,0.925255,-0.30472,0.9224380000000001,0.003085,0.0061799999999999,1.077562,-0.003085,-0.00618,0.845144,-0.070865,-0.29782,1.1171639999999998,-0.0743149999999999,-0.3183,0.896564,-0.3735349999999999,-0.135788,1.096816,-0.374985,-0.156487
149,1.0158525,0.667735,-0.111703,0.8630595,0.468265,-0.122973,0.7442195,0.683165,-0.20662,1.1504495000000001,0.465755,-0.147181,1.2578195,0.685305,-0.243585,0.7151995,0.888125,-0.258025,1.3150495,0.925415,-0.309085,0.9223825,0.003155,0.006165,1.0776175000000001,-0.0031549999999999,-0.006165,0.8446495,-0.0563549999999999,-0.300645,1.1174995,-0.0602449999999999,-0.320855,0.8970595000000001,-0.3567749999999999,-0.136649,1.0965245,-0.3579949999999999,-0.157237
150,1.016588,0.666115,-0.1132239999999999,0.8636900000000001,0.4681869999999999,-0.123873,0.74468,0.683235,-0.209565,1.15086,0.465149,-0.148164,1.25793,0.684925,-0.24616,0.71513,0.8892849999999999,-0.26213,1.31485,0.925435,-0.31243,0.922368,0.003365,0.00617,1.077632,-0.003365,-0.0061699999999999,0.84406,-0.0402649999999999,-0.30286,1.11781,-0.044935,-0.32318,0.8974410000000002,-0.339105,-0.137434,1.096143,-0.339965,-0.157857
151,1.0170805,0.66441,-0.1144019999999999,0.8641325,0.4663629999999999,-0.1247089999999999,0.7447925,0.68249,-0.212191,1.1511125,0.4642509999999999,-0.1490719999999999,1.2580425,0.68389,-0.2484499999999999,0.7148924999999999,0.8903,-0.26663,1.3144125,0.92585,-0.31559,0.9224675,0.0033299999999999,0.0061599999999999,1.0775325,-0.0033299999999999,-0.0061599999999999,0.8433525,-0.02372,-0.3049699999999999,1.1179625,-0.0291,-0.32532,0.8976835,-0.32153,-0.138144,1.0956964999999999,-0.32175,-0.158267
152,1.017403,0.6633549999999999,-0.1153189999999999,0.864099,0.466785,-0.1246159999999999,0.7447790000000001,0.6823349999999999,-0.214204,1.151279,0.4636599999999999,-0.1495139999999999,1.257859,0.682925,-0.250295,0.714519,0.889405,-0.2705849999999999,1.313779,0.923225,-0.3189849999999999,0.9224559999999999,0.0036749999999999,0.0061049999999999,1.077544,-0.003675,-0.0061049999999999,0.8426089999999999,-0.007155,-0.3057649999999999,1.117949,-0.0134549999999999,-0.326555,0.89769,-0.304325,-0.1384389999999999,1.09508,-0.303935,-0.158576
153,1.0178094999999998,0.66343,-0.115882,0.8641295,0.4676369999999999,-0.124302,0.7446094999999999,0.68251,-0.215717,1.1516095,0.4647989999999999,-0.149258,1.2572595,0.68355,-0.25166,0.7142795,0.8906000000000001,-0.27373,1.3132895,0.9227,-0.32143,0.9224635,0.00396,0.00614,1.0775365,-0.00396,-0.0061399999999999,0.8418895,0.00951,-0.30576,1.1179495,0.0024799999999999,-0.32703,0.8976655,-0.2869299999999999,-0.1381379999999999,1.0945385,-0.28628,-0.1583709999999999
154,1.0182235,0.66299,-0.115517,0.8642085000000002,0.468326,-0.123864,0.7443985,0.68431,-0.216588,1.1519785,0.467608,-0.148829,1.2567585000000001,0.68621,-0.25203,0.7138785000000001,0.89073,-0.27602,1.3129485,0.92463,-0.32287,0.9224755,0.0037699999999999,0.0062099999999999,1.0775245,-0.0037699999999999,-0.00621,0.8413085000000001,0.02409,-0.30526,1.1179785,0.01667,-0.32658,0.8976195,-0.2715399999999999,-0.137677,1.0940975,-0.2709999999999999,-0.157881
155,1.0185605,0.663235,-0.114777,0.8645845,0.468719,-0.12292,0.7441845,0.684615,-0.216896,1.1525645,0.468176,-0.148107,1.2566644999999999,0.6873549999999999,-0.25178,0.7139945,0.8898550000000001,-0.27747,1.3127944999999999,0.925755,-0.32378,0.9224395,0.004165,0.0063899999999999,1.0775605,-0.0041649999999999,-0.00639,0.8409545,0.037495,-0.30447,1.1183444999999999,0.029865,-0.32584,0.8976805,-0.2570749999999999,-0.136916,1.0940085,-0.2569249999999999,-0.157109
156,1.018819,0.663555,-0.113984,0.864967,0.470134,-0.121926,0.743957,0.6854750000000001,-0.21692,1.153087,0.4686639999999999,-0.147334,1.256497,0.688635,-0.251015,0.714147,0.8854150000000001,-0.278395,1.3127469999999999,0.926775,-0.324095,0.922491,0.0043949999999999,0.0066249999999999,1.077509,-0.0043949999999999,-0.006625,0.8403970000000001,0.0506949999999999,-0.303615,1.1188069999999999,0.0427549999999999,-0.325065,0.897724,-0.2430949999999999,-0.136107,1.09395,-0.243305,-0.156292
157,1.018846,0.66333,-0.113345,0.865185,0.471759,-0.121283,0.743695,0.68642,-0.2171,1.153605,0.469149,-0.146346,1.256225,0.68933,-0.25059,0.714115,0.88547,-0.27862,1.312435,0.9263,-0.32475,0.9225800000000001,0.0044899999999999,0.0066999999999999,1.0774199999999998,-0.0044899999999999,-0.0066999999999999,0.839815,0.0625999999999999,-0.30277,1.119325,0.0544199999999999,-0.32416,0.8975480000000001,-0.2303599999999999,-0.135235,1.094064,-0.23091,-0.155295
158,1.01884,0.662655,-0.112206,0.8651950000000002,0.473439,-0.120307,0.744105,0.6869750000000001,-0.21647,1.154015,0.469499,-0.144794,1.2560850000000001,0.689805,-0.24983,0.7141649999999999,0.884395,-0.2784,1.312295,0.925645,-0.32482,0.922474,0.004605,0.00672,1.077526,-0.0046049999999999,-0.00672,0.8394550000000001,0.073285,-0.30111,1.120075,0.064915,-0.32257,0.897694,-0.2185949999999999,-0.133686,1.094484,-0.2195949999999999,-0.153804
159,1.018792,0.66143,-0.1106829999999999,0.865157,0.474363,-0.118976,0.743797,0.68673,-0.215665,1.154117,0.46904,-0.142998,1.256017,0.68947,-0.2489449999999999,0.714037,0.8825000000000001,-0.277935,1.311987,0.92454,-0.324545,0.922472,0.0047,0.006855,1.077528,-0.0047,-0.006855,0.839037,0.08242,-0.299045,1.120807,0.07399,-0.320665,0.897837,-0.20804,-0.131914,1.095007,-0.20969,-0.152111
160,1.018651,0.65986,-0.109062,0.8649979999999999,0.476143,-0.117534,0.743128,0.6866099999999999,-0.21465,1.1541679999999999,0.468273,-0.141127,1.256128,0.68908,-0.24795,0.713848,0.88115,-0.27697,1.311808,0.92,-0.3241199999999999,0.922607,0.0049599999999999,0.0070599999999999,1.077393,-0.0049599999999999,-0.00706,0.838578,0.09092,-0.2968699999999999,1.121478,0.0823599999999999,-0.31878,0.897949,-0.1980199999999999,-0.130086,1.095478,-0.20025,-0.150233
161,1.0185454999999999,0.6583899999999999,-0.107807,0.8649125,0.4752759999999999,-0.116016,0.7425525,0.6857,-0.21394,1.1542925,0.4687879999999999,-0.139435,1.2561624999999998,0.6895199999999999,-0.24717,0.7137025,0.8822999999999999,-0.27629,1.3116525,0.91903,-0.32353,0.9226815,0.0044999999999999,0.0070899999999999,1.0773185,-0.0045,-0.0070899999999999,0.8382025000000001,0.0987399999999999,-0.29424,1.1222325,0.0904999999999999,-0.31658,0.8980615,-0.1883800000000001,-0.1279549999999999,1.0960025,-0.1915000000000001,-0.148618
162,1.018343,0.6567099999999999,-0.106502,0.864825,0.4747599999999999,-0.11455,0.742155,0.68489,-0.213405,1.154335,0.4683659999999999,-0.1378309999999999,1.256295,0.68629,-0.2465649999999999,0.713545,0.88255,-0.275945,1.3114949999999999,0.91681,-0.323095,0.922794,0.0041399999999999,0.007105,1.0772059999999999,-0.00414,-0.007105,0.837845,0.1056399999999999,-0.291565,1.123065,0.0977599999999999,-0.314425,0.898194,-0.17979,-0.125819,1.096455,-0.1837,-0.147125
163,1.018012,0.6564049999999999,-0.1050349999999999,0.864764,0.4744779999999999,-0.1131679999999999,0.7415039999999999,0.685165,-0.21288,1.154374,0.467618,-0.136152,1.256174,0.683505,-0.24575,0.713254,0.8826149999999999,-0.27572,1.311254,0.914945,-0.32264,0.922895,0.0037949999999999,0.0071299999999999,1.077105,-0.0037949999999999,-0.0071299999999999,0.837514,0.1131349999999999,-0.28885,1.123954,0.1055949999999999,-0.31209,0.898436,-0.1706350000000001,-0.123209,1.096834,-0.175555,-0.145251
164,1.017701,0.654475,-0.10371,0.864769,0.47438,-0.112061,0.740889,0.684415,-0.212435,1.154519,0.467137,-0.134534,1.256559,0.680755,-0.245285,0.713039,0.881275,-0.275745,1.311019,0.911315,-0.322085,0.922971,0.003395,0.007035,1.077029,-0.0033949999999999,-0.007035,0.8373590000000001,0.118545,-0.286655,1.124879,0.111455,-0.309795,0.898865,-0.163555,-0.120618,1.0972089999999999,-0.1694649999999999,-0.143559
165,1.0173715,0.653025,-0.102477,0.8645205,0.474227,-0.11089,0.7403005,0.68378,-0.21209,1.1546205,0.467084,-0.1331169999999999,1.2568805,0.67864,-0.24489,0.7127405,0.8835500000000001,-0.27581,1.3107405,0.90795,-0.32173,0.9230105000000001,0.0029599999999999,0.0069499999999999,1.0769894999999998,-0.0029599999999999,-0.0069499999999999,0.8371405000000001,0.12383,-0.28433,1.1257705,0.1169899999999999,-0.30753,0.8993315,-0.1567499999999999,-0.1180269999999999,1.0976404999999998,-0.1635799999999999,-0.141457
166,1.016952,0.652,-0.101357,0.864207,0.4740339999999999,-0.109739,0.7398469999999999,0.683155,-0.211665,1.154687,0.467429,-0.131902,1.2568769999999998,0.677005,-0.244365,0.7124170000000001,0.8850849999999999,-0.275955,1.310407,0.905895,-0.321565,0.923038,0.0025249999999999,0.006845,1.076962,-0.0025249999999999,-0.006845,0.8369070000000001,0.128735,-0.281925,1.126637,0.1219849999999999,-0.3053249999999999,0.89977,-0.150495,-0.115413,1.097887,-0.1580249999999999,-0.139769
167,1.01659,0.651615,-0.1003059999999999,0.863728,0.473769,-0.108596,0.739058,0.682875,-0.21121,1.154658,0.468013,-0.130717,1.2572079999999999,0.675845,-0.24427,0.7120679999999999,0.886925,-0.27601,1.310018,0.904185,-0.32177,0.923077,0.002025,0.00678,1.076923,-0.0020249999999999,-0.0067799999999999,0.836618,0.133655,-0.27953,1.127318,0.126905,-0.30318,0.900144,-0.144625,-0.1131679999999999,1.097978,-0.1523649999999999,-0.138071
168,1.0161375,0.6510429999999999,-0.099471,0.8632065000000001,0.4728909999999999,-0.107532,0.7384265,0.6820999999999999,-0.210855,1.1545665,0.4687819999999999,-0.129801,1.2574765,0.6748599999999999,-0.244375,0.7116765,0.88815,-0.2764749999999999,1.3095465,0.90221,-0.322405,0.9231355,0.0015299999999999,0.0066449999999999,1.0768645000000001,-0.00153,-0.0066449999999999,0.8363065000000001,0.1377799999999999,-0.277265,1.1278465,0.1310699999999999,-0.301235,0.9004775,-0.13977,-0.111131,1.0980165,-0.14748,-0.136532
169,1.015611,0.6511690000000001,-0.098807,0.8626650000000001,0.4717700000000001,-0.106534,0.7377950000000001,0.68178,-0.210635,1.154425,0.46926,-0.128996,1.257655,0.67376,-0.244675,0.711225,0.8891100000000001,-0.276985,1.309205,0.90343,-0.3231549999999999,0.9232400000000001,0.00109,0.0066349999999999,1.07676,-0.0010899999999999,-0.006635,0.835975,0.14139,-0.275055,1.128265,0.13487,-0.299445,0.900746,-0.1356099999999999,-0.109364,1.098195,-0.1430199999999999,-0.135852
170,1.0149985,0.651337,-0.0982429999999999,0.8622885,0.472445,-0.1060689999999999,0.7371084999999999,0.681865,-0.2103749999999999,1.1542284999999999,0.469125,-0.128466,1.2575685,0.672015,-0.2450949999999999,0.7107485,0.8892150000000001,-0.277445,1.3087784999999998,0.904055,-0.3241549999999999,0.9232985,0.000985,0.006655,1.0767015,-0.000985,-0.0066549999999999,0.8355585,0.143735,-0.2735149999999999,1.1286285,0.137395,-0.298215,0.9010105,-0.1331949999999999,-0.1082099999999999,1.0983685,-0.139985,-0.1353079999999999
171,1.0144104999999999,0.652167,-0.097874,0.8619195,0.471945,-0.105628,0.7365895,0.681335,-0.210195,1.1539995,0.470025,-0.12834,1.2574295,0.672915,-0.245305,0.7103794999999999,0.8892150000000001,-0.277595,1.3083695,0.904955,-0.325125,0.9233355,0.000765,0.0066249999999999,1.0766645,-0.000765,-0.006625,0.8350695,0.144885,-0.272525,1.1289195,0.138625,-0.297595,0.9008885,-0.1322949999999999,-0.10813,1.0984695,-0.1383649999999999,-0.135032
172,1.0138515,0.652167,-0.0976809999999999,0.8615815,0.471945,-0.1054519999999999,0.7360715,0.681335,-0.2098499999999999,1.1536915,0.470025,-0.1283359999999999,1.2573715,0.672915,-0.2453199999999999,0.7100615,0.8892150000000001,-0.27759,1.3080015,0.904955,-0.32602,0.9233905,0.000765,0.0066,1.0766095,-0.000765,-0.0065999999999999,0.8345914999999999,0.145115,-0.2723299999999999,1.1291515,0.138955,-0.29752,0.9008305,-0.1322949999999999,-0.1081449999999999,1.0987015,-0.138355,-0.134851
173,1.0132554999999999,0.652167,-0.097631,0.8612625,0.471945,-0.105448,0.7355225000000001,0.681335,-0.20982,1.1531925,0.470025,-0.12831,1.2573525,0.672915,-0.24533,0.7097525,0.8892150000000001,-0.27785,1.3075725,0.904955,-0.32676,0.9234185,0.000765,0.00661,1.0765815,-0.000765,-0.00661,0.8341125,0.145275,-0.2723,1.1293125,0.139255,-0.29754,0.9008115,-0.1322949999999999,-0.108155,1.0987825,-0.138355,-0.134868
174,1.0126115,0.652167,-0.097568,0.8610375,0.471945,-0.105436,0.7350275,0.681335,-0.209475,1.1527574999999999,0.470405,-0.128283,1.2569575,0.673273,-0.245305,0.7093075,0.8892150000000001,-0.278055,1.3069074999999999,0.905565,-0.327515,0.9234235,0.000765,0.0066149999999999,1.0765765,-0.000765,-0.006615,0.8335375,0.145245,-0.272265,1.1293075,0.139255,-0.297545,0.9007025,-0.1327349999999999,-0.108152,1.0986675,-0.138355,-0.134617
175,1.0119935,0.653744,-0.097714,0.8608445,0.472985,-0.105614,0.7344645000000001,0.682205,-0.20905,1.1521945,0.4712449999999999,-0.128556,1.2564245,0.6737789999999999,-0.2458,0.7087345,0.888755,-0.27822,1.3063045,0.906625,-0.32853,0.9234735000000001,0.0006649999999999,0.0065899999999999,1.0765265,-0.000665,-0.0065899999999999,0.8330145000000001,0.1443849999999999,-0.27242,1.1293445,0.1384149999999999,-0.29774,0.9004145,-0.1341150000000001,-0.108901,1.0986845,-0.1392150000000001,-0.134641
176,1.01142,0.6558579999999999,-0.098061,0.860718,0.4741429999999999,-0.106049,0.734588,0.683635,-0.208785,1.1515279999999999,0.4715919999999999,-0.129268,1.255788,0.6744049999999999,-0.246465,0.707488,0.8940349999999999,-0.278515,1.305658,0.908015,-0.3292049999999999,0.923587,0.0008449999999999,0.0067349999999999,1.076413,-0.000845,-0.006735,0.832648,0.1416949999999999,-0.273215,1.129378,0.1357349999999999,-0.298695,0.900077,-0.137475,-0.110271,1.098718,-0.142055,-0.134854
177,1.01088,0.658594,-0.098866,0.860544,0.4753779999999999,-0.107219,0.734004,0.68458,-0.208953,1.1507839999999998,0.4703549999999999,-0.130454,1.254764,0.6756,-0.247545,0.705994,0.8965799999999999,-0.2792449999999999,1.304994,0.90978,-0.3305949999999999,0.923689,0.0014299999999999,0.006665,1.076311,-0.00143,-0.006665,0.8321540000000001,0.1357399999999999,-0.275305,1.129334,0.1298099999999999,-0.3003949999999999,0.899667,-0.14416,-0.112294,1.098654,-0.1484499999999999,-0.13567
178,1.010406,0.6585350000000001,-0.10064,0.860431,0.473582,-0.10937,0.733541,0.6830750000000001,-0.209844,1.149811,0.4701660000000001,-0.132553,1.253761,0.6761950000000001,-0.24949,0.7046610000000001,0.8935350000000001,-0.28064,1.304391,0.911735,-0.3326,0.923533,0.001505,0.0061299999999999,1.076467,-0.0015049999999999,-0.0061299999999999,0.831941,0.123505,-0.27878,1.129111,0.117655,-0.3031,0.8992120000000001,-0.1571449999999999,-0.11533,1.098721,-0.1611749999999999,-0.137361
179,1.009935,0.66135,-0.102451,0.860203,0.4715089999999999,-0.111769,0.7329030000000001,0.6822699999999999,-0.210839,1.148773,0.4699569999999999,-0.134843,1.252433,0.6773199999999999,-0.251425,0.703503,0.89221,-0.281485,1.303683,0.91425,-0.334625,0.9233709999999999,0.00146,0.0057249999999999,1.076629,-0.00146,-0.0057249999999999,0.831843,0.1109699999999999,-0.282565,1.128793,0.1051399999999999,-0.305725,0.898704,-0.17063,-0.118736,1.098803,-0.17465,-0.139291
180,1.0096235,0.6627050000000001,-0.104079,0.8600705,0.471128,-0.11418,0.7321805,0.682315,-0.211662,1.1473705,0.468881,-0.137362,1.2512204999999998,0.6771450000000001,-0.25305,0.7023205,0.8946350000000001,-0.28205,1.3029305,0.914775,-0.33624,0.9232935,0.001285,0.0053299999999999,1.0767065,-0.0012849999999999,-0.00533,0.8319305,0.093055,-0.286,1.1283105,0.087255,-0.3079,0.8983475,-0.1894449999999999,-0.122014,1.0990105,-0.1937549999999999,-0.141
181,1.009425,0.664615,-0.105411,0.859938,0.470495,-0.116392,0.731518,0.682265,-0.212211,1.145998,0.467951,-0.1397,1.250108,0.677215,-0.25448,0.7012480000000001,0.895465,-0.28222,1.302178,0.916085,-0.33767,0.923258,0.001585,0.00508,1.076742,-0.0015849999999999,-0.00508,0.832108,0.072715,-0.28885,1.127818,0.067015,-0.30963,0.898065,-0.2105549999999999,-0.125158,1.099278,-0.215125,-0.142546
182,1.0094285,0.6661250000000001,-0.106395,0.8600685,0.469744,-0.118247,0.7314185,0.681735,-0.212424,1.1450784999999999,0.468352,-0.14163,1.2492585,0.676465,-0.254975,0.7007085,0.894335,-0.281975,1.3017885,0.916305,-0.338605,0.9230245,0.0015249999999999,0.0049349999999999,1.0769755,-0.0015249999999999,-0.0049349999999999,0.8325585,0.0497549999999999,-0.291215,1.1272985,0.043695,-0.311205,0.8979835,-0.2346549999999999,-0.128205,1.0998085,-0.2397749999999999,-0.143662
183,1.0096025,0.6681900000000001,-0.106879,0.8603025000000001,0.472441,-0.1194409999999999,0.7312725,0.68421,-0.2121259999999999,1.1442525,0.46708,-0.142731,1.2487925,0.67762,-0.255345,0.7003925,0.89303,-0.281055,1.3016025,0.91734,-0.338995,0.9228345,0.0019899999999999,0.0049249999999999,1.0771655,-0.0019899999999999,-0.0049249999999999,0.8333524999999999,0.02543,-0.2921749999999999,1.1267225,0.01885,-0.311655,0.8984855,-0.2604999999999999,-0.1299239999999999,1.1004425,-0.26641,-0.144212
184,1.0098945,0.6694100000000001,-0.106632,0.8605965,0.47202,-0.1197869999999999,0.7312465,0.6840700000000001,-0.211506,1.1434165,0.466895,-0.143076,1.2483165,0.6794,-0.254765,0.7002865,0.89398,-0.2786849999999999,1.3014964999999998,0.9187,-0.338815,0.9225435,0.00214,0.004865,1.0774565,-0.0021399999999999,-0.0048649999999999,0.8342465,0.00055,-0.292335,1.1260665,-0.0063999999999999,-0.311705,0.8989965,-0.2877099999999999,-0.13115,1.1008365,-0.29396,-0.144501
185,1.010143,0.6715150000000001,-0.106228,0.860866,0.472078,-0.119809,0.731216,0.684315,-0.210684,1.1427559999999999,0.465462,-0.143227,1.248116,0.679965,-0.254055,0.700826,0.889225,-0.276365,1.301496,0.919345,-0.337955,0.922257,0.002385,0.004885,1.077743,-0.0023849999999999,-0.004885,0.835226,-0.0237949999999999,-0.292415,1.1254559999999998,-0.0309549999999999,-0.311655,0.899522,-0.315805,-0.132061,1.101186,-0.321635,-0.144476
186,1.0102844999999998,0.6727000000000001,-0.1055099999999999,0.8611625,0.47208,-0.119832,0.7319424999999999,0.68466,-0.209898,1.1420825,0.46776,-0.143369,1.2479725,0.68089,-0.253415,0.7014925000000001,0.8858600000000001,-0.273875,1.3015125,0.92092,-0.336795,0.9220015,0.0018199999999999,0.004905,1.0779985,-0.0018199999999999,-0.004905,0.8364325,-0.0480399999999999,-0.292505,1.1248325,-0.0555999999999999,-0.311045,0.9001055,-0.3444599999999999,-0.132946,1.1018225,-0.35056,-0.144525
187,1.0100339999999999,0.677605,-0.104518,0.860746,0.475295,-0.120119,0.731706,0.688125,-0.209452,1.1414360000000001,0.468985,-0.143365,1.247286,0.682665,-0.25299,0.701836,0.889915,-0.27104,1.301086,0.921825,-0.33555,0.922039,0.001915,0.0049099999999999,1.077961,-0.001915,-0.0049099999999999,0.837566,-0.067805,-0.2918699999999999,1.124006,-0.075075,-0.30981,0.900258,-0.369615,-0.133718,1.101916,-0.376095,-0.144538
188,1.0097364999999998,0.679585,-0.102769,0.8599665,0.479905,-0.119887,0.7313565,0.690905,-0.208243,1.1406365,0.4707249999999999,-0.142693,1.2468065,0.684095,-0.251975,0.7021865,0.894555,-0.268155,1.3005465,0.922615,-0.333455,0.9221665,0.002095,0.0047149999999999,1.0778335,-0.002095,-0.0047149999999999,0.8388964999999999,-0.089195,-0.289405,1.1229565,-0.096245,-0.306895,0.8998185,-0.3972449999999999,-0.135041,1.1020964999999998,-0.4037349999999999,-0.143936
189,1.0092074999999998,0.68538,-0.100218,0.8590855,0.48214,-0.118729,0.7307355,0.69408,-0.206108,1.1401955,0.47182,-0.141208,1.2468755,0.68607,-0.24996,0.7023755,0.8947,-0.26433,1.3002255,0.92552,-0.3293,0.9220205,0.0025999999999999,0.00464,1.0779795,-0.0025999999999999,-0.00464,0.8400255,-0.1055099999999999,-0.28537,1.1220055,-0.1123799999999999,-0.30296,0.8988975,-0.42101,-0.135582,1.1020254999999999,-0.42694,-0.143089
190,1.008778,0.689155,-0.095941,0.85841,0.485095,-0.116015,0.73027,0.6966749999999999,-0.202418,1.14001,0.475295,-0.13828,1.24637,0.686845,-0.245355,0.70262,0.8935150000000001,-0.259435,1.29962,0.926395,-0.323585,0.921984,0.002195,0.0050749999999999,1.078016,-0.002195,-0.0050749999999999,0.84179,-0.1225149999999999,-0.278255,1.12099,-0.1290549999999999,-0.296085,0.89805,-0.4458649999999999,-0.134461,1.10219,-0.4509649999999999,-0.141432
191,1.0084985,0.6936,-0.0914369999999999,0.8577035,0.49107,-0.1129039999999999,0.7302635,0.6999599999999999,-0.199106,1.1397935,0.4764199999999999,-0.13523,1.2458334999999998,0.68823,-0.24031,0.7027535,0.89436,-0.25414,1.2992735,0.92789,-0.31732,0.9219725,0.0025499999999999,0.00539,1.0780275,-0.0025499999999999,-0.0053899999999999,0.8437335000000001,-0.13809,-0.27029,1.1201335000000001,-0.1439,-0.28883,0.8970135,-0.46844,-0.13326,1.1024235,-0.47305,-0.1394409999999999
192,1.0075625,0.697385,-0.086787,0.8564725000000001,0.492895,-0.109696,0.7299325000000001,0.700835,-0.195494,1.1389425,0.480575,-0.131819,1.2447025,0.692455,-0.235305,0.7024725,0.897195,-0.248855,1.2984425,0.928775,-0.310655,0.9225175,0.0020249999999999,0.005735,1.0774825,-0.0020249999999999,-0.0057349999999999,0.8448925,-0.152825,-0.261955,1.1185825,-0.1575249999999999,-0.280895,0.8949025,-0.4900449999999999,-0.132116,1.1021325,-0.493475,-0.137936
193,1.006963,0.702,-0.0820465,0.855536,0.4967499999999999,-0.1060775,0.729876,0.70313,-0.1915915,1.138806,0.48312,-0.1280355,1.244016,0.69548,-0.2299875,0.702546,0.90009,-0.2444775,1.297856,0.9326,-0.3034775,0.922903,0.0019299999999999,0.0056624999999999,1.077097,-0.00193,-0.0056625,0.846526,-0.16663,-0.2528675,1.117576,-0.17038,-0.2721775,0.893226,-0.51009,-0.1303285,1.102606,-0.51278,-0.1366785
194,1.0061775,0.70536,-0.0772185,0.8543425,0.50004,-0.1023495,0.7297724999999999,0.7044,-0.1877085,1.1385625,0.48751,-0.1241955,1.2430525000000001,0.69957,-0.2245075,0.7023524999999999,0.90221,-0.2400175,1.2970725,0.93695,-0.2966375,0.9233505,0.0014399999999999,0.0056125,1.0766495,-0.0014399999999999,-0.0056124999999999,0.8480025,-0.18019,-0.2432575,1.1162925,-0.18343,-0.2629475,0.8908425000000001,-0.5294599999999999,-0.1284805,1.1031324999999998,-0.53145,-0.1345495
195,1.0052145,0.7105,-0.072745,0.8529185,0.50363,-0.099343,0.7294085,0.70696,-0.184047,1.1380785,0.49039,-0.120633,1.2420885,0.70313,-0.219828,0.7020985,0.90482,-0.235868,1.2960885,0.94066,-0.290168,0.9239535000000001,0.0013299999999999,0.0054319999999999,1.0760465,-0.0013299999999999,-0.005432,0.8493685,-0.19216,-0.233478,1.1146785,-0.1945199999999999,-0.253638,0.8882285,-0.54626,-0.126439,1.1033985,-0.54724,-0.131819
196,1.0043374999999999,0.713915,-0.0684955,0.8518785,0.507745,-0.0963905,0.7290885,0.708905,-0.1804744999999999,1.1376585,0.494325,-0.1171405,1.2408885,0.706495,-0.2150215,0.7020185,0.910725,-0.2320215,1.2948985,0.944175,-0.2840515,0.9244855,0.001085,0.0052885,1.0755145,-0.0010849999999999,-0.0052885,0.8510584999999999,-0.203835,-0.2230815,1.1128784999999999,-0.205845,-0.2434515,0.8858385,-0.561945,-0.1240435,1.1036184999999998,-0.561765,-0.1283815
197,1.0034425,0.7186645,-0.0647075,0.8507315,0.5097445,-0.0940085,0.7285915000000001,0.7104444999999999,-0.1774994999999999,1.1372115,0.4982245,-0.1141764999999999,1.2405415,0.7082145,-0.2107204999999999,0.7017415,0.9118145,-0.2286305,1.2944215,0.9452545,-0.2785705,0.9250575,0.0011115,0.0049985,1.0749425,-0.0011115,-0.0049984999999999,0.8528915,-0.2139055,-0.2126405,1.1109415,-0.2164855,-0.2327405,0.8841615,-0.5754655,-0.1208934999999999,1.1035815,-0.5755655,-0.1253544999999999
198,1.002165,0.7212935,-0.0610765,0.849224,0.5124135,-0.0919514999999999,0.728074,0.7116235,-0.1743945,1.136554,0.5034535,-0.1114165,1.239254,0.7123035,-0.2068145,0.701214,0.9130035,-0.2254045,1.292654,0.9456135,-0.2741745,0.925644,0.0008635,0.0046665,1.074356,-0.0008634999999999,-0.0046665,0.8546740000000002,-0.2243364999999999,-0.2017545,1.108444,-0.2272165,-0.2206845,0.882104,-0.5886265,-0.1179095,1.103044,-0.5891065,-0.1224845
199,1.0012075,0.72611,-0.0581955,0.8478545,0.51458,-0.0905685,0.7276345,0.71373,-0.1723685,1.1359044999999999,0.50627,-0.1093365,1.2384745,0.7172,-0.2045845,0.7010345,0.9168,-0.2228245,1.2911445,0.94696,-0.2701345,0.9258575,0.0009829999999999,0.0043585,1.0741425,-0.0009829999999999,-0.0043585,0.8565445,-0.23611,-0.1921945,1.1061745,-0.24034,-0.2097145,0.8810344999999999,-0.60106,-0.1156585,1.1022745,-0.6028,-0.1201165
200,1.0004719999999998,0.730027,-0.055742,0.8468200000000001,0.515757,-0.08951,0.7279,0.7158969999999999,-0.170616,1.13551,0.511647,-0.107699,1.23779,0.7237669999999999,-0.202737,0.7011700000000001,0.919427,-0.220877,1.2898100000000001,0.947597,-0.266497,0.926067,0.000792,0.0043289999999999,1.073933,-0.000792,-0.0043289999999999,0.8589,-0.248423,-0.182137,1.10398,-0.253763,-0.198307,0.88032,-0.6139330000000001,-0.112842,1.10162,-0.6165630000000001,-0.117939
201,1.000306,0.7337425000000001,-0.0504685,0.846372,0.5174725,-0.0853105,0.727762,0.7175225000000001,-0.1658645,1.135602,0.5138425,-0.1030465,1.238132,0.7250925,-0.1981605,0.701992,0.9196725,-0.2159105,1.289482,0.9526625,-0.2589205,0.9259580000000001,0.0009965,0.0041515,1.074042,-0.0009965,-0.0041515,0.861822,-0.2606275,-0.1683974999999999,1.102322,-0.2668675,-0.1836205,0.880382,-0.6267475,-0.1055504999999999,1.1015220000000001,-0.6298674999999999,-0.1106035
202,1.0006625,0.7304714999999999,-0.03964,0.8461905000000001,0.5156915,-0.075617,0.7290805,0.7146414999999999,-0.155391,1.1368105,0.5165315,-0.09289,1.2391105,0.7266414999999999,-0.188114,0.7042505,0.9161015,-0.204674,1.2892405,0.9506415,-0.245874,0.9259385,0.0009005,0.0037769999999999,1.0740615,-0.0009005,-0.003777,0.8671605,-0.2790885,-0.146067,1.1005705,-0.2860685,-0.161572,0.8810305,-0.6458385,-0.09083,1.1020905,-0.6493485,-0.096885
203,1.001007,0.7281749999999999,-0.0291535,0.846145,0.513655,-0.0661375,0.7301850000000001,0.712035,-0.1453365,1.1381649999999999,0.519195,-0.0828605,1.240435,0.728055,-0.1789045,0.706575,0.913385,-0.1933145,1.2892649999999999,0.948635,-0.2329345,0.9259360000000001,0.000826,0.0032965,1.074064,-0.0008259999999999,-0.0032965,0.872445,-0.296205,-0.1244725,1.0988149999999999,-0.303315,-0.1401005,0.881705,-0.663115,-0.0759925,1.102475,-0.667065,-0.0825705
204,1.0014995,0.7242805,-0.018882,0.8463845,0.5114205,-0.056484,0.7313545,0.7087905,-0.135465,1.1395945,0.5209505,-0.072978,1.2415545,0.7287305,-0.168809,0.7090445000000001,0.9114305,-0.182829,1.2893245,0.9459905,-0.220209,0.9261255,0.0008624999999999,0.002817,1.0738745,-0.0008625,-0.002817,0.8778845,-0.3118395,-0.103368,1.0973644999999999,-0.3187995,-0.118988,0.8829945,-0.6788995,-0.060518,1.1029745,-0.6830495,-0.068058
205,1.001987,0.7212704999999999,-0.008587,0.8467490000000001,0.5083504999999999,-0.046677,0.732599,0.7056604999999999,-0.125365,1.141019,0.5214705,-0.0629,1.242819,0.7292905,-0.158671,0.711229,0.9050405,-0.1718009999999999,1.289449,0.9443705,-0.207281,0.926191,0.0008654999999999,0.0024069999999999,1.073809,-0.0008654999999999,-0.0024069999999999,0.882969,-0.3246394999999999,-0.082852,1.095959,-0.3322795,-0.098045,0.884399,-0.6928295000000001,-0.044798,1.103189,-0.6971695,-0.052594
206,1.0026855,0.7172825,0.001865,0.8472365,0.5063125,-0.036694,0.7338965,0.7034125,-0.115078,1.1423865,0.5215525000000001,-0.052514,1.2442165,0.7313025000000001,-0.148476,0.7134665,0.9025625,-0.160246,1.2897865,0.9448525,-0.193946,0.9262945,0.0006024999999999,0.002007,1.0737055,-0.0006024999999999,-0.0020069999999999,0.8878064999999999,-0.3346775,-0.062722,1.0946475,-0.3441675,-0.077738,0.8864965,-0.7041075,-0.028734,1.1032065,-0.7092075,-0.037663
207,1.0035375,0.7131105,0.0124335,0.8477545,0.5042905,-0.0265595,0.7352845,0.7005505,-0.1046225,1.1437945,0.5218205,-0.0420365,1.2455745,0.7317305000000001,-0.1381455,0.7158145,0.9006005,-0.1485855,1.2903645,0.9461005,-0.1805655,0.9262585,0.0004205,0.0015944999999999,1.0737415,-0.0004204999999999,-0.0015945,0.8922745,-0.3442695,-0.0425315,1.0934305,-0.3558794999999999,-0.0580805,0.8887145,-0.7147695,-0.0124745,1.1033045,-0.7210495,-0.0233495
208,1.004425,0.7087755,0.0230195,0.8482690000000002,0.5023455,-0.0163555,0.7365889999999999,0.6974755,-0.0940825,1.145199,0.5220155000000001,-0.0313695,1.247009,0.7323455,-0.1278555,0.718479,0.8988855,-0.1368955,1.290949,0.9474355,-0.1673454999999999,0.9260740000000001,0.0003335,0.0011625,1.073926,-0.0003335,-0.0011625,0.896319,-0.3538645,-0.0220695,1.092274,-0.3678245,-0.0387125,0.890929,-0.7253045,0.0037725,1.103459,-0.7330544999999999,-0.0089015
209,1.0054785,0.7045125,0.0336739999999999,0.8490745,0.4994825,-0.005869,0.7379445,0.6941225,-0.083436,1.1466945,0.5206325,-0.02081,1.2487945,0.7315025,-0.117851,0.7213045,0.8977425,-0.125401,1.2918145,0.9494825,-0.154471,0.9259265,0.0001945,0.0006089999999999,1.0740735,-0.0001945,-0.000609,0.8998515000000001,-0.3641275,-0.002576,1.0912745,-0.3789375,-0.019746,0.8932445000000001,-0.7362175,0.01945,1.1039345,-0.7447775,0.0054069999999999
210,1.0061325,0.7000245,0.0413325,0.8496575,0.4975445,0.0012584999999999,0.7387975,0.6910045,-0.0758635,1.1477475,0.5201945,-0.0133794999999999,1.2501175,0.7311145,-0.1111025,0.7235875,0.8968245,-0.1170625,1.2922075,0.9458245,-0.1458424999999999,0.9260555,0.0001495,0.0002944999999999,1.0739445,-0.0001494999999999,-0.0002944999999999,0.9028945000000002,-0.3738754999999999,0.0128475,1.0900765,-0.3897155,-0.0049095,0.8950575000000001,-0.7463855,0.0315205,1.1040675,-0.7559955,0.0158965
211,1.006353,0.701817,0.042971,0.849871,0.498757,0.002478,0.7392810000000001,0.6920769999999999,-0.074268,1.147691,0.520427,-0.011813,1.250131,0.731487,-0.109379,0.724491,0.897737,-0.115059,1.292401,0.946477,-0.143319,0.926191,0.0001619999999999,0.000257,1.073809,-0.0001619999999999,-0.000257,0.903521,-0.3744229999999999,0.018726,1.089048,-0.390293,0.00193,0.895761,-0.7470530000000001,0.0351729999999999,1.104081,-0.757163,0.018986
212,1.006578,0.7027154999999999,0.0446209999999999,0.8500989999999999,0.5000355,0.0037039999999999,0.739759,0.6928555,-0.072573,1.147719,0.5206354999999999,-0.010116,1.250199,0.7318555,-0.107612,0.7254690000000001,0.8988054999999999,-0.1132919999999999,1.2926389999999999,0.9482955,-0.140772,0.92631,0.0002074999999999,0.0002409999999999,1.07369,-0.0002074999999999,-0.000241,0.9040930000000001,-0.3750644999999999,0.024606,1.087966,-0.3908745,0.0083619999999999,0.8965190000000001,-0.7477645,0.0386009999999999,1.104139,-0.7577445,0.022036
213,1.0069649999999999,0.70377,0.04621,0.8504560000000001,0.50141,0.004924,0.740326,0.6934,-0.071098,1.147866,0.52085,-0.0085169999999999,1.250406,0.7321799999999999,-0.105874,0.726546,0.89942,-0.1115239999999999,1.293046,0.95015,-0.1381939999999999,0.926279,0.000239,0.000226,1.073721,-0.0002389999999999,-0.0002259999999999,0.904557,-0.37561,0.029894,1.08716,-0.39142,0.014001,0.897366,-0.74831,0.041735,1.104336,-0.75829,0.024964
214,1.007241,0.704812,0.0476075,0.850692,0.502032,0.0059985,0.740722,0.6937420000000001,-0.0698325,1.147832,0.5211220000000001,-0.0074464999999999,1.250472,0.7324219999999999,-0.1042065,0.727422,0.899392,-0.1102964999999999,1.293172,0.951712,-0.1360865,0.926334,0.0003269999999999,0.0001834999999999,1.073666,-0.000327,-0.0001834999999999,0.904845,-0.374698,0.0345365,1.086363,-0.390588,0.0185695,0.898052,-0.749158,0.0447095,1.104432,-0.7587280000000001,0.0276195
215,1.0075329999999998,0.7058305,0.048941,0.85089,0.5036805,0.0070469999999999,0.74106,0.6937705,-0.0686399999999999,1.14783,0.5213605,-0.006507,1.2505899999999999,0.7324705,-0.1026289999999999,0.72827,0.8990105,-0.1092089999999999,1.29322,0.9522305,-0.134329,0.9264070000000001,0.0004595,0.000188,1.0735929999999998,-0.0004594999999999,-0.000188,0.905133,-0.3736695,0.038554,1.085654,-0.3893995,0.022237,0.898726,-0.7497495,0.047362,1.10457,-0.7589295,0.030372
