sb224sc-HT22-VT27/4dt907/src/ml-research/a12/datafiles/kinect_good_preprocessed_not_cut_A11_mediapipe/B2_kinect_mirrored.csv
FrameNo,nose_3d_x,nose_3d_y,nose_3d_z,left_shoulder_3d_x,left_shoulder_3d_y,left_shoulder_3d_z,left_elbow_3d_x,left_elbow_3d_y,left_elbow_3d_z,right_shoulder_3d_x,right_shoulder_3d_y,right_shoulder_3d_z,right_elbow_3d_x,right_elbow_3d_y,right_elbow_3d_z,left_wrist_3d_x,left_wrist_3d_y,left_wrist_3d_z,right_wrist_3d_x,right_wrist_3d_y,right_wrist_3d_z,left_hip_3d_x,left_hip_3d_y,left_hip_3d_z,right_hip_3d_x,right_hip_3d_y,right_hip_3d_z,left_knee_3d_x,left_knee_3d_y,left_knee_3d_z,right_knee_3d_x,right_knee_3d_y,right_knee_3d_z,left_ankle_3d_x,left_ankle_3d_y,left_ankle_3d_z,right_ankle_3d_x,right_ankle_3d_y,right_ankle_3d_z
0,1.014504,0.7676445000000001,0.0287959999999999,0.8627530000000001,0.4640645,-0.01036,0.768883,0.2846545,-0.049381,1.177163,0.4892245,0.0046339999999999,1.243333,0.2790345,0.0094759999999999,0.822663,0.4120545,-0.211205,1.237103,0.1275744999999999,-0.121395,0.92598,0.0010674999999999,0.0004129999999999,1.07402,-0.0010674999999999,-0.000413,0.903666,-0.3303855,0.0456219999999999,1.108633,-0.3376455,0.0300919999999999,0.907687,-0.6569455,0.06505,1.120213,-0.6692555,0.0558849999999999
1,1.0138155,0.7669745,0.0292825,0.8580544999999999,0.4658945,-0.0062554999999999,0.7619445,0.2959445,-0.0627575,1.1760645,0.4891645,0.0052984999999999,1.2521645,0.2932945,0.0161245,0.8130845000000001,0.4238545,-0.2109615,1.2507845,0.1749245,-0.1445815,0.9259485000000001,0.0010045,0.0004014999999999,1.0740515,-0.0010045,-0.0004014999999999,0.9031695,-0.3307055,0.0456375,1.1080245,-0.3374855,0.0301445,0.9072595,-0.6579355,0.0652995,1.1196845,-0.6697855,0.0561005
2,1.013305,0.765799,0.0294734999999999,0.852877,0.467349,-0.0027585,0.753637,0.310519,-0.0744925,1.175177,0.490049,0.0073434999999999,1.268667,0.326289,0.0181564999999999,0.7983169999999999,0.436919,-0.2002525,1.2618070000000001,0.235519,-0.2070525,0.925953,0.00072,0.0004084999999999,1.074047,-0.0007199999999999,-0.0004085,0.903193,-0.329991,0.0457495,1.107507,-0.338261,0.0300054999999999,0.9066609999999999,-0.658561,0.0652745,1.119267,-0.670871,0.0562155
3,1.012967,0.7647825,0.029848,0.849581,0.4681125,-0.0005989999999999,0.7413010000000001,0.3213225,-0.083572,1.173181,0.4912225,0.009461,1.275661,0.3426925,-0.0020549999999999,0.789731,0.4789225,-0.2123519999999999,1.267741,0.2938024999999999,-0.246222,0.925905,0.0003554999999999,0.000784,1.074095,-0.0003554999999999,-0.000784,0.9032290000000001,-0.3308275,0.045792,1.107341,-0.3391375,0.030076,0.906498,-0.6598675,0.065259,1.119011,-0.6713775,0.056084
4,1.0127519999999999,0.764104,0.029897,0.846032,0.472534,0.004359,0.727332,0.333474,-0.0898199999999999,1.172752,0.491564,0.010979,1.322692,0.331874,-0.061872,0.770622,0.506024,-0.19421,1.291132,0.406114,-0.22953,0.925929,0.0001789999999999,0.000744,1.074071,-0.000179,-0.000744,0.903134,-0.331946,0.045824,1.1073119999999999,-0.339826,0.03005,0.906,-0.6623560000000001,0.064556,1.1187619999999998,-0.6715760000000001,0.056148
5,1.012303,0.7635075,0.0300905,0.841574,0.4712874999999999,0.0090675,0.711104,0.3439574999999999,-0.0899835,1.173704,0.4912975,0.0121395,1.349354,0.3501074999999999,-0.0479434999999999,0.7593740000000001,0.5230675,-0.1748335,1.302734,0.4883975,-0.1923135,0.926001,0.0001024999999999,0.0009354999999999,1.073999,-0.0001025,-0.0009354999999999,0.902998,-0.3327325,0.0457515,1.107694,-0.3409225,0.0303205,0.90566,-0.6646525,0.0640155,1.118874,-0.6708725,0.0559865
6,1.011538,0.7633424999999999,0.0299709999999999,0.837711,0.4697525,0.0111239999999999,0.689331,0.3570225,-0.087113,1.176591,0.4894025,0.0126879999999999,1.371881,0.3909325,-0.061195,0.748121,0.5417424999999999,-0.156993,1.304251,0.5635224999999999,-0.166923,0.926044,3.500000000000031e-06,0.001021,1.073956,-3.500000000000031e-06,-0.001021,0.9030320000000001,-0.3330774999999999,0.0458709999999999,1.107991,-0.3418175,0.0307409999999999,0.905543,-0.6647075,0.0638229999999999,1.118811,-0.6701675,0.055885
7,1.008881,0.761166,0.029928,0.837032,0.469446,0.008091,0.682682,0.401306,-0.078553,1.176462,0.492276,0.007765,1.342832,0.449146,-0.0405539999999999,0.7655020000000001,0.576206,-0.142403,1.258202,0.579966,-0.1107329999999999,0.926032,-0.0003319999999999,0.001786,1.073968,0.0003319999999999,-0.0017859999999999,0.903062,-0.331994,0.045452,1.107572,-0.341854,0.029922,0.9050120000000001,-0.666014,0.063811,1.118352,-0.675504,0.055749
8,1.007435,0.759762,0.0298825,0.834334,0.469292,0.0092774999999999,0.671914,0.418962,-0.0790145,1.1762839999999999,0.493172,0.0076344999999999,1.351164,0.478002,-0.0421725,0.7629440000000001,0.598942,-0.1289845,1.254844,0.629542,-0.0968245,0.9260220000000001,-0.000601,0.0021585,1.0739779999999999,0.0006009999999999,-0.0021585,0.90292,-0.331908,0.0452464999999999,1.107394,-0.342318,0.0296475,0.904479,-0.667728,0.0634575,1.117974,-0.676938,0.0555545
9,1.005808,0.758109,0.029824,0.831818,0.468769,0.009848,0.662318,0.435249,-0.076501,1.175978,0.4943189999999999,0.007346,1.354158,0.506649,-0.042405,0.7609580000000001,0.618499,-0.115491,1.249698,0.666509,-0.080121,0.926016,-0.000897,0.002563,1.073984,0.000897,-0.0025629999999999,0.9026330000000001,-0.331891,0.044959,1.107118,-0.342951,0.029246,0.9038270000000002,-0.669511,0.063055,1.117428,-0.678611,0.055247
10,1.0040755,0.75584,0.0298534999999999,0.8290155,0.46892,0.0101304999999999,0.6541855000000001,0.45018,-0.0719985,1.1753954999999998,0.4954499999999999,0.0069954999999999,1.3540855,0.53514,-0.0428305,0.7596255000000001,0.63588,-0.1036385,1.2432455,0.6939,-0.0577035,0.9260825,-0.0011649999999999,0.0030564999999999,1.0739175,0.001165,-0.0030565,0.9022985,-0.33247,0.0445484999999999,1.1068055,-0.34414,0.0287414999999999,0.9031905000000001,-0.67181,0.0625905,1.1168655,-0.68092,0.0548134999999999
11,1.0023325,0.7532169999999999,0.0300329999999999,0.8261054999999999,0.469737,0.0109139999999999,0.6484354999999999,0.463497,-0.065799,1.1749254999999998,0.496267,0.0064239999999999,1.3538455,0.5592769999999999,-0.043366,0.7584755,0.650787,-0.092509,1.2361255,0.712657,-0.037779,0.9261355,-0.001422,0.0035849999999999,1.0738645,0.0014219999999999,-0.003585,0.9020355,-0.333593,0.0440459999999999,1.1065655,-0.345883,0.0281119999999999,0.9026565,-0.674663,0.0620329999999999,1.1163855,-0.683793,0.0542919999999999
12,1.00046,0.7505029999999999,0.0304644999999999,0.82304,0.470783,0.0121264999999999,0.64402,0.470793,-0.0576455,1.17453,0.497063,0.0056594999999999,1.35331,0.577733,-0.0381655,0.75801,0.6587130000000001,-0.0845815,1.22647,0.722113,-0.0212285,0.926192,-0.0016849999999999,0.0041594999999999,1.073808,0.0016849999999999,-0.0041595,0.901795,-0.334877,0.0434875,1.10638,-0.347537,0.0274314999999999,0.9022050000000001,-0.6777869999999999,0.0614494999999999,1.11599,-0.6869670000000001,0.0537324999999999
13,0.9985445,0.7481175,0.031225,0.8201215,0.4722174999999999,0.01353,0.6406015,0.4755474999999999,-0.0488739999999999,1.1742614999999998,0.4978074999999999,0.0050079999999999,1.3529315,0.5885874999999999,-0.033793,0.7588015,0.6669875,-0.0750369999999999,1.2183815,0.7271775,-0.008723,0.9262475,-0.0019374999999999,0.00474,1.0737524999999999,0.0019375,-0.00474,0.9016275,-0.3361925,0.042901,1.1063015,-0.3488925,0.02666,0.9018905,-0.6808225,0.060863,1.1157214999999998,-0.6900525000000001,0.053187
14,0.9969025,0.7461234999999999,0.0322039999999999,0.8173684999999999,0.4740735,0.0150419999999999,0.6380385,0.4789535,-0.038946,1.1740285,0.4982635,0.0044529999999999,1.3512685,0.5968034999999999,-0.027,0.7609885000000001,0.6728835,-0.064045,1.2116685,0.7299435,9.399999999999686e-05,0.9262635,-0.0021485,0.0052899999999999,1.0737365,0.0021484999999999,-0.00529,0.9016055000000001,-0.3376165,0.042314,1.1063985,-0.3500864999999999,0.025854,0.9018195,-0.6836665000000001,0.060312,1.1156885,-0.6929565000000001,0.0526969999999999
15,0.9953400000000001,0.74458,0.0333954999999999,0.814942,0.4757599999999999,0.0169084999999999,0.635212,0.48205,-0.0284505,1.173442,0.4987899999999999,0.0038624999999999,1.349582,0.60231,-0.0198385,0.763012,0.6773399999999999,-0.0527095,1.203412,0.73268,0.0073384999999999,0.926253,-0.0022919999999999,0.0057194999999999,1.073747,0.002292,-0.0057195,0.90162,-0.33898,0.0417014999999999,1.106502,-0.35129,0.0250694999999999,0.9017940000000001,-0.6862900000000001,0.0597385,1.115682,-0.69548,0.0522005
16,0.9938760000000001,0.743583,0.0347775,0.812757,0.477813,0.0188695,0.632207,0.483683,-0.0177664999999999,1.172877,0.498743,0.0032275,1.348637,0.605583,-0.0133485,0.764297,0.680823,-0.0414695,1.196807,0.734963,0.0130125,0.926246,-0.002389,0.0060205,1.073754,0.002389,-0.0060204999999999,0.901636,-0.340457,0.0410445,1.106517,-0.3524069999999999,0.0242705,0.901791,-0.688647,0.0591395,1.115677,-0.6977369999999999,0.0516615
17,0.992429,0.7428549999999999,0.0362265,0.810563,0.480055,0.0207634999999999,0.629013,0.485645,-0.0068044999999999,1.172353,0.498865,0.0028564999999999,1.348013,0.6070949999999999,-0.0079585,0.7640629999999999,0.680975,-0.0315154999999999,1.193303,0.734425,0.0148935,0.9262400000000001,-0.002408,0.0062674999999999,1.0737599999999998,0.002408,-0.0062675,0.901616,-0.342055,0.0403235,1.106543,-0.353575,0.0234395,0.901802,-0.6909150000000001,0.0584625,1.115683,-0.699855,0.0510625
18,0.991108,0.742412,0.037725,0.80854,0.482562,0.022783,0.6293500000000001,0.487832,0.002221,1.1719899999999999,0.498672,0.002375,1.34756,0.607622,-0.0032079999999999,0.76437,0.681472,-0.021516,1.19115,0.733412,0.016055,0.926271,-0.002373,0.006396,1.073729,0.002373,-0.0063959999999999,0.901586,-0.343588,0.039537,1.10669,-0.354718,0.022635,0.901941,-0.693008,0.057758,1.11579,-0.701658,0.05049
19,0.9900395000000001,0.742513,0.039175,0.8074275000000001,0.484373,0.0246349999999999,0.6296174999999999,0.490323,0.0110479999999999,1.1718075,0.498423,0.002057,1.3473175,0.607293,0.0012299999999999,0.7644675000000001,0.682383,-0.0115199999999999,1.1877375,0.733613,0.016949,0.9262825000000001,-0.00235,0.006338,1.0737174999999999,0.0023499999999999,-0.006338,0.9016385000000001,-0.344497,0.038765,1.1070075,-0.355367,0.021911,0.9022515000000001,-0.694507,0.057134,1.1160775,-0.702877,0.049968
20,0.9892375000000001,0.743097,0.040724,0.8071255000000002,0.485477,0.02604,0.6268055,0.4930469999999999,0.019752,1.1718155000000001,0.498467,0.001583,1.3475555,0.606637,0.004964,0.7644255,0.683757,-0.0020489999999999,1.1853155,0.733787,0.0172,0.9263224999999999,-0.0023089999999999,0.00623,1.0736775,0.0023089999999999,-0.0062299999999999,0.9018295000000001,-0.344873,0.038034,1.1074855,-0.355563,0.021309,0.9027745000000001,-0.695543,0.056638,1.1165655,-0.7036330000000001,0.049589
21,0.988955,0.7437985,0.0421135,0.807437,0.4861085,0.0270005,0.6254770000000001,0.4967685,0.0277205,1.172007,0.4985885,0.0011534999999999,1.348157,0.6058285000000001,0.0079394999999999,0.764647,0.6850385000000001,0.0067254999999999,1.183497,0.7339884999999999,0.0171805,0.926354,-0.0022575,0.0061004999999999,1.073646,0.0022574999999999,-0.0061004999999999,0.902196,-0.3450515,0.0373285,1.108127,-0.3558715,0.0207805,0.903519,-0.6964115,0.0562215,1.117287,-0.7041215000000001,0.0492745
22,0.989072,0.7443325000000001,0.043361,0.8080970000000001,0.4865225,0.027821,0.624467,0.5015225,0.034941,1.172497,0.4988025,0.000797,1.348487,0.6050325000000001,0.009997,0.765097,0.6855825,0.014118,1.182087,0.7340425,0.016778,0.926312,-0.0021995,0.005932,1.073688,0.0021995,-0.005932,0.902687,-0.3452575,0.036663,1.108817,-0.3563275,0.020353,0.90439,-0.6972475,0.055873,1.118127,-0.7045675,0.049014
23,0.9893600000000001,0.7447944999999999,0.044607,0.808823,0.4867745,0.028585,0.6237330000000001,0.5051844999999999,0.041863,1.172433,0.4989645,0.000523,1.3488229999999999,0.6041845,0.01106,0.765593,0.6854644999999999,0.020306,1.181193,0.7337644999999999,0.016484,0.926293,-0.0021464999999999,0.005756,1.073707,0.0021465,-0.0057559999999999,0.903203,-0.3455755,0.036064,1.109493,-0.3568555,0.020024,0.905278,-0.6981455000000001,0.0556,1.118993,-0.7050755000000001,0.048835
24,0.9899155,0.7452085,0.0459114999999999,0.8096185,0.4868284999999999,0.0291734999999999,0.6234585,0.5083285000000001,0.0474645,1.1725485,0.4989784999999999,0.0003394999999999,1.3491885,0.6032285000000001,0.0114034999999999,0.7656585,0.6855785000000001,0.0256115,1.1815385,0.7332685,0.0163265,0.9262805000000001,-0.0020725,0.0056364999999999,1.0737195,0.0020724999999999,-0.0056365,0.9038385,-0.3459315,0.0355375,1.1102485,-0.3574115,0.0198034999999999,0.9062895,-0.6989814999999999,0.0554425,1.1199785,-0.7055815,0.0487665
25,0.9904955,0.7455485000000001,0.0471795,0.8104085,0.4866985,0.0295915,0.6231085000000001,0.5100785,0.0521595,1.1724585,0.4990285,-0.0001304999999999,1.3494485,0.6023385,0.0113735,0.7657085000000001,0.6854385000000001,0.0299015,1.1820685,0.7327185,0.0162555,0.9262845,-0.0020164999999999,0.0055995,1.0737155,0.0020164999999999,-0.0055995,0.9044735,-0.3461714999999999,0.0350995,1.1109585,-0.3579115,0.0196645,0.9073195000000001,-0.6997315,0.0553705,1.1209985,-0.7058614999999999,0.0488305
26,0.9909715,0.7459629999999999,0.0484715,0.8109805,0.4864729999999999,0.0298724999999999,0.6228905,0.5115029999999999,0.0559085,1.1717705,0.499143,-0.0008925,1.3496105,0.601563,0.0113774999999999,0.7653605,0.685093,0.0336285,1.1830805,0.732043,0.0159484999999999,0.9263345000000001,-0.0020359999999999,0.0056004999999999,1.0736655,0.002036,-0.0056005,0.9050425,-0.346407,0.0346844999999999,1.1116005,-0.358417,0.0195774999999999,0.9083085,-0.7004170000000001,0.0553305,1.1219705,-0.705947,0.0488964999999999
27,0.9913385,0.7464725,0.049735,0.8114195000000001,0.4861725,0.029917,0.6230195000000001,0.5128325,0.058683,1.1707295,0.4992925,-0.001857,1.3496495,0.6009424999999999,0.011378,0.7649795,0.6846025,0.0367959999999999,1.1851095,0.7308725,0.0145009999999999,0.9263865,-0.0020664999999999,0.0056019999999999,1.0736135,0.0020664999999999,-0.005602,0.9056015,-0.3464775,0.034288,1.1122295,-0.3587975,0.019465,0.9092815,-0.7009475000000001,0.055249,1.1229494999999998,-0.7059975000000001,0.048975
28,0.991696,0.747096,0.0510905,0.8117719999999999,0.485846,0.0300125,0.623282,0.5139659999999999,0.0610405,1.169552,0.4994759999999999,-0.0029414999999999,1.349602,0.600266,0.0111365,0.764602,0.684206,0.0394775,1.187042,0.729866,0.0129925,0.926418,-0.0020939999999999,0.0055155,1.073582,0.0020939999999999,-0.0055155,0.906269,-0.3465439999999999,0.0339835,1.112912,-0.359094,0.0194195,0.91033,-0.701404,0.0551964999999999,1.124032,-0.705914,0.0491075
29,0.9921345,0.747678,0.0523175,0.8120095,0.485548,0.0301825,0.6237094999999999,0.515158,0.0628855,1.1681795,0.499588,-0.0041784999999999,1.3494395,0.599638,0.0104725,0.7641195000000001,0.683858,0.0414355,1.1887495,0.729038,0.0117185,0.9264605,-0.002131,0.0053605,1.0735395,0.002131,-0.0053605,0.9069635,-0.346592,0.0338185,1.1135694999999999,-0.359292,0.0194065,0.9113875,-0.7017720000000001,0.0552195,1.1251295,-0.7057420000000001,0.0492994999999999
30,0.9925255000000001,0.7482815,0.0535449999999999,0.8121715,0.4853315,0.0303869999999999,0.6242814999999999,0.5153915,0.0642549999999999,1.1667715,0.4996214999999999,-0.0053379999999999,1.3492515,0.5991015,0.0093899999999999,0.7637315,0.6835415,0.043218,1.1902314999999999,0.7283415,0.010497,0.9265205,-0.0021704999999999,0.005207,1.0734795,0.0021705,-0.005207,0.9076535,-0.3465885,0.0336469999999999,1.1141715,-0.3594285,0.0194299999999999,0.9124455,-0.7020885,0.055282,1.1262415,-0.7055085,0.049526
31,0.9930675,0.7488655,0.0547555,0.8123755,0.4851455,0.0305424999999999,0.6249155,0.5152654999999999,0.0655905,1.1654655,0.4996254999999999,-0.0063435,1.3490455,0.5986355,0.0079694999999999,0.7634255,0.6829855,0.0447824999999999,1.1909955,0.7281055,0.0094024999999999,0.9265895000000001,-0.0022104999999999,0.0051084999999999,1.0734104999999998,0.0022105,-0.0051085,0.9084274999999999,-0.3467044999999999,0.0335624999999999,1.1148455,-0.3595144999999999,0.0195525,0.9135815,-0.7023345,0.0554155,1.1274555,-0.7051745,0.0498895
32,0.9936235,0.7493474999999999,0.0559485,0.8126815000000001,0.4850075,0.0306645,0.6256714999999999,0.5151074999999999,0.0662895,1.1647715,0.4996175,-0.0069984999999999,1.3489915,0.5981575,0.0066424999999999,0.7629015,0.6822275,0.0461425,1.1923214999999998,0.7276174999999999,0.0084055,0.9266285,-0.0022495,0.0050145,1.0733715,0.0022495,-0.0050144999999999,0.9092435,-0.3468825,0.0335675,1.1155815,-0.3595724999999999,0.0197635,0.9147735,-0.7025125,0.0556045,1.1287415,-0.7047525,0.0503345
33,0.9940255000000001,0.7497295,0.0570395,0.8128315,0.4849894999999999,0.0308415,0.6253215000000001,0.5135995,0.0668815,1.1638715,0.4996494999999999,-0.0076205,1.3489115,0.5977395,0.0053785,0.7628015,0.6820095,0.0473055,1.1927815,0.7277095,0.0074585,0.9266595,-0.0022935,0.0049375,1.0733405,0.0022934999999999,-0.0049374999999999,0.9099425,-0.3470005,0.0335865,1.1161715,-0.3596505,0.0200214999999999,0.9158345,-0.7026705,0.0557915,1.1299215,-0.7042805,0.0508285
34,0.994195,0.750071,0.058046,0.812809,0.484911,0.030962,0.624849,0.512311,0.067466,1.163019,0.4997709999999999,-0.0080229999999999,1.348819,0.597351,0.004375,0.762459,0.681701,0.048417,1.193919,0.7275510000000001,0.006852,0.926681,-0.002336,0.004882,1.073319,0.0023359999999999,-0.004882,0.910505,-0.347099,0.033533,1.116659,-0.359749,0.020301,0.916797,-0.702819,0.055981,1.131009,-0.704349,0.051303
35,0.994329,0.750323,0.058838,0.812737,0.484963,0.031114,0.624787,0.512343,0.067973,1.162527,0.4997629999999999,-0.0082739999999999,1.348547,0.5970530000000001,0.003468,0.7624070000000001,0.681693,0.049358,1.194717,0.727393,0.006508,0.926713,-0.0023439999999999,0.004813,1.073287,0.002344,-0.0048129999999999,0.911017,-0.347237,0.033347,1.1171069999999999,-0.359757,0.02049,0.917801,-0.702877,0.056095,1.132187,-0.704357,0.051734
36,0.9946075000000001,0.7504935,0.0594494999999999,0.8127275,0.4849035,0.0312154999999999,0.6237775,0.5116535,0.0683894999999999,1.1624075,0.4997735,-0.0083925,1.3483575,0.5967435,0.0025814999999999,0.7627475000000001,0.6817035,0.0499744999999999,1.1938275,0.7271335,0.0062534999999999,0.9267625,-0.0023545,0.0046584999999999,1.0732375,0.0023545,-0.0046585,0.9117075,-0.3477765,0.0328974999999999,1.1178175,-0.3597464999999999,0.0205244999999999,0.9192385000000001,-0.7029164999999999,0.0560844999999999,1.1337975,-0.7043465,0.0520864999999999
37,0.9949000000000001,0.750516,0.0597605,0.812792,0.484926,0.0313635,0.6234920000000002,0.5116759999999999,0.0686845,1.162172,0.4997959999999999,-0.0083255,1.348052,0.5964459999999999,0.0016995,0.7632620000000001,0.681836,0.0505235,1.192732,0.726876,0.0059255,0.926795,-0.002377,0.0045125,1.073205,0.0023769999999999,-0.0045124999999999,0.912512,-0.349304,0.0322735,1.118722,-0.359904,0.0201935,0.921247,-0.703044,0.0559025,1.135952,-0.7043240000000001,0.0520915
38,0.9950660000000001,0.7505580000000001,0.0599775,0.812684,0.484968,0.0314075,0.623284,0.511718,0.0690045,1.161884,0.499778,-0.0082855,1.347924,0.596028,0.0011215,0.7646140000000001,0.6828380000000001,0.0510474999999999,1.191964,0.726678,0.0056415,0.926838,-0.002415,0.0044674999999999,1.073162,0.002415,-0.0044674999999999,0.913764,-0.350962,0.0318415,1.119644,-0.360622,0.0196264999999999,0.923999,-0.703132,0.0556695,1.138804,-0.704672,0.0518305
39,0.9946595,0.75076,0.0602425,0.8132604999999999,0.4851799999999999,0.0314215,0.6230005000000001,0.5119199999999999,0.0693355,1.1614505,0.49981,-0.0082964999999999,1.3478405,0.59549,0.0007505,0.7664905000000001,0.68406,0.0517145,1.1910204999999998,0.72643,0.0053785,0.9268665,-0.0024189999999999,0.0044685,1.0731335,0.002419,-0.0044685,0.9152305000000001,-0.35282,0.0315515,1.1207835,-0.36041,0.0185395,0.9275845,-0.70301,0.0554205,1.1425305,-0.70435,0.0513505
40,0.994171,0.75074,0.0604505,0.81225,0.48551,0.0316035,0.62281,0.51288,0.0696905,1.16071,0.49946,-0.0084214999999999,1.3471,0.59484,0.0006245,0.76866,0.68382,0.0523735,1.1908,0.72576,0.0052654999999999,0.92692,-0.002574,0.0043624999999999,1.07308,0.002574,-0.0043624999999999,0.91707,-0.35411,0.0313865,1.122317,-0.36027,0.0166365,0.932259,-0.70301,0.0551915,1.14718,-0.70406,0.0504835
41,0.9932005000000002,0.750536,0.060797,0.8111805000000001,0.485816,0.0319729999999999,0.6224605000000001,0.5143059999999999,0.070079,1.1596605,0.498996,-0.008494,1.3463305,0.594036,0.000354,0.7711705,0.685376,0.0531849999999999,1.1909705,0.7251259999999999,0.0050169999999999,0.9269305,-0.0026829999999999,0.0041099999999999,1.0730695,0.0026829999999999,-0.00411,0.9187705,-0.354974,0.0311749999999999,1.1238305,-0.360214,0.0130599999999999,0.9377255000000001,-0.703074,0.0549029999999999,1.1524505,-0.703844,0.0492429999999999
42,0.9919905,0.7502535,0.0611,0.8104185,0.4860835,0.03235,0.6221384999999999,0.5161735,0.070417,1.1585985,0.4985334999999999,-0.008555,1.3455185,0.5929935,-6.699999999999762e-05,0.7739085,0.6873035,0.053849,1.1913185,0.7244535,0.004625,0.9267985,-0.0027485,0.003877,1.0732015,0.0027485,-0.0038769999999999,0.9205485,-0.3556665,0.030816,1.1256455,-0.3602465,0.006828,0.9438945,-0.7032465,0.054631,1.1582985,-0.7037165000000001,0.048302
43,0.99103,0.7499585,0.0614015,0.809609,0.4862884999999999,0.0326885,0.621889,0.5181184999999999,0.0706425,1.157549,0.4980985,-0.0084494999999999,1.344759,0.5917484999999999,-0.0007855,0.7752190000000001,0.6891585,0.0546015,1.190629,0.7235484999999999,0.0043524999999999,0.926669,-0.0028045,0.0035005,1.073331,0.0028045,-0.0035004999999999,0.922579,-0.3558115,0.0301285,1.127815,-0.3579115,-0.0034044999999999,0.950914,-0.7034915,0.0540605,1.164349,-0.7024215,0.0477115
44,0.990363,0.7495385,0.0617895,0.80884,0.4862785,0.0331745,0.62243,0.5201385000000001,0.0708445,1.15675,0.4974985,-0.0082155,1.34451,0.5903585,-0.0014134999999999,0.7766100000000001,0.6912985,0.0551595,1.1908699999999999,0.7221285000000001,0.0041715,0.9264600000000001,-0.0031614999999999,0.0029915,1.07354,0.0031615,-0.0029915,0.9251,-0.3561915,0.0292185,1.130383,-0.3537615,-0.0168504999999999,0.958748,-0.7038715,0.0532485,1.1699,-0.6971615,0.0452715
45,0.9897515000000001,0.748995,0.0622615,0.8082405,0.486175,0.0337395,0.6234605,0.522435,0.0710794999999999,1.1560325,0.496815,-0.0078174999999999,1.3443905,0.588885,-0.0016605,0.7778105000000001,0.693395,0.0555875,1.1926605000000001,0.721015,0.0041085,0.9262305000000001,-0.003701,0.0023654999999999,1.0737695,0.003701,-0.0023654999999999,0.9276805,-0.356735,0.0283195,1.1339455,-0.344985,-0.0354155,0.9667165000000001,-0.7044050000000001,0.0523305,1.1739705,-0.686105,0.0420115
46,0.9891005,0.7482044999999999,0.0628775,0.8076825000000001,0.4859345,0.0342545,0.6250925,0.5249045,0.0712015,1.1555635,0.4959245,-0.0072834999999999,1.3444325,0.5874944999999999,-0.0017164999999999,0.7795624999999999,0.6950544999999999,0.0558395,1.1947725,0.7196444999999999,0.0039755,0.9260325000000001,-0.0044174999999999,0.0016214999999999,1.0739675,0.0044174999999999,-0.0016215,0.9301625,-0.3575255,0.0270755,1.1381065,-0.3344355,-0.0567645,0.9744445,-0.7051755000000001,0.0513205,1.1761525,-0.6673755,0.0382944999999999
47,0.9887360000000001,0.747041,0.0636015,0.8073760000000001,0.485391,0.0349525,0.626886,0.527471,0.0713395,1.155453,0.494761,-0.0064235,1.344126,0.585781,-0.0014184999999999,0.781096,0.696151,0.0561035,1.196516,0.717361,0.0040754999999999,0.925826,-0.005121,0.0007594999999999,1.074174,0.005121,-0.0007594999999999,0.932956,-0.358199,0.0257435,1.142783,-0.319509,-0.0829355,0.981595,-0.7063090000000001,0.0504045,1.178013,-0.6445890000000001,0.0345955
48,0.9888475,0.745849,0.064197,0.8062535,0.4849789999999999,0.035733,0.6288635,0.529909,0.071447,1.1555165,0.493429,-0.005465,1.3441435,0.584149,-0.001034,0.7824335,0.696839,0.056146,1.1978935,0.714569,0.0041099999999999,0.9256135,-0.005856,-2.000000000000265e-05,1.0743865,0.005856,1.9999999999999185e-05,0.9360735,-0.358631,0.024554,1.1476055,-0.3033409999999999,-0.1108049999999999,0.9880535000000001,-0.707541,0.049585,1.1781825,-0.613231,0.0293869999999999
49,0.9889880000000001,0.744356,0.0648084999999999,0.8066980000000001,0.484216,0.0361115,0.6307780000000001,0.5318959999999999,0.0714545,1.155996,0.491796,-0.0044925,1.345238,0.582156,-0.0004765,0.783798,0.697226,0.0562675,1.198728,0.711946,0.0038464999999999,0.925368,-0.006557,-0.0007605,1.074632,0.006557,0.0007604999999999,0.9392280000000001,-0.358334,0.0236004999999999,1.152458,-0.277904,-0.1437455,0.9935380000000001,-0.709214,0.0489794999999999,1.178163,-0.577024,0.0241254999999999
50,0.9895895000000001,0.7425585,0.0651995,0.8072495,0.4830985,0.0364774999999999,0.6328795,0.5331985,0.0714335,1.1566435,0.4899585,-0.0034195,1.3464395,0.5799485000000001,-3.049999999999928e-05,0.7853095,0.6971085,0.0558735,1.1991175,0.7093785,0.0039074999999999,0.9250795,-0.0072134999999999,-0.0015464999999999,1.0749205,0.0072135,0.0015464999999999,0.9428795000000001,-0.3581915,0.0229445,1.1570595,-0.2518415,-0.1749725,0.9984795000000001,-0.7113115,0.0483865,1.1780505,-0.5358115,0.0145394999999999
51,0.9904125000000001,0.74052,0.0654775,0.8076125000000001,0.48165,0.0368355,0.6350225,0.53191,0.0708505,1.1572405,0.48795,-0.0023894999999999,1.3477725,0.57738,0.0002624999999999,0.7866525,0.69586,0.0553655,1.1994185,0.70644,0.0040444999999999,0.9249125,-0.007904,-0.0022355,1.0750875,0.007904,0.0022355,0.9468225,-0.3583,0.0223535,1.1615484999999999,-0.22529,-0.2039794999999999,1.0029625,-0.71386,0.0478575,1.1765475,-0.49515,-0.0045124999999999
52,0.9911465,0.7387315,0.065318,0.8082865000000001,0.4802415,0.037065,0.6374865000000001,0.5305115,0.0703739999999999,1.1581605,0.4862714999999999,-0.0016469999999999,1.3493065,0.5748115,0.0004399999999999,0.7896965000000001,0.6946015,0.054902,1.2015625,0.7035115000000001,0.0036479999999999,0.9246965,-0.0082304999999999,-0.002776,1.0753035,0.0082305,0.002776,0.9510065,-0.3593385,0.021873,1.1659665,-0.1988285,-0.230003,1.0071465,-0.7164484999999999,0.047422,1.1753395,-0.4584384999999999,-0.026276
53,0.992012,0.7370975000000001,0.064894,0.8095420000000001,0.4790175,0.037032,0.640002,0.5299875000000001,0.069989,1.159571,0.4848674999999999,-0.001152,1.351042,0.5725075000000001,0.0004539999999999,0.793472,0.6935475000000001,0.054547,1.204261,0.7006875,0.0032669999999999,0.924492,-0.0082075,-0.0032899999999999,1.075508,0.0082075,0.00329,0.9555420000000001,-0.3610725,0.021212,1.169472,-0.1736825,-0.253965,1.010982,-0.7192124999999999,0.04711,1.175151,-0.4275025,-0.053118
54,0.9921775,0.7356465000000001,0.0646905,0.8102675000000001,0.4779965,0.0370075,0.6413975000000001,0.5294465,0.0698155,1.1604775,0.4836265,-0.0006725,1.3522175,0.5705665000000001,0.0003824999999999,0.7966975000000001,0.6926665000000001,0.0544174999999999,1.2057875,0.6984065,0.0030964999999999,0.9243175,-0.0082075,-0.0038825,1.0756825,0.0082075,0.0038824999999999,0.9591775,-0.3631035,0.0206624999999999,1.1710375,-0.1562835,-0.2736855,1.0139675,-0.7219335,0.0469745,1.1758905,-0.4043535,-0.0824955
55,0.9918985,0.7346655,0.0649629999999999,0.8103485,0.4774854999999999,0.037329,0.6414185,0.5280455,0.069631,1.1608785,0.4828855,5.100000000000243e-05,1.3528385,0.5693254999999999,0.000678,0.7991485,0.6918955,0.054253,1.2061624999999998,0.6962955,0.003385,0.9239185,-0.0079605,-0.0041709999999999,1.0760815,0.0079604999999999,0.004171,0.9616085,-0.3645045,0.02027,1.1714375,-0.1433575,-0.291259,1.0160485,-0.7241744999999999,0.047291,1.1779235,-0.3913845,-0.118849
56,0.9919300000000001,0.734179,0.0651025,0.81036,0.477589,0.0376195,0.6409200000000002,0.527419,0.0689525,1.161265,0.4827289999999999,0.0005394999999999,1.35373,0.568689,0.0009895,0.80017,0.6912590000000001,0.0535195,1.207919,0.694619,0.0030845,0.92367,-0.007664,-0.0044674999999999,1.07633,0.007664,0.0044674999999999,0.96338,-0.365141,0.0195405,1.171122,-0.142646,-0.3049275,1.0177999999999998,-0.725671,0.0475224999999999,1.180061,-0.387861,-0.1646175
57,0.9926190000000001,0.73399,0.0649675,0.8105990000000001,0.4778,0.0379315,0.6405890000000001,0.52723,0.0679295,1.161847,0.48267,0.0008594999999999,1.3544589999999999,0.5685,0.0013134999999999,0.800539,0.6910700000000001,0.0522935,1.208084,0.6937,0.0026064999999999,0.923489,-0.007475,-0.0047775,1.076511,0.007475,0.0047774999999999,0.9651190000000001,-0.36544,0.0184634999999999,1.170924,-0.142835,-0.3182195,1.019129,-0.7266199999999999,0.0476575,1.182145,-0.38805,-0.2152994999999999
58,0.99371,0.73399,0.0645565,0.81157,0.4778,0.0383825,0.6410100000000001,0.52775,0.0668475,1.162677,0.48267,0.0013074999999999,1.35519,0.5685,0.0016334999999999,0.80065,0.6910700000000001,0.0513025,1.2091699999999999,0.69325,0.0024484999999999,0.92339,-0.007475,-0.0050944999999999,1.0766099999999998,0.007475,0.0050944999999999,0.96723,-0.3663099999999999,0.0176445,1.170353,-0.142835,-0.3265265,1.0202099999999998,-0.7275699999999999,0.0478355,1.184334,-0.38805,-0.2721365
59,0.9946605000000001,0.73399,0.0648435,0.8125105,0.4778,0.0394435,0.6416605,0.52758,0.0662025,1.1636075,0.48267,0.0025995,1.3561305,0.56837,0.0025275,0.8005905,0.69084,0.0505705,1.2101125,0.69325,0.0032275,0.9235005000000001,-0.007475,-0.0054115,1.0764995,0.007475,0.0054115,0.9690105000000001,-0.36851,0.0173525,1.1687755,-0.14417,-0.3334645,1.0213405,-0.72871,0.0488095,1.1856115,-0.38805,-0.3291445
60,0.9955970000000001,0.7342285000000001,0.066668,0.813437,0.4781884999999999,0.041712,0.642317,0.5269785,0.06669,1.164526,0.4830585,0.005312,1.357057,0.5681685000000001,0.004809,0.801507,0.6905585000000001,0.051336,1.212432,0.6922185000000001,0.004924,0.923787,-0.0070865,-0.0053539999999999,1.076213,0.0070865,0.005354,0.970527,-0.3716515,0.017897,1.1664430000000001,-0.1440755,-0.336519,1.022747,-0.7297414999999999,0.051013,1.187614,-0.3979615,-0.371929
61,0.9961065000000001,0.7346315,0.069805,0.8137665000000001,0.4788615,0.0445679999999999,0.6425765,0.5265915,0.068462,1.1648335,0.4836314999999999,0.0091339999999999,1.3573665,0.5678415,0.0084169999999999,0.8018565,0.6900315,0.0533609999999999,1.2152175,0.6910015,0.0080999999999999,0.9241165000000001,-0.0065335,-0.005391,1.0758835,0.0065334999999999,0.0053909999999999,0.9712565,-0.3743885,0.0195499999999999,1.1631624999999999,-0.1593965,-0.33613,1.0239065,-0.7304185,0.0542179999999999,1.1888485,-0.4170085,-0.40701
62,0.9972105,0.7354014999999999,0.073989,0.8142405,0.4800115,0.048014,0.6428105,0.5266915,0.071134,1.1654855,0.4841614999999999,0.013633,1.3576305,0.5675115,0.012906,0.8020805,0.6897415,0.056561,1.2177194999999998,0.6905215,0.012156,0.9244105,-0.0060025,-0.0054499999999999,1.0755895,0.0060025,0.00545,0.9715705,-0.3767985,0.021768,1.1600735,-0.1769585,-0.331858,1.0248704999999998,-0.7300685,0.058132,1.1897775,-0.4420285,-0.433658
63,0.9987070000000001,0.7362295,0.079447,0.815007,0.4812994999999999,0.052359,0.642917,0.5270695000000001,0.07555,1.16666,0.4843595,0.018847,1.358167,0.5670995000000001,0.018343,0.802187,0.6896195,0.061037,1.220969,0.6897895,0.017458,0.924627,-0.0053614999999999,-0.0053819999999999,1.075373,0.0053614999999999,0.0053819999999999,0.971717,-0.3787005,0.024849,1.157041,-0.1999405,-0.325669,1.025697,-0.7293704999999999,0.062981,1.188761,-0.4687005,-0.453919
64,1.00074,0.7373915,0.0868765,0.8163000000000001,0.4825715,0.0576114999999999,0.6429199999999999,0.5283915,0.0819795,1.168026,0.4847815,0.0252194999999999,1.35877,0.5671015,0.0249294999999999,0.8031200000000001,0.6903915,0.0673614999999999,1.220525,0.6900215000000001,0.0242354999999999,0.92478,-0.0047885,-0.0050405,1.07522,0.0047885,0.0050404999999999,0.9717600000000001,-0.3795685,0.0294594999999999,1.153766,-0.2260384999999999,-0.3177245,1.0259999999999998,-0.7281084999999999,0.0692624999999999,1.186378,-0.4963685,-0.4629045
65,1.0025505,0.738602,0.0951465,0.8169805,0.4838719999999999,0.0633715,0.6422905,0.530542,0.0895415,1.1687915,0.4851419999999999,0.0316365,1.3586505,0.567092,0.0317805,0.8038305,0.691202,0.0748025,1.2196665,0.690602,0.0318425,0.9249805000000001,-0.004358,-0.0047724999999999,1.0750195,0.004358,0.0047725,0.9709605000000001,-0.380668,0.0346065,1.1493915000000001,-0.254378,-0.3089214999999999,1.0253205,-0.726598,0.0760405,1.1828125,-0.523898,-0.4596715
66,1.0050605,0.73974,0.1038435,0.8181105000000001,0.4851,0.0696085,0.6437904999999999,0.5333,0.0979715,1.1699775,0.48527,0.0379445,1.3588305,0.56708,0.0384675,0.8053005,0.69181,0.0833095,1.2193255,0.69143,0.0397615,0.9252205,-0.0037809999999999,-0.0044514999999999,1.0747795,0.003781,0.0044514999999999,0.9702605,-0.38218,0.0401005,1.1450955,-0.28084,-0.2976115,1.0247005,-0.72504,0.0832085,1.1801005,-0.55208,-0.4500015
67,1.007804,0.7406485,0.1125205,0.819684,0.4859984999999999,0.0756275,0.6455140000000001,0.5359285,0.1069195,1.171411,0.4852485,0.0437825,1.3591039999999999,0.5671685000000001,0.0447165,0.807274,0.6922885000000001,0.0921545,1.222084,0.6924085000000001,0.0484285,0.925414,-0.0031435,-0.0040324999999999,1.0745859999999998,0.0031435,0.0040325,0.969314,-0.3835115,0.0462055,1.140676,-0.3050315,-0.2833205,1.024084,-0.7233314999999999,0.0909105,1.176812,-0.5781314999999999,-0.4396704999999999
68,1.010514,0.7409475,0.1199395,0.821344,0.4866875,0.0813495,0.647534,0.5375175,0.1154405,1.172774,0.4849875,0.0491145,1.359354,0.5669675,0.0495375,0.8086139999999999,0.6928975,0.1003895,1.2233669999999999,0.6932375,0.0565065,0.925544,-0.0025494999999999,-0.0034484999999999,1.074456,0.0025495,0.0034485,0.967574,-0.3844825,0.0519905,1.1363590000000001,-0.3224925,-0.2675025,1.023424,-0.7219325,0.0983025,1.173346,-0.5993925,-0.4295525
69,1.0130394999999999,0.7411755,0.1260775,0.8235995,0.4869854999999999,0.0852455,0.6497295000000001,0.5389655,0.1229725,1.1747755,0.4843355,0.0522845,1.3599795000000001,0.5669955,0.0527095,0.8102895,0.6933255,0.1075885,1.2257365,0.6941055,0.0624115,0.9255995,-0.0020425,-0.0030825,1.0744004999999999,0.0020424999999999,0.0030825,0.9655895,-0.3840445,0.0577005,1.1326805,-0.3395444999999999,-0.2502925,1.0225795,-0.7202245,0.1051555,1.1696855,-0.6156545,-0.4176825
70,1.0155415,0.7415405,0.13097,0.8257715000000001,0.4874705,0.088725,0.6523215,0.5400605,0.129581,1.1771995,0.4838105,0.054077,1.3610215,0.5673905,0.054419,0.8098515000000002,0.6938205000000001,0.113452,1.2275814999999999,0.6959305,0.065689,0.9257915,-0.0014275,-0.0024199999999999,1.0742085,0.0014275,0.00242,0.9636515,-0.3833495,0.062809,1.1302175,-0.3525895,-0.2327499999999999,1.0216115,-0.7181195,0.111596,1.1655995,-0.6271995,-0.39948
71,1.0181735,0.7419764999999999,0.135023,0.8281035,0.4879165,0.0916599999999999,0.6553835,0.5405665,0.13528,1.1796595,0.4836465,0.055109,1.3622635,0.5684265,0.0552919999999999,0.8100735,0.6943165,0.11881,1.2288935,0.6978665,0.068724,0.9260035000000001,-0.0008205,-0.0014099999999999,1.0739965,0.0008204999999999,0.0014099999999999,0.9618635000000001,-0.3825835,0.067801,1.1282505,-0.3633235,-0.21582,1.0203935,-0.7158935000000001,0.118391,1.1621605,-0.6373335,-0.37522
72,1.02093,0.742485,0.1380149999999999,0.83036,0.488425,0.0940579999999999,0.65842,0.541235,0.1398329999999999,1.18183,0.483905,0.0558209999999999,1.36341,0.5699649999999999,0.0554479999999999,0.80989,0.694515,0.1217639999999999,1.23121,0.700185,0.0706849999999999,0.92631,-0.0003049999999999,-0.000425,1.0736899999999998,0.0003049999999999,0.0004249999999999,0.96011,-0.381735,0.0721289999999999,1.126959,-0.369905,-0.201315,1.0189899999999998,-0.713485,0.125043,1.159766,-0.645875,-0.354215
73,1.023289,0.7428530000000001,0.1392729999999999,0.8321990000000001,0.489133,0.0953019999999999,0.661609,0.541493,0.1425729999999999,1.183852,0.484023,0.0548429999999999,1.364429,0.571463,0.0543309999999999,0.8093890000000001,0.691473,0.1235029999999999,1.231509,0.7019930000000001,0.0713929999999999,0.926549,0.0001659999999999,0.0003149999999999,1.073451,-0.0001659999999999,-0.000315,0.9582490000000001,-0.381687,0.0749869999999999,1.125669,-0.375557,-0.189305,1.0171189999999999,-0.711127,0.1306649999999999,1.157921,-0.650647,-0.337625
74,1.0253775,0.7432925,0.139482,0.8340745,0.4898724999999999,0.095946,0.6645945000000001,0.5414725,0.14481,1.1855735,0.4842324999999999,0.053319,1.3655745000000001,0.5729425,0.052564,0.8086945,0.6887925,0.124886,1.2308545,0.7036924999999999,0.071021,0.9265845,0.0006005,0.0010799999999999,1.0734155,-0.0006005,-0.0010799999999999,0.9564245000000001,-0.3807975,0.077542,1.1246675,-0.3792575,-0.1795899999999999,1.0152045,-0.7089075,0.13586,1.1562575,-0.6537675000000001,-0.32363
75,1.0272665,0.743707,0.138713,0.8358555,0.490537,0.095821,0.6669054999999999,0.541367,0.146801,1.1871695,0.484587,0.051614,1.3668855,0.5742970000000001,0.049986,0.8077255,0.686247,0.125875,1.2301255,0.704997,0.069809,0.9265855000000001,0.0009649999999999,0.00189,1.0734145,-0.000965,-0.00189,0.9547755,-0.379303,0.079682,1.1236884999999999,-0.381623,-0.17221,1.0134455,-0.706803,0.139921,1.1548165,-0.654313,-0.3126799999999999
76,1.028697,0.7442745000000001,0.137515,0.837358,0.4913344999999999,0.0951979999999999,0.6687880000000002,0.5411545000000001,0.148472,1.188708,0.4849144999999999,0.0495499999999999,1.368018,0.5753845000000001,0.0470999999999999,0.806228,0.6851345000000001,0.127576,1.2276880000000001,0.7064445,0.0681699999999999,0.926578,0.0012535,0.0025899999999999,1.073422,-0.0012534999999999,-0.00259,0.9535380000000001,-0.3777755,0.0800009999999999,1.122949,-0.3828155,-0.16804,1.012098,-0.7048755,0.142056,1.154058,-0.6543555,-0.30575
77,1.0294385,0.7450715,0.136475,0.8384595,0.4919715,0.095639,0.6701895,0.5411715,0.149621,1.1901855000000001,0.4851515,0.047475,1.3689195,0.5765215,0.044555,0.8045795,0.6844615000000001,0.128653,1.2270495,0.7073915000000001,0.065011,0.9265695,0.0015314999999999,0.003045,1.0734305,-0.0015315,-0.0030449999999999,0.9530995,-0.3760185,0.079348,1.1224775,-0.3824984999999999,-0.1657849999999999,1.0111595,-0.7031085,0.142293,1.1538475,-0.6539285,-0.303185
78,1.0294645,0.7450665,0.136388,0.8386835000000001,0.4921665,0.095643,0.6707835000000001,0.5406565,0.149634,1.1905025,0.4853665,0.047385,1.3689835,0.5770265,0.043515,0.8026735,0.6815565,0.128607,1.2271135,0.7074365,0.063214,0.9265935,0.0013804999999999,0.003045,1.0734065,-0.0013805,-0.0030449999999999,0.9529434999999999,-0.3753035,0.07863,1.1221744999999999,-0.3815334999999999,-0.1646949999999999,1.0106235,-0.7023334999999999,0.141616,1.1537775,-0.6529635,-0.303195
79,1.0295085,0.744452,0.136388,0.8387275000000001,0.492182,0.095643,0.6708275,0.5397620000000001,0.149634,1.1905465,0.485422,0.047385,1.3690274999999998,0.577102,0.043515,0.7989275,0.678152,0.128517,1.2271575000000001,0.707512,0.063214,0.9266375,0.001305,0.003045,1.0733625,-0.0013049999999999,-0.0030449999999999,0.9523575,-0.375278,0.078614,1.1218655,-0.3814579999999999,-0.164705,1.0103075,-0.702438,0.141229,1.1536785,-0.652888,-0.303195
80,1.0295904999999999,0.744452,0.136393,0.8388095,0.492182,0.095648,0.6708995,0.5397620000000001,0.14994,1.1906284999999999,0.485422,0.0473899999999999,1.3691095,0.577102,0.0435199999999999,0.7948995,0.676002,0.129851,1.2272394999999998,0.707512,0.063219,0.9267195,0.001305,0.0030499999999999,1.0732805,-0.0013049999999999,-0.0030499999999999,0.9515495,-0.375278,0.0785979999999999,1.1211415,-0.3814579999999999,-0.16518,1.0099395,-0.702608,0.140891,1.1531595000000001,-0.652888,-0.3032
81,1.030053,0.744452,0.135381,0.8393470000000001,0.492182,0.096762,0.6714370000000001,0.5397620000000001,0.151178,1.191216,0.485422,0.04638,1.369697,0.577102,0.04251,0.7906670000000001,0.674592,0.130986,1.227827,0.707512,0.062209,0.926787,0.001305,0.0032999999999999,1.073213,-0.0013049999999999,-0.0032999999999999,0.950907,-0.375208,0.077559,1.120571,-0.380388,-0.16737,1.010057,-0.7028179999999999,0.139556,1.1521460000000001,-0.652408,-0.3047299999999999
82,1.0303085,0.7441025,0.133815,0.8396875000000001,0.4918325,0.097823,0.6719475000000001,0.5394125000000001,0.1520439999999999,1.1915605,0.4850725,0.0458299999999999,1.3696074999999999,0.5769825000000001,0.0408799999999999,0.7890874999999999,0.6742425,0.131353,1.2255875,0.7087425,0.0625579999999999,0.9268075,0.0009554999999999,0.0035099999999999,1.0731925,-0.0009555,-0.00351,0.9506975000000001,-0.3754375,0.0750709999999999,1.1204795,-0.3766575,-0.17308,1.0104875,-0.7031375,0.1366039999999999,1.1508775,-0.6502275,-0.31233
83,1.0302085,0.742907,0.132008,0.8397895000000001,0.491237,0.0985849999999999,0.6722195,0.538527,0.1522939999999999,1.1918125,0.484597,0.0454649999999999,1.3694495,0.576237,0.0391349999999999,0.7872695000000001,0.6728869999999999,0.1304949999999999,1.2236195,0.708587,0.0617149999999999,0.9268695000000001,0.0004409999999999,0.0035549999999999,1.0731305,-0.000441,-0.003555,0.9517995000000001,-0.376393,0.0715359999999999,1.1215375,-0.370673,-0.183925,1.0115095,-0.7043330000000001,0.131458,1.1502075,-0.645413,-0.327485
84,1.0287585,0.7415315,0.1294999999999999,0.8388645,0.4903715,0.0983059999999999,0.6714045,0.5376115,0.1514869999999999,1.1911305,0.4839915,0.0442609999999999,1.3684745,0.5752515,0.0371029999999999,0.7847645,0.6707715,0.1298599999999999,1.2207405,0.7083115,0.0602659999999999,0.9263245,-0.0001185,0.0033199999999999,1.0736755,0.0001184999999999,-0.00332,0.9527045000000001,-0.3773585,0.0671889999999999,1.1229525,-0.3605985,-0.19987,1.0122945,-0.7062885,0.1243299999999999,1.1490475,-0.6354185,-0.34841
85,1.0278425,0.7397830000000001,0.126519,0.8384325,0.489233,0.0979079999999999,0.6708825,0.536783,0.150164,1.1908234999999998,0.483253,0.0434129999999999,1.3683325,0.5737129999999999,0.0350739999999999,0.7829625,0.670893,0.128069,1.2195865,0.7070129999999999,0.0578259999999999,0.9260425,-0.0005799999999999,0.0030299999999999,1.0739575,0.00058,-0.00303,0.9545225,-0.378847,0.0626779999999999,1.1252734999999998,-0.346157,-0.22123,1.0141425,-0.709047,0.1159579999999999,1.1490874999999998,-0.625257,-0.37313
86,1.027044,0.738061,0.123555,0.8385940000000001,0.4878209999999999,0.09682,0.670474,0.536171,0.147732,1.191343,0.482611,0.043048,1.368384,0.571921,0.033405,0.783604,0.6705909999999999,0.125019,1.219343,0.705181,0.055812,0.926014,-0.000886,0.00253,1.073986,0.000886,-0.00253,0.9567940000000001,-0.380479,0.057627,1.128025,-0.326209,-0.2442999999999999,1.016504,-0.711709,0.107281,1.149365,-0.6036090000000001,-0.3975499999999999
87,1.026304,0.7363575,0.120714,0.838924,0.4863775000000001,0.095412,0.6701440000000001,0.5360275,0.144038,1.191929,0.4820975,0.042722,1.368654,0.5700675,0.032463,0.7858840000000001,0.6711575,0.120993,1.218018,0.7038175,0.053876,0.926044,-0.0012064999999999,0.0017,1.073956,0.0012065,-0.0016999999999999,0.9594840000000001,-0.3814825,0.052459,1.131066,-0.2975325,-0.26631,1.018874,-0.7146625,0.099036,1.148904,-0.5793125,-0.40695
88,1.026199,0.7341235,0.118073,0.8396290000000001,0.4840735,0.094009,0.6702790000000001,0.5350435,0.13954,1.192726,0.4810435,0.0432,1.369589,0.5674235000000001,0.032039,0.7883490000000001,0.6709135,0.11529,1.220436,0.7013235,0.05027,0.9261290000000001,-0.0014074999999999,0.0007749999999999,1.073871,0.0014074999999999,-0.0007749999999999,0.9631090000000001,-0.3808265,0.048237,1.134735,-0.2633665,-0.284955,1.021729,-0.7176965,0.092145,1.149485,-0.5469364999999999,-0.415515
89,1.0268845,0.731606,0.113505,0.8412245,0.4812359999999999,0.088782,0.6710445,0.5336860000000001,0.132833,1.1940475,0.480166,0.042083,1.3712944999999999,0.5647359999999999,0.030204,0.7911445,0.6703760000000001,0.106669,1.2195195,0.6984459999999999,0.046706,0.9260045000000001,-0.001267,0.000148,1.0739955,0.0012669999999999,-0.0001479999999999,0.9677445000000001,-0.377134,0.042931,1.1397515,-0.220324,-0.303025,1.0249145,-0.719314,0.0845,1.1523005,-0.509514,-0.424835
90,1.0276625,0.729736,0.108913,0.8424625,0.478636,0.08359,0.6716125,0.533126,0.125955,1.1951315,0.479446,0.040918,1.3728025,0.5621860000000001,0.028364,0.7957525000000001,0.672416,0.098843,1.2214785,0.6945060000000001,0.043814,0.9259725,-0.000861,-0.000363,1.0740275,0.0008609999999999,0.000363,0.9717125000000001,-0.373234,0.037911,1.1442745,-0.1772639999999999,-0.31767,1.0277425,-0.720644,0.078215,1.1542905,-0.467644,-0.4289699999999999
91,1.028188,0.7287335,0.1048055,0.843368,0.4763835,0.0783955,0.671958,0.5335235,0.1189005,1.195984,0.4790735,0.0394765,1.374078,0.5598035,0.0264155,0.8031980000000001,0.6747335,0.0919605,1.224852,0.6905335,0.0392475,0.9257680000000001,-0.0003294999999999,-0.0009374999999999,1.074232,0.0003295,0.0009375,0.9756880000000001,-0.3683364999999999,0.0332525,1.148465,-0.1385025,-0.3277474999999999,1.030058,-0.7209765,0.0730885,1.15546,-0.4234365,-0.4264074999999999
92,1.0281775,0.7280194999999999,0.1003395,0.8436575,0.4745494999999999,0.0729535,0.6716175000000001,0.5337795,0.1121575,1.1961675,0.4788795,0.0374685,1.3744275,0.5577795,0.0241645,0.8100975000000001,0.6776095,0.0854415,1.2258355,0.6869995,0.0346585,0.9254975,0.0003184999999999,-0.0017375,1.0745025,-0.0003185,0.0017375,0.9790075000000001,-0.3635005,0.0286714999999999,1.1525545,-0.1035785,-0.3343815,1.0318075,-0.7212305,0.0688035,1.1557155,-0.3836604999999999,-0.4166815
93,1.028274,0.7272755000000001,0.0962165,0.843664,0.4736255,0.0682055,0.671304,0.5339355,0.1063235,1.196206,0.4785455,0.0357285,1.374474,0.5555355000000001,0.0219135,0.815054,0.6812155000000001,0.0797325,1.2219929999999999,0.6850455000000001,0.0304245,0.925514,0.0011115,-0.0023154999999999,1.074486,-0.0011115,0.0023155,0.982474,-0.3609145,0.0246305,1.157392,-0.0796625,-0.3400955,1.033574,-0.7221245,0.0657735,1.1580119999999998,-0.3558645,-0.3975655
94,1.028202,0.7266985,0.092269,0.8435520000000001,0.4729885,0.063722,0.671092,0.5342485,0.100949,1.196078,0.4782484999999999,0.033999,1.374652,0.5535285,0.01973,0.8201320000000001,0.6837985,0.074485,1.221711,0.6833885000000001,0.026905,0.9253520000000001,0.0017384999999999,-0.0027079999999999,1.074648,-0.0017384999999999,0.002708,0.9859720000000001,-0.3588015,0.020798,1.1645349999999999,-0.0639465,-0.345295,1.035302,-0.7222715,0.063073,1.161924,-0.3368514999999999,-0.370695
95,1.0274694999999998,0.7259920000000001,0.087983,0.8428195,0.472482,0.059188,0.6703895,0.534192,0.0952969999999999,1.1953025,0.477712,0.0316759999999999,1.3744395,0.551512,0.017122,0.8246195000000001,0.6864520000000001,0.0692339999999999,1.2242045,0.681052,0.0240369999999999,0.9247695,0.00177,-0.003241,1.0752305,-0.00177,0.0032409999999999,0.9883195,-0.357198,0.0173459999999999,1.1706935,-0.066334,-0.3494089999999999,1.0364695,-0.7226779999999999,0.0600319999999999,1.1650174999999998,-0.336708,-0.329929
96,1.0251345,0.725248,0.0830165,0.8407045000000001,0.4719779999999999,0.0541275,0.6680845,0.5334679999999999,0.0888065,1.1931115,0.476998,0.0284785,1.3726845,0.549558,0.0138555,0.8277745000000001,0.688168,0.0632985,1.2256215,0.6786979999999999,0.0206845,0.9241145,0.0014069999999999,-0.0039194999999999,1.0758855,-0.0014069999999999,0.0039194999999999,0.9885245,-0.357202,0.0139335,1.1750185,-0.069298,-0.3477005,1.0357945,-0.7229620000000001,0.0561404999999999,1.1668985,-0.339672,-0.2804405
97,1.022071,0.7251164999999999,0.0777114999999999,0.837761,0.4723165,0.0488435,0.6648510000000001,0.5333964999999999,0.0816445,1.190291,0.4768165,0.0245925,1.370021,0.5485265,0.0105645,0.8308310000000001,0.6906565,0.0570424999999999,1.226471,0.6771665,0.0168815,0.9235510000000001,0.0006175,-0.0047685,1.076449,-0.0006175,0.0047685,0.9870810000000001,-0.3589635,0.0103464999999999,1.177092,-0.0712795,-0.3399744999999999,1.034011,-0.7232335,0.0515945,1.167735,-0.3416535,-0.2261545
98,1.0184135,0.7255925,0.0742105,0.8335335,0.4733425,0.0448345,0.6606935,0.5336624999999999,0.0758705,1.1862705,0.4766125,0.0216245,1.3663635,0.5479225,0.0089265,0.8315235,0.6936025,0.0524175,1.2264835,0.6761725,0.0146925,0.9230735,-0.0006095,-0.0057955,1.0769265,0.0006094999999999,0.0057955,0.9842635000000001,-0.3602375,0.0087885,1.1764335,-0.0725535,-0.3196894999999999,1.0311135,-0.7237975,0.0488565,1.1682635000000001,-0.3429275,-0.1691895
99,1.016359,0.726193,0.070655,0.830729,0.4746129999999999,0.040998,0.657939,0.533603,0.070018,1.183738,0.476533,0.018579,1.364079,0.547713,0.0073529999999999,0.8298090000000001,0.693403,0.04776,1.2279930000000001,0.675283,0.012652,0.9233890000000001,-0.0015989999999999,-0.006626,1.076611,0.001599,0.006626,0.9828690000000001,-0.361227,0.007618,1.176946,-0.083379,-0.2987309999999999,1.029229,-0.724697,0.046032,1.171189,-0.352167,-0.130471
100,1.0131945,0.726945,0.06722,0.8268245,0.476095,0.0370999999999999,0.6541145000000002,0.533345,0.0641269999999999,1.1801175,0.476615,0.0155349999999999,1.3607345,0.547955,0.0059109999999999,0.8264945,0.693275,0.043224,1.2283344999999999,0.674405,0.0103849999999999,0.9236145,-0.0022669999999999,-0.007272,1.0763855,0.002267,0.0072719999999999,0.9802245,-0.361895,0.0069759999999999,1.1759495,-0.1031789999999999,-0.277204,1.0260735,-0.725365,0.043259,1.1729105,-0.375825,-0.095524
101,1.008628,0.7277640000000001,0.064861,0.821598,0.477514,0.033903,0.6489480000000001,0.533134,0.059298,1.175042,0.476814,0.013716,1.355968,0.548454,0.005554,0.8215780000000001,0.693324,0.039933,1.225998,0.6753340000000001,0.009072,0.923738,-0.0026279999999999,-0.0079639999999999,1.076262,0.002628,0.007964,0.9760580000000001,-0.366716,0.007656,1.172101,-0.137458,-0.252253,1.021161,-0.7269460000000001,0.041633,1.171537,-0.410526,-0.064831
102,1.004141,0.728924,0.0615595,0.816201,0.4783539999999999,0.0300875,0.643811,0.533274,0.0534665,1.169867,0.477394,0.0109855,1.351201,0.549644,0.0040415,0.816801,0.693614,0.0357915,1.225031,0.675164,0.0063625,0.923801,-0.0027679999999999,-0.0082435,1.076199,0.002768,0.0082434999999999,0.9716310000000001,-0.3708359999999999,0.0074895,1.1670289999999999,-0.175186,-0.2262845,1.0157539999999998,-0.727496,0.0390455,1.168588,-0.4560959999999999,-0.0414164999999999
103,0.9996410000000001,0.7300749999999999,0.0585684999999999,0.8106110000000001,0.4787949999999999,0.0268285,0.638571,0.533575,0.0482315,1.164687,0.4779949999999999,0.0083855,1.346301,0.551195,0.0024035,0.811681,0.693915,0.0321565,1.219741,0.676295,0.0042145,0.9239310000000001,-0.003069,-0.0082015,1.076069,0.003069,0.0082015,0.9671210000000001,-0.377005,0.0081515,1.160374,-0.213845,-0.1982715,1.010078,-0.728245,0.0368455,1.164148,-0.507515,-0.0204764999999999
104,0.9962055,0.731244,0.056236,0.8061955000000001,0.479274,0.024472,0.6340155000000001,0.534054,0.043641,1.1609045,0.4786739999999999,0.006172,1.3421555,0.553034,0.000951,0.8074455,0.694394,0.029317,1.2156455,0.676774,0.001442,0.9242455,-0.003548,-0.007832,1.0757545,0.0035479999999999,0.0078319999999999,0.9630155000000001,-0.383466,0.009207,1.1540395,-0.252966,-0.1670839999999999,1.0047815,-0.728816,0.035351,1.1601775,-0.558876,-0.0073549999999999
105,0.9945135,0.7325900000000001,0.0555364999999999,0.8041135,0.48016,0.0230805,0.6311235,0.5348,0.0406415,1.1589485,0.47972,0.0054655,1.3398634999999999,0.5548700000000001,0.0002374999999999,0.8048035,0.69528,0.0281265,1.2131535,0.6782600000000001,0.0007235,0.9247535,-0.004337,-0.0071614999999999,1.0752465,0.004337,0.0071615,0.9602635000000002,-0.38792,0.0111995,1.1491945000000001,-0.28733,-0.1339034999999999,1.0007015,-0.72883,0.0353765,1.1571155,-0.6051099999999999,0.0018095
106,0.993621,0.734509,0.055104,0.802901,0.481619,0.021702,0.6288309999999999,0.535239,0.038081,1.157743,0.481249,0.0050259999999999,1.338341,0.557139,-0.00021,0.802751,0.696269,0.0271749999999999,1.211501,0.680739,0.0002729999999999,0.925271,-0.0050279999999999,-0.006737,1.0747289999999998,0.0050279999999999,0.0067369999999999,0.958091,-0.391611,0.0134019999999999,1.143829,-0.318521,-0.10041,0.996853,-0.728771,0.035564,1.154032,-0.642901,0.0086679999999999
107,0.9933230000000001,0.7366284999999999,0.0548779999999999,0.802215,0.4833985,0.020484,0.627015,0.5355285000000001,0.035999,1.157553,0.4831585,0.004884,1.337455,0.5596485,-0.0003679999999999,0.801085,0.6972585,0.026552,1.210615,0.6836085000000001,0.000115,0.925705,-0.0052494999999999,-0.00659,1.074295,0.0052495,0.00659,0.9560550000000001,-0.3947515,0.01575,1.138833,-0.3375915,-0.0757679999999999,0.9928480000000001,-0.7285415,0.035938,1.151178,-0.6733315,0.013702
108,0.9936835,0.738715,0.0545315,0.8018025,0.485135,0.0193615,0.6253525,0.535625,0.0344045,1.1573685,0.485125,0.0045345,1.3382125,0.562265,-0.0004325,0.7994125,0.6980350000000001,0.0261075,1.2106024999999998,0.685575,-0.0017905,0.9259425,-0.0050319999999999,-0.0065235,1.0740574999999999,0.005032,0.0065235,0.9540325,-0.397585,0.0180345,1.1326235,-0.354775,-0.0520825,0.9882765,-0.7274849999999999,0.0362975,1.1465715,-0.695105,0.0180035
109,0.9944100000000001,0.7407935000000001,0.054547,0.802404,0.4867835,0.018412,0.623894,0.5355835,0.033692,1.156743,0.4871235,0.004305,1.338734,0.5647135000000001,-0.0008369999999999,0.797804,0.6987334999999999,0.026351,1.210274,0.6875735000000001,-0.003095,0.926054,-0.0044984999999999,-0.005998,1.073946,0.0044985,0.005998,0.951954,-0.4009165,0.020834,1.1268259999999999,-0.3690365,-0.030509,0.982988,-0.7271065000000001,0.037052,1.141529,-0.7111864999999999,0.021011
110,0.9951490000000001,0.7426435,0.0547585,0.802961,0.4882734999999999,0.0179955,0.622811,0.5371134999999999,0.0335645,1.157155,0.4889735,0.0036585,1.339391,0.5669035,-0.0017014999999999,0.796151,0.6997635,0.0268675,1.210271,0.6905235,-0.0042814999999999,0.926191,-0.0038305,-0.0050644999999999,1.073809,0.0038305,0.0050645,0.949881,-0.4044864999999999,0.0237885,1.120636,-0.3795865,-0.0122034999999999,0.97721,-0.7272565000000001,0.0380525,1.136068,-0.7216265000000001,0.0234585
111,0.995983,0.7440545000000001,0.054827,0.803937,0.4892944999999999,0.017772,0.621997,0.5385245,0.0339789999999999,1.158234,0.4903645,0.0027649999999999,1.340277,0.5685745,-0.003277,0.794377,0.6996245,0.027686,1.209607,0.6931945,-0.005348,0.926457,-0.0032564999999999,-0.004121,1.073543,0.0032565,0.004121,0.947617,-0.4080355,0.026783,1.1141349999999999,-0.3852155,0.001646,0.971013,-0.7278155,0.039165,1.13004,-0.7265055,0.025438
112,0.9971625,0.7450295,0.054804,0.8057265,0.4898795,0.017662,0.6216465,0.5395395,0.034721,1.1595625,0.4913195,0.001859,1.3413165,0.5697295,-0.0051739999999999,0.7936765,0.6989695,0.028669,1.2088365,0.6955795,-0.006398,0.9266365,-0.0028074999999999,-0.0032459999999999,1.0733635,0.0028075,0.003246,0.9451865,-0.4098205,0.029295,1.1075825,-0.3882105,0.013025,0.9647005,-0.7287405,0.040451,1.1237255,-0.7292205,0.027497
113,0.9983860000000001,0.745588,0.054958,0.807331,0.4900779999999999,0.01813,0.6244810000000001,0.5391480000000001,0.03594,1.161441,0.491828,0.000716,1.342691,0.570358,-0.0071989999999999,0.7935710000000001,0.698198,0.029782,1.207861,0.6976380000000001,-0.0073009999999999,0.926841,-0.0025449999999999,-0.0023879999999999,1.073159,0.0025449999999999,0.002388,0.9427910000000002,-0.411452,0.031751,1.101858,-0.389572,0.021502,0.958619,-0.729872,0.041888,1.11759,-0.730642,0.029694
114,0.9997725,0.745745,0.0553735,0.8087245000000001,0.490015,0.0190525,0.6276444999999999,0.537845,0.0374405,1.1632945000000001,0.492045,-0.0002745,1.3441645,0.570705,-0.0089485,0.7937145,0.697015,0.0310995,1.2067044999999998,0.6994750000000001,-0.0078695,0.9269944999999999,-0.002412,-0.0015504999999999,1.0730055,0.0024119999999999,0.0015504999999999,0.9402245,-0.413315,0.0342325,1.0966275,-0.389275,0.0268465,0.9527045,-0.731045,0.0435745,1.1115835,-0.730725,0.0321595
115,1.0010405,0.7457689999999999,0.0559555,0.8099955,0.489979,0.0201835,0.6291855,0.536219,0.0390675,1.1652055,0.492079,-0.0011275,1.3455455,0.5708489999999999,-0.0104594999999999,0.7924055,0.696029,0.0323205,1.2052555,0.7011689999999999,-0.0077094999999999,0.9270754999999999,-0.002396,-0.0007255,1.0729245,0.002396,0.0007255,0.9376355000000001,-0.415371,0.0366415,1.0922135,-0.389171,0.0303525,0.9471145000000001,-0.731871,0.0453155,1.1062235,-0.7305710000000001,0.0347725
116,1.002074,0.745778,0.0566865,0.8113870000000001,0.489948,0.0213075,0.631327,0.534408,0.0405555,1.166427,0.492008,-0.0019125,1.346837,0.570778,-0.0118224999999999,0.790837,0.695298,0.0335195,1.203227,0.701368,-0.0075024999999999,0.927127,-0.002402,4.500000000001031e-06,1.072873,0.002402,-4.500000000001031e-06,0.935107,-0.417122,0.0387335,1.089127,-0.3892919999999999,0.0330485,0.9420700000000001,-0.732532,0.0470905,1.1013739999999999,-0.730372,0.0373145
117,1.0028769999999998,0.745798,0.057289,0.812932,0.489958,0.022245,0.6345419999999999,0.532508,0.041506,1.167982,0.491828,-0.0025559999999999,1.346802,0.5702579999999999,-0.0129419999999999,0.786632,0.694448,0.034133,1.200802,0.7015779999999999,-0.0069709999999999,0.927202,-0.002443,0.000564,1.072798,0.002443,-0.0005639999999999,0.932772,-0.418292,0.040405,1.08713,-0.389812,0.03493,0.937793,-0.7331120000000001,0.048759,1.097282,-0.730202,0.039725
118,1.0035895,0.7458805,0.057642,0.8140925,0.4897604999999999,0.023209,0.6377125,0.5267705,0.04158,1.1701425,0.4915404999999999,-0.0028259999999999,1.3472425000000001,0.5688105,-0.013675,0.7829125,0.6918805,0.03452,1.1988525,0.7018705,-0.006487,0.9272825000000001,-0.0023835,0.001074,1.0727175,0.0023834999999999,-0.0010739999999999,0.9306125000000001,-0.4186295,0.042086,1.0850025,-0.3901895,0.036612,0.9341695,-0.7333795000000001,0.050416,1.0939575,-0.7299395000000001,0.042068
119,1.0041274999999998,0.744171,0.057615,0.8152985,0.489541,0.0241319999999999,0.6404785,0.519691,0.040782,1.1713185,0.4914010000000001,-0.002069,1.3478785,0.565021,-0.011822,0.7806385,0.6883910000000001,0.033684,1.2010885,0.6992510000000001,-0.007157,0.9273285,-0.0023059999999999,0.0015739999999999,1.0726715,0.002306,-0.001574,0.9284545,-0.4186189999999999,0.0438729999999999,1.0828815,-0.389819,0.0384,0.9310445,-0.733039,0.052189,1.0910595,-0.729259,0.044334
120,1.0042959999999999,0.7445365,0.0575085,0.817006,0.4890865,0.0250505,0.643546,0.5091865,0.0385975,1.172136,0.4912365000000001,-0.0007164999999999,1.345286,0.5552165,-0.0099224999999999,0.7799860000000001,0.6803265000000001,0.0288695,1.205646,0.6945965000000001,-0.0094115,0.927263,-0.0021465,0.0019545,1.072737,0.0021465,-0.0019545,0.926785,-0.4184135,0.0457345,1.08084,-0.3883735,0.0403125,0.928657,-0.7318835,0.0541004999999999,1.088817,-0.7278635,0.0465745
121,1.0040045,0.745351,0.057144,0.8188655,0.488321,0.0259949999999999,0.6491855,0.4940709999999999,0.0355189999999999,1.1724755,0.4908209999999999,0.0006269999999999,1.3432754999999998,0.537661,-0.0080889999999999,0.7805655,0.668901,0.0203469999999999,1.2133155,0.682491,-0.015192,0.9272665,-0.001926,0.0020809999999999,1.0727335,0.0019259999999999,-0.0020809999999999,0.9254015,-0.4178389999999999,0.047166,1.0789575,-0.386289,0.041774,0.9268945000000001,-0.729889,0.055902,1.0870215,-0.7256790000000001,0.048614
122,1.003215,0.7465324999999999,0.0566345,0.821075,0.4874325,0.0267635,0.655485,0.4727024999999999,0.0301345,1.171595,0.4906425,0.0021885,1.341555,0.5107324999999999,-0.0053515,0.782525,0.6500225,0.0085355,1.219255,0.6610024999999999,-0.0244515,0.927274,-0.0016945,0.0019795,1.072726,0.0016945,-0.0019795,0.9242440000000001,-0.4160875,0.0485845,1.077313,-0.3853375,0.0428945,0.9254530000000001,-0.7273375000000001,0.0576495,1.085399,-0.7229475000000001,0.0505695
123,1.00217,0.7480994999999999,0.0552929999999999,0.823681,0.4863695,0.026787,0.664891,0.4489695,0.0237899999999999,1.1706509999999999,0.4906594999999999,0.0037129999999999,1.340191,0.4812695,-0.00103,0.7844409999999999,0.6282495,-0.007003,1.223641,0.6316795,-0.036447,0.927262,-0.0014445,0.0017099999999999,1.072738,0.0014445,-0.00171,0.9234500000000001,-0.4135605,0.0498379999999999,1.0760759999999998,-0.3841805,0.043799,0.924432,-0.7242405000000001,0.05925,1.084216,-0.7197305,0.0523209999999999
124,1.001242,0.749735,0.0535585,0.826735,0.485205,0.0263005,0.677225,0.424645,0.0173195,1.169875,0.490415,0.0052355,1.3351950000000001,0.449265,0.0043805,0.7856550000000001,0.603935,-0.0268385,1.228645,0.593855,-0.0478015,0.927258,-0.001175,0.0013094999999999,1.072742,0.001175,-0.0013094999999999,0.922795,-0.410775,0.0509255,1.075087,-0.383345,0.0446015,0.923647,-0.720815,0.0607525,1.083253,-0.716205,0.0538895
125,1.0004804999999999,0.751275,0.0513619999999999,0.8302775,0.483905,0.0250309999999999,0.6908375,0.397475,0.0095599999999999,1.1694975,0.490275,0.0066569999999999,1.3237475,0.416745,0.0100379999999999,0.7859075,0.577275,-0.049857,1.2334775,0.545485,-0.059659,0.9272505,-0.000909,0.0008859999999999,1.0727495,0.000909,-0.000886,0.9222245,-0.407955,0.0518349999999999,1.0742505,-0.382525,0.045248,0.9230185,-0.717255,0.062153,1.0824325,-0.7125549999999999,0.055352
126,0.9998505000000001,0.7526674999999999,0.0488824999999999,0.8338485000000001,0.4826175,0.0236014999999999,0.7051085,0.3706875,0.0020174999999999,1.1693785,0.4902375,0.0079674999999999,1.3110184999999999,0.3845475,0.0170734999999999,0.7878985000000001,0.5482575,-0.0740755,1.2386285,0.4874175,-0.0690455,0.9272505,-0.0006744999999999,0.0004614999999999,1.0727495,0.0006745,-0.0004615,0.9217435,-0.4053925,0.0525524999999999,1.0733205,-0.3821325,0.0458714999999999,0.9225285,-0.7137025,0.0634224999999999,1.0817415,-0.7089325000000001,0.0566784999999999
127,0.9992535000000001,0.7538745,0.0460045,0.8388795,0.4805145,0.0205025,0.7193195,0.3486645,-0.0064135,1.1693795,0.4901644999999999,0.0092674999999999,1.2981995,0.3523245,0.0236365,0.7918594999999999,0.5191345,-0.1018615,1.2442395,0.4257745,-0.0767215,0.9272235,-0.0004375,2.7499999999999747e-05,1.0727765,0.0004375,-2.7499999999999747e-05,0.9212835,-0.4027655,0.0531345,1.0723435000000001,-0.3819455,0.0464795,0.9221075,-0.7102554999999999,0.0645525,1.0810745,-0.7054255,0.0578685
128,0.9987775,0.7554719999999999,0.043021,0.8441475,0.4783119999999999,0.016986,0.7341375,0.328312,-0.0145819999999999,1.1694675,0.490032,0.010432,1.2853975,0.321822,0.029905,0.7962275,0.490132,-0.128741,1.2460275,0.362222,-0.081361,0.9271655,-0.00015,-0.0004489999999999,1.0728345,0.0001499999999999,0.000449,0.9210235,-0.400028,0.053447,1.0715565,-0.382028,0.046939,0.9218935,-0.707198,0.065357,1.0806555,-0.7023280000000001,0.058739
129,0.9980225000000001,0.7568075,0.039875,0.8492625,0.4760775,0.0130019999999999,0.7483025,0.3118575,-0.021536,1.1695525,0.4901875,0.0115179999999999,1.2724924999999998,0.2976775,0.03601,0.8009225,0.4662175,-0.15201,1.2481225,0.2991975,-0.08377,0.9271065000000001,7.249999999999965e-05,-0.00092,1.0728935,-7.249999999999965e-05,0.0009199999999999,0.9208345,-0.3978025,0.053678,1.0706995,-0.3821225,0.047291,0.9216715,-0.7045225,0.065964,1.0802385,-0.6996425000000001,0.0593879999999999
130,0.997079,0.757709,0.0366725,0.8541170000000001,0.473309,0.0081844999999999,0.759807,0.299959,-0.0282425,1.169517,0.4905689999999999,0.0123104999999999,1.259377,0.2811789999999999,0.0416884999999999,0.8074870000000001,0.444909,-0.1716725,1.250087,0.241999,-0.0832525,0.927042,0.0003009999999999,-0.0012905,1.072958,-0.0003009999999999,0.0012905,0.920629,-0.396161,0.0537345,1.070047,-0.381951,0.0476005,0.921366,-0.702411,0.0664395,1.0798,-0.697561,0.0599245
131,0.9961405,0.7591235,0.033308,0.8585175,0.4707935,0.0033819999999999,0.7686575,0.2946935,-0.032954,1.1693075,0.4908135,0.0126879999999999,1.2459375,0.2738035,0.0441229999999999,0.8146475,0.4311335,-0.188352,1.2519974999999999,0.1933035,-0.082862,0.9269625,0.0004905,-0.001548,1.0730375,-0.0004904999999999,0.001548,0.9203995000000001,-0.3948664999999999,0.053686,1.0693775,-0.3809665,0.047734,0.9210515,-0.7005765,0.066813,1.0793375,-0.6958465,0.060346
132,0.9954585000000001,0.7603655,0.0304865,0.8625455,0.4683155,-0.0010464999999999,0.7742655,0.2919955,-0.0370495,1.1690655,0.4909955,0.0129265,1.2358755,0.2688455,0.0450515,0.8224255,0.4198155,-0.2014874999999999,1.2529854999999999,0.1521954999999999,-0.0828074999999999,0.9268995,0.0006464999999999,-0.0016774999999999,1.0731005,-0.0006464999999999,0.0016775,0.9202855,-0.3934545,0.0535775,1.0687725,-0.3802244999999999,0.0477715,0.9207355000000002,-0.6990145,0.0670615,1.0789065,-0.6942545,0.0606635
133,0.9949580000000001,0.761683,0.0278614999999999,0.866859,0.465513,-0.0059245,0.776949,0.290133,-0.0410835,1.168699,0.491553,0.0131894999999999,1.229249,0.266493,0.0451204999999999,0.8291390000000001,0.411213,-0.2103924999999999,1.251209,0.119723,-0.0830525,0.9268419999999999,0.0007549999999999,-0.0017925,1.073158,-0.000755,0.0017924999999999,0.920096,-0.391757,0.0535714999999999,1.068208,-0.379447,0.0478245,0.920364,-0.697557,0.0673005,1.078359,-0.692787,0.0609635
134,0.9944175,0.7630595,0.0255825,0.8706585,0.4628995,-0.0102125,0.7780185,0.2898295,-0.0437315,1.1683585,0.4922195,0.0134505,1.2286485,0.2649395,0.0453695,0.8344385,0.4060295,-0.2169134999999999,1.2502685,0.0979895,-0.0806735,0.9267865,0.0008105,-0.0019354999999999,1.0732135,-0.0008105,0.0019354999999999,0.9198575,-0.3903805,0.0536945,1.0676104999999998,-0.3779705,0.0479365,0.9199165,-0.6960405,0.0675575,1.0777415,-0.6912305,0.0613085
135,0.9938200000000001,0.7632715,0.0235929999999999,0.874418,0.4602715,-0.014516,0.7784880000000001,0.2898415,-0.045771,1.168268,0.4929215,0.0136569999999999,1.228008,0.2635615,0.0451629999999999,0.838618,0.4039215,-0.222062,1.248898,0.0859675,-0.076262,0.926729,0.0008505,-0.002104,1.073271,-0.0008505,0.0021039999999999,0.919618,-0.3889285,0.053874,1.0669629999999999,-0.3764485,0.0480639999999999,0.91942,-0.6944685,0.067833,1.077072,-0.6896085,0.0616609999999999
136,0.9932115,0.7636015,0.0220609999999999,0.8762865,0.4585115,-0.017125,0.7789065,0.2897415,-0.045809,1.1688865,0.4936815,0.0139899999999999,1.2273165,0.2630415,0.0454229999999999,0.8407665,0.4046214999999999,-0.223631,1.2472465,0.0773245,-0.072471,0.9267105,0.0008894999999999,-0.002265,1.0732895,-0.0008894999999999,0.0022649999999999,0.9193675,-0.3875585,0.0541179999999999,1.0663425,-0.3750585,0.0482159999999999,0.9189445,-0.6929685,0.068131,1.0763685,-0.6881385,0.0620209999999999
137,0.9928015,0.7640195,0.0208275,0.8778875,0.4567995,-0.0195324999999999,0.7790975,0.2895895,-0.0455325,1.1693675,0.4943595,0.0142895,1.2266275,0.2631195,0.0446215,0.8429475000000001,0.4034195,-0.2243745,1.2460875,0.0744904999999999,-0.0692745,0.9267045,0.0009234999999999,-0.0024285,1.0732955,-0.0009234999999999,0.0024285,0.9191035,-0.3864605,0.0543435,1.0656835,-0.3741005,0.0484445,0.9185045000000001,-0.6915205,0.0684285,1.0757024999999998,-0.6867705000000001,0.0623785
138,0.992647,0.7643344999999999,0.0197715,0.879122,0.4553645,-0.0216465,0.7793019999999999,0.2892645,-0.0453135,1.169922,0.4948145,0.0145285,1.226822,0.2630645,0.0422015,0.845102,0.4044045,-0.2258345,1.2459419999999999,0.0734674999999999,-0.0679444999999999,0.9267150000000001,0.0009385,-0.0025545,1.0732849999999998,-0.0009385,0.0025545,0.9188320000000001,-0.3857354999999999,0.0545115,1.065145,-0.3734654999999999,0.0486455,0.9181239999999999,-0.6902955000000001,0.0686665,1.075102,-0.6856055,0.0626975
139,0.9922695000000001,0.764845,0.0187025,0.8820995000000001,0.4536249999999999,-0.0251165,0.7805895,0.2896049999999999,-0.0484685,1.1696295,0.495465,0.0139864999999999,1.2278794999999998,0.2630849999999999,0.0426225,0.8442995,0.392375,-0.2298825,1.2531395,0.071646,-0.0522485,0.9267405,0.000513,-0.0028125,1.0732595,-0.000513,0.0028125,0.9188045,-0.384525,0.0550555,1.0640245,-0.372775,0.0493305,0.9174895000000001,-0.688525,0.0692085,1.0744645,-0.6837150000000001,0.0631515
140,0.9920935,0.764835,0.0182135,0.8821865,0.4530949999999999,-0.0260525,0.7819765000000001,0.289475,-0.0496195,1.1717465,0.4958349999999999,0.0148655,1.2288165,0.262955,0.0391795,0.8470865000000001,0.389805,-0.2295105,1.2521565,0.073739,-0.0583404999999999,0.9268095,0.000725,-0.0029204999999999,1.0731905,-0.000725,0.0029204999999999,0.9180675,-0.383745,0.0551185,1.0640645,-0.371075,0.0487745,0.9171275,-0.688175,0.0692345,1.0735365,-0.683345,0.0634125
141,0.9921745000000001,0.764825,0.017616,0.8822065,0.452925,-0.026435,0.7826265,0.289345,-0.050127,1.1722165,0.496075,0.015014,1.2292565,0.262945,0.035268,0.8526465,0.407935,-0.2373129999999999,1.2498465,0.075807,-0.066213,0.9268545,0.0007769999999999,-0.002903,1.0731455,-0.000777,0.002903,0.9179315000000001,-0.3845449999999999,0.055019,1.0640675,-0.370865,0.048896,0.9171065,-0.6875450000000001,0.069228,1.0725494999999998,-0.682705,0.063651
142,0.992233,0.765055,0.01681,0.8820600000000001,0.452935,-0.0270429999999999,0.78067,0.288765,-0.043217,1.17306,0.496435,0.0153069999999999,1.22893,0.263605,0.0323689999999999,0.85398,0.411775,-0.238183,1.24594,0.076778,-0.072753,0.926875,0.0009989999999999,-0.002998,1.073125,-0.000999,0.002998,0.917528,-0.3839849999999999,0.0547669999999999,1.063994,-0.370715,0.0488969999999999,0.916835,-0.686755,0.069186,1.072222,-0.682325,0.063707
143,0.9920645,0.7651025,0.016824,0.8818255,0.4529625,-0.027086,0.7800355,0.2885925,-0.041272,1.1734955,0.4966125,0.0156159999999999,1.2279455,0.2643325,0.0301649999999999,0.8555055,0.4200925,-0.236763,1.2428455,0.0775125,-0.076383,0.9269695,0.0009845,-0.003036,1.0730305,-0.0009845,0.0030359999999999,0.9182155,-0.3841675,0.054644,1.0642675,-0.3708075,0.049131,0.9166375,-0.6862675,0.069467,1.0718795,-0.6822275,0.064029
144,0.9918895,0.7653795,0.016762,0.8817555,0.4531695,-0.0273419999999999,0.7792654999999999,0.2887794999999999,-0.0392179999999999,1.1733655,0.4964794999999999,0.015238,1.2273055,0.2644995,0.028413,0.8511955,0.3812695,-0.2238389999999999,1.2403255,0.0776425,-0.077279,0.9269475000000001,0.0011665,-0.0030569999999999,1.0730525,-0.0011664999999999,0.003057,0.9187725,-0.3842905,0.054837,1.0642045,-0.3705505,0.04914,0.9165565,-0.6858805,0.069467,1.0723735,-0.6821005,0.06437
145,0.9914865,0.765519,0.0167905,0.8817375000000001,0.453329,-0.0275284999999999,0.7786675000000001,0.288429,-0.0357745,1.1732575,0.496699,0.0152904999999999,1.2265875,0.264419,0.0272565,0.8543375,0.417659,-0.2327615,1.2366774999999999,0.076384,-0.0763115,0.9269445000000001,0.001112,-0.0029894999999999,1.0730555,-0.001112,0.0029894999999999,0.9193285,-0.387101,0.0551225,1.0642265,-0.370101,0.0490675,0.9165255,-0.685211,0.0695725,1.0721935,-0.6812210000000001,0.0642965
