sb224sc-HT22-VT27/4dt907/src/ml-research/a11/datafiles/kinect_good_preprocessed_A9_mediapipe/A138_kinect_mirrored.csv
FrameNo,nose_3d_x,nose_3d_y,nose_3d_z,left_shoulder_3d_x,left_shoulder_3d_y,left_shoulder_3d_z,left_elbow_3d_x,left_elbow_3d_y,left_elbow_3d_z,right_shoulder_3d_x,right_shoulder_3d_y,right_shoulder_3d_z,right_elbow_3d_x,right_elbow_3d_y,right_elbow_3d_z,left_wrist_3d_x,left_wrist_3d_y,left_wrist_3d_z,right_wrist_3d_x,right_wrist_3d_y,right_wrist_3d_z,left_hip_3d_x,left_hip_3d_y,left_hip_3d_z,right_hip_3d_x,right_hip_3d_y,right_hip_3d_z,left_knee_3d_x,left_knee_3d_y,left_knee_3d_z,right_knee_3d_x,right_knee_3d_y,right_knee_3d_z,left_ankle_3d_x,left_ankle_3d_y,left_ankle_3d_z,right_ankle_3d_x,right_ankle_3d_y,right_ankle_3d_z
69,1.0081585,0.7026985,0.033773,0.8563755,0.4808685,0.033553,0.7695655,0.7078884999999999,0.015956,1.1449655,0.4980085,0.059954,1.2462055,0.7114085,0.054761,0.7250255,0.9453485,-0.0025039999999999,1.2937855,0.9456085,0.052518,0.9378245,0.0015915,-0.009507,1.0621755,-0.0015914999999999,0.009507,0.8766455000000001,-0.3693214999999999,0.0048679999999999,1.1209755,-0.3673714999999999,0.005623,0.8531555,-0.7197315000000001,0.030147,1.1290355,-0.7372615,0.0303039999999999
70,1.0080285,0.702763,0.0347755,0.8566675,0.480953,0.0335315,0.7703275,0.708163,0.0172254999999999,1.1444874999999999,0.498493,0.0607695,1.2444475,0.713553,0.0575185,0.7259975000000001,0.945983,0.0003724999999999,1.2908675,0.947383,0.0571044999999999,0.9378765,0.0015869999999999,-0.0096835,1.0621235,-0.0015869999999999,0.0096834999999999,0.8766075,-0.369317,0.0049714999999999,1.1206075,-0.367647,0.0058444999999999,0.8526575000000001,-0.7200869999999999,0.0308214999999999,1.1285474999999998,-0.737607,0.0308274999999999
71,1.0080889999999998,0.702847,0.035572,0.856909,0.480397,0.033429,0.771409,0.707897,0.018144,1.144069,0.498947,0.061451,1.243059,0.715377,0.059231,0.7271890000000001,0.945967,0.002337,1.2880989999999999,0.949477,0.059386,0.937918,0.001585,-0.0098759999999999,1.062082,-0.001585,0.009876,0.876589,-0.369133,0.005086,1.120299,-0.367813,0.005954,0.8522689999999999,-0.720573,0.03138,1.127999,-0.7378929999999999,0.03125
72,1.008235,0.7029960000000001,0.036261,0.857461,0.479926,0.033117,0.772571,0.707446,0.018764,1.143741,0.4993359999999999,0.061982,1.241861,0.717206,0.060596,0.7287710000000001,0.945786,0.00389,1.285331,0.951436,0.06103,0.93793,0.001575,-0.0100009999999999,1.06207,-0.001575,0.010001,0.876531,-0.368924,0.005318,1.120031,-0.367854,0.006022,0.851961,-0.721024,0.031845,1.127531,-0.738074,0.031588
73,1.0083769999999999,0.7032164999999999,0.0369435,0.857767,0.4795465,0.0329755,0.7737769999999999,0.7070665,0.0193795,1.1434669999999998,0.4995664999999999,0.0624135,1.240827,0.7182964999999999,0.0615825,0.731167,0.9454065,0.0051305,1.282427,0.9527965,0.0623225,0.937931,0.0015725,-0.0101044999999999,1.062069,-0.0015724999999999,0.0101045,0.876477,-0.3686435,0.0055475,1.119767,-0.3677935,0.0060275,0.8515969999999999,-0.7213635,0.0322515,1.127007,-0.7381635,0.0319395
74,1.0085454999999999,0.703496,0.0377495,0.8579405,0.479116,0.0330245,0.7751305,0.7067559999999999,0.0200345,1.1431905,0.499786,0.0629175,1.2400505,0.7192259999999999,0.0622735,0.7336505,0.945096,0.0061155,1.2797505,0.954056,0.0630315,0.9379435,0.0015809999999999,-0.0102005,1.0620565,-0.0015809999999999,0.0102005,0.8764205,-0.368344,0.0057984999999999,1.1195005,-0.3676439999999999,0.0060435,0.8512105,-0.721634,0.0327965,1.1264705,-0.7381840000000001,0.0323785
75,1.0087585,0.703828,0.0385815,0.8580665000000001,0.478568,0.0331775,0.7763865,0.706518,0.0206565,1.1430064999999998,0.499978,0.0634095,1.2395665,0.720068,0.0627695,0.7360565,0.944858,0.0068005,1.2774665,0.955258,0.0635565,0.9379635,0.0015989999999999,-0.0102835,1.0620365,-0.001599,0.0102835,0.8763865000000001,-0.368032,0.0060615,1.1192564999999999,-0.367412,0.0060494999999999,0.8508465000000001,-0.721782,0.0333835,1.1259565,-0.738152,0.0328315
76,1.0089694999999999,0.7042075,0.0394085,0.8581105,0.4776275,0.0333725,0.7775305,0.7060375,0.0212105,1.1427805,0.5000375,0.0638725,1.2393105,0.7206475,0.0632335,0.7379105,0.9446175,0.0072305,1.2763505,0.9561875,0.0640335,0.9379725,0.0016135,-0.0103455,1.0620275,-0.0016134999999999,0.0103455,0.8763105,-0.3677224999999999,0.0063184999999999,1.1190105,-0.3670925,0.0060255,0.8504805000000001,-0.7218525,0.0339585,1.1254505,-0.7380424999999999,0.0332655
77,1.0091519999999998,0.7045825,0.040254,0.858069,0.4765525,0.033636,0.778589,0.7054425,0.021698,1.142589,0.4999924999999999,0.064326,1.239059,0.7211425,0.063692,0.7393989999999999,0.9442525,0.007662,1.275379,0.9570625,0.064504,0.937982,0.0016455,-0.0103849999999999,1.062018,-0.0016455,0.0103849999999999,0.876229,-0.3673975,0.006574,1.118769,-0.3667575,0.00601,0.850129,-0.7219075,0.034508,1.124909,-0.7378975,0.033696
78,1.0093145,0.7049270000000001,0.0411334999999999,0.8581345,0.475757,0.0339844999999999,0.7795145,0.7050270000000001,0.0221194999999999,1.1424445,0.499947,0.0647375,1.2377645,0.7183269999999999,0.0641144999999999,0.7395545,0.943997,0.0080954999999999,1.2742944999999999,0.953347,0.0642495,0.9379815,0.001669,-0.0103475,1.0620185,-0.0016689999999999,0.0103474999999999,0.8761345,-0.367163,0.0068014999999999,1.1185245,-0.366423,0.0059604999999999,0.8498045,-0.7219629999999999,0.0350385,1.1243945,-0.737733,0.0341044999999999
79,1.00946,0.7052415,0.0419495,0.8580900000000001,0.4747814999999999,0.0343595,0.78012,0.7044415,0.0224965,1.14237,0.4998915,0.0650235,1.23755,0.7182115,0.0634385,0.73944,0.9434815,0.0080994999999999,1.2737,0.9530815,0.0634325,0.937975,0.0016884999999999,-0.0102744999999999,1.062025,-0.0016885,0.0102744999999999,0.8760600000000001,-0.3669584999999999,0.0069735,1.11831,-0.3660885,0.0059024999999999,0.8495,-0.7219385,0.0355175,1.1239,-0.7375685,0.0344465
80,1.009421,0.7053305000000001,0.0427009999999999,0.85799,0.4737205,0.034642,0.7805,0.7037905,0.0227719999999999,1.14222,0.4998805,0.065288,1.23734,0.7182005,0.062572,0.73933,0.9428505,0.0077399999999999,1.2729,0.9530705,0.062299,0.93797,0.0016865,-0.010159,1.06203,-0.0016865,0.010159,0.8759800000000001,-0.3669694999999999,0.0070529999999999,1.11809,-0.3659395,0.0058199999999999,0.84931,-0.7219495,0.035885,1.12363,-0.7375695,0.034695
81,1.0092439999999998,0.7053305000000001,0.0433065,0.8578060000000001,0.4724605,0.0347965,0.780726,0.7028805,0.0229745,1.142036,0.4998805,0.0654425,1.237616,0.7176505000000001,0.0614165,0.739096,0.9418005,0.0071104999999999,1.272686,0.9571205,0.0606945,0.93797,0.0016865,-0.0100075,1.06203,-0.0016865,0.0100075,0.8758960000000001,-0.3669694999999999,0.0070085,1.117906,-0.3659395,0.0056485,0.849126,-0.7219495,0.0360605,1.123446,-0.7375695,0.0348264999999999
82,1.009104,0.7053305000000001,0.043837,0.85738,0.4712605000000001,0.035166,0.78102,0.7020705,0.023074,1.14189,0.4998805,0.065549,1.23803,0.7170305,0.060182,0.7389300000000001,0.9409205,0.006333,1.27257,0.9566205,0.057407,0.937978,0.0016865,-0.0099029999999999,1.062022,-0.0016865,0.009903,0.87582,-0.3669694999999999,0.006978,1.11775,-0.3659395,0.005507,0.8489800000000001,-0.7219495,0.03619,1.1233,-0.7375695,0.034908
83,1.0090385,0.7054645,0.044188,0.8570685,0.4705545,0.03558,0.7812085,0.7015245,0.023083,1.1417985,0.4998545,0.06557,1.2389985000000001,0.7198945,0.05929,0.7388485,0.9403145,0.005537,1.2730385,0.9596545,0.0548,0.9379775,0.0016914999999999,-0.0098849999999999,1.0620225,-0.0016914999999999,0.0098849999999999,0.8757885,-0.3668955,0.006994,1.1177085,-0.3658055,0.005381,0.8489485,-0.7219055,0.036241,1.1232285,-0.7374355,0.034904
84,1.0090139999999999,0.705606,0.044391,0.856887,0.470446,0.036032,0.7813570000000001,0.701626,0.022992,1.1416870000000001,0.4999159999999999,0.065661,1.239487,0.7198359999999999,0.057428,0.738407,0.940206,0.004708,1.272947,0.959696,0.052024,0.93797,0.0016559999999999,-0.009846,1.06203,-0.001656,0.009846,0.876027,-0.366854,0.006955,1.117857,-0.365544,0.005193,0.849317,-0.721974,0.036227,1.123457,-0.737284,0.034751
85,1.009089,0.7056655,0.0443659999999999,0.856684,0.4703455,0.036333,0.781564,0.7016355,0.0227659999999999,1.141604,0.4999754999999999,0.065672,1.239954,0.7197754999999999,0.0555629999999999,0.737934,0.9400655,0.0038449999999999,1.273284,0.9596155,0.048503,0.937962,0.0016235,-0.009729,1.062038,-0.0016235,0.0097289999999999,0.876274,-0.3668345,0.0068339999999999,1.118014,-0.3653645,0.0049379999999999,0.8497040000000001,-0.7220345,0.036112,1.123704,-0.7371745000000001,0.034496
86,1.009112,0.705544,0.0441564999999999,0.8566819999999999,0.470414,0.0361245,0.781782,0.7015939999999999,0.0224124999999999,1.141622,0.500194,0.0655985,1.240342,0.719944,0.0538644999999999,0.7373620000000001,0.939864,0.0031064999999999,1.2740719999999999,0.959694,0.0450485,0.937959,0.001573,-0.0095205,1.062041,-0.0015729999999999,0.0095204999999999,0.876537,-0.366786,0.0066214999999999,1.118172,-0.365266,0.0045984999999999,0.850122,-0.722156,0.0358965,1.123992,-0.737106,0.0341405
87,1.009112,0.7052805,0.0439214999999999,0.856652,0.4702204999999999,0.0359084999999999,0.781982,0.7015604999999999,0.0219804999999999,1.141662,0.5004005,0.0655065,1.2407119999999998,0.7201105,0.0523174999999999,0.736822,0.9396105,0.0022564999999999,1.275002,0.9597205,0.0421995,0.937957,0.0014795,-0.0092865,1.062043,-0.0014795,0.0092864999999999,0.876799,-0.3668395,0.0064814999999999,1.118332,-0.3652495,0.0042564999999999,0.850522,-0.7223295000000001,0.0356495,1.124272,-0.7371095,0.0337434999999999
88,1.0090999999999999,0.704918,0.0435874999999999,0.856621,0.469978,0.0356185,0.782211,0.701348,0.0213044999999999,1.141681,0.500628,0.0653275,1.239821,0.716048,0.0519964999999999,0.7364109999999999,0.939348,0.0011904999999999,1.274951,0.955678,0.0400644999999999,0.937942,0.001362,-0.0091035,1.062058,-0.001362,0.0091034999999999,0.877053,-0.366892,0.0063184999999999,1.1184809999999998,-0.3652519999999999,0.0038234999999999,0.8509010000000001,-0.722502,0.0352764999999999,1.124541,-0.737132,0.0332395
89,1.0092489999999998,0.7043710000000001,0.0429655,0.856608,0.4697109999999999,0.0352265,0.782558,0.7012010000000001,0.0202835,1.141678,0.500861,0.0651585,1.239188,0.716551,0.0507125,0.736008,0.939061,-0.0001484999999999,1.275758,0.956041,0.0379955,0.937928,0.001255,-0.0089974999999999,1.062072,-0.0012549999999999,0.0089974999999999,0.877311,-0.366939,0.0060855,1.1186180000000001,-0.365249,0.0032375,0.8512580000000001,-0.7226889999999999,0.0347485,1.124798,-0.737159,0.0326155
90,1.0095969999999999,0.703508,0.0416425,0.8565310000000002,0.469378,0.0346804999999999,0.782721,0.700918,0.0189494999999999,1.141581,0.501158,0.0648145,1.238441,0.717068,0.0493754999999999,0.735601,0.938548,-0.0022394999999999,1.275891,0.956558,0.0355675,0.937892,0.001154,-0.0090835,1.062108,-0.001154,0.0090835,0.877541,-0.366912,0.0059794999999999,1.118731,-0.365212,0.0023764999999999,0.851541,-0.7228519999999999,0.0339784999999999,1.1249909999999999,-0.737192,0.0317635
91,1.0100585,0.7023825,0.0398359999999999,0.8564685,0.4689325,0.0340279999999999,0.7827985,0.7005425,0.0175599999999999,1.1414185,0.5014825,0.0643639999999999,1.2371485,0.7145025,0.0485909999999999,0.7351384999999999,0.9379725,-0.004475,1.2753885,0.9540525,0.0333829999999999,0.9378605,0.0010555,-0.009295,1.0621395,-0.0010555,0.0092949999999999,0.8777465,-0.3668275,0.0058209999999999,1.1188185,-0.3651875,0.0013519999999999,0.8517985,-0.7230075,0.0330629999999999,1.1251685,-0.7372275,0.0307779999999999
92,1.010681,0.700029,0.036794,0.856412,0.467999,0.033247,0.782842,0.699659,0.0161539999999999,1.141292,0.5018090000000001,0.0638239999999999,1.235952,0.714829,0.04661,0.734762,0.936919,-0.006765,1.274542,0.954379,0.031277,0.93783,0.000836,-0.00949,1.0621699999999998,-0.0008359999999999,0.0094899999999999,0.8779770000000001,-0.366581,0.005703,1.118912,-0.3651109999999999,0.000285,0.8519220000000001,-0.723081,0.0321619999999999,1.125252,-0.737291,0.02973
93,1.0112759999999998,0.6972499999999999,0.032829,0.856144,0.4666899999999999,0.03249,0.7828539999999999,0.69844,0.014848,1.141094,0.50185,0.063173,1.235894,0.71949,0.044598,0.734494,0.9357,-0.008922,1.2743039999999999,0.95884,0.029325,0.937785,0.000822,-0.0098349999999999,1.062215,-0.0008219999999999,0.009835,0.8779370000000001,-0.36654,0.005692,1.118774,-0.36509,-0.0005729999999999,0.851704,-0.72304,0.031307,1.125024,-0.73726,0.028816
94,1.011935,0.694133,0.0283264999999999,0.855946,0.465483,0.0316825,0.7827660000000001,0.697323,0.0135755,1.140856,0.501893,0.0625125,1.235836,0.722753,0.0425484999999999,0.734206,0.934593,-0.0110504999999999,1.274036,0.962063,0.0275965,0.937743,0.000801,-0.0102975,1.062257,-0.0008009999999999,0.0102975,0.8778690000000001,-0.366497,0.0056524999999999,1.118616,-0.365067,-0.0014535,0.851456,-0.722997,0.0304284999999999,1.124796,-0.737217,0.0279285
95,1.0127035,0.6908464999999999,0.0229854999999999,0.8556995000000001,0.4643265,0.0307284999999999,0.7826095,0.6962765,0.0121864999999999,1.1405495,0.5019965,0.0616984999999999,1.2355695,0.7238064999999999,0.0407815,0.7338795,0.9335865,-0.0133215,1.2733794999999999,0.9631065,0.0258324999999999,0.9377135,0.0007725,-0.0108815,1.0622865,-0.0007724999999999,0.0108814999999999,0.8777395,-0.3664535,0.0055834999999999,1.1184095,-0.3650434999999999,-0.0024845,0.8511495,-0.7229535,0.0293984999999999,1.1244895,-0.7371735,0.0268984999999999
96,1.0136174999999998,0.6872545000000001,0.0173875,0.8554405,0.4632445,0.0295125,0.7824205,0.6952244999999999,0.0107755,1.1403505,0.5023845,0.0607455,1.2346405,0.7245845,0.0394295,0.7337705,0.9324545,-0.0155215,1.2722505,0.9639745,0.0238425,0.9376995,0.0005944999999999,-0.0113684999999999,1.0623005,-0.0005945,0.0113685,0.8775755000000001,-0.3660855,0.0053675,1.1181805,-0.3651355,-0.0036184999999999,0.8507605,-0.7228355,0.0283015,1.1240805,-0.7372255000000001,0.0257545
97,1.0144965,0.6835815000000001,0.0116905,0.8551555,0.4622215,0.0283335,0.7821855,0.6942015,0.0094945,1.1401555,0.5028015,0.0597945,1.2337055,0.7253815,0.0382315,0.7337055,0.9313615,-0.0175754999999999,1.2706855,0.9647615,0.0219445,0.9377035,0.0004254999999999,-0.0117644999999999,1.0622965,-0.0004255,0.0117645,0.8774135,-0.3657085,0.0051115,1.1179855,-0.3651585,-0.0046684999999999,0.8503655,-0.7226684999999999,0.0272015,1.1236855000000001,-0.7372385,0.0245925
98,1.015242,0.6800665,0.006121,0.854801,0.4610365,0.027263,0.781971,0.6930165,0.008422,1.1399110000000001,0.5030965000000001,0.058777,1.232731,0.7261965,0.037138,0.733671,0.9301865,-0.0193329999999999,1.269151,0.9656965,0.020071,0.937703,0.0002645,-0.012079,1.062297,-0.0002645,0.012079,0.877259,-0.3652535,0.004934,1.117841,-0.3651035,-0.005474,0.8499909999999999,-0.7224434999999999,0.026174,1.123341,-0.7372035,0.023551
99,1.0157985,0.676711,0.0008954999999999,0.8546075,0.4602309999999999,0.0262304999999999,0.7818275,0.692251,0.0073314999999999,1.1397074999999999,0.503381,0.0577855,1.2318075,0.727011,0.0357754999999999,0.7335675000000001,0.929451,-0.0205375,1.2675675,0.966531,0.0178264999999999,0.9377265000000001,0.000137,-0.0121795,1.0622734999999999,-0.0001369999999999,0.0121794999999999,0.8771075,-0.364759,0.0045794999999999,1.1177275,-0.365079,-0.0058885,0.8496075000000001,-0.722189,0.0253614999999999,1.1230475,-0.737139,0.0225674999999999
100,1.0162555,0.6735265,-0.0040494999999999,0.8544255000000001,0.4595765,0.0252025,0.7817255000000001,0.6916165,0.0062835,1.1395455,0.5036465,0.0567965,1.2316155,0.7276265000000001,0.0342595,0.7334455,0.9288265,-0.0217624999999999,1.2661655,0.9672565,0.0154175,0.9377475,2.1500000000000685e-05,-0.0120935,1.0622525,-2.1500000000000685e-05,0.0120935,0.8769665,-0.3642835,0.0041825,1.1176555,-0.3651435,-0.0062224999999999,0.8492554999999999,-0.7219335,0.0246045,1.1228455,-0.7370734999999999,0.0215875
101,1.0165975,0.6713515,-0.0078385,0.8542255,0.4592715,0.0244425,0.7815455,0.6913115000000001,0.0053634999999999,1.1393955,0.5039215,0.0558455,1.2311855,0.7275615000000001,0.0337224999999999,0.7333555,0.9285315,-0.0229715,1.2654255,0.9671915,0.0128794999999999,0.9377695000000001,-7.449999999999818e-05,-0.0120335,1.0622304999999999,7.450000000000512e-05,0.0120334999999999,0.8768255,-0.3638185,0.0037354999999999,1.1176155,-0.3651985,-0.0064505,0.8489255,-0.7216484999999999,0.0239124999999999,1.1226955,-0.7369985,0.0206734999999999
102,1.016953,0.6698605,-0.0106074999999999,0.854073,0.4590305,0.0236984999999999,0.781453,0.6910904999999999,0.0045934999999999,1.139293,0.5041605,0.0549474999999999,1.230283,0.7246905,0.0331334999999999,0.733313,0.9283005,-0.0241615,1.264683,0.9643205,0.0101295,0.9378,-0.0001564999999999,-0.0118985,1.0622,0.0001564999999999,0.0118985,0.8767300000000001,-0.3634295,0.0032704999999999,1.117623,-0.3652695,-0.0064775,0.848643,-0.7213595,0.0233104999999999,1.122593,-0.7369495,0.0198044999999999
103,1.0172565,0.6687015,-0.0128565,0.8539645000000001,0.4588415,0.0230025,0.7813845,0.6909115,0.0037505,1.1392245,0.5043915,0.0540825,1.2310044999999998,0.7281115,0.0309865,0.7333244999999999,0.9281115,-0.0252825,1.2645945,0.9676515,0.0073405,0.9378285,-0.0002254999999999,-0.0116474999999999,1.0621715,0.0002255,0.0116475,0.8766685,-0.3631085,0.0028115,1.1176545,-0.3653385,-0.0063284999999999,0.8484045,-0.7210585,0.0227285,1.1225245,-0.7368885,0.0190045
104,1.017442,0.6678545,-0.0142745,0.8539019999999999,0.4586845,0.0224604999999999,0.781372,0.6907945,0.0029744999999999,1.1392120000000001,0.5044145,0.0533535,1.230972,0.7283745,0.0289574999999999,0.733402,0.9279745,-0.0260815,1.2645520000000001,0.9680245,0.0050494999999999,0.9378340000000001,-0.0001984999999999,-0.0112785,1.062166,0.0001985,0.0112784999999999,0.876646,-0.3631155,0.0023874999999999,1.117752,-0.3653655,-0.0060195,0.848322,-0.7209855,0.0221914999999999,1.122562,-0.7369055,0.0184454999999999
105,1.0175835,0.6671999999999999,-0.0155144999999999,0.8539395000000001,0.45866,0.0219805,0.7814295,0.69078,0.0021985,1.1392395,0.5044099999999999,0.0526775,1.2310195,0.72847,0.0270075,0.7335495000000001,0.92797,-0.0269665,1.2645195,0.96809,0.0028525,0.9378395,-0.000178,-0.0109255,1.0621604999999998,0.0001779999999999,0.0109255,0.8765615,-0.36312,0.0020215,1.1177595,-0.36544,-0.0057695,0.8482295,-0.72087,0.0216655,1.1224794999999999,-0.73689,0.0179575
106,1.0176665,0.6667295,-0.016502,0.8539885,0.4586895,0.0216029999999999,0.7815185,0.6908595000000001,0.0015049999999999,1.1392685,0.5043895,0.052081,1.2314185,0.7284395,0.025743,0.7337085,0.9280495,-0.027974,1.2651485,0.9680595,0.0003879999999999,0.9378445,-0.0001524999999999,-0.010604,1.0621555,0.0001524999999999,0.0106039999999999,0.8764735,-0.3631405,0.0016989999999999,1.1177585,-0.3655104999999999,-0.005517,0.8481485000000001,-0.7207804999999999,0.02119,1.1223785,-0.7368804999999999,0.0175509999999999
107,1.017755,0.6663990000000001,-0.0173369999999999,0.85402,0.4587189999999999,0.021226,0.78163,0.6908890000000001,0.000797,1.13931,0.5044390000000001,0.051505,1.23182,0.7282190000000001,0.024506,0.73387,0.928039,-0.029004,1.26573,0.967589,-0.0018649999999999,0.93786,-0.0001229999999999,-0.0103149999999999,1.06214,0.0001229999999999,0.010315,0.876405,-0.363111,0.001347,1.1177899999999998,-0.365701,-0.0053969999999999,0.84808,-0.720621,0.020675,1.1224,-0.736831,0.017127
108,1.0180604999999998,0.6662215,-0.018018,0.8541495,0.4587214999999999,0.020887,0.7818895,0.6908915,4.000000000000184e-05,1.1396395,0.5044614999999999,0.050965,1.2327395,0.7280115,0.023232,0.7342394999999999,0.9280015,-0.030264,1.2668694999999999,0.9671915,-0.0036339999999999,0.9378475,-7.050000000000112e-05,-0.0100519999999999,1.0621525,7.049999999999418e-05,0.010052,0.8762165,-0.3631085,0.000972,1.1178895,-0.3657985,-0.0054579999999999,0.8478595,-0.7204085,0.020006,1.1225195000000001,-0.7367785,0.016722
109,1.018277,0.6661090000000001,-0.0185895,0.854265,0.4586989999999999,0.0206295,0.782065,0.6908690000000001,-0.0006235,1.139985,0.504439,0.0505204999999999,1.233645,0.727799,0.0220744999999999,0.734395,0.927889,-0.0315545,1.268195,0.966269,-0.0058304999999999,0.937821,-1.6999999999996185e-05,-0.0098674999999999,1.062179,1.7000000000003124e-05,0.0098674999999999,0.876023,-0.363131,0.0006964999999999,1.117965,-0.365911,-0.0054735,0.847655,-0.720221,0.0194594999999999,1.122635,-0.736731,0.0164045
110,1.0185185,0.6660755,-0.0191729999999999,0.8544404999999999,0.4586654999999999,0.020343,0.7822205,0.6908255,-0.0013479999999999,1.1403805,0.5044055,0.050045,1.2345404999999998,0.7275255,0.020863,0.7345505,0.9277655,-0.033038,1.2698505,0.9656355,-0.008584,0.9377885,3.649999999999487e-05,-0.009646,1.0622115,-3.650000000000181e-05,0.009646,0.8758535,-0.3632045,0.00041,1.1180505,-0.3660445,-0.005532,0.8474805,-0.7200745,0.018909,1.1228005,-0.7366945,0.016073
111,1.0187125,0.6660405,-0.0196404999999999,0.8546145,0.4586804999999999,0.0201604999999999,0.7823945000000001,0.6907905,-0.0019734999999999,1.1407945,0.5043704999999999,0.0496184999999999,1.2353645,0.7272405,0.0197885,0.7347045,0.9276805,-0.0343635,1.2709545,0.9651005,-0.0114035,0.9377605000000001,9.55000000000053e-05,-0.0093724999999999,1.0622395,-9.549999999999836e-05,0.0093724999999999,0.8756945,-0.3633195,0.0001985,1.1181145,-0.3661995,-0.0055064999999999,0.8473245,-0.7199195,0.0184785,1.1229845,-0.7366495,0.0158465
112,1.0188689999999998,0.6660115000000001,-0.0199,0.85478,0.4587115,0.020082,0.7825500000000001,0.6907415,-0.002552,1.1411799999999999,0.5043115,0.049309,1.23617,0.7268815000000001,0.018817,0.73485,0.9276015,-0.035768,1.27196,0.9644715,-0.014357,0.937721,0.0001514999999999,-0.009119,1.062279,-0.0001514999999999,0.0091189999999999,0.875508,-0.3634385,-4.000000000000531e-06,1.11816,-0.3662685,-0.0055,0.84717,-0.7198085,0.018187,1.1231399999999998,-0.7366085,0.0157059999999999
113,1.01898,0.6660225,-0.020042,0.854904,0.4587825,0.0200359999999999,0.782654,0.6907125000000001,-0.003085,1.1415440000000001,0.5042525,0.049096,1.236914,0.7264925,0.0178609999999999,0.734834,0.9275125,-0.037229,1.272954,0.9638525,-0.017527,0.9376860000000001,0.0001954999999999,-0.008911,1.062314,-0.0001955,0.0089109999999999,0.87531,-0.3635375,-0.000197,1.118174,-0.3663175,-0.005482,0.846954,-0.7196575000000001,0.0180089999999999,1.123254,-0.7366075000000001,0.0155889999999999
114,1.0190225,0.6662675,-0.0200475,0.8549385,0.4588775,0.0200745,0.7824685,0.6906875,-0.0036974999999999,1.1418485,0.5041575,0.0490535,1.2376185,0.7260675,0.0167575,0.7344984999999999,0.9273375,-0.0389475,1.2740485,0.9628275,-0.0205735,0.9376615,0.0002445,-0.0088735,1.0623385,-0.0002445,0.0088735,0.8751075000000001,-0.3636625,-0.0002314999999999,1.1181085,-0.3663425,-0.0054504999999999,0.8467185,-0.7195825,0.0180035,1.1232785,-0.7366025,0.0155885
115,1.019038,0.6668375000000001,-0.0199594999999999,0.854967,0.4589975,0.0200735,0.782197,0.6907375,-0.0043535,1.142127,0.5040375,0.0489985,1.238287,0.7257675,0.0155094999999999,0.7340170000000001,0.9272175,-0.0406555,1.274827,0.9616175,-0.0232544999999999,0.937647,0.0003044999999999,-0.0088735,1.062353,-0.0003044999999999,0.0088735,0.874911,-0.3637725,-0.0002284999999999,1.1180269999999999,-0.3663525,-0.0054495,0.846467,-0.7195125,0.0180215,1.123247,-0.7366225,0.0156245
116,1.0189875,0.6678775,-0.0196329999999999,0.8549705,0.4591474999999999,0.020124,0.7818305,0.6908375,-0.005066,1.1423905,0.5038975,0.048945,1.2389605,0.7257574999999999,0.014233,0.7333805,0.9271675,-0.042399,1.2755205,0.9622075,-0.0263419999999999,0.9376295,0.0003584999999999,-0.0088229999999999,1.0623705,-0.0003584999999999,0.008823,0.8747165,-0.3638825,-0.0001759999999999,1.1179305,-0.3663625,-0.005398,0.8462005,-0.7194425,0.018069,1.1231205,-0.7365825,0.015685
117,1.0188855,0.6692425,-0.019101,0.8550345,0.4592825,0.020234,0.7813745,0.6909925,-0.005842,1.1424545,0.5038225,0.048861,1.2392145,0.7257925,0.012882,0.7325645000000001,0.9272925,-0.04398,1.2754744999999998,0.9622425,-0.0294649999999999,0.9376285000000001,0.0003934999999999,-0.0087109999999999,1.0623714999999998,-0.0003934999999999,0.008711,0.8747185,-0.3639675,-0.0002239999999999,1.1179344999999998,-0.3663675,-0.0052859999999999,0.8462045,-0.7194075,0.018129,1.1231244999999999,-0.7365475,0.015797
118,1.018769,0.671055,-0.018161,0.8551340000000001,0.459495,0.0204759999999999,0.780844,0.691145,-0.006571,1.142534,0.503695,0.04883,1.239494,0.7254849999999999,0.0115669999999999,0.731634,0.927455,-0.04535,1.275464,0.961575,-0.030709,0.937625,0.000426,-0.0086439999999999,1.062375,-0.0004259999999999,0.0086439999999999,0.8747240000000001,-0.3640649999999999,-0.000187,1.117944,-0.3663649999999999,-0.005045,0.846214,-0.719375,0.0183429999999999,1.123134,-0.736515,0.0160489999999999
119,1.018666,0.673287,-0.016632,0.8552919999999999,0.459777,0.020955,0.780302,0.691287,-0.007042,1.142652,0.503517,0.049038,1.239802,0.725117,0.010829,0.730642,0.927647,-0.046224,1.275502,0.960907,-0.030943,0.9376080000000001,0.000458,-0.0084819999999999,1.062392,-0.000458,0.008482,0.874777,-0.364183,7.100000000000162e-05,1.117992,-0.366373,-0.0046129999999999,0.846272,-0.719343,0.018899,1.123192,-0.736483,0.016621
120,1.0180514999999999,0.676298,-0.0140505,0.8551965,0.460978,0.0210625,0.7791665,0.691898,-0.0072904999999999,1.1427365,0.503138,0.0490995,1.2400865,0.7246279999999999,0.0104515,0.7287465,0.928018,-0.0465345,1.2755065,0.960388,-0.0303365,0.9375845,0.0005039999999999,-0.0083835,1.0624155,-0.000504,0.0083835,0.8749475,-0.364382,0.0007475,1.1181664999999998,-0.366152,-0.0039685,0.8466365,-0.719292,0.0199535,1.1233765,-0.7364120000000001,0.0176535
121,1.0174684999999999,0.679516,-0.01117,0.8552365,0.462456,0.0212599999999999,0.7779865,0.6928859999999999,-0.00735,1.1428965,0.5026660000000001,0.0490319999999999,1.2404065,0.7240960000000001,0.0103389999999999,0.7268265,0.928766,-0.046403,1.2753465,0.959876,-0.029281,0.9375505,0.0005379999999999,-0.00832,1.0624495,-0.000538,0.0083199999999999,0.8751485,-0.364584,0.0015089999999999,1.1183465,-0.365884,-0.003288,0.8470265,-0.719214,0.0211449999999999,1.1235365,-0.7363740000000001,0.0188049999999999
122,1.016788,0.683165,-0.007758,0.8551610000000001,0.464095,0.021723,0.776681,0.693945,-0.007098,1.143101,0.502095,0.049046,1.241141,0.723305,0.010526,0.7248610000000001,0.929595,-0.0456909999999999,1.275371,0.959675,-0.027766,0.93753,0.000576,-0.0082339999999999,1.06247,-0.000576,0.0082339999999999,0.875377,-0.364795,0.0024849999999999,1.118481,-0.365535,-0.002439,0.847411,-0.719125,0.022648,1.123581,-0.736375,0.020253
123,1.01611,0.686743,-0.0041344999999999,0.8550880000000001,0.465723,0.0222115,0.775528,0.695083,-0.0064885,1.143308,0.501533,0.0492085,1.2418779999999998,0.722553,0.0110895,0.723098,0.930523,-0.0443205,1.275758,0.959103,-0.0261624999999999,0.9375200000000001,0.000604,-0.0081624999999999,1.0624799999999999,-0.000604,0.0081625,0.875616,-0.365027,0.0034614999999999,1.118628,-0.365187,-0.0016185,0.847798,-0.718977,0.0241855,1.123578,-0.736337,0.0218105
124,1.01536,0.6903045,-9.050000000000724e-05,0.8549990000000001,0.4671845,0.0229454999999999,0.774429,0.6961545,-0.0055295,1.143559,0.5007444999999999,0.0491454999999999,1.2427489999999999,0.7215444999999999,0.0119504999999999,0.721579,0.9315245,-0.0424665,1.275789,0.9588645,-0.0242545,0.9375200000000001,0.0006255,-0.0081285,1.0624799999999999,-0.0006255,0.0081284999999999,0.875857,-0.3652555,0.0046354999999999,1.118779,-0.3648154999999999,-0.0007325,0.848199,-0.7188655,0.0259424999999999,1.123569,-0.7363655,0.0235754999999999
125,1.0145914999999999,0.693508,0.003924,0.8549005000000001,0.4684979999999999,0.023843,0.7734405,0.697158,-0.0043819999999999,1.1438005,0.499958,0.049299,1.2437005,0.720538,0.012966,0.7203105000000001,0.932508,-0.040427,1.2758705,0.958118,-0.0222279999999999,0.9375215,0.0006389999999999,-0.008056,1.0624785,-0.000639,0.008056,0.8760915000000001,-0.365482,0.0058,1.1189305,-0.364392,8.500000000000174e-05,0.8485905,-0.718602,0.027734,1.1235605,-0.736372,0.025345
126,1.0138575,0.6964994999999999,0.00789,0.8547325,0.4697195,0.024847,0.7725525,0.6981394999999999,-0.0030719999999999,1.1440425,0.4991994999999999,0.049638,1.2447025,0.7195495,0.014181,0.7192324999999999,0.9335295,-0.038343,1.2766325,0.9575295,-0.020012,0.9375235,0.0006275,-0.007952,1.0624765,-0.0006274999999999,0.007952,0.8762945,-0.3657005,0.0070539999999999,1.1190924999999998,-0.3639505,0.000933,0.8489825,-0.7183005,0.029552,1.1235324999999998,-0.7363605000000001,0.027133
127,1.013122,0.6991409999999999,0.011636,0.854556,0.4708509999999999,0.02589,0.7718160000000001,0.699121,-0.0015509999999999,1.1443159999999999,0.4985409999999999,0.050027,1.2458459999999998,0.7185609999999999,0.015434,0.718356,0.934561,-0.036324,1.277566,0.957091,-0.017737,0.937535,0.0006099999999999,-0.0077889999999999,1.062465,-0.0006099999999999,0.0077889999999999,0.876494,-0.365899,0.0082339999999999,1.119296,-0.363489,0.001696,0.849386,-0.7179490000000001,0.031272,1.123506,-0.736279,0.028851
128,1.0125894999999998,0.7015755,0.0152069999999999,0.8543665,0.4719155,0.0268909999999999,0.7713464999999999,0.7001155,-4.200000000000037e-05,1.1446265,0.4979455,0.050378,1.2472965,0.7175155,0.0165629999999999,0.7178765,0.9356155,-0.034449,1.2786465,0.9565955,-0.015274,0.9375555,0.0005964999999999,-0.007667,1.0624445,-0.0005964999999999,0.0076669999999999,0.8766245,-0.3660745,0.009304,1.1194765,-0.3630045,0.0022379999999999,0.8497165,-0.7175245,0.03283,1.1235365,-0.7361745,0.0303609999999999
129,1.01248,0.7032895,0.0179215,0.854244,0.4721195,0.0283335,0.771454,0.7005595,0.0013965,1.144994,0.4975695,0.0510335,1.248824,0.7166095,0.0175015,0.7180139999999999,0.9361695,-0.0328605,1.279614,0.9561695,-0.0131164999999999,0.937564,0.0005565,-0.0075374999999999,1.062436,-0.0005565,0.0075375,0.87675,-0.3661305,0.0100285,1.1196139999999999,-0.3628205,0.0025645,0.849864,-0.7173205,0.0340815,1.123614,-0.7360605,0.0315555
130,1.012463,0.7047935,0.0204164999999999,0.8546,0.4728135,0.0294965,0.7716000000000001,0.7010135,0.0027294999999999,1.14533,0.4972935,0.0519064999999999,1.24999,0.7157935,0.0188514999999999,0.71816,0.9365735,-0.0312314999999999,1.2805900000000001,0.9557535,-0.0114795,0.937571,0.0005264999999999,-0.0073685,1.062429,-0.0005264999999999,0.0073685,0.8768850000000001,-0.3661864999999999,0.0106814999999999,1.1197599999999999,-0.3626765,0.0028434999999999,0.85002,-0.7171265,0.0352605,1.1237,-0.7359065,0.0327085
131,1.012527,0.70581,0.0225439999999999,0.8548450000000001,0.4734099999999999,0.0305529999999999,0.771695,0.70156,0.0038639999999999,1.145585,0.49716,0.052814,1.251065,0.71513,0.0195339999999999,0.7182650000000002,0.93707,-0.029752,1.281685,0.95504,-0.010359,0.937598,0.0005069999999999,-0.007259,1.062402,-0.000507,0.0072589999999999,0.876969,-0.36623,0.0110839999999999,1.119875,-0.36252,0.0029589999999999,0.850115,-0.71692,0.0361999999999999,1.1236849999999998,-0.7357400000000001,0.0336379999999999
132,1.012597,0.706772,0.0245269999999999,0.854739,0.473792,0.031594,0.771749,0.701952,0.004836,1.145779,0.4970219999999999,0.053604,1.2522389999999999,0.714492,0.0201709999999999,0.7185790000000001,0.937462,-0.028351,1.283409,0.954352,-0.009413,0.937612,0.000495,-0.007188,1.0623879999999999,-0.0004949999999999,0.007188,0.876901,-0.366208,0.0114579999999999,1.1199089999999998,-0.362288,0.0030129999999999,0.8501190000000001,-0.716528,0.0370669999999999,1.123399,-0.735608,0.0344239999999999
133,1.012632,0.7074755,0.026001,0.854661,0.4736555,0.032438,0.771921,0.7021255,0.005554,1.145911,0.4971154999999999,0.054274,1.253231,0.7131255,0.020538,0.719151,0.9377855,-0.0272889999999999,1.284741,0.9529255,-0.009034,0.937625,0.0004814999999999,-0.0070939999999999,1.062375,-0.0004815,0.007094,0.876804,-0.3661745,0.011721,1.119921,-0.3620645,0.002992,0.850091,-0.7160645,0.037652,1.123101,-0.7354745,0.034951
134,1.012652,0.7080759999999999,0.0272924999999999,0.854699,0.473896,0.0330535,0.772319,0.702356,0.0062164999999999,1.146029,0.4971759999999999,0.0547924999999999,1.2543389999999999,0.711816,0.0208144999999999,0.719949,0.938166,-0.0264505,1.285889,0.951576,-0.0088435,0.937626,0.000475,-0.0070165,1.062374,-0.0004749999999999,0.0070164999999999,0.876722,-0.366164,0.0119624999999999,1.1199189999999999,-0.361854,0.0029684999999999,0.850049,-0.715614,0.0380984999999999,1.1228690000000001,-0.735364,0.0353804999999999
135,1.0127505,0.708593,0.0283955,0.8549645,0.474333,0.0334725,0.7728545,0.702753,0.0067345,1.1461545,0.497193,0.0551215,1.2555945,0.710713,0.0209505,0.7209145,0.938683,-0.0258875,1.2871345,0.950453,-0.0089305,0.9376275000000001,0.000495,-0.0069335,1.0623725,-0.000495,0.0069335,0.8766495,-0.366177,0.0120745,1.1199545,-0.361697,0.0028494999999999,0.8500145,-0.715187,0.0383655,1.1226744999999998,-0.735267,0.0356575
136,1.0129665,0.7090155,0.0292855,0.8550115,0.4744255,0.0339815,0.7734415,0.7028455,0.0071145,1.1462215,0.4972155,0.0556635,1.2567515,0.7097754999999999,0.0209595,0.7218015,0.9387755,-0.0255534999999999,1.2882815,0.9493855,-0.0091574999999999,0.9376445000000001,0.0005165,-0.0068295,1.0623554999999998,-0.0005164999999999,0.0068295,0.8765715000000001,-0.3661545,0.0121544999999999,1.1200215,-0.3615845,0.0026785,0.8499515,-0.7147945,0.0385425,1.1224715,-0.7351645,0.0358215
137,1.013293,0.709216,0.029841,0.855362,0.474376,0.034343,0.773982,0.703056,0.0073809999999999,1.146312,0.497156,0.056011,1.2578719999999999,0.709066,0.020856,0.722662,0.939086,-0.025379,1.2893119999999998,0.948576,-0.009519,0.937666,0.0005389999999999,-0.006761,1.062334,-0.000539,0.006761,0.8764730000000001,-0.366164,0.012164,1.120132,-0.3615339999999999,0.0025529999999999,0.849852,-0.714504,0.038598,1.122272,-0.7351139999999999,0.035871
138,1.0136349999999998,0.7093655,0.0303454999999999,0.855959,0.4746055,0.0346205,0.774489,0.7034455000000001,0.0076524999999999,1.146409,0.4970755,0.0562694999999999,1.258789,0.7083755,0.0208574999999999,0.7234690000000001,0.9395555,-0.0252865,1.290329,0.9477655,-0.0099385,0.937676,0.0005664999999999,-0.0067315,1.062324,-0.0005665,0.0067314999999999,0.876357,-0.3661945,0.0121834999999999,1.120239,-0.3615045,0.0024234999999999,0.849709,-0.7142445,0.0386295,1.122069,-0.7350844999999999,0.0358885
139,1.0140505,0.7094855,0.030879,0.8565045,0.4750155,0.034943,0.7750245,0.7038755,0.007862,1.1464645,0.4970755,0.056499,1.2596445,0.7078555,0.020756,0.7243145000000001,0.9400755,-0.025188,1.2915045,0.9471855,-0.0104339999999999,0.9376805,0.0005664999999999,-0.006716,1.0623195,-0.0005665,0.006716,0.8762235,-0.3661945,0.0122019999999999,1.1203345,-0.3614545,0.0023579999999999,0.8495345,-0.7139845,0.038648,1.1218445,-0.7350544999999999,0.0359079999999999
140,1.0143404999999999,0.7095855,0.031353,0.8570345,0.4754755,0.035331,0.7754544999999999,0.7044255,0.008095,1.1464345,0.4970855,0.05668,1.2603745,0.7074555,0.020664,0.7249345,0.9407055,-0.025078,1.2924645,0.9467255,-0.0108469999999999,0.9376675,0.0005664999999999,-0.006716,1.0623325,-0.0005665,0.006716,0.8760935,-0.3661945,0.012204,1.1204045,-0.3614444999999999,0.002338,0.8494045,-0.7137745,0.03865,1.1216845,-0.7350245,0.03591
141,1.0146024999999999,0.709618,0.0317249999999999,0.8574745,0.4759479999999999,0.03573,0.7758645,0.704998,0.0083149999999999,1.1463545,0.497088,0.056836,1.2608345,0.707078,0.0205659999999999,0.7256545,0.941338,-0.024977,1.2930345,0.946308,-0.011122,0.9376465,0.000574,-0.006678,1.0623535,-0.0005739999999999,0.0066779999999999,0.8759025,-0.366202,0.0121699999999999,1.1204645,-0.361442,0.0022999999999999,0.8492045,-0.713582,0.0386459999999999,1.1214645,-0.734992,0.0358999999999999
142,1.014859,0.7096499999999999,0.0320825,0.857576,0.47602,0.0360905,0.7763260000000001,0.7051499999999999,0.0085655,1.146276,0.49698,0.0569635,1.261256,0.7068700000000001,0.0205115,0.7264459999999999,0.94156,-0.0248434999999999,1.293526,0.94611,-0.0112895,0.937626,0.000611,-0.0066195,1.062374,-0.000611,0.0066195,0.875709,-0.3664,0.0121485,1.120516,-0.36147,0.0022404999999999,0.8490260000000001,-0.7133799999999999,0.0386595,1.121276,-0.73499,0.0358715
143,1.0150975,0.709653,0.03233,0.8576255,0.4759829999999999,0.036369,0.7767755000000001,0.7052229999999999,0.0087499999999999,1.1462055,0.496903,0.057051,1.2614355,0.706663,0.0204379999999999,0.7272655,0.941723,-0.024729,1.2939455,0.945903,-0.011461,0.9375975,0.00063,-0.006563,1.0624025,-0.0006299999999999,0.0065629999999999,0.8755605,-0.366687,0.012176,1.1205855,-0.361487,0.0021279999999999,0.8488555,-0.713227,0.0386699999999999,1.1210755,-0.7349870000000001,0.0357949999999999
144,1.0153085,0.7096229999999999,0.0325245,0.8575335,0.4757729999999999,0.0366315,0.7771835,0.705163,0.0089584999999999,1.1461635000000001,0.496853,0.0571025,1.2613735,0.706453,0.0203704999999999,0.7280535,0.941743,-0.0246495,1.2941135,0.945693,-0.0115905,0.9375715,0.0006569999999999,-0.0065265,1.0624285,-0.0006569999999999,0.0065264999999999,0.8754385,-0.366977,0.0122315,1.1206535,-0.361477,0.0020074999999999,0.8487135,-0.7131270000000001,0.0386645,1.1209334999999998,-0.734947,0.0357025
145,1.0155485,0.7096155000000001,0.032703,0.8573145,0.4753755,0.036834,0.7776045,0.7050455000000001,0.009115,1.1461645,0.4968255,0.057122,1.2613145000000001,0.7069255000000001,0.020209,0.7288645,0.9417055,-0.024564,1.2942445,0.9461455,-0.0117559999999999,0.9375325,0.0006794999999999,-0.0064899999999999,1.0624675,-0.0006794999999999,0.00649,0.8753475,-0.3672445,0.0122239999999999,1.1207544999999999,-0.3614445,0.001861,0.8486245,-0.7130344999999999,0.038615,1.1208144999999998,-0.7349144999999999,0.035573
146,1.0157695,0.7095965,0.0328305,0.8572535,0.4751065,0.0370045,0.7780535,0.7048565,0.0092505,1.1461735,0.4967965,0.0570865,1.2612535,0.7073665,0.0200155,0.7295935,0.9415465,-0.0244854999999999,1.2943135,0.9465665,-0.0119514999999999,0.9374915,0.0007025,-0.0064744999999999,1.0625085,-0.0007025,0.0064745,0.8752895,-0.3675135,0.0122345,1.1208235,-0.3614635,0.0017315,0.8485635000000001,-0.7130135,0.0385565,1.1207435,-0.7348835,0.0354225
147,1.016019,0.7095485,0.032922,0.857246,0.4749085,0.037128,0.778506,0.7046585000000001,0.009341,1.146206,0.4968085,0.056972,1.2612359999999998,0.7075885000000001,0.019764,0.730246,0.9413485,-0.024471,1.294346,0.9467885,-0.012081,0.937479,0.0007164999999999,-0.006469,1.062521,-0.0007165,0.006469,0.875275,-0.3678114999999999,0.012149,1.120866,-0.3615414999999999,0.001606,0.848556,-0.7130515,0.038426,1.120716,-0.7348414999999999,0.035188
148,1.0162179999999998,0.709508,0.0329379999999999,0.857251,0.474698,0.0371779999999999,0.778801,0.7044480000000001,0.009346,1.146251,0.496708,0.056835,1.261231,0.707708,0.0195189999999999,0.730711,0.941138,-0.024518,1.294341,0.946998,-0.012198,0.937479,0.000745,-0.006439,1.062521,-0.000745,0.006439,0.875273,-0.368112,0.0120089999999999,1.120861,-0.361712,0.0014539999999999,0.848561,-0.713152,0.038241,1.120701,-0.734792,0.0349219999999999
149,1.0163719999999998,0.709486,0.0329055,0.856835,0.474086,0.0371085,0.778965,0.7040959999999999,0.0092794999999999,1.146275,0.496716,0.0566755,1.261215,0.7076859999999999,0.0192535,0.731015,0.940816,-0.0246175,1.294335,0.947026,-0.0123115,0.93748,0.000753,-0.0063985,1.06252,-0.0007529999999999,0.0063985,0.875246,-0.3684639999999999,0.0118315,1.120855,-0.3619139999999999,0.0013224999999999,0.848565,-0.713364,0.0379785,1.120685,-0.734734,0.0345505
150,1.0164,0.7094805000000001,0.0327175,0.856468,0.4737305,0.0368705,0.778988,0.7039605,0.0090735,1.1463079999999999,0.4967904999999999,0.0564345,1.260958,0.7082305,0.0189335,0.7310380000000001,0.9406805,-0.0248294999999999,1.294368,0.9475905,-0.0124984999999999,0.937451,0.0007554999999999,-0.0063264999999999,1.062549,-0.0007555,0.0063265,0.875196,-0.3685695,0.0115265,1.1208879999999999,-0.3619195,0.0011175,0.848598,-0.7133594999999999,0.0375005,1.1207179999999999,-0.7346495,0.0340665
151,1.0166155,0.7094805000000001,0.0322665,0.8562985000000001,0.4734204999999999,0.0363675,0.7792085,0.7038205000000001,0.0085835,1.1465185,0.4968204999999999,0.0558975,1.2607585000000001,0.7086305,0.0183435,0.7312585,0.9405705,-0.0253165,1.2943785,0.9479605,-0.0129444999999999,0.9373925,0.0007554999999999,-0.0062375,1.0626075,-0.0007555,0.0062375,0.8752075,-0.3686695,0.0109705,1.1210685,-0.3619295,0.0006514999999999,0.8488285,-0.7133594999999999,0.0367264999999999,1.1209385,-0.7346294999999999,0.0332714999999999
152,1.016953,0.7094805000000001,0.031545,0.856231,0.4731705,0.035618,0.779541,0.7037605,0.0078629999999999,1.146861,0.4968505,0.055149,1.260611,0.7090405000000001,0.0174629999999999,0.731591,0.9405405,-0.026118,1.294531,0.9483405,-0.013701,0.9373420000000001,0.0007554999999999,-0.006117,1.0626579999999999,-0.0007555,0.0061169999999999,0.875237,-0.3687095,0.0101099999999999,1.121301,-0.3619595,-9.699999999999986e-05,0.8491810000000001,-0.7133594999999999,0.035662,1.121281,-0.7346294999999999,0.032208
153,1.0172575,0.709462,0.0307705,0.8563445000000001,0.4731419999999999,0.0347825,0.7798545,0.703702,0.0070674999999999,1.1472145,0.496872,0.0543695,1.2603745,0.709422,0.0164104999999999,0.7318445,0.940452,-0.0269354999999999,1.2945445,0.948692,-0.0146835,0.9373105,0.000765,-0.0059885,1.0626895,-0.000765,0.0059885,0.8753055,-0.369108,0.0088485,1.1215445,-0.362208,-0.0010575,0.8498545,-0.713748,0.0343905,1.1218245,-0.734648,0.0308475
154,1.017628,0.709418,0.0298695,0.856662,0.4732879999999999,0.0337605,0.780162,0.703848,0.0060754999999999,1.147642,0.4969979999999999,0.0534285,1.260222,0.709988,0.0152575,0.732062,0.940598,-0.0279725,1.294642,0.949228,-0.0159425,0.9372739999999999,0.0007619999999999,-0.0057994999999999,1.062726,-0.0007619999999999,0.0057994999999999,0.875432,-0.369512,0.0073985,1.121832,-0.362522,-0.0022104999999999,0.850602,-0.714292,0.0327885,1.122432,-0.734672,0.0291795
155,1.018098,0.7093039999999999,0.0286535,0.85728,0.4733639999999999,0.0323805,0.7805000000000001,0.703924,0.0046935,1.1482700000000001,0.497004,0.0521445,1.26016,0.7105239999999999,0.0137265,0.73226,0.940674,-0.0294345,1.29507,0.949714,-0.0177895,0.937248,0.0007829999999999,-0.0056564999999999,1.062752,-0.0007829999999999,0.0056565,0.87567,-0.3699759999999999,0.0055535,1.12211,-0.363046,-0.0037494999999999,0.85146,-0.715026,0.0306545,1.12315,-0.7347760000000001,0.0270805
156,1.0187175,0.7091475,0.027014,0.8580435,0.4734174999999999,0.030709,0.7808735,0.7039775,0.002818,1.1490635,0.4969875,0.0504499999999999,1.2602835,0.7110875,0.011791,0.7324135,0.9407275,-0.0313919999999999,1.2957235,0.9501975,-0.020074,0.9372215,0.0008165,-0.005462,1.0627785,-0.0008164999999999,0.005462,0.8760035,-0.3706725,0.0032329999999999,1.1223635,-0.3637925,-0.005755,0.8524435,-0.7158425,0.027891,1.1240035,-0.7349525,0.0243649999999999
157,1.0193174999999999,0.708993,0.0251865,0.8587885,0.473623,0.0288454999999999,0.7811985,0.704103,0.0007684999999999,1.1498785,0.496923,0.0485665,1.2604085,0.711643,0.0096295,0.7324984999999999,0.940783,-0.0336485,1.2964185,0.950653,-0.0225865,0.9372195,0.0008649999999999,-0.0054065,1.0627805,-0.000865,0.0054065,0.8763085,-0.3713769999999999,0.0006294999999999,1.1225085,-0.364697,-0.0079485,0.8534085,-0.716687,0.0248784999999999,1.1248285,-0.735167,0.0213905
158,1.019955,0.708867,0.0231309999999999,0.85988,0.4746869999999999,0.0270459999999999,0.78145,0.704837,-0.001536,1.15076,0.496897,0.046514,1.2606,0.712297,0.0072079999999999,0.73248,0.941437,-0.036191,1.29719,0.951107,-0.025532,0.937238,0.0009339999999999,-0.005489,1.062762,-0.000934,0.0054889999999999,0.8766700000000001,-0.372093,-0.002351,1.1226699999999998,-0.365603,-0.010477,0.85439,-0.717473,0.0214989999999999,1.1257,-0.735393,0.0181149999999999
159,1.0205185,0.7087845,0.021006,0.8611135,0.4760845,0.025128,0.7816235,0.7058245,-0.0039949999999999,1.1517135,0.4968844999999999,0.044354,1.2608935,0.7125245,0.004643,0.7324335,0.9423345,-0.039038,1.2979034999999999,0.9512245,-0.0289,0.9372565,0.0010015,-0.005567,1.0627435,-0.0010014999999999,0.0055669999999999,0.8770035,-0.3731455,-0.005384,1.1227635,-0.3665655,-0.0131869999999999,0.8553435,-0.7182655,0.017907,1.1265135,-0.7355755,0.014638
160,1.0209845,0.7086805,0.018917,0.8623575,0.4776904999999999,0.023225,0.7817175000000001,0.7069505,-0.006529,1.1526675,0.4968605,0.042309,1.2611775,0.7126505000000001,0.002057,0.7323075,0.9433605,-0.042021,1.2984875,0.9513505,-0.032347,0.9372895,0.0010715,-0.0056459999999999,1.0627105000000001,-0.0010714999999999,0.005646,0.8773275,-0.3742995,-0.008367,1.1227775,-0.3675695,-0.0158989999999999,0.8561575,-0.7190995,0.014236,1.1272175,-0.7358795,0.011078
161,1.021413,0.708577,0.0168779999999999,0.8636360000000001,0.4793469999999999,0.021337,0.7817959999999999,0.7081069999999999,-0.009096,1.153656,0.4968469999999999,0.040282,1.261486,0.712777,-0.000512,0.732186,0.944337,-0.0449969999999999,1.299016,0.951477,-0.035899,0.937321,0.001149,-0.005759,1.062679,-0.0011489999999999,0.005759,0.877636,-0.375703,-0.011332,1.1227260000000001,-0.3686129999999999,-0.018597,0.8568660000000001,-0.719933,0.0105469999999999,1.127876,-0.736193,0.0076029999999999
162,1.0220645,0.7085615000000001,0.014439,0.8651105,0.4810914999999999,0.019018,0.7821205,0.7092415000000001,-0.012256,1.1547605,0.4967215,0.037748,1.2620405,0.7129015000000001,-0.0036709999999999,0.7323904999999999,0.9453015,-0.0485219999999999,1.2995605000000001,0.9514915,-0.040034,0.9373335,0.0012365,-0.005794,1.0626665,-0.0012364999999999,0.005794,0.8779905000000001,-0.3768085,-0.0148899999999999,1.1227105,-0.3696284999999999,-0.021707,0.8575405,-0.7204485,0.006277,1.1285505,-0.7363584999999999,0.003592
163,1.0227465,0.7085720000000001,0.011909,0.8666235,0.4829119999999999,0.016644,0.7824735,0.710422,-0.015577,1.1557435,0.4966019999999999,0.035125,1.2625335,0.7130620000000001,-0.006999,0.7326935,0.946302,-0.052295,1.3001735,0.951482,-0.044416,0.9373505,0.001301,-0.005954,1.0626495,-0.0013009999999999,0.0059539999999999,0.8782935000000001,-0.377818,-0.018767,1.1226734999999999,-0.370578,-0.025007,0.8581935,-0.720838,0.0018809999999999,1.1292035,-0.736468,-0.000567
164,1.0233395,0.708489,0.009453,0.8681185,0.484689,0.0144779999999999,0.7827185,0.711559,-0.018743,1.1566485,0.4964389999999999,0.032655,1.2629485,0.713119,-0.010206,0.7329185,0.947269,-0.0560839999999999,1.3005985,0.951379,-0.048683,0.9373605,0.0013379999999999,-0.006081,1.0626395,-0.0013379999999999,0.0060809999999999,0.8784785000000002,-0.378761,-0.022604,1.1226385,-0.371401,-0.0281849999999999,0.8587585,-0.721061,-0.002271,1.1297685,-0.736531,-0.004617
165,1.023816,0.7081995,0.0071285,0.8694379999999999,0.4858095,0.0123805,0.7829280000000001,0.7121495,-0.0217174999999999,1.157488,0.4960895,0.0304115,1.263248,0.7130295,-0.0131275,0.733178,0.9477395,-0.0599944999999999,1.301058,0.9510695,-0.0529054999999999,0.937371,0.0013985,-0.0061634999999999,1.062629,-0.0013984999999999,0.0061635,0.878508,-0.3796505,-0.0263384999999999,1.122668,-0.3721704999999999,-0.0312864999999999,0.859098,-0.7213705,-0.0061205,1.130168,-0.7366905,-0.0083624999999999
166,1.0243165,0.7078920000000001,0.0048895,0.8707945,0.486602,0.0102875,0.7832145,0.712472,-0.0247364999999999,1.1582945,0.495372,0.0282205,1.2635844999999999,0.712542,-0.0159955,0.7335345000000001,0.947932,-0.0639634999999999,1.3015444999999999,0.950342,-0.0571435,0.9373515,0.0015709999999999,-0.0062735,1.0626484999999999,-0.001571,0.0062734999999999,0.8784345,-0.380268,-0.0300725,1.1227744999999998,-0.372738,-0.0344285,0.8592245000000001,-0.721538,-0.0100235,1.1304945,-0.7367579999999999,-0.0120985
167,1.0247425,0.7073910000000001,0.002783,0.8715984999999999,0.486811,0.008002,0.7835084999999999,0.7126809999999999,-0.0276979999999999,1.1587585,0.494451,0.026168,1.2638485,0.711851,-0.018804,0.7339485,0.948141,-0.067896,1.3019384999999999,0.949421,-0.061069,0.9373085,0.0017799999999999,-0.0062679999999999,1.0626915,-0.00178,0.0062679999999999,0.8783185,-0.380889,-0.033769,1.1229085,-0.373209,-0.037524,0.8592385,-0.721649,-0.013871,1.1307785,-0.736839,-0.015774
168,1.025088,0.7068185,0.0007515,0.8720820000000001,0.4871785,0.0058005,0.783792,0.7130485,-0.0305045,1.159162,0.4933585,0.0242625,1.2639719999999999,0.7109885,-0.0215805,0.7343220000000001,0.9485085,-0.0717154999999999,1.302302,0.9483185,-0.0647784999999999,0.937267,0.0019995,-0.0062915,1.062733,-0.0019994999999999,0.0062915,0.878122,-0.3810814999999999,-0.0372925,1.123102,-0.3734015,-0.0405665,0.8591420000000001,-0.7215815,-0.0176645,1.131032,-0.7368315,-0.0193685
169,1.0253355,0.7062404999999999,-0.001267,0.8723805,0.4877905,0.0034709999999999,0.7839705,0.7136604999999999,-0.033225,1.1594705,0.4922705,0.022271,1.2638405,0.7100704999999999,-0.024362,0.7346005,0.9491205,-0.075451,1.3025605,0.9471905,-0.06843,0.9372415000000001,0.0022095,-0.006281,1.0627585,-0.0022094999999999,0.006281,0.8778405,-0.3807795,-0.040979,1.1233104999999999,-0.3732195,-0.043739,0.8589205,-0.7212495,-0.021346,1.1312105,-0.7364995000000001,-0.0228459999999999
170,1.0255285,0.7056454999999999,-0.0032055,0.8726865,0.4881555,0.0012745,0.7841465,0.7137654999999999,-0.0358785,1.1597365,0.4912654999999999,0.0203005,1.2636465000000001,0.7090055,-0.0269995,0.7348865,0.9491055,-0.0790905,1.3024065,0.9460155,-0.0719675,0.9372045,0.0023455,-0.0062534999999999,1.0627955,-0.0023455,0.0062534999999999,0.8776365000000002,-0.3799845,-0.0446815,1.1235965,-0.3727045,-0.0468945,0.8586265000000001,-0.7207245000000001,-0.0249375,1.1313365,-0.7359745000000001,-0.0262545
171,1.02554,0.7049375,-0.004951,0.8728670000000001,0.4878875,-0.000724,0.784147,0.7133775,-0.038193,1.159637,0.4903174999999999,0.018568,1.263287,0.7080275,-0.029331,0.734997,0.9486275,-0.08216,1.3020070000000001,0.9449375,-0.0750889999999999,0.93718,0.0023885,-0.0063,1.06282,-0.0023884999999999,0.0063,0.877267,-0.3791025,-0.047946,1.123767,-0.3718625,-0.049557,0.858167,-0.7202925,-0.028041,1.131357,-0.7354425,-0.0291389999999999
172,1.0254655,0.70411,-0.006634,0.8729355,0.48724,-0.00278,0.7841255,0.71266,-0.040531,1.1593655,0.48943,0.016888,1.2629154999999999,0.70715,-0.031679,0.7350555,0.94785,-0.085,1.3015255,0.94397,-0.078031,0.9371495,0.0023999999999999,-0.006249,1.0628505,-0.0023999999999999,0.0062489999999999,0.8768155,-0.37821,-0.051216,1.1239055,-0.37099,-0.05202,0.8576855,-0.71989,-0.0309839999999999,1.1313655,-0.7349600000000001,-0.031855
173,1.0252235,0.7032269999999999,-0.0085344999999999,0.8729475,0.486407,-0.0050184999999999,0.7839675,0.711747,-0.0430745,1.1588275,0.488047,0.0149825,1.2623275,0.705767,-0.0341574999999999,0.7352375,0.946957,-0.0879325,1.3006475,0.942517,-0.0811135,0.9371195,0.002443,-0.0061374999999999,1.0628805,-0.0024429999999999,0.0061375,0.8761775,-0.376923,-0.0550265,1.1240775,-0.369653,-0.0548844999999999,0.8570774999999999,-0.7189530000000001,-0.0342434999999999,1.1313775,-0.734133,-0.0350215
174,1.0248845,0.702242,-0.0103025,0.8728735,0.4855319999999999,-0.0071125,0.7837035,0.710842,-0.0454995,1.1581934999999999,0.4868019999999999,0.0131184999999999,1.2615535,0.704442,-0.0365585,0.7354434999999999,0.946082,-0.0907185,1.2996935,0.941132,-0.0841075,0.9370985000000001,0.002467,-0.0060485,1.0629015,-0.002467,0.0060484999999999,0.8755335,-0.375488,-0.0590325,1.1243534999999998,-0.368268,-0.0579555,0.8564134999999999,-0.7179679999999999,-0.0373505,1.1313635,-0.733308,-0.0380724999999999
175,1.0244675,0.7012065000000001,-0.012641,0.8727095,0.4846765,-0.0092179999999999,0.7834095,0.7099565,-0.0479,1.1575294999999999,0.4859765,0.011149,1.2606695,0.7037165000000001,-0.038949,0.7355195,0.9452465,-0.0934329999999999,1.2987195,0.9403565,-0.087338,0.9370895,0.0024204999999999,-0.005807,1.0629105,-0.0024205,0.005807,0.8749795,-0.3740535,-0.0633519999999999,1.1246895,-0.3667435,-0.061298,0.8559495,-0.7166035,-0.040537,1.1314295,-0.7320335,-0.041314
176,1.0239745,0.7001679999999999,-0.0150465,0.8726645,0.483428,-0.0113885,0.7831545,0.708708,-0.0503095,1.1569245,0.484888,0.0089035,1.2597945,0.7027279999999999,-0.0413495,0.7356145000000001,0.944058,-0.0961625,1.2976145,0.939328,-0.0905594999999999,0.9370645,0.002429,-0.0055895,1.0629355,-0.0024289999999999,0.0055895,0.8744145,-0.3723019999999999,-0.0682095,1.1251445,-0.364762,-0.0651225,0.8555245000000001,-0.714932,-0.0438324999999999,1.1315145,-0.730402,-0.0446045
177,1.0233745,0.699112,-0.0176855,0.8725944999999999,0.4819719999999999,-0.0138105,0.7828945,0.7071919999999999,-0.0530565,1.1563945,0.4834419999999999,0.0062635,1.2586344999999999,0.7014819999999999,-0.0440915,0.7356945000000001,0.942652,-0.0991715,1.2963545,0.938012,-0.0941245,0.9370375,0.0023809999999999,-0.0052765,1.0629625,-0.002381,0.0052765,0.8738745,-0.369568,-0.0737075,1.1259344999999998,-0.363618,-0.0708205,0.8551145,-0.712508,-0.0474625,1.1315845,-0.727978,-0.0481655
178,1.0226205,0.6979190000000001,-0.0204775,0.8724065,0.480769,-0.0164305,0.7824565,0.7058490000000001,-0.0564535,1.1559865,0.482419,0.0034764999999999,1.2576365,0.700649,-0.0475735,0.7352765,0.941229,-0.1032585,1.2950065,0.937119,-0.0984285,0.9369895,0.0023329999999999,-0.0050495,1.0630105,-0.002333,0.0050494999999999,0.8733165,-0.366351,-0.0799995,1.1269064999999998,-0.3619509999999999,-0.0774395,0.8546965000000001,-0.709521,-0.0515705,1.1317765,-0.7250409999999999,-0.0519755
179,1.0217305,0.6963815,-0.02345,0.8723905000000001,0.4794914999999999,-0.019052,0.7818705,0.7044015,-0.059952,1.1556205,0.4815115,0.000723,1.2567105,0.6999915,-0.051281,0.7347105,0.9397415,-0.107298,1.2936105,0.9364015,-0.102906,0.9369315,0.0022614999999999,-0.0047539999999999,1.0630685,-0.0022614999999999,0.004754,0.8726105,-0.3629285,-0.086321,1.1277905,-0.3600185,-0.084288,0.8542405,-0.7060985,-0.055674,1.1319405,-0.7217285,-0.055772
180,1.020828,0.694959,-0.0264794999999999,0.8723380000000001,0.478719,-0.0217985,0.7812680000000001,0.7033389999999999,-0.0635715,1.155328,0.480739,-0.0019784999999999,1.2556880000000001,0.6993889999999999,-0.0551285,0.734078,0.938609,-0.1114594999999999,1.292208,0.935759,-0.1074695,0.936913,0.0022799999999999,-0.0044944999999999,1.063087,-0.00228,0.0044944999999999,0.871948,-0.359131,-0.0926865,1.128648,-0.357861,-0.0913335,0.853828,-0.702361,-0.0597025,1.132058,-0.7180510000000001,-0.0595985
181,1.0199195,0.693283,-0.0297275,0.8722825,0.478263,-0.0245245,0.7805625,0.702483,-0.0673655,1.1551125,0.480043,-0.0047115,1.2547825000000001,0.698773,-0.0590555,0.7333425,0.937693,-0.1156605,1.2907925,0.935073,-0.1122765,0.9369025,0.00233,-0.0042655,1.0630975,-0.0023299999999999,0.0042654999999999,0.8713725,-0.355397,-0.0989915,1.1295325,-0.355487,-0.0984625,0.8534325,-0.6982170000000001,-0.0637885,1.1321824999999999,-0.7140470000000001,-0.0634765
182,1.0191365000000001,0.6921309999999999,-0.0331775,0.8721915,0.477071,-0.0273495,0.7797215,0.700721,-0.0713865,1.1550115,0.479291,-0.0075715,1.2544914999999999,0.698071,-0.0633365,0.7325415,0.935941,-0.1199995,1.2895915,0.934351,-0.1175025,0.9369215,0.002355,-0.0040385,1.0630785,-0.002355,0.0040385,0.8708415,-0.350679,-0.1054075,1.1304215,-0.352339,-0.1056115,0.8533215000000001,-0.693229,-0.0678715,1.1322615,-0.7092890000000001,-0.0672095
183,1.018392,0.690922,-0.037016,0.87226,0.476032,-0.03014,0.77876,0.699042,-0.07558,1.1549,0.478622,-0.010549,1.2543499999999999,0.6975520000000001,-0.0678,0.73021,0.932872,-0.125875,1.28847,0.933742,-0.1230189999999999,0.936887,0.00237,-0.0038219999999999,1.063113,-0.00237,0.0038219999999999,0.87032,-0.345028,-0.111997,1.1317,-0.350558,-0.113077,0.85318,-0.687568,-0.0722059999999999,1.13232,-0.703828,-0.071099
184,1.0176595,0.6896614999999999,-0.0408334999999999,0.8723865,0.4748415,-0.0328124999999999,0.7777965,0.6972815,-0.0795495,1.1547465,0.4779115,-0.0134004999999999,1.2538265,0.6967814999999999,-0.0721575,0.7278365,0.9300115,-0.1316665,1.2873165,0.9328515,-0.1285204999999999,0.9367805,0.0023585,-0.0036374999999999,1.0632195,-0.0023584999999999,0.0036375,0.8697865000000001,-0.3396685,-0.1183164999999999,1.1328865,-0.3492785,-0.1204075,0.8530065,-0.6817885,-0.0763165,1.1323565,-0.6982885000000001,-0.0747424999999999
185,1.0167525,0.688369,-0.0447745,0.8722265000000001,0.474039,-0.0355925,0.7764065,0.6957690000000001,-0.0838235,1.1544065,0.478099,-0.0164635,1.2533965,0.696619,-0.0770755,0.7252265,0.927989,-0.1376205,1.2861865,0.932549,-0.1349475,0.9366705,0.0022459999999999,-0.0034175,1.0633295,-0.002246,0.0034174999999999,0.8688465,-0.334121,-0.1246335,1.1339265,-0.347841,-0.1276925,0.8525765000000001,-0.675311,-0.0808105,1.1321465,-0.692051,-0.0785825
186,1.0158445,0.687005,-0.0486665,0.8717595,0.473595,-0.0382195,0.7749295,0.694655,-0.0878505,1.1540195,0.479195,-0.0192875,1.2526695,0.697175,-0.0820045,0.7225395,0.926275,-0.1435405,1.2851895,0.932985,-0.1414225,0.9366205,0.0020959999999999,-0.0031704999999999,1.0633795,-0.002096,0.0031704999999999,0.8677995000000001,-0.3291949999999999,-0.1305425,1.1345795,-0.3458449999999999,-0.1333905,0.8521095,-0.669345,-0.0851275,1.1318095,-0.686375,-0.0822025
187,1.015064,0.685796,-0.052049,0.871259,0.472896,-0.040523,0.773409,0.693416,-0.091186,1.153589,0.478756,-0.022163,1.252089,0.696526,-0.086198,0.720199,0.924526,-0.148571,1.284579,0.932096,-0.147331,0.936568,0.0020339999999999,-0.0029409999999999,1.063432,-0.002034,0.0029409999999999,0.866779,-0.324964,-0.135651,1.135079,-0.344094,-0.138191,0.851729,-0.663504,-0.088827,1.131409,-0.680794,-0.085519
188,1.014363,0.684884,-0.0554505,0.870735,0.472624,-0.0430365,0.7718849999999999,0.6924440000000001,-0.0948165,1.152995,0.4785939999999999,-0.0251065,1.251105,0.695924,-0.0908265,0.717795,0.923024,-0.1541055,1.283685,0.931274,-0.1535655,0.936461,0.001958,-0.0027654999999999,1.063539,-0.001958,0.0027654999999999,0.865815,-0.320896,-0.1407645,1.135625,-0.342736,-0.1430545,0.851475,-0.657806,-0.0925495,1.130955,-0.6754359999999999,-0.0889415
189,1.0136425,0.683711,-0.059421,0.8701525,0.471851,-0.045977,0.7702424999999999,0.691101,-0.098896,1.1524125,0.478131,-0.028664,1.2504425000000001,0.6948709999999999,-0.0962,0.7159725,0.920921,-0.1607869999999999,1.2827825,0.929931,-0.160777,0.9364025,0.001806,-0.0025249999999999,1.0635975,-0.001806,0.0025249999999999,0.8646425,-0.315609,-0.146387,1.1361325,-0.336129,-0.148184,0.8512325000000001,-0.651239,-0.096123,1.1303825,-0.669269,-0.092679
190,1.01288,0.6824800000000001,-0.063318,0.869531,0.47129,-0.048849,0.7687210000000001,0.68982,-0.103219,1.151781,0.47784,-0.0321759999999999,1.249801,0.69406,-0.100445,0.714321,0.9189,-0.167798,1.281851,0.92824,-0.167598,0.936361,0.0016299999999999,-0.002305,1.063639,-0.0016299999999999,0.002305,0.863391,-0.31052,-0.15189,1.136541,-0.32961,-0.1532109999999999,0.851021,-0.64471,-0.099574,1.129741,-0.66319,-0.0962649999999999
191,1.0121144999999998,0.6815685,-0.0670745,0.8689385000000001,0.4715884999999999,-0.0517185,0.7673785,0.6897685,-0.1073305,1.1511985,0.4773685,-0.0358795,1.2491284999999999,0.6933885,-0.1047395,0.7123185000000001,0.9180485,-0.1745485,1.2810085,0.9267985,-0.1748685,0.9363335,0.0014925,-0.0021215,1.0636665,-0.0014925,0.0021214999999999,0.8620685,-0.3052114999999999,-0.1573485,1.1368985,-0.3230915,-0.1579855,0.8509385,-0.6380615000000001,-0.1028805,1.1291785,-0.6568515,-0.0996915
192,1.0111215,0.682072,-0.0750515,0.8683915,0.471972,-0.0589915,0.7660915,0.689762,-0.1162045,1.1498415,0.476912,-0.0441565,1.2478515,0.692742,-0.1136365,0.7115815,0.918912,-0.1843005,1.2798314999999998,0.925412,-0.1865805,0.9362755,0.001347,-0.0019805,1.0637245,-0.001347,0.0019804999999999,0.8602915000000001,-0.298078,-0.1693405,1.1375815,-0.3148479999999999,-0.1703705,0.8513515,-0.6300979999999999,-0.1100445,1.1285415,-0.648398,-0.1072315
193,1.0102165,0.682398,-0.0832945,0.8679665,0.472518,-0.0663074999999999,0.7649865,0.6896479999999999,-0.1262315,1.1484365,0.476568,-0.0525024999999999,1.2433665,0.6875979999999999,-0.1224445,0.7109965,0.919558,-0.1945565,1.2766365,0.919568,-0.1979564999999999,0.9362265,0.001246,-0.0018024999999999,1.0637735,-0.0012459999999999,0.0018024999999999,0.8585465,-0.2907419999999999,-0.1815165,1.1384165,-0.306392,-0.1827265,0.8519365,-0.622012,-0.1172565,1.1279065,-0.639802,-0.1147364999999999
194,1.0095605,0.6821769999999999,-0.092081,0.8674705,0.473327,-0.073825,0.7643605,0.689277,-0.136717,1.1471205,0.476117,-0.060998,1.2390805,0.682647,-0.1309239999999999,0.7105605000000002,0.919047,-0.207127,1.2737805,0.913777,-0.2089369999999999,0.9362165000000001,0.0011929999999999,-0.001586,1.0637835,-0.0011929999999999,0.001586,0.8570605,-0.283123,-0.193437,1.1393105000000001,-0.2983329999999999,-0.195077,0.8525805,-0.614433,-0.124302,1.1274705,-0.631563,-0.122238
195,1.008825,0.6822035,-0.101984,0.866941,0.4733235,-0.082559,0.763811,0.6887335,-0.147918,1.145531,0.4732035,-0.070861,1.237351,0.6769335,-0.140051,0.7104910000000001,0.9182435,-0.220068,1.272371,0.9072535,-0.220148,0.9361470000000001,0.0012624999999999,-0.001559,1.063853,-0.0012624999999999,0.0015589999999999,0.855341,-0.2742265,-0.205998,1.140221,-0.2871264999999999,-0.208088,0.853201,-0.6057865,-0.131851,1.126881,-0.6221865,-0.130287
196,1.0082005,0.682285,-0.1119715,0.8664485,0.473465,-0.0913755,0.7632885,0.6882849999999999,-0.1593105,1.1439785,0.471715,-0.0805545,1.2357285,0.672285,-0.1492675,0.7105085,0.917635,-0.2329725,1.2710185,0.901895,-0.2313425,0.9360455,0.001265,-0.0014734999999999,1.0639545,-0.0012649999999999,0.0014735,0.8535885,-0.265085,-0.2184125,1.1412285,-0.276625,-0.2211125,0.8538585000000001,-0.597245,-0.1395315,1.1262585,-0.612855,-0.1383905
197,1.007643,0.68216,-0.122248,0.8660030000000001,0.47333,-0.100336,0.7628230000000001,0.68782,-0.170454,1.142423,0.46969,-0.090427,1.2339229999999999,0.66753,-0.1583,0.7105429999999999,0.91689,-0.24584,1.269773,0.89635,-0.24242,0.935949,0.0013299999999999,-0.0014099999999999,1.064051,-0.0013299999999999,0.00141,0.851863,-0.2559,-0.23087,1.1422729999999999,-0.26483,-0.23404,0.854573,-0.58857,-0.147201,1.125643,-0.60331,-0.146456
198,1.0072365,0.68218,-0.132148,0.8656035,0.47333,-0.109193,0.7625435,0.68742,-0.181338,1.1410535,0.4679,-0.099794,1.2324835,0.66261,-0.167101,0.7108335,0.91636,-0.257985,1.2685635,0.89053,-0.253105,0.9358575000000001,0.00141,-0.001305,1.0641425,-0.0014099999999999,0.0013049999999999,0.8504235,-0.24726,-0.242815,1.1434135,-0.2532999999999999,-0.246575,0.8552435,-0.5805,-0.154569,1.1250735,-0.59443,-0.154175
199,1.006853,0.6825249999999999,-0.142221,0.865244,0.472925,-0.118333,0.7621640000000001,0.686775,-0.1923969999999999,1.139694,0.465785,-0.109405,1.231354,0.6575449999999999,-0.176239,0.711314,0.915555,-0.27035,1.267434,0.8851749999999999,-0.26466,0.935789,0.001475,-0.00116,1.064211,-0.001475,0.0011599999999999,0.8490139999999999,-0.238355,-0.2549,1.144604,-0.241555,-0.25911,0.855904,-0.5722050000000001,-0.162006,1.1244939999999999,-0.585325,-0.161887
200,1.0067225,0.6819799999999999,-0.152354,0.8651285,0.4725199999999999,-0.127429,0.7623785000000001,0.68594,-0.203616,1.1387485,0.4647,-0.118613,1.2311385,0.6532199999999999,-0.185406,0.7122985,0.91446,-0.28314,1.2665685,0.8804,-0.27577,0.9357235,0.0015,-0.00106,1.0642765,-0.0015,0.00106,0.8480885000000001,-0.23082,-0.26647,1.1460685,-0.23105,-0.27148,0.8568585,-0.56488,-0.169365,1.1241785,-0.57714,-0.16949
201,1.006667,0.680175,-0.1583129999999999,0.865254,0.471965,-0.132347,0.7626140000000001,0.685085,-0.210393,1.138514,0.462995,-0.1234879999999999,1.231094,0.649055,-0.191,0.7131240000000001,0.913085,-0.291845,1.266384,0.875795,-0.282965,0.935688,0.0016349999999999,-0.0008649999999999,1.064312,-0.0016349999999999,0.000865,0.8477140000000001,-0.2245749999999999,-0.271355,1.146854,-0.224705,-0.2759049999999999,0.857354,-0.558895,-0.1727719999999999,1.123994,-0.570995,-0.172978
202,1.006644,0.678065,-0.164113,0.865457,0.471205,-0.137262,0.763157,0.684165,-0.216283,1.1383969999999999,0.461445,-0.128261,1.231067,0.649195,-0.196915,0.713707,0.911395,-0.300565,1.2663470000000001,0.875515,-0.289925,0.935625,0.0017149999999999,-0.000685,1.064375,-0.0017149999999999,0.0006849999999999,0.847397,-0.218465,-0.275905,1.147627,-0.218555,-0.280155,0.857777,-0.553025,-0.176121,1.123887,-0.564995,-0.176407
203,1.0067305,0.676425,-0.169904,0.8656715,0.468855,-0.142947,0.7636115,0.682515,-0.222413,1.1381915,0.458705,-0.133857,1.2307015,0.649465,-0.204328,0.7142215000000001,0.909175,-0.30797,1.2660515,0.875635,-0.29881,0.9356265,0.001875,-0.00059,1.0643735,-0.0018749999999999,0.0005899999999999,0.8470815,-0.211245,-0.28074,1.1483115,-0.211335,-0.28445,0.8580615,-0.546155,-0.179601,1.1237115,-0.558255,-0.17993
204,1.007116,0.674515,-0.174765,0.8658570000000001,0.467395,-0.147564,0.764377,0.680925,-0.2282799999999999,1.138227,0.457735,-0.138476,1.231157,0.650535,-0.211557,0.7146870000000001,0.907075,-0.315515,1.265877,0.875895,-0.308965,0.935659,0.0020449999999999,-0.0003449999999999,1.064341,-0.002045,0.000345,0.846967,-0.205735,-0.284745,1.148967,-0.206675,-0.2880749999999999,0.858357,-0.539985,-0.182639,1.123677,-0.552265,-0.1829339999999999
205,1.0075014999999998,0.67188,-0.17959,0.8660595,0.46622,-0.1519849999999999,0.7650295,0.6795,-0.234258,1.1382995,0.45646,-0.143012,1.2350094999999999,0.65134,-0.219295,0.7148194999999999,0.90507,-0.32304,1.2677195,0.87609,-0.31919,0.9356715,0.00228,-7.999999999999674e-05,1.0643285,-0.0022799999999999,7.999999999999674e-05,0.8469295,-0.20031,-0.28851,1.1495994999999999,-0.2021199999999999,-0.2915999999999999,0.8586395,-0.5339400000000001,-0.185496,1.1236895,-0.5464,-0.1857869999999999
206,1.0078969999999998,0.6699299999999999,-0.184446,0.8661909999999999,0.4638899999999999,-0.156956,0.765791,0.67711,-0.240661,1.138361,0.45531,-0.147832,1.238221,0.6519900000000001,-0.22827,0.7150810000000001,0.90229,-0.330965,1.269701,0.87652,-0.329315,0.9356679999999999,0.0023999999999999,0.0001849999999999,1.064332,-0.0024,-0.000185,0.846901,-0.19426,-0.292575,1.1502409999999998,-0.19694,-0.295325,0.858901,-0.52722,-0.188663,1.123711,-0.53989,-0.188885
207,1.0084165,0.666715,-0.1902049999999999,0.8664625,0.461335,-0.1624369999999999,0.7665925,0.6742250000000001,-0.2479999999999999,1.1387625,0.453575,-0.1532859999999999,1.2393225,0.652485,-0.237533,0.7153125,0.8992450000000001,-0.3388899999999999,1.2703825,0.8771850000000001,-0.3389399999999999,0.9356405,0.002565,0.0004,1.0643595,-0.0025649999999999,-0.0003999999999999,0.8469425000000002,-0.1866249999999999,-0.2973399999999999,1.1511825,-0.190185,-0.29972,0.8593625,-0.518465,-0.1919809999999999,1.1239225,-0.5312650000000001,-0.1921099999999999
208,1.008863,0.6632,-0.195645,0.866936,0.45911,-0.167509,0.7669159999999999,0.67163,-0.254605,1.1391259999999999,0.45235,-0.158332,1.239836,0.6529400000000001,-0.246196,0.7156359999999999,0.89636,-0.346155,1.272146,0.8746799999999999,-0.349795,0.935651,0.0026599999999999,0.000585,1.064349,-0.0026599999999999,-0.000585,0.847066,-0.1793,-0.301865,1.1521759999999999,-0.18369,-0.303815,0.8599060000000001,-0.5097700000000001,-0.195024,1.124226,-0.52268,-0.195064
209,1.0092275,0.660065,-0.200764,0.8673955,0.4562049999999999,-0.172451,0.7672655000000002,0.668625,-0.260805,1.1394955,0.449445,-0.163389,1.2401555,0.652465,-0.254005,0.7159755,0.893145,-0.352775,1.2724555,0.8729549999999999,-0.358515,0.9356275000000001,0.002835,0.0007949999999999,1.0643725,-0.002835,-0.0007949999999999,0.8471755,-0.171515,-0.306465,1.1532755,-0.1768249999999999,-0.307985,0.8604155,-0.5004850000000001,-0.197857,1.1245355,-0.5135350000000001,-0.197856
210,1.0095489999999998,0.65669,-0.2056339999999999,0.867812,0.45285,-0.177128,0.767572,0.66526,-0.266505,1.139812,0.44718,-0.168231,1.240442,0.65156,-0.260925,0.716262,0.88955,-0.358965,1.272802,0.87118,-0.3672149999999999,0.935573,0.0028299999999999,0.000845,1.064427,-0.0028299999999999,-0.000845,0.847202,-0.16366,-0.310925,1.154372,-0.16988,-0.311865,0.860892,-0.49106,-0.200364,1.124812,-0.50427,-0.20026
211,1.010124,0.653025,-0.2116559999999999,0.8683730000000001,0.449445,-0.182747,0.7681930000000001,0.6613249999999999,-0.27364,1.140393,0.444415,-0.174114,1.241003,0.650815,-0.26825,0.7160030000000002,0.885495,-0.36609,1.2733729999999999,0.8697050000000001,-0.37636,0.935514,0.002915,0.00074,1.064486,-0.002915,-0.0007399999999999,0.847403,-0.152605,-0.3166899999999999,1.156053,-0.159625,-0.31653,0.8616730000000001,-0.477815,-0.203206,1.125303,-0.4914849999999999,-0.2028859999999999
212,1.010546,0.649025,-0.217061,0.8688000000000001,0.447945,-0.187232,0.76846,0.6587149999999999,-0.280035,1.14086,0.441625,-0.17903,1.24079,0.645375,-0.273905,0.7154400000000001,0.882835,-0.372625,1.27386,0.863495,-0.383855,0.935479,0.0030749999999999,0.0006349999999999,1.064521,-0.003075,-0.0006349999999999,0.8474400000000001,-0.141465,-0.3219349999999999,1.15769,-0.149295,-0.320815,0.86237,-0.464645,-0.205432,1.12565,-0.4786249999999999,-0.204969
213,1.010799,0.6445799999999999,-0.222253,0.869311,0.4468999999999999,-0.191454,0.768551,0.65629,-0.28596,1.141241,0.43867,-0.18363,1.240861,0.63825,-0.27895,0.714701,0.87982,-0.37923,1.275391,0.85598,-0.38924,0.9354439999999999,0.0033199999999999,0.0004499999999999,1.064556,-0.0033199999999999,-0.00045,0.847531,-0.13052,-0.3268999999999999,1.159361,-0.13894,-0.32479,0.863071,-0.4514999999999999,-0.207418,1.126021,-0.46583,-0.206861
214,1.011002,0.6408149999999999,-0.227619,0.8697360000000001,0.442535,-0.196153,0.7688360000000001,0.651725,-0.292165,1.141576,0.435405,-0.188459,1.240686,0.631655,-0.284295,0.713536,0.874885,-0.386715,1.276956,0.848775,-0.394785,0.935407,0.003255,0.0002549999999999,1.064593,-0.003255,-0.000255,0.847576,-0.118535,-0.332085,1.161086,-0.127575,-0.328725,0.863746,-0.437345,-0.209485,1.126376,-0.452115,-0.20878
215,1.011035,0.63595,-0.232893,0.870125,0.43986,-0.200412,0.768425,0.6480600000000001,-0.298325,1.141975,0.43227,-0.193016,1.239925,0.62587,-0.288835,0.712305,0.8706,-0.393795,1.278665,0.84216,-0.401125,0.935298,0.0033,3.500000000000725e-05,1.064702,-0.0032999999999999,-3.500000000000725e-05,0.847635,-0.1056699999999999,-0.336935,1.163055,-0.11545,-0.332485,0.8644350000000001,-0.4221399999999999,-0.211492,1.126725,-0.4384399999999999,-0.210019
216,1.010908,0.6314649999999999,-0.237429,0.870479,0.438995,-0.203952,0.767899,0.645695,-0.303625,1.142239,0.429655,-0.196876,1.239119,0.621535,-0.294435,0.7109289999999999,0.867175,-0.401155,1.280189,0.835395,-0.4096649999999999,0.935126,0.003375,-0.0002249999999999,1.064874,-0.0033749999999999,0.000225,0.847699,-0.093335,-0.340865,1.164899,-0.1035749999999999,-0.335395,0.865029,-0.407755,-0.2133379999999999,1.127009,-0.425635,-0.210949
217,1.0105069999999998,0.6273,-0.241312,0.870539,0.43497,-0.207304,0.7671690000000001,0.6412100000000001,-0.308935,1.142239,0.42619,-0.200243,1.238539,0.61707,-0.299635,0.709299,0.86178,-0.408535,1.281699,0.82819,-0.417665,0.934773,0.0034,-0.0001649999999999,1.065227,-0.0034,0.0001649999999999,0.847549,-0.0798499999999999,-0.344195,1.166519,-0.0904999999999999,-0.337795,0.865449,-0.3925399999999999,-0.214628,1.127039,-0.41185,-0.211367
218,1.010076,0.6228800000000001,-0.244915,0.870405,0.43267,-0.209888,0.7663949999999999,0.6378,-0.313615,1.1419949999999999,0.424158,-0.203199,1.237665,0.6119300000000001,-0.3042749999999999,0.7076450000000001,0.85734,-0.415475,1.283295,0.82212,-0.424675,0.9344129999999999,0.00328,-9.500000000001174e-05,1.065587,-0.0032799999999999,9.500000000001174e-05,0.847365,-0.0648599999999999,-0.347005,1.168075,-0.0759999999999999,-0.339515,0.865875,-0.37603,-0.215339,1.1270349999999998,-0.3967499999999999,-0.21135
219,1.009702,0.618175,-0.2482229999999999,0.870233,0.430926,-0.2119349999999999,0.765553,0.634765,-0.31765,1.141613,0.421994,-0.2056529999999999,1.2367929999999998,0.608125,-0.30888,0.706013,0.8535349999999999,-0.422,1.284713,0.816835,-0.43121,0.93402,0.0032949999999999,7.00000000000145e-05,1.06598,-0.0032949999999999,-6.999999999998674e-05,0.847243,-0.0493949999999999,-0.3494299999999999,1.169543,-0.0609549999999999,-0.34107,0.866353,-0.3591549999999999,-0.2157569999999999,1.127043,-0.3812349999999999,-0.2109909999999999
220,1.009072,0.614005,-0.250162,0.869973,0.430932,-0.212797,0.764733,0.633445,-0.31973,1.141023,0.420391,-0.20694,1.2360229999999999,0.604755,-0.3131,0.704233,0.850475,-0.42707,1.284443,0.811885,-0.43748,0.933747,0.0036349999999999,0.0001599999999999,1.0662530000000001,-0.0036349999999999,-0.00016,0.8470530000000001,-0.0355249999999999,-0.35052,1.170583,-0.047785,-0.34264,0.866733,-0.3445649999999999,-0.215672,1.1270229999999999,-0.3676149999999999,-0.210388
221,1.008446,0.61107,-0.251762,0.8698310000000001,0.427839,-0.21341,0.763611,0.63032,-0.321025,1.140131,0.419112,-0.2078789999999999,1.235411,0.60584,-0.315755,0.702401,0.8458300000000001,-0.431095,1.283211,0.81124,-0.441365,0.933534,0.00352,0.000165,1.066466,-0.0035199999999999,-0.0001649999999999,0.8469110000000001,-0.0211899999999999,-0.351025,1.171401,-0.0338899999999999,-0.344255,0.867061,-0.3298099999999999,-0.215517,1.127081,-0.3537199999999999,-0.209779
222,1.0080585,0.608675,-0.252889,0.8699025000000001,0.424617,-0.213889,0.7624725,0.626875,-0.32236,1.1391325,0.418028,-0.208609,1.2349425,0.608005,-0.31833,0.7005425000000001,0.841855,-0.4343,1.2825025,0.812165,-0.4466799999999999,0.9331725,0.0032949999999999,0.00017,1.0668275,-0.0032949999999999,-0.00017,0.8467725,-0.006155,-0.35183,1.1722325,-0.0191549999999999,-0.34589,0.8675025000000001,-0.3144749999999999,-0.215324,1.1272925,-0.339255,-0.209226
223,1.0075975,0.605735,-0.253279,0.8698285,0.424416,-0.213693,0.7612385,0.625475,-0.32302,1.1380985,0.417441,-0.208556,1.2340185,0.609715,-0.32008,0.6989084999999999,0.839565,-0.43616,1.2818385,0.812855,-0.4516799999999999,0.9325605,0.003265,0.00038,1.0674395,-0.003265,-0.0003799999999999,0.8465185,0.008365,-0.35216,1.1724985,-0.0049649999999999,-0.3473,0.8680185,-0.299735,-0.2149019999999999,1.1274384999999998,-0.3251549999999999,-0.2085419999999999
224,1.0070345,0.60363,-0.25286,0.8695735,0.424918,-0.213011,0.7598635,0.62547,-0.322475,1.1369335,0.417593,-0.207864,1.2343335,0.6067,-0.3212049999999999,0.6970135,0.83879,-0.436975,1.2824335,0.80925,-0.455515,0.9319145,0.00319,0.000945,1.0680855,-0.0031899999999999,-0.000945,0.8461335,0.0236,-0.351475,1.1726235,0.0102,-0.348045,0.8683435000000002,-0.2842399999999999,-0.214106,1.1275235000000001,-0.3094,-0.207801
225,1.006465,0.602035,-0.252699,0.869681,0.424797,-0.212861,0.759331,0.624985,-0.322315,1.135841,0.41824,-0.207694,1.234511,0.603915,-0.3220849999999999,0.695091,0.837935,-0.436795,1.283091,0.8062050000000001,-0.457765,0.9312770000000001,0.0032449999999999,0.0016349999999999,1.0687229999999999,-0.0032449999999999,-0.0016349999999999,0.8458010000000001,0.038215,-0.351315,1.1727509999999999,0.024855,-0.3485049999999999,0.8686910000000001,-0.2693049999999999,-0.21383,1.127631,-0.294205,-0.207651
226,1.0059099999999999,0.600005,-0.252582,0.86971,0.4279139999999999,-0.212753,0.75858,0.626595,-0.3222,1.13485,0.416308,-0.207571,1.23451,0.601495,-0.32274,0.6935100000000001,0.839245,-0.43666,1.28326,0.807035,-0.45938,0.930678,0.0036249999999999,0.00225,1.069322,-0.003625,-0.00225,0.84561,0.0518349999999999,-0.35121,1.17289,0.0385049999999999,-0.34845,0.86919,-0.255135,-0.213559,1.1278,-0.279795,-0.207546
227,1.0054485,0.597865,-0.252352,0.8698705,0.429129,-0.212166,0.7579705,0.627005,-0.32196,1.1341105,0.414635,-0.207336,1.2340305,0.600885,-0.32305,0.6920904999999999,0.839275,-0.43641,1.2834605,0.806025,-0.46015,0.9301105000000001,0.003975,0.00275,1.0698895,-0.003975,-0.00275,0.8455604999999999,0.0634549999999999,-0.3508799999999999,1.1726005,0.0503449999999999,-0.34822,0.8693805,-0.2421849999999999,-0.213397,1.1278804999999998,-0.266845,-0.207376
228,1.005105,0.5973,-0.251815,0.870053,0.428958,-0.211282,0.757713,0.62676,-0.31999,1.133563,0.413617,-0.206893,1.233663,0.60055,-0.3232,0.6907030000000001,0.83838,-0.43496,1.283163,0.80564,-0.46029,0.929621,0.0039,0.0031999999999999,1.070379,-0.0038999999999999,-0.0032,0.845573,0.07512,-0.3492,1.171943,0.06239,-0.34794,0.869833,-0.2283899999999999,-0.213285,1.128013,-0.2533999999999999,-0.207177
229,1.0050729999999999,0.59708,-0.2515199999999999,0.870363,0.427202,-0.2100889999999999,0.7564230000000001,0.62561,-0.318835,1.1334229999999998,0.410878,-0.2067379999999999,1.2337429999999998,0.5989,-0.322875,0.689963,0.8376,-0.434395,1.282883,0.80408,-0.460285,0.929261,0.00353,0.003205,1.070739,-0.0035299999999999,-0.0032049999999999,0.845773,0.08545,-0.347295,1.171193,0.07322,-0.347925,0.870443,-0.2158099999999999,-0.2134519999999999,1.1282329999999998,-0.24107,-0.20722
230,1.005158,0.5961040000000001,-0.2511569999999999,0.870735,0.4280670000000001,-0.209135,0.755785,0.6261800000000001,-0.317175,1.133765,0.4088440000000001,-0.206368,1.234095,0.597183,-0.322635,0.689405,0.8383500000000002,-0.432905,1.2833350000000001,0.8024600000000001,-0.460505,0.928919,0.00342,0.003425,1.071081,-0.0034199999999999,-0.0034249999999999,0.845925,0.09437,-0.3448449999999999,1.170325,0.08263,-0.3476249999999999,0.871185,-0.2048699999999998,-0.215601,1.128455,-0.2301099999999999,-0.207476
231,1.0051279999999998,0.5947450000000001,-0.25051,0.871075,0.428608,-0.208326,0.754815,0.6270850000000001,-0.31597,1.133975,0.4070250000000001,-0.206106,1.234315,0.5954490000000001,-0.32206,0.6887650000000001,0.839145,-0.4316,1.283685,0.800705,-0.45998,0.928719,0.003295,0.0038099999999999,1.071281,-0.0032949999999999,-0.00381,0.845935,0.102115,-0.3422,1.169325,0.091055,-0.34708,0.871735,-0.1946849999999998,-0.217897,1.128425,-0.2201749999999999,-0.207931
232,1.0051525,0.5930489999999999,-0.249813,0.8714014999999999,0.429328,-0.207968,0.7537715,0.62693,-0.31506,1.1341915,0.40493,-0.20612,1.2345315000000001,0.5902879999999999,-0.32149,0.6885114999999999,0.83954,-0.42998,1.2839015,0.7956099999999999,-0.45971,0.9286915,0.0032599999999999,0.00425,1.0713085,-0.00326,-0.00425,0.8459315000000001,0.1094299999999999,-0.33943,1.1683415,0.09891,-0.34557,0.8722814999999999,-0.18462,-0.220664,1.1284415,-0.21059,-0.2089
233,1.00535,0.591118,-0.24929,0.871836,0.429045,-0.207978,0.752866,0.626082,-0.314465,1.134496,0.402055,-0.206386,1.234916,0.590759,-0.321745,0.688106,0.839175,-0.428875,1.284236,0.795265,-0.459955,0.928697,0.003305,0.0047449999999999,1.071303,-0.003305,-0.0047449999999999,0.846026,0.114315,-0.336705,1.167656,0.104265,-0.344005,0.872806,-0.1766449999999999,-0.223833,1.128456,-0.203435,-0.2102109999999999
234,1.0056194999999999,0.589686,-0.249251,0.8722035,0.427995,-0.208278,0.7524335,0.625148,-0.314175,1.1351435,0.3986050000000001,-0.2068539999999999,1.2354935,0.59055,-0.3223749999999999,0.6881335,0.838655,-0.427985,1.2848834999999998,0.795305,-0.460425,0.9287075,0.003165,0.005195,1.0712925,-0.0031649999999999,-0.0051949999999999,0.8461035,0.118135,-0.334265,1.1670235,0.108375,-0.3425249999999999,0.8732835,-0.1700249999999999,-0.2271719999999999,1.1283635,-0.1974349999999999,-0.211725
235,1.005915,0.5887530000000001,-0.249552,0.872537,0.4266500000000001,-0.208823,0.752987,0.624152,-0.31421,1.135717,0.39815,-0.20781,1.236357,0.591052,-0.32346,0.688437,0.8379800000000001,-0.42734,1.285787,0.79595,-0.46125,0.928707,0.00286,0.0056699999999999,1.071293,-0.0028599999999999,-0.00567,0.846277,0.12158,-0.33219,1.166897,0.11205,-0.34117,0.873777,-0.1638599999999999,-0.230635,1.128157,-0.1920299999999999,-0.213442
236,1.006187,0.5879930000000001,-0.250397,0.8728279999999999,0.42617,-0.210011,0.7533179999999999,0.6237710000000001,-0.314775,1.136298,0.3974200000000001,-0.209261,1.237678,0.5911330000000001,-0.325795,0.688728,0.8381500000000001,-0.427215,1.287428,0.7963600000000001,-0.463515,0.9286989999999999,0.00264,0.0059349999999999,1.071301,-0.0026399999999999,-0.0059349999999999,0.846538,0.12457,-0.330845,1.167008,0.11519,-0.340395,0.874268,-0.1584999999999999,-0.234455,1.127908,-0.1873999999999999,-0.215574
237,1.0065074999999999,0.586446,-0.250742,0.8731315,0.4268849999999999,-0.210809,0.7543115,0.624603,-0.31557,1.1369415,0.396045,-0.210175,1.2389915,0.590056,-0.32697,0.6892415000000001,0.839445,-0.42737,1.2891314999999999,0.796135,-0.46447,0.9287115,0.002815,0.00607,1.0712885,-0.002815,-0.0060699999999999,0.8469315,0.126295,-0.33024,1.1673115,0.1169449999999999,-0.3397799999999999,0.8748415,-0.1549549999999999,-0.23754,1.1275615,-0.184525,-0.21704
238,1.006893,0.585245,-0.250738,0.873399,0.4275150000000001,-0.211526,0.755529,0.6254170000000001,-0.3156,1.137619,0.396035,-0.2107079999999999,1.240319,0.5900890000000001,-0.3274899999999999,0.6899390000000001,0.8407850000000001,-0.42683,1.291189,0.796805,-0.4648799999999999,0.92867,0.002915,0.00618,1.0713300000000001,-0.002915,-0.0061799999999999,0.847349,0.127425,-0.32989,1.167579,0.117975,-0.33938,0.875349,-0.1522349999999999,-0.2402399999999999,1.127189,-0.1824249999999999,-0.2182339999999999
239,1.007155,0.5846109999999999,-0.2503019999999999,0.8735720000000001,0.4280899999999999,-0.2119359999999999,0.7564919999999999,0.6262099999999999,-0.315445,1.138242,0.3960299999999999,-0.2108709999999999,1.241512,0.5900219999999999,-0.3272049999999999,0.690632,0.8420699999999999,-0.425925,1.293132,0.7975299999999999,-0.464045,0.928678,0.0030399999999999,0.006285,1.0713219999999999,-0.00304,-0.0062849999999999,0.847712,0.1280099999999999,-0.3296949999999999,1.167762,0.1185199999999999,-0.3391349999999999,0.875692,-0.15034,-0.241172,1.126902,-0.18092,-0.2190339999999999
240,1.0072265,0.584898,-0.249454,0.8735364999999999,0.4284799999999999,-0.211942,0.7565365,0.626958,-0.314705,1.1386965,0.3962599999999999,-0.210554,1.2425865,0.590313,-0.325995,0.6909365000000001,0.84328,-0.424515,1.2948765,0.79847,-0.461465,0.9286805,0.0030799999999999,0.0064049999999999,1.0713195,-0.0030799999999999,-0.006405,0.8478265,0.1283399999999999,-0.329415,1.1678365,0.1187099999999999,-0.339165,0.8756865,-0.14914,-0.241698,1.1265965,-0.17993,-0.219302
241,1.0072975,0.586573,-0.248624,0.8735265,0.4289949999999999,-0.211662,0.7565565000000001,0.628633,-0.313815,1.1390365,0.3966749999999999,-0.210071,1.2435365,0.591988,-0.324805,0.6913665,0.8449549999999999,-0.423125,1.2967965,0.800145,-0.459115,0.9286805,0.0030649999999999,0.0064049999999999,1.0713195,-0.003065,-0.006405,0.8476665000000001,0.1286649999999999,-0.329415,1.1680665000000001,0.1187849999999999,-0.339165,0.8753165,-0.148135,-0.242556,1.1263765000000001,-0.179595,-0.219171
242,1.0074025,0.586573,-0.248109,0.8735165,0.4289949999999999,-0.211456,0.7565665,0.628633,-0.312945,1.1392665,0.3966749999999999,-0.209476,1.2442365,0.591988,-0.323855,0.6918365,0.8449549999999999,-0.421675,1.2977764999999999,0.800145,-0.457185,0.9286805,0.0030649999999999,0.0064049999999999,1.0713195,-0.003065,-0.006405,0.8474265,0.1286649999999999,-0.329415,1.1683465,0.1187849999999999,-0.339165,0.8753165,-0.148135,-0.242556,1.1262865,-0.179595,-0.21903
243,1.0075695,0.586573,-0.247486,0.8735735,0.4289949999999999,-0.211222,0.7566235,0.628633,-0.311955,1.1395335,0.3966749999999999,-0.208734,1.2450035,0.591988,-0.322865,0.6926335,0.8449549999999999,-0.420185,1.2988035,0.800145,-0.454765,0.9286765,0.0030649999999999,0.0064049999999999,1.0713235,-0.003065,-0.006405,0.8472835000000001,0.1286649999999999,-0.329405,1.1687535,0.1187849999999999,-0.339175,0.8757435,-0.148195,-0.241698,1.1263435,-0.179595,-0.219024
244,1.0075204999999998,0.5868099999999999,-0.246299,0.8733495,0.4289949999999999,-0.209868,0.7576595,0.629031,-0.30988,1.1394895,0.3966749999999999,-0.207202,1.2447795,0.5942679999999999,-0.3213,0.6933695,0.845415,-0.41761,1.2985995,0.8027949999999999,-0.45201,0.9285855,0.0030649999999999,0.0060399999999999,1.0714145,-0.003065,-0.00604,0.8468694999999999,0.1286649999999999,-0.32932,1.1688195000000001,0.1187849999999999,-0.33882,0.8755195,-0.148295,-0.239917,1.1261094999999999,-0.179595,-0.218072
245,1.007614,0.5899119999999999,-0.2448239999999999,0.8730740000000001,0.4295749999999999,-0.2078779999999999,0.758724,0.6305769999999999,-0.3078599999999999,1.139454,0.3988349999999999,-0.2053449999999999,1.244584,0.597695,-0.3188999999999999,0.694654,0.847275,-0.41537,1.298424,0.8067749999999999,-0.44826,0.928548,0.0030049999999999,0.00556,1.071452,-0.003005,-0.0055599999999999,0.8462540000000001,0.1275349999999999,-0.3298999999999999,1.168914,0.1174449999999999,-0.33891,0.875144,-0.150295,-0.2376709999999999,1.125904,-0.1809050000000001,-0.2165919999999999
246,1.0077824999999998,0.593624,-0.242254,0.8728535,0.4303,-0.204863,0.7598335,0.632005,-0.305175,1.1395035,0.40254,-0.202356,1.2444735,0.599332,-0.315445,0.6962835,0.84904,-0.412405,1.2983335,0.80891,-0.443185,0.9286665000000001,0.0028299999999999,0.005135,1.0713335,-0.0028299999999999,-0.005135,0.8453135,0.1245,-0.331745,1.1691535,0.11408,-0.340405,0.8748435,-0.1547699999999999,-0.233214,1.1259935,-0.18466,-0.21402
247,1.008026,0.5976599999999999,-0.240126,0.872541,0.4320999999999999,-0.202346,0.7608010000000001,0.6293279999999999,-0.30286,1.139461,0.4059999999999999,-0.19967,1.244721,0.5974789999999999,-0.31177,0.6988110000000001,0.8467499999999999,-0.40979,1.2990110000000001,0.8075999999999999,-0.4397399999999999,0.9288790000000001,0.0031599999999999,0.00478,1.071121,-0.00316,-0.0047799999999999,0.844531,0.1168499999999999,-0.33441,1.169151,0.1068099999999999,-0.3424,0.874441,-0.1639800000000001,-0.229396,1.126071,-0.1929400000000001,-0.2122919999999999
248,1.008327,0.601943,-0.2383,0.872331,0.43277,-0.199967,0.761871,0.631486,-0.300925,1.139451,0.40926,-0.197222,1.244751,0.594989,-0.307955,0.701441,0.84909,-0.407605,1.2999209999999999,0.8053600000000001,-0.435845,0.929094,0.0032999999999999,0.0043949999999999,1.070906,-0.0032999999999999,-0.004395,0.843911,0.1076,-0.337155,1.169001,0.09795,-0.344415,0.8739910000000001,-0.1748199999999999,-0.226163,1.126121,-0.2030799999999999,-0.210945
249,1.008615,0.60653,-0.2366059999999999,0.872138,0.434109,-0.197935,0.763058,0.633275,-0.2990199999999999,1.139438,0.412795,-0.195064,1.2443279999999999,0.594214,-0.30391,0.704208,0.851315,-0.4055499999999999,1.3009179999999998,0.804395,-0.43191,0.929325,0.0034549999999999,0.00401,1.070675,-0.0034549999999999,-0.0040099999999999,0.8434280000000001,0.096895,-0.33979,1.168738,0.0876649999999999,-0.3463699999999999,0.873448,-0.1871249999999999,-0.2231429999999999,1.126248,-0.214585,-0.20982
250,1.008964,0.610934,-0.235261,0.8719939999999999,0.4350429999999999,-0.1959369999999999,0.764234,0.634675,-0.297505,1.1394739999999999,0.417145,-0.1930809999999999,1.244654,0.59703,-0.301075,0.706654,0.853205,-0.404095,1.301684,0.805815,-0.4280549999999999,0.929502,0.0036449999999998,0.003205,1.070498,-0.003645,-0.0032049999999999,0.8431839999999999,0.0843849999999999,-0.342465,1.168544,0.0757849999999999,-0.3474049999999999,0.872694,-0.201165,-0.2203979999999999,1.126464,-0.2279150000000001,-0.2090189999999999
251,1.0092685,0.615255,-0.234011,0.8718805000000001,0.435956,-0.193896,0.7655605,0.635965,-0.296005,1.1395405,0.421145,-0.191185,1.2447705,0.598244,-0.297395,0.7092205,0.854905,-0.402605,1.3019805,0.805895,-0.424315,0.9297525,0.0037949999999999,0.0023149999999999,1.0702475,-0.0037949999999999,-0.002315,0.8430705000000001,0.070085,-0.344855,1.1683905,0.062145,-0.348015,0.8720005,-0.2170349999999999,-0.217415,1.1267205,-0.2429949999999999,-0.208239
252,1.0096805,0.619375,-0.233047,0.8719555,0.437118,-0.191979,0.7670555,0.637465,-0.293995,1.1398455,0.425469,-0.189184,1.2443755,0.597775,-0.293665,0.7123554999999999,0.856785,-0.400735,1.3023555,0.804465,-0.420545,0.9299885,0.004025,0.0015349999999999,1.0700115000000001,-0.004025,-0.001535,0.8431155,0.053995,-0.346915,1.1683455,0.046765,-0.348185,0.8714355,-0.234765,-0.214716,1.1271055,-0.259815,-0.207596
253,1.01032,0.6237,-0.232059,0.872259,0.438276,-0.190307,0.768849,0.63909,-0.2921249999999999,1.140419,0.429506,-0.187465,1.243809,0.59973,-0.290165,0.715659,0.8586,-0.398055,1.302289,0.80657,-0.4166649999999999,0.930411,0.0040999999999999,0.001375,1.069589,-0.0040999999999999,-0.0013749999999999,0.843369,0.03384,-0.347715,1.168129,0.02755,-0.3477249999999999,0.8710789999999999,-0.2569499999999999,-0.212421,1.127649,-0.2804199999999999,-0.207423
254,1.0105985,0.6272800000000001,-0.230205,0.8724265,0.439352,-0.187932,0.7703365,0.64076,-0.2891249999999999,1.1407064999999998,0.431999,-0.185081,1.2438465,0.60002,-0.285985,0.7184865,0.8609500000000001,-0.394475,1.3031265,0.80765,-0.410655,0.9306795,0.00412,0.0017449999999999,1.0693205,-0.0041199999999999,-0.0017449999999999,0.8433465,0.01286,-0.345865,1.1675164999999998,0.00771,-0.345855,0.8706865,-0.27908,-0.209425,1.1278564999999998,-0.3016299999999999,-0.206598
255,1.011023,0.63054,-0.228215,0.8727660000000002,0.4401159999999999,-0.185362,0.772316,0.6427999999999999,-0.2855,1.141246,0.4333899999999999,-0.182557,1.244076,0.60108,-0.28097,0.721066,0.86317,-0.39069,1.304176,0.80915,-0.4042,0.93117,0.0042999999999999,0.0020799999999999,1.06883,-0.0043,-0.0020799999999999,0.8435160000000002,-0.00758,-0.34387,1.166936,-0.01185,-0.34385,0.870406,-0.30036,-0.207183,1.127966,-0.3222400000000001,-0.205527
256,1.0115315,0.6341049999999999,-0.226189,0.8733394999999999,0.4403749999999999,-0.182766,0.7735095,0.649745,-0.28136,1.1420095,0.435901,-0.17951,1.2449695,0.605775,-0.2755,0.7222295000000001,0.8700749999999999,-0.38691,1.3053795,0.8143050000000001,-0.39646,0.9313675,0.0038849999999999,0.0024599999999999,1.0686325,-0.003885,-0.00246,0.8442795,-0.0268349999999999,-0.34185,1.1661695,-0.030945,-0.34181,0.8702795,-0.321035,-0.204984,1.1282695,-0.342315,-0.203936
257,1.0120805,0.63925,-0.222629,0.8736775,0.4435139999999999,-0.179483,0.7743575,0.65322,-0.27671,1.1427275,0.439651,-0.175476,1.2459675,0.6158,-0.26972,0.7224575,0.87404,-0.3813,1.3071275,0.82534,-0.3873999999999999,0.9315785,0.00361,0.00234,1.0684215,-0.00361,-0.00234,0.8454575,-0.05076,-0.3394399999999999,1.1647275,-0.05453,-0.3384399999999999,0.8702775,-0.3493,-0.20251,1.1283275,-0.36845,-0.2017769999999999
258,1.0122559999999998,0.6442399999999999,-0.2206739999999999,0.873548,0.44597,-0.177944,0.774878,0.65655,-0.2731599999999999,1.143118,0.4431,-0.1726359999999999,1.247038,0.62372,-0.26541,0.722448,0.87827,-0.37503,1.308638,0.83422,-0.38087,0.932064,0.0032799999999999,0.00178,1.067936,-0.00328,-0.0017799999999999,0.846698,-0.07431,-0.33598,1.162628,-0.07768,-0.3340999999999999,0.869448,-0.3764,-0.2016389999999999,1.127988,-0.39444,-0.2008499999999999
259,1.0124125,0.649715,-0.217334,0.8735634999999999,0.449235,-0.175339,0.7754035,0.660615,-0.27077,1.1435535,0.445715,-0.169066,1.2491335,0.627275,-0.26087,0.7217435000000001,0.882945,-0.36975,1.3110735,0.8400650000000001,-0.37316,0.9325734999999999,0.002975,0.00125,1.0674265,-0.0029749999999999,-0.00125,0.8477835,-0.0969149999999999,-0.33162,1.1605735,-0.1002349999999999,-0.32916,0.8686535,-0.4034249999999999,-0.200163,1.1274935,-0.4202349999999999,-0.19937
260,1.0130065,0.656285,-0.209876,0.8735975,0.453895,-0.169158,0.7754875,0.666415,-0.260845,1.1442275,0.449345,-0.162161,1.2505475,0.634755,-0.251594,0.7213075,0.889445,-0.356435,1.3125175,0.849835,-0.358985,0.9332104999999999,0.002715,0.0007449999999999,1.0667895,-0.0027149999999999,-0.0007449999999999,0.8486775,-0.1231049999999999,-0.322485,1.1584074999999998,-0.1260449999999999,-0.319735,0.8679275000000001,-0.436455,-0.195126,1.1270775,-0.452045,-0.1943369999999999
261,1.0134504999999998,0.66359,-0.2011109999999999,0.8733955,0.45759,-0.161721,0.7754354999999999,0.67168,-0.2486249999999999,1.1446155,0.45279,-0.153984,1.2511755,0.64404,-0.240441,0.7207155000000001,0.8954200000000001,-0.340935,1.3135355,0.86137,-0.343725,0.9338474999999999,0.00241,0.000315,1.0661525,-0.0024099999999999,-0.000315,0.8493155,-0.1486599999999999,-0.311535,1.1561355,-0.15152,-0.308515,0.8670955,-0.46925,-0.188744,1.1265855,-0.4839999999999999,-0.187894
262,1.0136975,0.6693100000000001,-0.190972,0.8730125,0.46204,-0.153269,0.7749225000000001,0.67727,-0.235668,1.1447924999999999,0.45646,-0.145136,1.2499025,0.6491,-0.227291,0.7200025,0.90177,-0.324165,1.3120825,0.8676200000000001,-0.326075,0.9343985,0.0023099999999999,-0.0002149999999999,1.0656015,-0.00231,0.0002149999999999,0.8496925000000001,-0.17199,-0.2986649999999999,1.1538325,-0.17489,-0.296425,0.8660225,-0.50162,-0.181217,1.1259925,-0.5142100000000001,-0.180334
263,1.0138319999999998,0.674855,-0.180221,0.872256,0.4666849999999999,-0.144458,0.774226,0.682925,-0.222271,1.144876,0.460925,-0.135589,1.250756,0.6539550000000001,-0.213578,0.719246,0.906855,-0.307775,1.312996,0.873655,-0.308245,0.935034,0.002165,-0.000675,1.064966,-0.002165,0.0006749999999999,0.849866,-0.194055,-0.284945,1.1512859999999998,-0.197255,-0.283565,0.8648560000000001,-0.532605,-0.172955,1.1252659999999999,-0.543625,-0.17243
264,1.0141,0.68057,-0.168949,0.871448,0.47166,-0.135038,0.773308,0.68845,-0.208729,1.144938,0.46472,-0.125615,1.252048,0.65884,-0.199837,0.718078,0.91148,-0.290845,1.314228,0.87989,-0.290095,0.935759,0.002,-0.001155,1.064241,-0.002,0.0011549999999999,0.8499680000000001,-0.21521,-0.270765,1.148758,-0.2185099999999999,-0.269775,0.863828,-0.56178,-0.164154,1.124618,-0.57208,-0.163949
265,1.014068,0.6854,-0.157495,0.870423,0.47569,-0.1252329999999999,0.772173,0.69272,-0.195157,1.1447129999999999,0.4675,-0.1155009999999999,1.252813,0.66247,-0.186211,0.716603,0.91334,-0.272765,1.3150330000000001,0.885,-0.272725,0.936367,0.00164,-0.0013849999999999,1.063633,-0.00164,0.0013849999999999,0.849873,-0.2348099999999999,-0.254815,1.1459629999999998,-0.2379199999999999,-0.2539949999999999,0.861853,-0.58985,-0.1548189999999999,1.123843,-0.59962,-0.154708
266,1.0143955,0.690097,-0.148671,0.8700895000000001,0.479037,-0.117126,0.7717295,0.6967669999999999,-0.1836269999999999,1.1449695,0.470237,-0.1072029999999999,1.2542795,0.666257,-0.174012,0.7152594999999999,0.913397,-0.25708,1.3169695,0.8899469999999999,-0.25705,0.9369825,0.001389,-0.0015399999999999,1.0630175,-0.001389,0.0015399999999999,0.8501195,-0.2487729999999999,-0.24052,1.1442695,-0.251833,-0.23969,0.8608795,-0.611093,-0.146837,1.1237295,-0.6204430000000001,-0.146344
267,1.0148825,0.69352,-0.1398075,0.8699715,0.48158,-0.1091594999999999,0.7714415,0.69981,-0.1724545,1.1457215,0.47356,-0.0988975,1.2551714999999999,0.6683600000000001,-0.1616945,0.7138815000000001,0.91684,-0.2430195,1.3177115,0.8930800000000001,-0.2408895,0.9374425,0.001086,-0.0017284999999999,1.0625575,-0.001086,0.0017285,0.8508815000000001,-0.26582,-0.2252195,1.1424615,-0.26894,-0.2244495,0.8605415,-0.63249,-0.1388065,1.1234415,-0.64105,-0.1379365
268,1.0154505,0.6967234999999999,-0.1317725,0.8699245,0.4839035,-0.1017615,0.7712145,0.7026835,-0.1618885,1.1464945,0.4770935,-0.0912285,1.2557345,0.6709835,-0.1505845,0.7127144999999999,0.9201135,-0.2296285,1.3183844999999998,0.8965734999999999,-0.2259185,0.9378325,0.0007344999999999,-0.0019325,1.0621675,-0.0007344999999999,0.0019324999999999,0.8519645,-0.2824764999999999,-0.2098384999999999,1.1405745,-0.2854565,-0.2094085,0.8602745,-0.6523165000000001,-0.1310795,1.1231745,-0.6602865,-0.1300495
269,1.015788,0.6973054999999999,-0.1211345,0.869911,0.4840755,-0.0917335,0.7714210000000001,0.7030955,-0.1498705,1.1473209999999998,0.4789355,-0.0810645,1.256351,0.6693355,-0.1381305,0.711951,0.9211955,-0.2141295,1.319061,0.8955055,-0.2108895,0.938125,0.0002324999999999,-0.0021845,1.061875,-0.0002325,0.0021844999999999,0.8538510000000001,-0.2963044999999999,-0.1916995,1.138331,-0.2994745,-0.1914295,0.860351,-0.6662745,-0.1203115,1.123181,-0.6743445,-0.1191905
270,1.016231,0.697049,-0.110095,0.870045,0.485309,-0.081535,0.771765,0.704439,-0.137672,1.148645,0.480979,-0.070661,1.257155,0.672029,-0.125785,0.7113050000000001,0.922859,-0.199208,1.320305,0.898749,-0.195778,0.9383,-2.000000000002e-06,-0.0024819999999999,1.0617,1.9999999999985307e-06,0.0024819999999999,0.856905,-0.309321,-0.171158,1.134665,-0.312621,-0.170748,0.860645,-0.678291,-0.108797,1.123335,-0.686881,-0.107531
271,1.016716,0.6975669999999999,-0.099096,0.8702650000000001,0.485887,-0.071683,0.7721750000000001,0.7052769999999999,-0.125672,1.150135,0.483217,-0.060415,1.258435,0.6763969999999999,-0.113965,0.710805,0.924147,-0.184686,1.321715,0.903317,-0.181096,0.9383570000000001,-0.000211,-0.002709,1.061643,0.000211,0.0027089999999999,0.859915,-0.3211529999999999,-0.151631,1.131315,-0.3245429999999999,-0.150998,0.861025,-0.689123,-0.097498,1.123575,-0.6976530000000001,-0.095967
272,1.016945,0.698028,-0.0879875,0.87025,0.486548,-0.0615155,0.77215,0.7063280000000001,-0.1134635,1.15143,0.484718,-0.0500865,1.2594400000000001,0.681778,-0.1026745,0.7102299999999999,0.926358,-0.1698495,1.3222299999999998,0.907978,-0.1678195,0.938385,-0.000244,-0.0029594999999999,1.061615,0.000244,0.0029595,0.86281,-0.332372,-0.1324575,1.12833,-0.336012,-0.1316675,0.86129,-0.699552,-0.0861015,1.12374,-0.7078019999999999,-0.0844275
273,1.0172615,0.6981055,-0.076909,0.8704255,0.4870055,-0.051417,0.7721655000000001,0.7071855,-0.101275,1.1528155,0.4865955,-0.039963,1.2602455,0.6879555,-0.09161,0.7098255,0.9292455,-0.154823,1.3227255,0.9135855,-0.154173,0.9385495,-0.0002804999999999,-0.00309,1.0614505,0.0002805,0.0030899999999999,0.8658255,-0.3425945,-0.113382,1.1256154999999999,-0.3464945,-0.112801,0.8616655,-0.7089945,-0.074913,1.1240455,-0.7172345,-0.073174
274,1.0174919999999998,0.6984925,-0.0662145,0.870409,0.4878425,-0.0418015,0.772179,0.7085325,-0.0892925,1.1538789999999999,0.4885225,-0.0302265,1.260929,0.6941324999999999,-0.0808695,0.7093590000000001,0.9343025,-0.1407315,1.322999,0.9193025,-0.1407415,0.938756,1.1499999999997623e-05,-0.0033415,1.061244,-1.1500000000001093e-05,0.0033415,0.868479,-0.3494275,-0.0963084999999999,1.123339,-0.3534375,-0.0961495,0.861599,-0.7159675000000001,-0.0641585,1.124269,-0.7238375,-0.0623945
275,1.017706,0.6973305,-0.054903,0.870262,0.4875405,-0.031835,0.772232,0.7087105,-0.076249,1.154802,0.4894305,-0.019835,1.261552,0.6954705,-0.069657,0.708812,0.9394005,-0.12557,1.323272,0.9203305,-0.12607,0.93887,0.0002285,-0.0035179999999999,1.06113,-0.0002284999999999,0.003518,0.871182,-0.3552194999999999,-0.079354,1.121232,-0.3592694999999999,-0.079872,0.861502,-0.7220595,-0.0527329999999999,1.124562,-0.7295294999999999,-0.051331
276,1.017856,0.697053,-0.0435555,0.87003,0.487963,-0.0216955,0.7722,0.709623,-0.0631905,1.15527,0.489633,-0.0093665,1.26174,0.698473,-0.0586075,0.70844,0.940493,-0.1097785,1.32347,0.922913,-0.1116785,0.938894,0.000544,-0.0037665,1.061106,-0.0005439999999999,0.0037665,0.87346,-0.359747,-0.0634455,1.11939,-0.363717,-0.0645005,0.8612299999999999,-0.7263569999999999,-0.0413605,1.12474,-0.734317,-0.0401145
277,1.017958,0.6964755,-0.0304695,0.86991,0.4881655,-0.0098765,0.77246,0.7103055,-0.0482935,1.15581,0.4895855,0.0025424999999999,1.26205,0.7015855,-0.0456555,0.70818,0.9414055,-0.0917994999999999,1.32382,0.9262255,-0.0955594999999999,0.93879,0.0008835,-0.0038605,1.06121,-0.0008835,0.0038604999999999,0.8758900000000001,-0.3650845,-0.0463704999999999,1.11793,-0.3691945,-0.0475445,0.86187,-0.7289145,-0.0270925,1.12498,-0.7388745,-0.0265925
278,1.017797,0.6970770000000001,-0.0227555,0.8696429999999999,0.489097,-0.0032554999999999,0.772543,0.711687,-0.0388155,1.155993,0.490417,0.0090245,1.261933,0.706627,-0.0376795,0.707693,0.942727,-0.0808625,1.3234329999999999,0.931497,-0.0841045,0.93879,0.0013619999999999,-0.0038575,1.06121,-0.001362,0.0038575,0.877623,-0.368253,-0.0359634999999999,1.117153,-0.372513,-0.0373585,0.862033,-0.728673,-0.0188975,1.125033,-0.740783,-0.0188365
279,1.0174409999999998,0.6975785,-0.0159245,0.8693020000000001,0.4897685,0.0025585,0.772582,0.7124385,-0.0308135,1.155992,0.4907184999999999,0.0145535,1.2618420000000001,0.7071885,-0.0303335,0.707222,0.9437585,-0.0706244999999999,1.322972,0.9327985,-0.0732935,0.938709,0.0016184999999999,-0.0038565,1.061291,-0.0016185,0.0038565,0.878182,-0.3698615,-0.0292115,1.117172,-0.3741215,-0.0311235,0.862062,-0.7287515,-0.0119785,1.125052,-0.7422415,-0.0123525
280,1.0169884999999999,0.697975,-0.0095979999999999,0.8688765,0.490075,0.00804,0.7725565,0.712915,-0.023204,1.1559465,0.4908049999999999,0.019718,1.2617365,0.707625,-0.0232619999999999,0.7067665000000001,0.944525,-0.060778,1.3225065,0.934345,-0.0627369999999999,0.9385785,0.0017989999999999,-0.0038949999999999,1.0614215,-0.001799,0.0038949999999999,0.8786965,-0.371165,-0.022878,1.1171265,-0.375425,-0.025362,0.8620365,-0.728665,-0.0054209999999999,1.1250164999999999,-0.743425,-0.0063539999999999
281,1.016271,0.6982715,-0.0034669999999999,0.868141,0.4899015,0.013344,0.772241,0.7129315,-0.015849,1.1556009999999999,0.4906315,0.024771,1.261421,0.7078515,-0.0164679999999999,0.705971,0.9447415,-0.051338,1.321741,0.9361715,-0.05202,0.938253,0.0019114999999999,-0.0038869999999999,1.061747,-0.0019115,0.003887,0.878911,-0.3721085,-0.0167659999999999,1.116781,-0.3763685,-0.019892,0.861711,-0.7283985,0.000976,1.124681,-0.7444485,-0.0005919999999999
