sb224sc-HT22-VT27/4dt907/src/ml-research/a11/datafiles/kinect_good_preprocessed_A9_mediapipe/A145_kinect_mirrored.csv
FrameNo,nose_3d_x,nose_3d_y,nose_3d_z,left_shoulder_3d_x,left_shoulder_3d_y,left_shoulder_3d_z,left_elbow_3d_x,left_elbow_3d_y,left_elbow_3d_z,right_shoulder_3d_x,right_shoulder_3d_y,right_shoulder_3d_z,right_elbow_3d_x,right_elbow_3d_y,right_elbow_3d_z,left_wrist_3d_x,left_wrist_3d_y,left_wrist_3d_z,right_wrist_3d_x,right_wrist_3d_y,right_wrist_3d_z,left_hip_3d_x,left_hip_3d_y,left_hip_3d_z,right_hip_3d_x,right_hip_3d_y,right_hip_3d_z,left_knee_3d_x,left_knee_3d_y,left_knee_3d_z,right_knee_3d_x,right_knee_3d_y,right_knee_3d_z,left_ankle_3d_x,left_ankle_3d_y,left_ankle_3d_z,right_ankle_3d_x,right_ankle_3d_y,right_ankle_3d_z
42,1.0034785,0.7113315,0.0407745,0.8583885,0.4858815000000001,0.0443454999999999,0.7670485000000001,0.7337215,0.0301695,1.1355084999999998,0.5030115000000001,0.0482775,1.2294985,0.7486515,0.0227444999999999,0.6986185,0.9794115,0.0091674999999999,1.2802084999999999,0.9851115,0.0048964999999999,0.9281805,0.0004375,-0.0012835,1.0718195,-0.0004375,0.0012835,0.8761285,-0.3725585,-0.0048525,1.1240285,-0.3695285,-0.0258595,0.8567785,-0.7123284999999999,0.0091884999999999,1.1398485,-0.7376984999999999,-0.0079135
43,1.0038779999999998,0.7117530000000001,0.039525,0.858385,0.485433,0.04317,0.766935,0.733253,0.028172,1.135705,0.5032030000000001,0.047049,1.229325,0.748963,0.02006,0.698225,0.978913,0.00362,1.2775649999999998,0.983913,0.000103,0.9281290000000001,0.000372,-0.0011699999999999,1.0718709999999998,-0.0003719999999999,0.00117,0.875705,-0.372857,-0.0065679999999999,1.123885,-0.369637,-0.027288,0.8569249999999999,-0.712967,0.007513,1.139875,-0.7376269999999999,-0.0089959999999999
44,1.0042924999999998,0.7118030000000001,0.0378219999999999,0.8583485000000001,0.485053,0.0416939999999999,0.7667984999999999,0.732843,0.0256239999999999,1.1359985,0.503243,0.045515,1.2291085,0.7490530000000001,0.016467,0.6976785,0.977813,-0.002789,1.2748585000000001,0.984313,-0.0057,0.9280945,0.000372,-0.001072,1.0719055,-0.0003719999999999,0.001072,0.8750985,-0.3743769999999999,-0.008995,1.1236485,-0.370007,-0.029213,0.8570885,-0.713517,0.005384,1.1398884999999999,-0.737467,-0.010432
45,1.0046979999999999,0.7118030000000001,0.035239,0.858235,0.484823,0.039651,0.766485,0.7326130000000001,0.021826,1.136555,0.503243,0.043495,1.228865,0.7490530000000001,0.011485,0.697675,0.976213,-0.0101539999999999,1.271515,0.984413,-0.014355,0.9279910000000001,0.000372,-0.0009699999999999,1.072009,-0.0003719999999999,0.00097,0.8744050000000001,-0.376197,-0.0121259999999999,1.123635,-0.370787,-0.032014,0.857235,-0.713957,0.002574,1.139795,-0.737397,-0.0125609999999999
46,1.0050955,0.7118030000000001,0.03203,0.8583885,0.484823,0.03728,0.7659585,0.732433,0.017089,1.1368485,0.503243,0.04116,1.2285985,0.7490530000000001,0.005676,0.6975885,0.973113,-0.0188279999999999,1.2684185000000001,0.982813,-0.023329,0.9278505,0.000372,-0.000928,1.0721495,-0.0003719999999999,0.0009279999999999,0.8736685,-0.378407,-0.015959,1.1236585,-0.371637,-0.035707,0.8571584999999999,-0.714387,-0.001,1.1396785,-0.7374269999999999,-0.014976
47,1.0053569999999998,0.7119635000000001,0.028245,0.858478,0.4847035,0.0345209999999999,0.765238,0.7320335,0.011552,1.137158,0.5034035,0.0383919999999999,1.228268,0.7492135000000001,-0.001017,0.6973480000000001,0.9699735,-0.02769,1.265238,0.9809735,-0.034356,0.927695,0.0003074999999999,-0.0008239999999999,1.072305,-0.0003075,0.0008239999999999,0.8728480000000001,-0.3804165,-0.020824,1.123778,-0.3723565,-0.040305,0.857128,-0.7149264999999999,-0.005104,1.139638,-0.7372964999999999,-0.0180159999999999
48,1.0054585,0.711775,0.0232579999999999,0.8586285000000001,0.484405,0.031,0.7641884999999999,0.731285,0.0046919999999999,1.1374085,0.503215,0.034858,1.2278385,0.7489750000000001,-0.009098,0.6968885,0.962585,-0.038246,1.2624085,0.979485,-0.046114,0.9275645,0.000266,-0.000725,1.0724355,-0.000266,0.000725,0.8717185000000001,-0.381955,-0.0279559999999999,1.1237785,-0.372525,-0.046861,0.8570185000000001,-0.715645,-0.010281,1.1394585,-0.736605,-0.022018
49,1.0055035,0.710556,0.0182115,0.8586555000000001,0.483786,0.0273055,0.7629655000000001,0.730186,-0.0021635,1.1375155000000001,0.501066,0.0304585,1.2268455,0.7470060000000001,-0.0171165,0.6959955,0.956606,-0.0480685,1.2595455,0.978506,-0.0576335,0.9274235000000001,0.000255,-0.0006254999999999,1.0725764999999998,-0.0002549999999999,0.0006254999999999,0.8705855,-0.3828539999999999,-0.0360534999999999,1.1236355,-0.372034,-0.0544555,0.8571755,-0.715724,-0.0131745,1.1393555,-0.735304,-0.0265294999999999
50,1.0053779999999999,0.709302,0.012995,0.8586199999999999,0.483252,0.0235809999999999,0.76138,0.7289920000000001,-0.009382,1.13771,0.499252,0.026023,1.22562,0.745322,-0.025608,0.69478,0.951162,-0.058149,1.2566,0.978052,-0.070848,0.927216,0.000246,-0.000533,1.072784,-0.0002459999999999,0.000533,0.86921,-0.3833879999999999,-0.044891,1.1234899999999999,-0.3738979999999999,-0.063508,0.85702,-0.715668,-0.0189319999999999,1.13912,-0.733688,-0.031083
51,1.0052299999999998,0.7074035,0.007769,0.8585,0.4827335,0.0200219999999999,0.7597600000000001,0.7276935,-0.016237,1.13777,0.4975435,0.02175,1.22464,0.7435535,-0.033568,0.69372,0.9460535,-0.066414,1.2543199999999999,0.9780935,-0.082657,0.927112,0.0003195,-0.000434,1.072888,-0.0003195,0.000434,0.86786,-0.3832165,-0.053877,1.1233,-0.3753865,-0.0726999999999999,0.85675,-0.7150565,-0.024817,1.13883,-0.7316965,-0.035539
52,1.0049089999999998,0.704649,0.0023269999999999,0.858392,0.4823489999999999,0.016662,0.758022,0.725969,-0.0231579999999999,1.137592,0.496079,0.017636,1.223432,0.741869,-0.04153,0.692712,0.941139,-0.073749,1.252292,0.978429,-0.094231,0.927013,0.0003949999999999,-0.0003519999999999,1.072987,-0.0003949999999999,0.0003519999999999,0.866522,-0.3825909999999999,-0.063119,1.123292,-0.376721,-0.082298,0.856652,-0.7147410000000001,-0.0305429999999999,1.1386020000000001,-0.729801,-0.04037
53,1.0044875,0.702387,-0.0031505,0.8582485,0.481487,0.0125515,0.7562885,0.724227,-0.0303734999999999,1.1372285,0.494527,0.0127685,1.2221085,0.7400869999999999,-0.0502125,0.6914085000000001,0.938757,-0.0817405,1.2502985,0.979927,-0.1064495,0.9268595,0.000412,-0.0001235,1.0731405,-0.000412,0.0001234999999999,0.8651985,-0.378683,-0.0740885,1.1233485,-0.375243,-0.0934705,0.8564685,-0.711233,-0.0359995,1.1382785,-0.7246330000000001,-0.0456655
54,1.004137,0.6987315,-0.008056,0.8581420000000001,0.4807515,0.0088799999999999,0.754542,0.7224714999999999,-0.037044,1.136762,0.4933515,0.008347,1.220642,0.7385115,-0.058724,0.689902,0.9370615,-0.089615,1.249242,0.9783515,-0.117192,0.926642,0.0003515,5.100000000000005e-05,1.073358,-0.0003515,-5.100000000000005e-05,0.8640020000000002,-0.3747685,-0.085177,1.123492,-0.3735385,-0.104442,0.8559820000000001,-0.7069785000000001,-0.041725,1.137892,-0.7191785,-0.050588
55,1.0037379999999998,0.6957925,-0.012843,0.857991,0.4803825,0.005311,0.752751,0.7212324999999999,-0.043247,1.136441,0.4905724999999999,0.003457,1.219201,0.7357025,-0.066449,0.688431,0.9386325,-0.096347,1.248051,0.9789225,-0.127578,0.926422,0.0004485,0.000392,1.073578,-0.0004485,-0.000392,0.8625309999999999,-0.3687075,-0.096633,1.123881,-0.3702075,-0.115558,0.855421,-0.6999875,-0.0471679999999999,1.137441,-0.7113275,-0.0554589999999999
56,1.0032595,0.6934815,-0.0174805,0.8577925,0.4799715,0.0016695,0.7508825,0.7200115,-0.0492875,1.1360124999999999,0.4884615,-0.0012935,1.2180825,0.7333515,-0.0740795,0.6870225000000001,0.9329815,-0.1048185,1.2472125,0.9800115,-0.1368285,0.9261935,0.0005554999999999,0.0006004999999999,1.0738064999999999,-0.0005555,-0.0006004999999999,0.8609025000000001,-0.3620185,-0.1079385,1.1243425,-0.3660985,-0.1265585,0.8548325,-0.6916185,-0.0521415,1.1370425,-0.7023285,-0.0603125
57,1.00281,0.691357,-0.021618,0.8576900000000001,0.479657,-0.0017009999999999,0.74966,0.718597,-0.055214,1.13519,0.4862269999999999,-0.005951,1.21735,0.7308370000000001,-0.081201,0.68569,0.934307,-0.112361,1.2463899999999999,0.981067,-0.146971,0.925974,0.000503,0.000781,1.074026,-0.000503,-0.000781,0.85951,-0.353153,-0.118481,1.1248799999999999,-0.359003,-0.137271,0.8545600000000001,-0.6804629999999999,-0.057254,1.13652,-0.690703,-0.064617
58,1.0022024999999999,0.6895065,-0.0263765,0.8573195,0.4799064999999999,-0.0056425,0.7483795000000001,0.7176764999999999,-0.0619985,1.1344095,0.4857964999999999,-0.0104325,1.2158995,0.7267264999999999,-0.0886465,0.6852095,0.9369765,-0.1217995,1.2455795,0.9783365,-0.1572895,0.9257205,0.0005324999999999,0.0009255,1.0742795,-0.0005325,-0.0009254999999999,0.8579595,-0.3421835,-0.1297095,1.1254294999999999,-0.3513735,-0.1484295,0.8546595000000001,-0.6667835,-0.0584265,1.1359595,-0.6765335,-0.0674635
59,1.001225,0.6886859999999999,-0.0348055,0.856637,0.481636,-0.0121325,0.746867,0.717946,-0.0725045,1.133357,0.486846,-0.0175745,1.214397,0.7242259999999999,-0.0992245,0.684277,0.941326,-0.1353385,1.2445169999999999,0.975846,-0.1704385,0.925364,0.0003459999999999,0.0013605,1.074636,-0.0003459999999999,-0.0013604999999999,0.8560570000000001,-0.329644,-0.1436885,1.125527,-0.338084,-0.1616385,0.854407,-0.6502640000000001,-0.0617475,1.1350069999999999,-0.659474,-0.0724525
60,0.9998985000000001,0.6895855,-0.042689,0.8555535,0.4820155,-0.019527,0.7448535000000001,0.7175155,-0.083206,1.1315935,0.4857555,-0.026129,1.2124735,0.7224554999999999,-0.110101,0.6822235,0.9452755,-0.149317,1.2437535,0.9729155,-0.185627,0.9249225000000001,0.0002864999999999,0.001799,1.0750775,-0.0002864999999999,-0.0017989999999999,0.8531235,-0.3141245,-0.159697,1.1253735,-0.3216745,-0.177857,0.8537035,-0.6312645,-0.068132,1.1334535,-0.6392145,-0.078414
61,0.9983415000000001,0.6903725,-0.0517425,0.8542865,0.4822424999999999,-0.0283225,0.7428165,0.7172225,-0.0955015,1.1299565,0.4847325,-0.0357565,1.2107565,0.7160425,-0.1220495,0.6798765,0.9454525,-0.1661494999999999,1.2431365,0.9653225,-0.2017495,0.9244505000000001,0.0002194999999999,0.0021875,1.0755495,-0.0002194999999999,-0.0021875,0.8497565,-0.2932275,-0.1759695,1.1254665,-0.3005075,-0.1940595,0.8529065,-0.6065375000000001,-0.0736335,1.1316065,-0.6155775,-0.0809735
62,0.9973925000000001,0.690525,-0.0600389999999999,0.8534495,0.483165,-0.035703,0.7411595,0.717055,-0.107042,1.1287395,0.483775,-0.043947,1.2090895,0.7106750000000001,-0.131789,0.6779995000000001,0.943765,-0.181029,1.2429995,0.958415,-0.216469,0.9241265,0.000195,0.002472,1.0758735,-0.000195,-0.002472,0.8468795,-0.273425,-0.189369,1.1260195,-0.280615,-0.207639,0.8525095,-0.584145,-0.077552,1.1299995,-0.594155,-0.081726
63,0.99643,0.69166,-0.0683355,0.8525650000000001,0.48387,-0.0432805,0.7394350000000001,0.71677,-0.1187174999999999,1.127385,0.48216,-0.0525735,1.207395,0.70578,-0.1410075,0.676175,0.94244,-0.1961475,1.243015,0.95457,-0.2319575,0.923866,0.00024,0.0027004999999999,1.076134,-0.0002399999999999,-0.0027004999999999,0.8439050000000001,-0.25363,-0.2019875,1.1268150000000001,-0.26053,-0.2208475,0.852085,-0.56112,-0.0815584999999999,1.128395,-0.57209,-0.0822155
64,0.995566,0.691775,-0.0773485,0.851763,0.4840649999999999,-0.0515174999999999,0.738113,0.715735,-0.1314335,1.126163,0.4822349999999999,-0.0612155,1.205443,0.702775,-0.1521635,0.674463,0.939085,-0.2129035,1.2431029999999998,0.949205,-0.2483635,0.923619,0.0001049999999999,0.0027165,1.076381,-0.000105,-0.0027164999999999,0.840433,-0.233515,-0.2150235,1.1279029999999999,-0.240195,-0.2339535,0.851023,-0.535815,-0.0854175,1.127753,-0.550865,-0.0842455
65,0.9945325,0.6915899999999999,-0.086934,0.8508815000000001,0.48424,-0.060589,0.7363215000000001,0.71468,-0.144919,1.1245515,0.48171,-0.0709299999999999,1.2039015,0.69776,-0.163599,0.6731415000000001,0.943,-0.229369,1.2433415,0.93854,-0.264229,0.9234055,6.0000000000004494e-05,0.0027089999999999,1.0765945,-6.0000000000004494e-05,-0.0027089999999999,0.8367815000000001,-0.21177,-0.228529,1.1290215,-0.21863,-0.247549,0.8505715,-0.51125,-0.087949,1.1265815,-0.52809,-0.08418
66,0.9933985,0.6914899999999999,-0.096159,0.8498985,0.48443,-0.069365,0.7343485000000001,0.71417,-0.15732,1.1228685,0.48166,-0.080119,1.2020385,0.69322,-0.17379,0.6718185,0.94479,-0.24524,1.2433185,0.92967,-0.27874,0.9230615000000001,0.0001,0.00276,1.0769384999999998,-9.9999999999989e-05,-0.00276,0.8331085,-0.19193,-0.24105,1.1298885,-0.19893,-0.25984,0.8497785000000001,-0.48809,-0.090731,1.1249685,-0.50696,-0.084718
67,0.992259,0.69119,-0.10484,0.84907,0.48502,-0.077111,0.73285,0.7138100000000001,-0.168962,1.12159,0.4823699999999999,-0.088321,1.20078,0.69202,-0.183512,0.6709400000000001,0.94436,-0.259242,1.24293,0.92436,-0.291662,0.922871,5.999999999997674e-05,0.0031369999999999,1.077129,-6.0000000000004494e-05,-0.0031369999999999,0.82944,-0.17475,-0.252912,1.13075,-0.18064,-0.271222,0.84934,-0.46784,-0.093017,1.1240899999999998,-0.48815,-0.0860969999999999
68,0.9916665,0.6905300000000001,-0.1115,0.8486845000000001,0.4818,-0.085108,0.7317945,0.71108,-0.1778549999999999,1.1206745,0.4796,-0.096383,1.2001745,0.6903900000000001,-0.191345,0.6704245000000001,0.94226,-0.270395,1.2430845,0.91961,-0.3018949999999999,0.9227175,0.00015,0.0034889999999999,1.0772825,-0.0001499999999999,-0.003489,0.8262345,-0.15796,-0.2637649999999999,1.1316645,-0.1639199999999999,-0.281335,0.8495145,-0.44884,-0.093902,1.1235745,-0.47021,-0.086206
69,0.9912905000000001,0.68845,-0.1177464999999999,0.8487295000000001,0.48167,-0.0909254999999999,0.7316295000000002,0.7098,-0.1857365,1.1202195,0.48066,-0.1017795,1.2001295,0.68658,-0.1977365,0.6706795000000001,0.94032,-0.2799165,1.2431495,0.91572,-0.3091165,0.9226375,6.999999999995898e-05,0.0039585,1.0773625,-7.00000000000145e-05,-0.0039585,0.8240895000000001,-0.14286,-0.2717065,1.1326495,-0.14943,-0.2882365,0.8499595,-0.43044,-0.0941574999999999,1.1237495,-0.45348,-0.0863454999999999
70,0.990902,0.687715,-0.121422,0.848753,0.4809449999999999,-0.09464,0.7311930000000001,0.708865,-0.190192,1.119673,0.480865,-0.105313,1.200263,0.688855,-0.201312,0.670273,0.941275,-0.284702,1.243133,0.917865,-0.3140219999999999,0.922507,1.4999999999987246e-05,0.004246,1.077493,-1.4999999999987246e-05,-0.004246,0.822333,-0.131555,-0.278012,1.133263,-0.137965,-0.294082,0.850033,-0.414475,-0.09448,1.124213,-0.438025,-0.08836
71,0.9907735000000001,0.686825,-0.121614,0.8488545000000001,0.4801149999999999,-0.094812,0.7311445000000001,0.7079949999999999,-0.1906439999999999,1.1194145,0.481245,-0.105434,1.1999645,0.691375,-0.2021939999999999,0.6702645,0.942285,-0.285634,1.2431345,0.919845,-0.315934,0.9223945,-2.4999999999997247e-05,0.004306,1.0776055,2.4999999999997247e-05,-0.004306,0.8209045,-0.119225,-0.281144,1.1338945,-0.125555,-0.297164,0.8504845,-0.398425,-0.09207,1.1250544999999998,-0.422415,-0.087003
72,0.9907505,0.6861900000000001,-0.1212505,0.8490945,0.47897,-0.0944285,0.7313244999999999,0.7069700000000001,-0.1899505,1.1194045,0.48102,-0.1048305,1.1996045,0.69416,-0.2024605,0.6704245000000001,0.9432,-0.2849205,1.2432745,0.92315,-0.3137805,0.9222494999999999,-9.9999999999989e-05,0.0042845,1.0777505,0.0001,-0.0042845,0.8194445000000001,-0.1086399999999999,-0.2843905,1.1342245,-0.1146799999999999,-0.3000105,0.8510745,-0.38232,-0.0888475,1.1261445,-0.40649,-0.0857095
73,0.99089,0.685225,-0.119988,0.849452,0.478265,-0.093308,0.7316819999999999,0.706465,-0.187898,1.119502,0.481115,-0.103658,1.199952,0.696645,-0.200798,0.670532,0.944495,-0.282498,1.243552,0.926525,-0.311068,0.922143,-0.0001849999999999,0.004278,1.077857,0.0001849999999999,-0.0042779999999999,0.8186720000000001,-0.098555,-0.286808,1.134142,-0.1047349999999999,-0.302668,0.851332,-0.3663549999999999,-0.086198,1.127662,-0.391105,-0.0865549999999999
74,0.9910350000000001,0.684705,-0.1185029999999999,0.849781,0.477435,-0.091723,0.732091,0.706105,-0.185173,1.119521,0.480955,-0.102203,1.200471,0.700735,-0.198953,0.670871,0.945895,-0.278833,1.243871,0.934905,-0.306913,0.922075,-0.0004049999999999,0.004232,1.077925,0.0004049999999999,-0.004232,0.817951,-0.089565,-0.289103,1.134201,-0.095725,-0.305373,0.8516810000000001,-0.3516749999999999,-0.084406,1.129061,-0.376955,-0.088173
75,0.9911485,0.684415,-0.116723,0.8501155,0.476434,-0.090283,0.7324455000000001,0.7056450000000001,-0.182463,1.1196555,0.481055,-0.100673,1.2010055,0.705175,-0.1976929999999999,0.6712655000000001,0.946795,-0.274773,1.2440055,0.943195,-0.3028329999999999,0.9220755,-0.0005749999999999,0.004151,1.0779245,0.0005749999999999,-0.004151,0.8171355,-0.0805549999999999,-0.291223,1.1342855,-0.086575,-0.308153,0.8524555,-0.338685,-0.082863,1.1303455,-0.3626749999999999,-0.088093
76,0.9911675000000001,0.684675,-0.114689,0.8503915,0.474561,-0.089269,0.7324714999999999,0.704775,-0.179359,1.1196515,0.480651,-0.099459,1.2013215,0.7061550000000001,-0.196229,0.6703515,0.946195,-0.270709,1.2444614999999999,0.944415,-0.299059,0.9220925000000001,-0.0008149999999999,0.0040609999999999,1.0779074999999998,0.000815,-0.0040609999999999,0.8162515,-0.0707449999999999,-0.292789,1.1345415,-0.0770349999999999,-0.310769,0.8527615,-0.326055,-0.081449,1.1314315,-0.348225,-0.090299
77,0.9908220000000001,0.6838299999999999,-0.112565,0.850536,0.475198,-0.087295,0.7321160000000001,0.7053499999999999,-0.176595,1.119566,0.482874,-0.0975149999999999,1.201886,0.70731,-0.1947849999999999,0.6691560000000001,0.94686,-0.266975,1.245096,0.9403,-0.296525,0.922103,-0.00106,0.004091,1.077897,0.00106,-0.004091,0.8150660000000001,-0.06141,-0.293955,1.134556,-0.06819,-0.313445,0.8529059999999999,-0.3144699999999999,-0.080105,1.132686,-0.33415,-0.092205
78,0.990323,0.68372,-0.1104439999999999,0.850531,0.474707,-0.085814,0.731771,0.7059,-0.1737139999999999,1.119441,0.482303,-0.096464,1.2023009999999998,0.7120299999999999,-0.193414,0.667821,0.94808,-0.264204,1.245661,0.93742,-0.295674,0.922059,-0.0011399999999999,0.004136,1.077941,0.00114,-0.004136,0.813561,-0.0519799999999999,-0.294414,1.134711,-0.05867,-0.315614,0.853231,-0.30308,-0.077854,1.133461,-0.32057,-0.092124
79,0.9895240000000001,0.682315,-0.1087984999999999,0.850403,0.475283,-0.0845085,0.731293,0.706705,-0.1714885,1.119213,0.482496,-0.0957985,1.202543,0.715125,-0.1929085,0.6661630000000001,0.949685,-0.2621185,1.245883,0.935165,-0.2959285,0.922027,-0.0011149999999999,0.0042354999999999,1.077973,0.001115,-0.0042355,0.811403,-0.0434249999999999,-0.2945985,1.134663,-0.0498349999999999,-0.3178185,0.8531730000000001,-0.293845,-0.0755585,1.134213,-0.3076649999999999,-0.0900785
80,0.9887745,0.681705,-0.107567,0.8501905000000001,0.475603,-0.083797,0.7306205,0.707335,-0.169907,1.1190605,0.482659,-0.095727,1.2029405,0.7145950000000001,-0.192487,0.6637605,0.949295,-0.261077,1.2464505,0.933755,-0.296157,0.9220335,-0.0012149999999999,0.004299,1.0779665,0.001215,-0.0042989999999999,0.8092604999999999,-0.0343749999999999,-0.294687,1.1347605,-0.0407749999999999,-0.319467,0.8529505,-0.2852449999999999,-0.073797,1.1350704999999999,-0.2953949999999999,-0.0890469999999999
81,0.9880565,0.681175,-0.1070925,0.8499015,0.475783,-0.0838825,0.7305415,0.707735,-0.1687425,1.1189615,0.483996,-0.0963025,1.2033714999999998,0.713105,-0.1925525,0.6610615,0.948625,-0.2597125,1.2480415,0.931525,-0.2967325,0.9222115,-0.0013549999999999,0.0044645,1.0777885,0.0013549999999999,-0.0044644999999999,0.8072515,-0.025355,-0.2944725,1.1349215,-0.0321049999999999,-0.3209025,0.8526015,-0.277175,-0.0725725,1.1357115,-0.2836049999999999,-0.0885425
82,0.987487,0.681405,-0.1073085,0.849628,0.475807,-0.0846784999999999,0.728718,0.707345,-0.1685985,1.118848,0.484686,-0.0975885,1.203798,0.7113750000000001,-0.1934085,0.657628,0.947775,-0.2590685,1.250138,0.928875,-0.2990185,0.922378,-0.0014449999999999,0.0046035,1.077622,0.001445,-0.0046034999999999,0.805338,-0.0167149999999999,-0.2941785,1.135148,-0.023455,-0.3221885,0.852218,-0.2695449999999999,-0.0721385,1.135998,-0.2727549999999999,-0.0884885
83,0.986804,0.680975,-0.107898,0.8493720000000001,0.476138,-0.085778,0.726882,0.707095,-0.168818,1.118762,0.485361,-0.0989579999999999,1.203862,0.709715,-0.194608,0.653722,0.946735,-0.258828,1.252102,0.925995,-0.299188,0.922532,-0.0014349999999999,0.004654,1.077468,0.001435,-0.0046539999999999,0.8034120000000001,-0.0089849999999999,-0.293998,1.1354719999999998,-0.0156049999999999,-0.322888,0.8516520000000001,-0.262945,-0.071898,1.136142,-0.263425,-0.088658
84,0.9861985,0.6804749999999999,-0.108637,0.8491635000000001,0.476653,-0.086657,0.7251935,0.706855,-0.169127,1.1186535,0.485513,-0.100407,1.2039535,0.707425,-0.195517,0.6496934999999999,0.945605,-0.2591569999999999,1.2543035,0.921925,-0.299977,0.9226875,-0.001435,0.0046439999999999,1.0773125000000001,0.0014349999999999,-0.004644,0.8015435,-0.002145,-0.293877,1.1358635,-0.0088749999999999,-0.322997,0.8509435,-0.257175,-0.071657,1.1364035000000001,-0.255495,-0.0889369999999999
85,0.9857005,0.6803199999999999,-0.10948,0.8490245000000001,0.4772969999999999,-0.08729,0.7237345,0.70671,-0.1693599999999999,1.1186045,0.4855839999999999,-0.10171,1.2040945,0.70871,-0.1963899999999999,0.6470845000000001,0.94622,-0.25998,1.2566745,0.92468,-0.30089,0.9228885,-0.00142,0.004631,1.0771115,0.0014199999999999,-0.0046309999999999,0.7998645,0.0039599999999999,-0.29377,1.1363145000000001,-0.00212,-0.32321,0.8500345,-0.25176,-0.07128,1.1367145,-0.24834,-0.08889
86,0.985356,0.6804,-0.1104764999999999,0.849043,0.47759,-0.0877565,0.7226429999999999,0.7064,-0.1697165,1.118513,0.484709,-0.1029865,1.2042329999999999,0.70802,-0.1966764999999999,0.644703,0.94529,-0.2612565,1.258673,0.93031,-0.3018165,0.9230510000000001,-0.0013199999999999,0.0047265,1.076949,0.0013199999999999,-0.0047264999999999,0.798483,0.00887,-0.2933564999999999,1.136713,0.0039,-0.3235665,0.848963,-0.2478399999999999,-0.0710365,1.136933,-0.24295,-0.0889665
87,0.9851395,0.68007,-0.1116435,0.8489964999999999,0.4772969999999999,-0.0883435,0.7217065,0.70547,-0.1702335,1.1183265,0.484691,-0.1039735,1.2043765,0.7055,-0.1974735,0.6424365000000001,0.94356,-0.2629135,1.2607065,0.93365,-0.3049635,0.9230905000000001,-0.0013999999999999,0.0048674999999999,1.0769095,0.0013999999999999,-0.0048675,0.7974265,0.0121599999999999,-0.2927634999999999,1.1370065,0.0083299999999999,-0.3242935,0.8477665,-0.2458399999999999,-0.0709735,1.1366365,-0.23889,-0.0893635
88,0.985026,0.68042,-0.1129765,0.848913,0.476699,-0.0891265,0.720853,0.70442,-0.1709865,1.1181429999999999,0.484338,-0.1050165,1.204473,0.70331,-0.1985065,0.640513,0.9426,-0.2646665,1.2623630000000001,0.93595,-0.3079065,0.9231320000000001,-0.00155,0.0050904999999999,1.076868,0.00155,-0.0050905,0.796903,0.0151799999999999,-0.2920265,1.137253,0.0117199999999999,-0.3254565,0.847073,-0.2429099999999999,-0.0711665,1.1362729999999999,-0.2355,-0.0900565
89,0.9848945,0.6802699999999999,-0.11465,0.8488195000000001,0.476081,-0.09022,0.7200895,0.70329,-0.17204,1.1179595,0.4838179999999999,-0.10628,1.2045695,0.7020299999999999,-0.19961,0.6394394999999999,0.94268,-0.2668,1.2638395,0.93609,-0.3117999999999999,0.9231644999999999,-0.00156,0.00525,1.0768355,0.00156,-0.0052499999999999,0.7964995,0.0174699999999999,-0.29124,1.1376095,0.0131399999999999,-0.3259499999999999,0.8464595,-0.24059,-0.07195,1.1360495,-0.23306,-0.09069
90,0.984708,0.679885,-0.1162339999999999,0.8487930000000001,0.4759019999999999,-0.091484,0.719393,0.7027249999999999,-0.173264,1.117743,0.4828599999999999,-0.107534,1.204523,0.7009449999999999,-0.200884,0.639193,0.942665,-0.268654,1.264603,0.935795,-0.314604,0.923251,-0.001475,0.0052929999999999,1.076749,0.001475,-0.0052929999999999,0.796133,0.0189349999999999,-0.290844,1.137953,0.0138149999999999,-0.326024,0.8457130000000002,-0.239055,-0.073174,1.136043,-0.231625,-0.091074
91,0.9845745,0.67961,-0.1173845,0.8487155,0.475657,-0.0924845,0.7191955,0.70291,-0.1741744999999999,1.1175455,0.482108,-0.1085345,1.2043555,0.69941,-0.2014844999999999,0.6389655000000001,0.94276,-0.2698145,1.2646955,0.93529,-0.3159345,0.9232835000000001,-0.0014199999999999,0.0052975,1.0767164999999999,0.0014199999999999,-0.0052974999999999,0.7957055,0.0202299999999999,-0.2905045,1.1383155,0.01499,-0.3255645,0.8449955,-0.2378099999999999,-0.0741344999999999,1.1359655,-0.23028,-0.0911345
92,0.9845230000000001,0.6794450000000001,-0.118001,0.8487,0.475344,-0.093001,0.71904,0.7030150000000001,-0.1746609999999999,1.11744,0.4816040000000001,-0.109071,1.20414,0.697675,-0.201841,0.63881,0.943055,-0.270351,1.26454,0.934595,-0.316471,0.923316,-0.0014249999999998,0.005382,1.076684,0.001425,-0.005382,0.7954200000000001,0.021435,-0.290211,1.13868,0.016135,-0.325581,0.84455,-0.2365649999999999,-0.074651,1.13579,-0.2287449999999999,-0.090441
93,0.984544,0.679055,-0.1180135,0.848719,0.4758699999999999,-0.0926434999999999,0.718909,0.703365,-0.1741235,1.117359,0.481799,-0.1090635,1.204059,0.6957749999999999,-0.2014535,0.638699,0.943605,-0.2703435,1.264429,0.933415,-0.3164635,0.923335,-0.0013549999999999,0.0053805,1.076665,0.0013549999999999,-0.0053805,0.795159,0.0222049999999999,-0.2900535,1.139049,0.0170649999999999,-0.3256035,0.843939,-0.235615,-0.0750635,1.1355089999999999,-0.227465,-0.0892935
94,0.9846955,0.6784100000000001,-0.1180255,0.8488884999999999,0.476135,-0.0922255,0.7195585000000001,0.70303,-0.1735855,1.1173985,0.481924,-0.1089755,1.2043885,0.69454,-0.2008055,0.6393584999999999,0.94383,-0.2703855,1.2649685,0.93226,-0.3164955,0.9233645,-0.0011799999999999,0.0053784999999999,1.0766355,0.00118,-0.0053785,0.7950785,0.02234,-0.2900455,1.1396085,0.01722,-0.3256455,0.8433385,-0.2353499999999999,-0.0757555,1.1356085,-0.2271999999999999,-0.0891055
95,0.9848025,0.6784100000000001,-0.1180354999999999,0.8489685,0.476135,-0.0917955,0.7201085,0.70303,-0.1730355,1.1174085,0.481924,-0.1088555,1.2044985,0.69454,-0.1999955,0.6405685000000001,0.94383,-0.2702255,1.2652885,0.93226,-0.3159655,0.9233645,-0.0011799999999999,0.0053784999999999,1.0766355,0.00118,-0.0053785,0.7949685,0.02231,-0.2900455,1.1400385,0.01699,-0.3256655,0.8433185,-0.2350099999999999,-0.0759654999999999,1.1355285,-0.2271999999999999,-0.0891055
96,0.9849125000000001,0.6784,-0.1179865,0.8490185,0.4764179999999999,-0.0913365,0.7205984999999999,0.70302,-0.1724164999999999,1.1174585,0.4819139999999999,-0.1086565,1.2047485,0.69453,-0.1999665,0.6419985,0.94382,-0.2696765,1.2654785,0.93225,-0.3147665,0.9233505,-0.00119,0.0054085,1.0766495,0.0011899999999999,-0.0054084999999999,0.7947785,0.0224299999999999,-0.2899865,1.1401885,0.01793,-0.3259865,0.8432985,-0.23468,-0.0767665,1.1354785,-0.22671,-0.0890565
97,0.985163,0.6784,-0.1170529999999999,0.849245,0.4764179999999999,-0.090183,0.7212149999999999,0.70302,-0.170903,1.117805,0.4819139999999999,-0.107663,1.205165,0.69453,-0.198623,0.644185,0.94382,-0.267593,1.265885,0.93225,-0.312753,0.923247,-0.00119,0.005415,1.076753,0.0011899999999999,-0.005415,0.794625,0.0224299999999999,-0.289603,1.140305,0.0185599999999999,-0.325773,0.843415,-0.23464,-0.076553,1.135515,-0.22626,-0.088253
98,0.985609,0.6795450000000001,-0.115902,0.8495650000000001,0.4765230000000001,-0.088902,0.722075,0.7024650000000001,-0.169092,1.118345,0.4814690000000001,-0.106232,1.205655,0.692285,-0.197292,0.646245,0.943805,-0.265322,1.2664749999999998,0.930105,-0.310452,0.923123,-0.0010649999999999,0.005308,1.076877,0.001065,-0.005308,0.794855,0.020175,-0.289112,1.140515,0.0169150000000001,-0.325512,0.844255,-0.2361849999999999,-0.076042,1.1357249999999999,-0.2279749999999999,-0.087342
99,0.9859,0.6803649999999999,-0.1147699999999999,0.849788,0.4768669999999999,-0.08745,0.7227780000000001,0.7034849999999999,-0.16737,1.118908,0.4818369999999999,-0.10468,1.2066379999999999,0.6927549999999999,-0.19594,0.6477580000000001,0.943285,-0.2627899999999999,1.267688,0.931165,-0.3083,0.922978,-0.000955,0.005306,1.077022,0.0009549999999999,-0.0053059999999999,0.794988,0.0135449999999999,-0.2881599999999999,1.140628,0.0105849999999999,-0.32476,0.845588,-0.240675,-0.07557,1.135828,-0.234635,-0.08667
100,0.986368,0.6811800000000001,-0.1135659999999999,0.850102,0.4765810000000001,-0.086016,0.723662,0.7034900000000001,-0.165656,1.119772,0.4824820000000001,-0.102956,1.2078820000000001,0.6909900000000001,-0.193946,0.649062,0.94184,-0.260176,1.2690519999999998,0.92981,-0.306136,0.922873,-0.0009099999999999,0.005317,1.077127,0.00091,-0.0053169999999999,0.795272,0.00499,-0.287156,1.140682,0.00165,-0.323796,0.847382,-0.2474599999999999,-0.074716,1.135972,-0.2439499999999999,-0.085856
101,0.9868185,0.68216,-0.1124225,0.8503785,0.476315,-0.0845325,0.7241385,0.70333,-0.1641025,1.1206185,0.482614,-0.1012625,1.2091685,0.6939200000000001,-0.1930225,0.6499785,0.94236,-0.2576425,1.2708685,0.93299,-0.3048425,0.9227935,-0.0007499999999999,0.0052034999999999,1.0772065,0.00075,-0.0052035,0.7955085,-0.0044799999999999,-0.2863425,1.1403085,-0.0092099999999999,-0.3225225,0.8493284999999999,-0.2561,-0.0739725,1.1358285,-0.2557499999999999,-0.0843425
102,0.987176,0.68335,-0.111337,0.850337,0.476072,-0.083067,0.7243269999999999,0.70313,-0.162737,1.121387,0.483889,-0.0992469999999999,1.210477,0.69401,-0.191087,0.650837,0.94091,-0.255407,1.272397,0.93302,-0.302867,0.922701,-0.0007499999999999,0.005151,1.077299,0.00075,-0.0051509999999999,0.795937,-0.0159799999999999,-0.285657,1.139287,-0.02178,-0.321077,0.851137,-0.2674999999999999,-0.073237,1.135787,-0.27085,-0.0834869999999999
103,0.9874785,0.68378,-0.1098305,0.8502535,0.476694,-0.0808805,0.7244835000000001,0.70368,-0.1609205,1.1221035,0.483688,-0.0968604999999999,1.2116935,0.69311,-0.1891405,0.6516135000000001,0.94146,-0.2532605,1.2733634999999999,0.93214,-0.3007305,0.9227025000000001,-0.0003099999999999,0.0052324999999999,1.0772974999999998,0.0003099999999999,-0.0052325,0.7966035,-0.03165,-0.2844605,1.1380035,-0.03926,-0.3190605,0.8528135,-0.28451,-0.0724005,1.1357835,-0.29242,-0.0827405
104,0.987977,0.685575,-0.1076309999999999,0.85027,0.478212,-0.078011,0.72464,0.704755,-0.1590909999999999,1.12302,0.48435,-0.093801,1.21241,0.695295,-0.187091,0.6521600000000001,0.941145,-0.251151,1.27405,0.932315,-0.299001,0.922698,-0.0001149999999999,0.0051999999999999,1.077302,0.000115,-0.0052,0.79755,-0.0494649999999999,-0.282341,1.1366100000000001,-0.0578049999999999,-0.316551,0.85457,-0.3053949999999999,-0.070991,1.13581,-0.3165949999999999,-0.082021
105,0.9885755,0.688375,-0.105031,0.8502685,0.479137,-0.074911,0.7247385,0.705945,-0.157011,1.1239085,0.4842,-0.090761,1.2122685,0.696165,-0.184901,0.6530985,0.940425,-0.248191,1.2741885,0.930875,-0.296871,0.9226785,1.5000000000042755e-05,0.0050979999999999,1.0773215,-1.4999999999987246e-05,-0.005098,0.7987285,-0.0676749999999999,-0.279261,1.1352585,-0.0774149999999999,-0.313661,0.8562784999999999,-0.328195,-0.069511,1.1357884999999999,-0.342205,-0.081061
106,0.9892980000000001,0.691535,-0.102148,0.850339,0.4799449999999999,-0.071578,0.724979,0.707575,-0.154408,1.124849,0.4839549999999999,-0.087268,1.211959,0.695165,-0.1820979999999999,0.6537090000000001,0.942175,-0.245258,1.274559,0.929205,-0.292618,0.9227710000000001,0.0001149999999999,0.0050979999999999,1.077229,-0.000115,-0.005098,0.8003890000000001,-0.086395,-0.275248,1.134039,-0.097835,-0.309858,0.858409,-0.3519150000000001,-0.066068,1.135739,-0.3697750000000001,-0.079728
107,0.989907,0.693335,-0.0985845,0.850348,0.480715,-0.0680845,0.7253880000000001,0.7089650000000001,-0.1515845,1.125778,0.484395,-0.0839445,1.214158,0.693695,-0.1795045,0.6542479999999999,0.943305,-0.2420745,1.276248,0.927735,-0.2886545,0.9228820000000001,0.000145,0.0050604999999999,1.0771179999999998,-0.000145,-0.0050605,0.8020579999999999,-0.1044049999999999,-0.2701845,1.132898,-0.116885,-0.3041545,0.859348,-0.3776849999999999,-0.0629245,1.135378,-0.397595,-0.0781445
108,0.9904415,0.69593,-0.0946834999999999,0.8502625,0.48387,-0.0642835,0.7261225,0.71085,-0.1485135,1.1266725,0.48421,-0.0805235,1.2162325,0.69018,-0.1760735,0.6545825000000001,0.94273,-0.2386835,1.2779625000000001,0.92371,-0.2843735,0.9231095,0.00031,0.0049695,1.0768905,-0.0003099999999999,-0.0049695,0.8039925,-0.1200799999999999,-0.2644335,1.1320425,-0.1334899999999999,-0.2969835,0.8595925,-0.40286,-0.0601135,1.1349925,-0.4226899999999999,-0.0765935
109,0.990762,0.69875,-0.0903565,0.849973,0.4861,-0.0603025,0.726323,0.71185,-0.1445065,1.127263,0.484,-0.0767565,1.218033,0.68814,-0.1715765,0.6546430000000001,0.94558,-0.2350465,1.279523,0.92128,-0.2797365,0.923533,0.0004299999999999,0.0048764999999999,1.076467,-0.0004299999999999,-0.0048764999999999,0.806033,-0.13583,-0.2575465,1.131333,-0.15039,-0.2892465,0.859693,-0.4284,-0.0573134999999999,1.134093,-0.4477399999999999,-0.0742865
110,0.990992,0.701185,-0.0859219999999999,0.849477,0.489045,-0.056061,0.725777,0.711785,-0.140002,1.127857,0.485155,-0.072892,1.219277,0.687485,-0.167522,0.654557,0.944575,-0.231552,1.280977,0.920415,-0.275712,0.92399,0.000405,0.004811,1.07601,-0.0004049999999999,-0.0048109999999999,0.8080470000000001,-0.151835,-0.250102,1.130807,-0.166555,-0.280462,0.8594570000000001,-0.453835,-0.0561489999999999,1.133187,-0.472525,-0.071902
111,0.991143,0.70451,-0.080997,0.84905,0.49234,-0.051714,0.72525,0.71147,-0.134827,1.12833,0.4847499999999999,-0.069167,1.22004,0.6910499999999999,-0.162677,0.65442,0.94449,-0.227827,1.2814999999999999,0.92364,-0.270707,0.924374,0.0006499999999999,0.004808,1.075626,-0.00065,-0.004808,0.81013,-0.16629,-0.242347,1.13062,-0.18217,-0.271667,0.85928,-0.47783,-0.052979,1.13217,-0.49573,-0.069477
112,0.991583,0.708835,-0.0755105,0.848861,0.494855,-0.0472434999999999,0.725001,0.714045,-0.1294705,1.129061,0.4861649999999999,-0.0651305,1.221581,0.695565,-0.1573304999999999,0.654871,0.940855,-0.2224404999999999,1.282611,0.928375,-0.2651004999999999,0.924959,0.0003849999999999,0.0048815,1.075041,-0.0003849999999999,-0.0048814999999999,0.812551,-0.1798649999999999,-0.2340204999999999,1.130811,-0.1938049999999999,-0.2620805,0.859341,-0.4986049999999999,-0.0499405,1.131341,-0.515025,-0.0670905
113,0.9919775000000001,0.711785,-0.0703465,0.8485914999999999,0.496295,-0.0431745,0.7253015,0.715545,-0.1234465,1.1296615,0.486615,-0.0613965,1.2237215,0.696455,-0.1527065,0.6557215000000001,0.936835,-0.2158065,1.2837515,0.931455,-0.2600265,0.9255205,0.000375,0.0049734999999999,1.0744795,-0.0003749999999999,-0.0049734999999999,0.8149215000000001,-0.1923349999999999,-0.2255165,1.1310115,-0.204945,-0.2529165,0.8601815000000002,-0.5174949999999999,-0.0460285,1.1305815,-0.5331549999999999,-0.0648365
114,0.992693,0.71318,-0.0596069999999999,0.848488,0.49524,-0.0342259999999999,0.726028,0.715,-0.112557,1.130768,0.486,-0.0522059999999999,1.226658,0.69338,-0.141237,0.657198,0.93604,-0.205517,1.285618,0.93107,-0.2478869999999999,0.926456,0.00054,0.004762,1.073544,-0.0005399999999999,-0.0047619999999999,0.8200080000000001,-0.21214,-0.2086569999999999,1.1300080000000001,-0.22315,-0.2336869999999999,0.861348,-0.5433,-0.037408,1.129578,-0.55818,-0.057587
115,0.9934235,0.7141000000000001,-0.0489815,0.8482415,0.49707,-0.0249075,0.7264715000000002,0.71699,-0.1021765,1.1326815,0.48902,-0.0429605,1.2292715,0.69816,-0.1299465,0.6586615,0.93206,-0.1942465,1.2876215,0.93673,-0.2368564999999999,0.9270655,0.0004499999999999,0.0043915,1.0729345,-0.00045,-0.0043915,0.8258814999999999,-0.23217,-0.1893065,1.1282815,-0.2412,-0.2112164999999999,0.8623215,-0.56889,-0.0278555,1.1285615,-0.5824199999999999,-0.0492214999999999
116,0.994296,0.7159599999999999,-0.037766,0.848316,0.49875,-0.015632,0.727646,0.7197,-0.090784,1.134296,0.49085,-0.0337349999999999,1.230906,0.70387,-0.120194,0.660266,0.93514,-0.182224,1.288786,0.94295,-0.225214,0.927642,0.0005469999999999,0.003978,1.072358,-0.000547,-0.003978,0.832006,-0.25256,-0.168684,1.126566,-0.26012,-0.188614,0.863246,-0.59314,-0.019699,1.127926,-0.60643,-0.040899
117,0.9952555,0.717158,-0.0268269999999999,0.8485175,0.497928,-0.0068879999999999,0.7290775,0.720448,-0.079468,1.1358475,0.4926979999999999,-0.024812,1.2328575,0.7088679999999999,-0.110528,0.6620975,0.940378,-0.170618,1.2910075,0.948838,-0.212648,0.9282555000000001,0.000556,0.003664,1.0717444999999999,-0.000556,-0.003664,0.8384475,-0.2718819999999999,-0.146918,1.1249375,-0.278242,-0.165668,0.8642775,-0.615542,-0.0117849999999999,1.1274875,-0.6293420000000001,-0.032431
118,0.996095,0.7180525,-0.0167034999999999,0.848598,0.4983825,0.0013164999999999,0.730468,0.7229224999999999,-0.0690704999999999,1.137238,0.4944525,-0.0167555,1.235338,0.7145325,-0.1011305,0.663848,0.9431725,-0.1587005,1.293478,0.9554225,-0.2008605,0.928771,0.0005964999999999,0.0034145,1.071229,-0.0005964999999999,-0.0034145,0.844698,-0.2896174999999999,-0.1252404999999999,1.123408,-0.2944974999999999,-0.1429805,0.864448,-0.6357775,-0.0061355,1.127098,-0.6502175,-0.0239825
119,0.9967705000000001,0.7189114999999999,-0.0069364999999999,0.8488895,0.4985915,0.0091805,0.7318795,0.7270314999999999,-0.0596845,1.1384195,0.4954815,-0.0087094999999999,1.2369395,0.7159215,-0.0916044999999999,0.6657795,0.9482915,-0.1464245,1.2950595,0.9577815,-0.1883445,0.9291685000000001,0.0006175,0.0032075,1.0708315,-0.0006175,-0.0032075,0.8510195,-0.3070184999999999,-0.1027445,1.1221795,-0.3106184999999999,-0.1208945,0.8652195,-0.6549685000000001,0.0008014999999999,1.1268395,-0.6702185,-0.0155445
120,0.9973650000000001,0.7187695,0.0021764999999999,0.849064,0.4984495,0.0166865,0.733394,0.7314195,-0.0501935,1.139414,0.4970595,-0.0009704999999999,1.238024,0.7155594999999999,-0.0819835,0.6674340000000001,0.9543795,-0.1340635,1.295974,0.9586995,-0.1760235,0.929467,0.0005395,0.0030015,1.070533,-0.0005395,-0.0030015,0.8568640000000001,-0.3229505,-0.0807234999999999,1.121014,-0.3257704999999999,-0.0990134999999999,0.865764,-0.6729905,0.0083115,1.126614,-0.6889805,-0.0068404999999999
121,0.9978345,0.718144,0.0106354999999999,0.8492005,0.4979939999999999,0.0237634999999999,0.7349505000000001,0.731964,-0.0405005,1.1403405,0.4982139999999999,0.0064514999999999,1.2389305,0.715104,-0.0725205,0.6692505,0.961904,-0.1226205,1.2966205,0.959034,-0.1636205,0.9297745,0.000522,0.0026874999999999,1.0702255,-0.0005219999999999,-0.0026875,0.8625404999999999,-0.3379459999999999,-0.0591205,1.1198705,-0.340186,-0.0777705,0.8661105,-0.688836,0.0158634999999999,1.1264905,-0.705816,0.0018314999999999
122,0.998372,0.7172685,0.0192954999999999,0.8493760000000001,0.4975284999999999,0.0308714999999999,0.7363660000000001,0.7328585,-0.0312665,1.141226,0.4992284999999999,0.0139294999999999,1.239296,0.7145385,-0.0624065,0.6712359999999999,0.9706285,-0.1113565,1.297166,0.9595085,-0.1500965,0.930084,0.0005135,0.0023885,1.069916,-0.0005135,-0.0023885,0.8683060000000001,-0.3512015,-0.0373365,1.118916,-0.3528415,-0.0561065,0.866316,-0.7029315,0.0241734999999999,1.126636,-0.7208615,0.0107134999999999
123,0.9988355,0.7171305,0.024262,0.8495885,0.4993404999999999,0.03509,0.7374685000000001,0.7356105,-0.0246509999999999,1.1419185,0.5015505,0.018145,1.2395584999999998,0.7194404999999999,-0.056539,0.6733685,0.9763005,-0.1021189999999999,1.2975984999999999,0.9653005,-0.141619,0.9301435000000001,0.0003254999999999,0.0023849999999999,1.0698565,-0.0003255,-0.0023849999999999,0.8715185,-0.3562995,-0.0220409999999999,1.1195485,-0.3569495,-0.042309,0.8664485,-0.7079995,0.028043,1.1268985,-0.7269695,0.01646
124,0.9988045000000001,0.71734,0.0291849999999999,0.8496684999999999,0.49833,0.0388499999999999,0.7386485,0.7358100000000001,-0.017963,1.1418185,0.50033,0.021974,1.2395185,0.7182700000000001,-0.051776,0.6752185000000002,0.98314,-0.094206,1.2974885,0.96504,-0.134036,0.9299785,0.0003189999999999,0.0023959999999999,1.0700215,-0.0003189999999999,-0.0023959999999999,0.8733385000000001,-0.35999,-0.009898,1.1198485,-0.35971,-0.032246,0.8661985,-0.71138,0.031027,1.1268285,-0.73185,0.02083
125,0.9986695,0.7161655,0.0325625,0.8493455,0.4977654999999999,0.0422645,0.7388555,0.7355055,-0.0129254999999999,1.1416855,0.4999655,0.0253875,1.2392154999999998,0.7178955,-0.0469034999999999,0.6764255,0.9835455,-0.0875834999999999,1.2969154999999999,0.9653455,-0.1272535,0.9298165,0.0002474999999999,0.0024065,1.0701835,-0.0002475,-0.0024064999999999,0.8747955000000001,-0.3626344999999999,-0.0002644999999999,1.1200155,-0.3604445,-0.0242404999999999,0.8662255,-0.7126245,0.0340945,1.1267255,-0.7342345,0.0246515
126,0.9983655000000001,0.715124,0.0334545,0.8491335,0.4971239999999999,0.0433645,0.7388035,0.735154,-0.0103725,1.1413935,0.499614,0.0265535,1.2390035,0.717414,-0.0446205,0.6770134999999999,0.983974,-0.0831205,1.2967935,0.965374,-0.1236405,0.9294485000000001,0.000132,0.0023175,1.0705514999999999,-0.000132,-0.0023175,0.8757535,-0.364676,0.0053274999999999,1.1199335,-0.362276,-0.0199605,0.8652935000000002,-0.714256,0.0346934999999999,1.1269735,-0.735956,0.0256484999999999
127,0.998101,0.714086,0.0343949999999999,0.84899,0.496566,0.0445139999999999,0.73862,0.734726,-0.008175,1.14068,0.499326,0.0277799999999999,1.23833,0.716806,-0.042605,0.6773100000000001,0.984096,-0.079545,1.29583,0.9652960000000002,-0.120055,0.929125,6.199999999999956e-05,0.0022799999999999,1.070875,-6.199999999999956e-05,-0.00228,0.87661,-0.365584,0.0096869999999999,1.12055,-0.362534,-0.016609,0.86433,-0.7138439999999999,0.0350939999999999,1.1273,-0.737414,0.0263129999999999
128,0.997446,0.7136285,0.0355275,0.8487979999999999,0.4961285,0.0454985,0.738488,0.7342785000000001,-0.0062284999999999,1.140008,0.4989285,0.0287795,1.237498,0.7164585000000001,-0.0406204999999999,0.677318,0.9839385,-0.0761705,1.294548,0.9653385,-0.1168805,0.928887,3.149999999999681e-05,0.0023405,1.071113,-3.150000000000375e-05,-0.0023404999999999,0.877248,-0.3658815,0.0122535,1.121558,-0.3623815,-0.0143164999999999,0.863438,-0.7127615,0.0351515,1.127998,-0.7382215000000001,0.0266525
129,0.9967805,0.7133784999999999,0.03668,0.8486305000000001,0.4958985,0.046531,0.7383805,0.7340285,-0.004308,1.1393605,0.4987285,0.0297899999999999,1.2366705,0.7162985,-0.038762,0.6772905,0.9836885,-0.072932,1.2932405,0.9653885,-0.1138719999999999,0.9287495,-2.4500000000003685e-05,0.002305,1.0712505,2.4499999999996747e-05,-0.002305,0.8777105000000001,-0.3661315,0.014126,1.1224504999999998,-0.3621815,-0.0125979999999999,0.8625005,-0.7118915,0.034819,1.1286805,-0.7387415,0.026601
130,0.9962410000000002,0.713302,0.037733,0.848582,0.4958919999999999,0.04747,0.738302,0.733952,-0.0026539999999999,1.138852,0.4987419999999999,0.030835,1.235982,0.7162820000000001,-0.03711,0.677362,0.983612,-0.0701519999999999,1.292122,0.965412,-0.1113919999999999,0.928639,-6.099999999999856e-05,0.002243,1.071361,6.100000000000549e-05,-0.002243,0.878032,-0.366208,0.015253,1.123202,-0.362058,-0.0116679999999999,0.8617319999999999,-0.7110179999999999,0.03446,1.129392,-0.7388979999999999,0.026411
131,0.99572,0.712833,0.038066,0.8484510000000001,0.4959429999999999,0.048452,0.738091,0.733603,-0.0012829999999999,1.138471,0.498743,0.031703,1.235521,0.7161930000000001,-0.0366679999999999,0.677481,0.983523,-0.0683459999999999,1.291131,0.965323,-0.1115859999999999,0.928632,-0.0001309999999999,0.002137,1.071368,0.0001309999999999,-0.002137,0.878001,-0.366297,0.014713,1.123411,-0.362147,-0.0116829999999999,0.8611409999999999,-0.710627,0.03377,1.130011,-0.7387469999999999,0.025558
132,0.9950575,0.712223,0.037387,0.8481965,0.4959729999999999,0.0495489999999999,0.7375765000000001,0.7331030000000001,-0.000113,1.1380465,0.498493,0.031872,1.2354565,0.7160030000000001,-0.03766,0.6771965,0.983323,-0.067108,1.2901865,0.965323,-0.1125179999999999,0.9286355,-0.0001309999999999,0.0021909999999999,1.0713645,0.0001309999999999,-0.002191,0.8779365000000001,-0.366387,0.0137209999999999,1.1233865,-0.362147,-0.011923,0.8606365,-0.7103269999999999,0.0328059999999999,1.1305565,-0.738567,0.0248019999999999
133,0.9942535,0.7115225000000001,0.0366694999999999,0.8477135,0.4956925,0.0507175,0.7367435,0.7324325,0.0010355,1.1376035,0.4980725,0.0316555,1.2354235,0.7156725,-0.0384274999999999,0.6760435,0.9828625,-0.0657555,1.2893035,0.9652625,-0.1132354999999999,0.9286285,-0.0001705,0.0023385,1.0713715,0.0001704999999999,-0.0023385,0.8779035,-0.3666675,0.0129535,1.1233935,-0.3621074999999999,-0.0121665,0.8603235,-0.7101675,0.0320565,1.1311435,-0.7383275,0.0242095
134,0.9931235,0.7107445,0.036652,0.8464675,0.4952145,0.052955,0.7339575,0.7317144999999999,0.00287,1.1376075,0.4977745,0.031565,1.2362075,0.7151445,-0.0385689999999999,0.6719575,0.9818045,-0.064387,1.2886375,0.9648045,-0.113277,0.9285855000000001,-0.0002124999999999,0.002432,1.0714145,0.0002125,-0.0024319999999999,0.8783875,-0.3672355,0.012831,1.1241775,-0.3620155,-0.012308,0.8607975000000001,-0.7099255,0.031935,1.1324975,-0.7378355,0.024126
135,0.991689,0.7097235,0.036745,0.844484,0.4950735,0.054837,0.728884,0.7288235,0.004848,1.137714,0.4970334999999999,0.031557,1.238694,0.7123335,-0.0393619999999999,0.666614,0.9788635,-0.0634749999999999,1.287404,0.9579635,-0.116135,0.9285430000000001,-0.0003685,0.002435,1.0714569999999999,0.0003685,-0.0024349999999999,0.879234,-0.3680065,0.01157,1.125804,-0.3620465,-0.0124139999999999,0.862634,-0.7089165000000001,0.031599,1.134804,-0.7370765,0.02414
