sb224sc-HT22-VT27/4dt907/src/ml-research/a11/datafiles/kinect_good_preprocessed_A9_mediapipe/A155_kinect.csv
FrameNo,nose_3d_x,nose_3d_y,nose_3d_z,left_shoulder_3d_x,left_shoulder_3d_y,left_shoulder_3d_z,left_elbow_3d_x,left_elbow_3d_y,left_elbow_3d_z,right_shoulder_3d_x,right_shoulder_3d_y,right_shoulder_3d_z,right_elbow_3d_x,right_elbow_3d_y,right_elbow_3d_z,left_wrist_3d_x,left_wrist_3d_y,left_wrist_3d_z,right_wrist_3d_x,right_wrist_3d_y,right_wrist_3d_z,left_hip_3d_x,left_hip_3d_y,left_hip_3d_z,right_hip_3d_x,right_hip_3d_y,right_hip_3d_z,left_knee_3d_x,left_knee_3d_y,left_knee_3d_z,right_knee_3d_x,right_knee_3d_y,right_knee_3d_z,left_ankle_3d_x,left_ankle_3d_y,left_ankle_3d_z,right_ankle_3d_x,right_ankle_3d_y,right_ankle_3d_z
57,-0.024080499999999998,0.720117,-0.034188,-0.19382749999999999,0.521327,-0.011814999999999999,-0.3681275,0.7134269999999999,-0.05594,0.1695825,0.531747,-0.037549000000000006,0.3092825,0.7314569999999999,-0.11395,-0.4069175,0.953097,-0.11016000000000001,0.3346725,0.983667,-0.16499,-0.0769245,-0.0014990000000000003,0.0007279999999999995,0.0769245,0.0014990000000000003,-0.0007279999999999995,-0.08786150000000001,-0.484353,0.053169999999999995,0.1233825,-0.500673,0.049683,-0.09444749999999999,-0.864803,0.086363,0.1472725,-0.8780330000000001,0.073934
58,-0.024071499999999996,0.7200985,-0.0342665,-0.1938165,0.5213385,-0.0123295,-0.36705649999999995,0.7145385,-0.0576505,0.1694535,0.5317685,-0.0375575,0.30827350000000003,0.7316885,-0.11393050000000002,-0.4042965,0.9597585000000001,-0.11332050000000002,0.33352350000000003,0.9836785,-0.16505050000000002,-0.0769205,-0.001510499999999998,0.0007155000000000009,0.0769205,0.001510500000000005,-0.0007155000000000009,-0.0880215,-0.4843415,0.0528115,0.12322350000000001,-0.5008615,0.049390500000000004,-0.0945465,-0.8647914999999999,0.0863515,0.1471335,-0.8785715,0.0739255
59,-0.024103,0.7200935,-0.03454599999999999,-0.19387400000000002,0.5213535,-0.012977999999999996,-0.366064,0.7152835,-0.059479000000000004,0.169266,0.5317835,-0.037741,0.307286,0.7317035,-0.11395899999999999,-0.401904,0.9662934999999999,-0.116299,0.332376,0.9835935,-0.16517900000000002,-0.076908,-0.001525499999999999,0.0006620000000000029,0.076908,0.001525500000000006,-0.0006619999999999959,-0.088253,-0.4843265,0.052252,0.12290599999999999,-0.5011265,0.048689,-0.09471399999999999,-0.8649865,0.086188,0.146896,-0.8790465,0.073881
60,-0.024159499999999993,0.720039,-0.035067999999999995,-0.19394849999999997,0.521449,-0.013973,-0.36517849999999996,0.715399,-0.061409,0.16899150000000002,0.531799,-0.038305,0.3063015,0.731799,-0.11427899999999999,-0.39975849999999996,0.972389,-0.119259,0.3311115,0.983589,-0.165629,-0.0769165,-0.001576000000000001,0.0006330000000000016,0.0769165,0.001576000000000001,-0.0006330000000000016,-0.0885405,-0.48423099999999997,0.051218,0.1225015,-0.501111,0.04746,-0.09490849999999999,-0.865421,0.085763,0.14662150000000002,-0.879421,0.073606
61,-0.024384999999999997,0.7199605,-0.03626750000000001,-0.19419199999999998,0.5216405,-0.015630500000000006,-0.364522,0.7156005,-0.0639735,0.168518,0.5319705,-0.039690500000000004,0.305218,0.7320004999999999,-0.1153135,-0.39785200000000004,0.9784904999999999,-0.1228035,0.329548,0.9836905,-0.1667635,-0.076935,-0.0016475000000000031,0.0007394999999999971,0.076935,0.0016474999999999962,-0.000739500000000004,-0.089065,-0.48405950000000003,0.049431499999999996,0.12196800000000001,-0.5008795,0.044954499999999994,-0.095342,-0.8656795,0.0848065,0.146208,-0.8797395,0.0727875
62,-0.024655500000000004,0.7196475,-0.038204,-0.1944305,0.5216875,-0.018050999999999998,-0.3639105,0.7159875,-0.067138,0.1679695,0.5321175,-0.04192,0.3041795,0.7321175,-0.117288,-0.3959105,0.9788775,-0.126848,0.3278995,0.9836775000000001,-0.168518,-0.0769725,-0.001733499999999999,0.0009390000000000023,0.0769725,0.001733499999999999,-0.0009389999999999954,-0.08972350000000001,-0.48373249999999995,0.046912,0.12146950000000001,-0.5004825,0.040707,-0.09588050000000001,-0.8662825,0.083386,0.1457095,-0.8797725,0.07149
63,-0.024944499999999994,0.7192345,-0.040983,-0.19465549999999998,0.5215945,-0.020842999999999993,-0.3634055,0.7166545,-0.070799,0.1673445,0.5318945,-0.044638000000000004,0.3031445,0.7320245,-0.12007899999999999,-0.39525550000000004,0.9795444999999999,-0.12966899999999998,0.3261445,0.9833445,-0.17115899999999998,-0.07702049999999999,-0.0018345000000000028,0.0012539999999999982,0.07702049999999999,0.0018344999999999959,-0.0012539999999999982,-0.09058749999999999,-0.4831555,0.043416,0.1208745,-0.4996855,0.034459000000000004,-0.09647549999999999,-0.8666655,0.08144,0.1451645,-0.8794555000000001,0.069715
64,-0.025260500000000005,0.7183315,-0.04487499999999999,-0.1948495,0.5214015,-0.02411,-0.3628695,0.7169015,-0.075439,0.1666905,0.5313715,-0.048597999999999995,0.30213049999999997,0.7314815,-0.12406899999999998,-0.3943195,0.9805514999999999,-0.13327899999999998,0.3243105,0.9828514999999999,-0.174789,-0.0770705,-0.001954499999999998,0.001687000000000001,0.0770705,0.001954500000000005,-0.001687000000000001,-0.0917305,-0.48251849999999996,0.038685000000000004,0.1202405,-0.4984685,0.026250000000000002,-0.0970995,-0.8668885000000001,0.078921,0.14459049999999998,-0.8787885,0.06730900000000001
65,-0.025589499999999994,0.7164545,-0.0504245,-0.19480050000000002,0.5195445,-0.0290575,-0.3620705,0.7150344999999999,-0.0815075,0.1659495,0.5287345,-0.0551485,0.3008595,0.7286944999999999,-0.1300675,-0.3926705,0.9797245,-0.1392175,0.3220495,0.9810244999999999,-0.18099749999999998,-0.0772195,-0.0020175000000000054,0.002212499999999999,0.0772195,0.0020174999999999985,-0.002212499999999999,-0.09391050000000001,-0.48088549999999997,0.031067499999999998,0.11938950000000001,-0.49609549999999997,0.015151499999999998,-0.0980605,-0.8660955,0.0751805,0.1438495,-0.8770455,0.06361449999999999
66,-0.025953000000000004,0.7141595000000001,-0.056606,-0.194832,0.5175095000000001,-0.03478,-0.36156200000000005,0.7121795000000001,-0.08820700000000001,0.165038,0.5257395,-0.062667,0.299628,0.7250795000000001,-0.137257,-0.391192,0.9727195000000001,-0.145767,0.319608,0.9762195000000001,-0.188827,-0.077387,-0.002082500000000001,0.0028499999999999984,0.077387,0.0020824999999999975,-0.0028499999999999984,-0.096692,-0.4785805,0.02214,0.118338,-0.4931705,0.0028460000000000013,-0.099292,-0.8647005,0.070749,0.142948,-0.8745704999999999,0.059101
67,-0.026514000000000003,0.7122535,-0.06392350000000001,-0.19480799999999998,0.5149535000000001,-0.0410885,-0.361378,0.7090135,-0.09527949999999999,0.16394199999999998,0.5228635,-0.0706595,0.298232,0.7213235,-0.1452795,-0.39011799999999996,0.9669535,-0.1527095,0.317002,0.9716835,-0.1974395,-0.077588,-0.002092499999999997,0.0034725,0.077588,0.0020925000000000006,-0.0034725,-0.099888,-0.4755565,0.0124235,0.117082,-0.4897665,-0.0106475,-0.100788,-0.8626365,0.0659095,0.141922,-0.8710465,0.054067500000000004
68,-0.02715,0.7089545,-0.0713185,-0.194915,0.5123545,-0.047503500000000004,-0.361365,0.7055145,-0.10272650000000001,0.162635,0.5197645,-0.07900650000000001,0.296735,0.7170245,-0.1541165,-0.38914499999999996,0.9612045,-0.16032649999999998,0.314035,0.9675045,-0.2066865,-0.077795,-0.0020795000000000015,0.004177499999999997,0.077795,0.0020795000000000015,-0.004177500000000001,-0.10375499999999999,-0.4718155,0.0017764999999999968,0.11574500000000001,-0.4856555,-0.0250195,-0.102515,-0.8597855,0.0608315,0.140645,-0.8670455,0.0484635
69,-0.027759499999999993,0.7048709999999999,-0.07896299999999999,-0.19490149999999998,0.509671,-0.053921,-0.3613615,0.701861,-0.110363,0.16122850000000002,0.516191,-0.087473,0.2953885,0.712561,-0.163223,-0.38809150000000003,0.9554809999999999,-0.168263,0.3108785,0.963661,-0.216373,-0.07800850000000001,-0.0019819999999999994,0.004794,0.07800850000000001,0.001982000000000001,-0.004794,-0.10802149999999999,-0.467479,-0.009368999999999999,0.11444850000000001,-0.48089899999999997,-0.03962199999999999,-0.10432149999999998,-0.855889,0.05562500000000001,0.13937850000000002,-0.862499,0.042797
70,-0.028313,0.700406,-0.0873275,-0.19486199999999998,0.506156,-0.061101499999999996,-0.36132200000000003,0.697586,-0.11883749999999998,0.15965800000000002,0.512316,-0.0963475,0.29392799999999997,0.707736,-0.1735475,-0.38686200000000004,0.950846,-0.1776575,0.306868,0.960636,-0.2276875,-0.078061,-0.0018730000000000005,0.005465499999999998,0.078061,0.0018729999999999997,-0.005465500000000002,-0.112942,-0.460584,-0.0225155,0.113388,-0.473494,-0.055634499999999996,-0.106502,-0.849214,0.0494995,0.138048,-0.855334,0.0363075
71,-0.028702499999999995,0.6955275000000001,-0.095125,-0.1948515,0.5035775,-0.06754299999999999,-0.36127149999999997,0.6924675,-0.127065,0.15810849999999999,0.5074375000000001,-0.104745,0.2924685,0.7023775000000001,-0.183735,-0.3855415,0.9455675,-0.186995,0.3027785,0.9576575,-0.238725,-0.0781045,-0.0016555,0.00608,0.0781045,0.0016554999999999999,-0.00608,-0.11787149999999999,-0.4534625,-0.035823999999999995,0.11264850000000001,-0.4656525,-0.07072099999999999,-0.1086415,-0.8415324999999999,0.043573,0.13662849999999999,-0.8477825,0.0299
72,-0.029023499999999997,0.6899609999999999,-0.10263649999999999,-0.1948165,0.502111,-0.0735655,-0.3609165,0.687341,-0.1350365,0.1566335,0.502321,-0.1129965,0.29106350000000003,0.6969609999999999,-0.1937165,-0.38381649999999995,0.935811,-0.1962565,0.2986535,0.955031,-0.2495465,-0.07814650000000001,-0.0014289999999999997,0.006446499999999999,0.07814650000000001,0.0014289999999999997,-0.006446500000000001,-0.12314649999999999,-0.446289,-0.0497265,0.11226350000000002,-0.456689,-0.0847395,-0.11076649999999999,-0.832809,0.0373195,0.1352635,-0.839099,0.0237095
73,-0.029451500000000002,0.6845454999999999,-0.109566,-0.1948155,0.5012055,-0.07934100000000001,-0.3606955,0.6820255,-0.14276599999999998,0.1552045,0.4970855,-0.12052600000000001,0.2896845,0.6914754999999999,-0.203236,-0.38218549999999996,0.9261955,-0.20504599999999998,0.2946245,0.9525655,-0.259946,-0.07821149999999999,-0.0011954999999999986,0.006692999999999999,0.07821149999999999,0.0011954999999999986,-0.006693000000000001,-0.1284555,-0.43828449999999997,-0.063704,0.1120545,-0.4470645,-0.097826,-0.1129455,-0.8230145000000001,0.030899999999999997,0.1338945,-0.8294845000000001,0.017809
74,-0.029941000000000002,0.6806765,-0.11468650000000001,-0.19511299999999998,0.4974265,-0.08419950000000001,-0.360973,0.6795865,-0.14905649999999998,0.15398699999999999,0.4941065,-0.1254265,0.288507,0.6883665,-0.2109665,-0.381003,0.9251665,-0.2116365,0.290987,0.9467964999999999,-0.2678465,-0.078126,-0.0010954999999999993,0.0069335,0.078126,0.0010954999999999993,-0.0069334999999999996,-0.133013,-0.42942349999999996,-0.0750875,0.112217,-0.4369035,-0.10835650000000001,-0.11482300000000001,-0.8120935,0.0255855,0.13265699999999997,-0.8188835,0.0130565
75,-0.030303499999999997,0.6768445,-0.11955299999999999,-0.19536150000000002,0.4948545,-0.088398,-0.3610615,0.6781845,-0.155093,0.1530685,0.4915345,-0.129563,0.2876385,0.6855545,-0.217863,-0.3792915,0.9227645,-0.218183,0.2876885,0.9452345,-0.274213,-0.0780515,-0.0010264999999999996,0.007051,0.0780515,0.0010264999999999996,-0.007051,-0.1372815,-0.4207055,-0.085898,0.1129185,-0.4267955,-0.118503,-0.1164415,-0.8003555,0.020694999999999998,0.1315785,-0.8074755,0.008868000000000001
76,-0.030670500000000003,0.6723005,-0.1236065,-0.1956965,0.4918805,-0.09276050000000001,-0.3609965,0.6766605,-0.1616365,0.1521635,0.4886505,-0.1338265,0.28693349999999995,0.6824405,-0.2244765,-0.3772065,0.9205504999999999,-0.2250665,0.2852935,0.9440904999999999,-0.2802665,-0.07793549999999999,-0.0009954999999999964,0.0072015,0.07793549999999999,0.0009955000000000033,-0.0072015,-0.1416665,-0.4123195,-0.0969665,0.11395349999999999,-0.4173595,-0.1284265,-0.11792650000000002,-0.7882495,0.0156515,0.1306135,-0.7955395000000001,0.0045095
77,-0.031028499999999997,0.6686165,-0.1278425,-0.19568950000000002,0.49014650000000004,-0.0969415,-0.3608295,0.6747164999999999,-0.16852250000000002,0.1514705,0.48567649999999996,-0.1377925,0.2867205,0.6794965,-0.2305725,-0.3746895,0.9182265,-0.2322625,0.2834605,0.9426065,-0.2862025,-0.07781750000000001,-0.0008594999999999992,0.0073145,0.07781750000000001,0.0008594999999999992,-0.0073145,-0.1458295,-0.4034135,-0.1078325,0.1149705,-0.4079035,-0.13799250000000002,-0.11916950000000001,-0.7756435,0.0109095,0.1298305,-0.7830735,0.0005955000000000001
78,-0.0313875,0.6661995000000001,-0.13195300000000001,-0.1958565,0.4871895,-0.10133299999999999,-0.3606765,0.6726795000000001,-0.17555300000000001,0.1507435,0.4837395,-0.14139300000000002,0.2865035,0.6770894999999999,-0.236413,-0.3720465,0.9127295,-0.23977300000000001,0.2819635,0.9368595,-0.291663,-0.0776805,-0.0007715000000000083,0.007504,0.0776805,0.0007714999999999944,-0.007504,-0.1501365,-0.3933805,-0.11859299999999999,0.1158635,-0.3973605,-0.147813,-0.1203465,-0.7618905,0.006351000000000001,0.1290135,-0.7695304999999999,-0.003302
79,-0.0320935,0.668215,-0.141789,-0.1961445,0.487095,-0.112579,-0.3608445,0.675205,-0.18942900000000001,0.14919549999999998,0.481765,-0.151369,0.2865355,0.6782050000000001,-0.248079,-0.3694445,0.912745,-0.253629,0.2811055,0.9327150000000001,-0.302919,-0.0776365,-0.0007650000000000018,0.007151,0.0776365,0.0007650000000000018,-0.007151,-0.1569645,-0.37892499999999996,-0.141479,0.1159055,-0.381895,-0.169979,-0.1236045,-0.7468049999999999,-0.009078,0.1278455,-0.753705,-0.019155
80,-0.0324275,0.66676,-0.1520765,-0.1958405,0.48525,-0.1240965,-0.3607905,0.67727,-0.20365650000000002,0.1478695,0.48118,-0.16097650000000002,0.2870195,0.6769700000000001,-0.2590665,-0.3664605,0.9089499999999999,-0.2690665,0.2806095,0.9270499999999999,-0.3138165,-0.07757449999999999,-0.0009099999999999941,0.0068485,0.07757449999999999,0.0009099999999999941,-0.006848499999999999,-0.1633705,-0.36462,-0.1637765,0.1162095,-0.36664,-0.1914365,-0.1262705,-0.73227,-0.024578499999999996,0.1271495,-0.7383900000000001,-0.0349535
81,-0.0329965,0.66683,-0.16172,-0.1957785,0.48185,-0.13573,-0.3614385,0.67864,-0.21784,0.14626150000000002,0.48067,-0.17040000000000002,0.2874315,0.6759000000000001,-0.26924,-0.3643085,0.90902,-0.28388,0.2799515,0.92142,-0.32409,-0.0774605,-0.0011299999999999921,0.006676999999999999,0.0774605,0.0011299999999999921,-0.006677000000000001,-0.1694685,-0.34984,-0.18506,0.1162615,-0.35238,-0.2122,-0.1290985,-0.7180799999999999,-0.039356,0.1263315,-0.72378,-0.050361
82,-0.033424999999999996,0.66837,-0.1717555,-0.19553199999999998,0.47766,-0.1474755,-0.361992,0.67886,-0.2317555,0.144828,0.4806,-0.1797655,0.288178,0.6751699999999999,-0.27931550000000005,-0.361882,0.90894,-0.29894550000000003,0.279548,0.9168999999999999,-0.33424550000000003,-0.077364,-0.0012500000000000011,0.006314500000000001,0.077364,0.0012500000000000011,-0.006314500000000001,-0.17514200000000002,-0.33511,-0.20595549999999999,0.11641800000000001,-0.33833,-0.2327855,-0.13184200000000001,-0.70415,-0.0538435,0.12558799999999998,-0.70603,-0.0619735
83,-0.0340505,0.6690050000000001,-0.181946,-0.1954725,0.478335,-0.157996,-0.36252249999999997,0.678815,-0.245086,0.14323750000000002,0.478795,-0.189076,0.2888075,0.673705,-0.289276,-0.3596025,0.908185,-0.31416600000000006,0.27918750000000003,0.917365,-0.34434600000000004,-0.0772625,-0.0011149999999999771,0.0060139999999999985,0.0772625,0.0011150000000000049,-0.006014000000000002,-0.1806625,-0.32149500000000003,-0.226666,0.1162575,-0.32466500000000004,-0.253336,-0.13446249999999998,-0.6910149999999999,-0.067758,0.1246175,-0.6891050000000001,-0.072953
84,-0.034749,0.67013,-0.1917615,-0.195524,0.47770999999999997,-0.1686115,-0.362964,0.67923,-0.2583315,0.141676,0.47809999999999997,-0.19805150000000002,0.289296,0.67209,-0.29921149999999996,-0.35747399999999996,0.9084,-0.32923149999999995,0.279466,0.91667,-0.3549515,-0.07721900000000001,-0.0011300000000000199,0.005715499999999998,0.07721900000000001,0.0011299999999999921,-0.005715499999999998,-0.18591400000000002,-0.30711,-0.2471115,0.115876,-0.31107000000000007,-0.2735815,-0.135074,-0.67539,-0.0770905,0.12376599999999999,-0.67252,-0.08369850000000001
85,-0.035383500000000005,0.67168,-0.2017735,-0.1956255,0.47769,-0.1784735,-0.36330550000000006,0.68133,-0.2711135,0.1399345,0.47713,-0.20679350000000002,0.28986449999999997,0.67117,-0.3090935,-0.3556355,0.9083699999999999,-0.34429350000000003,0.2797845,0.91652,-0.3657135,-0.0772375,-0.0010900000000000076,0.005478499999999997,0.0772375,0.0010899999999999799,-0.005478500000000004,-0.19080550000000002,-0.29175999999999996,-0.2673335,0.11558449999999999,-0.29623000000000005,-0.2939835,-0.1354855,-0.65893,-0.08595850000000001,0.12311449999999999,-0.6553800000000001,-0.09402850000000001
86,-0.036269499999999996,0.67347,-0.211596,-0.19626649999999998,0.47595,-0.18837600000000002,-0.3638465,0.6823,-0.283186,0.1379835,0.47671,-0.215456,0.29016349999999996,0.67031,-0.31889599999999996,-0.3543565,0.90842,-0.358646,0.2797435,0.9153899999999999,-0.376506,-0.0772165,-0.0013299999999999979,0.0053399999999999975,0.0772165,0.0013299999999999979,-0.0053400000000000045,-0.1954965,-0.27719999999999995,-0.287356,0.1151835,-0.28136,-0.314076,-0.1361865,-0.64263,-0.095069,0.12236350000000001,-0.63828,-0.104347
87,-0.0371285,0.67407,-0.2208055,-0.19675749999999997,0.47545000000000004,-0.1974955,-0.3644675,0.68336,-0.2943555,0.13616250000000002,0.47492999999999996,-0.2240455,0.2902225,0.66796,-0.3282755,-0.3530475,0.91153,-0.3721355,0.2796625,0.9130799999999999,-0.3867855,-0.0771475,-0.0014000000000000123,0.005351499999999995,0.0771475,0.0014000000000000123,-0.005351500000000002,-0.1996675,-0.26363,-0.30675549999999996,0.1148625,-0.26750999999999997,-0.3336855,-0.1369375,-0.6270500000000001,-0.1042025,0.1217225,-0.6216999999999999,-0.1141415
88,-0.037877,0.67087,-0.224134,-0.197158,0.47311000000000003,-0.199274,-0.364938,0.68057,-0.298304,0.135072,0.47374,-0.22617400000000001,0.28983200000000003,0.66309,-0.331164,-0.352058,0.90873,-0.377954,0.279222,0.9101899999999999,-0.389774,-0.077039,-0.0014399999999999968,0.005347999999999992,0.077039,0.0014399999999999968,-0.005347999999999999,-0.200748,-0.25599000000000005,-0.313234,0.11508199999999999,-0.25954,-0.340184,-0.13739800000000002,-0.61559,-0.104953,0.12141199999999999,-0.61073,-0.114694
89,-0.038381,0.67167,-0.226862,-0.19721099999999997,0.47144,-0.200722,-0.365081,0.6790400000000001,-0.301462,0.13425900000000002,0.47324,-0.228302,0.28964900000000005,0.6613800000000001,-0.334302,-0.35096099999999997,0.90708,-0.381652,0.27903900000000004,0.90945,-0.392942,-0.076973,-0.0015999999999999903,0.0053460000000000035,0.076973,0.0016000000000000458,-0.005345999999999997,-0.201561,-0.24761,-0.319872,0.11572900000000001,-0.25078,-0.347142,-0.137671,-0.60298,-0.106154,0.121649,-0.59864,-0.115456
90,-0.039161,0.6722250000000001,-0.2294525,-0.197553,0.471185,-0.2019725,-0.365493,0.6795150000000001,-0.3040025,0.133387,0.47133500000000006,-0.2302625,0.289257,0.6605650000000001,-0.3376425,-0.350023,0.907255,-0.3847025,0.27864700000000003,0.908975,-0.3961725,-0.076991,-0.0014949999999999686,0.005346499999999997,0.076991,0.001495000000000024,-0.005346499999999997,-0.202823,-0.236935,-0.32689250000000003,0.116567,-0.23972499999999997,-0.3551425,-0.138063,-0.5894349999999999,-0.10699449999999999,0.12168700000000002,-0.585235,-0.1165735
91,-0.03955500000000001,0.67161,-0.23028500000000002,-0.19774999999999998,0.47045000000000003,-0.202015,-0.36584,0.6810499999999999,-0.305135,0.13274999999999998,0.47008000000000005,-0.23090499999999997,0.28919,0.6591899999999999,-0.33970500000000003,-0.34881,0.90677,-0.386365,0.2785,0.90551,-0.398035,-0.076985,-0.0015699999999999603,0.005538000000000001,0.076985,0.0015700000000000158,-0.005537999999999994,-0.20396999999999998,-0.22792,-0.332725,0.11824,-0.22982000000000002,-0.36207500000000004,-0.136,-0.5745899999999999,-0.10392399999999999,0.12201,-0.56987,-0.11380299999999999
92,-0.039886500000000005,0.6714500000000001,-0.23025400000000001,-0.1982125,0.46925000000000006,-0.201804,-0.36614250000000004,0.68201,-0.306014,0.1322775,0.47084000000000004,-0.231134,0.2889875,0.65886,-0.34110399999999996,-0.34777250000000004,0.90712,-0.387204,0.27823749999999997,0.90285,-0.399174,-0.0770425,-0.0018499999999999628,0.005659000000000004,0.0770425,0.0018500000000000183,-0.005659000000000004,-0.20534249999999998,-0.21855000000000002,-0.33865399999999996,0.12048750000000001,-0.21914999999999996,-0.368734,-0.1338425,-0.55909,-0.10056999999999999,0.12257749999999999,-0.5534899999999999,-0.11086599999999999
93,-0.040495,0.6709700000000001,-0.2298165,-0.19875900000000002,0.46888,-0.2009365,-0.366479,0.68194,-0.3060765,0.13172099999999998,0.47025,-0.2311465,0.288551,0.65985,-0.3418865,-0.347059,0.90655,-0.38685650000000005,0.277061,0.90184,-0.3993865,-0.077038,-0.0019399999999999973,0.005802500000000002,0.077038,0.0019399999999999973,-0.005802499999999995,-0.207189,-0.20728000000000002,-0.34491649999999996,0.12292099999999999,-0.20691000000000004,-0.37585650000000004,-0.131889,-0.54096,-0.0966325,0.123231,-0.53455,-0.1076355
94,-0.0412265,0.669855,-0.22898449999999998,-0.19942849999999998,0.468435,-0.19988450000000002,-0.3669785,0.6804250000000001,-0.3055445,0.1312315,0.471485,-0.2307145,0.2876915,0.6597649999999999,-0.3424145,-0.3465285,0.9067149999999999,-0.3860245,0.2754915,0.9008149999999999,-0.3990345,-0.07709150000000001,-0.0024150000000000005,0.005923500000000005,0.07709150000000001,0.0024150000000000005,-0.005923499999999998,-0.2093485,-0.19666500000000003,-0.3506745,0.1248515,-0.19558500000000006,-0.3820545,-0.1300685,-0.523395,-0.0921265,0.1236315,-0.518125,-0.1061405
95,-0.042353499999999995,0.6700699999999999,-0.2273875,-0.2002815,0.468903,-0.1985375,-0.3678415,0.6815,-0.30478750000000004,0.13022850000000002,0.47035499999999997,-0.2297875,0.2864985,0.6589700000000001,-0.3426075,-0.3467115,0.90529,-0.38504750000000004,0.2735185,0.90357,-0.3980475,-0.0772105,-0.0022599999999999842,0.006021499999999999,0.0772105,0.0022599999999999842,-0.006021499999999999,-0.2120015,-0.18381000000000003,-0.35633750000000003,0.12651849999999998,-0.18254000000000004,-0.38886750000000003,-0.1286515,-0.50403,-0.0877545,0.12362849999999999,-0.49981,-0.1045295
96,-0.043450499999999996,0.670795,-0.2257195,-0.2008975,0.469023,-0.1970295,-0.36873750000000005,0.681285,-0.3040495,0.1294325,0.47138500000000005,-0.22840950000000002,0.2852025,0.6600250000000001,-0.34247950000000005,-0.3470075,0.903425,-0.38391949999999997,0.2715525,0.903995,-0.3969695,-0.0774305,-0.0024949999999999695,0.0061804999999999985,0.0774305,0.002495000000000025,-0.0061804999999999985,-0.2147175,-0.17033500000000001,-0.36196950000000006,0.1281725,-0.16939499999999996,-0.3952295,-0.1290375,-0.48553499999999994,-0.0860985,0.12356249999999999,-0.48133499999999996,-0.1028835
97,-0.0447895,0.67144,-0.2241635,-0.2015885,0.46936900000000004,-0.1954935,-0.3696785,0.67967,-0.3031735,0.12844150000000001,0.47249,-0.2268635,0.2837615,0.66169,-0.34223349999999997,-0.34743850000000004,0.90159,-0.3830235,0.2692615,0.9045000000000001,-0.3961235,-0.07759849999999999,-0.00268999999999997,0.0061835000000000015,0.07759849999999999,0.0026900000000000257,-0.0061835000000000015,-0.2178085,-0.15644000000000002,-0.3670735,0.1293115,-0.15579999999999994,-0.4011735,-0.12971850000000001,-0.46685999999999994,-0.0843265,0.12364150000000002,-0.46351999999999993,-0.1028505
98,-0.045913,0.6716200000000001,-0.222686,-0.20219600000000001,0.469179,-0.19402599999999998,-0.37086600000000003,0.6789200000000001,-0.302046,0.127664,0.471745,-0.22538599999999998,0.282394,0.66371,-0.341676,-0.347876,0.90253,-0.382256,0.267124,0.90523,-0.39511599999999997,-0.077586,-0.00267999999999996,0.0062490000000000046,0.077586,0.0026800000000000157,-0.006248999999999998,-0.220936,-0.14223999999999992,-0.37185599999999996,0.13056399999999999,-0.14215999999999995,-0.407006,-0.130326,-0.4481299999999999,-0.082676,0.123674,-0.4455699999999999,-0.102808
99,-0.046717,0.67148,-0.22148099999999998,-0.202598,0.46906899999999996,-0.19284099999999998,-0.372328,0.67789,-0.301131,0.127222,0.473242,-0.22420099999999998,0.281232,0.66454,-0.341181,-0.34811800000000004,0.90352,-0.38165099999999996,0.26462199999999997,0.90693,-0.39414099999999996,-0.077475,-0.002950000000000008,0.006227999999999997,0.077475,0.002950000000000008,-0.006228000000000004,-0.22400799999999998,-0.12807000000000002,-0.375751,0.13203199999999998,-0.12851999999999997,-0.41168099999999996,-0.13084800000000002,-0.43093000000000004,-0.081833,0.123902,-0.42801,-0.103047
100,-0.047471,0.671265,-0.21995499999999998,-0.20299,0.469331,-0.191575,-0.37385,0.678175,-0.30010499999999996,0.12675999999999998,0.47467200000000004,-0.223095,0.28034,0.665865,-0.340515,-0.34851000000000004,0.9050450000000001,-0.381355,0.262,0.9113450000000001,-0.39307499999999995,-0.077371,-0.0031549999999999634,0.006183000000000001,0.077371,0.003155000000000019,-0.006182999999999994,-0.22764,-0.11417500000000003,-0.379065,0.13390999999999997,-0.11489499999999997,-0.415895,-0.13156,-0.41390499999999997,-0.080894,0.12432,-0.410455,-0.103328
101,-0.048071499999999996,0.67104,-0.21833550000000002,-0.2031935,0.470362,-0.1902855,-0.37522350000000004,0.67619,-0.29905550000000003,0.1263565,0.474697,-0.2218855,0.2799165,0.6666799999999999,-0.33986550000000004,-0.3489135,0.9057999999999999,-0.3802955,0.25911649999999997,0.91564,-0.39197550000000003,-0.0772685,-0.003090000000000037,0.006220499999999997,0.0772685,0.0030899999999999817,-0.006220500000000004,-0.2316835,-0.10033999999999998,-0.3816155,0.1361665,-0.10135000000000005,-0.4195755,-0.13265349999999998,-0.39727,-0.0798525,0.1248765,-0.39360000000000006,-0.10334950000000001
102,-0.048432499999999996,0.6709099999999999,-0.2166055,-0.20338649999999997,0.47064199999999995,-0.1889055,-0.37651650000000003,0.6751099999999999,-0.29811550000000003,0.1261335,0.47494099999999995,-0.22051549999999998,0.27956349999999996,0.66687,-0.3392955,-0.3493065,0.9070099999999999,-0.3794955,0.25814349999999997,0.91852,-0.39097550000000003,-0.0772485,-0.0030800000000000827,0.006114500000000002,0.0772485,0.0030799999999999716,-0.006114499999999995,-0.23585649999999997,-0.08849000000000007,-0.3831055,0.1388835,-0.08956000000000008,-0.4220855,-0.1338665,-0.3828600000000001,-0.0789845,0.1253435,-0.37928000000000006,-0.1033605
103,-0.048594,0.670995,-0.2146395,-0.203177,0.471173,-0.1873195,-0.377697,0.674295,-0.2971895,0.126083,0.473856,-0.2190395,0.279363,0.6679550000000001,-0.3385395,-0.349897,0.907465,-0.3787595,0.257543,0.920685,-0.38987950000000005,-0.077242,-0.0028249999999999664,0.005964499999999998,0.077242,0.0028249999999999664,-0.0059645000000000045,-0.239407,-0.07675500000000002,-0.38421950000000005,0.142033,-0.07777500000000004,-0.42434950000000005,-0.134937,-0.36863499999999993,-0.0782005,0.126053,-0.365525,-0.1033925
104,-0.048687999999999995,0.669925,-0.21246800000000002,-0.203008,0.470967,-0.185428,-0.378838,0.672315,-0.29619799999999996,0.126022,0.475383,-0.217318,0.279312,0.6694450000000001,-0.337818,-0.350738,0.905945,-0.377888,0.257062,0.9202049999999999,-0.388708,-0.077176,-0.003134999999999999,0.005720000000000003,0.077176,0.003134999999999999,-0.005720000000000003,-0.242588,-0.06726500000000002,-0.384798,0.145012,-0.06818499999999994,-0.42547799999999997,-0.135838,-0.35675500000000004,-0.077057,0.126952,-0.35424500000000003,-0.103319
105,-0.048716499999999996,0.669205,-0.210417,-0.2025085,0.471254,-0.183477,-0.3797085,0.671745,-0.295437,0.1263215,0.47552500000000003,-0.215387,0.27959150000000005,0.670355,-0.336907,-0.35140849999999996,0.905255,-0.377257,0.2568115,0.920925,-0.387667,-0.0771355,-0.003114999999999979,0.005442000000000002,0.0771355,0.003114999999999979,-0.0054419999999999955,-0.2454585,-0.058975,-0.385067,0.1480215,-0.05913499999999994,-0.426337,-0.1366785,-0.3459249999999999,-0.076075,0.1284815,-0.34438499999999994,-0.104976
106,-0.0486065,0.66822,-0.2084135,-0.2019575,0.4711840000000001,-0.18161349999999998,-0.38046749999999996,0.67222,-0.2946235,0.12672250000000002,0.4753860000000001,-0.2135135,0.2802525,0.6696600000000001,-0.3358835,-0.35199749999999996,0.9038900000000001,-0.3765735,0.25684250000000003,0.9199600000000001,-0.3867035,-0.0771425,-0.0030599999999999516,0.005261500000000002,0.0771425,0.0030600000000000627,-0.005261499999999995,-0.2478975,-0.05230999999999997,-0.3851635,0.15110250000000003,-0.05179999999999996,-0.4267935,-0.1375775,-0.3371599999999999,-0.07548749999999999,0.1299925,-0.3364499999999999,-0.10666149999999999
107,-0.048388,0.66799,-0.20659650000000002,-0.20141499999999998,0.472032,-0.1797665,-0.381075,0.6718500000000001,-0.29348650000000004,0.127305,0.476413,-0.2118565,0.281235,0.66839,-0.3351865,-0.352545,0.90269,-0.3758265,0.257045,0.91837,-0.3858165,-0.07713999999999999,-0.0030599999999999516,0.005043499999999999,0.07713999999999999,0.0030599999999999516,-0.005043500000000006,-0.250125,-0.04691999999999996,-0.3852765,0.153915,-0.045579999999999954,-0.4268765,-0.138465,-0.32970999999999995,-0.0746405,0.131525,-0.32989999999999997,-0.1082905
108,-0.048023500000000004,0.6676850000000001,-0.2047765,-0.2008895,0.472013,-0.17795650000000002,-0.3811995,0.6704950000000001,-0.29220650000000004,0.1278205,0.47701200000000005,-0.21028650000000002,0.28236049999999996,0.6674150000000001,-0.3343065,-0.35267950000000003,0.9013450000000001,-0.3753465,0.2571505,0.915675,-0.38478650000000003,-0.07707549999999999,-0.0029850000000000154,0.0048155,0.07707549999999999,0.0029850000000000154,-0.0048155,-0.2516695,-0.043265,-0.38545650000000004,0.1563305,-0.041264999999999996,-0.4268465,-0.1390995,-0.324275,-0.0735455,0.1325205,-0.3251449999999999,-0.1075895
109,-0.04742949999999999,0.667732,-0.2030035,-0.20034849999999998,0.47242199999999995,-0.17645349999999999,-0.3810585,0.6685019999999999,-0.2909235,0.1284515,0.47728499999999996,-0.2088235,0.2835515,0.6667259999999999,-0.3330435,-0.3525685,0.9000699999999999,-0.3747235,0.25748150000000003,0.91259,-0.3836935,-0.0769605,-0.0028799999999999937,0.004619499999999999,0.0769605,0.0028799999999999937,-0.004619499999999999,-0.2519885,-0.04029000000000005,-0.3857935,0.1580615,-0.03797000000000006,-0.4268335,-0.1392885,-0.32012000000000007,-0.07243050000000001,0.1331915,-0.32156000000000007,-0.1069505
110,-0.046982499999999996,0.6678470000000001,-0.2014205,-0.19989949999999998,0.47218000000000004,-0.17508049999999997,-0.38092950000000003,0.668779,-0.28986049999999997,0.1289305,0.47827000000000003,-0.2074805,0.28455050000000004,0.666156,-0.3317905,-0.3523395,0.89812,-0.3736505,0.2581205,0.90859,-0.38250049999999997,-0.0770425,-0.0030200000000000227,0.004403500000000005,0.0770425,0.0030200000000000227,-0.004403499999999998,-0.2518495,-0.03839999999999999,-0.3862605,0.15897050000000001,-0.03610000000000002,-0.42679049999999996,-0.1394495,-0.3173,-0.07182649999999999,0.1335305,-0.31926,-0.1063635
111,-0.046581,0.668147,-0.200131,-0.199418,0.47215000000000007,-0.173881,-0.38072799999999996,0.6686440000000001,-0.288921,0.129432,0.4793160000000001,-0.20631100000000002,0.28583200000000003,0.6656330000000001,-0.330451,-0.352078,0.8968100000000001,-0.372361,0.259432,0.9041800000000001,-0.38110099999999997,-0.07717099999999999,-0.003089999999999926,0.004307999999999999,0.07717099999999999,0.003090000000000037,-0.004307999999999999,-0.251668,-0.03707999999999989,-0.386861,0.159322,-0.03487999999999991,-0.426791,-0.13958800000000002,-0.31535999999999986,-0.07130500000000001,0.13392199999999999,-0.3178399999999999,-0.105628
112,-0.0462925,0.6686909999999999,-0.199062,-0.19907550000000002,0.47217,-0.172952,-0.3804355,0.668388,-0.288142,0.1299145,0.48047199999999995,-0.205112,0.2870845,0.664984,-0.328882,-0.35194549999999997,0.8949,-0.370692,0.2592045,0.9044699999999999,-0.379752,-0.0772935,-0.0031200000000000117,0.004269000000000002,0.0772935,0.0031200000000000117,-0.004268999999999995,-0.2515055,-0.03634999999999999,-0.38773199999999997,0.1595245,-0.03441000000000005,-0.426832,-0.13963550000000002,-0.31432000000000004,-0.070808,0.1341445,-0.31710000000000005,-0.10450999999999999
113,-0.046104000000000006,0.6691610000000001,-0.19815850000000002,-0.198786,0.47245500000000007,-0.1724885,-0.380286,0.668452,-0.2876285,0.130274,0.48104700000000006,-0.2040385,0.287914,0.664961,-0.3272885,-0.352006,0.8948150000000001,-0.3698985,0.260994,0.8988150000000001,-0.3785185,-0.07744999999999999,-0.003054999999999919,0.0042535,0.07744999999999999,0.00305500000000003,-0.0042535,-0.25108600000000003,-0.03613499999999992,-0.3886685,0.159784,-0.03430499999999992,-0.4268885,-0.139736,-0.31381499999999996,-0.0713275,0.134334,-0.3166849999999999,-0.10383150000000001
114,-0.046,0.669066,-0.19726700000000003,-0.198701,0.472475,-0.172107,-0.380231,0.668393,-0.287187,0.130449,0.481207,-0.20299699999999998,0.288409,0.66477,-0.325477,-0.35235099999999997,0.893465,-0.369197,0.262859,0.893295,-0.37723700000000004,-0.07758799999999999,-0.0030850000000000044,0.004194999999999997,0.07758799999999999,0.0030850000000000044,-0.004195000000000004,-0.250031,-0.03619499999999998,-0.389487,0.160019,-0.03446499999999997,-0.426837,-0.139871,-0.31374500000000005,-0.071827,0.134449,-0.31655500000000003,-0.103245
115,-0.045925,0.6687350000000001,-0.19632850000000002,-0.198647,0.47243,-0.17170850000000001,-0.380257,0.668382,-0.2867785,0.130583,0.48129500000000003,-0.20198850000000002,0.288613,0.6646880000000001,-0.3236785,-0.352707,0.89214,-0.3684785,0.263573,0.89285,-0.3750585,-0.077687,-0.0031200000000000117,0.004099499999999999,0.077687,0.0031200000000000117,-0.004099500000000006,-0.249267,-0.03623999999999994,-0.3901485,0.160163,-0.03462999999999994,-0.4267285,-0.139717,-0.31387999999999994,-0.0713265,0.134593,-0.3165,-0.1029785
116,-0.045894,0.668438,-0.1952205,-0.198606,0.472415,-0.1712105,-0.380276,0.668422,-0.2862805,0.130674,0.48154199999999997,-0.2008805,0.288694,0.6644869999999999,-0.3217605,-0.352676,0.8918649999999999,-0.3676005,0.264224,0.8923949999999999,-0.3732205,-0.07771900000000001,-0.0031849999999999934,0.003950500000000003,0.07771900000000001,0.0031849999999999934,-0.003950499999999996,-0.248756,-0.03625500000000004,-0.3907005,0.16018400000000002,-0.03473500000000007,-0.4265605,-0.139736,-0.3141050000000001,-0.0710925,0.134644,-0.316485,-0.1027005
117,-0.045929500000000005,0.668445,-0.193948,-0.1986055,0.472345,-0.170578,-0.3802955,0.668377,-0.285698,0.1307345,0.482333,-0.19973800000000003,0.28875449999999997,0.664329,-0.319748,-0.35306550000000003,0.891265,-0.366388,0.2648345,0.892925,-0.370848,-0.0777435,-0.0032849999999999824,0.003812999999999997,0.0777435,0.0032849999999999824,-0.003813000000000004,-0.2483655,-0.03625500000000004,-0.391188,0.1602145,-0.03479500000000002,-0.42636799999999997,-0.1398055,-0.314245,-0.07084900000000001,0.1340745,-0.31618500000000005,-0.100165
118,-0.0460375,0.6687280000000001,-0.1924865,-0.1986015,0.4724050000000001,-0.1698465,-0.3803215,0.6682580000000001,-0.28493650000000004,0.1307985,0.48321100000000006,-0.1985265,0.2888285,0.6643460000000001,-0.3176365,-0.3536415,0.8904150000000001,-0.36496649999999997,0.2653985,0.8935850000000001,-0.36846650000000003,-0.0777635,-0.0033849999999999714,0.0037034999999999985,0.0777635,0.0033850000000000824,-0.0037035000000000054,-0.2481115,-0.03608499999999992,-0.39153649999999995,0.1604385,-0.03477499999999989,-0.4261865,-0.1400215,-0.3141949999999999,-0.0708575,0.1335885,-0.3157049999999999,-0.0975055
119,-0.04627200000000001,0.6690349999999999,-0.1908805,-0.19870100000000002,0.4725,-0.1690305,-0.380471,0.6677599999999999,-0.2839005,0.130799,0.48393499999999995,-0.1973105,0.288789,0.664612,-0.3154705,-0.354311,0.88978,-0.36335049999999997,0.265729,0.8940899999999999,-0.36613049999999997,-0.077806,-0.0035200000000000786,0.0035965000000000025,0.077806,0.0035199999999999676,-0.0035965000000000025,-0.247971,-0.035780000000000034,-0.3917805,0.160749,-0.03473999999999999,-0.42602049999999997,-0.140321,-0.31417000000000006,-0.0709835,0.13302899999999998,-0.31516,-0.09483649999999999
120,-0.0465855,0.6691729999999999,-0.18922850000000002,-0.1988125,0.47258999999999995,-0.16818850000000002,-0.38074250000000004,0.6671469999999999,-0.2827885,0.1307875,0.48456599999999994,-0.19611849999999997,0.2886575,0.6649689999999999,-0.3134385,-0.3554625,0.8887499999999999,-0.3613485,0.26601749999999996,0.8946799999999999,-0.3640185,-0.0778505,-0.003650000000000042,0.003515499999999998,0.0778505,0.003649999999999931,-0.003515499999999998,-0.24796249999999997,-0.03542000000000012,-0.39189850000000004,0.1611475,-0.03461000000000003,-0.42586850000000004,-0.1406525,-0.31390000000000007,-0.0710965,0.13297750000000003,-0.3147500000000001,-0.0942035
121,-0.0470075,0.669188,-0.1876325,-0.19893850000000002,0.472705,-0.16732249999999999,-0.38122849999999997,0.666464,-0.2815925,0.1307815,0.485001,-0.1951825,0.2884415,0.665537,-0.3117125,-0.3567885,0.889305,-0.3592425,0.26631150000000003,0.895705,-0.3624425,-0.0778985,-0.003794999999999993,0.0034605000000000052,0.0778985,0.003794999999999993,-0.0034604999999999983,-0.2479985,-0.03502499999999997,-0.3917925,0.1616015,-0.03443499999999999,-0.4257125,-0.1408085,-0.313755,-0.07062550000000001,0.1329515,-0.314165,-0.09357750000000001
122,-0.04749199999999999,0.669262,-0.18644349999999998,-0.199149,0.472725,-0.16660350000000002,-0.381989,0.666011,-0.2804435,0.130671,0.485421,-0.19454349999999998,0.28810100000000005,0.666284,-0.3103735,-0.35851900000000003,0.890625,-0.3573635,0.266521,0.8966350000000001,-0.3619735,-0.077946,-0.003994999999999971,0.0033875000000000016,0.077946,0.003994999999999971,-0.003387499999999998,-0.248089,-0.034745000000000026,-0.3915535,0.162071,-0.03430500000000003,-0.4255235,-0.140909,-0.31369499999999995,-0.0700705,0.13287100000000002,-0.313635,-0.09311849999999999
123,-0.048075,0.6696139999999999,-0.18557800000000002,-0.199434,0.47275,-0.166178,-0.38291400000000003,0.665546,-0.279508,0.130476,0.48547699999999994,-0.194338,0.287606,0.666623,-0.309628,-0.360974,0.89074,-0.355578,0.266536,0.89714,-0.361808,-0.077992,-0.0040000000000000036,0.0034140000000000004,0.077992,0.0040000000000000036,-0.0034140000000000004,-0.248104,-0.03483000000000003,-0.391378,0.162546,-0.03438000000000008,-0.42543800000000004,-0.141044,-0.31376000000000004,-0.069904,0.132756,-0.31345,-0.093357
124,-0.048886,0.6697759999999999,-0.18516000000000002,-0.19994299999999998,0.47275,-0.16582,-0.38417300000000004,0.665546,-0.27854,0.130077,0.485537,-0.19428,0.286937,0.666812,-0.30925,-0.364673,0.89074,-0.35335,0.266287,0.9025399999999999,-0.3618,-0.07802500000000001,-0.0040000000000000036,0.0034150000000000014,0.07802500000000001,0.0040000000000000036,-0.0034150000000000014,-0.248323,-0.03478000000000003,-0.39137,0.163057,-0.03438000000000008,-0.42546,-0.141293,-0.3137,-0.069896,0.13267700000000002,-0.3132400000000001,-0.094072
125,-0.0498535,0.6697759999999999,-0.1848995,-0.20060650000000002,0.47275,-0.1653695,-0.3856965,0.665546,-0.2773395,0.1295235,0.485598,-0.19426949999999998,0.2861135,0.6670309999999999,-0.3092195,-0.3683665,0.89107,-0.3509595,0.26598350000000004,0.90777,-0.3617895,-0.0780145,-0.0040000000000000036,0.003414500000000001,0.0780145,0.0040000000000000036,-0.0034144999999999974,-0.24863649999999998,-0.03478000000000003,-0.39135949999999997,0.1632635,-0.03438000000000008,-0.4254695,-0.1414065,-0.31417000000000006,-0.0689605,0.1325535,-0.31300000000000006,-0.0946235
126,-0.051213999999999996,0.669606,-0.1848525,-0.201664,0.4729900000000001,-0.1648425,-0.387544,0.6653760000000001,-0.2762825,0.128576,0.48568400000000006,-0.19424249999999998,0.285056,0.6675390000000001,-0.3091925,-0.371854,0.8913300000000001,-0.34870249999999997,0.265526,0.91285,-0.3618825,-0.077929,-0.004129999999999967,0.003411499999999998,0.077929,0.004130000000000078,-0.0034115000000000013,-0.249154,-0.034949999999999926,-0.3910625,0.162876,-0.034479999999999955,-0.4254525,-0.141714,-0.3146899999999999,-0.0679545,0.132306,-0.3129099999999999,-0.0952925
127,-0.052886499999999996,0.6699830000000001,-0.1851385,-0.2029515,0.47319500000000003,-0.16457850000000002,-0.3894915,0.664814,-0.27553849999999996,0.12761850000000002,0.48536900000000005,-0.1945485,0.2840685,0.6682170000000001,-0.3094885,-0.37532150000000003,0.8913150000000001,-0.34701849999999995,0.2654485,0.9120250000000001,-0.3633285,-0.0778445,-0.004234999999999989,0.0034835000000000005,0.0778445,0.0042350000000001,-0.003483499999999997,-0.24965150000000003,-0.0360649999999999,-0.3904585,0.16235850000000002,-0.035114999999999896,-0.4253685,-0.1420115,-0.31584499999999993,-0.0676345,0.13200850000000003,-0.3132149999999999,-0.09641949999999999
128,-0.054801499999999996,0.669405,-0.185948,-0.2043925,0.4724750000000001,-0.16481800000000002,-0.39155249999999997,0.6624920000000001,-0.275488,0.1260875,0.48485900000000004,-0.195488,0.2830675,0.667659,-0.310378,-0.37924250000000004,0.8908550000000001,-0.346508,0.2654375,0.9148350000000001,-0.365448,-0.0778365,-0.00452499999999989,0.003700999999999996,0.0778365,0.004525000000000001,-0.003701000000000003,-0.2497725,-0.03968499999999997,-0.389638,0.1618575,-0.03838499999999989,-0.425108,-0.1423625,-0.31984499999999993,-0.068103,0.1315175,-0.316465,-0.097732
129,-0.0570185,0.669072,-0.18727749999999999,-0.2060775,0.472344,-0.1653975,-0.3949975,0.663748,-0.2757675,0.1240325,0.484734,-0.19701749999999998,0.2818425,0.668399,-0.31266750000000004,-0.38314750000000003,0.89229,-0.3467175,0.2654125,0.9170499999999999,-0.3681375,-0.0777595,-0.004689999999999972,0.0039415000000000006,0.0777595,0.004689999999999972,-0.0039415000000000006,-0.2496775,-0.04418,-0.3888275,0.16122250000000002,-0.042710000000000026,-0.4247475,-0.1428475,-0.3255,-0.0690575,0.1308225,-0.32126,-0.0991735
130,-0.059373,0.6693399999999999,-0.1894885,-0.207933,0.4718969999999999,-0.16640850000000001,-0.398073,0.66316,-0.27643850000000003,0.12176699999999999,0.4842419999999999,-0.19915850000000002,0.280617,0.6677299999999999,-0.3156985,-0.387333,0.8934199999999999,-0.3474585,0.265637,0.91838,-0.3716785,-0.07769000000000001,-0.004890000000000061,0.004257499999999997,0.07769000000000001,0.00488999999999995,-0.004257500000000004,-0.249013,-0.05034000000000005,-0.3877785,0.160437,-0.04851000000000005,-0.42423849999999996,-0.14361300000000002,-0.3333900000000001,-0.0708015,0.130097,-0.3283100000000001,-0.10093450000000001
131,-0.061759999999999995,0.669865,-0.192356,-0.20995799999999998,0.47198300000000004,-0.167816,-0.400918,0.663455,-0.277486,0.119522,0.48225700000000005,-0.201736,0.279242,0.666845,-0.31931600000000004,-0.391558,0.894145,-0.34895600000000004,0.265962,0.918945,-0.37592600000000004,-0.077537,-0.004674999999999985,0.004697,0.077537,0.004674999999999985,-0.004697,-0.247868,-0.057684999999999986,-0.386546,0.15929200000000002,-0.055564999999999976,-0.423676,-0.144238,-0.343155,-0.072822,0.129392,-0.337075,-0.102992
132,-0.06386800000000001,0.6695199999999999,-0.195979,-0.21172,0.4714999999999999,-0.169799,-0.40318000000000004,0.66304,-0.279069,0.11747000000000002,0.4820229999999999,-0.204949,0.27785,0.6666099999999999,-0.32365900000000003,-0.39535000000000003,0.8937999999999999,-0.350229,0.26576,0.9176199999999999,-0.380959,-0.077287,-0.00499000000000005,0.004930999999999998,0.077287,0.004989999999999939,-0.004930999999999998,-0.24613,-0.06701000000000001,-0.385099,0.158,-0.06450000000000011,-0.422399,-0.14445,-0.35548,-0.075325,0.12887,-0.3483200000000001,-0.10561999999999999
133,-0.065979,0.6697000000000001,-0.19985599999999998,-0.21349800000000002,0.47100900000000007,-0.172226,-0.40555800000000003,0.66234,-0.281196,0.11540199999999999,0.48174900000000004,-0.20855600000000002,0.276342,0.6652800000000001,-0.328426,-0.398038,0.89174,-0.35209599999999996,0.265192,0.91461,-0.386416,-0.077054,-0.005149999999999988,0.005179999999999997,0.077054,0.005150000000000099,-0.005180000000000004,-0.244288,-0.07798999999999989,-0.38312599999999997,0.15649200000000002,-0.07457999999999998,-0.420836,-0.14478799999999997,-0.3698999999999999,-0.07799,0.12820199999999998,-0.3621399999999999,-0.108612
134,-0.0677685,0.669735,-0.2040215,-0.2150975,0.470645,-0.1747815,-0.40752750000000004,0.661805,-0.2835315,0.11353250000000001,0.48195499999999997,-0.2124115,0.2751125,0.664215,-0.3335015,-0.40013750000000003,0.888855,-0.3542515,0.26477249999999997,0.906955,-0.3917215,-0.0770035,-0.005334999999999979,0.005483500000000002,0.0770035,0.005334999999999979,-0.005483500000000002,-0.2422575,-0.09008499999999997,-0.3807615,0.1550625,-0.08569499999999997,-0.4188515,-0.1451075,-0.38597499999999996,-0.08106250000000001,0.1280225,-0.37882499999999997,-0.1126015
135,-0.06929,0.66971,-0.2075885,-0.2164,0.470152,-0.1772585,-0.40904999999999997,0.66143,-0.2856885,0.11190000000000001,0.481324,-0.2160385,0.27401000000000003,0.66288,-0.3383085,-0.40188999999999997,0.8877200000000001,-0.3561885,0.26451,0.9026799999999999,-0.39677850000000003,-0.07709,-0.005300000000000027,0.005688499999999999,0.07709,0.005299999999999971,-0.005688500000000006,-0.23994000000000001,-0.10353999999999997,-0.37776849999999995,0.15364999999999998,-0.09785999999999995,-0.4160785,-0.14526,-0.40398999999999996,-0.08359050000000001,0.128,-0.39732999999999996,-0.1165095
136,-0.0701255,0.669505,-0.210791,-0.2173505,0.470046,-0.179391,-0.41020049999999997,0.662375,-0.287331,0.1104695,0.48106600000000005,-0.218881,0.2730095,0.662325,-0.342671,-0.40241049999999995,0.8864350000000001,-0.357931,0.2640695,0.899445,-0.401101,-0.07707649999999999,-0.005404999999999993,0.005927999999999996,0.07707649999999999,0.005405000000000049,-0.005928000000000003,-0.2375905,-0.11795499999999992,-0.374261,0.1521195,-0.11148499999999995,-0.41269100000000003,-0.1452805,-0.42298499999999994,-0.085621,0.12793949999999998,-0.41703499999999993,-0.119547
137,-0.0705405,0.6691199999999999,-0.21315599999999998,-0.2181275,0.470107,-0.181116,-0.41140750000000004,0.66385,-0.28871600000000003,0.1099725,0.48028699999999996,-0.221236,0.2720525,0.66211,-0.34605600000000003,-0.4024575,0.88558,-0.359566,0.2638525,0.89627,-0.404856,-0.0770715,-0.005209999999999992,0.006093000000000001,0.0770715,0.005209999999999992,-0.006093000000000001,-0.2355075,-0.13194000000000006,-0.370236,0.1505525,-0.12495,-0.408606,-0.1453675,-0.4427,-0.088005,0.12794250000000001,-0.43761000000000005,-0.12420400000000001
138,-0.07054300000000001,0.6703,-0.215258,-0.21878,0.46889200000000003,-0.182588,-0.41137,0.66332,-0.289578,0.10968000000000001,0.478257,-0.22332799999999997,0.27143,0.6613,-0.348138,-0.40263,0.88541,-0.361058,0.26372,0.89435,-0.407138,-0.077033,-0.005139999999999978,0.006207000000000004,0.077033,0.005140000000000033,-0.006206999999999997,-0.2336,-0.14500000000000002,-0.366028,0.14908999999999997,-0.13756999999999997,-0.404438,-0.14538,-0.46165999999999996,-0.090136,0.12780999999999998,-0.45652000000000004,-0.129353
139,-0.070349,0.67033,-0.2170295,-0.21906599999999998,0.470659,-0.1834895,-0.411136,0.66477,-0.2898995,0.10967400000000001,0.478914,-0.22509949999999998,0.270854,0.6613,-0.3498895,-0.40256600000000003,0.88923,-0.3617495,0.263754,0.89801,-0.40889949999999997,-0.077008,-0.00496000000000002,0.006218500000000002,0.077008,0.00496000000000002,-0.006218499999999995,-0.231626,-0.15887999999999997,-0.3608095,0.147574,-0.15123999999999999,-0.3990995,-0.145256,-0.48138,-0.09205849999999999,0.12754400000000002,-0.47647999999999996,-0.1333675
140,-0.0698285,0.67031,-0.2185075,-0.2188585,0.470815,-0.1838175,-0.4105685,0.66613,-0.2901375,0.11019150000000001,0.482103,-0.22665749999999998,0.2707015,0.66045,-0.3514275,-0.4020085,0.8909199999999999,-0.3618775,0.2640715,0.89852,-0.4104575,-0.0768635,-0.00545000000000001,0.006083500000000006,0.0768635,0.00545000000000001,-0.006083499999999999,-0.2292785,-0.17458,-0.3540075,0.1463015,-0.16648999999999997,-0.3915175,-0.14637850000000002,-0.5033799999999999,-0.0963115,0.12766149999999998,-0.49891,-0.1358605
141,-0.06924949999999999,0.67327,-0.218888,-0.21852950000000002,0.47297,-0.18290800000000002,-0.4089395,0.6694100000000001,-0.288138,0.11074049999999999,0.48175999999999997,-0.227108,0.2710805,0.6603399999999999,-0.351778,-0.4010395,0.8940899999999999,-0.360418,0.2643205,0.89944,-0.411598,-0.0767455,-0.004730000000000012,0.0062429999999999986,0.0767455,0.0047299999999999565,-0.0062429999999999986,-0.2265395,-0.19096999999999997,-0.34532799999999997,0.14506049999999998,-0.18269999999999997,-0.383308,-0.1475195,-0.5273,-0.099794,0.1276105,-0.52342,-0.138216
142,-0.068307,0.675655,-0.2185435,-0.217918,0.475155,-0.1817535,-0.407268,0.673065,-0.2858935,0.11167200000000001,0.480565,-0.2270935,0.271692,0.660915,-0.3514835,-0.399208,0.8974650000000001,-0.3581135,0.264582,0.901315,-0.4119135,-0.076762,-0.004054999999999975,0.006364500000000009,0.076762,0.004055000000000031,-0.006364499999999995,-0.223628,-0.20616499999999993,-0.3366335,0.144052,-0.19833500000000004,-0.3750335,-0.14823799999999998,-0.549845,-0.1023435,0.127832,-0.546675,-0.1397785
143,-0.067339,0.677775,-0.2172515,-0.217409,0.477425,-0.18009150000000002,-0.405679,0.675665,-0.2829715,0.11268099999999999,0.48222499999999996,-0.22599149999999998,0.27225099999999997,0.6605049999999999,-0.3505015,-0.397029,0.9032049999999999,-0.3539415,0.264521,0.902605,-0.41090150000000003,-0.076649,-0.003735000000000044,0.006429500000000005,0.076649,0.0037349999999999883,-0.006429499999999998,-0.220299,-0.222055,-0.3271315,0.142381,-0.21463500000000002,-0.3652915,-0.14914899999999998,-0.573625,-0.1046795,0.127921,-0.570655,-0.14179049999999999
144,-0.06612,0.680855,-0.21572950000000002,-0.21667199999999998,0.478905,-0.1781395,-0.404072,0.678995,-0.2792695,0.113788,0.48402500000000004,-0.2244895,0.27284800000000003,0.661815,-0.34894949999999997,-0.394402,0.907575,-0.3500395,0.264918,0.900865,-0.4091495,-0.076687,-0.0037249999999999783,0.0063065000000000065,0.076687,0.003725000000000034,-0.0063065,-0.21665199999999998,-0.23745499999999997,-0.31708949999999997,0.140708,-0.23050499999999996,-0.35482949999999996,-0.150002,-0.597015,-0.1058025,0.12831800000000002,-0.594055,-0.1417745
145,-0.0647115,0.68397,-0.21359499999999998,-0.2159155,0.47966,-0.175975,-0.4022455,0.68221,-0.275055,0.11511450000000001,0.48427,-0.22284500000000002,0.2735245,0.6622300000000001,-0.346855,-0.3918255,0.91242,-0.345615,0.2653845,0.90005,-0.406175,-0.0767565,-0.0032200000000000006,0.006229999999999999,0.0767565,0.0032200000000000006,-0.006230000000000006,-0.2123855,-0.25198,-0.306495,0.1390445,-0.24548000000000003,-0.34392500000000004,-0.1502455,-0.61964,-0.10594700000000001,0.1287445,-0.6165499999999999,-0.14147300000000002
146,-0.06334200000000001,0.68793,-0.21100750000000001,-0.215012,0.48075999999999997,-0.1738075,-0.400962,0.68676,-0.2702475,0.116708,0.48406,-0.2209975,0.274458,0.66526,-0.3444975,-0.389492,0.91703,-0.3408775,0.265308,0.9017999999999999,-0.4026075,-0.076833,-0.002840000000000009,0.006232500000000002,0.076833,0.002840000000000009,-0.006232499999999995,-0.207562,-0.26558000000000004,-0.2955975,0.137638,-0.25886,-0.3329875,-0.150022,-0.64134,-0.1057095,0.129298,-0.63761,-0.1409895
147,-0.0618965,0.6866099999999999,-0.20698700000000003,-0.2140235,0.48379,-0.170917,-0.39956349999999996,0.69001,-0.26515700000000003,0.11844649999999998,0.48732000000000003,-0.218567,0.2756565,0.66701,-0.340947,-0.3874235,0.91958,-0.335337,0.2653765,0.9033100000000001,-0.397797,-0.0770345,-0.0027699999999999947,0.006201999999999999,0.0770345,0.0027699999999999947,-0.006202000000000006,-0.2011235,-0.28234000000000004,-0.281687,0.1356465,-0.27461,-0.318997,-0.1494435,-0.66617,-0.10537500000000001,0.12990649999999998,-0.66073,-0.140663
148,-0.0600385,0.6820649999999999,-0.2019955,-0.21239750000000002,0.48444499999999996,-0.1682955,-0.3971575,0.690455,-0.2602755,0.1204225,0.488535,-0.2159855,0.2771125,0.668215,-0.3369855,-0.3857475,0.9179249999999999,-0.3303055,0.26610249999999996,0.9032149999999999,-0.3924955,-0.0769475,-0.0024650000000000227,0.005871500000000002,0.0769475,0.002464999999999995,-0.005871499999999995,-0.19354749999999998,-0.298395,-0.2669755,0.13383250000000002,-0.289725,-0.3039855,-0.14808749999999998,-0.6901349999999999,-0.1051385,0.13073249999999997,-0.6836249999999999,-0.1391775
149,-0.0585345,0.6790999999999999,-0.197515,-0.2111265,0.48389000000000004,-0.166245,-0.3951165,0.6938599999999999,-0.255575,0.12170349999999999,0.48758,-0.213825,0.2782435,0.6707099999999999,-0.333315,-0.3843865,0.9200499999999999,-0.325625,0.2666235,0.90547,-0.38726499999999997,-0.0769115,-0.0020799999999999985,0.005586999999999995,0.0769115,0.0020799999999999985,-0.005587000000000002,-0.1862165,-0.31350999999999996,-0.252955,0.1316135,-0.30422000000000005,-0.289655,-0.1468665,-0.71267,-0.105117,0.1308735,-0.70274,-0.132991
150,-0.0572635,0.6734849999999999,-0.192517,-0.2099775,0.481045,-0.16508699999999998,-0.39317749999999996,0.695535,-0.25216700000000003,0.12286250000000001,0.487845,-0.212177,0.2791825,0.6733149999999999,-0.330047,-0.3831475,0.922685,-0.321647,0.26694249999999997,0.909735,-0.38259699999999996,-0.0767885,-0.0022950000000000192,0.005273,0.0767885,0.0022949999999999915,-0.005273,-0.1789975,-0.326845,-0.239527,0.1287925,-0.316735,-0.275027,-0.1457575,-0.7319549999999999,-0.104908,0.1311925,-0.719455,-0.126871
151,-0.0560275,0.6679299999999999,-0.186892,-0.20889950000000002,0.47804,-0.164222,-0.39106949999999996,0.6973999999999999,-0.24852200000000002,0.1239605,0.48881,-0.210892,0.28006050000000005,0.67813,-0.32658200000000004,-0.3822195,0.9273199999999999,-0.31775200000000003,0.2681405,0.91543,-0.378012,-0.0766355,-0.0026599999999999957,0.004932999999999993,0.0766355,0.0026599999999999957,-0.004933000000000007,-0.17151950000000002,-0.34018,-0.22587200000000002,0.12530049999999998,-0.32876,-0.25964200000000004,-0.14467950000000002,-0.7510800000000001,-0.10436700000000002,0.13146049999999998,-0.7358600000000001,-0.12123300000000001
152,-0.0547175,0.663291,-0.180032,-0.2077405,0.474711,-0.16295300000000001,-0.38778050000000003,0.700541,-0.24370200000000003,0.12260949999999998,0.48702100000000004,-0.20952199999999999,0.2802695,0.684971,-0.321492,-0.3816605,0.930391,-0.313592,0.2697595,0.921951,-0.372392,-0.0765245,-0.002688999999999997,0.004575999999999997,0.0765245,0.002689000000000011,-0.004576000000000004,-0.1639005,-0.351499,-0.210212,0.1220995,-0.33960899999999994,-0.24336200000000002,-0.1419105,-0.766619,-0.099122,0.1319995,-0.7484190000000001,-0.114368
153,-0.053158,0.657099,-0.1728115,-0.20621699999999998,0.47179899999999997,-0.1613815,-0.383807,0.7024889999999999,-0.23906149999999998,0.12190300000000001,0.48568900000000004,-0.2077315,0.280103,0.690429,-0.3157815,-0.380427,0.9323089999999999,-0.3096015,0.27109300000000003,0.928719,-0.3663215,-0.076522,-0.0026390000000000025,0.004292500000000005,0.076522,0.0026389999999999886,-0.004292499999999998,-0.155327,-0.36384099999999997,-0.19320150000000003,0.119613,-0.35433099999999995,-0.22572150000000002,-0.138157,-0.7792410000000001,-0.0932345,0.133053,-0.762331,-0.1068455
154,-0.0517715,0.6499429999999999,-0.1682385,-0.2050475,0.47149300000000005,-0.1595675,-0.3820575,0.7028829999999999,-0.23442849999999998,0.1232025,0.486453,-0.2057585,0.2799225,0.696153,-0.3091885,-0.3792775,0.934433,-0.3051585,0.2723125,0.9366829999999999,-0.3589485,-0.0764625,-0.003041000000000002,0.0039135,0.0764625,0.003041000000000002,-0.0039135,-0.14656750000000002,-0.37579700000000005,-0.1733985,0.1172725,-0.36867700000000003,-0.20666849999999998,-0.1340075,-0.790717,-0.0855905,0.1340825,-0.7754070000000001,-0.09829650000000001
155,-0.050118,0.6425235,-0.1607045,-0.203599,0.4709035,-0.15499449999999998,-0.380039,0.7027635,-0.2272445,0.124391,0.4883535,-0.2005045,0.279851,0.6999535,-0.29928449999999995,-0.378269,0.9370435,-0.29757449999999996,0.273191,0.9451235,-0.3484545,-0.07683799999999999,-0.0031684999999999977,0.0028135000000000035,0.07683799999999999,0.0031685000000000046,-0.0028134999999999966,-0.137119,-0.38722650000000003,-0.14897749999999998,0.11536099999999999,-0.38284650000000003,-0.18274449999999998,-0.128889,-0.8010465,-0.0735115,0.13520100000000002,-0.7874765,-0.0847835
156,-0.048480499999999996,0.6379250000000001,-0.1509815,-0.20178049999999997,0.46460500000000005,-0.14700950000000002,-0.3775905,0.700555,-0.21715450000000003,0.12610949999999999,0.487035,-0.19151449999999998,0.2800995,0.704025,-0.2868445,-0.3767605,0.9408150000000001,-0.2859245,0.2746795,0.949025,-0.33560450000000003,-0.0768665,-0.0033360000000000056,0.0029054999999999984,0.0768665,0.0033359999999999987,-0.0029055000000000053,-0.12791049999999998,-0.400485,-0.12038750000000001,0.1147795,-0.39717500000000006,-0.1544645,-0.1232905,-0.8116749999999999,-0.058597500000000004,0.13701950000000002,-0.8009649999999999,-0.06915650000000001
157,-0.0473525,0.6478705,-0.1416195,-0.20212349999999998,0.4681505,-0.1369845,-0.3752335,0.7025705,-0.2067615,0.1274365,0.4909805,-0.1804215,0.2800065,0.7075404999999999,-0.2738415,-0.3754235,0.9462805000000001,-0.2731815,0.2757565,0.9501305,-0.3224915,-0.0770595,-0.003556499999999997,0.002853500000000002,0.0770595,0.0035565000000000006,-0.002853500000000002,-0.12008350000000001,-0.4128295,-0.0930925,0.11459649999999999,-0.4098395,-0.1273965,-0.11817350000000001,-0.8208495,-0.0435865,0.1387465,-0.8129394999999999,-0.0547035
158,-0.046306,0.65588,-0.131991,-0.20235999999999998,0.47346,-0.127596,-0.37310000000000004,0.70026,-0.19699,0.12863,0.4958,-0.16999,0.27988999999999997,0.71114,-0.26122999999999996,-0.37419,0.95032,-0.26133,0.27685,0.95392,-0.30829,-0.077233,-0.0036099999999999986,0.0026549999999999976,0.077233,0.0036100000000000004,-0.0026549999999999976,-0.11285,-0.42309,-0.067792,0.11498,-0.42065,-0.100747,-0.11352999999999999,-0.82831,-0.029313,0.1406,-0.82298,-0.041249
159,-0.0453505,0.664532,-0.12303900000000001,-0.2025345,0.479442,-0.118451,-0.3710245,0.698112,-0.18751400000000001,0.12996549999999998,0.501272,-0.159884,0.2798255,0.713262,-0.24890400000000001,-0.3726745,0.9543119999999999,-0.249414,0.2779955,0.9565819999999999,-0.294534,-0.0774215,-0.003771,0.0025059999999999943,0.0774215,0.003771,-0.0025060000000000013,-0.1062745,-0.432808,-0.044267,0.1162755,-0.43325800000000003,-0.075256,-0.10915450000000002,-0.835418,-0.015707000000000002,0.14248550000000001,-0.8324480000000001,-0.027873000000000002
160,-0.0444405,0.673185,-0.11452799999999999,-0.2024555,0.48485500000000004,-0.109792,-0.3692955,0.6957450000000001,-0.178804,0.1311645,0.506815,-0.150104,0.2797345,0.713555,-0.237414,-0.3712455,0.956475,-0.238004,0.2796745,0.958075,-0.281614,-0.07754449999999999,-0.003894,0.002367000000000001,0.07754449999999999,0.003894,-0.0023669999999999976,-0.10016549999999999,-0.443905,-0.022341,0.11825450000000001,-0.44815499999999997,-0.051356,-0.1052555,-0.843235,-0.0031020000000000006,0.1444045,-0.843785,-0.015279
161,-0.043762,0.6807074999999999,-0.10649549999999999,-0.202929,0.4874175,-0.1007325,-0.36701900000000004,0.6922174999999999,-0.17044949999999998,0.132941,0.5103975,-0.1395595,0.28036099999999997,0.7119675,-0.2265295,-0.369559,0.9578875,-0.22704950000000002,0.281321,0.9585874999999999,-0.2695295,-0.077731,-0.003931499999999999,0.0020055000000000003,0.077731,0.003931500000000001,-0.0020055000000000003,-0.09472900000000001,-0.4552025,-0.0031754999999999978,0.120611,-0.4629425,-0.0296555,-0.10141900000000001,-0.8517525,0.0088675,0.146501,-0.8544325,-0.0038494999999999988
162,-0.043720999999999996,0.6891345000000001,-0.0985025,-0.203989,0.4904745,-0.0913805,-0.365309,0.6888945000000001,-0.1621215,0.134151,0.5139045000000001,-0.1284215,0.281071,0.7103145000000001,-0.2159315,-0.368389,0.9594845000000001,-0.2163415,0.282331,0.9589245000000001,-0.2578215,-0.07779900000000001,-0.004011500000000001,0.0015855,0.07779900000000001,0.004011500000000001,-0.0015855,-0.09078900000000001,-0.4657855,0.013602499999999998,0.12240100000000001,-0.4770255,-0.0104165,-0.098629,-0.8596355,0.0199825,0.148001,-0.8638655,0.006907499999999999
163,-0.043825499999999996,0.6978335,-0.090749,-0.2055895,0.49698349999999997,-0.08133,-0.3646095,0.6857534999999999,-0.153974,0.1352405,0.5199535,-0.117484,0.2816205,0.7083335,-0.20589400000000002,-0.3675695,0.9609234999999999,-0.20629399999999998,0.28317050000000005,0.9569635,-0.248054,-0.07782549999999999,-0.004015500000000002,0.0011280000000000005,0.07782549999999999,0.004015499999999998,-0.0011279999999999988,-0.08785950000000001,-0.4758865,0.026582,0.1241205,-0.4906165,0.006582000000000001,-0.0963395,-0.8666365,0.029267,0.1493505,-0.8728065,0.016730000000000002
164,-0.044539499999999996,0.7070540000000001,-0.086729,-0.2078185,0.5042540000000001,-0.07410900000000001,-0.3660885,0.682984,-0.14890799999999998,0.1377915,0.526634,-0.108598,0.28185150000000003,0.706624,-0.19905799999999998,-0.3675485,0.9625940000000001,-0.19985799999999998,0.2833215,0.9540540000000001,-0.24167799999999998,-0.0774375,-0.004256999999999997,0.0013880000000000003,0.0774375,0.004257000000000004,-0.0013879999999999995,-0.0863685,-0.485006,0.033618999999999996,0.1252915,-0.503166,0.017415,-0.0951885,-0.871536,0.033678,0.1503515,-0.880976,0.020928000000000002
165,-0.045623000000000004,0.717166,-0.085548,-0.210681,0.512766,-0.07017799999999999,-0.36868100000000004,0.681826,-0.146374,0.139679,0.532026,-0.10364599999999999,0.281529,0.705326,-0.194574,-0.368391,0.959296,-0.197374,0.282749,0.955106,-0.237754,-0.077306,-0.004124000000000003,0.0013839999999999998,0.077306,0.004123999999999996,-0.0013839999999999998,-0.086141,-0.48838400000000004,0.034182,0.125629,-0.506554,0.021508,-0.094791,-0.874084,0.035233,0.15058899999999997,-0.883724,0.021928000000000003
166,-0.0466415,0.7166220000000001,-0.084341,-0.21123150000000002,0.5120020000000001,-0.06768,-0.3693515,0.6810620000000001,-0.144057,0.1399785,0.531872,-0.09999,0.2817885,0.706092,-0.190137,-0.3692515,0.958532,-0.195447,0.2836085,0.9535720000000001,-0.233767,-0.0772265,-0.004270000000000003,0.0013810000000000003,0.0772265,0.004269999999999996,-0.0013809999999999994,-0.0860515,-0.489248,0.034429,0.1258285,-0.507368,0.024957,-0.09452150000000001,-0.874138,0.036313000000000005,0.15069849999999999,-0.8839079999999999,0.022900000000000004
167,-0.047778,0.7163325,-0.0834365,-0.211939,0.5115425,-0.0651035,-0.370219,0.6808625,-0.1416635,0.140121,0.5319325,-0.0961455,0.281891,0.7066725,-0.18606350000000002,-0.370229,0.9580425,-0.19341350000000002,0.283011,0.9558425,-0.23138350000000002,-0.0772,-0.004390499999999999,0.0013805000000000007,0.0772,0.004390499999999999,-0.0013804999999999998,-0.086169,-0.4898375,0.0346405,0.125751,-0.5078975,0.0263175,-0.094579,-0.8740375,0.0372135,0.150721,-0.8843975,0.023439500000000002
168,-0.048647499999999996,0.716108,-0.0832625,-0.21245950000000002,0.5111279999999999,-0.0631005,-0.3709695,0.680438,-0.13974750000000002,0.14040049999999998,0.531948,-0.0928785,0.2817205,0.707298,-0.18306750000000002,-0.3724595,0.955638,-0.1919675,0.2831005,0.9586179999999999,-0.22971750000000002,-0.0771885,-0.004477000000000002,0.0007664999999999998,0.0771885,0.004476999999999995,-0.0007665000000000007,-0.0864695,-0.489952,0.0338565,0.1259505,-0.508322,0.026025499999999997,-0.0945595,-0.874452,0.0370475,0.1508505,-0.884432,0.0228385
169,-0.049313499999999996,0.7159325,-0.0810265,-0.2128015,0.5100025,-0.061547500000000005,-0.3716715,0.6783825,-0.13826449999999998,0.1404385,0.5319725,-0.0903105,0.2817985,0.7077025,-0.1805445,-0.3752015,0.9498325,-0.19124449999999998,0.2831085,0.9582124999999999,-0.2292345,-0.0771995,-0.0045515,0.00042850000000000006,0.0771995,0.0045515,-0.0004284999999999992,-0.08672149999999999,-0.4901075,0.032724500000000004,0.1261785,-0.5086575,0.025226500000000002,-0.0946815,-0.8742475,0.0365255,0.1508985,-0.8844675,0.0218975
170,-0.04970650000000001,0.7158055,-0.0792385,-0.21278149999999998,0.5091455,-0.060381500000000005,-0.3721115,0.6771155,-0.1371735,0.14048850000000002,0.5322855000000001,-0.08823650000000001,0.2818485,0.7077855000000001,-0.1783635,-0.3778315,0.9440255000000001,-0.1911535,0.28331850000000003,0.9548355000000001,-0.2295235,-0.07718749999999999,-0.004629500000000002,0.0002304999999999998,0.07718749999999999,0.004629500000000002,-0.0002304999999999998,-0.08681150000000001,-0.4902845,0.0318995,0.1264585,-0.5088345,0.024624499999999997,-0.09472150000000001,-0.8743445,0.036027500000000004,0.1509285,-0.8844345,0.0211255
171,-0.049971,0.7158835,-0.0775545,-0.212783,0.5083735,-0.0592575,-0.372473,0.6762135,-0.1360885,0.140497,0.5326035,-0.0865795,0.281867,0.7076835,-0.1764685,-0.380143,0.9377734999999999,-0.1919785,0.283977,0.9533535,-0.2304485,-0.07715,-0.0046975,8.050000000000071e-05,0.07715,0.0046975,-8.049999999999898e-05,-0.086893,-0.4903865,0.0311045,0.126717,-0.5087365,0.024010499999999997,-0.09478299999999999,-0.8741265,0.0354715,0.150957,-0.8842965,0.0204425
172,-0.050066,0.71629,-0.0755895,-0.21282299999999998,0.50786,-0.058159499999999996,-0.372743,0.67536,-0.1349255,0.140467,0.5327799999999999,-0.0850555,0.281887,0.70761,-0.1751455,-0.38226299999999996,0.93134,-0.1926255,0.285727,0.9517599999999999,-0.23121550000000002,-0.077085,-0.004730999999999999,2.4500000000000216e-05,0.077085,0.004730999999999999,-2.4500000000000216e-05,-0.087013,-0.49041999999999997,0.030516500000000002,0.126937,-0.5085500000000001,0.023557500000000002,-0.094873,-0.8741,0.0348265,0.150937,-0.88407,0.0199325
173,-0.05017349999999999,0.71671,-0.0737395,-0.21277649999999998,0.50739,-0.0570305,-0.37306649999999997,0.67482,-0.1346845,0.14054350000000002,0.5327799999999999,-0.0837015,0.2822835,0.70761,-0.1745845,-0.3845365,0.92436,-0.1930945,0.28790350000000003,0.9495199999999999,-0.2318145,-0.0770235,-0.004730999999999999,1.2499999999998623e-05,0.0770235,0.004730999999999999,-1.2500000000000358e-05,-0.08722649999999998,-0.49056,0.0300615,0.1270435,-0.50838,0.023167499999999997,-0.09485649999999998,-0.87438,0.03433749999999999,0.1508235,-0.88383,0.0196305
