sb224sc-HT22-VT27/4dt907/src/ml-research/a11/datafiles/kinect_good_preprocessed_A9_mediapipe/A20_kinect_mirrored.csv
FrameNo,nose_3d_x,nose_3d_y,nose_3d_z,left_shoulder_3d_x,left_shoulder_3d_y,left_shoulder_3d_z,left_elbow_3d_x,left_elbow_3d_y,left_elbow_3d_z,right_shoulder_3d_x,right_shoulder_3d_y,right_shoulder_3d_z,right_elbow_3d_x,right_elbow_3d_y,right_elbow_3d_z,left_wrist_3d_x,left_wrist_3d_y,left_wrist_3d_z,right_wrist_3d_x,right_wrist_3d_y,right_wrist_3d_z,left_hip_3d_x,left_hip_3d_y,left_hip_3d_z,right_hip_3d_x,right_hip_3d_y,right_hip_3d_z,left_knee_3d_x,left_knee_3d_y,left_knee_3d_z,right_knee_3d_x,right_knee_3d_y,right_knee_3d_z,left_ankle_3d_x,left_ankle_3d_y,left_ankle_3d_z,right_ankle_3d_x,right_ankle_3d_y,right_ankle_3d_z
24,0.997299,0.7287545,0.0509065,0.843498,0.4885145000000001,0.0448645,0.729738,0.7132645000000001,0.0119835,1.154958,0.5112245,0.0475205,1.264778,0.7321545,0.0027454999999999,0.691878,0.9356445,-0.0409385,1.308178,0.9398945,-0.0527975,0.926901,-0.0022525,-0.0016565,1.073099,0.0022524999999999,0.0016564999999999,0.883448,-0.4359655,-0.0050355,1.125418,-0.3998454999999999,-0.0270914999999999,0.875318,-0.7901954999999999,-0.0377175,1.1333280000000001,-0.7781954999999999,-0.0248415
25,0.9979460000000001,0.7287545,0.046985,0.8437450000000001,0.4885145000000001,0.041387,0.729645,0.7132645000000001,0.008782,1.154685,0.5112245,0.044324,1.264295,0.7321545,-0.000445,0.691955,0.9356445,-0.043756,1.307685,0.9398945,-0.055987,0.926901,-0.0022525,-0.001575,1.073099,0.0022524999999999,0.001575,0.882525,-0.4353955,-0.008635,1.124815,-0.4011055,-0.030476,0.8746050000000001,-0.7900455,-0.041294,1.1326450000000001,-0.7781755,-0.0288919999999999
26,0.998587,0.7287545,0.0423645,0.843921,0.4885145000000001,0.0371984999999999,0.729141,0.7132645000000001,0.0050204999999999,1.154391,0.5112245,0.0405574999999999,1.263831,0.7321545,-0.0042074999999999,0.691801,0.9356445,-0.0475275,1.307101,0.9398945,-0.0597464999999999,0.926836,-0.0022525,-0.0015565,1.073164,0.0022524999999999,0.0015564999999999,0.881461,-0.4348054999999999,-0.0129015,1.124441,-0.4024455,-0.0344785,0.874441,-0.7901254999999999,-0.0455285,1.132461,-0.7789055,-0.0338075
27,0.99932,0.7286545,0.0363355,0.844176,0.4885145000000001,0.0319375,0.728476,0.7131345,0.0004325,1.154246,0.5112245,0.0359535,1.263276,0.7306045,-0.0087984999999999,0.691696,0.9356445,-0.0521325,1.3065959999999999,0.9396045,-0.0643395,0.926748,-0.0022525,-0.0014354999999999,1.073252,0.0022524999999999,0.0014355,0.880266,-0.4342355,-0.0188475,1.124136,-0.4037655,-0.0396605,0.8743259999999999,-0.7901254999999999,-0.0509475,1.132386,-0.7794154999999999,-0.0395825
28,0.999942,0.7278405,0.0265555,0.844737,0.4878705,0.0233974999999999,0.7272970000000001,0.7142204999999999,-0.0073285,1.153787,0.5106704999999999,0.0282784999999999,1.262747,0.7300205,-0.0169905,0.691457,0.9372405,-0.0591395,1.305747,0.9419805,-0.0715325,0.9266010000000001,-0.0020244999999999,-0.0013874999999999,1.073399,0.0020244999999999,0.0013875,0.878317,-0.4305495,-0.0293375,1.123747,-0.4026095,-0.0483605,0.874147,-0.7877095000000001,-0.0590975,1.132247,-0.7774995,-0.0478305
29,1.0000965,0.7263515,0.0154879999999999,0.8452345,0.4873515,0.0138579999999999,0.7256644999999999,0.7146315,-0.016787,1.1531645,0.5101315000000001,0.019369,1.2615045,0.7285615,-0.026633,0.6908845,0.9386315,-0.067751,1.3041245,0.9444715,-0.080747,0.9264275,-0.0018685,-0.001313,1.0735725,0.0018685,0.001313,0.8766745,-0.4247485,-0.041566,1.1234945,-0.3997785,-0.059416,0.8741945,-0.7833185,-0.068409,1.1321045,-0.7734685,-0.057362
30,1.000223,0.7249715000000001,0.0038829999999999,0.845691,0.4864415,0.0037809999999999,0.7239610000000001,0.7147815,-0.027154,1.152601,0.5092515,0.010047,1.260511,0.7268615,-0.037323,0.689921,0.9358215,-0.07783,1.302421,0.9475615,-0.091153,0.9262970000000001,-0.0016544999999999,-0.001272,1.0737029999999999,0.0016544999999999,0.0012719999999999,0.8749610000000001,-0.4178385,-0.05462,1.123191,-0.3963385,-0.071351,0.874201,-0.7777885,-0.078094,1.131961,-0.7696185,-0.068545
31,1.000361,0.7235775,-0.008359,0.84617,0.4856474999999999,-0.006543,0.72218,0.7145575000000001,-0.03815,1.15205,0.5084275,0.0005129999999999,1.25965,0.7247575,-0.048444,0.68875,0.9326875,-0.088648,1.3006,0.9504575,-0.10236,0.9261570000000001,-0.0014454999999999,-0.001201,1.0738429999999999,0.0014454999999999,0.001201,0.8732700000000001,-0.4103925,-0.068173,1.12285,-0.3925025,-0.084037,0.87422,-0.7714924999999999,-0.088099,1.13179,-0.7650524999999999,-0.079976
32,1.0004039999999998,0.721341,-0.020554,0.8464850000000002,0.484271,-0.016899,0.720465,0.712631,-0.049447,1.151105,0.507361,-0.009046,1.258875,0.7229909999999999,-0.059625,0.687235,0.928201,-0.099693,1.298435,0.948481,-0.11435,0.925944,-0.0013329999999999,-0.00118,1.074056,0.001333,0.00118,0.871525,-0.402269,-0.081948,1.122985,-0.388339,-0.097563,0.874665,-0.764199,-0.098234,1.132285,-0.759359,-0.09145
33,1.000435,0.7184775,-0.0330765,0.846762,0.4825775,-0.0278745,0.718852,0.7107374999999999,-0.0616585,1.150162,0.5062475,-0.0191405,1.257982,0.7213774999999999,-0.0723395,0.685622,0.9241175,-0.1111875,1.2964419999999999,0.9483675,-0.1272405,0.925731,-0.0013714999999999,-0.0013545,1.074269,0.0013715,0.0013545,0.869822,-0.3919925,-0.0963575,1.1233819999999999,-0.3824825,-0.1119085,0.875202,-0.7543725,-0.1088205,1.132942,-0.7490925,-0.1014735
34,1.000435,0.7155050000000001,-0.0447689999999999,0.84706,0.481165,-0.037957,0.71732,0.708175,-0.073413,1.14927,0.504625,-0.028612,1.25762,0.719515,-0.084511,0.6840200000000001,0.919875,-0.122344,1.29485,0.946075,-0.140193,0.925477,-0.0013629999999999,-0.0014519999999999,1.0745230000000001,0.001363,0.001452,0.8682,-0.381345,-0.110262,1.12405,-0.375915,-0.125734,0.87591,-0.744015,-0.1182469999999999,1.13361,-0.740115,-0.11207
35,1.0002615,0.7121930000000001,-0.056313,0.8474145000000001,0.479333,-0.047724,0.7159945000000001,0.705633,-0.085427,1.1482345,0.502143,-0.038258,1.2571444999999999,0.717333,-0.096874,0.6823144999999999,0.916453,-0.133847,1.2940145,0.944793,-0.153248,0.9253534999999999,-0.0013329999999999,-0.001428,1.0746465,0.001333,0.0014279999999999,0.8664145,-0.368537,-0.124341,1.1248545,-0.364037,-0.139625,0.8762145000000001,-0.7325870000000001,-0.127377,1.1343345,-0.7287570000000001,-0.122131
36,1.0002974999999998,0.7091054999999999,-0.0667255,0.8479565,0.4773955,-0.0569245,0.7149965,0.7031054999999999,-0.0970415,1.1472565000000001,0.4988255,-0.0474944999999999,1.2567865,0.7144355,-0.1085474999999999,0.6808565,0.9141055,-0.1453315,1.2936065,0.9421155,-0.1664884999999999,0.9250615000000001,-0.0012654999999999,-0.0014954999999999,1.0749384999999998,0.0012654999999999,0.0014954999999999,0.8648965,-0.3543845,-0.1373535,1.1259265,-0.3510845,-0.1527925,0.8767265,-0.7196345000000001,-0.1345414999999999,1.1351865,-0.7165245,-0.1317654999999999
37,1.0003345,0.706548,-0.0790455,0.8478415,0.476688,-0.0687355,0.7142415,0.6995979999999999,-0.1115805,1.1463215,0.497198,-0.0597545,1.2563214999999999,0.713318,-0.1230335,0.6792815,0.913208,-0.1602555,1.2930415,0.939968,-0.1829145,0.9248455,-0.001419,-0.0016055,1.0751545,0.0014189999999999,0.0016054999999999,0.8638715000000001,-0.339292,-0.1515885,1.1267415,-0.336962,-0.1681755,0.8772515,-0.705762,-0.1447335,1.1357815,-0.702972,-0.1446505
38,1.000448,0.705732,-0.0917645,0.848527,0.474732,-0.0809115,0.713757,0.697262,-0.1257675,1.144967,0.495082,-0.0720245,1.255917,0.710502,-0.1372265,0.678417,0.906572,-0.1764235,1.292497,0.932042,-0.1993675,0.924592,-0.001562,-0.0017525,1.075408,0.001562,0.0017524999999999,0.8616969999999999,-0.321758,-0.1696145,1.128067,-0.320508,-0.1855775,0.877207,-0.690928,-0.1546755,1.135767,-0.688708,-0.1573005
39,1.0005265,0.703434,-0.1048355,0.8492905,0.473244,-0.0934765,0.7132305,0.694804,-0.1410105,1.1440104999999998,0.4917439999999999,-0.0853175,1.2555405,0.707404,-0.1524195,0.6778805,0.905694,-0.1920655,1.2920505,0.924654,-0.2165495,0.9243005,-0.0015669999999999,-0.0018994999999999,1.0756995,0.0015669999999999,0.0018994999999999,0.8592605,-0.303556,-0.1883185,1.1296804999999999,-0.303416,-0.2036895,0.8773605,-0.673236,-0.1646395,1.1353805,-0.671986,-0.1679945
40,1.000561,0.7013590000000001,-0.1179399999999999,0.850309,0.470569,-0.106262,0.7126589999999999,0.692679,-0.156196,1.143079,0.488419,-0.098469,1.2546089999999999,0.7049190000000001,-0.167513,0.677359,0.905209,-0.207915,1.2922889999999998,0.917239,-0.2341249999999999,0.924071,-0.001667,-0.002015,1.075929,0.001667,0.002015,0.856939,-0.287011,-0.206645,1.131309,-0.287111,-0.221135,0.877579,-0.6554709999999999,-0.174003,1.135029,-0.6559109999999999,-0.17791
41,1.000991,0.70056,-0.1315859999999999,0.851415,0.46855,-0.1189659999999999,0.712215,0.6912699999999999,-0.171186,1.142255,0.48615,-0.111535,1.254265,0.7023199999999999,-0.182605,0.676865,0.90403,-0.2240849999999999,1.293425,0.91527,-0.251415,0.9237569999999999,-0.0017299999999999,-0.0020049999999999,1.076243,0.0017299999999999,0.002005,0.854735,-0.27042,-0.2247449999999999,1.132535,-0.27047,-0.237675,0.877875,-0.63693,-0.183386,1.134715,-0.6396000000000001,-0.18777
42,1.0015045,0.6975250000000001,-0.145477,0.8524795000000001,0.465685,-0.13153,0.7115795,0.688875,-0.186826,1.1414895,0.481475,-0.124747,1.2541595,0.697095,-0.198493,0.6762995,0.902615,-0.2424299999999999,1.2946195,0.906215,-0.27076,0.9235165,-0.001475,-0.00185,1.0764835,0.001475,0.00185,0.8525595,-0.2510249999999999,-0.24381,1.1334195,-0.250625,-0.25521,0.8780995,-0.6152249999999999,-0.192935,1.1340995,-0.6192249999999999,-0.197414
43,1.002007,0.69357,-0.159873,0.8536240000000002,0.46209,-0.144386,0.7109840000000001,0.68638,-0.203016,1.140824,0.47606,-0.138503,1.254384,0.6878,-0.214947,0.676114,0.89917,-0.26172,1.295874,0.89881,-0.2912599999999999,0.923255,-0.0011599999999999,-0.00167,1.076745,0.0011599999999999,0.00167,0.850494,-0.2302199999999999,-0.26293,1.134194,-0.22923,-0.27299,0.878354,-0.59221,-0.2026379999999999,1.133334,-0.59757,-0.207496
44,1.0024294999999999,0.689515,-0.173978,0.8546675,0.458815,-0.157263,0.7108375,0.683625,-0.219117,1.1402975,0.471245,-0.151935,1.2546374999999999,0.680075,-0.23081,0.6759675,0.896235,-0.28064,1.2969775000000001,0.8911250000000001,-0.31207,0.9229865,-0.000835,-0.00153,1.0770135,0.000835,0.00153,0.8484975,-0.209455,-0.28158,1.1347875,-0.2061849999999999,-0.29059,0.8784475,-0.568985,-0.212145,1.1325375,-0.575215,-0.217224
45,1.0027555,0.68529,-0.18805,0.8557675000000001,0.45602,-0.169977,0.7106675,0.68118,-0.235128,1.1397975,0.46766,-0.165224,1.2548275,0.67412,-0.246918,0.6753675,0.89367,-0.299355,1.2979675,0.88563,-0.333025,0.9227415,-0.0005799999999999,-0.0013749999999999,1.0772585,0.0005799999999999,0.0013749999999999,0.8465475,-0.18851,-0.300025,1.1354175,-0.18242,-0.308015,0.8785775,-0.54557,-0.221495,1.1316975,-0.55291,-0.2272509999999999
46,1.0032625,0.68052,-0.1966669999999999,0.8570725,0.45276,-0.176958,0.7108525,0.67976,-0.2452119999999999,1.1395425,0.4638,-0.1727179999999999,1.2552525,0.6666799999999999,-0.257356,0.6751325,0.88873,-0.312505,1.2990325,0.8728400000000001,-0.348785,0.9225515,-0.00031,-0.0011849999999999,1.0774485,0.00031,0.0011849999999999,0.8448825,-0.16969,-0.312925,1.1362125,-0.16082,-0.319805,0.8788825000000001,-0.52433,-0.2253379999999999,1.1309624999999999,-0.53345,-0.230931
47,1.0035684999999999,0.674225,-0.203456,0.8574515,0.450365,-0.182575,0.7109415,0.675425,-0.254208,1.1391415,0.459755,-0.179275,1.2555115,0.661565,-0.267435,0.6749615,0.889835,-0.323565,1.2990915,0.866015,-0.362845,0.9224495,2.4999999999997247e-05,-0.001025,1.0775505,-2.4999999999997247e-05,0.0010249999999999,0.8443915000000001,-0.152365,-0.320435,1.1362015,-0.143115,-0.327195,0.8790415,-0.5048549999999999,-0.228329,1.1302915,-0.5157349999999999,-0.235076
48,1.0038275,0.6693,-0.209708,0.8577855,0.44865,-0.187047,0.7111155,0.6709700000000001,-0.261269,1.1390655,0.45684,-0.184398,1.2558855,0.6562300000000001,-0.27627,0.6748555,0.8828100000000001,-0.33396,1.2990055,0.8578000000000001,-0.37529,0.9223335,0.00038,-0.00084,1.0776665,-0.0003799999999999,0.0008399999999999,0.8439055,-0.13754,-0.32622,1.1361655,-0.12784,-0.33269,0.8788955,-0.4893099999999999,-0.231337,1.1292255,-0.50072,-0.239038
49,1.004097,0.663455,-0.215278,0.8579740000000001,0.446385,-0.191241,0.711254,0.6666350000000001,-0.26809,1.139014,0.453845,-0.189508,1.255874,0.651975,-0.28562,0.6747639999999999,0.876545,-0.34352,1.298734,0.8504550000000001,-0.38781,0.922256,0.000695,-0.00064,1.077744,-0.000695,0.00064,0.843534,-0.1216149999999999,-0.33184,1.136124,-0.111425,-0.3380999999999999,0.8787240000000001,-0.4728949999999999,-0.2343509999999999,1.128174,-0.4841949999999999,-0.241914
50,1.0042959999999999,0.65709,-0.220618,0.858168,0.44399,-0.195599,0.711488,0.66301,-0.274785,1.139738,0.44989,-0.194897,1.255788,0.64686,-0.295195,0.674658,0.87335,-0.352545,1.298398,0.8430099999999999,-0.399995,0.9221340000000001,0.0009299999999999,-0.000595,1.077866,-0.00093,0.0005949999999999,0.8432580000000001,-0.10828,-0.337415,1.136218,-0.09808,-0.343505,0.878568,-0.45599,-0.237436,1.127268,-0.46736,-0.244587
51,1.0043384999999998,0.6536299999999999,-0.2256449999999999,0.8582875,0.4426,-0.1990549999999999,0.7117475,0.65892,-0.28003,1.1401275,0.44883,-0.1991379999999999,1.2558575,0.64339,-0.3030199999999999,0.6744275,0.8702300000000001,-0.3591499999999999,1.2978675,0.84039,-0.41002,0.9219645,0.00095,-0.0006099999999999,1.0780355,-0.00095,0.00061,0.8430975,-0.09854,-0.3408,1.1361375,-0.08875,-0.34657,0.8783775,-0.4440199999999999,-0.2398809999999999,1.1266275000000001,-0.45528,-0.246871
52,1.004271,0.6495150000000001,-0.230468,0.858373,0.440675,-0.202511,0.7119329999999999,0.655285,-0.28479,1.140453,0.446225,-0.203183,1.255803,0.643795,-0.31058,0.674193,0.870275,-0.36531,1.297223,0.838695,-0.41965,0.921648,0.000995,-0.0007,1.078352,-0.000995,0.0006999999999999,0.8427830000000001,-0.0888649999999999,-0.34366,1.135943,-0.079575,-0.34894,0.878113,-0.432855,-0.241965,1.125913,-0.443945,-0.24847
53,1.003835,0.64543,-0.234997,0.85825,0.43894,-0.205584,0.71209,0.65144,-0.28927,1.14057,0.44429,-0.206881,1.25574,0.64255,-0.31845,0.6743800000000001,0.8669199999999999,-0.37218,1.29648,0.83657,-0.42973,0.9213000000000001,0.001,-0.00083,1.0787,-0.001,0.0008299999999999,0.84249,-0.0787299999999999,-0.34619,1.13572,-0.0701899999999999,-0.35103,0.87766,-0.42205,-0.244171,1.12517,-0.4326399999999999,-0.249535
54,1.003651,0.64069,-0.239365,0.85802,0.4366899999999999,-0.208366,0.71211,0.6465099999999999,-0.29327,1.14057,0.44149,-0.210332,1.25589,0.64107,-0.32627,0.6745400000000001,0.8625700000000001,-0.3787,1.29552,0.82959,-0.43949,0.920964,0.00101,-0.0009299999999999,1.0790359999999999,-0.00101,0.00093,0.84213,-0.0685399999999999,-0.3481499999999999,1.13536,-0.06071,-0.35267,0.8771500000000001,-0.41122,-0.246058,1.12465,-0.42151,-0.251857
55,1.0033249999999998,0.63603,-0.24343,0.857767,0.434653,-0.210893,0.712277,0.64174,-0.297255,1.140447,0.43887,-0.213611,1.256377,0.63993,-0.334325,0.674667,0.8573500000000001,-0.385255,1.295097,0.82822,-0.448755,0.9206620000000001,0.00102,-0.000895,1.079338,-0.00102,0.000895,0.841717,-0.0574399999999999,-0.3495749999999999,1.1351069999999999,-0.0504899999999999,-0.354115,0.8765270000000001,-0.3998,-0.247702,1.1240269999999999,-0.40995,-0.254139
56,1.002941,0.633285,-0.248202,0.8575740000000001,0.43155,-0.213362,0.7122540000000002,0.639005,-0.3018,1.140414,0.435588,-0.216829,1.256614,0.636795,-0.34272,0.6749240000000001,0.8514550000000001,-0.39253,1.294734,0.8251649999999999,-0.4583199999999999,0.9204559999999999,0.0010649999999999,-0.00092,1.079544,-0.0010649999999999,0.00092,0.8413740000000001,-0.0434749999999999,-0.35097,1.135044,-0.037795,-0.35546,0.875934,-0.385835,-0.249833,1.123534,-0.396095,-0.256185
57,1.002414,0.6281350000000001,-0.252452,0.857216,0.428471,-0.215903,0.711966,0.635565,-0.30636,1.140086,0.43303,-0.219915,1.256586,0.6353850000000001,-0.35097,0.6751659999999999,0.852695,-0.4001,1.294356,0.823955,-0.46855,0.920179,0.001005,-0.00092,1.079821,-0.0010049999999999,0.00092,0.8410460000000001,-0.0289549999999999,-0.35236,1.134816,-0.0243749999999999,-0.3567099999999999,0.874686,-0.3713149999999999,-0.252184,1.123506,-0.3817149999999999,-0.2588249999999999
58,1.0019164999999999,0.623785,-0.256412,0.8569095000000001,0.427407,-0.217961,0.7116295,0.632325,-0.31043,1.1395995,0.431243,-0.222766,1.2561594999999999,0.633975,-0.35871,0.6753994999999999,0.8507750000000001,-0.40798,1.2934695,0.820225,-0.47981,0.9199935,0.0011349999999999,-0.0009899999999999,1.0800065,-0.0011349999999999,0.0009899999999999,0.8408095000000001,-0.0140949999999999,-0.3535,1.1343995,-0.0104849999999999,-0.3576399999999999,0.8732095,-0.356935,-0.254497,1.1237095,-0.3671249999999999,-0.261417
59,1.0015595,0.6191450000000001,-0.2599249999999999,0.8566695,0.42606,-0.2195079999999999,0.7113795,0.629025,-0.31406,1.1392695,0.429332,-0.225065,1.2559895,0.633805,-0.36624,0.6756095000000001,0.848285,-0.41539,1.2923395,0.817225,-0.49034,0.9198885,0.001385,-0.0008499999999999,1.0801115000000001,-0.0013849999999999,0.00085,0.8408095000000001,0.000145,-0.3537,1.1341395,0.002975,-0.35778,0.8717195,-0.342935,-0.25655,1.1241794999999999,-0.353745,-0.264032
60,1.0010789999999998,0.614005,-0.262652,0.856341,0.425279,-0.221007,0.711001,0.626955,-0.317375,1.138851,0.426511,-0.227443,1.255481,0.634125,-0.371485,0.6755610000000001,0.845675,-0.422525,1.2912810000000001,0.814135,-0.500105,0.919761,0.0016749999999999,-0.000725,1.080239,-0.0016749999999999,0.0007249999999999,0.840461,0.0154949999999999,-0.353355,1.133791,0.0173349999999999,-0.357525,0.8699910000000001,-0.328325,-0.258623,1.124581,-0.3397249999999999,-0.266611
61,1.0008199999999998,0.61049,-0.264886,0.856131,0.425119,-0.222192,0.7107410000000001,0.62486,-0.32048,1.138591,0.425726,-0.229275,1.2549109999999999,0.63432,-0.37615,0.675441,0.84184,-0.42905,1.290141,0.81023,-0.50832,0.919737,0.0019399999999999,-0.00054,1.080263,-0.0019399999999999,0.0005399999999999,0.840311,0.0299599999999999,-0.3524,1.133641,0.03112,-0.3567599999999999,0.868141,-0.3141899999999999,-0.260733,1.125341,-0.3262699999999999,-0.269191
62,1.0003375,0.6044350000000001,-0.2691759999999999,0.8557935,0.423425,-0.225865,0.7103435,0.620455,-0.32608,1.1378235,0.42282,-0.233485,1.2545135,0.632135,-0.38199,0.6749835,0.835445,-0.43678,1.2890635,0.8026850000000001,-0.5179400000000001,0.9196745,0.0020249999999999,0.0002599999999999,1.0803255,-0.0020249999999999,-0.00026,0.8400235,0.046135,-0.34991,1.1330335,0.046495,-0.3560999999999999,0.8660035,-0.299485,-0.264745,1.1260435,-0.311215,-0.273823
63,0.9995735,0.59917,-0.2737,0.8553855,0.421834,-0.229761,0.7097955,0.6157,-0.33184,1.1369955,0.420122,-0.237813,1.2531055,0.6224000000000001,-0.38725,0.6744755,0.82837,-0.44507,1.2874455,0.7965800000000001,-0.52751,0.9196685,0.0020899999999999,0.0010099999999999,1.0803315,-0.0020899999999999,-0.00101,0.8384555,0.0614199999999999,-0.34697,1.1323655,0.06089,-0.35575,0.8636955,-0.28643,-0.268852,1.1273055,-0.29719,-0.278765
64,0.998871,0.594705,-0.278955,0.854875,0.41936,-0.234413,0.7092350000000001,0.611025,-0.33804,1.135775,0.416911,-0.242861,1.2518049999999998,0.612425,-0.39257,0.674005,0.8214049999999999,-0.454,1.285785,0.789445,-0.5371699999999999,0.919697,0.0020749999999999,0.00184,1.080303,-0.0020749999999999,-0.00184,0.836245,0.071755,-0.34455,1.131675,0.069295,-0.35588,0.861425,-0.275105,-0.273514,1.130315,-0.285085,-0.2886579999999999
65,0.9983975,0.5884349999999999,-0.27954,0.8546535,0.4177949999999999,-0.235219,0.7088935000000001,0.606325,-0.33994,1.1347035,0.4144699999999999,-0.244001,1.2508335,0.603285,-0.39317,0.6734135,0.8133649999999999,-0.45768,1.2844735,0.781895,-0.54274,0.9197385,0.0019449999999999,0.00184,1.0802615,-0.001945,-0.00184,0.8341935,0.0800449999999999,-0.3399999999999999,1.1316835,0.0766449999999999,-0.3529799999999999,0.8595535,-0.2669750000000001,-0.273462,1.1335635,-0.275135,-0.294749
66,0.9977665000000001,0.5837600000000001,-0.280077,0.8543935,0.414956,-0.236134,0.7083535000000001,0.60227,-0.341875,1.1336035,0.411395,-0.245078,1.2493435,0.592711,-0.394205,0.6726635000000001,0.80484,-0.460885,1.2834435,0.77239,-0.547365,0.9199115,0.00169,0.0018849999999999,1.0800885,-0.00169,-0.0018849999999999,0.8320135000000001,0.08676,-0.334415,1.1316035,0.08276,-0.348805,0.8581835000000001,-0.2603799999999999,-0.27337,1.1360135,-0.2665999999999999,-0.300055
67,0.9974360000000001,0.579179,-0.2811559999999999,0.8543769999999999,0.4115159999999999,-0.237564,0.707937,0.597676,-0.3446,1.132717,0.4061769999999999,-0.246633,1.247887,0.581355,-0.3954999999999999,0.6717569999999999,0.79736,-0.46418,1.282597,0.76417,-0.55028,0.920076,0.0013799999999999,0.0024399999999999,1.079924,-0.00138,-0.0024399999999999,0.8298570000000001,0.0915599999999999,-0.3291199999999999,1.131847,0.0926499999999999,-0.3461999999999999,0.857317,-0.25539,-0.273887,1.138257,-0.25671,-0.30564
68,0.997547,0.579769,-0.281874,0.854611,0.4136299999999999,-0.2391869999999999,0.707571,0.5981699999999999,-0.347515,1.131931,0.4067299999999999,-0.248388,1.246601,0.5748759999999999,-0.396795,0.670871,0.7946199999999999,-0.4675749999999999,1.282111,0.75977,-0.553395,0.920382,0.0010799999999999,0.0028849999999999,1.079618,-0.00108,-0.0028849999999999,0.826621,0.1007899999999999,-0.324515,1.132281,0.1072199999999999,-0.344245,0.8568110000000001,-0.24608,-0.27449,1.140511,-0.2416800000000001,-0.311045
69,0.9977765000000001,0.579808,-0.283139,0.8549575,0.415035,-0.2410389999999999,0.7075275,0.598469,-0.3507249999999999,1.1314175,0.408405,-0.2504989999999999,1.2460475,0.569831,-0.397885,0.6700975,0.791135,-0.471005,1.2817775,0.754335,-0.556505,0.9210095000000001,0.0012849999999999,0.003285,1.0789905,-0.0012849999999999,-0.0032849999999999,0.8236775000000001,0.109705,-0.320615,1.1331275,0.121875,-0.3429449999999999,0.8565475000000001,-0.237255,-0.2746679999999999,1.1431575,-0.227025,-0.3167649999999999
70,0.9980675,0.579276,-0.284224,0.8552535,0.41653,-0.242745,0.7074535,0.597154,-0.35357,1.1309034999999998,0.40488,-0.253408,1.2456135,0.566532,-0.39949,0.6693435000000001,0.78714,-0.47389,1.2811935,0.75002,-0.55945,0.9215765,0.00143,0.00358,1.0784235,-0.00143,-0.00358,0.8207435,0.1172099999999999,-0.31705,1.1341435,0.13913,-0.3419999999999999,0.8564635,-0.22975,-0.274214,1.1455735,-0.20884,-0.3247
71,0.998414,0.5808300000000001,-0.285489,0.855561,0.419365,-0.244209,0.7074310000000001,0.597746,-0.355825,1.130631,0.402375,-0.256204,1.246081,0.5619580000000001,-0.398795,0.668451,0.786545,-0.476565,1.281081,0.747465,-0.5615749999999999,0.9220780000000001,0.0018949999999999,0.0038049999999999,1.0779219999999998,-0.0018949999999999,-0.003805,0.817401,0.120825,-0.316355,1.135141,0.152565,-0.342555,0.856441,-0.2249949999999999,-0.274047,1.1479009999999998,-0.1934449999999999,-0.332625
72,0.998917,0.58286,-0.286477,0.856075,0.422305,-0.245458,0.7075750000000001,0.599274,-0.357655,1.130585,0.400045,-0.258687,1.246925,0.563966,-0.397605,0.6678050000000001,0.786475,-0.478025,1.281965,0.747525,-0.562465,0.922518,0.0024549999999999,0.0039749999999999,1.077482,-0.0024549999999999,-0.003975,0.815815,0.1238849999999999,-0.316545,1.136345,0.165555,-0.343375,0.856595,-0.2197949999999999,-0.273734,1.150105,-0.1784449999999999,-0.340365
73,0.9992090000000001,0.584677,-0.287136,0.8563640000000001,0.42603,-0.246421,0.707544,0.600798,-0.358765,1.1305640000000001,0.39888,-0.260602,1.247544,0.570757,-0.398275,0.667044,0.7867500000000001,-0.478655,1.282644,0.74971,-0.5637350000000001,0.922971,0.0030599999999999,0.0040649999999999,1.077029,-0.0030599999999999,-0.004065,0.814534,0.13022,-0.316705,1.137454,0.17753,-0.343975,0.8565240000000001,-0.2143699999999999,-0.273271,1.150734,-0.16432,-0.343595
74,0.9994405000000001,0.586852,-0.285858,0.8566515,0.43011,-0.245394,0.7075115000000001,0.602839,-0.35771,1.1307515,0.39777,-0.260579,1.2482515,0.5728570000000001,-0.3958899999999999,0.6663915,0.7886000000000001,-0.47735,1.2833415000000001,0.7516700000000001,-0.56203,0.9233345,0.00375,0.0036799999999999,1.0766655,-0.0037499999999999,-0.0036799999999999,0.8132715,0.13632,-0.31538,1.1389415,0.19011,-0.34287,0.8563415,-0.2092999999999999,-0.271123,1.1513315,-0.1499599999999999,-0.34486
75,0.999958,0.589834,-0.284298,0.857142,0.43467,-0.243985,0.707642,0.605415,-0.35614,1.131162,0.39752,-0.260095,1.249782,0.579767,-0.39529,0.665862,0.79044,-0.47576,1.284692,0.75607,-0.56094,0.923701,0.00445,0.00336,1.0762990000000001,-0.0044499999999999,-0.00336,0.8122920000000001,0.14241,-0.31409,1.140562,0.20212,-0.34168,0.856412,-0.2040299999999999,-0.268937,1.152122,-0.1359399999999999,-0.34582
76,1.0005295,0.592635,-0.281844,0.8576935,0.43931,-0.241726,0.7079335,0.60812,-0.3537949999999999,1.1317935000000001,0.39966,-0.258416,1.2512935,0.585917,-0.395435,0.6656335,0.79356,-0.473085,1.2864735,0.76107,-0.559175,0.9239895,0.00507,0.0029349999999999,1.0760105,-0.00507,-0.0029349999999999,0.8115735,0.14798,-0.311855,1.1421435,0.2191199999999999,-0.339495,0.8565135,-0.19908,-0.266188,1.1526135,-0.12133,-0.3459649999999999
77,1.000833,0.590861,-0.281633,0.85795,0.4385449999999999,-0.241693,0.7079599999999999,0.605966,-0.35373,1.13221,0.3968649999999999,-0.258836,1.2525,0.5866169999999999,-0.39839,0.6652100000000001,0.791695,-0.4726,1.2883200000000001,0.761455,-0.55962,0.923994,0.0054549999999999,0.0028999999999999,1.076006,-0.0054549999999999,-0.0029,0.81187,0.1478149999999999,-0.31203,1.1431,0.2290749999999999,-0.3402,0.85644,-0.199585,-0.266117,1.15275,-0.112635,-0.3482
78,1.000859,0.591266,-0.280482,0.857974,0.4389499999999999,-0.240853,0.707654,0.606371,-0.35277,1.132234,0.39554,-0.258021,1.253194,0.588604,-0.40048,0.6644940000000001,0.7921,-0.47096,1.289884,0.76186,-0.55854,0.923996,0.0051999999999999,0.0029599999999999,1.076004,-0.0051999999999999,-0.00296,0.811464,0.1485099999999999,-0.31146,1.143124,0.2294799999999999,-0.3394399999999999,0.856464,-0.1995800000000001,-0.265277,1.152384,-0.11223,-0.34824
79,1.0009545,0.591266,-0.278159,0.8580585000000001,0.4389499999999999,-0.238898,0.7076385000000001,0.606371,-0.350365,1.1323185,0.39554,-0.256066,1.2540885,0.591044,-0.400755,0.6642885000000001,0.7921,-0.467995,1.2917785,0.76186,-0.556055,0.9240165,0.0051999999999999,0.0027049999999999,1.0759835,-0.0051999999999999,-0.002705,0.8115384999999999,0.1497599999999999,-0.310005,1.1432085,0.2333499999999999,-0.337565,0.8565484999999999,-0.1995800000000001,-0.263322,1.1524685,-0.10583,-0.346285
80,1.0009445,0.591176,-0.277659,0.8580345,0.43886,-0.238903,0.7076145,0.6062810000000001,-0.34973,1.1322945,0.3954500000000001,-0.256071,1.2549744999999999,0.594622,-0.40242,0.6642945,0.7920100000000001,-0.46679,1.2937444999999999,0.7621500000000001,-0.55481,0.9241475,0.00529,0.0027,1.0758525,-0.0052899999999999,-0.0027,0.8115145000000001,0.14967,-0.31001,1.1431345,0.23351,-0.33757,0.8565245000000001,-0.19967,-0.263327,1.1524444999999999,-0.10568,-0.34629
81,1.0009885,0.591859,-0.276252,0.8581005000000002,0.43845,-0.238094,0.7076804999999999,0.6051120000000001,-0.34777,1.1324705,0.3942300000000001,-0.255515,1.2560704999999999,0.5984050000000001,-0.4024299999999999,0.6643605,0.7920100000000001,-0.46443,1.2963705,0.7654000000000001,-0.5532699999999999,0.9241375000000001,0.00531,0.00235,1.0758625,-0.0053099999999999,-0.0023499999999999,0.8115405,0.14863,-0.30954,1.1429705000000001,0.23236,-0.33729,0.8565505,-0.20089,-0.263274,1.1524605,-0.1069,-0.34573
82,1.0011694999999998,0.59538,-0.273065,0.8580895,0.43857,-0.235617,0.7075895,0.608865,-0.34367,1.1330495,0.39944,-0.25194,1.2569295,0.606117,-0.40034,0.6642995,0.79608,-0.45975,1.2988495,0.77068,-0.54984,0.9243225,0.00467,0.0017299999999999,1.0756775,-0.0046699999999999,-0.00173,0.8136795,0.15262,-0.30924,1.1417594999999998,0.22633,-0.33583,0.8568395,-0.2019299999999999,-0.262554,1.1524694999999998,-0.1095399999999999,-0.33834
83,1.001307,0.5996119999999999,-0.271972,0.857973,0.4398899999999999,-0.2343449999999999,0.707353,0.6126469999999999,-0.3414399999999999,1.133663,0.4071199999999999,-0.24957,1.257663,0.614296,-0.40108,0.664593,0.8021299999999999,-0.45681,1.301223,0.7768099999999999,-0.5476099999999999,0.924512,0.0039099999999999,0.00136,1.075488,-0.00391,-0.00136,0.816053,0.1534899999999999,-0.31144,1.140383,0.2181499999999999,-0.33672,0.857233,-0.2038900000000001,-0.264214,1.151903,-0.11747,-0.33333
84,1.001806,0.6046889999999999,-0.267857,0.8582310000000001,0.44187,-0.230299,0.7075410000000001,0.6182099999999999,-0.33633,1.134611,0.4149199999999999,-0.244539,1.258901,0.6254059999999999,-0.39873,0.665621,0.8127599999999999,-0.45132,1.303361,0.78657,-0.54213,0.9243800000000001,0.0029499999999998,0.0007999999999999,1.0756199999999998,-0.00295,-0.0008,0.818411,0.1550099999999999,-0.31152,1.139761,0.2091299999999999,-0.33545,0.8585110000000001,-0.20517,-0.263232,1.151371,-0.1286400000000001,-0.32553
85,1.0022354999999998,0.6114409999999999,-0.263309,0.8581595,0.4447749999999999,-0.2259439999999999,0.7076695,0.62503,-0.33076,1.1354495,0.4215549999999999,-0.2393829999999999,1.2600695,0.6332439999999999,-0.39347,0.6665895,0.822835,-0.44572,1.3051095,0.795215,-0.53616,0.9241015,0.0022149999999999,0.00016,1.0758985,-0.002215,-0.0001599999999999,0.8207995,0.1547549999999999,-0.3117499999999999,1.1389494999999998,0.1979349999999999,-0.33401,0.8596995000000001,-0.2072750000000001,-0.262527,1.1503595,-0.1418250000000001,-0.31359
86,1.0025705,0.614601,-0.258338,0.8578805,0.4437949999999999,-0.221012,0.7077205,0.628285,-0.32428,1.1361905,0.4265549999999999,-0.233749,1.2612105,0.6369009999999999,-0.39093,0.6677605,0.829585,-0.43865,1.3069705,0.8001149999999999,-0.5300199999999999,0.9236365,0.0013349999999999,-0.00035,1.0763635,-0.0013349999999999,0.0003499999999999,0.8230705,0.1494849999999999,-0.31206,1.1377305,0.181635,-0.3326,0.8608305,-0.213445,-0.261143,1.1465205,-0.160205,-0.29874
87,1.00293,0.617459,-0.253487,0.857641,0.44308,-0.216076,0.707781,0.630957,-0.317915,1.1368909999999999,0.43038,-0.2284189999999999,1.262271,0.639674,-0.388685,0.669071,0.83558,-0.431435,1.308981,0.8042400000000001,-0.524335,0.923181,0.00114,-0.0007449999999999,1.076819,-0.00114,0.0007449999999999,0.8252809999999999,0.14156,-0.316525,1.136231,0.16268,-0.334125,0.862101,-0.2214199999999999,-0.259541,1.142521,-0.1808199999999999,-0.285525
88,1.003173,0.6222110000000001,-0.249081,0.857287,0.443327,-0.211668,0.707837,0.636198,-0.3122,1.1374170000000001,0.43434,-0.223827,1.262937,0.64309,-0.38319,0.669717,0.84455,-0.42429,1.310647,0.80955,-0.5170300000000001,0.92282,0.00077,-0.00127,1.07718,-0.0007699999999999,0.0012699999999999,0.827427,0.1319,-0.32085,1.134537,0.14305,-0.33601,0.863597,-0.23055,-0.258302,1.138707,-0.2017299999999999,-0.274196
89,1.003427,0.626615,-0.2441849999999999,0.856959,0.4436449999999999,-0.206413,0.7080690000000001,0.640985,-0.305755,1.138129,0.438557,-0.218822,1.263409,0.647735,-0.381055,0.669929,0.852465,-0.416275,1.312479,0.815785,-0.509835,0.922558,0.0002649999999999,-0.0017649999999999,1.077442,-0.0002649999999999,0.0017649999999999,0.829939,0.1201149999999999,-0.323865,1.132929,0.121865,-0.336845,0.8657090000000001,-0.241925,-0.256284,1.135019,-0.2249149999999999,-0.262365
90,1.003578,0.6301749999999999,-0.2390659999999999,0.856643,0.4443119999999999,-0.2013479999999999,0.707793,0.6451849999999999,-0.299385,1.1389129999999998,0.4421619999999999,-0.2138159999999999,1.263133,0.6508649999999999,-0.3747749999999999,0.669673,0.859605,-0.4080549999999999,1.313683,0.8243749999999999,-0.501155,0.92231,-4.500000000007276e-05,-0.0019849999999999,1.07769,4.499999999996174e-05,0.001985,0.8323929999999999,0.1060049999999999,-0.3263749999999999,1.1319029999999999,0.1038049999999999,-0.337125,0.867693,-0.2555950000000001,-0.2542219999999999,1.1313929999999999,-0.248875,-0.252044
91,1.003216,0.632775,-0.234619,0.856263,0.443551,-0.197199,0.707733,0.646455,-0.29371,1.139343,0.44303,-0.209443,1.262883,0.651805,-0.36607,0.669953,0.864225,-0.40037,1.3141029999999998,0.829455,-0.48964,0.922145,-1.4999999999987246e-05,-0.0020699999999999,1.077855,1.4999999999987246e-05,0.0020699999999999,0.832633,0.0845549999999999,-0.32827,1.130843,0.080265,-0.33786,0.8693230000000001,-0.275655,-0.252886,1.127843,-0.2776849999999999,-0.246578
92,1.0029255,0.63604,-0.229847,0.8558125,0.443161,-0.193336,0.7076825,0.6487,-0.2876849999999999,1.1396925,0.443388,-0.205158,1.2637225,0.65318,-0.3558949999999999,0.6700625,0.86446,-0.392525,1.3153925,0.83104,-0.478255,0.9220505,0.00034,-0.002175,1.0779495,-0.00034,0.002175,0.8330425000000001,0.05974,-0.3298149999999999,1.1299325,0.05298,-0.338495,0.8708625,-0.3000199999999999,-0.252027,1.1247725,-0.3066099999999999,-0.24161
93,1.0027694999999999,0.640775,-0.2262489999999999,0.8554265,0.4422129999999999,-0.1901699999999999,0.7077264999999999,0.651145,-0.2826999999999999,1.1403365,0.443633,-0.2014139999999999,1.2647564999999998,0.651065,-0.34534,0.6700565,0.8624350000000001,-0.38434,1.3167965,0.828675,-0.46514,0.9217865000000001,0.000655,-0.0022599999999999,1.0782135,-0.000655,0.00226,0.8339465,0.0330249999999999,-0.3312199999999999,1.1293765,0.0259249999999999,-0.33918,0.8721065,-0.327315,-0.2515529999999999,1.1226365,-0.333705,-0.2373389999999999
94,1.002552,0.6441399999999999,-0.221366,0.854739,0.4401889999999999,-0.186262,0.7074390000000002,0.65321,-0.276235,1.140529,0.4462389999999999,-0.196497,1.264929,0.64839,-0.333905,0.6700190000000001,0.86209,-0.373765,1.317809,0.8269899999999999,-0.450835,0.921434,0.0005899999999999,-0.002325,1.078566,-0.00059,0.0023249999999999,0.834569,0.0016999999999999,-0.330925,1.128639,-0.00376,-0.338625,0.872809,-0.3574,-0.250074,1.122509,-0.36562,-0.239165
95,1.0022105,0.6528449999999999,-0.216056,0.8541495,0.4443729999999999,-0.181662,0.7073695,0.658265,-0.269124,1.1406495,0.450903,-0.190781,1.2649895,0.6542049999999999,-0.32189,0.6697895,0.866925,-0.3628,1.3183695,0.835565,-0.43545,0.9214205,0.0007349999999999,-0.00221,1.0785795,-0.000735,0.0022099999999999,0.8358095,-0.028595,-0.32966,1.1280995,-0.031505,-0.33731,0.8735695,-0.3858749999999999,-0.247231,1.1226795,-0.396105,-0.238692
96,1.002068,0.66113,-0.209907,0.853613,0.44721,-0.177077,0.7075830000000001,0.66438,-0.261466,1.140873,0.45614,-0.1846,1.265083,0.6596299999999999,-0.308865,0.6691830000000001,0.87541,-0.351975,1.319143,0.84314,-0.420015,0.921264,0.00012,-0.0020249999999999,1.078736,-0.00012,0.0020249999999999,0.837713,-0.05828,-0.328125,1.127783,-0.0584799999999999,-0.335715,0.8743230000000001,-0.41443,-0.243536,1.119913,-0.42629,-0.236408
97,1.0018975,0.669705,-0.203133,0.8530715,0.451595,-0.171227,0.7075115000000001,0.669125,-0.252634,1.1409615,0.461605,-0.177593,1.2653215,0.6640250000000001,-0.295,0.6685015000000001,0.878345,-0.34019,1.3196615,0.8496750000000001,-0.40439,0.9211155,-0.0001149999999999,-0.00164,1.0788845,0.000115,0.00164,0.8400315,-0.0907249999999999,-0.32562,1.1274115,-0.0878649999999999,-0.33319,0.8747115,-0.4460149999999999,-0.23908,1.1196315000000001,-0.4580349999999999,-0.233387
98,1.001917,0.678275,-0.19497,0.852782,0.454875,-0.164629,0.7074720000000001,0.674075,-0.242216,1.141732,0.465925,-0.169336,1.265052,0.668175,-0.280765,0.6678120000000001,0.881995,-0.326565,1.320222,0.855005,-0.387715,0.921199,-0.000335,-0.0016049999999999,1.078801,0.0003349999999999,0.0016049999999999,0.842172,-0.118975,-0.322225,1.127272,-0.114215,-0.329325,0.874932,-0.476805,-0.234084,1.119732,-0.4876749999999999,-0.229209
99,1.0010785,0.6862550000000001,-0.187712,0.8519875,0.456985,-0.158349,0.7067175,0.678905,-0.231978,1.1418775,0.470665,-0.1613309999999999,1.2645075000000001,0.6725049999999999,-0.2664499999999999,0.6662475,0.8845149999999999,-0.31365,1.3199675,0.859915,-0.37021,0.9217815,-0.000765,-0.0011399999999999,1.0782185,0.0007649999999999,0.00114,0.8442975,-0.146925,-0.3146799999999999,1.1265275,-0.139925,-0.3227799999999999,0.8745475,-0.507035,-0.2300459999999999,1.1192575,-0.5166350000000001,-0.225723
100,1.0003765,0.694615,-0.179553,0.8512105,0.4624049999999999,-0.150884,0.7063805000000001,0.686485,-0.221937,1.1419705,0.475195,-0.1533379999999999,1.2642305,0.675975,-0.254073,0.6654605,0.888695,-0.300795,1.3195105,0.865275,-0.355925,0.9223485,-0.000835,-0.0008249999999999,1.0776515,0.000835,0.000825,0.8462605,-0.169535,-0.3064449999999999,1.1260105,-0.161335,-0.315465,0.8743105,-0.533375,-0.2253369999999999,1.1191605,-0.542085,-0.2219939999999999
101,0.9996305000000001,0.701095,-0.170946,0.8505055,0.465275,-0.143387,0.7063055,0.692055,-0.211762,1.1418255,0.480175,-0.145389,1.2638155,0.679045,-0.241996,0.6654555,0.895165,-0.287895,1.3191354999999998,0.8720950000000001,-0.3415249999999999,0.9229505000000001,-0.0010449999999999,-0.000615,1.0770495,0.001045,0.000615,0.8480455,-0.1866049999999999,-0.297385,1.1255055,-0.1785749999999999,-0.306815,0.8736755,-0.555455,-0.219608,1.1192155,-0.562815,-0.217217
102,0.9989750000000001,0.70513,-0.161366,0.849749,0.46851,-0.135384,0.706329,0.69578,-0.200866,1.141669,0.4843699999999999,-0.136947,1.263679,0.68672,-0.230818,0.6654789999999999,0.90235,-0.27471,1.319069,0.88268,-0.32888,0.923568,-0.00127,-0.00034,1.076432,0.0012699999999999,0.0003399999999999,0.8494889999999999,-0.20201,-0.28733,1.125049,-0.19436,-0.29708,0.872709,-0.57617,-0.213505,1.119229,-0.58155,-0.211608
103,0.9984270000000001,0.71041,-0.152936,0.84892,0.4738699999999999,-0.127878,0.70636,0.69804,-0.19121,1.14138,0.48769,-0.12924,1.26328,0.6942900000000001,-0.220708,0.66555,0.90649,-0.263575,1.31931,0.89225,-0.317165,0.9242000000000001,-0.00132,-0.000285,1.0757999999999999,0.0013199999999999,0.000285,0.8507,-0.21541,-0.277185,1.12492,-0.20866,-0.286915,0.87185,-0.59457,-0.207817,1.11939,-0.59813,-0.205875
104,0.997935,0.7145849999999999,-0.143648,0.8481879999999999,0.477125,-0.11998,0.706318,0.701425,-0.181072,1.140778,0.489735,-0.121298,1.2633379999999998,0.696805,-0.209865,0.665868,0.909175,-0.252285,1.319328,0.894075,-0.304115,0.92475,-0.0014949999999999,-0.000275,1.07525,0.0014949999999999,0.0002749999999999,0.851578,-0.2283549999999999,-0.265955,1.124788,-0.2225749999999999,-0.275325,0.8705480000000001,-0.6128450000000001,-0.201549,1.119368,-0.6141650000000001,-0.199458
105,0.997512,0.7199914999999999,-0.134973,0.847425,0.4808815,-0.112176,0.706975,0.7050514999999999,-0.171395,1.140935,0.4921615,-0.113602,1.2640449999999999,0.7018015,-0.199718,0.666605,0.9088015,-0.24095,1.319455,0.8990214999999999,-0.29107,0.925197,-0.0016845,-0.00037,1.074803,0.0016844999999999,0.0003699999999999,0.852185,-0.2485885,-0.2548,1.124655,-0.2421885,-0.26356,0.869965,-0.6323785,-0.194825,1.1194849999999998,-0.6318485,-0.193111
106,0.99721,0.7243215,-0.12559,0.84692,0.4809515,-0.104377,0.7075,0.7091315,-0.1603709999999999,1.1409799999999999,0.4924115,-0.1056609999999999,1.26457,0.7075415,-0.188326,0.66764,0.9146715,-0.22824,1.31971,0.9062915,-0.27579,0.925664,-0.0022034999999999,-0.00039,1.074336,0.0022034999999999,0.00039,0.85284,-0.2652885,-0.24197,1.12438,-0.2588885,-0.24982,0.86959,-0.6490785,-0.187556,1.11944,-0.6466585,-0.186394
107,0.996995,0.729491,-0.116006,0.846554,0.485891,-0.096052,0.708064,0.713171,-0.149796,1.141124,0.495241,-0.097564,1.264394,0.713631,-0.176744,0.668944,0.920361,-0.216478,1.3196539999999999,0.913541,-0.260945,0.925986,-0.0024649999999999,-0.000465,1.074014,0.002465,0.0004649999999999,0.853754,-0.2814689999999999,-0.228235,1.124054,-0.2749189999999999,-0.235585,0.869604,-0.665259,-0.179992,1.119494,-0.661579,-0.179212
108,0.997341,0.7316725000000001,-0.101095,0.846382,0.4893625,-0.082209,0.709052,0.7162525000000001,-0.13417,1.141782,0.4980525,-0.083776,1.264642,0.7179525,-0.160523,0.670832,0.9247625,-0.1993909999999999,1.320092,0.9157825,-0.241635,0.926499,-0.0024944999999999,-0.000325,1.073501,0.0024945,0.0003249999999999,0.8564520000000001,-0.2993274999999999,-0.204554,1.123572,-0.2922875,-0.212395,0.869992,-0.6827675,-0.167209,1.1200819999999998,-0.6779974999999999,-0.165825
109,0.9974415,0.732113,-0.0868215,0.8460385,0.490593,-0.0692035,0.7101185,0.716493,-0.1186605,1.1424385,0.500943,-0.0700775,1.2647085,0.722733,-0.1447535,0.6723585000000001,0.927123,-0.1826095,1.3202585,0.918413,-0.2224395,0.9268895,-0.002673,-0.0003965,1.0731105,0.0026729999999999,0.0003964999999999,0.8588185,-0.318127,-0.1814665,1.1228885,-0.308957,-0.1895385,0.8699985,-0.699697,-0.1548825,1.1206085,-0.693107,-0.1528695
110,0.9975260000000001,0.733679,-0.0731494999999999,0.845656,0.492659,-0.0567815,0.7108559999999999,0.7180989999999999,-0.1037024999999999,1.143076,0.501539,-0.0570554999999999,1.2646060000000001,0.727799,-0.1299855,0.6738759999999999,0.930519,-0.1663035,1.320256,0.922849,-0.2040675,0.927168,-0.002763,-0.0005484999999999,1.072832,0.002763,0.0005485,0.861046,-0.335671,-0.1590475,1.122316,-0.324271,-0.1676475,0.869976,-0.715311,-0.1431585,1.121126,-0.7064910000000001,-0.1401605
111,0.997395,0.7355365,-0.0599409999999999,0.8452640000000001,0.4942565,-0.0446649999999999,0.711364,0.7195265000000001,-0.089084,1.143674,0.5034065,-0.0442199999999999,1.265004,0.7290265,-0.1152449999999999,0.675434,0.9308565,-0.150918,1.319774,0.9241265,-0.185878,0.927373,-0.0029325,-0.0007209999999999,1.072627,0.0029325,0.0007209999999999,0.863374,-0.3532035,-0.136855,1.121834,-0.3386435,-0.146201,0.869954,-0.7302434999999999,-0.131659,1.121474,-0.7195334999999999,-0.127631
112,0.9971225000000001,0.7355215,-0.047044,0.8449775000000002,0.4938615,-0.03292,0.7121275,0.7213815,-0.075018,1.1443575,0.5047715,-0.031729,1.2657675,0.7307815,-0.100336,0.6771775,0.9329615,-0.135717,1.3191374999999999,0.9271015,-0.1674759999999999,0.9275815000000001,-0.0031835,-0.000806,1.0724185,0.0031834999999999,0.000806,0.8660975,-0.3696985,-0.114319,1.1216575,-0.3511185,-0.125101,0.8698375,-0.7437285,-0.120243,1.1220875,-0.7308685,-0.114995
113,0.996762,0.7347935,-0.0351664999999999,0.844627,0.4931135,-0.0221724999999999,0.712567,0.7224935,-0.0623385,1.1446269999999998,0.5066434999999999,-0.0200704999999999,1.266117,0.7316435,-0.0864844999999999,0.6782969999999999,0.9345035,-0.1218544999999999,1.318557,0.9300635,-0.1507465,0.927859,-0.0034075,-0.0008134999999999,1.072141,0.0034075,0.0008135,0.868827,-0.3842764999999999,-0.0932995,1.121627,-0.3618165,-0.1057635,0.869567,-0.7547265000000001,-0.1086465,1.1227369999999999,-0.7399165000000001,-0.1030575
114,0.9964005,0.7331325000000001,-0.0234855,0.8442905,0.4926725,-0.0111635,0.7129004999999999,0.7225225000000001,-0.0498475,1.1449205,0.5079125,-0.0084195,1.2661105,0.7305225000000001,-0.0726945,0.6794405,0.9362325,-0.1079505,1.3179005,0.9311025,-0.1346005,0.9281235,-0.0035624999999999,-0.0008324999999999,1.0718765,0.0035624999999999,0.0008324999999999,0.8716005,-0.3992774999999999,-0.0724635,1.1218005,-0.3733975,-0.0867145,0.8696705,-0.7655275,-0.0969775,1.1234205,-0.7489075,-0.0910265
115,0.9958200000000001,0.7303965,-0.0130994999999999,0.84375,0.4935065,-0.0013074999999999,0.71303,0.7209365,-0.0396915,1.14511,0.5098865,0.0021725,1.2658,0.7283865,-0.0606415,0.6799299999999999,0.9343965,-0.0963795,1.3170199999999999,0.9292465,-0.1215465,0.928254,-0.0034924999999999,-0.0010834999999999,1.071746,0.0034925,0.0010835,0.87398,-0.4126935,-0.0543125,1.12182,-0.3833135,-0.0704424999999999,0.8696,-0.7748735,-0.0862945,1.12397,-0.7564335,-0.0795915
116,0.99502,0.72688,-0.0033954999999999,0.8429600000000002,0.49052,0.0079464999999999,0.71289,0.71939,-0.0297925,1.14531,0.5097200000000001,0.0123375,1.26538,0.7246400000000001,-0.0486485,0.68005,0.93303,-0.0849105,1.31596,0.92751,-0.1084345,0.928196,-0.0035499999999999,-0.0012164999999999,1.071804,0.00355,0.0012164999999999,0.8759,-0.42583,-0.0369655,1.1215600000000001,-0.39319,-0.0547225,0.86966,-0.78373,-0.0759185,1.12433,-0.7634799999999999,-0.0686835
117,0.994118,0.7262730000000001,0.0008994999999999,0.84229,0.489733,0.0117854999999999,0.7125600000000001,0.718793,-0.0255365,1.14492,0.508003,0.0162945,1.26472,0.7230230000000001,-0.0421875,0.68003,0.933623,-0.0788375,1.315,0.928153,-0.1010684999999999,0.928088,-0.0037299999999999,-0.0016094999999999,1.071912,0.00373,0.0016094999999999,0.87638,-0.427967,-0.0303225,1.12099,-0.395197,-0.0486194999999999,0.86936,-0.7870469999999999,-0.0718425,1.12479,-0.7656569999999999,-0.0637585
118,0.9932985,0.725677,0.004833,0.8416775,0.488887,0.015306,0.7118475,0.718187,-0.0213329999999999,1.1445075,0.507197,0.020039,1.2645175,0.721777,-0.036141,0.6800575,0.933657,-0.07291,1.3144075,0.929007,-0.0941859999999999,0.9277955,-0.003882,-0.0019369999999999,1.0722045,0.0038819999999999,0.0019369999999999,0.8768875,-0.429403,-0.024054,1.1206675,-0.396633,-0.042898,0.8689475,-0.789563,-0.068144,1.1251274999999998,-0.7673129999999999,-0.0590469999999999
119,0.992551,0.7249955,0.008546,0.8410839999999999,0.4880454999999999,0.018551,0.711214,0.7177454999999999,-0.0172319999999999,1.144294,0.5066355,0.023684,1.263914,0.7206954999999999,-0.030379,0.680184,0.9338355,-0.067093,1.313914,0.9297655,-0.087622,0.9273750000000001,-0.0040344999999999,-0.0020999999999999,1.072625,0.0040345,0.0021,0.877364,-0.4306645,-0.018189,1.1206239999999998,-0.3978845,-0.037613,0.868494,-0.7914045000000001,-0.06465,1.125614,-0.7689345000000001,-0.054665
120,0.9914790000000001,0.72427,0.0122899999999999,0.840022,0.4874199999999999,0.021361,0.710412,0.71756,-0.012976,1.143752,0.50659,0.027283,1.262932,0.71992,-0.024687,0.679772,0.93409,-0.060946,1.3129520000000001,0.93036,-0.081138,0.926995,-0.0041129999999999,-0.0022959999999999,1.073005,0.004113,0.002296,0.877182,-0.4311,-0.012882,1.121062,-0.3968199999999999,-0.032752,0.867452,-0.79283,-0.061162,1.1255119999999998,-0.7697700000000001,-0.050287
121,0.9902895,0.7240449999999999,0.0157345,0.8389085000000001,0.487095,0.0240085,0.7094484999999999,0.717595,-0.0087024999999999,1.1431885,0.506265,0.0305165,1.2618985,0.7196349999999999,-0.0194085,0.6790885,0.934555,-0.0548815,1.3118285,0.930715,-0.0753905,0.9267335,-0.004127,-0.0024214999999999,1.0732665,0.0041269999999999,0.0024215,0.8764085,-0.430985,-0.0091694999999999,1.1214585,-0.395765,-0.0287604999999999,0.8663685,-0.793695,-0.0582125,1.1249784999999999,-0.7705350000000001,-0.0464995
122,0.9891855,0.724158,0.0188505,0.8379315,0.487078,0.0265264999999999,0.7086015,0.717878,-0.0046445,1.1423815,0.506248,0.0332485,1.2611915,0.719658,-0.0145205,0.6783415000000002,0.935198,-0.0490235,1.3108715,0.931248,-0.0700964999999999,0.9265405,-0.00411,-0.0025015,1.0734595,0.0041099999999999,0.0025015,0.8756615000000001,-0.430652,-0.0063675,1.1218515,-0.3945619999999999,-0.0253345,0.8652515000000001,-0.794262,-0.0555294999999999,1.1244115,-0.771212,-0.0430544999999999
123,0.9880275000000001,0.724412,0.0214009999999999,0.8369685,0.4872019999999999,0.028716,0.7076884999999999,0.718402,-0.000909,1.1415585,0.505682,0.035604,1.2605085,0.719752,-0.010114,0.6774884999999999,0.935602,-0.043612,1.3101285,0.931692,-0.065201,0.9263575,-0.0041339999999999,-0.002549,1.0736425,0.0041339999999999,0.002549,0.8747885,-0.430398,-0.00401,1.1221185,-0.393748,-0.0224499999999999,0.8639585,-0.794668,-0.053022,1.1235385,-0.772078,-0.040075
124,0.987217,0.724609,0.0232545,0.8362790000000001,0.4871689999999999,0.0304545,0.7068989999999999,0.718639,0.0020745,1.140849,0.5041789999999999,0.0374904999999999,1.260129,0.719409,-0.0068884999999999,0.6767390000000001,0.935649,-0.0392295,1.310039,0.931909,-0.0614795,0.926168,-0.0040859999999999,-0.0024335,1.073832,0.0040859999999999,0.0024335,0.874229,-0.430111,-0.0021285,1.122419,-0.393281,-0.0205935,0.8630990000000001,-0.7951210000000001,-0.0510135,1.123059,-0.772841,-0.0381635
125,0.9866585,0.7245769999999999,0.0249805,0.8357924999999999,0.487007,0.0320565,0.7064125,0.718657,0.0045835,1.1403424999999998,0.502397,0.0392044999999999,1.2600225,0.7187469999999999,-0.0045785,0.6762825,0.935517,-0.0356065,1.3101625000000001,0.931837,-0.0586645,0.9260235,-0.0040349999999999,-0.0023295,1.0739765000000001,0.0040349999999999,0.0023295,0.8739325,-0.429693,-0.0004044999999999,1.1227725,-0.392963,-0.0188885,0.8625525,-0.795443,-0.0492485,1.1227925,-0.773653,-0.0364415
126,0.986643,0.7243845,0.026782,0.835785,0.4869345,0.03377,0.706465,0.7181845,0.00647,1.140395,0.5016245,0.040943,1.260265,0.7182745,-0.002757,0.676355,0.9354445,-0.033194,1.310115,0.9312145,-0.0568339999999999,0.926024,-0.0039624999999999,-0.0022969999999999,1.073976,0.0039625,0.002297,0.873975,-0.4292454999999999,0.001062,1.123315,-0.3924155,-0.017075,0.862525,-0.7955154999999999,-0.047562,1.1229049999999998,-0.7744555,-0.034615
127,0.9865845,0.7242045,0.0281925,0.8358145000000001,0.4869345,0.0354924999999999,0.7061744999999999,0.7175845000000001,0.0082215,1.1404345,0.5012745000000001,0.0423705,1.2606045,0.7178645,-0.0010235,0.6758645,0.9351345,-0.0314375,1.3101245,0.9306645,-0.0550915,0.9260265,-0.0039624999999999,-0.0022145,1.0739735,0.0039625,0.0022145,0.8739844999999999,-0.4287655,0.0014425,1.1235345,-0.3919654999999999,-0.0154084999999999,0.8625645,-0.7955154999999999,-0.0459795,1.1229544999999999,-0.7757255,-0.0328735
