sb224sc-HT22-VT27/4dt907/src/ml-research/a11/datafiles/kinect_good_preprocessed_A9_mediapipe/A25_kinect.csv
FrameNo,nose_3d_x,nose_3d_y,nose_3d_z,left_shoulder_3d_x,left_shoulder_3d_y,left_shoulder_3d_z,left_elbow_3d_x,left_elbow_3d_y,left_elbow_3d_z,right_shoulder_3d_x,right_shoulder_3d_y,right_shoulder_3d_z,right_elbow_3d_x,right_elbow_3d_y,right_elbow_3d_z,left_wrist_3d_x,left_wrist_3d_y,left_wrist_3d_z,right_wrist_3d_x,right_wrist_3d_y,right_wrist_3d_z,left_hip_3d_x,left_hip_3d_y,left_hip_3d_z,right_hip_3d_x,right_hip_3d_y,right_hip_3d_z,left_knee_3d_x,left_knee_3d_y,left_knee_3d_z,right_knee_3d_x,right_knee_3d_y,right_knee_3d_z,left_ankle_3d_x,left_ankle_3d_y,left_ankle_3d_z,right_ankle_3d_x,right_ankle_3d_y,right_ankle_3d_z
32,0.005114000000000002,0.7224305,0.062477500000000005,-0.144789,0.5072105,0.0626125,-0.252239,0.7595005,0.034154500000000004,0.15443099999999998,0.4841905000000001,0.057730500000000004,0.260141,0.7388005000000001,0.031074499999999998,-0.287919,0.9689005,0.0089255,0.286111,0.9529205000000001,-0.005187500000000001,-0.07280700000000001,0.0023284999999999972,0.002087499999999999,0.07280700000000001,-0.0023284999999999972,-0.002087499999999999,-0.123479,-0.4019595,-0.0155945,0.111511,-0.43566950000000004,0.0020834999999999985,-0.12631900000000001,-0.7671494999999999,-0.0173765,0.119121,-0.7844095,-0.0261675
33,0.004927500000000001,0.7221909999999999,0.061961499999999996,-0.14379150000000002,0.5076609999999999,0.06347649999999999,-0.2503915,0.759691,0.037823499999999996,0.1536985,0.484031,0.0578285,0.2588585,0.740861,0.0341355,-0.2862515,0.970541,0.014332499999999998,0.2838485,0.955021,0.001849499999999997,-0.07277549999999999,0.002370999999999998,0.0022834999999999973,0.07277549999999999,-0.002370999999999998,-0.002283500000000001,-0.1236315,-0.40241899999999997,-0.0158765,0.11126849999999999,-0.436129,0.0018234999999999987,-0.1268315,-0.767629,-0.017960500000000004,0.11875849999999999,-0.785049,-0.026604500000000003
34,0.004810500000000001,0.721796,0.0614515,-0.1428895,0.5081760000000001,0.06442049999999999,-0.2490595,0.7594660000000001,0.0411105,0.15297049999999998,0.483866,0.0578875,0.2575105,0.741166,0.0371615,-0.2849995,0.9719760000000001,0.0196035,0.2818505,0.956576,0.0081145,-0.07274549999999999,0.0024120000000000044,0.0025275000000000002,0.07274549999999999,-0.0024119999999999975,-0.0025274999999999985,-0.12374950000000001,-0.403594,-0.0162785,0.1110305,-0.43661399999999995,0.0014745000000000001,-0.1273495,-0.7689539999999999,-0.018717499999999998,0.1183805,-0.786374,-0.027166499999999996
35,0.004566500000000003,0.7214875000000001,0.0609325,-0.1427915,0.5079375,0.0648435,-0.2484115,0.7595575,0.0435135,0.1521385,0.4838975,0.057896500000000004,0.25615849999999996,0.7408275,0.0395685,-0.2845715,0.9727374999999999,0.0233455,0.28004850000000003,0.9576575,0.0125335,-0.0727125,0.002390499999999997,0.0028315000000000007,0.0727125,-0.002390499999999997,-0.0028315000000000007,-0.1239615,-0.4048225,-0.016851500000000002,0.1107185,-0.4369725,0.000951500000000001,-0.1278515,-0.7704925,-0.0196795,0.1179785,-0.7876124999999999,-0.0279995
36,0.004255999999999999,0.7211395,0.060371999999999995,-0.142755,0.5077495,0.065189,-0.24831499999999998,0.7596495,0.04532,0.15135500000000002,0.48401950000000005,0.057830999999999994,0.255075,0.7405995,0.041372,-0.28487500000000004,0.9729895000000001,0.02593,0.27845499999999995,0.9581295,0.015099,-0.07267299999999999,0.0023035,0.0031400000000000004,0.07267299999999999,-0.0023035,-0.0031400000000000004,-0.12412500000000001,-0.40643050000000003,-0.01746,0.11041500000000001,-0.4373605,0.00034400000000000056,-0.128235,-0.7728205,-0.021048,0.11754500000000001,-0.7888005,-0.028896
37,0.003890000000000001,0.7205125,0.059650499999999995,-0.143051,0.5078325,0.0652145,-0.248741,0.7594125,0.0462955,0.150749,0.48465250000000004,0.0575065,0.254099,0.7399825,0.0423925,-0.28530099999999997,0.9723725000000001,0.026603500000000002,0.277129,0.9579725,0.0158955,-0.072658,0.0022464999999999985,0.0033144999999999997,0.072658,-0.0022464999999999985,-0.003314499999999998,-0.124211,-0.40833749999999996,-0.018205500000000003,0.110199,-0.4381675,-0.0004585000000000006,-0.128771,-0.7754575,-0.022603500000000002,0.117159,-0.7902475,-0.030050499999999997
38,0.0034054999999999966,0.7197279999999999,0.05871749999999999,-0.14356449999999998,0.507798,0.0648645,-0.2492745,0.759328,0.0467365,0.15003550000000002,0.48532800000000004,0.0570205,0.25292549999999997,0.739278,0.0426885,-0.2857945,0.971878,0.025945499999999996,0.2757055,0.9576479999999999,0.015072499999999999,-0.0726385,0.002131999999999995,0.0034354999999999993,0.0726385,-0.002132000000000002,-0.003435500000000001,-0.1242945,-0.410342,-0.019162500000000002,0.1099955,-0.43891199999999997,-0.0017335000000000024,-0.1294445,-0.7778520000000001,-0.024415500000000003,0.11670549999999999,-0.791802,-0.0312635
39,0.0028495000000000065,0.718889,0.0576785,-0.1441365,0.508109,0.0644325,-0.2498165,0.7589090000000001,0.0467305,0.1492935,0.486499,0.0563205,0.2517235,0.738679,0.0422735,-0.28634649999999995,0.9716790000000001,0.0247915,0.2741435,0.957449,0.0138795,-0.0726435,0.0019609999999999975,0.0035075,0.0726435,-0.0019609999999999975,-0.0035075,-0.12440649999999999,-0.412051,-0.020394500000000003,0.1098335,-0.439471,-0.0033924999999999997,-0.1301765,-0.779821,-0.0266575,0.1161935,-0.793171,-0.0330035
40,0.0019939999999999984,0.718361,0.056179,-0.144968,0.508061,0.064217,-0.250618,0.758681,0.045815999999999996,0.148312,0.48682100000000006,0.055282,0.250162,0.737931,0.040977,-0.288218,0.9711609999999999,0.023132,0.272252,0.957601,0.012219,-0.072607,0.0018799999999999997,0.0036439999999999997,0.072607,-0.0018799999999999997,-0.0036439999999999997,-0.124698,-0.41329899999999997,-0.022107,0.109532,-0.439709,-0.005845000000000001,-0.131178,-0.781359,-0.029164000000000002,0.115502,-0.794109,-0.035305
41,0.0007810000000000004,0.718001,0.0538275,-0.146064,0.507991,0.0634035,-0.251774,0.7585609999999999,0.0438985,0.146896,0.48694099999999996,0.0534865,0.24833599999999997,0.737221,0.0386815,-0.29081399999999996,0.970431,0.0207775,0.269936,0.957711,0.0098755,-0.07261300000000001,0.0018600000000000005,0.0038835000000000007,0.07261300000000001,-0.0018600000000000005,-0.0038835,-0.124944,-0.41491900000000004,-0.0244915,0.10924600000000001,-0.440179,-0.0097295,-0.13242400000000001,-0.7834490000000001,-0.0330965,0.114616,-0.7948890000000001,-0.0385045
42,-0.0007714999999999948,0.7177025,0.0505925,-0.1472715,0.5079224999999999,0.0617225,-0.2533015,0.7565324999999999,0.040695499999999996,0.14522849999999998,0.48672249999999995,0.0507075,0.24601850000000003,0.7361325,0.0354485,-0.2937615,0.9695325,0.0170695,0.2672385,0.9578925,0.005831500000000001,-0.0726455,0.0018024999999999985,0.004275500000000001,0.0726455,-0.0018024999999999985,-0.0042755,-0.1250715,-0.41696750000000005,-0.027809499999999997,0.10903850000000001,-0.44077750000000004,-0.0151295,-0.13365149999999998,-0.7859075,-0.0385245,0.1137185,-0.7956875,-0.042940500000000006
43,-0.002530000000000003,0.7178515000000001,0.047045500000000004,-0.148432,0.5078715,0.0595815,-0.254992,0.7540914999999999,0.0371495,0.14352800000000002,0.48653149999999995,0.0471625,0.243558,0.7356815000000001,0.0318735,-0.29683200000000004,0.9690915,0.0125205,0.26443799999999995,0.9583515,0.0009445000000000005,-0.072692,0.0017775000000000013,0.0047735,0.072692,-0.0017775000000000013,-0.0047735,-0.125202,-0.4172185,-0.0314825,0.108878,-0.4401185,-0.021111500000000002,-0.134632,-0.7865584999999999,-0.0440795,0.112978,-0.7950284999999999,-0.0479755
44,-0.004555499999999999,0.717856,0.043094,-0.1495885,0.507946,0.057032,-0.25671849999999996,0.751796,0.033224,0.14181149999999998,0.48655600000000004,0.043236,0.24088150000000003,0.7347360000000001,0.027912,-0.2998585,0.9683460000000002,0.0071140000000000005,0.2615515,0.958516,-0.004902,-0.0727325,0.0017520000000000036,0.00528,0.0727325,-0.0017519999999999966,-0.00528,-0.1252585,-0.417064,-0.035655,0.1088015,-0.43936400000000003,-0.027706,-0.1356385,-0.786744,-0.049811,0.1123015,-0.7942739999999999,-0.053587
45,-0.006897999999999997,0.717177,0.0385205,-0.15090199999999998,0.507987,0.053969500000000004,-0.258582,0.7487469999999999,0.0286795,0.13991800000000001,0.486687,0.038762500000000005,0.237818,0.733047,0.0230795,-0.302932,0.967377,0.0005054999999999999,0.258428,0.958697,-0.011856499999999999,-0.072858,0.0015630000000000019,0.0056045,0.072858,-0.001562999999999995,-0.0056045,-0.125472,-0.41670300000000005,-0.0407115,0.10869799999999999,-0.43863300000000005,-0.0352535,-0.136742,-0.7869630000000001,-0.0560455,0.11149800000000001,-0.793543,-0.0597655
46,-0.009814000000000003,0.7162965,0.031989500000000004,-0.15252,0.5083065,0.0500095,-0.26041000000000003,0.7455265000000001,0.0218575,0.13726,0.4872665,0.03325550000000001,0.23442000000000002,0.7310365000000001,0.015825500000000003,-0.30616000000000004,0.9661665,-0.009157499999999999,0.25503,0.9589865000000001,-0.0210325,-0.073102,0.0013704999999999967,0.0059185,0.073102,-0.0013705000000000037,-0.005918499999999999,-0.12593,-0.41657350000000004,-0.047036499999999995,0.10869999999999999,-0.4377535,-0.044442499999999996,-0.13790000000000002,-0.7872534999999999,-0.0631005,0.11084999999999999,-0.7928434999999999,-0.0669525
47,-0.012832500000000004,0.71476,0.024970999999999997,-0.1539645,0.50884,0.045655,-0.2619445,0.7418199999999999,0.014286999999999998,0.13459549999999998,0.48719,0.027031999999999997,0.23127550000000002,0.72924,0.007918999999999999,-0.3092745,0.96468,-0.019908000000000002,0.25170549999999997,0.95946,-0.030998,-0.0733245,0.001124,0.0060680000000000005,0.0733245,-0.001124,-0.0060680000000000005,-0.12652449999999998,-0.4162,-0.054341,0.10882549999999999,-0.43662,-0.054811,-0.1389145,-0.78708,-0.070503,0.1102855,-0.79171,-0.074558
48,-0.015861499999999994,0.7128985,0.017458500000000002,-0.1556135,0.5087485,0.0407285,-0.26336350000000003,0.7376085,0.005997500000000003,0.13191650000000002,0.48737850000000005,0.020139500000000005,0.2281765,0.7277285,-0.0008644999999999972,-0.3121935,0.9634985,-0.031632499999999994,0.2484165,0.9606785,-0.0417235,-0.07352449999999999,0.0008055000000000007,0.0062935000000000005,0.07352449999999999,-0.0008055000000000007,-0.006293499999999997,-0.1271035,-0.4152415,-0.06250149999999999,0.1090265,-0.4343315,-0.0661555,-0.1398235,-0.7857715,-0.07815449999999999,0.10973650000000001,-0.7894415,-0.0825015
49,-0.018850500000000003,0.7106699999999999,0.009792000000000002,-0.15699249999999998,0.50916,0.035200999999999996,-0.2645425,0.7323,-0.0024709999999999975,0.1294075,0.48815000000000003,0.013287,0.2254375,0.7260599999999999,-0.010067999999999997,-0.3147825,0.96254,-0.043755,0.2453375,0.96198,-0.052614999999999995,-0.0737695,0.0004590000000000011,0.006490000000000003,0.0737695,-0.0004590000000000011,-0.006489999999999999,-0.1276425,-0.41405,-0.071045,0.1094675,-0.43162999999999996,-0.077849,-0.1405325,-0.78371,-0.085576,0.1092175,-0.78659,-0.090388
50,-0.021737500000000003,0.709024,0.002147999999999997,-0.15825150000000002,0.510374,0.029913999999999996,-0.26553150000000003,0.726934,-0.010942000000000004,0.1268485,0.487534,0.006148000000000001,0.2228585,0.725304,-0.019432000000000005,-0.3170215,0.962344,-0.056377000000000003,0.2426085,0.964214,-0.063183,-0.0739345,0.00013300000000000117,0.006483999999999997,0.0739345,-0.00013300000000000117,-0.006484000000000004,-0.1279915,-0.411136,-0.080011,0.11005849999999999,-0.427596,-0.089287,-0.1410515,-0.779356,-0.092416,0.1088185,-0.781796,-0.097979
51,-0.024706000000000002,0.7064525,-0.005721500000000004,-0.159835,0.5079525,0.02406449999999999,-0.26677500000000004,0.7240025,-0.020220500000000006,0.12418500000000002,0.4877425,-0.0011615000000000097,0.219975,0.7224925000000001,-0.029547500000000004,-0.31940500000000005,0.9582925,-0.06994650000000001,0.239675,0.9670525000000001,-0.07448850000000001,-0.07414899999999999,-0.0005194999999999991,0.006712499999999996,0.07414899999999999,0.0005194999999999991,-0.006712500000000003,-0.128495,-0.4051975,-0.08984450000000001,0.110655,-0.42094750000000003,-0.10268650000000001,-0.141875,-0.7720075,-0.0990105,0.10822499999999999,-0.7738474999999999,-0.1053925
52,-0.0276525,0.7038455,-0.013540000000000003,-0.1614815,0.5057355,0.018073999999999993,-0.2679615,0.7206655,-0.029425000000000003,0.1213285,0.4871255,-0.008553000000000005,0.2173285,0.7208355,-0.039394000000000005,-0.3216415,0.9547154999999999,-0.083303,0.2368285,0.9708755,-0.086087,-0.0743535,-0.0009385000000000001,0.006658999999999998,0.0743535,0.0009385000000000001,-0.006659000000000005,-0.1290615,-0.3982445,-0.100128,0.11122850000000001,-0.4135345,-0.11616900000000001,-0.14276149999999999,-0.7636545,-0.10558500000000001,0.1076285,-0.7648645000000001,-0.11231200000000001
53,-0.030726999999999997,0.7012569999999999,-0.021421500000000003,-0.163459,0.503907,0.012013499999999996,-0.269529,0.716707,-0.0387285,0.11816100000000002,0.486527,-0.016052500000000004,0.214581,0.720117,-0.0495205,-0.324099,0.9515669999999999,-0.09702250000000001,0.23367100000000002,0.975097,-0.0979615,-0.074504,-0.0014360000000000002,0.006593499999999995,0.074504,0.0014359999999999998,-0.006593500000000002,-0.130429,-0.388163,-0.1109105,0.111531,-0.403103,-0.1299475,-0.144279,-0.7538330000000001,-0.1127525,0.10661100000000001,-0.754413,-0.1189965
54,-0.033948,0.698585,-0.029297000000000004,-0.16546,0.500165,0.005961999999999995,-0.27143,0.714195,-0.048985,0.11468,0.484505,-0.023609000000000005,0.21195,0.7206349999999999,-0.060325000000000004,-0.32657,0.9480649999999999,-0.111698,0.2305,0.972865,-0.11013700000000001,-0.074743,-0.0019699999999999995,0.006496000000000002,0.074743,0.0019700000000000013,-0.006496000000000002,-0.1324,-0.37387499999999996,-0.12244300000000001,0.11186000000000001,-0.388785,-0.145011,-0.14562999999999998,-0.739965,-0.119595,0.10537,-0.7401650000000001,-0.125739
55,-0.036505,0.6952900000000001,-0.035633,-0.167239,0.49624999999999997,0.0005580000000000029,-0.273789,0.7072700000000001,-0.057865,0.11186099999999999,0.48289,-0.030017000000000002,0.20941099999999999,0.71992,-0.070066,-0.328839,0.93998,-0.12434100000000001,0.227601,0.97008,-0.121109,-0.074848,-0.002713,0.006287000000000001,0.074848,0.0027129999999999967,-0.006287000000000001,-0.134459,-0.35834,-0.133123,0.112041,-0.37272,-0.15930899999999998,-0.146929,-0.7246499999999999,-0.12561,0.104061,-0.7252599999999999,-0.131345
56,-0.038803500000000005,0.695784,-0.04767900000000001,-0.1688425,0.494674,-0.010817000000000007,-0.27622250000000004,0.707384,-0.07301,0.1089675,0.484064,-0.04206000000000001,0.20675749999999998,0.723784,-0.08554800000000001,-0.33084250000000004,0.937474,-0.142991,0.2248975,0.972824,-0.13757000000000003,-0.0749535,-0.0032140000000000016,0.005849999999999994,0.0749535,0.0032139999999999946,-0.005850000000000008,-0.1384425,-0.336446,-0.154199,0.11252749999999999,-0.34789600000000004,-0.181123,-0.1479225,-0.702576,-0.13690000000000002,0.1026875,-0.703226,-0.14217000000000002
57,-0.0410065,0.697172,-0.05983850000000001,-0.1702035,0.494152,-0.02166350000000001,-0.2791035,0.707652,-0.0890505,0.1060465,0.485322,-0.05348950000000001,0.20331649999999998,0.720342,-0.1003185,-0.33312349999999996,0.933212,-0.16238750000000002,0.22187649999999998,0.972932,-0.15330850000000001,-0.0751175,-0.003605000000000011,0.005308499999999994,0.0751175,0.003604999999999997,-0.005308500000000008,-0.1425635,-0.315218,-0.1747125,0.11296650000000001,-0.324478,-0.20198850000000002,-0.14893350000000002,-0.680968,-0.1476075,0.10123650000000001,-0.6810080000000001,-0.1524445
58,-0.042871000000000006,0.6972400000000001,-0.072399,-0.171565,0.49014,-0.03401,-0.281915,0.7088699999999999,-0.105746,0.103255,0.4854,-0.065476,0.200085,0.71858,-0.114806,-0.33516500000000005,0.93011,-0.18469000000000002,0.219045,0.9742599999999999,-0.169542,-0.07544100000000001,-0.004257999999999998,0.004625000000000004,0.07544100000000001,0.004257999999999998,-0.004625000000000004,-0.14685499999999999,-0.29383,-0.195917,0.112985,-0.30182,-0.222787,-0.149795,-0.65771,-0.158509,0.09972500000000001,-0.65689,-0.162803
59,-0.0442865,0.696135,-0.0847585,-0.1727025,0.486765,-0.04654850000000001,-0.28460250000000004,0.708205,-0.1236305,0.1006075,0.484685,-0.0774705,0.1971675,0.716125,-0.13008050000000002,-0.3369625,0.929825,-0.20824150000000002,0.21669750000000002,0.972855,-0.1868875,-0.0760175,-0.0046549999999999925,0.003888499999999989,0.0760175,0.0046549999999999925,-0.003888500000000003,-0.1513825,-0.269465,-0.2180815,0.11297750000000001,-0.276555,-0.2442915,-0.1503425,-0.631605,-0.1692045,0.0983975,-0.630685,-0.17312650000000002
60,-0.045298000000000005,0.6954,-0.09728300000000001,-0.17327599999999999,0.48756,-0.058711000000000006,-0.285426,0.70679,-0.140877,0.09847399999999999,0.48349,-0.08855800000000001,0.19523400000000002,0.71467,-0.144119,-0.337096,0.93359,-0.22951500000000002,0.215174,0.9703499999999999,-0.203128,-0.076403,-0.004590000000000011,0.0027549999999999936,0.076403,0.004589999999999983,-0.0027550000000000074,-0.155556,-0.24775000000000003,-0.238655,0.113244,-0.25419,-0.262555,-0.15040599999999998,-0.60817,-0.178782,0.09752399999999999,-0.6072000000000001,-0.18247200000000002
61,-0.046403,0.6933900000000001,-0.11022000000000001,-0.173642,0.48496,-0.072768,-0.286372,0.70664,-0.160717,0.096328,0.48172000000000004,-0.10092000000000001,0.193308,0.71343,-0.15946100000000002,-0.337082,0.9276800000000001,-0.253855,0.213778,0.9622,-0.220649,-0.076751,-0.004909999999999998,0.0019649999999999945,0.076751,0.0049100000000000255,-0.0019650000000000084,-0.159822,-0.22154000000000001,-0.26005500000000004,0.113578,-0.22744999999999999,-0.281465,-0.150422,-0.58047,-0.188212,0.096788,-0.5794199999999999,-0.19220900000000002
62,-0.047572500000000004,0.69057,-0.124098,-0.1737935,0.48143,-0.088669,-0.28597350000000005,0.70534,-0.181765,0.0943365,0.4796,-0.114126,0.1914565,0.70979,-0.175659,-0.33654350000000005,0.92073,-0.27926,0.2127465,0.9583,-0.23892000000000002,-0.0768215,-0.005099999999999993,0.0011099999999999999,0.0768215,0.005100000000000021,-0.0011099999999999999,-0.16385349999999999,-0.19096999999999997,-0.28163000000000005,0.1141365,-0.19672999999999996,-0.3005,-0.1501635,-0.54849,-0.19775700000000002,0.0958465,-0.54741,-0.202243
63,-0.0495665,0.68523,-0.137909,-0.17368350000000002,0.47761,-0.10541,-0.2849735,0.69704,-0.201787,0.09258649999999999,0.47722,-0.127556,0.1898365,0.7055400000000001,-0.191417,-0.33540349999999997,0.90883,-0.302895,0.21186649999999999,0.95343,-0.257815,-0.0770335,-0.005149999999999988,0.0003549999999999942,0.0770335,0.005150000000000016,-0.0003549999999999942,-0.1673935,-0.15942,-0.301515,0.1146865,-0.16714999999999997,-0.317485,-0.1494735,-0.51651,-0.207208,0.0950365,-0.51542,-0.21217799999999998
64,-0.051500000000000004,0.67855,-0.1527,-0.173552,0.47446,-0.121853,-0.284062,0.6941299999999999,-0.221425,0.090728,0.475,-0.14100100000000002,0.188278,0.7012700000000001,-0.20689600000000002,-0.334202,0.90267,-0.32648,0.211258,0.95051,-0.27602000000000004,-0.07731400000000001,-0.005260000000000042,-0.0003599999999999992,0.07731400000000001,0.005259999999999987,0.0003599999999999992,-0.170812,-0.12739,-0.32092,0.115258,-0.13726,-0.33353,-0.148862,-0.48463999999999996,-0.216634,0.094238,-0.48331,-0.221568
65,-0.053499500000000005,0.66964,-0.16137600000000002,-0.1733685,0.46804999999999997,-0.13172100000000003,-0.28443850000000004,0.68076,-0.23411200000000001,0.0892215,0.47109,-0.14803500000000003,0.18719149999999998,0.69309,-0.21613900000000003,-0.3328485,0.8904599999999999,-0.34392,0.2109715,0.9441999999999999,-0.28792,-0.0779975,-0.005690000000000028,-0.0005100000000000104,0.0779975,0.005689999999999973,0.0005099999999999827,-0.1712985,-0.09946000000000005,-0.32755,0.11609149999999999,-0.11178000000000005,-0.34015,-0.1481585,-0.4577,-0.21989800000000004,0.0935815,-0.45602,-0.22488400000000003
66,-0.055316,0.6594800000000001,-0.169123,-0.17278100000000002,0.46315000000000006,-0.14132899999999998,-0.28407099999999996,0.66995,-0.24511899999999998,0.088679,0.46606000000000003,-0.15466,0.187589,0.69282,-0.225151,-0.330741,0.8775000000000001,-0.35919,0.21176899999999999,0.93777,-0.3004,-0.07848,-0.005659999999999998,-0.0004800000000000082,0.07848,0.005659999999999998,0.0004800000000000082,-0.17090100000000003,-0.06885999999999998,-0.33318000000000003,0.11753899999999999,-0.08335999999999999,-0.34608,-0.14660099999999998,-0.42850999999999995,-0.22278799999999999,0.092509,-0.42706999999999995,-0.22761399999999998
67,-0.056591,0.651735,-0.176018,-0.171807,0.460605,-0.14955800000000002,-0.283837,0.659585,-0.2554,0.08868299999999998,0.462425,-0.16054300000000002,0.18851300000000001,0.689335,-0.23398100000000002,-0.32889700000000005,0.8629249999999999,-0.37091,0.212973,0.930045,-0.31199,-0.07910500000000001,-0.005605000000000027,-0.0003700000000000092,0.07910500000000001,0.005604999999999971,0.00036999999999998145,-0.169567,-0.039295000000000024,-0.33681000000000005,0.11924300000000002,-0.054735000000000034,-0.35073,-0.144687,-0.40090500000000007,-0.22561200000000003,0.091473,-0.399065,-0.229416
68,-0.057918,0.6450400000000001,-0.182729,-0.17078,0.456696,-0.157241,-0.28271999999999997,0.65405,-0.26700999999999997,0.08877800000000001,0.46081099999999997,-0.166011,0.18891,0.68615,-0.24137999999999998,-0.32693,0.84888,-0.38234,0.21312,0.9257599999999999,-0.32244,-0.079608,-0.005879999999999996,-0.00026999999999999247,0.079608,0.005879999999999996,0.0002700000000000202,-0.1684,-0.010940000000000005,-0.33928,0.11982999999999999,-0.030600000000000016,-0.35322,-0.14364,-0.3735,-0.229212,0.08965000000000001,-0.37169,-0.230203
69,-0.057748,0.6394650000000001,-0.18832500000000002,-0.169839,0.452342,-0.16495700000000002,-0.281429,0.6501250000000001,-0.27859,0.089067,0.45920300000000003,-0.1715,0.189541,0.684955,-0.24852400000000002,-0.325839,0.8360350000000001,-0.39412,0.213771,0.9191050000000001,-0.33209,-0.080155,-0.0062249999999999805,-0.00020000000000000573,0.080155,0.006225000000000036,0.00019999999999997797,-0.167379,0.01838500000000004,-0.34174000000000004,0.12027099999999999,-0.00408499999999995,-0.3557,-0.143159,-0.34450499999999995,-0.233056,0.090241,-0.34167499999999995,-0.229054
70,-0.057163,0.635025,-0.19304699999999997,-0.168926,0.450534,-0.170365,-0.280646,0.646485,-0.28705499999999995,0.089682,0.457997,-0.17540199999999997,0.190524,0.679515,-0.25414099999999995,-0.325116,0.833235,-0.40256499999999995,0.214544,0.916965,-0.33950499999999995,-0.080494,-0.006325000000000025,-0.00026499999999998747,0.080494,0.0063249999999999695,0.0002650000000000152,-0.166406,0.042974999999999985,-0.34345499999999995,0.12104400000000001,0.019684999999999953,-0.357425,-0.142876,-0.32008500000000006,-0.23621399999999998,0.090848,-0.316225,-0.22726799999999997
71,-0.05642250000000001,0.628595,-0.19690000000000002,-0.16816350000000002,0.4469,-0.17468300000000003,-0.2801535,0.643745,-0.29564,0.09035449999999999,0.456172,-0.17920400000000003,0.1913065,0.678635,-0.259103,-0.3242335,0.831565,-0.41026,0.2151865,0.912145,-0.34606000000000003,-0.0805135,-0.0065649999999999875,-0.00015000000000001124,0.0805135,0.0065649999999999875,0.00014999999999998348,-0.16534349999999998,0.06487500000000002,-0.34338,0.1215065,0.04263499999999998,-0.35737,-0.14348349999999999,-0.29769500000000004,-0.240601,0.09138249999999999,-0.29288499999999995,-0.22568700000000003
72,-0.0560175,0.624795,-0.201066,-0.1677655,0.446732,-0.1786,-0.2795155,0.647285,-0.304295,0.0907445,0.456255,-0.182968,0.19173449999999997,0.674015,-0.263919,-0.32374549999999996,0.834125,-0.41847500000000004,0.21565450000000003,0.909995,-0.35185500000000003,-0.0804415,-0.0066549999999999665,-0.00010499999999999399,0.0804415,0.006655000000000022,0.00010499999999999399,-0.1645355,0.07820500000000002,-0.343845,0.1215845,0.06395499999999998,-0.35675500000000004,-0.1451755,-0.27702499999999997,-0.249281,0.0887395,-0.274795,-0.222631
73,-0.055756,0.6228049999999999,-0.20415,-0.167491,0.446053,-0.182169,-0.278961,0.649925,-0.31289999999999996,0.091019,0.455804,-0.18638,0.19204900000000003,0.6707449999999999,-0.268371,-0.323311,0.8354550000000001,-0.42611,0.21601900000000002,0.906775,-0.35752,-0.080345,-0.0066150000000000375,3.0000000000002247e-05,0.080345,0.006614999999999982,-3.0000000000002247e-05,-0.163451,0.09012499999999996,-0.34319,0.121519,0.08331499999999997,-0.35526,-0.14688099999999998,-0.257605,-0.257724,0.086164,-0.257995,-0.219716
74,-0.0555625,0.619944,-0.206788,-0.1671285,0.44620600000000005,-0.185445,-0.27860850000000004,0.65652,-0.32095,0.0911545,0.454967,-0.189594,0.1925915,0.66673,-0.272249,-0.3230585,0.8375300000000001,-0.43239,0.21622149999999998,0.90147,-0.36269,-0.08034150000000001,-0.006419999999999981,0.00014000000000000123,0.08034150000000001,0.006419999999999981,-0.00014000000000000123,-0.16216850000000002,0.09918000000000005,-0.34199,0.12145149999999999,0.10050000000000003,-0.35319,-0.1485285,-0.24053999999999998,-0.26588900000000004,0.08386450000000001,-0.24281999999999992,-0.21665800000000002
75,-0.054011,0.6179690000000001,-0.20934499999999998,-0.166976,0.44439700000000004,-0.18842099999999998,-0.279546,0.6607200000000001,-0.32941,0.091696,0.45506100000000005,-0.19258699999999998,0.193724,0.6618600000000001,-0.27579,-0.324086,0.84148,-0.43903,0.217244,0.89707,-0.36717,-0.08033,-0.006729999999999903,0.00024000000000001798,0.08033,0.006730000000000014,-0.00023999999999999022,-0.160506,0.10551000000000005,-0.34095,0.12134400000000001,0.11519000000000007,-0.35104,-0.150766,-0.22722999999999993,-0.272285,0.082089,-0.23054999999999992,-0.213769
76,-0.051865,0.615351,-0.211758,-0.16645500000000002,0.44316999999999995,-0.191219,-0.27991499999999997,0.66441,-0.33726,0.092846,0.45436099999999996,-0.195361,0.19559500000000002,0.65856,-0.27892,-0.324785,0.84554,-0.44573999999999997,0.218775,0.89299,-0.37156,-0.080319,-0.006709999999999994,0.0003800000000000192,0.080319,0.006709999999999994,-0.00037999999999999146,-0.15846500000000002,0.11055999999999999,-0.33979,0.12156499999999999,0.12816,-0.34836999999999996,-0.152445,-0.21604,-0.27891,0.08046199999999999,-0.21987,-0.21157299999999998
77,-0.049601000000000006,0.612333,-0.21407700000000002,-0.165858,0.44196500000000005,-0.193669,-0.280078,0.664915,-0.34214,0.09410199999999999,0.45368500000000006,-0.197749,0.19746199999999997,0.654927,-0.28183,-0.325558,0.8455050000000001,-0.45061,0.220252,0.887035,-0.37521000000000004,-0.080166,-0.0065949999999999065,0.0005999999999999894,0.080166,0.0065950000000000175,-0.0006000000000000172,-0.15726800000000002,0.11098500000000006,-0.33946,0.12164199999999999,0.13723500000000005,-0.34549,-0.15384799999999998,-0.20967499999999994,-0.28389,0.081038,-0.20920499999999997,-0.211433
78,-0.0471715,0.6088340000000001,-0.216344,-0.1654745,0.4406000000000001,-0.196055,-0.2805045,0.6644500000000001,-0.34628000000000003,0.0946755,0.45261000000000007,-0.200083,0.1991055,0.6499810000000001,-0.28436,-0.3270745,0.8443800000000001,-0.45529000000000003,0.2215655,0.8836300000000001,-0.37883,-0.0801515,-0.006449999999999956,0.0007599999999999829,0.0801515,0.006450000000000067,-0.0007600000000000107,-0.1566245,0.10975000000000007,-0.33928,0.1212155,0.14521000000000006,-0.34258,-0.1539645,-0.20275999999999994,-0.28916000000000003,0.0832355,-0.1981599999999999,-0.21323
79,-0.045037499999999994,0.6053310000000001,-0.21889799999999998,-0.16512949999999998,0.439385,-0.19846899999999998,-0.2808195,0.6629700000000001,-0.35075999999999996,0.0949805,0.45167500000000005,-0.20249799999999998,0.2004305,0.648105,-0.28698,-0.3285495,0.842325,-0.46001,0.2228005,0.880465,-0.3832,-0.0799385,-0.0063349999999999795,0.0007700000000000207,0.0799385,0.0063350000000000906,-0.0007699999999999929,-0.1563695,0.10808500000000004,-0.33984,0.12065050000000002,0.15262500000000007,-0.34023,-0.15424949999999998,-0.19633499999999993,-0.29447999999999996,0.0851375,-0.1879949999999999,-0.21517199999999997
80,-0.043019,0.60463,-0.220303,-0.165039,0.440575,-0.199573,-0.280759,0.662218,-0.35345,0.095501,0.451665,-0.20357399999999998,0.202191,0.643845,-0.28859,-0.329329,0.839845,-0.46348,0.224771,0.875175,-0.38697,-0.079897,-0.006105000000000027,0.0007400000000000184,0.079897,0.006105000000000027,-0.0007399999999999907,-0.155939,0.10363499999999998,-0.34073,0.120341,0.15596500000000002,-0.33938999999999997,-0.154159,-0.19350500000000004,-0.29774999999999996,0.085622,-0.18508500000000006,-0.214507
81,-0.04244,0.60427,-0.220803,-0.16494799999999998,0.4405,-0.199914,-0.280528,0.6610550000000001,-0.35545000000000004,0.095752,0.4515,-0.203896,0.203732,0.6433340000000001,-0.28964,-0.329408,0.83829,-0.46618,0.226132,0.87324,-0.38971,-0.07989399999999999,-0.00605,0.0006400000000000017,0.07989399999999999,0.00605,-0.0006400000000000017,-0.15553799999999998,0.10374,-0.34097,0.12010200000000001,0.15688000000000002,-0.33916,-0.153638,-0.19187999999999994,-0.29862,0.08560300000000001,-0.18467999999999996,-0.21527000000000002
82,-0.041972499999999996,0.604051,-0.221109,-0.1648695,0.440505,-0.200187,-0.2803295,0.6600469999999999,-0.35568,0.0959305,0.451365,-0.20417500000000002,0.2050905,0.643371,-0.29084,-0.3293395,0.836815,-0.46788,0.2274305,0.871245,-0.39234,-0.0798905,-0.005994999999999973,0.0005499999999999949,0.0798905,0.005994999999999973,-0.0005500000000000227,-0.1552695,0.10368499999999997,-0.34118000000000004,0.1199105,0.15731499999999998,-0.33922,-0.15488949999999999,-0.19059500000000007,-0.30011,0.08595950000000001,-0.18354500000000007,-0.21742
83,-0.041492,0.60389,-0.222018,-0.164779,0.44051000000000007,-0.20038499999999998,-0.280309,0.6591,-0.35588,0.096081,0.45121000000000006,-0.20437,0.20636100000000002,0.643382,-0.29207,-0.32925899999999997,0.8353700000000001,-0.46965999999999997,0.22868100000000002,0.86931,-0.39495,-0.079875,-0.0059499999999999,0.0005000000000000004,0.079875,0.005950000000000011,-0.0005000000000000004,-0.155509,0.10342000000000007,-0.34147,0.11975099999999998,0.15769000000000005,-0.33942,-0.15573900000000002,-0.18886999999999998,-0.30142,0.08598,-0.1838399999999999,-0.21761999999999998
84,-0.040728,0.6037290000000001,-0.222985,-0.164362,0.44051000000000007,-0.200561,-0.279912,0.65825,-0.35606000000000004,0.096548,0.45109000000000005,-0.204545,0.20762799999999998,0.643382,-0.29322000000000004,-0.328882,0.83419,-0.47104,0.22964800000000002,0.86802,-0.39694,-0.079788,-0.0059499999999999,0.0004599999999999882,0.079788,0.005950000000000011,-0.00046000000000001595,-0.15517199999999998,0.10314000000000006,-0.34165,0.120018,0.15769000000000005,-0.33960999999999997,-0.15555200000000002,-0.18924999999999992,-0.30069,0.084583,-0.18819999999999992,-0.217233
85,-0.0397975,0.6035290000000001,-0.22401000000000001,-0.1638365,0.4404450000000001,-0.200767,-0.2781465,0.6506550000000001,-0.35285500000000003,0.0971635,0.45094500000000004,-0.204714,0.20913349999999997,0.643325,-0.29457500000000003,-0.3278865,0.8316050000000001,-0.472155,0.23055350000000002,0.8668550000000002,-0.398675,-0.0797345,-0.005884999999999918,0.0004149999999999987,0.0797345,0.005885000000000029,-0.0004149999999999987,-0.15471649999999998,0.10294500000000006,-0.341845,0.12041349999999999,0.15758500000000009,-0.339855,-0.15532649999999998,-0.18951499999999988,-0.299955,0.0848925,-0.18784499999999993,-0.217895
86,-0.038827999999999994,0.60322,-0.22514,-0.163304,0.440345,-0.201023,-0.276264,0.643132,-0.34982,0.097816,0.450745,-0.20492600000000002,0.210586,0.643457,-0.29597,-0.32679400000000003,0.829405,-0.47301000000000004,0.231406,0.867005,-0.40023000000000003,-0.079706,-0.005735000000000046,0.00036999999999998145,0.079706,0.005735000000000046,-0.0003700000000000092,-0.15422399999999997,0.10281499999999999,-0.34205,0.12081599999999999,0.157115,-0.34005,-0.15522399999999997,-0.189705,-0.29921000000000003,0.08522600000000001,-0.18825500000000006,-0.21783200000000003
87,-0.0378485,0.602885,-0.22620700000000002,-0.1627415,0.44026999999999994,-0.201306,-0.27540149999999997,0.6409279999999999,-0.351385,0.0985085,0.45053,-0.205164,0.21196849999999998,0.6433519999999999,-0.29751500000000003,-0.3254315,0.8272999999999999,-0.474015,0.23211849999999998,0.86575,-0.401565,-0.0796895,-0.005589999999999984,0.0003449999999999842,0.0796895,0.005589999999999984,-0.00034500000000001196,-0.1541115,0.10250999999999999,-0.342205,0.12125849999999999,0.15655999999999998,-0.340525,-0.1551915,-0.18991999999999998,-0.299165,0.0865715,-0.18697000000000008,-0.219288
88,-0.0371665,0.6026619999999999,-0.227181,-0.1624795,0.44026999999999994,-0.201598,-0.27385950000000003,0.6337349999999999,-0.348875,0.0989005,0.45033999999999996,-0.205401,0.21309050000000002,0.6432979999999999,-0.299085,-0.3242995,0.8253699999999999,-0.474895,0.2326105,0.8648,-0.40219499999999997,-0.0796785,-0.005510000000000015,0.00033500000000000196,0.0796785,0.005509999999999904,-0.00033500000000000196,-0.15439950000000002,0.10215999999999997,-0.342335,0.1214505,0.15647999999999995,-0.341455,-0.15561950000000002,-0.1901400000000001,-0.299115,0.0868485,-0.1870400000000001,-0.221617
89,-0.03631,0.602438,-0.228349,-0.162089,0.44027000000000005,-0.201879,-0.272979,0.633391,-0.35001,0.099411,0.45023,-0.20562999999999998,0.214901,0.643412,-0.30137,-0.323219,0.82526,-0.47578,0.233871,0.86469,-0.40349999999999997,-0.07967,-0.00546000000000002,0.0002999999999999947,0.07967,0.00546000000000002,-0.0002999999999999947,-0.154519,0.10242000000000001,-0.34229,0.12182100000000001,0.15581,-0.34247,-0.155659,-0.18964000000000003,-0.29813999999999996,0.087195,-0.18742999999999999,-0.223871
90,-0.035251,0.602322,-0.230045,-0.161702,0.4402,-0.202155,-0.271202,0.633251,-0.350835,0.09997800000000001,0.45016,-0.205871,0.216668,0.644564,-0.303425,-0.322112,0.8252299999999999,-0.476765,0.235238,0.8650599999999999,-0.404785,-0.079648,-0.00541999999999998,0.0002949999999999897,0.079648,0.00541999999999998,-0.00029500000000001747,-0.154902,0.10255999999999998,-0.342245,0.122218,0.15494999999999998,-0.343545,-0.154952,-0.18884999999999996,-0.298105,0.086394,-0.18842000000000003,-0.225911
91,-0.034003000000000005,0.602287,-0.232026,-0.161199,0.440165,-0.202447,-0.269379,0.633216,-0.35150499999999996,0.100571,0.450125,-0.206129,0.218351,0.6458849999999999,-0.305195,-0.320889,0.8251949999999999,-0.477765,0.236661,0.8650249999999999,-0.406115,-0.079627,-0.005384999999999973,0.00029500000000001747,0.079627,0.005384999999999973,-0.0002949999999999897,-0.155269,0.10252499999999998,-0.34235499999999996,0.12268099999999998,0.15363499999999997,-0.344685,-0.153999,-0.18886500000000006,-0.298075,0.085705,-0.19149499999999997,-0.22813899999999998
92,-0.03250349999999999,0.602128,-0.234213,-0.1606715,0.44011999999999996,-0.20278500000000002,-0.2675915,0.632961,-0.350525,0.1012585,0.44987,-0.20641900000000002,0.22013850000000001,0.647064,-0.306935,-0.3196015,0.82576,-0.478545,0.2387785,0.86598,-0.40749500000000005,-0.07959050000000001,-0.005290000000000017,0.00027499999999999747,0.07959050000000001,0.005290000000000017,-0.00027499999999999747,-0.15574149999999998,0.10621999999999998,-0.342455,0.1232085,0.15203,-0.34580500000000003,-0.15213149999999998,-0.18912000000000007,-0.297725,0.0836035,-0.19744000000000006,-0.229041
93,-0.030803499999999994,0.602916,-0.236822,-0.1600605,0.44000000000000006,-0.2031,-0.2656305,0.633148,-0.34891,0.10204950000000002,0.44957,-0.20666600000000002,0.2221595,0.648961,-0.30843,-0.3182905,0.8263400000000001,-0.47843,0.24114950000000002,0.86832,-0.40905,-0.07951749999999999,-0.005209999999999937,0.00020000000000000573,0.07951749999999999,0.005210000000000048,-0.00020000000000000573,-0.1562505,0.10936000000000001,-0.34238999999999997,0.1238195,0.14969000000000005,-0.34677,-0.1524205,-0.19087999999999994,-0.29636,0.08206750000000002,-0.20306000000000002,-0.229555
94,-0.028439000000000002,0.606681,-0.238388,-0.159142,0.43972500000000003,-0.201989,-0.26341200000000004,0.63375,-0.343215,0.103238,0.44923500000000005,-0.205491,0.22433799999999998,0.6518510000000001,-0.308325,-0.316872,0.8265150000000001,-0.47604499999999994,0.244188,0.871445,-0.409325,-0.07943700000000001,-0.00521499999999997,0.0003650000000000042,0.07943700000000001,0.005215000000000081,-0.0003650000000000042,-0.156612,0.11080500000000004,-0.341435,0.12492799999999998,0.14556500000000006,-0.34723499999999996,-0.151702,-0.1942649999999999,-0.292615,0.08291399999999999,-0.20601499999999995,-0.229111
95,-0.024561499999999997,0.611105,-0.23794999999999997,-0.15722750000000002,0.440935,-0.19897899999999996,-0.2609575,0.632167,-0.33597999999999995,0.1058425,0.449345,-0.20288699999999998,0.2270525,0.653124,-0.30619999999999997,-0.3143675,0.825125,-0.47147999999999995,0.24880249999999998,0.877705,-0.4075,-0.0792485,-0.00464500000000001,0.00029000000000001247,0.0792485,0.00464500000000001,-0.0002899999999999847,-0.1573875,0.10586500000000004,-0.3427,0.1270525,0.134695,-0.34862,-0.1505975,-0.20438499999999993,-0.28608999999999996,0.0847045,-0.21480500000000002,-0.22832399999999997
96,-0.021543,0.616436,-0.23482899999999998,-0.155408,0.44266,-0.19466799999999998,-0.259248,0.628851,-0.326535,0.108452,0.449373,-0.19876,0.229642,0.65529,-0.30288499999999996,-0.311508,0.82167,-0.466255,0.253332,0.88204,-0.404155,-0.079026,-0.004049999999999998,0.0003650000000000042,0.079026,0.004049999999999998,-0.0003650000000000042,-0.157538,0.09775,-0.343155,0.12936199999999998,0.12234,-0.348915,-0.14955800000000002,-0.21673999999999993,-0.278995,0.087031,-0.22658999999999996,-0.227099
97,-0.018676999999999996,0.623943,-0.23108700000000001,-0.153637,0.44637400000000005,-0.190281,-0.25699700000000003,0.6340300000000001,-0.322125,0.111063,0.45122500000000004,-0.194341,0.232433,0.6606000000000001,-0.298465,-0.308547,0.82403,-0.46182500000000004,0.25782299999999997,0.8897600000000001,-0.400355,-0.078768,-0.00378999999999996,0.0003949999999999787,0.078768,0.003790000000000071,-0.00039500000000000646,-0.15722699999999998,0.08414000000000005,-0.343355,0.131913,0.10426000000000002,-0.34877500000000006,-0.14695699999999998,-0.23451,-0.27072300000000005,0.089751,-0.24314999999999998,-0.22484500000000002
98,-0.016159999999999997,0.6304949999999999,-0.226608,-0.151888,0.4487899999999999,-0.18583100000000002,-0.255888,0.641805,-0.3186,0.113432,0.4512919999999999,-0.189867,0.234482,0.6659249999999999,-0.29400000000000004,-0.305568,0.827575,-0.45733,0.261442,0.895165,-0.39584,-0.07855000000000001,-0.003195000000000059,0.0003899999999999737,0.07855000000000001,0.003194999999999948,-0.00039000000000000146,-0.156268,0.06789499999999993,-0.34272,0.13389199999999998,0.0831249999999999,-0.34723000000000004,-0.144308,-0.2549150000000001,-0.262268,0.09389,-0.26017500000000005,-0.22316200000000003
99,-0.013908,0.637755,-0.220202,-0.15032600000000002,0.453858,-0.179247,-0.25440599999999997,0.6475949999999999,-0.31222,0.11607400000000001,0.453739,-0.183447,0.23696399999999998,0.671765,-0.28759,-0.302986,0.827745,-0.4472,0.265064,0.905025,-0.38938,-0.07833499999999999,-0.002625000000000044,0.0004200000000000037,0.07833499999999999,0.0026249999999999885,-0.0004200000000000037,-0.155586,0.041964999999999975,-0.33974000000000004,0.13555399999999998,0.050485,-0.34319,-0.14172600000000002,-0.286745,-0.25153000000000003,0.09639500000000001,-0.290115,-0.218874
100,-0.0114905,0.646145,-0.213341,-0.1484645,0.458564,-0.172017,-0.25178449999999997,0.648335,-0.304705,0.1189655,0.4565,-0.176502,0.2395855,0.678685,-0.280505,-0.2997545,0.833545,-0.43583500000000003,0.26887550000000005,0.9125350000000001,-0.382465,-0.0780005,-0.0020749999999999935,0.00042499999999998095,0.0780005,0.0020749999999999935,-0.0004250000000000087,-0.1546845,0.014475000000000016,-0.334615,0.13723549999999998,0.016345,-0.336685,-0.1387245,-0.32088500000000003,-0.240235,0.0975905,-0.32626499999999997,-0.214038
101,-0.009279999999999995,0.6556150000000001,-0.20470699999999997,-0.146666,0.46428100000000005,-0.162547,-0.249356,0.6544650000000001,-0.295725,0.122214,0.46122100000000005,-0.16789099999999998,0.243044,0.687665,-0.27112499999999995,-0.29660600000000004,0.8388450000000001,-0.42294499999999996,0.27211399999999997,0.9166850000000001,-0.37258499999999994,-0.077696,-0.001784999999999981,0.0004950000000000232,0.077696,0.0017850000000000366,-0.0004949999999999954,-0.153616,-0.021464999999999956,-0.328375,0.138884,-0.02113499999999996,-0.329005,-0.135786,-0.35953499999999994,-0.228906,0.098966,-0.36804499999999996,-0.20839199999999997
102,-0.007070999999999999,0.6656,-0.194929,-0.144838,0.46937,-0.152875,-0.247058,0.6593100000000001,-0.280765,0.125532,0.46589,-0.15895700000000001,0.246202,0.6954800000000001,-0.261445,-0.293258,0.84396,-0.407585,0.275372,0.9210200000000001,-0.361995,-0.077521,-0.0014799999999999813,0.0005350000000000077,0.077521,0.0014800000000000368,-0.0005350000000000077,-0.151988,-0.058069999999999955,-0.320625,0.140402,-0.05923999999999996,-0.321045,-0.13278800000000002,-0.3992899999999999,-0.21792699999999998,0.10148299999999999,-0.4089499999999999,-0.201893
103,-0.0057249999999999975,0.672745,-0.18390600000000001,-0.14334000000000002,0.474725,-0.14287400000000003,-0.24547000000000002,0.6613249999999999,-0.26724000000000003,0.12877,0.47148500000000004,-0.14905200000000002,0.24881999999999999,0.701055,-0.2503,-0.29057,0.846665,-0.38929,0.27833,0.927335,-0.35097,-0.077334,-0.0010350000000000081,0.0005699999999999872,0.077334,0.0010350000000000081,-0.0005700000000000149,-0.14977000000000001,-0.09706500000000001,-0.31282,0.14142,-0.09957499999999997,-0.31329,-0.13029000000000002,-0.442385,-0.20798900000000003,0.10552,-0.45058499999999996,-0.19504100000000002
104,-0.004491500000000001,0.680225,-0.174213,-0.1420205,0.478655,-0.134682,-0.2431505,0.669345,-0.25281,0.1314095,0.476475,-0.140997,0.2517195,0.708375,-0.24048,-0.2879305,0.856805,-0.37241,0.2805295,0.9334450000000001,-0.3399,-0.0770315,-0.0012449999999999961,0.000899999999999998,0.0770315,0.0012449999999999961,-0.000899999999999998,-0.14734049999999999,-0.129575,-0.30692,0.1423695,-0.13327500000000003,-0.30745,-0.1282805,-0.48388499999999995,-0.200551,0.1094995,-0.48725500000000005,-0.18962600000000002
105,-0.003232500000000001,0.68699,-0.161645,-0.1407125,0.48338,-0.12420600000000001,-0.2424425,0.67642,-0.23596,0.13374750000000002,0.48152,-0.130916,0.2544275,0.71389,-0.22714,-0.2862325,0.86674,-0.3527,0.2827675,0.93942,-0.32646,-0.0765245,-0.0013199999999999878,0.0009699999999999986,0.0765245,0.0013199999999999878,-0.0009700000000000125,-0.1442625,-0.16362,-0.29976,0.1426675,-0.16703,-0.29803,-0.1264525,-0.5285299999999999,-0.191847,0.1129375,-0.52525,-0.18245
106,-0.002107000000000004,0.691505,-0.148086,-0.139569,0.485885,-0.113501,-0.241279,0.6840950000000001,-0.22086,0.135851,0.48457500000000003,-0.120589,0.25587099999999996,0.7164950000000001,-0.21365,-0.28456899999999996,0.879135,-0.33354,0.28415100000000004,0.9420950000000001,-0.31227,-0.076002,-0.0010449999999999904,0.0010600000000000054,0.076002,0.0010450000000000181,-0.0010600000000000054,-0.140539,-0.192075,-0.29154,0.142771,-0.19510499999999997,-0.28699,-0.125189,-0.562805,-0.183416,0.115311,-0.559515,-0.17519
107,-0.0016075000000000056,0.698265,-0.133465,-0.1387475,0.489435,-0.102272,-0.24045750000000002,0.689385,-0.206025,0.1378525,0.489205,-0.10917199999999999,0.25739249999999997,0.720455,-0.199434,-0.2834075,0.890015,-0.313965,0.2853625,0.947035,-0.296765,-0.0751845,-0.0010749999999999926,0.0012049999999999977,0.0751845,0.0010749999999999926,-0.0012049999999999977,-0.13568750000000002,-0.21781499999999998,-0.277705,0.1426325,-0.22058499999999998,-0.271905,-0.12421750000000001,-0.594265,-0.174859,0.1172425,-0.591565,-0.16735499999999998
108,-0.0012124999999999974,0.705265,-0.1220115,-0.1388315,0.492405,-0.0926915,-0.2396815,0.7020550000000001,-0.19226549999999998,0.1393685,0.493145,-0.0991015,0.25806850000000003,0.723585,-0.1860385,-0.28211149999999996,0.904165,-0.2988335,0.28572850000000005,0.946535,-0.2824935,-0.0745035,-0.0009849999999999998,0.0011975000000000041,0.0745035,0.0009849999999999998,-0.0011974999999999902,-0.1310715,-0.240155,-0.26425350000000003,0.1421885,-0.24529499999999999,-0.2572135,-0.12330150000000001,-0.618945,-0.1680015,0.1182385,-0.6168849999999999,-0.1605955
109,-0.001293499999999996,0.71149,-0.108908,-0.1394055,0.49455,-0.08200900000000001,-0.2399855,0.7135199999999999,-0.177396,0.14029450000000002,0.49608,-0.08788900000000001,0.2581945,0.72634,-0.17041800000000001,-0.2820155,0.9125000000000001,-0.27910100000000004,0.2853145,0.9473400000000001,-0.263891,-0.0741755,-0.0012419999999999931,0.001796999999999993,0.0741755,0.001242000000000007,-0.001797000000000007,-0.12685549999999998,-0.26448,-0.245841,0.1400645,-0.27192,-0.237491,-0.12272549999999999,-0.6448099999999999,-0.159883,0.1188545,-0.6436599999999999,-0.15257900000000002
110,-0.0010389999999999957,0.7161584999999999,-0.09319999999999999,-0.139594,0.4945385,-0.06933099999999999,-0.239174,0.7170985000000001,-0.159183,0.141086,0.4959385,-0.074122,0.25815600000000005,0.7277785000000001,-0.151656,-0.28160399999999997,0.9205684999999999,-0.255529,0.28501600000000005,0.9493784999999999,-0.242899,-0.07352500000000001,-0.0007125000000000048,0.0019290000000000002,0.07352500000000001,0.0007124999999999979,-0.0019290000000000002,-0.12335399999999999,-0.2859115,-0.224169,0.138376,-0.2950115,-0.214949,-0.121974,-0.6669915,-0.14837899999999998,0.119586,-0.6669415000000001,-0.140868
111,-0.00018200000000000594,0.7191715000000001,-0.076821,-0.13983,0.4984515,-0.05484800000000001,-0.23923,0.7213615000000001,-0.14067800000000003,0.14176,0.4967015,-0.05888,0.25781,0.7302715000000001,-0.13193100000000002,-0.28138,0.9264815000000001,-0.23197500000000001,0.28442999999999996,0.9530515,-0.219695,-0.072949,-0.00016149999999999498,0.002121999999999999,0.072949,0.00016150000000000192,-0.002121999999999999,-0.12014999999999999,-0.3085485,-0.19825500000000001,0.13573999999999997,-0.3185285,-0.187295,-0.12131000000000002,-0.6900685,-0.13456200000000001,0.12022999999999999,-0.6910685,-0.127149
112,0.0006924999999999935,0.721949,-0.062425999999999995,-0.14004250000000001,0.501869,-0.041702,-0.2394125,0.7286189999999999,-0.125466,0.14206749999999999,0.49644900000000003,-0.045620999999999995,0.2575575,0.733389,-0.11443400000000001,-0.2810525,0.9354889999999999,-0.211934,0.2839375,0.9539989999999999,-0.197654,-0.07241449999999999,0.00032199999999999937,0.002036000000000003,0.07241449999999999,-0.00032199999999999937,-0.002035999999999996,-0.11798250000000002,-0.325461,-0.17460399999999998,0.13326749999999998,-0.336001,-0.16198400000000002,-0.1206025,-0.707681,-0.121403,0.12083749999999999,-0.7093510000000001,-0.114289
113,0.001625499999999998,0.72376,-0.048105499999999995,-0.1401705,0.50506,-0.028436499999999997,-0.2385505,0.7321599999999999,-0.1099405,0.1424895,0.49641,-0.03222849999999999,0.2571095,0.7363999999999999,-0.0972615,-0.2804105,0.9389099999999999,-0.1911485,0.2835895,0.95209,-0.1768885,-0.07198850000000001,0.0008750000000000001,0.0019185000000000035,0.07198850000000001,-0.0008749999999999999,-0.0019184999999999966,-0.11612050000000002,-0.34195,-0.15055849999999998,0.1308995,-0.35401,-0.1362765,-0.1198505,-0.7255600000000001,-0.1081405,0.12135950000000001,-0.7274700000000001,-0.10116449999999999
114,0.001997999999999996,0.7250464999999999,-0.035744000000000005,-0.140489,0.5065965,-0.017232000000000004,-0.237949,0.7382464999999999,-0.096853,0.142711,0.49615650000000006,-0.020696000000000003,0.256551,0.7399764999999999,-0.083097,-0.279859,0.9445665,-0.173566,0.28307099999999996,0.9514465,-0.157846,-0.07206599999999999,0.0012645,0.0018259999999999943,0.07206599999999999,-0.0012645,-0.0018260000000000012,-0.115289,-0.3525135,-0.12885200000000002,0.128211,-0.3669435,-0.113777,-0.119589,-0.7371235,-0.09608900000000001,0.12168099999999998,-0.7396535000000001,-0.089203
115,0.0023519999999999956,0.7261700000000001,-0.023605,-0.140899,0.5081300000000001,-0.006092,-0.237829,0.7423000000000001,-0.08358199999999999,0.14294099999999998,0.49593000000000004,-0.009225,0.25604099999999996,0.74295,-0.068867,-0.279359,0.9438300000000001,-0.155512,0.282051,0.95045,-0.138482,-0.072101,0.0016600000000000018,0.0017180000000000008,0.072101,-0.0016599999999999983,-0.0017180000000000008,-0.115109,-0.36367,-0.107146,0.125391,-0.38162,-0.090903,-0.119339,-0.7485499999999999,-0.08376600000000001,0.121901,-0.75174,-0.07707800000000001
116,0.0027399999999999985,0.7256444999999999,-0.012069999999999999,-0.141104,0.5094544999999999,0.005041,-0.237154,0.7464244999999999,-0.070138,0.143226,0.4956145,0.0021290000000000024,0.255756,0.7435045,-0.054917,-0.278254,0.9442745,-0.137081,0.281046,0.9481244999999999,-0.119991,-0.072108,0.0021235000000000004,0.0015480000000000008,0.072108,-0.002123499999999997,-0.0015480000000000008,-0.11544399999999999,-0.37474549999999995,-0.086098,0.12259600000000001,-0.39507549999999997,-0.06825300000000001,-0.11943400000000001,-0.7597255,-0.07128999999999999,0.121696,-0.7628755,-0.06521099999999999
117,0.0030349999999999978,0.724226,-0.0009935000000000005,-0.14161300000000002,0.508726,0.015242499999999999,-0.23689300000000002,0.7452259999999999,-0.0572955,0.143227,0.49364600000000003,0.012243500000000001,0.255407,0.7442259999999999,-0.041637499999999994,-0.277283,0.944816,-0.1192845,0.279677,0.946646,-0.1026235,-0.072107,0.0024990000000000012,0.0015314999999999999,0.072107,-0.0024989999999999943,-0.0015315000000000007,-0.11605299999999999,-0.385144,-0.0661315,0.119837,-0.409184,-0.046842499999999995,-0.119703,-0.769974,-0.0585995,0.121417,-0.773944,-0.0539825
118,0.00339,0.7224535,0.007936,-0.142019,0.5092635,0.024121,-0.236549,0.7450435,-0.04664,0.143331,0.4923735,0.020898,0.25521099999999997,0.7443535,-0.031330000000000004,-0.275439,0.9455135,-0.10596799999999999,0.27902099999999996,0.9458234999999999,-0.089381,-0.07211,0.0032434999999999964,0.001079,0.07211,-0.0032435000000000033,-0.001079,-0.116469,-0.3923365,-0.050155000000000005,0.117821,-0.4195765,-0.029731,-0.119959,-0.7768665,-0.046928000000000004,0.121291,-0.7814365,-0.044471000000000004
119,0.003937499999999997,0.7214175,0.012848,-0.14238150000000002,0.5109475,0.029047,-0.2363315,0.7459375,-0.039781,0.1435185,0.4923775,0.025707,0.25500849999999997,0.7435275,-0.024525,-0.2733815,0.9444875,-0.095753,0.2784785,0.9457675,-0.079879,-0.07224549999999999,0.003429500000000002,0.001124,0.07224549999999999,-0.003429499999999995,-0.001124,-0.11684150000000001,-0.3986325,-0.038986,0.11581849999999999,-0.4284925,-0.017414,-0.1201815,-0.7824625,-0.0397,0.12116849999999998,-0.7882625,-0.039292
120,0.004695000000000002,0.7206145,0.016423,-0.14227499999999998,0.5102945,0.031868999999999995,-0.235255,0.7468845,-0.034436,0.14391500000000002,0.49168449999999997,0.028625,0.255035,0.7427245,-0.019135,-0.271385,0.9458145,-0.08740999999999999,0.278455,0.9449745,-0.073134,-0.07248,0.0035704999999999973,0.0011669999999999996,0.07248,-0.0035704999999999973,-0.0011670000000000005,-0.116965,-0.4002155,-0.032672,0.115035,-0.4295755,-0.010943999999999999,-0.120125,-0.7836855,-0.035047,0.12127500000000001,-0.7907455,-0.036015
121,0.005653499999999997,0.720275,0.0196205,-0.14192849999999999,0.510095,0.0342825,-0.2342185,0.747315,-0.0297085,0.1445615,0.49145500000000003,0.0311555,0.25553149999999997,0.742475,-0.014288499999999999,-0.26934850000000005,0.9469249999999999,-0.0801585,0.27868149999999997,0.944735,-0.0670675,-0.07294049999999999,0.003693000000000002,0.0012595000000000002,0.07294049999999999,-0.003693000000000002,-0.0012595000000000002,-0.1175485,-0.40096499999999996,-0.027089500000000002,0.1144915,-0.43010499999999996,-0.0053005,-0.1202385,-0.7844150000000001,-0.0310225,0.12144150000000001,-0.792575,-0.0332135
122,0.006530499999999998,0.720125,0.0224935,-0.1416075,0.5100049999999999,0.036394499999999996,-0.23337750000000002,0.747705,-0.0253815,0.1451825,0.49146499999999993,0.033479499999999995,0.2560325,0.742405,-0.0097515,-0.2676675,0.947815,-0.0739355,0.2788725,0.944715,-0.0613595,-0.0733525,0.003802,0.001341499999999999,0.0733525,-0.003802,-0.0013415000000000007,-0.11827750000000001,-0.40115500000000004,-0.022123500000000004,0.11393249999999999,-0.430465,-0.0002675000000000004,-0.12051750000000001,-0.784945,-0.0269425,0.1216125,-0.793535,-0.031009500000000002
123,0.007461500000000006,0.719937,0.0246905,-0.1408105,0.5092669999999999,0.0379395,-0.2325405,0.747927,-0.0218015,0.1459195,0.49158700000000005,0.0353065,0.2566995,0.741717,-0.005742499999999999,-0.2660605,0.9485269999999999,-0.06851049999999999,0.2793295,0.9437070000000001,-0.056365500000000006,-0.07362250000000001,0.0037949999999999998,0.0015265,0.07362250000000001,-0.0037949999999999998,-0.0015265,-0.11925049999999998,-0.400303,-0.0179755,0.11372950000000001,-0.429753,0.0038094999999999995,-0.1207905,-0.784913,-0.0234995,0.12194950000000002,-0.7944929999999999,-0.0293155
124,0.0083185,0.719411,0.0266355,-0.14006849999999998,0.508521,0.039288500000000004,-0.23184849999999999,0.747921,-0.018706499999999997,0.14662150000000002,0.491441,0.0369565,0.25720149999999997,0.740471,-0.002127499999999999,-0.26479850000000005,0.948661,-0.06383749999999999,0.2799215,0.9419109999999999,-0.052225499999999994,-0.0738625,0.0037920000000000037,0.0017475000000000008,0.0738625,-0.0037919999999999968,-0.001747499999999999,-0.12005849999999998,-0.40002899999999997,-0.0145675,0.1136915,-0.429729,0.007031500000000001,-0.1210785,-0.7849090000000001,-0.020753499999999998,0.12223149999999999,-0.795489,-0.0276815
125,0.009069500000000001,0.7187195,0.0283185,-0.1394395,0.5077495,0.0404285,-0.23133949999999998,0.7479195,-0.0160665,0.14721050000000002,0.4911095,0.0384115,0.2577005,0.7389495,0.0010155000000000008,-0.2639695,0.9486595,-0.0601565,0.2805205,0.9401295,-0.048437499999999994,-0.0740425,0.003792500000000004,0.0020015,0.0740425,-0.0037924999999999973,-0.0020015,-0.12076949999999999,-0.3999905,-0.011876499999999998,0.1137505,-0.42914050000000004,0.009239500000000001,-0.12139950000000001,-0.7847005,-0.018412500000000002,0.1224805,-0.7964305,-0.026274500000000003
126,0.009698499999999994,0.718176,0.029543,-0.1389265,0.507196,0.041262,-0.2309965,0.748146,-0.013877999999999998,0.1476635,0.49085599999999996,0.039567000000000005,0.2581535,0.737856,0.0035720000000000005,-0.2633765,0.948886,-0.057175000000000004,0.2810935,0.939206,-0.045,-0.0741765,0.003935000000000001,0.002217000000000002,0.0741765,-0.003935000000000001,-0.0022170000000000002,-0.12136649999999999,-0.399654,-0.010116,0.1138035,-0.428514,0.010554000000000001,-0.1217165,-0.784114,-0.016808999999999998,0.12264349999999999,-0.7971739999999999,-0.02534
127,0.010218999999999999,0.7177855,0.030199,-0.13857200000000003,0.5068954999999999,0.041731000000000004,-0.230782,0.7483655,-0.012659,0.148028,0.49071549999999997,0.040376,0.258548,0.7373455,0.0057620000000000015,-0.263212,0.9493355,-0.055610999999999994,0.28161800000000003,0.9388255,-0.042226,-0.074272,0.0040535000000000015,0.002275000000000001,0.074272,-0.0040535000000000015,-0.0022749999999999992,-0.12153199999999999,-0.3989045,-0.009956999999999997,0.113938,-0.4275945,0.010663000000000002,-0.12211200000000001,-0.7836845,-0.015979,0.122648,-0.7976745,-0.024800999999999997
128,0.010569000000000002,0.7177855,0.030310000000000004,-0.138576,0.5068954999999999,0.041829,-0.23063599999999998,0.7482755,-0.012554999999999998,0.14816400000000002,0.49071549999999997,0.040564,0.258794,0.7373455,0.006450000000000001,-0.263076,0.9491555,-0.055507,0.282054,0.9388255,-0.041340999999999996,-0.074274,0.0040535000000000015,0.002326,0.074274,-0.0040535000000000015,-0.002326,-0.12153599999999998,-0.3985745,-0.009858999999999998,0.11393400000000001,-0.4273845,0.010761,-0.122146,-0.7834645,-0.015205999999999999,0.12262400000000001,-0.7976745,-0.024378999999999998
129,0.011009999999999997,0.7177855,0.030461500000000002,-0.138541,0.5068954999999999,0.0419655,-0.230491,0.7481955,-0.012414499999999998,0.14832900000000002,0.49071549999999997,0.040704500000000005,0.25930899999999996,0.7373455,0.0068765000000000015,-0.26262100000000005,0.9489355,-0.0553555,0.282669,0.9388255,-0.0411835,-0.07427500000000001,0.0040535000000000015,0.0023485000000000016,0.07427500000000001,-0.0040535000000000015,-0.0023485,-0.12154099999999998,-0.3985745,-0.009724499999999997,0.113929,-0.4270445,0.010895500000000002,-0.12218099999999998,-0.7834645,-0.014182499999999997,0.122619,-0.7976745,-0.0242445
130,0.011596500000000006,0.7177855,0.030622,-0.1384965,0.5068954999999999,0.042106000000000005,-0.2303565,0.7480855,-0.012270999999999997,0.1484935,0.49071549999999997,0.04085,0.2600435,0.7373455,0.007169000000000001,-0.2620465,0.9486755,-0.05519500000000001,0.28339349999999996,0.9388255,-0.041017,-0.0742755,0.0040535000000000015,0.0023750000000000004,0.0742755,-0.0040535000000000015,-0.0023749999999999986,-0.12154649999999997,-0.3985745,-0.009585999999999997,0.1139335,-0.4266945,0.010564,-0.12221649999999998,-0.7834645,-0.01327,0.12261350000000001,-0.7976745,-0.02412
131,0.012176500000000002,0.7178990000000001,0.0303255,-0.1387595,0.507379,0.0422685,-0.2305295,0.7474190000000001,-0.012211499999999998,0.1483305,0.49139900000000003,0.0413045,0.2607605,0.736799,0.0076575,-0.2623095,0.947729,-0.0563395,0.2842605,0.938299,-0.0405235,-0.0743055,0.003979999999999997,0.0023155,0.0743055,-0.003979999999999997,-0.0023155,-0.12158950000000002,-0.39841099999999996,-0.0094795,0.1142405,-0.427211,0.009902500000000002,-0.12236949999999999,-0.783941,-0.012814500000000001,0.1226505,-0.797511,-0.023657499999999998
