sb224sc-HT22-VT27/4dt907/src/ml-research/a11/datafiles/kinect_good_preprocessed_A9_mediapipe/A30_kinect_mirrored.csv
FrameNo,nose_3d_x,nose_3d_y,nose_3d_z,left_shoulder_3d_x,left_shoulder_3d_y,left_shoulder_3d_z,left_elbow_3d_x,left_elbow_3d_y,left_elbow_3d_z,right_shoulder_3d_x,right_shoulder_3d_y,right_shoulder_3d_z,right_elbow_3d_x,right_elbow_3d_y,right_elbow_3d_z,left_wrist_3d_x,left_wrist_3d_y,left_wrist_3d_z,right_wrist_3d_x,right_wrist_3d_y,right_wrist_3d_z,left_hip_3d_x,left_hip_3d_y,left_hip_3d_z,right_hip_3d_x,right_hip_3d_y,right_hip_3d_z,left_knee_3d_x,left_knee_3d_y,left_knee_3d_z,right_knee_3d_x,right_knee_3d_y,right_knee_3d_z,left_ankle_3d_x,left_ankle_3d_y,left_ankle_3d_z,right_ankle_3d_x,right_ankle_3d_y,right_ankle_3d_z
41,0.997271,0.723617,0.0545355,0.853575,0.492577,0.0482735,0.757875,0.740397,0.0282084999999999,1.139925,0.508327,0.0583625,1.228795,0.758007,0.0356045,0.736005,0.952707,-0.0039104999999999,1.245925,0.983687,0.0040245,0.926475,-0.002626,-0.0047525,1.073525,0.0026259999999999,0.0047525,0.892205,-0.434173,0.0078955,1.126025,-0.4060829999999999,-0.0048605,0.8839450000000001,-0.791163,-0.0154605,1.131075,-0.775473,-0.0033004999999999
42,0.9975550000000001,0.7235790000000001,0.053663,0.8537430000000001,0.4927290000000001,0.047876,0.7573230000000001,0.7405590000000001,0.02752,1.1401029999999999,0.508669,0.057876,1.229273,0.757559,0.034408,0.735283,0.952009,-0.0056299999999999,1.246593,0.985009,0.000857,0.926383,-0.002581,-0.0047369999999999,1.073617,0.002581,0.0047369999999999,0.891873,-0.434851,0.007053,1.125903,-0.406721,-0.005553,0.883673,-0.7915409999999999,-0.0164209999999999,1.131113,-0.777011,-0.0049429999999999
43,0.997792,0.7238455,0.052418,0.853857,0.4930854999999999,0.047097,0.756637,0.7409255,0.026311,1.1402169999999998,0.5089055,0.056862,1.229887,0.7575855,0.032207,0.734457,0.9514955,-0.0079999999999999,1.247087,0.9851355,-0.0028679999999999,0.9262960000000001,-0.0025364999999999,-0.0047359999999999,1.073704,0.0025365,0.004736,0.891477,-0.4355045,0.00557,1.125637,-0.4071945,-0.0065859999999999,0.883557,-0.7919445,-0.0175509999999999,1.131127,-0.7784145,-0.0070249999999999
44,0.997915,0.7242135000000001,0.0508615,0.853853,0.4935734999999999,0.0460005,0.755743,0.7414935,0.0245425,1.140213,0.5092835,0.0555645,1.2303829999999998,0.7579235000000001,0.0294105,0.733323,0.9510835,-0.0111105,1.247423,0.9850135,-0.0072025,0.9262400000000001,-0.0025185,-0.0048144999999999,1.0737599999999998,0.0025185,0.0048144999999999,0.890943,-0.4359665,0.0033754999999999,1.125243,-0.4076565,-0.0080345,0.883493,-0.7920665,-0.0191605,1.130903,-0.7793565,-0.0092845
45,0.9979705,0.7243635,0.0490035,0.8537805,0.4940634999999999,0.0446215,0.7547805,0.7420435000000001,0.0224355,1.1401505,0.5097135,0.0540315,1.2307905,0.7581135,0.0260125,0.7319105,0.9506235,-0.0150215,1.2477105,0.9850135,-0.0123025,0.9262315,-0.0025185,-0.0050014999999999,1.0737685,0.0025185,0.0050015,0.8903004999999999,-0.4362265,0.0006104999999999,1.1247305,-0.4084465,-0.0100195,0.8834105,-0.7920665,-0.0210515,1.1306105,-0.7805664999999999,-0.0118594999999999
46,0.998005,0.7243635,0.046704,0.8537250000000001,0.4942534999999999,0.042935,0.753725,0.7420435000000001,0.01983,1.140235,0.5098035000000001,0.052168,1.230745,0.7578335,0.022096,0.730395,0.9499135,-0.019595,1.247855,0.9850135,-0.01822,0.92623,-0.0025185,-0.005025,1.0737700000000001,0.0025185,0.005025,0.889655,-0.4367565,-0.0029,1.124175,-0.4098965,-0.0126609999999999,0.883305,-0.7920665,-0.023329,1.130485,-0.7813065,-0.014566
47,0.9980285,0.724378,0.0439205,0.8536485,0.494258,0.0410205,0.7524985,0.742058,0.0166014999999999,1.1403085,0.509718,0.0500305,1.2305884999999999,0.757378,0.0175015,0.7287485,0.949208,-0.0249845,1.2478185,0.984928,-0.0246675,0.9262265000000001,-0.0025179999999999,-0.0049635,1.0737735,0.0025179999999999,0.0049634999999999,0.8889785,-0.437822,-0.0070985,1.1235785,-0.411552,-0.0159375,0.8831785,-0.792792,-0.0258995,1.1303385,-0.7823220000000001,-0.0176615
48,0.9979945000000001,0.7246525,0.0404459999999999,0.8535475000000001,0.4945225,0.038533,0.7509775,0.7423225,0.0122509999999999,1.1403375,0.5099125,0.0473699999999999,1.2303775,0.7566525000000001,0.0117169999999999,0.7269475000000001,0.9486525,-0.031543,1.2475475,0.9840025,-0.033152,0.9261435000000001,-0.0025065,-0.00492,1.0738565,0.0025065,0.0049199999999999,0.8882375000000001,-0.4387875,-0.012121,1.1229475,-0.4146275,-0.020758,0.8829875000000001,-0.7933875,-0.029163,1.1301475,-0.7838575,-0.022186
49,0.9978665000000001,0.724735,0.0360345,0.8533554999999999,0.495405,0.0352555,0.7494755,0.742625,0.0064245,1.1403355,0.510765,0.0439405,1.2301255,0.754675,0.0047225,0.7247055,0.947425,-0.0399955,1.2470755,0.982185,-0.0439065,0.9260485,-0.0024889999999999,-0.0047665,1.0739515,0.0024889999999999,0.0047665,0.8872255,-0.4396949999999999,-0.0184804999999999,1.1222455,-0.417465,-0.0269545,0.8829655,-0.793755,-0.0335585,1.1297955,-0.784075,-0.0274374999999999
50,0.99759,0.7236565,0.0302175,0.85297,0.4963365,0.0312665,0.74769,0.7409265,-0.0011884999999999,1.14015,0.5119265000000001,0.0395605,1.22962,0.7516965,-0.0042304999999999,0.72202,0.9455265,-0.0511245,1.24627,0.9794365000000002,-0.0575885,0.925923,-0.0024194999999999,-0.0045124999999999,1.074077,0.0024195,0.0045124999999999,0.88618,-0.4404135,-0.0275785,1.12126,-0.4199235,-0.0362785,0.8829200000000001,-0.7935935,-0.0392605,1.12928,-0.7845034999999999,-0.0346805
51,0.997168,0.7224714999999999,0.02416,0.852828,0.4961715,0.027122,0.745808,0.7389215,-0.0091089999999999,1.139828,0.5124815,0.035045,1.228968,0.7491515,-0.0135759999999999,0.719338,0.9440115,-0.062703,1.245288,0.9767715,-0.071642,0.925766,-0.0022845,-0.004281,1.074234,0.0022845,0.004281,0.885318,-0.4408185,-0.038152,1.120348,-0.4219785,-0.046698,0.882738,-0.7925085000000001,-0.045391,1.128768,-0.7836285000000001,-0.04231
52,0.996711,0.7212925,0.0180225,0.852732,0.4958424999999999,0.0229655,0.744122,0.7373925,-0.0170405,1.1394719999999998,0.5127225,0.0306175,1.228152,0.7470525,-0.0227535,0.7169220000000001,0.9428625,-0.0744505,1.244242,0.9742825,-0.0857705,0.925567,-0.0021585,-0.0039735,1.074433,0.0021585,0.0039735,0.884412,-0.4403275,-0.0491584999999999,1.1193719999999998,-0.4228175,-0.0578014999999999,0.882492,-0.7904375,-0.0515434999999999,1.128282,-0.7812775,-0.0493795
53,0.9960970000000001,0.7190650000000001,0.011483,0.852527,0.495485,0.018349,0.742557,0.7347250000000001,-0.025346,1.138937,0.5135149999999999,0.025889,1.227147,0.744945,-0.032447,0.714757,0.941685,-0.087004,1.242977,0.970575,-0.1012599999999999,0.9252710000000001,-0.002085,-0.0034599999999999,1.0747289999999998,0.0020849999999999,0.00346,0.883287,-0.439135,-0.061679,1.118097,-0.422885,-0.0706369999999999,0.8822570000000001,-0.787155,-0.058459,1.127827,-0.777625,-0.057184
54,0.9954445000000001,0.7167705,0.0048994999999999,0.8522965,0.4947005,0.0137395,0.7410565,0.7323505,-0.0339975,1.1383765000000001,0.5129905,0.0212635,1.2259765,0.7420905,-0.0420974999999999,0.7128665000000001,0.9417205,-0.0995945,1.2414965,0.9678605,-0.1167545,0.9249944999999999,-0.0020675,-0.0028135,1.0750055,0.0020675,0.0028135,0.8820665,-0.4364194999999999,-0.0749435,1.1167565,-0.4208395,-0.0838935,0.8821265000000001,-0.7821695000000001,-0.0653635,1.1273265000000001,-0.7722495,-0.0650915
55,0.9946385,0.714589,-0.0021765,0.8520795,0.4937789999999999,0.0085015,0.7397395,0.729449,-0.0436015,1.1376795,0.512649,0.0157954999999999,1.2243495,0.7374890000000001,-0.0523455,0.7114795,0.942629,-0.1134645,1.2396295,0.965909,-0.1333645,0.9245305,-0.0019529999999999,-0.0024185,1.0754695,0.0019529999999999,0.0024185,0.8810395,-0.431251,-0.0893424999999999,1.1152495,-0.4164609999999999,-0.0983265,0.8817895,-0.7745609999999999,-0.0724455,1.1267195,-0.763861,-0.0728455
56,0.9938965000000001,0.7114725,-0.009092,0.8519665000000001,0.4926025,0.003413,0.7386065000000002,0.7260924999999999,-0.053189,1.1370665,0.5121625,0.010476,1.2227065,0.7327024999999999,-0.062242,0.7101365,0.9435925,-0.127429,1.2376765,0.9642025,-0.149999,0.9239995,-0.0019305,-0.0021259999999999,1.0760005,0.0019305,0.002126,0.8803065,-0.4249075,-0.103862,1.1137365,-0.4111675,-0.113159,0.8814765,-0.7657375000000001,-0.0797799999999999,1.1262064999999999,-0.7545375,-0.0805029999999999
57,0.993195,0.708141,-0.0155939999999999,0.8518749999999999,0.491661,-0.0017899999999999,0.7375050000000001,0.721971,-0.062237,1.136445,0.511951,0.005297,1.2210349999999999,0.727461,-0.071541,0.708845,0.944491,-0.1406339999999999,1.235665,0.963511,-0.1651139999999999,0.923544,-0.001769,-0.0018859999999999,1.076456,0.0017689999999999,0.001886,0.879865,-0.418129,-0.118604,1.112315,-0.403829,-0.127274,0.881165,-0.755919,-0.086653,1.1256249999999999,-0.744359,-0.087982
58,0.9926415,0.70526,-0.021842,0.8518825000000001,0.48967,-0.006508,0.7364325,0.71838,-0.071079,1.1356925,0.5098199999999999,0.000614,1.2198425,0.72473,-0.080339,0.7076325,0.94046,-0.152401,1.2335525,0.95691,-0.178031,0.9229944999999999,-0.0016369999999999,-0.0016809999999999,1.0770055,0.0016369999999999,0.001681,0.8799325,-0.4089899999999999,-0.133551,1.1108825,-0.3953,-0.142011,0.8809425,-0.74291,-0.093103,1.1249825,-0.73158,-0.094573
59,0.9922625,0.7030175,-0.0267779999999999,0.8522275,0.4888575,-0.0101419999999999,0.7356075,0.7161175,-0.078721,1.1350075,0.5080275,-0.0029719999999999,1.2187275,0.7224674999999999,-0.087539,0.7068175,0.9361875,-0.161937,1.2325875,0.9516675,-0.187817,0.9224755,-0.0014155,-0.0016659999999999,1.0775245,0.0014155,0.001666,0.8803875,-0.3953224999999999,-0.146627,1.1096775,-0.3823425,-0.154257,0.8809375,-0.7292425,-0.098473,1.1242775,-0.7183425,-0.099698
60,0.9917225000000001,0.7003255,-0.0317035,0.8523435,0.4876055,-0.0136265,0.7351835,0.7146055,-0.0867005,1.1344435,0.5063555,-0.0064794999999999,1.2176735,0.7202555,-0.0947694999999999,0.7063135,0.9319755,-0.1715735,1.2315135,0.9468655,-0.1971035,0.9219585,-0.0015114999999999,-0.0016665,1.0780415,0.0015115,0.0016665,0.8810935,-0.3806644999999999,-0.1590035,1.1084835,-0.3690644999999999,-0.1659735,0.8812635,-0.7145845,-0.1038045,1.1237535,-0.7042145,-0.1050145
61,0.991403,0.697944,-0.0378234999999999,0.852415,0.486214,-0.0186075,0.7352650000000001,0.710564,-0.0962485,1.133915,0.504784,-0.0111254999999999,1.216675,0.717564,-0.1031305,0.706315,0.927594,-0.1829675,1.230465,0.942504,-0.2079275,0.92149,-0.001535,-0.0016744999999999,1.07851,0.0015349999999999,0.0016745,0.882145,-0.363136,-0.1716575,1.107305,-0.353426,-0.1778075,0.881665,-0.697056,-0.1095545,1.123155,-0.6871860000000001,-0.1112015
62,0.9909840000000001,0.6975665,-0.0484459999999999,0.852387,0.4851865,-0.028641,0.735167,0.7092065,-0.110773,1.132757,0.5015565,-0.020876,1.215537,0.7153165,-0.115655,0.706427,0.9244265,-0.199435,1.229297,0.9370765,-0.222745,0.921146,-0.0013344999999999,-0.0015609999999999,1.078854,0.0013345,0.0015609999999999,0.883547,-0.3430235,-0.190935,1.105867,-0.3350235,-0.195535,0.8818070000000001,-0.6763835,-0.119535,1.122427,-0.6672035,-0.1217179999999999
63,0.99049,0.6979150000000001,-0.05925,0.8522689999999999,0.485065,-0.039337,0.735139,0.706545,-0.126537,1.131679,0.500605,-0.031235,1.214249,0.7129449999999999,-0.129176,0.7065590000000002,0.922085,-0.218067,1.227719,0.932645,-0.238577,0.920902,-0.0011449999999999,-0.001466,1.0790980000000001,0.001145,0.0014659999999999,0.884799,-0.320715,-0.210367,1.104319,-0.314415,-0.213587,0.881889,-0.6532849999999999,-0.129793,1.121649,-0.645305,-0.132463
64,0.9901955,0.6945650000000001,-0.0704125,0.8522784999999999,0.482935,-0.0504365,0.7355585,0.7027650000000001,-0.1415785,1.1306785,0.498935,-0.0423265,1.2130885,0.7112350000000001,-0.1430095,0.7067885,0.919145,-0.2363765,1.2263485,0.928525,-0.2540765,0.9207955,-0.001195,-0.0011905,1.0792045,0.001195,0.0011904999999999,0.8857685,-0.299235,-0.2289665,1.1028784999999999,-0.294995,-0.2309565,0.8821285000000001,-0.6306750000000001,-0.1400465,1.1210485000000001,-0.623645,-0.1428825
65,0.9899585,0.6929099999999999,-0.0823475,0.8523475,0.48126,-0.0620915,0.7362075,0.69886,-0.1565835,1.1300575,0.49703,-0.0538655,1.2119375,0.7089700000000001,-0.1572845,0.7068875,0.9164,-0.2550575,1.2249775,0.92407,-0.2707374999999999,0.9204835,-0.0011099999999999,-0.0009765,1.0795165,0.0011099999999999,0.0009764999999999,0.8867775,-0.27847,-0.2472975,1.1014575,-0.27591,-0.2479475,0.8823975,-0.60812,-0.1502215,1.1199875,-0.6017299999999999,-0.1529875
66,0.9897335,0.6921249999999999,-0.094524,0.8524205000000001,0.479645,-0.073945,0.7367505,0.695905,-0.17197,1.1292805,0.492795,-0.066033,1.2107505,0.7044649999999999,-0.1716,0.7070905000000001,0.910115,-0.274344,1.2237005,0.919335,-0.287934,0.9201415,-0.000975,-0.0008519999999999,1.0798585,0.0009749999999999,0.000852,0.8875605,-0.257045,-0.2651139999999999,1.1000505,-0.256195,-0.264684,0.8826405000000002,-0.5848949999999999,-0.160438,1.1188705,-0.5792250000000001,-0.162524
67,0.989554,0.688445,-0.1067375,0.852889,0.4782349999999999,-0.0865065,0.737159,0.693375,-0.1881535,1.128639,0.489825,-0.0785775,1.2099090000000001,0.6990350000000001,-0.1862235,0.7071890000000001,0.908505,-0.2939334999999999,1.222259,0.919855,-0.3067535,0.919687,-0.000875,-0.0006574999999999,1.080313,0.0008749999999999,0.0006575,0.887699,-0.234235,-0.2826134999999999,1.098509,-0.235325,-0.2808935,0.882699,-0.560835,-0.1704864999999999,1.117229,-0.5561050000000001,-0.1717645
68,0.989481,0.6840999999999999,-0.120081,0.8537850000000001,0.47437,-0.101069,0.738375,0.6901200000000001,-0.206566,1.127875,0.48584,-0.093167,1.208935,0.69469,-0.203926,0.708005,0.90655,-0.316496,1.220645,0.91576,-0.328726,0.919225,-0.0009399999999999,-0.000432,1.080775,0.0009399999999999,0.0004319999999999,0.887625,-0.2025699999999999,-0.301096,1.096355,-0.2057399999999999,-0.298506,0.883345,-0.52884,-0.181069,1.115035,-0.52524,-0.180977
69,0.989513,0.680375,-0.1331595,0.854574,0.472155,-0.1149545,0.7397940000000001,0.6841649999999999,-0.2238305,1.126994,0.482255,-0.1071595,1.207954,0.686125,-0.2208405,0.708834,0.902505,-0.3387805,1.219034,0.911295,-0.3518805,0.918902,-0.0008449999999999,-0.0002484999999999,1.081098,0.0008449999999999,0.0002484999999999,0.887224,-0.169885,-0.3185305,1.09391,-0.175315,-0.3154505,0.8840840000000001,-0.496865,-0.1908255,1.1122539999999999,-0.494135,-0.1897035
70,0.9900035000000001,0.675665,-0.144079,0.8555524999999999,0.470025,-0.127207,0.7407325,0.678435,-0.23852,1.1260625,0.478265,-0.120064,1.2078025000000001,0.680615,-0.23557,0.7099225,0.896695,-0.3581499999999999,1.2182925,0.908315,-0.3707,0.9185565,-0.0006649999999999,-0.0001599999999999,1.0814435,0.000665,0.00016,0.8868725000000001,-0.1347749999999999,-0.33433,1.0917655,-0.1417749999999999,-0.3309999999999999,0.8847925000000001,-0.4633549999999999,-0.199236,1.1093425,-0.4617549999999999,-0.1974719999999999
71,0.9905835,0.670125,-0.150107,0.8565965,0.468425,-0.134353,0.7421265,0.6719249999999999,-0.247825,1.1252865,0.4750049999999999,-0.127894,1.2081265,0.675495,-0.245595,0.7110765,0.890855,-0.371185,1.2177365,0.907725,-0.384425,0.9182165,-0.000515,-0.0002449999999999,1.0817835,0.0005149999999999,0.000245,0.8864065,-0.102535,-0.3407449999999999,1.0900035,-0.110295,-0.3381849999999999,0.8855065,-0.433525,-0.202583,1.1065665,-0.432845,-0.200498
72,0.9911585,0.66401,-0.155901,0.8576465,0.465216,-0.1413869999999999,0.7435065000000001,0.66791,-0.25504,1.1245365,0.47184,-0.135387,1.2078665,0.67083,-0.25596,0.7120865000000001,0.8859999999999999,-0.38188,1.2171064999999999,0.90174,-0.39704,0.9178765,-0.0007599999999999,-0.0002899999999999,1.0821235,0.0007599999999999,0.0002899999999999,0.8858865000000001,-0.07088,-0.34533,1.0881265,-0.07937,-0.3439,0.8863165000000001,-0.4048799999999999,-0.205528,1.1036865,-0.40457,-0.203334
73,0.9917275,0.66171,-0.160465,0.8586914999999999,0.463971,-0.148055,0.7447515,0.66564,-0.26148,1.1241315,0.4689959999999999,-0.142184,1.2078815,0.6650499999999999,-0.2652799999999999,0.7130215,0.8792800000000001,-0.39144,1.2162815,0.89071,-0.4085,0.9178255,-0.00079,-0.00049,1.0821745,0.00079,0.00049,0.8854315,-0.0397,-0.34796,1.0863625,-0.0482799999999999,-0.34785,0.8856315,-0.37711,-0.208139,1.1010015,-0.37694,-0.205542
74,0.9921670000000001,0.65707,-0.164003,0.859575,0.462221,-0.154293,0.745455,0.66336,-0.267375,1.124005,0.465591,-0.149058,1.208335,0.66065,-0.2738049999999999,0.713525,0.8714,-0.3996349999999999,1.214525,0.88244,-0.4181249999999999,0.917588,-0.00058,-0.0005749999999999,1.082412,0.0005799999999999,0.000575,0.884495,-0.0107599999999999,-0.349915,1.084238,-0.01933,-0.351125,0.885815,-0.34855,-0.210356,1.098045,-0.3474399999999999,-0.2073749999999999
75,0.992612,0.651365,-0.167022,0.86038,0.460856,-0.160038,0.74664,0.656205,-0.272345,1.12388,0.463782,-0.155132,1.20893,0.657805,-0.281605,0.71377,0.866865,-0.406645,1.2128199999999998,0.8745149999999999,-0.426555,0.917401,-0.0003949999999999,-0.0005049999999999,1.082599,0.0003949999999999,0.000505,0.88333,0.017985,-0.351415,1.082137,0.0092249999999999,-0.353745,0.8861400000000001,-0.3223049999999999,-0.212454,1.0951499999999998,-0.3186449999999999,-0.208824
76,0.9927370000000001,0.6474799999999999,-0.169531,0.861498,0.4579689999999999,-0.164965,0.747988,0.64918,-0.27541,1.123868,0.461806,-0.160452,1.209758,0.6559999999999999,-0.28845,0.713488,0.86435,-0.41288,1.211268,0.8686799999999999,-0.43329,0.917439,-0.0003,-0.00031,1.082561,0.0002999999999999,0.0003099999999999,0.882158,0.04546,-0.35252,1.080238,0.0366599999999999,-0.3549299999999999,0.887898,-0.29829,-0.214494,1.092638,-0.29185,-0.210015
77,0.9927125,0.6447100000000001,-0.171118,0.8621665000000001,0.4567850000000001,-0.168106,0.7486065,0.6434400000000001,-0.276465,1.1237465,0.4604790000000001,-0.163931,1.2100365,0.6536700000000001,-0.292245,0.7125965000000001,0.8631600000000001,-0.415835,1.2100565,0.8670100000000001,-0.437285,0.9175985,-0.0001599999999999,-0.000225,1.0824015,0.00016,0.000225,0.8811465,0.06542,-0.353495,1.0790885,0.05597,-0.355905,0.8909675,-0.2824199999999999,-0.215834,1.0892765,-0.2761499999999999,-0.216934
78,0.9923155,0.6419400000000001,-0.172151,0.8628155,0.455565,-0.170847,0.7490654999999999,0.6399600000000001,-0.277455,1.1235655,0.459237,-0.167107,1.2106055,0.65505,-0.295605,0.7116555,0.86368,-0.417555,1.2092055,0.8650599999999999,-0.440425,0.9178265,6.0000000000060005e-05,-0.000115,1.0821735,-5.999999999994898e-05,0.000115,0.8801955,0.08303,-0.354285,1.0779135,0.07311,-0.356825,0.8930305000000001,-0.2683,-0.21691,1.0864035,-0.26232,-0.223715
79,0.9915585,0.63999,-0.172891,0.8633495,0.4543339999999999,-0.172729,0.7491795,0.638354,-0.27824,1.1232095,0.4587329999999999,-0.16918,1.2103395,0.6534899999999999,-0.29821,0.7107795,0.86578,-0.41875,1.2083694999999999,0.8607499999999999,-0.44244,0.9180645000000001,0.0001299999999999,-9.999999999996125e-06,1.0819355,-0.00013,9.999999999996125e-06,0.8793895,0.0947599999999999,-0.35389,1.0768095,0.0846899999999999,-0.35755,0.8943905,-0.25939,-0.218255,1.0837314999999998,-0.25368,-0.23033
80,0.9907475,0.637731,-0.173033,0.8636695,0.45227,-0.173837,0.7491595,0.6360290000000001,-0.2778199999999999,1.1228395,0.458604,-0.170336,1.2094695,0.651759,-0.30017,0.7099195,0.86685,-0.4192,1.2075195,0.8563400000000001,-0.44258,0.9183785,2.999999999997449e-05,9.000000000000674e-05,1.0816215,-2.999999999997449e-05,-8.999999999999286e-05,0.8783895,0.10527,-0.35135,1.0757815,0.09516,-0.35606,0.8935135,-0.2512,-0.2189749999999999,1.0810245,-0.24595,-0.2368699999999999
81,0.990348,0.635452,-0.173091,0.864126,0.45117,-0.174291,0.7493460000000001,0.6319300000000001,-0.27721,1.122486,0.4572800000000001,-0.171266,1.209306,0.6501570000000001,-0.30055,0.709546,0.86548,-0.41936,1.207016,0.85557,-0.44305,0.918583,0.00033,0.0001799999999999,1.081417,-0.0003299999999999,-0.0001799999999999,0.8778859999999999,0.11311,-0.34854,1.075268,0.10294,-0.3542,0.893161,-0.2454899999999999,-0.22236,1.078825,-0.2407599999999999,-0.24392
82,0.990053,0.632942,-0.17353,0.8645970000000001,0.45005,-0.174985,0.7495069999999999,0.628213,-0.27734,1.122157,0.45612,-0.172386,1.208527,0.649815,-0.30108,0.7091069999999999,0.86602,-0.4198699999999999,1.206677,0.85884,-0.44316,0.918733,0.00056,0.0002899999999999,1.081267,-0.00056,-0.0002899999999999,0.877597,0.12034,-0.3458,1.074917,0.10994,-0.35224,0.892709,-0.24058,-0.22719,1.076747,-0.23614,-0.25127
83,0.989808,0.63262,-0.173837,0.86478,0.44891,-0.175365,0.7498,0.6250859999999999,-0.277125,1.12205,0.4558299999999999,-0.172794,1.20772,0.6483949999999999,-0.301505,0.70886,0.8675599999999999,-0.4202249999999999,1.20636,0.858,-0.442925,0.9188540000000001,0.00046,0.000375,1.081146,-0.00046,-0.000375,0.87731,0.1245999999999999,-0.343435,1.074498,0.1141299999999999,-0.350445,0.894987,-0.23856,-0.228595,1.07469,-0.23446,-0.258175
84,0.989345,0.6331910000000001,-0.174611,0.8649439999999999,0.4465100000000001,-0.176054,0.749684,0.62641,-0.277255,1.121914,0.45615,-0.173469,1.207604,0.6480520000000001,-0.301875,0.708394,0.869,-0.4211049999999999,1.205854,0.8584700000000001,-0.443835,0.918923,0.00016,0.0004249999999999,1.081077,-0.0001599999999999,-0.000425,0.877004,0.12814,-0.341805,1.07405,0.11741,-0.349395,0.89723,-0.2360399999999999,-0.230015,1.072946,-0.2336399999999999,-0.258775
85,0.989092,0.633821,-0.1746,0.864932,0.4455399999999999,-0.17611,0.749672,0.6270399999999999,-0.277255,1.121892,0.4567799999999999,-0.173649,1.207582,0.648682,-0.3020549999999999,0.7080919999999999,0.8696299999999999,-0.421085,1.205482,0.85806,-0.444565,0.9189350000000001,-0.00019,0.0004249999999999,1.081065,0.0001899999999999,-0.000425,0.876732,0.1284499999999999,-0.341705,1.073769,0.1174999999999999,-0.349375,0.898823,-0.23604,-0.230485,1.071521,-0.23613,-0.2587049999999999
86,0.9886525,0.633851,-0.1745769999999999,0.8648765,0.4445,-0.176095,0.7496165,0.62707,-0.27725,1.1216665,0.45681,-0.173808,1.2072465000000001,0.6487120000000001,-0.30204,0.7077964999999999,0.8696600000000001,-0.42107,1.2052464999999999,0.85787,-0.44508,0.9189905,-0.0002199999999999,0.00042,1.0810095,0.0002199999999999,-0.00042,0.8761765,0.12827,-0.34168,1.0736245,0.11701,-0.3493699999999999,0.8994815,-0.2360099999999999,-0.23073,1.0714445,-0.2360999999999999,-0.25916
87,0.9879770000000001,0.633851,-0.1745519999999999,0.864735,0.4445,-0.176323,0.749375,0.62707,-0.27724,1.121295,0.45681,-0.173922,1.207115,0.6487120000000001,-0.30204,0.707445,0.8696600000000001,-0.42108,1.204995,0.85787,-0.44532,0.9189710000000001,-0.0002199999999999,0.00042,1.081029,0.0002199999999999,-0.00042,0.875615,0.12826,-0.3416599999999999,1.073493,0.11681,-0.3493699999999999,0.898363,-0.2360099999999999,-0.23069,1.071313,-0.2360999999999999,-0.25916
88,0.986717,0.635175,-0.174692,0.864036,0.4445,-0.175955,0.748066,0.629279,-0.277695,1.120766,0.4573900000000001,-0.173646,1.205846,0.6491840000000001,-0.301905,0.707056,0.8699000000000001,-0.420675,1.2047459999999999,0.85787,-0.444905,0.91889,-0.0002199999999999,0.0003349999999999,1.08111,0.0002199999999999,-0.000335,0.874926,0.12828,-0.341335,1.073306,0.11676,-0.349245,0.898618,-0.2360099999999999,-0.226425,1.0711369999999998,-0.2360999999999999,-0.258815
89,0.9853220000000001,0.637762,-0.174461,0.863146,0.4441549999999999,-0.175205,0.746556,0.632535,-0.277955,1.120156,0.458295,-0.17291,1.204186,0.650671,-0.301555,0.706576,0.870085,-0.420065,1.204156,0.857525,-0.444615,0.9187500000000001,-0.000565,0.0002549999999999,1.0812499999999998,0.000565,-0.000255,0.874086,0.127935,-0.341265,1.073015,0.1163049999999999,-0.349415,0.896182,-0.236105,-0.225265,1.0727309999999999,-0.2345749999999999,-0.251735
90,0.9839995000000001,0.64103,-0.174359,0.8618995,0.4441149999999999,-0.174318,0.7444395000000001,0.6390929999999999,-0.279565,1.1195495,0.4588449999999999,-0.172052,1.2023395,0.6521509999999999,-0.301335,0.7060895,0.8693449999999999,-0.419385,1.2037895,0.8562749999999999,-0.444235,0.9186985,-0.000895,0.0003249999999999,1.0813015,0.0008949999999999,-0.000325,0.8731195,0.1264149999999999,-0.341955,1.0728295,0.1143049999999999,-0.350545,0.8937855000000001,-0.2373050000000001,-0.223985,1.0743495,-0.234435,-0.243915
91,0.982733,0.6442609999999999,-0.174303,0.860653,0.4431149999999999,-0.173303,0.7424030000000001,0.644511,-0.28125,1.118673,0.4626949999999999,-0.171435,1.200293,0.6536929999999999,-0.30105,0.7056630000000002,0.8672949999999999,-0.41867,1.203393,0.8540949999999998,-0.44348,0.918503,-0.001635,0.0004399999999999,1.081497,0.0016349999999999,-0.00044,0.872153,0.1229049999999998,-0.34309,1.072944,0.1105849999999998,-0.35207,0.891343,-0.2402250000000001,-0.22301,1.076089,-0.236015,-0.236
92,0.981392,0.647674,-0.174377,0.859297,0.44269,-0.1723299999999999,0.7403770000000001,0.6504179999999999,-0.28334,1.117757,0.46465,-0.1707219999999999,1.1986970000000001,0.654901,-0.30055,0.705087,0.87037,-0.41966,1.202877,0.85776,-0.4444099999999999,0.9182939999999999,-0.00211,0.00048,1.081706,0.0021099999999999,-0.0004799999999999,0.871097,0.11667,-0.34441,1.073215,0.10408,-0.3538,0.888629,-0.24553,-0.22213,1.077766,-0.24004,-0.22787
93,0.9802240000000001,0.6509309999999999,-0.174446,0.8581110000000001,0.4425549999999999,-0.17146,0.738801,0.6564289999999999,-0.285145,1.116981,0.4665299999999999,-0.170007,1.196941,0.6577649999999999,-0.300135,0.704701,0.872895,-0.420815,1.202581,0.8603449999999999,-0.4455949999999999,0.9181900000000001,-0.002625,0.0005749999999999,1.08181,0.0026249999999999,-0.000575,0.870101,0.1085149999999999,-0.346095,1.073764,0.0954849999999999,-0.355675,0.8866890000000001,-0.2521150000000001,-0.220835,1.079591,-0.245635,-0.220125
94,0.9790915000000001,0.653035,-0.175111,0.8569365000000001,0.443005,-0.171008,0.7374765,0.658485,-0.287375,1.1164665,0.466233,-0.169642,1.1970165,0.655865,-0.300105,0.7046965000000001,0.871375,-0.422415,1.2024965,0.8586050000000001,-0.446945,0.9179435,-0.002855,0.0006749999999999,1.0820565,0.002855,-0.000675,0.8692465,0.093165,-0.348395,1.0747535,0.0803849999999999,-0.357435,0.8858245000000001,-0.263405,-0.216395,1.0817425,-0.257595,-0.212346
95,0.9780765000000001,0.6548350000000001,-0.175309,0.8557775000000001,0.443506,-0.170695,0.7359074999999999,0.660965,-0.28915,1.1160075,0.466513,-0.169306,1.1958675,0.6580550000000001,-0.29976,0.7051175000000001,0.872455,-0.42301,1.2027575,0.860075,-0.44853,0.9176475,-0.0030449999999999,0.0007699999999999,1.0823525,0.0030449999999999,-0.00077,0.8682974999999999,0.0772249999999999,-0.35006,1.0760455,0.0647949999999999,-0.35864,0.8862305,-0.276355,-0.21417,1.0840175,-0.270875,-0.204789
96,0.9772495,0.6570749999999999,-0.175464,0.8546705,0.4448359999999999,-0.170552,0.7343905,0.663125,-0.290735,1.1155805,0.4661039999999999,-0.168994,1.1945105,0.6591049999999999,-0.299185,0.7055405,0.872215,-0.422675,1.2029804999999998,0.8607049999999999,-0.449235,0.9172875,-0.003075,0.0008249999999999,1.0827125,0.0030749999999999,-0.000825,0.8672305,0.0593949999999999,-0.351265,1.0775025,0.0469449999999999,-0.359345,0.8862915000000001,-0.2910950000000001,-0.212054,1.0860805,-0.2864550000000001,-0.203203
97,0.976888,0.659125,-0.175963,0.85367,0.446986,-0.17055,0.73402,0.665485,-0.291545,1.1150099999999998,0.4651599999999999,-0.168852,1.1933799999999999,0.659315,-0.298645,0.70598,0.870495,-0.4227349999999999,1.20333,0.8610450000000001,-0.450825,0.917005,-0.002865,0.0009349999999999,1.082995,0.002865,-0.000935,0.8664700000000001,0.0403449999999999,-0.350935,1.078933,0.0279149999999999,-0.358445,0.886611,-0.307445,-0.209969,1.0883999999999998,-0.303075,-0.202143
98,0.9768525,0.661045,-0.176535,0.8530375,0.44956,-0.170525,0.7340074999999999,0.668675,-0.291735,1.1144575,0.465186,-0.168661,1.1928874999999999,0.658195,-0.298255,0.7066775000000001,0.8713150000000001,-0.422595,1.2040975,0.861795,-0.452525,0.9168585,-0.0026849999999999,0.001045,1.0831415,0.0026849999999999,-0.001045,0.8653575,0.017465,-0.350015,1.0804554999999998,0.0051649999999999,-0.357655,0.8864295000000001,-0.327375,-0.207902,1.0898475,-0.3248049999999999,-0.2012459999999999
99,0.977005,0.66291,-0.176475,0.852828,0.4513429999999999,-0.170023,0.734598,0.66687,-0.290965,1.1141679999999998,0.4659529999999999,-0.168057,1.192838,0.6573199999999999,-0.297465,0.707578,0.8728499999999999,-0.421845,1.205258,0.86327,-0.451845,0.9169039999999999,-0.0024,0.001115,1.083096,0.0023999999999999,-0.001115,0.864308,-0.00641,-0.349175,1.082033,-0.01817,-0.356935,0.886524,-0.3483200000000001,-0.205873,1.091528,-0.34764,-0.200017
100,0.9773855,0.665185,-0.175421,0.8527495,0.454181,-0.168948,0.7355595000000001,0.6671750000000001,-0.28994,1.1145695,0.463831,-0.167004,1.1936395,0.6572250000000001,-0.2960399999999999,0.7086395000000001,0.877065,-0.42078,1.2068295,0.870145,-0.45062,0.9171075,-0.0018349999999999,0.0010699999999999,1.0828925,0.001835,-0.00107,0.8634094999999999,-0.0320949999999999,-0.34806,1.0841224999999999,-0.0429249999999999,-0.3559,0.8867595,-0.3721649999999999,-0.203528,1.0940595,-0.372675,-0.199062
101,0.977756,0.66916,-0.174306,0.8532299999999999,0.456742,-0.167838,0.73693,0.6676500000000001,-0.28887,1.1152799999999998,0.463644,-0.165905,1.1948599999999998,0.66001,-0.29463,0.7100299999999999,0.88,-0.4196499999999999,1.20865,0.87053,-0.44932,0.91731,-0.0014299999999999,0.001,1.08269,0.00143,-0.001,0.8628600000000001,-0.0569899999999999,-0.34656,1.086459,-0.0666899999999999,-0.35371,0.88728,-0.39556,-0.2009969999999999,1.09701,-0.3974099999999999,-0.1972269999999999
102,0.9785795,0.67379,-0.172711,0.8540085,0.4598449999999999,-0.166241,0.7387684999999999,0.66838,-0.28676,1.1165285,0.4643799999999999,-0.164329,1.1965585,0.6608499999999999,-0.29281,0.7118785000000001,0.88229,-0.41795,1.2109585,0.86969,-0.44741,0.9176725,-0.00093,0.0008699999999999,1.0823274999999999,0.0009299999999999,-0.00087,0.8627085,-0.08353,-0.34276,1.0892715,-0.09157,-0.3494,0.8883985000000001,-0.42206,-0.198201,1.1005585,-0.42468,-0.194293
103,0.979576,0.6799599999999999,-0.169809,0.854568,0.4631499999999999,-0.163052,0.7397279999999999,0.6758,-0.282995,1.117698,0.4679599999999999,-0.160705,1.198258,0.66591,-0.288315,0.7134780000000001,0.8884599999999999,-0.413715,1.213198,0.87639,-0.444535,0.918465,-0.00064,0.0008849999999999,1.081535,0.0006399999999999,-0.0008849999999999,0.862348,-0.10765,-0.335875,1.091977,-0.1148,-0.342265,0.889438,-0.44964,-0.194304,1.1039080000000001,-0.45165,-0.1910089999999999
104,0.9805855,0.685945,-0.166294,0.8550845000000001,0.466295,-0.159383,0.7406845,0.6821349999999999,-0.278075,1.1189445,0.4712149999999999,-0.156743,1.2003245,0.667035,-0.283035,0.7152345,0.8913449999999999,-0.4067849999999999,1.2160644999999999,0.880635,-0.438335,0.9192865,-0.0004149999999999,0.0007549999999999,1.0807134999999999,0.0004149999999999,-0.000755,0.8622145,-0.131255,-0.328215,1.0950215,-0.136635,-0.333995,0.8905945,-0.477335,-0.190375,1.1076545,-0.478725,-0.18782
105,0.9814240000000001,0.691175,-0.162325,0.855305,0.469315,-0.155034,0.741595,0.688695,-0.272279,1.120115,0.475135,-0.152192,1.202495,0.6689849999999999,-0.275939,0.7163550000000001,0.899575,-0.399179,1.218695,0.8830549999999999,-0.429869,0.9203560000000001,-0.000275,0.000628,1.0796439999999998,0.0002749999999999,-0.000628,0.862015,-0.153565,-0.319229,1.098056,-0.157215,-0.324439,0.8917450000000001,-0.504745,-0.185877,1.111335,-0.505285,-0.183728
106,0.982341,0.696885,-0.1570135,0.855233,0.472735,-0.1496965,0.742273,0.692795,-0.2656064999999999,1.1213229999999998,0.479135,-0.1467585,1.204643,0.669575,-0.2682765,0.717233,0.910975,-0.3906365,1.221583,0.884975,-0.4197965,0.9213870000000001,-0.000155,0.0004434999999999,1.0786129999999998,0.0001549999999999,-0.0004434999999999,0.861673,-0.174225,-0.3085865,1.1009829999999998,-0.176685,-0.3138965,0.892693,-0.531195,-0.1813175,1.114673,-0.531085,-0.1795045
107,0.9830495,0.7019850000000001,-0.1510195,0.8548375,0.475285,-0.1438145,0.7424575,0.695675,-0.2577255,1.1223975,0.484215,-0.1406925,1.2064475,0.6721250000000001,-0.2596355,0.7176175,0.919025,-0.3825155,1.2246175,0.8860349999999999,-0.4080455,0.9224545000000001,-0.0002149999999999,0.0002965,1.0775454999999998,0.000215,-0.0002964999999999,0.8617175,-0.1923849999999999,-0.2975755,1.1036875,-0.1937149999999999,-0.3029355,0.8932575,-0.5551649999999999,-0.1764445,1.1174175,-0.553995,-0.1747685
108,0.9835375,0.70712,-0.1435975,0.8540405,0.478,-0.1363695,0.7417805,0.70116,-0.2477425,1.1232605,0.48724,-0.1330945,1.2079105,0.67831,-0.2498625,0.7170004999999999,0.9278,-0.3711124999999999,1.2282004999999998,0.89205,-0.3947225,0.9234815,-0.00011,-0.0001315,1.0765185,0.0001099999999999,0.0001314999999999,0.8618505000000001,-0.21178,-0.2833725,1.1061405,-0.21221,-0.2891725,0.8936005,-0.58079,-0.1705055,1.1199005,-0.57853,-0.1683545
109,0.9841265000000001,0.71237,-0.1362924999999999,0.8534605,0.48094,-0.1292745,0.7409205000000001,0.70652,-0.2382965,1.1240205,0.49011,-0.1257315,1.2092105,0.68435,-0.2403465,0.7159805,0.93561,-0.3598365,1.2316004999999999,0.89402,-0.3812865,0.9243304999999999,3.0000000000002247e-05,-0.0004334999999999,1.0756695,-3.0000000000002247e-05,0.0004335,0.8618605000000001,-0.22766,-0.2701265,1.1082605,-0.22748,-0.2763164999999999,0.8935405,-0.60193,-0.1647745,1.1218905,-0.59957,-0.1618534999999999
110,0.985166,0.71611,-0.1287325,0.85283,0.4829099999999999,-0.1221905,0.7400800000000001,0.7116699999999999,-0.2289804999999999,1.12474,0.4927399999999999,-0.1184774999999999,1.21054,0.6884,-0.2305205,0.71435,0.93977,-0.3480105,1.2349,0.89657,-0.3673205,0.925107,1.000000000001e-05,-0.0005565,1.074893,-1.000000000001e-05,0.0005565,0.86193,-0.24245,-0.2567205,1.11016,-0.2418499999999999,-0.2630305,0.89324,-0.6220300000000001,-0.1597885,1.12374,-0.61936,-0.1552695
111,0.9863495,0.72023,-0.12163,0.8525075,0.48391,-0.115742,0.7393875000000001,0.71642,-0.21956,1.1259075,0.49695,-0.111785,1.2122375,0.69229,-0.22116,0.7127075,0.94443,-0.33636,1.2380875,0.90098,-0.35409,0.9255655,-0.00021,-0.000602,1.0744345,0.00021,0.0006019999999999,0.8633875,-0.26169,-0.24363,1.1119075,-0.25853,-0.24957,0.8937875,-0.64166,-0.1543,1.1254875,-0.6393300000000001,-0.149959
112,0.9872295,0.723496,-0.1155124999999999,0.8522905000000001,0.486186,-0.1102825,0.7393405,0.717186,-0.2107724999999999,1.1267605,0.499436,-0.1061475,1.2145905,0.6997559999999999,-0.2139325,0.7114404999999999,0.948196,-0.3261025,1.2410005,0.902976,-0.3425425,0.9259355,-0.000366,-0.0009264999999999,1.0740645,0.0003659999999999,0.0009264999999999,0.8645505,-0.278894,-0.2314025,1.1135305,-0.272534,-0.2367925,0.8939105,-0.6577040000000001,-0.1495004999999999,1.1269605,-0.655644,-0.1454885
113,0.9881395,0.7271345,-0.108935,0.8519855000000001,0.4892545,-0.104394,0.7386855,0.7217845,-0.201786,1.1276155,0.5020344999999999,-0.100172,1.2168355,0.7064845,-0.206156,0.7101755000000001,0.9530245,-0.314686,1.2438355,0.9056245,-0.329026,0.9264165,-0.0005115,-0.001285,1.0735835,0.0005114999999999,0.0012849999999999,0.8657055,-0.2958555,-0.218886,1.1148155,-0.2879355,-0.222716,0.8938355,-0.6739854999999999,-0.144187,1.1282355,-0.6722355,-0.14045
114,0.9890895,0.7289895,-0.0959925,0.8517665,0.4907395,-0.0923315,0.7378565,0.7245895,-0.1867095,1.1291665,0.5054795,-0.0876305,1.2190865,0.7133394999999999,-0.1929095,0.7093365,0.9514395,-0.2958995,1.2465865,0.9118595,-0.3098195,0.9267375,-0.0006945,-0.0018765,1.0732625,0.0006945,0.0018764999999999,0.8676565,-0.3145104999999999,-0.1933295,1.1162565,-0.3051304999999999,-0.1985295,0.8938665000000001,-0.6922005,-0.1311065,1.1297065,-0.6906605,-0.1282935
115,0.9899485000000001,0.7303270000000001,-0.0833599999999999,0.8516235,0.491707,-0.08068,0.7368635,0.727667,-0.172344,1.1306435,0.5084569999999999,-0.075498,1.2213034999999999,0.720917,-0.1800439999999999,0.7082935,0.948657,-0.277094,1.2488934999999999,0.918497,-0.2920439999999999,0.9270125,-0.0010099999999999,-0.002264,1.0729875,0.00101,0.002264,0.8698135000000001,-0.331883,-0.1685439999999999,1.1175735,-0.321283,-0.1752639999999999,0.8938135,-0.709293,-0.118613,1.1310235,-0.707453,-0.116336
116,0.9907995,0.7318684999999999,-0.071199,0.8514125000000001,0.4934085,-0.069475,0.7357825,0.7309285,-0.1588149999999999,1.1320325,0.5095885,-0.063885,1.2231925,0.7276185,-0.167745,0.7071525000000001,0.9472085,-0.258395,1.2506525,0.9256385,-0.275825,0.9271725000000001,-0.0011354999999999,-0.0026389999999999,1.0728274999999998,0.0011355,0.002639,0.8719425000000001,-0.3478915,-0.144485,1.1187825,-0.3354515,-0.152825,0.8937225,-0.7244615,-0.10577,1.1322125,-0.7217815000000001,-0.104681
117,0.9916615,0.7328775000000001,-0.059867,0.8514655,0.4943175,-0.0593439999999999,0.7352155,0.7334475,-0.146483,1.1334155,0.5121575,-0.053312,1.2247855,0.7307575000000001,-0.155873,0.7065755,0.9457675,-0.242333,1.2514555,0.9278875,-0.260223,0.9272535000000001,-0.0015974999999999,-0.0027779999999999,1.0727464999999998,0.0015975,0.0027779999999999,0.8742155,-0.3596625,-0.122843,1.1199454999999998,-0.3444625,-0.132353,0.8934255,-0.7344925,-0.093877,1.1333755,-0.7309924999999999,-0.093728
118,0.992415,0.7333805,-0.048211,0.851473,0.4948404999999999,-0.048789,0.734673,0.7350905,-0.133403,1.134903,0.5143004999999999,-0.042358,1.226333,0.7334305,-0.143173,0.7058730000000001,0.9443105,-0.2256129999999999,1.252173,0.9299305,-0.2440429999999999,0.927275,-0.0019725,-0.002949,1.072725,0.0019725,0.002949,0.876753,-0.3723495,-0.10011,1.121023,-0.3534395,-0.111299,0.893123,-0.7447695,-0.081539,1.134373,-0.7393995,-0.081989
119,0.9931305,0.7335444999999999,-0.036673,0.8514645000000001,0.4957844999999999,-0.038097,0.7341645,0.7361245,-0.12031,1.1362745,0.5163645,-0.031245,1.2278045,0.7355245,-0.13041,0.7052545,0.9427145,-0.20903,1.2528645,0.9320945,-0.22818,0.9272955,-0.0023055,-0.0032069999999999,1.0727045,0.0023055,0.0032069999999999,0.8794445,-0.3850855,-0.077483,1.1220745,-0.3627155,-0.090657,0.8929045,-0.7549655000000001,-0.0689999999999999,1.1354045,-0.7480255,-0.069617
120,0.9938225,0.732967,-0.0254255,0.8515125,0.496787,-0.0275365,0.7336625,0.7370570000000001,-0.1076205,1.1377225,0.515947,-0.0205085,1.2292825,0.738267,-0.1180505,0.7047725,0.941477,-0.1930404999999999,1.2535525,0.934807,-0.2129404999999999,0.9272675,-0.002504,-0.0034295,1.0727325,0.0025039999999999,0.0034295,0.8821425,-0.398853,-0.0556445,1.1231725,-0.372573,-0.0707855,0.8928625,-0.7657229999999999,-0.0569835,1.1364525,-0.7570129999999999,-0.0570855
121,0.9945235000000001,0.7327985,-0.014642,0.8516025,0.4956685,-0.0175169999999999,0.7331925,0.7388785,-0.095159,1.1392425,0.5164385,-0.010061,1.2299825,0.7379685,-0.105789,0.7044525000000001,0.9407985,-0.177779,1.2543425,0.9367185,-0.197739,0.9272155,-0.0028145,-0.003521,1.0727845,0.0028145,0.003521,0.8851725,-0.4107715,-0.035196,1.1242925,-0.3809115,-0.051946,0.8929925,-0.7744114999999999,-0.044929,1.1377325,-0.7646615,-0.04372
122,0.9951630000000001,0.7319424999999999,-0.004255,0.851861,0.4941225000000001,-0.007917,0.7333810000000001,0.7373525,-0.082855,1.140741,0.5165525,-5.6000000000000494e-05,1.230651,0.7384824999999999,-0.094145,0.704311,0.9401325,-0.163775,1.255051,0.9388025,-0.184475,0.927036,-0.0030554999999999,-0.0035129999999999,1.072964,0.0030555,0.003513,0.888211,-0.4217574999999999,-0.015182,1.125371,-0.3882575,-0.034676,0.8932910000000001,-0.7820375,-0.033461,1.138831,-0.7712575,-0.031003
123,0.9951980000000001,0.7325005,-0.00039,0.85172,0.4937905,-0.004902,0.73327,0.7374305,-0.076956,1.14082,0.5153105,0.002928,1.23083,0.7389905,-0.089086,0.7036899999999999,0.9419905,-0.1564559999999999,1.25532,0.9383105,-0.178356,0.9267920000000001,-0.0032645,-0.0033349999999999,1.073208,0.0032645,0.0033349999999999,0.8889400000000001,-0.4240795,-0.00904,1.12572,-0.3904795,-0.028527,0.89314,-0.7842295,-0.030056,1.13924,-0.7748895,-0.026205
124,0.9951580000000001,0.7327125,0.0032049999999999,0.8515,0.4934125,-0.001996,0.73305,0.7375225,-0.071429,1.14079,0.5145025,0.0057799999999999,1.23088,0.7394925,-0.084149,0.7030799999999999,0.9429625,-0.149519,1.2554,0.9383925,-0.172179,0.926571,-0.0033705,-0.003282,1.073429,0.0033704999999999,0.0032819999999999,0.8896,-0.4255974999999999,-0.003431,1.1261700000000001,-0.3921274999999999,-0.02259,0.89301,-0.7857675000000001,-0.02677,1.13952,-0.7779375000000001,-0.021562
125,0.9951440000000001,0.7330365,0.006273,0.851334,0.4929565,0.0007749999999999,0.7328240000000001,0.7375665,-0.066158,1.140784,0.5137765,0.00845,1.231084,0.7399165,-0.079228,0.702404,0.9434165,-0.143098,1.255514,0.9386265,-0.166408,0.926256,-0.0034504999999999,-0.003325,1.073744,0.0034505,0.003325,0.889964,-0.4269135,0.0015809999999999,1.126784,-0.3934435,-0.016986,0.893004,-0.7870835,-0.0236569999999999,1.139774,-0.7797335,-0.017018
126,0.995066,0.7331725,0.008559,0.851225,0.4925025,0.0030869999999999,0.732565,0.7374425,-0.0612309999999999,1.140865,0.5133025,0.010597,1.231385,0.7401525,-0.075315,0.701785,0.9431625,-0.137725,1.2557749999999999,0.9389325,-0.161875,0.926077,-0.0035054999999999,-0.003372,1.073923,0.0035055,0.003372,0.890215,-0.4271975,0.005007,1.127625,-0.3931675,-0.0126309999999999,0.892465,-0.7877075,-0.021092,1.140185,-0.7789975,-0.0130979999999999
127,0.994863,0.7331875,0.0099584999999999,0.8511750000000001,0.4921574999999999,0.0048764999999999,0.7322150000000001,0.7367874999999999,-0.0570735,1.140985,0.5129575,0.0119814999999999,1.231505,0.7394974999999999,-0.0739305,0.701195,0.9425075,-0.1332705,1.255735,0.9392175,-0.1604805,0.9260180000000001,-0.0035325,-0.0034345,1.073982,0.0035325,0.0034345,0.8903350000000001,-0.4269925,0.0063915,1.127815,-0.3930424999999999,-0.0098795,0.8919650000000001,-0.7879125,-0.0191635,1.140465,-0.7789325,-0.0104824999999999
128,0.9942730000000001,0.7328779999999999,0.011244,0.850971,0.492898,0.006656,0.731161,0.7357779999999999,-0.053288,1.1410809999999998,0.512778,0.013236,1.231601,0.7384879999999999,-0.0726759999999999,0.698801,0.941498,-0.129516,1.255651,0.938208,-0.1592159999999999,0.9259850000000001,-0.0034829999999999,-0.0033319999999999,1.074015,0.003483,0.003332,0.890431,-0.4270219999999999,0.007646,1.127931,-0.393492,-0.0080819999999999,0.891231,-0.7873220000000001,-0.0176879999999999,1.1407209999999999,-0.779942,-0.0087809999999999
129,0.9933765,0.7328779999999999,0.012368,0.8507035000000001,0.492998,0.0082399999999999,0.7297635,0.7357779999999999,-0.049831,1.1411335,0.512778,0.0143299999999999,1.2318935,0.7384879999999999,-0.071594,0.6961835000000001,0.941498,-0.127844,1.2555235,0.938208,-0.158114,0.9259255,-0.0034829999999999,-0.0032659999999999,1.0740745,0.003483,0.0032659999999999,0.8905435,-0.4270219999999999,0.008738,1.1280435,-0.393492,-0.00699,0.8907535,-0.786062,-0.016569,1.1408335,-0.779942,-0.007689
130,0.991903,0.7328779999999999,0.0133925,0.849279,0.492998,0.0104275,0.724139,0.732858,-0.0444944999999999,1.141699,0.512778,0.0157225,1.234119,0.738398,-0.0701695,0.692699,0.939408,-0.1260795,1.255909,0.938208,-0.1567595,0.926,-0.0034829999999999,-0.0030074999999999,1.074,0.003483,0.0030075,0.891339,-0.4270219999999999,0.0094165,1.130089,-0.393492,-0.0054755,0.891969,-0.785072,-0.0150155,1.142879,-0.779942,-0.0061744999999999
