sb224sc-HT22-VT27/4dt907/src/ml-research/a11/datafiles/kinect_good_preprocessed_A9_mediapipe/A36_kinect.csv
FrameNo,nose_3d_x,nose_3d_y,nose_3d_z,left_shoulder_3d_x,left_shoulder_3d_y,left_shoulder_3d_z,left_elbow_3d_x,left_elbow_3d_y,left_elbow_3d_z,right_shoulder_3d_x,right_shoulder_3d_y,right_shoulder_3d_z,right_elbow_3d_x,right_elbow_3d_y,right_elbow_3d_z,left_wrist_3d_x,left_wrist_3d_y,left_wrist_3d_z,right_wrist_3d_x,right_wrist_3d_y,right_wrist_3d_z,left_hip_3d_x,left_hip_3d_y,left_hip_3d_z,right_hip_3d_x,right_hip_3d_y,right_hip_3d_z,left_knee_3d_x,left_knee_3d_y,left_knee_3d_z,right_knee_3d_x,right_knee_3d_y,right_knee_3d_z,left_ankle_3d_x,left_ankle_3d_y,left_ankle_3d_z,right_ankle_3d_x,right_ankle_3d_y,right_ankle_3d_z
37,0.014314499999999999,0.7291985,0.06547549999999999,-0.1376725,0.5178085,0.07127449999999999,-0.2421725,0.7561985,0.0437165,0.15349749999999998,0.49171849999999995,0.05921849999999999,0.2635075,0.7418785,0.0429455,-0.27708249999999995,0.9618185,0.017475499999999998,0.2927075,0.9573185000000001,0.0298295,-0.0724835,0.0031785000000000008,0.005076499999999998,0.0724835,-0.0031785000000000008,-0.005076500000000005,-0.12436250000000001,-0.4009515,-0.0134885,0.11295749999999999,-0.43983150000000004,0.0004894999999999969,-0.1339725,-0.7833215,-0.010938500000000004,0.1228175,-0.7974215,-0.0253395
38,0.014066500000000001,0.729143,0.06551799999999999,-0.13734249999999998,0.517843,0.07197899999999999,-0.2415425,0.756233,0.044794,0.1534275,0.491653,0.05945399999999999,0.2635075,0.741913,0.043706999999999996,-0.27637249999999997,0.9619530000000001,0.017899999999999996,0.2926475,0.9573530000000001,0.029647999999999997,-0.0724595,0.0032130000000000006,0.005256999999999998,0.0724595,-0.0032130000000000006,-0.005257000000000005,-0.12437250000000001,-0.401497,-0.013891,0.1128975,-0.44039700000000004,0.00015599999999999642,-0.1343725,-0.7836069999999999,-0.011127000000000005,0.12235750000000001,-0.7981969999999999,-0.025862000000000003
39,0.0137055,0.7294045,0.0656215,-0.1372675,0.5183545,0.0722615,-0.24132749999999997,0.7562545,0.0445305,0.15314250000000001,0.49209450000000005,0.0593245,0.2635725,0.7417545000000001,0.043535500000000005,-0.2765375,0.9622145,0.0172455,0.2925825,0.9577145,0.0289945,-0.0724885,0.0032414999999999944,0.005368500000000002,0.0724885,-0.0032415000000000013,-0.005368499999999998,-0.12453750000000001,-0.4023355,-0.0149235,0.1127025,-0.4409255,-0.0006945000000000007,-0.13480750000000002,-0.7841454999999999,-0.012792499999999998,0.1219725,-0.7986755000000001,-0.0268305
40,0.013273500000000004,0.7296115000000001,0.06558349999999999,-0.1373345,0.5190315000000001,0.07229949999999999,-0.2413845,0.7561515000000001,0.0436615,0.1527655,0.49246150000000005,0.0589255,0.2637455,0.7415415000000001,0.0428355,-0.2768045,0.9626315000000001,0.016326499999999997,0.2926355,0.9579315000000002,0.028082499999999996,-0.0725265,0.0032324999999999993,0.005398499999999997,0.0725265,-0.0032324999999999993,-0.0053985000000000005,-0.1247645,-0.4030685,-0.0163805,0.1124455,-0.4414985,-0.0019045000000000034,-0.1353345,-0.7845884999999999,-0.015105500000000001,0.12152550000000001,-0.7990885000000001,-0.028049499999999998
41,0.0126035,0.7298635,0.06419749999999999,-0.1377175,0.5195535,0.0707645,-0.24142750000000002,0.7565135,0.041332499999999994,0.1521625,0.49268350000000005,0.0573805,0.2637725,0.7414335,0.0405235,-0.2773075,0.9632135000000001,0.013987499999999996,0.29303250000000003,0.9582134999999999,0.024847499999999995,-0.07257549999999999,0.003098500000000004,0.005450499999999997,0.07257549999999999,-0.003098499999999997,-0.005450500000000004,-0.1248775,-0.4050865,-0.020140500000000006,0.11209250000000001,-0.4424365,-0.0052875000000000005,-0.13610750000000002,-0.7850765,-0.019369500000000005,0.12083250000000001,-0.7992465,-0.0309175
42,0.012030499999999998,0.730016,0.0617385,-0.1379765,0.519846,0.0680175,-0.2413765,0.756906,0.0381875,0.1519435,0.49273599999999995,0.0548155,0.2635135,0.741266,0.0373715,-0.2775565,0.9636560000000001,0.010113499999999997,0.29340350000000004,0.958356,0.0197945,-0.0726975,0.002932000000000004,0.0053525,0.0726975,-0.002931999999999997,-0.0053525,-0.1247465,-0.408024,-0.025020500000000005,0.1122135,-0.443344,-0.009909500000000005,-0.1365365,-0.785834,-0.024428500000000002,0.1205635,-0.799124,-0.03465950000000001
43,0.011505999999999997,0.73035,0.0587815,-0.13819599999999999,0.5202,0.0648595,-0.24136600000000002,0.75734,0.0346365,0.15172399999999997,0.49283,0.051878499999999994,0.26333399999999996,0.7411,0.0338175,-0.277946,0.9639700000000001,0.0053915000000000005,0.293824,0.95847,0.013882499999999999,-0.072876,0.002717999999999998,0.005178499999999999,0.072876,-0.002717999999999998,-0.0051785000000000025,-0.12474600000000001,-0.41074,-0.030512499999999998,0.112444,-0.4443,-0.015170500000000003,-0.13690600000000003,-0.78631,-0.0302455,0.120364,-0.79899,-0.038760499999999996
44,0.0110625,0.7307965,0.055479,-0.1383365,0.5207565,0.061452,-0.2413465,0.7556365,0.030345999999999998,0.1515735,0.49294649999999995,0.048767000000000005,0.2634335,0.7409565,0.029938,-0.2783665,0.9643864999999999,-0.0002459999999999997,0.2944035,0.9585864999999999,0.007068,-0.0730935,0.002510499999999999,0.0049450000000000015,0.0730935,-0.002510499999999999,-0.0049450000000000015,-0.1248465,-0.4129135,-0.036452,0.11289350000000001,-0.4450735,-0.02101,-0.13726649999999999,-0.7865435,-0.036331,0.12014349999999999,-0.7986835,-0.043266000000000006
45,0.010197000000000001,0.730258,0.0512435,-0.138581,0.5207879999999999,0.056855499999999996,-0.241481,0.753008,0.023905499999999996,0.15123899999999998,0.492688,0.0446395,0.263589,0.738988,0.024311499999999996,-0.279291,0.9645980000000001,-0.008803500000000002,0.295189,0.9585980000000001,-0.0024055000000000014,-0.073355,0.0023169999999999996,0.004479499999999997,0.073355,-0.0023169999999999996,-0.004479500000000001,-0.12488100000000002,-0.41440200000000005,-0.0456685,0.11427899999999999,-0.44350199999999995,-0.0298705,-0.137461,-0.786122,-0.0441065,0.119999,-0.797272,-0.0490425
46,0.009346000000000007,0.7295785,0.046604,-0.138935,0.5198685000000001,0.052107,-0.241395,0.7505385,0.016812,0.150875,0.49255849999999995,0.040479,0.263765,0.7376585,0.018105,-0.280085,0.9651784999999999,-0.018315,0.295935,0.9589385,-0.012457,-0.073615,0.001966500000000003,0.004046999999999999,0.073615,-0.001966499999999996,-0.004047,-0.12493499999999999,-0.4151415,-0.055988,0.115885,-0.4418415,-0.039814,-0.137715,-0.7848014999999999,-0.052568,0.119865,-0.7947615,-0.05561
47,0.0083845,0.7285145000000001,0.041274500000000006,-0.1393865,0.5192445,0.0466535,-0.2413165,0.7472645,0.0085855,0.1505235,0.4924345,0.0356045,0.2640135,0.7367045,0.010711499999999999,-0.2807865,0.9661445000000001,-0.0296455,0.2966735,0.9598545,-0.0237625,-0.0738885,0.0016564999999999983,0.0035745,0.0738885,-0.0016564999999999983,-0.0035744999999999996,-0.12491650000000001,-0.4142855,-0.0689055,0.1178835,-0.4386955,-0.0519015,-0.1378565,-0.7819355,-0.061815499999999995,0.1197735,-0.7906955,-0.0632565
48,0.007600500000000001,0.7276475,0.035002500000000006,-0.1398075,0.5177175,0.0404325,-0.2412975,0.7446975,-0.0003204999999999998,0.1499925,0.4916575000000001,0.0295745,0.26444249999999997,0.7352375,0.0024514999999999997,-0.2814475,0.9680775,-0.0426255,0.2975925,0.9617075,-0.036400499999999995,-0.07420850000000001,0.0014645000000000005,0.0030914999999999996,0.07420850000000001,-0.0014645000000000005,-0.0030914999999999996,-0.12474749999999998,-0.4104725,-0.08339049999999999,0.1201325,-0.43274250000000003,-0.0665415,-0.1377975,-0.7760524999999999,-0.0711145,0.11978250000000001,-0.7841024999999999,-0.0717545
49,0.006787500000000002,0.7255965,0.028340000000000004,-0.1402435,0.5162165000000001,0.033754,-0.2413235,0.7401265,-0.01027,0.1494265,0.49105649999999995,0.023329000000000003,0.2649065,0.7328565,-0.006623,-0.2821335,0.9706265000000001,-0.057146999999999996,0.2984965,0.9645765000000001,-0.050129,-0.0744805,0.0012404999999999985,0.0027550000000000005,0.0744805,-0.001240500000000002,-0.0027550000000000005,-0.1245635,-0.40486350000000004,-0.098968,0.1223565,-0.42462350000000004,-0.08232400000000001,-0.1377535,-0.7673935,-0.080598,0.11981649999999999,-0.7749935,-0.080684
50,0.0061255000000000025,0.7232475,0.0228075,-0.14064749999999998,0.5144875,0.0279965,-0.24133749999999998,0.7356575000000001,-0.0190325,0.1490225,0.48994750000000004,0.0177215,0.26517250000000003,0.7303775,-0.0148185,-0.2827675,0.9677275000000001,-0.0705285,0.2993725,0.9662575,-0.06264449999999999,-0.07473550000000001,0.0011024999999999993,0.0023395000000000013,0.07473550000000001,-0.0011025000000000002,-0.0023394999999999996,-0.12429749999999998,-0.3974625,-0.1133865,0.12433250000000001,-0.4156625,-0.0968735,-0.13781749999999998,-0.7573525,-0.0887705,0.1197625,-0.7648125,-0.08845049999999999
51,0.005791500000000001,0.7208815000000001,0.017025500000000006,-0.14089049999999997,0.5117915000000001,0.0222165,-0.24124050000000002,0.7321915,-0.028125499999999998,0.14867950000000002,0.48721149999999996,0.012074500000000002,0.2655295,0.7284515,-0.023612499999999998,-0.2828105,0.9671415,-0.0833545,0.3007595,0.9700315,-0.0755335,-0.0750195,0.0009595000000000003,0.0020205000000000015,0.0750195,-0.0009595000000000003,-0.002020499999999998,-0.12421049999999999,-0.3875385,-0.1286775,0.1261795,-0.4029085,-0.11217250000000001,-0.1382605,-0.7440085,-0.09729850000000001,0.1194995,-0.7514385,-0.09638549999999999
52,0.005460999999999996,0.71816,0.011471999999999996,-0.141095,0.5088400000000001,0.016665,-0.240865,0.7281,-0.037141,0.14832499999999998,0.4854,0.006519999999999998,0.265965,0.72625,-0.0323,-0.282835,0.96411,-0.096279,0.302155,0.9662,-0.088058,-0.075379,0.0008650000000000012,0.001748999999999997,0.075379,-0.0008650000000000012,-0.0017490000000000006,-0.12417500000000001,-0.37665,-0.143879,0.128035,-0.38935000000000003,-0.128249,-0.13875500000000002,-0.72963,-0.10578300000000002,0.119225,-0.73706,-0.104302
53,0.005551500000000004,0.7143094999999999,0.006003000000000001,-0.14048750000000002,0.5064595,0.011028999999999997,-0.2404875,0.7269194999999999,-0.046614,0.1483325,0.48316950000000003,0.0011439999999999992,0.26674250000000005,0.7208395,-0.041382,-0.2824275,0.9607095,-0.109303,0.30375250000000004,0.9582295,-0.100327,-0.0756915,0.0008545000000000011,0.0013029999999999986,0.0756915,-0.0008545000000000011,-0.001303000000000002,-0.12422749999999999,-0.35924049999999996,-0.159322,0.1301825,-0.3719405,-0.144792,-0.1389375,-0.7121905000000001,-0.114634,0.1191925,-0.7193905,-0.112078
54,0.005836999999999999,0.712179,0.0013675000000000007,-0.139972,0.505159,0.006461500000000002,-0.240192,0.725109,-0.0548935,0.148038,0.482379,-0.003183499999999999,0.267398,0.7175090000000001,-0.049394499999999994,-0.282342,0.954599,-0.1204705,0.30500799999999995,0.950849,-0.11025549999999999,-0.07582,0.0007600000000000037,0.0010985000000000023,0.07582,-0.0007599999999999968,-0.0010984999999999953,-0.12440200000000001,-0.342101,-0.1720425,0.131668,-0.354611,-0.1586125,-0.139132,-0.695191,-0.1216985,0.118788,-0.702381,-0.11863649999999999
55,0.006372499999999995,0.7121580000000001,-0.007832000000000006,-0.1392485,0.505358,-0.003052000000000006,-0.2394985,0.722748,-0.067554,0.14795149999999999,0.482628,-0.012255000000000002,0.2680915,0.7164079999999999,-0.062057,-0.2821285,0.950718,-0.13568000000000002,0.3064415,0.9464779999999999,-0.124707,-0.0760695,0.0008279999999999954,0.0007579999999999948,0.0760695,-0.0008280000000000093,-0.0007580000000000017,-0.12441850000000002,-0.321972,-0.189274,0.13313149999999999,-0.333532,-0.176594,-0.1391085,-0.6753119999999999,-0.13295600000000002,0.11862149999999999,-0.6825019999999999,-0.12938
56,0.0070625,0.711997,-0.016704499999999997,-0.1380355,0.502367,-0.012810499999999996,-0.2389955,0.722737,-0.0797175,0.1479145,0.481357,-0.0213515,0.2689445,0.715007,-0.0742605,-0.2816955,0.9467969999999999,-0.1497665,0.3079445,0.942707,-0.1384755,-0.07640549999999999,0.0008689999999999948,0.0004515000000000005,0.07640549999999999,-0.0008690000000000087,-0.0004515000000000005,-0.12452550000000001,-0.30284300000000003,-0.2072535,0.1347745,-0.312403,-0.1963835,-0.1388055,-0.655213,-0.1434825,0.11856449999999999,-0.661983,-0.1391075
57,0.007849499999999997,0.7121550000000001,-0.025624000000000008,-0.13666650000000002,0.500845,-0.022273000000000008,-0.23823650000000002,0.723625,-0.091757,0.1481635,0.480595,-0.030270000000000005,0.2699835,0.712955,-0.08604200000000001,-0.28108649999999996,0.942555,-0.162692,0.3093635,0.938995,-0.151327,-0.0767685,0.0007650000000000018,0.000336999999999997,0.0767685,-0.0007650000000000018,-0.00033700000000000396,-0.1245065,-0.285385,-0.223972,0.13648349999999998,-0.292245,-0.21410200000000001,-0.1383665,-0.6356550000000001,-0.153091,0.1188435,-0.641885,-0.14783000000000002
58,0.008674,0.713125,-0.0349645,-0.135207,0.499535,-0.0316205,-0.237397,0.722305,-0.1028425,0.148463,0.480005,-0.039191500000000004,0.271153,0.7105349999999999,-0.0972755,-0.280507,0.9369749999999999,-0.1747205,0.310743,0.933865,-0.1635165,-0.077055,0.0006849999999999912,0.0001794999999999991,0.077055,-0.0006850000000000189,-0.0001794999999999991,-0.124467,-0.270575,-0.2394705,0.138243,-0.274285,-0.2306005,-0.137837,-0.6180650000000001,-0.1622265,0.119173,-0.6237349999999999,-0.15585949999999998
59,0.0094535,0.71302,-0.044368500000000005,-0.13368850000000002,0.49693,-0.0422465,-0.2365785,0.72275,-0.1142525,0.1487715,0.47858,-0.0493205,0.2721715,0.7091200000000001,-0.10915050000000001,-0.2798685,0.9384600000000001,-0.1881465,0.31209149999999997,0.9316,-0.1767265,-0.07732549999999999,0.0007600000000000107,-4.850000000000687e-05,0.07732549999999999,-0.0007600000000000107,4.849999999999299e-05,-0.12474850000000001,-0.25288,-0.2556465,0.1404215,-0.25378999999999996,-0.2478265,-0.13693850000000002,-0.5978399999999999,-0.17076049999999998,0.1195715,-0.6025699999999999,-0.1635855
60,0.010305500000000004,0.71317,-0.05295100000000001,-0.13227049999999999,0.49576000000000003,-0.05188300000000001,-0.2359505,0.7190300000000001,-0.12421800000000001,0.1490895,0.47926,-0.058188000000000004,0.2730295,0.70711,-0.11984,-0.2793305,0.9377800000000001,-0.20067000000000002,0.3131095,0.92434,-0.18862,-0.0775445,0.0008100000000000052,-0.0003020000000000106,0.0775445,-0.0008100000000000052,0.0003019999999999967,-0.12491050000000001,-0.2375,-0.27,0.1426395,-0.23753999999999997,-0.26323,-0.1360305,-0.58017,-0.17789300000000002,0.12028950000000001,-0.58383,-0.170286
61,0.011053,0.713165,-0.0616515,-0.130866,0.494675,-0.0614185,-0.235576,0.7159850000000001,-0.1339265,0.149364,0.479235,-0.0670925,0.273764,0.705635,-0.1307465,-0.27911600000000003,0.9398549999999999,-0.2131275,0.314094,0.925165,-0.2005075,-0.077731,0.0008549999999999947,-0.0006145000000000039,0.077731,-0.0008549999999999947,0.0006145000000000039,-0.125136,-0.22096500000000002,-0.2840875,0.144874,-0.21991500000000003,-0.2775875,-0.135156,-0.5622450000000001,-0.18450149999999998,0.12115400000000001,-0.565035,-0.17656349999999998
62,0.011818,0.71349,-0.0702255,-0.129464,0.49337,-0.0705525,-0.234984,0.71215,-0.1430615,0.14960600000000002,0.47856,-0.0759205,0.274526,0.70735,-0.1413845,-0.278594,0.93558,-0.2248515,0.315116,0.92991,-0.2124315,-0.07797799999999999,0.0008899999999999741,-0.0007235000000000019,0.07797799999999999,-0.0008900000000000019,0.0007235000000000019,-0.12534399999999998,-0.20680000000000004,-0.29777149999999997,0.14716600000000002,-0.20500000000000002,-0.2910315,-0.134174,-0.54681,-0.19088149999999998,0.12198600000000001,-0.54864,-0.1827665
63,0.012564000000000004,0.713315,-0.078541,-0.12812600000000002,0.491045,-0.079914,-0.23448599999999997,0.710375,-0.152069,0.150094,0.477125,-0.085003,0.27524400000000004,0.708515,-0.152289,-0.27787599999999996,0.935235,-0.236015,0.31586400000000003,0.933225,-0.224995,-0.078141,0.0009149999999999991,-0.0008650000000000047,0.078141,-0.0009149999999999991,0.0008650000000000047,-0.125566,-0.19106499999999998,-0.311255,0.14956400000000003,-0.18978499999999998,-0.304415,-0.13280599999999998,-0.5309550000000001,-0.19691799999999998,0.122834,-0.5317149999999999,-0.188752
64,0.012803499999999997,0.71125,-0.08244499999999999,-0.1272075,0.48795,-0.08443499999999998,-0.2342875,0.7095400000000001,-0.156856,0.1501025,0.47467000000000004,-0.08937699999999998,0.27563249999999995,0.70733,-0.15872799999999998,-0.2775075,0.93279,-0.242942,0.31596250000000003,0.9335,-0.232952,-0.0781675,0.0009000000000000119,-0.0008379999999999915,0.0781675,-0.0008999999999999841,0.0008380000000000054,-0.1258975,-0.17864999999999998,-0.319322,0.15189249999999999,-0.17713999999999996,-0.31291199999999997,-0.1313775,-0.51852,-0.198131,0.1233525,-0.51781,-0.18991399999999997
65,0.012746000000000004,0.709365,-0.086329,-0.12707600000000002,0.48714499999999994,-0.088589,-0.23427599999999998,0.704035,-0.161497,0.149414,0.47368499999999997,-0.09382900000000001,0.275704,0.706715,-0.16542600000000002,-0.278136,0.930205,-0.25084,0.31520400000000004,0.9330849999999999,-0.24167,-0.078205,0.0008449999999999847,-0.0007400000000000045,0.078205,-0.0008450000000000124,0.0007399999999999907,-0.126326,-0.16501500000000002,-0.32444,0.153354,-0.163505,-0.31797,-0.130376,-0.504885,-0.198959,0.12334400000000001,-0.503245,-0.190716
66,0.0126035,0.707365,-0.08981800000000001,-0.12699549999999998,0.48606499999999997,-0.092145,-0.2346855,0.697055,-0.16539600000000002,0.14881450000000002,0.473075,-0.09770500000000001,0.2755845,0.7071149999999999,-0.17190700000000003,-0.2790355,0.927065,-0.25859,0.3141645,0.930475,-0.24987,-0.0782075,0.0007949999999999902,-0.0007300000000000084,0.0782075,-0.0007949999999999902,0.0007299999999999945,-0.1266655,-0.152775,-0.32871,0.15460449999999998,-0.15126499999999998,-0.32214,-0.12947550000000002,-0.49265499999999995,-0.199529,0.1232945,-0.49051500000000003,-0.191085
67,0.0124115,0.706515,-0.09411200000000002,-0.1269105,0.485255,-0.09553500000000001,-0.2355705,0.6941550000000001,-0.17014400000000002,0.14822950000000001,0.472545,-0.10147600000000001,0.27536950000000004,0.7082550000000001,-0.179006,-0.2807305,0.924625,-0.26727,0.31275949999999997,0.929115,-0.25822,-0.0782185,0.0007950000000000457,-0.0007300000000000084,0.0782185,-0.0007949999999999902,0.0007299999999999945,-0.1269605,-0.14043499999999998,-0.33282,0.1557995,-0.13892499999999997,-0.32639,-0.1284005,-0.48068500000000003,-0.19972700000000002,0.1232095,-0.47784499999999996,-0.191307
68,0.0123195,0.706985,-0.09925,-0.12733350000000002,0.485435,-0.09856700000000002,-0.2362735,0.6917850000000001,-0.17505,0.1476765,0.472955,-0.103969,0.27517650000000005,0.708815,-0.185857,-0.2829835,0.920515,-0.27507000000000004,0.3115065,0.926225,-0.26583,-0.0782715,0.0006450000000000067,-0.0007300000000000084,0.0782715,-0.0006450000000000067,0.0007299999999999945,-0.1268235,-0.135245,-0.33540000000000003,0.1565565,-0.132685,-0.32918000000000003,-0.12719350000000001,-0.47321499999999994,-0.19983800000000002,0.12319650000000001,-0.469645,-0.191299
69,0.012183499999999996,0.7066650000000001,-0.10322400000000001,-0.1277065,0.484175,-0.10164100000000001,-0.23650649999999998,0.694785,-0.179857,0.1472535,0.470905,-0.10651400000000001,0.27511349999999996,0.709045,-0.191035,-0.2852565,0.919755,-0.282605,0.3111735,0.929225,-0.271475,-0.0782715,0.0007850000000000357,-0.0007349999999999995,0.0782715,-0.0007849999999999802,0.0007349999999999995,-0.1266565,-0.13415499999999997,-0.33647499999999997,0.1569035,-0.131135,-0.330745,-0.1260965,-0.470715,-0.200009,0.1232035,-0.466645,-0.191331
70,0.012217500000000001,0.7066650000000001,-0.107201,-0.12810950000000002,0.484175,-0.104575,-0.23733949999999998,0.694785,-0.184556,0.1468205,0.470905,-0.108941,0.2750905,0.709045,-0.19522699999999998,-0.2876095,0.919755,-0.28828,0.3108605,0.929225,-0.27641,-0.0782485,0.0007850000000000357,-0.0007299999999999945,0.0782485,-0.0007849999999999802,0.0007299999999999945,-0.12649950000000001,-0.13436499999999996,-0.33647,0.1570605,-0.13121499999999997,-0.33074000000000003,-0.1251095,-0.471325,-0.199883,0.1232105,-0.466645,-0.191383
71,0.012122500000000001,0.7066650000000001,-0.11003800000000001,-0.12866750000000002,0.484175,-0.106703,-0.2387975,0.694785,-0.187999,0.1464125,0.470905,-0.11111900000000001,0.2748125,0.709045,-0.198133,-0.2901675,0.919755,-0.29242500000000005,0.3106025,0.929225,-0.27993500000000004,-0.07826849999999999,0.0007850000000000357,-0.0007349999999999995,0.07826849999999999,-0.0007849999999999802,0.0007349999999999995,-0.1264875,-0.13436499999999996,-0.336365,0.1570625,-0.13121499999999997,-0.330635,-0.1245975,-0.47197500000000003,-0.199727,0.1230925,-0.466645,-0.19117800000000001
72,0.012061999999999998,0.7066650000000001,-0.11191400000000001,-0.12898500000000002,0.484175,-0.10793200000000001,-0.24023500000000003,0.695045,-0.19023600000000002,0.146145,0.470905,-0.11272800000000001,0.274965,0.709045,-0.199573,-0.292435,0.919755,-0.29558,0.310635,0.929435,-0.28149,-0.07825399999999999,0.0007850000000000357,-0.0006000000000000033,0.07825399999999999,-0.0007849999999999802,0.0005999999999999894,-0.126235,-0.13436499999999996,-0.33572,0.157155,-0.13121499999999997,-0.33,-0.123945,-0.47260499999999994,-0.199011,0.123035,-0.466815,-0.190478
73,0.011995000000000002,0.70825,-0.11269449999999999,-0.12936199999999998,0.48453,-0.10809849999999999,-0.241672,0.6964,-0.1906185,0.14590799999999998,0.47124,-0.11323849999999999,0.274708,0.70938,-0.1997465,-0.294602,0.91746,-0.2972475,0.310468,0.9288500000000001,-0.2809975,-0.078238,0.0007400000000000184,-0.00037249999999999783,0.078238,-0.0007399999999999629,0.0003725000000000117,-0.12592199999999998,-0.13671999999999995,-0.3341075,0.15699800000000003,-0.13356999999999997,-0.3288575,-0.123652,-0.47551,-0.19773649999999998,0.123028,-0.46924,-0.1891955
74,0.0115715,0.71037,-0.1115035,-0.1297465,0.48501,-0.1065455,-0.24245649999999996,0.70027,-0.1890735,0.14575349999999998,0.47304999999999997,-0.1117905,0.2745535,0.7121999999999999,-0.1981885,-0.29663649999999997,0.9232100000000001,-0.2957195,0.3100435,0.9280299999999999,-0.2794395,-0.0781215,0.0005100000000000104,-0.00017150000000000498,0.0781215,-0.0005100000000000104,0.00017150000000000498,-0.12567650000000002,-0.14206999999999997,-0.3308795,0.1563635,-0.13885999999999998,-0.3259095,-0.12357649999999999,-0.48252999999999996,-0.19593850000000002,0.1230635,-0.47591999999999995,-0.1878515
75,0.011264500000000002,0.713275,-0.10953750000000001,-0.1302185,0.48602499999999993,-0.10458250000000001,-0.24302849999999998,0.702375,-0.18711250000000001,0.1455815,0.47462499999999996,-0.1098215,0.2743815,0.714745,-0.1962195,-0.2982285,0.928905,-0.2937805,0.3098715,0.927715,-0.2774705,-0.0779955,0.0003949999999999787,2.8500000000000747e-05,0.0779955,-0.0003950000000000342,-2.8500000000000747e-05,-0.1254485,-0.149405,-0.3263305,0.1556215,-0.14593500000000004,-0.32184050000000003,-0.1235385,-0.49187500000000006,-0.19350250000000002,0.1231215,-0.485375,-0.1858845
76,0.011394000000000001,0.715285,-0.1071165,-0.130411,0.487055,-0.1021685,-0.24390099999999998,0.702755,-0.1847135,0.145589,0.475875,-0.1074035,0.274429,0.716835,-0.1938005,-0.298671,0.933225,-0.2913725,0.309939,0.930005,-0.2750525,-0.077776,0.0003049999999999997,9.349999999999636e-05,0.077776,-0.0003049999999999997,-9.349999999999636e-05,-0.12498100000000001,-0.15891500000000003,-0.3204625,0.154629,-0.15548499999999998,-0.3161225,-0.123531,-0.504505,-0.1906495,0.123139,-0.498005,-0.18377949999999998
77,0.011604500000000004,0.719275,-0.10362700000000001,-0.1304095,0.488915,-0.09851800000000001,-0.24466949999999998,0.706845,-0.179925,0.1458105,0.477635,-0.103914,0.2747405,0.718485,-0.188085,-0.29872950000000004,0.939395,-0.286387,0.3103905,0.930375,-0.267447,-0.0773465,0.0002949999999999897,0.00025799999999999434,0.0773465,-0.00029500000000001747,-0.0002580000000000082,-0.1243895,-0.176325,-0.310827,0.1533505,-0.17186500000000005,-0.30573700000000004,-0.12353949999999998,-0.527115,-0.18594700000000003,0.1236105,-0.520615,-0.18025200000000002
78,0.011858,0.7233350000000001,-0.0995455,-0.13036,0.49148499999999995,-0.0942015,-0.24469999999999997,0.710685,-0.1738345,0.14627,0.47980500000000004,-0.09984849999999999,0.27506,0.719925,-0.1805315,-0.29908,0.945855,-0.2794775,0.31118,0.933585,-0.2583075,-0.076912,0.00027499999999999747,0.0004965000000000108,0.076912,-0.00027499999999999747,-0.0004964999999999969,-0.12358,-0.19396499999999997,-0.2990075,0.15203,-0.189675,-0.2936875,-0.12334999999999999,-0.551045,-0.18085649999999998,0.12431,-0.544805,-0.1762075
79,0.012197499999999997,0.7273149999999999,-0.0933385,-0.13017150000000002,0.493425,-0.08948650000000001,-0.2445815,0.718345,-0.16603450000000003,0.1468585,0.481525,-0.09536950000000001,0.2757485,0.722105,-0.1710275,-0.2993615,0.9524549999999999,-0.2696805,0.3124785,0.9342849999999999,-0.2471305,-0.07637949999999999,0.00032499999999999196,0.0007574999999999943,0.07637949999999999,-0.00032499999999999196,-0.0007575000000000082,-0.12270150000000002,-0.212815,-0.2860705,0.1507685,-0.20883500000000002,-0.2800705,-0.12309150000000002,-0.576245,-0.1751405,0.12513849999999999,-0.570785,-0.1715355
80,0.012304,0.730985,-0.085505,-0.13031500000000001,0.495555,-0.083232,-0.24477499999999996,0.722145,-0.156913,0.14741500000000002,0.482975,-0.09032,0.276345,0.7237250000000001,-0.15981,-0.299605,0.958435,-0.257675,0.314135,0.939985,-0.23324499999999998,-0.075796,0.0005549999999999999,0.0009709999999999996,0.075796,-0.0005549999999999999,-0.0009709999999999996,-0.121905,-0.236475,-0.271155,0.14946500000000001,-0.235475,-0.265055,-0.123075,-0.604295,-0.168983,0.125695,-0.598975,-0.166261
81,0.012230999999999999,0.7350800000000001,-0.077695,-0.13071,0.49837,-0.076701,-0.24543999999999996,0.72146,-0.146492,0.14828000000000002,0.48799000000000003,-0.084311,0.27687,0.72613,-0.14866400000000002,-0.29991,0.96068,-0.243385,0.3151,0.9405,-0.219665,-0.075369,0.0005500000000000088,0.0011899999999999966,0.075369,-0.0005499999999999949,-0.0011899999999999966,-0.12136999999999999,-0.25954,-0.25470499999999996,0.14809,-0.26075000000000004,-0.248315,-0.12319000000000001,-0.63117,-0.162092,0.12615,-0.62606,-0.160586
82,0.011949,0.736604,-0.06586049999999999,-0.131417,0.498764,-0.0659965,-0.246687,0.7207840000000001,-0.1318345,0.148843,0.489554,-0.0740855,0.27719299999999997,0.727444,-0.1333745,-0.300197,0.9634339999999999,-0.22568449999999998,0.315853,0.9430940000000001,-0.2016845,-0.074929,0.0008149999999999963,0.0009445000000000009,0.074929,-0.0008150000000000102,-0.0009445000000000009,-0.12111699999999999,-0.281606,-0.2347245,0.146523,-0.285706,-0.22729449999999998,-0.12364699999999999,-0.655786,-0.1514435,0.126173,-0.6513660000000001,-0.1503995
83,0.0116425,0.73824,-0.054111,-0.1328345,0.50257,-0.054496,-0.2476745,0.72114,-0.117335,0.1492855,0.4898,-0.06320300000000001,0.2774455,0.726,-0.117714,-0.3004445,0.96328,-0.20827900000000002,0.3168455,0.94524,-0.183639,-0.0744245,0.0009440000000000004,0.0009919999999999998,0.0744245,-0.0009440000000000004,-0.0009919999999999998,-0.1204945,-0.30335,-0.211479,0.1444055,-0.30865,-0.20258900000000002,-0.1242345,-0.67817,-0.13998,0.1259855,-0.6747000000000001,-0.138683
84,0.011297000000000001,0.739539,-0.0422395,-0.134393,0.505989,-0.0429475,-0.248573,0.725529,-0.1027675,0.149667,0.490129,-0.0517855,0.277597,0.7255389999999999,-0.1018565,-0.300783,0.9626589999999999,-0.1901665,0.318077,0.948329,-0.1652665,-0.073898,0.0011730000000000004,0.001077500000000002,0.073898,-0.0011730000000000004,-0.001077500000000002,-0.11999300000000002,-0.324481,-0.1881765,0.141927,-0.330591,-0.17739649999999998,-0.12479300000000002,-0.699281,-0.1285885,0.125787,-0.6966410000000001,-0.1268225
85,0.010858500000000002,0.741413,-0.029856500000000005,-0.13563150000000002,0.5095729999999999,-0.031205500000000004,-0.2494215,0.731203,-0.0885235,0.1500685,0.490543,-0.0402845,0.27738850000000004,0.725033,-0.08558450000000001,-0.30116149999999997,0.962983,-0.1710025,0.31934850000000004,0.948383,-0.1473925,-0.0735065,0.0015039999999999984,0.001070499999999995,0.0735065,-0.0015040000000000019,-0.001070500000000002,-0.1196615,-0.344577,-0.16427250000000002,0.1388285,-0.350667,-0.15087250000000002,-0.1254115,-0.718897,-0.1171315,0.12563850000000001,-0.716937,-0.11478250000000001
86,0.0105345,0.7418805,-0.0192925,-0.1367055,0.5129205,-0.0209195,-0.2499255,0.7360305,-0.0772665,0.1504745,0.4901905,-0.0302755,0.2772245,0.7240505,-0.0723235,-0.3014355,0.9611605000000001,-0.1547615,0.32077449999999996,0.9495505000000001,-0.1332815,-0.0731925,0.0017834999999999995,0.001008499999999999,0.0731925,-0.0017835000000000004,-0.001008499999999999,-0.1197655,-0.3554295,-0.1426315,0.1357745,-0.3646495,-0.1274845,-0.1259355,-0.7313394999999999,-0.1070495,0.1250945,-0.7299194999999999,-0.1036405
87,0.0103015,0.7419555,-0.009254,-0.1375235,0.5151654999999999,-0.011149000000000001,-0.24966349999999998,0.7405255,-0.066723,0.1507765,0.48921549999999997,-0.020748,0.2774265,0.7248455,-0.059922,-0.3018335,0.9591655,-0.139105,0.3223265,0.9492455,-0.11968799999999999,-0.0728985,0.0020794999999999998,0.0009469999999999999,0.0728985,-0.0020794999999999998,-0.0009469999999999999,-0.1201035,-0.36369450000000003,-0.122725,0.1327365,-0.37707450000000003,-0.10514100000000001,-0.12649349999999998,-0.7414745,-0.096892,0.12461649999999999,-0.7408545,-0.09303
88,0.0101475,0.7408485,0.0006440000000000005,-0.13816550000000002,0.5171185,-0.0014479999999999996,-0.24999550000000004,0.7413285000000001,-0.055981,0.1514645,0.4894585,-0.010724,0.2779545,0.7256185,-0.047899,-0.3022355,0.9567385,-0.123528,0.32388449999999996,0.9504085,-0.106171,-0.0726115,0.0023105,0.0009400000000000016,0.0726115,-0.002310500000000002,-0.0009399999999999999,-0.1205255,-0.3704615,-0.10304999999999999,0.1296745,-0.3889515,-0.082809,-0.12705550000000002,-0.7500114999999999,-0.086521,0.1241045,-0.7507115,-0.082476
89,0.010191999999999998,0.7395235,0.010607499999999999,-0.13911800000000002,0.5184435,0.0083835,-0.251418,0.7423234999999999,-0.0450145,0.152372,0.4900935,-0.0005634999999999998,0.278492,0.7254935,-0.0361005,-0.302498,0.9537435,-0.1079185,0.325122,0.9461935,-0.0931485,-0.072503,0.002455500000000003,0.0012014999999999999,0.072503,-0.0024554999999999993,-0.0012014999999999999,-0.12099800000000001,-0.3781265,-0.0837065,0.126652,-0.40298649999999997,-0.060680500000000005,-0.127678,-0.7574065,-0.0751165,0.123362,-0.7605965,-0.0706965
90,0.0102345,0.738079,0.019543500000000002,-0.1399885,0.519789,0.0176235,-0.2527685,0.745319,-0.0344755,0.1528815,0.48911899999999997,0.0083605,0.2788815,0.7252689999999999,-0.025627499999999998,-0.3030485,0.950829,-0.0942295,0.32614150000000003,0.944059,-0.0812725,-0.07243949999999999,0.0026170000000000013,0.0013755,0.07243949999999999,-0.0026170000000000013,-0.0013755,-0.12147849999999999,-0.38527100000000003,-0.0669425,0.1238815,-0.41525100000000004,-0.041611499999999996,-0.1282285,-0.7633610000000001,-0.0644085,0.1227415,-0.768781,-0.0602075
91,0.010352499999999999,0.7376715,0.0239925,-0.1407645,0.5218415,0.0225645,-0.2535845,0.7504715,-0.0282845,0.1535455,0.48954149999999996,0.0131595,0.27929550000000003,0.7256414999999999,-0.0195515,-0.3038645,0.9488814999999999,-0.08508650000000001,0.3271055,0.9432015,-0.0742455,-0.07260549999999999,0.0026855000000000004,0.0020264999999999997,0.07260549999999999,-0.0026855000000000004,-0.0020265000000000005,-0.12194449999999998,-0.3914085,-0.0547875,0.12138550000000001,-0.4265585,-0.028148500000000003,-0.1287045,-0.7688385,-0.05708450000000001,0.1220655,-0.7758285,-0.0542455
92,0.010510999999999998,0.737485,0.0276915,-0.141213,0.519695,0.0259315,-0.254533,0.751715,-0.0228695,0.154357,0.49036499999999994,0.0173775,0.279687,0.726105,-0.0145115,-0.304753,0.948145,-0.0769675,0.327767,0.943205,-0.0680255,-0.072753,0.0029879999999999976,0.0024185000000000005,0.072753,-0.0029880000000000045,-0.0024185000000000005,-0.122453,-0.39529499999999995,-0.0468605,0.119547,-0.43045500000000003,-0.0197175,-0.129143,-0.772985,-0.050472500000000003,0.121597,-0.780095,-0.0499305
93,0.010684499999999996,0.73683,0.030974,-0.1417125,0.51783,0.028974,-0.2557025,0.75051,-0.018035999999999996,0.1551875,0.49095,0.021351000000000002,0.28011749999999996,0.72624,-0.010095,-0.3053325,0.9473,-0.07002900000000001,0.32807749999999997,0.94272,-0.06284000000000001,-0.0728695,0.0031829999999999983,0.0028070000000000005,0.0728695,-0.0031829999999999983,-0.0028070000000000005,-0.1229625,-0.39851,-0.039887,0.1180475,-0.43373,-0.012471,-0.1297525,-0.77632,-0.044155,0.12108749999999999,-0.7838,-0.046242
94,0.010822000000000002,0.7363095,0.033478999999999995,-0.142344,0.5159395,0.031549999999999995,-0.256914,0.7488195,-0.013647000000000003,0.155886,0.49161950000000004,0.024973,0.280596,0.7263795,-0.006203000000000004,-0.30591399999999996,0.9460095,-0.064684,0.32829600000000003,0.9423695,-0.058113,-0.072957,0.0032714999999999966,0.0032169999999999976,0.072957,-0.0032715000000000036,-0.003217000000000001,-0.123424,-0.4015605,-0.034678,0.11718600000000001,-0.4364905,-0.007776000000000002,-0.13048400000000002,-0.7807305,-0.039375,0.12054600000000001,-0.7868305000000001,-0.043126000000000005
95,0.0110135,0.7356145000000001,0.0356935,-0.1422695,0.5140245000000001,0.0337815,-0.2577695,0.7474345,-0.0093625,0.15658049999999998,0.49265450000000005,0.0284805,0.2811405,0.7268745000000001,-0.0025564999999999997,-0.3064995,0.9449844999999999,-0.0597505,0.32851050000000004,0.9423845,-0.053683499999999995,-0.07306850000000001,0.0033554999999999974,0.0035014999999999994,0.07306850000000001,-0.0033554999999999974,-0.003501500000000001,-0.12441950000000002,-0.4005255,-0.0303995,0.1166005,-0.4378455,-0.004007500000000001,-0.1312795,-0.7819155,-0.0348605,0.12020049999999999,-0.7892254999999999,-0.0404525
96,0.011230000000000006,0.7348119999999999,0.037992,-0.142169,0.512242,0.036009,-0.258739,0.7456919999999999,-0.005188999999999999,0.157221,0.49377200000000004,0.031931,0.281641,0.726112,0.0015839999999999986,-0.30772900000000003,0.9436519999999999,-0.05510899999999999,0.329061,0.942322,-0.04897699999999999,-0.073191,0.003476999999999994,0.0037410000000000013,0.073191,-0.003477000000000001,-0.0037410000000000013,-0.12541899999999997,-0.399048,-0.026389,0.116031,-0.439048,-0.0012110000000000003,-0.13188899999999998,-0.782188,-0.030511,0.119871,-0.791518,-0.037827
97,0.011203000000000001,0.734291,0.039774500000000004,-0.142374,0.511401,0.0377875,-0.25986400000000004,0.744561,-0.0019325000000000002,0.157406,0.49400099999999997,0.034834500000000004,0.281846,0.724931,0.005646499999999999,-0.309584,0.9426610000000001,-0.051902500000000004,0.33000599999999997,0.9423210000000001,-0.04473350000000001,-0.073267,0.003568999999999996,0.0038515000000000008,0.073267,-0.0035690000000000027,-0.0038515000000000008,-0.126104,-0.396719,-0.0229955,0.115396,-0.43922900000000004,0.0005585,-0.13251400000000002,-0.7817689999999999,-0.0264175,0.119646,-0.7924289999999999,-0.035404500000000005
98,0.011014499999999997,0.7341065,0.041135000000000005,-0.1427665,0.5117065000000001,0.039144,-0.2610965,0.7446865,4.60000000000009e-05,0.15733350000000002,0.49431650000000005,0.037313,0.2824435,0.7249565,0.009008000000000002,-0.3115765,0.9423765000000001,-0.050235,0.3308535,0.9423065,-0.041499999999999995,-0.07331750000000001,0.0036065000000000055,0.003706000000000001,0.07331750000000001,-0.0036064999999999986,-0.0037059999999999975,-0.1268065,-0.3960935,-0.020941,0.11470349999999999,-0.43926350000000003,0.001909000000000001,-0.1331165,-0.7808735,-0.023929,0.1194335,-0.7922935,-0.033965999999999996
99,0.010723500000000004,0.7339995,0.0425955,-0.1431365,0.5118595,0.0406025,-0.26241650000000005,0.7443995,0.0014845000000000032,0.1572335,0.4947595,0.039983500000000005,0.2833335,0.7246895,0.011928500000000002,-0.3137265,0.9421095,-0.048814500000000004,0.33180350000000003,0.9422995000000001,-0.0389465,-0.0733615,0.0036225000000000007,0.0035055000000000017,0.0733615,-0.0036225000000000007,-0.003505499999999998,-0.1275565,-0.3958005,-0.0194905,0.1141335,-0.4392005,0.003363500000000002,-0.1338265,-0.7806204999999999,-0.022047499999999998,0.11912350000000001,-0.7920705,-0.0325055
100,0.010229000000000002,0.733673,0.043997999999999995,-0.14387799999999998,0.511173,0.042016,-0.264438,0.743103,0.0030489999999999996,0.156972,0.495283,0.042624999999999996,0.284182,0.7239329999999999,0.014551999999999999,-0.315948,0.941353,-0.047255000000000005,0.332602,0.941543,-0.037063,-0.07337199999999999,0.0035610000000000017,0.0032130000000000006,0.07337199999999999,-0.0035610000000000017,-0.0032130000000000006,-0.12850799999999998,-0.39579699999999995,-0.017904000000000003,0.11402200000000001,-0.438507,0.004226999999999998,-0.13438799999999998,-0.780987,-0.020423000000000004,0.11927199999999999,-0.7920670000000001,-0.030896
101,0.009680500000000002,0.733366,0.0454535,-0.1446265,0.5100960000000001,0.0434335,-0.2668865,0.741236,0.004517500000000001,0.1571035,0.496156,0.0451265,0.2854835,0.7231860000000001,0.0169055,-0.31768650000000004,0.940456,-0.045770500000000006,0.3338235,0.9410560000000001,-0.035515500000000005,-0.0733685,0.0034360000000000016,0.0028935000000000002,0.0733685,-0.0034359999999999946,-0.0028935000000000002,-0.12918649999999998,-0.395644,-0.0163965,0.1139235,-0.437584,0.0039305,-0.13482650000000002,-0.781474,-0.018910499999999997,0.1193035,-0.792244,-0.029373499999999997
