sb224sc-HT22-VT27/4dt907/src/ml-research/a11/datafiles/kinect_good_preprocessed_A9_mediapipe/A82_kinect.csv
FrameNo,nose_3d_x,nose_3d_y,nose_3d_z,left_shoulder_3d_x,left_shoulder_3d_y,left_shoulder_3d_z,left_elbow_3d_x,left_elbow_3d_y,left_elbow_3d_z,right_shoulder_3d_x,right_shoulder_3d_y,right_shoulder_3d_z,right_elbow_3d_x,right_elbow_3d_y,right_elbow_3d_z,left_wrist_3d_x,left_wrist_3d_y,left_wrist_3d_z,right_wrist_3d_x,right_wrist_3d_y,right_wrist_3d_z,left_hip_3d_x,left_hip_3d_y,left_hip_3d_z,right_hip_3d_x,right_hip_3d_y,right_hip_3d_z,left_knee_3d_x,left_knee_3d_y,left_knee_3d_z,right_knee_3d_x,right_knee_3d_y,right_knee_3d_z,left_ankle_3d_x,left_ankle_3d_y,left_ankle_3d_z,right_ankle_3d_x,right_ankle_3d_y,right_ankle_3d_z
0,-0.015760999999999997,0.819237,0.157558,-0.182747,0.608707,0.125102,-0.29346700000000003,0.817627,0.040855999999999996,0.197243,0.5860869999999999,0.12881900000000002,0.331203,0.7961769999999999,0.057968,-0.29297700000000004,1.0990769999999999,-0.01958,0.35752300000000004,1.049377,-0.047332,-0.08649,0.003375,0.0011809999999999946,0.08649,-0.003375,-0.0011810000000000015,-0.118047,-0.413333,-0.009541000000000001,0.121213,-0.465343,0.031242999999999996,-0.10707699999999999,-0.809883,0.022650999999999998,0.126823,-0.8381230000000001,0.039202999999999995
1,-0.015588000000000001,0.818668,0.158967,-0.182715,0.6084579999999999,0.125491,-0.29364500000000004,0.817348,0.04087,0.197465,0.585078,0.129363,0.331485,0.795688,0.057775,-0.293345,1.098808,-0.019809,0.35789499999999996,1.049908,-0.048116,-0.08649899999999999,0.003418,0.0012860000000000024,0.08649899999999999,-0.003418,-0.0012860000000000024,-0.118095,-0.41333200000000003,-0.009776,0.121165,-0.465542,0.03132,-0.106565,-0.808992,0.022961,0.126775,-0.8379220000000001,0.040073
2,-0.015456500000000003,0.8187924999999999,0.1587325,-0.1825475,0.6084925,0.1256355,-0.2937075,0.8172124999999999,0.0407585,0.1976125,0.5847024999999999,0.1292335,0.3318425,0.7951824999999999,0.0574355,-0.2934875,1.0986025,-0.020282500000000002,0.3582225,1.0508024999999999,-0.049349500000000004,-0.0865375,0.0033185000000000003,0.0012835,0.0865375,-0.0033185000000000003,-0.0012835,-0.1181475,-0.4133875,-0.009979500000000002,0.1210425,-0.4642575,0.031134500000000002,-0.1064775,-0.8086775,0.0225875,0.1266525,-0.8372075000000001,0.039704500000000004
3,-0.0152445,0.8185295,0.15896749999999998,-0.1823785,0.6082595000000001,0.1254635,-0.2937285,0.8168595,0.0406395,0.1977315,0.5839595,0.1291365,0.33213149999999997,0.7945495,0.057156500000000006,-0.2934585,1.0982695,-0.020921499999999996,0.3585015,1.0498695,-0.05079249999999999,-0.0866095,0.0034205,0.001521500000000002,0.0866095,-0.0034205,-0.001521499999999995,-0.1178785,-0.41164049999999996,-0.010670499999999992,0.1211215,-0.4644905,0.030885500000000003,-0.1060185,-0.8086205,0.021706500000000004,0.1268515,-0.8373105,0.0393215
4,-0.0150565,0.818246,0.1585715,-0.1821015,0.608106,0.1256845,-0.2937015,0.816556,0.0400895,0.1978685,0.583546,0.1289085,0.3323585,0.794196,0.056612499999999996,-0.2933615,1.0979160000000001,-0.021645499999999998,0.35876850000000005,1.049916,-0.05167649999999999,-0.0866585,0.003533,0.001957500000000001,0.0866585,-0.003533,-0.001957500000000001,-0.1177115,-0.41533400000000004,-0.010056500000000003,0.1212185,-0.464554,0.030287500000000002,-0.10602149999999999,-0.8087340000000001,0.0212135,0.12718849999999998,-0.836564,0.0390975
5,-0.0147295,0.817993,0.1587945,-0.1820695,0.607983,0.1253525,-0.2936595,0.816173,0.039351500000000005,0.19838050000000002,0.584053,0.12927650000000002,0.3324805,0.793623,0.055919500000000004,-0.2932995,1.097543,-0.022873499999999998,0.3591805,1.050843,-0.0534945,-0.08667549999999999,0.003282,0.002410500000000003,0.08667549999999999,-0.003282,-0.002410499999999996,-0.11775949999999999,-0.415917,-0.010645499999999995,0.1215205,-0.471117,0.030580500000000004,-0.10604949999999999,-0.810467,0.020206500000000002,0.1272605,-0.836887,0.0369895
6,-0.014488999999999998,0.817701,0.1582465,-0.182052,0.607821,0.1250175,-0.29350200000000004,0.816001,0.038886500000000004,0.198558,0.5838409999999999,0.1288065,0.33262800000000003,0.7931509999999999,0.055498500000000006,-0.29311200000000004,1.0973410000000001,-0.0236245,0.35945800000000006,1.0508410000000001,-0.0543225,-0.086628,0.003371,0.0023584999999999995,0.086628,-0.003371,-0.0023584999999999995,-0.117592,-0.416419,-0.011195499999999997,0.122318,-0.465389,0.0298465,-0.106012,-0.811879,0.019332500000000002,0.126658,-0.836599,0.036943500000000004
7,-0.014503,0.8175125,0.1579195,-0.182022,0.6072225,0.1250525,-0.29333200000000004,0.8164524999999999,0.0389575,0.19797800000000002,0.5848525,0.1290195,0.332488,0.7932724999999999,0.054932499999999995,-0.29310200000000003,1.0978025,-0.023462500000000004,0.359278,1.0505025000000001,-0.05378050000000001,-0.086511,0.0034165,0.0024954999999999977,0.086511,-0.0034165,-0.0024955000000000047,-0.11793200000000001,-0.4143575,-0.011694500000000004,0.121418,-0.4685475,0.029745499999999994,-0.106232,-0.8114875,0.018693499999999995,0.127428,-0.8383675,0.0352235
8,-0.0143415,0.817342,0.15787,-0.1819865,0.6070019999999999,0.12510300000000002,-0.2933165,0.8164119999999999,0.038855,0.1980035,0.5847819999999999,0.12903900000000001,0.3325235,0.793132,0.054635,-0.2931065,1.097762,-0.023791,0.35933350000000003,1.050562,-0.054360000000000006,-0.0864935,0.003399,0.0026149999999999993,0.0864935,-0.003399,-0.0026149999999999993,-0.1180165,-0.41470799999999997,-0.011928000000000001,0.12144350000000001,-0.469508,0.029557,-0.10609650000000001,-0.811828,0.018119,0.1275735,-0.838588,0.034519
9,-0.014172999999999995,0.8171634999999999,0.1579735,-0.181953,0.6067935,0.1251715,-0.293263,0.8163635,0.0388485,0.198017,0.5848535,0.1291175,0.332557,0.7930035,0.0544575,-0.293103,1.0977335,-0.0239515,0.359387,1.0505335,-0.0548395,-0.086478,0.0033775,0.002648499999999998,0.086478,-0.0033775000000000003,-0.002648499999999998,-0.11805299999999999,-0.4150565,-0.012178500000000002,0.121467,-0.4704265,0.029406500000000002,-0.106013,-0.8122565,0.0175865,0.12773700000000002,-0.8388565,0.0337365
10,-0.014018999999999998,0.8170175,0.1580555,-0.181928,0.6066175,0.1252995,-0.29319799999999996,0.8163875,0.0389805,0.19803199999999999,0.5850475,0.1292565,0.332492,0.7929075,0.054447499999999996,-0.29313799999999995,1.0978374999999998,-0.023876500000000002,0.359412,1.0504375000000001,-0.054924499999999994,-0.086454,0.0033615,0.0026035000000000016,0.086454,-0.0033615,-0.0026035000000000016,-0.118058,-0.4153825,-0.012372500000000002,0.121532,-0.4713025,0.0291475,-0.10585800000000001,-0.8125125,0.0171545,0.127972,-0.8391825,0.0330945
11,-0.013881000000000001,0.816935,0.158312,-0.181937,0.606525,0.125501,-0.293157,0.816415,0.039275,0.197993,0.585375,0.129551,0.332363,0.792925,0.05456799999999999,-0.293197,1.097905,-0.023480000000000008,0.359383,1.050405,-0.054495,-0.08643500000000001,0.003329,0.0025359999999999966,0.08643500000000001,-0.0033290000000000004,-0.0025360000000000035,-0.118117,-0.415885,-0.012444000000000004,0.121563,-0.471975,0.028958999999999995,-0.10577700000000001,-0.812655,0.016823999999999995,0.12818300000000002,-0.839455,0.032577999999999996
12,-0.013711500000000003,0.816885,0.15874,-0.1819195,0.606395,0.125802,-0.2931095,0.816445,0.039743,0.19793049999999998,0.585605,0.129828,0.3322005,0.792995,0.054902,-0.2932595,1.097905,-0.022830999999999997,0.3592705,1.050405,-0.053693,-0.0864145,0.003329,0.00238,0.0864145,-0.0033290000000000004,-0.00238,-0.11813950000000001,-0.416195,-0.012366000000000002,0.12156049999999999,-0.47229499999999996,0.028876,-0.10568949999999999,-0.812785,0.016661000000000002,0.12835049999999998,-0.839695,0.032353
13,-0.013462000000000002,0.816815,0.159185,-0.181915,0.606235,0.126132,-0.293095,0.816445,0.04026199999999999,0.197755,0.5858450000000001,0.13021,0.332005,0.793205,0.05539999999999999,-0.293325,1.097905,-0.022111000000000006,0.359095,1.050405,-0.05251,-0.086395,0.003329,0.002258999999999997,0.086395,-0.0033290000000000004,-0.002259000000000004,-0.118155,-0.416525,-0.012233000000000008,0.121515,-0.472175,0.028752999999999994,-0.105565,-0.8129149999999999,0.016577999999999996,0.128505,-0.839905,0.03223299999999999
14,-0.012892,0.8166995,0.1596635,-0.18189699999999998,0.6061095,0.1263225,-0.293097,0.8164494999999999,0.040835500000000004,0.197523,0.5860894999999999,0.1305955,0.331783,0.7935194999999999,0.055990500000000006,-0.29341700000000004,1.0979094999999999,-0.021392499999999995,0.358863,1.0504095,-0.0511735,-0.086368,0.0033244999999999998,0.0021195000000000033,0.086368,-0.0033245,-0.0021194999999999964,-0.118157,-0.41602049999999996,-0.012374499999999997,0.121453,-0.4722205,0.028608500000000005,-0.105407,-0.8129905000000001,0.016495500000000007,0.128623,-0.8400205000000001,0.032081500000000006
15,-0.012137500000000004,0.816596,0.160166,-0.1818825,0.605886,0.126499,-0.2931125,0.816556,0.041393,0.1972875,0.586426,0.130996,0.33150749999999995,0.793956,0.056788,-0.2935225,1.0980159999999999,-0.020699000000000002,0.35859749999999996,1.050616,-0.049768,-0.0863485,0.0032660000000000002,0.0019850000000000007,0.0863485,-0.0032660000000000002,-0.0019850000000000007,-0.1182425,-0.41606400000000004,-0.012514999999999998,0.1214075,-0.47211400000000003,0.02847,-0.10524250000000002,-0.812934,0.016392,0.1286575,-0.839944,0.031946999999999996
16,-0.011209000000000005,0.816542,0.1607335,-0.181871,0.605742,0.1266615,-0.293161,0.816662,0.0419105,0.196999,0.586852,0.1314555,0.331199,0.794392,0.0576135,-0.29364100000000004,1.098202,-0.019980499999999998,0.358229,1.050702,-0.0481295,-0.086339,0.003181,0.0018455,0.086339,-0.003181,-0.0018455,-0.11832100000000001,-0.415638,-0.012692500000000002,0.12133899999999999,-0.471388,0.0282245,-0.105101,-0.812798,0.0163515,0.12864899999999999,-0.839798,0.0320545
17,-0.010216,0.8165085,0.161306,-0.181915,0.6057184999999999,0.126787,-0.293255,0.8167485,0.042429999999999995,0.196675,0.5872685,0.13196,0.330805,0.7948385,0.058551,-0.293805,1.0983185,-0.019255,0.357805,1.0507185,-0.046516999999999996,-0.08632799999999999,0.0031015,0.0016590000000000008,0.08632799999999999,-0.0031015,-0.0016590000000000008,-0.11841499999999999,-0.4151015,-0.013007999999999999,0.121275,-0.47117149999999997,0.027995,-0.104995,-0.8126215,0.016336999999999997,0.128615,-0.8395815000000001,0.032
18,-0.009158500000000003,0.816516,0.1618445,-0.1819535,0.6057159999999999,0.12689050000000002,-0.2933635,0.816776,0.0429355,0.1963065,0.587776,0.1324975,0.3303865,0.7952859999999999,0.0595965,-0.2939935,1.098476,-0.0185795,0.3573765,1.0507760000000002,-0.0449845,-0.08631849999999999,0.0030210000000000002,0.0014634999999999995,0.08631849999999999,-0.0030210000000000002,-0.0014634999999999995,-0.11848349999999999,-0.41528400000000004,-0.013157499999999996,0.1212065,-0.470824,0.0277125,-0.10487350000000001,-0.812424,0.016383500000000002,0.12852650000000002,-0.839244,0.032086500000000004
19,-0.008041,0.8165005,0.162514,-0.181984,0.6056905,0.12698399999999999,-0.293494,0.8167505,0.04339900000000001,0.196056,0.5882805,0.132997,0.330046,0.7957005,0.06067,-0.294144,1.0984805,-0.018007999999999996,0.356986,1.0504805,-0.04306599999999999,-0.086306,0.0029395000000000003,0.0012710000000000013,0.086306,-0.0029395000000000003,-0.0012709999999999944,-0.118414,-0.4155895,-0.013274999999999995,0.121096,-0.46989949999999997,0.027418000000000005,-0.104904,-0.8121595,0.016447000000000003,0.128416,-0.8388095,0.032212000000000005
20,-0.0068345000000000055,0.8164735000000001,0.16318,-0.1819365,0.6055535000000001,0.127129,-0.29364650000000003,0.8166535,0.043784000000000003,0.1957735,0.5887635,0.13370300000000002,0.3297035,0.7961035000000001,0.061794,-0.2942765,1.0984935,-0.017632999999999996,0.3567835,1.0500935,-0.041311,-0.0862975,0.0028715,0.0010700000000000015,0.0862975,-0.0028715,-0.0010699999999999946,-0.1183565,-0.41652649999999997,-0.013412999999999994,0.12099349999999999,-0.46902649999999996,0.027051000000000006,-0.1049365,-0.8118965,0.016477000000000006,0.1283035,-0.8384465,0.032343000000000004
21,-0.005628000000000001,0.816504,0.1637825,-0.181827,0.605114,0.12722250000000002,-0.293817,0.816574,0.044053499999999995,0.195473,0.589284,0.1343655,0.329383,0.796474,0.0628795,-0.29441700000000004,1.098444,-0.017377500000000004,0.35657300000000003,1.049844,-0.039760500000000004,-0.08631,0.002824,0.0008885000000000004,0.08631,-0.002824,-0.0008885000000000004,-0.118327,-0.417436,-0.013535499999999999,0.120923,-0.468406,0.0266795,-0.104977,-0.8115859999999999,0.0164495,0.128263,-0.837776,0.032335499999999996
22,-0.0047234999999999985,0.816504,0.16426500000000002,-0.1818445,0.605114,0.127177,-0.2939745,0.816574,0.043966000000000005,0.1951455,0.5893940000000001,0.13489500000000001,0.3290155,0.7966540000000001,0.063744,-0.2945745,1.098444,-0.017465,0.3561855,1.049844,-0.038888,-0.08633650000000001,0.002824,0.0007090000000000013,0.08633650000000001,-0.002824,-0.0007090000000000013,-0.11833450000000001,-0.418136,-0.013523,0.12077550000000001,-0.467686,0.026363,-0.1050845,-0.811546,0.016409,0.1281455,-0.8373959999999999,0.03234
23,-0.004079999999999996,0.816504,0.1646575,-0.181871,0.6049840000000001,0.1271175,-0.294141,0.816574,0.0438485,0.194849,0.589474,0.1353275,0.32864899999999997,0.796784,0.0644695,-0.294731,1.098444,-0.0175825,0.355839,1.049844,-0.038308499999999995,-0.086366,0.002824,0.0005515000000000034,0.086366,-0.002824,-0.0005514999999999964,-0.11833099999999999,-0.418376,-0.0137305,0.120649,-0.467056,0.025940500000000002,-0.105181,-0.811546,0.0163405,0.128019,-0.8369059999999999,0.0323765
24,-0.0035879999999999983,0.816504,0.164995,-0.181953,0.6047340000000001,0.12701099999999999,-0.294343,0.816574,0.043664,0.194547,0.5895440000000001,0.135655,0.328337,0.796914,0.064897,-0.294893,1.098444,-0.017765000000000003,0.355487,1.049944,-0.037912,-0.086391,0.002824,0.00037600000000000133,0.086391,-0.002824,-0.00037600000000000133,-0.118333,-0.418246,-0.014047999999999998,0.12051700000000001,-0.466496,0.025488999999999998,-0.105293,-0.811546,0.0162,0.127867,-0.836486,0.032217
25,-0.003323499999999997,0.8168304999999999,0.165227,-0.18208349999999998,0.6040504999999999,0.12695,-0.29500350000000003,0.8164505,0.04345,0.19399650000000002,0.5904204999999999,0.135947,0.3277565,0.7974505,0.06534300000000001,-0.2956635,1.0982405,-0.018153999999999997,0.35502649999999997,1.0502405,-0.037839,-0.08642849999999999,0.0026715000000000003,0.00019800000000000373,0.08642849999999999,-0.0026715000000000003,-0.0001979999999999968,-0.11825349999999998,-0.41843949999999996,-0.014411999999999994,0.12053649999999999,-0.4664295,0.025141000000000004,-0.1050335,-0.8110295000000001,0.016181000000000004,0.12800650000000002,-0.8356695000000001,0.03204900000000001
26,-0.003085,0.8171755,0.16546249999999998,-0.182121,0.6033455000000001,0.12691049999999998,-0.295651,0.8163655000000001,0.0431145,0.193659,0.5912855,0.1363725,0.32727900000000004,0.7978755000000001,0.0656835,-0.296411,1.0980455,-0.018707500000000002,0.354619,1.0504455000000001,-0.037818500000000005,-0.08645900000000001,0.0025445,3.249999999999781e-05,0.08645900000000001,-0.0025445,-3.250000000000475e-05,-0.118151,-0.4186045,-0.014735499999999999,0.120589,-0.4662245,0.024867499999999997,-0.10475100000000001,-0.8107645,0.0161995,0.128159,-0.8347545,0.031924499999999995
27,-0.0029244999999999996,0.8175895,0.1656515,-0.1821695,0.6024395,0.1268745,-0.2963295,0.8162594999999999,0.0426935,0.1933305,0.5920595,0.1367015,0.3268305,0.7981895,0.0658625,-0.2971995,1.0979295,-0.019403499999999997,0.3542805,1.0506295,-0.0379705,-0.0864865,0.0024324999999999998,-0.00011049999999999949,0.0864865,-0.0024324999999999998,0.00011049999999999949,-0.1181895,-0.4179405,-0.015008500000000001,0.1206405,-0.46593049999999997,0.024601500000000002,-0.1045095,-0.8104905,0.0161945,0.1283405,-0.8339305,0.0318175
28,-0.002868000000000001,0.818071,0.16571399999999997,-0.182237,0.601441,0.12678899999999999,-0.297017,0.816231,0.042137,0.193103,0.592801,0.136944,0.326403,0.7984110000000001,0.065868,-0.297987,1.097801,-0.02031,0.353993,1.0507009999999999,-0.038261,-0.086521,0.002327,-0.0002520000000000022,0.086521,-0.002327,0.0002520000000000022,-0.118297,-0.41702900000000004,-0.015337999999999997,0.120703,-0.465469,0.024186,-0.104247,-0.8102389999999999,0.016099,0.128513,-0.833059,0.03161
29,-0.002802,0.81854,0.1656,-0.182295,0.6004900000000001,0.126676,-0.29774500000000004,0.81621,0.041467000000000004,0.192905,0.5935400000000001,0.13721,0.32604500000000003,0.79862,0.065651,-0.298775,1.09768,-0.021435999999999997,0.353715,1.0507799999999998,-0.038653,-0.086565,0.002201,-0.0004009999999999986,0.086565,-0.002201,0.0004009999999999986,-0.118405,-0.41757,-0.015489000000000003,0.120755,-0.4647,0.023733,-0.103895,-0.8099799999999999,0.015901000000000002,0.128715,-0.83236,0.031241
30,-0.002798000000000001,0.8190025000000001,0.1654785,-0.182327,0.5994725000000001,0.12661050000000001,-0.298487,0.8161825,0.0406665,0.192683,0.5942325,0.1375385,0.32569299999999995,0.7988325000000001,0.0653595,-0.29957700000000004,1.0975525,-0.0228135,0.35344299999999995,1.0508525,-0.0391745,-0.08658199999999999,0.0020615,-0.000508500000000002,0.08658199999999999,-0.0020615,0.000508500000000002,-0.118417,-0.4181675,-0.0157635,0.120783,-0.4639475,0.0231415,-0.103581,-0.8097575,0.015585499999999999,0.12893300000000002,-0.8317375,0.0307125
31,-0.0027935000000000056,0.8194165,0.1653845,-0.1823175,0.5984565000000001,0.1265205,-0.2991975,0.8159865000000001,0.039945499999999995,0.1925125,0.5949965,0.1379645,0.3254025,0.7990165,0.0650665,-0.3003575,1.0972765,-0.0243325,0.3533025,1.0515765,-0.040170500000000005,-0.0865825,0.0019375,-0.0005835000000000007,0.0865825,-0.0019375000000000002,0.0005835000000000007,-0.11853750000000002,-0.4187835,-0.016246500000000004,0.12083250000000001,-0.4641135,0.022593499999999996,-0.10324150000000001,-0.8095935,0.015260499999999996,0.1291525,-0.8316835,0.030109499999999997
32,-0.002770000000000002,0.8198595,0.16521799999999998,-0.182316,0.5974195,0.126365,-0.29987600000000003,0.8157095,0.038983,0.192324,0.5957295,0.138548,0.325144,0.7991095,0.06459799999999999,-0.30109600000000003,1.0967695,-0.026126000000000003,0.353284,1.0523695,-0.04152800000000001,-0.086587,0.0017974999999999996,-0.00068,0.086587,-0.0017975,0.0006799999999999966,-0.118646,-0.4194605,-0.016975000000000004,0.120924,-0.4641205,0.021831999999999997,-0.10289100000000001,-0.8095505000000001,0.014665999999999995,0.12931399999999998,-0.8314905,0.029190999999999995
33,-0.002751999999999994,0.820299,0.1650835,-0.182359,0.596599,0.1261415,-0.300519,0.8153889999999999,0.0378855,0.19217099999999998,0.5963689999999999,0.1391135,0.32493099999999997,0.799129,0.0640405,-0.301799,1.096379,-0.028054500000000003,0.353301,1.053079,-0.043004499999999994,-0.08659,0.0016820000000000003,-0.000725499999999997,0.08659,-0.0016819999999999995,0.0007255000000000005,-0.11875899999999999,-0.419951,-0.017944500000000002,0.12103100000000001,-0.464241,0.020944499999999998,-0.102506,-0.8096110000000001,0.013884500000000001,0.12956099999999998,-0.831291,0.0281425
34,-0.0026974999999999985,0.820307,0.16492400000000002,-0.1823145,0.596527,0.12592,-0.3006845,0.815337,0.036743,0.1920955,0.596497,0.139644,0.3247955,0.7990970000000001,0.063366,-0.3018945,1.0963269999999998,-0.029668,0.3533655,1.053127,-0.044208000000000004,-0.0865875,0.001706,-0.0006980000000000007,0.0865875,-0.001706,0.0006979999999999972,-0.11884449999999999,-0.41951299999999997,-0.018980999999999998,0.12100549999999999,-0.463353,0.019947,-0.1024645,-0.809663,0.012826999999999998,0.1295755,-0.831053,0.026829
35,-0.0026835000000000027,0.8203244999999999,0.1646795,-0.1822375,0.5963544999999999,0.12571349999999998,-0.30088750000000003,0.8152944999999999,0.0355255,0.1920425,0.5965644999999999,0.1401895,0.3246325,0.7990645,0.06269849999999999,-0.3020175,1.0962844999999999,-0.031247500000000004,0.3532325,1.0532845,-0.045422500000000005,-0.0865875,0.0017285,-0.000679500000000003,0.0865875,-0.0017285000000000004,0.0006794999999999995,-0.11895750000000001,-0.4190755,-0.020067500000000002,0.12095249999999999,-0.4626655,0.0189075,-0.1024195,-0.8097055000000001,0.011670499999999997,0.1295025,-0.8309655,0.025367499999999998
36,-0.002688500000000004,0.820342,0.164389,-0.1821935,0.596302,0.125414,-0.30105350000000003,0.815242,0.034243,0.1920265,0.596662,0.140699,0.3244765,0.799022,0.061907000000000004,-0.30212350000000004,1.0962319999999999,-0.032832,0.3531065,1.053332,-0.046703,-0.0866015,0.0017439999999999999,-0.0006629999999999969,0.0866015,-0.0017439999999999999,0.0006630000000000004,-0.1190635,-0.418018,-0.021263999999999998,0.12090649999999999,-0.462068,0.017747000000000002,-0.1023585,-0.809758,0.010438000000000003,0.1294265,-0.830928,0.02402
37,-0.002466499999999997,0.8204925,0.164331,-0.1819545,0.5957925,0.125246,-0.3011945,0.8149425,0.033208,0.19230550000000002,0.5968424999999999,0.141471,0.3245655,0.7988625,0.061386,-0.3022245,1.0957825,-0.034348,0.3533155,1.0535825,-0.047963,-0.08662349999999999,0.0017305000000000003,-0.0006519999999999998,0.08662349999999999,-0.0017304999999999994,0.0006519999999999998,-0.11917449999999999,-0.4170575,-0.022542,0.1209055,-0.4612775,0.016496999999999998,-0.10229150000000001,-0.8100575,0.009169,0.1293455,-0.8308375,0.022551
38,-0.002303000000000003,0.8205604999999999,0.16421449999999999,-0.18173099999999998,0.5953805,0.1250945,-0.301311,0.8146804999999999,0.0322325,0.192469,0.5969005,0.1416945,0.32465900000000003,0.7987504999999999,0.0608685,-0.302291,1.0954205000000001,-0.0357765,0.353509,1.0535205,-0.0491965,-0.086645,0.0016885,-0.0006134999999999995,0.086645,-0.0016885000000000003,0.0006134999999999995,-0.11929100000000001,-0.4159095,-0.0239105,0.12080899999999999,-0.4613095,0.0152535,-0.10238900000000001,-0.8101695,0.0079035,0.12920900000000002,-0.8308095000000001,0.0211005
39,-0.0021199999999999965,0.8205665000000001,0.16404000000000002,-0.18158999999999997,0.5951665,0.12473999999999999,-0.30138000000000004,0.8143365,0.031232,0.19267,0.5968865,0.14191,0.3248,0.7985965,0.060306,-0.3023,1.0949965000000002,-0.037273,0.35373,1.0534965,-0.050428,-0.086671,0.0016575000000000001,-0.0005840000000000012,0.086671,-0.0016574999999999997,0.0005840000000000012,-0.11938,-0.4146135,-0.025345000000000003,0.12075999999999999,-0.4612035,0.013869,-0.102438,-0.8103635,0.0065190000000000005,0.12916,-0.8309234999999999,0.019732
40,-0.0019735000000000035,0.8205695000000001,0.16375599999999998,-0.18140650000000003,0.5949795,0.124326,-0.3014765,0.8139495,0.030178,0.1927735,0.5968295,0.141956,0.3248935,0.7984895000000001,0.059777,-0.30234649999999996,1.0945695,-0.038789000000000004,0.3538735,1.0534695,-0.051643999999999995,-0.0866985,0.0016384999999999993,-0.0005989999999999988,0.0866985,-0.0016385000000000002,0.0005989999999999988,-0.1195065,-0.41333050000000005,-0.026893999999999998,0.12066349999999999,-0.4605905,0.012334,-0.10251450000000001,-0.8105605,0.0050550000000000005,0.1290035,-0.8311505,0.018371
41,-0.0014715000000000032,0.8205565,0.16359050000000003,-0.18097950000000002,0.5947765,0.1240005,-0.3012195,0.8136065,0.0294185,0.19313049999999998,0.5968165000000001,0.14193050000000001,0.3253105,0.7981465,0.0594265,-0.30192949999999996,1.0941365,-0.0400745,0.3545105,1.0533365000000001,-0.0524835,-0.0867275,0.0016965,-0.0005294999999999987,0.0867275,-0.0016965,0.0005295000000000022,-0.1196295,-0.4117635,-0.028268500000000002,0.1205005,-0.45963350000000003,0.010975500000000001,-0.1029395,-0.8106734999999999,0.0037365000000000002,0.1284905,-0.8312835,0.0170815
42,-0.001020000000000001,0.820543,0.16331050000000003,-0.180589,0.594613,0.1236705,-0.300999,0.813303,0.028645500000000004,0.193461,0.596803,0.1418605,0.325681,0.797823,0.0590875,-0.301589,1.093723,-0.0413045,0.355001,1.053323,-0.053239499999999995,-0.08676500000000001,0.0017590000000000001,-0.0005284999999999977,0.08676500000000001,-0.0017589999999999997,0.0005285000000000012,-0.119749,-0.410327,-0.0296045,0.12029100000000001,-0.45876700000000004,0.009682500000000002,-0.10349900000000001,-0.810747,0.0024355,0.127881,-0.831377,0.015835500000000002
43,-0.0006024999999999997,0.8205100000000001,0.163019,-0.1802515,0.5945400000000001,0.12323899999999999,-0.3008815,0.81313,0.027703000000000002,0.1936585,0.5968100000000001,0.141629,0.32599849999999997,0.79749,0.058766,-0.3014215,1.09341,-0.042505,0.3553685,1.05331,-0.054017,-0.0867935,0.0018280000000000002,-0.0005809999999999982,0.0867935,-0.001828,0.0005810000000000017,-0.1198915,-0.40892999999999996,-0.03087,0.12006850000000001,-0.45815999999999996,0.008548000000000002,-0.1041025,-0.81081,0.0012320000000000005,0.1272685,-0.83154,0.014677
44,-0.00023050000000000067,0.820454,0.16262200000000002,-0.1799595,0.5944640000000001,0.12271199999999999,-0.30082949999999997,0.812994,0.026574,0.1938105,0.596774,0.141302,0.3263005,0.797124,0.05833,-0.3013595,1.093174,-0.043831,0.3557305,1.053274,-0.055073000000000004,-0.08683550000000001,0.0019030000000000002,-0.0006570000000000013,0.08683550000000001,-0.0019029999999999997,0.0006570000000000013,-0.11999950000000001,-0.407496,-0.032226,0.11984049999999999,-0.457596,0.0073349999999999995,-0.10471250000000001,-0.810836,-8.000000000001062e-06,0.1265405,-0.8314959999999999,0.013500999999999999
45,5.149999999999686e-05,0.820376,0.16202,-0.1796875,0.5943660000000001,0.12215999999999999,-0.3008875,0.8126760000000001,0.025432,0.1938925,0.596786,0.14092,0.3265825,0.7967460000000001,0.057206,-0.3014975,1.092836,-0.045323,0.3560025,1.0527360000000001,-0.056197000000000004,-0.08688850000000001,0.002015,-0.0007759999999999989,0.08688850000000001,-0.002015,0.0007759999999999989,-0.12016750000000001,-0.407124,-0.033645,0.11959249999999999,-0.45706399999999997,0.006135,-0.10518749999999999,-0.810864,-0.0012549999999999992,0.1258025,-0.831314,0.01224
46,0.00027700000000000034,0.820307,0.161244,-0.179405,0.594327,0.121424,-0.301045,0.812327,0.024281999999999998,0.193935,0.596637,0.140374,0.32684500000000005,0.796397,0.056079000000000004,-0.301725,1.092237,-0.047291,0.35621499999999995,1.0520369999999999,-0.057327,-0.08694,0.0021390000000000003,-0.0009310000000000013,0.08694,-0.002139,0.0009309999999999995,-0.120305,-0.406723,-0.035186999999999996,0.119315,-0.456133,0.004681999999999999,-0.105664,-0.8108029999999999,-0.002529,0.125015,-0.830613,0.011257999999999999
47,0.0003860000000000009,0.8202815,0.160242,-0.179152,0.5942115,0.120412,-0.301372,0.8119215,0.023052,0.19386799999999998,0.5965015,0.139652,0.326988,0.7960715,0.054874,-0.302042,1.0916515,-0.049531,0.356308,1.0511515,-0.058533999999999996,-0.087001,0.0022695,-0.0011009999999999995,0.087001,-0.0022695,0.0011009999999999995,-0.12043200000000001,-0.4063085,-0.036847000000000005,0.119008,-0.4552885,0.0031090000000000007,-0.106264,-0.8107085,-0.003894,0.12423799999999999,-0.8305885000000001,0.010014
48,0.0004414999999999992,0.820229,0.15921000000000002,-0.17893350000000002,0.594039,0.11938,-0.30176349999999996,0.8114389999999999,0.021621,0.19373649999999998,0.596429,0.13871,0.3276565,0.7957989999999999,0.053377,-0.3023435,1.0908390000000001,-0.052464,0.3563965,1.0502390000000001,-0.059786000000000006,-0.0870665,0.002351,-0.0012569999999999994,0.0870665,-0.002351,0.0012569999999999994,-0.1205835,-0.40646099999999996,-0.038423,0.1186765,-0.45480099999999996,0.0015869999999999999,-0.1068965,-0.810991,-0.005067,0.12326649999999999,-0.830331,0.009058
49,0.0004070000000000046,0.8202245,0.158214,-0.178803,0.5936445,0.118404,-0.302193,0.8108645,0.019768,0.19353700000000001,0.5963845,0.137714,0.328307,0.7956045,0.05182099999999999,-0.302743,1.0900144999999999,-0.055979,0.356497,1.0488145,-0.061438000000000006,-0.087157,0.0024265,-0.001432000000000001,0.087157,-0.0024265,0.0014319999999999992,-0.120793,-0.40633549999999996,-0.040330000000000005,0.118237,-0.4538255,-1.700000000000139e-05,-0.107594,-0.8112055,-0.006279,0.122217,-0.8300255,0.008010999999999999
50,-9.000000000000327e-05,0.8203039999999999,0.1572195,-0.178993,0.593274,0.11741950000000001,-0.302683,0.810074,0.0175655,0.192997,0.596444,0.1367095,0.328547,0.795674,0.050200499999999995,-0.303273,1.0888039999999999,-0.06005049999999999,0.356097,1.047204,-0.0634935,-0.087245,0.002418,-0.0016174999999999991,0.087245,-0.002418,0.0016175000000000009,-0.12108300000000001,-0.406736,-0.042359499999999994,0.11776699999999998,-0.45315599999999995,-0.0018154999999999994,-0.108188,-0.811546,-0.007484500000000002,0.121527,-0.829986,0.0069995000000000005
51,-0.0006415000000000014,0.8205220000000001,0.156078,-0.1792585,0.592862,0.116298,-0.3032485,0.809212,0.015126,0.1923815,0.596642,0.135748,0.3291115,0.7958120000000001,0.047349999999999996,-0.3038185,1.0874119999999998,-0.064582,0.35567150000000003,1.045612,-0.066011,-0.08733350000000001,0.002356,-0.0017280000000000004,0.08733350000000001,-0.002356,0.0017279999999999995,-0.1214385,-0.407998,-0.04519,0.1174715,-0.45257800000000004,-0.004152000000000001,-0.1088115,-0.811828,-0.008641,0.12083150000000001,-0.8296479999999999,0.005984999999999999
52,-0.001180500000000001,0.8206515,0.15448199999999998,-0.1795465,0.5923715,0.11485200000000001,-0.30390649999999997,0.8081515,0.012271,0.1917235,0.5969315000000001,0.13480199999999998,0.32998350000000004,0.7956215,0.04389,-0.3043665,1.0859415000000001,-0.06951,0.3552135,1.0437415,-0.068831,-0.0874375,0.0022545,-0.0018320000000000003,0.0874375,-0.0022545,0.0018319999999999994,-0.1219465,-0.4089385,-0.048283000000000006,0.11730349999999999,-0.4518485,-0.007234000000000001,-0.10946550000000001,-0.8121484999999999,-0.009897,0.1200935,-0.8292484999999999,0.004947
53,-0.0017815,0.8206105,0.152283,-0.17983949999999999,0.5917005,0.113113,-0.3049895,0.8068705,0.008704,0.1910405,0.5970505,0.133453,0.33088049999999997,0.7953905,0.039972,-0.3054195,1.0841705,-0.074906,0.35475049999999997,1.0416705,-0.072124,-0.0875525,0.0021475,-0.0019199999999999998,0.0875525,-0.0021475,0.001919999999999999,-0.12227950000000001,-0.4104095,-0.05201,0.11745050000000001,-0.4505695,-0.010768000000000002,-0.1099735,-0.8124495,-0.011151,0.1194305,-0.8286995,0.003927999999999999
54,-0.0023315000000000002,0.820615,0.1498965,-0.1801275,0.590945,0.1110665,-0.3061475,0.805545,0.004727499999999999,0.1904125,0.597035,0.13184649999999998,0.3319225,0.795205,0.036082499999999997,-0.3063875,1.082395,-0.0810755,0.3543525,1.039795,-0.0758065,-0.08767050000000001,0.0019790000000000003,-0.0020125000000000004,0.08767050000000001,-0.001979,0.0020124999999999995,-0.12269749999999999,-0.411665,-0.0559765,0.1178025,-0.449205,-0.014921499999999999,-0.1103315,-0.812545,-0.012284500000000002,0.11887250000000002,-0.827895,0.0028274999999999997
55,-0.002819499999999999,0.820349,0.14696599999999999,-0.18041049999999997,0.590109,0.108916,-0.3072305,0.804109,0.0005919999999999996,0.18981949999999997,0.5969089999999999,0.130036,0.3330995,0.794839,0.032012,-0.3072105,1.080559,-0.08681100000000001,0.3540395,1.037459,-0.079777,-0.0878155,0.001782,-0.002183,0.0878155,-0.0017819999999999997,0.0021829999999999996,-0.1231005,-0.41262099999999996,-0.06023,0.11820950000000001,-0.44771099999999997,-0.019316,-0.1106415,-0.812481,-0.013235999999999998,0.11835949999999999,-0.827001,0.0018529999999999996
56,-0.0032905,0.819871,0.1437875,-0.1808315,0.589021,0.10667750000000001,-0.3083315,0.802301,-0.0034875,0.1891985,0.596801,0.1282575,0.3343585,0.794421,0.0278845,-0.30804149999999997,1.078221,-0.09263149999999999,0.35380849999999997,1.035421,-0.08370949999999999,-0.0879685,0.0015699999999999998,-0.0023384999999999994,0.0879685,-0.0015700000000000002,0.0023385,-0.1234315,-0.413399,-0.0645775,0.1188785,-0.44562900000000005,-0.0242445,-0.1106675,-0.812269,-0.0140435,0.11800849999999999,-0.825519,0.0008644999999999998
57,-0.0037605000000000034,0.8193360000000001,0.140401,-0.1812115,0.588086,0.104174,-0.3093515,0.800446,-0.007580000000000001,0.18860849999999998,0.5966060000000001,0.126321,0.33521850000000003,0.793826,0.024073999999999998,-0.3087315,1.076136,-0.097899,0.35365850000000004,1.033336,-0.087742,-0.08817849999999999,0.0013929999999999993,-0.002521,0.08817849999999999,-0.0013930000000000001,0.002521,-0.12370149999999999,-0.41305400000000003,-0.06923499999999999,0.1196285,-0.443264,-0.029228000000000004,-0.1108315,-0.8114739999999999,-0.014907,0.1177085,-0.823854,-2.7000000000000114e-05
58,-0.004065999999999995,0.8188305,0.1368405,-0.181442,0.5874905,0.10158249999999999,-0.31016200000000005,0.7986705,-0.0117055,0.188048,0.5957905,0.1236805,0.336268,0.7932305,0.0197315,-0.309202,1.0740205,-0.1031395,0.35372800000000004,1.0315205,-0.0929525,-0.088448,0.0012064999999999992,-0.0026105,0.088448,-0.001206500000000001,0.0026104999999999995,-0.12388199999999999,-0.4124995,-0.07423350000000001,0.120558,-0.4406295,-0.0344045,-0.11087,-0.8103095,-0.0156435,0.117428,-0.8219095000000001,-0.0009045000000000008
59,-0.004308499999999995,0.818307,0.132913,-0.1815715,0.586897,0.098729,-0.3109415,0.796867,-0.015995999999999996,0.1875485,0.595037,0.120933,0.3373885,0.792237,0.015044,-0.3097015,1.0717169999999998,-0.109317,0.3538385,1.0295169999999998,-0.098077,-0.0887185,0.0010349999999999995,-0.0026879999999999994,0.0887185,-0.0010350000000000012,0.0026880000000000003,-0.1240915,-0.41102299999999997,-0.079303,0.1216585,-0.43777299999999997,-0.039887,-0.1108085,-0.808963,-0.016446999999999996,0.1173885,-0.819993,-0.0017739999999999995
60,-0.0044740000000000005,0.8173965,0.1285575,-0.181689,0.5862765,0.0957365,-0.311829,0.7949765,-0.0208085,0.187141,0.5939464999999999,0.1176575,0.338191,0.7909865,0.011324500000000001,-0.310319,1.0694465,-0.1155325,0.353981,1.0272465,-0.1032425,-0.088931,0.0008885000000000004,-0.0026855000000000004,0.088931,-0.0008885000000000004,0.0026855000000000004,-0.124299,-0.4085935,-0.0840515,0.12266099999999999,-0.43466350000000004,-0.045357499999999995,-0.110677,-0.8074335,-0.0173795,0.117341,-0.8181635,-0.002833499999999999
61,-0.004604499999999999,0.8166395,0.124062,-0.1818205,0.5860495,0.092829,-0.3127105,0.7930895,-0.025943,0.18674949999999998,0.5928495,0.114022,0.3388195,0.7896795,0.007129,-0.31102050000000003,1.0669495,-0.12224800000000001,0.3541795,1.0244495,-0.108858,-0.0890495,0.0007635000000000003,-0.0026,0.0890495,-0.0007635000000000003,0.0026000000000000003,-0.12441050000000001,-0.4059605,-0.088854,0.1237095,-0.4308405,-0.050841,-0.1104455,-0.8055005,-0.018396,0.1174995,-0.8161005,-0.003962
62,-0.004689999999999998,0.815984,0.119512,-0.18189999999999998,0.585704,0.089361,-0.31351,0.791064,-0.031318,0.18643,0.5919139999999999,0.110312,0.33956000000000003,0.788384,0.0030230000000000005,-0.31173,1.0641740000000002,-0.130048,0.35459,1.0215740000000002,-0.114848,-0.08914,0.0006749999999999985,-0.0025399999999999997,0.08914,-0.000675000000000002,0.00254,-0.1245,-0.403326,-0.09352200000000001,0.12480000000000002,-0.426886,-0.056137,-0.11005299999999998,-0.803266,-0.019407,0.1177,-0.813646,-0.0051909999999999994
63,-0.004761000000000003,0.8151855,0.114284,-0.182019,0.5851555,0.08536099999999999,-0.314169,0.7892155,-0.036902,0.18622099999999997,0.5912555,0.106514,0.340401,0.7872855,-0.002144,-0.312579,1.0615655,-0.13794599999999999,0.355201,1.0191955,-0.121086,-0.089271,0.0006204999999999995,-0.002548,0.089271,-0.0006204999999999995,0.002548,-0.124459,-0.4001345,-0.09812599999999999,0.125911,-0.4227145,-0.061047,-0.109427,-0.8007645,-0.020355,0.117991,-0.8112545,-0.006395
64,-0.004711,0.8145684999999999,0.108249,-0.181904,0.5846285,0.08072,-0.314914,0.7871184999999999,-0.043366,0.18607600000000002,0.5906785,0.101917,0.34144599999999997,0.7856685,-0.00826,-0.313724,1.0585784999999999,-0.147201,0.35608599999999996,1.0166385,-0.12845099999999998,-0.089596,0.0005435000000000023,-0.0026,0.089596,-0.0005434999999999988,0.0026,-0.124264,-0.3963215,-0.102741,0.127176,-0.4179215,-0.066026,-0.108588,-0.7976915,-0.021442,0.118486,-0.8082015,-0.007533000000000001
65,-0.004366999999999999,0.814188,0.10194600000000001,-0.18179399999999998,0.584298,0.075641,-0.315714,0.7852480000000001,-0.050271,0.186086,0.590078,0.096848,0.342646,0.783988,-0.014617000000000002,-0.314944,1.0557779999999999,-0.156939,0.357236,1.013328,-0.13649899999999998,-0.08999599999999999,0.00047900000000000026,-0.0027020000000000004,0.08999599999999999,-0.00047900000000000026,0.002702,-0.12398400000000001,-0.39308200000000004,-0.107319,0.128276,-0.41350200000000004,-0.07043999999999999,-0.10787,-0.7943319999999999,-0.02257,0.118956,-0.8050919999999999,-0.008395
66,-0.0038204999999999992,0.8137925,0.09483899999999999,-0.1816875,0.5840725,0.07020599999999999,-0.3167175,0.7832725,-0.057769,0.1861925,0.5894325,0.09100799999999999,0.3442425,0.7823425,-0.022078,-0.31645749999999995,1.0527525,-0.16755899999999999,0.35872250000000006,1.0101025,-0.145449,-0.0904325,0.000393499999999998,-0.0027559999999999998,0.0904325,-0.000393499999999998,0.002756,-0.1236275,-0.3897775,-0.111489,0.1293525,-0.40895750000000003,-0.07494300000000001,-0.1070575,-0.7907875,-0.023681999999999998,0.11950250000000001,-0.8018274999999999,-0.009349
67,-0.003253500000000001,0.8135129999999999,0.0870185,-0.1816275,0.5836929999999999,0.0641935,-0.3178975,0.781183,-0.0657415,0.1864825,0.589553,0.08522350000000001,0.34582250000000003,0.780663,-0.0297355,-0.3182375,1.049663,-0.17854450000000002,0.3604425,1.006883,-0.1539145,-0.0908325,0.0002899999999999986,-0.0027075000000000003,0.0908325,-0.0002899999999999986,0.0027075,-0.1231875,-0.386467,-0.1154945,0.13035249999999998,-0.404497,-0.0795435,-0.1061835,-0.7870670000000001,-0.025063500000000002,0.1200825,-0.7983870000000001,-0.0104905
68,-0.0025055000000000025,0.813145,0.0784325,-0.1814535,0.5831249999999999,0.057460500000000005,-0.31919349999999996,0.778805,-0.07442549999999999,0.1868265,0.5893550000000001,0.0784135,0.3474465,0.778945,-0.0381125,-0.32025349999999997,1.0465550000000001,-0.1892355,0.3625065,1.003895,-0.1635455,-0.0911865,0.0002570000000000003,-0.0026604999999999997,0.0911865,-0.0002570000000000003,0.0026605,-0.1227235,-0.382945,-0.1194355,0.13110650000000001,-0.399935,-0.0839675,-0.1054025,-0.782975,-0.0266365,0.1205565,-0.794535,-0.0116985
69,-0.0017194999999999988,0.812882,0.06923499999999999,-0.1812305,0.582642,0.050266000000000005,-0.3206405,0.776332,-0.08361800000000001,0.1871495,0.588982,0.071063,0.3490995,0.777092,-0.047409,-0.3225105,1.043202,-0.200799,0.36488950000000003,1.000442,-0.174069,-0.09149950000000001,0.0001979999999999968,-0.002576,0.09149950000000001,-0.00019800000000000373,0.002576,-0.1222905,-0.379738,-0.123279,0.1318095,-0.395428,-0.08815500000000001,-0.1046705,-0.778798,-0.028258,0.1209895,-0.790368,-0.012898
70,-0.0008850000000000021,0.8124180000000001,0.0589985,-0.180875,0.581718,0.041856500000000005,-0.322245,0.773978,-0.0935115,0.187555,0.5885279999999999,0.0629435,0.35075500000000004,0.7754380000000001,-0.056820499999999996,-0.325115,1.039998,-0.2132745,0.36741500000000005,0.9971479999999999,-0.1853545,-0.091745,0.00017600000000000254,-0.0024795,0.091745,-0.0001759999999999956,0.0024795,-0.121835,-0.376652,-0.1274945,0.132485,-0.391192,-0.0922565,-0.10395399999999999,-0.774492,-0.0302015,0.121415,-0.7862720000000001,-0.0145095
71,-6.849999999999738e-05,0.8119025,0.048023500000000004,-0.1806135,0.5809525,0.0331225,-0.3238935,0.7713825,-0.1038145,0.1879365,0.5880425,0.0540485,0.35232650000000004,0.7737825,-0.0676495,-0.32812349999999996,1.0362925,-0.22601449999999998,0.37063650000000004,0.9940025,-0.1979445,-0.0919365,0.0001255000000000006,-0.0023765,0.0919365,-0.0001255000000000006,0.0023765,-0.1215135,-0.3734075,-0.1315545,0.1330765,-0.3872575,-0.0965665,-0.1033665,-0.7703375,-0.032487499999999996,0.1217165,-0.7824875,-0.0163335
72,0.0006785000000000003,0.811218,0.0368215,-0.1803325,0.580438,0.0243845,-0.3259225,0.768648,-0.1143655,0.1882375,0.587328,0.0448105,0.35388749999999997,0.771458,-0.0780825,-0.3315425,1.032588,-0.2388355,0.3739675,0.989858,-0.2107655,-0.09210750000000001,8.800000000000474e-05,-0.0023315,0.09210750000000001,-8.79999999999978e-05,0.0023315000000000002,-0.12134249999999999,-0.37064199999999997,-0.1358655,0.1334275,-0.383252,-0.1009845,-0.1029205,-0.766222,-0.0350495,0.1218275,-0.778662,-0.0184035
73,0.0013034999999999974,0.8106105,0.0259785,-0.18018650000000003,0.5799905000000001,0.015710500000000002,-0.3279165,0.7661105,-0.1247225,0.1884635,0.5866005000000001,0.035806500000000005,0.3553635,0.7693105,-0.0883935,-0.3352465,1.0288705,-0.2517825,0.3779335,0.9853305,-0.2234925,-0.0921435,1.3499999999999623e-05,-0.0022965,0.0921435,-1.3499999999999623e-05,0.0022965,-0.1212965,-0.3682895,-0.13994250000000003,0.1334935,-0.3797295,-0.10523249999999999,-0.1026325,-0.7624095,-0.0376665,0.1218335,-0.7750595,-0.0208145
74,0.0018495000000000022,0.8098764999999999,0.01531,-0.17974050000000003,0.5795665000000001,0.007415,-0.3298005,0.7631665000000001,-0.135279,0.1886695,0.5857565,0.026878000000000003,0.3566695,0.7668865,-0.099134,-0.3391405,1.0246065,-0.26509900000000003,0.38213949999999997,0.9809165,-0.23633900000000002,-0.0921495,-7.450000000000512e-05,-0.002214,0.0921495,7.449999999999124e-05,0.0022140000000000007,-0.12130049999999999,-0.3662335,-0.14388900000000002,0.1334495,-0.3765035,-0.10940899999999999,-0.1023915,-0.7587735,-0.040136000000000005,0.1217295,-0.7715635000000001,-0.023195
75,0.002417499999999996,0.8091550000000001,0.004877000000000001,-0.1792645,0.5786950000000001,-0.0012229999999999984,-0.3314245,0.759935,-0.14585099999999998,0.1888555,0.585495,0.018791000000000002,0.3575755,0.7645150000000001,-0.109011,-0.3433045,1.019045,-0.27881100000000003,0.3862155,0.976325,-0.249251,-0.09214549999999999,-0.00020900000000000085,-0.002241999999999999,0.09214549999999999,0.00020900000000000085,0.002242000000000001,-0.1211845,-0.36412500000000003,-0.147971,0.1333455,-0.37358499999999994,-0.113581,-0.10213649999999999,-0.7552949999999999,-0.042754,0.12166550000000001,-0.768115,-0.025757
76,0.0030655000000000057,0.8076225,-0.0056324999999999995,-0.1788845,0.5782025000000001,-0.0091265,-0.33291449999999995,0.7567025000000001,-0.1566755,0.1890555,0.5843825,0.0100295,0.3584755,0.7610525,-0.11916550000000001,-0.3475545,1.0132125,-0.29244549999999997,0.39037550000000004,0.9705525,-0.2622055,-0.0921755,-0.00028650000000000897,-0.002347499999999999,0.0921755,0.0002864999999999951,0.0023475000000000006,-0.1211245,-0.3622575,-0.1519455,0.1331755,-0.3710875,-0.11755550000000001,-0.10201449999999998,-0.7518775,-0.045245499999999994,0.1214955,-0.7647775,-0.0282745
77,0.0035370000000000054,0.8062475,-0.016123,-0.17862,0.5768675,-0.017643,-0.33416999999999997,0.7535675000000001,-0.167118,0.18914,0.5834775,0.0015250000000000003,0.3593,0.7576175,-0.129148,-0.35193,1.0075075,-0.306768,0.39452,0.9642375,-0.275068,-0.09228,-0.00038549999999999696,-0.0024329999999999994,0.09228,0.00038550000000001083,0.002433000000000001,-0.12122,-0.3602625,-0.156168,0.13287000000000002,-0.3687325,-0.121748,-0.10193999999999999,-0.7478325,-0.047779999999999996,0.12116000000000002,-0.7610925,-0.030971
78,0.003860500000000003,0.8048310000000001,-0.026446499999999998,-0.1783495,0.575671,-0.0255525,-0.3352095,0.7499410000000001,-0.17751250000000002,0.18900050000000002,0.582631,-0.006642499999999997,0.3601605,0.754521,-0.1396525,-0.3565395,1.000611,-0.3209825,0.3978805,0.958801,-0.2885225,-0.0923605,-0.0004189999999999888,-0.002550499999999997,0.0923605,0.0004190000000000027,0.0025505000000000007,-0.12150949999999999,-0.35848899999999995,-0.1601725,0.1324305,-0.36658899999999994,-0.1261025,-0.10194349999999999,-0.7437889999999999,-0.0503915,0.1207005,-0.757289,-0.033701499999999995
79,0.004142,0.8034825,-0.0366215,-0.17797400000000002,0.5744724999999999,-0.0336915,-0.336024,0.7442325,-0.1869715,0.188746,0.5815125,-0.0149315,0.360926,0.7515025,-0.1506515,-0.360764,0.9927024999999999,-0.3341415,0.40056600000000003,0.9539424999999999,-0.30203149999999995,-0.09245600000000001,-0.00044450000000000045,-0.0025915,0.09245600000000001,0.00044450000000000045,0.0025915,-0.121864,-0.3569175,-0.1640715,0.131996,-0.3647475,-0.1304615,-0.101938,-0.7395775,-0.0529985,0.12020599999999998,-0.7532675000000001,-0.036374500000000004
80,0.004363000000000006,0.8020275,-0.046636,-0.17754,0.5732175,-0.041594,-0.33676999999999996,0.7390775,-0.195775,0.18841,0.5804075,-0.022811,0.3617,0.7489675,-0.161355,-0.36491999999999997,0.9852675000000001,-0.346685,0.40238,0.9492375000000001,-0.31562500000000004,-0.09255,-0.0004974999999999979,-0.0026750000000000003,0.09255,0.0004974999999999979,0.0026750000000000003,-0.12215000000000001,-0.3552225,-0.167925,0.13156,-0.3627225,-0.134705,-0.101942,-0.7348024999999999,-0.055458,0.11976999999999999,-0.7486925,-0.038951
81,0.0044925000000000034,0.8004795,-0.056626,-0.17708049999999997,0.5715395,-0.049405000000000004,-0.3371305,0.7339195,-0.204314,0.1880195,0.5794795,-0.030664000000000004,0.36204949999999997,0.7465795,-0.172094,-0.3685605,0.9776095,-0.359044,0.4035995,0.9447694999999999,-0.329214,-0.0926795,-0.0005844999999999878,-0.002694000000000002,0.0926795,0.0005845000000000017,0.0026939999999999985,-0.1225105,-0.35375049999999997,-0.17178400000000002,0.13107950000000002,-0.36088049999999994,-0.138934,-0.1021315,-0.7298005000000001,-0.057824,0.1192795,-0.7440605,-0.04142
82,0.004442,0.798218,-0.06666849999999999,-0.17685,0.569468,-0.0567855,-0.33755,0.728498,-0.21270050000000001,0.18741,0.578958,-0.0375865,0.36204,0.743898,-0.1827805,-0.37171,0.969868,-0.3709205,0.4037,0.940778,-0.34216050000000003,-0.09279000000000001,-0.0007310000000000094,-0.0027215000000000017,0.09279000000000001,0.0007309999999999955,0.0027214999999999982,-0.12301000000000001,-0.35241200000000006,-0.1755905,0.1304,-0.359452,-0.1428905,-0.10252900000000001,-0.725082,-0.0599125,0.11853,-0.739602,-0.0435785
83,0.004303000000000003,0.795455,-0.0771385,-0.176589,0.567315,-0.06457650000000001,-0.337789,0.723295,-0.2214115,0.186811,0.577755,-0.0451335,0.36201099999999997,0.741225,-0.1937515,-0.374299,0.962735,-0.38248150000000003,0.40379099999999996,0.936635,-0.3553715,-0.092921,-0.0007949999999999902,-0.002753499999999999,0.092921,0.000795000000000004,0.002753499999999999,-0.12348899999999999,-0.350925,-0.1794615,0.12974100000000002,-0.358185,-0.1471115,-0.10284599999999999,-0.720625,-0.0620365,0.11775100000000002,-0.735205,-0.045810500000000004
84,0.004146499999999999,0.79273,-0.087648,-0.17624849999999997,0.5652699999999999,-0.07203699999999999,-0.3379885,0.7184200000000001,-0.229943,0.1863015,0.5755899999999999,-0.053318000000000004,0.3620115,0.7382,-0.204843,-0.37607850000000004,0.95619,-0.39420299999999997,0.4039115,0.93218,-0.368403,-0.0930815,-0.0007599999999999968,-0.002711999999999999,0.0930815,0.0007599999999999968,0.002711999999999999,-0.1238885,-0.34926,-0.183353,0.12910149999999998,-0.35691,-0.15152300000000002,-0.1031615,-0.71575,-0.064094,0.1170115,-0.73015,-0.047798999999999994
85,0.003939999999999999,0.79004,-0.098151,-0.17594600000000002,0.56272,-0.080272,-0.338116,0.71357,-0.23861300000000002,0.185724,0.57406,-0.060733,0.361874,0.7353999999999999,-0.215223,-0.377396,0.94992,-0.40579299999999996,0.403614,0.92725,-0.381563,-0.09323400000000001,-0.0007599999999999968,-0.0027219999999999987,0.09323400000000001,0.0007599999999999968,0.002722000000000002,-0.124276,-0.34598,-0.18706299999999998,0.128484,-0.35499,-0.15580300000000002,-0.10350600000000001,-0.71069,-0.06624,0.11630399999999999,-0.72497,-0.049712
86,0.00375,0.7870600000000001,-0.108563,-0.17576699999999998,0.5612,-0.087564,-0.338217,0.70898,-0.24772100000000002,0.185173,0.57249,-0.06815399999999999,0.361413,0.73189,-0.22590100000000002,-0.378077,0.94384,-0.41702100000000003,0.402683,0.92217,-0.394251,-0.09332299999999999,-0.0008299999999999974,-0.0026820000000000004,0.09332299999999999,0.0008299999999999974,0.002681999999999997,-0.124697,-0.34082,-0.190751,0.128113,-0.34983000000000003,-0.160061,-0.10399,-0.70573,-0.068377,0.11580300000000002,-0.7202,-0.051624
87,0.0036120000000000006,0.7839700000000001,-0.11908149999999999,-0.175529,0.55919,-0.0954385,-0.338289,0.70499,-0.2567885,0.184571,0.5709,-0.0757375,0.36100099999999996,0.72839,-0.2359885,-0.37800900000000004,0.9387300000000001,-0.42862849999999997,0.401161,0.91703,-0.4067285,-0.09337100000000001,-0.0008700000000000097,-0.0027344999999999973,0.09337100000000001,0.0008699999999999958,0.002734500000000001,-0.12506899999999999,-0.33579000000000003,-0.19471850000000002,0.127781,-0.3448,-0.1642785,-0.10442799999999999,-0.7009,-0.07066049999999999,0.11535100000000001,-0.71532,-0.053558499999999995
88,0.0036504999999999975,0.7809200000000001,-0.13528800000000002,-0.1749115,0.55764,-0.108505,-0.33797150000000004,0.70332,-0.272665,0.18421849999999998,0.56979,-0.088895,0.3602185,0.72553,-0.25104499999999996,-0.3776815,0.9351,-0.446835,0.3991985,0.91201,-0.425505,-0.09346850000000001,-0.0009200000000000041,-0.0027669999999999986,0.09346850000000001,0.0009200000000000041,0.0027669999999999986,-0.1252015,-0.33031,-0.204645,0.12765849999999998,-0.33932,-0.174215,-0.1046495,-0.6957,-0.078767,0.1151085,-0.7100299999999999,-0.061338000000000004
89,0.0036249999999999998,0.778375,-0.151078,-0.174083,0.556045,-0.122129,-0.337363,0.702275,-0.289058,0.183627,0.569215,-0.102356,0.359137,0.7229350000000001,-0.265788,-0.377393,0.9328050000000001,-0.465158,0.396917,0.9075850000000001,-0.443678,-0.093517,-0.0010350000000000081,-0.0027700000000000016,0.093517,0.0010350000000000081,0.0027700000000000016,-0.125113,-0.322175,-0.219298,0.128597,-0.331205,-0.190178,-0.105502,-0.692315,-0.092119,0.115787,-0.706585,-0.077185
90,0.003607500000000003,0.7754000000000001,-0.1666135,-0.1733255,0.55523,-0.13504149999999998,-0.3363955,0.7006600000000001,-0.3053135,0.1830245,0.56884,-0.11520749999999999,0.3576045,0.7200500000000001,-0.2805235,-0.3770255,0.9297899999999999,-0.4834735,0.39477450000000003,0.9021300000000001,-0.4622335,-0.0935145,-0.0011400000000000021,-0.0028385000000000007,0.0935145,0.0011400000000000021,0.0028385000000000007,-0.1251355,-0.31419,-0.23362349999999998,0.1295845,-0.32298,-0.20592349999999998,-0.10635549999999999,-0.6891799999999999,-0.1055595,0.11645449999999999,-0.7032100000000001,-0.09302150000000001
91,0.003500000000000003,0.772975,-0.1818835,-0.172364,0.5541050000000001,-0.1484525,-0.335364,0.699295,-0.32147349999999997,0.182386,0.5684750000000001,-0.1284515,0.355866,0.717335,-0.2949535,-0.376514,0.926875,-0.5018035,0.392896,0.896365,-0.4817835,-0.093366,-0.0012550000000000061,-0.0029174999999999965,0.093366,0.0012550000000000061,0.0029174999999999965,-0.125244,-0.305465,-0.2480935,0.130476,-0.314355,-0.2218935,-0.107318,-0.685765,-0.1192775,0.116946,-0.699805,-0.1085305
92,0.0031865000000000053,0.7710999999999999,-0.1967175,-0.1715685,0.55307,-0.1616595,-0.33448849999999997,0.6978800000000001,-0.3369375,0.1813015,0.5672999999999999,-0.1421265,0.35390150000000004,0.7147999999999999,-0.30920749999999997,-0.3757585,0.9234100000000001,-0.5200175,0.3911315,0.8907799999999999,-0.5003875,-0.0932215,-0.00137000000000001,-0.0030354999999999965,0.0932215,0.0013699999999999823,0.0030354999999999965,-0.1255985,-0.29631,-0.2625475,0.13098150000000003,-0.30547,-0.2378375,-0.1085145,-0.6822999999999999,-0.1331545,0.11710150000000001,-0.69627,-0.12345249999999999
93,0.0027805000000000017,0.768305,-0.2116345,-0.1707905,0.551805,-0.1748265,-0.3334505,0.695735,-0.3524145,0.1800395,0.566875,-0.1552285,0.3519095,0.7117549999999999,-0.3231845,-0.3751305,0.919745,-0.5376245,0.3893295,0.885305,-0.5188045,-0.0930195,-0.001595000000000013,-0.0031474999999999975,0.0930195,0.0015949999999999853,0.0031474999999999975,-0.1260305,-0.287185,-0.2768745,0.1313395,-0.296325,-0.2535045,-0.10903449999999999,-0.675705,-0.1419045,0.11717949999999999,-0.6929750000000001,-0.1392065
94,0.002284499999999995,0.765565,-0.226409,-0.1700825,0.550495,-0.188079,-0.3324125,0.6931050000000001,-0.367289,0.1785275,0.5654950000000001,-0.16919,0.3502475,0.7085049999999999,-0.339199,-0.3746925,0.915225,-0.5556289999999999,0.3878975,0.881365,-0.537309,-0.0927775,-0.0017649999999999888,-0.0033089999999999925,0.0927775,0.0017649999999999888,0.0033090000000000064,-0.1265825,-0.277535,-0.291419,0.1315775,-0.286735,-0.269439,-0.1097135,-0.6687749999999999,-0.150808,0.11720749999999999,-0.6894849999999999,-0.155357
95,0.0016530000000000017,0.762295,-0.2409335,-0.16925400000000002,0.548755,-0.2014435,-0.331434,0.6898850000000001,-0.38187350000000003,0.176726,0.563875,-0.1830425,0.348796,0.7061649999999999,-0.3544235,-0.37458400000000003,0.9103650000000001,-0.5728934999999999,0.386476,0.8762049999999999,-0.5558335000000001,-0.092546,-0.0018749999999999878,-0.0034665000000000112,0.092546,0.0018749999999999878,0.0034664999999999974,-0.127224,-0.267905,-0.30571349999999997,0.13163600000000003,-0.276785,-0.2851135,-0.11043,-0.6619649999999999,-0.1595935,0.117026,-0.6862550000000001,-0.1710305
96,0.0009419999999999984,0.75867,-0.2555705,-0.168492,0.54705,-0.21499049999999997,-0.33052200000000004,0.6858599999999999,-0.3961705,0.17505800000000002,0.56236,-0.19686549999999997,0.347278,0.7029099999999999,-0.3708905,-0.374402,0.90432,-0.5901505,0.38517799999999996,0.8709,-0.5744104999999999,-0.092308,-0.0020399999999999863,-0.0034994999999999887,0.092308,0.002040000000000014,0.0034995000000000026,-0.127932,-0.25755,-0.3199205,0.131488,-0.26631,-0.3007105,-0.11117099999999999,-0.6548,-0.16828149999999997,0.116758,-0.6828000000000001,-0.1868285
97,-0.00022300000000000098,0.75451,-0.264205,-0.168246,0.5439,-0.222745,-0.329986,0.68116,-0.404555,0.173074,0.5607,-0.204857,0.34562400000000004,0.6989,-0.382185,-0.37468599999999996,0.89759,-0.601315,0.383614,0.86441,-0.587125,-0.092054,-0.0022999999999999965,-0.0035649999999999987,0.092054,0.0023000000000000242,0.0035649999999999987,-0.129096,-0.24929999999999997,-0.328205,0.130934,-0.25661999999999996,-0.310575,-0.112323,-0.64801,-0.171265,0.11619399999999999,-0.67996,-0.197262
98,-0.0014299999999999972,0.7492800000000001,-0.2731,-0.16815,0.54016,-0.22983,-0.32982,0.6752400000000001,-0.41269,0.17122,0.55878,-0.21255000000000002,0.34423,0.69336,-0.39355,-0.37515,0.88889,-0.61251,0.38181,0.85505,-0.5992000000000001,-0.09185,-0.002579999999999999,-0.003699999999999995,0.09185,0.002579999999999999,0.003699999999999995,-0.13069,-0.24397999999999997,-0.33172,0.12977,-0.25127,-0.3144,-0.113569,-0.64214,-0.17396,0.11513000000000001,-0.67536,-0.200915
99,-0.0026114999999999958,0.7441599999999999,-0.28251499999999996,-0.16799150000000002,0.53577,-0.23763499999999999,-0.32997150000000003,0.66936,-0.420905,0.1693685,0.55317,-0.221575,0.3428785,0.68776,-0.40568499999999996,-0.3758115,0.88037,-0.6236149999999999,0.3800485,0.84726,-0.611275,-0.09171850000000001,-0.0027399999999999924,-0.003834999999999991,0.09171850000000001,0.0027399999999999924,0.003835000000000005,-0.1322715,-0.23818999999999999,-0.335535,0.1285885,-0.24548,-0.318515,-0.11481050000000001,-0.6363300000000001,-0.17701499999999998,0.11389849999999999,-0.67012,-0.20423799999999998
100,-0.0036685000000000016,0.738515,-0.291455,-0.1678325,0.531885,-0.244935,-0.3299725,0.662985,-0.428825,0.1677275,0.547295,-0.230585,0.34184749999999997,0.681965,-0.417825,-0.3762825,0.8715050000000001,-0.6341950000000001,0.3784375,0.8392350000000001,-0.6228750000000001,-0.09174750000000001,-0.0027449999999999974,-0.003985000000000002,0.09174750000000001,0.0027449999999999974,0.0039849999999999886,-0.1335725,-0.23243499999999997,-0.33892500000000003,0.1275975,-0.239725,-0.32245500000000005,-0.1160745,-0.631145,-0.180546,0.11287749999999999,-0.665025,-0.20748
101,-0.004444500000000004,0.732205,-0.30063,-0.1675585,0.527375,-0.25224,-0.3298185,0.6565650000000001,-0.437,0.16633150000000002,0.542695,-0.23865999999999998,0.3410515,0.675385,-0.4295,-0.3764785,0.862625,-0.6449400000000001,0.3769015,0.8303750000000001,-0.6347099999999999,-0.0917515,-0.0028349999999999764,-0.004029999999999992,0.0917515,0.002835000000000004,0.004030000000000006,-0.1346485,-0.227985,-0.34235,0.1261715,-0.23507499999999998,-0.32645,-0.1166465,-0.622565,-0.179261,0.1115715,-0.659885,-0.210362
102,-0.005103999999999997,0.72628,-0.30923,-0.167243,0.52247,-0.25956999999999997,-0.32972300000000004,0.6500699999999999,-0.44469000000000003,0.16509700000000002,0.5381400000000001,-0.24675,0.340367,0.66906,-0.44074,-0.376753,0.85401,-0.6550699999999999,0.375577,0.82118,-0.6464,-0.091757,-0.002950000000000008,-0.004089999999999996,0.091757,0.002950000000000008,0.00409000000000001,-0.135693,-0.22327999999999998,-0.34570999999999996,0.124837,-0.23009000000000002,-0.33038,-0.11699799999999999,-0.61362,-0.177791,0.110397,-0.65446,-0.213135
103,-0.005659500000000001,0.71992,-0.31784,-0.1669005,0.51771,-0.26651,-0.3294905,0.64273,-0.45216,0.1638695,0.53357,-0.25429999999999997,0.3396895,0.66301,-0.45086000000000004,-0.3769805,0.8446400000000001,-0.66429,0.3743395,0.81132,-0.65781,-0.0917595,-0.003060000000000007,-0.004029999999999992,0.0917595,0.0030599999999999794,0.004030000000000006,-0.1368905,-0.21865,-0.34904,0.1237895,-0.22500000000000003,-0.33423,-0.11698549999999999,-0.60463,-0.175898,0.1093295,-0.64907,-0.215841
104,-0.006145500000000002,0.713795,-0.326075,-0.1667265,0.512585,-0.273535,-0.3292365,0.635955,-0.459325,0.1628735,0.529155,-0.26192499999999996,0.3392335,0.6565049999999999,-0.461505,-0.3772765,0.8352149999999999,-0.674085,0.3732935,0.8027949999999999,-0.6689449999999999,-0.0918235,-0.0032050000000000134,-0.004014999999999991,0.0918235,0.0032049999999999856,0.0040150000000000186,-0.1380065,-0.213615,-0.35250499999999996,0.1231535,-0.21947500000000003,-0.338265,-0.11690249999999999,-0.595325,-0.17437799999999998,0.10834350000000001,-0.643395,-0.218464
105,-0.0066345000000000015,0.708205,-0.33384,-0.1664015,0.507235,-0.28009,-0.32904150000000004,0.629575,-0.46637,0.1618385,0.524715,-0.26922,0.3388985,0.650265,-0.47029,-0.37754150000000003,0.825575,-0.6840200000000001,0.3721285,0.7922750000000001,-0.6787799999999999,-0.0918185,-0.003384999999999999,-0.004030000000000006,0.0918185,0.003384999999999999,0.004029999999999978,-0.1391815,-0.20825500000000002,-0.35582,0.12272850000000002,-0.213625,-0.34225000000000005,-0.11716950000000001,-0.5885750000000001,-0.17738500000000001,0.10731850000000001,-0.636925,-0.22100400000000003
106,-0.0071404999999999975,0.7024,-0.34157499999999996,-0.1662755,0.50266,-0.286475,-0.3288955,0.6234200000000001,-0.473495,0.1607345,0.51999,-0.276565,0.3381045,0.64417,-0.47860499999999995,-0.3779655,0.8165,-0.6938249999999999,0.3708845,0.78285,-0.687645,-0.09177450000000001,-0.00356999999999999,-0.004055000000000003,0.09177450000000001,0.0035700000000000176,0.004055000000000003,-0.1404655,-0.20262999999999998,-0.359025,0.1222645,-0.20777,-0.346005,-0.11761749999999999,-0.58135,-0.180528,0.10624450000000002,-0.6302300000000001,-0.22366
107,-0.007619499999999994,0.6969350000000001,-0.34902500000000003,-0.1662635,0.498815,-0.292555,-0.3288035,0.617055,-0.480525,0.1596865,0.514505,-0.283775,0.3373165,0.637135,-0.486205,-0.3784035,0.8076350000000001,-0.703075,0.3698065,0.775045,-0.696455,-0.0917165,-0.0036249999999999893,-0.003964999999999996,0.0917165,0.003625000000000017,0.003964999999999996,-0.1416535,-0.197405,-0.36207500000000004,0.12183649999999999,-0.20219499999999996,-0.34919500000000003,-0.1180545,-0.574495,-0.183474,0.1053065,-0.6238049999999999,-0.226798
108,-0.0080485,0.6911499999999999,-0.35601,-0.1661835,0.4955,-0.29803,-0.32855350000000005,0.6105,-0.48757999999999996,0.1587065,0.5117,-0.29008,0.33603649999999996,0.62983,-0.4921,-0.3787435,0.7982499999999999,-0.71258,0.3688365,0.76627,-0.7046999999999999,-0.0915965,-0.003599999999999992,-0.00380999999999998,0.0915965,0.003599999999999992,0.003810000000000008,-0.1427735,-0.19257000000000002,-0.36478999999999995,0.12147649999999999,-0.19724000000000003,-0.35201,-0.1186575,-0.5688,-0.186265,0.10399649999999999,-0.61476,-0.22252699999999997
109,-0.008469500000000001,0.685075,-0.36307,-0.1661285,0.491135,-0.30392,-0.3283485,0.603895,-0.49473,0.15769149999999998,0.508765,-0.29673000000000005,0.3347215,0.6225149999999999,-0.49733,-0.37895850000000003,0.788335,-0.72246,0.3678115,0.758075,-0.71263,-0.09142149999999999,-0.0037349999999999883,-0.0036600000000000243,0.09142149999999999,0.0037349999999999883,0.0036599999999999966,-0.1439385,-0.18710500000000002,-0.36752,0.12122149999999998,-0.19198500000000002,-0.35503,-0.11928649999999999,-0.5628550000000001,-0.189234,0.1026415,-0.6053949999999999,-0.218347
110,-0.009209999999999996,0.67757,-0.37024999999999997,-0.16629899999999997,0.48566,-0.31005000000000005,-0.328349,0.59589,-0.5018,0.156671,0.5041599999999999,-0.30345,0.332661,0.61442,-0.50312,-0.379379,0.77764,-0.73198,0.366731,0.7489699999999999,-0.72088,-0.091171,-0.00386000000000003,-0.0035499999999999976,0.091171,0.0038599999999999746,0.0035499999999999976,-0.144579,-0.18222000000000005,-0.37002,0.121101,-0.18710000000000004,-0.35827,-0.120096,-0.5579700000000001,-0.19245600000000002,0.10138100000000001,-0.5973900000000001,-0.21458700000000003
111,-0.010084500000000003,0.67043,-0.37793,-0.1664955,0.48084,-0.31616,-0.32847550000000003,0.58795,-0.50915,0.15525450000000002,0.49890999999999996,-0.31082,0.33043449999999996,0.60687,-0.50901,-0.3802555,0.7666,-0.74167,0.3654745,0.74015,-0.72956,-0.09091450000000001,-0.003919999999999979,-0.0033400000000000096,0.09091450000000001,0.003919999999999979,0.003339999999999982,-0.1462255,-0.17670999999999998,-0.37253000000000003,0.12100450000000001,-0.18244,-0.36169,-0.12102550000000001,-0.55237,-0.195904,0.10013450000000002,-0.5883799999999999,-0.211374
112,-0.010965000000000003,0.664185,-0.385255,-0.166427,0.475445,-0.322355,-0.32842699999999997,0.579945,-0.516425,0.154133,0.494225,-0.317805,0.328393,0.599165,-0.514375,-0.38104699999999997,0.755325,-0.7515350000000001,0.36423300000000003,0.730505,-0.7380950000000001,-0.090663,-0.003954999999999986,-0.0031150000000000067,0.090663,0.003955000000000042,0.003114999999999979,-0.146947,-0.17132499999999995,-0.374965,0.12127299999999999,-0.17705499999999996,-0.365095,-0.12179899999999999,-0.5469849999999999,-0.199494,0.099113,-0.579275,-0.208162
113,-0.011990500000000001,0.6575949999999999,-0.39359500000000003,-0.1662985,0.470875,-0.329155,-0.32828850000000004,0.571345,-0.5250349999999999,0.1531215,0.489585,-0.32543500000000003,0.32646149999999996,0.5909249999999999,-0.5205649999999999,-0.38173850000000004,0.743035,-0.762825,0.3633915,0.7187749999999999,-0.747775,-0.0903715,-0.003925000000000012,-0.0028549999999999964,0.0903715,0.003925000000000012,0.0028549999999999964,-0.1476985,-0.16663499999999998,-0.377695,0.12167150000000002,-0.172365,-0.369135,-0.1224365,-0.542075,-0.204028,0.09819150000000001,-0.570905,-0.205979
114,-0.012638000000000003,0.648835,-0.40751,-0.165938,0.464365,-0.33973,-0.327798,0.561985,-0.53709,0.152392,0.481255,-0.33675,0.325062,0.580105,-0.5335399999999999,-0.382118,0.7308749999999999,-0.7767,0.362942,0.7081949999999999,-0.76138,-0.090142,-0.0038950000000000373,-0.0026499999999999857,0.090142,0.003894999999999982,0.0026500000000000135,-0.148618,-0.161215,-0.37939999999999996,0.122842,-0.16730500000000004,-0.37143,-0.122832,-0.5376650000000001,-0.212132,0.09757199999999999,-0.563315,-0.20782899999999999
115,-0.012855000000000002,0.639875,-0.42245,-0.165289,0.457285,-0.35119999999999996,-0.326879,0.551145,-0.5494600000000001,0.15208100000000002,0.472695,-0.34853,0.324041,0.568775,-0.5475399999999999,-0.382089,0.7167950000000001,-0.7911699999999999,0.362881,0.696885,-0.77617,-0.089861,-0.003794999999999993,-0.002599999999999991,0.089861,0.003794999999999993,0.002600000000000019,-0.149249,-0.15640500000000002,-0.38181,0.12480099999999998,-0.162785,-0.37385999999999997,-0.122806,-0.533675,-0.220731,0.09750099999999999,-0.556475,-0.210419
116,-0.012994499999999996,0.630875,-0.43714,-0.16435650000000002,0.44940499999999994,-0.36241999999999996,-0.3257765,0.5395449999999999,-0.56158,0.1518835,0.463835,-0.35986,0.3236835,0.557935,-0.56152,-0.3820465,0.701685,-0.80555,0.3629535,0.684465,-0.79165,-0.0895735,-0.0036750000000000393,-0.002579999999999999,0.0895735,0.003674999999999984,0.002579999999999999,-0.1498865,-0.15193500000000004,-0.38407,0.12749349999999998,-0.15863500000000003,-0.37604000000000004,-0.1226495,-0.530015,-0.228997,0.09768350000000002,-0.5501550000000001,-0.212831
117,-0.0130745,0.6223449999999999,-0.451175,-0.1634525,0.440655,-0.37382499999999996,-0.32462250000000004,0.528165,-0.573515,0.1518175,0.455495,-0.37087499999999995,0.3236475,0.547165,-0.575155,-0.38212250000000003,0.686895,-0.818805,0.3633575,0.6693450000000001,-0.8048550000000001,-0.0892675,-0.003794999999999993,-0.002585000000000004,0.0892675,0.003794999999999993,0.002585000000000004,-0.1505525,-0.147065,-0.386355,0.1304775,-0.154175,-0.378115,-0.1224415,-0.526155,-0.236972,0.0984075,-0.546915,-0.221505
118,-0.0130025,0.6150150000000001,-0.464705,-0.16255150000000002,0.433755,-0.38441499999999995,-0.3232315,0.5180750000000001,-0.585055,0.1518785,0.44784500000000005,-0.381285,0.3237185,0.5373650000000001,-0.587865,-0.3821615,0.6698850000000001,-0.830805,0.3637685,0.655135,-0.8169249999999999,-0.0890285,-0.0038349999999999773,-0.0026149999999999785,0.0890285,0.003835000000000033,0.002615000000000006,-0.1511015,-0.14213499999999996,-0.388325,0.1338985,-0.14945499999999995,-0.379835,-0.1223385,-0.522365,-0.24426699999999998,0.0993685,-0.543735,-0.22961399999999998
119,-0.012488499999999996,0.6077349999999999,-0.47728499999999996,-0.16148949999999998,0.42725499999999994,-0.394135,-0.3216495,0.507815,-0.595695,0.1522805,0.44059499999999996,-0.391115,0.3241605,0.526895,-0.600085,-0.3819895,0.6534549999999999,-0.842265,0.3643105,0.641945,-0.827975,-0.0889205,-0.0037449999999999983,-0.002714999999999995,0.0889205,0.0037449999999999983,0.002714999999999995,-0.1516095,-0.13749500000000003,-0.390115,0.1374705,-0.14520500000000003,-0.381355,-0.1220685,-0.519045,-0.2509,0.10047050000000002,-0.5404950000000001,-0.236993
120,-0.011859000000000001,0.600475,-0.4889,-0.160579,0.421365,-0.40327999999999997,-0.319959,0.498125,-0.60553,0.152781,0.433855,-0.40027,0.324831,0.516405,-0.61234,-0.381679,0.638735,-0.85288,0.365461,0.625455,-0.83813,-0.088841,-0.0036249999999999893,-0.0028800000000000214,0.088841,0.0036249999999999893,0.0028799999999999937,-0.152179,-0.13332500000000003,-0.39186,0.141271,-0.14120500000000002,-0.38266,-0.121757,-0.516265,-0.25708000000000003,0.102051,-0.5375350000000001,-0.24416800000000002
121,-0.011202999999999998,0.5928500000000001,-0.5001549999999999,-0.159529,0.41558,-0.412265,-0.318579,0.48954000000000003,-0.615135,0.153301,0.42739000000000005,-0.409145,0.325501,0.50691,-0.623865,-0.381329,0.62574,-0.8635349999999999,0.366781,0.6107800000000001,-0.846735,-0.088781,-0.0036199999999999566,-0.003124999999999989,0.088781,0.003620000000000012,0.0031250000000000167,-0.152629,-0.12949,-0.393375,0.145041,-0.13744999999999996,-0.38346499999999994,-0.121358,-0.51367,-0.262762,0.103991,-0.53471,-0.250648
122,-0.010505999999999998,0.5860449999999999,-0.509945,-0.15839999999999999,0.409915,-0.420025,-0.31712999999999997,0.481355,-0.623115,0.15389000000000003,0.421185,-0.416775,0.32666,0.49797499999999995,-0.634755,-0.38073999999999997,0.6143449999999999,-0.872005,0.36875,0.597305,-0.853835,-0.0886,-0.003585000000000005,-0.003374999999999989,0.0886,0.003585000000000005,0.003375000000000017,-0.15306999999999998,-0.12560500000000002,-0.394255,0.14889999999999998,-0.13343500000000003,-0.382935,-0.120879,-0.5110250000000001,-0.267135,0.10561,-0.5310650000000001,-0.255485
123,-0.009808499999999998,0.58057,-0.513735,-0.1571705,0.40634899999999996,-0.423695,-0.3156805,0.47375,-0.627285,0.1547095,0.4184,-0.42054499999999995,0.3276595,0.49138,-0.6380349999999999,-0.3801005,0.6043499999999999,-0.876625,0.3708895,0.58495,-0.857115,-0.08836949999999999,-0.003510000000000013,-0.003574999999999995,0.08836949999999999,0.0035099999999999576,0.0035750000000000226,-0.1532605,-0.12280000000000002,-0.395395,0.1524195,-0.13063000000000002,-0.38375499999999996,-0.12039549999999999,-0.50809,-0.26786699999999997,0.1070795,-0.52692,-0.25653
124,-0.008912500000000004,0.57473,-0.51603,-0.1559885,0.402671,-0.42632000000000003,-0.3144985,0.46674000000000004,-0.6303300000000001,0.15539150000000002,0.41512000000000004,-0.42352,0.3286415,0.48397,-0.64016,-0.37951850000000004,0.5949800000000001,-0.87998,0.37324149999999995,0.5713,-0.85884,-0.08811150000000001,-0.003259999999999985,-0.0036400000000000043,0.08811150000000001,0.003259999999999985,0.0036400000000000043,-0.15341849999999999,-0.12054999999999999,-0.39549999999999996,0.1554415,-0.12838,-0.38365,-0.11994450000000001,-0.5057099999999999,-0.267573,0.10840150000000001,-0.52311,-0.256556
125,-0.007573999999999997,0.5699,-0.518005,-0.154848,0.40070599999999995,-0.429015,-0.313158,0.4617,-0.6333249999999999,0.156112,0.413076,-0.42678499999999997,0.329832,0.4782799999999999,-0.642385,-0.378878,0.58715,-0.8827750000000001,0.376172,0.55963,-0.860565,-0.087822,-0.003210000000000046,-0.0037349999999999883,0.087822,0.0032099999999999906,0.003735000000000016,-0.154018,-0.11778000000000005,-0.396235,0.157852,-0.12601,-0.383615,-0.119425,-0.50238,-0.26739199999999996,0.10953199999999999,-0.5181800000000001,-0.256606
126,-0.005975000000000001,0.56193,-0.51993,-0.153646,0.395136,-0.43132000000000004,-0.311716,0.45382,-0.63585,0.156884,0.40798599999999996,-0.42996999999999996,0.331304,0.46965,-0.64522,-0.378046,0.57665,-0.88555,0.379564,0.5478099999999999,-0.86209,-0.087534,-0.0032600000000000406,-0.00381999999999999,0.087534,0.003259999999999985,0.00381999999999999,-0.153976,-0.11766000000000004,-0.39632999999999996,0.159834,-0.12589,-0.38344,-0.119039,-0.50226,-0.267294,0.11073399999999999,-0.51635,-0.256302
127,-0.004228999999999997,0.557455,-0.5214650000000001,-0.152418,0.393195,-0.433265,-0.310358,0.44903499999999996,-0.637615,0.157492,0.405983,-0.432885,0.332842,0.46447499999999997,-0.647845,-0.376818,0.571875,-0.8881749999999999,0.383012,0.539605,-0.8630249999999999,-0.087342,-0.003255000000000008,-0.0039050000000000196,0.087342,0.003255000000000008,0.003904999999999992,-0.154488,-0.11469499999999999,-0.397065,0.16137200000000002,-0.123135,-0.38383500000000004,-0.118658,-0.498545,-0.267073,0.111712,-0.510955,-0.255795
128,-0.0021010000000000056,0.5536449999999999,-0.5228200000000001,-0.150928,0.39151800000000003,-0.43507,-0.308728,0.44493499999999997,-0.6394,0.158242,0.403936,-0.43555,0.33451200000000003,0.459615,-0.65042,-0.375208,0.5664750000000001,-0.89026,0.38703200000000004,0.529555,-0.8624400000000001,-0.087172,-0.003155000000000019,-0.0039000000000000146,0.087172,0.003155000000000019,0.003899999999999987,-0.15465800000000002,-0.11177500000000001,-0.39761,0.162872,-0.12044500000000002,-0.3839,-0.118034,-0.49504499999999996,-0.26672500000000005,0.112932,-0.506145,-0.255244
129,0.00014350000000000127,0.5503250000000001,-0.523985,-0.1492725,0.389759,-0.436825,-0.3068725,0.44152500000000006,-0.641165,0.15910749999999999,0.40212000000000003,-0.438075,0.3362775,0.45484500000000005,-0.652035,-0.37317249999999996,0.560775,-0.8923449999999999,0.3904575,0.5236850000000001,-0.8620350000000001,-0.08700749999999999,-0.0031449999999999534,-0.003925000000000012,0.08700749999999999,0.003145000000000009,0.003924999999999984,-0.1547425,-0.10923499999999997,-0.397865,0.1645075,-0.11786499999999994,-0.383675,-0.11730650000000001,-0.491935,-0.26632700000000004,0.1141075,-0.5018549999999999,-0.25487200000000004
130,0.0024964999999999953,0.54747,-0.525075,-0.1477485,0.388655,-0.43833500000000003,-0.30490849999999997,0.43853,-0.642765,0.1600715,0.400311,-0.44072500000000003,0.3381415,0.44979,-0.653765,-0.3709585,0.55533,-0.894015,0.3940315,0.51753,-0.8623149999999999,-0.0867915,-0.0030100000000000127,-0.003975000000000006,0.0867915,0.0030100000000000127,0.003975000000000006,-0.1552085,-0.10709000000000002,-0.397865,0.1665315,-0.11546000000000001,-0.383505,-0.1165225,-0.48916000000000004,-0.265968,0.1153215,-0.49765000000000004,-0.25461
131,0.004775999999999999,0.545095,-0.526045,-0.146163,0.387394,-0.439535,-0.302853,0.436155,-0.643895,0.160897,0.39853700000000003,-0.443125,0.340067,0.445175,-0.655295,-0.368593,0.550235,-0.895045,0.397187,0.5137050000000001,-0.862395,-0.086627,-0.0028349999999999764,-0.003945000000000004,0.086627,0.002835000000000032,0.003945000000000004,-0.156603,-0.10502499999999998,-0.397905,0.17012699999999997,-0.11346499999999998,-0.383335,-0.115665,-0.48641499999999993,-0.2658,0.11645699999999999,-0.49424499999999993,-0.254844
132,0.006902999999999999,0.543435,-0.52682,-0.144559,0.38557400000000003,-0.44064000000000003,-0.300889,0.43434100000000003,-0.64436,0.16153099999999998,0.39649900000000005,-0.4451,0.342071,0.441035,-0.65686,-0.366209,0.545355,-0.89561,0.400821,0.5092650000000001,-0.8631500000000001,-0.08655099999999999,-0.0027449999999999974,-0.003959999999999991,0.08655099999999999,0.002745000000000053,0.003959999999999991,-0.158899,-0.10313499999999998,-0.39796,0.175111,-0.11151499999999998,-0.38317999999999997,-0.11510999999999999,-0.483765,-0.265883,0.117861,-0.49109499999999995,-0.253975
133,0.008654500000000002,0.54243,-0.526575,-0.1430655,0.38370299999999996,-0.44154499999999997,-0.29911550000000003,0.432785,-0.644915,0.16199449999999999,0.39439399999999997,-0.446805,0.34398449999999997,0.437616,-0.658135,-0.3640355,0.54096,-0.896145,0.40426449999999997,0.50598,-0.863435,-0.0864645,-0.002620000000000011,-0.003975000000000006,0.0864645,0.002620000000000011,0.003975000000000006,-0.16211550000000002,-0.10128000000000004,-0.398475,0.1807245,-0.10949000000000003,-0.382955,-0.1148835,-0.48131999999999997,-0.26587,0.1191145,-0.48813000000000006,-0.253749
134,0.010307000000000004,0.541875,-0.52634,-0.141654,0.381867,-0.44233999999999996,-0.29753399999999997,0.431838,-0.64471,0.162376,0.39294,-0.44803,0.345866,0.43486,-0.6592,-0.362174,0.538125,-0.89656,0.40742599999999995,0.503545,-0.8635999999999999,-0.086406,-0.002564999999999984,-0.004039999999999988,0.086406,0.002564999999999984,0.004040000000000016,-0.165634,-0.09873500000000002,-0.39898,0.187176,-0.106435,-0.38273,-0.114872,-0.478085,-0.265781,0.12084600000000001,-0.48431500000000005,-0.253513
135,0.011831999999999999,0.54215,-0.526115,-0.140264,0.381189,-0.443085,-0.296054,0.431142,-0.644795,0.163016,0.391444,-0.449085,0.347586,0.43282600000000004,-0.6591549999999999,-0.360444,0.53617,-0.896885,0.410136,0.50202,-0.863315,-0.086366,-0.0023599999999999732,-0.004095000000000015,0.086366,0.0023600000000000287,0.0040949999999999875,-0.16925400000000002,-0.09606999999999999,-0.39944500000000005,0.194046,-0.10346,-0.38221499999999997,-0.114852,-0.4749,-0.265698,0.122826,-0.48038000000000003,-0.253274
136,0.012804500000000003,0.546895,-0.52022,-0.1391295,0.386772,-0.43917,-0.2950495,0.437515,-0.64019,0.1634305,0.396645,-0.44528,0.34898049999999997,0.437975,-0.6546700000000001,-0.3597695,0.542945,-0.89225,0.4124405,0.507545,-0.85871,-0.08631050000000001,-0.002124999999999988,-0.004040000000000016,0.08631050000000001,0.002124999999999988,0.004039999999999988,-0.1747995,-0.08679500000000001,-0.3996,0.2025805,-0.09467500000000001,-0.38153000000000004,-0.11519750000000001,-0.465075,-0.26104700000000003,0.1247905,-0.47006499999999996,-0.248681
137,0.013754000000000002,0.54902,-0.5187200000000001,-0.137979,0.389372,-0.43769,-0.294169,0.440749,-0.6378900000000001,0.16384100000000001,0.398404,-0.44377,0.350581,0.44078799999999996,-0.6526799999999999,-0.359379,0.54724,-0.89026,0.414671,0.51179,-0.8566,-0.086281,-0.0012099999999999889,-0.003789999999999988,0.086281,0.0012099999999999889,0.0037900000000000156,-0.17927900000000002,-0.08063000000000003,-0.40036,0.210071,-0.08903,-0.38209,-0.11565399999999999,-0.45798000000000005,-0.258878,0.12693100000000002,-0.46282999999999996,-0.246834
138,0.014492999999999999,0.553725,-0.5123500000000001,-0.136937,0.394009,-0.43367,-0.293527,0.446194,-0.63306,0.164173,0.40209,-0.43947,0.35208300000000003,0.44598099999999996,-0.64825,-0.35906699999999997,0.554115,-0.8855200000000001,0.416783,0.518215,-0.8520399999999999,-0.086263,-0.0009950000000000236,-0.003700000000000009,0.086263,0.0009949999999999681,0.003699999999999981,-0.18466700000000003,-0.07233499999999998,-0.40039,0.21825299999999997,-0.08124500000000001,-0.38146,-0.116068,-0.448955,-0.25438500000000003,0.12906299999999998,-0.45340500000000006,-0.24344000000000002
139,0.015369,0.5559149999999999,-0.50986,-0.135911,0.39608699999999997,-0.4315,-0.292891,0.449177,-0.6301399999999999,0.165189,0.40368,-0.43671,0.353749,0.44872,-0.6455299999999999,-0.35870100000000005,0.558755,-0.8830399999999999,0.41940900000000003,0.522915,-0.84921,-0.086309,-0.0003150000000000097,-0.0035499999999999976,0.086309,0.0003150000000000097,0.0035499999999999976,-0.18854100000000001,-0.06640499999999999,-0.40242999999999995,0.22511899999999999,-0.07586500000000002,-0.38294,-0.116411,-0.44201500000000005,-0.252141,0.131349,-0.44611500000000004,-0.242251
140,0.016013500000000007,0.5601,-0.502895,-0.1350675,0.400976,-0.42705499999999996,-0.29265749999999996,0.454066,-0.625015,0.1662925,0.407416,-0.43179500000000004,0.3552525,0.454092,-0.640805,-0.3584675,0.5658,-0.877945,0.4219025,0.52986,-0.844515,-0.08636250000000001,-0.00015999999999999348,-0.003475000000000006,0.08636250000000001,0.00015999999999999348,0.003475000000000006,-0.1921175,-0.05803999999999998,-0.402485,0.23082249999999999,-0.06808999999999998,-0.38249500000000003,-0.11686749999999999,-0.43294999999999995,-0.247961,0.1334125,-0.43679,-0.238975
141,0.0167765,0.564495,-0.495325,-0.13427250000000002,0.405737,-0.422555,-0.2923325,0.458488,-0.6195550000000001,0.1675975,0.411011,-0.426725,0.35693749999999996,0.459316,-0.635455,-0.3583925,0.572885,-0.872555,0.4241175,0.535555,-0.840875,-0.0864475,5.000000000032756e-06,-0.0034550000000000136,0.0864475,-4.999999999977245e-06,0.003454999999999986,-0.1945825,-0.04985499999999998,-0.402515,0.2351375,-0.061014999999999986,-0.382125,-0.1169825,-0.42357500000000003,-0.243658,0.13520749999999998,-0.42747499999999994,-0.235865
142,0.016926499999999997,0.56941,-0.486975,-0.1342155,0.413327,-0.416925,-0.2926955,0.465363,-0.613065,0.1684345,0.41730500000000004,-0.420555,0.3578445,0.466518,-0.628925,-0.3591955,0.58125,-0.866085,0.4255045,0.54296,-0.8362350000000001,-0.0864545,0.00029000000000001247,-0.0033150000000000124,0.0864545,-0.00028999999999995696,0.0033149999999999846,-0.1971055,-0.039329999999999976,-0.40249500000000005,0.23835449999999997,-0.05160999999999999,-0.381865,-0.1176255,-0.41223,-0.239492,0.1361545,-0.41578000000000004,-0.232161
143,0.016989500000000005,0.57436,-0.478645,-0.1342805,0.42104699999999995,-0.411145,-0.2931805,0.47323099999999996,-0.606425,0.16943950000000002,0.42374199999999995,-0.414285,0.3584495,0.47436599999999995,-0.622245,-0.3605805,0.5890599999999999,-0.857745,0.42665949999999997,0.5516,-0.831685,-0.0864695,0.0006299999999999639,-0.003374999999999989,0.0864695,-0.0006300000000000194,0.003374999999999989,-0.1994505,-0.028300000000000047,-0.40315500000000004,0.2404995,-0.04174,-0.381755,-0.11823049999999999,-0.40041000000000004,-0.23511300000000002,0.13654950000000002,-0.4035500000000001,-0.228393
144,0.017211499999999998,0.57891,-0.47037,-0.1341725,0.42722000000000004,-0.4054,-0.2937325,0.48088300000000006,-0.5998399999999999,0.17061749999999998,0.42965600000000004,-0.40827,0.3590675,0.481053,-0.61544,-0.3621525,0.59662,-0.8494200000000001,0.4280775,0.55974,-0.8268800000000001,-0.0864675,0.0009600000000000164,-0.003489999999999993,0.0864675,-0.0009599999999999609,0.003489999999999993,-0.2015725,-0.017789999999999973,-0.4041,0.2423575,-0.03219999999999995,-0.3815,-0.1187125,-0.3891,-0.230842,0.13751750000000001,-0.39332,-0.225523
145,0.015392999999999997,0.5882149999999999,-0.45803,-0.136214,0.43562199999999995,-0.39573,-0.296564,0.49092399999999997,-0.58969,0.169716,0.438059,-0.39849999999999997,0.357476,0.489936,-0.60503,-0.36591399999999996,0.606765,-0.83728,0.42726600000000003,0.570395,-0.81835,-0.08635599999999999,6.499999999998174e-05,-0.003919999999999979,0.08635599999999999,-6.500000000003725e-05,0.003920000000000007,-0.205384,-0.00467500000000004,-0.40153,0.243436,-0.019535000000000025,-0.37976,-0.12132399999999999,-0.375405,-0.223153,0.13608599999999998,-0.381115,-0.21997699999999998
146,0.013838500000000004,0.5967399999999999,-0.44806,-0.1381395,0.443366,-0.38651,-0.2994495,0.500676,-0.5802,0.1689005,0.44639999999999996,-0.38937,0.3560005,0.49784199999999995,-0.59512,-0.3694595,0.6164499999999999,-0.82558,0.4262605,0.5802499999999999,-0.8104100000000001,-0.08629049999999999,-0.0006300000000000194,-0.004140000000000005,0.08629049999999999,0.0006299999999999639,0.004140000000000005,-0.20869949999999998,0.007899999999999963,-0.39788,0.2446105,-0.00717000000000001,-0.37729999999999997,-0.12366949999999999,-0.36236,-0.215996,0.13480050000000002,-0.36958,-0.214945
147,0.012531500000000004,0.6036250000000001,-0.43851,-0.1397965,0.44990800000000003,-0.37907,-0.3021665,0.50871,-0.5729,0.1681435,0.45343500000000003,-0.38217,0.35473350000000003,0.5042960000000001,-0.5873299999999999,-0.3727565,0.624995,-0.81579,0.42566350000000003,0.588805,-0.80502,-0.0862235,-0.0006549999999999612,-0.004249999999999976,0.0862235,0.0006550000000000167,0.004250000000000004,-0.2107865,0.019655000000000034,-0.39622,0.24544350000000004,0.004355000000000053,-0.37661999999999995,-0.1257865,-0.350075,-0.210634,0.13297350000000002,-0.358055,-0.21037499999999998
148,0.011615999999999994,0.610785,-0.43282,-0.14115,0.456936,-0.37178,-0.30468,0.517347,-0.56547,0.16696,0.459799,-0.37498,0.35354,0.511375,-0.57968,-0.37572,0.632895,-0.8063400000000001,0.42475,0.597305,-0.79944,-0.0863,-0.0005450000000000177,-0.004299999999999998,0.0863,0.0005450000000000177,0.004299999999999998,-0.21216000000000002,0.03190500000000002,-0.39449,0.24602000000000002,0.016625,-0.37571,-0.12771,-0.33762499999999995,-0.205044,0.13162,-0.346815,-0.20611600000000002
149,0.011525999999999998,0.61172,-0.43348,-0.141701,0.45765400000000006,-0.37104000000000004,-0.30634100000000003,0.519842,-0.56475,0.16635899999999998,0.46013800000000005,-0.37442,0.353209,0.5120250000000001,-0.5786,-0.37795100000000004,0.6346400000000001,-0.8037599999999999,0.424639,0.599106,-0.80101,-0.086749,-0.00030999999999992145,-0.004200000000000009,0.086749,0.00031000000000003247,0.004200000000000009,-0.212921,0.03764000000000006,-0.39490000000000003,0.245139,0.022300000000000042,-0.37655,-0.12879100000000002,-0.33119999999999994,-0.206059,0.13066899999999998,-0.34051999999999993,-0.207207
150,0.011050500000000001,0.6119,-0.43493,-0.1426325,0.45815100000000003,-0.37039999999999995,-0.30825250000000004,0.522086,-0.5644,0.1652275,0.46038100000000004,-0.37412999999999996,0.3524275,0.5122490000000001,-0.5786,-0.3804325,0.6357,-0.80125,0.42408749999999995,0.601457,-0.80168,-0.0871775,-7.00000000000145e-05,-0.0040999999999999925,0.0871775,7.00000000000145e-05,0.00410000000000002,-0.2133325,0.04308000000000001,-0.3953,0.24390750000000003,0.02807000000000004,-0.37754,-0.1300825,-0.32533,-0.20718399999999998,0.1294075,-0.33490999999999993,-0.20882599999999998
151,0.0111115,0.6110840000000001,-0.43764,-0.1434425,0.45605200000000007,-0.37093,-0.31001249999999997,0.5216670000000001,-0.56516,0.1639475,0.45800100000000005,-0.37501,0.3518275,0.5094740000000001,-0.58019,-0.3828725,0.6353200000000001,-0.79983,0.4237475,0.60104,-0.80183,-0.0875775,2.0000000000020002e-05,-0.0041200000000000125,0.0875775,-1.999999999990898e-05,0.0041200000000000125,-0.2134625,0.045970000000000066,-0.39572,0.24270750000000002,0.031270000000000076,-0.37827,-0.1313625,-0.32189999999999996,-0.20827299999999999,0.1281275,-0.33207,-0.211223
152,0.011305999999999997,0.609745,-0.438475,-0.144374,0.453828,-0.371415,-0.311674,0.519774,-0.565955,0.162586,0.45515300000000003,-0.375745,0.351196,0.505231,-0.581725,-0.385024,0.63482,-0.799585,0.423336,0.598974,-0.801855,-0.08784600000000001,7.999999999996898e-05,-0.004135,0.08784600000000001,-7.999999999996898e-05,0.004135,-0.213824,0.047020000000000006,-0.395745,0.241736,0.03311999999999998,-0.378775,-0.132644,-0.31984999999999997,-0.209109,0.126666,-0.33085,-0.21347
153,0.0119195,0.6083830000000001,-0.44154,-0.1451315,0.4529540000000001,-0.37193,-0.3131215,0.5181290000000001,-0.56677,0.1613985,0.4525080000000001,-0.37666,0.3507285,0.5018520000000001,-0.58318,-0.3867915,0.6333350000000001,-0.7994600000000001,0.4234985,0.596592,-0.8019099999999999,-0.0882385,0.00016500000000008175,-0.004149999999999987,0.0882385,-0.00016499999999997073,0.004150000000000015,-0.21279150000000002,0.04829500000000009,-0.39574,0.2405485,0.03518500000000008,-0.3792,-0.1338315,-0.3175649999999999,-0.21018599999999998,0.12522850000000002,-0.3294149999999999,-0.21467399999999998
154,0.013386999999999996,0.610452,-0.43679500000000004,-0.144898,0.455885,-0.36682499999999996,-0.313588,0.519717,-0.561395,0.161142,0.45333199999999996,-0.37177499999999997,0.35126199999999996,0.5015769999999999,-0.579005,-0.38755799999999996,0.6346299999999999,-0.793575,0.424882,0.5923579999999999,-0.795475,-0.088242,-3.0000000000085514e-05,-0.0041049999999999975,0.088242,2.999999999997449e-05,0.0041049999999999975,-0.213568,0.05344999999999994,-0.394265,0.24229199999999998,0.040629999999999944,-0.377135,-0.13400800000000002,-0.31216,-0.20504499999999998,0.12457199999999999,-0.32423,-0.20940199999999998
155,0.014986,0.613518,-0.43422,-0.14465699999999998,0.459865,-0.36171,-0.313977,0.522086,-0.55612,0.16075299999999998,0.45542900000000003,-0.36698,0.351663,0.502801,-0.57509,-0.38827700000000004,0.638255,-0.78823,0.42644299999999996,0.591737,-0.79203,-0.088253,-4.499999999996174e-05,-0.0038800000000000223,0.088253,4.499999999996174e-05,0.0038799999999999946,-0.21370699999999998,0.05924499999999999,-0.39288,0.244023,0.047024999999999983,-0.37518,-0.134267,-0.306115,-0.200169,0.124263,-0.31898499999999996,-0.204924
156,0.015560500000000005,0.616739,-0.428555,-0.1444385,0.463871,-0.356305,-0.31436850000000005,0.5250589999999999,-0.550515,0.1601215,0.457974,-0.36189499999999997,0.35210149999999996,0.50458,-0.571245,-0.3889585,0.63977,-0.782645,0.42792149999999995,0.590894,-0.7882750000000001,-0.08826149999999999,-5.999999999994898e-05,-0.0036850000000000077,0.0882615,5.999999999994898e-05,0.003684999999999994,-0.2139885,0.06555,-0.390915,0.24574150000000003,0.053649999999999975,-0.37294499999999997,-0.1347085,-0.29983000000000004,-0.19495800000000002,0.12309149999999999,-0.31272,-0.199356
157,0.017978,0.616318,-0.42874,-0.142482,0.464046,-0.35651,-0.312872,0.52392,-0.55074,0.161438,0.457442,-0.36245000000000005,0.354318,0.502532,-0.5730200000000001,-0.387712,0.636968,-0.78288,0.431148,0.586581,-0.7903199999999999,-0.088378,0.0006350000000000522,-0.0034400000000000125,0.088378,-0.0006349999999999412,0.0034399999999999986,-0.211902,0.06714500000000001,-0.39139,0.247108,0.056115000000000026,-0.37153,-0.13323200000000002,-0.29803499999999994,-0.195509,0.123698,-0.31025499999999995,-0.199063
158,0.0203505,0.61628,-0.42884,-0.1405825,0.463849,-0.35663999999999996,-0.3114225,0.52325,-0.5508299999999999,0.1627775,0.457129,-0.36268999999999996,0.3564475,0.50105,-0.5739,-0.3863825,0.635179,-0.78267,0.4354775,0.583053,-0.79148,-0.08852750000000001,0.0012250000000000316,-0.0032099999999999906,0.08852750000000001,-0.0012250000000000316,0.0032100000000000184,-0.2102825,0.06895499999999999,-0.39156,0.2482875,0.05868499999999999,-0.36998,-0.1317925,-0.296295,-0.196008,0.12427749999999999,-0.307095,-0.19838
159,0.022808500000000002,0.614918,-0.42805,-0.1387465,0.465244,-0.3567,-0.3098665,0.523844,-0.55087,0.16411350000000002,0.45838999999999996,-0.36278,0.3586435,0.500887,-0.5740000000000001,-0.38510649999999996,0.634221,-0.78199,0.4397835,0.581489,-0.79213,-0.0886535,0.0015300000000000313,-0.003020000000000009,0.0886535,-0.0015300000000000313,0.003019999999999995,-0.20872649999999998,0.07161000000000001,-0.39138,0.2496235,0.06202000000000002,-0.36843000000000004,-0.13027650000000002,-0.29335,-0.196258,0.12554349999999997,-0.3043,-0.198583
160,0.024586,0.6143790000000001,-0.42723500000000003,-0.137138,0.4666990000000001,-0.35629500000000003,-0.308468,0.5248700000000001,-0.550605,0.165522,0.4598460000000001,-0.362695,0.360682,0.5018190000000001,-0.573875,-0.384058,0.6337710000000001,-0.780805,0.443682,0.5813530000000001,-0.791765,-0.088672,0.0017050000000000676,-0.0029949999999999977,0.088672,-0.0017049999999999566,0.0029949999999999977,-0.207338,0.07449500000000009,-0.390935,0.250862,0.06550500000000009,-0.366815,-0.128988,-0.29032499999999994,-0.196438,0.12695199999999998,-0.30135499999999993,-0.198498
161,0.025901000000000004,0.6148440000000001,-0.42411,-0.135934,0.468525,-0.3557,-0.307364,0.526707,-0.55067,0.166636,0.461805,-0.36264,0.362566,0.503538,-0.57378,-0.383404,0.634355,-0.7794500000000001,0.447126,0.5821850000000001,-0.7903100000000001,-0.088266,0.00195500000000004,-0.0029700000000000004,0.088266,-0.001954999999999929,0.0029700000000000004,-0.206244,0.07785500000000001,-0.39052,0.251876,0.06936500000000001,-0.36638000000000004,-0.12809399999999999,-0.286945,-0.19648500000000002,0.12806599999999999,-0.297975,-0.198443
162,0.0273355,0.615705,-0.422805,-0.1347125,0.470178,-0.354805,-0.3061425,0.528503,-0.550615,0.16787749999999999,0.46381799999999995,-0.362145,0.36443749999999997,0.505362,-0.5736749999999999,-0.38265249999999995,0.636058,-0.777645,0.44989749999999995,0.583768,-0.788575,-0.0879775,0.002094999999999958,-0.0029549999999999854,0.0879775,-0.002095000000000069,0.002955000000000013,-0.2055625,0.08058499999999996,-0.390325,0.2531175,0.07233499999999998,-0.365975,-0.1268825,-0.284265,-0.19659699999999997,0.1296675,-0.29705500000000007,-0.19916799999999998
163,0.0283845,0.616414,-0.418985,-0.1335125,0.472186,-0.353705,-0.3064225,0.530887,-0.550315,0.1691775,0.466235,-0.361195,0.3661675,0.507994,-0.572835,-0.3819725,0.638627,-0.774975,0.4522475,0.587071,-0.786315,-0.0876675,0.0021900000000000253,-0.002904999999999991,0.0876675,-0.0021900000000000253,0.002904999999999991,-0.2053325,0.08331,-0.390275,0.2543675,0.07519999999999999,-0.365875,-0.1259325,-0.28115,-0.196697,0.1309375,-0.29508,-0.199462
164,0.029476499999999996,0.6243489999999999,-0.408275,-0.1320805,0.480645,-0.345695,-0.3073005,0.540229,-0.5434950000000001,0.17083949999999998,0.47511899999999996,-0.353405,0.3677395,0.51743,-0.565315,-0.3811305,0.6486919999999999,-0.7654650000000001,0.4544995,0.597136,-0.777585,-0.0871895,0.002414999999999945,-0.002795000000000006,0.0871895,-0.002415000000000056,0.002794999999999992,-0.20704050000000002,0.09336499999999998,-0.387845,0.2579995,0.08526499999999998,-0.362485,-0.1247605,-0.271425,-0.19032000000000002,0.13230950000000002,-0.286745,-0.19287900000000002
165,0.0303065,0.633057,-0.39679,-0.1309195,0.48929199999999995,-0.33677,-0.3084895,0.550381,-0.53623,0.1726005,0.484187,-0.34478,0.3691405,0.52764,-0.5565599999999999,-0.3803995,0.6589769999999999,-0.7558199999999999,0.45660049999999996,0.607421,-0.7675799999999999,-0.0867705,0.002589999999999981,-0.0026400000000000035,0.0867705,-0.002589999999999981,0.0026400000000000035,-0.2089295,0.10360999999999998,-0.38525,0.26166049999999996,0.09554999999999997,-0.35885999999999996,-0.1237495,-0.26142,-0.183838,0.1345405,-0.27864,-0.18656699999999998
166,0.0308055,0.6372200000000001,-0.38983,-0.1301855,0.49238400000000004,-0.3325,-0.3102455,0.5555660000000001,-0.53402,0.1743945,0.48754300000000006,-0.3407,0.3704145,0.5328250000000001,-0.5524,-0.3799755,0.664162,-0.75122,0.4586445,0.6161050000000001,-0.7642,-0.0866845,0.002655000000000074,-0.0023999999999999994,0.0866845,-0.002654999999999963,0.0023999999999999994,-0.2097955,0.10812500000000008,-0.38417,0.2634445,0.10033500000000006,-0.3575,-0.1228855,-0.25724499999999995,-0.18254700000000001,0.1367245,-0.27548499999999987,-0.185631
167,0.030857999999999997,0.642576,-0.38202499999999995,-0.129799,0.49601700000000004,-0.327535,-0.31237899999999996,0.5611510000000001,-0.531535,0.176081,0.491263,-0.335815,0.37151100000000004,0.53841,-0.546885,-0.380989,0.673864,-0.7462150000000001,0.459801,0.623449,-0.7595850000000001,-0.086601,0.0027800000000000047,-0.0021049999999999958,0.086601,-0.0027800000000000047,0.0021050000000000096,-0.210879,0.11290000000000006,-0.38275499999999996,0.26522100000000004,0.10512000000000005,-0.355935,-0.122319,-0.25273999999999996,-0.180919,0.138551,-0.27117,-0.18379299999999998
168,0.030834,0.6474260000000001,-0.377005,-0.130106,0.49892600000000004,-0.322435,-0.314986,0.5660010000000001,-0.528635,0.177454,0.4941960000000001,-0.330365,0.372224,0.5432600000000001,-0.540585,-0.38229599999999997,0.6834760000000001,-0.7412049999999999,0.460604,0.630711,-0.7545249999999999,-0.08655399999999999,0.0031200000000000117,-0.0017449999999999966,0.08655399999999999,-0.0031199999999999006,0.0017450000000000104,-0.212516,0.11668000000000006,-0.381275,0.266484,0.10895000000000005,-0.354345,-0.12196599999999999,-0.24890999999999996,-0.179113,0.140394,-0.2681199999999999,-0.18307299999999999
169,0.029380000000000003,0.6517809999999999,-0.37134,-0.131589,0.5014679999999999,-0.31718,-0.319529,0.5710059999999999,-0.5251,0.177661,0.49696499999999993,-0.32477,0.371571,0.547959,-0.53391,-0.384959,0.6933029999999999,-0.73632,0.46019099999999996,0.638211,-0.74869,-0.086251,0.003434999999999966,-0.0013800000000000062,0.086251,-0.003435000000000077,0.0013799999999999923,-0.215329,0.11922499999999991,-0.37954,0.266681,0.11120499999999994,-0.35279,-0.12295900000000001,-0.24560500000000007,-0.177539,0.141211,-0.2655550000000001,-0.18304
170,0.0277125,0.656146,-0.364575,-0.1334565,0.504054,-0.311205,-0.3244565,0.57666,-0.5203150000000001,0.1777435,0.499807,-0.318805,0.37023350000000005,0.553077,-0.5261549999999999,-0.3878065,0.70381,-0.7303250000000001,0.4582835,0.646325,-0.739535,-0.0860435,0.0035199999999999676,-0.0011750000000000094,0.0860435,-0.0035199999999999676,0.0011749999999999955,-0.2181665,0.12129000000000001,-0.377795,0.26676350000000004,0.11358000000000001,-0.351345,-0.1240765,-0.24222999999999995,-0.175681,0.1415035,-0.26327999999999996,-0.18180200000000002
171,0.026377500000000005,0.663057,-0.357182,-0.1352335,0.506626,-0.30481199999999997,-0.3292035,0.5826899999999999,-0.514582,0.17789649999999999,0.5027999999999999,-0.312752,0.3688865,0.5585359999999999,-0.518232,-0.3906735,0.71519,-0.723752,0.4565565,0.655138,-0.730262,-0.08605650000000001,0.0034600000000000186,-0.0009779999999999928,0.08605650000000001,-0.0034600000000000186,0.0009780000000000066,-0.2204135,0.12335999999999997,-0.376162,0.2670965,0.11609999999999998,-0.350112,-0.12491350000000001,-0.239,-0.173611,0.1424165,-0.26028000000000007,-0.18114799999999998
172,0.024820500000000002,0.669833,-0.349525,-0.1370575,0.509056,-0.298095,-0.3325575,0.589152,-0.508425,0.1778225,0.505745,-0.306855,0.3673325,0.56422,-0.510025,-0.3937175,0.727035,-0.716855,0.4546425,0.664264,-0.720885,-0.0860625,0.003275000000000028,-0.0008240000000000053,0.0860625,-0.003275000000000028,0.0008239999999999914,-0.22238750000000002,0.12492500000000001,-0.374455,0.2674125,0.11844500000000002,-0.349325,-0.12565749999999998,-0.236035,-0.171598,0.1428625,-0.25751499999999994,-0.17975400000000002
173,0.022802000000000003,0.6762239999999999,-0.341966,-0.138983,0.510995,-0.291746,-0.335413,0.595278,-0.501976,0.177537,0.508215,-0.301396,0.365317,0.569981,-0.5020560000000001,-0.397193,0.7388349999999999,-0.709916,0.452567,0.672908,-0.711936,-0.086127,0.00295499999999993,-0.0007790000000000019,0.086127,-0.002955000000000041,0.000778999999999988,-0.224133,0.12582499999999996,-0.372896,0.267587,0.12017499999999998,-0.34900600000000004,-0.126753,-0.23370500000000005,-0.17003000000000001,0.142627,-0.255105,-0.178486
174,0.0208,0.6823940000000001,-0.33454799999999996,-0.140511,0.512835,-0.28588800000000003,-0.33738100000000004,0.601289,-0.495668,0.177409,0.510405,-0.296268,0.36365899999999995,0.576112,-0.495088,-0.40049100000000004,0.750605,-0.7025779999999999,0.451009,0.681517,-0.704438,-0.08620900000000001,0.0026450000000000085,-0.0007559999999999928,0.08620900000000001,-0.0026450000000000085,0.0007560000000000067,-0.22545099999999998,0.12637500000000002,-0.371378,0.267989,0.121645,-0.34899800000000003,-0.127601,-0.23173500000000002,-0.168742,0.142969,-0.252745,-0.177147
175,0.018686499999999995,0.687428,-0.327401,-0.1420655,0.5139650000000001,-0.280591,-0.33889549999999996,0.6064020000000001,-0.488801,0.17705449999999998,0.5121950000000001,-0.291981,0.3617945,0.5811950000000001,-0.48850099999999996,-0.4038255,0.7613350000000001,-0.6953910000000001,0.4492045,0.689138,-0.697411,-0.0863045,0.0022650000000000725,-0.0008470000000000005,0.0863045,-0.0022649999999999615,0.0008470000000000005,-0.2264255,0.1267950000000001,-0.370261,0.2681445,0.12241500000000005,-0.349431,-0.1285455,-0.23020499999999988,-0.167613,0.14300449999999998,-0.25204499999999996,-0.176422
176,0.0159435,0.692373,-0.320788,-0.14431850000000002,0.51531,-0.275988,-0.3408785,0.611147,-0.481938,0.1758515,0.51354,-0.287368,0.35947149999999994,0.586087,-0.483228,-0.40672850000000005,0.7673300000000001,-0.688678,0.4466915,0.69637,-0.6916479999999999,-0.0864115,0.0019200000000000328,-0.0010010000000000019,0.0864115,-0.0019200000000000328,0.0010010000000000019,-0.2281385,0.12681000000000003,-0.36941799999999997,0.26738150000000005,0.12301000000000001,-0.350078,-0.1301985,-0.22901000000000005,-0.166737,0.1418815,-0.25205999999999995,-0.174818
177,0.012853500000000004,0.6960770000000001,-0.314471,-0.1468225,0.5156000000000001,-0.27115100000000003,-0.3432325,0.6155470000000001,-0.473421,0.1741275,0.51383,-0.282911,0.3564475,0.589738,-0.477861,-0.4101225,0.77307,-0.682071,0.4432975,0.702194,-0.685651,-0.08653749999999999,0.0016300000000000203,-0.001130000000000006,0.08653749999999999,-0.0016300000000000203,0.0011299999999999921,-0.2301525,0.12583,-0.368591,0.2661075,0.12272,-0.35053100000000004,-0.1323625,-0.22872000000000003,-0.16568100000000002,0.1403775,-0.25298,-0.17326000000000003
178,0.009966499999999996,0.699376,-0.308466,-0.14909250000000002,0.5156700000000001,-0.26701600000000003,-0.34497249999999996,0.619201,-0.46563600000000005,0.1725775,0.51412,-0.278696,0.35367750000000003,0.5932890000000001,-0.472526,-0.4131625,0.77788,-0.675296,0.43999750000000004,0.707253,-0.680406,-0.08666750000000001,0.0016300000000000203,-0.0012820000000000054,0.08666750000000001,-0.0016300000000000203,0.0012820000000000054,-0.2320425,0.12461,-0.367606,0.2653275,0.12219000000000002,-0.350966,-0.1341525,-0.22870999999999997,-0.16442800000000002,0.13917749999999998,-0.25346,-0.17219299999999998
179,0.007064000000000004,0.702609,-0.30408799999999997,-0.151079,0.5163300000000001,-0.264488,-0.34661899999999995,0.622579,-0.45982799999999996,0.171001,0.51475,-0.275758,0.351351,0.597127,-0.469558,-0.41600899999999996,0.7825300000000001,-0.6706380000000001,0.437441,0.7121580000000001,-0.6778080000000001,-0.086861,0.0016300000000000203,-0.0014009999999999995,0.086861,-0.0016300000000000203,0.0014009999999999995,-0.234379,0.12362000000000001,-0.367398,0.264971,0.12142000000000003,-0.351958,-0.135989,-0.22885,-0.164438,0.13814099999999999,-0.25459999999999994,-0.17151699999999998
180,0.004459499999999998,0.706279,-0.29963300000000004,-0.1525855,0.5173,-0.262233,-0.3479655,0.6258269999999999,-0.454063,0.1696945,0.51674,-0.27208299999999996,0.3498245,0.601254,-0.466263,-0.4183655,0.78655,-0.6665030000000001,0.4349945,0.7162989999999999,-0.6747129999999999,-0.0869845,0.0014199999999999768,-0.001566999999999999,0.0869845,-0.0014200000000000879,0.001566999999999999,-0.2370055,0.12210999999999994,-0.367303,0.2653245,0.12042999999999998,-0.352463,-0.1374955,-0.22914,-0.163887,0.1373745,-0.2554700000000001,-0.170826
181,0.0028734999999999976,0.7103729999999999,-0.29508100000000004,-0.15303350000000002,0.5173749999999999,-0.260011,-0.34806349999999997,0.6286109999999999,-0.448041,0.1692965,0.5186369999999999,-0.267951,0.3492265,0.6054889999999999,-0.462811,-0.4195335,0.7910999999999999,-0.662971,0.4336565,0.7201,-0.671501,-0.0869865,0.0008799999999999919,-0.0014899999999999913,0.0869865,-0.0008800000000001029,0.0014900000000000052,-0.2390835,0.12019999999999997,-0.36714100000000005,0.2675365,0.11869999999999997,-0.352221,-0.1379935,-0.23009000000000002,-0.16316,0.1373365,-0.25699000000000005,-0.170022
