sb224sc-HT22-VT27/4dt907/src/ml-research/a11/datafiles/kinect_good_preprocessed_A9_mediapipe/B7_kinect_mirrored.csv
FrameNo,nose_3d_x,nose_3d_y,nose_3d_z,left_shoulder_3d_x,left_shoulder_3d_y,left_shoulder_3d_z,left_elbow_3d_x,left_elbow_3d_y,left_elbow_3d_z,right_shoulder_3d_x,right_shoulder_3d_y,right_shoulder_3d_z,right_elbow_3d_x,right_elbow_3d_y,right_elbow_3d_z,left_wrist_3d_x,left_wrist_3d_y,left_wrist_3d_z,right_wrist_3d_x,right_wrist_3d_y,right_wrist_3d_z,left_hip_3d_x,left_hip_3d_y,left_hip_3d_z,right_hip_3d_x,right_hip_3d_y,right_hip_3d_z,left_knee_3d_x,left_knee_3d_y,left_knee_3d_z,right_knee_3d_x,right_knee_3d_y,right_knee_3d_z,left_ankle_3d_x,left_ankle_3d_y,left_ankle_3d_z,right_ankle_3d_x,right_ankle_3d_y,right_ankle_3d_z
123,1.011106,0.7153935,0.0223249999999999,0.8502930000000001,0.5192835,-0.002165,0.7412430000000001,0.7101434999999999,-0.076889,1.1606130000000001,0.5259535,-0.001102,1.261693,0.7294235,-0.086154,0.711303,0.9133335,-0.109202,1.307383,0.9500835,-0.127322,0.921961,0.0008265,-0.003755,1.078039,-0.0008265,0.003755,0.884993,-0.3621065,-0.03286,1.103593,-0.3709065,-0.055967,0.894437,-0.7028665000000001,0.029626,1.101153,-0.7133865,0.019074
124,1.011428,0.713767,0.0201495,0.850911,0.518357,-0.0047305,0.742081,0.710177,-0.0802435,1.161021,0.524957,-0.0029405,1.2618909999999999,0.727657,-0.0883164999999999,0.712631,0.915947,-0.1126305,1.307431,0.948247,-0.1309905,0.921659,0.0009489999999999,-0.0038135,1.078341,-0.0009489999999999,0.0038135,0.882861,-0.358493,-0.0418305,1.104731,-0.365853,-0.0643935,0.894896,-0.698313,0.0229075,1.101941,-0.708283,0.0135665
125,1.0117145,0.713035,0.0180115,0.8515655,0.518085,-0.0071435,0.7430255,0.710355,-0.0834235,1.1613755000000001,0.524535,-0.0047705,1.2620555,0.725865,-0.0902405,0.7142355,0.916915,-0.1160065,1.3075955000000001,0.947975,-0.1340865,0.9214095,0.00102,-0.0037264999999999,1.0785905,-0.00102,0.0037265,0.8807655,-0.354085,-0.0509555,1.1059855,-0.360195,-0.0728525,0.8957595,-0.693005,0.0161025,1.1026855,-0.702115,0.0080655
126,1.0119855,0.7116545000000001,0.01615,0.8522015000000001,0.5164345,-0.0093969999999999,0.7440015,0.7103345000000001,-0.086367,1.1617015,0.5236045,-0.0061859999999999,1.2622515,0.7252445000000001,-0.092059,0.7159815,0.9164045,-0.119507,1.3077515,0.9492745,-0.1368069999999999,0.9212345,0.0011865,-0.0035779999999999,1.0787655,-0.0011865,0.003578,0.8788015,-0.3487355,-0.060334,1.1073015,-0.3543655,-0.081407,0.8967605,-0.6864555,0.009458,1.1034715,-0.6944855,0.002368
127,1.012268,0.710652,0.014775,0.852882,0.5156719999999999,-0.011264,0.744902,0.710642,-0.089064,1.162102,0.5216719999999999,-0.00732,1.262512,0.724992,-0.0936529999999999,0.717832,0.916352,-0.122471,1.307952,0.951792,-0.138821,0.920946,0.001409,-0.0034389999999999,1.079054,-0.0014089999999999,0.003439,0.876972,-0.342958,-0.069712,1.108722,-0.348318,-0.089783,0.89801,-0.679018,0.003203,1.104232,-0.685718,-0.003129
128,1.0125395,0.7089265,0.0135604999999999,0.8536575,0.5159265,-0.0131045,0.7457075,0.7102365,-0.0913875,1.1625275,0.5202365,-0.0083095,1.2627074999999999,0.7239565,-0.0950555,0.7197775,0.9151065,-0.1252485,1.3076875000000001,0.9495865,-0.1401485,0.9205725,0.0016755,-0.0032815,1.0794275,-0.0016755,0.0032814999999999,0.8753475,-0.3375835,-0.0787675,1.1101775,-0.3435735,-0.0983465,0.8993925,-0.6714735,-0.0025835,1.1048475,-0.6768235,-0.0082775
129,1.0127665,0.7075349999999999,0.012558,0.8542625,0.514875,-0.0143419999999999,0.7463825,0.710175,-0.0936449999999999,1.1628825,0.519165,-0.0090329999999999,1.2628724999999998,0.723885,-0.09611,0.7217525,0.912875,-0.12784,1.3075025,0.953495,-0.14122,0.9202045,0.001909,-0.0031519999999999,1.0797955,-0.0019089999999999,0.003152,0.8738725,-0.331545,-0.0873299999999999,1.1115725,-0.337675,-0.1065769999999999,0.9008505,-0.662815,-0.0078489999999999,1.1053225,-0.666915,-0.0132269999999999
130,1.013007,0.7064689999999999,0.0115494999999999,0.8549800000000001,0.5140589999999999,-0.0157365,0.74708,0.710329,-0.0956994999999999,1.16312,0.518219,-0.0098145,1.26329,0.7265889999999999,-0.0979405,0.72378,0.910309,-0.1303445,1.30735,0.957329,-0.1422645,0.919852,0.002155,-0.0030235,1.0801479999999999,-0.002155,0.0030234999999999,0.87285,-0.324801,-0.0952755,1.11302,-0.331201,-0.1144075,0.902424,-0.653421,-0.0126045,1.10588,-0.6563110000000001,-0.0183195
131,1.0132165,0.7056015,0.010529,0.8557635,0.5128415000000001,-0.017122,0.7478235,0.7101215,-0.0977669999999999,1.1631335,0.5166015,-0.010761,1.2636635,0.7285915,-0.099697,0.7257735000000001,0.9072315,-0.132802,1.3070135,0.9597115,-0.143392,0.9196105,0.0023094999999999,-0.002824,1.0803895,-0.0023094999999999,0.002824,0.8721035,-0.3177285,-0.102972,1.1145335,-0.3247085,-0.121914,0.9040795000000001,-0.6435085,-0.017119,1.1064334999999998,-0.6454285,-0.023314
132,1.013373,0.70401,0.0092624999999999,0.856547,0.51225,-0.0184365,0.748397,0.70938,-0.0999355,1.163117,0.51522,-0.0119325,1.2639770000000001,0.7295400000000001,-0.1015195,0.727697,0.90364,-0.1353155,1.306597,0.96103,-0.1442155,0.9194120000000001,0.002554,-0.0027275,1.0805879999999999,-0.002554,0.0027275,0.871857,-0.30996,-0.1100324999999999,1.116007,-0.3182199999999999,-0.1290355,0.905674,-0.63369,-0.0214395,1.106947,-0.63476,-0.0280625
133,1.013491,0.7025735,0.0080724999999999,0.857233,0.5112635,-0.0197615,0.748983,0.7083834999999999,-0.1024075,1.162983,0.5135635000000001,-0.0131785,1.264233,0.7303035,-0.1035075,0.729093,0.8996235,-0.1381685,1.306173,0.9613435,-0.1453185,0.919279,0.0027445,-0.0026075,1.080721,-0.0027444999999999,0.0026074999999999,0.871643,-0.3022965,-0.1170165,1.117583,-0.3113265,-0.1356284999999999,0.907129,-0.6230265,-0.0251755,1.107313,-0.6239465,-0.0325145
134,1.013722,0.6994115,0.0070304999999999,0.8577350000000001,0.5103015,-0.0210175,0.749645,0.7065515,-0.1047365,1.1629749999999999,0.5119914999999999,-0.0144405,1.264495,0.7310814999999999,-0.1058155,0.7301950000000001,0.8965515,-0.1410645,1.305565,0.9596415,-0.1468645,0.919187,0.0029354999999999,-0.0026695,1.080813,-0.0029355,0.0026694999999999,0.871415,-0.2954585,-0.1237165,1.119005,-0.3052085,-0.1418145,0.9081170000000001,-0.6127885,-0.0285065,1.107465,-0.6137985,-0.0365105
135,1.0140265,0.6979685,0.0053479999999999,0.8582515,0.5091485,-0.022656,0.7504315,0.7065285,-0.10738,1.1632514999999999,0.5096984999999999,-0.016216,1.2646415,0.7306484999999999,-0.108135,0.7311415,0.8970585,-0.144402,1.3048215,0.9583585,-0.149262,0.9191255,0.0030064999999999,-0.0028279999999999,1.0808745,-0.0030065,0.0028279999999999,0.8711315,-0.2883415,-0.130685,1.1203815,-0.2980515,-0.147852,0.9089775,-0.6014715,-0.031973,1.1075914999999998,-0.6025715,-0.040223
136,1.0142445,0.6959310000000001,0.0035369999999999,0.8587355,0.507431,-0.024512,0.7510455,0.7057610000000001,-0.110006,1.1631955,0.508501,-0.017982,1.2645555,0.730011,-0.110406,0.7320154999999999,0.8969210000000001,-0.147992,1.3037755,0.955581,-0.151812,0.9190925,0.0029889999999999,-0.003033,1.0809075,-0.002989,0.003033,0.8707055,-0.281859,-0.1374699999999999,1.1215255,-0.291289,-0.153502,0.9095695,-0.590719,-0.035243,1.1073655,-0.592209,-0.043792
137,1.0143535,0.6941350000000001,0.0014604999999999,0.8592145000000001,0.505275,-0.0265045,0.7514445000000001,0.705295,-0.1128865,1.1630745,0.507555,-0.0205525,1.2643245,0.7303350000000001,-0.1129525,0.7327245,0.8984650000000001,-0.1516915,1.3030545,0.957235,-0.1544015,0.9190325,0.002915,-0.0032365,1.0809675,-0.002915,0.0032364999999999,0.8701245,-0.270985,-0.1443615,1.1226444999999998,-0.280315,-0.1589315,0.9099495,-0.579435,-0.0386515,1.1069345,-0.581045,-0.0471935
138,1.0145365,0.691565,-0.0007889999999999,0.8595135,0.504135,-0.0290989999999999,0.7517834999999999,0.7040350000000001,-0.11598,1.1629635,0.5059750000000001,-0.0234109999999999,1.2635835,0.725595,-0.115479,0.7339935,0.897375,-0.155601,1.3022735,0.954765,-0.157271,0.9189465,0.0028649999999999,-0.0033419999999999,1.0810535,-0.0028649999999999,0.003342,0.8695835000000001,-0.260065,-0.1507609999999999,1.1237435,-0.269415,-0.164001,0.9103885,-0.568565,-0.0423529999999999,1.1064535,-0.570445,-0.050584
139,1.0149949999999999,0.690875,-0.008784,0.8600320000000001,0.504105,-0.037356,0.752362,0.704565,-0.124731,1.163062,0.505165,-0.031765,1.263062,0.7240650000000001,-0.123488,0.7355320000000001,0.899045,-0.164944,1.301652,0.954725,-0.165404,0.91884,0.0027749999999999,-0.003266,1.08116,-0.0027749999999999,0.0032659999999999,0.869182,-0.246505,-0.162534,1.125042,-0.2563149999999999,-0.174414,0.911052,-0.5552549999999999,-0.051577,1.106312,-0.5576949999999999,-0.058967
140,1.015531,0.69208,-0.0181329999999999,0.860712,0.50366,-0.046766,0.753452,0.70688,-0.134708,1.162162,0.504,-0.041199,1.262582,0.72337,-0.1323399999999999,0.7370920000000001,0.90419,-0.175306,1.301332,0.95698,-0.174996,0.918769,0.0026799999999999,-0.0032099999999999,1.081231,-0.00268,0.0032099999999999,0.8675120000000001,-0.22991,-0.179506,1.127162,-0.2401,-0.1888159999999999,0.911739,-0.5393600000000001,-0.061697,1.106312,-0.54227,-0.068388
141,1.016163,0.6927449999999999,-0.0273755,0.86177,0.5033650000000001,-0.0560025,0.75479,0.708285,-0.1446675,1.16149,0.503415,-0.0504625,1.26182,0.7233750000000001,-0.1411625,0.7388,0.908765,-0.1855085,1.3011899999999998,0.959245,-0.1844985,0.918581,0.002475,-0.0030485,1.081419,-0.002475,0.0030484999999999,0.86612,-0.214335,-0.1961485,1.12934,-0.224385,-0.2028785,0.9126830000000001,-0.5241549999999999,-0.0718695,1.1066,-0.5275050000000001,-0.0776365
142,1.01691,0.693905,-0.03674,0.862938,0.503235,-0.06536,0.7563980000000001,0.7104349999999999,-0.154778,1.160928,0.501935,-0.060092,1.261258,0.723015,-0.150327,0.7407779999999999,0.915715,-0.196092,1.301778,0.961195,-0.194302,0.918476,0.0024949999999999,-0.0027179999999999,1.081524,-0.0024949999999999,0.0027179999999999,0.865038,-0.198415,-0.212932,1.131718,-0.208165,-0.217472,0.9138210000000001,-0.508205,-0.082316,1.107158,-0.5124150000000001,-0.086579
143,1.01775,0.696055,-0.0465264999999999,0.8641630000000001,0.502285,-0.0754354999999999,0.758103,0.7137450000000001,-0.1655515,1.160443,0.4998249999999999,-0.0702604999999999,1.261253,0.7226649999999999,-0.1601965,0.7429129999999999,0.923585,-0.2072454999999999,1.302663,0.964385,-0.2045954999999999,0.9184140000000001,0.0025649999999999,-0.0023554999999999,1.081586,-0.002565,0.0023555,0.864173,-0.181965,-0.2298154999999999,1.134103,-0.191365,-0.2322755,0.9151050000000001,-0.4912750000000001,-0.0931775,1.107933,-0.496525,-0.0954884999999999
144,1.018629,0.696555,-0.056428,0.865583,0.502595,-0.085855,0.7600629999999999,0.714915,-0.176388,1.159963,0.498725,-0.0805319999999999,1.2609329999999999,0.7219949999999999,-0.16987,0.7452829999999999,0.928605,-0.218588,1.303493,0.965755,-0.214748,0.9183620000000001,0.002725,-0.002072,1.0816379999999999,-0.002725,0.002072,0.863623,-0.167025,-0.245938,1.136533,-0.176175,-0.246768,0.9165290000000001,-0.4757949999999999,-0.103855,1.108813,-0.482045,-0.104254
145,1.019436,0.6969000000000001,-0.067004,0.866867,0.50207,-0.0965159999999999,0.761987,0.71592,-0.187321,1.158967,0.49714,-0.091246,1.260557,0.71976,-0.179839,0.747377,0.93151,-0.230315,1.304237,0.96402,-0.226185,0.9183330000000001,0.00285,-0.001805,1.081667,-0.0028499999999999,0.001805,0.863147,-0.1514299999999999,-0.261805,1.138897,-0.16086,-0.261095,0.917874,-0.4599199999999999,-0.11456,1.109747,-0.46723,-0.113032
146,1.0202375,0.69703,-0.077548,0.8680565,0.5018199999999999,-0.107017,0.7637665,0.71656,-0.198106,1.1580065,0.4959599999999999,-0.101804,1.2602265,0.71653,-0.189654,0.7491365,0.93055,-0.24217,1.3048365,0.9631,-0.23724,0.9183605,0.0028799999999999,-0.0014699999999999,1.0816395,-0.0028799999999999,0.0014699999999999,0.8628465,-0.13639,-0.27712,1.1411765,-0.14578,-0.27488,0.9192725,-0.44455,-0.125092,1.1107165,-0.45295,-0.121739
147,1.0208374999999998,0.69777,-0.088335,0.8688385000000001,0.50135,-0.117563,0.7652384999999999,0.71749,-0.209049,1.1569885,0.4948599999999999,-0.112526,1.2602484999999999,0.71917,-0.199769,0.7500585,0.93403,-0.253975,1.3052285,0.9649,-0.248445,0.9184595,0.0028799999999999,-0.001185,1.0815405,-0.0028799999999999,0.0011849999999999,0.8625885,-0.1199399999999999,-0.292575,1.1432885,-0.1296999999999999,-0.288665,0.9205175,-0.42837,-0.13542,1.1115485,-0.43775,-0.130686
148,1.0207575,0.69623,-0.0936869999999999,0.8692235,0.4983999999999999,-0.1226919999999999,0.7661835000000001,0.7151000000000001,-0.2145309999999999,1.1553635,0.49317,-0.1178469999999999,1.2597935,0.71926,-0.2042449999999999,0.7504635,0.93503,-0.2605999999999999,1.3052134999999998,0.96512,-0.25443,0.9185814999999999,0.0026599999999999,-0.0010699999999999,1.0814185,-0.0026599999999999,0.00107,0.8619635,-0.10494,-0.3023399999999999,1.1449935,-0.1154399999999999,-0.2969199999999999,0.9212825,-0.4140899999999999,-0.1402479999999999,1.1121135,-0.42442,-0.1342629999999999
149,1.020592,0.693365,-0.09794,0.869579,0.497005,-0.126609,0.766659,0.712715,-0.218832,1.154639,0.4900449999999999,-0.121596,1.259429,0.715395,-0.207533,0.7508589999999999,0.931935,-0.2664849999999999,1.304929,0.961305,-0.259155,0.918615,0.002815,-0.001005,1.081385,-0.002815,0.001005,0.8623190000000001,-0.092145,-0.306235,1.145819,-0.1026449999999999,-0.300715,0.922027,-0.401565,-0.143853,1.112889,-0.4126149999999999,-0.136792
150,1.0200595,0.691315,-0.10207,0.8696965,0.495435,-0.1300629999999999,0.7667865,0.710515,-0.2229789999999999,1.1536165,0.487365,-0.1252319999999999,1.2587565,0.712475,-0.210695,0.7510065,0.929705,-0.272315,1.3045765,0.954515,-0.264085,0.9186235000000001,0.0030149999999999,-0.0010149999999999,1.0813765,-0.0030149999999999,0.001015,0.8624465,-0.078365,-0.3099849999999999,1.1464365,-0.0888649999999999,-0.304515,0.9223975000000001,-0.388085,-0.147062,1.1136165,-0.3998349999999999,-0.139236
151,1.019512,0.68863,-0.105812,0.8695240000000001,0.49377,-0.133057,0.7668340000000001,0.70764,-0.226722,1.152454,0.48539,-0.128553,1.258244,0.7101599999999999,-0.213551,0.751014,0.92764,-0.277265,1.304144,0.94971,-0.268685,0.918634,0.0029699999999999,-0.001115,1.081366,-0.00297,0.0011149999999999,0.862484,-0.0651,-0.313035,1.146854,-0.0756,-0.307375,0.9225810000000001,-0.37506,-0.1496,1.114234,-0.38693,-0.141586
152,1.0189135,0.6853199999999999,-0.10876,0.8691095,0.49259,-0.135325,0.7668794999999999,0.7033499999999999,-0.229685,1.1514095,0.48302,-0.130872,1.2577895,0.70736,-0.216146,0.7509195000000001,0.92472,-0.2815,1.3037195,0.94493,-0.27248,0.9186354999999999,0.0030499999999999,-0.0012199999999999,1.0813645,-0.0030499999999999,0.0012199999999999,0.8630495,-0.05612,-0.31474,1.1473795,-0.06625,-0.30966,0.9227815,-0.3632599999999999,-0.151294,1.1149695,-0.37511,-0.143223
153,1.0182965,0.682785,-0.1110049999999999,0.8687495000000001,0.490425,-0.1369119999999999,0.7667995000000001,0.7005049999999999,-0.232049,1.1504295,0.480775,-0.1324669999999999,1.2571995,0.703515,-0.2181929999999999,0.7507595000000001,0.923675,-0.284925,1.3028295,0.940965,-0.275555,0.9186354999999999,0.0030749999999999,-0.0012149999999999,1.0813645,-0.0030749999999999,0.001215,0.8636095,-0.0458649999999999,-0.316075,1.1481195,-0.0559149999999999,-0.311635,0.9229145,-0.350315,-0.152586,1.1156395,-0.3620349999999999,-0.1444679999999999
154,1.0176375,0.6809,-0.112624,0.8682755,0.48927,-0.138303,0.7664055,0.69775,-0.2343029999999999,1.1500455,0.4784899999999999,-0.13362,1.2567355,0.70161,-0.219971,0.7501555,0.9246,-0.2877349999999999,1.3023155,0.94101,-0.278015,0.9185985000000001,0.0034199999999999,-0.0012149999999999,1.0814015,-0.00342,0.0012149999999999,0.8640055,-0.03596,-0.317215,1.1487355,-0.04616,-0.312905,0.9228155000000001,-0.33786,-0.153752,1.1160755,-0.3492200000000001,-0.146052
155,1.016558,0.6811800000000001,-0.11423,0.86734,0.48891,-0.139705,0.7654,0.69898,-0.236614,1.14917,0.47838,-0.134839,1.25601,0.7038200000000001,-0.221526,0.7492099999999999,0.93189,-0.29052,1.30106,0.94379,-0.28039,0.9188300000000001,0.00325,-0.0010499999999999,1.08117,-0.0032499999999999,0.0010499999999999,0.86407,-0.0223099999999999,-0.3184099999999999,1.14885,-0.0327399999999999,-0.31421,0.922154,-0.3218999999999999,-0.1549829999999999,1.11602,-0.3328799999999999,-0.1477969999999999
156,1.015712,0.68007,-0.115315,0.866521,0.489169,-0.140581,0.764451,0.69821,-0.238368,1.1478410000000001,0.47731,-0.135723,1.254741,0.70295,-0.222409,0.748011,0.93607,-0.292785,1.2998210000000001,0.94481,-0.282355,0.918955,0.0032,-0.000835,1.081045,-0.0031999999999999,0.000835,0.864011,-0.0104099999999999,-0.319275,1.1488809999999998,-0.0209999999999999,-0.315075,0.921405,-0.30779,-0.155869,1.1159810000000001,-0.3184099999999999,-0.148993
157,1.0148785,0.68051,-0.116112,0.8656855,0.4912059999999999,-0.141095,0.7633955,0.70048,-0.23984,1.1467455,0.4772789999999999,-0.136112,1.2533555,0.70288,-0.223083,0.7468355,0.94147,-0.29454,1.2983755000000001,0.94105,-0.28374,0.9189935,0.0036899999999999,-0.00048,1.0810065,-0.00369,0.00048,0.8639455,0.0027799999999999,-0.31933,1.1487555,-0.0077,-0.31573,0.9206035,-0.29239,-0.156534,1.1156855,-0.30273,-0.150162
158,1.0142405,0.6789149999999999,-0.116522,0.8650375000000001,0.492339,-0.141283,0.7625475000000002,0.699485,-0.240831,1.1460675,0.47977,-0.136251,1.2527075,0.705755,-0.2231429999999999,0.7462075,0.937955,-0.29557,1.2976575,0.939375,-0.28471,0.9190485,0.0039049999999999,-7.999999999999674e-05,1.0809515,-0.0039049999999999,7.999999999999674e-05,0.8640375,0.0138949999999999,-0.31914,1.1487975,0.003555,-0.31613,0.9200055,-0.279035,-0.15692,1.1154875,-0.289325,-0.150756
159,1.0138129999999999,0.67953,-0.1169269999999999,0.8646,0.492679,-0.141231,0.76185,0.7013499999999999,-0.241568,1.14563,0.481912,-0.136154,1.25199,0.7081500000000001,-0.2232139999999999,0.74579,0.9365,-0.296485,1.29724,0.9433,-0.285795,0.91907,0.00372,0.000325,1.08093,-0.00372,-0.0003249999999999,0.86422,0.0272799999999999,-0.3178149999999999,1.14898,0.0169599999999999,-0.315975,0.919626,-0.26389,-0.157267,1.11547,-0.27407,-0.1511539999999999
160,1.0136615,0.67999,-0.117249,0.8642415,0.493713,-0.141044,0.7612515,0.7037599999999999,-0.242093,1.1452615,0.483957,-0.135733,1.2515815,0.71035,-0.223332,0.7454415,0.9352,-0.29724,1.2968915,0.94607,-0.28654,0.9191455,0.00372,0.00064,1.0808545,-0.00372,-0.00064,0.8643815,0.0402299999999999,-0.31634,1.1491815,0.03018,-0.31554,0.9193015000000001,-0.2493199999999999,-0.157183,1.1155015,-0.2594,-0.151473
161,1.013615,0.6800700000000001,-0.117276,0.8638859999999999,0.49438,-0.14059,0.760596,0.7062200000000001,-0.242262,1.144976,0.485808,-0.135027,1.250886,0.7100500000000001,-0.22339,0.7450559999999999,0.9348,-0.2977349999999999,1.296596,0.94753,-0.287045,0.919272,0.00375,0.001115,1.080728,-0.0037499999999999,-0.001115,0.8643460000000001,0.05347,-0.314545,1.149306,0.04372,-0.314915,0.9188580000000001,-0.2350799999999999,-0.156729,1.115366,-0.2449699999999999,-0.151634
162,1.013749,0.6809449999999999,-0.116922,0.8638640000000001,0.496482,-0.139458,0.760084,0.708475,-0.242289,1.144834,0.4881859999999999,-0.133917,1.250384,0.710055,-0.222392,0.745064,0.934465,-0.29808,1.296404,0.944335,-0.28707,0.919562,0.0036949999999999,0.0014899999999999,1.080438,-0.003695,-0.0014899999999999,0.864104,0.0660649999999999,-0.31201,1.1493039999999999,0.0568649999999999,-0.31344,0.9185260000000001,-0.221345,-0.155894,1.115324,-0.231235,-0.151535
163,1.0139865,0.681805,-0.116327,0.8640635,0.498668,-0.137968,0.7595835,0.711425,-0.242112,1.1452535,0.491252,-0.132261,1.2500735,0.709835,-0.221094,0.7451535,0.934915,-0.29812,1.2962835,0.941465,-0.28689,0.9198205,0.003335,0.0019499999999999,1.0801795,-0.0033349999999999,-0.00195,0.8637535000000001,0.079345,-0.30896,1.1493035,0.070715,-0.31159,0.9182145,-0.2072049999999999,-0.154751,1.1152935,-0.217105,-0.150986
164,1.0143915,0.6811,-0.115276,0.8644855000000001,0.499647,-0.13627,0.7592355,0.71134,-0.241756,1.1458755,0.491655,-0.130442,1.2499555,0.70655,-0.219703,0.7453455,0.93249,-0.29787,1.2964455,0.93582,-0.2866,0.9199405,0.0033799999999999,0.0022299999999999,1.0800595,-0.00338,-0.00223,0.8635855,0.08942,-0.30592,1.1495355,0.08131,-0.30917,0.9180795,-0.19645,-0.153396,1.1154355,-0.20631,-0.150146
165,1.0148335,0.68153,-0.114077,0.8649735000000001,0.5006799999999999,-0.134586,0.7589135000000001,0.7132299999999999,-0.241165,1.1464535,0.4936739999999999,-0.128637,1.2502035,0.7049399999999999,-0.218434,0.7455235,0.92696,-0.297495,1.2969235000000001,0.93201,-0.286675,0.9200415000000001,0.0032399999999999,0.0026049999999999,1.0799584999999998,-0.00324,-0.002605,0.8634335000000001,0.1003499999999999,-0.302565,1.1497935,0.0925899999999999,-0.306415,0.9180475,-0.18503,-0.151345,1.1154935,-0.1948700000000001,-0.149231
166,1.0153014999999999,0.680475,-0.112832,0.8654725,0.501025,-0.1328,0.7586525,0.7130050000000001,-0.24029,1.1470925,0.494412,-0.127075,1.2504825,0.7018650000000001,-0.217077,0.7457125,0.919775,-0.29706,1.2972424999999999,0.931525,-0.28691,0.9201815,0.002695,0.0029599999999999,1.0798185,-0.002695,-0.00296,0.8632124999999999,0.108855,-0.29954,1.1501525,0.101315,-0.30414,0.9183015,-0.176045,-0.148648,1.1155925,-0.1860649999999999,-0.148209
167,1.0160545,0.680705,-0.111346,0.8661365,0.501425,-0.130242,0.7585865,0.714985,-0.239028,1.1479565,0.494881,-0.1249489999999999,1.2509965,0.6993750000000001,-0.2154889999999999,0.7458265,0.922445,-0.2963599999999999,1.2977465,0.931705,-0.2869,0.9202705,0.002175,0.00325,1.0797295,-0.002175,-0.00325,0.8629265,0.118235,-0.29606,1.1506865,0.110835,-0.3013599999999999,0.9186955,-0.1662749999999999,-0.1456589999999999,1.1158465,-0.1764249999999999,-0.1470749999999999
168,1.0166205,0.6792050000000001,-0.10946,0.8665655,0.502824,-0.127738,0.7583655000000001,0.7144050000000001,-0.237366,1.1486755,0.494868,-0.122497,1.2513055,0.696485,-0.213824,0.7458855000000001,0.922285,-0.29552,1.2981855,0.929335,-0.28667,0.9203365,0.002035,0.00353,1.0796635,-0.002035,-0.00353,0.8625355,0.125135,-0.2930899999999999,1.1512155,0.117935,-0.29872,0.9190235000000001,-0.159115,-0.142403,1.1160055,-0.1694149999999999,-0.145567
169,1.016997,0.67825,-0.107194,0.866938,0.5036150000000001,-0.124971,0.758058,0.7137200000000001,-0.235408,1.1493579999999999,0.495234,-0.120032,1.251558,0.6940400000000001,-0.211986,0.745908,0.92176,-0.294555,1.298648,0.92676,-0.286165,0.920372,0.00172,0.003695,1.079628,-0.0017199999999999,-0.003695,0.861888,0.1316000000000001,-0.289745,1.1517979999999999,0.1246600000000001,-0.295895,0.919264,-0.1524699999999998,-0.13925,1.116148,-0.1628299999999999,-0.143749
170,1.017231,0.67835,-0.104913,0.867293,0.5044649999999999,-0.122066,0.757683,0.7140799999999999,-0.233477,1.150103,0.496034,-0.117527,1.251553,0.6947099999999999,-0.210135,0.745753,0.92143,-0.293175,1.299043,0.92579,-0.285625,0.920371,0.0012199999999999,0.0037349999999999,1.079629,-0.0012199999999999,-0.003735,0.8611530000000001,0.1384099999999999,-0.286265,1.1522629999999998,0.1317699999999999,-0.292885,0.919429,-0.14554,-0.136247,1.116233,-0.15587,-0.142012
171,1.0173949999999998,0.6774800000000001,-0.102617,0.867508,0.505104,-0.119322,0.757258,0.71383,-0.231574,1.1507379999999998,0.496561,-0.1151109999999999,1.251788,0.69657,-0.209002,0.745398,0.91963,-0.29163,1.299288,0.92878,-0.28503,0.920442,0.00078,0.0036599999999999,1.079558,-0.00078,-0.0036599999999999,0.860278,0.14388,-0.28311,1.152758,0.13748,-0.29013,0.919507,-0.1401399999999999,-0.133359,1.116188,-0.1503,-0.140341
172,1.017557,0.676705,-0.100432,0.867734,0.5050020000000001,-0.116742,0.756854,0.713655,-0.229788,1.151194,0.496888,-0.112955,1.252034,0.698175,-0.208021,0.7449239999999999,0.916985,-0.2902,1.299554,0.930965,-0.2845,0.920506,0.0003549999999999,0.00347,1.079494,-0.0003549999999999,-0.00347,0.859394,0.148625,-0.28017,1.153464,0.142295,-0.2875,0.919592,-0.1356349999999999,-0.130579,1.116144,-0.145775,-0.13856
173,1.017636,0.676285,-0.0983849999999999,0.86772,0.50475,-0.1140749999999999,0.7563700000000001,0.7134750000000001,-0.2279299999999999,1.15152,0.497224,-0.1110049999999999,1.2518500000000001,0.699605,-0.207071,0.7442,0.913905,-0.28868,1.2996999999999999,0.932555,-0.28396,0.920629,4.500000000007276e-05,0.00326,1.079371,-4.499999999996174e-05,-0.0032599999999999,0.85838,0.152905,-0.2774799999999999,1.15418,0.146545,-0.28503,0.9194820000000001,-0.1317049999999999,-0.127908,1.11596,-0.141725,-0.136931
174,1.0176665,0.675705,-0.0966009999999999,0.8675925,0.5046799999999999,-0.1120019999999999,0.7558225000000001,0.713185,-0.226406,1.1517925,0.49715,-0.1093119999999999,1.2519425,0.7004549999999999,-0.206386,0.7431125000000001,0.915405,-0.28728,1.2997524999999999,0.933715,-0.2835799999999999,0.9206545,-2.500000000005276e-05,0.00318,1.0793455,2.4999999999941732e-05,-0.0031799999999999,0.8574125,0.1564749999999999,-0.27527,1.1549525,0.1498949999999999,-0.28291,0.9192275,-0.128735,-0.1262859999999999,1.1157325,-0.138435,-0.1355189999999999
175,1.0177445,0.675515,-0.095282,0.8675035,0.504719,-0.110457,0.7553135000000001,0.713275,-0.225315,1.1521934999999999,0.496517,-0.107816,1.2520835,0.701205,-0.206151,0.7420335,0.916605,-0.286275,1.2997735,0.933985,-0.283415,0.9205855000000001,5.000000000032756e-06,0.0031549999999999,1.0794145,-5.000000000032756e-06,-0.003155,0.8567035000000001,0.1594749999999999,-0.273395,1.1558635,0.152725,-0.281165,0.9190435,-0.126325,-0.125701,1.1155335,-0.135635,-0.134432
176,1.0178035,0.67542,-0.094197,0.8674965,0.504592,-0.109611,0.7548265000000001,0.71284,-0.224424,1.1524765,0.49593,-0.106882,1.2522165,0.70148,-0.206148,0.7410665000000001,0.91689,-0.285475,1.2998265,0.93364,-0.283575,0.9205095,2.999999999997449e-05,0.0031549999999999,1.0794905,-2.999999999997449e-05,-0.003155,0.8560665000000001,0.1613,-0.271975,1.1568565,0.15441,-0.279855,0.9189125000000001,-0.1250099999999999,-0.125456,1.1153765,-0.1340099999999999,-0.13356
177,1.0178399999999999,0.675565,-0.0932839999999999,0.867511,0.5041309999999999,-0.108995,0.754391,0.712845,-0.2237239999999999,1.152731,0.4952419999999999,-0.1061929999999999,1.252411,0.701325,-0.206148,0.740201,0.916655,-0.28479,1.299861,0.933175,-0.2837699999999999,0.920407,0.0001249999999999,0.00315,1.079593,-0.000125,-0.0031499999999999,0.8555010000000001,0.1621449999999999,-0.27079,1.157781,0.1550549999999999,-0.2787699999999999,0.918782,-0.1247850000000001,-0.125382,1.115231,-0.133315,-0.132691
178,1.0178055,0.675565,-0.0926789999999999,0.8675375,0.503933,-0.1087119999999999,0.7539875,0.712845,-0.223214,1.1528975,0.4946789999999999,-0.1056349999999999,1.2525875,0.7011649999999999,-0.2060719999999999,0.7393675,0.916655,-0.28427,1.2998574999999999,0.932875,-0.28397,0.9203405,0.0001249999999999,0.00315,1.0796595,-0.000125,-0.0031499999999999,0.8550875,0.1625849999999999,-0.27013,1.1585275,0.1552349999999999,-0.27784,0.9184725,-0.1251050000000001,-0.125386,1.1151475,-0.1330350000000001,-0.132022
179,1.0178035,0.675565,-0.092581,0.8675505,0.503933,-0.108921,0.7536404999999999,0.712845,-0.222963,1.1529905,0.4946789999999999,-0.105613,1.2527504999999999,0.7011649999999999,-0.206155,0.7386105000000001,0.916655,-0.28409,1.3000305,0.932875,-0.28434,0.9203405,0.0001249999999999,0.00314,1.0796595,-0.000125,-0.00314,0.8548205,0.1629849999999999,-0.26989,1.1590505,0.1554449999999999,-0.27729,0.9182175,-0.1253550000000001,-0.1256,1.1151105000000001,-0.132735,-0.131697
180,1.0178099999999999,0.675565,-0.0929859999999999,0.86756,0.503933,-0.1092529999999999,0.75331,0.712845,-0.2232909999999999,1.153,0.4946789999999999,-0.1061979999999999,1.2527599999999999,0.7011649999999999,-0.2064959999999999,0.7379300000000001,0.916655,-0.284385,1.30008,0.932875,-0.285045,0.92034,0.0001249999999999,0.003185,1.07966,-0.000125,-0.0031849999999999,0.85472,0.1633349999999999,-0.2704249999999999,1.15938,0.1556549999999999,-0.2772449999999999,0.917927,-0.125635,-0.1262019999999999,1.11506,-0.1324250000000001,-0.131789
181,1.0179055,0.6759949999999999,-0.094021,0.8676555,0.502883,-0.110288,0.7530955,0.7126049999999999,-0.224271,1.1530955,0.4936289999999999,-0.107233,1.2528555,0.7001149999999999,-0.207531,0.7373255000000001,0.915675,-0.2854299999999999,1.3004055,0.931825,-0.28615,0.9202575,0.0005649999999999,0.00338,1.0797425,-0.000565,-0.0033799999999999,0.8548055,0.1625249999999999,-0.27146,1.1595155,0.1550049999999999,-0.27809,0.9177115,-0.126905,-0.127472,1.1150555,-0.133275,-0.132657
182,1.0176225,0.67668,-0.0957929999999999,0.8674885,0.501416,-0.1120579999999999,0.7525485000000001,0.7122200000000001,-0.226047,1.1529285,0.491773,-0.1090029999999999,1.2528985000000001,0.69867,-0.2093109999999999,0.7364685,0.914,-0.2872099999999999,1.3003685,0.93156,-0.28807,0.9201954999999999,0.0009,0.00339,1.0798045,-0.0009,-0.0033899999999999,0.8546385000000001,0.16038,-0.27323,1.1593485000000001,0.15303,-0.27985,0.9172145,-0.12941,-0.1297569999999999,1.1147885,-0.1354999999999999,-0.134429
183,1.0173585,0.6775600000000002,-0.097867,0.8673775,0.5011220000000001,-0.11436,0.7519975,0.7118900000000001,-0.228126,1.1523375,0.4923370000000001,-0.11124,1.2530175,0.6970100000000001,-0.2113789999999999,0.7358175,0.91165,-0.28929,1.3004175,0.93143,-0.2904,0.9201995000000001,0.00111,0.00342,1.0798005,-0.0011099999999999,-0.00342,0.8546175,0.15678,-0.2753,1.1593274999999998,0.1498800000000001,-0.28179,0.9168455000000001,-0.1331899999999999,-0.132559,1.1146475,-0.1391099999999998,-0.1365
184,1.0171425,0.6779900000000001,-0.1006129999999999,0.8674585,0.5002040000000001,-0.1174339999999999,0.7520285,0.7109300000000001,-0.2307439999999999,1.1518485,0.491485,-0.1141469999999999,1.2532785,0.6980700000000001,-0.2145929999999999,0.7351185,0.91092,-0.292505,1.3007184999999999,0.93207,-0.2938449999999999,0.9200945000000001,0.00153,0.003535,1.0799055,-0.0015299999999999,-0.0035349999999999,0.8548785,0.1510700000000001,-0.2783049999999999,1.1595784999999998,0.14461,-0.284405,0.9167265,-0.1390599999999999,-0.1363189999999999,1.1147685,-0.14486,-0.139229
185,1.0170439999999998,0.6783899999999999,-0.104542,0.8676159999999999,0.4994689999999999,-0.121644,0.751966,0.70943,-0.234227,1.151396,0.4904699999999999,-0.118064,1.253906,0.69865,-0.219022,0.7346159999999999,0.90999,-0.29675,1.301356,0.93185,-0.29818,0.919955,0.0018499999999999,0.0035099999999999,1.080045,-0.00185,-0.00351,0.855546,0.1431299999999999,-0.28221,1.159666,0.1372399999999999,-0.2877,0.91684,-0.14701,-0.140947,1.114976,-0.15256,-0.142727
186,1.016668,0.678145,-0.109193,0.867606,0.498074,-0.126378,0.751826,0.7078650000000001,-0.238378,1.150786,0.489216,-0.122702,1.254436,0.699045,-0.224319,0.734076,0.907085,-0.301665,1.3017859999999999,0.930315,-0.303425,0.919707,0.002165,0.0034949999999999,1.080293,-0.0021649999999999,-0.0034949999999999,0.856326,0.132665,-0.286905,1.159516,0.127165,-0.291585,0.91691,-0.1575349999999999,-0.14613,1.1150660000000001,-0.1629149999999999,-0.14664
187,1.0162865,0.6795100000000001,-0.113716,0.8676955,0.496106,-0.130808,0.7519755,0.70676,-0.242635,1.1502455,0.487634,-0.127279,1.2548355,0.69916,-0.2296389999999999,0.7335855,0.90524,-0.306675,1.3023055000000001,0.93208,-0.308895,0.9195585,0.0021499999999999,0.0034849999999999,1.0804415,-0.0021499999999999,-0.0034849999999999,0.8572055000000001,0.12174,-0.291615,1.1592755,0.11674,-0.295255,0.9171145,-0.16849,-0.151113,1.1153555,-0.1738699999999999,-0.150347
188,1.016025,0.679135,-0.1184039999999999,0.8671949999999999,0.495452,-0.1350569999999999,0.752645,0.704975,-0.246715,1.149565,0.487056,-0.132012,1.255395,0.6993849999999999,-0.23502,0.733295,0.902815,-0.3118849999999999,1.3029950000000001,0.932155,-0.314505,0.919296,0.0027249999999999,0.003415,1.0807039999999999,-0.0027249999999999,-0.003415,0.858075,0.107495,-0.296575,1.159085,0.1029249999999999,-0.298755,0.917485,-0.1827149999999999,-0.155993,1.115875,-0.188295,-0.1537359999999999
189,1.0157474999999998,0.678475,-0.123609,0.8669915,0.492588,-0.139371,0.7527915000000001,0.702125,-0.2511029999999999,1.1490515,0.484766,-0.136904,1.2557715,0.697735,-0.240474,0.7330814999999999,0.904175,-0.3174099999999999,1.3036915,0.931055,-0.32017,0.9190925,0.002585,0.00267,1.0809075,-0.0025849999999999,-0.00267,0.8587615,0.090265,-0.30178,1.1588915,0.086155,-0.30226,0.9178745,-0.1998149999999999,-0.160874,1.1164315,-0.2056949999999999,-0.157152
190,1.0155355,0.67834,-0.128212,0.8666805000000001,0.490293,-0.143104,0.7531705000000001,0.70026,-0.255284,1.1485105,0.483735,-0.141229,1.2560704999999999,0.6981200000000001,-0.245112,0.7330305000000001,0.90602,-0.322285,1.3043505,0.93201,-0.324855,0.9188995,0.0022199999999999,0.0019249999999999,1.0811005,-0.0022199999999999,-0.001925,0.8594205,0.07409,-0.306095,1.1587605,0.06979,-0.305275,0.9183115,-0.21636,-0.164897,1.1169205,-0.2225899999999999,-0.159782
191,1.0154055,0.6795150000000001,-0.131618,0.8663295,0.487405,-0.146025,0.7534295,0.697855,-0.258767,1.1479895,0.483324,-0.1447,1.2562795,0.698945,-0.248603,0.7330795,0.908065,-0.32606,1.3048695,0.931585,-0.3292,0.9187845,0.001985,0.00153,1.0812154999999999,-0.0019849999999999,-0.00153,0.8601695,0.058175,-0.30956,1.1588495,0.053345,-0.30736,0.9188225000000001,-0.2335249999999999,-0.167873,1.1174995,-0.240035,-0.161353
192,1.0153679999999998,0.67795,-0.134305,0.8659670000000002,0.484846,-0.148673,0.7532770000000001,0.6944,-0.261489,1.147867,0.483295,-0.1473,1.256627,0.69736,-0.252117,0.7337370000000001,0.90627,-0.328405,1.305267,0.92708,-0.332885,0.9187730000000001,0.00148,0.0013149999999999,1.081227,-0.0014799999999999,-0.001315,0.861227,0.03885,-0.311675,1.158797,0.03342,-0.308775,0.919354,-0.25471,-0.170093,1.1180169999999998,-0.2614499999999999,-0.162306
193,1.0156435,0.678905,-0.135911,0.8658175000000001,0.48297,-0.150411,0.7533375,0.693085,-0.2632259999999999,1.1480375,0.483423,-0.148869,1.2566375,0.693105,-0.253707,0.7341575,0.902225,-0.3295099999999999,1.3056475,0.924705,-0.33482,0.9186975,0.001255,0.00095,1.0813025,-0.001255,-0.00095,0.8624275,0.0205949999999999,-0.31275,1.1587975,0.0144949999999999,-0.30911,0.9200725,-0.275395,-0.171212,1.1186375,-0.282275,-0.1623129999999999
194,1.0158385,0.680655,-0.136385,0.8657425,0.4817909999999999,-0.151316,0.7535425000000001,0.693065,-0.264252,1.1483225,0.482843,-0.149439,1.2569825,0.693095,-0.254391,0.7348825,0.902415,-0.33002,1.3060525,0.926005,-0.33605,0.9185895,0.001265,0.0009499999999999,1.0814105,-0.001265,-0.00095,0.8636325,0.0038449999999999,-0.3128,1.1589525,-0.0032949999999999,-0.30903,0.9207555000000001,-0.295245,-0.171524,1.1192825,-0.302295,-0.161623
195,1.016027,0.68184,-0.136828,0.86557,0.48231,-0.152344,0.75349,0.69304,-0.265645,1.14831,0.48249,-0.150019,1.25744,0.69143,-0.25519,0.7351700000000001,0.90599,-0.33068,1.30653,0.92595,-0.33692,0.918264,0.0014299999999999,0.0009399999999999,1.081736,-0.00143,-0.0009399999999999,0.86465,-0.01377,-0.31278,1.15885,-0.02204,-0.3085799999999999,0.92128,-0.31667,-0.171772,1.1197300000000001,-0.32402,-0.16133
196,1.0165695,0.68276,-0.137276,0.8656485,0.48291,-0.153385,0.7537484999999999,0.69328,-0.266858,1.1485085,0.48346,-0.150654,1.2577384999999999,0.6924699999999999,-0.255184,0.7356385000000001,0.90723,-0.331365,1.3070785,0.92673,-0.337385,0.9179285000000001,0.00157,0.0009349999999999,1.0820714999999999,-0.00157,-0.000935,0.8659485,-0.03154,-0.312755,1.1590185,-0.0403899999999999,-0.307795,0.9220745,-0.3389999999999999,-0.171996,1.1205685,-0.3465399999999999,-0.161577
197,1.01683,0.685615,-0.1371579999999999,0.865835,0.482655,-0.1540979999999999,0.753635,0.694555,-0.267524,1.148375,0.483965,-0.1507069999999999,1.258055,0.6932050000000001,-0.2555079999999999,0.735735,0.907305,-0.3317949999999999,1.307305,0.927185,-0.3370249999999999,0.918159,0.0010749999999999,0.000845,1.081841,-0.0010749999999999,-0.0008449999999999,0.866805,-0.047265,-0.312295,1.158805,-0.056765,-0.306675,0.922541,-0.360025,-0.1718809999999999,1.121005,-0.368045,-0.1611119999999999
198,1.0166704999999998,0.688475,-0.135384,0.8656855,0.485135,-0.153452,0.7533955,0.696125,-0.266771,1.1479455,0.486125,-0.1492,1.2579555,0.6957549999999999,-0.253545,0.7355355,0.909095,-0.330685,1.3071655,0.929925,-0.335245,0.9183345,0.0012249999999999,0.0006849999999999,1.0816655,-0.001225,-0.0006849999999999,0.8674755000000001,-0.0615249999999999,-0.310375,1.1580255,-0.071575,-0.303915,0.9224295,-0.380515,-0.171613,1.1213155,-0.388655,-0.15933
199,1.0162415,0.69185,-0.133886,0.8654385,0.4877899999999999,-0.1530119999999999,0.7526685,0.69795,-0.265794,1.1474085,0.4866399999999999,-0.147829,1.2572885,0.69689,-0.251886,0.7352885,0.90988,-0.329635,1.3067985,0.93129,-0.333585,0.9183574999999999,0.0015399999999999,0.000475,1.0816425,-0.00154,-0.000475,0.8681085,-0.07615,-0.308075,1.1568685,-0.08626,-0.301255,0.9220205,-0.4013500000000001,-0.171506,1.1213985,-0.40939,-0.157659
200,1.0157304999999999,0.69228,-0.131118,0.8650235,0.49204,-0.151523,0.7523435,0.69867,-0.263608,1.1467835,0.48917,-0.14543,1.2564435,0.69745,-0.248188,0.7350335,0.907,-0.3265599999999999,1.3061635,0.92947,-0.33042,0.9183755000000001,0.0014899999999999,7.999999999999674e-05,1.0816245,-0.0014899999999999,-7.999999999999674e-05,0.8684735,-0.0936,-0.30366,1.1553035,-0.1032099999999999,-0.2965799999999999,0.9213485,-0.4245099999999999,-0.17033,1.1215135,-0.4321199999999999,-0.155071
201,1.0153085,0.696865,-0.127395,0.8645405000000002,0.494635,-0.149086,0.7519505,0.702405,-0.260862,1.1466105,0.490205,-0.142368,1.2558004999999999,0.700415,-0.243933,0.7348405,0.908565,-0.322555,1.3056705,0.930745,-0.326295,0.9183695000000001,0.0018249999999999,0.0004549999999999,1.0816305,-0.0018249999999999,-0.000455,0.8688105,-0.107035,-0.2983449999999999,1.1538405,-0.1162749999999999,-0.291485,0.9204805000000001,-0.4432750000000001,-0.169003,1.1215805,-0.450415,-0.152622
202,1.0145545,0.69955,-0.1232709999999999,0.8638685,0.49995,-0.146238,0.7508285,0.70382,-0.257758,1.1460885,0.4916899999999999,-0.138872,1.2554785,0.70207,-0.239717,0.7343185,0.90981,-0.31804,1.3054185,0.93236,-0.32092,0.9185305,0.0017599999999999,0.0005499999999999,1.0814695,-0.00176,-0.0005499999999999,0.8690585,-0.1214,-0.29196,1.1519985,-0.12993,-0.28559,0.9193175000000001,-0.46263,-0.167268,1.1214784999999998,-0.4689399999999999,-0.150215
203,1.0134815,0.702005,-0.118973,0.8628955,0.504305,-0.143047,0.7498555,0.705585,-0.254246,1.1453455,0.494075,-0.135127,1.2552355,0.699295,-0.235002,0.7334155,0.913575,-0.31326,1.3049055,0.930415,-0.31499,0.9186765000000001,0.001625,0.0004399999999999,1.0813234999999999,-0.0016249999999999,-0.00044,0.8691555,-0.1361649999999999,-0.28505,1.1497355,-0.1438849999999999,-0.27916,0.9175385,-0.482135,-0.165956,1.1212955,-0.487845,-0.148799
204,1.0122354999999998,0.706295,-0.11461,0.8615275,0.507045,-0.139183,0.7489275,0.707775,-0.250239,1.1445275,0.497155,-0.131056,1.2542575,0.704075,-0.229928,0.7321475,0.914185,-0.30822,1.3040675,0.932225,-0.3087999999999999,0.9188775,0.001195,0.0001099999999999,1.0811225,-0.001195,-0.0001099999999999,0.8689275000000001,-0.148795,-0.27764,1.1470274999999999,-0.155575,-0.2720599999999999,0.9150665,-0.499145,-0.164883,1.1208574999999998,-0.5040250000000001,-0.147454
205,1.0106804999999999,0.71021,-0.109954,0.8596965,0.5109,-0.135354,0.7475765,0.70954,-0.24595,1.1433465,0.50008,-0.126998,1.2531865,0.70672,-0.224846,0.7305265000000001,0.91681,-0.3031049999999999,1.3033765,0.93524,-0.302765,0.9192905,0.00092,-6.50000000000095e-05,1.0807095,-0.00092,6.50000000000095e-05,0.8684665,-0.16126,-0.269995,1.1439964999999999,-0.16776,-0.264375,0.9119895,-0.51553,-0.163914,1.1202665,-0.51978,-0.146305
206,1.0088815,0.7144550000000001,-0.105242,0.8576625,0.514535,-0.131372,0.7461725,0.7122050000000001,-0.241562,1.1419625,0.502825,-0.122851,1.2520925,0.709715,-0.219796,0.7288125,0.925965,-0.29818,1.3020625,0.940215,-0.29608,0.9197155,0.000695,-0.0004099999999999,1.0802845,-0.000695,0.0004099999999999,0.8676725000000001,-0.173015,-0.26189,1.1407225,-0.179185,-0.25613,0.9082635,-0.5306449999999999,-0.163307,1.1195324999999998,-0.5343749999999999,-0.144778
207,1.0070415,0.718815,-0.100418,0.8552315,0.518255,-0.127203,0.7445315,0.715195,-0.237049,1.1404615,0.5064150000000001,-0.118699,1.2504215,0.7129049999999999,-0.213999,0.7271615,0.928015,-0.29345,1.3005615,0.943345,-0.28922,0.9203075000000001,0.0004249999999999,-0.0006899999999999,1.0796925,-0.000425,0.0006899999999999,0.8664215,-0.184145,-0.25304,1.1372115,-0.190125,-0.2471,0.9044365,-0.5444850000000001,-0.161325,1.1185915,-0.5481750000000001,-0.142234
208,1.0054705,0.7222645,-0.094796,0.8530405,0.5219445,-0.122283,0.7430405,0.7171845,-0.231696,1.1392705,0.5116645,-0.113816,1.2495305,0.7155945,-0.207598,0.7256605,0.9295545,-0.28798,1.2991605,0.9457245,-0.2817,0.9210475,-0.0001514999999999,-0.00098,1.0789525,0.0001514999999999,0.00098,0.8653204999999999,-0.1960054999999999,-0.2432,1.1336705,-0.2021154999999999,-0.23628,0.9005005000000001,-0.5587455,-0.158879,1.1177005,-0.5628155,-0.137895
209,1.0041974999999999,0.7276250000000001,-0.090118,0.8514295000000001,0.524595,-0.11827,0.7417695,0.721245,-0.227107,1.1385295,0.515435,-0.109781,1.2481095,0.719035,-0.202208,0.7243895,0.934325,-0.283335,1.2978395,0.950715,-0.275415,0.9217905,-0.0001969999999999,-0.001225,1.0782095,0.000197,0.0012249999999999,0.8647895,-0.204935,-0.234435,1.1303795,-0.211915,-0.22627,0.8971695,-0.5698949999999999,-0.156609,1.1167095,-0.575145,-0.133552
210,1.0035874999999999,0.732433,-0.0856069999999999,0.8506315,0.528023,-0.1144559999999999,0.7412415,0.723753,-0.2227259999999999,1.1385115,0.517863,-0.1059499999999999,1.2468715,0.724343,-0.197448,0.7238815000000001,0.939063,-0.278435,1.2972715,0.956523,-0.269515,0.9217215,-0.0002079999999999,-0.0015049999999999,1.0782785,0.0002079999999999,0.001505,0.8650715,-0.213887,-0.225355,1.1275815,-0.221917,-0.215355,0.8956215,-0.580917,-0.152244,1.1161015,-0.587407,-0.1291719999999999
211,1.0031325,0.737553,-0.0816839999999999,0.8502575,0.529103,-0.1112739999999999,0.7409075,0.727143,-0.219186,1.1386275,0.521263,-0.1026699999999999,1.2470474999999999,0.730623,-0.193857,0.7235475,0.944293,-0.274005,1.2970074999999999,0.958593,-0.2646349999999999,0.9220395,-0.000293,-0.0016249999999999,1.0779605,0.000293,0.001625,0.8656874999999999,-0.224427,-0.216687,1.1247275,-0.2348269999999999,-0.203938,0.8951675,-0.592797,-0.148384,1.1156475,-0.600757,-0.1253119999999999
212,1.0027925,0.742016,-0.0780409999999999,0.8499595,0.531266,-0.1084069999999999,0.7407095,0.729166,-0.215963,1.1388595,0.525866,-0.0997169999999999,1.2466395,0.736636,-0.190357,0.7233695,0.942016,-0.270345,1.2968795,0.964966,-0.260085,0.9223615000000001,-0.0003799999999999,-0.0016849999999999,1.0776385,0.0003799999999999,0.001685,0.8665895,-0.235574,-0.207613,1.1216795,-0.248044,-0.191874,0.8947595,-0.6048640000000001,-0.1448839999999999,1.1152395,-0.6140340000000001,-0.1218119999999999
213,1.0025865,0.7443465,-0.069256,0.8495305,0.5314765,-0.100293,0.7407405,0.7290165,-0.207454,1.1390105,0.5274865,-0.091541,1.2463305,0.7386765,-0.181637,0.7233705,0.9396165,-0.26143,1.2968705,0.9701265,-0.24995,0.9226535,8.74999999999973e-05,-0.00181,1.0773465,-8.750000000000077e-05,0.0018099999999999,0.8688105,-0.2482635,-0.190602,1.1184505,-0.2618735,-0.173097,0.8943004999999999,-0.6180835,-0.135183,1.1147605,-0.6282235,-0.111688
214,1.0024035,0.7422985,-0.0577585,0.8491875,0.5306785,-0.0898805,0.7410375,0.7262085,-0.1963845,1.1402174999999999,0.5293985,-0.0804805,1.2477375,0.7397085,-0.1719685,0.7242175,0.9348885,-0.2494965,1.2967075,0.9662085,-0.2372065,0.9228255,0.0003454999999999,-0.0023974999999999,1.0771745,-0.0003455,0.0023974999999999,0.8731875,-0.2658014999999999,-0.1676295,1.1150974999999999,-0.2796315,-0.1501495,0.8943775,-0.6360015,-0.1201045,1.1138875,-0.6464115,-0.0971455
215,1.002379,0.73972,-0.0468565,0.8491230000000001,0.52975,-0.0800795,0.741463,0.72271,-0.1857385,1.141353,0.5312,-0.0698715,1.249013,0.74067,-0.1626665,0.725233,0.92651,-0.2380285,1.296503,0.96294,-0.2250985,0.922961,0.000557,-0.0029355,1.077039,-0.000557,0.0029354999999999,0.877903,-0.28214,-0.1453855,1.111893,-0.29566,-0.1279075,0.894913,-0.65242,-0.1046705,1.112913,-0.66283,-0.0821515
216,1.0023315,0.7370975,-0.036443,0.8491615,0.5283775,-0.070756,0.7418215,0.7201575,-0.175647,1.1424115,0.5323175,-0.059662,1.2502015,0.7417075,-0.153278,0.7262815,0.9200575,-0.227037,1.2962915,0.9610175,-0.213237,0.9231855,0.0008424999999999,-0.003541,1.0768145,-0.0008424999999999,0.003541,0.8827115000000001,-0.2965125,-0.124063,1.1086715,-0.3097225,-0.106353,0.8958315,-0.6668925,-0.089119,1.1118715,-0.6775924999999999,-0.067289
217,1.002152,0.7343525,-0.0264164999999999,0.849172,0.5270524999999999,-0.0618844999999999,0.7420520000000002,0.7181325,-0.1660635,1.143192,0.5329524999999999,-0.0499064999999999,1.251032,0.7434725,-0.1439555,0.7272419999999999,0.9154025,-0.2163535,1.295862,0.9606825,-0.2016534999999999,0.923428,0.0012035,-0.0042174999999999,1.076572,-0.0012034999999999,0.0042174999999999,0.887352,-0.3090675,-0.1029185,1.105382,-0.3228074999999999,-0.0855404999999999,0.896862,-0.6796275,-0.0735835,1.110492,-0.6910175000000001,-0.0524405
218,1.001921,0.7310745,-0.016416,0.8492919999999999,0.5261045,-0.052943,0.742182,0.7159845,-0.15619,1.143912,0.5329444999999999,-0.040065,1.251892,0.7446944999999999,-0.134716,0.728202,0.9117245,-0.2054699999999999,1.295312,0.9611245,-0.1896999999999999,0.923611,0.0013454999999999,-0.004845,1.076389,-0.0013454999999999,0.004845,0.891692,-0.3207455,-0.081345,1.102242,-0.3355555,-0.065016,0.898412,-0.6915055,-0.057163,1.108942,-0.7035355,-0.037644
