sb224sc-HT22-VT27/4dt907/src/ml-research/a10/datafiles/kinect_good_preprocessed_A9_mediapipe/A126_kinect_mirrored.csv
FrameNo,nose_3d_x,nose_3d_y,nose_3d_z,left_shoulder_3d_x,left_shoulder_3d_y,left_shoulder_3d_z,left_elbow_3d_x,left_elbow_3d_y,left_elbow_3d_z,right_shoulder_3d_x,right_shoulder_3d_y,right_shoulder_3d_z,right_elbow_3d_x,right_elbow_3d_y,right_elbow_3d_z,left_wrist_3d_x,left_wrist_3d_y,left_wrist_3d_z,right_wrist_3d_x,right_wrist_3d_y,right_wrist_3d_z,left_hip_3d_x,left_hip_3d_y,left_hip_3d_z,right_hip_3d_x,right_hip_3d_y,right_hip_3d_z,left_knee_3d_x,left_knee_3d_y,left_knee_3d_z,right_knee_3d_x,right_knee_3d_y,right_knee_3d_z,left_ankle_3d_x,left_ankle_3d_y,left_ankle_3d_z,right_ankle_3d_x,right_ankle_3d_y,right_ankle_3d_z
144,1.0092884999999998,0.721773,0.037772,0.8349545,0.523893,0.009013,0.7234645,0.728143,-0.113637,1.1687845000000001,0.530773,-0.0010469999999999,1.2515245,0.751723,-0.127507,0.7736745,0.930103,-0.172227,1.1855445,0.979343,-0.182017,0.9175025,0.0005459999999999,0.0006429999999999,1.0824975000000001,-0.0005459999999999,-0.0006429999999999,0.8698545,-0.439117,0.0136179999999999,1.1390544999999999,-0.434427,-0.015592,0.8676445,-0.797867,0.092502,1.1640445,-0.789827,0.075234
145,1.009104,0.7198484999999999,0.0306729999999999,0.83405,0.5222985,0.0037509999999999,0.72002,0.7228485,-0.1205939999999999,1.1684700000000001,0.5294985000000001,-0.006183,1.25353,0.7440484999999999,-0.1344139999999999,0.77046,0.9302185,-0.180314,1.18707,0.9736685,-0.190914,0.917195,0.0005035,0.0004039999999999,1.082805,-0.0005034999999999,-0.000404,0.86593,-0.4326715,-0.000793,1.1398599999999999,-0.4276815,-0.028295,0.86635,-0.7913714999999999,0.086599,1.16317,-0.7845314999999999,0.069475
146,1.008937,0.717271,0.0227885,0.833379,0.5203310000000001,-0.0018224999999999,0.716719,0.7169810000000001,-0.1281315,1.168199,0.527571,-0.0117714999999999,1.2552889999999999,0.737631,-0.1416815,0.767779,0.930971,-0.1891014999999999,1.188539,0.968301,-0.2005715,0.916895,0.000495,0.0001555,1.083105,-0.0004949999999999,-0.0001554999999999,0.861699,-0.424689,-0.0162024999999999,1.140979,-0.419549,-0.0420465,0.864969,-0.7835989999999999,0.0801965,1.162259,-0.7778889999999999,0.0632855
147,1.008701,0.7150815,0.0142209999999999,0.83263,0.5180215,-0.008008,0.71353,0.7113515,-0.136584,1.16786,0.5259715,-0.017974,1.25694,0.7317815,-0.149614,0.7653,0.9266815,-0.199414,1.19002,0.9630815,-0.211194,0.91654,0.0004185,-2.5999999999998247e-05,1.08346,-0.0004185,2.5999999999998247e-05,0.85749,-0.4149785,-0.0322659999999999,1.14218,-0.4097185,-0.056019,0.86357,-0.7742384999999999,0.073104,1.1613399999999998,-0.7697585,0.056464
148,1.008424,0.712511,0.005244,0.831922,0.515011,-0.0144499999999999,0.710712,0.705361,-0.14521,1.167562,0.524301,-0.0245619999999999,1.258352,0.726311,-0.15832,0.763302,0.924091,-0.20997,1.191142,0.959051,-0.22245,0.916012,0.00029,-5.199999999999649e-05,1.083988,-0.0002899999999999,5.200000000000343e-05,0.853312,-0.404059,-0.0483279999999999,1.143552,-0.398449,-0.0703599999999999,0.862162,-0.7635689999999999,0.065654,1.160372,-0.760169,0.049407
149,1.0079399999999998,0.7095615,-0.0043424999999999,0.831187,0.5122915,-0.0211985,0.707897,0.6993914999999999,-0.1542494999999999,1.167267,0.5215814999999999,-0.0314555,1.259497,0.7210215,-0.1676494999999999,0.761767,0.9217915,-0.2211995,1.190657,0.9612915,-0.2329995,0.915637,0.0001934999999999,-3.550000000000081e-05,1.084363,-0.0001935,3.550000000000081e-05,0.849227,-0.3918985,-0.0639755,1.144817,-0.3864185,-0.0847695,0.860637,-0.7516385,0.0579315,1.159177,-0.7493885,0.0419675
150,1.00733,0.7071719999999999,-0.013377,0.8306370000000001,0.509582,-0.027738,0.705647,0.694252,-0.162761,1.166767,0.5193019999999999,-0.038268,1.260467,0.7155619999999999,-0.176641,0.760327,0.918622,-0.231961,1.191187,0.958252,-0.244381,0.915282,3.399999999999996e-05,0.0002449999999999,1.084718,-3.399999999999996e-05,-0.0002449999999999,0.845607,-0.379368,-0.077685,1.145987,-0.3744579999999999,-0.097721,0.8592770000000001,-0.738828,0.050471,1.158107,-0.737438,0.0349
151,1.0066385,0.70503,-0.0224315,0.8301985000000001,0.50703,-0.0343525,0.7037185,0.68857,-0.1715064999999999,1.1663385,0.51662,-0.0454745,1.2613785,0.71007,-0.1860465,0.7592185000000001,0.91609,-0.2427165,1.1920285,0.95532,-0.2559965,0.9149505,-9.20000000000018e-05,0.0005285,1.0850495,9.199999999999832e-05,-0.0005284999999999,0.8420785,-0.36711,-0.0911665,1.1473885,-0.36283,-0.1104364999999999,0.8581285000000001,-0.72517,0.0430105,1.1572185,-0.72447,0.0278345
152,1.0060875,0.7025345000000001,-0.031663,0.8297335,0.5041445,-0.041186,0.7022634999999999,0.6840045,-0.180513,1.1659535,0.5157345,-0.052825,1.2622435,0.7033745,-0.1958929999999999,0.7580835000000001,0.9125145,-0.253903,1.1931335,0.9511945,-0.268163,0.9145835,-0.0002435,0.0009919999999999,1.0854165,0.0002434999999999,-0.0009919999999999,0.8387935,-0.3555055,-0.104123,1.1490135,-0.3519354999999999,-0.1231329999999999,0.8572335,-0.7113955,0.035502,1.1565435,-0.7113855,0.020645
153,1.0055485,0.7001314999999999,-0.0413985,0.8293345,0.5022015,-0.0480825,0.7010945,0.6788615,-0.1898125,1.1654745,0.5122715,-0.0610895,1.2629945,0.6966015000000001,-0.2058425,0.7573745000000001,0.9076915,-0.2654825,1.1944145,0.9430415,-0.2807725,0.9145025,-0.0003614999999999,0.0016195,1.0854975,0.0003615,-0.0016195,0.8359245,-0.3415984999999999,-0.1167425,1.1509045,-0.3401385,-0.1356025,0.8565845,-0.6969084999999999,0.0279134999999999,1.1560445,-0.6974285,0.0133355
154,1.00519,0.6975425,-0.049862,0.829076,0.5000525,-0.054074,0.700206,0.6743024999999999,-0.198218,1.165146,0.5093225,-0.068607,1.263506,0.6935825,-0.214768,0.756826,0.9007925,-0.275938,1.195776,0.9349125,-0.291968,0.914516,-0.0003275,0.002057,1.0854840000000001,0.0003274999999999,-0.002057,0.8333960000000001,-0.3295275,-0.126938,1.152736,-0.3300875,-0.145968,0.8562060000000001,-0.6841675,0.0216169999999999,1.155696,-0.6848675000000001,0.007219
155,1.0044559999999998,0.695929,-0.0633005,0.828431,0.498799,-0.0652555,0.6987210000000001,0.671259,-0.2115055,1.164441,0.507659,-0.0811605,1.2633510000000001,0.690959,-0.2293555,0.7559910000000001,0.892509,-0.2919354999999999,1.196541,0.928199,-0.3081755,0.914614,-0.0004149999999999,0.0025215,1.085386,0.0004149999999999,-0.0025215,0.8307010000000001,-0.316361,-0.1411855,1.153981,-0.318531,-0.1603855,0.8554809999999999,-0.670311,0.0104804999999999,1.1548910000000001,-0.6712809999999999,-0.0038655
156,1.003598,0.6968155,-0.077621,0.8277220000000001,0.4994455,-0.07743,0.696902,0.6692155,-0.225548,1.162572,0.5041154999999999,-0.094648,1.262742,0.6904555,-0.245298,0.755152,0.8925055,-0.307998,1.1969319999999999,0.9209255,-0.326398,0.914715,-8.749999999999036e-05,0.0029299999999999,1.085285,8.750000000000424e-05,-0.0029299999999999,0.826522,-0.3009845,-0.161248,1.156502,-0.3046745,-0.179248,0.852672,-0.6574745,-0.0065099999999999,1.153992,-0.6553045,-0.015622
157,1.0027,0.696815,-0.0916795,0.827277,0.500645,-0.0891345,0.694987,0.667665,-0.2395195,1.1607669999999999,0.500995,-0.1076775,1.262207,0.6875249999999999,-0.2607395,0.754047,0.890295,-0.3245795,1.197247,0.913875,-0.3437795,0.914651,0.000185,0.0033204999999999,1.085349,-0.0001849999999999,-0.0033204999999999,0.822707,-0.286705,-0.1804695,1.1591969999999998,-0.291485,-0.1973395,0.852297,-0.642315,-0.0178105,1.1533769999999999,-0.640275,-0.0269715
158,1.0015785,0.696485,-0.1060445,0.8265415,0.500785,-0.1013705,0.6930115,0.665775,-0.2534505,1.1589814999999999,0.498755,-0.1209504999999999,1.2617015,0.684095,-0.2756305,0.7527715,0.888545,-0.3411205,1.1971315,0.906855,-0.3609405,0.9145765,0.000295,0.0037394999999999,1.0854235,-0.0002949999999999,-0.0037394999999999,0.8187715,-0.273105,-0.1995005,1.1619815,-0.278405,-0.2153604999999999,0.8519915,-0.627435,-0.0290685,1.1528215,-0.625335,-0.0381135
159,1.0003385,0.696115,-0.120232,0.8256595000000001,0.5012650000000001,-0.113621,0.6910395,0.662725,-0.267406,1.1570995,0.495855,-0.1341979999999999,1.2611695,0.681625,-0.290536,0.7522195,0.888205,-0.357906,1.1965395,0.904775,-0.377496,0.9144975,0.0004849999999999,0.0040009999999999,1.0855025,-0.000485,-0.0040009999999999,0.8148795,-0.259865,-0.2180959999999999,1.1648395,-0.265505,-0.2332459999999999,0.8516995,-0.612985,-0.040038,1.1522495,-0.610885,-0.0490759999999999
160,0.9990365,0.695415,-0.1345945,0.8245745,0.500205,-0.1260205,0.6890244999999999,0.6601750000000001,-0.2811415,1.1550544999999999,0.493855,-0.1471184999999999,1.2606445,0.679255,-0.3056315,0.7515045,0.887125,-0.3752615,1.1960045,0.902125,-0.3945514999999999,0.9144665,0.000515,0.0042444999999999,1.0855335,-0.0005149999999999,-0.0042444999999999,0.8111945,-0.246915,-0.2362515,1.1679045,-0.251845,-0.2506615,0.8514745,-0.598645,-0.0507554999999999,1.1517545,-0.5963849999999999,-0.0598645
161,0.9975920000000001,0.6946300000000001,-0.148573,0.8233820000000001,0.5001800000000001,-0.137931,0.687182,0.65781,-0.294477,1.152882,0.49067,-0.159596,1.259802,0.67743,-0.320397,0.7506320000000001,0.8868499999999999,-0.392177,1.195552,0.89967,-0.411417,0.914443,0.0005399999999999,0.0043489999999999,1.085557,-0.00054,-0.004349,0.807752,-0.23456,-0.253567,1.171132,-0.23829,-0.267067,0.851362,-0.5846199999999999,-0.060913,1.151462,-0.58215,-0.0702
162,0.9962165000000001,0.693735,-0.162071,0.8222315,0.498525,-0.149671,0.6850515000000001,0.655535,-0.307635,1.1507815,0.490975,-0.1711579999999999,1.2587315000000001,0.676715,-0.335295,0.7496815,0.8878649999999999,-0.408515,1.1943615,0.900935,-0.4278349999999999,0.9145245,0.0004049999999999,0.004327,1.0854755,-0.000405,-0.0043269999999999,0.8045615,-0.222835,-0.270015,1.1744015,-0.225335,-0.282695,0.8513615000000001,-0.570935,-0.070571,1.1512915,-0.5682450000000001,-0.080022
163,0.9946525,0.69281,-0.1754385,0.8209655000000001,0.49704,-0.1610895,0.6826055,0.65322,-0.3209665,1.1481655,0.48834,-0.1831385,1.2573855,0.6759,-0.3504564999999999,0.7474955,0.88402,-0.4253265,1.1932155,0.90124,-0.4445464999999999,0.9146425,0.00023,0.0042934999999999,1.0853575,-0.00023,-0.0042935,0.8012755,-0.21073,-0.2860565,1.1777855,-0.21256,-0.2979064999999999,0.8513155,-0.55747,-0.0799045,1.1509955,-0.55465,-0.0895495
164,0.993258,0.691165,-0.1835055,0.8198529999999999,0.495035,-0.1673525,0.680633,0.649825,-0.3295165,1.145843,0.485075,-0.1898564999999999,1.256283,0.673285,-0.3600764999999999,0.7457130000000001,0.881905,-0.4359865,1.192523,0.896775,-0.4565365,0.914684,0.000195,0.0042935,1.085316,-0.000195,-0.0042934999999999,0.798283,-0.199495,-0.2969765,1.181593,-0.201305,-0.3079064999999999,0.851643,-0.545585,-0.0840575,1.150983,-0.542525,-0.0937654999999999
165,0.9919855,0.6859949999999999,-0.1905095,0.8189375,0.490975,-0.1723954999999999,0.6791975,0.6442950000000001,-0.3365875,1.1448675,0.4838949999999999,-0.1951115,1.2551575,0.6676150000000001,-0.3686574999999999,0.7438275,0.875955,-0.4458075,1.1915075,0.8924749999999999,-0.4661975,0.9146585,-0.000165,0.0043125,1.0853415,0.0001649999999999,-0.0043124999999999,0.7968675000000001,-0.190145,-0.3011675,1.1842675,-0.191815,-0.3126275,0.8520175,-0.5366550000000001,-0.0869325,1.1510575,-0.5332650000000001,-0.0966944999999999
166,0.9908690000000001,0.6817500000000001,-0.197307,0.818005,0.4869,-0.177455,0.678245,0.63893,-0.343785,1.143795,0.48256,-0.200381,1.253955,0.66386,-0.377125,0.7420150000000001,0.87104,-0.455185,1.190515,0.8873800000000001,-0.476195,0.914721,-0.0003599999999999,0.0042949999999999,1.0852789999999999,0.0003599999999999,-0.004295,0.795405,-0.18022,-0.305405,1.186965,-0.18189,-0.317245,0.852375,-0.5275,-0.089747,1.151065,-0.52373,-0.099583
167,0.989791,0.678275,-0.203242,0.8170459999999999,0.482335,-0.181896,0.677476,0.633755,-0.350705,1.1426560000000001,0.481655,-0.204818,1.252826,0.660635,-0.385495,0.740246,0.866055,-0.464145,1.189526,0.882185,-0.485815,0.914848,-0.000725,0.0042149999999999,1.085152,0.000725,-0.0042149999999999,0.7942359999999999,-0.170395,-0.309235,1.189616,-0.1722649999999999,-0.321185,0.852746,-0.518475,-0.092047,1.151056,-0.5143650000000001,-0.102041
168,0.9888615000000001,0.6754450000000001,-0.209103,0.8161135000000002,0.478595,-0.186399,0.6767235,0.6300250000000001,-0.35752,1.1414635,0.480095,-0.209507,1.2519535,0.657945,-0.39383,0.7377435,0.8581350000000001,-0.47279,1.1886735,0.8773850000000001,-0.49564,0.9148205000000001,-0.0009949999999999,0.0041399999999999,1.0851795,0.0009949999999999,-0.00414,0.7933435,-0.162735,-0.31308,1.1921835,-0.163425,-0.3247,0.8552835,-0.505925,-0.089382,1.1510035,-0.504615,-0.104636
169,0.9881110000000001,0.672355,-0.214365,0.815503,0.4767249999999999,-0.190313,0.675953,0.625705,-0.364435,1.1404130000000001,0.4781749999999999,-0.213825,1.251223,0.653705,-0.401675,0.7352930000000001,0.8505849999999999,-0.480425,1.1880629999999999,0.870435,-0.504845,0.914797,-0.001165,0.0041449999999999,1.085203,0.0011649999999999,-0.0041449999999999,0.792773,-0.155785,-0.316335,1.194443,-0.155665,-0.327695,0.855713,-0.496705,-0.091385,1.150963,-0.495985,-0.106886
170,0.987477,0.669915,-0.21995,0.814779,0.474175,-0.194908,0.675279,0.622615,-0.37151,1.139239,0.475385,-0.21877,1.250729,0.650415,-0.40944,0.732969,0.843915,-0.48826,1.187609,0.8643449999999999,-0.5139900000000001,0.914776,-0.0012449999999999,0.0042799999999999,1.085224,0.0012449999999999,-0.00428,0.792469,-0.1480349999999999,-0.31996,1.1965189999999999,-0.147345,-0.33118,0.8561989999999999,-0.487095,-0.093908,1.150899,-0.4870349999999999,-0.109527
171,0.9867175,0.66676,-0.22532,0.8139925,0.4720399999999999,-0.199421,0.6749225000000001,0.61917,-0.37847,1.1379024999999998,0.47168,-0.2237,1.2500825,0.6463699999999999,-0.41675,0.7304825000000001,0.83619,-0.49637,1.1869124999999998,0.8581,-0.52291,0.9147065,-0.00118,0.0044,1.0852935,0.0011799999999999,-0.0044,0.7923925,-0.14055,-0.32331,1.1983724999999998,-0.13973,-0.33423,0.8566325,-0.47813,-0.096415,1.1507125,-0.47879,-0.112136
172,0.9858680000000001,0.663135,-0.230825,0.813222,0.470585,-0.204105,0.6744220000000001,0.614135,-0.384935,1.1366319999999999,0.470225,-0.227975,1.2493319999999999,0.641745,-0.424015,0.728872,0.832575,-0.504275,1.186112,0.852335,-0.531725,0.914551,-0.001005,0.004595,1.085449,0.0010049999999999,-0.004595,0.792502,-0.132805,-0.326525,1.200182,-0.131955,-0.337045,0.857012,-0.469885,-0.099112,1.150372,-0.470395,-0.114756
173,0.9848835000000001,0.65982,-0.23612,0.8124475,0.46975,-0.208527,0.6736775000000002,0.6097699999999999,-0.3914999999999999,1.1352775,0.46873,-0.23212,1.2481975,0.6374299999999999,-0.4311699999999999,0.7270375,0.82822,-0.51235,1.1850775,0.8445499999999999,-0.54064,0.9144915,-0.00095,0.0048499999999999,1.0855085,0.00095,-0.0048499999999999,0.7924675,-0.12505,-0.32953,1.2016875,-0.12423,-0.33969,0.8572375,-0.46185,-0.101821,1.1498875,-0.46217,-0.1173869999999999
174,0.983913,0.65722,-0.241,0.811116,0.46702,-0.212826,0.672946,0.60649,-0.39801,1.133576,0.46624,-0.23598,1.246956,0.63347,-0.43744,0.7254160000000001,0.8248,-0.51991,1.184356,0.8377,-0.54897,0.914471,-0.0010399999999999,0.00519,1.085529,0.00104,-0.00519,0.792396,-0.1170699999999999,-0.33226,1.203036,-0.1167299999999999,-0.34237,0.8574260000000001,-0.4540499999999999,-0.104532,1.149356,-0.4541999999999999,-0.120032
175,0.9829365,0.654585,-0.24558,0.8098155,0.464425,-0.216926,0.6723355,0.603445,-0.40433,1.1318355,0.462925,-0.23969,1.2457455,0.629795,-0.44346,0.7237855,0.821205,-0.52723,1.1838155,0.831915,-0.55662,0.9144605000000001,-0.0011849999999999,0.0054899999999999,1.0855394999999999,0.0011849999999999,-0.0054899999999999,0.7923155,-0.109275,-0.3348299999999999,1.2043655,-0.1096449999999999,-0.34499,0.8575455000000001,-0.446435,-0.107183,1.1488355000000001,-0.446535,-0.1226189999999999
176,0.9819325,0.6518550000000001,-0.249785,0.8086805,0.463095,-0.220609,0.6717705,0.6008150000000001,-0.410195,1.1301205,0.459165,-0.243235,1.2444605,0.626395,-0.448985,0.7221605,0.817215,-0.534525,1.1826005,0.826125,-0.563975,0.9144695,-0.0010749999999999,0.005775,1.0855305,0.001075,-0.005775,0.7923305,-0.1021249999999999,-0.3374749999999999,1.2056505,-0.1031449999999999,-0.347665,0.8576605000000002,-0.4394049999999999,-0.109841,1.1483005,-0.439485,-0.125292
177,0.9806925,0.6484099999999999,-0.25331,0.8075405,0.46112,-0.223638,0.6711905,0.59773,-0.41558,1.1284905,0.4568099999999999,-0.24569,1.2430605,0.6224,-0.45356,0.7213105,0.81614,-0.54115,1.1811205,0.8199799999999999,-0.57029,0.9144665,-0.00114,0.00606,1.0855335,0.0011399999999999,-0.00606,0.7923705,-0.09628,-0.33967,1.2067405,-0.09796,-0.34977,0.8576805000000001,-0.4336,-0.112035,1.1477605,-0.43374,-0.12751
178,0.9792595,0.6460049999999999,-0.2566,0.8062914999999999,0.458725,-0.22668,0.6706715000000001,0.595375,-0.42045,1.1267215,0.454295,-0.24814,1.2415415,0.619265,-0.45758,0.7204415,0.814835,-0.54775,1.1793415,0.815815,-0.57619,0.9143875,-0.001195,0.0063199999999999,1.0856125,0.001195,-0.0063199999999999,0.7923715,-0.090375,-0.34178,1.2076715,-0.092635,-0.35172,0.8575815,-0.427685,-0.114262,1.1471414999999998,-0.427995,-0.129716
179,0.9779035,0.6433249999999999,-0.259135,0.8053775,0.4568649999999999,-0.228907,0.6701575,0.592875,-0.424655,1.1252775,0.4523149999999999,-0.249805,1.2401075,0.6158049999999999,-0.460955,0.7197075,0.8129949999999999,-0.553485,1.1775775,0.811375,-0.5812550000000001,0.9143035,-0.0012949999999999,0.0064549999999999,1.0856965,0.0012949999999999,-0.006455,0.7923675,-0.085425,-0.343115,1.2085975,-0.088355,-0.352905,0.8575075,-0.422725,-0.115974,1.1466775,-0.423115,-0.1314
180,0.976751,0.641485,-0.261285,0.804598,0.455175,-0.230723,0.6696880000000001,0.590635,-0.428335,1.124068,0.450675,-0.251375,1.238928,0.612865,-0.463825,0.719168,0.811035,-0.5584450000000001,1.175958,0.807585,-0.5856650000000001,0.914126,-0.001435,0.0065949999999999,1.085874,0.0014349999999999,-0.006595,0.792468,-0.080925,-0.344315,1.209498,-0.084345,-0.353995,0.8575080000000002,-0.418195,-0.117562,1.146398,-0.4186649999999999,-0.132935
181,0.975786,0.64026,-0.26277,0.803818,0.45286,-0.232157,0.669378,0.59033,-0.43159,1.123108,0.44918,-0.25275,1.237948,0.6108100000000001,-0.46576,0.718928,0.8099000000000001,-0.5622199999999999,1.174748,0.80318,-0.58928,0.9139390000000001,-0.00173,0.0066999999999999,1.086061,0.00173,-0.0067,0.792548,-0.0775699999999999,-0.3452,1.210068,-0.08133,-0.35478,0.857438,-0.4147599999999999,-0.118938,1.146268,-0.41526,-0.134334
182,0.9750465000000001,0.63905,-0.26399,0.8031245,0.450111,-0.2333809999999999,0.6692645000000002,0.58957,-0.4339699999999999,1.1223144999999999,0.447592,-0.25392,1.2373444999999998,0.60887,-0.46719,0.7187845000000002,0.80881,-0.5655600000000001,1.1737745,0.8039000000000001,-0.59171,0.9138075,-0.00195,0.00673,1.0861925000000001,0.00195,-0.0067299999999999,0.7926445,-0.0748699999999999,-0.3459299999999999,1.2105645,-0.0789199999999999,-0.35536,0.8574444999999999,-0.412,-0.1201649999999999,1.1462045,-0.41253,-0.1355839999999999
183,0.9744265,0.637745,-0.26517,0.8029615000000001,0.449589,-0.234575,0.6692215,0.588555,-0.43597,1.1220115,0.446658,-0.25483,1.2369715000000001,0.6069950000000001,-0.46837,0.7186915,0.807385,-0.56862,1.1730515,0.803845,-0.59406,0.9137735,-0.0019549999999999,0.0067799999999999,1.0862265,0.001955,-0.00678,0.7927315,-0.0729649999999999,-0.34641,1.2110115,-0.0772349999999999,-0.35576,0.8575015,-0.4100349999999999,-0.121265,1.1461915,-0.410605,-0.136747
184,0.9738685,0.6369,-0.266335,0.8028035,0.449125,-0.235756,0.6691535,0.58756,-0.437525,1.1217735,0.4462349999999999,-0.255535,1.2366635,0.60542,-0.469545,0.7185935,0.8063499999999999,-0.5712550000000001,1.1725435,0.80363,-0.5963350000000001,0.9137755,-0.00195,0.0068149999999999,1.0862245,0.0019499999999999,-0.006815,0.7927435,-0.07154,-0.346795,1.2112335,-0.07579,-0.356135,0.8575135,-0.40854,-0.122349,1.1462035,-0.40917,-0.137951
185,0.973525,0.6361749999999999,-0.267385,0.802774,0.4486599999999999,-0.236804,0.669424,0.586695,-0.438935,1.121834,0.4467029999999999,-0.256155,1.236694,0.603675,-0.470845,0.718754,0.8055049999999999,-0.5733550000000001,1.1725439999999998,0.803855,-0.598275,0.913693,-0.002005,0.0068749999999999,1.086307,0.0020049999999999,-0.0068749999999999,0.7928240000000001,-0.070775,-0.347045,1.211354,-0.074875,-0.356415,0.857584,-0.407675,-0.123337,1.146284,-0.4083650000000001,-0.139062
186,0.9734505000000001,0.63556,-0.26829,0.8028285,0.448166,-0.237517,0.6699085,0.5857300000000001,-0.43996,1.1219285,0.447118,-0.25685,1.2367785,0.60204,-0.47186,0.7190785,0.80477,-0.57518,1.1726085,0.80379,-0.59993,0.9135805,-0.0020799999999999,0.00694,1.0864195,0.00208,-0.00694,0.7929385,-0.0704699999999999,-0.3472,1.2114885,-0.0744599999999999,-0.35656,0.8576985,-0.4073,-0.124221,1.1464185,-0.40803,-0.140095
187,0.97352,0.63498,-0.269155,0.802896,0.447818,-0.238164,0.670546,0.5848,-0.440895,1.122036,0.447148,-0.257465,1.236856,0.60131,-0.4726249999999999,0.719626,0.80419,-0.576735,1.172656,0.80382,-0.601275,0.913523,-0.00211,0.006995,1.086477,0.00211,-0.006995,0.793056,-0.07052,-0.347275,1.211616,-0.07443,-0.356635,0.857796,-0.4073099999999999,-0.125001,1.146546,-0.40805,-0.141041
188,0.9736565,0.6349,-0.26994,0.8030405,0.447818,-0.238772,0.6712605,0.58435,-0.44176,1.1222005,0.447148,-0.25807,1.2370105,0.6013,-0.4733,0.7203705,0.80386,-0.57818,1.1727805,0.80382,-0.60248,0.9134905,-0.00211,0.0070199999999999,1.0865095,0.00211,-0.0070199999999999,0.7932405000000001,-0.07061,-0.34732,1.2117905,-0.07441,-0.35655,0.8579605000000001,-0.40734,-0.125691,1.1467405,-0.4080899999999999,-0.141877
189,0.9738045,0.6349,-0.27069,0.8031975,0.447818,-0.2394,0.6720275,0.5842,-0.44249,1.1225175,0.447627,-0.25862,1.2373175,0.6013,-0.47396,0.7212475,0.80386,-0.57936,1.1732375,0.80382,-0.60356,0.9134615000000001,-0.00211,0.0070399999999999,1.0865384999999999,0.00211,-0.00704,0.7934375,-0.07067,-0.34734,1.2119675,-0.07438,-0.35645,0.8581375,-0.4074,-0.126322,1.1469375,-0.40812,-0.142659
190,0.9739320000000001,0.634835,-0.271305,0.803306,0.447753,-0.239913,0.672846,0.5841350000000001,-0.442895,1.122926,0.448667,-0.2590449999999999,1.237776,0.601235,-0.474485,0.722106,0.803795,-0.580305,1.1740059999999999,0.804125,-0.604445,0.91344,-0.0021749999999999,0.0070749999999999,1.08656,0.002175,-0.0070749999999999,0.793566,-0.0707649999999999,-0.347295,1.212076,-0.074405,-0.356295,0.858286,-0.407535,-0.126815,1.147086,-0.408205,-0.14329
191,0.9741345,0.63445,-0.27183,0.8033565,0.447442,-0.24038,0.6735165000000001,0.58375,-0.44321,1.1233465,0.450087,-0.25948,1.2382165,0.60085,-0.47488,0.7228765000000001,0.80341,-0.58115,1.1749765,0.80473,-0.6051,0.9134615000000001,-0.00229,0.0071099999999999,1.0865384999999999,0.00229,-0.00711,0.7936165,-0.07118,-0.34725,1.2120965,-0.07476,-0.35611,0.8583365000000001,-0.40798,-0.127264,1.1471065,-0.40859,-0.143875
192,0.974548,0.63407,-0.272095,0.803563,0.447253,-0.240684,0.6742630000000001,0.583,-0.443255,1.123893,0.451375,-0.259805,1.238823,0.60051,-0.474915,0.7237629999999999,0.8033,-0.5815950000000001,1.176263,0.80559,-0.605565,0.913456,-0.00239,0.0070649999999999,1.086544,0.00239,-0.007065,0.7937330000000001,-0.07194,-0.347105,1.212143,-0.0754699999999999,-0.355795,0.858473,-0.4087699999999999,-0.127608,1.147203,-0.40934,-0.144247
193,0.975044,0.6341600000000001,-0.27203,0.803769,0.447079,-0.240839,0.675019,0.58218,-0.4431,1.124449,0.452639,-0.25998,1.239449,0.6000800000000001,-0.4744199999999999,0.7243590000000001,0.8031300000000001,-0.58188,1.177719,0.80677,-0.60589,0.9135010000000001,-0.0025199999999999,0.0069899999999999,1.0864989999999999,0.00252,-0.0069899999999999,0.7938390000000001,-0.0729599999999999,-0.34686,1.212139,-0.0764199999999999,-0.35531,0.858589,-0.4098299999999999,-0.127804,1.147259,-0.4103399999999999,-0.14451
194,0.9757375,0.6346449999999999,-0.271645,0.8041375,0.446698,-0.240845,0.6759975,0.581525,-0.442595,1.1250575,0.4536949999999999,-0.259945,1.2401275,0.6002149999999999,-0.473685,0.7249075,0.802735,-0.5819650000000001,1.1794275,0.808245,-0.606005,0.9134755,-0.002645,0.0069249999999999,1.0865245,0.002645,-0.006925,0.7940975,-0.074515,-0.346315,1.2121674999999998,-0.077915,-0.354655,0.8587975,-0.411395,-0.127781,1.1473975,-0.411895,-0.144558
195,0.9764980000000001,0.6359699999999999,-0.2709,0.8048379999999999,0.4475389999999999,-0.2404359999999999,0.677018,0.581,-0.44125,1.125708,0.45464,-0.25949,1.2407679999999999,0.6013599999999999,-0.47283,0.725158,0.8026899999999999,-0.5819799999999999,1.181318,0.8106599999999999,-0.60599,0.91343,-0.00263,0.00693,1.08657,0.0026299999999999,-0.0069299999999999,0.794498,-0.07774,-0.34545,1.211988,-0.08092,-0.35374,0.858998,-0.4146500000000001,-0.127714,1.147458,-0.41513,-0.144526
196,0.977353,0.637925,-0.2699399999999999,0.805623,0.448325,-0.240025,0.6780630000000001,0.580625,-0.4400699999999999,1.1264129999999999,0.4562349999999999,-0.25898,1.241343,0.602795,-0.4718799999999999,0.725673,0.802715,-0.5818099999999999,1.1830829999999999,0.814245,-0.60578,0.913394,-0.002675,0.00693,1.086606,0.0026749999999999,-0.0069299999999999,0.794983,-0.082035,-0.34443,1.211583,-0.084725,-0.35268,0.859173,-0.4189550000000001,-0.127654,1.147483,-0.4193950000000001,-0.144444
197,0.9783275,0.64002,-0.268695,0.8064715,0.44825,-0.239443,0.6791515,0.58201,-0.438785,1.1269615,0.45652,-0.258345,1.2416414999999998,0.60415,-0.470775,0.7258415,0.80323,-0.581395,1.1845515,0.81709,-0.6058250000000001,0.9133035,-0.00262,0.006795,1.0866965,0.00262,-0.0067949999999999,0.7956115,-0.08814,-0.343155,1.2109515,-0.09009,-0.351225,0.8593515,-0.42507,-0.12752,1.1475515,-0.42543,-0.144226
198,0.9792995000000001,0.64194,-0.266925,0.8075635,0.44979,-0.238435,0.6802334999999999,0.5830500000000001,-0.437165,1.1275235,0.45681,-0.257295,1.2419735,0.6057300000000001,-0.469125,0.7260335,0.80384,-0.5808450000000001,1.1859734999999998,0.8181700000000001,-0.605515,0.9131785,-0.0025199999999999,0.0064849999999999,1.0868215,0.00252,-0.006485,0.7963735000000001,-0.0957699999999999,-0.341365,1.2101935,-0.09691,-0.349335,0.8595435,-0.43281,-0.12698,1.1476235,-0.4330699999999999,-0.143599
199,0.9802665,0.6454850000000001,-0.26463,0.8086605,0.450435,-0.237648,0.6813104999999999,0.585445,-0.43523,1.1280804999999998,0.456915,-0.25601,1.2423505,0.609005,-0.46722,0.7262505,0.807445,-0.58005,1.1873805,0.8207850000000001,-0.6049800000000001,0.9131045,-0.0026249999999999,0.0062099999999999,1.0868955,0.002625,-0.00621,0.7972705,-0.1036849999999999,-0.33937,1.2091305,-0.1038649999999999,-0.34695,0.8597805000000001,-0.441295,-0.126258,1.1477305,-0.4414049999999999,-0.142717
200,0.9814570000000001,0.649125,-0.26169,0.810169,0.451715,-0.236283,0.682579,0.588025,-0.43282,1.129039,0.458775,-0.25412,1.2428789999999998,0.612215,-0.46514,0.7265890000000002,0.8100149999999999,-0.57862,1.188809,0.8242450000000001,-0.6037399999999999,0.913229,-0.002595,0.0058499999999999,1.086771,0.002595,-0.0058499999999999,0.798959,-0.114595,-0.33614,1.207419,-0.1136749999999999,-0.34323,0.860249,-0.453545,-0.125023,1.148069,-0.453625,-0.141234
201,0.982589,0.65356,-0.258745,0.811699,0.45285,-0.234863,0.683689,0.59144,-0.430645,1.130079,0.46045,-0.252155,1.243449,0.6158399999999999,-0.463265,0.726879,0.815,-0.5770649999999999,1.190059,0.8282499999999999,-0.6025050000000001,0.9133350000000001,-0.00251,0.005535,1.086665,0.00251,-0.0055349999999999,0.800929,-0.1264099999999999,-0.332195,1.205449,-0.1243799999999999,-0.3390649999999999,0.860779,-0.46705,-0.1237299999999999,1.148609,-0.46764,-0.1399089999999999
202,0.983536,0.657305,-0.25564,0.8130930000000001,0.456875,-0.233102,0.6846030000000001,0.594605,-0.42789,1.131053,0.4626949999999999,-0.2498699999999999,1.2438729999999998,0.618835,-0.46107,0.726923,0.819145,-0.57502,1.190913,0.830255,-0.60099,0.913373,-0.002145,0.00519,1.086627,0.0021449999999999,-0.00519,0.803323,-0.140205,-0.32686,1.202873,-0.136825,-0.33392,0.861183,-0.483185,-0.122062,1.149013,-0.484415,-0.138284
203,0.9843580000000001,0.6615599999999999,-0.2525,0.814443,0.4604399999999999,-0.2311119999999999,0.6852830000000001,0.59874,-0.42529,1.132073,0.46526,-0.24757,1.244213,0.62307,-0.45881,0.727093,0.82433,-0.5729,1.191493,0.83453,-0.59953,0.913306,-0.00186,0.00484,1.086694,0.0018599999999999,-0.00484,0.8058630000000001,-0.15424,-0.3212899999999999,1.199853,-0.1492299999999999,-0.32852,0.8615030000000001,-0.50067,-0.120483,1.149383,-0.5019,-0.136564
204,0.9851165000000001,0.665835,-0.249545,0.8152855000000001,0.4614049999999999,-0.229291,0.6858854999999999,0.6038049999999999,-0.423305,1.1332255,0.467335,-0.2456249999999999,1.2443255,0.627345,-0.4568649999999999,0.7272655,0.8303750000000001,-0.570975,1.1920155000000001,0.838395,-0.598045,0.9133755,-0.001895,0.004475,1.0866245,0.0018949999999999,-0.004475,0.8085455,-0.167725,-0.315405,1.1967955,-0.161205,-0.322685,0.8619155000000001,-0.518135,-0.1187749999999999,1.1506755,-0.519415,-0.136618
205,0.9857375000000002,0.669885,-0.2466749999999999,0.8158955,0.4611349999999999,-0.2274089999999999,0.6864555,0.608405,-0.4214249999999999,1.1342655,0.467875,-0.243645,1.2441455,0.631105,-0.454945,0.7271755000000001,0.836715,-0.5690149999999999,1.1924055,0.840105,-0.5966049999999999,0.9134935,-0.002035,0.004195,1.0865065,0.002035,-0.004195,0.8111455000000001,-0.1813749999999999,-0.308755,1.1934455,-0.173845,-0.316175,0.8621155,-0.536585,-0.117015,1.1519555,-0.537755,-0.136678
206,0.9861765000000001,0.674275,-0.243875,0.8163355,0.462375,-0.225456,0.6867455,0.6129249999999999,-0.419465,1.1351555,0.4684649999999999,-0.241635,1.2436355,0.635205,-0.452955,0.7270255,0.8442050000000001,-0.567035,1.1926555,0.8429549999999999,-0.595195,0.9136815000000001,-0.002005,0.0041249999999999,1.0863185,0.0020049999999999,-0.0041249999999999,0.8135654999999999,-0.193935,-0.301505,1.1901055,-0.186185,-0.309415,0.8607355,-0.5550950000000001,-0.118619,1.1531655,-0.555515,-0.136816
207,0.9866220000000001,0.6783049999999999,-0.24103,0.816594,0.465015,-0.2238129999999999,0.687054,0.616845,-0.41742,1.136034,0.471945,-0.23957,1.243064,0.639275,-0.4503999999999999,0.726904,0.850085,-0.56475,1.1927240000000001,0.8461350000000001,-0.59371,0.913867,-0.002045,0.0040999999999999,1.086133,0.0020449999999999,-0.0040999999999999,0.816174,-0.206865,-0.293,1.186484,-0.198795,-0.30129,0.8591340000000001,-0.5748249999999999,-0.1206609999999999,1.154414,-0.5746549999999999,-0.136913
208,0.987269,0.6817949999999999,-0.23838,0.817064,0.467735,-0.222128,0.6876340000000001,0.6204149999999999,-0.41528,1.137184,0.475305,-0.23744,1.2427039999999998,0.642655,-0.44819,0.727014,0.8535649999999999,-0.56259,1.1928539999999999,0.849035,-0.59167,0.914107,-0.001915,0.00408,1.085893,0.001915,-0.00408,0.8189540000000001,-0.219825,-0.2841,1.183324,-0.2119349999999999,-0.29277,0.8576440000000001,-0.5945050000000001,-0.122392,1.155894,-0.5940749999999999,-0.136913
209,0.9877760000000001,0.6855150000000001,-0.2359049999999999,0.817472,0.468795,-0.220355,0.6881020000000001,0.624795,-0.4131249999999999,1.138102,0.476805,-0.235305,1.242002,0.647015,-0.445865,0.727042,0.859785,-0.560415,1.1925919999999999,0.852435,-0.589485,0.914358,-0.0019849999999999,0.004045,1.085642,0.001985,-0.0040449999999999,0.821192,-0.2304649999999999,-0.2755849999999999,1.180652,-0.2228549999999999,-0.284555,0.856032,-0.610835,-0.1235579999999999,1.157302,-0.6105749999999999,-0.136655
210,0.988433,0.68815,-0.2326599999999999,0.817978,0.46957,-0.218301,0.688598,0.62922,-0.41059,1.139088,0.47782,-0.23292,1.2412779999999999,0.6513199999999999,-0.44294,0.727168,0.86378,-0.5578099999999999,1.192308,0.8561099999999999,-0.58699,0.914488,-0.0020699999999999,0.0039399999999999,1.085512,0.0020699999999999,-0.0039399999999999,0.823458,-0.24081,-0.2668,1.178308,-0.2332199999999999,-0.27607,0.854488,-0.62659,-0.124362,1.159008,-0.6266400000000001,-0.136374
211,0.988989,0.68948,-0.2284649999999999,0.8184089999999999,0.46663,-0.215797,0.689219,0.63341,-0.407315,1.140059,0.48128,-0.230505,1.240379,0.65703,-0.439555,0.726829,0.8687600000000001,-0.554745,1.191659,0.86206,-0.584105,0.9146670000000001,-0.0025599999999999,0.003865,1.0853329999999999,0.00256,-0.0038649999999999,0.825109,-0.25029,-0.257945,1.176059,-0.24258,-0.2670749999999999,0.853189,-0.6412599999999999,-0.1237639999999999,1.160419,-0.6408499999999999,-0.135231
212,0.9894175,0.690396,-0.22333,0.8184885,0.468566,-0.212505,0.6896785000000001,0.637276,-0.40335,1.1407985,0.483416,-0.22714,1.2393785,0.660796,-0.43556,0.7264385,0.874696,-0.55083,1.1906885,0.865426,-0.5800500000000001,0.9148875,-0.002714,0.00368,1.0851125,0.0027139999999999,-0.00368,0.8266285000000001,-0.260084,-0.2476499999999999,1.1735685,-0.252814,-0.25669,0.8517985000000001,-0.656814,-0.1222,1.1616085,-0.655544,-0.133356
213,0.9900075000000002,0.6899235,-0.217785,0.8187705000000001,0.4717234999999999,-0.209226,0.6902405,0.6415235,-0.3992949999999999,1.1416705,0.4858135,-0.223885,1.2387405,0.6642735,-0.431315,0.7261504999999999,0.8800135,-0.546455,1.1897605,0.8694934999999999,-0.575435,0.9150555,-0.0027844999999999,0.0035649999999999,1.0849445,0.0027844999999999,-0.0035649999999999,0.8282205,-0.2691464999999999,-0.237505,1.1713605,-0.2623765,-0.246545,0.8508305,-0.6713765,-0.120034,1.1621705,-0.6692665,-0.129871
214,0.9905625,0.687751,-0.210622,0.8187835,0.4760609999999999,-0.204669,0.6907135,0.645351,-0.39394,1.1425535,0.489851,-0.21922,1.2387535,0.6682710000000001,-0.42557,0.7255635,0.883741,-0.5399499999999999,1.1890335,0.873591,-0.56891,0.9152825,-0.002803,0.0036199999999999,1.0847175,0.002803,-0.0036199999999999,0.8300635000000001,-0.278429,-0.22574,1.1690835,-0.271919,-0.2346599999999999,0.8501935,-0.685759,-0.11591,1.1627535,-0.682559,-0.125156
215,0.991065,0.6846015,-0.203087,0.8185709999999999,0.4801315,-0.200077,0.691071,0.6484215,-0.388465,1.143361,0.4945715,-0.214495,1.238351,0.6745815,-0.419265,0.724541,0.8863715,-0.532915,1.1885109999999999,0.8785915,-0.561285,0.915491,-0.0029555,0.003595,1.084509,0.0029555,-0.003595,0.831951,-0.2873885,-0.2137649999999999,1.1664109999999999,-0.2805785,-0.222765,0.8506810000000001,-0.6990885,-0.111165,1.163241,-0.6948685,-0.120411
216,0.9919285,0.6813015,-0.19494,0.8188675,0.4819815,-0.19555,0.6918175000000001,0.6531915,-0.3830949999999999,1.1443975,0.4964415,-0.209995,1.2389075,0.6810315,-0.413145,0.7234675000000002,0.8906615,-0.525615,1.1883275,0.8856915,-0.553295,0.9158615,-0.0030144999999999,0.003595,1.0841385,0.0030145,-0.003595,0.8340875,-0.2950485,-0.202186,1.1640475,-0.2879684999999999,-0.211605,0.8513975,-0.7101784999999999,-0.106655,1.1637674999999998,-0.7040085,-0.114922
217,0.9928675,0.6763939999999999,-0.186666,0.8193665,0.484664,-0.1911189999999999,0.6925265,0.659804,-0.377581,1.1455465,0.498494,-0.205591,1.2388865,0.685974,-0.407471,0.7223665,0.897294,-0.517361,1.1887765,0.892624,-0.544451,0.9160905,-0.002974,0.0034789999999999,1.0839095,0.0029739999999999,-0.0034789999999999,0.8369165000000001,-0.302756,-0.189586,1.1615265,-0.295116,-0.199834,0.8523065000000001,-0.720896,-0.102241,1.1642465,-0.712616,-0.109016
218,0.993941,0.6709675,-0.1784535,0.8200270000000001,0.4879375,-0.1866594999999999,0.693397,0.6653075,-0.3719274999999999,1.146857,0.5004775,-0.2010974999999999,1.239437,0.6914675,-0.4004175,0.7214670000000001,0.9022775,-0.5087275,1.189727,0.8971475,-0.5350374999999999,0.916497,-0.0028614999999999,0.0033775,1.0835029999999999,0.0028615,-0.0033774999999999,0.840147,-0.3139225,-0.1765255,1.159047,-0.3062824999999999,-0.1874465,0.853937,-0.7294625,-0.0939835,1.164667,-0.7209725,-0.1025784999999999
219,0.995227,0.671845,-0.169609,0.820811,0.494245,-0.181033,0.6940310000000001,0.669465,-0.365491,1.148421,0.5058549999999999,-0.194901,1.240421,0.694735,-0.3921209999999999,0.7206710000000001,0.906385,-0.498791,1.191161,0.901985,-0.523621,0.916906,-0.002803,0.003184,1.083094,0.002803,-0.0031839999999999,0.844001,-0.326125,-0.16205,1.156021,-0.3184849999999999,-0.173058,0.855851,-0.738335,-0.084648,1.164551,-0.730725,-0.0943799999999999
220,0.996459,0.6739535000000001,-0.156272,0.8216559999999999,0.5009935000000001,-0.170544,0.694686,0.6744935000000001,-0.353662,1.149936,0.5077635,-0.183712,1.2416260000000001,0.6990835000000001,-0.377562,0.720156,0.9110635,-0.483082,1.192706,0.9060735,-0.506902,0.91707,-0.0027075,0.002987,1.08293,0.0027075,-0.002987,0.848176,-0.3370365,-0.142194,1.152956,-0.3293965,-0.153557,0.858216,-0.7461764999999999,-0.069386,1.164406,-0.7402365,-0.080671
221,0.997564,0.6782245,-0.1428134999999999,0.822446,0.5025645,-0.1595774999999999,0.695496,0.6782245,-0.3407395,1.151196,0.5107145,-0.1717894999999999,1.243016,0.7025245,-0.3623794999999999,0.719546,0.9130245,-0.4665195,1.1942059999999999,0.9098145,-0.4891495,0.917104,-0.0025555,0.0027505,1.082896,0.0025554999999999,-0.0027504999999999,0.853046,-0.3502854999999999,-0.1198195,1.149856,-0.3425955,-0.1318055,0.861136,-0.7543555,-0.0541904999999999,1.164086,-0.7500055,-0.0664385
222,0.9985015000000002,0.6830525,-0.1288625,0.8231765,0.5046125,-0.1478205,0.6962065,0.6808725,-0.3266555,1.1523865,0.5136625,-0.1592695,1.2444765,0.7056025,-0.3466755,0.7187465,0.9146625,-0.4488555,1.1956765,0.9127725,-0.4702755,0.9172215,-0.0023374999999999,0.0023024999999999,1.0827785,0.0023374999999999,-0.0023024999999999,0.8578065,-0.3637975,-0.0971345,1.1468865,-0.3563175,-0.1096975,0.8639265,-0.7626075,-0.0384385,1.1638165,-0.7597275,-0.0518945
223,0.9993110000000001,0.68953,-0.1160829999999999,0.8240419999999999,0.50715,-0.136449,0.6967220000000001,0.68495,-0.3125739999999999,1.153422,0.51576,-0.147042,1.245802,0.70935,-0.331314,0.718002,0.91799,-0.431824,1.1975019999999998,0.91725,-0.4518439999999999,0.917232,-0.002025,0.001588,1.082768,0.0020249999999999,-0.0015879999999999,0.862482,-0.37555,-0.075889,1.144122,-0.36896,-0.0888239999999999,0.866452,-0.76944,-0.0243289999999999,1.163612,-0.76776,-0.0382799999999999
224,1.000086,0.696748,-0.103143,0.8249770000000001,0.509388,-0.124838,0.697237,0.688448,-0.297514,1.154607,0.518558,-0.13406,1.247397,0.711288,-0.315384,0.717407,0.921228,-0.414384,1.199767,0.920568,-0.433104,0.917297,-0.0017549999999999,0.000848,1.082703,0.0017549999999999,-0.000848,0.867237,-0.387822,-0.054605,1.141547,-0.382142,-0.067626,0.868927,-0.776302,-0.0103,1.163497,-0.775312,-0.024631
225,1.00067,0.704755,-0.090339,0.8257350000000001,0.510945,-0.112595,0.697675,0.691295,-0.281626,1.155735,0.521085,-0.120613,1.249065,0.713045,-0.298626,0.7169749999999999,0.924845,-0.396426,1.202155,0.923585,-0.413646,0.917402,-0.001607,0.0001959999999999,1.082598,0.0016069999999999,-0.000196,0.871705,-0.399825,-0.033732,1.139195,-0.395135,-0.046981,0.871075,-0.782635,0.0033559999999999,1.163355,-0.782295,-0.011088
226,1.001097,0.713538,-0.076911,0.826307,0.512678,-0.099814,0.698257,0.691638,-0.2653,1.156817,0.523768,-0.107056,1.250867,0.715418,-0.28085,0.716707,0.926038,-0.37843,1.204467,0.925808,-0.39379,0.917417,-0.001496,-0.0004039999999999,1.082583,0.0014959999999999,0.000404,0.8755070000000001,-0.412302,-0.0139489999999999,1.1370770000000001,-0.408642,-0.027488,0.872827,-0.788372,0.016506,1.163167,-0.789192,0.00219
227,1.0015055,0.7225985,-0.0632615,0.8267405,0.5148685,-0.0869195,0.6988405,0.6921085,-0.2485814999999999,1.1579205,0.5266784999999999,-0.0930975,1.2525505,0.7162585,-0.2642115,0.7164705,0.9272585,-0.3599715,1.2067305,0.9290185,-0.3737315,0.9173775,-0.0013755,-0.0008475,1.0826225,0.0013754999999999,0.0008474999999999,0.8789705,-0.4243915,0.0052005,1.1353505,-0.4214915,-0.0094275,0.8743905,-0.7933815000000001,0.0290565,1.1631705,-0.7953615,0.0147734999999999
228,1.0018369999999999,0.725651,-0.0503965,0.82706,0.514621,-0.0750545,0.6996,0.693171,-0.2323355,1.15895,0.527161,-0.0804344999999999,1.25436,0.718961,-0.2476155,0.71633,0.929401,-0.3422955,1.2092,0.931191,-0.3548055,0.9174,-0.001233,-0.0012545,1.0826,0.0012329999999999,0.0012545,0.88173,-0.434679,0.0222425,1.13428,-0.432369,0.0061724999999999,0.87552,-0.796699,0.0400205,1.1638,-0.799499,0.0254515
229,1.0017634999999998,0.72926,-0.0425485,0.8269205,0.51488,-0.0685775,0.6998405,0.69382,-0.2213325,1.1595705,0.5282800000000001,-0.0728325,1.2554405,0.71997,-0.2372925,0.7157905,0.93092,-0.3305225,1.2111905,0.93449,-0.3410425,0.9173245,-0.000975,-0.0016144999999999,1.0826755,0.000975,0.0016144999999999,0.8837705,-0.44432,0.0325195,1.1332105000000001,-0.44275,0.0151545,0.8761505,-0.79947,0.0449445,1.1640205,-0.8029799999999999,0.0302445
230,1.0016245,0.7304245,-0.035593,0.8266475,0.5161545000000001,-0.0626309999999999,0.6999675000000001,0.6952545000000001,-0.211784,1.1600575,0.5296544999999999,-0.0662249999999999,1.2569875,0.7222945000000001,-0.227394,0.7151675,0.9335045,-0.319994,1.2133275000000001,0.9383445,-0.328644,0.9173074999999999,-0.0010285,-0.001785,1.0826925,0.0010285,0.001785,0.8846875,-0.4462855,0.038593,1.1325875,-0.4449855,0.020232,0.8762975000000001,-0.8007455000000001,0.048889,1.1641675,-0.8052355,0.034034
231,1.0016399999999999,0.7316545,-0.0282184999999999,0.826307,0.5171445,-0.0569945,0.700107,0.6964745,-0.2030054999999999,1.160317,0.5314144999999999,-0.0599205,1.258247,0.7242945,-0.2182154999999999,0.714537,0.9358645,-0.3103154999999999,1.215707,0.9417645,-0.3172855,0.917309,-0.0011255,-0.0018215,1.082691,0.0011255,0.0018215,0.885547,-0.4476555,0.0438855,1.132007,-0.4467055,0.0244955,0.876437,-0.8021855,0.0522845,1.164297,-0.8070055,0.0373055
232,1.0018865,0.7326035,-0.0215635,0.8261065000000001,0.5178735000000001,-0.0519675,0.7003565,0.6970935,-0.1953565,1.1607165,0.5333935000000001,-0.0539894999999999,1.2601465,0.7254434999999999,-0.2100865,0.7141065,0.9375735,-0.3016965,1.2183165,0.9446735000000002,-0.3070865,0.9174525,-0.0012075,-0.0018255,1.0825475,0.0012075,0.0018255,0.8862165,-0.4484465,0.0479315,1.1317065,-0.4479465,0.0272855,0.8766965,-0.8033064999999999,0.0551685,1.1645865,-0.8082564999999999,0.0400345
233,1.002098,0.733426,-0.0155199999999999,0.825823,0.518606,-0.04743,0.700373,0.6974859999999999,-0.188827,1.161083,0.5344059999999999,-0.04913,1.2619829999999999,0.726086,-0.202717,0.7136830000000001,0.938906,-0.294077,1.220923,0.946906,-0.298027,0.917648,-0.0012839999999999,-0.001792,1.082352,0.001284,0.0017919999999999,0.8865330000000001,-0.448754,0.050669,1.1315629999999999,-0.448724,0.029517,0.8768130000000001,-0.804234,0.057578,1.164743,-0.809214,0.04231
234,1.002332,0.734121,-0.0103124999999999,0.825561,0.519111,-0.0435275,0.700241,0.6977909999999999,-0.1831435,1.161511,0.5352509999999999,-0.0447825,1.263771,0.726571,-0.1962935,0.713361,0.939701,-0.2875735,1.223501,0.948801,-0.2903335,0.917788,-0.001286,-0.0018434999999999,1.082212,0.0012859999999999,0.0018435,0.886711,-0.448829,0.0524995,1.131421,-0.4492589999999999,0.0313595,0.876821,-0.8048890000000001,0.0595545,1.164891,-0.809929,0.0441825
235,1.0024745,0.734587,-0.005934,0.8252955000000001,0.519497,-0.040203,0.7000554999999999,0.697867,-0.178415,1.1619155,0.535867,-0.040712,1.2654655,0.726747,-0.191045,0.7130655,0.939997,-0.282395,1.2258855,0.949897,-0.284205,0.9178815,-0.0012869999999999,-0.0018519999999999,1.0821185,0.0012869999999999,0.0018519999999999,0.8868055,-0.448933,0.053955,1.1312855,-0.449703,0.032825,0.8767455000000001,-0.805543,0.061154,1.1649855,-0.8104830000000001,0.045674
236,1.0025374999999999,0.7349405,-0.0022714999999999,0.8251195,0.5199305,-0.0373855,0.6998495,0.6979305,-0.1745165,1.1624495,0.5362905,-0.0374165,1.2670395,0.7267705,-0.1866364999999999,0.7127895,0.9403405,-0.2784365,1.2280395,0.9507405,-0.2791565,0.9179635,-0.0012744999999999,-0.0019045,1.0820365,0.0012744999999999,0.0019045,0.8868895,-0.4490895,0.0551485,1.1311494999999998,-0.4500995,0.0333465,0.8766495,-0.8058495,0.0624835,1.1650295,-0.8109495,0.0468965
237,1.002658,0.7353085,0.0010315,0.825019,0.5203085,-0.0348365,0.699709,0.6980185,-0.1712185,1.162959,0.5364185,-0.0346205,1.2684090000000001,0.7267684999999999,-0.1832085,0.712619,0.9405285,-0.2752485,1.229849,0.9513285,-0.2754785,0.918039,-0.0012544999999999,-0.0018624999999999,1.081961,0.0012545,0.0018624999999999,0.8869690000000001,-0.4493614999999999,0.0559405,1.131069,-0.4504515,0.0333694999999999,0.8765890000000001,-0.8060915000000001,0.0634455,1.1650589999999998,-0.8113215,0.0477304999999999
238,1.0027725,0.7355990000000001,0.0036775,0.8249885,0.520629,-0.0324524999999999,0.6996185000000001,0.6981790000000001,-0.1688385,1.1634085,0.536389,-0.0322605,1.2695485,0.726699,-0.1804285,0.7126385,0.940529,-0.2725285,1.2314785,0.951229,-0.2727285,0.9181265,-0.0012359999999999,-0.0018654999999999,1.0818735,0.001236,0.0018654999999999,0.8870285000000001,-0.449631,0.0563945,1.1309784999999999,-0.450781,0.0332945,0.8765285,-0.8063210000000001,0.0642505,1.1650585,-0.8116810000000001,0.0484295
239,1.002914,0.735789,0.0058775,0.8249520000000001,0.520919,-0.0306555,0.699562,0.6982889999999999,-0.1668625,1.163842,0.536329,-0.0302425,1.2704520000000001,0.726619,-0.1785725,0.7126220000000001,0.940449,-0.2703625,1.232682,0.951149,-0.2707425,0.918207,-0.001223,-0.0018785,1.081793,0.001223,0.0018784999999999,0.887082,-0.449251,0.0563064999999999,1.130862,-0.451081,0.0330615,0.876442,-0.806601,0.0648245,1.165032,-0.811971,0.0489275
240,1.003044,0.7358600000000001,0.0075325,0.824875,0.52114,-0.0292125,0.699485,0.6984,-0.1653875,1.164235,0.53628,-0.0284604999999999,1.2710949999999999,0.72657,-0.1770875,0.712545,0.9404,-0.2686274999999999,1.233485,0.9511,-0.2693474999999999,0.918292,-0.001202,-0.0018875,1.081708,0.0012019999999999,0.0018875,0.8871249999999999,-0.44894,0.0561095,1.130725,-0.45133,0.0327565,0.876325,-0.80682,0.0652555,1.164985,-0.81224,0.0492755
241,1.003137,0.7359135,0.0088845,0.824725,0.5212635,-0.0279914999999999,0.6993250000000001,0.6985135,-0.1643215,1.1645349999999999,0.5362435,-0.0269065,1.271615,0.7263535,-0.1758415,0.712405,0.9403635,-0.2673015,1.233975,0.9509635,-0.2683515,0.918356,-0.0011924999999999,-0.0018994999999999,1.081644,0.0011924999999999,0.0018995,0.8870750000000001,-0.4488465,0.0558485,1.130565,-0.4515265,0.0324555,0.876135,-0.8069765,0.0655545,1.164865,-0.8124764999999999,0.0494795
242,1.003216,0.736,0.010036,0.824585,0.52135,-0.026937,0.6991149999999999,0.69868,-0.163499,1.164755,0.5362199999999999,-0.025534,1.271985,0.7263299999999999,-0.174889,0.712425,0.94034,-0.266219,1.234155,0.95064,-0.267709,0.918381,-0.0011789999999999,-0.001915,1.0816189999999999,0.0011789999999999,0.001915,0.887055,-0.4485,0.055578,1.130435,-0.45159,0.032213,0.875935,-0.8070700000000001,0.06578,1.164675,-0.8125,0.049642
243,1.0032525,0.7361015,0.0110245,0.8245245,0.5214415,-0.0259874999999999,0.6988745000000001,0.6988215,-0.1629165,1.1649145,0.5361215,-0.0242425,1.2722645,0.7260515,-0.1740165,0.7125945,0.9401315,-0.2652965,1.2341545,0.9502315,-0.2671965,0.9184015000000001,-0.0011755,-0.0019274999999999,1.0815985,0.0011754999999999,0.0019275,0.8870245,-0.4482985,0.0553575,1.1302845,-0.4516285,0.0319985,0.8756945,-0.8070985,0.0659495,1.1644245,-0.8125185,0.0497755
244,1.0032444999999999,0.7361964999999999,0.0119625,0.8245055,0.5214865,-0.0249945,0.6986555,0.6990265,-0.1624185,1.1650455,0.5359864999999999,-0.0230615,1.2724054999999999,0.7257665,-0.1731985,0.7128555,0.9399265,-0.2644884999999999,1.2340654999999998,0.9500265,-0.2666785,0.9184335,-0.0011805,-0.0019535,1.0815665,0.0011805,0.0019535,0.8869555,-0.4482534999999999,0.0552345,1.1301255000000001,-0.4516934999999999,0.0319445,0.8754455,-0.8071035000000001,0.0661025,1.1641455,-0.8125435000000001,0.0498814999999999
245,1.003237,0.7362740000000001,0.0129045,0.8245090000000002,0.5214840000000001,-0.0240384999999999,0.6984589999999999,0.6992339999999999,-0.1620095,1.165079,0.5358240000000001,-0.0221055,1.272449,0.7255039999999999,-0.1724995,0.713159,0.939724,-0.2637494999999999,1.233899,0.949824,-0.2661595,0.918454,-0.001183,-0.0019734999999999,1.081546,0.001183,0.0019734999999999,0.886849,-0.448146,0.0551545,1.129949,-0.451696,0.0318785,0.8752290000000001,-0.8071060000000001,0.0662285,1.163859,-0.8125560000000001,0.0499695
246,1.003118,0.736324,0.0136465,0.8244830000000001,0.5214840000000001,-0.0232635,0.6982630000000001,0.699444,-0.1617185,1.165013,0.535604,-0.0213425,1.272383,0.7251540000000001,-0.1718085,0.7133230000000002,0.939524,-0.2631585,1.233643,0.949724,-0.2656585,0.918473,-0.001183,-0.0019944999999999,1.081527,0.001183,0.0019945,0.886753,-0.448066,0.0550435,1.129833,-0.451696,0.0317965,0.875003,-0.8071060000000001,0.0663495,1.163553,-0.812576,0.0500505
247,1.0029934999999999,0.7363379999999999,0.014289,0.8244675,0.521478,-0.02253,0.6980075,0.699558,-0.161456,1.1649075,0.535408,-0.020675,1.2722974999999999,0.724878,-0.171286,0.7134275,0.939118,-0.262586,1.2333175,0.949718,-0.265206,0.9184785,-0.001183,-0.0020099999999999,1.0815215,0.0011829999999999,0.00201,0.8866275,-0.448052,0.054948,1.1297475,-0.451762,0.031709,0.8747575,-0.807112,0.066469,1.1632775,-0.812622,0.050099
248,1.0028439999999998,0.7363465,0.014853,0.824437,0.5214665,-0.0218459999999999,0.697757,0.6996965,-0.161188,1.164757,0.5352465,-0.020131,1.272167,0.7246865,-0.170808,0.713487,0.9386165,-0.262048,1.2329970000000001,0.9496165,-0.264718,0.918487,-0.0011805,-0.002023,1.081513,0.0011805,0.002023,0.8864970000000001,-0.4482735,0.05481,1.1296469999999998,-0.4518235,0.031666,0.874537,-0.8071135,0.066575,1.163007,-0.8126935,0.050127
249,1.002698,0.73634,0.015344,0.8244200000000002,0.52142,-0.0213119999999999,0.6975,0.69978,-0.160933,1.1645699999999999,0.5351199999999999,-0.019763,1.27206,0.72455,-0.1704429999999999,0.71349,0.93821,-0.261583,1.23271,0.94961,-0.2641529999999999,0.918492,-0.0011709999999999,-0.002024,1.081508,0.001171,0.0020239999999999,0.8863600000000001,-0.44831,0.054663,1.12961,-0.45197,0.031591,0.87434,-0.80715,0.0666539999999999,1.16275,-0.8127800000000001,0.050142
250,1.00257,0.736339,0.015875,0.824389,0.5213789999999999,-0.020787,0.6972590000000001,0.699869,-0.160684,1.164429,0.5350189999999999,-0.019397,1.271929,0.7244889999999999,-0.170154,0.713469,0.937809,-0.261194,1.232449,0.949609,-0.263534,0.918505,-0.0011649999999999,-0.00204,1.081495,0.0011649999999999,0.00204,0.886239,-0.448331,0.054533,1.129629,-0.452171,0.031493,0.874159,-0.807191,0.0667379999999999,1.162529,-0.8128610000000001,0.050171
251,1.002448,0.7363325,0.016354,0.824361,0.5213325,-0.020249,0.697021,0.6999125,-0.1604249999999999,1.164321,0.5349125,-0.0190229999999999,1.271811,0.7244325,-0.169855,0.7134210000000001,0.9375125,-0.260845,1.2322009999999999,0.9496125,-0.262945,0.918514,-0.0011614999999999,-0.002052,1.081486,0.0011614999999999,0.0020519999999999,0.886121,-0.4483575,0.054355,1.129661,-0.4523875,0.031316,0.8740209999999999,-0.8071775,0.066838,1.162341,-0.8129375,0.050194
252,1.0023149999999998,0.7363025,0.016893,0.824315,0.5212625,-0.0197149999999999,0.696795,0.6999725,-0.160078,1.164135,0.5348824999999999,-0.0188269999999999,1.271675,0.7243925,-0.1695279999999999,0.713365,0.9372224999999998,-0.260418,1.231955,0.9497225,-0.262318,0.9185250000000001,-0.0011634999999999,-0.0020629999999999,1.081475,0.0011634999999999,0.002063,0.886005,-0.4483375,0.054131,1.1297549999999998,-0.4526374999999999,0.031089,0.873895,-0.8071375000000001,0.066962,1.162165,-0.8130275,0.050256
253,1.0021879999999999,0.7362744999999999,0.017394,0.824242,0.5211945,-0.019298,0.696592,0.6999945,-0.159706,1.163972,0.5348645,-0.0186189999999999,1.271542,0.7242744999999999,-0.169116,0.713312,0.9370345,-0.259996,1.231732,0.9497345,-0.2617359999999999,0.918519,-0.0011665,-0.0020699999999999,1.081481,0.0011664999999999,0.0020699999999999,0.885892,-0.4483255,0.053935,1.129902,-0.4528855,0.030843,0.873792,-0.8070855,0.067104,1.1620219999999999,-0.8130955000000001,0.050313
254,1.0020455,0.7362355,0.017825,0.8241355,0.5211155000000001,-0.018956,0.6963855000000001,0.7000154999999999,-0.159314,1.1638155000000001,0.5348255,-0.0183899999999999,1.2714155,0.7241555,-0.1687239999999999,0.7132455000000001,0.9367455,-0.259584,1.2315255,0.9498455,-0.261224,0.9185105000000001,-0.0011684999999999,-0.0020789999999999,1.0814895,0.0011685,0.002079,0.8857655000000001,-0.4483045,0.053771,1.1300455,-0.4531545,0.030569,0.8736655,-0.8070744999999999,0.067255,1.1618755,-0.8131645000000001,0.05038
255,1.001923,0.7362285,0.018283,0.824049,0.5210385,-0.0186039999999999,0.6962090000000001,0.7000284999999999,-0.15893,1.163659,0.5347885,-0.018226,1.271289,0.7239985,-0.16835,0.7131890000000001,0.9366585,-0.25918,1.231349,0.9498585,-0.2607,0.918507,-0.0011735,-0.0021039999999999,1.081493,0.0011734999999999,0.002104,0.885629,-0.4482415,0.053643,1.130129,-0.4533915,0.030303,0.873559,-0.8070515,0.067413,1.161759,-0.8131915,0.05047
256,1.0017954999999998,0.7362305,0.01868,0.8239565,0.5209505,-0.018259,0.6960565000000001,0.7000405,-0.158583,1.1635065,0.5347704999999999,-0.018093,1.2711765,0.7238405,-0.167963,0.7131465,0.9364805,-0.258843,1.2311865,0.9498805,-0.2602029999999999,0.9185115000000001,-0.0011744999999999,-0.002144,1.0814884999999999,0.0011744999999999,0.002144,0.8855365,-0.4481495,0.053482,1.1302964999999998,-0.4536095,0.029976,0.8734565,-0.8069995000000001,0.067584,1.1616265000000001,-0.8131995000000001,0.050609
257,1.0016895,0.736186,0.0190405,0.8238535000000001,0.520866,-0.0179415,0.6959335000000001,0.7000460000000001,-0.1582865,1.1633935,0.534746,-0.0180105,1.2710735,0.723666,-0.1675765,0.7131135,0.936396,-0.2585465,1.2310634999999999,0.949896,-0.2597365,0.9185145,-0.0011729999999999,-0.0021644999999999,1.0814855,0.0011729999999999,0.0021644999999999,0.8854635,-0.448074,0.0533634999999999,1.1304835,-0.4538439999999999,0.0296145,0.8733835,-0.806964,0.0677794999999999,1.1615135,-0.813184,0.0507905
258,1.001591,0.7361380000000001,0.0193875,0.823747,0.520768,-0.0176305,0.6958070000000001,0.7000580000000001,-0.1580504999999999,1.163307,0.534728,-0.0178605,1.270967,0.723468,-0.1672305,0.713067,0.936308,-0.2583405,1.230937,0.949908,-0.2594705,0.9185240000000001,-0.001174,-0.0021825,1.0814759999999999,0.0011739999999999,0.0021825,0.8853870000000001,-0.4480619999999999,0.0532205,1.130627,-0.454002,0.0292365,0.873317,-0.806972,0.0679845,1.161437,-0.813172,0.0509955
259,1.001506,0.735994,0.020041,0.8237550000000001,0.520894,-0.017021,0.695615,0.700074,-0.15749,1.163345,0.534494,-0.016861,1.2707549999999999,0.723044,-0.16636,0.7129450000000002,0.936164,-0.2576,1.2307649999999999,0.949764,-0.25893,0.918533,-0.0011499999999999,-0.0022659999999999,1.081467,0.0011499999999999,0.002266,0.8851249999999999,-0.448036,0.053201,1.130615,-0.454246,0.028999,0.8731949999999999,-0.807256,0.0682,1.161235,-0.813356,0.051332
260,1.001369,0.736126,0.0203539999999999,0.823511,0.520466,-0.016989,0.6955009999999999,0.700136,-0.157141,1.163361,0.534416,-0.0161639999999999,1.270551,0.722926,-0.165971,0.712961,0.936376,-0.257171,1.230631,0.949876,-0.258571,0.91855,-0.0011329999999999,-0.002356,1.08145,0.001133,0.002356,0.885241,-0.447504,0.052876,1.131041,-0.4542039999999999,0.0284689999999999,0.873111,-0.807024,0.068564,1.161111,-0.8131240000000001,0.051404
