sb224sc-HT22-VT27/4dt907/src/ml-research/a10/datafiles/kinect_good_preprocessed_A9_mediapipe/A133_kinect_mirrored.csv
FrameNo,nose_3d_x,nose_3d_y,nose_3d_z,left_shoulder_3d_x,left_shoulder_3d_y,left_shoulder_3d_z,left_elbow_3d_x,left_elbow_3d_y,left_elbow_3d_z,right_shoulder_3d_x,right_shoulder_3d_y,right_shoulder_3d_z,right_elbow_3d_x,right_elbow_3d_y,right_elbow_3d_z,left_wrist_3d_x,left_wrist_3d_y,left_wrist_3d_z,right_wrist_3d_x,right_wrist_3d_y,right_wrist_3d_z,left_hip_3d_x,left_hip_3d_y,left_hip_3d_z,right_hip_3d_x,right_hip_3d_y,right_hip_3d_z,left_knee_3d_x,left_knee_3d_y,left_knee_3d_z,right_knee_3d_x,right_knee_3d_y,right_knee_3d_z,left_ankle_3d_x,left_ankle_3d_y,left_ankle_3d_z,right_ankle_3d_x,right_ankle_3d_y,right_ankle_3d_z
0,0.9984325,0.7302234999999999,0.0749015,0.8281785,0.5125435,0.0106834999999999,0.7075184999999999,0.6891935,-0.1296025,1.1664385,0.5165335,0.0159924999999999,1.2786285,0.6994235,-0.1394225,0.7184385,0.9298335,-0.2323325,1.2608185,0.9239835,-0.2444724999999999,0.9216315,-0.0006355,-9.35000000000033e-05,1.0783685,0.0006354999999999,9.349999999999636e-05,0.8801885,-0.4631865,0.0499825,1.1339884999999998,-0.4625465,0.0245964999999999,0.8651185,-0.8194965000000001,0.0830835,1.1624085,-0.8162265,0.0757085
1,0.9987305,0.7302155,0.0742765,0.8280925,0.5124355,0.0101975,0.7076725000000001,0.6894255,-0.1296864999999999,1.1664225,0.5165355,0.0159485,1.2787825,0.6994755,-0.1396265,0.7187625,0.9300555,-0.2326065,1.2609025,0.9241155,-0.2446765,0.9216345,-0.0006384999999999,-4.649999999999793e-05,1.0783655,0.0006385,4.650000000000487e-05,0.8805925,-0.4627945,0.0496585,1.1340124999999999,-0.4625945,0.0245705,0.8651025,-0.8199245,0.0831315,1.1625325,-0.8161045,0.0757625
2,0.9990905,0.7303725,0.0740725,0.8282595,0.5124525,0.0101084999999999,0.7078995,0.6901625,-0.1301315,1.1663695,0.5163425,0.0155814999999999,1.2790095,0.6993125,-0.1395515,0.7191995,0.9308225,-0.2330014999999999,1.2612095,0.9243425,-0.2449015,0.9216095,-0.0006415,-2.4500000000003685e-05,1.0783905,0.0006414999999999,2.4499999999996747e-05,0.8805594999999999,-0.4626575,0.0495354999999999,1.1339995,-0.4624275,0.0246384999999999,0.8653195,-0.8195374999999999,0.0834314999999999,1.1625095,-0.8159775,0.0760035
3,0.9992685,0.7303925,0.0739954999999999,0.8284465,0.5119525,0.0100905,0.7079765,0.6902925,-0.1301075,1.1664365,0.5163025,0.0158105,1.2791965,0.6991425,-0.1395775,0.7193465,0.9307525,-0.2329475,1.2613064999999999,0.9246325,-0.2449375,0.9216335,-0.0005964999999999,0.0001565,1.0783665,0.0005965,-0.0001564999999999,0.8804665,-0.4626875,0.0497115,1.1340265,-0.4621475,0.0245505,0.8653465,-0.8194874999999999,0.0836155,1.1625665,-0.8153275,0.0762105
4,0.9996085,0.730218,0.0735695,0.8284485,0.512098,0.0099604999999999,0.7081284999999999,0.690648,-0.1303555,1.1665185,0.516358,0.0157285,1.2795385000000001,0.698678,-0.1395155,0.7196485,0.931158,-0.2331755,1.2619485,0.926408,-0.2455754999999999,0.9216395,-0.0005969999999999,-1.7500000000003624e-05,1.0783605,0.0005969999999999,1.7499999999996685e-05,0.8804285000000001,-0.4619919999999999,0.0493755,1.1339485,-0.461802,0.0242434999999999,0.8654685,-0.818172,0.0834675,1.1625885,-0.815352,0.0760845
5,0.999651,0.7303265,0.073658,0.828534,0.5118665,0.00988,0.708134,0.6908165,-0.130419,1.166554,0.5167364999999999,0.015371,1.279664,0.6987865,-0.139399,0.719984,0.9315965,-0.233329,1.262144,0.9268265,-0.245699,0.921608,-0.0006315,-0.000161,1.078392,0.0006315,0.000161,0.880404,-0.4617735,0.0493129999999999,1.1338840000000001,-0.4615535,0.024256,0.865624,-0.8180435,0.0838339999999999,1.162564,-0.8151435,0.076162
6,0.9997540000000001,0.7304225,0.0737235,0.828534,0.5118725000000001,0.0098924999999999,0.708224,0.6910025000000001,-0.1304315,1.1665539999999999,0.5167225,0.0153645,1.279704,0.6987025,-0.1394115,0.7207340000000001,0.9328025,-0.2340414999999999,1.262254,0.9268825,-0.2458014999999999,0.921608,-0.0006205,-0.0001745,1.078392,0.0006205,0.0001745,0.880374,-0.4617774999999999,0.0493225,1.1338840000000001,-0.4616174999999999,0.0243195,0.8656440000000001,-0.8179974999999999,0.0838235,1.162664,-0.8156074999999999,0.0764475
7,0.999744,0.7304735,0.0737485,0.82849,0.5116235,0.0097515,0.70819,0.6907135,-0.1303955,1.16667,0.5165935,0.0156185,1.2799399999999999,0.6986935,-0.1394455,0.7204900000000001,0.9313635,-0.2339655,1.26243,0.9270535,-0.2456555,0.921643,-0.0006364999999999,-0.0001514999999999,1.078357,0.0006364999999999,0.0001514999999999,0.88044,-0.4618465,0.0493964999999999,1.13381,-0.4619565,0.0243535,0.86529,-0.8190065,0.0838105,1.16278,-0.8157765,0.0765835
8,0.9998625,0.7305015,0.0737115,0.8285125,0.5115415,0.0096955,0.7082425,0.6907415,-0.1304285,1.1667525,0.5166115,0.0156165,1.2801725,0.6986115,-0.1394185,0.7206725,0.9313915,-0.2341585,1.2627125000000001,0.9274215,-0.2457484999999999,0.9216405,-0.0006424999999999,-0.0001875,1.0783595,0.0006425,0.0001875,0.8804825000000001,-0.4616785,0.0493645,1.1337925,-0.4619385,0.0243725,0.8653125,-0.8189084999999999,0.0838764999999999,1.1628425,-0.8156985,0.0766884999999999
9,0.999963,0.730516,0.073693,0.8285350000000001,0.511436,0.0096499999999999,0.708305,0.690766,-0.130428,1.166845,0.516616,0.0156129999999999,1.280415,0.698576,-0.139408,0.720825,0.931416,-0.234328,1.262965,0.927616,-0.245798,0.921639,-0.000654,-0.000231,1.078361,0.000654,0.0002309999999999,0.8805050000000001,-0.461374,0.0493049999999999,1.133795,-0.461914,0.0244219999999999,0.865345,-0.818744,0.083947,1.162875,-0.815674,0.07682
10,1.000069,0.7305360000000001,0.0736365,0.828539,0.511356,0.0096024999999999,0.708349,0.690786,-0.1304305,1.166939,0.5166160000000001,0.0156194999999999,1.280639,0.698536,-0.1394004999999999,0.720939,0.931406,-0.2345005,1.263229,0.927766,-0.2458504999999999,0.921642,-0.00066,-0.0002655,1.078358,0.00066,0.0002654999999999,0.880549,-0.4611039999999999,0.0492424999999999,1.133789,-0.4618939999999999,0.0244584999999999,0.865369,-0.818614,0.0840065,1.162909,-0.815654,0.0769445
11,1.0001625,0.730553,0.073568,0.8285395,0.511273,0.00955,0.7083695,0.690803,-0.130437,1.1670295,0.5166229999999999,0.015632,1.2808695,0.698473,-0.139377,0.7209595,0.931393,-0.234627,1.2634995,0.927953,-0.245897,0.9216425,-0.000664,-0.0003189999999999,1.0783575,0.000664,0.0003189999999999,0.8805995000000001,-0.460817,0.049173,1.1337795,-0.461907,0.024494,0.8653595000000001,-0.818497,0.08406,1.1629195,-0.815667,0.07703
12,1.0002505,0.730582,0.073518,0.8285425000000001,0.5111819999999999,0.009501,0.7083925000000001,0.690792,-0.1304529999999999,1.1671025,0.5166419999999999,0.015661,1.2811025,0.6983919999999999,-0.139383,0.7209725,0.931332,-0.2348029999999999,1.2637825,0.928122,-0.245993,0.9216395,-0.000671,-0.0003589999999999,1.0783605,0.000671,0.000359,0.8806525000000001,-0.460588,0.049112,1.1337725,-0.4619479999999999,0.024542,0.8653425000000001,-0.8185880000000001,0.084125,1.1629325,-0.8156580000000001,0.077094
13,1.0003235,0.7305955,0.0734485,0.8285425000000001,0.5111555,0.0094675,0.7084025,0.6907555,-0.1305015,1.1671325,0.5166255,0.0156865,1.2812925,0.6982955,-0.1393915,0.7209725,0.9312355,-0.2349515,1.2640325,0.9282755,-0.2461015,0.9216395,-0.0006795,-0.0003884999999999,1.0783605,0.0006795,0.0003884999999999,0.8806925,-0.4603845,0.0490345,1.1337625,-0.4619845,0.0245765,0.8653025,-0.8186845,0.0841355,1.1629425,-0.8156545000000001,0.0771455
14,1.000385,0.7306105,0.073376,0.828545,0.5111305,0.009434,0.708405,0.6907005,-0.130561,1.167135,0.5165905000000001,0.015711,1.281475,0.6982005,-0.139411,0.7209750000000001,0.9310005,-0.235121,1.264255,0.9283905,-0.246271,0.92164,-0.0006895,-0.000418,1.07836,0.0006895,0.000418,0.880715,-0.4601595,0.048949,1.133755,-0.4620095,0.024614,0.865275,-0.8188194999999999,0.084149,1.1629450000000001,-0.8156595,0.077183
15,1.0004229999999998,0.7306250000000001,0.073304,0.8285560000000001,0.511135,0.009425,0.7084159999999999,0.690665,-0.130625,1.167146,0.516575,0.015718,1.281646,0.698115,-0.139425,0.720986,0.930795,-0.235305,1.264436,0.928485,-0.246435,0.921644,-0.0006979999999999,-0.000431,1.078356,0.000698,0.000431,0.880716,-0.4600349999999999,0.048928,1.133756,-0.462025,0.024667,0.865266,-0.818905,0.08415,1.1629559999999999,-0.815655,0.077239
16,1.000454,0.7306335,0.073228,0.828558,0.5111535,0.009404,0.708448,0.6905935,-0.1307,1.167178,0.5165535,0.015726,1.281788,0.6980435,-0.13945,0.720998,0.9306635,-0.2355199999999999,1.2645979999999999,0.9285735,-0.24661,0.921645,-0.0006944999999999,-0.0004349999999999,1.078355,0.0006944999999999,0.0004349999999999,0.880748,-0.4599565,0.048892,1.133778,-0.4620364999999999,0.024727,0.865268,-0.8190065,0.084149,1.162958,-0.8156265,0.077235
17,1.0004865,0.7306334999999999,0.0731645,0.8285625,0.5111835,0.0093924999999999,0.7084725000000001,0.6904835,-0.1307815,1.1672125,0.5165735,0.0157485,1.2819124999999998,0.6979735,-0.1394715,0.7209924999999999,0.9305435,-0.2357415,1.2647525,0.9286835,-0.2467715,0.9216425,-0.0006905,-0.0004365,1.0783575,0.0006904999999999,0.0004364999999999,0.8807825,-0.4599265,0.0489504999999999,1.1337925,-0.4620465,0.0247814999999999,0.8652725,-0.8191665,0.0841504999999999,1.1629425,-0.8155865,0.0772325
18,1.000527,0.7306165,0.073105,0.8285640000000001,0.5112065,0.0093749999999999,0.708494,0.6903165,-0.130878,1.167244,0.5166065,0.0157609999999999,1.282014,0.6979065,-0.139498,0.720934,0.9303065,-0.236008,1.264894,0.9286765,-0.2469179999999999,0.921638,-0.0006854999999999,-0.000424,1.078362,0.0006854999999999,0.000424,0.880824,-0.4599035,0.048985,1.1338039999999998,-0.4620735,0.024821,0.865294,-0.8192835,0.0841919999999999,1.162924,-0.8155635,0.077225
19,1.000573,0.730601,0.0730655,0.8285890000000001,0.511231,0.0094404999999999,0.708519,0.690151,-0.1309725,1.1672690000000001,0.516631,0.0157434999999999,1.282139,0.697831,-0.1395124999999999,0.7208490000000001,0.930071,-0.2362424999999999,1.2650190000000001,0.928641,-0.2470325,0.921628,-0.0006789999999999,-0.0004285,1.0783719999999999,0.000679,0.0004284999999999,0.880829,-0.459879,0.0490515,1.133829,-0.4620689999999999,0.0248774999999999,0.8653290000000001,-0.819449,0.0842074999999999,1.162939,-0.815539,0.0772394999999999
20,1.0006045,0.730597,0.07303,0.8286205,0.5112570000000001,0.0095129999999999,0.7085105,0.6899770000000001,-0.13107,1.1672605,0.516687,0.0157089999999999,1.2822505,0.697767,-0.1395199999999999,0.7207405,0.929867,-0.23647,1.2651305,0.928627,-0.24714,0.9216155,-0.000674,-0.000438,1.0783845,0.000674,0.000438,0.8808104999999999,-0.460213,0.049095,1.1338505,-0.462053,0.0249399999999999,0.8653505,-0.8195429999999999,0.084224,1.1629605,-0.815523,0.0772569999999999
21,1.000599,0.7305935,0.07298,0.8286430000000001,0.5113035,0.009565,0.708493,0.6897835,-0.1311589999999999,1.167223,0.5167134999999999,0.015655,1.2823529999999999,0.6977335,-0.139529,0.720603,0.9296635,-0.2366689999999999,1.265233,0.9285935,-0.247189,0.9216050000000001,-0.0006605,-0.0004429999999999,1.078395,0.0006605,0.000443,0.8807330000000001,-0.4606965,0.049207,1.133863,-0.4620365,0.02499,0.8653630000000001,-0.8196365,0.084239,1.163003,-0.8155565,0.07725
22,1.000553,0.7305940000000001,0.072937,0.8286460000000001,0.5114540000000001,0.009601,0.708466,0.689584,-0.131233,1.167176,0.516754,0.015581,1.282446,0.697724,-0.139503,0.7204460000000001,0.929464,-0.236863,1.265356,0.928624,-0.247233,0.9215949999999999,-0.0006499999999999,-0.0004549999999999,1.078405,0.00065,0.0004549999999999,0.880656,-0.4611659999999999,0.049312,1.133866,-0.462006,0.025041,0.8653560000000001,-0.819766,0.084252,1.163056,-0.815516,0.077246
23,1.0004835,0.730599,0.07291,0.8286495,0.511619,0.0096209999999999,0.7084295,0.689409,-0.131295,1.1671295,0.516789,0.015517,1.2825195,0.697709,-0.139485,0.7202695,0.929309,-0.237045,1.2654795,0.928709,-0.247235,0.9215855,-0.0006399999999999,-0.000469,1.0784145,0.00064,0.0004689999999999,0.8805895,-0.461471,0.049359,1.1338695,-0.461981,0.025095,0.8653995,-0.8197909999999999,0.0843049999999999,1.1631095,-0.815531,0.077261
24,1.000392,0.7306134999999999,0.072892,0.828638,0.5117835,0.009638,0.708378,0.6892134999999999,-0.131353,1.167068,0.5168634999999999,0.015436,1.282578,0.6977034999999999,-0.139453,0.7200679999999999,0.9291735,-0.237203,1.265568,0.9287735,-0.247203,0.921573,-0.0006385,-0.0005019999999999,1.078427,0.0006385,0.000502,0.880488,-0.4617365,0.049423,1.133868,-0.4619565,0.02514,0.865428,-0.8197565,0.084357,1.163148,-0.8155465000000001,0.077303
25,1.0003,0.7306414999999999,0.0728915,0.828631,0.5119315,0.0096465,0.708321,0.6890315,-0.1314345,1.167011,0.5169414999999999,0.0153515,1.282611,0.6977115,-0.1394145,0.719861,0.9290215,-0.2373445,1.265641,0.9288515,-0.2471945,0.921558,-0.0006364999999999,-0.0005345,1.078442,0.0006365,0.0005345,0.880401,-0.4619785,0.0494705,1.133871,-0.4619385,0.0251845,0.865441,-0.8197385,0.0843955,1.163171,-0.8155785,0.0773415
26,1.000194,0.730664,0.0728795,0.8286,0.512074,0.0096364999999999,0.70825,0.6888540000000001,-0.1315425,1.16695,0.517034,0.0152404999999999,1.28264,0.697724,-0.1393925,0.71966,0.928824,-0.2374925,1.26566,0.928904,-0.2472025,0.9215500000000001,-0.000635,-0.0005565,1.07845,0.0006349999999999,0.0005564999999999,0.8803700000000001,-0.461956,0.0494934999999999,1.13389,-0.461926,0.0252154999999999,0.86546,-0.819716,0.0844175,1.16321,-0.815556,0.0773635
27,1.0000915,0.7306834999999999,0.072854,0.8285635,0.5122035,0.009625,0.7082135,0.6887435,-0.131662,1.1668835,0.5171235,0.015143,1.2826635,0.6977435,-0.139372,0.7195335,0.9287335,-0.237602,1.2656835,0.9289935,-0.247222,0.9215435,-0.0006315,-0.0005769999999999,1.0784565,0.0006315,0.000577,0.8803635,-0.4619365,0.0495,1.1339135,-0.4619265,0.025234,0.8654935,-0.8195765,0.084471,1.1632035,-0.8155365,0.077392
28,1.000003,0.7306914999999999,0.0728315,0.82852,0.5123215,0.0096065,0.70819,0.6886715,-0.1317755,1.16683,0.5172215,0.0150815,1.28266,0.6977515,-0.1393855,0.71946,0.9286615,-0.2377355,1.2657,0.9290615,-0.2472754999999999,0.921544,-0.0006315,-0.0005804999999999,1.078456,0.0006315,0.0005804999999999,0.88036,-0.4619385,0.0494875,1.13392,-0.4619285,0.0252285,0.86551,-0.8193885,0.0844985,1.16318,-0.8155285,0.0774025
29,0.9999355,0.7306999999999999,0.0728145,0.8284805,0.51244,0.0095944999999999,0.7081805,0.6886,-0.1318755,1.1667805,0.51728,0.0150684999999999,1.2826505,0.6977599999999999,-0.1393955,0.7194105,0.92859,-0.2378455,1.2657105,0.92912,-0.2473254999999999,0.9215475,-0.000627,-0.0005804999999999,1.0784525,0.000627,0.0005804999999999,0.8803605,-0.46197,0.0494104999999999,1.1339305,-0.46192,0.0252184999999999,0.8655205,-0.81928,0.0845165,1.1631905,-0.8155,0.0774125
30,0.999904,0.73068,0.0727775,0.8284320000000001,0.51255,0.0095804999999999,0.708172,0.68853,-0.1319995,1.166742,0.5172899999999999,0.0150564999999999,1.282632,0.6977599999999999,-0.1393995,0.719382,0.9285,-0.2379395,1.265702,0.92914,-0.2473894999999999,0.9215510000000001,-0.000627,-0.0005845,1.078449,0.000627,0.0005844999999999,0.880312,-0.46197,0.0492914999999999,1.133942,-0.46191,0.0251844999999999,0.8655520000000001,-0.81908,0.0845545,1.163192,-0.8154800000000001,0.0774425
31,0.999906,0.7306865,0.072728,0.828414,0.5125865000000001,0.009549,0.708164,0.6884765,-0.132131,1.1667239999999999,0.5173065,0.015035,1.282614,0.6978065,-0.139421,0.7193440000000001,0.9284365,-0.238031,1.265674,0.9291165,-0.247451,0.921551,-0.0006234999999999,-0.0005959999999999,1.078449,0.0006234999999999,0.0005959999999999,0.880264,-0.4621135,0.049118,1.133954,-0.4618835,0.025136,0.865594,-0.8188535,0.084564,1.163204,-0.8154334999999999,0.077439
32,0.999922,0.730702,0.072587,0.8284,0.512612,0.0094479999999999,0.70816,0.688422,-0.132318,1.16671,0.517322,0.0149389999999999,1.28259,0.697812,-0.139508,0.71931,0.928362,-0.238188,1.26563,0.929072,-0.247588,0.921553,-0.000622,-0.000654,1.078447,0.0006219999999999,0.0006539999999999,0.88023,-0.461698,0.0487709999999999,1.13399,-0.461858,0.024998,0.8656,-0.818678,0.084477,1.16321,-0.815388,0.0773669999999999
33,0.9999565,0.7307125,0.0723385,0.8284055,0.5126225,0.0093045,0.7081955,0.6883725,-0.1325455,1.1667455,0.5173325,0.0147944999999999,1.2825955,0.6978125000000001,-0.1396455,0.7192955,0.9282125,-0.2384655,1.2655655000000001,0.9290525,-0.2477855,0.9215455,-0.0006205,-0.0006905,1.0784545,0.0006205,0.0006904999999999,0.8802155,-0.4613675,0.0481155,1.1340454999999998,-0.4618275,0.0247394999999999,0.8656455000000001,-0.8184875,0.0843315,1.1632755,-0.8152975,0.0772404999999999
34,0.999985,0.730697,0.071896,0.8284170000000001,0.512637,0.0089579999999999,0.7082269999999999,0.688297,-0.132945,1.166797,0.517337,0.0144849999999999,1.282607,0.697827,-0.139945,0.719287,0.927947,-0.238935,1.265467,0.929027,-0.248185,0.9215220000000001,-0.000614,-0.0007559999999999,1.0784779999999998,0.000614,0.0007559999999999,0.880017,-0.460923,0.04681,1.134217,-0.461783,0.0241979999999999,0.865687,-0.818283,0.0840249999999999,1.163357,-0.815213,0.076941
35,1.0000585,0.7305805,0.071102,0.8284845000000001,0.5126805,0.008442,0.7082845,0.6880505,-0.1336439999999999,1.1668645,0.5173605,0.013986,1.2826245,0.6978405,-0.140474,0.7193645,0.9276105,-0.239774,1.2653744999999998,0.9288205,-0.248824,0.9214765,-0.0006004999999999,-0.0008419999999999,1.0785235,0.0006004999999999,0.000842,0.8796444999999999,-0.4605095,0.043898,1.1345645,-0.4615695,0.022723,0.8657445,-0.8181595,0.083474,1.1634545,-0.8151395,0.07644
36,1.0002235,0.7303940000000001,0.0697715,0.8286074999999999,0.512654,0.0076155,0.7083975,0.687624,-0.1348055,1.1669875,0.517364,0.0132045,1.2827075,0.697914,-0.1414855,0.7195075,0.927124,-0.2411755,1.2653475,0.928484,-0.2498555,0.9213905,-0.0005859999999999,-0.0009354999999999,1.0786095,0.000586,0.0009354999999999,0.8788575,-0.459926,0.0393805,1.1352875,-0.461176,0.0199385,0.8658675,-0.8178559999999999,0.0826055,1.1636075,-0.814896,0.0756585
37,1.000499,0.730093,0.0677945,0.82882,0.5126729999999999,0.0063524999999999,0.70861,0.6871229999999999,-0.1367015,1.16716,0.517393,0.0119734999999999,1.2829,0.6978829999999999,-0.1431715,0.71975,0.926633,-0.2434015,1.26536,0.927603,-0.2516615,0.9212359999999999,-0.0005539999999999,-0.0010575,1.078764,0.000554,0.0010574999999999,0.8778,-0.4588069999999999,0.0330505,1.1362700000000001,-0.460047,0.0153745,0.86608,-0.817357,0.0812775,1.1638600000000001,-0.814427,0.0744035
38,1.001052,0.729355,0.0640205,0.829273,0.512115,0.0037225,0.709003,0.685965,-0.1399715,1.167533,0.516585,0.0096065,1.283223,0.698025,-0.1465415,0.720173,0.925695,-0.2475515,1.265313,0.926275,-0.2550015,0.920972,-0.000468,-0.0012404999999999,1.079028,0.0004679999999999,0.0012405,0.876203,-0.456085,0.0235745,1.138113,-0.457255,0.0075895,0.8663830000000001,-0.815505,0.0788435,1.1643729999999999,-0.812605,0.0720085
39,1.0016589999999999,0.727838,0.058896,0.829834,0.511298,0.0002519999999999,0.709464,0.683538,-0.14398,1.1679739999999998,0.515728,0.0064379999999999,1.2834139999999998,0.696638,-0.15069,0.720764,0.924878,-0.25276,1.264904,0.921898,-0.25905,0.920611,-0.0003729999999999,-0.001416,1.079389,0.000373,0.001416,0.874304,-0.452712,0.0122449999999999,1.140204,-0.453732,-0.0019159999999999,0.866714,-0.8126720000000001,0.075657,1.165104,-0.8100620000000001,0.068913
40,1.0022929999999999,0.725894,0.052925,0.830466,0.510844,-0.0037499999999999,0.709956,0.681034,-0.148613,1.168366,0.514664,0.002613,1.283556,0.695264,-0.155503,0.721496,0.922184,-0.258893,1.264446,0.918054,-0.2636429999999999,0.92021,-0.000238,-0.0015969999999999,1.07979,0.000238,0.001597,0.8723460000000001,-0.448886,-0.0006119999999999,1.142726,-0.449346,-0.0130319999999999,0.867036,-0.808856,0.071834,1.165966,-0.806596,0.065278
41,1.002838,0.723657,0.04564,0.831105,0.509677,-0.008591,0.710385,0.678507,-0.154403,1.168495,0.513487,-0.0021779999999999,1.283385,0.693147,-0.161243,0.722205,0.920297,-0.266063,1.263715,0.915397,-0.269433,0.919722,-0.0001169999999999,-0.001707,1.080278,0.0001169999999999,0.001707,0.870155,-0.443613,-0.0151129999999999,1.145225,-0.443703,-0.025599,0.867285,-0.803563,0.067016,1.166765,-0.801743,0.060736
42,1.0033145,0.7213855,0.037326,0.8317265,0.5086355,-0.0142319999999999,0.7107665000000001,0.6758255000000001,-0.161198,1.1685664999999998,0.5119155,-0.007889,1.2829865,0.6911755,-0.167768,0.7229365000000001,0.9174155,-0.274228,1.2627264999999999,0.9136055,-0.276418,0.9192555,-1.0500000000000093e-05,-0.001908,1.0807445,1.0500000000000093e-05,0.001908,0.8677465,-0.4368545,-0.030762,1.1479165,-0.4367345,-0.039767,0.8674965,-0.7968945,0.061466,1.1675765,-0.7955344999999999,0.055393
43,1.003889,0.7183790000000001,0.0280494999999999,0.8324140000000001,0.506499,-0.0207025,0.7111740000000001,0.6733389999999999,-0.1690245,1.168694,0.510319,-0.0141255,1.282444,0.6890689999999999,-0.1749645,0.723894,0.915099,-0.2831745,1.261554,0.909319,-0.2844045,0.918849,5.999999999999062e-06,-0.0019725,1.081151,-5.999999999999062e-06,0.0019725,0.8652839999999999,-0.428481,-0.0470275,1.150794,-0.428091,-0.0547444999999999,0.867754,-0.788851,0.0553074999999999,1.168474,-0.7877810000000001,0.0495035
44,1.0044305,0.7155825,0.0183405,0.8330955,0.5044025,-0.0275575,0.7114255,0.6710825,-0.1774425,1.1687954999999999,0.5085325,-0.0208404999999999,1.2817455,0.6866924999999999,-0.1827925,0.7250055,0.9129025,-0.2926424999999999,1.2602455,0.9061625,-0.2928524999999999,0.9184485,-4.550000000000387e-05,-0.0020415,1.0815515,4.549999999999693e-05,0.0020415,0.8627255,-0.4186175,-0.0630715,1.1536855,-0.4178375,-0.0698725,0.8679755,-0.7798975,0.0487364999999999,1.1693055,-0.7785675000000001,0.0431444999999999
45,1.0048534999999998,0.7122780000000001,0.0082045,0.8337375,0.501748,-0.0347035,0.7115675,0.668358,-0.1863015,1.1688375,0.506258,-0.0279025,1.2808275,0.684158,-0.1911015,0.7261575,0.910088,-0.3024314999999999,1.2585575,0.902968,-0.3018814999999999,0.9181265000000001,-0.000119,-0.0021215,1.0818735,0.000119,0.0021215,0.8603875,-0.407672,-0.0785815,1.1564275,-0.406522,-0.0846985,0.8681775,-0.769702,0.0419315,1.1700974999999998,-0.768152,0.0365115
46,1.0053509999999999,0.7088814999999999,-0.0022255,0.834436,0.4993115,-0.0419945,0.7117359999999999,0.6657915000000001,-0.1952394999999999,1.168846,0.5039115000000001,-0.0352325,1.279836,0.6811514999999999,-0.1995195,0.7274860000000001,0.9075115,-0.3125995,1.256576,0.9004915,-0.3112895,0.917707,-0.0001594999999999,-0.0023495,1.082293,0.0001595,0.0023495,0.858406,-0.3946985,-0.0931144999999999,1.1592559999999998,-0.3937485,-0.0988145,0.868416,-0.7576084999999999,0.0349135,1.1709159999999998,-0.7559085000000001,0.0298285
47,1.0056459999999998,0.705402,-0.0118055,0.83497,0.4977819999999999,-0.0486155,0.71173,0.663672,-0.2037985,1.16834,0.501822,-0.0424105,1.2786,0.678272,-0.2074885,0.7287399999999999,0.904402,-0.3220584999999999,1.25442,0.897452,-0.3205185,0.9173830000000001,-0.00031,-0.0023175,1.082617,0.00031,0.0023175,0.85673,-0.3823379999999999,-0.1054775,1.1613399999999998,-0.3813879999999999,-0.1107285,0.86854,-0.7453679999999999,0.0283124999999999,1.17147,-0.7435579999999999,0.0235975
48,1.0058615,0.702505,-0.0210885,0.8354915,0.495235,-0.0552825,0.7116615,0.6624450000000001,-0.2126445,1.1677315,0.499605,-0.0496435,1.2774215,0.676625,-0.2159444999999999,0.7299115,0.900625,-0.3318145,1.2523914999999999,0.897715,-0.3303145,0.9171165,-0.0003399999999999,-0.0024224999999999,1.0828834999999999,0.00034,0.0024225,0.8549215,-0.369925,-0.1173145,1.1633115,-0.368295,-0.1218145,0.8686515,-0.732155,0.0217595,1.1718215,-0.730015,0.0173145
49,1.005706,0.69943,-0.030211,0.835445,0.49261,-0.061916,0.7111350000000001,0.6609,-0.221892,1.166565,0.49721,-0.05693,1.275535,0.6737,-0.224342,0.730765,0.89872,-0.341542,1.249655,0.8971,-0.340622,0.917106,-0.0004399999999999,-0.002472,1.082894,0.00044,0.0024719999999999,0.852475,-0.35794,-0.128422,1.164845,-0.3558199999999999,-0.132172,0.868385,-0.71824,0.0154479999999999,1.171785,-0.7158199999999999,0.011173
50,1.0053035,0.696155,-0.03891,0.8353785,0.489155,-0.068637,0.7105385,0.659355,-0.230916,1.1652885,0.494255,-0.063832,1.2735685,0.671435,-0.232526,0.7316484999999999,0.895275,-0.351626,1.2468285,0.893335,-0.350916,0.9170815,-0.0008249999999999,-0.0025309999999999,1.0829185,0.000825,0.002531,0.8499585000000001,-0.3464049999999999,-0.138736,1.1666785,-0.343605,-0.1417759999999999,0.8680885,-0.704005,0.009849,1.1717285,-0.7013849999999999,0.005552
51,1.004775,0.6938449999999999,-0.0515485,0.835172,0.4868249999999999,-0.0793585,0.709882,0.658145,-0.2444075,1.163912,0.492105,-0.0746295,1.271502,0.669725,-0.2452275,0.732572,0.8931749999999999,-0.3659075,1.243862,0.889905,-0.3653774999999999,0.917039,-0.0010449999999999,-0.0028435,1.082961,0.0010449999999999,0.0028434999999999,0.847442,-0.333815,-0.1524775,1.168292,-0.330465,-0.1543775,0.867962,-0.6892550000000001,0.0002884999999999,1.171542,-0.685855,-0.0040565
52,1.0039355,0.6930000000000001,-0.0666355,0.8342995,0.48765,-0.0914135,0.7091395,0.65723,-0.2597415,1.1620295,0.4902299999999999,-0.0874235,1.2686294999999999,0.66829,-0.2605515,0.7333195,0.89119,-0.3830215,1.2402795,0.89065,-0.3825515,0.9169165,-0.0011099999999999,-0.0027454999999999,1.0830835,0.0011099999999999,0.0027454999999999,0.8444195,-0.31781,-0.1724514999999999,1.1715594999999999,-0.31395,-0.1728315,0.8677495,-0.67071,-0.0108805,1.1711595,-0.6666,-0.0151344999999999
53,1.0031249999999998,0.6925250000000001,-0.081755,0.833486,0.484605,-0.103798,0.708536,0.656175,-0.275009,1.1601759999999999,0.487355,-0.099993,1.265966,0.667215,-0.275589,0.7336860000000001,0.889775,-0.400499,1.236666,0.890685,-0.399989,0.916701,-0.0011849999999999,-0.002589,1.083299,0.0011849999999999,0.0025889999999999,0.841736,-0.301145,-0.192369,1.175166,-0.296545,-0.191469,0.867626,-0.651065,-0.021697,1.170866,-0.6465050000000001,-0.025854
54,1.0022845,0.6913750000000001,-0.0969005,0.8327115,0.483005,-0.1158605,0.7080815,0.654935,-0.2900405,1.1583215,0.485275,-0.1123655,1.2634215,0.6656150000000001,-0.2905505,0.7341715,0.889275,-0.4181205,1.2331715,0.889015,-0.4175405,0.9165025,-0.0012849999999999,-0.0024355,1.0834975,0.001285,0.0024354999999999,0.8393015,-0.284695,-0.2118505,1.1789115,-0.278865,-0.2097905,0.8677815,-0.631455,-0.0322165,1.1706215,-0.6264149999999999,-0.0362375
55,1.0011679999999998,0.689075,-0.1118815,0.8315319999999999,0.4818949999999999,-0.1275105,0.707422,0.6516949999999999,-0.3054544999999999,1.156212,0.483055,-0.1244185,1.260622,0.663435,-0.3057745,0.734542,0.8875249999999999,-0.4357145,1.229872,0.8869450000000001,-0.4346545,0.9164150000000001,-0.001345,-0.0020815,1.0835849999999998,0.0013449999999999,0.0020815,0.8367020000000001,-0.269305,-0.2309045,1.182522,-0.261935,-0.2275645,0.867882,-0.6131249999999999,-0.0422415,1.170152,-0.607375,-0.0462345
56,1.000131,0.6873,-0.127024,0.830202,0.47845,-0.139697,0.7068920000000001,0.64908,-0.320773,1.154142,0.47956,-0.137115,1.257912,0.66099,-0.321053,0.735052,0.88264,-0.454233,1.226732,0.8842,-0.452593,0.916363,-0.00141,-0.0020049999999999,1.083637,0.0014099999999999,0.002005,0.834322,-0.253,-0.250083,1.186502,-0.24435,-0.245053,0.868092,-0.59434,-0.0521399999999999,1.169762,-0.58787,-0.0561169999999999
57,0.9993930000000001,0.68433,-0.1418525,0.829096,0.47622,-0.1513075,0.706446,0.64558,-0.3356795,1.152326,0.4769,-0.1492455,1.255356,0.65786,-0.3361495,0.7356860000000001,0.87888,-0.4717295,1.224016,0.8811,-0.4697595,0.9164140000000001,-0.0017699999999999,-0.0017835,1.083586,0.0017699999999999,0.0017834999999999,0.832616,-0.2369799999999999,-0.2682995,1.190976,-0.22796,-0.2620695,0.868586,-0.57676,-0.0616085,1.169546,-0.56959,-0.0655675
58,0.9983860000000001,0.6829,-0.157322,0.827693,0.47368,-0.163453,0.7058530000000001,0.64327,-0.350742,1.150143,0.4743799999999999,-0.162347,1.252733,0.6565799999999999,-0.352272,0.735803,0.87657,-0.489652,1.221093,0.8788499999999999,-0.4875819999999999,0.91648,-0.00191,-0.001558,1.08352,0.0019099999999999,0.0015579999999999,0.8305629999999999,-0.2190700000000001,-0.286972,1.195163,-0.20974,-0.279412,0.868773,-0.5580400000000001,-0.071558,1.168923,-0.55005,-0.075584
59,0.997337,0.6814,-0.172563,0.826343,0.4719599999999999,-0.174913,0.705293,0.6402599999999999,-0.365075,1.1480730000000001,0.47219,-0.175356,1.250073,0.65477,-0.368395,0.735703,0.87462,-0.507215,1.218143,0.87776,-0.505285,0.916516,-0.0019,-0.001325,1.083484,0.0018999999999999,0.0013249999999999,0.828273,-0.20156,-0.304895,1.1990029999999998,-0.19203,-0.296405,0.8688130000000001,-0.53974,-0.081435,1.168153,-0.53091,-0.085421
60,0.9966755,0.67833,-0.1830609999999999,0.8253675,0.4692699999999999,-0.181638,0.7050175000000001,0.63609,-0.3741799999999999,1.1462475,0.46972,-0.183613,1.2478375,0.65132,-0.37993,0.7360375,0.87032,-0.51989,1.2157575,0.87505,-0.51821,0.9164705,-0.00185,-0.0007199999999999,1.0835295,0.00185,0.00072,0.8262775,-0.18527,-0.31792,1.2033875,-0.17568,-0.30878,0.8691875,-0.52223,-0.086654,1.1677375,-0.51313,-0.0905199999999999
61,0.9964425000000001,0.6739649999999999,-0.191086,0.8252275,0.463635,-0.186639,0.7048875,0.630845,-0.38087,1.1448075,0.4650649999999999,-0.189908,1.2467275,0.647105,-0.3886199999999999,0.7365575,0.864435,-0.5298700000000001,1.2141575,0.870145,-0.5287700000000001,0.9164005,-0.001865,-0.00057,1.0835995,0.001865,0.00057,0.8249675,-0.172105,-0.32381,1.2060675,-0.162865,-0.31467,0.8697475,-0.508365,-0.090034,1.1674975,-0.499235,-0.094106
62,0.996329,0.66793,-0.199499,0.825168,0.46186,-0.191665,0.7050780000000001,0.62349,-0.38771,1.143388,0.46202,-0.196726,1.245758,0.6385799999999999,-0.39808,0.737088,0.85664,-0.54079,1.212688,0.86268,-0.54067,0.916386,-0.0018,-0.0003599999999999,1.083614,0.0018,0.0003599999999999,0.823428,-0.15835,-0.32929,1.208418,-0.15,-0.32017,0.8704180000000001,-0.49437,-0.093995,1.167288,-0.48556,-0.098333
63,0.9962165,0.6627799999999999,-0.207783,0.8250735000000001,0.458732,-0.197117,0.7054834999999999,0.61649,-0.394645,1.1420135,0.457549,-0.203624,1.2448934999999999,0.63152,-0.407365,0.7376834999999999,0.84807,-0.552015,1.2115135,0.8555999999999999,-0.552735,0.9163505,-0.0015499999999999,-0.0001349999999999,1.0836495,0.0015499999999999,0.0001349999999999,0.8218035000000001,-0.14483,-0.334465,1.2105435,-0.1375299999999999,-0.325295,0.8706635,-0.48061,-0.098186,1.1670535,-0.4722100000000001,-0.1024959999999999
64,0.996198,0.65872,-0.215746,0.825079,0.45453,-0.202838,0.706259,0.61065,-0.40112,1.140849,0.452967,-0.210551,1.244319,0.62475,-0.41661,0.738469,0.8389300000000001,-0.5627800000000001,1.210599,0.84772,-0.56469,0.916058,-0.0013599999999999,0.00014,1.083942,0.00136,-0.00014,0.820079,-0.1318999999999999,-0.33923,1.212669,-0.1251999999999999,-0.33019,0.8708089999999999,-0.4665499999999999,-0.102393,1.1669189999999998,-0.45897,-0.106806
65,0.9961815,0.65279,-0.223092,0.8252635,0.451783,-0.207627,0.7072835,0.60371,-0.407345,1.1399735,0.449241,-0.216033,1.2439434999999999,0.61741,-0.425515,0.7391335,0.8331299999999999,-0.5719350000000001,1.2098235,0.8390299999999999,-0.575365,0.9158545,-0.00103,0.0004849999999999,1.0841455,0.0010299999999999,-0.000485,0.8183335,-0.1195,-0.343045,1.2145135,-0.11377,-0.334025,0.8708735000000001,-0.45363,-0.106132,1.1668034999999999,-0.44687,-0.110693
66,0.9963590000000001,0.64772,-0.2301309999999999,0.825518,0.449295,-0.212281,0.708448,0.59677,-0.41329,1.139138,0.445367,-0.221395,1.243798,0.60938,-0.43356,0.739588,0.82525,-0.58151,1.209378,0.83004,-0.5860099999999999,0.915714,-0.00067,0.00082,1.084286,0.00067,-0.0008199999999999,0.8164280000000002,-0.1072599999999999,-0.3467599999999999,1.216228,-0.10235,-0.3377799999999999,0.8709080000000001,-0.4412,-0.1098669999999999,1.166698,-0.4349599999999999,-0.1144419999999999
67,0.996631,0.641445,-0.23641,0.82613,0.445763,-0.216418,0.70976,0.589275,-0.4187349999999999,1.13849,0.439523,-0.225437,1.24378,0.600835,-0.440525,0.73987,0.815625,-0.590515,1.20928,0.819715,-0.596085,0.915558,-0.0002949999999999,0.001175,1.084442,0.000295,-0.0011749999999999,0.8146800000000001,-0.0967549999999999,-0.349985,1.21771,-0.0922649999999999,-0.341035,0.8709200000000001,-0.430385,-0.1131119999999999,1.16658,-0.4245749999999999,-0.117694
68,0.9968225000000001,0.63632,-0.242159,0.8269065,0.443778,-0.22084,0.7109464999999999,0.58316,-0.42464,1.1378465,0.4356029999999999,-0.229369,1.2436065,0.59351,-0.44728,0.7404565000000001,0.80745,-0.59907,1.2090865,0.81115,-0.6058600000000001,0.9156235,0.0001099999999999,0.0014699999999999,1.0843765,-0.0001099999999999,-0.0014699999999999,0.8129765,-0.0851699999999999,-0.35322,1.2189665,-0.08127,-0.34447,0.8707765000000001,-0.41897,-0.116687,1.1663065,-0.41356,-0.121273
69,0.9970530000000001,0.6316,-0.248145,0.8277909999999999,0.441323,-0.225337,0.712251,0.57816,-0.4306,1.137381,0.431935,-0.233352,1.243431,0.58721,-0.45344,0.740971,0.80016,-0.60753,1.208871,0.80242,-0.61529,0.9157490000000001,0.00028,0.0017099999999999,1.0842509999999999,-0.00028,-0.00171,0.811271,-0.0739299999999999,-0.35628,1.220041,-0.07018,-0.34796,0.870601,-0.40778,-0.120195,1.166061,-0.4027499999999999,-0.124907
70,0.9973405,0.6269899999999999,-0.25306,0.8286585000000001,0.43995,-0.229377,0.7134685000000001,0.5728599999999999,-0.43611,1.1371785,0.429853,-0.236733,1.2433285,0.58002,-0.45925,0.7415585,0.79325,-0.61506,1.2087085,0.7935,-0.62348,0.9156675,0.0005499999999999,0.00189,1.0843325,-0.0005499999999999,-0.00189,0.8096585000000001,-0.06394,-0.35831,1.2211485,-0.06026,-0.3504,0.8704885,-0.3977799999999999,-0.123098,1.1658485,-0.39316,-0.127949
71,0.9977870000000001,0.623645,-0.257175,0.829688,0.4391009999999999,-0.232842,0.714518,0.570445,-0.4413249999999999,1.137248,0.4274759999999999,-0.239603,1.243628,0.577885,-0.464105,0.742178,0.788535,-0.621005,1.208778,0.787635,-0.629945,0.915604,0.0007549999999999,0.002035,1.084396,-0.000755,-0.002035,0.808558,-0.0542949999999999,-0.359355,1.222368,-0.0506349999999999,-0.351975,0.870588,-0.388205,-0.125388,1.165868,-0.383925,-0.13044
72,0.9983770000000001,0.62051,-0.26059,0.8308150000000001,0.438151,-0.235734,0.7154050000000001,0.567772,-0.44587,1.1372849999999999,0.425828,-0.241818,1.244055,0.57385,-0.46841,0.742715,0.7838,-0.626,1.208755,0.7817000000000001,-0.63539,0.915412,0.0008799999999999,0.0021899999999999,1.084588,-0.0008799999999999,-0.0021899999999999,0.807435,-0.04539,-0.36005,1.223495,-0.0418399999999999,-0.35307,0.870645,-0.37947,-0.12733,1.165895,-0.3755199999999999,-0.13256
73,0.9989655000000001,0.6165700000000001,-0.26366,0.8318795000000001,0.437557,-0.238182,0.7161195,0.5642,-0.44986,1.1373695,0.42442,-0.243759,1.2445595,0.569268,-0.47178,0.7432595,0.77857,-0.63063,1.2088195,0.77542,-0.64043,0.9152215,0.00096,0.0022699999999999,1.0847785,-0.00096,-0.0022699999999999,0.8065495,-0.03751,-0.36061,1.2244595,-0.03402,-0.35392,0.8706895,-0.37175,-0.12897,1.1659395,-0.3680299999999999,-0.134303
74,0.9998955,0.61439,-0.2664849999999999,0.8335805000000001,0.436896,-0.240614,0.7170805,0.5611470000000001,-0.453465,1.1377305,0.424544,-0.245774,1.2453205,0.5651,-0.474655,0.7442105,0.77386,-0.635005,1.2093405,0.77122,-0.645275,0.9150925,0.00092,0.002315,1.0849075,-0.0009199999999999,-0.0023149999999999,0.8061305,-0.0298699999999999,-0.361175,1.2256205,-0.02634,-0.354595,0.8710105,-0.36414,-0.1306629999999999,1.1662305,-0.3606,-0.1360859999999999
75,1.000475,0.61234,-0.268795,0.834915,0.436188,-0.243338,0.717625,0.559138,-0.457145,1.137735,0.422859,-0.247643,1.245655,0.562121,-0.477795,0.744845,0.77018,-0.639195,1.209375,0.76703,-0.650385,0.9152510000000001,0.00119,0.0023149999999999,1.084749,-0.00119,-0.002315,0.8057450000000002,-0.0220599999999999,-0.361775,1.226165,-0.0185899999999999,-0.355215,0.870925,-0.3565199999999999,-0.132654,1.166115,-0.35309,-0.138348
76,1.0010439999999998,0.610285,-0.27091,0.835928,0.436759,-0.245687,0.7181580000000001,0.55653,-0.46035,1.137838,0.4236,-0.249448,1.245918,0.558744,-0.4806999999999999,0.745528,0.7659050000000001,-0.6430400000000001,1.209308,0.7627349999999999,-0.6550199999999999,0.915423,0.0012949999999999,0.0022,1.084577,-0.0012949999999999,-0.0021999999999999,0.805498,-0.0152949999999999,-0.36231,1.226418,-0.011915,-0.35546,0.870838,-0.350195,-0.1343849999999999,1.165988,-0.346695,-0.14042
77,1.0016075,0.6074750000000001,-0.27293,0.8368815000000001,0.4369920000000001,-0.247651,0.7186715,0.5529330000000001,-0.4631,1.1379615,0.4232490000000001,-0.250787,1.2460615,0.5544070000000001,-0.48335,0.7463915,0.7600650000000001,-0.64678,1.2091115000000001,0.7568450000000001,-0.6593800000000001,0.9156235,0.001585,0.0021199999999999,1.0843765,-0.0015849999999999,-0.00212,0.8052315000000001,-0.0103749999999999,-0.36268,1.2265115,-0.0070949999999998,-0.35538,0.8706915,-0.3456849999999999,-0.135812,1.1658215,-0.3421449999999999,-0.142124
78,1.0023985,0.605085,-0.275665,0.8378295,0.438459,-0.2500799999999999,0.7196395,0.549025,-0.466185,1.1381994999999998,0.42356,-0.252687,1.2462695,0.550497,-0.4867249999999999,0.7474095000000001,0.7557050000000001,-0.651145,1.2090395,0.751715,-0.664385,0.9157915,0.0017249999999999,0.002195,1.0842085,-0.0017249999999999,-0.002195,0.8050995000000001,-0.0054349999999999,-0.3627249999999999,1.2265995,-0.0023649999999999,-0.3554549999999999,0.8706995000000001,-0.341095,-0.137853,1.1658195,-0.337655,-0.1444
79,1.0032915,0.6033729999999999,-0.278035,0.8388475,0.43971,-0.252274,0.7206975,0.546063,-0.469005,1.1385475,0.424671,-0.254657,1.2465975,0.547826,-0.489875,0.7485075,0.751845,-0.655295,1.2091075,0.746945,-0.6691549999999999,0.9161065,0.0017449999999999,0.0022949999999999,1.0838935,-0.0017449999999999,-0.002295,0.8051275,-0.0009149999999999,-0.362795,1.2268175000000001,0.001955,-0.355385,0.8708875,-0.3369649999999999,-0.139862,1.1659875,-0.3334749999999999,-0.146536
80,1.004103,0.601487,-0.27988,0.839607,0.440209,-0.25391,0.721597,0.542269,-0.47098,1.138717,0.425736,-0.256283,1.2468569999999999,0.54395,-0.4925,0.749417,0.746855,-0.65875,1.209137,0.7410950000000001,-0.6732499999999999,0.916369,0.0017749999999999,0.0022899999999999,1.083631,-0.0017749999999999,-0.00229,0.8050470000000001,0.0012149999999999,-0.36295,1.226997,0.004125,-0.35503,0.871047,-0.3349649999999999,-0.14136,1.166127,-0.331415,-0.148138
81,1.0046404999999998,0.600252,-0.281555,0.8400325000000001,0.441314,-0.255376,0.7223325,0.538943,-0.472855,1.1386425,0.427138,-0.257719,1.2469225,0.5409309999999999,-0.494885,0.7500025,0.74221,-0.661755,1.2089424999999998,0.73688,-0.677085,0.9165305,0.0017599999999999,0.002285,1.0834695,-0.0017599999999999,-0.002285,0.8048925,0.00273,-0.363005,1.2270525,0.00568,-0.354745,0.8710825,-0.3336099999999999,-0.142658,1.1661225,-0.32998,-0.149562
82,1.0051375,0.600091,-0.28321,0.8403615,0.4422750000000001,-0.256732,0.7229415,0.537186,-0.47432,1.1384715,0.4281330000000001,-0.259028,1.2467915,0.5393600000000001,-0.49702,0.7503915,0.739755,-0.66438,1.2086915,0.7341250000000001,-0.6805700000000001,0.9167205,0.001705,0.0022899999999999,1.0832795,-0.0017049999999999,-0.00229,0.8047315000000002,0.003835,-0.36299,1.2270915,0.0066250000000001,-0.35452,0.8710815000000001,-0.3327349999999999,-0.143765,1.1660215,-0.3291449999999999,-0.150827
83,1.0057755,0.600091,-0.28457,0.8405835,0.4422750000000001,-0.257737,0.7236335,0.5362230000000001,-0.47526,1.1386435,0.4281330000000001,-0.260148,1.2469035,0.5393600000000001,-0.4987,0.7508334999999999,0.738615,-0.66658,1.2086735,0.7331550000000001,-0.68331,0.9167215,0.001705,0.0023499999999999,1.0832785,-0.0017049999999999,-0.0023499999999999,0.8047934999999999,0.003615,-0.36263,1.2273635,0.006505,-0.35457,0.8712335,-0.3327349999999999,-0.144496,1.1661435,-0.329375,-0.151628
84,1.0063829999999998,0.600091,-0.2853,0.8406020000000001,0.4422750000000001,-0.258328,0.7241420000000001,0.5362230000000001,-0.4757099999999999,1.138752,0.4281810000000001,-0.2608229999999999,1.247022,0.5393600000000001,-0.49987,0.7511920000000001,0.738615,-0.6682699999999999,1.2085919999999999,0.7331550000000001,-0.68549,0.91678,0.001705,0.0025,1.08322,-0.0017049999999999,-0.0025,0.805002,0.003545,-0.36197,1.227652,0.006365,-0.35475,0.871332,-0.3327349999999999,-0.1447919999999999,1.166202,-0.3295949999999999,-0.152
85,1.0068065,0.600091,-0.2854299999999999,0.8405865,0.4422750000000001,-0.258496,0.7244065,0.5362230000000001,-0.4757099999999999,1.1387364999999998,0.428481,-0.2610599999999999,1.2471165,0.5393600000000001,-0.5005,0.7512565,0.738615,-0.66943,1.2083865,0.7331550000000001,-0.68698,0.9169754999999999,0.001705,0.0025,1.0830245,-0.0017049999999999,-0.0025,0.8050865,0.003535,-0.3611299999999999,1.2277665,0.006225,-0.3546399999999999,0.8712465,-0.3327449999999999,-0.1446819999999999,1.1661165,-0.3298249999999999,-0.152004
86,1.0066339999999998,0.600507,-0.28547,0.8400230000000001,0.44228,-0.258561,0.724273,0.5345030000000001,-0.47567,1.138193,0.428126,-0.261218,1.246933,0.538265,-0.50143,0.750493,0.7368950000000001,-0.67037,1.207973,0.7314350000000001,-0.68838,0.9170850000000002,0.001595,0.0025,1.0829149999999998,-0.001595,-0.0025,0.804603,0.001735,-0.36018,1.227263,0.0041149999999999,-0.35456,0.870613,-0.334485,-0.144553,1.165483,-0.3317949999999999,-0.151981
87,1.0061745,0.602321,-0.28532,0.8394295,0.441812,-0.258492,0.7239195,0.532737,-0.47567,1.1373795,0.428374,-0.26191,1.2466695,0.538707,-0.50227,0.7495795000000001,0.735285,-0.67109,1.2077795,0.730135,-0.6892199999999999,0.9169785,0.001395,0.0025,1.0830215,-0.001395,-0.0025,0.8039195,-0.0015849999999999,-0.35983,1.2264295,0.000475,-0.35431,0.8697695,-0.337705,-0.14443,1.1646395,-0.335205,-0.151929
88,1.005422,0.6035090000000001,-0.284875,0.838497,0.439867,-0.258388,0.723217,0.530266,-0.475435,1.137007,0.427826,-0.262625,1.246317,0.537493,-0.503025,0.748337,0.732485,-0.671815,1.207447,0.7278950000000001,-0.689255,0.91673,0.0010149999999999,0.0025749999999999,1.08327,-0.0010149999999999,-0.0025749999999999,0.802927,-0.0089249999999999,-0.359335,1.225207,-0.0072449999999999,-0.3538449999999999,0.868537,-0.345125,-0.144202,1.163497,-0.3427949999999999,-0.151777
89,1.0051935,0.606765,-0.28399,0.8381725000000001,0.436932,-0.257896,0.7230925,0.529895,-0.4745,1.1372925,0.426105,-0.262892,1.2467725,0.537535,-0.50254,0.7475425,0.731555,-0.67132,1.2078425,0.728745,-0.68877,0.9162035,0.000715,0.0025199999999999,1.0837965,-0.000715,-0.0025199999999999,0.8024625000000001,-0.017105,-0.3584,1.2245025,-0.015645,-0.35273,0.8678425000000001,-0.3533349999999999,-0.143585,1.1628825,-0.351205,-0.151232
90,1.0050885,0.6094,-0.28234,0.8382155,0.435899,-0.256111,0.7230155,0.529409,-0.47237,1.1379655,0.426235,-0.261781,1.2480955,0.537494,-0.5009600000000001,0.7469955000000001,0.7314700000000001,-0.66967,1.2089155,0.72919,-0.68714,0.9159535,0.00069,0.00256,1.0840465,-0.0006899999999999,-0.00256,0.8023155000000001,-0.0297399999999999,-0.35623,1.2240855,-0.0282799999999999,-0.35097,0.8674455,-0.3658099999999999,-0.1418249999999999,1.1625455,-0.3638399999999999,-0.149504
91,1.005224,0.6128800000000001,-0.2804649999999999,0.838469,0.434529,-0.254148,0.7229990000000002,0.529667,-0.4697449999999999,1.138879,0.425956,-0.260163,1.249609,0.5379820000000001,-0.4990949999999999,0.746399,0.73243,-0.667785,1.210379,0.73149,-0.685265,0.915755,0.00055,0.0025449999999999,1.084245,-0.0005499999999999,-0.0025449999999999,0.802089,-0.0439499999999999,-0.353835,1.223349,-0.0426199999999999,-0.349075,0.867009,-0.3799099999999999,-0.139863,1.162189,-0.37815,-0.147515
92,1.0057065,0.6166149999999999,-0.277695,0.8389425,0.4335949999999999,-0.252096,0.7228725,0.52984,-0.466615,1.1399525,0.4262459999999999,-0.258003,1.2512325,0.5391199999999999,-0.4968249999999999,0.7460725,0.7339149999999999,-0.665265,1.2123525,0.7310349999999999,-0.682145,0.9156375,0.0006049999999999,0.0022449999999999,1.0843625000000001,-0.000605,-0.0022449999999999,0.8023125,-0.061475,-0.350565,1.2219125,-0.059925,-0.346305,0.8666125,-0.397335,-0.137505,1.1618625,-0.395745,-0.145125
93,1.0064475,0.62281,-0.273025,0.8398875,0.433832,-0.249274,0.7228075,0.5345,-0.463595,1.1413675,0.428651,-0.254916,1.2534275,0.54453,-0.492785,0.7460175,0.7400599999999999,-0.661425,1.2152975,0.7364299999999999,-0.678025,0.9155595,0.0005499999999999,0.0020249999999999,1.0844405,-0.0005499999999999,-0.0020249999999999,0.8031775,-0.08178,-0.345665,1.2196575,-0.07959,-0.342395,0.8663974999999999,-0.4189799999999999,-0.134404,1.1618775000000001,-0.41748,-0.142049
94,1.0069204999999999,0.62989,-0.267515,0.8407785,0.435539,-0.246046,0.7226285,0.53904,-0.460035,1.1427185,0.430342,-0.25156,1.2554285,0.55055,-0.487955,0.7456785,0.74632,-0.656495,1.2182484999999998,0.7434099999999999,-0.672415,0.9155125,0.0005899999999999,0.0017949999999999,1.0844875,-0.00059,-0.0017949999999999,0.8043585,-0.10345,-0.339675,1.2166884999999998,-0.1006,-0.337555,0.8659585,-0.44258,-0.131031,1.1617585,-0.44129,-0.138679
95,1.00732,0.636805,-0.260955,0.841528,0.4392239999999999,-0.2420189999999999,0.722398,0.547325,-0.4558149999999999,1.1445779999999999,0.434928,-0.247558,1.2572079999999999,0.5575749999999999,-0.482465,0.745288,0.756265,-0.650865,1.2208979999999998,0.751705,-0.665535,0.915477,0.000805,0.001535,1.084523,-0.000805,-0.001535,0.8061780000000001,-0.124695,-0.332545,1.213108,-0.121605,-0.3314749999999999,0.865438,-0.467315,-0.127043,1.161608,-0.465695,-0.134809
96,1.007376,0.6439349999999999,-0.253108,0.841515,0.443331,-0.236848,0.719515,0.5559149999999999,-0.450725,1.146185,0.4397139999999999,-0.242484,1.2585950000000001,0.564915,-0.475705,0.7445650000000001,0.7653749999999999,-0.644135,1.223225,0.759265,-0.656425,0.915468,0.0008249999999999,0.0013249999999999,1.084532,-0.000825,-0.001325,0.808075,-0.1466549999999999,-0.324365,1.208615,-0.143095,-0.324155,0.863265,-0.492885,-0.125446,1.162005,-0.491295,-0.132221
97,1.007479,0.6527400000000001,-0.244425,0.841503,0.44858,-0.23138,0.7165429999999999,0.56554,-0.444505,1.147303,0.44628,-0.236639,1.259823,0.57596,-0.468215,0.743923,0.77793,-0.635595,1.225813,0.7688900000000001,-0.645025,0.915442,0.00082,0.0009749999999999,1.084558,-0.0008199999999999,-0.000975,0.810553,-0.1663799999999999,-0.315305,1.203603,-0.1619199999999999,-0.315645,0.8611930000000001,-0.5170699999999999,-0.123664,1.162633,-0.51535,-0.129308
98,1.0081514999999999,0.66083,-0.23478,0.8417795,0.45482,-0.225525,0.7142695,0.57438,-0.43763,1.1489095,0.454,-0.230188,1.2611094999999999,0.58638,-0.45866,0.7437695000000001,0.7904100000000001,-0.62574,1.2285994999999998,0.7803800000000001,-0.63288,0.9154865000000001,0.00075,0.00092,1.0845135,-0.0007499999999999,-0.00092,0.8138395,-0.1865599999999999,-0.30517,1.1986995,-0.1815099999999999,-0.30571,0.8595995,-0.54341,-0.121511,1.1637795,-0.54125,-0.126212
99,1.0092405,0.6693100000000001,-0.224067,0.8424165,0.45981,-0.218978,0.7122765000000001,0.5842499999999999,-0.43118,1.1512464999999998,0.45957,-0.22311,1.2626765,0.59781,-0.4478,0.7440265000000001,0.80403,-0.61494,1.2315865,0.79312,-0.61991,0.9156664999999999,0.00045,0.0006999999999999,1.0843335,-0.00045,-0.0007,0.8178165,-0.2055799999999999,-0.29333,1.1941065,-0.19994,-0.29411,0.8585365,-0.5694999999999999,-0.117852,1.1652865,-0.56687,-0.121653
100,1.0104305,0.675955,-0.212038,0.8432255,0.464545,-0.211827,0.7116955,0.594865,-0.423175,1.1535855,0.465245,-0.215412,1.2639955,0.610255,-0.436125,0.7444455000000001,0.8167650000000001,-0.602995,1.2343655,0.805855,-0.605975,0.9162005,0.000345,0.0004849999999999,1.0837995,-0.000345,-0.000485,0.8219855,-0.224405,-0.280075,1.1899354999999998,-0.218315,-0.281005,0.8576655,-0.595665,-0.113233,1.1670055,-0.592695,-0.116289
101,1.011217,0.680795,-0.199973,0.843782,0.469235,-0.204872,0.7109920000000001,0.606835,-0.41506,1.155682,0.468745,-0.207855,1.2648519999999999,0.623545,-0.4244599999999999,0.744262,0.831805,-0.59129,1.236552,0.825045,-0.59252,0.916462,0.000175,0.0005,1.083538,-0.0001749999999999,-0.0005,0.825692,-0.2403549999999999,-0.26666,1.186162,-0.2342949999999999,-0.26834,0.857192,-0.619115,-0.107529,1.167982,-0.615985,-0.1099489999999999
102,1.011367,0.68188,-0.187393,0.843588,0.47446,-0.197608,0.710008,0.61612,-0.40576,1.157398,0.47304,-0.199636,1.2649979999999998,0.6318699999999999,-0.41289,0.743448,0.8436400000000001,-0.57765,1.237228,0.8361,-0.5773900000000001,0.916628,-8.999999999997899e-05,0.0004699999999999,1.083372,9.000000000000674e-05,-0.00047,0.829098,-0.25554,-0.25103,1.182308,-0.2494299999999999,-0.25318,0.856548,-0.64135,-0.100012,1.168188,-0.6374299999999999,-0.102174
103,1.0115299999999998,0.68165,-0.17488,0.843379,0.4778799999999999,-0.190142,0.7093790000000001,0.62771,-0.39654,1.159179,0.47724,-0.191346,1.265309,0.64148,-0.4009999999999999,0.7426190000000001,0.858,-0.56396,1.237659,0.8461799999999999,-0.56206,0.9166799999999999,-0.0004099999999999,0.0005399999999999,1.08332,0.0004099999999999,-0.0005399999999999,0.8324790000000001,-0.27556,-0.2349,1.178669,-0.26969,-0.23745,0.8563689999999999,-0.66203,-0.092186,1.168379,-0.65773,-0.094276
104,1.01134,0.67822,-0.1619315,0.8426270000000001,0.48263,-0.1819885,0.708807,0.63676,-0.3873865,1.159997,0.48239,-0.1826135,1.265257,0.65161,-0.3884565,0.741277,0.8685700000000001,-0.5487965,1.237737,0.8538600000000001,-0.5455765,0.9169849999999999,-0.0006399999999999,0.0003414999999999,1.083015,0.00064,-0.0003415,0.835797,-0.2971,-0.2167765,1.174307,-0.29096,-0.2195065,0.855877,-0.6827799999999999,-0.0838985,1.168157,-0.6783399999999999,-0.0858885
105,1.010943,0.678465,-0.1463425,0.841734,0.485795,-0.1715995,0.708534,0.6456850000000001,-0.3740345,1.160574,0.487185,-0.1712525,1.265064,0.659625,-0.3729945,0.7399840000000001,0.8800950000000001,-0.5290745,1.237524,0.865595,-0.5261845,0.917284,-0.0010349999999999,0.0001454999999999,1.082716,0.001035,-0.0001455,0.839454,-0.318895,-0.1934045,1.1696639999999998,-0.312735,-0.1971245,0.855584,-0.703345,-0.0729795,1.167864,-0.698985,-0.0748705
106,1.010506,0.680625,-0.127114,0.84105,0.488345,-0.1573169999999999,0.70836,0.652385,-0.356915,1.16089,0.4908949999999999,-0.156324,1.26481,0.664525,-0.353465,0.7393799999999999,0.8875550000000001,-0.5054449999999999,1.2374,0.874615,-0.504175,0.9176070000000001,-0.0011149999999999,1.8000000000004124e-05,1.082393,0.001115,-1.8000000000004124e-05,0.8441,-0.342735,-0.1631,1.1646999999999998,-0.3373049999999999,-0.1681929999999999,0.8553999999999999,-0.725185,-0.057464,1.16768,-0.721085,-0.059309
107,1.0099545,0.6824920000000001,-0.1088095,0.8401315,0.491092,-0.1430725,0.7081215000000001,0.660312,-0.3388495,1.1610515,0.494632,-0.1418154999999999,1.2642315,0.6719120000000001,-0.3351295,0.7389915,0.8963220000000001,-0.4809495,1.2371915,0.881842,-0.4811895,0.9178375,-0.0012469999999999,-0.0003184999999999,1.0821625,0.0012469999999999,0.0003184999999999,0.8484415,-0.364458,-0.1335704999999999,1.1599215,-0.359238,-0.1399905,0.8551314999999999,-0.744618,-0.0423285,1.1674115,-0.7408079999999999,-0.0441644999999999
108,1.0094965,0.685306,-0.090919,0.8393984999999999,0.492506,-0.129415,0.7103485,0.667916,-0.3199849999999999,1.1608785,0.497896,-0.128102,1.2635785,0.678576,-0.317415,0.7387785,0.904416,-0.456075,1.2368285,0.889276,-0.4582549999999999,0.9180775,-0.001201,-0.000815,1.0819225,0.001201,0.0008149999999999,0.8529385,-0.383364,-0.104692,1.1551784999999999,-0.378344,-0.112789,0.8561084999999999,-0.761024,-0.024134,1.1660485,-0.757934,-0.027091
109,1.008968,0.689202,-0.0732029999999999,0.83862,0.495172,-0.115759,0.71236,0.675202,-0.2998909999999999,1.16075,0.501282,-0.114184,1.26308,0.685502,-0.298191,0.73861,0.913992,-0.4291609999999999,1.2361,0.897892,-0.433011,0.9183860000000001,-0.0011989999999999,-0.001347,1.0816139999999999,0.001199,0.001347,0.85785,-0.399938,-0.075306,1.15036,-0.395228,-0.085313,0.85714,-0.776068,-0.005871,1.16474,-0.7734380000000001,-0.0097229999999999
110,1.008521,0.694732,-0.055818,0.837986,0.497842,-0.101922,0.714236,0.681372,-0.2791789999999999,1.160716,0.506362,-0.100137,1.262746,0.691542,-0.279149,0.738516,0.921442,-0.401269,1.235496,0.903182,-0.406929,0.9187460000000001,-0.001246,-0.0015709999999999,1.081254,0.001246,0.0015709999999999,0.862796,-0.415408,-0.046452,1.145646,-0.411628,-0.0585129999999999,0.858256,-0.790308,0.012584,1.163446,-0.787888,0.008168
111,1.008319,0.701203,-0.0397685,0.837723,0.499133,-0.0890515,0.716323,0.686243,-0.2591215,1.161013,0.508753,-0.0868135,1.2627329999999999,0.6988730000000001,-0.2605315,0.738543,0.927793,-0.3753215,1.235263,0.911203,-0.3819115,0.9191590000000001,-0.0010679999999999,-0.0019584999999999,1.080841,0.0010679999999999,0.0019585,0.8674930000000001,-0.427707,-0.0208404999999999,1.1418229999999998,-0.424737,-0.0349255,0.859533,-0.801287,0.0296104999999999,1.162453,-0.798867,0.0244865
112,1.008145,0.708105,-0.02389,0.8374820000000001,0.500965,-0.0762,0.717122,0.689105,-0.2396229999999999,1.161182,0.5120549999999999,-0.073488,1.262812,0.7043349999999999,-0.241923,0.738542,0.931575,-0.349363,1.235122,0.918695,-0.357363,0.919561,-0.0008509999999999,-0.002175,1.080439,0.000851,0.0021749999999999,0.871762,-0.440015,0.0034649999999999,1.138292,-0.437795,-0.012621,0.860992,-0.811115,0.046188,1.161422,-0.808695,0.040597
113,1.00786,0.717881,-0.0091774999999999,0.837233,0.501121,-0.0641815,0.7178329999999999,0.692241,-0.2209645,1.161363,0.512731,-0.0611704999999999,1.263053,0.708281,-0.2240945,0.738873,0.936541,-0.3247345,1.235033,0.928051,-0.3342645,0.920014,-0.000833,-0.0020734999999999,1.079986,0.000833,0.0020735,0.875103,-0.449969,0.0247595,1.1355529999999998,-0.448659,0.0061625,0.861823,-0.817819,0.0604615,1.160833,-0.815399,0.0545305
114,1.0076255,0.722757,0.002226,0.8371985,0.502757,-0.0554099999999999,0.7182685,0.694507,-0.2064619999999999,1.1615185000000001,0.514447,-0.051657,1.2630585,0.712747,-0.209702,0.7390585000000001,0.940727,-0.305112,1.2350485,0.933277,-0.315172,0.9201975,-0.0005059999999999,-0.0021389999999999,1.0798025,0.0005059999999999,0.002139,0.8774685000000001,-0.459873,0.039754,1.1333785,-0.459983,0.019467,0.8623685,-0.8229029999999999,0.070308,1.1604085,-0.8213429999999999,0.064247
115,1.0074744999999998,0.7249534999999999,0.0092644999999999,0.8371095,0.5051435,-0.0507175,0.7184295,0.6990335,-0.1967305,1.1616895,0.5160534999999999,-0.0462585,1.2630695,0.7186035,-0.1999705,0.7391194999999999,0.9472935,-0.2908805,1.2350895,0.9412035,-0.3003305,0.9203945,-0.0003355,-0.0020225,1.0796055,0.0003354999999999,0.0020224999999999,0.8784895,-0.4608265,0.0466915,1.1322295,-0.4616865,0.0250244999999999,0.8624695,-0.8243665,0.0749175,1.1599995,-0.8232765000000001,0.0690665
116,1.0072969999999999,0.7263045,0.0165219999999999,0.836533,0.5071344999999999,-0.045511,0.718383,0.7015144999999999,-0.187604,1.161603,0.5172245,-0.040547,1.263263,0.7216644999999999,-0.190104,0.7393430000000001,0.9512945,-0.2782139999999999,1.235083,0.9466345,-0.286544,0.920507,-0.0001875,-0.001793,1.079493,0.0001875,0.0017929999999999,0.879273,-0.4616855,0.053146,1.1312529999999998,-0.4632555,0.0303389999999999,0.862533,-0.8257555,0.0796569999999999,1.159573,-0.8247955,0.073992
117,1.007383,0.7267365,0.023044,0.8362740000000001,0.5087465,-0.040493,0.718634,0.7034564999999999,-0.179056,1.1618140000000001,0.5181665,-0.034857,1.2638939999999999,0.7239065,-0.180526,0.739714,0.9535265,-0.266896,1.235424,0.9508165,-0.273606,0.920763,-8.149999999999998e-05,-0.001631,1.079237,8.149999999999998e-05,0.001631,0.879924,-0.4621035,0.058022,1.130994,-0.4643235,0.034681,0.862854,-0.8265235000000001,0.084185,1.159494,-0.8255835,0.078579
118,1.007427,0.7269180000000001,0.0281009999999999,0.835913,0.509658,-0.0363109999999999,0.718793,0.704028,-0.172846,1.161953,0.518868,-0.030028,1.264313,0.7245280000000001,-0.173456,0.7398830000000001,0.954078,-0.258856,1.235673,0.952078,-0.264626,0.920922,-1.599999999999952e-05,-0.0013719999999999,1.079078,1.600000000000039e-05,0.0013719999999999,0.880123,-0.461792,0.061502,1.130923,-0.464602,0.038163,0.863053,-0.8268519999999999,0.087809,1.1594529999999998,-0.825732,0.082136
119,1.007471,0.7271065000000001,0.032574,0.8356870000000001,0.5102665000000001,-0.032628,0.718747,0.7045865,-0.167837,1.162107,0.5193565,-0.0256829999999999,1.264667,0.7248865000000001,-0.1673569999999999,0.7400070000000001,0.9541965,-0.252747,1.235897,0.9532565,-0.257327,0.921048,-1.849999999999942e-05,-0.001295,1.078952,1.8500000000000287e-05,0.0012949999999999,0.880277,-0.4614135,0.06447,1.130847,-0.4648035,0.0411329999999999,0.863227,-0.8271335,0.090786,1.159367,-0.8257835,0.085145
120,1.0074515,0.7272685,0.0363075,0.8355375,0.5106085,-0.0297225,0.7186475,0.7050285000000001,-0.1637635,1.1623375,0.5197585,-0.0220135,1.2650875,0.7248885,-0.1624735,0.7400975000000001,0.9543085,-0.2479335,1.2363175,0.9540685,-0.2515735,0.9211585,-2.0499999999999685e-05,-0.0010935,1.0788415,2.0500000000000556e-05,0.0010934999999999,0.8804075000000001,-0.4612414999999999,0.0667725,1.1307775,-0.4649715,0.0433125,0.8633775000000001,-0.8273815,0.0931005,1.1593075,-0.8258115,0.0874785
121,1.0073329999999998,0.7274285,0.039469,0.835408,0.5108285,-0.0272989999999999,0.718558,0.7054485,-0.160298,1.162608,0.5201785,-0.0187629999999999,1.2656679999999998,0.7248885,-0.158608,0.739668,0.9543385,-0.2441479999999999,1.237138,0.9545685,-0.2469879999999999,0.9211930000000002,-2.0499999999999685e-05,-0.0011299999999999,1.0788069999999998,2.0500000000000556e-05,0.0011299999999999,0.880498,-0.4611515,0.067677,1.130708,-0.4650815,0.043726,0.863488,-0.8275315,0.094944,1.159268,-0.8258115,0.089321
122,1.0071759999999998,0.727579,0.042366,0.835272,0.510879,-0.0251829999999999,0.718492,0.705479,-0.157403,1.1628619999999998,0.5205289999999999,-0.015674,1.266302,0.724919,-0.155383,0.739042,0.954369,-0.241323,1.237872,0.954599,-0.243383,0.9211920000000001,9.999999999999593e-06,-0.00128,1.078808,-1.000000000000046e-05,0.0012799999999999,0.880542,-0.461061,0.068328,1.130672,-0.465151,0.043989,0.863582,-0.827551,0.096557,1.159222,-0.825651,0.090928
123,1.007067,0.7277165000000001,0.0447585,0.835148,0.5109465000000001,-0.0233155,0.718438,0.7055565,-0.1551665,1.162998,0.5206565000000001,-0.0133955,1.266928,0.7249665000000001,-0.1528465,0.738488,0.9544165,-0.2391065,1.238578,0.9546465,-0.2407265,0.921197,1.0500000000000093e-05,-0.0012975,1.078803,-1.0499999999999224e-05,0.0012975,0.880568,-0.4610035,0.0684925,1.130668,-0.4651635,0.0440755,0.863668,-0.8275735,0.0977735,1.159198,-0.8254634999999999,0.0921615
124,1.0069555,0.7278614999999999,0.0467385,0.8350545,0.5110215,-0.0216954999999999,0.7183444999999999,0.7056315,-0.1534355,1.1631245,0.5208115,-0.0115055,1.2674845000000001,0.7250015,-0.1509754999999999,0.7379645,0.9544415,-0.2373955,1.2392845000000001,0.9547215,-0.2387655,0.9212275,5.500000000000296e-06,-0.0013714999999999,1.0787725,-5.500000000000296e-06,0.0013715,0.8805645,-0.4609285,0.0683445,1.1306345,-0.4651285,0.0439595,0.8637245,-0.8275785,0.0986535,1.1591345,-0.8251785,0.0930125
125,1.0068465,0.728001,0.0483165,0.8349595,0.511131,-0.0204105,0.7182095,0.7056410000000001,-0.1519725,1.1631595,0.520951,-0.0100234999999999,1.2679395,0.724591,-0.1495825,0.7373795000000001,0.954051,-0.2360725,1.2400195,0.954601,-0.2373025,0.9212355000000001,2.000000000000265e-06,-0.0015044999999999,1.0787645,-1.999999999999398e-06,0.0015044999999999,0.8804795,-0.460809,0.0679705,1.1305195,-0.465069,0.0438165,0.8636995000000001,-0.827499,0.0991674999999999,1.1589995,-0.824869,0.0935455
126,1.0067689999999998,0.728092,0.0493075,0.834875,0.5112019999999999,-0.0195004999999999,0.718125,0.7055619999999999,-0.1509095,1.163245,0.521022,-0.0089694999999999,1.268285,0.724302,-0.1488094999999999,0.736935,0.953482,-0.2352995,1.240675,0.954172,-0.2365295,0.921252,2.000000000000005e-05,-0.0015055,1.078748,-2.000000000000005e-05,0.0015055,0.8804250000000001,-0.460738,0.0675635,1.130445,-0.4650479999999999,0.0436175,0.863685,-0.8275480000000001,0.0993695,1.158905,-0.824588,0.0937625
127,1.006543,0.7282015,0.0503205,0.834651,0.5112814999999999,-0.0185655,0.717901,0.7055115,-0.1498435,1.163221,0.5211215,-0.0080134999999999,1.268531,0.7240115,-0.1480735,0.7364710000000001,0.9530315,-0.2346435,1.241371,0.9533215,-0.2358035,0.9212460000000001,-6.500000000000429e-06,-0.0015475,1.078754,6.499999999999562e-06,0.0015475,0.8802810000000001,-0.4607185,0.0671085,1.130251,-0.4650085,0.0434005,0.863541,-0.8275485,0.0994655,1.1586509999999999,-0.8243385,0.0939195
128,1.0062574999999998,0.7283995,0.0512755,0.8344975,0.5111795,-0.0177855,0.7176175,0.7053395,-0.1487835,1.1632075,0.5213195,-0.0072184999999999,1.2687175,0.7237495,-0.1473535,0.7359975000000001,0.9526895,-0.2340335,1.2420075,0.9525695,-0.2351535,0.9212475,-3.450000000000068e-05,-0.0015934999999999,1.0787525,3.449999999999981e-05,0.0015934999999999,0.8800975,-0.4607504999999999,0.0666175,1.1300275,-0.4648805,0.0431295,0.8633175,-0.8274604999999999,0.0995405,1.1583475,-0.8239605,0.0940405
129,1.0059909999999999,0.7285965,0.0521489999999999,0.834352,0.5110665,-0.016877,0.7173419999999999,0.7051365,-0.147756,1.163192,0.5214665,-0.006527,1.268872,0.7235865,-0.146716,0.7356320000000001,0.9525365,-0.233446,1.242662,0.9518765,-0.234476,0.921252,-7.049999999999938e-05,-0.001632,1.078748,7.050000000000025e-05,0.0016319999999999,0.879902,-0.4608035,0.0661809999999999,1.129802,-0.4647835,0.0429339999999999,0.863062,-0.8274235,0.0996119999999999,1.158052,-0.8235835,0.094168
130,1.005718,0.7288025,0.0530775,0.834188,0.5109625,-0.0159785,0.717028,0.7049825000000001,-0.1468545,1.163208,0.5216325,-0.0058015,1.2689979999999998,0.7234725000000001,-0.1460845,0.7352879999999999,0.9525425,-0.2327845,1.243138,0.9514625,-0.2339045,0.92126,-0.0001064999999999,-0.0016805,1.07874,0.0001064999999999,0.0016804999999999,0.879658,-0.4608175,0.0657925,1.129538,-0.4646575,0.0427624999999999,0.8627480000000001,-0.8272875,0.0997305,1.157718,-0.8232475,0.0943735
131,1.0054854999999998,0.7289665,0.05389,0.8340535,0.5108965,-0.015082,0.7167635,0.7048764999999999,-0.1459889999999999,1.1632635,0.5217664999999999,-0.005185,1.2691634999999999,0.7233565,-0.1454389999999999,0.7349635,0.9525365,-0.2320989999999999,1.2436535,0.9510465,-0.233289,0.9212605,-0.0001234999999999,-0.001749,1.0787395,0.0001235,0.001749,0.8795035,-0.4609135,0.065372,1.1293135,-0.4645735,0.042581,0.8624735,-0.8271835000000001,0.0998459999999999,1.1574035,-0.8229235,0.094553
132,1.005242,0.729131,0.0547594999999999,0.8338940000000001,0.5109210000000001,-0.0142615,0.716474,0.704831,-0.1451115,1.163274,0.521961,-0.0045935,1.2693240000000001,0.723301,-0.1447815,0.734614,0.952631,-0.2313415,1.244124,0.950691,-0.2326915,0.921256,-0.000157,-0.0018155,1.078744,0.000157,0.0018154999999999,0.879344,-0.4609789999999999,0.0650824999999999,1.129074,-0.4644589999999999,0.0423684999999999,0.862124,-0.827079,0.0999475,1.1570639999999999,-0.822479,0.0947264999999999
133,1.005008,0.7292425,0.0556195,0.833709,0.5110025,-0.0134984999999999,0.7161690000000001,0.7047025,-0.1441815,1.1633390000000001,0.5221325,-0.0040384999999999,1.269499,0.7232125,-0.1441215,0.734299,0.9526425,-0.2305915,1.244549,0.9502925,-0.2321315,0.921256,-0.0001914999999999,-0.0018764999999999,1.078744,0.0001914999999999,0.0018765,0.8791990000000001,-0.4610375,0.0648285,1.128849,-0.4644075,0.0421235,0.861799,-0.8269775,0.0999925,1.156709,-0.8220575,0.0948905
134,1.004799,0.7293105,0.056496,0.833507,0.5110905,-0.0127929999999999,0.715857,0.7044505,-0.143398,1.163467,0.5222905,-0.0035299999999999,1.2696969999999999,0.7231405,-0.143558,0.733987,0.9525605,-0.2298279999999999,1.244817,0.9501405,-0.231638,0.921268,-0.0002434999999999,-0.0019259999999999,1.078732,0.0002435,0.001926,0.879087,-0.4611794999999999,0.06455,1.128667,-0.4644195,0.041796,0.861457,-0.8269394999999999,0.100046,1.1563469999999998,-0.8216795,0.09506
135,1.004535,0.72941,0.0573544999999999,0.833252,0.51118,-0.0120745,0.715472,0.70418,-0.1426355,1.163532,0.52244,-0.0031074999999999,1.269892,0.72286,-0.1428455,0.733642,0.95242,-0.2291254999999999,1.245072,0.94998,-0.2311154999999999,0.921279,-0.000298,-0.0019754999999999,1.078721,0.000298,0.0019754999999999,0.879052,-0.46132,0.0642475,1.128442,-0.46444,0.0414255,0.861052,-0.82681,0.1000985,1.155932,-0.82134,0.0951835
136,1.0043455,0.7294970000000001,0.0579835,0.8330715,0.5112770000000001,-0.0115224999999999,0.7151815,0.703847,-0.1420265,1.1637215,0.522567,-0.0027424999999999,1.2700814999999999,0.7225670000000001,-0.1422465,0.7334015,0.952417,-0.2286465,1.2451815,0.950067,-0.2307265,0.9212905,-0.0003359999999999,-0.0020314999999999,1.0787095,0.0003359999999999,0.0020315,0.8791215,-0.461503,0.0639445,1.1283615,-0.464533,0.0410555,0.8607515,-0.8266629999999999,0.1001575,1.1556115,-0.821023,0.0953104999999999
137,1.00413,0.7295485,0.0585715,0.832913,0.5113085,-0.0109505,0.714913,0.7034685,-0.1414015,1.163933,0.5226385,-0.0022854999999999,1.270303,0.7222785,-0.1416514999999999,0.7331830000000001,0.9523785,-0.2281515,1.245253,0.9501285,-0.2303415,0.921289,-0.0003644999999999,-0.0020704999999999,1.078711,0.0003645,0.0020705,0.879223,-0.4616715,0.0637155,1.128323,-0.4646315,0.0407035,0.860463,-0.8265115,0.1002315,1.155323,-0.8207615,0.0954655
138,1.0039034999999998,0.7295855,0.059151,0.8327755,0.5113355,-0.0105149999999999,0.7146155000000001,0.7031455,-0.141008,1.1641255,0.5227055,-0.0018269999999999,1.2705255,0.7219555,-0.1411079999999999,0.7329755,0.9523255,-0.227708,1.2452655,0.9501355,-0.230038,0.9212875000000001,-0.0003905,-0.0021169999999999,1.0787125,0.0003904999999999,0.002117,0.8792854999999999,-0.4618045,0.063467,1.1282855,-0.4647245,0.040303,0.8601755,-0.8263445,0.100336,1.1550254999999998,-0.8205045,0.095603
139,1.003674,0.7296130000000001,0.0596894999999999,0.832622,0.511363,-0.0100715,0.714342,0.7028530000000001,-0.1406625,1.164302,0.522723,-0.0014105,1.270802,0.7216330000000001,-0.1405525,0.732792,0.952413,-0.2274025,1.245312,0.950053,-0.2297525,0.921298,-0.0004249999999999,-0.0021485,1.078702,0.000425,0.0021484999999999,0.879312,-0.461967,0.0632305,1.128292,-0.464837,0.0399314999999999,0.859912,-0.826127,0.1004555,1.154762,-0.820257,0.0957185
140,1.003421,0.72965,0.06018,0.832439,0.51139,-0.009729,0.714039,0.7025800000000001,-0.1403789999999999,1.164439,0.52273,-0.000998,1.270989,0.7213200000000001,-0.1401089999999999,0.732539,0.95245,-0.227199,1.245299,0.95011,-0.229539,0.921315,-0.000461,-0.002179,1.0786850000000001,0.0004609999999999,0.002179,0.879229,-0.46204,0.0630199999999999,1.128259,-0.46491,0.039568,0.859649,-0.8259,0.100588,1.1544889999999999,-0.82002,0.095831
141,1.0032015,0.7296115,0.0605604999999999,0.8322695,0.5113615,-0.0094115,0.7137795,0.7022515,-0.1401085,1.1645995,0.5226515,-0.0008915,1.2711995,0.7209615,-0.1397685,0.7322895,0.9523915,-0.2270885,1.2453695,0.9499015,-0.2293485,0.9213175,-0.0004695,-0.0022045,1.0786825,0.0004694999999999,0.0022044999999999,0.8791795,-0.4620985,0.0627875,1.1282995,-0.4650185,0.0392104999999999,0.8594195,-0.8258485,0.1006715,1.1542795,-0.8198985,0.0959415
142,1.002996,0.729575,0.0608845,0.832113,0.511335,-0.0091455,0.713533,0.7020150000000001,-0.1398935,1.164723,0.522585,-0.0007795,1.271463,0.720435,-0.1394835,0.732063,0.952035,-0.2269735,1.2454830000000001,0.949515,-0.2292135,0.921319,-0.000476,-0.0022314999999999,1.078681,0.0004759999999999,0.0022314999999999,0.879163,-0.462145,0.0625495,1.128353,-0.465155,0.0388545,0.859223,-0.825815,0.1007405,1.154093,-0.819775,0.0960215
143,1.0028165,0.7295375,0.061173,0.8319655,0.5112975,-0.008879,0.7133255000000001,0.7017875,-0.139654,1.1648455,0.5225175,-0.000585,1.2717455,0.7199075,-0.139184,0.7318755,0.9515775,-0.226844,1.2457155,0.9487975,-0.2290739999999999,0.9213155000000001,-0.0004764999999999,-0.0022609999999999,1.0786844999999998,0.0004764999999999,0.0022609999999999,0.8791055,-0.4621725,0.062379,1.1283854999999998,-0.4652625,0.03854,0.8590555,-0.8257625,0.100824,1.1539755,-0.8196325,0.096081
144,1.002703,0.7294919999999999,0.061429,0.8318909999999999,0.511262,-0.008589,0.713171,0.701572,-0.1394349999999999,1.164941,0.522212,-0.000438,1.272051,0.7196119999999999,-0.139035,0.731741,0.951102,-0.226695,1.246001,0.948062,-0.228935,0.921306,-0.000474,-0.0022929999999999,1.078694,0.000474,0.002293,0.878991,-0.462178,0.062252,1.128451,-0.465348,0.038287,0.858971,-0.825688,0.100921,1.153921,-0.819488,0.096162
145,1.0026069999999998,0.729444,0.0616549999999999,0.831804,0.5112639999999999,-0.008333,0.713044,0.701364,-0.1392419999999999,1.165004,0.521914,-0.000387,1.272384,0.719394,-0.138902,0.731574,0.950504,-0.226622,1.246384,0.947244,-0.228802,0.9213000000000001,-0.0004759999999999,-0.002333,1.0787,0.0004759999999999,0.0023329999999999,0.878884,-0.462206,0.062082,1.128484,-0.465376,0.038035,0.858904,-0.825666,0.101002,1.153884,-0.8193360000000001,0.096218
146,1.0025355,0.729409,0.06185,0.8317295,0.5112789999999999,-0.008067,0.7129395000000001,0.701179,-0.139075,1.1650595,0.5216189999999999,-0.0004059999999999,1.2727395,0.719169,-0.138795,0.7313895,0.949769,-0.226595,1.2468295,0.946399,-0.228705,0.9212994999999999,-0.0004809999999999,-0.0023609999999999,1.0787005,0.000481,0.002361,0.8788095,-0.462231,0.061908,1.1284995,-0.465431,0.03784,0.8588595,-0.825531,0.101071,1.1538694999999999,-0.8191710000000001,0.096261
147,1.0024905,0.729415,0.0620565,0.8317005,0.511345,-0.0079004999999999,0.7128405000000001,0.701065,-0.1388775,1.1651205,0.5211950000000001,-0.0002574999999999,1.2731305,0.718995,-0.1386375,0.7312405,0.949175,-0.2265475,1.2474405,0.945275,-0.2285975,0.9212935,-0.000484,-0.0023674999999999,1.0787065,0.000484,0.0023675,0.8787305,-0.4622449999999999,0.0617785,1.1285405,-0.4654149999999999,0.0377105,0.8588505000000001,-0.8253349999999999,0.1011465,1.1538804999999999,-0.818905,0.0963125
148,1.0024875,0.729404,0.062227,0.8316995,0.511404,-0.0077399999999999,0.7127795,0.700904,-0.138714,1.1651995,0.520804,-0.0001369999999999,1.2735495000000001,0.718724,-0.138534,0.7311194999999999,0.948554,-0.226544,1.2480794999999998,0.944124,-0.228504,0.9212815,-0.0004779999999999,-0.0023509999999999,1.0787185,0.000478,0.002351,0.8786195,-0.462256,0.06164,1.1285795,-0.465406,0.037563,0.8588695,-0.825196,0.101204,1.1539195,-0.818636,0.096336
149,1.002494,0.7293970000000001,0.062389,0.831711,0.511467,-0.007542,0.712731,0.700717,-0.138569,1.165301,0.5204070000000001,-8.000000000000368e-05,1.273971,0.7184170000000001,-0.138469,0.7310310000000001,0.947987,-0.226579,1.248721,0.942967,-0.228449,0.921281,-0.000467,-0.0023309999999999,1.078719,0.0004669999999999,0.0023309999999999,0.8784210000000001,-0.462273,0.0614689999999999,1.128631,-0.465413,0.0373639999999999,0.858901,-0.8250029999999999,0.101271,1.153961,-0.818373,0.096345
150,1.0024985,0.7293845,0.0625725,0.8317225,0.5114845,-0.0073135,0.7126825,0.7005045,-0.1384245,1.1654425,0.5200145,3.5000000000035003e-06,1.2744225,0.7180845,-0.1383345,0.7309425,0.9474345,-0.2266344999999999,1.2494124999999998,0.9418545,-0.2283644999999999,0.9212815,-0.0004625,-0.0023135,1.0787185,0.0004625,0.0023135,0.8782225,-0.4623055,0.0613035,1.1286625,-0.4654255,0.0371335,0.8589225,-0.8248154999999999,0.1013584999999999,1.1540225,-0.8180955,0.0963715
151,1.002502,0.7294045,0.0627559999999999,0.831725,0.5115145,-0.007139,0.712645,0.7002845000000001,-0.1382789999999999,1.1656149999999998,0.5196145000000001,9.199999999999486e-05,1.2748249999999999,0.7179145,-0.138229,0.7308950000000001,0.9470145,-0.2266889999999999,1.250115,0.9407845,-0.2282989999999999,0.921281,-0.0004575,-0.002287,1.078719,0.0004575,0.0022869999999999,0.878035,-0.4623155,0.0611919999999999,1.128695,-0.4653555,0.036952,0.858945,-0.8246055,0.101447,1.154085,-0.8178255,0.096408
152,1.0025275,0.729416,0.0629325,0.8317515,0.5115259999999999,-0.0069805,0.7126215,0.7000759999999999,-0.1381275,1.1657915,0.519196,0.0002045,1.2752115,0.717726,-0.1381175,0.7308915,0.946676,-0.2267275,1.2507215,0.939956,-0.2282475,0.9212705,-0.0004529999999999,-0.0022284999999999,1.0787295,0.000453,0.0022285,0.8778715,-0.4623339999999999,0.0610385,1.1287415,-0.4653339999999999,0.0367975,0.8589715,-0.824554,0.1015105,1.1541415,-0.817574,0.0964655
153,1.0025724999999999,0.7294010000000001,0.0630745,0.8317885,0.511491,-0.0068654999999999,0.7126085,0.699871,-0.1379925,1.1659785,0.5190210000000001,0.0003384999999999,1.2756085,0.717311,-0.1380425,0.7308885,0.946331,-0.2267925,1.2513085,0.939111,-0.2282025,0.9212724999999999,-0.000455,-0.0021675,1.0787275,0.0004549999999999,0.0021675,0.8777085,-0.462349,0.0608505,1.1287885,-0.465329,0.0366255,0.8589985,-0.8245089999999999,0.1015725,1.1542085,-0.8173389999999999,0.0964915
154,1.0026199999999998,0.7293805000000001,0.063199,0.831818,0.5114205000000001,-0.0066539999999999,0.7125980000000001,0.6997305,-0.137838,1.1661579999999998,0.5188205,0.000461,1.275978,0.7168805,-0.137948,0.730898,0.9461705,-0.226848,1.251818,0.9383605,-0.228118,0.921279,-0.0004495,-0.0020999999999999,1.078721,0.0004495,0.0020999999999999,0.877528,-0.4623395,0.060713,1.128848,-0.4653495,0.036473,0.858998,-0.8244895,0.101662,1.154268,-0.8171195,0.096523
155,1.0026739999999998,0.7293609999999999,0.063331,0.831816,0.511371,-0.0064429999999999,0.7126060000000001,0.6996209999999999,-0.1376679999999999,1.1663359999999998,0.518641,0.00059,1.276316,0.716461,-0.137838,0.7309060000000001,0.946131,-0.226878,1.252286,0.937621,-0.2280179999999999,0.921286,-0.0004489999999999,-0.002034,1.078714,0.0004489999999999,0.002034,0.877356,-0.462339,0.060592,1.128906,-0.465389,0.0363369999999999,0.858986,-0.8244090000000001,0.101755,1.1543459999999999,-0.8168690000000001,0.096562
156,1.0027279999999998,0.7293215,0.063405,0.831806,0.5112814999999999,-0.0063179999999999,0.7126060000000001,0.6994815,-0.137566,1.166606,0.5186014999999999,0.001003,1.276596,0.7160515,-0.137786,0.7309060000000001,0.9460715,-0.226966,1.252596,0.9371315,-0.227956,0.921287,-0.0004495,-0.001985,1.078713,0.0004495,0.001985,0.877186,-0.4623485,0.060436,1.128956,-0.4654585,0.036148,0.858996,-0.8242985,0.101827,1.1544159999999999,-0.8167285000000001,0.0965729999999999
157,1.0027854999999999,0.7292875,0.0635425,0.8317965,0.5112175,-0.0061345,0.7126065000000001,0.6993575,-0.1374355,1.1668965,0.5185675,0.0014655,1.2768365,0.7157175,-0.1377355,0.7309265,0.9460375,-0.2270355,1.2528665,0.9367675,-0.2278954999999999,0.9212875000000001,-0.0004535,-0.0019424999999999,1.0787125,0.0004534999999999,0.0019424999999999,0.8770765000000001,-0.4623325,0.0602935,1.1290465,-0.4655325,0.0359605,0.8590065,-0.8241825,0.1018874999999999,1.1544865,-0.8165924999999999,0.0965594999999999
158,1.0028465,0.7292335,0.063671,0.8318065,0.5111534999999999,-0.005944,0.7126065000000001,0.6992134999999999,-0.1373309999999999,1.1672065,0.5185135,0.0018239999999999,1.2770465,0.7154035,-0.137691,0.7309665000000001,0.9459735,-0.227091,1.2531365,0.9363935,-0.2278509999999999,0.9212875000000001,-0.0004545,-0.0018979999999999,1.0787125,0.0004545,0.001898,0.8770265,-0.4623465,0.060199,1.1291465,-0.4656165,0.035794,0.8590065,-0.8241265,0.101932,1.1545665,-0.8164765,0.0965459999999999
159,1.0028795,0.729194,0.063821,0.8317895,0.5111239999999999,-0.0057529999999999,0.7125895000000001,0.699104,-0.1372109999999999,1.1674495,0.518484,0.002192,1.2771995,0.715154,-0.137621,0.7309795,0.945924,-0.227111,1.2532895,0.936094,-0.227781,0.9212994999999999,-0.0004509999999999,-0.0018679999999999,1.0787005,0.000451,0.001868,0.8769695,-0.462366,0.060144,1.1292595,-0.465686,0.035659,0.8589995,-0.8240460000000001,0.101988,1.1546094999999998,-0.816376,0.096522
160,1.0028975,0.7291495,0.063975,0.8317645,0.5111095,-0.005544,0.7125845,0.6989995,-0.137108,1.1674245,0.5184595,0.0022789999999999,1.2773345,0.7149295,-0.137568,0.7309945000000001,0.9458695,-0.227148,1.2534245,0.9358695,-0.227758,0.9213085,-0.0004414999999999,-0.0018449999999999,1.0786915,0.0004415,0.0018449999999999,0.8769045,-0.4623804999999999,0.060081,1.1293544999999998,-0.4657504999999999,0.03547,0.8589845,-0.8239705,0.1020659999999999,1.1546344999999998,-0.8162105000000001,0.096506
161,1.0029015,0.729119,0.0641195,0.8317315000000001,0.511079,-0.0053185,0.7125715,0.698889,-0.1370104999999999,1.1673915,0.518439,0.0022825,1.2774515,0.714699,-0.1375505,0.7309915,0.945809,-0.2271904999999999,1.2536114999999999,0.935679,-0.2277205,0.9213205,-0.0004339999999999,-0.0018325,1.0786795,0.0004339999999999,0.0018325,0.8768515,-0.462401,0.0600025,1.1294215,-0.465781,0.0352675,0.8589614999999999,-0.823931,0.1021745,1.1546414999999999,-0.816051,0.0964665
162,1.0029005,0.7290955,0.0642965,0.8316635,0.5110455,-0.0049504999999999,0.7125635,0.6987755,-0.1369165,1.1673535,0.5184055000000001,0.0024755,1.2775135,0.7146755,-0.1375564999999999,0.7309835,0.9457455,-0.2272465,1.2538034999999998,0.9354155,-0.2276265,0.9213365,-0.0004245,-0.0018054999999999,1.0786635,0.0004245,0.0018055,0.8768035,-0.4624144999999999,0.0599145,1.1294735,-0.4658245,0.0350535,0.8589335000000001,-0.8238445,0.1022735,1.1546535,-0.8160244999999999,0.0964105
163,1.0028845,0.7290975,0.064511,0.8316115,0.5110275,-0.0045569999999999,0.7125414999999999,0.6986675,-0.136791,1.1673115,0.5182175,0.0027309999999999,1.2775915,0.7146174999999999,-0.137551,0.7309815,0.9456875,-0.227321,1.2540015,0.9351375,-0.2275309999999999,0.9213505,-0.0004175,-0.0017809999999999,1.0786495,0.0004174999999999,0.0017809999999999,0.8767415000000001,-0.4624225,0.059864,1.1295015,-0.4658425,0.0348529999999999,0.8589015,-0.8237525,0.102379,1.1546715,-0.8159925,0.096354
164,1.0028255,0.7290485,0.0647655,0.8315135000000001,0.5110085,-0.0040754999999999,0.7125035,0.6985285,-0.1366534999999999,1.1672335,0.5180285,0.0030105,1.2777235,0.7141585,-0.1374635,0.7309335,0.9456085,-0.2274135,1.2542135,0.9347885,-0.2274034999999999,0.9213535,-0.0004055,-0.0017724999999999,1.0786465,0.0004055,0.0017725,0.8766635,-0.4624514999999999,0.0598045,1.1295035,-0.4658215,0.0346455,0.8588535000000002,-0.8236715,0.1024855,1.1546935,-0.8159514999999999,0.0962595
165,1.0027645,0.728994,0.065069,0.8314285,0.511004,-0.003569,0.7124685,0.698374,-0.136524,1.1671084999999999,0.517804,0.0032779999999999,1.2778585,0.7137140000000001,-0.137404,0.7308785,0.945464,-0.227514,1.2544184999999999,0.934454,-0.227274,0.9213565,-0.000399,-0.00177,1.0786435,0.000399,0.0017699999999999,0.8765785000000001,-0.462456,0.0597519999999999,1.1294985,-0.465786,0.0344759999999999,0.8587985,-0.823646,0.102587,1.1547385000000001,-0.8159059999999999,0.0961569999999999
166,1.002727,0.728949,0.0653965,0.831348,0.511039,-0.0031945,0.712468,0.698239,-0.1364575,1.166968,0.5175190000000001,0.0035884999999999,1.2780179999999999,0.713279,-0.1373275,0.730838,0.945309,-0.2276275,1.254638,0.934129,-0.2271975,0.921364,-0.000395,-0.0017855,1.078636,0.000395,0.0017854999999999,0.876518,-0.4624709999999999,0.0596694999999999,1.129488,-0.465741,0.0342984999999999,0.858778,-0.823651,0.1026425,1.154808,-0.815851,0.0960245
167,1.002701,0.7289059999999999,0.065721,0.831298,0.511056,-0.0028619999999999,0.7124680000000001,0.6980959999999999,-0.136377,1.166828,0.517326,0.0038989999999999,1.278178,0.7128059999999999,-0.137297,0.730808,0.945076,-0.227747,1.254848,0.933806,-0.227147,0.921368,-0.0003839999999999,-0.0017929999999999,1.078632,0.000384,0.001793,0.8764780000000001,-0.462524,0.05955,1.129458,-0.465704,0.034126,0.8587480000000001,-0.8236140000000001,0.102658,1.154888,-0.815844,0.095861
168,1.002694,0.7288494999999999,0.0660085,0.8312740000000001,0.5110095,-0.0024894999999999,0.712504,0.6979495,-0.1363074999999999,1.1666139999999998,0.5171395,0.0042715,1.278394,0.7121595,-0.1371275,0.730804,0.9448495,-0.2278875,1.255104,0.9333995,-0.2271075,0.921365,-0.0003705,-0.0017964999999999,1.078635,0.0003705,0.0017965,0.8764540000000001,-0.4625505,0.0594105,1.129454,-0.4656705,0.0339525,0.858744,-0.8236005000000001,0.1026345,1.1549839999999998,-0.8158405,0.0956675
169,1.0025935,0.7286245,0.0663705,0.8310035,0.5111545000000001,-0.0017985,0.7122935,0.6977645,-0.1362585,1.1655635,0.5158845,0.0028964999999999,1.2786235000000001,0.7105445,-0.1368185,0.7308335,0.9446545,-0.2285284999999999,1.2552835,0.9327645,-0.2267584999999999,0.9213365,-0.0003974999999999,-0.0018475,1.0786635,0.0003975,0.0018474999999999,0.8762435,-0.4626154999999999,0.0592004999999999,1.1293635,-0.4656754999999999,0.0337455,0.8588435,-0.8220855,0.1028075,1.1551735,-0.8162254999999999,0.0950574999999999
170,1.002496,0.7286445,0.067225,0.8310030000000002,0.5110645,-0.001693,0.7123630000000001,0.6977045,-0.136275,1.165723,0.5169345,0.0054849999999999,1.278673,0.7106845,-0.136775,0.730773,0.9446645,-0.228785,1.255273,0.9326945,-0.226995,0.921352,-0.0003795,-0.001938,1.078648,0.0003794999999999,0.0019379999999999,0.876143,-0.4625755,0.059157,1.129323,-0.4656455,0.0335499999999999,0.858633,-0.8230955,0.102667,1.155103,-0.8164855,0.09511
171,1.002392,0.7285665,0.067256,0.830931,0.5110265,-0.001396,0.7122809999999999,0.6974165,-0.13608,1.165921,0.5167865,0.006737,1.278731,0.7106165,-0.13716,0.7305010000000001,0.9435965,-0.22873,1.255281,0.9325465,-0.22734,0.921394,-0.0003585,-0.001888,1.078606,0.0003585,0.001888,0.8760209999999999,-0.4626234999999999,0.05884,1.129241,-0.4656535,0.033275,0.858601,-0.8228435,0.102495,1.155091,-0.8165435,0.0947129999999999
172,1.0024529999999998,0.7285794999999999,0.067153,0.83115,0.5106295,-0.000923,0.71255,0.6973895,-0.135855,1.16472,0.5159195,0.0032649999999999,1.2790599999999999,0.7087895,-0.136085,0.7305699999999999,0.9436295,-0.228955,1.25569,0.9320295,-0.227215,0.9213439999999999,-0.0003814999999999,-0.001834,1.078656,0.0003815,0.0018339999999999,0.87618,-0.4623405,0.0587209999999999,1.1293099999999998,-0.4654305,0.033114,0.85857,-0.8235805,0.102071,1.1551799999999999,-0.8160705,0.094727
173,1.0025149999999998,0.7287885,0.0676705,0.831124,0.5101985,-0.0006754999999999,0.712894,0.6969785,-0.1357065,1.1651340000000001,0.5159985,0.0057225,1.279264,0.7090185,-0.1366165,0.730714,0.9436785,-0.2295564999999999,1.255774,0.9317685,-0.2274765,0.921414,-0.0003865,-0.0016044999999999,1.078586,0.0003865,0.0016045,0.876104,-0.4628015,0.0584695,1.129394,-0.4653815,0.0324935,0.858764,-0.8245915,0.1014915,1.155424,-0.8159215,0.0939445
174,1.0026335,0.728735,0.068023,0.8311885,0.510355,-0.0003259999999999,0.7128985000000001,0.696475,-0.135328,1.1651485,0.516725,0.0072979999999999,1.2795085,0.707485,-0.135608,0.7305385000000001,0.942715,-0.2294979999999999,1.2562885,0.930945,-0.2277279999999999,0.9213925000000001,-0.000346,-0.001391,1.0786075,0.0003459999999999,0.0013909999999999,0.8762085,-0.462835,0.058254,1.1293485,-0.465455,0.032317,0.8588884999999999,-0.8243550000000001,0.1012339999999999,1.1555085,-0.816065,0.093693
175,1.002677,0.728562,0.0684915,0.831352,0.510192,9.949999999999544e-05,0.713122,0.696102,-0.1344575,1.165742,0.516702,0.0090675,1.279692,0.706662,-0.1348975,0.730282,0.941742,-0.2289375,1.256632,0.930122,-0.2277575,0.921332,-0.0003209999999999,-0.0014475,1.078668,0.000321,0.0014474999999999,0.876252,-0.462818,0.0582414999999999,1.129472,-0.465308,0.0323325,0.858932,-0.824178,0.1010425,1.155622,-0.816078,0.0935915
