sb224sc-HT22-VT27/4dt907/src/ml-research/a10/datafiles/kinect_good_preprocessed_A9_mediapipe/A135_kinect.csv
FrameNo,nose_3d_x,nose_3d_y,nose_3d_z,left_shoulder_3d_x,left_shoulder_3d_y,left_shoulder_3d_z,left_elbow_3d_x,left_elbow_3d_y,left_elbow_3d_z,right_shoulder_3d_x,right_shoulder_3d_y,right_shoulder_3d_z,right_elbow_3d_x,right_elbow_3d_y,right_elbow_3d_z,left_wrist_3d_x,left_wrist_3d_y,left_wrist_3d_z,right_wrist_3d_x,right_wrist_3d_y,right_wrist_3d_z,left_hip_3d_x,left_hip_3d_y,left_hip_3d_z,right_hip_3d_x,right_hip_3d_y,right_hip_3d_z,left_knee_3d_x,left_knee_3d_y,left_knee_3d_z,right_knee_3d_x,right_knee_3d_y,right_knee_3d_z,left_ankle_3d_x,left_ankle_3d_y,left_ankle_3d_z,right_ankle_3d_x,right_ankle_3d_y,right_ankle_3d_z
13,0.000944,0.7340815,0.089481,-0.16728500000000002,0.5285615,0.016346,-0.27447499999999997,0.7290915,-0.11230400000000001,0.17268499999999998,0.5135415,0.014987,0.285705,0.7199115,-0.110844,-0.256785,0.9617415,-0.200874,0.284835,0.9684015,-0.20958400000000002,-0.078686,0.0005105000000000001,0.0007590000000000027,0.078686,-0.0005105000000000001,-0.0007590000000000027,-0.134745,-0.4593485,0.025259,0.119125,-0.4574985,0.049606,-0.163445,-0.8117885,0.086092,0.13593499999999997,-0.8180485,0.093114
14,0.0009180000000000039,0.7340265,0.0894125,-0.167288,0.5284565,0.0163525,-0.274488,0.7289865,-0.11216649999999999,0.172652,0.5135965,0.014971499999999999,0.28570199999999996,0.7198065,-0.1109565,-0.256788,0.9616365,-0.2008665,0.284832,0.9682965,-0.2102365,-0.07868900000000001,0.0005075000000000001,0.0007534999999999972,0.07868900000000001,-0.0005075000000000001,-0.0007534999999999972,-0.13471799999999998,-0.4594535,0.0252555,0.11918200000000001,-0.45758350000000003,0.0495905,-0.163428,-0.8119835,0.0861025,0.13590200000000002,-0.8180935,0.09316050000000001
15,0.0008790000000000017,0.7339990000000001,0.08939449999999999,-0.167297,0.5284190000000001,0.016450499999999993,-0.274727,0.728929,-0.1120185,0.172573,0.513699,0.014986499999999993,0.285693,0.719669,-0.1110585,-0.257007,0.9615790000000001,-0.2008585,0.284823,0.9680390000000001,-0.2109485,-0.078681,0.0005069999999999996,0.0007454999999999962,0.078681,-0.0005070000000000001,-0.0007455000000000031,-0.134687,-0.459501,0.025271499999999995,0.119243,-0.457571,0.0495915,-0.163417,-0.8121309999999999,0.08612049999999999,0.135883,-0.818071,0.09318649999999999
16,0.0008020000000000007,0.7339885,0.0893855,-0.167305,0.5283685,0.0166965,-0.275255,0.7288785,-0.1119285,0.172515,0.5137984999999999,0.0149665,0.285875,0.7190584999999999,-0.1111485,-0.257675,0.9613585,-0.20083849999999998,0.284975,0.9669785,-0.2118085,-0.07866799999999999,0.0005065,0.000730500000000002,0.07866799999999999,-0.0005064999999999996,-0.000730500000000002,-0.134665,-0.4595915,0.0253125,0.119315,-0.4576015,0.0496095,-0.16342500000000001,-0.8122015,0.0861215,0.135845,-0.8180715000000001,0.0932125
17,0.0006840000000000065,0.733957,0.0893355,-0.167423,0.528127,0.0169875,-0.276273,0.727407,-0.11187749999999999,0.172497,0.513787,0.014908499999999998,0.286327,0.717817,-0.11125750000000001,-0.258903,0.960447,-0.2011575,0.285267,0.9653970000000001,-0.2126675,-0.078659,0.0005060000000000004,0.0007044999999999968,0.078659,-0.0005059999999999999,-0.0007045000000000037,-0.13464299999999998,-0.459693,0.025349499999999997,0.11934700000000001,-0.457653,0.0496205,-0.163433,-0.812283,0.0861035,0.135827,-0.818123,0.0932665
18,0.0005069999999999986,0.7339295,0.089221,-0.16761099999999998,0.5278495,0.017404000000000003,-0.277031,0.7259994999999999,-0.111882,0.172469,0.5136995,0.014822000000000002,0.28662899999999997,0.7166294999999999,-0.11137199999999998,-0.260081,0.9595895,-0.201602,0.285469,0.9639694999999999,-0.213482,-0.07864199999999999,0.0004994999999999999,0.0006940000000000002,0.07864199999999999,-0.0004995000000000004,-0.0006940000000000002,-0.134631,-0.45977049999999997,0.025375,0.11937899999999999,-0.45771049999999996,0.04966,-0.163431,-0.8123605,0.086086,0.13583900000000002,-0.8181805000000001,0.093322
19,0.00029100000000000154,0.733894,0.0890315,-0.167785,0.5275340000000001,0.0178185,-0.27771500000000005,0.724514,-0.1118825,0.172465,0.513634,0.014716500000000004,0.286875,0.715524,-0.1115325,-0.261235,0.958754,-0.2022025,0.28561499999999995,0.9624440000000001,-0.21431250000000002,-0.078626,0.000497,0.0006855000000000055,0.078626,-0.0004969999999999996,-0.0006854999999999986,-0.134625,-0.459846,0.025399500000000002,0.119405,-0.457736,0.0496855,-0.163435,-0.812446,0.0860635,0.135855,-0.818256,0.0933795
20,4.349999999999702e-05,0.733859,0.08880099999999999,-0.1680195,0.5272290000000001,0.018119,-0.2783895,0.723039,-0.11190800000000001,0.17246050000000002,0.5136590000000001,0.014610000000000001,0.2870605,0.714419,-0.11174799999999999,-0.2622095,0.9580890000000001,-0.202878,0.2856805,0.960889,-0.21515800000000002,-0.0786115,0.0004920000000000002,0.0006649999999999989,0.0786115,-0.0004919999999999998,-0.0006649999999999989,-0.1346195,-0.459911,0.025429,0.11944049999999999,-0.457741,0.049675,-0.1634295,-0.812511,0.08602599999999999,0.13584049999999998,-0.8183509999999999,0.09342
21,-0.0002900000000000014,0.7338065,0.088428,-0.16822099999999998,0.5268965,0.018498000000000004,-0.278941,0.7215865,-0.11209,0.172469,0.5137265,0.014489000000000005,0.28712899999999997,0.7135065,-0.11210999999999999,-0.262981,0.9575765,-0.20363,0.285699,0.9596265,-0.21599000000000002,-0.078603,0.0004705,0.0006130000000000024,0.078603,-0.0004705,-0.0006129999999999955,-0.134621,-0.4599835,0.025461000000000004,0.11948900000000001,-0.4577835,0.049639,-0.16342099999999998,-0.8125335,0.085997,0.135849,-0.8184035,0.09341
22,-0.0006384999999999989,0.7337535000000001,0.088031,-0.1684185,0.5265435,0.018925000000000004,-0.2793685,0.7202835,-0.11227699999999999,0.1724615,0.5137835000000001,0.014348000000000003,0.2871515,0.7126935,-0.112507,-0.26366850000000003,0.9570935,-0.204307,0.2857015,0.9584735,-0.21671700000000002,-0.0785885,0.00045049999999999995,0.000566000000000004,0.0785885,-0.00045049999999999995,-0.0005659999999999971,-0.1345985,-0.4600565,0.025495000000000004,0.1195215,-0.45793649999999997,0.049582,-0.1634285,-0.8125465,0.085966,0.1358515,-0.8184064999999999,0.09336
23,-0.000997499999999998,0.7337060000000001,0.08759349999999999,-0.1686175,0.526196,0.019379499999999997,-0.27977749999999996,0.719036,-0.1124575,0.1724325,0.513846,0.014211499999999998,0.2871725,0.7120660000000001,-0.11296750000000001,-0.2642275,0.9567760000000001,-0.2049475,0.28571250000000004,0.957416,-0.2175475,-0.07857449999999999,0.0004320000000000001,0.0005194999999999991,0.07857449999999999,-0.0004320000000000001,-0.0005194999999999991,-0.1346175,-0.460104,0.0255245,0.11956249999999999,-0.45801400000000003,0.0495095,-0.1634275,-0.8125239999999999,0.0859235,0.1358425,-0.818274,0.09329950000000001
24,-0.001385499999999999,0.7336665,0.0870255,-0.1688185,0.5260364999999999,0.0192295,-0.2800685,0.7180365,-0.11272650000000001,0.17237149999999998,0.5138364999999999,0.0139535,0.2872415,0.7114864999999999,-0.1135265,-0.2647185,0.9565365,-0.2056565,0.2856315,0.9565564999999999,-0.2184165,-0.0785765,0.0004074999999999999,0.00046449999999999964,0.0785765,-0.0004074999999999999,-0.00046449999999999964,-0.1346385,-0.46012349999999996,0.025363500000000004,0.11959149999999999,-0.4580535,0.049307500000000004,-0.16343850000000001,-0.8125235000000001,0.0857495,0.1358315,-0.8182235,0.0931505
25,-0.0018529999999999994,0.7336535000000001,0.085966,-0.169016,0.5260135,0.019035000000000003,-0.280376,0.7174235,-0.11324,0.172274,0.5138235,0.013648000000000004,0.287314,0.7109235,-0.11433,-0.264966,0.9563935,-0.20650000000000002,0.285354,0.9558035,-0.21947,-0.078574,0.0003944999999999999,0.00042800000000000477,0.078574,-0.0003944999999999999,-0.0004279999999999978,-0.134666,-0.4600965,0.025148000000000004,0.119664,-0.45795650000000004,0.049063,-0.163456,-0.8124665,0.085533,0.135814,-0.8181364999999999,0.092937
26,-0.002282499999999998,0.7336435,0.0845835,-0.16923149999999998,0.5259435,0.0187975,-0.2807415,0.7170335,-0.1139255,0.1721485,0.5138235,0.013215500000000002,0.2873885,0.7103235,-0.1152655,-0.2650515,0.9562235,-0.20740550000000002,0.2849785,0.9550735,-0.2206055,-0.07856650000000001,0.0003944999999999999,0.0004045000000000021,0.07856650000000001,-0.0003944999999999999,-0.00040449999999999514,-0.13468149999999998,-0.4600465,0.024882500000000002,0.11974850000000001,-0.4578265,0.048629500000000006,-0.16346149999999998,-0.8124165,0.0852735,0.13579850000000002,-0.8180465,0.0926795
27,-0.0026959999999999987,0.7332735,0.0819635,-0.169503,0.5258535000000001,0.018054499999999994,-0.281243,0.7165235,-0.11535350000000001,0.172097,0.5138235,0.012348499999999995,0.287457,0.7093535000000001,-0.11696350000000001,-0.265073,0.9558235,-0.2090035,0.284347,0.9536835,-0.22230350000000004,-0.078574,0.0003944999999999999,0.0004264999999999963,0.078574,-0.0003944999999999999,-0.00042650000000000327,-0.134813,-0.45999650000000003,0.024322499999999997,0.120277,-0.45761650000000004,0.046613499999999995,-0.163503,-0.8124064999999999,0.08472949999999999,0.135777,-0.8179965,0.0920755
28,-0.003116000000000005,0.7327680000000001,0.078763,-0.169658,0.525798,0.01668,-0.281808,0.715688,-0.11743500000000001,0.172052,0.5137780000000001,0.011111,0.287612,0.7079380000000001,-0.11913500000000002,-0.265118,0.955028,-0.21105500000000002,0.28355199999999997,0.951688,-0.22444500000000003,-0.07863,0.00035000000000000005,0.0005319999999999978,0.07863,-0.00035000000000000005,-0.0005319999999999978,-0.135108,-0.459782,0.023065,0.12121199999999999,-0.457222,0.042885,-0.163608,-0.8123619999999999,0.083947,0.135752,-0.817912,0.091167
29,-0.0033439999999999998,0.7320585000000001,0.074736,-0.16982999999999998,0.5259285,0.014692,-0.2823,0.7146485,-0.12031700000000001,0.17187000000000002,0.5136485000000001,0.009471999999999998,0.28782,0.7060685,-0.122037,-0.26528999999999997,0.9537585000000001,-0.213817,0.28252,0.9491285,-0.22712700000000002,-0.078733,0.00030650000000000035,0.0006960000000000022,0.078733,-0.0003064999999999999,-0.0006960000000000022,-0.13578,-0.45935149999999997,0.02088,0.1223,-0.4566115,0.038042,-0.16388000000000003,-0.8121714999999999,0.082839,0.13561,-0.8177215,0.089899
30,-0.0036430000000000026,0.7310705,0.069829,-0.17014200000000002,0.5253605,0.012361,-0.282732,0.7131504999999999,-0.124001,0.171558,0.5134905,0.007369999999999998,0.288118,0.7038105,-0.125551,-0.26539199999999996,0.9517604999999999,-0.217421,0.28117800000000004,0.9462505,-0.230331,-0.078878,0.0002304999999999998,0.0009459999999999989,0.078878,-0.0002304999999999998,-0.0009460000000000024,-0.136762,-0.4582795,0.017396000000000002,0.123428,-0.4557095,0.032073,-0.164282,-0.8116795,0.081412,0.13530799999999998,-0.8172795,0.088286
31,-0.004164000000000001,0.730132,0.0638685,-0.170689,0.524652,0.0092205,-0.283259,0.711492,-0.1288415,0.171121,0.513232,0.004264500000000001,0.288391,0.701482,-0.1301415,-0.265519,0.949312,-0.2221015,0.279471,0.943372,-0.2343515,-0.079091,0.00015899999999999985,0.001284500000000001,0.079091,-0.00015900000000000007,-0.001284500000000001,-0.138239,-0.456138,0.012296499999999998,0.124701,-0.454198,0.0248585,-0.16494899999999998,-0.810758,0.07934150000000001,0.13487100000000002,-0.816248,0.0859905
32,-0.005147000000000004,0.7290705000000001,0.055511000000000005,-0.171155,0.5233305,0.00408,-0.284245,0.7098105,-0.13611399999999999,0.17052499999999998,0.5124205000000001,-0.0010949999999999988,0.288555,0.6987905000000001,-0.13708399999999998,-0.265525,0.9438605,-0.229504,0.27691499999999997,0.9404905,-0.24045399999999997,-0.07946500000000001,7.449999999999991e-05,0.0016129999999999999,0.07946500000000001,-7.450000000000002e-05,-0.0016129999999999999,-0.14053500000000002,-0.4525695,0.004011000000000001,0.12634499999999999,-0.4510795,0.014333000000000002,-0.16614500000000001,-0.8081495,0.075868,0.134035,-0.8133595,0.082179
33,-0.006057000000000002,0.726968,0.045935500000000004,-0.171555,0.5222279999999999,-0.0018435000000000014,-0.285325,0.706428,-0.1443075,0.169965,0.5118379999999999,-0.0071885000000000004,0.288805,0.694498,-0.1449475,-0.265455,0.938658,-0.2375775,0.274175,0.937338,-0.24753750000000002,-0.079911,-2.1000000000000185e-05,0.0019594999999999994,0.079911,2.0999999999999318e-05,-0.0019594999999999994,-0.143015,-0.448312,-0.005639500000000002,0.128145,-0.447132,0.0023134999999999996,-0.167405,-0.804702,0.0719225,0.133125,-0.8095920000000001,0.0778835
34,-0.006852500000000001,0.7243485,0.035372,-0.17174350000000002,0.5199585,-0.009038000000000001,-0.2863835,0.7026884999999999,-0.15318199999999998,0.1693665,0.5104685,-0.014205000000000002,0.2891165,0.6907485,-0.153582,-0.2651735,0.9339985,-0.24659200000000003,0.2715165,0.9326885,-0.255902,-0.0803575,-8.44999999999995e-05,0.002228000000000001,0.0803575,8.44999999999995e-05,-0.002228000000000001,-0.14559350000000001,-0.44283150000000004,-0.016582,0.13012649999999998,-0.44176150000000003,-0.010856000000000001,-0.16871350000000002,-0.7997915,0.067206,0.1322065,-0.8042515,0.072845
35,-0.0076319999999999956,0.7211934999999999,0.022598,-0.17217,0.5178835,-0.017733,-0.28718,0.6984735,-0.163796,0.16856000000000002,0.5091835,-0.022947000000000002,0.28948,0.6863135,-0.164586,-0.26453,0.9294034999999999,-0.258316,0.26863,0.9263635,-0.26637599999999995,-0.080888,-0.00019649999999999876,0.0024680000000000014,0.080888,0.00019650000000000223,-0.0024679999999999997,-0.14876999999999999,-0.43447650000000004,-0.030185999999999998,0.13226000000000002,-0.4334965,-0.026749000000000002,-0.17026,-0.7921965,0.061092,0.13114,-0.7961265000000001,0.06632099999999999
36,-0.008391999999999998,0.7183755,0.009885999999999999,-0.17253,0.5153455,-0.026543999999999998,-0.28796,0.6941554999999999,-0.174917,0.16784000000000002,0.5069555,-0.032346,0.28972000000000003,0.6825355,-0.175877,-0.26356,0.9225255,-0.270857,0.26619,0.9217455,-0.277437,-0.081377,-0.00020949999999999788,0.0026439999999999996,0.081377,0.00020950000000000135,-0.0026440000000000005,-0.15213,-0.4241645,-0.044768,0.13397,-0.4233045,-0.042336,-0.17181,-0.7828145000000001,0.054504,0.13010000000000002,-0.7862445,0.059308
37,-0.008964999999999999,0.7147235000000001,-0.0033615,-0.172743,0.5122234999999999,-0.035742499999999996,-0.288463,0.6900234999999999,-0.1864665,0.166787,0.5043535,-0.041917499999999996,0.289857,0.6785034999999999,-0.1876765,-0.262493,0.9170035000000001,-0.28370650000000003,0.264057,0.9168235,-0.2891265,-0.081902,-0.00023749999999999466,0.0028185,0.081902,0.0002375000000000016,-0.0028185,-0.155613,-0.4121965,-0.0597085,0.135337,-0.4117665,-0.0572235,-0.173253,-0.7719164999999999,0.0474145,0.129087,-0.7748265000000001,0.0520265
38,-0.009509499999999997,0.7105254999999999,-0.01806,-0.1727185,0.5085355,-0.04634,-0.2885485,0.6852355000000001,-0.199559,0.1656815,0.5015155,-0.052537,0.2898715,0.6744055,-0.200949,-0.26111850000000003,0.9099554999999999,-0.298909,0.2621215,0.9127455,-0.303319,-0.08245949999999999,-0.00016349999999999698,0.0028729999999999997,0.08245949999999999,0.00016350000000000392,-0.0028729999999999997,-0.1593985,-0.3973045,-0.075751,0.1372515,-0.3977745,-0.073414,-0.1746585,-0.7575345,0.039442000000000005,0.1281715,-0.7597145000000001,0.043743000000000004
39,-0.009272500000000003,0.70594,-0.032464,-0.1716905,0.50449,-0.056948,-0.2876705,0.6803299999999999,-0.212568,0.16567949999999998,0.49929,-0.06292,0.29066949999999997,0.66913,-0.214068,-0.2591205,0.9031499999999999,-0.31375800000000004,0.26102949999999997,0.90655,-0.31819800000000004,-0.0827495,-0.00020100000000000673,0.0028880000000000017,0.0827495,0.00020099999999999285,-0.002888,-0.16275050000000002,-0.38202,-0.091504,0.1401395,-0.38314000000000004,-0.089346,-0.17532050000000002,-0.7417499999999999,0.031589000000000006,0.1279995,-0.74319,0.035544000000000006
40,-0.008975999999999998,0.700432,-0.047789,-0.170492,0.500502,-0.067915,-0.28643199999999996,0.674712,-0.226342,0.16556800000000002,0.495752,-0.073605,0.291518,0.663792,-0.227952,-0.256772,0.896762,-0.329622,0.259728,0.900652,-0.334492,-0.08290800000000001,-7.799999999999474e-05,0.0027249999999999983,0.08290800000000001,7.799999999999474e-05,-0.0027250000000000017,-0.16711199999999998,-0.364018,-0.10808,0.143658,-0.365578,-0.106477,-0.175982,-0.722458,0.023488000000000002,0.12773800000000002,-0.724258,0.027299999999999998
41,-0.008450999999999997,0.695905,-0.06625600000000001,-0.16942000000000002,0.49738499999999997,-0.082397,-0.28481,0.670145,-0.24327100000000002,0.16584,0.492985,-0.087412,0.29235,0.6578949999999999,-0.244721,-0.25427,0.8938649999999999,-0.34889099999999995,0.25906,0.8946050000000001,-0.354781,-0.08300199999999999,-5.0000000000050004e-06,0.002591999999999997,0.08300199999999999,4.999999999991123e-06,-0.002592000000000004,-0.17066,-0.345685,-0.126841,0.14684,-0.348115,-0.125732,-0.17613,-0.7019249999999999,0.011599999999999992,0.12764,-0.7042250000000001,0.015382999999999994
42,-0.007697000000000004,0.6941050000000001,-0.0855745,-0.16768500000000003,0.49385500000000004,-0.0979555,-0.282825,0.668945,-0.2616175,0.16623500000000002,0.49156500000000003,-0.1020315,0.29313500000000003,0.656315,-0.26281750000000004,-0.251505,0.8909250000000001,-0.37002749999999995,0.258585,0.890285,-0.37658749999999996,-0.083092,0.00022500000000000298,0.0022675000000000056,0.083092,-0.00022500000000000298,-0.0022674999999999987,-0.17594500000000002,-0.32459499999999997,-0.15052749999999998,0.15157500000000002,-0.32799500000000004,-0.1512175,-0.17606500000000003,-0.677975,-0.0013334999999999944,0.127635,-0.6807949999999999,0.0022445000000000034
43,-0.006964499999999998,0.691215,-0.10510800000000001,-0.1660795,0.490505,-0.113316,-0.28055949999999996,0.666865,-0.28024099999999996,0.16658050000000002,0.489115,-0.116468,0.2939105,0.6537850000000001,-0.281881,-0.24853950000000002,0.888505,-0.391701,0.2581905,0.888195,-0.398641,-0.0830905,0.0002750000000000252,0.0020769999999999955,0.0830905,-0.00027499999999999747,-0.0020770000000000025,-0.1817895,-0.303045,-0.174711,0.1561705,-0.30688499999999996,-0.177161,-0.1757895,-0.652255,-0.014102000000000003,0.1277105,-0.656135,-0.010646000000000003
44,-0.006388499999999994,0.68833,-0.12292250000000002,-0.16437249999999998,0.4866,-0.12778050000000002,-0.2787225,0.6648700000000001,-0.2980375,0.1670375,0.48559,-0.12997950000000003,0.2944775,0.65107,-0.2992075,-0.2459325,0.88588,-0.41184750000000003,0.25792750000000003,0.88819,-0.4195975,-0.0831065,0.00037999999999999146,0.001850499999999991,0.0831065,-0.00037999999999999146,-0.001850500000000005,-0.1876525,-0.28219,-0.1971575,0.16045750000000003,-0.28688,-0.2009775,-0.17540250000000002,-0.62752,-0.02577150000000001,0.12780750000000002,-0.63247,-0.02236550000000001
45,-0.005631499999999997,0.68426,-0.141324,-0.1623025,0.4823,-0.14268999999999998,-0.2765325,0.6624099999999999,-0.316931,0.16765750000000001,0.48195,-0.14382699999999998,0.2952875,0.6478200000000001,-0.317341,-0.2434625,0.88163,-0.432681,0.2580675,0.88361,-0.441231,-0.0831945,0.0004599999999999882,0.001689999999999997,0.0831945,-0.00046000000000001595,-0.001689999999999997,-0.19396249999999998,-0.25947000000000003,-0.21959099999999998,0.16485750000000002,-0.26514000000000004,-0.22525099999999998,-0.17478249999999998,-0.60113,-0.037463,0.1277375,-0.6069,-0.033976
46,-0.0046370000000000005,0.68023,-0.1593075,-0.160054,0.47831999999999997,-0.1573765,-0.27422399999999997,0.65927,-0.3352895,0.16844599999999998,0.47903999999999997,-0.1574545,0.296316,0.64408,-0.3349395,-0.24088400000000001,0.87749,-0.4531895,0.258876,0.881,-0.4620595,-0.083203,0.0006199999999999817,0.0013935000000000058,0.083203,-0.0006200000000000094,-0.0013935000000000058,-0.20028400000000002,-0.23683000000000004,-0.2414795,0.169626,-0.24360000000000004,-0.24902950000000001,-0.173934,-0.57477,-0.0485585,0.127826,-0.58135,-0.0450605
47,-0.0031640000000000036,0.6770400000000001,-0.17605549999999998,-0.15742299999999998,0.47450000000000003,-0.1708315,-0.27147299999999996,0.6569100000000001,-0.35237549999999995,0.169647,0.47607000000000005,-0.1701635,0.297807,0.6408200000000001,-0.35128550000000003,-0.237873,0.87411,-0.4718055,0.260337,0.87854,-0.48096550000000005,-0.083105,0.0006800000000000139,0.0010855000000000031,0.083105,-0.0006799999999999584,-0.0010854999999999893,-0.206003,-0.21520999999999996,-0.2621955,0.17424699999999999,-0.22195999999999994,-0.2711055,-0.17256300000000002,-0.54999,-0.059010499999999994,0.12827699999999997,-0.5576099999999999,-0.055368499999999994
48,-0.0014829999999999956,0.6729700000000001,-0.193279,-0.154607,0.47072,-0.184848,-0.268537,0.65299,-0.369865,0.17107300000000003,0.47170999999999996,-0.183485,0.299303,0.63716,-0.367965,-0.23434699999999997,0.87015,-0.491635,0.262033,0.8752,-0.500265,-0.08305,0.0008599999999999719,0.0007549999999999918,0.08305,-0.0008600000000000274,-0.0007550000000000057,-0.21168700000000001,-0.19182,-0.282725,0.179143,-0.19820000000000004,-0.292505,-0.17090699999999998,-0.52456,-0.06988200000000001,0.128803,-0.5327500000000001,-0.06593900000000001
49,0.0004240000000000025,0.6689849999999999,-0.20958,-0.151824,0.467035,-0.19828,-0.265714,0.648995,-0.386515,0.17272600000000002,0.467875,-0.196092,0.30098600000000003,0.6327149999999999,-0.383535,-0.230924,0.866225,-0.510525,0.263786,0.8704449999999999,-0.5183949999999999,-0.08316599999999999,0.0009750000000000036,0.00044500000000000095,0.08316599999999999,-0.0009750000000000036,-0.00044500000000000095,-0.21595399999999998,-0.170715,-0.301355,0.18338600000000002,-0.17739500000000002,-0.31188499999999997,-0.16913399999999998,-0.5018750000000001,-0.08030599999999999,0.129416,-0.5096050000000001,-0.076152
50,0.0023199999999999957,0.6637599999999999,-0.22091499999999997,-0.14879599999999998,0.46163999999999994,-0.20665899999999998,-0.26296600000000003,0.64308,-0.39858499999999997,0.174354,0.46398999999999996,-0.20372099999999999,0.30264399999999997,0.62798,-0.394355,-0.22761599999999999,0.86012,-0.524535,0.26578399999999996,0.8651,-0.531175,-0.08326700000000001,0.0009799999999999809,7.500000000000562e-05,0.08326700000000001,-0.0009800000000000364,-7.499999999999174e-05,-0.220386,-0.15067000000000008,-0.314635,0.187704,-0.15716000000000008,-0.325785,-0.167356,-0.481,-0.08575999999999999,0.129914,-0.4881500000000001,-0.081435
51,0.003986499999999995,0.65561,-0.23118500000000003,-0.1462835,0.455338,-0.21402700000000002,-0.2608535,0.63298,-0.409955,0.17570650000000002,0.457525,-0.21043800000000001,0.3042065,0.61875,-0.403345,-0.2251435,0.85057,-0.538315,0.2674265,0.85484,-0.543575,-0.0836285,0.0007800000000000029,-0.00029500000000001747,0.0836285,-0.0007800000000000029,0.0002949999999999897,-0.2232335,-0.1325,-0.322135,0.1902565,-0.13835000000000003,-0.332525,-0.1658535,-0.46234000000000003,-0.09030400000000001,0.1301265,-0.46871999999999997,-0.08563600000000002
52,0.005594999999999996,0.64805,-0.23999499999999999,-0.143835,0.450422,-0.22052499999999997,-0.259055,0.62318,-0.42067499999999997,0.17699499999999999,0.453559,-0.216183,0.305585,0.60848,-0.410635,-0.22323500000000002,0.8396,-0.550885,0.269625,0.84153,-0.5548150000000001,-0.083898,0.0005899999999999794,-0.0007349999999999857,0.083898,-0.0005900000000000349,0.0007350000000000134,-0.225555,-0.11614000000000002,-0.327765,0.192815,-0.12084000000000006,-0.33736499999999997,-0.164435,-0.44644000000000006,-0.09437299999999998,0.130305,-0.45136,-0.08949299999999999
53,0.007036999999999998,0.6394150000000001,-0.248935,-0.141575,0.4448850000000001,-0.227272,-0.257085,0.613175,-0.431785,0.177895,0.44855400000000006,-0.22181800000000002,0.306625,0.5979350000000001,-0.417425,-0.221625,0.8271250000000001,-0.564235,0.271725,0.827445,-0.566025,-0.084119,0.0005550000000000277,-0.0011249999999999871,0.084119,-0.0005549999999999722,0.0011250000000000149,-0.227725,-0.09907499999999991,-0.332955,0.195305,-0.10258499999999993,-0.341885,-0.163095,-0.4300949999999999,-0.09876599999999999,0.130645,-0.4333349999999999,-0.09367
54,0.008496000000000004,0.631155,-0.256205,-0.13983299999999999,0.440352,-0.23242800000000002,-0.255583,0.6025050000000001,-0.440565,0.178577,0.444607,-0.22592299999999998,0.307557,0.584665,-0.421465,-0.22009299999999998,0.817455,-0.576025,0.273737,0.815445,-0.5757650000000001,-0.084565,0.0004350000000000187,-0.0015650000000000108,0.084565,-0.0004350000000000187,0.001564999999999983,-0.229243,-0.08546499999999996,-0.336415,0.197597,-0.08824499999999996,-0.345325,-0.162023,-0.416985,-0.102442,0.131147,-0.41845499999999997,-0.09712100000000001
55,0.010167500000000001,0.62392,-0.263145,-0.1380515,0.43497600000000003,-0.23747000000000001,-0.2540315,0.59308,-0.449175,0.1793285,0.43928500000000004,-0.230272,0.30867849999999997,0.5734,-0.425645,-0.21839150000000002,0.80701,-0.588395,0.2762185,0.80281,-0.585705,-0.08487449999999999,0.00036000000000002697,-0.0018849999999999978,0.08487449999999999,-0.00035999999999997145,0.0018849999999999978,-0.2301515,-0.07143999999999995,-0.340355,0.1998085,-0.07379000000000002,-0.349205,-0.16086150000000002,-0.40361,-0.10650300000000001,0.1317585,-0.40357999999999994,-0.10097300000000001
56,0.011356,0.616115,-0.269225,-0.136783,0.429369,-0.241974,-0.253333,0.583015,-0.457015,0.17967699999999998,0.434312,-0.23398399999999997,0.309547,0.561815,-0.429425,-0.217433,0.797385,-0.5999950000000001,0.278407,0.788685,-0.5951150000000001,-0.085023,0.00018499999999999073,-0.002134999999999998,0.085023,-0.00018499999999999073,0.002134999999999998,-0.23102299999999998,-0.058445000000000025,-0.343955,0.201417,-0.06031500000000006,-0.35279499999999997,-0.160173,-0.39150500000000005,-0.11027399999999998,0.131957,-0.39035500000000006,-0.10456399999999999
57,0.012029499999999995,0.60896,-0.27405999999999997,-0.1359205,0.424928,-0.24547000000000002,-0.25307050000000003,0.57402,-0.46384,0.1793895,0.429905,-0.23741099999999998,0.3100095,0.5498149999999999,-0.43292,-0.21706050000000002,0.78776,-0.61042,0.2801095,0.77586,-0.60339,-0.0850215,-1.0000000000010001e-05,-0.0022999999999999965,0.0850215,1.0000000000010001e-05,0.0022999999999999965,-0.2313705,-0.04675999999999997,-0.34738,0.20228949999999998,-0.048300000000000065,-0.35536999999999996,-0.1599105,-0.38042000000000004,-0.113792,0.1318695,-0.37855,-0.107927
58,0.012768,0.602685,-0.27797499999999997,-0.135141,0.420853,-0.24846000000000001,-0.252841,0.565778,-0.469545,0.179009,0.426928,-0.24040899999999998,0.310459,0.539441,-0.435945,-0.216621,0.777865,-0.619815,0.281449,0.764455,-0.610615,-0.085021,-0.00020500000000001073,-0.0024049999999999905,0.085021,0.00020500000000001073,0.0024049999999999905,-0.231661,-0.035555,-0.349935,0.203099,-0.03676500000000005,-0.35684499999999997,-0.159621,-0.369815,-0.116875,0.131879,-0.367205,-0.110833
59,0.013233,0.598665,-0.281305,-0.134737,0.420006,-0.251487,-0.25272700000000003,0.560325,-0.47430500000000003,0.178503,0.425752,-0.243442,0.310783,0.531982,-0.438895,-0.216367,0.771265,-0.628225,0.282543,0.7556149999999999,-0.6172850000000001,-0.085115,-0.0006550000000000167,-0.0026549999999999907,0.085115,0.0006550000000000167,0.0026549999999999907,-0.231867,-0.022964999999999958,-0.35175500000000004,0.203763,-0.023995000000000044,-0.357745,-0.159497,-0.357625,-0.11998900000000001,0.131803,-0.35449499999999995,-0.113789
60,0.012865,0.596238,-0.2841,-0.13500500000000001,0.420758,-0.254281,-0.252965,0.557535,-0.47765,0.177625,0.42656700000000003,-0.245902,0.310645,0.526854,-0.4412,-0.216335,0.767685,-0.63487,0.283015,0.750255,-0.62224,-0.085161,-0.0007249999999999757,-0.0027500000000000024,0.085161,0.0007250000000000312,0.0027500000000000024,-0.232245,-0.01132500000000003,-0.35226,0.203995,-0.011514999999999942,-0.35819,-0.159725,-0.346255,-0.122864,0.131435,-0.342785,-0.116493
61,0.012403500000000007,0.5943120000000001,-0.28679999999999994,-0.1354435,0.4210320000000001,-0.25685199999999997,-0.2534335,0.5549510000000001,-0.48036999999999996,0.1767465,0.4265940000000001,-0.24808699999999997,0.3102865,0.5228440000000001,-0.44305,-0.21663349999999998,0.7637400000000001,-0.641,0.2826265,0.7469000000000001,-0.6265499999999999,-0.0850435,-0.0006199999999999539,-0.002819999999999989,0.0850435,0.0006200000000000649,0.002820000000000017,-0.2327935,-0.0007099999999998774,-0.35256999999999994,0.2040365,-0.00012999999999985246,-0.35851999999999995,-0.1601435,-0.3357999999999999,-0.12562199999999998,0.13091650000000002,-0.3321399999999999,-0.11909199999999998
62,0.011912499999999994,0.593206,-0.28898,-0.1358445,0.42231500000000005,-0.25876299999999997,-0.2539245,0.5526960000000001,-0.48255,0.1757955,0.42864500000000005,-0.249524,0.3099255,0.519808,-0.44392,-0.21697450000000001,0.761515,-0.64503,0.2822355,0.743715,-0.62952,-0.0848135,-0.0006349999999999412,-0.002939999999999998,0.0848135,0.0006350000000000522,0.002939999999999998,-0.23329450000000002,0.00686500000000001,-0.35253,0.2039755,0.008245000000000058,-0.35826,-0.1605945,-0.328175,-0.127793,0.13043549999999998,-0.324545,-0.121165
63,0.011594,0.592989,-0.290675,-0.136334,0.42407,-0.261186,-0.254494,0.551984,-0.485405,0.174706,0.43128200000000005,-0.25155299999999997,0.309486,0.519444,-0.44531499999999996,-0.21754400000000002,0.7605200000000001,-0.649165,0.281796,0.74166,-0.632395,-0.084225,-0.0006499999999999284,-0.00301499999999999,0.084225,0.0006500000000000394,0.0030150000000000177,-0.233524,0.013129999999999975,-0.352515,0.203796,0.015390000000000015,-0.358095,-0.161134,-0.32196,-0.130623,0.129906,-0.31835,-0.12382499999999999
64,0.0111355,0.591715,-0.29197,-0.1367815,0.425665,-0.263306,-0.2550215,0.552848,-0.48805,0.1737485,0.43287700000000007,-0.253522,0.3090785,0.519615,-0.44669,-0.2182415,0.759685,-0.65231,0.2813385,0.7408750000000001,-0.6355500000000001,-0.0836905,-0.0006049999999999667,-0.003140000000000004,0.0836905,0.0006050000000000777,0.003140000000000004,-0.2334515,0.014785000000000048,-0.35225,0.20362850000000002,0.017835000000000045,-0.35780999999999996,-0.1616215,-0.320465,-0.133257,0.1294085,-0.31698499999999996,-0.126319
65,0.011470500000000002,0.591715,-0.292385,-0.13676349999999998,0.425665,-0.265198,-0.25536349999999997,0.552848,-0.489745,0.17337650000000002,0.43287700000000007,-0.25559699999999996,0.3091065,0.519615,-0.44801500000000005,-0.2183235,0.759685,-0.655285,0.28137650000000003,0.7408750000000001,-0.638505,-0.08343249999999999,-0.0006049999999999667,-0.003255000000000008,0.08343249999999999,0.0006050000000000777,0.003255000000000008,-0.23270349999999998,0.014844999999999997,-0.351915,0.2037465,0.018625000000000003,-0.35750499999999996,-0.1616535,-0.32050499999999993,-0.135922,0.1293765,-0.3172149999999999,-0.128808
66,0.012014,0.591715,-0.29204,-0.13631300000000002,0.425665,-0.26676900000000003,-0.255303,0.552848,-0.49163999999999997,0.173727,0.43287700000000007,-0.257097,0.309727,0.519615,-0.44977,-0.217943,0.759685,-0.65787,0.281817,0.7408750000000001,-0.64109,-0.08355299999999999,-0.0006049999999999667,-0.003470000000000001,0.08355299999999999,0.0006050000000000777,0.003470000000000001,-0.231443,0.015125000000000055,-0.35177,0.20413699999999999,0.019365000000000077,-0.35697999999999996,-0.161243,-0.3203349999999999,-0.138507,0.129797,-0.31723499999999993,-0.131142
67,0.012184,0.591715,-0.291205,-0.13603500000000002,0.42757100000000003,-0.268116,-0.255435,0.552848,-0.493065,0.173875,0.435145,-0.258013,0.310315,0.519615,-0.451375,-0.217785,0.759685,-0.660365,0.28229499999999996,0.7408750000000001,-0.643235,-0.083545,-0.0006049999999999667,-0.0036650000000000016,0.083545,0.0006050000000000777,0.0036650000000000016,-0.230035,0.015465000000000062,-0.35123499999999996,0.20426499999999997,0.02022500000000005,-0.356135,-0.161055,-0.320225,-0.140975,0.130075,-0.31723499999999993,-0.13327
68,0.012545,0.592369,-0.28924,-0.13583299999999998,0.430465,-0.26869,-0.255653,0.554871,-0.49374,0.173977,0.437999,-0.258397,0.311037,0.51989,-0.45222,-0.217673,0.759595,-0.66222,0.28285699999999997,0.740595,-0.6445099999999999,-0.082935,-0.0004250000000000087,-0.003810000000000008,0.082935,0.0004250000000000087,0.003810000000000008,-0.228593,0.014445000000000041,-0.35068,0.204357,0.019225000000000048,-0.35445,-0.160893,-0.321565,-0.142776,0.130307,-0.31869499999999995,-0.134796
69,0.012718000000000007,0.5957079999999999,-0.285605,-0.135869,0.43221599999999993,-0.267044,-0.257129,0.5554859999999999,-0.492915,0.17389100000000002,0.43999299999999997,-0.256435,0.311811,0.5223549999999999,-0.451375,-0.217719,0.7594299999999999,-0.661065,0.283551,0.7414399999999999,-0.644565,-0.08176,-0.0002500000000000835,-0.003735000000000016,0.08176,0.00024999999999997247,0.0037349999999999883,-0.227049,0.004609999999999892,-0.349235,0.204541,0.00928999999999991,-0.351905,-0.160889,-0.3317500000000001,-0.14275800000000002,0.130481,-0.32901,-0.13445800000000002
70,0.012902999999999998,0.601315,-0.28189,-0.13596,0.43370600000000004,-0.265236,-0.25767,0.557369,-0.49178,0.17381,0.441614,-0.25427,0.31262,0.525164,-0.45016,-0.21802000000000002,0.761925,-0.65915,0.2845,0.742775,-0.6432800000000001,-0.08082700000000001,-0.00015500000000001624,-0.0037299999999999833,0.08082700000000001,0.00015500000000001624,0.003730000000000011,-0.22524,-0.0067150000000000265,-0.34806,0.20459,-0.002515000000000045,-0.34955,-0.16092,-0.34382500000000005,-0.142533,0.13072999999999999,-0.341195,-0.133969
71,0.012638499999999997,0.6080300000000001,-0.2779,-0.1365345,0.43438400000000005,-0.263341,-0.25930450000000005,0.5602,-0.49072,0.1731555,0.44213300000000005,-0.251986,0.31331549999999997,0.52934,-0.44858,-0.2191145,0.7659400000000001,-0.65692,0.2850855,0.74603,-0.6408400000000001,-0.0804695,0.00037000000000003697,-0.0037299999999999833,0.0804695,-0.00036999999999998145,0.003730000000000011,-0.2238945,-0.02116999999999991,-0.34636999999999996,0.2039455,-0.017159999999999953,-0.34662,-0.1614645,-0.35900999999999994,-0.14227499999999998,0.1304855,-0.35646,-0.13338899999999998
72,0.012785499999999998,0.615815,-0.274236,-0.1367305,0.44003499999999995,-0.261133,-0.2605605,0.565425,-0.48886,0.17295950000000002,0.446409,-0.24928099999999997,0.3145895,0.535112,-0.4472,-0.2199805,0.770215,-0.65375,0.2863795,0.749385,-0.63752,-0.08028350000000001,0.0005850000000000022,-0.0037299999999999833,0.08028350000000001,-0.0005850000000000022,0.003730000000000011,-0.2223705,-0.038754999999999984,-0.34531999999999996,0.2036195,-0.03479500000000002,-0.34407,-0.1616905,-0.37838499999999997,-0.142293,0.1307095,-0.37592500000000006,-0.13338699999999998
73,0.012785999999999995,0.62646,-0.26977300000000004,-0.136982,0.445132,-0.25855300000000003,-0.261962,0.57548,-0.48558,0.173058,0.450377,-0.246239,0.315888,0.544461,-0.44532,-0.22111200000000003,0.7795000000000001,-0.6494,0.28794800000000004,0.758,-0.6329899999999999,-0.080054,0.0007699999999999929,-0.003630000000000022,0.080054,-0.0007699999999999929,0.0036299999999999943,-0.22082200000000002,-0.05618999999999996,-0.34416,0.20313799999999999,-0.05281999999999998,-0.34143,-0.16195199999999998,-0.39788999999999997,-0.14198300000000003,0.130878,-0.39612,-0.13307400000000003
74,0.012615500000000005,0.635935,-0.263894,-0.1377695,0.449183,-0.25488500000000003,-0.2635695,0.582825,-0.48131,0.1727105,0.45313800000000004,-0.242828,0.3170705,0.552075,-0.44182999999999995,-0.22262949999999998,0.786865,-0.6436499999999999,0.2893305,0.764835,-0.62669,-0.0800135,0.0007949999999999902,-0.0034500000000000086,0.0800135,-0.0007949999999999902,0.0034500000000000086,-0.2174895,-0.08118500000000001,-0.33984000000000003,0.20049050000000002,-0.07942499999999997,-0.33626,-0.16244949999999997,-0.42735499999999993,-0.141383,0.1309805,-0.42574499999999993,-0.13247
75,0.012582999999999997,0.645905,-0.256819,-0.138511,0.45265999999999995,-0.250003,-0.264991,0.590295,-0.475285,0.172649,0.455881,-0.238043,0.318239,0.5600849999999999,-0.437045,-0.224141,0.793365,-0.635705,0.291059,0.774565,-0.6184350000000001,-0.080128,0.0008149999999999546,-0.003395000000000009,0.080128,-0.0008150000000000102,0.0033949999999999814,-0.213651,-0.10736500000000004,-0.333585,0.19750900000000002,-0.107215,-0.329195,-0.163461,-0.458615,-0.14109100000000002,0.13242900000000002,-0.45721500000000004,-0.133498
76,0.012627,0.658775,-0.24732900000000002,-0.139187,0.456595,-0.243365,-0.266177,0.598395,-0.46658,0.17297300000000002,0.460155,-0.231523,0.31947299999999995,0.570295,-0.42962999999999996,-0.22547699999999998,0.806025,-0.62477,0.292743,0.786015,-0.60633,-0.08021,0.0006650000000000267,-0.003170000000000006,0.08021,-0.0006649999999999712,0.003170000000000006,-0.208677,-0.134685,-0.32373,0.19384300000000002,-0.135695,-0.31930000000000003,-0.164127,-0.492695,-0.13943,0.134323,-0.491695,-0.133106
77,0.012350499999999997,0.67148,-0.236687,-0.14051349999999999,0.46308,-0.235455,-0.2675635,0.60856,-0.456145,0.1730265,0.46480999999999995,-0.223947,0.3200865,0.58221,-0.420895,-0.2273435,0.8182699999999999,-0.611925,0.29347650000000003,0.79984,-0.592705,-0.0804215,0.0006499999999999839,-0.0029649999999999954,0.0804215,-0.0006500000000000394,0.0029649999999999954,-0.2036635,-0.16099000000000002,-0.31245500000000004,0.18983650000000002,-0.16318,-0.30788499999999996,-0.1653135,-0.52612,-0.137029,0.1356565,-0.5258,-0.131168
78,0.011774000000000003,0.6826099999999999,-0.224704,-0.142121,0.47065999999999997,-0.22682799999999997,-0.268061,0.6215999999999999,-0.44360499999999997,0.17279899999999998,0.47211000000000003,-0.215745,0.31960900000000003,0.59511,-0.410415,-0.22945100000000002,0.83385,-0.597445,0.293869,0.81578,-0.5764849999999999,-0.080571,0.0005999999999999894,-0.002604999999999996,0.080571,-0.0005999999999999894,0.002605000000000024,-0.198801,-0.18168,-0.298655,0.185089,-0.18517,-0.29410499999999995,-0.166221,-0.55435,-0.131964,0.136309,-0.55522,-0.12661299999999998
79,0.011456000000000001,0.68926,-0.2111,-0.14361300000000002,0.47824,-0.21685100000000002,-0.268383,0.63444,-0.429135,0.17271699999999998,0.47975999999999996,-0.20657,0.319297,0.6088899999999999,-0.398395,-0.231353,0.84756,-0.5818650000000001,0.294097,0.83241,-0.559095,-0.080794,0.0007099999999999884,-0.0023849999999999982,0.080794,-0.0007100000000000162,0.0023849999999999982,-0.193503,-0.20324000000000003,-0.282915,0.180347,-0.20748,-0.278615,-0.166933,-0.58328,-0.12551800000000002,0.13688699999999998,-0.58492,-0.12019500000000001
80,0.009736499999999999,0.6916,-0.19636299999999998,-0.14586649999999998,0.48402,-0.20626999999999998,-0.2703065,0.6450199999999999,-0.41306499999999996,0.1718735,0.48661,-0.19668199999999997,0.3183935,0.62049,-0.38548499999999997,-0.2339665,0.85848,-0.564505,0.2931635,0.84789,-0.5408949999999999,-0.08094950000000001,0.0007199999999999984,-0.0019549999999999845,0.08094950000000001,-0.0007200000000000262,0.0019550000000000123,-0.1884665,-0.23233000000000004,-0.265285,0.17462350000000001,-0.23793000000000003,-0.26154499999999997,-0.1677865,-0.61386,-0.11838399999999998,0.1363035,-0.61587,-0.11292599999999997
81,0.0076915,0.691135,-0.178821,-0.14797549999999998,0.480565,-0.19417299999999998,-0.2711555,0.6526350000000001,-0.39392,0.1708745,0.490935,-0.186662,0.31744449999999996,0.6342650000000001,-0.37178999999999995,-0.2370555,0.869425,-0.54463,0.29235449999999996,0.863355,-0.5208999999999999,-0.08137849999999999,0.0009350000000000191,-0.0015600000000000058,0.08137849999999999,-0.0009349999999999914,0.0015600000000000058,-0.1821755,-0.26320499999999997,-0.24436,0.16788450000000002,-0.270095,-0.24108,-0.1684955,-0.646265,-0.11135099999999999,0.1356745,-0.647965,-0.10586499999999999
82,0.005832500000000003,0.69055,-0.161088,-0.1497975,0.47932,-0.18171600000000002,-0.2719975,0.6564300000000001,-0.375605,0.17016250000000002,0.49626000000000003,-0.17631100000000002,0.31644249999999996,0.64609,-0.35746500000000003,-0.24005749999999998,0.8794599999999999,-0.523155,0.2918225,0.8773900000000001,-0.499815,-0.0816605,0.0009300000000000141,-0.0011250000000000149,0.0816605,-0.0009299999999999864,0.0011249999999999871,-0.17533749999999998,-0.29435999999999996,-0.221455,0.1606725,-0.30154,-0.21826500000000001,-0.16895749999999998,-0.67851,-0.10404100000000002,0.1352625,-0.67953,-0.09855700000000002
83,0.004286,0.69567,-0.136226,-0.152494,0.4854,-0.160759,-0.272964,0.66432,-0.34867,0.169736,0.5013,-0.156259,0.314156,0.65678,-0.33374,-0.243094,0.88878,-0.49330999999999997,0.291296,0.89085,-0.4694,-0.081662,0.0008399999999999935,-0.0005399999999999988,0.081662,-0.0008400000000000074,0.0005399999999999988,-0.168714,-0.3239,-0.187375,0.153386,-0.33023,-0.182572,-0.169104,-0.70672,-0.08687900000000001,0.135146,-0.70703,-0.081613
84,0.0027564999999999985,0.7006305,-0.11145,-0.1551765,0.4914805,-0.14029,-0.2735865,0.6727505,-0.322295,0.16943350000000001,0.5058005,-0.137064,0.3110635,0.6682005,-0.309585,-0.2463765,0.8998405,-0.46377499999999994,0.2900935,0.9027705,-0.43933500000000003,-0.0816545,0.0008055000000000007,7.500000000000562e-05,0.0816545,-0.0008055000000000007,-7.499999999999174e-05,-0.16242650000000003,-0.3513295,-0.15419,0.1465035,-0.3567495,-0.14796499999999999,-0.1692365,-0.7322295,-0.06980699999999998,0.13503349999999997,-0.7314795,-0.064966
85,0.000982499999999999,0.7039110000000001,-0.08836500000000001,-0.1575225,0.496351,-0.12109400000000001,-0.2752325,0.679361,-0.29793400000000003,0.1690375,0.508671,-0.119421,0.30755750000000004,0.676681,-0.28700400000000004,-0.2496825,0.905031,-0.435454,0.2881475,0.9122910000000001,-0.411714,-0.0816575,0.0008420000000000094,0.0004799999999999943,0.0816575,-0.0008419999999999955,-0.0004800000000000082,-0.1571725,-0.37278900000000004,-0.12415800000000002,0.1406775,-0.377259,-0.116011,-0.1693425,-0.7519589999999999,-0.05354300000000001,0.1349275,-0.749949,-0.04907600000000001
86,-0.0004405000000000008,0.706125,-0.065831,-0.1592165,0.499765,-0.102374,-0.2764465,0.683775,-0.274328,0.1694335,0.512245,-0.10211100000000001,0.3041235,0.6842349999999999,-0.264828,-0.2523765,0.911015,-0.407208,0.2862335,0.920235,-0.384748,-0.0813465,0.0007040000000000032,0.0008809999999999929,0.0813465,-0.0007039999999999963,-0.0008810000000000068,-0.1518365,-0.391995,-0.095155,0.1353835,-0.39581500000000003,-0.085135,-0.1689565,-0.770355,-0.037684,0.1351635,-0.766725,-0.033545
87,-0.0018889999999999957,0.7081705,-0.0437255,-0.161109,0.5029605,-0.0841495,-0.277819,0.6881205,-0.2514905,0.169821,0.5142505,-0.0853845,0.300671,0.6911505,-0.24373050000000002,-0.255039,0.9148505,-0.3802005,0.283821,0.9274905,-0.3590205,-0.081014,0.0006635000000000009,0.0011135000000000034,0.081014,-0.0006634999999999974,-0.0011134999999999964,-0.147059,-0.40790950000000004,-0.0684475,0.130611,-0.41117950000000003,-0.0566915,-0.167849,-0.7862595,-0.020262499999999996,0.134061,-0.7809595,-0.015017499999999996
88,-0.0032054999999999974,0.7121995,-0.022154000000000004,-0.16327550000000002,0.5059795,-0.06639300000000001,-0.2793955,0.6917395,-0.229421,0.16970449999999998,0.5159695,-0.06876700000000001,0.2971545,0.6963995,-0.222831,-0.2576655,0.9187095,-0.353111,0.2813245,0.9334195,-0.333461,-0.0807085,0.0003955,0.0013909999999999964,0.0807085,-0.0003955,-0.0013910000000000033,-0.14269549999999998,-0.4237205,-0.043500000000000004,0.1262545,-0.4255805,-0.029814000000000007,-0.1665255,-0.7995205000000001,-0.003281000000000006,0.13318449999999998,-0.7935905000000001,0.0030899999999999955
89,-0.004403000000000001,0.717496,-0.0020530000000000027,-0.165302,0.509836,-0.049502000000000004,-0.28140200000000004,0.694726,-0.208592,0.169518,0.517706,-0.053032,0.293558,0.700896,-0.203142,-0.26024200000000003,0.922446,-0.32745199999999997,0.278908,0.936796,-0.30958199999999997,-0.080478,0.00024200000000000003,0.0016119999999999954,0.080478,-0.00024200000000000003,-0.0016120000000000023,-0.13883199999999998,-0.438614,-0.020666000000000004,0.12231800000000001,-0.438864,-0.005115000000000005,-0.165062,-0.810634,0.013311999999999997,0.132408,-0.804644,0.019976999999999995
90,-0.0052215,0.7242645,0.0140645,-0.1673145,0.5174044999999999,-0.0351885,-0.2835345,0.6981244999999999,-0.1919855,0.1690855,0.5172545,-0.0385965,0.2906255,0.7011944999999999,-0.18486550000000002,-0.26245450000000003,0.9260744999999999,-0.3049155,0.27658550000000004,0.9401345,-0.2886955,-0.0801625,-0.00011850000000000012,0.0016145000000000014,0.0801625,0.0001184999999999999,-0.0016145000000000014,-0.1362445,-0.4511755,-0.002347499999999999,0.11953549999999999,-0.4498455,0.015018499999999997,-0.1641045,-0.8180155,0.027603500000000003,0.1319655,-0.8119755000000001,0.0345915
91,-0.0062055,0.728524,0.029486500000000002,-0.16947849999999998,0.523404,-0.021504500000000003,-0.2859185,0.7012339999999999,-0.17568050000000002,0.16840149999999998,0.5161739999999999,-0.0246175,0.2877415,0.700384,-0.1675105,-0.26467850000000004,0.926484,-0.28471050000000003,0.2741115,0.940174,-0.26967050000000004,-0.0797955,-0.00025900000000000055,0.001518499999999999,0.0797955,0.0002589999999999988,-0.0015185000000000008,-0.13434849999999998,-0.464306,0.0138005,0.1173315,-0.461686,0.0324405,-0.16336850000000003,-0.8257260000000001,0.040848499999999996,0.1315115,-0.8188960000000001,0.047701499999999994
92,-0.0071184999999999955,0.7292335000000001,0.0361435,-0.1700865,0.5230935,-0.017163499999999998,-0.28748650000000003,0.7033235,-0.1685655,0.1679235,0.5166035,-0.020403499999999998,0.2861035,0.7027635,-0.1609255,-0.2664665,0.9295135,-0.2739655,0.2724835,0.9429235,-0.26157549999999996,-0.07953350000000001,-0.00020949999999999962,0.0012705,0.07953350000000001,0.00020949999999999962,-0.0012705,-0.13390649999999998,-0.4654165,0.0164155,0.11745350000000002,-0.4621565,0.0350535,-0.1629265,-0.8272265,0.043805500000000004,0.13169350000000002,-0.8193665,0.0506065
93,-0.008053999999999999,0.7295225000000001,0.042215,-0.170782,0.5227425,-0.012871,-0.28899199999999997,0.7047425,-0.161746,0.167438,0.5170525,-0.016299,0.285028,0.7044625,-0.155296,-0.268082,0.9318525000000001,-0.264166,0.27112800000000004,0.9447325000000001,-0.254156,-0.07930799999999999,-0.00018250000000000037,0.0010420000000000004,0.07930799999999999,0.00018250000000000037,-0.001042,-0.133452,-0.4663475,0.018915,0.117698,-0.4625075,0.037551,-0.162472,-0.8280474999999999,0.046335,0.131978,-0.8200974999999999,0.053362999999999994
94,-0.008649999999999998,0.729487,0.0476605,-0.171566,0.5224869999999999,-0.0085235,-0.290236,0.7053969999999999,-0.1551775,0.16704400000000003,0.517417,-0.0122515,0.284304,0.705627,-0.1501875,-0.269426,0.933477,-0.25564749999999997,0.270304,0.9456869999999999,-0.2474675,-0.079107,-0.0001749999999999998,0.0008655,0.079107,0.00017500000000000154,-0.0008655,-0.13291599999999998,-0.46707299999999996,0.021303500000000003,0.118044,-0.463003,0.039938499999999995,-0.16193600000000002,-0.828393,0.0487245,0.132394,-0.820613,0.0559085
95,-0.009057999999999998,0.7293120000000001,0.05286,-0.17207899999999998,0.522292,-0.004621,-0.291399,0.7057220000000001,-0.14887,0.166831,0.5177120000000001,-0.008342,0.283861,0.706232,-0.14531999999999998,-0.270569,0.934292,-0.24822,0.269941,0.946342,-0.24111,-0.078933,-0.0001799999999999996,0.000722,0.078933,0.0001799999999999996,-0.000722,-0.132409,-0.467618,0.022505,0.118371,-0.46294799999999997,0.041326999999999996,-0.16136899999999998,-0.8286279999999999,0.051080999999999994,0.132921,-0.8211379999999999,0.05841
96,-0.009215999999999995,0.7291925,0.057467500000000005,-0.17246699999999998,0.5221724999999999,-0.0009795000000000003,-0.292347,0.7057025,-0.14333849999999998,0.16670300000000002,0.5179524999999999,-0.0046565,0.283553,0.7065125,-0.14081849999999999,-0.27143700000000004,0.9350824999999999,-0.2419585,0.26992299999999997,0.9465425,-0.2355185,-0.07879900000000001,-0.00018349999999999964,0.0005604999999999998,0.07879900000000001,0.00018349999999999964,-0.0005605000000000002,-0.132037,-0.46802750000000004,0.0232485,0.118723,-0.46286750000000004,0.042289499999999994,-0.16080699999999998,-0.8287475,0.0533425,0.133443,-0.8216075,0.060783500000000004
97,-0.009197500000000006,0.7291575,0.060849499999999994,-0.1724765,0.5220675,0.0016534999999999996,-0.29297650000000003,0.7056675,-0.1392295,0.16682349999999999,0.5179174999999999,-0.0020645000000000004,0.2835535,0.7064775,-0.1374495,-0.2720465,0.9352575,-0.2372395,0.27029349999999996,0.9465075,-0.23142949999999998,-0.0787155,-0.00015949999999999992,0.0004534999999999999,0.0787155,0.00015949999999999992,-0.0004534999999999999,-0.1318165,-0.46813249999999995,0.0233795,0.11898349999999999,-0.4628825,0.042554499999999995,-0.16028650000000003,-0.8287825,0.0549845,0.1338935,-0.8221025000000001,0.0625615
98,-0.0091,0.7290675,0.063883,-0.17253,0.5218875,0.004205,-0.29325,0.7056475,-0.135819,0.16707,0.5178974999999999,0.0003039999999999996,0.2838,0.7064575,-0.134479,-0.27229,0.9352974999999999,-0.233449,0.27082,0.9464874999999999,-0.227959,-0.078648,-0.00013950000000000073,0.0003309999999999997,0.078648,0.000139499999999999,-0.0003309999999999997,-0.13163,-0.4681725,0.023415,0.11926999999999999,-0.4629025,0.042772,-0.15975999999999999,-0.8288025,0.056466999999999996,0.13435,-0.8224825,0.064128
99,-0.008941499999999998,0.7288835,0.066175,-0.1726305,0.5216735,0.0062770000000000005,-0.2932305,0.7056335,-0.13336,0.1674295,0.5178834999999999,0.002098,0.2842195,0.7064435,-0.13198,-0.27221049999999997,0.9352834999999999,-0.23084,0.2713795,0.9464735,-0.22522,-0.07861850000000001,-0.0001255000000000006,0.0002440000000000003,0.07861850000000001,0.00012549999999999888,-0.00024399999999999943,-0.13149049999999998,-0.4682065,0.023337000000000004,0.11950949999999999,-0.4629165,0.043045,-0.1592805,-0.8287865,0.057579,0.13479950000000002,-0.8226965,0.065314
100,-0.008731499999999998,0.7287724999999999,0.0682055,-0.1728095,0.5214424999999999,0.008386500000000002,-0.29316949999999997,0.7054324999999999,-0.1310945,0.1678105,0.5178625,0.0037055000000000013,0.2847105,0.7064024999999999,-0.1296145,-0.2719395,0.9352824999999999,-0.2284245,0.2718905,0.9463024999999999,-0.2226645,-0.0786135,-0.00011049999999999949,0.00011850000000000055,0.0786135,0.00011049999999999949,-0.00011849999999999881,-0.1314395,-0.4682375,0.023210500000000002,0.11972050000000001,-0.4628775,0.043327500000000005,-0.1588895,-0.8285275000000001,0.0585845,0.1352105,-0.8228575,0.0664365
101,-0.0085005,0.7286965,0.070053,-0.1730215,0.5212465,0.010429999999999998,-0.29306150000000003,0.7052065,-0.12909400000000001,0.1681685,0.5177965,0.005179999999999999,0.2851785,0.7061164999999999,-0.127414,-0.2716315,0.9350664999999999,-0.226104,0.2723585,0.9460864999999999,-0.220274,-0.07862749999999999,-0.00010450000000000043,-2.9000000000001247e-05,0.07862749999999999,0.00010450000000000043,2.8999999999999512e-05,-0.1314415,-0.4682635,0.023099,0.1199285,-0.4628835,0.043628,-0.1585415,-0.8281635,0.059418,0.13557850000000002,-0.8229835000000001,0.06745999999999999
102,-0.008228000000000004,0.7286524999999999,0.071572,-0.173152,0.5210724999999999,0.012114,-0.292942,0.7049825,-0.12736299999999998,0.16852799999999998,0.5176625,0.006474000000000001,0.28560800000000003,0.7057125,-0.125413,-0.271302,0.9348624999999999,-0.223993,0.27284800000000003,0.9459425,-0.218183,-0.07863200000000001,-8.850000000000004e-05,-0.00016000000000000042,0.07863200000000001,8.850000000000004e-05,0.00016000000000000042,-0.13146200000000002,-0.46824750000000004,0.022978,0.12009799999999998,-0.46313750000000004,0.043812000000000004,-0.158222,-0.8278075,0.060144,0.135908,-0.8230575,0.068331
103,-0.008012499999999999,0.728627,0.0728265,-0.1732185,0.520907,0.0134545,-0.2928985,0.704767,-0.12596749999999998,0.1687815,0.517507,0.0074684999999999994,0.2859215,0.705177,-0.12360749999999998,-0.2710985,0.9347070000000001,-0.2221275,0.2732615,0.945737,-0.2164775,-0.07864650000000001,-5.400000000000023e-05,-0.00032050000000000134,0.07864650000000001,5.400000000000023e-05,0.0003204999999999996,-0.1315585,-0.468233,0.0227655,0.1201815,-0.463453,0.0439035,-0.15799850000000001,-0.827463,0.0607455,0.1361315,-0.823033,0.0690195
104,-0.007862500000000003,0.7286050000000001,0.0735335,-0.1734015,0.520715,0.014540500000000001,-0.29290150000000004,0.704565,-0.1250075,0.1689585,0.517325,0.0081005,0.2861585,0.704595,-0.1222875,-0.2710015,0.934615,-0.2206975,0.27354849999999997,0.945565,-0.2152875,-0.0786595,-1.600000000000039e-05,-0.0005004999999999992,0.0786595,1.600000000000039e-05,0.0005005000000000009,-0.1317115,-0.468195,0.0225635,0.12025849999999999,-0.463705,0.0440865,-0.15791149999999998,-0.827105,0.0611155,0.1362085,-0.822995,0.0694175
105,-0.007746999999999999,0.7286005000000001,0.0740425,-0.173573,0.5205205,0.0153265,-0.292963,0.7043905,-0.1242305,0.16908700000000002,0.5170405,0.0085705,0.28641700000000003,0.7039505,-0.12117049999999999,-0.270963,0.9345305,-0.21936049999999999,0.273857,0.9453705,-0.2143405,-0.078658,1.5500000000001624e-05,-0.0006044999999999991,0.078658,-1.549999999999989e-05,0.0006045000000000009,-0.131843,-0.4681695,0.022350500000000002,0.12029699999999999,-0.4638795,0.0442085,-0.15784299999999998,-0.8268295,0.0612845,0.136267,-0.8229894999999999,0.06965450000000001
106,-0.007646,0.7286345,0.074543,-0.17377,0.5203345,0.016089,-0.29305000000000003,0.7042145,-0.12341800000000001,0.16925,0.5167444999999999,0.009,0.28678000000000003,0.7032445,-0.12014799999999999,-0.27092000000000005,0.9342644999999999,-0.218108,0.27415999999999996,0.9450745,-0.21356799999999998,-0.078663,4.049999999999887e-05,-0.0006910000000000006,0.078663,-4.0500000000000605e-05,0.0006910000000000006,-0.13194,-0.4681455,0.022178,0.12035,-0.4639255,0.044358999999999996,-0.1578,-0.8265855,0.061435000000000003,0.1363,-0.8229655,0.069864
107,-0.007593500000000001,0.728649,0.07500899999999999,-0.17393550000000002,0.520179,0.016794,-0.2931855,0.703979,-0.12267999999999998,0.1694545,0.5164489999999999,0.009273,0.2872045,0.702539,-0.11923999999999998,-0.2707955,0.9339189999999999,-0.21697,0.2744145,0.944809,-0.21292,-0.0786635,5.400000000000023e-05,-0.0007600000000000003,0.0786635,-5.400000000000023e-05,0.0007600000000000003,-0.13204549999999998,-0.468121,0.022005,0.1203645,-0.463951,0.044456,-0.15779549999999998,-0.826321,0.061529,0.13627450000000002,-0.822921,0.070027
108,-0.0075584999999999975,0.7286505000000001,0.0754695,-0.1740875,0.5200205,0.017475499999999998,-0.2933375,0.7036105,-0.1218275,0.1696325,0.5161505000000001,0.0094135,0.2876725,0.7020205,-0.11852750000000001,-0.2706375,0.9335605,-0.2158775,0.27467250000000004,0.9445005000000001,-0.21231750000000002,-0.07864850000000001,7.849999999999871e-05,-0.0008165000000000013,0.07864850000000001,-7.850000000000044e-05,0.0008164999999999995,-0.1321775,-0.4680995,0.0218025,0.1203725,-0.4639395,0.0445075,-0.15780750000000002,-0.8260495,0.0616325,0.1362325,-0.8228395,0.0701325
109,-0.007535,0.7285969999999999,0.07578750000000001,-0.174209,0.5198969999999999,0.0180715,-0.293469,0.703297,-0.1210185,0.169811,0.515907,0.0097055,0.288061,0.701587,-0.1179885,-0.270549,0.9332769999999999,-0.21500850000000002,0.274861,0.9443469999999999,-0.2119385,-0.078633,9.99999999999994e-05,-0.0008084999999999985,0.078633,-0.00010000000000000113,0.0008085000000000002,-0.132239,-0.468093,0.0216395,0.120371,-0.463953,0.0444995,-0.157789,-0.8259230000000001,0.0616745,0.136171,-0.822693,0.07018250000000001
110,-0.007495000000000007,0.728536,0.076101,-0.17433400000000002,0.5197660000000001,0.018699,-0.293574,0.703016,-0.12025599999999999,0.17002599999999998,0.5157160000000001,0.010007,0.288446,0.701256,-0.117526,-0.270454,0.9330160000000001,-0.21417599999999998,0.275096,0.944156,-0.211506,-0.078618,0.00012299999999999985,-0.0007950000000000006,0.078618,-0.00012299999999999985,0.0007950000000000006,-0.132274,-0.468084,0.021488,0.12038599999999999,-0.46394399999999997,0.044494,-0.15777400000000003,-0.825804,0.061708,0.136116,-0.822614,0.070259
111,-0.007443000000000002,0.7284525,0.07641150000000001,-0.174442,0.5196324999999999,0.0193585,-0.293682,0.7027325,-0.1194965,0.170238,0.5155225,0.0102655,0.288798,0.7009325,-0.1171065,-0.270382,0.9327825,-0.2133365,0.27533799999999997,0.9438825,-0.2110265,-0.078606,0.00013849999999999973,-0.0007825000000000002,0.078606,-0.00013849999999999973,0.0007825000000000002,-0.132312,-0.4680975,0.0213115,0.120398,-0.4639375,0.0444965,-0.157762,-0.8256775000000001,0.0617485,0.136048,-0.8225575,0.0703375
112,-0.007375999999999997,0.7283434999999999,0.076711,-0.174538,0.5195135,0.019972999999999998,-0.293788,0.7024334999999999,-0.11872,0.170432,0.5152835,0.010579999999999999,0.289142,0.7006635,-0.11673000000000001,-0.270348,0.9325935,-0.21250000000000002,0.275542,0.9435534999999999,-0.21053,-0.078584,0.0001515000000000006,-0.0007730000000000011,0.078584,-0.00015149999999999886,0.0007729999999999994,-0.132348,-0.46809649999999997,0.021164,0.12040200000000001,-0.4639465,0.044442999999999996,-0.157768,-0.8254965000000001,0.061773999999999996,0.135972,-0.8225465000000001,0.070413
113,-0.007300500000000005,0.7282120000000001,0.077028,-0.1745385,0.519412,0.020344,-0.2938885,0.7021120000000001,-0.11795299999999999,0.17062149999999998,0.515042,0.010987,0.2894915,0.700392,-0.116333,-0.2704185,0.932412,-0.21160299999999999,0.27573149999999996,0.943212,-0.210003,-0.0785615,0.00016700000000000048,-0.0007670000000000003,0.0785615,-0.00016700000000000048,0.0007670000000000003,-0.1323785,-0.468098,0.020991,0.12037149999999999,-0.46407800000000005,0.044378,-0.1577685,-0.825328,0.061800999999999995,0.13579149999999998,-0.8230179999999999,0.070534
114,-0.007220999999999998,0.7280490000000001,0.07738650000000001,-0.17455,0.519329,0.0208765,-0.29395,0.701779,-0.11718350000000001,0.17078,0.514859,0.0115045,0.28986,0.700099,-0.11591349999999999,-0.2705,0.9322590000000001,-0.2107835,0.27593,0.942809,-0.2094635,-0.078538,0.00017700000000000007,-0.0007644999999999996,0.078538,-0.00017700000000000007,0.0007645000000000013,-0.13243,-0.468111,0.0207465,0.12036,-0.464161,0.044298500000000005,-0.15778,-0.825141,0.061825500000000005,0.13565,-0.823381,0.0705915
115,-0.0071555,0.7278555,0.0778355,-0.17455150000000003,0.5192555,0.0214245,-0.29400149999999997,0.7013955,-0.11633650000000001,0.17097849999999998,0.5146955,0.0121325,0.2902285,0.6998354999999999,-0.11544650000000001,-0.2705815,0.9321155,-0.2099365,0.2761285,0.9423855,-0.2089165,-0.0785125,0.00018849999999999943,-0.0007445000000000004,0.0785125,-0.00018849999999999943,0.0007444999999999986,-0.13248149999999997,-0.4680745,0.0204985,0.1203585,-0.4642945,0.0442195,-0.15779149999999997,-0.8249945000000001,0.0618795,0.1355285,-0.8238045,0.0706575
116,-0.007106000000000003,0.727663,0.07842550000000001,-0.174558,0.5191629999999999,0.0216195,-0.294068,0.701013,-0.11536249999999998,0.17115199999999997,0.514563,0.012672500000000001,0.29059199999999996,0.6995629999999999,-0.1148825,-0.270718,0.9319729999999999,-0.2089425,0.27632199999999996,0.941913,-0.2082625,-0.078488,0.0002009999999999998,-0.0007034999999999993,0.078488,-0.0002009999999999998,0.000703500000000001,-0.13256800000000002,-0.46801699999999996,0.0201045,0.120332,-0.464437,0.0440595,-0.157808,-0.8248070000000001,0.0619635,0.135392,-0.8241970000000001,0.07072049999999999
117,-0.007061,0.7274695,0.0790875,-0.174506,0.5190494999999999,0.0221815,-0.294156,0.7006494999999999,-0.11447550000000001,0.171294,0.5144495,0.0133185,0.290924,0.6992794999999999,-0.11431550000000001,-0.27082599999999996,0.9318695,-0.2079355,0.276494,0.9414195,-0.20759550000000002,-0.07846600000000001,0.00021049999999999888,-0.0006394999999999994,0.07846600000000001,-0.00021050000000000062,0.0006395000000000012,-0.132666,-0.4679605,0.0196105,0.12029400000000001,-0.4645505,0.0437805,-0.157836,-0.8246405,0.062073500000000004,0.13530399999999998,-0.8245405,0.0708155
118,-0.007045499999999998,0.727328,0.0798075,-0.1744945,0.518898,0.0227095,-0.29436450000000003,0.699398,-0.11312950000000001,0.1713055,0.514338,0.013956499999999998,0.2912555,0.698998,-0.11371949999999999,-0.27094450000000003,0.931738,-0.20695950000000002,0.2766055,0.940908,-0.2069795,-0.0784325,0.0002160000000000009,-0.0005605000000000002,0.0784325,-0.00021599999999999918,0.0005604999999999985,-0.13277450000000002,-0.467892,0.0190665,0.12027550000000001,-0.46467200000000003,0.043498499999999996,-0.15786450000000002,-0.824462,0.0621945,0.13525550000000003,-0.825042,0.0709025
119,-0.007058,0.7272255,0.0805235,-0.174515,0.5187755,0.0232845,-0.294605,0.6978755,-0.1116505,0.171275,0.5142654999999999,0.0147785,0.291525,0.6987755,-0.11313050000000001,-0.271105,0.9315855,-0.2060305,0.276645,0.9404155,-0.2064605,-0.07839,0.00022250000000000048,-0.00047749999999999876,0.07839,-0.00022250000000000048,0.0004775000000000005,-0.132905,-0.46779449999999995,0.0185265,0.120215,-0.46469449999999995,0.043201500000000004,-0.157925,-0.8242445,0.0623085,0.135175,-0.8255045,0.07099849999999999
120,-0.006772499999999994,0.7269955,0.081949,-0.1725245,0.5186955,0.021256999999999998,-0.29430449999999997,0.6998155,-0.111141,0.17118550000000002,0.5137055,0.018027,0.2921155,0.6984255,-0.111871,-0.2712945,0.9313855,-0.203961,0.27733549999999996,0.9399055000000001,-0.205331,-0.0783195,0.00023250000000000007,-0.00046500000000000014,0.0783195,-0.00023250000000000007,0.00046500000000000014,-0.1329945,-0.4680145,0.01815,0.1202955,-0.4651445,0.043032,-0.1578045,-0.8242845,0.062903,0.1346955,-0.8269945,0.071776
121,-0.006885999999999998,0.726795,0.08279500000000001,-0.173375,0.518575,0.023558,-0.294675,0.6987249999999999,-0.11030500000000001,0.171875,0.514075,0.016138,0.29234499999999997,0.698175,-0.111625,-0.271475,0.931245,-0.20328500000000002,0.27737500000000004,0.9395249999999999,-0.204995,-0.078309,0.00026900000000000014,-0.0002510000000000012,0.078309,-0.00026900000000000014,0.0002509999999999995,-0.133165,-0.46788500000000005,0.016735,0.120055,-0.464795,0.042186,-0.158045,-0.823845,0.062844,0.13500500000000001,-0.8262550000000001,0.071504
122,-0.007067500000000001,0.7268665000000001,0.08342050000000001,-0.1742365,0.5181665000000001,0.0256315,-0.29580649999999997,0.6902565,-0.10501250000000001,0.1715335,0.5139665,0.0174095,0.29240350000000004,0.6979265,-0.11117250000000001,-0.27183650000000004,0.9310265000000001,-0.20284249999999998,0.27717349999999996,0.9392065,-0.2049125,-0.0782715,0.00024649999999999846,-0.00018950000000000043,0.0782715,-0.0002465000000000002,0.0001894999999999987,-0.1333865,-0.46741350000000004,0.016011499999999998,0.1199635,-0.4646035,0.0420585,-0.1580865,-0.8237734999999999,0.0629005,0.1348835,-0.8260535,0.07143050000000001
123,-0.007241499999999996,0.7270325000000001,0.083641,-0.1721725,0.5181925000000001,0.021415999999999998,-0.29619249999999997,0.6877125000000001,-0.103253,0.17189749999999998,0.5145425,0.015726999999999998,0.29223750000000004,0.6980425,-0.110763,-0.27221249999999997,0.9308025000000001,-0.202553,0.27690750000000003,0.9387225,-0.204923,-0.0782355,0.0002444999999999999,-0.0001760000000000008,0.0782355,-0.0002444999999999999,0.00017599999999999907,-0.1335925,-0.46712750000000003,0.015946,0.11977750000000001,-0.4646975,0.042002,-0.15827249999999998,-0.8234075,0.062861,0.13464750000000003,-0.8256175,0.071301
124,-0.007262500000000003,0.7269215,0.0839045,-0.1740035,0.5167215,0.0250185,-0.29637349999999996,0.6848615,-0.10137449999999999,0.1712265,0.5144815,0.0179795,0.29227650000000005,0.6980014999999999,-0.11064449999999999,-0.27244349999999995,0.9304815,-0.2023545,0.27678650000000005,0.9377615,-0.2043845,-0.0782335,0.00022750000000000027,-7.949999999999971e-05,0.0782335,-0.00022750000000000027,7.949999999999971e-05,-0.1336435,-0.46693850000000003,0.0155355,0.1198365,-0.4644685,0.0419195,-0.1584035,-0.8231085,0.0628815,0.1348765,-0.8252885,0.0712705
125,-0.007316499999999998,0.7269194999999999,0.0841455,-0.17448349999999999,0.5165695,0.0280025,-0.29693349999999996,0.6829895,-0.1011885,0.1707965,0.5144695,0.0207245,0.29234649999999995,0.6980395,-0.11068850000000001,-0.2727935,0.9301695,-0.2022785,0.2765265,0.9361895,-0.20405849999999998,-0.0781825,0.00022149999999999948,-7.650000000000018e-05,0.0781825,-0.0002215000000000012,7.650000000000018e-05,-0.1336035,-0.4666805,0.0150315,0.1200165,-0.4644605,0.041648500000000005,-0.1583435,-0.8228005,0.0628515,0.1352365,-0.8261305,0.0709445
