sb224sc-HT22-VT27/4dt907/src/ml-research/a10/datafiles/kinect_good_preprocessed_A9_mediapipe/A141_kinect_mirrored.csv
FrameNo,nose_3d_x,nose_3d_y,nose_3d_z,left_shoulder_3d_x,left_shoulder_3d_y,left_shoulder_3d_z,left_elbow_3d_x,left_elbow_3d_y,left_elbow_3d_z,right_shoulder_3d_x,right_shoulder_3d_y,right_shoulder_3d_z,right_elbow_3d_x,right_elbow_3d_y,right_elbow_3d_z,left_wrist_3d_x,left_wrist_3d_y,left_wrist_3d_z,right_wrist_3d_x,right_wrist_3d_y,right_wrist_3d_z,left_hip_3d_x,left_hip_3d_y,left_hip_3d_z,right_hip_3d_x,right_hip_3d_y,right_hip_3d_z,left_knee_3d_x,left_knee_3d_y,left_knee_3d_z,right_knee_3d_x,right_knee_3d_y,right_knee_3d_z,left_ankle_3d_x,left_ankle_3d_y,left_ankle_3d_z,right_ankle_3d_x,right_ankle_3d_y,right_ankle_3d_z
43,0.9954500000000001,0.7104655,0.042945,0.853116,0.4895054999999999,0.036553,0.766176,0.7394054999999999,0.0109899999999999,1.142646,0.5001755,0.058986,1.254356,0.7384955,0.0419289999999999,0.7203660000000001,0.9722855,-0.0169899999999999,1.306676,0.9867855,0.029511,0.926944,0.0009815,-0.005181,1.073056,-0.0009814999999999,0.0051809999999999,0.875296,-0.3713645,-0.005446,1.1252659999999999,-0.3684845,-0.013603,0.851966,-0.7167645,0.008948,1.132876,-0.7363845,0.0134409999999999
44,0.9967535000000001,0.7104215,0.0421585,0.8540315,0.4895515,0.0358445,0.7669414999999999,0.7394215,0.0132895,1.1428115,0.5003415,0.0589315,1.2542315,0.7389114999999999,0.0435765,0.7201915,0.9726415,-0.0129435,1.3068415,0.9862415,0.0321145,0.9269775000000001,0.0010715,-0.0054125,1.0730225,-0.0010714999999999,0.0054124999999999,0.8750615,-0.3719085,-0.0067805,1.1249015,-0.3697185,-0.0144725,0.8515415,-0.7181385,0.0078944999999999,1.1326014999999998,-0.7378885000000001,0.0122894999999999
45,0.998151,0.7105105,0.0411435,0.8548490000000001,0.4896105,0.0349325,0.7672289999999999,0.7392705,0.0147465,1.143079,0.5007205,0.0585394999999999,1.254139,0.7392705,0.0443465,0.7199990000000001,0.9721405,-0.0097075,1.307189,0.9856405,0.0330135,0.927014,0.0011125,-0.0057094999999999,1.072986,-0.0011125,0.0057094999999999,0.874779,-0.3726195,-0.0085075,1.124479,-0.3709995,-0.0156445,0.851159,-0.7194794999999999,0.0065395,1.132329,-0.7394195,0.0107844999999999
46,0.9996160000000001,0.7106275,0.039716,0.8555969999999999,0.4896874999999999,0.033613,0.767437,0.7392075,0.0152809999999999,1.143467,0.5011875,0.057602,1.254097,0.7396975,0.044017,0.7198170000000002,0.9717375,-0.007824,1.3074970000000001,0.9841375,0.032823,0.927035,0.0011665,-0.006024,1.072965,-0.0011665,0.0060239999999999,0.8745470000000001,-0.3734425,-0.010897,1.124047,-0.3722525,-0.017344,0.850777,-0.7207725,0.0044849999999999,1.132037,-0.7408725,0.0086519999999999
47,1.001074,0.710739,0.037953,0.856469,0.4898089999999999,0.032039,0.767469,0.739119,0.0150169999999999,1.143969,0.501549,0.056421,1.254499,0.740159,0.042963,0.719489,0.971319,-0.007284,1.307899,0.982719,0.031527,0.927039,0.0012389999999999,-0.006245,1.072961,-0.001239,0.0062449999999999,0.874389,-0.3746509999999999,-0.013857,1.123699,-0.373521,-0.019427,0.850479,-0.721991,0.0019679999999999,1.131819,-0.7422810000000001,0.0060799999999999
48,1.0020785,0.710989,0.0356785,0.8572124999999999,0.489869,0.0303745,0.7674525,0.739029,0.0133495,1.1446525,0.502129,0.0553775,1.2549625,0.740799,0.0405405,0.7189225,0.971539,-0.0089614999999999,1.3079025,0.982539,0.0290955,0.9270125,0.00132,-0.0063844999999999,1.0729875,-0.00132,0.0063845,0.8743925,-0.375451,-0.0169365,1.1235624999999998,-0.373701,-0.0217464999999999,0.8504925,-0.722171,-0.0007205,1.1318225,-0.742461,0.0034254999999999
49,1.002861,0.711196,0.033261,0.857691,0.489886,0.028595,0.767321,0.7389560000000001,0.011234,1.145221,0.502756,0.0543779999999999,1.255101,0.741146,0.037891,0.717971,0.971766,-0.0115,1.3077809999999999,0.982466,0.026441,0.927009,0.0013929999999999,-0.006531,1.072991,-0.001393,0.0065309999999999,0.874281,-0.3761339999999999,-0.020149,1.123331,-0.373924,-0.024247,0.850371,-0.722244,-0.003649,1.131691,-0.742534,0.0005979999999999
50,1.0032935,0.7113915,0.030851,0.8578755,0.4898515,0.026784,0.7670555,0.7389215,0.008788,1.1456255,0.5033814999999999,0.053368,1.2549755,0.7415915,0.035248,0.7167355,0.9720315,-0.0141649999999999,1.3075155,0.9824315,0.023795,0.9269895,0.0014275,-0.006649,1.0730105,-0.0014274999999999,0.006649,0.8740255,-0.3769685,-0.023308,1.1230354999999999,-0.3741584999999999,-0.026712,0.8500955,-0.7222785,-0.0065799999999999,1.1314055,-0.7425685000000001,-0.0022469999999999
51,1.0034925,0.7112795000000001,0.028383,0.8578635,0.4899395,0.024919,0.7661435,0.7384795000000001,0.006123,1.1458235,0.5045895,0.0521439999999999,1.2546735,0.7419695000000001,0.032499,0.7149235,0.9717795,-0.016897,1.3067935,0.9830795,0.020181,0.9269785000000001,0.0013055,-0.006756,1.0730214999999999,-0.0013055,0.006756,0.8736635,-0.3787205,-0.026349,1.1226635,-0.3750805,-0.029199,0.8496835,-0.7232205,-0.0096099999999999,1.1310135,-0.7432305,-0.0051129999999999
52,1.0034885,0.7112065,0.0256559999999999,0.8576755,0.4900265,0.022765,0.7648855,0.7379865,0.003091,1.1459455,0.5060264999999999,0.050807,1.2542455000000001,0.7422964999999999,0.029356,0.7127255,0.9713865,-0.019946,1.3058555,0.9841865,0.01588,0.9269665,0.0011504999999999,-0.006786,1.0730335,-0.0011504999999999,0.006786,0.8733355,-0.3803634999999999,-0.029588,1.1222355,-0.3759435,-0.031995,0.8492255000000001,-0.7239935000000001,-0.012956,1.1305355,-0.7437535000000001,-0.008341
53,1.003211,0.7111695,0.0229499999999999,0.857301,0.4902495,0.0207119999999999,0.763361,0.7375995,0.0001239999999999,1.1457410000000001,0.5076195,0.049326,1.253701,0.7426995,0.026206,0.710221,0.9705695,-0.023506,1.304641,0.9844695,0.011191,0.926959,0.0009645,-0.006754,1.073041,-0.0009645,0.006754,0.872941,-0.3819404999999999,-0.032705,1.121681,-0.3768304999999999,-0.034716,0.848591,-0.7245705,-0.016274,1.129941,-0.7440505000000001,-0.0114679999999999
54,1.0027214999999998,0.7111175000000001,0.020234,0.8567545,0.4900775,0.018697,0.7617245,0.7372575,-0.002855,1.1454145,0.5086975,0.04782,1.2531745,0.7431475,0.023009,0.7077145,0.9696275,-0.027518,1.3033645,0.9853275,0.0065629999999999,0.9269505,0.0007655,-0.0066739999999999,1.0730495,-0.0007655,0.0066739999999999,0.8726645,-0.3835625,-0.035707,1.1211445,-0.3776025,-0.037445,0.8479845,-0.7249525,-0.0196049999999999,1.1293644999999999,-0.7441725,-0.014586
55,1.002222,0.711038,0.017687,0.85615,0.489828,0.01671,0.76,0.736998,-0.005773,1.14503,0.509458,0.046258,1.25256,0.743498,0.019921,0.70524,0.968578,-0.03164,1.30199,0.986478,0.0023809999999999,0.9269630000000001,0.0005889999999999,-0.006548,1.0730369999999998,-0.0005889999999999,0.006548,0.87244,-0.384982,-0.038524,1.12068,-0.378222,-0.040086,0.8474300000000001,-0.725332,-0.022526,1.12884,-0.744212,-0.017513
56,1.0019885,0.711056,0.0153755,0.8555815,0.489576,0.0147214999999999,0.7585014999999999,0.736796,-0.0086175,1.1448114999999999,0.509946,0.0446195,1.2521415,0.743406,0.0169705,0.7030015000000001,0.967686,-0.0359715,1.3005115,0.986086,-0.0017445,0.9269275,0.000497,-0.0064325,1.0730725,-0.0004969999999999,0.0064325,0.8723915,-0.385984,-0.0411765,1.1205415,-0.378694,-0.0425625,0.8472215000000001,-0.725604,-0.0252745,1.1285715,-0.743984,-0.0202355
57,1.0019615,0.7110225,0.0132685,0.8551815,0.4895425,0.0126165,0.7573315,0.7366125,-0.0114895,1.1447815,0.5099525,0.0425824999999999,1.2517415,0.7433725,0.0141525,0.7009915000000001,0.9666525,-0.0403765,1.2992815,0.9860525,-0.0056815,0.9268745,0.0004634999999999,-0.0064185,1.0731255,-0.0004634999999999,0.0064184999999999,0.8724615,-0.3865275,-0.0437375,1.1206515,-0.3790675,-0.0449995,0.8472014999999999,-0.7258575,-0.0279265,1.1285215,-0.7436275,-0.0228445
58,1.001862,0.7110225,0.011317,0.854695,0.4895425,0.010549,0.756155,0.7362825,-0.014372,1.144825,0.5099525,0.040378,1.251265,0.7433725,0.0114599999999999,0.699055,0.9656525,-0.044721,1.2981449999999999,0.9867525,-0.009402,0.926874,0.0004634999999999,-0.00639,1.073126,-0.0004634999999999,0.00639,0.872505,-0.3870375,-0.046113,1.120815,-0.3793375,-0.047282,0.847235,-0.7260175,-0.030302,1.128615,-0.7431675,-0.025277
59,1.001694,0.71107,0.009141,0.853854,0.4893299999999999,0.008175,0.7549040000000001,0.7357899999999999,-0.017638,1.144874,0.51,0.037826,1.250514,0.7434,0.008462,0.696944,0.9647,-0.049628,1.296774,0.9868,-0.014367,0.926874,0.0004159999999999,-0.0063819999999999,1.073126,-0.0004159999999999,0.0063819999999999,0.872554,-0.38703,-0.0486859999999999,1.120934,-0.37952,-0.049833,0.847284,-0.72613,-0.03304,1.128724,-0.7426400000000001,-0.0280149999999999
60,1.0014435,0.710985,0.006892,0.8526945,0.488845,0.005609,0.7535045,0.735055,-0.021057,1.1446444999999998,0.510105,0.035175,1.2498545,0.743265,0.005527,0.6947345,0.964805,-0.054916,1.2957144999999999,0.986905,-0.0193299999999999,0.9268725,0.0003109999999999,-0.0063149999999999,1.0731275,-0.0003109999999999,0.006315,0.8726045,-0.386925,-0.0513309999999999,1.1209845,-0.379685,-0.052478,0.8473045,-0.726205,-0.035843,1.1287945,-0.7425350000000001,-0.0310169999999999
61,1.001223,0.7107225,0.0048885,0.851506,0.4882525,0.0033114999999999,0.752326,0.7342025000000001,-0.0240595,1.144376,0.5099125,0.0328965,1.249336,0.7430625000000001,0.0028854999999999,0.692716,0.9647125,-0.0600365,1.294836,0.9870125,-0.0238625,0.926793,0.0001805,-0.0062695,1.073207,-0.0001805,0.0062695,0.872746,-0.3868175,-0.0536025,1.121206,-0.3793675,-0.0549075,0.847566,-0.7261274999999999,-0.0382965,1.128976,-0.7423075,-0.0338274999999999
62,1.001079,0.710328,0.0028289999999999,0.850351,0.487558,0.0010989999999999,0.751231,0.733238,-0.027049,1.144201,0.509568,0.0306929999999999,1.249031,0.742828,0.000261,0.690861,0.964448,-0.065068,1.294051,0.987148,-0.028558,0.9267150000000001,7.800000000000168e-05,-0.006203,1.0732849999999998,-7.800000000000168e-05,0.006203,0.872871,-0.386382,-0.055924,1.121561,-0.379362,-0.057414,0.848041,-0.726092,-0.040657,1.129321,-0.742162,-0.036566
63,1.001012,0.7098965,0.0008184999999999,0.849246,0.4867665,-0.0009705,0.750196,0.7324165,-0.0299735,1.1440759999999999,0.5089665,0.0285595,1.2487759999999999,0.7423465,-0.0023675,0.6889360000000001,0.9639565,-0.0701065,1.293376,0.9851565,-0.0332695,0.926624,3.850000000000381e-05,-0.0060765,1.073376,-3.849999999999687e-05,0.0060764999999999,0.872876,-0.3865635,-0.0584425,1.122016,-0.3791535,-0.0598675,0.848386,-0.7257735,-0.0429435,1.129716,-0.7416635,-0.0393075
64,1.000791,0.709514,-0.0010049999999999,0.848039,0.485994,-0.0026979999999999,0.7488790000000001,0.731664,-0.032907,1.143809,0.508124,0.0262799999999999,1.248299,0.7418440000000001,-0.0050329999999999,0.686849,0.960904,-0.075413,1.292479,0.982904,-0.038518,0.926531,7.000000000000062e-06,-0.005971,1.073469,-7.000000000000062e-06,0.0059709999999999,0.8728790000000001,-0.386436,-0.061265,1.122539,-0.378966,-0.062243,0.848869,-0.725426,-0.045058,1.130429,-0.741076,-0.041861
65,1.0005929999999998,0.7086629999999999,-0.0027289999999999,0.847099,0.485043,-0.004399,0.747409,0.730563,-0.036155,1.143649,0.507243,0.024029,1.247879,0.7410329999999999,-0.007946,0.684909,0.957543,-0.080587,1.291889,0.980743,-0.043589,0.926444,-2.6999999999999247e-05,-0.005888,1.073556,2.6999999999999247e-05,0.005888,0.872939,-0.386317,-0.064853,1.123179,-0.379267,-0.065551,0.849539,-0.7251270000000001,-0.047261,1.131269,-0.740467,-0.04439
66,1.000355,0.707518,-0.0042799999999999,0.846713,0.484378,-0.006065,0.7458830000000001,0.729518,-0.039312,1.143533,0.506698,0.021891,1.247223,0.739368,-0.010894,0.683013,0.955928,-0.085485,1.2911329999999999,0.978628,-0.048802,0.926366,-5.999999999999756e-05,-0.005742,1.073634,6.0000000000004494e-05,0.005742,0.872923,-0.385982,-0.069341,1.1238229999999998,-0.3800219999999999,-0.068947,0.850233,-0.724812,-0.049427,1.132123,-0.739822,-0.046667
67,1.0000705,0.705964,-0.005953,0.8467475,0.483564,-0.007698,0.7442175,0.728034,-0.042616,1.1434175,0.506414,0.020041,1.2466175,0.737944,-0.0138569999999999,0.6811075,0.953044,-0.09043,1.2904075,0.976404,-0.054089,0.9263005,-9.60000000000058e-05,-0.0056089999999999,1.0736995,9.599999999999886e-05,0.005609,0.8729375,-0.385366,-0.074662,1.1245875,-0.380616,-0.073107,0.8509575,-0.724396,-0.0517129999999999,1.1330175,-0.738936,-0.048803
68,0.9996085000000001,0.704182,-0.0075954999999999,0.8466525,0.4824819999999999,-0.0088024999999999,0.7426125,0.726122,-0.0458495,1.1428025,0.505012,0.0187175,1.2460125,0.736442,-0.0170775,0.6791925,0.950652,-0.0950075,1.2896625,0.975212,-0.0587704999999999,0.9262175,-0.0001499999999999,-0.0055184999999999,1.0737825,0.00015,0.0055185,0.8728724999999999,-0.3844079999999999,-0.0807855,1.1257025,-0.3810679999999999,-0.0781925,0.8517425000000001,-0.723208,-0.0539105,1.1338725,-0.737228,-0.0507595
69,0.9992,0.7027285000000001,-0.0091879999999999,0.846861,0.4817984999999999,-0.0096879999999999,0.7412810000000001,0.7246085,-0.0487979999999999,1.142061,0.5036885000000001,0.017615,1.245401,0.7354185000000001,-0.0201459999999999,0.6772210000000001,0.9484885,-0.098878,1.288931,0.9743085,-0.06344,0.926137,-0.0001864999999999,-0.0054319999999999,1.073863,0.0001864999999999,0.0054319999999999,0.872841,-0.3829015,-0.08698,1.126851,-0.3813615,-0.083293,0.852521,-0.7215615,-0.056116,1.134671,-0.7351814999999999,-0.052279
70,0.998786,0.701352,-0.011026,0.847165,0.480632,-0.010596,0.7400450000000001,0.722642,-0.052054,1.1412749999999998,0.502692,0.0165249999999999,1.244755,0.735002,-0.023453,0.6754450000000001,0.945622,-0.104184,1.288105,0.973922,-0.068284,0.926057,-0.000192,-0.005315,1.073943,0.0001919999999999,0.005315,0.872795,-0.380598,-0.093774,1.128145,-0.381148,-0.0887729999999999,0.853225,-0.718988,-0.058392,1.135495,-0.7322379999999999,-0.053605
71,0.9984270000000001,0.6992375,-0.0135635,0.847531,0.4798375,-0.0118825,0.7389209999999999,0.7209575,-0.0560705,1.140551,0.5020375,0.0151354999999999,1.2441010000000001,0.7337075,-0.0275425,0.673821,0.9434975,-0.1094074999999999,1.287331,0.9732775,-0.0735165,0.92597,-0.0001735,-0.0051535,1.07403,0.0001735,0.0051534999999999,0.872761,-0.3785425,-0.1014665,1.129581,-0.3809925,-0.0951205,0.8539510000000001,-0.7161725,-0.0609465,1.136441,-0.7286925,-0.0553935
72,0.998087,0.697745,-0.016265,0.847795,0.478835,-0.013484,0.737915,0.7192149999999999,-0.060202,1.139915,0.5009349999999999,0.013378,1.243505,0.7332449999999999,-0.031892,0.672375,0.942515,-0.114455,1.286525,0.973855,-0.0788939999999999,0.925893,-0.00019,-0.005091,1.074107,0.0001899999999999,0.0050909999999999,0.872765,-0.375765,-0.109208,1.131125,-0.379755,-0.101771,0.8546549999999999,-0.712145,-0.06371,1.137405,-0.724005,-0.057186
73,0.9979860000000002,0.69611,-0.0191714999999999,0.848109,0.47767,-0.0152764999999999,0.737109,0.71726,-0.0644225,1.139429,0.50001,0.0115665,1.243209,0.73295,-0.0362915,0.671679,0.94329,-0.1191745,1.286029,0.97471,-0.0837995,0.925805,-0.0001819999999999,-0.0050305,1.074195,0.000182,0.0050305,0.872729,-0.37242,-0.1169085,1.132719,-0.3781799999999999,-0.1087285,0.855129,-0.7073400000000001,-0.0666455,1.138089,-0.71875,-0.0588505
74,0.997962,0.694508,-0.0221425,0.848356,0.4771479999999999,-0.0170444999999999,0.7364459999999999,0.715638,-0.0688285,1.138976,0.4987179999999999,0.0096575,1.242916,0.732858,-0.0408295,0.671036,0.945538,-0.1244325,1.285526,0.975958,-0.0890094999999999,0.925709,-0.000169,-0.0049554999999999,1.074291,0.0001689999999999,0.0049555,0.872656,-0.368482,-0.1244195,1.134366,-0.375082,-0.1153845,0.855556,-0.701032,-0.0698105,1.138766,-0.7122919999999999,-0.0605884999999999
75,0.9980655,0.69269,-0.025336,0.8485115000000001,0.4767499999999999,-0.01885,0.7357615,0.71433,-0.07343,1.1383215,0.49729,0.0076359999999999,1.2426915,0.7333299999999999,-0.045585,0.6702414999999999,0.94819,-0.129992,1.2850715,0.97703,-0.094547,0.9256645,-0.0001229999999999,-0.004846,1.0743355,0.0001229999999999,0.0048459999999999,0.8724715000000001,-0.36404,-0.131381,1.1358315,-0.37137,-0.12221,0.8558515,-0.6945100000000001,-0.073189,1.1393015,-0.7059,-0.062385
76,0.9982125,0.691539,-0.0290264999999999,0.8489725000000001,0.476319,-0.0212025,0.7359325,0.713129,-0.0784594999999999,1.1378525,0.495469,0.0048855,1.2425125,0.733279,-0.0510454999999999,0.6697025,0.943299,-0.1380205,1.2849225,0.979179,-0.1015475,0.9255845,-0.0001719999999999,-0.0046384999999999,1.0744155,0.0001719999999999,0.0046385,0.8723825000000001,-0.358351,-0.1380305,1.1373325,-0.366521,-0.1291025,0.8562225,-0.686031,-0.0765405,1.1399024999999998,-0.697901,-0.0647615
77,0.9983780000000001,0.6901915000000001,-0.032853,0.8494200000000001,0.4759315,-0.02383,0.73612,0.7121615,-0.083319,1.1379299999999999,0.4951115,0.0018999999999999,1.24234,0.7336815,-0.056258,0.6692100000000001,0.9384415,-0.145611,1.28506,0.9809215,-0.107972,0.925488,-0.0002395,-0.004487,1.074512,0.0002395,0.0044869999999999,0.87239,-0.3525485,-0.143811,1.13843,-0.3613585,-0.134896,0.8565400000000001,-0.6777685,-0.079543,1.1404699999999999,-0.6903585,-0.067115
78,0.9984745000000002,0.688419,-0.0375125,0.8499205,0.4762889999999999,-0.0269985,0.7362305,0.711499,-0.0894824999999999,1.1379905,0.495769,-0.0016164999999999,1.2422105,0.731569,-0.0627055,0.6688205,0.935219,-0.1541195,1.2851804999999998,0.980349,-0.1163245,0.9253345,-0.0003209999999999,-0.0043414999999999,1.0746655,0.000321,0.0043414999999999,0.8723005,-0.345981,-0.1503495,1.1395705,-0.3552309999999999,-0.1416895,0.8568804999999999,-0.6677109999999999,-0.0825525,1.1409505,-0.6808409999999999,-0.0700795
79,0.9985030000000001,0.687262,-0.0421155,0.850531,0.476052,-0.0309815,0.7363109999999999,0.710882,-0.0953334999999999,1.1378309999999998,0.494212,-0.0061804999999999,1.2421209999999998,0.7290319999999999,-0.0690095,0.668551,0.933812,-0.1612775,1.285261,0.975622,-0.1263465,0.925218,-0.00041,-0.0041954999999999,1.074782,0.00041,0.0041955,0.8721010000000001,-0.335978,-0.1564975,1.140571,-0.344008,-0.1484375,0.8571710000000001,-0.6571180000000001,-0.0845855,1.141311,-0.6708879999999999,-0.0729895
80,0.9986205,0.6867695,-0.046472,0.8511595000000001,0.4756695,-0.034862,0.7364495000000001,0.7101695,-0.100989,1.1375894999999998,0.4928295,-0.010524,1.2418095,0.7276195,-0.074874,0.6682095,0.9325995,-0.168688,1.2852795000000001,0.9722495,-0.135719,0.9250615000000001,-0.0005275,-0.004073,1.0749384999999998,0.0005275,0.004073,0.8719295,-0.3248804999999999,-0.161928,1.1414095,-0.3319005,-0.154468,0.8577395,-0.6459604999999999,-0.087095,1.1414895,-0.6605205,-0.075457
81,0.9986135,0.687089,-0.0551135,0.8517305,0.476789,-0.0426805,0.7364405,0.710759,-0.1110154999999999,1.1372805,0.493229,-0.0186925,1.2414105,0.727019,-0.0848505,0.6678505,0.931989,-0.1807015,1.2853805,0.969979,-0.1492315,0.9248095000000001,-0.0006699999999999,-0.0040795,1.0751905,0.0006699999999999,0.0040795,0.8716805,-0.312901,-0.1716115,1.1421904999999999,-0.319231,-0.1646815,0.8583205,-0.633931,-0.0933045,1.1415705,-0.649121,-0.0818825
82,0.9984115000000001,0.6880805,-0.0630515,0.8520735,0.4773905,-0.0500235,0.7362735,0.7092505,-0.1205115,1.1368235,0.4929705,-0.0267125,1.2411035,0.7265305,-0.0944545,0.6676635,0.9308105,-0.1919675,1.2852135,0.9682605,-0.1621975,0.9245345000000001,-0.0009195,-0.0040595,1.0754655,0.0009195,0.0040595,0.8709835,-0.3009395,-0.1829475,1.1428335,-0.3067595,-0.1766975,0.8592135000000001,-0.6224495,-0.0985755,1.1414435,-0.6368595,-0.0875415
83,0.9983615000000001,0.688411,-0.070633,0.8525605,0.477861,-0.056741,0.7367305,0.708001,-0.1289509999999999,1.1364405,0.4934809999999999,-0.033939,1.2409005,0.721541,-0.1033169999999999,0.6677605,0.929141,-0.202918,1.2854405,0.963701,-0.174498,0.9241805,-0.0011049999999999,-0.003872,1.0758195,0.0011049999999999,0.003872,0.8704005,-0.289689,-0.193128,1.1434305,-0.295859,-0.187458,0.8601905,-0.611949,-0.102433,1.1413805,-0.624849,-0.09237
84,0.9981285,0.6891849999999999,-0.077722,0.8528895,0.4790649999999999,-0.0629629999999999,0.7365295000000001,0.707145,-0.137233,1.1359595,0.494735,-0.0405279999999999,1.2405694999999999,0.717585,-0.111299,0.6678795,0.928015,-0.213946,1.2855495000000001,0.960025,-0.186356,0.9238955000000001,-0.001265,-0.0038219999999999,1.0761044999999998,0.001265,0.0038219999999999,0.8695595,-0.278465,-0.2028259999999999,1.1440394999999999,-0.284635,-0.1979159999999999,0.8610595,-0.600965,-0.104636,1.1411195,-0.612195,-0.096609
85,0.9978760000000001,0.690525,-0.084596,0.8531839999999999,0.479525,-0.069655,0.736464,0.7073449999999999,-0.145424,1.134884,0.493415,-0.048009,1.240204,0.715895,-0.119046,0.668084,0.933755,-0.22291,1.2859939999999999,0.957535,-0.19734,0.923594,-0.001305,-0.003956,1.076406,0.0013049999999999,0.0039559999999999,0.868444,-0.266335,-0.21241,1.144764,-0.272645,-0.20766,0.8619740000000001,-0.588595,-0.105953,1.140784,-0.5982350000000001,-0.099556
86,0.9976805000000001,0.6924,-0.090569,0.8533845,0.48046,-0.075442,0.7370745000000001,0.7082,-0.153186,1.1339645,0.49212,-0.054631,1.2398245,0.71425,-0.126099,0.6687244999999999,0.93909,-0.2317759999999999,1.2868545,0.95507,-0.207486,0.9232055,-0.0011299999999999,-0.0039629999999999,1.0767945,0.00113,0.003963,0.8673345,-0.25483,-0.2209959999999999,1.1458145,-0.2616199999999999,-0.2166259999999999,0.8628345,-0.57583,-0.107213,1.1406144999999999,-0.58458,-0.1009539999999999
87,0.997683,0.6941600000000001,-0.096215,0.853579,0.48129,-0.080758,0.737879,0.70886,-0.160524,1.133199,0.49051,-0.060719,1.239559,0.71522,-0.13277,0.6695789999999999,0.94271,-0.240224,1.2874189999999999,0.95543,-0.216214,0.923088,-0.0010699999999999,-0.003942,1.076912,0.00107,0.003942,0.866369,-0.24496,-0.229474,1.146999,-0.25201,-0.224984,0.863329,-0.5647599999999999,-0.108342,1.140619,-0.5725100000000001,-0.101725
88,0.9977965,0.69584,-0.1021965,0.8536975,0.48202,-0.0867565,0.7380275000000001,0.7094400000000001,-0.1679025,1.1325174999999998,0.49046,-0.0669035,1.2395175,0.71587,-0.1396165,0.6700875,0.94621,-0.2490125,1.2875675,0.95927,-0.2241425,0.9230875000000001,-0.0010999999999999,-0.0039005,1.0769125,0.0010999999999999,0.0039005,0.8654175,-0.2346,-0.2385525,1.1483374999999998,-0.24159,-0.2334525,0.8639875,-0.55362,-0.1094535,1.1407075,-0.55997,-0.1024605
89,0.9978375,0.696975,-0.109761,0.8538745,0.482955,-0.093789,0.7382345,0.710205,-0.176847,1.1315845,0.489565,-0.074712,1.2392945,0.716205,-0.148256,0.6702545,0.947125,-0.259317,1.2878145,0.960975,-0.234497,0.9230455,-0.0009649999999999,-0.0039219999999999,1.0769545,0.0009649999999999,0.003922,0.8639645,-0.221075,-0.250267,1.1501344999999998,-0.227785,-0.243757,0.8641245,-0.538405,-0.111783,1.1408645,-0.543285,-0.103052
90,0.9978110000000001,0.696615,-0.117046,0.854307,0.4821149999999999,-0.10034,0.7388669999999999,0.709465,-0.185092,1.130877,0.4877849999999999,-0.082075,1.238927,0.714085,-0.1571219999999999,0.6708069999999999,0.946825,-0.269512,1.288247,0.960325,-0.244462,0.922814,-0.000845,-0.003948,1.077186,0.0008449999999999,0.003948,0.862287,-0.206525,-0.2612919999999999,1.152327,-0.212225,-0.254252,0.864517,-0.522335,-0.113009,1.141287,-0.526055,-0.102727
91,0.997793,0.694885,-0.123998,0.854896,0.481125,-0.1068069999999999,0.739276,0.707685,-0.1929139999999999,1.130376,0.486225,-0.0890469999999999,1.238966,0.710965,-0.164704,0.671546,0.944945,-0.279414,1.2888259999999998,0.956425,-0.253934,0.922602,-0.0006349999999999,-0.0039849999999999,1.077398,0.0006349999999999,0.003985,0.859996,-0.190075,-0.2705639999999999,1.154666,-0.1944349999999999,-0.262674,0.864986,-0.502015,-0.1129189999999999,1.142056,-0.506165,-0.102196
92,0.9972595,0.69381,-0.1307479999999999,0.8549345,0.48091,-0.113053,0.7395445,0.70834,-0.2007649999999999,1.1297045,0.4841,-0.0961289999999999,1.2386145,0.71364,-0.172425,0.6721045,0.94539,-0.289455,1.2890845,0.95662,-0.263575,0.9228025,-0.0002999999999999,-0.0038549999999999,1.0771975,0.0003,0.003855,0.8571145,-0.1714899999999999,-0.279745,1.1566345,-0.1749199999999999,-0.271215,0.8650345,-0.47915,-0.11323,1.1423645,-0.4841399999999999,-0.101549
93,0.997043,0.6933549999999999,-0.133127,0.8552270000000001,0.478105,-0.1159169999999999,0.740067,0.7074750000000001,-0.203819,1.1291470000000001,0.482695,-0.0993479999999999,1.238227,0.716375,-0.176449,0.6730970000000001,0.942255,-0.294699,1.289487,0.957535,-0.268689,0.922888,-0.0003049999999999,-0.00361,1.077112,0.0003049999999999,0.00361,0.8546670000000001,-0.151835,-0.284789,1.158767,-0.154495,-0.275559,0.865507,-0.454955,-0.108993,1.1429369999999999,-0.461345,-0.096884
94,0.9971760000000001,0.6906950000000001,-0.1351004999999999,0.855861,0.476805,-0.1175565,0.7406710000000001,0.706095,-0.2067005,1.129431,0.483875,-0.1007525,1.238021,0.717315,-0.1802505,0.674261,0.940115,-0.2989805,1.289941,0.956465,-0.2728605,0.922887,-0.0003349999999999,-0.0034115,1.077113,0.000335,0.0034115,0.852741,-0.138835,-0.2894205,1.161021,-0.1416649999999999,-0.2797805,0.8658710000000001,-0.433285,-0.1064765,1.143791,-0.4415249999999999,-0.0928805
95,0.9973310000000001,0.688025,-0.136853,0.8565880000000001,0.474025,-0.119201,0.741698,0.703325,-0.208873,1.129688,0.486615,-0.102225,1.238338,0.7182850000000001,-0.183353,0.675528,0.938505,-0.302423,1.290498,0.956325,-0.276663,0.9229350000000001,-0.0013549999999999,-0.003497,1.077065,0.0013549999999999,0.003497,0.8509180000000001,-0.1245449999999999,-0.293943,1.163078,-0.127965,-0.283943,0.8665080000000001,-0.410705,-0.104209,1.1445779999999999,-0.420495,-0.08926
96,0.9975705000000001,0.686815,-0.138873,0.8573585000000001,0.472315,-0.121503,0.7430685,0.702115,-0.210983,1.1298985,0.484905,-0.105002,1.2385885,0.717465,-0.186373,0.6769385,0.939045,-0.305803,1.2908184999999999,0.955325,-0.279503,0.9229615,-0.0011349999999999,-0.003461,1.0770385,0.0011349999999999,0.003461,0.8490385,-0.108095,-0.298443,1.1650685,-0.111895,-0.288373,0.8672685,-0.385855,-0.1024709999999999,1.1455185,-0.397235,-0.086446
97,0.9978985000000001,0.684205,-0.141061,0.8582465,0.471545,-0.122981,0.7442565000000001,0.7010050000000001,-0.214001,1.1302465,0.484045,-0.107222,1.2383165,0.717005,-0.189281,0.6783565,0.938455,-0.309131,1.2909964999999999,0.949865,-0.282431,0.9228945,-0.0010849999999999,-0.003363,1.0771055,0.001085,0.0033629999999999,0.8472365,-0.0923949999999999,-0.3027609999999999,1.1669265,-0.0965849999999999,-0.2927809999999999,0.8681165,-0.362235,-0.100972,1.1463865,-0.3749549999999999,-0.084517
98,0.9985730000000002,0.68253,-0.1428694999999999,0.859368,0.470349,-0.1250095,0.745628,0.69999,-0.2156094999999999,1.130898,0.4840299999999999,-0.1092694999999999,1.238678,0.71549,-0.1911594999999999,0.6798580000000001,0.93856,-0.3123095,1.291548,0.94673,-0.2842895,0.92297,-0.0012199999999999,-0.0033305,1.07703,0.0012199999999999,0.0033305,0.845318,-0.07708,-0.3049695,1.168558,-0.08089,-0.2961195,0.8691580000000001,-0.34039,-0.0995124999999999,1.147498,-0.35398,-0.0841605
99,0.999191,0.6808500000000001,-0.14434,0.860317,0.469314,-0.12703,0.747037,0.6989700000000001,-0.21711,1.131627,0.483554,-0.11141,1.238817,0.71624,-0.1920899999999999,0.681187,0.9386,-0.31476,1.292547,0.94272,-0.28611,0.923047,-0.0012899999999999,-0.003286,1.076953,0.00129,0.003286,0.8434370000000001,-0.0625999999999999,-0.30692,1.169827,-0.0664599999999999,-0.29842,0.8700770000000001,-0.3206099999999999,-0.097383,1.148467,-0.33607,-0.084883
100,0.9999365,0.6795599999999999,-0.1459575,0.8612225,0.469286,-0.1286475,0.7478325,0.7013499999999999,-0.2185774999999999,1.1323625,0.483525,-0.1132775,1.2391425,0.71527,-0.1937974999999999,0.6823525000000001,0.94037,-0.3173475,1.2934725,0.9397,-0.2880175,0.9229415,-0.0013299999999999,-0.0032424999999999,1.0770585,0.0013299999999999,0.0032425,0.8420625000000002,-0.05077,-0.3076775,1.1709325,-0.05471,-0.3000575,0.8709525000000001,-0.30557,-0.0966205,1.1492125,-0.32131,-0.0855955
101,1.00097,0.67929,-0.147267,0.8623310000000001,0.468385,-0.130427,0.748741,0.6993,-0.219857,1.133391,0.483311,-0.1152069999999999,1.240221,0.71225,-0.195107,0.683071,0.93852,-0.318697,1.294511,0.93846,-0.289257,0.922959,-0.00139,-0.003264,1.077041,0.00139,0.003264,0.839921,-0.03858,-0.308267,1.172351,-0.04229,-0.301437,0.872221,-0.29161,-0.096097,1.150391,-0.30623,-0.086865
102,1.0018909999999999,0.67848,-0.148593,0.863356,0.469435,-0.131533,0.7493160000000001,0.6991,-0.221373,1.134326,0.482024,-0.116983,1.240986,0.7092700000000001,-0.196253,0.6835360000000001,0.94058,-0.319843,1.2955459999999999,0.93674,-0.290563,0.923011,-0.0011899999999999,-0.003292,1.076989,0.00119,0.003292,0.837406,-0.0269099999999999,-0.308423,1.173676,-0.0300299999999999,-0.302793,0.8747860000000001,-0.27886,-0.094122,1.151676,-0.29208,-0.088469
103,1.002696,0.67888,-0.1495979999999999,0.864271,0.470307,-0.1326179999999999,0.750161,0.69932,-0.222218,1.135251,0.480792,-0.118818,1.241921,0.7064900000000001,-0.1968079999999999,0.683781,0.94248,-0.321278,1.297161,0.93531,-0.291918,0.923041,-0.0009599999999999,-0.003291,1.076959,0.00096,0.003291,0.834711,-0.0144199999999999,-0.308478,1.174881,-0.0172399999999999,-0.303798,0.8761310000000001,-0.2634799999999999,-0.092171,1.152141,-0.27784,-0.08846
104,1.0034195,0.678765,-0.1501735,0.8650735,0.4725169999999999,-0.1332835,0.7508835,0.700525,-0.2228534999999999,1.1360235,0.4774629999999999,-0.1202135,1.2426835,0.703475,-0.1974635,0.6845135,0.943595,-0.3225735,1.2987635,0.932535,-0.2933334999999999,0.9232035000000001,0.0001749999999999,-0.0032874999999999,1.0767965,-0.000175,0.0032875,0.8318835,-0.003155,-0.3085235,1.1757735,-0.0055749999999999,-0.3044035,0.8776235,-0.251565,-0.0889675,1.1523634999999999,-0.265025,-0.0891695
105,1.0043645,0.67748,-0.150458,0.8659985,0.4730919999999999,-0.133698,0.7514985000000001,0.70011,-0.223098,1.1368585,0.47785,-0.120888,1.2437685,0.7019799999999999,-0.198148,0.6853485,0.94287,-0.323708,1.3007785,0.93026,-0.294798,0.9232735,0.0002099999999999,-0.003286,1.0767265,-0.00021,0.003286,0.8292485,0.0056999999999999,-0.3085779999999999,1.1766885,0.0036399999999999,-0.305008,0.8784385,-0.2427599999999999,-0.088599,1.1528985,-0.25551,-0.090247
106,1.0051915,0.6769799999999999,-0.15067,0.8667185,0.4739779999999999,-0.13396,0.7521085000000001,0.7001999999999999,-0.22344,1.1374885,0.4777309999999999,-0.12161,1.2442485,0.70033,-0.19884,0.6858785000000001,0.94247,-0.32474,1.3027285,0.9328,-0.29649,0.9232635,0.0004699999999999,-0.003272,1.0767365,-0.0004699999999999,0.003272,0.8273785000000001,0.01438,-0.30837,1.1774185,0.0126099999999999,-0.30556,0.8789985000000001,-0.23358,-0.086563,1.1530084999999999,-0.24694,-0.090318
107,1.0057295,0.676165,-0.150932,0.8670595,0.475094,-0.134222,0.7520495,0.700265,-0.223972,1.1377395,0.477149,-0.122322,1.2444895,0.699775,-0.199162,0.6859394999999999,0.943455,-0.3256219999999999,1.3045495,0.934065,-0.298102,0.9232724999999999,0.000815,-0.00317,1.0767275,-0.000815,0.00317,0.8260895,0.0218149999999999,-0.307982,1.1778395,0.018735,-0.306152,0.8791895,-0.226655,-0.084381,1.1532795,-0.241645,-0.09173
108,1.006098,0.675845,-0.151282,0.867368,0.4759810000000001,-0.134582,0.751898,0.700895,-0.224672,1.138128,0.4765440000000001,-0.122952,1.245418,0.698385,-0.200362,0.685628,0.944245,-0.326462,1.306668,0.937135,-0.300302,0.923268,0.001055,-0.003031,1.076732,-0.0010549999999999,0.003031,0.824948,0.028365,-0.307272,1.178108,0.024635,-0.306642,0.878788,-0.2213449999999999,-0.084751,1.153398,-0.2359149999999998,-0.09209
109,1.0063624999999998,0.675905,-0.1516404999999999,0.8675755,0.476826,-0.1349405,0.7518155000000001,0.701385,-0.2249405,1.1384055,0.475927,-0.1235705,1.2460955,0.698605,-0.2013005,0.6850455000000001,0.944805,-0.3273105,1.3086655,0.941125,-0.3020805,0.9232655,0.001275,-0.0029005,1.0767345,-0.001275,0.0029005,0.8241855000000001,0.034535,-0.3064705,1.1781655,0.0303849999999999,-0.3069705,0.8780654999999999,-0.216685,-0.0853054999999999,1.1535155,-0.230855,-0.0934155
110,1.0066305,0.675385,-0.1517395,0.8677805000000001,0.477434,-0.1348395,0.7511405,0.703645,-0.2252295,1.1386405,0.475582,-0.1238895,1.2463305,0.6997249999999999,-0.2021295,0.6842405,0.946665,-0.3280195,1.3103305,0.941865,-0.3040095,0.9232635,0.0013349999999999,-0.0028215,1.0767365,-0.0013349999999999,0.0028215,0.8241404999999999,0.0380749999999999,-0.3060395,1.1781905,0.0335149999999999,-0.3072195,0.8772805,-0.213225,-0.0820445,1.1531905,-0.228545,-0.0927875
111,1.0069424999999999,0.67491,-0.151572,0.8680325,0.477832,-0.134592,0.7505225,0.70496,-0.225102,1.1388725,0.474841,-0.123972,1.2466525,0.70139,-0.202712,0.6833425,0.94728,-0.328472,1.3118125,0.94185,-0.305592,0.9232365,0.00143,-0.002796,1.0767635,-0.00143,0.002796,0.8241324999999999,0.04026,-0.305952,1.1782825,0.0351799999999999,-0.307302,0.8761425,-0.21357,-0.081685,1.1526925000000001,-0.2271699999999999,-0.092701
112,1.007209,0.675035,-0.151302,0.868174,0.477918,-0.134422,0.7505040000000001,0.706175,-0.224832,1.138974,0.474613,-0.123972,1.247244,0.702615,-0.203722,0.682644,0.948105,-0.328482,1.312984,0.941285,-0.306902,0.9232899999999999,0.001475,-0.002795,1.07671,-0.001475,0.0027949999999999,0.824124,0.041265,-0.305952,1.178284,0.035775,-0.307572,0.875434,-0.2145949999999999,-0.080821,1.152124,-0.2266549999999999,-0.092816
113,1.0071755,0.6751800000000001,-0.1508565,0.8680225,0.4778240000000001,-0.1342265,0.7502525,0.7063200000000001,-0.2248764999999999,1.1388225,0.4747580000000001,-0.1239765,1.2474625,0.70276,-0.2039665,0.6818325000000001,0.94825,-0.3284965,1.3132725,0.94143,-0.3070565,0.9232605,0.00133,-0.0027955,1.0767395,-0.0013299999999999,0.0027954999999999,0.8242025,0.04116,-0.3059565,1.1778624999999998,0.03538,-0.3080065,0.8742425,-0.2158999999999998,-0.0805865,1.1513625,-0.2269299999999998,-0.0929445
114,1.0070225,0.6751800000000001,-0.1502515,0.8679475,0.4778240000000001,-0.1339815,0.7496875000000001,0.7063200000000001,-0.2248814999999999,1.1386375,0.4747580000000001,-0.1239715,1.2474174999999998,0.70276,-0.2039715,0.6811075,0.94825,-0.3285115,1.3131875,0.94143,-0.3070615,0.9232155,0.00133,-0.0027965,1.0767845,-0.0013299999999999,0.0027965,0.8245575,0.04106,-0.3059415,1.1773875,0.03487,-0.3083715,0.8718475,-0.2170499999999998,-0.0830395,1.1507975,-0.2269299999999998,-0.0935635
115,1.006855,0.6751800000000001,-0.1496325,0.8678589999999999,0.4778240000000001,-0.1337025,0.7494190000000001,0.7063200000000001,-0.2248425,1.138469,0.4747580000000001,-0.1238725,1.2471489999999998,0.7029700000000001,-0.2039325,0.6805490000000001,0.94825,-0.3284225,1.312919,0.94143,-0.3070225,0.923177,0.00133,-0.0028235,1.076823,-0.0013299999999999,0.0028235,0.825109,0.0408400000000001,-0.3061325,1.176869,0.03468,-0.3087425,0.870509,-0.2176599999999998,-0.0868575,1.150399,-0.2269299999999998,-0.0945155
116,1.006567,0.676235,-0.1490145,0.867731,0.477729,-0.1333945,0.7489509999999999,0.707095,-0.2249945,1.138281,0.475987,-0.1235044999999999,1.247141,0.703385,-0.2038645,0.6800010000000001,0.948945,-0.3279545,1.313231,0.942095,-0.3069145,0.923153,0.0012349999999999,-0.0028255,1.0768469999999999,-0.0012349999999999,0.0028255,0.826091,0.040745,-0.3064945,1.176511,0.0345849999999999,-0.3091345,0.8695809999999999,-0.2168249999999999,-0.0908435,1.149621,-0.2270249999999999,-0.0948494999999999
117,1.006321,0.6772,-0.148315,0.8675619999999999,0.4773699999999999,-0.133005,0.748372,0.7076899999999999,-0.225025,1.138072,0.476852,-0.122985,1.247242,0.70195,-0.203715,0.679522,0.94947,-0.327285,1.313512,0.941,-0.306465,0.923197,0.00102,-0.002807,1.076803,-0.00102,0.0028069999999999,0.827312,0.0386199999999999,-0.3069449999999999,1.176012,0.0324599999999999,-0.309625,0.869332,-0.21782,-0.0937149999999999,1.1486219999999998,-0.22897,-0.0947399999999999
118,1.0061265,0.6785300000000001,-0.147508,0.8674465,0.476611,-0.132288,0.7484865,0.70813,-0.2246679999999999,1.1379365,0.477732,-0.122118,1.2472765,0.69884,-0.203088,0.6790065000000001,0.94898,-0.3264479999999999,1.3138765000000001,0.93815,-0.305558,0.9232325,0.0008,-0.0027789999999999,1.0767675,-0.0008,0.002779,0.8278065,0.03439,-0.307278,1.1753365,0.0282299999999999,-0.310608,0.8691265,-0.2220499999999999,-0.096209,1.1484765,-0.2323699999999999,-0.096013
119,1.0056915,0.6798200000000001,-0.146848,0.8670845,0.476082,-0.131608,0.7485445,0.70811,-0.224138,1.1375845,0.478441,-0.121318,1.2466145,0.7005700000000001,-0.202268,0.6784945,0.94721,-0.3257279999999999,1.3134145,0.93841,-0.303948,0.9232445,0.00047,-0.002714,1.0767555,-0.0004699999999999,0.0027139999999999,0.8281645,0.02689,-0.307618,1.1742945,0.02133,-0.3116279999999999,0.8686745,-0.2291299999999999,-0.098475,1.1479445,-0.2379199999999999,-0.096173
120,1.0050299999999999,0.68079,-0.1459715,0.8665080000000001,0.475681,-0.1306215,0.747648,0.70721,-0.2233715,1.137148,0.479271,-0.1200015,1.246038,0.69947,-0.2003615,0.6777679999999999,0.94387,-0.3246115,1.312918,0.93802,-0.3017515,0.923191,0.0002799999999999,-0.0027215,1.076809,-0.0002799999999999,0.0027215,0.828738,0.0173599999999999,-0.3073015,1.172778,0.01192,-0.3112615,0.8686780000000001,-0.23728,-0.0969625,1.147028,-0.24619,-0.0953185
121,1.004317,0.682485,-0.144793,0.86582,0.475294,-0.129423,0.74756,0.706785,-0.222433,1.13668,0.4801749999999999,-0.118343,1.2456999999999998,0.697905,-0.198673,0.6771400000000001,0.943225,-0.323343,1.31265,0.936515,-0.299473,0.923059,0.0001049999999999,-0.0027539999999999,1.076941,-0.000105,0.002754,0.82963,0.006365,-0.306813,1.17098,0.0007649999999999,-0.310823,0.8684000000000001,-0.249155,-0.096826,1.1465699999999999,-0.256885,-0.0948519999999999
122,1.0035085,0.6854750000000001,-0.143539,0.8650885,0.47372,-0.128239,0.7476485000000002,0.705735,-0.220909,1.1361485,0.480531,-0.116629,1.2452585,0.696475,-0.1958289999999999,0.6767185,0.941575,-0.321299,1.3121985,0.935315,-0.296599,0.9229875,-0.0001649999999999,-0.002785,1.0770125,0.000165,0.0027849999999999,0.8306884999999999,-0.0048349999999999,-0.306319,1.1692685,-0.010865,-0.3103889999999999,0.8679485,-0.2616849999999999,-0.096363,1.1456385,-0.2686849999999999,-0.093349
123,1.0028225,0.68691,-0.142247,0.8643155,0.4730609999999999,-0.126427,0.7475955000000001,0.70477,-0.219047,1.1356655,0.481662,-0.1141269999999999,1.2448055,0.6946,-0.192577,0.6767155,0.9354,-0.317637,1.3125354999999999,0.93426,-0.292447,0.9229245,-0.00041,-0.0027549999999999,1.0770755,0.0004099999999999,0.002755,0.8321255,-0.02103,-0.305737,1.1677355,-0.02722,-0.309867,0.8674655,-0.2786,-0.093938,1.1447255,-0.28724,-0.092817
124,1.002012,0.68858,-0.1403444999999999,0.86338,0.4732179999999999,-0.1243944999999999,0.7472300000000001,0.70487,-0.2160145,1.1351,0.4833739999999999,-0.1111445,1.24445,0.6961200000000001,-0.1891245,0.67664,0.9359,-0.3138745,1.31213,0.93796,-0.2876645,0.922763,-0.0006599999999999,-0.0027904999999999,1.077237,0.0006599999999999,0.0027904999999999,0.83353,-0.03827,-0.3049045,1.16632,-0.04488,-0.3088945,0.8667,-0.2968699999999999,-0.0915334999999999,1.14361,-0.3076299999999999,-0.0907935
125,1.001245,0.6893750000000001,-0.137871,0.862465,0.473951,-0.121671,0.747135,0.705545,-0.213161,1.134565,0.483267,-0.108011,1.244435,0.697545,-0.186131,0.676975,0.935305,-0.309731,1.3125149999999999,0.939285,-0.283391,0.9226080000000001,-0.0006249999999999,-0.002848,1.077392,0.0006249999999999,0.002848,0.834765,-0.056945,-0.303701,1.164925,-0.063745,-0.307451,0.865795,-0.319855,-0.091271,1.142865,-0.330305,-0.090195
126,1.0005519999999999,0.691325,-0.1350045,0.86158,0.474929,-0.1186745,0.74698,0.7064349999999999,-0.2101545,1.13405,0.483606,-0.1044845,1.24459,0.700245,-0.1820945,0.6773,0.934585,-0.3052345,1.31297,0.942345,-0.2776544999999999,0.922405,-0.000595,-0.0030355,1.077595,0.000595,0.0030355,0.83599,-0.074405,-0.3013645,1.16344,-0.0817749999999999,-0.3052645,0.8648899999999999,-0.340285,-0.0894795,1.14204,-0.352745,-0.0881735
127,1.0000615,0.6934899999999999,-0.1304565,0.8607085,0.47725,-0.1144464999999999,0.7462885,0.70855,-0.2047765,1.1337985,0.48358,-0.0998665,1.2450685,0.7006600000000001,-0.1754365,0.6776585000000002,0.93649,-0.2984965,1.3135284999999999,0.94313,-0.2695865,0.9227335,-0.00052,-0.0031715,1.0772665,0.00052,0.0031715,0.8376485,-0.0936299999999999,-0.2964065,1.1619185,-0.10127,-0.3002765,0.8643485,-0.36618,-0.0873665,1.1411085,-0.3800199999999999,-0.0848014999999999
128,0.9999035,0.696445,-0.125792,0.8600565,0.4784549999999999,-0.110152,0.7461265,0.710375,-0.199022,1.1338565,0.484805,-0.094987,1.2461765,0.699985,-0.168212,0.6782365,0.940575,-0.291162,1.3141565,0.944355,-0.261442,0.9231165,-0.0005249999999999,-0.003272,1.0768835,0.0005249999999999,0.003272,0.8394165,-0.110355,-0.290782,1.1605465,-0.119155,-0.294732,0.8640865,-0.3913149999999999,-0.084768,1.1404065,-0.406225,-0.0810859999999999
129,1.0001175,0.700095,-0.1193685,0.8595625,0.4815750000000001,-0.1038385,0.7454825,0.7111050000000001,-0.1902385,1.1343325,0.4864550000000001,-0.0888735,1.2478925,0.7034050000000001,-0.1605885,0.6790625,0.943065,-0.2819185,1.3157025,0.948035,-0.2520985,0.9236505,-0.0004949999999999,-0.0033305,1.0763495,0.000495,0.0033304999999999,0.8411125,-0.1280849999999999,-0.2823785,1.1591725,-0.1382249999999999,-0.2867585,0.8635025000000001,-0.4192249999999999,-0.0820885,1.1397225,-0.4343149999999999,-0.0763385
130,1.000289,0.7031099999999999,-0.111494,0.858684,0.4852399999999999,-0.096484,0.744424,0.71534,-0.180634,1.134804,0.4871499999999999,-0.081689,1.2492539999999999,0.7074099999999999,-0.151114,0.679684,0.94825,-0.2696039999999999,1.3177240000000001,0.95245,-0.240144,0.9245220000000001,-0.00036,-0.003358,1.075478,0.0003599999999999,0.003358,0.842654,-0.14853,-0.270074,1.157184,-0.15907,-0.273584,0.8627940000000001,-0.4514,-0.076516,1.139064,-0.4657300000000001,-0.072818
131,1.0005985,0.70739,-0.1033325,0.8577825,0.48923,-0.0887425,0.7442625,0.71963,-0.1712025,1.1355225,0.49196,-0.0740815,1.2504225,0.71087,-0.1417125,0.6798625,0.95369,-0.2576525,1.3196125,0.95635,-0.2265725,0.9254535,-0.0004699999999999,-0.0034714999999999,1.0745465,0.0004699999999999,0.0034715,0.8440925,-0.16957,-0.2565325,1.1547625,-0.17946,-0.2588225,0.8616425,-0.48418,-0.0707385,1.1382725,-0.4966,-0.0674635
132,1.001467,0.71038,-0.0945745,0.857457,0.49427,-0.0805205,0.744437,0.72397,-0.1610645,1.136787,0.49252,-0.0666605,1.2523769999999999,0.7102599999999999,-0.1314245,0.680707,0.96017,-0.2470745,1.322027,0.95674,-0.2139445,0.926377,-0.0004,-0.0039815,1.073623,0.0003999999999999,0.0039814999999999,0.846117,-0.19078,-0.2412445,1.152657,-0.20055,-0.2432745,0.861267,-0.5139499999999999,-0.0648894999999999,1.137717,-0.5264,-0.0613924999999999
133,1.0027755,0.7149650000000001,-0.0860399999999999,0.8571335,0.497515,-0.072452,0.7449135,0.727125,-0.1517399999999999,1.1385135,0.494295,-0.0593249999999999,1.2547534999999999,0.710515,-0.1213199999999999,0.6817035,0.958105,-0.2367,1.3250035,0.957035,-0.20194,0.9273275,-0.000505,-0.004427,1.0726725,0.0005049999999999,0.004427,0.8486535,-0.212045,-0.22502,1.1508135,-0.221305,-0.22599,0.8614035,-0.543995,-0.059905,1.1370435,-0.5554350000000001,-0.055481
134,1.0039125,0.71782,-0.0726995,0.8566995,0.49815,-0.0597915,0.7446794999999999,0.7279399999999999,-0.1370495,1.1400895,0.49419,-0.0470894999999999,1.2567395000000001,0.70966,-0.1059495,0.6821595,0.95461,-0.2217295,1.3277994999999998,0.95643,-0.1850195,0.9281085,-0.00082,-0.0041215,1.0718915,0.00082,0.0041215,0.8512895,-0.23328,-0.2022395,1.1489595,-0.24219,-0.2024495,0.8614795,-0.57367,-0.0492564999999999,1.1360095000000001,-0.58408,-0.0442034999999999
135,1.005214,0.7192055,-0.0592505,0.856677,0.4993155,-0.0471575,0.7450670000000001,0.7295555,-0.1220395,1.142317,0.4960455,-0.0345085,1.259347,0.7108055,-0.0913095,0.6817770000000001,0.9562755,-0.2067995,1.331327,0.9572555,-0.1692595,0.928836,-0.0007795,-0.0038195,1.071164,0.0007795,0.0038194999999999,0.855227,-0.2556445,-0.1765995,1.145017,-0.2634545,-0.1757495,0.8618669999999999,-0.6034445,-0.0373285,1.134427,-0.6129445,-0.0304885
136,1.006737,0.72019,-0.047124,0.856855,0.49964,-0.035847,0.745545,0.7302,-0.109295,1.1446349999999998,0.49807,-0.023064,1.262135,0.71584,-0.0793049999999999,0.682695,0.95594,-0.193905,1.335065,0.96196,-0.155675,0.929409,-0.000681,-0.003707,1.070591,0.000681,0.003707,0.859055,-0.27458,-0.153115,1.141275,-0.28196,-0.151495,0.862825,-0.6269399999999999,-0.0249849999999999,1.132935,-0.63559,-0.017377
137,1.008342,0.720514,-0.0348205,0.857182,0.500234,-0.0245284999999999,0.7459720000000001,0.731104,-0.0968584999999999,1.147012,0.498934,-0.0115475,1.264802,0.716824,-0.0676485,0.683682,0.953734,-0.1813985,1.338702,0.962614,-0.1424385,0.929943,-0.000334,-0.0036804999999999,1.070057,0.0003339999999999,0.0036805,0.8628120000000001,-0.294046,-0.1296385,1.1372419999999999,-0.3004059999999999,-0.1272385,0.8637520000000001,-0.650386,-0.0125094999999999,1.131292,-0.658316,-0.0041765
138,1.0098545,0.7202685,-0.0240775,0.8577465000000001,0.4992285,-0.0151904999999999,0.7469565,0.7334585,-0.0873805,1.1490865000000001,0.4991385,-0.0014264999999999,1.2671065,0.7169385,-0.0569704999999999,0.6848665,0.9541385,-0.1708405,1.3413465,0.9609085,-0.1305605,0.9303515,-6.649999999999972e-05,-0.0037404999999999,1.0696485,6.650000000000015e-05,0.0037404999999999,0.8664165,-0.3112115,-0.1083705,1.1332365,-0.3156115,-0.1046505,0.8648865,-0.6693515,-0.0006145,1.1298564999999998,-0.6771115,0.0081514999999999
139,1.0108,0.720145,-0.0148645,0.858125,0.4973749999999999,-0.0070765,0.747925,0.731935,-0.0785535,1.150555,0.5002350000000001,0.0074104999999999,1.268925,0.717665,-0.0478835,0.685905,0.949185,-0.1629235,1.342915,0.960095,-0.1211735,0.930441,4.99999999999997e-05,-0.0037915,1.069559,-4.99999999999997e-05,0.0037914999999999,0.8691949999999999,-0.323835,-0.0904135,1.129705,-0.327185,-0.0861035,0.8658850000000001,-0.6821349999999999,0.0106814999999999,1.128155,-0.6896749999999999,0.0196204999999999
140,1.0112154999999998,0.71751,-0.0058804999999999,0.8583355,0.4961199999999999,0.0006645,0.7487655,0.7307600000000001,-0.0699604999999999,1.1515655,0.49777,0.0158575,1.2705155000000001,0.71858,-0.0396404999999999,0.6868755,0.94489,-0.1550905,1.3442055,0.95937,-0.1132904999999999,0.9304935,0.00051,-0.0037574999999999,1.0695065,-0.00051,0.0037575,0.8717254999999999,-0.33524,-0.0732305,1.1265955,-0.33747,-0.0687204999999999,0.8669055,-0.6937399999999999,0.0216965,1.1266755,-0.7009299999999999,0.0308875
141,1.0114805,0.717691,0.00227,0.8584575,0.4930909999999999,0.007105,0.7492274999999999,0.729351,-0.0624129999999999,1.1525475,0.498961,0.02352,1.2719675,0.722581,-0.0326729999999999,0.6878175,0.944641,-0.147923,1.3453575,0.962181,-0.1061929999999999,0.9304865,0.000726,-0.0033779999999999,1.0695135,-0.0007259999999999,0.003378,0.8739075000000001,-0.342469,-0.057973,1.1238875,-0.343629,-0.0530429999999999,0.8676975,-0.701179,0.031942,1.1253975,-0.708039,0.041261
142,1.011777,0.7155035000000001,0.010088,0.858886,0.4908835,0.0135839999999999,0.750246,0.7277835,-0.055061,1.153546,0.4979834999999999,0.03078,1.273256,0.7220335,-0.025591,0.6886760000000001,0.9458435,-0.140921,1.3458759999999999,0.9605635,-0.098951,0.930164,0.0011595,-0.0030369999999999,1.069836,-0.0011595,0.0030369999999999,0.8760360000000001,-0.3491765,-0.043401,1.121726,-0.3485365,-0.0392509999999999,0.868396,-0.7081164999999999,0.042223,1.124596,-0.7147365,0.051561
143,1.0122529999999998,0.7152455,0.0125905,0.859575,0.4908555,0.0146104999999999,0.751315,0.7281755,-0.0529845,1.154745,0.4994054999999999,0.0326015,1.274695,0.7236155,-0.0236645,0.689755,0.9496055,-0.1393645,1.346645,0.9612355,-0.0970444999999999,0.92972,0.0016534999999999,-0.0034824999999999,1.07028,-0.0016535,0.0034824999999999,0.878225,-0.3541745,-0.0352545,1.119935,-0.3523945,-0.0319245,0.869285,-0.7128845,0.0468574999999999,1.124285,-0.7198745,0.0564365
144,1.0121194999999998,0.715673,0.01477,0.8595485,0.489903,0.0152069999999999,0.7516985,0.727683,-0.0510719999999999,1.1547585,0.498853,0.03367,1.2747185,0.723793,-0.0219619999999999,0.6902185000000001,0.948723,-0.137722,1.3466385,0.960683,-0.0951619999999999,0.9293475,0.0017589999999999,-0.003734,1.0706525,-0.001759,0.003734,0.8785285,-0.356587,-0.030222,1.1197185,-0.354657,-0.0278119999999999,0.8691585,-0.715987,0.048924,1.1238985,-0.722077,0.058471
145,1.0118889999999998,0.715987,0.0166589999999999,0.859443,0.488837,0.0156329999999999,0.752063,0.727067,-0.049126,1.154613,0.4985369999999999,0.034571,1.274623,0.724017,-0.020776,0.690313,0.948507,-0.136296,1.346563,0.960247,-0.093446,0.929028,0.0017679999999999,-0.00379,1.070972,-0.001768,0.00379,0.8787830000000001,-0.358423,-0.025066,1.119443,-0.356493,-0.023556,0.868933,-0.718173,0.0506659999999999,1.123613,-0.7239129999999999,0.0602789999999999
146,1.011644,0.7161715,0.018604,0.859325,0.4884615,0.016688,0.752355,0.7269715,-0.04685,1.154395,0.4982614999999999,0.03531,1.274425,0.7244615,-0.0189999999999999,0.6900649999999999,0.9494215,-0.13438,1.346395,0.9608415,-0.0910199999999999,0.92882,0.0016585,-0.0037939999999999,1.07118,-0.0016585,0.003794,0.879105,-0.3596284999999999,-0.0195699999999999,1.119145,-0.3576985,-0.0188199999999999,0.868685,-0.7193785,0.052731,1.123375,-0.7251185,0.062006
147,1.011229,0.7161234999999999,0.020556,0.859204,0.4883535,0.017851,0.752594,0.7273035,-0.044345,1.154214,0.4981035,0.0360199999999999,1.274214,0.7240835,-0.0165349999999999,0.690384,0.9508135,-0.1310049999999999,1.345734,0.9618035,-0.087695,0.9286290000000001,0.0015695,-0.0038689999999999,1.0713709999999999,-0.0015694999999999,0.0038689999999999,0.8794540000000001,-0.3602765,-0.0141649999999999,1.118864,-0.3574965,-0.0142749999999999,0.868434,-0.7203165,0.054587,1.123144,-0.7256265000000001,0.063694
148,1.0107519999999999,0.7157469999999999,0.0224069999999999,0.859091,0.4882869999999999,0.019226,0.752631,0.727517,-0.0417799999999999,1.1540709999999998,0.497847,0.036651,1.274021,0.723787,-0.01385,0.690531,0.952527,-0.12724,1.345141,0.962687,-0.08393,0.928446,0.001531,-0.0040739999999999,1.071554,-0.0015309999999999,0.004074,0.8799210000000001,-0.360973,-0.00898,1.118681,-0.357263,-0.00981,0.868141,-0.721133,0.056146,1.122931,-0.7258530000000001,0.065306
149,1.0101295,0.7152885,0.023863,0.8589235,0.4884985,0.020491,0.7526335,0.7279985,-0.0393109999999999,1.1537435,0.4976285,0.037903,1.2737535,0.7236985,-0.0113709999999999,0.6904335000000001,0.9546085,-0.123471,1.3445935,0.9640085,-0.0802809999999999,0.9282765,0.0014824999999999,-0.0043139999999999,1.0717235,-0.0014825,0.004314,0.8803235,-0.3615115,-0.0037619999999999,1.1187735,-0.3569115,-0.0054499999999999,0.8678535,-0.7217115,0.057328,1.1228335,-0.7256815,0.066674
150,1.0094415,0.7148264999999999,0.0251895,0.8586785,0.4885864999999999,0.0216745,0.7524885,0.7285265,-0.0366624999999999,1.1533285,0.4973464999999999,0.0394765,1.2732985,0.7235364999999999,-0.0092224999999999,0.6900685000000001,0.9570965,-0.1195924999999999,1.3440085,0.9651965,-0.0770125,0.9281315,0.0014374999999999,-0.0045344999999999,1.0718685,-0.0014375,0.0045344999999999,0.8805885,-0.3620235,0.0011444999999999,1.1190185,-0.3566835,-0.0014104999999999,0.8675185,-0.7220935,0.0581715,1.1228085,-0.7255735,0.0677025
151,1.0087445,0.7144889999999999,0.0264214999999999,0.8583025,0.4888789999999999,0.0227944999999999,0.7521625000000001,0.7289289999999999,-0.0341965,1.1528425,0.4971989999999999,0.0411024999999999,1.2728125000000001,0.723349,-0.0072565,0.6896825,0.959659,-0.1157965,1.3434025,0.966659,-0.0739465,0.9279904999999999,0.001383,-0.0047905,1.0720095,-0.001383,0.0047904999999999,0.8807925,-0.362361,0.0055554999999999,1.1194525,-0.356331,0.0021644999999999,0.8671325,-0.722261,0.0586764999999999,1.1228525,-0.725411,0.0684335
152,1.00832,0.7144095,0.0275575,0.8580610000000001,0.4891894999999999,0.0240954999999999,0.751971,0.7294095,-0.0318345,1.152461,0.4970795,0.0426784999999999,1.272431,0.7232095,-0.0056445,0.6893410000000001,0.9626795,-0.1119545,1.342811,0.9678795,-0.0713145,0.927884,0.0013535,-0.0049245,1.072116,-0.0013535,0.0049244999999999,0.8807110000000001,-0.3624405,0.0090924999999999,1.119911,-0.3560705,0.0051184999999999,0.866691,-0.7223605,0.0586984999999999,1.122511,-0.7253105,0.0686644999999999
153,1.0077794999999998,0.7143035,0.028822,0.8576075,0.4895735,0.025718,0.7515475,0.7299034999999999,-0.0294149999999999,1.1520475000000001,0.4969834999999999,0.044268,1.2719675,0.7230835,-0.0041469999999999,0.6888575,0.9658735,-0.1082249999999999,1.3421675,0.9689735,-0.069085,0.9277995,0.0013444999999999,-0.0050329999999999,1.0722005000000001,-0.0013444999999999,0.0050329999999999,0.8805175,-0.3624265,0.012188,1.1203375,-0.3558365,0.007525,0.8662275,-0.7223665,0.058041,1.1221675,-0.7251565000000001,0.068455
154,1.007215,0.7140405,0.0299635,0.857044,0.4900105,0.0275445,0.751094,0.7304705,-0.0270764999999999,1.151594,0.4968905,0.0459535,1.271464,0.7228805,-0.0029084999999999,0.688234,0.9687705,-0.1050665,1.341404,0.9697705,-0.0672265,0.927748,0.0013224999999999,-0.0051264999999999,1.072252,-0.0013225,0.0051265,0.8802540000000001,-0.3625395,0.0147355,1.120714,-0.3555995,0.0093545,0.8657239999999999,-0.7223695,0.0570125,1.121854,-0.7249995,0.0676925
155,1.0066339999999998,0.713373,0.030896,0.856623,0.4902629999999999,0.028841,0.750663,0.7307830000000001,-0.0252529999999999,1.151193,0.4967029999999999,0.047471,1.271053,0.7224630000000001,-0.002255,0.687603,0.971353,-0.102653,1.340833,0.969953,-0.066163,0.927696,0.0013359999999999,-0.00517,1.072304,-0.001336,0.0051699999999999,0.879923,-0.362887,0.0165769999999999,1.1210129999999998,-0.355377,0.0104029999999999,0.864913,-0.722397,0.055478,1.1215629999999999,-0.7248169999999999,0.0666519999999999
156,1.006086,0.712551,0.0317395,0.856168,0.490631,0.0304634999999999,0.750258,0.730981,-0.0236294999999999,1.150778,0.4965009999999999,0.0490375,1.270588,0.721881,-0.0018674999999999,0.686898,0.973681,-0.1005395,1.340078,0.970081,-0.0655095,0.927658,0.0013249999999999,-0.0051905,1.072342,-0.0013249999999999,0.0051905,0.879568,-0.363359,0.0179224999999999,1.121308,-0.3552389999999999,0.0110134999999999,0.8641480000000001,-0.722479,0.0537375,1.1212879999999998,-0.724809,0.0652485
157,1.0056825,0.7117640000000001,0.0324924999999999,0.8558465,0.4908539999999999,0.0316714999999999,0.7496864999999999,0.730964,-0.0221725,1.1504365,0.496334,0.0506414999999999,1.2701864999999999,0.721174,-0.0016565,0.6860565000000001,0.975604,-0.0987215,1.3393964999999999,0.970004,-0.0654715,0.9276075,0.001308,-0.0050935,1.0723925,-0.0013079999999999,0.0050934999999999,0.8793465,-0.3640359999999999,0.0186604999999999,1.1216565,-0.355126,0.0109094999999999,0.8635365,-0.7226060000000001,0.0517855,1.1211665,-0.7249859999999999,0.0635665
158,1.005442,0.711074,0.0332475,0.855706,0.491054,0.0327455,0.7491960000000001,0.730604,-0.0207825,1.1503160000000001,0.496154,0.0514144999999999,1.269916,0.720494,-0.0014964999999999,0.6853660000000001,0.977134,-0.0971245,1.338746,0.969634,-0.0655845,0.9276010000000001,0.001273,-0.0049155,1.0723989999999999,-0.001273,0.0049154999999999,0.8793460000000001,-0.364646,0.0185524999999999,1.1219359999999998,-0.355146,0.0103154999999999,0.8631260000000001,-0.722746,0.0498905,1.121236,-0.725296,0.0618035
159,1.0050415,0.7104095,0.033901,0.8554675,0.4911895,0.033746,0.7484975,0.7301595000000001,-0.019763,1.1502275,0.4956095,0.051677,1.2696175,0.7198395,-0.00146,0.6844574999999999,0.9772895,-0.095855,1.3379375,0.9691895,-0.066085,0.9275975,0.0011955,-0.0047299999999999,1.0724025,-0.0011955,0.0047299999999999,0.8793575,-0.3651304999999999,0.017926,1.1219975,-0.3553105,0.0093619999999999,0.8627275,-0.7228804999999999,0.047893,1.1212675,-0.7257205,0.059993
160,1.0043905,0.709843,0.0345045,0.8547965,0.491583,0.0350025,0.7471965,0.729813,-0.0186544999999999,1.1501065,0.495163,0.0518175,1.2696165,0.719193,-0.0017334999999999,0.6830665,0.976943,-0.0943205,1.3368164999999999,0.968843,-0.0671805,0.9275925,0.001083,-0.0044705,1.0724075,-0.001083,0.0044705,0.8791865,-0.365587,0.0168195,1.1220165,-0.355577,0.0084065,0.8623465,-0.722937,0.0458785,1.1212665,-0.726067,0.0581655
161,1.0034025,0.709392,0.034686,0.8537825,0.4921319999999999,0.036247,0.7450025,0.7295419999999999,-0.0177189999999999,1.1499625,0.4949619999999999,0.051765,1.2697425,0.7185220000000001,-0.0025899999999999,0.6813925000000001,0.9767519999999998,-0.093194,1.3353724999999999,0.9686519999999998,-0.0695339999999999,0.9275175,0.0009339999999999,-0.0042149999999999,1.0724825,-0.000934,0.004215,0.8788925,-0.365918,0.015603,1.1221025,-0.355768,0.007557,0.8620425,-0.7228380000000001,0.043906,1.1212425,-0.7262679999999999,0.056418
162,1.0023039999999999,0.7090715,0.0342195,0.852483,0.4926315,0.0374715,0.7415229999999999,0.7285915,-0.0169175,1.149553,0.4948315,0.0513605,1.270153,0.7175015,-0.0046105,0.679763,0.9767015,-0.0923265,1.332543,0.9664015,-0.0716165,0.9274249999999999,0.0008835,-0.0039565,1.072575,-0.0008834999999999,0.0039565,0.878783,-0.3661685,0.0140385,1.122423,-0.3558185,0.0068485,0.862003,-0.7226585,0.0419444999999999,1.121403,-0.7263185,0.0549865
163,1.0006855,0.7088695,0.0326884999999999,0.8501335000000001,0.4930695,0.0391524999999999,0.7351235,0.7246695000000001,-0.0159045,1.1494135,0.4942195,0.0499904999999999,1.2727035,0.7124095,-0.0063745,0.6770335000000001,0.9662295,-0.0912495,1.3294234999999999,0.9575295,-0.0734895,0.9273515,0.0007114999999999,-0.0035315,1.0726485000000001,-0.0007115,0.0035315,0.8789835,-0.3662805,0.0122304999999999,1.1230235,-0.3556105,0.0063174999999999,0.8625735,-0.7225205,0.0401644999999999,1.1221635,-0.7262105,0.0537755
164,0.9988585,0.7086830000000001,0.031106,0.8475755,0.493083,0.04118,0.7272655,0.718483,-0.0145659999999999,1.1495955,0.493623,0.048612,1.2763955,0.7055330000000001,-0.0078509999999999,0.6743455,0.954343,-0.0894399999999999,1.3258255,0.946123,-0.07511,0.9272365,0.0006979999999999,-0.002931,1.0727635,-0.000698,0.002931,0.8794655000000001,-0.366067,0.010692,1.1238655,-0.355507,0.005825,0.8638655,-0.722397,0.038641,1.1234754999999998,-0.725897,0.052753
165,0.9967605,0.708333,0.0300509999999999,0.8450135,0.493083,0.042973,0.7185035,0.710283,-0.0132909999999999,1.1497735,0.492453,0.0475999999999999,1.2781035,0.6968030000000001,-0.009194,0.6705235,0.938953,-0.087298,1.3217135,0.931983,-0.077758,0.9271294999999999,0.0006979999999999,-0.002526,1.0728705,-0.000698,0.0025259999999999,0.8802435,-0.365807,0.0096909999999999,1.1250435,-0.355507,0.0051709999999999,0.8656535,-0.722247,0.037659,1.1253135,-0.725567,0.0521089999999999
