sb224sc-HT22-VT27/4dt907/src/ml-research/a10/datafiles/kinect_good_preprocessed_A9_mediapipe/A155_kinect_mirrored.csv
FrameNo,nose_3d_x,nose_3d_y,nose_3d_z,left_shoulder_3d_x,left_shoulder_3d_y,left_shoulder_3d_z,left_elbow_3d_x,left_elbow_3d_y,left_elbow_3d_z,right_shoulder_3d_x,right_shoulder_3d_y,right_shoulder_3d_z,right_elbow_3d_x,right_elbow_3d_y,right_elbow_3d_z,left_wrist_3d_x,left_wrist_3d_y,left_wrist_3d_z,right_wrist_3d_x,right_wrist_3d_y,right_wrist_3d_z,left_hip_3d_x,left_hip_3d_y,left_hip_3d_z,right_hip_3d_x,right_hip_3d_y,right_hip_3d_z,left_knee_3d_x,left_knee_3d_y,left_knee_3d_z,right_knee_3d_x,right_knee_3d_y,right_knee_3d_z,left_ankle_3d_x,left_ankle_3d_y,left_ankle_3d_z,right_ankle_3d_x,right_ankle_3d_y,right_ankle_3d_z
57,1.0240805,0.720117,-0.034188,0.8304175,0.531747,-0.037549,0.6907175,0.7314569999999999,-0.11395,1.1938274999999998,0.521327,-0.0118149999999999,1.3681275,0.7134269999999999,-0.05594,0.6653275000000001,0.983667,-0.16499,1.4069175,0.953097,-0.11016,0.9230754999999999,0.001499,-0.0007279999999999,1.0769245,-0.001499,0.0007279999999999,0.8766175,-0.500673,0.049683,1.0878615,-0.484353,0.0531699999999999,0.8527275,-0.8780330000000001,0.073934,1.0944474999999998,-0.864803,0.086363
58,1.0240714999999998,0.7200985,-0.0342665,0.8305465,0.5317685,-0.0375575,0.6917265,0.7316885,-0.1139305,1.1938165,0.5213385,-0.0123295,1.3670565,0.7145385,-0.0576505,0.6664765,0.9836785,-0.1650505,1.4042965,0.9597585,-0.1133205,0.9230795,0.0015105,-0.0007155,1.0769205,-0.0015104999999999,0.0007155,0.8767765,-0.5008615,0.0493905,1.0880215,-0.4843415,0.0528115,0.8528665,-0.8785715,0.0739255,1.0945465,-0.8647914999999999,0.0863515
59,1.024103,0.7200935,-0.0345459999999999,0.830734,0.5317835,-0.037741,0.692714,0.7317035,-0.1139589999999999,1.193874,0.5213535,-0.0129779999999999,1.366064,0.7152835,-0.059479,0.667624,0.9835935,-0.165179,1.401904,0.9662935,-0.116299,0.923092,0.0015255,-0.0006619999999999,1.076908,-0.0015254999999999,0.000662,0.877094,-0.5011265,0.048689,1.088253,-0.4843265,0.052252,0.853104,-0.8790465,0.073881,1.094714,-0.8649865,0.086188
60,1.0241595,0.720039,-0.0350679999999999,0.8310085,0.531799,-0.038305,0.6936985,0.731799,-0.1142789999999999,1.1939484999999999,0.521449,-0.013973,1.3651784999999999,0.715399,-0.061409,0.6688885,0.983589,-0.165629,1.3997585,0.972389,-0.119259,0.9230835,0.001576,-0.000633,1.0769165,-0.001576,0.000633,0.8774985,-0.501111,0.04746,1.0885405,-0.4842309999999999,0.051218,0.8533785,-0.879421,0.073606,1.0949084999999998,-0.865421,0.085763
61,1.0243849999999999,0.7199605,-0.0362675,0.831482,0.5319705,-0.0396905,0.694782,0.7320004999999999,-0.1153135,1.194192,0.5216405,-0.0156305,1.364522,0.7156005,-0.0639735,0.670452,0.9836905,-0.1667635,1.3978519999999999,0.9784905,-0.1228035,0.923065,0.0016474999999999,-0.0007395,1.076935,-0.0016475,0.0007394999999999,0.878032,-0.5008795,0.0449544999999999,1.089065,-0.4840595,0.0494314999999999,0.853792,-0.8797395,0.0727875,1.095342,-0.8656795,0.0848065
62,1.0246555,0.7196475,-0.038204,0.8320305,0.5321175,-0.04192,0.6958205,0.7321175,-0.117288,1.1944305,0.5216875,-0.0180509999999999,1.3639105,0.7159875,-0.067138,0.6721005,0.9836775,-0.168518,1.3959105,0.9788775,-0.126848,0.9230275,0.0017334999999999,-0.0009389999999999,1.0769725,-0.0017334999999999,0.000939,0.8785305,-0.5004825,0.040707,1.0897235,-0.4837324999999999,0.046912,0.8542905000000001,-0.8797725,0.07149,1.0958805,-0.8662825,0.083386
63,1.0249445,0.7192345,-0.040983,0.8326555,0.5318945,-0.044638,0.6968555000000001,0.7320245,-0.1200789999999999,1.1946554999999999,0.5215945,-0.0208429999999999,1.3634055,0.7166545,-0.070799,0.6738554999999999,0.9833445,-0.1711589999999999,1.3952555,0.9795445,-0.1296689999999999,0.9229795000000001,0.0018344999999999,-0.0012539999999999,1.0770205,-0.0018345,0.0012539999999999,0.8791255,-0.4996855,0.034459,1.0905874999999998,-0.4831555,0.043416,0.8548355,-0.8794555000000001,0.069715,1.0964755,-0.8666655,0.08144
64,1.0252605,0.7183315,-0.0448749999999999,0.8333095,0.5313715,-0.0485979999999999,0.6978695000000001,0.7314815,-0.1240689999999999,1.1948495000000001,0.5214015,-0.02411,1.3628695,0.7169015,-0.075439,0.6756895,0.9828515,-0.174789,1.3943195,0.9805515,-0.1332789999999999,0.9229295,0.0019545,-0.001687,1.0770705,-0.0019544999999999,0.001687,0.8797595,-0.4984685,0.02625,1.0917305,-0.4825184999999999,0.038685,0.8554095000000002,-0.8787885,0.067309,1.0970995000000001,-0.8668885000000001,0.078921
65,1.0255895,0.7164545,-0.0504245,0.8340505,0.5287345,-0.0551485,0.6991404999999999,0.7286944999999999,-0.1300675,1.1948005,0.5195445,-0.0290575,1.3620705,0.7150344999999999,-0.0815075,0.6779505,0.9810245,-0.1809974999999999,1.3926705,0.9797245,-0.1392175,0.9227805,0.0020174999999999,-0.0022124999999999,1.0772195,-0.0020175,0.0022124999999999,0.8806105,-0.4960954999999999,0.0151514999999999,1.0939105,-0.4808854999999999,0.0310674999999999,0.8561505,-0.8770455,0.0636144999999999,1.0980604999999999,-0.8660955,0.0751805
66,1.025953,0.7141595000000001,-0.056606,0.834962,0.5257395,-0.062667,0.700372,0.7250795000000001,-0.137257,1.194832,0.5175095000000001,-0.03478,1.361562,0.7121795000000001,-0.088207,0.680392,0.9762195,-0.188827,1.391192,0.9727195,-0.145767,0.922613,0.0020824999999999,-0.0028499999999999,1.077387,-0.0020825,0.0028499999999999,0.881662,-0.4931705,0.002846,1.096692,-0.4785805,0.02214,0.857052,-0.8745704999999999,0.059101,1.099292,-0.8647005,0.070749
67,1.026514,0.7122535,-0.0639235,0.8360580000000001,0.5228635,-0.0706595,0.701768,0.7213235,-0.1452795,1.1948079999999999,0.5149535000000001,-0.0410885,1.361378,0.7090135,-0.0952794999999999,0.682998,0.9716835,-0.1974395,1.390118,0.9669535,-0.1527095,0.922412,0.0020925,-0.0034725,1.077588,-0.0020924999999999,0.0034725,0.882918,-0.4897665,-0.0106475,1.099888,-0.4755565,0.0124235,0.858078,-0.8710465,0.0540675,1.100788,-0.8626365,0.0659095
68,1.02715,0.7089545,-0.0713185,0.837365,0.5197645,-0.0790065,0.703265,0.7170245,-0.1541165,1.194915,0.5123545,-0.0475035,1.361365,0.7055145,-0.1027265,0.6859649999999999,0.9675045,-0.2066865,1.3891449999999999,0.9612045,-0.1603264999999999,0.9222049999999999,0.0020795,-0.0041775,1.077795,-0.0020795,0.0041774999999999,0.884255,-0.4856555,-0.0250195,1.1037549999999998,-0.4718155,0.0017764999999999,0.859355,-0.8670455,0.0484635,1.102515,-0.8597855,0.0608315
69,1.0277595,0.7048709999999999,-0.0789629999999999,0.8387715,0.516191,-0.087473,0.7046115,0.712561,-0.163223,1.1949014999999998,0.509671,-0.053921,1.3613615000000001,0.701861,-0.110363,0.6891214999999999,0.963661,-0.216373,1.3880915,0.955481,-0.168263,0.9219915,0.001982,-0.004794,1.0780085,-0.0019819999999999,0.004794,0.8855515,-0.4808989999999999,-0.0396219999999999,1.1080215,-0.467479,-0.0093689999999999,0.8606215,-0.862499,0.042797,1.1043215,-0.855889,0.055625
70,1.028313,0.700406,-0.0873275,0.840342,0.512316,-0.0963475,0.706072,0.707736,-0.1735475,1.1948619999999999,0.506156,-0.0611014999999999,1.361322,0.697586,-0.1188374999999999,0.6931320000000001,0.960636,-0.2276875,1.386862,0.950846,-0.1776575,0.921939,0.0018729999999999,-0.0054655,1.078061,-0.001873,0.0054654999999999,0.886612,-0.473494,-0.0556344999999999,1.112942,-0.460584,-0.0225155,0.861952,-0.855334,0.0363075,1.106502,-0.849214,0.0494995
71,1.0287024999999999,0.6955275000000001,-0.095125,0.8418915000000001,0.5074375000000001,-0.104745,0.7075315,0.7023775000000001,-0.183735,1.1948515,0.5035775,-0.0675429999999999,1.3612715,0.6924675,-0.127065,0.6972214999999999,0.9576575,-0.238725,1.3855415,0.9455675,-0.186995,0.9218955,0.0016554999999999,-0.00608,1.0781045,-0.0016555,0.00608,0.8873515,-0.4656525,-0.0707209999999999,1.1178715,-0.4534625,-0.0358239999999999,0.8633715000000001,-0.8477825,0.0299,1.1086415,-0.8415324999999999,0.043573
72,1.0290234999999999,0.6899609999999999,-0.1026364999999999,0.8433665,0.502321,-0.1129965,0.7089365000000001,0.6969609999999999,-0.1937165,1.1948165,0.502111,-0.0735655,1.3609165,0.687341,-0.1350365,0.7013465,0.955031,-0.2495465,1.3838165,0.935811,-0.1962565,0.9218535,0.0014289999999999,-0.0064465,1.0781465,-0.0014289999999999,0.0064464999999999,0.8877365,-0.456689,-0.0847395,1.1231464999999998,-0.446289,-0.0497265,0.8647365,-0.839099,0.0237095,1.1107665,-0.832809,0.0373195
73,1.0294515,0.6845454999999999,-0.109566,0.8447955,0.4970855,-0.120526,0.7103155,0.6914754999999999,-0.203236,1.1948155,0.5012055,-0.079341,1.3606955,0.6820255,-0.1427659999999999,0.7053754999999999,0.9525655,-0.259946,1.3821854999999998,0.9261955,-0.2050459999999999,0.9217885000000001,0.0011954999999999,-0.006693,1.0782114999999999,-0.0011954999999999,0.0066929999999999,0.8879455,-0.4470645,-0.097826,1.1284555,-0.4382844999999999,-0.063704,0.8661055,-0.8294845000000001,0.017809,1.1129455,-0.8230145000000001,0.0308999999999999
74,1.029941,0.6806765,-0.1146865,0.8460130000000001,0.4941065,-0.1254265,0.7114929999999999,0.6883665,-0.2109665,1.1951129999999999,0.4974265,-0.0841995,1.360973,0.6795865,-0.1490564999999999,0.709013,0.9467965,-0.2678465,1.381003,0.9251665,-0.2116365,0.921874,0.0010954999999999,-0.0069334999999999,1.078126,-0.0010954999999999,0.0069335,0.887783,-0.4369035,-0.1083565,1.133013,-0.4294234999999999,-0.0750875,0.8673430000000001,-0.8188835,0.0130565,1.114823,-0.8120935,0.0255855
75,1.0303034999999998,0.6768445,-0.1195529999999999,0.8469315,0.4915345,-0.129563,0.7123615,0.6855545,-0.217863,1.1953615,0.4948545,-0.088398,1.3610615,0.6781845,-0.155093,0.7123115,0.9452345,-0.274213,1.3792915,0.9227645,-0.218183,0.9219485000000001,0.0010264999999999,-0.007051,1.0780515,-0.0010264999999999,0.007051,0.8870815,-0.4267955,-0.118503,1.1372815,-0.4207055,-0.085898,0.8684215,-0.8074755,0.008868,1.1164415,-0.8003555,0.0206949999999999
76,1.0306705,0.6723005,-0.1236065,0.8478365,0.4886505,-0.1338265,0.7130665,0.6824405,-0.2244765,1.1956965,0.4918805,-0.0927605,1.3609965,0.6766605,-0.1616365,0.7147065,0.9440905,-0.2802665,1.3772065,0.9205505,-0.2250665,0.9220645000000001,0.0009955,-0.0072015,1.0779355,-0.0009954999999999,0.0072015,0.8860465000000001,-0.4173595,-0.1284265,1.1416665,-0.4123195,-0.0969665,0.8693865000000001,-0.7955395000000001,0.0045095,1.1179265,-0.7882495,0.0156515
77,1.0310285,0.6686165,-0.1278425,0.8485294999999999,0.4856764999999999,-0.1377925,0.7132795000000001,0.6794965,-0.2305725,1.1956895,0.4901465,-0.0969415,1.3608295,0.6747164999999999,-0.1685225,0.7165395,0.9426065,-0.2862025,1.3746895000000001,0.9182265,-0.2322625,0.9221825,0.0008594999999999,-0.0073145,1.0778175,-0.0008594999999999,0.0073145,0.8850295,-0.4079035,-0.1379925,1.1458295,-0.4034135,-0.1078325,0.8701695,-0.7830735,0.0005955,1.1191695,-0.7756435,0.0109095
78,1.0313875,0.6661995000000001,-0.131953,0.8492565,0.4837395,-0.141393,0.7134965,0.6770894999999999,-0.236413,1.1958565,0.4871895,-0.1013329999999999,1.3606765,0.6726795000000001,-0.175553,0.7180365,0.9368595,-0.291663,1.3720465,0.9127295,-0.239773,0.9223195,0.0007714999999999,-0.007504,1.0776805,-0.0007715,0.007504,0.8841365,-0.3973605,-0.147813,1.1501365,-0.3933805,-0.1185929999999999,0.8709865,-0.7695304999999999,-0.003302,1.1203465,-0.7618905,0.006351
79,1.0320935,0.668215,-0.141789,0.8508045000000001,0.481765,-0.151369,0.7134645,0.6782050000000001,-0.248079,1.1961445,0.487095,-0.112579,1.3608445,0.675205,-0.189429,0.7188945,0.932715,-0.302919,1.3694445,0.912745,-0.253629,0.9223635,0.000765,-0.007151,1.0776365,-0.000765,0.007151,0.8840945,-0.381895,-0.169979,1.1569645,-0.3789249999999999,-0.141479,0.8721544999999999,-0.753705,-0.019155,1.1236045,-0.7468049999999999,-0.009078
80,1.0324275,0.66676,-0.1520765,0.8521305,0.48118,-0.1609765,0.7129805,0.6769700000000001,-0.2590665,1.1958405,0.48525,-0.1240965,1.3607905,0.67727,-0.2036565,0.7193905,0.92705,-0.3138165,1.3664605,0.90895,-0.2690665,0.9224255000000001,0.0009099999999999,-0.0068484999999999,1.0775744999999999,-0.0009099999999999,0.0068485,0.8837905,-0.36664,-0.1914365,1.1633705,-0.36462,-0.1637765,0.8728505,-0.7383900000000001,-0.0349535,1.1262705,-0.73227,-0.0245784999999999
81,1.0329965,0.66683,-0.16172,0.8537385,0.48067,-0.1704,0.7125684999999999,0.6759000000000001,-0.26924,1.1957785,0.48185,-0.13573,1.3614385,0.67864,-0.21784,0.7200485,0.92142,-0.32409,1.3643085,0.90902,-0.28388,0.9225395,0.0011299999999999,-0.006677,1.0774605,-0.0011299999999999,0.0066769999999999,0.8837385,-0.35238,-0.2122,1.1694685,-0.34984,-0.18506,0.8736685,-0.72378,-0.050361,1.1290985,-0.7180799999999999,-0.039356
82,1.0334249999999998,0.66837,-0.1717555,0.855172,0.4806,-0.1797655,0.711822,0.6751699999999999,-0.2793155,1.1955319999999998,0.47766,-0.1474755,1.3619919999999999,0.67886,-0.2317555,0.720452,0.9169,-0.3342455,1.361882,0.90894,-0.2989455,0.922636,0.00125,-0.0063145,1.077364,-0.00125,0.0063145,0.883582,-0.33833,-0.2327855,1.175142,-0.33511,-0.2059554999999999,0.8744120000000001,-0.70603,-0.0619735,1.131842,-0.70415,-0.0538435
83,1.0340505,0.6690050000000001,-0.181946,0.8567625,0.478795,-0.189076,0.7111925,0.673705,-0.289276,1.1954725,0.478335,-0.157996,1.3625224999999999,0.678815,-0.245086,0.7208125000000001,0.917365,-0.344346,1.3596025,0.908185,-0.314166,0.9227375,0.001115,-0.006014,1.0772625,-0.0011149999999999,0.0060139999999999,0.8837425,-0.324665,-0.253336,1.1806625,-0.321495,-0.226666,0.8753825,-0.6891050000000001,-0.072953,1.1344625,-0.6910149999999999,-0.067758
84,1.034749,0.67013,-0.1917615,0.858324,0.4780999999999999,-0.1980515,0.710704,0.67209,-0.2992114999999999,1.195524,0.4777099999999999,-0.1686115,1.362964,0.67923,-0.2583315,0.720534,0.91667,-0.3549515,1.3574739999999998,0.9084,-0.3292314999999999,0.922781,0.0011299999999999,-0.0057154999999999,1.077219,-0.00113,0.0057154999999999,0.884124,-0.31107,-0.2735815,1.185914,-0.30711,-0.2471115,0.8762340000000001,-0.67252,-0.0836985,1.135074,-0.67539,-0.0770905
85,1.0353835,0.67168,-0.2017735,0.8600655,0.47713,-0.2067935,0.7101355,0.67117,-0.3090935,1.1956255,0.47769,-0.1784735,1.3633055,0.68133,-0.2711135,0.7202155,0.91652,-0.3657135,1.3556355,0.90837,-0.3442935,0.9227625,0.0010899999999999,-0.0054785,1.0772375,-0.00109,0.0054784999999999,0.8844155000000001,-0.29623,-0.2939835,1.1908055,-0.2917599999999999,-0.2673335,0.8768855000000001,-0.6553800000000001,-0.0940285,1.1354855,-0.65893,-0.0859585
86,1.0362695,0.67347,-0.211596,0.8620165,0.47671,-0.215456,0.7098365000000001,0.67031,-0.3188959999999999,1.1962665,0.47595,-0.188376,1.3638465,0.6823,-0.283186,0.7202565000000001,0.91539,-0.376506,1.3543565,0.90842,-0.358646,0.9227835,0.0013299999999999,-0.00534,1.0772165,-0.0013299999999999,0.0053399999999999,0.8848165,-0.28136,-0.314076,1.1954965,-0.2771999999999999,-0.287356,0.8776365,-0.63828,-0.104347,1.1361865,-0.64263,-0.095069
87,1.0371285,0.67407,-0.2208055,0.8638375,0.4749299999999999,-0.2240455,0.7097775,0.66796,-0.3282755,1.1967575,0.47545,-0.1974955,1.3644675,0.68336,-0.2943555,0.7203375000000001,0.91308,-0.3867855,1.3530475,0.91153,-0.3721355,0.9228525,0.0014,-0.0053515,1.0771475,-0.0014,0.0053514999999999,0.8851375,-0.2675099999999999,-0.3336855,1.1996674999999999,-0.26363,-0.3067554999999999,0.8782775,-0.6216999999999999,-0.1141415,1.1369375,-0.6270500000000001,-0.1042025
88,1.037877,0.67087,-0.224134,0.864928,0.47374,-0.226174,0.710168,0.66309,-0.331164,1.197158,0.47311,-0.199274,1.364938,0.68057,-0.298304,0.7207779999999999,0.91019,-0.389774,1.352058,0.90873,-0.377954,0.922961,0.0014399999999999,-0.0053479999999999,1.077039,-0.0014399999999999,0.0053479999999999,0.8849180000000001,-0.25954,-0.340184,1.200748,-0.25599,-0.313234,0.8785880000000001,-0.61073,-0.114694,1.137398,-0.61559,-0.104953
89,1.038381,0.67167,-0.226862,0.865741,0.47324,-0.228302,0.710351,0.6613800000000001,-0.334302,1.1972109999999998,0.47144,-0.200722,1.365081,0.6790400000000001,-0.301462,0.720961,0.90945,-0.392942,1.3509609999999999,0.90708,-0.381652,0.923027,0.0016,-0.0053459999999999,1.076973,-0.0015999999999999,0.005346,0.884271,-0.25078,-0.347142,1.2015609999999999,-0.24761,-0.319872,0.878351,-0.59864,-0.115456,1.137671,-0.60298,-0.106154
90,1.039161,0.6722250000000001,-0.2294525,0.866613,0.471335,-0.2302625,0.710743,0.6605650000000001,-0.3376425,1.197553,0.471185,-0.2019725,1.365493,0.6795150000000001,-0.3040025,0.721353,0.908975,-0.3961725,1.350023,0.907255,-0.3847025,0.923009,0.001495,-0.0053464999999999,1.076991,-0.0014949999999999,0.0053464999999999,0.883433,-0.2397249999999999,-0.3551425,1.202823,-0.236935,-0.3268925,0.878313,-0.585235,-0.1165735,1.138063,-0.5894349999999999,-0.1069944999999999
91,1.039555,0.67161,-0.230285,0.8672500000000001,0.47008,-0.2309049999999999,0.7108099999999999,0.6591899999999999,-0.339705,1.1977499999999999,0.47045,-0.202015,1.36584,0.6810499999999999,-0.305135,0.7215,0.90551,-0.398035,1.34881,0.90677,-0.386365,0.923015,0.00157,-0.0055379999999999,1.076985,-0.0015699999999999,0.005538,0.88176,-0.22982,-0.362075,1.20397,-0.22792,-0.332725,0.87799,-0.56987,-0.1138029999999999,1.1360000000000001,-0.5745899999999999,-0.1039239999999999
92,1.0398865,0.6714500000000001,-0.230254,0.8677225,0.47084,-0.231134,0.7110125,0.65886,-0.3411039999999999,1.1982125,0.46925,-0.201804,1.3661425,0.68201,-0.306014,0.7217625000000001,0.90285,-0.399174,1.3477725,0.90712,-0.387204,0.9229575,0.00185,-0.005659,1.0770425,-0.0018499999999999,0.005659,0.8795125,-0.2191499999999999,-0.368734,1.2053425,-0.21855,-0.3386539999999999,0.8774225000000001,-0.5534899999999999,-0.1108659999999999,1.1338425,-0.55909,-0.1005699999999999
93,1.040495,0.6709700000000001,-0.2298165,0.8682790000000001,0.47025,-0.2311465,0.711449,0.65985,-0.3418865,1.198759,0.46888,-0.2009365,1.366479,0.68194,-0.3060765,0.722939,0.90184,-0.3993865,1.347059,0.90655,-0.3868565,0.9229620000000001,0.0019399999999999,-0.0058024999999999,1.077038,-0.0019399999999999,0.0058025,0.877079,-0.20691,-0.3758565,1.207189,-0.20728,-0.3449164999999999,0.876769,-0.53455,-0.1076355,1.131889,-0.54096,-0.0966325
94,1.0412265,0.669855,-0.2289844999999999,0.8687685,0.471485,-0.2307145,0.7123085,0.6597649999999999,-0.3424145,1.1994284999999998,0.468435,-0.1998845,1.3669785,0.6804250000000001,-0.3055445,0.7245085,0.900815,-0.3990345,1.3465285,0.906715,-0.3860245,0.9229085,0.002415,-0.0059234999999999,1.0770915,-0.002415,0.0059235,0.8751485,-0.195585,-0.3820545,1.2093485,-0.196665,-0.3506745,0.8763685,-0.518125,-0.1061405,1.1300685,-0.523395,-0.0921265
95,1.0423535,0.6700699999999999,-0.2273875,0.8697715,0.4703549999999999,-0.2297875,0.7135015,0.6589700000000001,-0.3426075,1.2002815,0.468903,-0.1985375,1.3678415,0.6815,-0.3047875,0.7264815,0.90357,-0.3980475,1.3467115,0.90529,-0.3850475,0.9227895,0.0022599999999999,-0.0060214999999999,1.0772105,-0.0022599999999999,0.0060214999999999,0.8734815000000001,-0.18254,-0.3888675,1.2120015,-0.18381,-0.3563375,0.8763715000000001,-0.49981,-0.1045295,1.1286515,-0.50403,-0.0877545
96,1.0434504999999998,0.670795,-0.2257195,0.8705674999999999,0.471385,-0.2284095,0.7147975,0.6600250000000001,-0.3424795,1.2008975,0.469023,-0.1970295,1.3687375,0.681285,-0.3040495,0.7284475,0.903995,-0.3969695,1.3470075000000001,0.903425,-0.3839194999999999,0.9225695,0.002495,-0.0061804999999999,1.0774305,-0.0024949999999999,0.0061804999999999,0.8718275,-0.1693949999999999,-0.3952295,1.2147175,-0.170335,-0.3619695,0.8764375000000001,-0.4813349999999999,-0.1028835,1.1290375,-0.4855349999999999,-0.0860985
97,1.0447895,0.67144,-0.2241635,0.8715585,0.47249,-0.2268635,0.7162385,0.66169,-0.3422334999999999,1.2015885,0.469369,-0.1954935,1.3696785,0.67967,-0.3031735,0.7307385,0.9045,-0.3961235,1.3474385,0.90159,-0.3830235,0.9224015000000001,0.00269,-0.0061835,1.0775985,-0.0026899999999999,0.0061835,0.8706885,-0.1557999999999999,-0.4011735,1.2178085,-0.15644,-0.3670735,0.8763585,-0.4635199999999999,-0.1028505,1.1297185,-0.4668599999999999,-0.0843265
98,1.045913,0.6716200000000001,-0.222686,0.872336,0.471745,-0.2253859999999999,0.717606,0.66371,-0.341676,1.202196,0.469179,-0.1940259999999999,1.370866,0.6789200000000001,-0.302046,0.7328760000000001,0.90523,-0.3951159999999999,1.347876,0.90253,-0.382256,0.922414,0.00268,-0.0062489999999999,1.077586,-0.0026799999999999,0.006249,0.8694360000000001,-0.1421599999999999,-0.407006,1.220936,-0.1422399999999999,-0.3718559999999999,0.8763259999999999,-0.4455699999999999,-0.102808,1.130326,-0.4481299999999999,-0.082676
99,1.046717,0.67148,-0.2214809999999999,0.872778,0.473242,-0.2242009999999999,0.7187680000000001,0.66454,-0.341181,1.202598,0.4690689999999999,-0.1928409999999999,1.372328,0.67789,-0.301131,0.7353780000000001,0.90693,-0.3941409999999999,1.348118,0.90352,-0.3816509999999999,0.922525,0.00295,-0.006228,1.077475,-0.00295,0.0062279999999999,0.8679680000000001,-0.1285199999999999,-0.4116809999999999,1.224008,-0.12807,-0.375751,0.876098,-0.42801,-0.103047,1.130848,-0.43093,-0.081833
100,1.047471,0.671265,-0.2199549999999999,0.8732400000000001,0.474672,-0.223095,0.71966,0.665865,-0.340515,1.20299,0.469331,-0.191575,1.37385,0.678175,-0.3001049999999999,0.738,0.911345,-0.3930749999999999,1.34851,0.905045,-0.381355,0.922629,0.003155,-0.0061829999999999,1.077371,-0.0031549999999999,0.006183,0.8660900000000001,-0.1148949999999999,-0.415895,1.22764,-0.114175,-0.379065,0.87568,-0.410455,-0.103328,1.13156,-0.4139049999999999,-0.080894
101,1.0480714999999998,0.67104,-0.2183355,0.8736435,0.474697,-0.2218855,0.7200835,0.6666799999999999,-0.3398655,1.2031935,0.470362,-0.1902855,1.3752235,0.67619,-0.2990555,0.7408835,0.91564,-0.3919755,1.3489135,0.9058,-0.3802955,0.9227315,0.0030899999999999,-0.0062205,1.0772685,-0.00309,0.0062204999999999,0.8638335,-0.10135,-0.4195755,1.2316835,-0.1003399999999999,-0.3816155,0.8751234999999999,-0.3936,-0.1033495,1.1326535,-0.39727,-0.0798525
102,1.0484324999999999,0.6709099999999999,-0.2166055,0.8738665,0.4749409999999999,-0.2205154999999999,0.7204365000000001,0.66687,-0.3392955,1.2033865,0.4706419999999999,-0.1889055,1.3765165,0.6751099999999999,-0.2981155,0.7418565000000001,0.91852,-0.3909755,1.3493065,0.90701,-0.3794955,0.9227515,0.0030799999999999,-0.0061144999999999,1.0772485,-0.00308,0.0061145,0.8611165000000001,-0.08956,-0.4220855,1.2358565,-0.08849,-0.3831055,0.8746565,-0.37928,-0.1033605,1.1338664999999999,-0.3828600000000001,-0.0789845
103,1.048594,0.670995,-0.2146395,0.873917,0.473856,-0.2190395,0.720637,0.6679550000000001,-0.3385395,1.203177,0.471173,-0.1873195,1.377697,0.674295,-0.2971895,0.7424569999999999,0.920685,-0.3898795,1.349897,0.907465,-0.3787595,0.922758,0.0028249999999999,-0.0059645,1.077242,-0.0028249999999999,0.0059644999999999,0.857967,-0.077775,-0.4243495,1.239407,-0.076755,-0.3842195,0.873947,-0.365525,-0.1033925,1.134937,-0.3686349999999999,-0.0782005
104,1.0486879999999998,0.669925,-0.212468,0.873978,0.475383,-0.217318,0.720688,0.6694450000000001,-0.337818,1.203008,0.470967,-0.185428,1.378838,0.672315,-0.2961979999999999,0.742938,0.920205,-0.388708,1.350738,0.905945,-0.377888,0.922824,0.0031349999999999,-0.00572,1.077176,-0.0031349999999999,0.00572,0.854988,-0.0681849999999999,-0.4254779999999999,1.242588,-0.067265,-0.384798,0.873048,-0.354245,-0.103319,1.135838,-0.356755,-0.077057
105,1.0487164999999998,0.669205,-0.210417,0.8736785,0.475525,-0.215387,0.7204085,0.670355,-0.336907,1.2025085,0.471254,-0.183477,1.3797085,0.671745,-0.295437,0.7431885,0.920925,-0.387667,1.3514084999999998,0.905255,-0.377257,0.9228645,0.0031149999999999,-0.0054419999999999,1.0771355,-0.0031149999999999,0.005442,0.8519785,-0.0591349999999999,-0.426337,1.2454585,-0.058975,-0.385067,0.8715185,-0.3443849999999999,-0.104976,1.1366785,-0.3459249999999999,-0.076075
106,1.0486065,0.66822,-0.2084135,0.8732775,0.4753860000000001,-0.2135135,0.7197475,0.6696600000000001,-0.3358835,1.2019575,0.4711840000000001,-0.1816134999999999,1.3804675,0.67222,-0.2946235,0.7431575,0.91996,-0.3867035,1.3519975,0.90389,-0.3765735,0.9228575,0.00306,-0.0052614999999999,1.0771425,-0.0030599999999999,0.0052615,0.8488975,-0.0517999999999999,-0.4267935,1.2478975,-0.0523099999999999,-0.3851635,0.8700075,-0.3364499999999999,-0.1066614999999999,1.1375775,-0.3371599999999999,-0.0754874999999999
107,1.048388,0.66799,-0.2065965,0.872695,0.476413,-0.2118565,0.718765,0.66839,-0.3351865,1.201415,0.472032,-0.1797665,1.381075,0.6718500000000001,-0.2934865,0.742955,0.91837,-0.3858165,1.352545,0.90269,-0.3758265,0.9228600000000001,0.0030599999999999,-0.0050435,1.07714,-0.0030599999999999,0.0050434999999999,0.846085,-0.0455799999999999,-0.4268765,1.250125,-0.0469199999999999,-0.3852765,0.868475,-0.3298999999999999,-0.1082905,1.138465,-0.3297099999999999,-0.0746405
108,1.0480235,0.6676850000000001,-0.2047765,0.8721795,0.477012,-0.2102865,0.7176395000000001,0.6674150000000001,-0.3343065,1.2008895,0.472013,-0.1779565,1.3811995000000001,0.6704950000000001,-0.2922065,0.7428494999999999,0.915675,-0.3847865,1.3526795,0.901345,-0.3753465,0.9229245000000001,0.002985,-0.0048155,1.0770754999999999,-0.002985,0.0048155,0.8436695,-0.0412649999999999,-0.4268465,1.2516695,-0.043265,-0.3854565,0.8674795,-0.3251449999999999,-0.1075895,1.1390995,-0.324275,-0.0735455
109,1.0474294999999998,0.667732,-0.2030035,0.8715485000000001,0.4772849999999999,-0.2088235,0.7164485,0.6667259999999999,-0.3330435,1.2003484999999998,0.4724219999999999,-0.1764534999999999,1.3810585,0.6685019999999999,-0.2909235,0.7425185000000001,0.91259,-0.3836935,1.3525685,0.9000699999999999,-0.3747235,0.9230395,0.0028799999999999,-0.0046194999999999,1.0769605,-0.0028799999999999,0.0046194999999999,0.8419385,-0.03797,-0.4268335,1.2519885,-0.04029,-0.3857935,0.8668085,-0.32156,-0.1069505,1.1392885,-0.32012,-0.0724305
110,1.0469825,0.6678470000000001,-0.2014205,0.8710694999999999,0.47827,-0.2074805,0.7154495000000001,0.666156,-0.3317905,1.1998995,0.47218,-0.1750804999999999,1.3809295,0.668779,-0.2898604999999999,0.7418795,0.90859,-0.3825004999999999,1.3523395,0.89812,-0.3736505,0.9229575,0.00302,-0.0044034999999999,1.0770425,-0.00302,0.0044035,0.8410295,-0.0361,-0.4267904999999999,1.2518495,-0.0383999999999999,-0.3862605,0.8664695,-0.31926,-0.1063635,1.1394495,-0.3173,-0.0718264999999999
111,1.046581,0.668147,-0.200131,0.870568,0.4793160000000001,-0.206311,0.714168,0.6656330000000001,-0.330451,1.199418,0.47215,-0.173881,1.380728,0.6686440000000001,-0.288921,0.740568,0.90418,-0.3811009999999999,1.3520780000000001,0.8968100000000001,-0.372361,0.9228290000000001,0.00309,-0.0043079999999999,1.0771709999999999,-0.0030899999999999,0.0043079999999999,0.840678,-0.0348799999999999,-0.426791,1.251668,-0.0370799999999998,-0.386861,0.8660780000000001,-0.3178399999999999,-0.105628,1.139588,-0.3153599999999998,-0.071305
112,1.0462925,0.6686909999999999,-0.199062,0.8700855000000001,0.4804719999999999,-0.205112,0.7129155,0.664984,-0.328882,1.1990755,0.47217,-0.172952,1.3804355,0.668388,-0.288142,0.7407954999999999,0.90447,-0.379752,1.3519454999999998,0.8949,-0.370692,0.9227065,0.00312,-0.0042689999999999,1.0772935,-0.00312,0.004269,0.8404754999999999,-0.03441,-0.426832,1.2515055,-0.0363499999999999,-0.3877319999999999,0.8658555,-0.3171,-0.1045099999999999,1.1396355,-0.31432,-0.070808
113,1.046104,0.6691610000000001,-0.1981585,0.869726,0.481047,-0.2040385,0.712086,0.664961,-0.3272885,1.198786,0.472455,-0.1724885,1.380286,0.668452,-0.2876285,0.739006,0.8988150000000001,-0.3785185,1.352006,0.8948150000000001,-0.3698985,0.9225500000000001,0.003055,-0.0042535,1.0774499999999998,-0.0030549999999999,0.0042535,0.840216,-0.0343049999999999,-0.4268885,1.251086,-0.0361349999999999,-0.3886685,0.865666,-0.3166849999999999,-0.1038315,1.139736,-0.3138149999999999,-0.0713275
114,1.046,0.669066,-0.197267,0.869551,0.481207,-0.2029969999999999,0.711591,0.66477,-0.325477,1.198701,0.472475,-0.172107,1.380231,0.668393,-0.287187,0.737141,0.893295,-0.377237,1.3523509999999999,0.893465,-0.369197,0.9224120000000001,0.003085,-0.004195,1.077588,-0.003085,0.0041949999999999,0.839981,-0.0344649999999999,-0.426837,1.250031,-0.0361949999999999,-0.389487,0.865551,-0.316555,-0.103245,1.139871,-0.313745,-0.071827
115,1.045925,0.6687350000000001,-0.1963285,0.869417,0.481295,-0.2019885,0.711387,0.6646880000000001,-0.3236785,1.198647,0.47243,-0.1717085,1.380257,0.668382,-0.2867785,0.7364269999999999,0.89285,-0.3750585,1.352707,0.89214,-0.3684785,0.9223129999999999,0.00312,-0.0040995,1.077687,-0.00312,0.0040994999999999,0.839837,-0.0346299999999999,-0.4267285,1.249267,-0.0362399999999999,-0.3901485,0.865407,-0.3165,-0.1029785,1.139717,-0.3138799999999999,-0.0713265
116,1.045894,0.668438,-0.1952205,0.869326,0.4815419999999999,-0.2008805,0.711306,0.6644869999999999,-0.3217605,1.198606,0.472415,-0.1712105,1.380276,0.668422,-0.2862805,0.735776,0.8923949999999999,-0.3732205,1.352676,0.8918649999999999,-0.3676005,0.922281,0.0031849999999999,-0.0039504999999999,1.077719,-0.0031849999999999,0.0039505,0.839816,-0.034735,-0.4265605,1.248756,-0.036255,-0.3907005,0.865356,-0.316485,-0.1027005,1.139736,-0.3141050000000001,-0.0710925
117,1.0459295,0.668445,-0.193948,0.8692655,0.482333,-0.199738,0.7112455000000001,0.664329,-0.319748,1.1986055,0.472345,-0.170578,1.3802955,0.668377,-0.285698,0.7351655,0.892925,-0.370848,1.3530655,0.891265,-0.366388,0.9222565,0.0032849999999999,-0.003813,1.0777435,-0.0032849999999999,0.0038129999999999,0.8397855,-0.034795,-0.4263679999999999,1.2483655,-0.036255,-0.391188,0.8659255,-0.316185,-0.100165,1.1398055,-0.314245,-0.070849
118,1.0460375,0.6687280000000001,-0.1924865,0.8692015,0.483211,-0.1985265,0.7111715000000001,0.6643460000000001,-0.3176365,1.1986015,0.4724050000000001,-0.1698465,1.3803215,0.6682580000000001,-0.2849365,0.7346015,0.8935850000000001,-0.3684665,1.3536415,0.8904150000000001,-0.3649664999999999,0.9222365,0.003385,-0.0037035,1.0777635,-0.0033849999999999,0.0037034999999999,0.8395615,-0.0347749999999998,-0.4261865,1.2481115,-0.0360849999999999,-0.3915364999999999,0.8664115,-0.3157049999999999,-0.0975055,1.1400215,-0.3141949999999999,-0.0708575
119,1.046272,0.6690349999999999,-0.1908805,0.869201,0.4839349999999999,-0.1973105,0.711211,0.664612,-0.3154705,1.198701,0.4725,-0.1690305,1.380471,0.6677599999999999,-0.2839005,0.734271,0.8940899999999999,-0.3661304999999999,1.354311,0.88978,-0.3633504999999999,0.922194,0.0035199999999999,-0.0035965,1.077806,-0.00352,0.0035965,0.839251,-0.0347399999999999,-0.4260204999999999,1.247971,-0.03578,-0.3917805,0.8669710000000002,-0.31516,-0.0948364999999999,1.140321,-0.31417,-0.0709835
120,1.0465855,0.6691729999999999,-0.1892285,0.8692124999999999,0.4845659999999999,-0.1961184999999999,0.7113425,0.6649689999999999,-0.3134385,1.1988125,0.4725899999999999,-0.1681885,1.3807425,0.6671469999999999,-0.2827885,0.7339825000000001,0.8946799999999999,-0.3640185,1.3554625,0.8887499999999999,-0.3613485,0.9221495,0.0036499999999999,-0.0035154999999999,1.0778505,-0.00365,0.0035154999999999,0.8388525,-0.03461,-0.4258685,1.2479624999999999,-0.0354200000000001,-0.3918985,0.8670225,-0.3147500000000001,-0.0942035,1.1406525,-0.3139,-0.0710965
121,1.0470075,0.669188,-0.1876325,0.8692185,0.485001,-0.1951825,0.7115585,0.665537,-0.3117125,1.1989385,0.472705,-0.1673224999999999,1.3812285,0.666464,-0.2815925,0.7336885,0.895705,-0.3624425,1.3567885,0.889305,-0.3592425,0.9221015,0.0037949999999999,-0.0034604999999999,1.0778985,-0.0037949999999999,0.0034605,0.8383985,-0.0344349999999999,-0.4257125,1.2479985,-0.0350249999999999,-0.3917925,0.8670485,-0.314165,-0.0935775,1.1408085,-0.313755,-0.0706255
122,1.0474919999999999,0.669262,-0.1864434999999999,0.869329,0.485421,-0.1945434999999999,0.7118990000000001,0.666284,-0.3103735,1.199149,0.472725,-0.1666035,1.381989,0.666011,-0.2804435,0.733479,0.8966350000000001,-0.3619735,1.358519,0.890625,-0.3573635,0.922054,0.0039949999999999,-0.0033874999999999,1.077946,-0.0039949999999999,0.0033875,0.837929,-0.034305,-0.4255235,1.248089,-0.034745,-0.3915535,0.867129,-0.313635,-0.0931184999999999,1.140909,-0.3136949999999999,-0.0700705
123,1.048075,0.6696139999999999,-0.185578,0.869524,0.4854769999999999,-0.194338,0.712394,0.666623,-0.309628,1.1994340000000001,0.47275,-0.166178,1.382914,0.665546,-0.279508,0.733464,0.89714,-0.361808,1.3609740000000001,0.89074,-0.355578,0.9220079999999999,0.004,-0.003414,1.077992,-0.004,0.003414,0.837454,-0.03438,-0.425438,1.248104,-0.03483,-0.391378,0.867244,-0.31345,-0.093357,1.141044,-0.31376,-0.069904
124,1.048886,0.6697759999999999,-0.18516,0.869923,0.485537,-0.19428,0.713063,0.666812,-0.30925,1.199943,0.47275,-0.16582,1.384173,0.665546,-0.27854,0.7337130000000001,0.90254,-0.3618,1.364673,0.89074,-0.35335,0.921975,0.004,-0.003415,1.078025,-0.004,0.003415,0.836943,-0.03438,-0.42546,1.248323,-0.03478,-0.39137,0.8673230000000001,-0.3132400000000001,-0.094072,1.1412930000000001,-0.3137,-0.069896
125,1.0498535,0.6697759999999999,-0.1848995,0.8704765,0.485598,-0.1942694999999999,0.7138865,0.6670309999999999,-0.3092195,1.2006065,0.47275,-0.1653695,1.3856964999999999,0.665546,-0.2773395,0.7340165000000001,0.90777,-0.3617895,1.3683665,0.89107,-0.3509595,0.9219855,0.004,-0.0034144999999999,1.0780145,-0.004,0.0034145,0.8367365,-0.03438,-0.4254695,1.2486365,-0.03478,-0.3913594999999999,0.8674465,-0.313,-0.0946235,1.1414065,-0.31417,-0.0689605
126,1.0512139999999999,0.669606,-0.1848525,0.871424,0.485684,-0.1942424999999999,0.714944,0.6675390000000001,-0.3091925,1.201664,0.4729900000000001,-0.1648425,1.387544,0.6653760000000001,-0.2762825,0.7344740000000001,0.91285,-0.3618825,1.371854,0.8913300000000001,-0.3487024999999999,0.922071,0.00413,-0.0034115,1.077929,-0.0041299999999999,0.0034114999999999,0.837124,-0.0344799999999999,-0.4254525,1.2491539999999999,-0.0349499999999999,-0.3910625,0.867694,-0.3129099999999999,-0.0952925,1.141714,-0.3146899999999999,-0.0679545
127,1.0528864999999998,0.6699830000000001,-0.1851385,0.8723815,0.485369,-0.1945485,0.7159314999999999,0.6682170000000001,-0.3094885,1.2029515,0.473195,-0.1645785,1.3894915,0.664814,-0.2755384999999999,0.7345515,0.912025,-0.3633285,1.3753215,0.8913150000000001,-0.3470184999999999,0.9221555,0.0042350000000001,-0.0034834999999999,1.0778445,-0.0042349999999999,0.0034835,0.8376415,-0.0351149999999998,-0.4253685,1.2496515,-0.0360649999999999,-0.3904585,0.8679915,-0.3132149999999999,-0.0964194999999999,1.1420115,-0.3158449999999999,-0.0676345
128,1.0548015,0.669405,-0.185948,0.8739125,0.484859,-0.195488,0.7169325,0.667659,-0.310378,1.2043925,0.4724750000000001,-0.164818,1.3915525,0.6624920000000001,-0.275488,0.7345625,0.914835,-0.365448,1.3792425,0.8908550000000001,-0.346508,0.9221635,0.004525,-0.003701,1.0778365,-0.0045249999999998,0.0037009999999999,0.8381425,-0.0383849999999998,-0.425108,1.2497725,-0.0396849999999999,-0.389638,0.8684825,-0.316465,-0.097732,1.1423625,-0.3198449999999999,-0.068103
129,1.0570185,0.669072,-0.1872774999999999,0.8759675,0.484734,-0.1970174999999999,0.7181575,0.668399,-0.3126675,1.2060775,0.472344,-0.1653975,1.3949975000000001,0.663748,-0.2757675,0.7345875,0.91705,-0.3681375,1.3831475,0.89229,-0.3467175,0.9222405,0.0046899999999999,-0.0039415,1.0777595,-0.0046899999999999,0.0039415,0.8387775,-0.04271,-0.4247475,1.2496775,-0.04418,-0.3888275,0.8691774999999999,-0.32126,-0.0991735,1.1428475,-0.3255,-0.0690575
130,1.059373,0.6693399999999999,-0.1894885,0.878233,0.4842419999999999,-0.1991585,0.719383,0.6677299999999999,-0.3156985,1.207933,0.4718969999999999,-0.1664085,1.3980730000000001,0.66316,-0.2764385,0.734363,0.91838,-0.3716785,1.387333,0.8934199999999999,-0.3474585,0.92231,0.0048899999999999,-0.0042575,1.07769,-0.00489,0.0042574999999999,0.8395630000000001,-0.04851,-0.4242384999999999,1.249013,-0.05034,-0.3877785,0.869903,-0.3283100000000001,-0.1009345,1.143613,-0.3333900000000001,-0.0708015
131,1.0617599999999998,0.669865,-0.192356,0.880478,0.482257,-0.201736,0.720758,0.666845,-0.319316,1.2099579999999999,0.471983,-0.167816,1.4009179999999999,0.663455,-0.277486,0.734038,0.918945,-0.375926,1.391558,0.894145,-0.348956,0.922463,0.0046749999999999,-0.004697,1.077537,-0.0046749999999999,0.004697,0.840708,-0.0555649999999999,-0.423676,1.247868,-0.0576849999999999,-0.386546,0.870608,-0.337075,-0.102992,1.144238,-0.343155,-0.072822
132,1.063868,0.6695199999999999,-0.195979,0.88253,0.4820229999999999,-0.204949,0.7221500000000001,0.6666099999999999,-0.323659,1.21172,0.4714999999999999,-0.169799,1.4031799999999999,0.66304,-0.279069,0.73424,0.91762,-0.380959,1.39535,0.8937999999999999,-0.350229,0.922713,0.0049899999999999,-0.0049309999999999,1.077287,-0.00499,0.0049309999999999,0.842,-0.0645000000000001,-0.422399,1.24613,-0.06701,-0.385099,0.87113,-0.3483200000000001,-0.1056199999999999,1.14445,-0.35548,-0.075325
133,1.065979,0.6697000000000001,-0.1998559999999999,0.8845980000000001,0.481749,-0.208556,0.723658,0.6652800000000001,-0.328426,1.213498,0.471009,-0.172226,1.405558,0.66234,-0.281196,0.734808,0.91461,-0.386416,1.3980380000000001,0.89174,-0.3520959999999999,0.922946,0.00515,-0.00518,1.077054,-0.0051499999999999,0.0051799999999999,0.843508,-0.0745799999999999,-0.420836,1.244288,-0.0779899999999998,-0.3831259999999999,0.8717980000000001,-0.3621399999999999,-0.108612,1.144788,-0.3698999999999999,-0.07799
134,1.0677685,0.669735,-0.2040215,0.8864675,0.4819549999999999,-0.2124115,0.7248875,0.664215,-0.3335015,1.2150975,0.470645,-0.1747815,1.4075275,0.661805,-0.2835315,0.7352275000000001,0.906955,-0.3917215,1.4001375,0.888855,-0.3542515,0.9229965,0.0053349999999999,-0.0054835,1.0770035,-0.0053349999999999,0.0054835,0.8449375,-0.0856949999999999,-0.4188515,1.2422575,-0.0900849999999999,-0.3807615,0.8719775,-0.3788249999999999,-0.1126015,1.1451075,-0.3859749999999999,-0.0810625
135,1.06929,0.66971,-0.2075885,0.8881,0.481324,-0.2160385,0.72599,0.66288,-0.3383085,1.2164,0.470152,-0.1772585,1.40905,0.66143,-0.2856885,0.73549,0.90268,-0.3967785,1.4018899999999999,0.8877200000000001,-0.3561885,0.92291,0.0052999999999999,-0.0056885,1.07709,-0.0053,0.0056884999999999,0.8463500000000002,-0.0978599999999999,-0.4160785,1.23994,-0.1035399999999999,-0.3777684999999999,0.872,-0.3973299999999999,-0.1165095,1.14526,-0.4039899999999999,-0.0835905
136,1.0701255,0.669505,-0.210791,0.8895305,0.481066,-0.218881,0.7269905,0.662325,-0.342671,1.2173505,0.470046,-0.179391,1.4102005,0.662375,-0.287331,0.7359305,0.899445,-0.401101,1.4024104999999998,0.8864350000000001,-0.357931,0.9229235000000001,0.005405,-0.005928,1.0770765,-0.0054049999999999,0.0059279999999999,0.8478805,-0.1114849999999999,-0.412691,1.2375905,-0.1179549999999999,-0.374261,0.8720605000000001,-0.4170349999999999,-0.119547,1.1452805,-0.4229849999999999,-0.085621
137,1.0705405,0.6691199999999999,-0.2131559999999999,0.8900275,0.4802869999999999,-0.221236,0.7279475,0.66211,-0.346056,1.2181275,0.470107,-0.181116,1.4114075,0.66385,-0.288716,0.7361475,0.89627,-0.404856,1.4024575000000001,0.88558,-0.359566,0.9229285,0.0052099999999999,-0.006093,1.0770715,-0.0052099999999999,0.006093,0.8494475,-0.12495,-0.408606,1.2355075,-0.13194,-0.370236,0.8720575,-0.43761,-0.124204,1.1453675,-0.4427,-0.088005
138,1.070543,0.6703,-0.215258,0.89032,0.478257,-0.2233279999999999,0.7285699999999999,0.6613,-0.348138,1.21878,0.468892,-0.182588,1.41137,0.66332,-0.289578,0.73628,0.89435,-0.407138,1.40263,0.88541,-0.361058,0.922967,0.00514,-0.0062069999999999,1.077033,-0.0051399999999999,0.006207,0.85091,-0.1375699999999999,-0.404438,1.2336,-0.145,-0.366028,0.8721900000000001,-0.45652,-0.129353,1.14538,-0.4616599999999999,-0.090136
139,1.070349,0.67033,-0.2170295,0.890326,0.478914,-0.2250994999999999,0.7291460000000001,0.6613,-0.3498895,1.219066,0.470659,-0.1834895,1.411136,0.66477,-0.2898995,0.736246,0.89801,-0.4088994999999999,1.402566,0.88923,-0.3617495,0.922992,0.00496,-0.0062184999999999,1.077008,-0.00496,0.0062185,0.852426,-0.1512399999999999,-0.3990995,1.2316259999999999,-0.1588799999999999,-0.3608095,0.872456,-0.4764799999999999,-0.1333675,1.145256,-0.48138,-0.0920584999999999
140,1.0698285,0.67031,-0.2185075,0.8898085,0.482103,-0.2266574999999999,0.7292985000000001,0.66045,-0.3514275,1.2188585,0.470815,-0.1838175,1.4105685000000001,0.66613,-0.2901375,0.7359285,0.89852,-0.4104575,1.4020085,0.8909199999999999,-0.3618775,0.9231365,0.00545,-0.0060834999999999,1.0768635,-0.00545,0.0060835,0.8536985,-0.1664899999999999,-0.3915175,1.2292785,-0.17458,-0.3540075,0.8723385000000001,-0.49891,-0.1358605,1.1463785,-0.5033799999999999,-0.0963115
141,1.0692495,0.67327,-0.218888,0.8892595000000001,0.4817599999999999,-0.227108,0.7289194999999999,0.6603399999999999,-0.351778,1.2185295,0.47297,-0.182908,1.4089395,0.6694100000000001,-0.288138,0.7356795,0.89944,-0.411598,1.4010395,0.8940899999999999,-0.360418,0.9232545,0.0047299999999999,-0.0062429999999999,1.0767455,-0.00473,0.0062429999999999,0.8549395000000001,-0.1826999999999999,-0.383308,1.2265395,-0.1909699999999999,-0.3453279999999999,0.8723895,-0.52342,-0.138216,1.1475195,-0.5273,-0.099794
142,1.068307,0.675655,-0.2185435,0.888328,0.480565,-0.2270935,0.728308,0.660915,-0.3514835,1.217918,0.475155,-0.1817535,1.407268,0.673065,-0.2858935,0.735418,0.901315,-0.4119135,1.399208,0.8974650000000001,-0.3581135,0.923238,0.004055,-0.0063644999999999,1.076762,-0.0040549999999999,0.0063645,0.8559479999999999,-0.198335,-0.3750335,1.223628,-0.2061649999999999,-0.3366335,0.872168,-0.546675,-0.1397785,1.1482379999999999,-0.549845,-0.1023435
143,1.067339,0.677775,-0.2172515,0.8873190000000001,0.4822249999999999,-0.2259914999999999,0.7277490000000001,0.6605049999999999,-0.3505015,1.217409,0.477425,-0.1800915,1.4056790000000001,0.675665,-0.2829715,0.735479,0.902605,-0.4109015,1.397029,0.903205,-0.3539415,0.923351,0.0037349999999999,-0.0064294999999999,1.076649,-0.003735,0.0064295,0.857619,-0.214635,-0.3652915,1.220299,-0.222055,-0.3271315,0.872079,-0.570655,-0.1417904999999999,1.149149,-0.573625,-0.1046795
144,1.06612,0.680855,-0.2157295,0.886212,0.484025,-0.2244895,0.727152,0.661815,-0.3489494999999999,1.216672,0.478905,-0.1781395,1.404072,0.678995,-0.2792695,0.735082,0.900865,-0.4091495,1.394402,0.907575,-0.3500395,0.923313,0.003725,-0.0063065,1.076687,-0.0037249999999999,0.0063065,0.859292,-0.2305049999999999,-0.3548294999999999,1.2166519999999998,-0.2374549999999999,-0.3170894999999999,0.8716820000000001,-0.594055,-0.1417745,1.150002,-0.597015,-0.1058025
145,1.0647115,0.68397,-0.2135949999999999,0.8848855,0.48427,-0.222845,0.7264755,0.6622300000000001,-0.346855,1.2159155,0.47966,-0.175975,1.4022455,0.68221,-0.275055,0.7346155,0.90005,-0.406175,1.3918255,0.91242,-0.345615,0.9232435,0.00322,-0.00623,1.0767565000000001,-0.00322,0.0062299999999999,0.8609555,-0.24548,-0.343925,1.2123855,-0.25198,-0.306495,0.8712555,-0.6165499999999999,-0.141473,1.1502455,-0.61964,-0.105947
146,1.063342,0.68793,-0.2110075,0.883292,0.48406,-0.2209975,0.725542,0.66526,-0.3444975,1.215012,0.4807599999999999,-0.1738075,1.400962,0.68676,-0.2702475,0.734692,0.9018,-0.4026075,1.389492,0.91703,-0.3408775,0.923167,0.00284,-0.0062324999999999,1.076833,-0.00284,0.0062325,0.862362,-0.25886,-0.3329875,1.207562,-0.26558,-0.2955975,0.870702,-0.63761,-0.1409895,1.1500219999999999,-0.64134,-0.1057095
147,1.0618965,0.6866099999999999,-0.206987,0.8815535000000001,0.48732,-0.218567,0.7243435,0.66701,-0.340947,1.2140235,0.48379,-0.170917,1.3995635,0.69001,-0.265157,0.7346235,0.90331,-0.397797,1.3874235,0.91958,-0.335337,0.9229655,0.0027699999999999,-0.006202,1.0770345,-0.0027699999999999,0.0062019999999999,0.8643535,-0.27461,-0.318997,1.2011235,-0.28234,-0.281687,0.8700935000000001,-0.66073,-0.140663,1.1494435,-0.66617,-0.105375
148,1.0600385,0.6820649999999999,-0.2019955,0.8795775,0.488535,-0.2159855,0.7228875,0.668215,-0.3369855,1.2123975,0.4844449999999999,-0.1682955,1.3971575,0.690455,-0.2602755,0.7338975000000001,0.903215,-0.3924955,1.3857475,0.917925,-0.3303055,0.9230525,0.0024649999999999,-0.0058714999999999,1.0769475,-0.002465,0.0058715,0.8661675,-0.289725,-0.3039855,1.1935475,-0.298395,-0.2669755,0.8692675000000001,-0.6836249999999999,-0.1391775,1.1480875,-0.6901349999999999,-0.1051385
149,1.0585345,0.6790999999999999,-0.197515,0.8782965000000001,0.48758,-0.213825,0.7217565,0.6707099999999999,-0.333315,1.2111265,0.48389,-0.166245,1.3951164999999999,0.6938599999999999,-0.255575,0.7333765,0.90547,-0.3872649999999999,1.3843865,0.92005,-0.325625,0.9230885,0.0020799999999999,-0.005587,1.0769115,-0.0020799999999999,0.0055869999999999,0.8683865,-0.30422,-0.289655,1.1862165,-0.3135099999999999,-0.252955,0.8691265,-0.70274,-0.132991,1.1468665,-0.71267,-0.105117
150,1.0572635,0.6734849999999999,-0.192517,0.8771375,0.487845,-0.212177,0.7208175,0.6733149999999999,-0.330047,1.2099775,0.481045,-0.1650869999999999,1.3931775,0.695535,-0.252167,0.7330575000000001,0.909735,-0.3825969999999999,1.3831475,0.922685,-0.321647,0.9232115,0.0022949999999999,-0.005273,1.0767885,-0.002295,0.005273,0.8712075,-0.316735,-0.275027,1.1789975,-0.326845,-0.239527,0.8688075,-0.719455,-0.126871,1.1457575,-0.7319549999999999,-0.104908
151,1.0560275,0.6679299999999999,-0.186892,0.8760395,0.48881,-0.210892,0.7199395,0.67813,-0.326582,1.2088995,0.47804,-0.164222,1.3910695,0.6973999999999999,-0.248522,0.7318595,0.91543,-0.378012,1.3822195,0.92732,-0.317752,0.9233645,0.0026599999999999,-0.004933,1.0766355,-0.0026599999999999,0.0049329999999999,0.8746995000000001,-0.32876,-0.259642,1.1715195,-0.34018,-0.225872,0.8685395000000001,-0.7358600000000001,-0.121233,1.1446795,-0.7510800000000001,-0.104367
152,1.0547175,0.663291,-0.180032,0.8773905000000001,0.487021,-0.2095219999999999,0.7197305,0.684971,-0.321492,1.2077404999999999,0.474711,-0.162953,1.3877804999999999,0.700541,-0.243702,0.7302405000000001,0.921951,-0.372392,1.3816605,0.930391,-0.313592,0.9234755,0.002689,-0.004576,1.0765245,-0.0026889999999999,0.0045759999999999,0.8779005,-0.3396089999999999,-0.243362,1.1639005,-0.351499,-0.210212,0.8680005,-0.7484190000000001,-0.114368,1.1419105,-0.766619,-0.099122
153,1.053158,0.657099,-0.1728115,0.878097,0.485689,-0.2077315,0.719897,0.690429,-0.3157815,1.2062169999999999,0.4717989999999999,-0.1613815,1.383807,0.7024889999999999,-0.2390614999999999,0.728907,0.928719,-0.3663215,1.380427,0.932309,-0.3096015,0.923478,0.0026389999999999,-0.0042924999999999,1.076522,-0.002639,0.0042925,0.880387,-0.3543309999999999,-0.2257215,1.155327,-0.3638409999999999,-0.1932015,0.866947,-0.762331,-0.1068455,1.138157,-0.7792410000000001,-0.0932345
154,1.0517715,0.6499429999999999,-0.1682385,0.8767975,0.486453,-0.2057585,0.7200774999999999,0.696153,-0.3091885,1.2050475,0.471493,-0.1595675,1.3820575,0.7028829999999999,-0.2344284999999999,0.7276875,0.936683,-0.3589485,1.3792775,0.934433,-0.3051585,0.9235375,0.003041,-0.0039135,1.0764625,-0.003041,0.0039135,0.8827275,-0.368677,-0.2066684999999999,1.1465675,-0.375797,-0.1733985,0.8659175,-0.7754070000000001,-0.0982965,1.1340075,-0.790717,-0.0855905
155,1.050118,0.6425235,-0.1607045,0.875609,0.4883535,-0.2005045,0.7201489999999999,0.6999535,-0.2992844999999999,1.203599,0.4709035,-0.1549944999999999,1.380039,0.7027635,-0.2272445,0.726809,0.9451235,-0.3484545,1.378269,0.9370435,-0.2975744999999999,0.923162,0.0031685,-0.0028134999999999,1.076838,-0.0031684999999999,0.0028135,0.8846390000000001,-0.3828465,-0.1827444999999999,1.137119,-0.3872265,-0.1489774999999999,0.864799,-0.7874765,-0.0847835,1.128889,-0.8010465,-0.0735115
156,1.0484805,0.6379250000000001,-0.1509815,0.8738905000000001,0.487035,-0.1915144999999999,0.7199005,0.704025,-0.2868445,1.2017805,0.464605,-0.1470095,1.3775905,0.700555,-0.2171545,0.7253205,0.949025,-0.3356045,1.3767605,0.940815,-0.2859245,0.9231335,0.0033359999999999,-0.0029055,1.0768665,-0.003336,0.0029054999999999,0.8852205,-0.397175,-0.1544645,1.1279104999999998,-0.400485,-0.1203875,0.8629805,-0.8009649999999999,-0.0691565,1.1232905,-0.8116749999999999,-0.0585975
157,1.0473525,0.6478705,-0.1416195,0.8725635,0.4909805,-0.1804215,0.7199935,0.7075404999999999,-0.2738415,1.2021235,0.4681505,-0.1369845,1.3752335,0.7025705,-0.2067615,0.7242435,0.9501305,-0.3224915,1.3754235000000001,0.9462805,-0.2731815,0.9229404999999999,0.0035565,-0.0028535,1.0770595,-0.0035564999999999,0.0028535,0.8854035000000001,-0.4098395,-0.1273965,1.1200835,-0.4128295,-0.0930925,0.8612535,-0.8129394999999999,-0.0547035,1.1181735,-0.8208495,-0.0435865
158,1.046306,0.65588,-0.131991,0.87137,0.4958,-0.16999,0.72011,0.71114,-0.2612299999999999,1.2023599999999999,0.47346,-0.127596,1.3731,0.70026,-0.19699,0.72315,0.95392,-0.30829,1.37419,0.95032,-0.26133,0.922767,0.00361,-0.0026549999999999,1.077233,-0.0036099999999999,0.0026549999999999,0.88502,-0.42065,-0.100747,1.11285,-0.42309,-0.067792,0.8593999999999999,-0.82298,-0.041249,1.11353,-0.82831,-0.029313
159,1.0453505,0.664532,-0.123039,0.8700345,0.501272,-0.159884,0.7201744999999999,0.713262,-0.248904,1.2025345,0.479442,-0.118451,1.3710244999999999,0.698112,-0.187514,0.7220044999999999,0.956582,-0.294534,1.3726745,0.954312,-0.249414,0.9225785,0.003771,-0.002506,1.0774215,-0.003771,0.0025059999999999,0.8837245,-0.433258,-0.075256,1.1062745,-0.432808,-0.044267,0.8575145,-0.8324480000000001,-0.027873,1.1091545,-0.835418,-0.015707
160,1.0444405,0.673185,-0.1145279999999999,0.8688355,0.506815,-0.150104,0.7202655,0.713555,-0.237414,1.2024555000000001,0.484855,-0.109792,1.3692955,0.6957450000000001,-0.178804,0.7203255,0.958075,-0.281614,1.3712455000000001,0.956475,-0.238004,0.9224555000000001,0.003894,-0.0023669999999999,1.0775445,-0.003894,0.002367,0.8817455,-0.4481549999999999,-0.051356,1.1001655,-0.443905,-0.022341,0.8555955,-0.843785,-0.015279,1.1052555,-0.843235,-0.003102
161,1.043762,0.6807074999999999,-0.1064954999999999,0.867059,0.5103975,-0.1395595,0.7196390000000001,0.7119675,-0.2265295,1.202929,0.4874175,-0.1007325,1.367019,0.6922174999999999,-0.1704494999999999,0.7186790000000001,0.9585875,-0.2695295,1.369559,0.9578875,-0.2270495,0.922269,0.0039315,-0.0020055,1.077731,-0.0039314999999999,0.0020055,0.879389,-0.4629425,-0.0296555,1.094729,-0.4552025,-0.0031754999999999,0.853499,-0.8544325,-0.0038494999999999,1.101419,-0.8517525,0.0088675
162,1.043721,0.6891345000000001,-0.0985025,0.865849,0.5139045000000001,-0.1284215,0.7189289999999999,0.7103145000000001,-0.2159315,1.203989,0.4904745,-0.0913805,1.3653089999999999,0.6888945000000001,-0.1621215,0.717669,0.9589245,-0.2578215,1.368389,0.9594845,-0.2163415,0.922201,0.0040115,-0.0015855,1.077799,-0.0040115,0.0015855,0.877599,-0.4770255,-0.0104165,1.090789,-0.4657855,0.0136024999999999,0.851999,-0.8638655,0.0069074999999999,1.098629,-0.8596355,0.0199825
163,1.0438254999999999,0.6978335,-0.090749,0.8647595,0.5199535,-0.117484,0.7183795,0.7083335,-0.205894,1.2055895,0.4969834999999999,-0.08133,1.3646095,0.6857534999999999,-0.153974,0.7168295,0.9569635,-0.248054,1.3675695,0.9609235,-0.2062939999999999,0.9221745000000001,0.0040154999999999,-0.0011279999999999,1.0778254999999999,-0.0040155,0.001128,0.8758795,-0.4906165,0.006582,1.0878595,-0.4758865,0.026582,0.8506495000000001,-0.8728065,0.01673,1.0963395,-0.8666365,0.029267
164,1.0445395,0.7070540000000001,-0.086729,0.8622084999999999,0.526634,-0.108598,0.7181485000000001,0.706624,-0.1990579999999999,1.2078185,0.5042540000000001,-0.074109,1.3660885,0.682984,-0.1489079999999999,0.7166785,0.954054,-0.2416779999999999,1.3675485,0.962594,-0.1998579999999999,0.9225625,0.004257,-0.0013879999999999,1.0774375,-0.0042569999999999,0.001388,0.8747085,-0.503166,0.017415,1.0863685,-0.485006,0.0336189999999999,0.8496485,-0.880976,0.020928,1.0951885,-0.871536,0.033678
165,1.045623,0.717166,-0.085548,0.860321,0.532026,-0.1036459999999999,0.7184710000000001,0.705326,-0.194574,1.2106810000000001,0.512766,-0.0701779999999999,1.368681,0.681826,-0.146374,0.7172510000000001,0.955106,-0.237754,1.368391,0.959296,-0.197374,0.922694,0.0041239999999999,-0.0013839999999999,1.077306,-0.004124,0.0013839999999999,0.874371,-0.506554,0.021508,1.086141,-0.488384,0.034182,0.8494110000000001,-0.883724,0.021928,1.094791,-0.874084,0.035233
166,1.0466415,0.7166220000000001,-0.084341,0.8600215,0.531872,-0.09999,0.7182115,0.706092,-0.190137,1.2112315,0.5120020000000001,-0.06768,1.3693515,0.6810620000000001,-0.144057,0.7163915000000001,0.953572,-0.233767,1.3692515,0.958532,-0.195447,0.9227735,0.0042699999999999,-0.0013809999999999,1.0772265,-0.00427,0.001381,0.8741715,-0.507368,0.024957,1.0860515,-0.489248,0.034429,0.8493015000000002,-0.8839079999999999,0.0229,1.0945215,-0.874138,0.036313
167,1.047778,0.7163325,-0.0834365,0.8598790000000001,0.5319325,-0.0961455,0.718109,0.7066725,-0.1860635,1.211939,0.5115425,-0.0651035,1.370219,0.6808625,-0.1416635,0.716989,0.9558425,-0.2313835,1.370229,0.9580425,-0.1934135,0.9228,0.0043904999999999,-0.0013804999999999,1.0772,-0.0043904999999999,0.0013805,0.874249,-0.5078975,0.0263175,1.086169,-0.4898375,0.0346405,0.849279,-0.8843975,0.0234395,1.094579,-0.8740375,0.0372135
168,1.0486475,0.716108,-0.0832625,0.8595995000000001,0.531948,-0.0928785,0.7182795,0.707298,-0.1830675,1.2124595,0.5111279999999999,-0.0631005,1.3709695,0.680438,-0.1397475,0.7168995,0.958618,-0.2297175,1.3724595,0.955638,-0.1919675,0.9228115,0.0044769999999999,-0.0007665,1.0771885,-0.004477,0.0007664999999999,0.8740495,-0.508322,0.0260254999999999,1.0864695,-0.489952,0.0338565,0.8491495,-0.884432,0.0228385,1.0945595,-0.874452,0.0370475
169,1.0493134999999998,0.7159325,-0.0810265,0.8595615,0.5319725,-0.0903105,0.7182014999999999,0.7077025,-0.1805445,1.2128015,0.5100025,-0.0615475,1.3716715,0.6783825,-0.1382644999999999,0.7168915,0.9582125,-0.2292345,1.3752015,0.9498325,-0.1912444999999999,0.9228005,0.0045515,-0.0004284999999999,1.0771995,-0.0045515,0.0004285,0.8738215,-0.5086575,0.0252265,1.0867215,-0.4901075,0.0327245,0.8491015,-0.8844675,0.0218975,1.0946815,-0.8742475,0.0365255
170,1.0497065,0.7158055,-0.0792385,0.8595115,0.5322855000000001,-0.0882365,0.7181515,0.7077855000000001,-0.1783635,1.2127815,0.5091455,-0.0603815,1.3721115,0.6771155,-0.1371735,0.7166815,0.9548355,-0.2295235,1.3778315,0.9440255,-0.1911535,0.9228125000000001,0.0046295,-0.0002304999999999,1.0771875,-0.0046295,0.0002304999999999,0.8735415,-0.5088345,0.0246244999999999,1.0868115,-0.4902845,0.0318995,0.8490715,-0.8844345,0.0211255,1.0947215,-0.8743445,0.0360275
171,1.049971,0.7158835,-0.0775545,0.859503,0.5326035,-0.0865795,0.718133,0.7076835,-0.1764685,1.212783,0.5083735,-0.0592575,1.372473,0.6762135,-0.1360885,0.7160230000000001,0.9533535,-0.2304485,1.380143,0.9377735,-0.1919785,0.92285,0.0046975,-8.049999999999898e-05,1.07715,-0.0046975,8.050000000000071e-05,0.873283,-0.5087365,0.0240104999999999,1.0868929999999999,-0.4903865,0.0311045,0.849043,-0.8842965,0.0204425,1.0947829999999998,-0.8741265,0.0354715
172,1.050066,0.71629,-0.0755895,0.859533,0.5327799999999999,-0.0850555,0.718113,0.70761,-0.1751455,1.212823,0.50786,-0.0581594999999999,1.372743,0.67536,-0.1349255,0.7142729999999999,0.95176,-0.2312155,1.382263,0.93134,-0.1926255,0.922915,0.0047309999999999,-2.4500000000000216e-05,1.077085,-0.0047309999999999,2.4500000000000216e-05,0.873063,-0.5085500000000001,0.0235575,1.087013,-0.4904199999999999,0.0305165,0.849063,-0.88407,0.0199325,1.094873,-0.8741,0.0348265
173,1.0501734999999999,0.71671,-0.0737395,0.8594565000000001,0.5327799999999999,-0.0837015,0.7177165,0.70761,-0.1745845,1.2127765,0.50739,-0.0570305,1.3730665,0.67482,-0.1346845,0.7120965,0.94952,-0.2318145,1.3845365,0.92436,-0.1930945,0.9229765,0.0047309999999999,-1.2500000000000358e-05,1.0770235,-0.0047309999999999,1.2499999999998623e-05,0.8729565,-0.50838,0.0231674999999999,1.0872264999999999,-0.49056,0.0300615,0.8491765,-0.88383,0.0196305,1.0948565,-0.87438,0.0343374999999999
