sb224sc-HT22-VT27/4dt907/src/ml-research/a10/datafiles/kinect_good_preprocessed_A9_mediapipe/A23_kinect_mirrored.csv
FrameNo,nose_3d_x,nose_3d_y,nose_3d_z,left_shoulder_3d_x,left_shoulder_3d_y,left_shoulder_3d_z,left_elbow_3d_x,left_elbow_3d_y,left_elbow_3d_z,right_shoulder_3d_x,right_shoulder_3d_y,right_shoulder_3d_z,right_elbow_3d_x,right_elbow_3d_y,right_elbow_3d_z,left_wrist_3d_x,left_wrist_3d_y,left_wrist_3d_z,right_wrist_3d_x,right_wrist_3d_y,right_wrist_3d_z,left_hip_3d_x,left_hip_3d_y,left_hip_3d_z,right_hip_3d_x,right_hip_3d_y,right_hip_3d_z,left_knee_3d_x,left_knee_3d_y,left_knee_3d_z,right_knee_3d_x,right_knee_3d_y,right_knee_3d_z,left_ankle_3d_x,left_ankle_3d_y,left_ankle_3d_z,right_ankle_3d_x,right_ankle_3d_y,right_ankle_3d_z
34,1.0001155,0.709222,0.05369,0.8557695000000001,0.480622,0.049495,0.7675995000000001,0.733862,0.029723,1.1427995,0.5032719999999999,0.060642,1.2506895,0.745332,0.0299399999999999,0.7447195,0.944212,-0.003692,1.2901595000000001,0.948272,-0.0033909999999999,0.9280235,-0.002499,-0.001475,1.0719764999999999,0.002499,0.0014749999999999,0.8919295,-0.457658,0.0068109999999999,1.1213895,-0.412878,-0.010872,0.8893095,-0.8077880000000001,-0.024321,1.1221695,-0.791928,-0.013192
35,1.0019859999999998,0.7092815,0.051833,0.856737,0.4805515,0.047337,0.7688470000000001,0.7333115,0.027877,1.143477,0.5040515,0.059268,1.251937,0.7460415,0.028094,0.7462770000000001,0.9450915,-0.005544,1.291627,0.9486415,-0.0052409999999999,0.928087,-0.0024285,-0.0018669999999999,1.071913,0.0024285,0.001867,0.8918969999999999,-0.4579185,0.004776,1.121167,-0.4133285,-0.0127699999999999,0.889197,-0.8079885,-0.0265219999999999,1.122117,-0.7923385,-0.015584
36,1.004159,0.7089215,0.0488735,0.857911,0.4804414999999999,0.0438095,0.7702910000000001,0.7334515,0.0249285,1.144561,0.5049215,0.0569015,1.2536509999999998,0.7450815,0.0251415,0.747891,0.9455515,-0.0084945,1.293961,0.9481915,-0.0082035,0.928137,-0.0024285,-0.0026484999999999,1.071863,0.0024285,0.0026485,0.891641,-0.4579185,0.0008935,1.120891,-0.4134985,-0.0162015,0.889261,-0.8079885,-0.0298625,1.122221,-0.7923385,-0.0191035
37,1.0065665,0.7083915,0.0452705,0.8590905,0.4800915,0.0394315,0.7717305,0.7342715,0.0211155,1.1458605,0.5058414999999999,0.0538695,1.2544205,0.7448215,0.0215645,0.7495705000000001,0.9457915,-0.0127315,1.2967605,0.9481915,-0.0118124999999999,0.9281515,-0.0024285,-0.0032144999999999,1.0718485,0.0024285,0.0032145,0.8913405000000001,-0.4579185,-0.0040394999999999,1.1205705,-0.4134985,-0.0204714999999999,0.8894705,-0.8081285,-0.0338264999999999,1.1223805,-0.7923385,-0.0231754999999999
38,1.00928,0.7077715,0.040972,0.860492,0.4794815,0.034372,0.7734920000000001,0.7342215,0.016381,1.1473419999999999,0.5058414999999999,0.0502689999999999,1.2554619999999999,0.7447115,0.017198,0.751372,0.9457915,-0.018073,1.299442,0.9481915,-0.0167709999999999,0.928121,-0.0024285,-0.0038919999999999,1.071879,0.0024285,0.003892,0.891032,-0.4579185,-0.010074,1.120302,-0.4134985,-0.0255269999999999,0.889892,-0.8082885,-0.038524,1.123052,-0.7928485,-0.0283849999999999
39,1.0120985,0.7078279999999999,0.0343269999999999,0.8624674999999999,0.479378,0.0276879999999999,0.7749775,0.734648,0.0093099999999999,1.1487875,0.5062779999999999,0.04498,1.2566475,0.745068,0.0104019999999999,0.7527475,0.946228,-0.025668,1.3017475,0.948118,-0.02461,0.9280025000000001,-0.0023369999999999,-0.004358,1.0719975,0.0023369999999999,0.0043579999999999,0.8908375,-0.457302,-0.018314,1.1201875000000001,-0.413692,-0.032692,0.8907975,-0.8083520000000001,-0.045197,1.1238875,-0.793512,-0.035523
40,1.015195,0.7077115,0.026703,0.86454,0.4790915,0.020398,0.7764800000000001,0.7352615,0.001339,1.15026,0.5068914999999999,0.039174,1.25799,0.7404415,0.002693,0.7541,0.9468415,-0.034262,1.304,0.9479515,-0.033875,0.927851,-0.0022404999999999,-0.004872,1.072149,0.0022404999999999,0.004872,0.8904800000000002,-0.4566485,-0.027509,1.1201699999999999,-0.4139685,-0.040546,0.8917,-0.8081585,-0.053025,1.12499,-0.7939085,-0.043332
41,1.0188549999999998,0.706863,0.0174615,0.867679,0.478563,0.0116555,0.778389,0.735883,-0.0088565,1.152469,0.506343,0.0326665,1.260129,0.7361329999999999,-0.0065985,0.755819,0.948253,-0.0450475,1.306549,0.947963,-0.0463515,0.927663,-0.001888,-0.0055035,1.072337,0.001888,0.0055035,0.890309,-0.453327,-0.0391885,1.1207189999999998,-0.4125769999999999,-0.0506625,0.892919,-0.8060470000000001,-0.0621675,1.126519,-0.792647,-0.0531735
42,1.0226245,0.705307,0.0082765,0.8712055,0.478377,0.0028725,0.7805355,0.735997,-0.0191805,1.1550055,0.505147,0.0261554999999999,1.2625355,0.732017,-0.0161065,0.7576655000000001,0.950147,-0.0561505,1.3090755,0.948067,-0.0596385,0.9274315,-0.0014729999999999,-0.0062315,1.0725685,0.001473,0.0062315,0.8901755000000001,-0.449013,-0.0519785,1.1215655,-0.410103,-0.0614435,0.8943155,-0.802653,-0.0719615,1.1282455,-0.790053,-0.0632615
43,1.0263795,0.704203,-0.0006805,0.8748914999999999,0.478723,-0.0055245,0.7829315,0.734753,-0.0294155,1.1574915,0.504303,0.0189295,1.2649915,0.726853,-0.0257175,0.7596715,0.952053,-0.0674225,1.3113515,0.948063,-0.0733195,0.9271645,-0.0010219999999999,-0.0067305,1.0728355,0.001022,0.0067305,0.8900315,-0.445007,-0.0653285,1.1226414999999998,-0.407257,-0.0725865,0.8956415000000001,-0.798257,-0.0813665,1.1300315,-0.786817,-0.0730545
44,1.0309635,0.701465,-0.0108805,0.8791365,0.478135,-0.0147394999999999,0.7863065,0.733595,-0.0408805,1.1606965,0.501085,0.0116515,1.2679265,0.7223849999999999,-0.0368514999999999,0.7625965,0.956135,-0.0804324999999999,1.3141665,0.944935,-0.0893124999999999,0.9268665,-0.00023,-0.0072114999999999,1.0731335,0.0002299999999999,0.0072115,0.8901865,-0.437485,-0.0818015,1.1244365,-0.401755,-0.0855505,0.8975565,-0.789965,-0.0914454999999999,1.1325365,-0.779975,-0.0843474999999999
45,1.0365345,0.6985855,-0.0208815,0.8840135000000001,0.4786855,-0.0234025,0.7903235,0.7329855000000001,-0.0523075,1.1643435,0.4990655,0.0044884999999999,1.2712935,0.7172455,-0.0481785,0.7663935,0.9616755,-0.0939635,1.3176035,0.9430555,-0.1054115,0.9265165,0.0004835,-0.0073745,1.0734835,-0.0004834999999999,0.0073744999999999,0.8910534999999999,-0.4274245,-0.0984775,1.1269434999999999,-0.3940745,-0.0989025,0.8999235,-0.7784945,-0.1011945,1.1359135,-0.7702145,-0.0961835
46,1.042702,0.6968565,-0.0308255,0.8894070000000001,0.4766965,-0.0322485,0.794517,0.7320165000000001,-0.0639235,1.167697,0.4986665,-0.0031074999999999,1.274807,0.7106265,-0.0599225,0.7706770000000001,0.9673365,-0.1076715,1.321607,0.9376765,-0.1222284999999999,0.926366,0.0009955,-0.0072974999999999,1.073634,-0.0009954999999999,0.0072974999999999,0.891787,-0.4135935,-0.1160144999999999,1.129747,-0.3811635,-0.1129034999999999,0.902537,-0.7646934999999999,-0.1111645,1.138877,-0.7577735000000001,-0.1070605
47,1.049294,0.6928690000000001,-0.040526,0.895283,0.477049,-0.040763,0.799373,0.732859,-0.075033,1.171533,0.492429,-0.010601,1.279353,0.705419,-0.07131,0.7758430000000001,0.974879,-0.120707,1.326473,0.934769,-0.138446,0.926091,0.0019039999999999,-0.007311,1.073909,-0.0019039999999999,0.0073109999999999,0.893203,-0.397071,-0.1333659999999999,1.133283,-0.366311,-0.126898,0.906203,-0.7491509999999999,-0.120796,1.142923,-0.742371,-0.117331
48,1.055455,0.6902159999999999,-0.0525915,0.901133,0.477936,-0.0520464999999999,0.804253,0.7339859999999999,-0.0883665,1.1753230000000001,0.4878059999999999,-0.0208654999999999,1.284273,0.700286,-0.0854275,0.781203,0.975986,-0.1359584999999999,1.331523,0.934346,-0.1571225,0.925746,0.0027119999999999,-0.0074154999999999,1.074254,-0.002712,0.0074155,0.8948230000000001,-0.378004,-0.1534955,1.136833,-0.349604,-0.1436125,0.909843,-0.730834,-0.1324925,1.147063,-0.724554,-0.1300555
49,1.062049,0.6892020000000001,-0.0645984999999999,0.9073410000000001,0.478742,-0.0633955,0.8102110000000001,0.729742,-0.1014625,1.179601,0.483992,-0.0313245,1.289731,0.7013320000000001,-0.0995745,0.787081,0.973892,-0.1511345,1.3375810000000001,0.929202,-0.1752165,0.924721,0.0036029999999999,-0.0075764999999999,1.075279,-0.0036029999999999,0.0075765,0.896921,-0.354578,-0.1781364999999999,1.141641,-0.329518,-0.1648494999999999,0.913981,-0.7089479999999999,-0.1436405,1.151701,-0.7031179999999999,-0.1425995
50,1.0677145,0.6876425,-0.075143,0.9122555,0.4795725,-0.073268,0.8155654999999999,0.7274025000000001,-0.1124759999999999,1.1832855,0.4795824999999999,-0.04061,1.2931555000000001,0.7016425000000001,-0.111773,0.7923855,0.9738325,-0.164285,1.3429354999999998,0.9249925,-0.190403,0.9241255,0.0042564999999999,-0.0076869999999999,1.0758745,-0.0042564999999999,0.0076869999999999,0.8986855,-0.3300775,-0.201563,1.1465255,-0.3083175,-0.185153,0.9177855,-0.6853674999999999,-0.153464,1.1557155,-0.6801375,-0.1532069999999999
51,1.0727205,0.68731,-0.0858795,0.9163915,0.48042,-0.0830715,0.8202915,0.72576,-0.1233765,1.1865815,0.47765,-0.0500095,1.2966015,0.70329,-0.1237795,0.7971915,0.97478,-0.1772765,1.3486315,0.9231,-0.2046645,0.9237115,0.0045499999999999,-0.0074655,1.0762885,-0.0045499999999999,0.0074655,0.9002915000000001,-0.30451,-0.2243845,1.1514615,-0.2861599999999999,-0.2058645,0.9212315,-0.65936,-0.1627815,1.1592215,-0.65578,-0.1639625
52,1.077402,0.68583,-0.096259,0.920273,0.48089,-0.092503,0.824623,0.7248,-0.133954,1.1897929999999999,0.47604,-0.059074,1.301963,0.70138,-0.135882,0.8017529999999999,0.97594,-0.1894259999999999,1.354993,0.92052,-0.219109,0.923223,0.0047999999999999,-0.007291,1.076777,-0.0047999999999999,0.0072909999999999,0.902013,-0.27934,-0.246419,1.156433,-0.26403,-0.226029,0.925063,-0.6330399999999999,-0.171806,1.162503,-0.631,-0.174544
53,1.08115,0.684435,-0.1056484999999999,0.923205,0.482665,-0.1013844999999999,0.827815,0.725055,-0.1433265,1.1918549999999999,0.475745,-0.0682454999999999,1.306475,0.694655,-0.1467574999999999,0.805205,0.977695,-0.1998005,1.360975,0.916425,-0.2314445,0.922485,0.004885,-0.0072554999999999,1.077515,-0.004885,0.0072555,0.9037950000000001,-0.2545149999999999,-0.2664244999999999,1.160715,-0.242015,-0.2448044999999999,0.9277250000000001,-0.608035,-0.1802635,1.164625,-0.6060450000000001,-0.1830835
54,1.0834145,0.6837949999999999,-0.114625,0.9249725,0.482945,-0.109568,0.8299825000000001,0.722855,-0.151675,1.1932625,0.473855,-0.077226,1.3097825,0.690025,-0.156609,0.8074625,0.976485,-0.208509,1.3659225,0.912245,-0.24224,0.9217725,0.0048549999999999,-0.00713,1.0782275000000001,-0.0048549999999999,0.0071299999999999,0.9047825,-0.231265,-0.28503,1.1641925,-0.221235,-0.26234,0.9297825,-0.584035,-0.187979,1.1658025,-0.582045,-0.190377
55,1.085149,0.6811750000000001,-0.123063,0.9264330000000001,0.484165,-0.117001,0.831933,0.7222950000000001,-0.159352,1.194393,0.470005,-0.08568,1.312763,0.6876150000000001,-0.165287,0.8092429999999999,0.976085,-0.216549,1.371403,0.908475,-0.25348,0.920873,0.005065,-0.00746,1.079127,-0.0050649999999999,0.0074599999999999,0.9057030000000001,-0.2089249999999999,-0.30236,1.167713,-0.2004249999999999,-0.27899,0.931753,-0.560535,-0.195399,1.166773,-0.5590550000000001,-0.196985
56,1.0864909999999999,0.67858,-0.1326929999999999,0.927401,0.48188,-0.125661,0.833991,0.71877,-0.168646,1.194941,0.47082,-0.0965729999999999,1.315591,0.68624,-0.177527,0.811331,0.97093,-0.2257499999999999,1.377201,0.90303,-0.26507,0.920541,0.0047399999999999,-0.0077599999999999,1.079459,-0.0047399999999999,0.00776,0.906121,-0.18161,-0.3212899999999999,1.1705510000000001,-0.17209,-0.29633,0.933701,-0.53006,-0.2034689999999999,1.166961,-0.52947,-0.2043849999999999
57,1.0886955,0.6726449999999999,-0.138059,0.9289755000000001,0.479475,-0.130249,0.8365755,0.715535,-0.1740479999999999,1.1960855,0.466985,-0.1028989999999999,1.3189855,0.6821949999999999,-0.1858759999999999,0.8140055000000002,0.970475,-0.2313349999999999,1.3831455,0.891825,-0.272865,0.9203355,0.0047049999999999,-0.0080749999999999,1.0796645,-0.004705,0.0080749999999999,0.9070355,-0.153155,-0.335275,1.1735855,-0.142455,-0.308905,0.9371455,-0.498975,-0.2062339999999999,1.1670955,-0.499485,-0.2068999999999999
58,1.0909545,0.6660649999999999,-0.142923,0.9307315,0.476755,-0.134479,0.8393115000000001,0.716345,-0.179084,1.1968715,0.461925,-0.108553,1.3224114999999999,0.678225,-0.193429,0.8176115000000002,0.969825,-0.23596,1.3886215,0.887855,-0.28029,0.9201715,0.0051149999999999,-0.00811,1.0798285,-0.005115,0.0081099999999999,0.9084814999999999,-0.124065,-0.34362,1.1757015,-0.112035,-0.31612,0.9395915,-0.466795,-0.208215,1.1679315,-0.469675,-0.209085
59,1.0930885,0.659225,-0.14749,0.9323685,0.4761849999999999,-0.138432,0.8421085,0.7153849999999999,-0.183837,1.1978585,0.4596549999999999,-0.113931,1.3251385,0.670105,-0.200907,0.8211785,0.967055,-0.24004,1.3938885,0.8779349999999999,-0.2882099999999999,0.9198785,0.0057149999999999,-0.00807,1.0801215,-0.005715,0.0080699999999999,0.9102685,-0.095465,-0.34999,1.1769985,-0.082485,-0.3215,0.9413885,-0.436235,-0.209741,1.1686085,-0.4412750000000001,-0.211025
60,1.0949825,0.65206,-0.151581,0.9341105,0.4758399999999999,-0.142069,0.8453105000000001,0.71378,-0.188172,1.1990705,0.4559249999999999,-0.11889,1.3282005,0.66134,-0.208314,0.8250605,0.96337,-0.244495,1.3986805,0.86642,-0.2959549999999999,0.9196905000000001,0.0067499999999999,-0.0082349999999999,1.0803095,-0.00675,0.0082349999999999,0.9122605,-0.06722,-0.354325,1.1777305,-0.05304,-0.324045,0.9430405000000001,-0.40671,-0.209365,1.1693505,-0.41335,-0.21266
61,1.0962205,0.645585,-0.155051,0.9345865,0.4753559999999999,-0.145211,0.8483165000000001,0.709675,-0.192839,1.2000264999999999,0.4516809999999999,-0.123743,1.3300965,0.657705,-0.216486,0.8283765000000001,0.959625,-0.2502,1.4027365,0.856045,-0.30353,0.9196865,0.0077749999999999,-0.00836,1.0803135,-0.007775,0.0083599999999999,0.9132965,-0.041785,-0.35598,1.1777065,-0.026475,-0.32569,0.9435965000000001,-0.374415,-0.208184,1.1690165,-0.383915,-0.2143
62,1.097809,0.64081,-0.158145,0.9351220000000001,0.473196,-0.147894,0.851552,0.7052,-0.197384,1.201132,0.449018,-0.12806,1.331762,0.65892,-0.222785,0.832352,0.95244,-0.256525,1.4057819999999999,0.85088,-0.312245,0.9196920000000001,0.0085299999999999,-0.0080449999999999,1.0803079999999998,-0.0085299999999999,0.0080449999999999,0.9141520000000001,-0.01738,-0.357515,1.177682,-0.0018799999999999,-0.3272049999999999,0.943902,-0.34305,-0.2071339999999999,1.168202,-0.3568699999999999,-0.215803
63,1.100193,0.6341600000000001,-0.16144,0.936327,0.472943,-0.151086,0.855477,0.7041299999999999,-0.202774,1.202937,0.445641,-0.1324739999999999,1.333647,0.6591,-0.229227,0.837017,0.946,-0.263965,1.409267,0.8452299999999999,-0.3206449999999999,0.9199269999999999,0.0098099999999999,-0.0075749999999999,1.080073,-0.0098099999999999,0.0075749999999999,0.915537,0.00822,-0.359655,1.1789869999999998,0.0230699999999999,-0.329345,0.944757,-0.3130599999999999,-0.2072089999999999,1.167897,-0.33159,-0.217777
64,1.1034705,0.626115,-0.165852,0.9389135000000001,0.473103,-0.155672,0.8608735000000001,0.701995,-0.209813,1.2060035,0.441193,-0.138122,1.3363035,0.653945,-0.236806,0.8436235,0.937515,-0.272605,1.4127235,0.837105,-0.328015,0.9205235,0.010825,-0.006805,1.0794765,-0.0108249999999999,0.006805,0.9179035000000001,0.037215,-0.362435,1.1810435,0.051385,-0.330365,0.9467435,-0.280115,-0.208689,1.1685735,-0.303565,-0.217387
65,1.1067755,0.620145,-0.1689939999999999,0.9415935000000001,0.473973,-0.158964,0.8656235000000001,0.700545,-0.215262,1.2094435,0.437848,-0.141265,1.3392635,0.641305,-0.241083,0.8496735,0.931915,-0.2802,1.4162335,0.827195,-0.3353399999999999,0.9206435,0.011885,-0.0058899999999999,1.0793565,-0.011885,0.00589,0.9201935,0.057495,-0.3627599999999999,1.1828935,0.0707349999999999,-0.33015,0.9490335000000001,-0.2560249999999999,-0.2097629999999999,1.1695235,-0.285535,-0.2163439999999999
66,1.106932,0.61626,-0.169016,0.941548,0.474269,-0.159151,0.867598,0.69774,-0.217366,1.210098,0.437128,-0.141274,1.339558,0.63241,-0.241617,0.852728,0.92827,-0.284165,1.417238,0.81708,-0.338695,0.920438,0.01274,-0.005885,1.079562,-0.0127399999999999,0.005885,0.9200380000000001,0.07514,-0.359735,1.182938,0.08707,-0.328615,0.948858,-0.2342199999999999,-0.207652,1.167778,-0.2703,-0.209654
67,1.1068745,0.610769,-0.169116,0.9415035,0.473412,-0.159392,0.8687435,0.696755,-0.219463,1.2104635,0.436985,-0.141368,1.3397435,0.623121,-0.242167,0.8547235,0.928685,-0.28856,1.4181635,0.805265,-0.3423899999999999,0.9202535000000001,0.0129749999999999,-0.00579,1.0797465,-0.0129749999999999,0.0057899999999999,0.9199035,0.090285,-0.3558,1.1827235,0.099385,-0.3262,0.9486935,-0.214605,-0.205536,1.1659935,-0.256775,-0.202863
68,1.1070085,0.607145,-0.168872,0.9416435,0.471703,-0.159524,0.8698235,0.695705,-0.22219,1.2109835,0.435955,-0.141041,1.3391834999999999,0.618829,-0.242527,0.8566835000000002,0.928125,-0.294215,1.4183234999999998,0.7986949999999999,-0.345415,0.9204535000000001,0.0130449999999999,-0.005785,1.0795465,-0.0130449999999999,0.005785,0.9196235000000001,0.1055149999999999,-0.349825,1.1827935,0.110665,-0.322775,0.9481035,-0.1943749999999999,-0.202906,1.1648935,-0.244365,-0.195991
69,1.107122,0.605764,-0.167993,0.941777,0.47226,-0.158736,0.870557,0.697125,-0.224096,1.211147,0.437145,-0.140167,1.339407,0.615093,-0.242071,0.858367,0.929105,-0.29901,1.419497,0.793605,-0.34747,0.920587,0.012915,-0.0050499999999999,1.079413,-0.012915,0.0050499999999999,0.919397,0.123745,-0.34324,1.182887,0.122975,-0.31877,0.946497,-0.172625,-0.201546,1.163937,-0.230975,-0.188827
70,1.107097,0.604491,-0.166704,0.9415150000000001,0.472858,-0.157533,0.870485,0.701635,-0.226009,1.211355,0.438215,-0.138968,1.3400750000000001,0.6101,-0.24217,0.859625,0.929725,-0.303115,1.421095,0.787865,-0.348645,0.9208149999999999,0.012815,-0.004255,1.079185,-0.012815,0.004255,0.9190250000000001,0.140545,-0.3366449999999999,1.182955,0.133735,-0.314865,0.945795,-0.1562749999999999,-0.199921,1.163025,-0.218975,-0.181352
71,1.107497,0.6028290000000001,-0.165762,0.94158,0.474805,-0.156559,0.8708400000000001,0.704315,-0.228083,1.2118499999999999,0.4386650000000001,-0.138047,1.34152,0.604518,-0.2429629999999999,0.86058,0.930675,-0.306635,1.42306,0.780875,-0.349785,0.92109,0.012805,-0.003535,1.07891,-0.0128049999999999,0.003535,0.9188200000000001,0.155775,-0.330695,1.18353,0.143225,-0.311335,0.9454000000000001,-0.1416549999999999,-0.198442,1.16242,-0.2083149999999999,-0.173449
72,1.107502,0.6017349999999999,-0.164756,0.941245,0.4751899999999999,-0.155725,0.8708250000000001,0.7055199999999999,-0.23,1.211925,0.4401099999999999,-0.137281,1.3425150000000001,0.5982989999999999,-0.243595,0.860955,0.93217,-0.309645,1.4247049999999999,0.77295,-0.350825,0.9214250000000002,0.0124299999999999,-0.002985,1.0785749999999998,-0.01243,0.0029849999999999,0.918215,0.1689499999999999,-0.326005,1.183815,0.1506199999999999,-0.309355,0.944675,-0.12919,-0.19792,1.161765,-0.19949,-0.165558
73,1.1072825,0.602474,-0.16424,0.9409515,0.4767949999999999,-0.155192,0.8706115,0.7066049999999999,-0.231399,1.2118615,0.4428249999999999,-0.136633,1.3428915,0.5966759999999999,-0.24337,0.8607515,0.934445,-0.31301,1.4261314999999999,0.7703749999999999,-0.35173,0.9218615,0.0122949999999999,-0.0025199999999999,1.0781385,-0.012295,0.0025199999999999,0.9178015,0.1773849999999999,-0.32423,1.1840815,0.1531249999999999,-0.30791,0.9441015,-0.121485,-0.196694,1.1616214999999999,-0.193495,-0.165043
74,1.1071215,0.60325,-0.1635329999999999,0.9407295,0.478625,-0.1544849999999999,0.8701095,0.7078450000000001,-0.232651,1.2118795,0.445295,-0.135927,1.3427795,0.60013,-0.242665,0.8605895,0.936505,-0.316295,1.4270895000000001,0.7690250000000001,-0.351995,0.9223795,0.012175,-0.002195,1.0776205,-0.012175,0.002195,0.9176195,0.184725,-0.322635,1.1844595,0.154885,-0.3067649999999999,0.9438495,-0.1149649999999999,-0.195294,1.1615294999999999,-0.1846449999999999,-0.1643379999999999
75,1.106433,0.6043080000000001,-0.162082,0.939955,0.48064,-0.153032,0.8688549999999999,0.70903,-0.233007,1.211365,0.44747,-0.134479,1.342035,0.6032050000000001,-0.241215,0.859915,0.93805,-0.318645,1.426625,0.7721,-0.351745,0.922825,0.01202,-0.002005,1.077175,-0.0120199999999999,0.0020049999999999,0.917015,0.19075,-0.320905,1.183865,0.15796,-0.303825,0.943215,-0.1099299999999999,-0.193293,1.160915,-0.1773899999999999,-0.162888
76,1.1045045,0.605403,-0.159277,0.9380935,0.481735,-0.150017,0.8660035,0.710125,-0.231648,1.2096235,0.448565,-0.131465,1.3403435,0.6043000000000001,-0.2382,0.8575535,0.938335,-0.31903,1.4257134999999999,0.7731950000000001,-0.34973,0.9229935,0.0119449999999999,-0.0020199999999999,1.0770065,-0.0119449999999999,0.0020199999999999,0.9151635,0.193795,-0.31789,1.1819935,0.159055,-0.30185,0.9413735,-0.108835,-0.189608,1.1601835,-0.1754749999999999,-0.164775
77,1.1017705,0.605403,-0.156029,0.9354685000000001,0.481735,-0.1464619999999999,0.8625685,0.710125,-0.228117,1.2068984999999999,0.448565,-0.127909,1.3384885,0.6043000000000001,-0.236655,0.8542185,0.938335,-0.316395,1.4232485,0.7731950000000001,-0.348215,0.9228385,0.0119449999999999,-0.001975,1.0771614999999999,-0.0119449999999999,0.001975,0.9121285000000001,0.194835,-0.3143249999999999,1.1794485,0.159055,-0.300035,0.9387585,-0.108835,-0.1854299999999999,1.1586985,-0.1744249999999999,-0.166986
78,1.100768,0.605403,-0.155939,0.9345600000000001,0.481735,-0.145896,0.86067,0.710125,-0.227562,1.20598,0.448565,-0.127486,1.33769,0.605657,-0.2385,0.85248,0.938335,-0.31607,1.4224,0.7756149999999999,-0.34979,0.92257,0.0119449999999999,-0.00179,1.07743,-0.0119449999999999,0.0017899999999999,0.91079,0.194835,-0.31464,1.17801,0.161825,-0.30103,0.93795,-0.108835,-0.184315,1.15753,-0.1742949999999999,-0.174538
79,1.0984425,0.607143,-0.1546719999999999,0.9323224999999999,0.484285,-0.143841,0.8571725,0.710855,-0.225542,1.2039024999999999,0.449125,-0.125793,1.3357325,0.612605,-0.238545,0.8491425000000001,0.938335,-0.314055,1.4204525000000001,0.782045,-0.3493549999999999,0.9220825,0.0119449999999999,-0.0018649999999999,1.0779175,-0.0119449999999999,0.001865,0.9083425,0.194835,-0.314145,1.1753025,0.164195,-0.3003949999999999,0.9358325,-0.1091849999999999,-0.1823749999999999,1.1550125,-0.1740749999999999,-0.180021
80,1.094799,0.612546,-0.153181,0.9297400000000001,0.484905,-0.141709,0.8528700000000001,0.712555,-0.223504,1.20111,0.452305,-0.124524,1.3335,0.620445,-0.23636,0.8446899999999999,0.940655,-0.31201,1.4182299999999999,0.7896150000000001,-0.3476,0.9216,0.011135,-0.00184,1.0784,-0.011135,0.0018399999999999,0.9057300000000001,0.186195,-0.31948,1.1724,0.157195,-0.30516,0.9341500000000001,-0.1195649999999999,-0.180379,1.15212,-0.1819549999999999,-0.184944
81,1.0939899999999998,0.617121,-0.155198,0.930063,0.482725,-0.143519,0.851383,0.7122250000000001,-0.225387,1.201033,0.451875,-0.126958,1.334173,0.6252420000000001,-0.23893,0.8431230000000001,0.938375,-0.31399,1.417863,0.795035,-0.34959,0.922163,0.0106249999999999,-0.00184,1.077837,-0.0106249999999999,0.0018399999999999,0.906683,0.170385,-0.32536,1.1715129999999998,0.142705,-0.3105,0.935293,-0.135185,-0.182396,1.1523430000000001,-0.1943749999999999,-0.193449
82,1.0915015,0.6219520000000001,-0.155761,0.9287835,0.480613,-0.143754,0.8483735,0.711785,-0.225225,1.1992535,0.453975,-0.12762,1.3330135,0.630871,-0.239375,0.8399535,0.935635,-0.313675,1.4154035,0.8012250000000001,-0.350075,0.9222435,0.0100149999999999,-0.002015,1.0777565,-0.0100149999999999,0.0020149999999999,0.9060035,0.152315,-0.330545,1.1689635,0.128035,-0.314925,0.9349435,-0.153795,-0.183208,1.1513035,-0.208175,-0.200883
83,1.0883595,0.6286999999999999,-0.155975,0.9269815000000001,0.477857,-0.143706,0.8449215000000001,0.7128249999999999,-0.224128,1.1968215,0.455487,-0.127846,1.3297115,0.63676,-0.239725,0.8358515,0.939965,-0.312605,1.4114015,0.813105,-0.3502849999999999,0.9220315,0.0094149999999999,-0.002365,1.0779684999999999,-0.009415,0.002365,0.9046415000000001,0.1331549999999999,-0.335275,1.1657315,0.1132849999999999,-0.318865,0.9342615,-0.176035,-0.184608,1.1498815,-0.2221050000000001,-0.208102
84,1.0843005,0.6336200000000001,-0.156182,0.9248655,0.474082,-0.143478,0.8410555,0.7122,-0.222019,1.1941155,0.456123,-0.128074,1.3257355,0.64149,-0.23993,0.8310155000000001,0.93739,-0.3101,1.4057855,0.8240700000000001,-0.34935,0.9218055,0.00823,-0.00318,1.0781945,-0.0082299999999999,0.0031799999999999,0.9031355,0.10651,-0.33961,1.1627455,0.0917,-0.32251,0.9329054999999999,-0.20587,-0.187122,1.1486055,-0.2433099999999999,-0.215472
85,1.080426,0.63991,-0.154634,0.9230060000000001,0.4726789999999999,-0.141174,0.8376660000000001,0.71096,-0.217841,1.191726,0.4568029999999999,-0.126561,1.321166,0.64574,-0.237195,0.826496,0.93401,-0.304465,1.400136,0.83378,-0.346075,0.921956,0.0073799999999999,-0.0034549999999999,1.078044,-0.00738,0.003455,0.901996,0.0801399999999999,-0.339805,1.1610260000000001,0.06855,-0.323495,0.931736,-0.23734,-0.188104,1.148196,-0.26604,-0.21399
86,1.0754685,0.64664,-0.152249,0.9201415,0.470177,-0.138239,0.8326614999999999,0.71311,-0.212758,1.1883915,0.458514,-0.124119,1.3155115,0.65501,-0.233305,0.8202815,0.93225,-0.297585,1.3934115,0.84419,-0.341605,0.9217315000000001,0.0061599999999999,-0.003505,1.0782684999999999,-0.0061599999999999,0.0035049999999999,0.8999415,0.0512199999999999,-0.339035,1.1585115,0.0426799999999999,-0.3235449999999999,0.9296115000000001,-0.27155,-0.188653,1.1471215,-0.29139,-0.212078
87,1.069975,0.656135,-0.149247,0.917037,0.466729,-0.134719,0.827537,0.7147950000000001,-0.206158,1.184747,0.459267,-0.121363,1.309367,0.660415,-0.2279999999999999,0.813177,0.934845,-0.28973,1.384067,0.8500650000000001,-0.33406,0.921557,0.0050649999999999,-0.0034799999999999,1.078443,-0.0050649999999999,0.00348,0.8976270000000001,0.018685,-0.33721,1.155987,0.012705,-0.32279,0.927167,-0.309035,-0.18859,1.1457169999999999,-0.320395,-0.20992
88,1.0632355,0.66601,-0.145284,0.9124194999999999,0.46694,-0.1298059999999999,0.8213895,0.71501,-0.19737,1.1800395,0.463403,-0.117445,1.3028995,0.66822,-0.222209,0.8044495,0.9394,-0.2790249999999999,1.3740995,0.8612299999999999,-0.325395,0.9210995,0.0042699999999999,-0.0035849999999999,1.0789005,-0.0042699999999999,0.003585,0.8952895,-0.0223499999999999,-0.334785,1.1532095,-0.0232,-0.3212549999999999,0.9243795,-0.35289,-0.188269,1.1425595,-0.3633299999999999,-0.2053019999999999
89,1.057238,0.6731100000000001,-0.140202,0.9077500000000001,0.46892,-0.124424,0.81538,0.71531,-0.188395,1.1758199999999999,0.46652,-0.112757,1.29609,0.6743,-0.2150699999999999,0.79616,0.93877,-0.267695,1.36343,0.87029,-0.314465,0.92096,0.0037099999999999,-0.003835,1.07904,-0.0037099999999999,0.003835,0.893,-0.0575199999999999,-0.3318649999999999,1.15048,-0.0535599999999999,-0.3183249999999999,0.92161,-0.39055,-0.18799,1.1398599999999999,-0.39911,-0.200392
90,1.0511105,0.6798550000000001,-0.134497,0.9030335,0.472005,-0.118591,0.8091335,0.715855,-0.179036,1.1716935,0.471245,-0.107637,1.2892535,0.681155,-0.205956,0.7873935,0.939415,-0.255505,1.3530535000000001,0.878465,-0.302055,0.9210435,0.002695,-0.004005,1.0789565,-0.002695,0.0040049999999999,0.8907035000000001,-0.0917349999999999,-0.328555,1.1488035,-0.084405,-0.315025,0.9188335000000001,-0.4272549999999999,-0.187305,1.1371635,-0.435435,-0.195699
91,1.0447285,0.685845,-0.128165,0.8981275,0.475055,-0.11248,0.8020875000000001,0.719225,-0.169253,1.1674875,0.473025,-0.102222,1.2819875,0.686205,-0.196047,0.7777275,0.945455,-0.24352,1.3421875,0.884755,-0.2885999999999999,0.9212175,0.0018449999999999,-0.00428,1.0787825,-0.0018449999999999,0.00428,0.8882675,-0.1244049999999999,-0.32314,1.1470475,-0.115165,-0.31137,0.9154675,-0.463435,-0.185609,1.1344675,-0.472025,-0.190582
92,1.037434,0.69187,-0.1218289999999999,0.8922289999999999,0.47965,-0.106217,0.794139,0.72167,-0.159321,1.162719,0.47701,-0.096276,1.274569,0.69395,-0.185104,0.767409,0.94732,-0.23135,1.330809,0.8964799999999999,-0.27405,0.9219269999999999,0.0006499999999999,-0.00461,1.078073,-0.00065,0.00461,0.886679,-0.16029,-0.3088,1.144479,-0.1493,-0.29833,0.911799,-0.5068400000000001,-0.183231,1.131549,-0.51543,-0.185777
93,1.0308975,0.70026,-0.1147329999999999,0.8866674999999999,0.48488,-0.099078,0.7868075,0.72515,-0.149206,1.1583275,0.48206,-0.0894929999999999,1.2675575000000001,0.7020500000000001,-0.173528,0.7577875000000001,0.95527,-0.21903,1.3209675,0.9076,-0.2595699999999999,0.9228275,-3.0000000000002247e-05,-0.0049499999999999,1.0771725,3.0000000000002247e-05,0.00495,0.8851175,-0.18799,-0.2949,1.1425875,-0.1759,-0.28591,0.9084575,-0.54378,-0.1793449999999999,1.1300675,-0.5458,-0.180334
94,1.0246535,0.706885,-0.1070765,0.8812115,0.488095,-0.0919315,0.7797415,0.729475,-0.1385225,1.1539615,0.4872849999999999,-0.0827664999999999,1.2610615,0.7094250000000001,-0.1615675,0.7484315,0.963285,-0.2067765,1.3115415,0.919655,-0.2441964999999999,0.9242635,-0.0011649999999999,-0.0054234999999999,1.0757365,0.0011649999999999,0.0054234999999999,0.8837715,-0.214365,-0.2796765,1.1407715,-0.201125,-0.2717765,0.9057815,-0.580365,-0.1739975,1.1293215,-0.576005,-0.1740765
95,1.018095,0.713875,-0.0998169999999999,0.875516,0.4922749999999999,-0.085004,0.772996,0.731045,-0.128514,1.149256,0.4915049999999999,-0.0763919999999999,1.2545359999999999,0.7110350000000001,-0.150677,0.7395860000000001,0.968875,-0.1947789999999999,1.301756,0.929915,-0.228599,0.925254,-0.001735,-0.0060279999999999,1.074746,0.0017349999999999,0.006028,0.8821160000000001,-0.246035,-0.2635889999999999,1.138076,-0.231315,-0.256829,0.9022060000000001,-0.6134550000000001,-0.168066,1.127906,-0.6079950000000001,-0.167503
96,1.0117714999999998,0.7195349999999999,-0.090545,0.8699435,0.497005,-0.0763,0.7663535,0.733775,-0.117467,1.1446035,0.4965549999999999,-0.067971,1.2480935,0.715405,-0.138577,0.7316235000000001,0.970535,-0.181203,1.2940935,0.942345,-0.213212,0.9259615,-0.002485,-0.00585,1.0740385,0.002485,0.0058499999999999,0.8803635,-0.274645,-0.245102,1.1355635,-0.258685,-0.239422,0.8990735,-0.643545,-0.15988,1.1263635,-0.637545,-0.158829
97,1.0069409999999999,0.7226885,-0.078482,0.865781,0.4989285,-0.064844,0.761331,0.7349885,-0.104972,1.140951,0.4998485,-0.056461,1.242201,0.7120685,-0.123069,0.7258709999999999,0.9683185,-0.16648,1.2871709999999998,0.9444985,-0.194495,0.9268520000000001,-0.0038624999999999,-0.006081,1.073148,0.0038625,0.0060809999999999,0.879101,-0.2993715,-0.223635,1.133541,-0.2832415,-0.217405,0.896661,-0.6682315,-0.147885,1.124951,-0.6619015,-0.146466
98,1.0033774999999998,0.7239825,-0.0661829999999999,0.8626865,0.4990825,-0.052772,0.7569565,0.7381125,-0.0922989999999999,1.1383364999999999,0.5017725,-0.0443979999999999,1.2375165,0.7161825,-0.107101,0.7210965,0.9687525,-0.152341,1.2812565,0.9497625,-0.175974,0.9272305,-0.0040354999999999,-0.0062699999999999,1.0727695,0.0040355,0.0062699999999999,0.8800165,-0.3223675,-0.197704,1.1325764999999999,-0.3057275,-0.191944,0.8953465,-0.6919375,-0.134301,1.1246865,-0.6849275,-0.132649
99,1.0003849999999999,0.7242040000000001,-0.0539815,0.860052,0.498424,-0.0407325,0.753162,0.740824,-0.0795735,1.136342,0.503024,-0.0323675,1.233852,0.7213040000000001,-0.0921495,0.716962,0.970264,-0.1382955,1.276332,0.956154,-0.1582335,0.927697,-0.004145,-0.0063365,1.072303,0.0041449999999999,0.0063364999999999,0.881282,-0.343286,-0.1719635,1.131452,-0.326336,-0.1668335,0.894412,-0.7135859999999999,-0.1207225,1.124752,-0.7061259999999999,-0.1188285
100,0.9978215,0.7253700000000001,-0.041988,0.8576685,0.4976399999999999,-0.029505,0.7502584999999999,0.7408999999999999,-0.067286,1.1344885,0.50448,-0.021169,1.2310185,0.72773,-0.077915,0.7137585,0.96702,-0.124386,1.2716685,0.96431,-0.14127,0.9280815,-0.004299,-0.0063199999999999,1.0719185,0.0042989999999999,0.0063199999999999,0.8827385,-0.36168,-0.14709,1.1296085,-0.34463,-0.14231,0.8935385,-0.73289,-0.107567,1.1248885,-0.72529,-0.105282
101,0.9962395000000001,0.7249645,-0.0315955,0.8562855,0.4962045,-0.0199415,0.7483355,0.7415345,-0.0565875,1.1336555,0.5045345,-0.0116075,1.2300455000000001,0.7306145,-0.0666525,0.7116255,0.9616245,-0.1120135,1.2680455,0.9615445,-0.1270405,0.9280705,-0.0043135,-0.0059785,1.0719295,0.0043135,0.0059784999999999,0.8843755000000001,-0.3745655,-0.1256665,1.1279455,-0.3556155,-0.1220845,0.8931255000000001,-0.7453455,-0.0961425,1.1248655,-0.7374655,-0.0933245
102,0.9949375000000001,0.7238840000000001,-0.021674,0.8550115,0.495224,-0.0108669999999999,0.7464615,0.7426940000000001,-0.046436,1.1328915,0.5043240000000001,-0.0023899999999999,1.2292415,0.734044,-0.055798,0.7097615000000002,0.956874,-0.100299,1.2644315,0.960634,-0.1131139999999999,0.9280365,-0.004214,-0.0056519999999999,1.0719635,0.004214,0.005652,0.8859415,-0.386556,-0.105111,1.1263314999999998,-0.365586,-0.102752,0.8927615,-0.756536,-0.085534,1.1247315,-0.7480159999999999,-0.0815289999999999
103,0.993865,0.722936,-0.012452,0.854104,0.493816,-0.002157,0.744694,0.743606,-0.036688,1.132444,0.503766,0.0063899999999999,1.228544,0.738526,-0.045462,0.7082040000000001,0.952586,-0.089179,1.261134,0.960096,-0.099997,0.927882,-0.004002,-0.005284,1.072118,0.0040019999999999,0.005284,0.887504,-0.398264,-0.085395,1.124864,-0.375584,-0.084847,0.8925339999999999,-0.7666139999999999,-0.075371,1.124664,-0.757564,-0.070197
104,0.9930535000000001,0.7206965000000001,-0.0032005,0.8533495,0.4921765,0.0068775,0.7434395,0.7438565,-0.0270365,1.1320895,0.5027265000000001,0.0153774999999999,1.2278595,0.7424465,-0.0355145,0.7070395,0.9491365,-0.0776735,1.2581595,0.9585565,-0.0868565,0.9278755,-0.0039854999999999,-0.0048335,1.0721245,0.0039855,0.0048335,0.8894394999999999,-0.4120135,-0.0661785,1.1236995,-0.3879734999999999,-0.0672475,0.8924395,-0.7766035,-0.0639065,1.1248095,-0.7685934999999999,-0.0585075
105,0.9921465,0.7173275,0.0064695,0.8523995,0.4906875,0.0162285,0.7421995,0.7432575,-0.0171694999999999,1.1314795,0.5016275,0.0245905,1.2270695,0.7458575000000001,-0.0252735,0.7058795,0.9455175,-0.0658555,1.2551895,0.9573575,-0.0738365,0.9276755,-0.0038354999999999,-0.0042734999999999,1.0723245,0.0038354999999999,0.0042735,0.8909795,-0.4255025,-0.0471334999999999,1.1224595,-0.4006524999999999,-0.0500344999999999,0.8921695000000001,-0.7869025,-0.0525395,1.1247495,-0.7798825,-0.0464055
106,0.99131,0.7153205,0.010894,0.8517700000000001,0.4884905,0.0206499999999999,0.7410400000000001,0.7446005,-0.012332,1.13087,0.4991604999999999,0.028975,1.22624,0.7502905000000001,-0.019903,0.7048500000000001,0.9445505,-0.059247,1.25274,0.9590505,-0.066295,0.927535,-0.0033515,-0.003758,1.072465,0.0033515,0.0037579999999999,0.8921,-0.4361695,-0.0347009999999999,1.12168,-0.4105195,-0.039549,0.8919900000000001,-0.7940094999999999,-0.046601,1.12451,-0.7881094999999999,-0.039625
107,0.9904860000000001,0.715275,0.0147704999999999,0.8512230000000001,0.488455,0.0236705,0.740613,0.744565,-0.0082545,1.130253,0.4982649999999999,0.0319954999999999,1.226233,0.7490249999999999,-0.0157205,0.704333,0.944685,-0.0531465,1.251263,0.959455,-0.0593594999999999,0.927306,-0.0035649999999999,-0.0034045,1.072694,0.0035649999999999,0.0034044999999999,0.8919930000000001,-0.438475,-0.0270394999999999,1.121283,-0.412565,-0.0334695,0.8916630000000001,-0.796295,-0.0431805,1.124023,-0.790025,-0.0351314999999999
108,0.9897545000000001,0.7150245,0.018309,0.8507315,0.4883545,0.026328,0.7402015,0.7443345,-0.0042089999999999,1.1297315,0.4975144999999999,0.034654,1.2262515,0.7477245,-0.0119669999999999,0.7039515000000001,0.9446645,-0.0475159999999999,1.2500115,0.9599245,-0.053131,0.9270335000000001,-0.0036624999999999,-0.0032729999999999,1.0729665,0.0036624999999999,0.003273,0.8918915000000001,-0.4403455,-0.0200189999999999,1.1208915,-0.4141955,-0.0280739999999999,0.8913615,-0.7982055,-0.040059,1.1235614999999999,-0.7916555,-0.0310239999999999
109,0.9892705,0.714516,0.0216505,0.8504495,0.488306,0.0290795,0.7399395000000001,0.744296,-0.0006144999999999,1.1295595,0.4969359999999999,0.0372755,1.2264095,0.746346,-0.0088264999999999,0.7037095,0.944806,-0.0422855,1.2496495,0.958836,-0.0473295,0.9267185,-0.003742,-0.0030974999999999,1.0732815,0.003742,0.0030975,0.8919095000000001,-0.441764,-0.0135054999999999,1.1206495,-0.415584,-0.0232274999999999,0.8911995,-0.799814,-0.0373145,1.1232595,-0.793044,-0.0272974999999999
110,0.9888525,0.7140885,0.0247395,0.8500175,0.4879185,0.0314415,0.7395775,0.7439585,0.0033115,1.1291175,0.4963284999999999,0.0391825,1.2260075,0.7457385,-0.0046724999999999,0.7033275,0.9446485,-0.0371945,1.2492475,0.9578285,-0.0428394999999999,0.9265185,-0.0036214999999999,-0.0032414999999999,1.0734815,0.0036214999999999,0.0032415,0.8917775,-0.4414915,-0.0085415,1.1202375,-0.4147315,-0.0196184999999999,0.8907475,-0.8006715,-0.0351395,1.1229175,-0.7934915,-0.0242924999999999
111,0.9884365,0.7139380000000001,0.027556,0.8495874999999999,0.487528,0.03354,0.7395075,0.743838,0.007151,1.1286975,0.4959379999999999,0.040874,1.2256075,0.745348,-0.000775,0.7031775,0.944698,-0.032311,1.2488575,0.957438,-0.0388069999999999,0.9263865,-0.0035369999999999,-0.0033259999999999,1.0736135,0.0035369999999999,0.0033259999999999,0.8916475,-0.441232,-0.0041439999999999,1.1199775,-0.413852,-0.016489,0.8902375,-0.801222,-0.033212,1.1225375,-0.793422,-0.021605
112,0.9879865,0.7140755,0.0300585,0.8491335,0.4874555,0.0353575,0.7393835,0.7439855,0.0106415,1.1282935,0.4958654999999999,0.0423435,1.2251735,0.7453955,0.0025915,0.7031535,0.9449955,-0.0277045,1.2484235,0.9573655,-0.0352115,0.9262875,-0.0034645,-0.0034525,1.0737125,0.0034644999999999,0.0034525,0.8914635,-0.4408745,-0.0005175,1.1197335,-0.4127345,-0.0138295,0.8897235,-0.8014844999999999,-0.0315575,1.1220735,-0.7929845,-0.0191985
113,0.987608,0.7142155,0.0322765,0.848973,0.4874555,0.0369475,0.739563,0.7441655,0.0137545,1.127993,0.4956855,0.0434235,1.2248929999999998,0.7449755,0.0054855,0.703443,0.9451855,-0.0236014999999999,1.248373,0.9566655,-0.0324715,0.926183,-0.0034645,-0.0036614999999999,1.073817,0.0034644999999999,0.0036615,0.891323,-0.4405044999999999,0.0025165,1.119583,-0.4122945,-0.0119154999999999,0.8892730000000001,-0.8016044999999999,-0.0300565,1.121613,-0.7925745,-0.0173035
114,0.9874430000000001,0.7142555,0.0341335,0.848939,0.4873555,0.0381435,0.739819,0.7442755,0.0165635,1.127779,0.4952655,0.0441385,1.224789,0.7442655,0.0078855,0.7037789999999999,0.9453255,-0.0200255,1.248589,0.9559655,-0.0304315,0.926091,-0.0034645,-0.0039284999999999,1.073909,0.0034644999999999,0.0039285,0.891249,-0.4402445,0.0049345,1.119529,-0.4119045,-0.0104964999999999,0.888869,-0.8015445,-0.0289745,1.121219,-0.7920945,-0.0162365
115,0.9872865,0.7141765,0.035712,0.8489185000000001,0.4870165,0.039114,0.7400985,0.7442065,0.019041,1.1275884999999999,0.4946164999999999,0.044691,1.2249085,0.7432764999999999,0.009937,0.7041385,0.9454065,-0.016749,1.2488685,0.9543865,-0.02882,0.9259965,-0.0034434999999999,-0.0041649999999999,1.0740034999999999,0.0034435,0.004165,0.8911385000000001,-0.4400035,0.0066979999999999,1.1195084999999998,-0.4115135,-0.009639,0.8886185,-0.8016135,-0.0280819999999999,1.1209784999999999,-0.7917635000000001,-0.015301
116,0.9873015,0.714252,0.0366285,0.8490225,0.486762,0.0397855,0.7402325000000001,0.744512,0.0206335,1.1274125,0.494252,0.0450534999999999,1.2249925,0.742852,0.0106575,0.7043125,0.945702,-0.0147094999999999,1.2492325,0.953662,-0.0287565,0.9259265,-0.0033179999999999,-0.0042335,1.0740735,0.003318,0.0042335,0.8910025,-0.439768,0.0071185,1.1194925,-0.411028,-0.0094345,0.8884525,-0.801448,-0.0274974999999999,1.1209025,-0.7913479999999999,-0.0147874999999999
117,0.9872045000000002,0.714417,0.0368465,0.8490044999999999,0.486947,0.0403144999999999,0.7402245000000001,0.7446969999999999,0.0216735,1.1273245,0.494437,0.0450405,1.2250845,0.742967,0.0106775,0.7043045,0.945997,-0.0137224999999999,1.2495045,0.953377,-0.0287395,0.9258985,-0.003241,-0.0042275,1.0741015,0.003241,0.0042274999999999,0.8909745,-0.439593,0.0071404999999999,1.1196345,-0.410843,-0.0093125,0.8884245,-0.801343,-0.0270555,1.1209545,-0.791043,-0.0142515
118,0.9871655000000001,0.7145030000000001,0.036945,0.8490165000000001,0.487123,0.040711,0.7402365,0.7448729999999999,0.02249,1.1272265,0.494613,0.04514,1.2251064999999999,0.7431430000000001,0.0107739999999999,0.7043065,0.946173,-0.013317,1.2496165,0.953553,-0.028644,0.9258985,-0.0031789999999999,-0.004224,1.0741015,0.003179,0.0042239999999999,0.8909765000000001,-0.439337,0.0072379999999999,1.1197765,-0.4103569999999999,-0.009165,0.8884065,-0.8012569999999999,-0.02657,1.1210465,-0.7908170000000001,-0.013706
119,0.9871645,0.7145075,0.0370355,0.8490175,0.4873875,0.0409475,0.7402375,0.7447374999999999,0.0225805,1.1272175,0.4946275,0.0452305,1.2251075,0.7431975,0.0108645,0.7043075,0.9460075,-0.0132265,1.2496075,0.9550575,-0.0289915,0.9258975,-0.0031934999999999,-0.0042815,1.0741025,0.0031935,0.0042815,0.8909775,-0.4393224999999999,0.0073284999999999,1.1198175,-0.4102424999999999,-0.0090745,0.8884075,-0.8014725,-0.0264125,1.1210975,-0.7908025000000001,-0.0136165
