sb224sc-HT22-VT27/4dt907/src/ml-research/a10/datafiles/kinect_good_preprocessed_A9_mediapipe/A24_kinect_mirrored.csv
FrameNo,nose_3d_x,nose_3d_y,nose_3d_z,left_shoulder_3d_x,left_shoulder_3d_y,left_shoulder_3d_z,left_elbow_3d_x,left_elbow_3d_y,left_elbow_3d_z,right_shoulder_3d_x,right_shoulder_3d_y,right_shoulder_3d_z,right_elbow_3d_x,right_elbow_3d_y,right_elbow_3d_z,left_wrist_3d_x,left_wrist_3d_y,left_wrist_3d_z,right_wrist_3d_x,right_wrist_3d_y,right_wrist_3d_z,left_hip_3d_x,left_hip_3d_y,left_hip_3d_z,right_hip_3d_x,right_hip_3d_y,right_hip_3d_z,left_knee_3d_x,left_knee_3d_y,left_knee_3d_z,right_knee_3d_x,right_knee_3d_y,right_knee_3d_z,left_ankle_3d_x,left_ankle_3d_y,left_ankle_3d_z,right_ankle_3d_x,right_ankle_3d_y,right_ankle_3d_z
45,0.9972195000000001,0.716052,0.0436904999999999,0.8498615,0.4837919999999999,0.0504875,0.7347414999999999,0.727542,0.0314455,1.1409315,0.506062,0.0602865,1.2436915,0.7511920000000001,0.0301675,0.7031514999999999,0.949272,-0.0066355,1.2696615,0.959772,-0.0008945,0.9274795,-0.0026839999999999,-0.0052605,1.0725205,0.0026839999999999,0.0052604999999999,0.8904315,-0.448068,-0.0097235,1.1201515,-0.421208,-0.0217285,0.8880015,-0.796288,-0.0425845,1.1269515,-0.790508,-0.0279885
46,0.997268,0.7158575,0.042704,0.849297,0.4833475,0.049554,0.7342569999999999,0.7265474999999999,0.0310119999999999,1.141077,0.5061374999999999,0.0592,1.243477,0.7509575,0.0284,0.701667,0.9491375,-0.007626,1.269067,0.9592375,-0.003598,0.92746,-0.0027085,-0.005141,1.07254,0.0027085,0.005141,0.890297,-0.4480025,-0.012696,1.119887,-0.4227825,-0.02365,0.888157,-0.7961925000000001,-0.045,1.127127,-0.7914524999999999,-0.030761
47,0.997344,0.715773,0.0416765,0.848855,0.4830529999999999,0.0485845,0.7338450000000001,0.7252029999999999,0.0306985,1.1412149999999999,0.506293,0.0580735,1.243355,0.7508429999999999,0.0265545,0.700245,0.949183,-0.0087275,1.268555,0.958723,-0.0063285,0.927474,-0.0027109999999999,-0.0050595,1.072526,0.0027109999999999,0.0050595,0.8901749999999999,-0.447897,-0.0158965,1.119635,-0.424457,-0.0257515,0.888285,-0.796177,-0.0475515,1.127245,-0.792367,-0.0335115
48,0.997411,0.7158405,0.0405159999999999,0.848503,0.4828404999999999,0.047484,0.733453,0.7241905000000001,0.030057,1.1413529999999998,0.5064905000000001,0.056764,1.243333,0.7508605,0.0243779999999999,0.698793,0.9494005,-0.009905,1.268173,0.9584605,-0.009102,0.927501,-0.0027015,-0.0050399999999999,1.072499,0.0027015,0.0050399999999999,0.890033,-0.4478195,-0.019396,1.1193529999999998,-0.4261695,-0.028069,0.888343,-0.7963294999999999,-0.050447,1.127303,-0.7927595,-0.036477
49,0.997411,0.7159565000000001,0.039219,0.8484630000000001,0.4827265,0.046543,0.733033,0.7235864999999999,0.029221,1.1413929999999999,0.5067265000000001,0.055406,1.243153,0.7509565,0.022072,0.697233,0.9496065,-0.011136,1.267753,0.9581365,-0.0119949999999999,0.927534,-0.0026835,-0.0049739999999999,1.072466,0.0026834999999999,0.004974,0.889823,-0.4477835,-0.023081,1.119003,-0.4283335,-0.030733,0.888323,-0.7965435000000001,-0.0535959999999999,1.1272829999999998,-0.7931235000000001,-0.039757
50,0.9973865,0.716168,0.0376655,0.8483075,0.4828779999999999,0.0454495,0.7325175000000002,0.723138,0.0280225,1.1413775,0.507118,0.0538875,1.2429575,0.751138,0.0196045,0.6956175,0.949878,-0.0129655,1.2674275,0.957858,-0.0152175,0.9275365,-0.0026769999999999,-0.0048195,1.0724635,0.0026769999999999,0.0048194999999999,0.8896075,-0.447732,-0.0269555,1.1187975,-0.429922,-0.0337275,0.8882475,-0.796582,-0.0573555,1.1272275,-0.793292,-0.0432955
51,0.997362,0.716332,0.036072,0.847958,0.483102,0.0443,0.7319880000000001,0.722742,0.026747,1.141348,0.507622,0.052404,1.242788,0.7514419999999999,0.017046,0.693988,0.950162,-0.015028,1.267288,0.957672,-0.018773,0.927538,-0.00266,-0.004567,1.072462,0.00266,0.004567,0.889458,-0.447548,-0.0307659999999999,1.118728,-0.430948,-0.036968,0.888088,-0.7965580000000001,-0.061096,1.127168,-0.793398,-0.046929
52,0.9972845,0.716484,0.034282,0.8475755,0.4833939999999999,0.0427619999999999,0.7316055,0.722384,0.024979,1.1412955,0.508824,0.050785,1.2423855,0.7501140000000001,0.014227,0.6922955,0.950474,-0.017541,1.2670854999999999,0.957284,-0.022895,0.9275435,-0.0026249999999999,-0.004289,1.0724565,0.002625,0.0042889999999999,0.8892355,-0.447686,-0.034894,1.1186455,-0.431676,-0.040541,0.8879255,-0.796426,-0.064998,1.1270855,-0.793206,-0.050739
53,0.997185,0.7164630000000001,0.0321145,0.847128,0.483843,0.0406194999999999,0.731098,0.722153,0.0226435,1.141228,0.5097430000000001,0.0486324999999999,1.241928,0.748363,0.0108065,0.690318,0.950383,-0.0205204999999999,1.266738,0.957023,-0.0281154999999999,0.927538,-0.0025909999999999,-0.0039485,1.072462,0.002591,0.0039485,0.8889279999999999,-0.447447,-0.0395255,1.118538,-0.431307,-0.0449175,0.887748,-0.796077,-0.0693125,1.127038,-0.792557,-0.0552615
54,0.9970000000000001,0.716399,0.029293,0.846674,0.484039,0.038561,0.7303840000000001,0.721839,0.019592,1.141094,0.5101789999999999,0.0464459999999999,1.241374,0.746539,0.0073739999999999,0.688224,0.950099,-0.0235499999999999,1.266284,0.956839,-0.033817,0.927527,-0.002567,-0.003576,1.072473,0.002567,0.003576,0.888504,-0.445231,-0.044265,1.118344,-0.429131,-0.049633,0.887504,-0.793991,-0.073301,1.127004,-0.790491,-0.06031
55,0.9967175,0.714783,0.025754,0.8462535,0.483363,0.035886,0.7291335,0.7201029999999999,0.016069,1.1409635,0.509923,0.043431,1.2407135,0.7439629999999999,0.003113,0.6855835,0.949083,-0.027427,1.2658135,0.956633,-0.040702,0.9274505,-0.0024379999999999,-0.0030499999999999,1.0725495,0.002438,0.0030499999999999,0.8874835,-0.443887,-0.050411,1.1183235,-0.428287,-0.0560409999999999,0.8871135,-0.792647,-0.07743,1.1269835,-0.789147,-0.065214
56,0.9963360000000001,0.7133299999999999,0.0222145,0.845681,0.48311,0.0333255,0.727861,0.71858,0.0125434999999999,1.140831,0.5099699999999999,0.0401835,1.239951,0.74137,-0.0013055,0.682831,0.94834,-0.0315425,1.265331,0.95671,-0.0478235,0.927366,-0.0024149999999999,-0.0025765,1.072634,0.002415,0.0025765,0.886131,-0.44215,-0.0569705,1.118361,-0.42729,-0.0630445,0.886801,-0.79095,-0.0814705,1.126921,-0.78752,-0.0698995
57,0.9958425000000001,0.711707,0.018402,0.8452015000000002,0.4827369999999999,0.030533,0.7264315,0.7172470000000001,0.008476,1.1405015,0.510097,0.036557,1.2391115,0.738317,-0.007,0.6795715,0.947417,-0.037278,1.2644115,0.956567,-0.056955,0.9272405,-0.002372,-0.00193,1.0727595,0.0023719999999999,0.0019299999999999,0.8844015000000001,-0.440283,-0.064307,1.1184615,-0.426133,-0.071046,0.8865115000000001,-0.7890929999999999,-0.085561,1.1268715,-0.7856529999999999,-0.074964
58,0.9952005000000002,0.709507,0.014062,0.8449145,0.481917,0.0276019999999999,0.7248245,0.715327,0.003651,1.1400744999999999,0.509237,0.032861,1.2380045,0.735287,-0.013271,0.6762445,0.941577,-0.04374,1.2632645,0.956257,-0.066493,0.9270815,-0.0023059999999999,-0.0012929999999999,1.0729185,0.0023059999999999,0.001293,0.8824845,-0.437223,-0.072388,1.1185845,-0.4248829999999999,-0.079802,0.8863645,-0.7864829999999999,-0.089692,1.1266845,-0.783033,-0.079808
59,0.9945,0.7064745,0.009704,0.844523,0.4815145,0.024691,0.722963,0.7129845,-0.0013159999999999,1.139613,0.5085745,0.029168,1.236773,0.7316145000000001,-0.0196149999999999,0.6729630000000001,0.9354545,-0.0500769999999999,1.261903,0.9561545,-0.076269,0.926898,-0.0021695,-0.0007129999999999,1.073102,0.0021694999999999,0.000713,0.8804630000000001,-0.4337255,-0.080814,1.118863,-0.4234855,-0.089153,0.8862630000000001,-0.7834855,-0.0935969999999999,1.126533,-0.7798754999999999,-0.084784
60,0.9937305,0.7036895000000001,0.005312,0.8441155,0.4811494999999999,0.021532,0.7209755,0.7109595000000001,-0.0065399999999999,1.1390855,0.5066595,0.025458,1.2354855,0.7282095000000001,-0.0260229999999999,0.6697555,0.9295595,-0.0564669999999999,1.2603555,0.9575295,-0.086094,0.9267155,-0.0019204999999999,-0.0001439999999999,1.0732845,0.0019205,0.000144,0.8783555000000001,-0.4286705,-0.089919,1.1193455,-0.4207105,-0.099282,0.8858455000000001,-0.7788605,-0.097533,1.1262055,-0.7753705,-0.089863
61,0.992939,0.701142,0.0009949999999999,0.843839,0.480122,0.0181889999999999,0.718969,0.708952,-0.01158,1.138749,0.504582,0.0220389999999999,1.234489,0.726662,-0.032233,0.666819,0.923472,-0.062597,1.258619,0.959482,-0.095885,0.926474,-0.0017549999999999,0.0003699999999999,1.073526,0.0017549999999999,-0.00037,0.876209,-0.422198,-0.099381,1.119929,-0.416418,-0.109664,0.885489,-0.773418,-0.101255,1.125949,-0.769988,-0.094679
62,0.9921780000000001,0.697906,-0.003453,0.84341,0.479856,0.015104,0.71719,0.705716,-0.0165519999999999,1.13855,0.502066,0.018542,1.23367,0.724866,-0.038609,0.66411,0.916576,-0.0682079999999999,1.25627,0.959536,-0.1058149999999999,0.926322,-0.001586,0.0008209999999999,1.073678,0.0015859999999999,-0.0008209999999999,0.87403,-0.414574,-0.10897,1.12052,-0.4108739999999999,-0.120027,0.88544,-0.766674,-0.104882,1.1258,-0.763284,-0.0990139999999999
63,0.9911925,0.6952475,-0.0080914999999999,0.8427955,0.4791775,0.0118795,0.7152955000000001,0.7030875000000001,-0.0218905,1.1381655,0.5003175000000001,0.0146955,1.2326555,0.7238075,-0.0452635,0.6612555,0.9103275,-0.0739905,1.2536755,0.9609375,-0.1157205,0.9260865,-0.0015494999999999,0.0013335,1.0739135,0.0015494999999999,-0.0013334999999999,0.8715255,-0.4066425,-0.1190975,1.1209155,-0.4042725,-0.1305434999999999,0.8852955,-0.7585624999999999,-0.1087905,1.1253255,-0.7551825,-0.1032355
64,0.9900790000000002,0.6937035,-0.012695,0.842066,0.4778135,0.008869,0.713406,0.7017835,-0.027058,1.137656,0.4991135,0.0107869999999999,1.231406,0.7235135,-0.052042,0.6582859999999999,0.9049335,-0.0796419999999999,1.250996,0.9569235,-0.125046,0.925842,-0.0015795,0.0017679999999999,1.074158,0.0015795,-0.0017679999999999,0.8691360000000001,-0.3965265,-0.128638,1.121056,-0.3956065,-0.140416,0.885126,-0.7479465,-0.11257,1.124686,-0.7444365000000001,-0.107021
65,0.989298,0.691412,-0.0180014999999999,0.84131,0.477252,0.0052685,0.7116800000000001,0.698612,-0.0332024999999999,1.1371099999999998,0.496842,0.0060205,1.23038,0.7225020000000001,-0.0600874999999999,0.65516,0.897132,-0.0864794999999999,1.2488,0.953442,-0.1347815,0.925447,-0.0014069999999999,0.0022735,1.074553,0.001407,-0.0022734999999999,0.86691,-0.384558,-0.1386235,1.1207699999999998,-0.384628,-0.1507735,0.88458,-0.7349979999999999,-0.1164775,1.12394,-0.7308779999999999,-0.1116795
66,0.988226,0.6890809999999999,-0.0225715,0.840639,0.476241,0.0023044999999999,0.710619,0.695431,-0.0382015,1.136259,0.494471,0.0015084999999999,1.229359,0.722061,-0.0669095,0.6524989999999999,0.889701,-0.0916205,1.247489,0.949451,-0.1430925,0.925117,-0.001347,0.0027024999999999,1.074883,0.0013469999999999,-0.0027025,0.864839,-0.368649,-0.1480825,1.1206889999999998,-0.371199,-0.1603725,0.883799,-0.721819,-0.1200015,1.123099,-0.717689,-0.1156385
67,0.9873020000000001,0.6867955,-0.027585,0.840152,0.4758855,-0.000928,0.7096720000000001,0.6922555,-0.04404,1.135192,0.4928355,-0.003785,1.228352,0.7179755,-0.074465,0.649652,0.8869355,-0.09776,1.246322,0.9464755,-0.153066,0.924784,-0.0013025,0.0031549999999999,1.075216,0.0013024999999999,-0.003155,0.862452,-0.3506645,-0.158216,1.1204619999999998,-0.3543345,-0.170346,0.8830020000000001,-0.7061145,-0.123948,1.122172,-0.7016445,-0.12062
68,0.986275,0.6873855,-0.037637,0.839572,0.4768255,-0.009251,0.708492,0.6909654999999999,-0.054862,1.133942,0.4924655,-0.013906,1.227292,0.7173155,-0.086705,0.6467419999999999,0.8857955,-0.109172,1.244372,0.9451555,-0.168308,0.9244120000000001,-0.0013615,0.0034039999999999,1.075588,0.0013614999999999,-0.003404,0.859572,-0.3306245,-0.173408,1.120012,-0.3360645,-0.184798,0.882012,-0.6870145000000001,-0.1328,1.121132,-0.6827045,-0.1303119999999999
69,0.9849945000000001,0.6877770000000001,-0.04774,0.8396925,0.476877,-0.018737,0.7070025,0.687767,-0.065733,1.1323625,0.490487,-0.02453,1.2257725,0.717057,-0.098913,0.6435225,0.881837,-0.120922,1.2420225,0.938627,-0.183409,0.9240155,-0.0013249999999999,0.0035639999999999,1.0759845,0.001325,-0.003564,0.8557325,-0.310483,-0.191289,1.1194125,-0.318623,-0.202359,0.8807525,-0.6671830000000001,-0.141766,1.1197024999999998,-0.662973,-0.1397
70,0.9837445,0.68696,-0.058559,0.8402225,0.4770399999999999,-0.029459,0.7055625000000001,0.6852900000000001,-0.077314,1.1308525,0.48999,-0.035695,1.2240825,0.71502,-0.113055,0.6406825,0.8810300000000001,-0.133351,1.2394625,0.93457,-0.198972,0.9236325,-0.00125,0.0036729999999999,1.0763675,0.00125,-0.003673,0.8514325,-0.28878,-0.209712,1.1188825,-0.29833,-0.220902,0.8793525000000001,-0.64481,-0.150868,1.1181725,-0.64074,-0.149274
71,0.982733,0.6860550000000001,-0.0704445,0.8411299999999999,0.475885,-0.0413795,0.70418,0.6847350000000001,-0.0909195,1.12947,0.487875,-0.0484575,1.22271,0.7160150000000001,-0.1290325,0.6382099999999999,0.884125,-0.1484345,1.23709,0.934705,-0.2182945,0.9231590000000001,-0.0011049999999999,0.0037615,1.076841,0.0011049999999999,-0.0037615,0.84639,-0.262135,-0.2295845,1.1187099999999999,-0.272635,-0.2410245,0.87802,-0.616825,-0.1598804999999999,1.11625,-0.613205,-0.1590475
72,0.9821365,0.684785,-0.0825855,0.8422575,0.476455,-0.0534405,0.7032375,0.685005,-0.1046525,1.1285775,0.484995,-0.0614345,1.2215175,0.7161150000000001,-0.1451855,0.6369875,0.883475,-0.1642015,1.2351874999999999,0.935145,-0.2381425,0.9226815,-0.0006849999999999,0.0037134999999999,1.0773185,0.0006849999999999,-0.0037135,0.8416175,-0.234835,-0.2491525,1.1187675,-0.246085,-0.2611025,0.8766975,-0.587875,-0.1687795,1.1145975,-0.584825,-0.1687375
73,0.981813,0.683095,-0.094756,0.844191,0.477085,-0.065782,0.703631,0.682035,-0.117991,1.127801,0.482685,-0.074269,1.220481,0.7162649999999999,-0.1610889999999999,0.635931,0.8836649999999999,-0.178939,1.233501,0.934365,-0.257341,0.922255,-0.000375,0.003513,1.077745,0.0003749999999999,-0.003513,0.836901,-0.207135,-0.268011,1.119111,-0.218295,-0.280551,0.875551,-0.557915,-0.177135,1.113081,-0.555625,-0.177758
74,0.9815370000000001,0.681585,-0.1061355,0.846149,0.4760749999999999,-0.0773465,0.704169,0.6802649999999999,-0.1300245,1.127179,0.480205,-0.0861494999999999,1.219639,0.712075,-0.1760225,0.634799,0.886855,-0.1921925,1.232189,0.933345,-0.2755955,0.922045,-0.000155,0.0033225,1.077955,0.0001549999999999,-0.0033224999999999,0.8320890000000001,-0.180335,-0.2855355,1.119099,-0.191305,-0.2985955,0.874889,-0.528825,-0.1839045,1.111529,-0.5273950000000001,-0.1855485
75,0.9816505000000001,0.67982,-0.117344,0.8483515,0.47492,-0.089367,0.7045215,0.6787099999999999,-0.142105,1.1266215,0.47713,-0.098228,1.2187715,0.70921,-0.190464,0.6338415,0.8871,-0.205921,1.2308615,0.93241,-0.294131,0.9218554999999999,0.0003,0.0031189999999999,1.0781445,-0.0003,-0.003119,0.8275815000000001,-0.14928,-0.302661,1.1190315,-0.16014,-0.316531,0.8743315,-0.4957899999999999,-0.190744,1.1096915,-0.4957,-0.192772
76,0.981923,0.67783,-0.127574,0.850764,0.47409,-0.10045,0.7051340000000001,0.6773100000000001,-0.152974,1.126034,0.47398,-0.109363,1.217844,0.70851,-0.203544,0.633454,0.88776,-0.218145,1.229984,0.93099,-0.310595,0.921719,0.00074,0.0029549999999999,1.078281,-0.0007399999999999,-0.0029549999999999,0.823804,-0.12112,-0.317925,1.119044,-0.13165,-0.332675,0.873724,-0.4651499999999999,-0.197373,1.107784,-0.46684,-0.198568
77,0.982079,0.672965,-0.132738,0.852896,0.470655,-0.106467,0.7053659999999999,0.674685,-0.159068,1.125276,0.468915,-0.11588,1.2168160000000001,0.705365,-0.212005,0.6333960000000001,0.887955,-0.225235,1.2286659999999998,0.929585,-0.321695,0.921374,0.001055,0.002985,1.078626,-0.0010549999999999,-0.002985,0.8206760000000001,-0.0931549999999999,-0.327665,1.118826,-0.1031149999999999,-0.344235,0.873786,-0.4361549999999999,-0.198966,1.105586,-0.4381849999999999,-0.199598
78,0.982329,0.66725,-0.138289,0.8540840000000001,0.46749,-0.1124059999999999,0.706164,0.6749,-0.164829,1.124804,0.4674,-0.122312,1.2158039999999999,0.69898,-0.220415,0.6336040000000001,0.8882800000000001,-0.230655,1.227764,0.93089,-0.331445,0.921167,0.0011,0.002875,1.078833,-0.0010999999999999,-0.002875,0.8198840000000001,-0.0644699999999999,-0.331595,1.118324,-0.0743799999999999,-0.349605,0.873254,-0.40752,-0.201145,1.104834,-0.4100899999999999,-0.201394
79,0.9825975000000001,0.6633150000000001,-0.142451,0.8545735,0.464745,-0.117273,0.7069635000000001,0.674385,-0.16943,1.1246435,0.464342,-0.12804,1.2151435,0.694555,-0.226295,0.6348935,0.885765,-0.235115,1.2269435,0.928485,-0.339685,0.9210565,0.001395,0.0028249999999999,1.0789435,-0.0013949999999999,-0.002825,0.8192135,-0.0365349999999999,-0.332705,1.1176335,-0.0464549999999999,-0.352045,0.8736135,-0.3803449999999999,-0.202272,1.1041535,-0.3833149999999999,-0.202891
80,0.9827865,0.659475,-0.145193,0.8547835,0.462754,-0.120612,0.7078035,0.6740250000000001,-0.17178,1.1244934999999998,0.462497,-0.131878,1.2144135,0.688375,-0.22972,0.6361635,0.881535,-0.23677,1.2262534999999999,0.920885,-0.3429,0.9209865,0.0016249999999999,0.00261,1.0790135,-0.0016249999999999,-0.00261,0.8185635,-0.0130449999999999,-0.33364,1.1169835,-0.0233849999999999,-0.35298,0.8746635,-0.358155,-0.202894,1.1035035,-0.3612149999999999,-0.204115
81,0.9829475,0.6553249999999999,-0.1482629999999999,0.8548245,0.4601389999999999,-0.124515,0.7099145,0.667465,-0.17434,1.1251445,0.461889,-0.136037,1.2137545,0.681475,-0.233385,0.6380145000000002,0.877085,-0.238495,1.2256045,0.911815,-0.345655,0.9209355,0.001425,0.002825,1.0790645,-0.001425,-0.0028249999999999,0.8179445,0.0104349999999999,-0.335325,1.1164144999999999,0.000585,-0.354665,0.8759844999999999,-0.334015,-0.2041029999999999,1.1042945,-0.337995,-0.210165
82,0.9831025000000001,0.65147,-0.15108,0.8543675,0.458395,-0.127844,0.7115375000000002,0.66364,-0.176918,1.1258175,0.461192,-0.140108,1.2132875,0.67544,-0.23646,0.6391375,0.8732500000000001,-0.24067,1.2250675,0.91115,-0.3484399999999999,0.9208625,0.00109,0.00317,1.0791375,-0.0010899999999999,-0.00317,0.8184275000000001,0.03344,-0.33729,1.1158875,0.02399,-0.35682,0.8788675000000001,-0.3142299999999999,-0.205797,1.1052375,-0.3164699999999999,-0.21691
83,0.983276,0.64811,-0.153387,0.853911,0.457246,-0.1309239999999999,0.712861,0.6604300000000001,-0.179074,1.1263709999999998,0.459642,-0.1436589999999999,1.212751,0.67474,-0.2385749999999999,0.639751,0.86805,-0.2427949999999999,1.224591,0.91001,-0.350885,0.920809,0.0009,0.0036349999999999,1.079191,-0.0009,-0.0036349999999999,0.820041,0.0556,-0.336965,1.115081,0.04625,-0.357915,0.878278,-0.2898399999999999,-0.20725,1.106691,-0.29653,-0.223525
84,0.9831870000000001,0.64515,-0.155214,0.853416,0.456767,-0.132845,0.713856,0.6568799999999999,-0.180966,1.126786,0.4587219999999999,-0.146172,1.212496,0.67275,-0.2404049999999999,0.639316,0.86554,-0.244385,1.224596,0.90948,-0.352755,0.920764,0.0005499999999999,0.004205,1.079236,-0.00055,-0.004205,0.821986,0.0731899999999999,-0.3357449999999999,1.114276,0.0639499999999999,-0.3581149999999999,0.877691,-0.2702299999999999,-0.208373,1.108106,-0.28062,-0.229575
85,0.982956,0.6428999999999999,-0.15702,0.852822,0.4557669999999999,-0.134645,0.714432,0.6538299999999999,-0.182785,1.127162,0.4582549999999999,-0.1482429999999999,1.212292,0.67228,-0.2422349999999999,0.6387320000000001,0.8627699999999999,-0.246035,1.225022,0.90862,-0.354785,0.9207879999999999,0.0002199999999999,0.004725,1.079212,-0.0002199999999999,-0.0047249999999999,0.8243320000000001,0.0909299999999999,-0.333665,1.1131319999999998,0.0823099999999999,-0.3573849999999999,0.877032,-0.25105,-0.209239,1.109292,-0.2646900000000001,-0.234935
86,0.982972,0.641395,-0.158679,0.85258,0.455748,-0.1363,0.7150800000000002,0.6504350000000001,-0.184454,1.12772,0.458111,-0.14991,1.21247,0.6713950000000001,-0.24431,0.63851,0.8591250000000001,-0.2472,1.2260199999999999,0.905855,-0.35697,0.92099,7.500000000004725e-05,0.0052999999999999,1.07901,-7.499999999993623e-05,-0.0053,0.82702,0.106055,-0.33108,1.11257,0.097115,-0.35609,0.8765769999999999,-0.2337449999999999,-0.208121,1.1106,-0.2524649999999999,-0.23982
87,0.983065,0.6407079999999999,-0.160044,0.851918,0.4563279999999999,-0.137851,0.715768,0.645982,-0.185555,1.128278,0.457209,-0.1514809999999999,1.212858,0.6730499999999999,-0.24623,0.638278,0.85785,-0.24744,1.227438,0.90383,-0.35806,0.921102,9.99999999995449e-06,0.0059099999999999,1.078898,-1.0000000000065512e-05,-0.0059099999999999,0.8295880000000001,0.1190899999999999,-0.32777,1.1122079999999999,0.1097999999999999,-0.35394,0.876107,-0.21904,-0.2082699999999999,1.112408,-0.2421500000000001,-0.24467
88,0.9831155,0.639155,-0.161152,0.8513305,0.456665,-0.1392459999999999,0.7161305,0.6417320000000001,-0.186382,1.1286205,0.456485,-0.153074,1.2134405,0.674475,-0.248085,0.6380705000000001,0.856425,-0.247365,1.2291705,0.902575,-0.358885,0.9211995,-0.0003049999999999,0.006565,1.0788005,0.0003049999999999,-0.0065649999999999,0.8319004999999999,0.129845,-0.324095,1.1118405,0.120305,-0.351665,0.8753735,-0.2061549999999999,-0.2090219999999999,1.1144805,-0.2339549999999999,-0.249635
89,0.9832375,0.638613,-0.16237,0.8509095,0.45724,-0.1407209999999999,0.7167795,0.636858,-0.1872,1.1289295,0.45652,-0.1546799999999999,1.2141695,0.6758,-0.25011,0.6379895000000001,0.85441,-0.24775,1.2313195,0.90448,-0.36001,0.9213205,-0.0005899999999999,0.00722,1.0786795,0.0005899999999999,-0.00722,0.8339495,0.13977,-0.3203,1.1114695,0.13006,-0.34897,0.8768724999999999,-0.1990199999999999,-0.2097959999999999,1.1164995,-0.2265599999999999,-0.25506
90,0.983397,0.638344,-0.162124,0.85046,0.458315,-0.140768,0.71687,0.63688,-0.187053,1.12903,0.455745,-0.15473,1.2152,0.677895,-0.250885,0.6375299999999999,0.855655,-0.248455,1.23335,0.906255,-0.360795,0.9214100000000001,-0.0006049999999999,0.0075049999999999,1.07859,0.000605,-0.0075049999999999,0.8347,0.145025,-0.317795,1.1112799999999998,0.134945,-0.3474049999999999,0.878613,-0.1964049999999999,-0.208334,1.11657,-0.222465,-0.2558249999999999
91,0.983542,0.638501,-0.161621,0.850272,0.4602499999999999,-0.140184,0.716952,0.63708,-0.186541,1.129132,0.45419,-0.154206,1.216222,0.67901,-0.25109,0.636522,0.85483,-0.24863,1.235312,0.90601,-0.36102,0.921488,-0.0002199999999999,0.0076999999999999,1.078512,0.0002199999999999,-0.0076999999999999,0.834822,0.1480199999999999,-0.3161899999999999,1.1110719999999998,0.1371599999999999,-0.34648,0.88048,-0.1961400000000001,-0.20674,1.116642,-0.22043,-0.25615
92,0.983631,0.6388119999999999,-0.16105,0.85016,0.4616949999999999,-0.139671,0.71704,0.638322,-0.18624,1.1292200000000001,0.454215,-0.153641,1.21727,0.679915,-0.25122,0.63549,0.854595,-0.24872,1.23719,0.905185,-0.36116,0.92157,6.499999999998174e-05,0.0078099999999999,1.07843,-6.499999999998174e-05,-0.0078099999999999,0.83492,0.1502649999999999,-0.3150199999999999,1.1108699999999998,0.138465,-0.346,0.883564,-0.196785,-0.205416,1.11675,-0.219325,-0.25636
93,0.9837055,0.6395120000000001,-0.160457,0.8500745000000001,0.462395,-0.139271,0.7161845,0.639022,-0.185976,1.1292245,0.453995,-0.153039,1.2182344999999999,0.6805450000000001,-0.25144,0.6337345,0.854275,-0.24875,1.2388345,0.904005,-0.36145,0.9216355,0.000415,0.0078499999999999,1.0783645,-0.0004149999999999,-0.00785,0.8349945,0.151765,-0.31428,1.1106445,0.139035,-0.34588,0.8819395,-0.193925,-0.205429,1.1168645,-0.218905,-0.25578
94,0.9838765,0.6396820000000001,-0.159801,0.8501354999999999,0.462565,-0.138889,0.7154055,0.639192,-0.185836,1.1293555,0.453645,-0.152382,1.2192355,0.6807150000000001,-0.25184,0.6325755,0.853715,-0.24885,1.2403654999999998,0.902655,-0.3616,0.9216645,0.000585,0.00792,1.0783355000000001,-0.0005849999999999,-0.0079199999999999,0.8351554999999999,0.152795,-0.31404,1.1105455,0.139475,-0.3458,0.8778505,-0.192555,-0.205333,1.1169455,-0.218735,-0.25476
95,0.9839485,0.6396820000000001,-0.159121,0.8502115,0.463005,-0.138678,0.7141915,0.639192,-0.185665,1.1295015,0.453645,-0.151831,1.2201615,0.6807150000000001,-0.25206,0.6317915000000001,0.853715,-0.24904,1.2416415,0.902655,-0.36121,0.9216785,0.000585,0.0080699999999999,1.0783215,-0.0005849999999999,-0.00807,0.8351014999999999,0.153495,-0.31389,1.1107114999999999,0.139755,-0.34565,0.8753215,-0.1904449999999999,-0.205279,1.1166015,-0.218715,-0.25348
96,0.9838955,0.6397280000000001,-0.1584429999999999,0.8503415,0.464145,-0.138479,0.7130915,0.639734,-0.185446,1.1295715,0.453645,-0.1511219999999999,1.2209915,0.6807150000000001,-0.25199,0.6312115,0.853715,-0.2492599999999999,1.2424815,0.902655,-0.36095,0.9216485,0.000585,0.00828,1.0783515,-0.0005849999999999,-0.0082799999999999,0.8347815000000001,0.153695,-0.31369,1.1107715,0.139785,-0.34545,0.8728815,-0.1884549999999999,-0.2061469999999999,1.1162115,-0.2184849999999999,-0.25217
97,0.9839050000000001,0.641042,-0.157748,0.850276,0.46579,-0.138001,0.712126,0.6411870000000001,-0.185113,1.129686,0.45349,-0.15042,1.221716,0.68122,-0.251685,0.630836,0.85348,-0.249295,1.243296,0.90242,-0.360645,0.921614,0.00082,0.008475,1.078386,-0.0008199999999999,-0.0084749999999999,0.8343659999999999,0.15346,-0.313365,1.110966,0.13955,-0.345415,0.8705760000000001,-0.1866999999999999,-0.206956,1.1158659999999998,-0.2184199999999999,-0.251425
98,0.9839315,0.642664,-0.156153,0.8502155,0.465135,-0.136463,0.7112355,0.643355,-0.1840439999999999,1.1297755,0.454585,-0.148808,1.2222255,0.682965,-0.25024,0.6306355,0.856425,-0.2486799999999999,1.2445855,0.899395,-0.35921,0.9216145,0.001145,0.00827,1.0783855,-0.0011449999999999,-0.0082699999999999,0.8334855000000001,0.149935,-0.31461,1.1110755,0.135945,-0.34645,0.8722455,-0.1948649999999999,-0.207477,1.1150955,-0.220665,-0.2483
99,0.9840655,0.645049,-0.1544319999999999,0.8502575,0.4639649999999999,-0.134741,0.7103275,0.645971,-0.182788,1.1298975,0.4564249999999999,-0.146982,1.2229475,0.683735,-0.2485299999999999,0.6307875000000001,0.8592150000000001,-0.2478099999999999,1.2462075,0.8959349999999999,-0.35666,0.9216025,0.0011949999999999,0.008,1.0783975,-0.001195,-0.0079999999999999,0.8325575000000001,0.144805,-0.31642,1.1112675,0.130865,-0.34801,0.8739475000000001,-0.203785,-0.207839,1.1130975,-0.224125,-0.24314
100,0.9843835000000001,0.6468980000000001,-0.152452,0.8504355,0.4641820000000001,-0.132999,0.7101155,0.6512260000000001,-0.182438,1.1301755,0.456555,-0.145001,1.2239055,0.6819750000000001,-0.24598,0.6310955,0.8615250000000001,-0.24672,1.2480254999999998,0.8921250000000001,-0.35358,0.9214545000000001,0.001555,0.00744,1.0785455,-0.0015549999999999,-0.00744,0.8312655,0.136325,-0.32006,1.1116455,0.122085,-0.3504899999999999,0.8759555,-0.2159049999999999,-0.208157,1.1113955,-0.2310449999999999,-0.23772
101,0.9847020000000001,0.6487,-0.150466,0.850974,0.4630620000000001,-0.1315339999999999,0.710504,0.6546000000000001,-0.182453,1.130514,0.457081,-0.142888,1.225114,0.67849,-0.243435,0.6316539999999999,0.86262,-0.2457849999999999,1.249964,0.88597,-0.349805,0.921256,0.00161,0.006805,1.078744,-0.00161,-0.0068049999999999,0.8300640000000001,0.1235,-0.324385,1.112054,0.10912,-0.352765,0.878041,-0.2288899999999999,-0.2085139999999999,1.109464,-0.2410399999999999,-0.231755
102,0.9851645,0.651615,-0.148269,0.8515945,0.460598,-0.130082,0.7109245,0.6584650000000001,-0.182522,1.1305744999999998,0.457808,-0.140707,1.2263945,0.6781950000000001,-0.24069,0.6323145,0.8682350000000001,-0.24574,1.2519244999999999,0.881775,-0.3452,0.9210155,0.001625,0.0061799999999999,1.0789845,-0.0016249999999999,-0.00618,0.8290445000000001,0.108815,-0.3285,1.1124744999999998,0.094285,-0.35457,0.8800165,-0.2437349999999999,-0.207347,1.1073644999999999,-0.252845,-0.2258
103,0.985742,0.654275,-0.146047,0.85231,0.460367,-0.128633,0.71147,0.661495,-0.182642,1.13077,0.458511,-0.138511,1.2279,0.680085,-0.237565,0.63307,0.871405,-0.245635,1.25531,0.884625,-0.340305,0.92087,0.0017449999999999,0.0055049999999999,1.07913,-0.0017449999999999,-0.0055049999999999,0.8283,0.091705,-0.332335,1.11302,0.076655,-0.355665,0.880585,-0.2614149999999999,-0.2056899999999999,1.10574,-0.267265,-0.220265
104,0.9862255,0.658895,-0.144055,0.8529875,0.458743,-0.126929,0.7122475000000001,0.666185,-0.182808,1.1310775,0.460053,-0.1363,1.2291675,0.683775,-0.233765,0.6356075,0.878125,-0.245825,1.2586275,0.884745,-0.334935,0.9208725,0.001755,0.0048049999999999,1.0791275,-0.001755,-0.004805,0.8278375,0.0701649999999999,-0.334895,1.1135975,0.0547949999999999,-0.355865,0.8770175,-0.279005,-0.205424,1.1041075,-0.285225,-0.214538
105,0.986817,0.662675,-0.141781,0.8538,0.4579209999999999,-0.124972,0.7132900000000001,0.669725,-0.182909,1.13141,0.462924,-0.133779,1.23088,0.6866749999999999,-0.229765,0.6386499999999999,0.8832450000000001,-0.245775,1.2621,0.884705,-0.329085,0.92093,0.0016149999999999,0.0041049999999999,1.07907,-0.001615,-0.0041049999999999,0.8276200000000001,0.0464749999999999,-0.336845,1.11429,0.0306849999999999,-0.355435,0.87669,-0.298865,-0.20325,1.10256,-0.304955,-0.208436
106,0.9875410000000001,0.66544,-0.139516,0.8545780000000001,0.456979,-0.122915,0.714528,0.6737500000000001,-0.182858,1.131798,0.465741,-0.131142,1.232558,0.68735,-0.22574,0.642448,0.8880600000000001,-0.2454799999999999,1.265568,0.88306,-0.32305,0.921089,0.0013299999999999,0.0034,1.078911,-0.0013299999999999,-0.0034,0.8275380000000001,0.02064,-0.33821,1.115118,0.00489,-0.35471,0.876268,-0.32198,-0.2011,1.101138,-0.32646,-0.202185
107,0.988492,0.6703250000000001,-0.138129,0.855326,0.458122,-0.121634,0.716636,0.678655,-0.18274,1.1323059999999998,0.467879,-0.128769,1.234286,0.6837850000000001,-0.220505,0.648166,0.891885,-0.245505,1.268396,0.881695,-0.3169349999999999,0.921282,0.001085,0.0029449999999999,1.078718,-0.001085,-0.002945,0.828016,-0.0062749999999999,-0.336925,1.1157659999999998,-0.0206949999999999,-0.353425,0.875806,-0.346365,-0.1998,1.100046,-0.350915,-0.198216
108,0.989695,0.67386,-0.136464,0.856024,0.461009,-0.120334,0.7186939999999999,0.68445,-0.182396,1.1328639999999999,0.468688,-0.126353,1.235954,0.6850700000000001,-0.21528,0.654254,0.89682,-0.24532,1.270954,0.88276,-0.31138,0.921486,0.0012399999999999,0.0025599999999999,1.078514,-0.00124,-0.00256,0.828424,-0.03294,-0.33562,1.116334,-0.04633,-0.35212,0.876224,-0.37344,-0.197745,1.100324,-0.37622,-0.195853
109,0.990826,0.67995,-0.134673,0.856594,0.46139,-0.1191879999999999,0.721264,0.68771,-0.1812829999999999,1.133344,0.47045,-0.1240469999999999,1.237674,0.68872,-0.21032,0.660534,0.90185,-0.24481,1.274564,0.89279,-0.30587,0.921759,0.0009399999999999,0.0025,1.078241,-0.0009399999999999,-0.0024999999999999,0.828734,-0.05678,-0.33447,1.116754,-0.0689499999999999,-0.35097,0.876544,-0.39584,-0.1958349999999999,1.100604,-0.3990799999999999,-0.1935799999999999
110,0.9920835000000001,0.685635,-0.1320049999999999,0.8572505,0.464945,-0.116931,0.7247205,0.690875,-0.179299,1.1336605,0.4737949999999999,-0.120339,1.2393405,0.695065,-0.204457,0.6675805,0.911135,-0.2431849999999999,1.2782405,0.901225,-0.299335,0.9220195,0.0011849999999999,0.002305,1.0779805,-0.0011849999999999,-0.002305,0.8295105,-0.0808849999999999,-0.332175,1.1171105,-0.091555,-0.347325,0.8763105,-0.420185,-0.193477,1.1009205,-0.423575,-0.190515
111,0.9933975000000002,0.689905,-0.128473,0.8578055,0.468995,-0.114487,0.7280154999999999,0.695025,-0.177284,1.1338854999999999,0.476085,-0.116598,1.2410055,0.6977850000000001,-0.198425,0.6743954999999999,0.915185,-0.24123,1.2818455,0.907045,-0.29322,0.9221785000000001,0.001405,0.00214,1.0778215,-0.0014049999999999,-0.00214,0.8306455,-0.1039349999999999,-0.3288,1.1172255,-0.1132449999999999,-0.34253,0.8757355,-0.4443249999999999,-0.1910899999999999,1.1011255,-0.447805,-0.187626
112,0.9947065,0.6953050000000001,-0.1246239999999999,0.8585815,0.470485,-0.1117959999999999,0.7314115,0.699415,-0.1748009999999999,1.1342515,0.479365,-0.1123219999999999,1.2424914999999999,0.697845,-0.191738,0.6813914999999999,0.920965,-0.23903,1.2841415,0.905045,-0.28607,0.9224085,0.001365,0.00189,1.0775915,-0.001365,-0.0018899999999999,0.8325515,-0.126295,-0.32288,1.1174615,-0.1336549999999999,-0.33594,0.8750215000000001,-0.4680249999999999,-0.188597,1.1013015,-0.4716649999999999,-0.1845939999999999
113,0.9959815,0.698645,-0.119503,0.8591525,0.473385,-0.108224,0.7339925,0.7046250000000001,-0.171242,1.1346125,0.482215,-0.1070639999999999,1.2440525,0.6989449999999999,-0.18472,0.6868725,0.923175,-0.236222,1.2863624999999999,0.906365,-0.277802,0.9228465,0.0013549999999999,0.001638,1.0771535,-0.0013549999999999,-0.001638,0.8344024999999999,-0.145115,-0.315752,1.1174725,-0.151025,-0.328642,0.8742325,-0.4901549999999999,-0.185495,1.1016925,-0.493525,-0.180833
114,0.997319,0.703705,-0.1123909999999999,0.859523,0.475515,-0.102933,0.736383,0.708495,-0.166084,1.135243,0.483575,-0.100377,1.245263,0.696685,-0.175329,0.693493,0.927215,-0.231316,1.289193,0.911515,-0.267626,0.923356,0.0014149999999999,0.001186,1.076644,-0.0014149999999999,-0.0011859999999999,0.836603,-0.1651949999999999,-0.305826,1.1173829999999998,-0.169775,-0.3188459999999999,0.873523,-0.515595,-0.180953,1.102343,-0.518595,-0.176857
115,0.9984975,0.7092,-0.104705,0.8597835,0.48034,-0.096755,0.7393535,0.7118599999999999,-0.159557,1.1358935,0.48584,-0.093071,1.2465035,0.6995899999999999,-0.164835,0.6998835,0.93436,-0.225389,1.2918635,0.91791,-0.256279,0.9239605,0.0015699999999999,0.0009959999999999,1.0760395,-0.00157,-0.0009959999999999,0.8389335,-0.18381,-0.294979,1.1171635,-0.18707,-0.307999,0.8729335,-0.5403500000000001,-0.175972,1.1026935,-0.54287,-0.172649
116,0.9996135,0.712975,-0.0968975,0.8598835,0.484025,-0.0908525,0.7423735,0.713875,-0.1525405,1.1367634999999998,0.488445,-0.0861185,1.2476535,0.704705,-0.1561525,0.7045035,0.936945,-0.2192485,1.2948935,0.927675,-0.2456985,0.9244945,0.0015949999999999,0.0007904999999999,1.0755055,-0.001595,-0.0007904999999999,0.8412135000000001,-0.198765,-0.2845885,1.1172535,-0.202125,-0.2973385,0.8727235,-0.5614750000000001,-0.1711945,1.1031135,-0.563455,-0.1677175
117,1.000361,0.717315,-0.0889895,0.859888,0.4864949999999999,-0.0848475,0.745458,0.7143849999999999,-0.1451764999999999,1.137548,0.491195,-0.0789945,1.248518,0.706185,-0.1467465,0.708688,0.941045,-0.2128445,1.297908,0.934865,-0.2350045,0.925002,0.0014049999999999,0.0006674999999999,1.074998,-0.001405,-0.0006675,0.8434380000000001,-0.213305,-0.2738045,1.117348,-0.216175,-0.2859545,0.872498,-0.5816950000000001,-0.1662525,1.103478,-0.583055,-0.1622515
118,1.001558,0.720395,-0.080894,0.860267,0.489865,-0.078476,0.748127,0.714595,-0.13737,1.138717,0.494375,-0.071205,1.250047,0.707585,-0.136757,0.713237,0.948425,-0.206291,1.300437,0.936605,-0.223301,0.9253650000000001,0.001415,0.0003659999999999,1.0746349999999998,-0.0014149999999999,-0.000366,0.846167,-0.235585,-0.262011,1.117827,-0.2355749999999999,-0.273391,0.872857,-0.604745,-0.160968,1.103967,-0.605555,-0.15636
119,1.0026724999999999,0.7245649999999999,-0.0734249999999999,0.8607015,0.492245,-0.072905,0.7500215,0.7173149999999999,-0.130822,1.1397115,0.495705,-0.0645149999999999,1.2512115,0.7072350000000001,-0.127222,0.7171015000000001,0.951795,-0.2001659999999999,1.3030615,0.941545,-0.212866,0.9257035,0.001145,2.4000000000010124e-05,1.0742965,-0.0011449999999999,-2.3999999999996247e-05,0.8486115,-0.255235,-0.251256,1.1181615,-0.252835,-0.261576,0.8732815,-0.6244449999999999,-0.156262,1.1045515,-0.624795,-0.151301
120,1.0037284999999998,0.729788,-0.0659635,0.8610774999999999,0.494828,-0.0667865,0.7514875,0.719508,-0.1236095,1.1408475,0.4981279999999999,-0.0568105,1.2526774999999999,0.711708,-0.1165005,0.7209075,0.954648,-0.1932655,1.3059775,0.946258,-0.2003855,0.9261595,0.0008299999999999,-0.0004595,1.0738405,-0.0008299999999999,0.0004595,0.8511975,-0.275662,-0.2384254999999999,1.1183475,-0.271472,-0.2474755,0.8738675,-0.644872,-0.1507405,1.1053175,-0.644722,-0.1455624999999999
121,1.004862,0.732459,-0.054062,0.861708,0.495589,-0.056284,0.752908,0.721719,-0.111762,1.143068,0.501209,-0.043753,1.254408,0.713619,-0.101267,0.7245980000000001,0.955519,-0.181819,1.309098,0.949029,-0.183059,0.926811,0.0010229999999999,-0.001182,1.073189,-0.001023,0.001182,0.854848,-0.297821,-0.215669,1.117538,-0.292431,-0.224379,0.874718,-0.667411,-0.139398,1.106348,-0.6667609999999999,-0.134048
122,1.0057675,0.7346210000000001,-0.042783,0.8621775,0.496231,-0.046275,0.7540775,0.7206710000000001,-0.100323,1.1451675,0.503631,-0.031289,1.2559775,0.712671,-0.0865,0.7280675,0.956171,-0.170576,1.3118174999999999,0.951831,-0.166196,0.9274185,0.0010229999999999,-0.001867,1.0725815,-0.001023,0.001867,0.8583975,-0.318449,-0.193506,1.1167574999999998,-0.312069,-0.2018059999999999,0.8754975,-0.688319,-0.128313,1.1073575,-0.687349,-0.12291
123,1.0065659999999998,0.7346905,-0.0327094999999999,0.862542,0.4969405,-0.0371214999999999,0.754882,0.7244905,-0.0899194999999999,1.146992,0.5061605,-0.0199344999999999,1.2572619999999999,0.7173205,-0.0736324999999999,0.729462,0.9587705,-0.1602135,1.312872,0.9513605,-0.1504635,0.92795,0.0007374999999999,-0.0020924999999999,1.07205,-0.0007374999999999,0.0020925,0.861532,-0.3351995,-0.1727835,1.116002,-0.3279995,-0.1808634999999999,0.8764419999999999,-0.7047295,-0.1183454999999999,1.108482,-0.7034095,-0.1124724999999999
124,1.007306,0.7350595,-0.0229645,0.86279,0.4952995,-0.0284405,0.75557,0.7279895,-0.0807535,1.14847,0.5080994999999999,-0.0091954999999999,1.25857,0.7203394999999999,-0.0617875,0.7302,0.9593395,-0.1504715,1.3136999999999999,0.9518495,-0.1358915,0.928402,0.0004264999999999,-0.0023975,1.071598,-0.0004264999999999,0.0023974999999999,0.86449,-0.3506805,-0.1519115,1.11519,-0.3420305,-0.1599715,0.87729,-0.7192805000000001,-0.1085105,1.10951,-0.7175305000000001,-0.1022785
125,1.0081369999999998,0.734687,-0.0136055,0.862951,0.495147,-0.0198765,0.756391,0.7311669999999999,-0.0719685,1.149801,0.508737,0.0010175,1.259551,0.725047,-0.0505585,0.731041,0.961637,-0.1407045,1.3146010000000001,0.950707,-0.1220845,0.9286540000000001,0.000202,-0.0027445,1.071346,-0.0002019999999999,0.0027445,0.867491,-0.3657229999999999,-0.1314945,1.114621,-0.354373,-0.1392145,0.878271,-0.732423,-0.0989885,1.110641,-0.7301930000000001,-0.0921115
126,1.0085125,0.7343285,-0.0041695,0.8629585,0.4949085,-0.0116305,0.7571485,0.7343885,-0.0633065,1.1511185,0.5099285,0.0112805,1.2605985,0.7295185,-0.0395995,0.7319085000000001,0.9611385,-0.1307444999999999,1.3155385,0.9505085,-0.1078025,0.9287755,7.150000000000038e-05,-0.0031385,1.0712245,-7.149999999999865e-05,0.0031385,0.8708985,-0.3820314999999999,-0.1114435,1.1141985,-0.3667114999999999,-0.1192845,0.8793185,-0.7457315,-0.0895905,1.1118885,-0.7419315,-0.0823745
127,1.008543,0.733178,0.0053025,0.862791,0.4947279999999999,-0.0034944999999999,0.756861,0.7377779999999999,-0.0547335,1.152261,0.5109279999999999,0.0210365,1.261151,0.732748,-0.0292325,0.732591,0.956828,-0.1204775,1.316171,0.947338,-0.0940044999999999,0.928856,-5.9000000000000025e-05,-0.0034925,1.071144,5.9000000000000025e-05,0.0034925,0.874271,-0.397482,-0.0913824999999999,1.113921,-0.378352,-0.0993995,0.880241,-0.757822,-0.0802475,1.112911,-0.752202,-0.0722604999999999
128,1.0086245,0.7313084999999999,0.0152284999999999,0.8628985,0.4932985,0.0051105,0.7561785,0.7401985,-0.0453924999999999,1.1534185,0.5119985,0.0310965,1.2617885,0.7357885,-0.0185445,0.7331585,0.9529285,-0.1097595,1.3158485,0.9447585,-0.0789045,0.9287635,-0.0002195,-0.0037884999999999,1.0712365,0.0002194999999999,0.0037885,0.8776585000000001,-0.4127015,-0.0704975,1.1139085,-0.3896115,-0.0783575,0.8812685000000001,-0.7695514999999999,-0.0702425,1.1140984999999999,-0.7621914999999999,-0.0610434999999999
129,1.0083799999999998,0.728799,0.0245795,0.8630010000000001,0.491459,0.0130425,0.755071,0.7415889999999999,-0.0363645,1.154271,0.512539,0.0402825,1.262351,0.735289,-0.0090335,0.733291,0.950469,-0.0987805,1.315031,0.943099,-0.0652025,0.92844,-0.0002349999999999,-0.0040234999999999,1.07156,0.0002349999999999,0.0040235,0.880551,-0.426181,-0.0513455,1.113931,-0.3994709999999999,-0.0593815,0.882251,-0.779381,-0.0608424999999999,1.114941,-0.770321,-0.0500995
130,1.0075744999999998,0.7278355,0.029059,0.8627275,0.4912855,0.016122,0.7535675,0.7430955,-0.031841,1.1545075,0.5116355,0.043657,1.2617975000000001,0.7368855,-0.0034939999999999,0.7323675000000001,0.9508755,-0.09127,1.3127775,0.9441655,-0.056592,0.9282555,-0.0007554999999999,-0.0040409999999999,1.0717445,0.0007554999999999,0.004041,0.8819975,-0.4292745,-0.0424859999999999,1.1142675,-0.4020045,-0.0500489999999999,0.8827175,-0.7831145,-0.05721,1.1155475,-0.7729945,-0.044249
131,1.0066864999999998,0.7269835,0.0333725,0.8624175000000001,0.4909734999999999,0.0189885,0.7519275,0.7444335,-0.0271775,1.1547075,0.5110034999999999,0.0470194999999999,1.2609675,0.7381734999999999,0.0022524999999999,0.7313075,0.9513835,-0.0837395,1.3101474999999998,0.9451235,-0.0481445,0.9281155,-0.0010884999999999,-0.0041325,1.0718845,0.0010884999999999,0.0041324999999999,0.8833675,-0.4319565,-0.0337285,1.1145574999999999,-0.4041865,-0.0409715,0.8830575,-0.7864165000000001,-0.0537455,1.1161775,-0.7751765,-0.0382775
132,1.0056755,0.7267985,0.0373759999999999,0.8620485,0.4903484999999999,0.0216709999999999,0.7505785,0.7432485,-0.022322,1.1548685,0.5104385,0.0501739999999999,1.2594185,0.7389485,0.0082139999999999,0.7299185,0.9501685,-0.076052,1.3069185,0.9463385,-0.039881,0.9279975,-0.0011195,-0.004431,1.0720025,0.0011195,0.0044309999999999,0.8845785,-0.4333815,-0.026247,1.1147985,-0.4056115,-0.032852,0.8833585,-0.7888615,-0.050328,1.1169385,-0.7771915,-0.033256
133,1.00442,0.7260409999999999,0.0409575,0.861455,0.489541,0.0244145,0.748955,0.742401,-0.0168304999999999,1.154315,0.5096809999999999,0.0532105,1.257735,0.738831,0.0144845,0.7279249999999999,0.949321,-0.0679865,1.303405,0.948021,-0.0315885,0.927843,-0.001177,-0.0048015,1.072157,0.0011769999999999,0.0048015,0.885545,-0.434069,-0.0202325,1.115475,-0.4060589999999999,-0.0264905,0.883485,-0.7909390000000001,-0.0471845,1.117655,-0.778039,-0.0287945
134,1.0030115,0.7255689999999999,0.0444795,0.8607885,0.489069,0.0271475,0.7471885,0.7419290000000001,-0.0113074999999999,1.1536885,0.5092289999999999,0.0561385,1.2559685,0.7392890000000001,0.0207515,0.7256585000000001,0.948849,-0.0598844999999999,1.2998985,0.949329,-0.0234484999999999,0.9277485,-0.0011789999999999,-0.0051874999999999,1.0722515,0.0011789999999999,0.0051875,0.8863585,-0.434281,-0.0149074999999999,1.1160785,-0.406071,-0.0209545,0.8835585,-0.7926310000000001,-0.0441125,1.1182884999999998,-0.779061,-0.0245374999999999
135,1.0019619999999998,0.7252554999999999,0.047276,0.860349,0.4887555,0.029619,0.745769,0.7415155,-0.006346,1.153249,0.5089155,0.05864,1.254149,0.7398655,0.026198,0.7237290000000001,0.9481455,-0.052217,1.297099,0.9506155,-0.016167,0.927677,-0.0011984999999999,-0.0056089999999999,1.072323,0.0011985,0.0056089999999999,0.886729,-0.4341845,-0.0101769999999999,1.116689,-0.4061645,-0.015834,0.883619,-0.7934345,-0.041037,1.1187289999999999,-0.7801445,-0.020614
136,1.00087,0.7251275,0.0499369999999999,0.859878,0.4882374999999999,0.031946,0.744308,0.7404375000000001,-0.001405,1.152878,0.5085375000000001,0.061005,1.252348,0.7383175000000001,0.031611,0.721668,0.9466375,-0.0448579999999999,1.294378,0.9518875,-0.009258,0.927608,-0.0012365,-0.0059859999999999,1.072392,0.0012364999999999,0.005986,0.886848,-0.4342125,-0.006732,1.1173579999999999,-0.4062125,-0.011989,0.883618,-0.7940024999999999,-0.038345,1.119168,-0.7807824999999999,-0.01713
137,0.9997805,0.7248975,0.0519565,0.8593685,0.4875474999999999,0.0337575,0.7428785,0.7393974999999999,0.0028975,1.1524285,0.5078975,0.0629025,1.2505985,0.7373675,0.0363165,0.7195085,0.9452675,-0.0387724999999999,1.2922185,0.9529875,-0.0036034999999999,0.9275135,-0.0012505,-0.0063254999999999,1.0724865,0.0012504999999999,0.0063255,0.8868885,-0.4340725,-0.0049575,1.1177584999999999,-0.4065924999999999,-0.0102044999999999,0.8835585,-0.7945325000000001,-0.0364544999999999,1.1194885,-0.7814625000000001,-0.0150244999999999
138,0.9987235000000001,0.7248585000000001,0.0537245,0.8588285000000001,0.4875084999999999,0.0354025,0.7414685,0.7388984999999999,0.0067165,1.1519485,0.5078685000000001,0.0646035,1.2487685,0.7370684999999999,0.0406785,0.7174484999999999,0.9438885,-0.0337775,1.2902385,0.9539485,0.0015535,0.9274025,-0.0012595,-0.0065955,1.0725975,0.0012594999999999,0.0065955,0.8868985,-0.4333015,-0.0039274999999999,1.1180585,-0.4065615,-0.0090645,0.8833585,-0.7947515,-0.0350375,1.1197485,-0.7814515,-0.0136184999999999
139,0.997761,0.7242855,0.055318,0.858294,0.4870055,0.036771,0.7402340000000001,0.7380755,0.009827,1.151484,0.5072355000000001,0.065946,1.247864,0.7360255,0.043717,0.7155940000000001,0.9429755,-0.029738,1.288954,0.9548055,0.00541,0.927292,-0.0012745,-0.006813,1.072708,0.0012744999999999,0.006813,0.886864,-0.4326545,-0.0031839999999999,1.118234,-0.4065645,-0.0082689999999999,0.883194,-0.7947845,-0.034095,1.119934,-0.7814544999999999,-0.0126589999999999
140,0.9967355,0.7234214999999999,0.056724,0.8576645,0.4863115,0.037981,0.7389945,0.7370114999999999,0.0125569999999999,1.1509345,0.5065215,0.067101,1.2472245,0.7349715,0.046193,0.7136945,0.9421215,-0.026043,1.2878045,0.9553415,0.0087159999999999,0.9272535,-0.0013084999999999,-0.0070339999999999,1.0727465,0.0013085,0.0070339999999999,0.8866845,-0.4323085,-0.002617,1.1183145,-0.4066085,-0.0076649999999999,0.8830145000000001,-0.7949185,-0.033268,1.1199245,-0.7819085,-0.011885
141,0.9958410000000001,0.722657,0.0579215,0.8570580000000001,0.485747,0.0389525,0.7379180000000001,0.736147,0.0145944999999999,1.150438,0.505937,0.0680014999999999,1.246608,0.734267,0.0476075,0.7119880000000001,0.941387,-0.0233065,1.2870279999999998,0.955587,0.0108034999999999,0.927245,-0.0013649999999999,-0.0072165,1.072755,0.0013649999999999,0.0072164999999999,0.886518,-0.432013,-0.0022375,1.118378,-0.406553,-0.0072435,0.882898,-0.795113,-0.0327615,1.119888,-0.782053,-0.0114165
142,0.995078,0.7219195,0.058835,0.856515,0.4852795,0.039728,0.7370750000000001,0.7355095,0.016024,1.149965,0.5054695,0.068738,1.246295,0.7343995,0.04812,0.710635,0.9408295,-0.021632,1.2864849999999999,0.9557395,0.011901,0.92725,-0.0014194999999999,-0.0073789999999999,1.07275,0.0014195,0.007379,0.886335,-0.4316605,-0.0023499999999999,1.1183949999999998,-0.4066705,-0.006974,0.882835,-0.7953505,-0.032353,1.119855,-0.7825805,-0.0118759999999999
143,0.9944950000000001,0.7217235000000001,0.0591055,0.85616,0.4851035,0.0399945,0.73644,0.7353135000000001,0.0162955,1.14974,0.5052735,0.0690025,1.2462,0.7351335,0.0483825,0.70949,0.9406435,-0.0213524999999999,1.28639,0.9557435,0.0121635,0.9272670000000001,-0.0014254999999999,-0.0075145,1.072733,0.0014255,0.0075145,0.88619,-0.4309465,-0.0025984999999999,1.1182999999999998,-0.4068165,-0.0066895,0.88274,-0.7954665,-0.0319635,1.11975,-0.7827664999999999,-0.0120305
144,0.9939895,0.721649,0.0593734999999999,0.8558445,0.485039,0.0402595,0.7358345,0.735239,0.0165655,1.1495345,0.505199,0.0692665,1.2462045,0.735209,0.0486425,0.7085445,0.940659,-0.0210775,1.2863945,0.956069,0.0124235,0.9272655,-0.001447,-0.0075885,1.0727345,0.0014469999999999,0.0075885,0.8861545,-0.430251,-0.0029554999999999,1.1183044999999998,-0.406761,-0.0064575,0.8826745,-0.7955110000000001,-0.0317024999999999,1.1197545,-0.7827409999999999,-0.0118675
145,0.9935635,0.721608,0.059649,0.8555885,0.484998,0.040532,0.7352585,0.735208,0.016843,1.1494285,0.505158,0.069536,1.2464085,0.736048,0.048908,0.7078385,0.940828,-0.0207969999999999,1.2863485,0.956228,0.012693,0.9272645,-0.001458,-0.007646,1.0727355,0.001458,0.007646,0.8861384999999999,-0.429512,-0.0033359999999999,1.1183085,-0.406632,-0.006232,0.8826485,-0.7955220000000001,-0.0314399999999999,1.1197484999999998,-0.782782,-0.0116969999999999
146,0.9931065000000001,0.7208789999999999,0.0590785,0.8554045,0.484959,0.0409215,0.7347645,0.734509,0.0171685,1.1493545,0.504929,0.0696505,1.2466545,0.737749,0.0477475,0.7072845000000001,0.939789,-0.0206844999999999,1.2860545,0.955159,0.0119065,0.9272655,-0.0014399999999999,-0.0075884999999999,1.0727345,0.00144,0.0075885,0.8859345,-0.429371,-0.0037174999999999,1.1182645,-0.406721,-0.0059034999999999,0.8823145,-0.795641,-0.0311294999999999,1.1194745,-0.783501,-0.0113844999999999
147,0.9923135000000001,0.7202605,0.057581,0.8547895,0.4852805,0.0413,0.7339895000000001,0.7333805,0.0171139999999999,1.1488695,0.5045805,0.069199,1.2466595,0.7382105,0.04562,0.7064495,0.9381205,-0.0217419999999999,1.2857995,0.9537505,0.0100619999999999,0.9272715,-0.0014894999999999,-0.007518,1.0727285,0.0014894999999999,0.007518,0.8856995,-0.4300795,-0.004296,1.1182095,-0.4066694999999999,-0.00542,0.8818495000000001,-0.7958995,-0.030846,1.1190495,-0.7839695,-0.0109959999999999
148,0.9914455000000001,0.7196389999999999,0.055183,0.8537795,0.485889,0.041484,0.7330695,0.731329,0.016537,1.1481295,0.5042089999999999,0.068174,1.2465595,0.736319,0.042829,0.7054895,0.936269,-0.0234119999999999,1.2857695,0.952179,0.007033,0.9272665,-0.0015649999999999,-0.007474,1.0727335,0.001565,0.007474,0.8853695,-0.430921,-0.005046,1.1181195,-0.406721,-0.0049769999999999,0.8813995,-0.796181,-0.030501,1.1187195,-0.784791,-0.0103829999999999
