sb224sc-HT22-VT27/4dt907/src/ml-research/a10/datafiles/kinect_good_preprocessed_A9_mediapipe/A3_kinect_mirrored.csv
FrameNo,nose_3d_x,nose_3d_y,nose_3d_z,left_shoulder_3d_x,left_shoulder_3d_y,left_shoulder_3d_z,left_elbow_3d_x,left_elbow_3d_y,left_elbow_3d_z,right_shoulder_3d_x,right_shoulder_3d_y,right_shoulder_3d_z,right_elbow_3d_x,right_elbow_3d_y,right_elbow_3d_z,left_wrist_3d_x,left_wrist_3d_y,left_wrist_3d_z,right_wrist_3d_x,right_wrist_3d_y,right_wrist_3d_z,left_hip_3d_x,left_hip_3d_y,left_hip_3d_z,right_hip_3d_x,right_hip_3d_y,right_hip_3d_z,left_knee_3d_x,left_knee_3d_y,left_knee_3d_z,right_knee_3d_x,right_knee_3d_y,right_knee_3d_z,left_ankle_3d_x,left_ankle_3d_y,left_ankle_3d_z,right_ankle_3d_x,right_ankle_3d_y,right_ankle_3d_z
55,1.009317,0.7258265,0.0611204999999999,0.8591000000000001,0.4822065,0.0636915,0.7597300000000001,0.7370465,0.0587245,1.1626400000000001,0.5085265,0.0560325,1.2551299999999999,0.7229865,0.0238415,0.72906,0.9734065,0.0260675,1.2782,0.9745065,-0.0210525,0.927497,0.0003524999999999,0.0025424999999999,1.072503,-0.0003525,-0.0025424999999999,0.8851100000000001,-0.4565135,0.0214585,1.11501,-0.4271835,-0.0160015,0.88102,-0.8000935,-0.0044655,1.11681,-0.7942235,-0.0281735
56,1.010038,0.725768,0.0601339999999999,0.859504,0.483098,0.063266,0.759584,0.737618,0.058238,1.1628939999999999,0.508428,0.055201,1.256114,0.723948,0.023289,0.728764,0.973438,0.0253609999999999,1.279064,0.974738,-0.021685,0.9274060000000001,0.000264,0.0022659999999999,1.0725939999999998,-0.000264,-0.002266,0.8845840000000001,-0.456832,0.019289,1.114794,-0.427552,-0.017621,0.8810640000000001,-0.800492,-0.00586,1.1170239999999998,-0.794242,-0.030063
57,1.010672,0.7259059999999999,0.0588999999999999,0.8598330000000001,0.484576,0.062808,0.759523,0.737466,0.05737,1.163023,0.508486,0.054233,1.257303,0.7262759999999999,0.022458,0.7283729999999999,0.974246,0.0244619999999999,1.279593,0.975046,-0.022638,0.927254,0.0002059999999999,0.002004,1.072746,-0.0002059999999999,-0.0020039999999999,0.883883,-0.456424,0.016724,1.1145829999999999,-0.4274739999999999,-0.0196159999999999,0.880973,-0.800204,-0.007595,1.117273,-0.793814,-0.032527
58,1.0111919999999999,0.7260605,0.057548,0.859795,0.4851904999999999,0.062109,0.759285,0.7373805,0.056275,1.162925,0.5085805,0.053095,1.258535,0.7294805,0.02118,0.727795,0.9753005,0.023239,1.2798049999999999,0.9755005,-0.0240749999999999,0.927117,0.0001614999999999,0.001682,1.072883,-0.0001615,-0.0016819999999999,0.883065,-0.4559695,0.013601,1.114375,-0.4276095,-0.02218,0.880655,-0.7999095,-0.0098369999999999,1.117135,-0.7932495,-0.0353669999999999
59,1.011708,0.726135,0.055788,0.859854,0.485185,0.0611609999999999,0.758994,0.737335,0.054818,1.1627939999999999,0.508635,0.051667,1.259234,0.729135,0.019476,0.7272339999999999,0.975875,0.02156,1.279844,0.975675,-0.026018,0.927006,0.000128,0.0014839999999999,1.072994,-0.0001279999999999,-0.0014839999999999,0.882144,-0.455615,0.009859,1.114094,-0.4282249999999999,-0.025466,0.880214,-0.799845,-0.0128379999999999,1.1166939999999999,-0.792765,-0.03786
60,1.0119505,0.7260835,0.0532415,0.8596965,0.4852035,0.0594785,0.7583965,0.7366134999999999,0.0529655,1.1624065,0.5086134999999999,0.0494875,1.2595965,0.7290935,0.0166935,0.7263265,0.9767235,0.0187085,1.2794765,0.9757235,-0.0292735,0.9268915000000001,0.0001115,0.0013105,1.0731084999999998,-0.0001115,-0.0013105,0.8809565,-0.4552965,0.0045045,1.1134665,-0.4280965,-0.0304555,0.8796765,-0.7997965,-0.0172225,1.1164265,-0.7918865,-0.0423895
61,1.0120354999999999,0.7256724999999999,0.05034,0.8594984999999999,0.4855625,0.057326,0.7576685,0.7354825,0.050436,1.1618784999999998,0.5088524999999999,0.046691,1.2594085,0.7294025,0.013346,0.7252285,0.9771025,0.015217,1.2789785,0.9761025,-0.033229,0.9267865,0.0001144999999999,0.0012269999999999,1.0732135,-0.0001145,-0.001227,0.8794885,-0.4538675,-0.002502,1.1127285,-0.4275875,-0.036816,0.8790185,-0.7993675,-0.022201,1.1160085,-0.7905975000000001,-0.0477029999999999
62,1.011975,0.7245945,0.0469645,0.8592560000000001,0.4864445,0.0550615,0.756726,0.7348745000000001,0.0471725,1.161266,0.5084045,0.0439825,1.258996,0.7298745000000001,0.0094005,0.723706,0.9780545,0.0110415,1.278266,0.9769545,-0.0379305,0.926715,0.0002655,0.0010625,1.073285,-0.0002655,-0.0010625,0.877846,-0.4512255,-0.0108635,1.111986,-0.4266355,-0.0446495,0.878206,-0.7981855,-0.0277835,1.115296,-0.7884255,-0.0534245
63,1.0117905,0.723584,0.043575,0.8589645000000001,0.4874539999999999,0.05264,0.7557145000000001,0.734144,0.043769,1.1605245,0.507784,0.041267,1.2585145,0.730484,0.005373,0.7219245000000001,0.979154,0.006691,1.2775245,0.977654,-0.042711,0.9266755,0.0004299999999999,0.000961,1.0733245,-0.00043,-0.000961,0.8762945,-0.447666,-0.019633,1.1116245,-0.425116,-0.053297,0.8775145,-0.796566,-0.033489,1.1148445,-0.786176,-0.059569
64,1.011474,0.7222005,0.040188,0.858627,0.4880305,0.050341,0.754577,0.7335705,0.040344,1.159697,0.5072205000000001,0.038563,1.2574269999999999,0.7276405,0.001238,0.7200770000000001,0.9801705,0.002154,1.276767,0.9785705,-0.047636,0.9266590000000001,0.0005775,0.000952,1.0733409999999999,-0.0005775,-0.0009519999999999,0.874857,-0.4441495,-0.0285659999999999,1.111367,-0.4235994999999999,-0.062244,0.876827,-0.7947394999999999,-0.039149,1.114047,-0.7841595,-0.0650989999999999
65,1.0109835,0.7210230000000001,0.036862,0.8584825,0.4885829999999999,0.0474539999999999,0.7536125000000001,0.733583,0.036834,1.1587925000000001,0.506243,0.0358459999999999,1.2572125,0.727673,-0.002997,0.7183125,0.981993,-0.002397,1.2760225,0.980293,-0.052471,0.9266215,0.0006159999999999,0.0010469999999999,1.0733785,-0.000616,-0.001047,0.8734025000000001,-0.440137,-0.037902,1.1113525,-0.421517,-0.071683,0.8762125000000001,-0.792047,-0.044725,1.1132425,-0.7824169999999999,-0.070385
66,1.0105105,0.7194745,0.0333879999999999,0.8582335,0.4898345,0.044292,0.7526635,0.7332145000000001,0.033158,1.1578635,0.5051045000000001,0.0327429999999999,1.2570635000000001,0.7275145000000001,-0.007681,0.7165835,0.9844345,-0.007219,1.2754735,0.9790345,-0.057486,0.9265945,0.0006275,0.0011709999999999,1.0734055,-0.0006274999999999,-0.001171,0.8718435,-0.4357555,-0.047952,1.1114635,-0.4185555,-0.0818,0.8756035,-0.7884555,-0.050416,1.1124235,-0.7786955,-0.0758969999999999
67,1.0099405,0.7179329999999999,0.0295375,0.8578445,0.4908629999999999,0.0409055,0.7516145,0.732393,0.0291745,1.1570845,0.503873,0.0295044999999999,1.2565344999999999,0.725963,-0.0124495,0.7148945000000001,0.986893,-0.0121465,1.2748045000000001,0.978493,-0.0626625,0.9265525,0.0007139999999999,0.0012324999999999,1.0734474999999999,-0.0007139999999999,-0.0012325,0.8700945,-0.430127,-0.0589575,1.1116245,-0.414017,-0.0928065,0.8749045,-0.7835570000000001,-0.0561725,1.1115445,-0.773657,-0.0814505
68,1.0093285,0.7165975,0.0259855,0.8571405,0.4900975,0.0375605,0.7504205000000002,0.7312974999999999,0.0251395,1.1562405,0.5022074999999999,0.0263885,1.2556805,0.7246975,-0.0170294999999999,0.7131105,0.9898175,-0.0168894999999999,1.2738905,0.9787175,-0.0677625,0.9264975,0.0008524999999999,0.0012584999999999,1.0735025,-0.0008525,-0.0012584999999999,0.8684205,-0.4232424999999999,-0.0699915,1.1116705,-0.4085125,-0.1038755,0.8743905,-0.7774225,-0.0615055,1.1106505,-0.7671125000000001,-0.0868935
69,1.0087445,0.7148905,0.023148,0.8565895,0.4886505,0.035028,0.7495095,0.7316205,0.0212149999999999,1.1553795,0.5005005,0.023862,1.2552195,0.7234705,-0.0210279999999999,0.7120495,0.9919605,-0.0207919999999999,1.2730595,0.9790605,-0.072256,0.9264965000000001,0.0009305,0.0012959999999999,1.0735035,-0.0009305,-0.0012959999999999,0.8666395,-0.4151695,-0.080006,1.1117995,-0.4017295,-0.113756,0.8735094999999999,-0.7708495000000001,-0.065811,1.1101095,-0.7604995,-0.0913809999999999
70,1.0081475,0.7134735,0.0204905,0.8561084999999999,0.4878034999999999,0.0329515,0.7486385,0.7318935,0.0177365,1.1545684999999999,0.4985035,0.0217875,1.2551685,0.7217135,-0.0247934999999999,0.7109885,0.9933735,-0.0243664999999999,1.2722585,0.9795735,-0.0765214999999999,0.9264815,0.0010084999999999,0.0012405,1.0735185,-0.0010085,-0.0012404999999999,0.8654485000000001,-0.4087565,-0.0888085,1.1117585,-0.3960565,-0.1228375,0.8731885,-0.7637965,-0.0697555,1.1090985,-0.7537665,-0.0954355
71,1.0077585,0.712273,0.018313,0.8558304999999999,0.487043,0.031199,0.7479305,0.731573,0.014933,1.1538305,0.497173,0.019705,1.2553505,0.722073,-0.0279609999999999,0.7103005,0.994193,-0.0275049999999999,1.2717005000000001,0.978623,-0.0807199999999999,0.9264915,0.000958,0.001302,1.0735085,-0.000958,-0.0013019999999999,0.8644905,-0.402237,-0.096504,1.1118505,-0.389807,-0.130606,0.8733305,-0.756877,-0.073135,1.1082005,-0.747227,-0.098745
72,1.00714,0.712939,0.0144715,0.855381,0.488339,0.0283604999999999,0.7471909999999999,0.732349,0.0103395,1.1527910000000001,0.496999,0.0156715,1.253851,0.725159,-0.0318365,0.709341,0.994269,-0.0334364999999999,1.271771,0.977719,-0.0870165,0.926528,0.001018,0.0015295,1.073472,-0.001018,-0.0015294999999999,0.862791,-0.390581,-0.1070005,1.111301,-0.378061,-0.1410285,0.872641,-0.746861,-0.0776815,1.107441,-0.737211,-0.1034525
73,1.006587,0.713248,0.0104324999999999,0.85519,0.490068,0.0253585,0.74644,0.732948,0.0058094999999999,1.15182,0.496898,0.0119044999999999,1.25328,0.726598,-0.0360145,0.7084699999999999,0.993958,-0.0394485,1.2720500000000001,0.975988,-0.0933404999999999,0.926527,0.001054,0.0018314999999999,1.073473,-0.0010539999999999,-0.0018314999999999,0.86109,-0.379052,-0.1171095,1.11075,-0.366362,-0.1510065,0.87216,-0.736882,-0.0822435,1.10691,-0.727072,-0.1083605
74,1.0060085,0.71268,0.0063365,0.8549885,0.49178,0.0223005,0.7457085,0.7328600000000001,0.0011274999999999,1.1507585,0.49735,0.0081475,1.2536485,0.72573,-0.0408315,0.7076085,0.9925,-0.0455675,1.2724785,0.97305,-0.0998894999999999,0.9265105,0.0011999999999999,0.0022324999999999,1.0734895,-0.0011999999999999,-0.0022324999999999,0.8595185000000001,-0.3702499999999999,-0.1288425,1.1099885,-0.35713,-0.1623095,0.8715984999999999,-0.72765,-0.0871625,1.1063585,-0.7177899999999999,-0.1140445
75,1.0056935,0.71335,0.0025459999999999,0.8554365000000002,0.49092,0.0189239999999999,0.7451565,0.73304,-0.0034339999999999,1.1498265,0.49611,0.0045439999999999,1.2543365,0.72584,-0.04536,0.7072065000000001,0.99242,-0.052085,1.2732364999999999,0.97494,-0.106138,0.9264775000000001,0.0016459999999999,0.002563,1.0735225,-0.001646,-0.0025629999999999,0.8575965,-0.35699,-0.140363,1.1099465,-0.3453299999999999,-0.173372,0.8707365,-0.71594,-0.09312,1.1056265,-0.70601,-0.119282
76,1.005552,0.713288,-0.0010474999999999,0.855984,0.4908679999999999,0.0157345,0.7446540000000001,0.733848,-0.0082544999999999,1.1492040000000001,0.495738,0.0012174999999999,1.255134,0.725868,-0.0501435,0.7069540000000001,0.991108,-0.0588475,1.2742040000000001,0.976408,-0.1127825,0.926485,0.001875,0.0032755,1.073515,-0.001875,-0.0032755,0.856434,-0.347102,-0.1511805,1.1089639999999998,-0.337242,-0.1839195,0.870504,-0.704682,-0.0974355,1.105084,-0.694432,-0.1243395
77,1.0054059999999998,0.7129245,-0.0055294999999999,0.8564430000000001,0.4916745,0.0111525,0.744333,0.7344745,-0.0139664999999999,1.148483,0.4952145,-0.0031724999999999,1.255773,0.7256445,-0.0558665,0.7069030000000001,0.9896245,-0.0665385,1.275153,0.9767745,-0.1203944999999999,0.926338,0.0020805,0.0034175,1.0736620000000001,-0.0020804999999999,-0.0034174999999999,0.854573,-0.3351455,-0.1639495,1.108803,-0.3267455,-0.1965135,0.869803,-0.6943255,-0.1041314999999999,1.104623,-0.6837155,-0.1303555
78,1.00519,0.713911,-0.0107399999999999,0.857016,0.4926509999999999,0.0060079999999999,0.7439560000000001,0.735221,-0.0205209999999999,1.147666,0.494911,-0.0080939999999999,1.256256,0.726281,-0.062521,0.706696,0.988861,-0.075275,1.275736,0.978621,-0.1285659999999999,0.926135,0.0025169999999999,0.003525,1.073865,-0.002517,-0.003525,0.852496,-0.321469,-0.177429,1.108536,-0.314579,-0.209449,0.869166,-0.682509,-0.111203,1.103856,-0.671689,-0.1362209999999999
79,1.0049925,0.713344,-0.016045,0.8576155,0.493824,0.000835,0.7438055,0.733284,-0.027291,1.1467455,0.493994,-0.01338,1.2562255,0.725374,-0.069363,0.7065555,0.984354,-0.084224,1.2762955,0.977974,-0.137311,0.9259645,0.0027389999999999,0.003818,1.0740355,-0.002739,-0.003818,0.8501955,-0.308256,-0.192,1.1081155,-0.302696,-0.22354,0.8687355,-0.6718459999999999,-0.118008,1.1035555,-0.6597660000000001,-0.14218
80,1.0047495,0.71499,-0.0227279999999999,0.8579845,0.49393,-0.0054839999999999,0.7436445,0.7337100000000001,-0.0351839999999999,1.1458545,0.49346,-0.0199249999999999,1.2561445,0.7265400000000001,-0.0771429999999999,0.7063845,0.98201,-0.0947739999999999,1.2768445,0.9747,-0.147229,0.9257124999999999,0.002972,0.004306,1.0742875,-0.0029719999999999,-0.0043059999999999,0.8478345,-0.29316,-0.2070239999999999,1.1077645,-0.28857,-0.238394,0.8682045,-0.65928,-0.1257869999999999,1.1034245,-0.64586,-0.1487939999999999
81,1.00461,0.7141084999999999,-0.0283925,0.858487,0.4920685,-0.0107915,0.743657,0.7324385,-0.0417785,1.145267,0.4919685,-0.0253285,1.256297,0.7249085,-0.0833525,0.706287,0.9805185,-0.1026525,1.276967,0.9719685,-0.1549785,0.9254080000000001,0.0031214999999999,0.0045795,1.074592,-0.0031215,-0.0045795,0.8459070000000001,-0.2810515,-0.2188155,1.107777,-0.2776815,-0.2498155,0.868297,-0.6488715,-0.1304585,1.103607,-0.6351515,-0.1541645
82,1.0045445,0.7138,-0.0341805,0.8589085,0.48994,-0.0162625,0.7435885,0.73114,-0.0484455,1.1447885,0.49017,-0.0308535,1.2566385,0.72193,-0.0896035,0.7062885,0.9802,-0.1107365,1.2771985,0.97067,-0.1627035,0.9250735,0.0033399999999999,0.0047324999999999,1.0749265,-0.0033399999999999,-0.0047325,0.8440185,-0.26842,-0.2307675,1.1079085,-0.26626,-0.2613575,0.8684085,-0.63753,-0.1350805,1.1037885,-0.6237900000000001,-0.1594565
83,1.0043734999999998,0.714225,-0.0398265,0.8591325,0.4881149999999999,-0.0217085,0.7432925,0.730475,-0.0549465,1.1442025,0.4881049999999999,-0.0362685,1.2566724999999999,0.7221350000000001,-0.0957865,0.7060425,0.980285,-0.1187805,1.2771625,0.970685,-0.1700345,0.9248015,0.0034549999999999,0.0048114999999999,1.0751985,-0.0034549999999999,-0.0048115,0.8422725,-0.255205,-0.2407065,1.1082325,-0.254375,-0.2710464999999999,0.8685625000000001,-0.6249049999999999,-0.1395395,1.1039525000000001,-0.611765,-0.1639175
84,1.0042125,0.71343,-0.0452775,0.8589905,0.4881,-0.0273604999999999,0.7429405,0.7298,-0.0614455,1.1437005,0.48798,-0.0414915,1.2564405,0.72227,-0.1019235,0.7057405000000001,0.97816,-0.1266644999999999,1.2768705,0.96932,-0.1776355,0.9245165,0.00329,0.0049335,1.0754835,-0.0032899999999999,-0.0049334999999999,0.8410805,-0.24786,-0.2502065,1.1077405,-0.2469799999999999,-0.2803465,0.8695105,-0.61592,-0.1421695,1.1038904999999999,-0.6027199999999999,-0.1677825
85,1.00403,0.713395,-0.0504155,0.858788,0.487375,-0.0327125,0.742578,0.728955,-0.0675844999999999,1.143128,0.486775,-0.0464245,1.2562879999999998,0.722905,-0.1074745,0.705318,0.977545,-0.1343265,1.276398,0.968115,-0.1845804999999999,0.924254,0.0032449999999999,0.0047564999999999,1.075746,-0.0032449999999999,-0.0047564999999999,0.8394080000000002,-0.2377449999999999,-0.2593135,1.108178,-0.236545,-0.2891235,0.869748,-0.606665,-0.1461285,1.103958,-0.593795,-0.1722685
86,1.003569,0.71343,-0.054879,0.858422,0.48629,-0.037354,0.742032,0.72743,-0.073357,1.1424619999999999,0.48646,-0.050462,1.256072,0.72377,-0.112462,0.7043820000000001,0.97705,-0.141674,1.275622,0.96827,-0.190831,0.924177,0.0031599999999999,0.005095,1.075823,-0.0031599999999999,-0.005095,0.8379719999999999,-0.2273099999999999,-0.266655,1.107772,-0.22611,-0.295875,0.869692,-0.5956600000000001,-0.149479,1.1036920000000001,-0.58336,-0.1756599999999999
87,1.003136,0.712175,-0.0585869999999999,0.858127,0.485185,-0.040948,0.741437,0.725665,-0.078303,1.142357,0.485965,-0.0536399999999999,1.255817,0.723875,-0.116713,0.703507,0.975775,-0.147996,1.274877,0.967105,-0.196371,0.924139,0.0028749999999999,0.0054799999999999,1.075861,-0.0028749999999999,-0.0054799999999999,0.836937,-0.221115,-0.27297,1.107397,-0.220065,-0.30206,0.870457,-0.585745,-0.1503519999999999,1.103447,-0.574255,-0.1781229999999999
88,1.00269,0.7121350000000001,-0.0621209999999999,0.8579550000000001,0.483975,-0.04436,0.741105,0.727035,-0.083149,1.141975,0.486355,-0.056706,1.255495,0.725955,-0.120805,0.7026050000000001,0.978695,-0.15403,1.274105,0.967815,-0.201307,0.92407,0.002785,0.005705,1.07593,-0.002785,-0.005705,0.836005,-0.214655,-0.277865,1.107305,-0.213855,-0.306595,0.8711450000000001,-0.575635,-0.151112,1.103355,-0.564925,-0.180589
89,1.0023845,0.7099899999999999,-0.06464,0.8582025,0.48248,-0.046543,0.7409125,0.7255499999999999,-0.087117,1.1417225,0.48638,-0.058932,1.2550325,0.72594,-0.124341,0.7020824999999999,0.97801,-0.158516,1.2737425,0.97355,-0.2052189999999999,0.9239935,0.0025199999999999,0.00585,1.0760065,-0.0025199999999999,-0.0058499999999999,0.8345325,-0.20399,-0.28298,1.1074525,-0.2031899999999999,-0.31129,0.8717625,-0.56453,-0.152257,1.1033325,-0.5545,-0.182072
90,1.0022669999999998,0.7083149999999999,-0.066992,0.8582270000000001,0.480345,-0.048734,0.740637,0.7243649999999999,-0.090788,1.141657,0.486255,-0.061155,1.254887,0.725795,-0.128147,0.701527,0.977645,-0.162781,1.273437,0.978805,-0.209151,0.923887,0.002255,0.0059649999999999,1.076113,-0.002255,-0.0059649999999999,0.833507,-0.1965849999999999,-0.288265,1.1068769999999999,-0.195895,-0.316215,0.872417,-0.5522750000000001,-0.152228,1.103327,-0.5435650000000001,-0.183451
91,1.0019345,0.7068,-0.069363,0.8582145000000001,0.47882,-0.050888,0.7403245,0.72351,-0.094451,1.1413045,0.48511,-0.063475,1.2543345,0.7271000000000001,-0.132097,0.7009845,0.97971,-0.16692,1.2729344999999999,0.9812,-0.213526,0.9239045,0.00206,0.006165,1.0760955,-0.00206,-0.006165,0.8321345,-0.1838999999999999,-0.293575,1.1067745,-0.18321,-0.321575,0.8727345,-0.54036,-0.153948,1.1032345,-0.5312899999999999,-0.184696
92,1.001812,0.7048099999999999,-0.0718399999999999,0.857903,0.47766,-0.0532199999999999,0.7398830000000001,0.72261,-0.0984729999999999,1.141013,0.48452,-0.065748,1.2538129999999998,0.7280800000000001,-0.136021,0.700233,0.97868,-0.171185,1.271993,0.98237,-0.21892,0.923902,0.002,0.00624,1.076098,-0.0019999999999999,-0.0062399999999999,0.830713,-0.17411,-0.29904,1.106463,-0.17369,-0.32702,0.8731329999999999,-0.52644,-0.154449,1.103183,-0.5182499999999999,-0.186021
93,1.0017625,0.703055,-0.074719,0.8575725,0.476515,-0.055859,0.7395125,0.7218450000000001,-0.102753,1.1407225,0.483975,-0.068244,1.2531824999999999,0.7283550000000001,-0.140695,0.6995725000000002,0.977975,-0.175499,1.2708825,0.983695,-0.224855,0.9239585,0.001925,0.0063649999999999,1.0760415,-0.0019249999999999,-0.0063649999999999,0.8292425,-0.163265,-0.304635,1.1059625,-0.1631349999999999,-0.332705,0.8730424999999999,-0.511315,-0.155682,1.1030924999999998,-0.503665,-0.1878429999999999
94,1.0016965,0.70101,-0.0775609999999999,0.8575355,0.47524,-0.058641,0.7390955,0.72081,-0.10685,1.1403055,0.48342,-0.07109,1.2524555,0.72773,-0.145855,0.6990455,0.97631,-0.179397,1.2697055,0.98391,-0.230485,0.9238535,0.00185,0.006535,1.0761465000000001,-0.0018499999999999,-0.0065349999999999,0.8278255000000001,-0.15126,-0.310335,1.1051855,-0.1512199999999999,-0.338615,0.8729255,-0.4939899999999999,-0.15687,1.1028355,-0.4881099999999999,-0.190161
95,1.0016669999999999,0.698805,-0.080119,0.8576750000000001,0.474595,-0.061079,0.7389950000000001,0.7202850000000001,-0.110268,1.139995,0.483095,-0.073774,1.251815,0.727105,-0.150448,0.6987650000000001,0.973795,-0.182509,1.268565,0.983105,-0.235575,0.92371,0.0018449999999999,0.0067149999999999,1.07629,-0.0018449999999999,-0.0067149999999999,0.8266249999999999,-0.140365,-0.315185,1.104255,-0.140325,-0.343765,0.872675,-0.477995,-0.157872,1.1023749999999999,-0.474005,-0.1923969999999999
96,1.001545,0.6967300000000001,-0.08281,0.858066,0.47278,-0.063943,0.7392460000000001,0.71916,-0.113697,1.139576,0.48238,-0.076692,1.251156,0.72628,-0.154975,0.698556,0.9721,-0.185578,1.267316,0.98298,-0.240555,0.923469,0.00178,0.006855,1.076531,-0.00178,-0.006855,0.825306,-0.12873,-0.320075,1.103036,-0.1286899999999999,-0.348875,0.872096,-0.4635,-0.160717,1.101616,-0.45929,-0.194591
97,1.001491,0.69521,-0.085737,0.85859,0.4713,-0.067256,0.74009,0.71638,-0.117247,1.13907,0.47933,-0.080152,1.25041,0.72263,-0.159546,0.6986,0.96994,-0.188724,1.26611,0.97713,-0.24605,0.923254,0.0019699999999999,0.00704,1.076746,-0.00197,-0.00704,0.82396,-0.11553,-0.32505,1.10161,-0.11513,-0.35428,0.87152,-0.44752,-0.164082,1.10072,-0.44299,-0.197062
98,1.0016014999999998,0.6936,-0.0886349999999999,0.8592595000000001,0.47074,-0.0703419999999999,0.7411495,0.71469,-0.1205479999999999,1.1386195,0.47669,-0.0833219999999999,1.2493495,0.71943,-0.163321,0.6989295000000001,0.96896,-0.191458,1.2650394999999999,0.97078,-0.25065,0.9229905,0.00229,0.00711,1.0770095,-0.00229,-0.0071099999999999,0.8230095,-0.10448,-0.32881,1.1004394999999998,-0.10331,-0.3587399999999999,0.8710195000000001,-0.43453,-0.167462,1.0999895,-0.4296,-0.1995849999999999
99,1.0017215,0.69158,-0.0913559999999999,0.8597355,0.47051,-0.073353,0.7421555,0.71334,-0.123628,1.1381255000000001,0.47444,-0.086363,1.2483555,0.7171000000000001,-0.166985,0.6993855,0.96818,-0.194221,1.2640155,0.96549,-0.25485,0.9226145,0.0025,0.0072399999999999,1.0773855,-0.0025,-0.0072399999999999,0.8222855,-0.0930099999999999,-0.33232,1.0994155,-0.09111,-0.36263,0.8703155000000001,-0.41822,-0.169308,1.0992855,-0.4165,-0.201532
100,1.0016794999999998,0.6894750000000001,-0.093868,0.8598205,0.469845,-0.076354,0.7429605,0.7117150000000001,-0.126619,1.1374605,0.473255,-0.089264,1.2473705,0.7160850000000001,-0.170241,0.6999705,0.966835,-0.196874,1.2630905000000001,0.963035,-0.2585699999999999,0.9221705,0.002665,0.0072699999999999,1.0778295,-0.0026649999999999,-0.0072699999999999,0.8217205,-0.0821949999999999,-0.33549,1.0982405,-0.0796549999999999,-0.36599,0.8710305,-0.4072549999999999,-0.172856,1.0985505,-0.405045,-0.203317
101,1.0016494999999999,0.68767,-0.096064,0.8598825,0.46856,-0.0791,0.7438024999999999,0.70875,-0.128981,1.1369925,0.47198,-0.092137,1.2470225,0.71219,-0.173264,0.7009025000000001,0.96512,-0.199001,1.2625925,0.96053,-0.261325,0.9216745,0.0027699999999999,0.0074349999999999,1.0783255,-0.0027699999999999,-0.007435,0.8216924999999999,-0.07194,-0.338075,1.0970125,-0.0687499999999999,-0.368665,0.8725725,-0.39837,-0.176665,1.0979725,-0.3944499999999999,-0.204828
102,1.001623,0.684985,-0.0978199999999999,0.859781,0.46649,-0.0816779999999999,0.7440110000000001,0.705245,-0.1307159999999999,1.136441,0.468592,-0.0952709999999999,1.246891,0.709615,-0.1754249999999999,0.701431,0.962845,-0.200509,1.262381,0.958845,-0.263235,0.921099,0.002975,0.007615,1.078901,-0.002975,-0.0076149999999999,0.821761,-0.0600649999999999,-0.340205,1.095891,-0.055885,-0.370795,0.874541,-0.387865,-0.181271,1.097001,-0.382525,-0.206609
103,1.00165,0.682665,-0.099504,0.859537,0.4651119999999999,-0.084076,0.7440070000000001,0.702315,-0.132246,1.135997,0.4661019999999999,-0.097994,1.246157,0.707635,-0.176508,0.701857,0.962285,-0.202044,1.2618369999999999,0.958345,-0.26492,0.920643,0.0031549999999999,0.0077799999999999,1.079357,-0.003155,-0.00778,0.8219870000000001,-0.048105,-0.34177,1.094997,-0.043925,-0.37202,0.8779370000000001,-0.381335,-0.185683,1.096107,-0.371595,-0.20765
104,1.0016075,0.680685,-0.101081,0.8591995,0.463164,-0.086462,0.7435695,0.699425,-0.133899,1.1355095,0.463395,-0.100738,1.2461195,0.7054050000000001,-0.178405,0.7018694999999999,0.960865,-0.2039,1.2616295,0.957815,-0.26661,0.9202405,0.003315,0.00794,1.0797595,-0.0033149999999999,-0.00794,0.8222495,-0.0359949999999999,-0.34328,1.0940995,-0.0318149999999999,-0.37307,0.8813245,-0.372935,-0.189066,1.0954294999999998,-0.360205,-0.20902
105,1.001846,0.6783699999999999,-0.102377,0.858846,0.4621019999999999,-0.088156,0.743196,0.69819,-0.135747,1.135416,0.460572,-0.103018,1.246046,0.70197,-0.180309,0.701856,0.95851,-0.205647,1.261706,0.95437,-0.267965,0.9200240000000001,0.0036299999999999,0.008115,1.0799759999999998,-0.00363,-0.0081149999999999,0.823096,-0.02426,-0.344595,1.093466,-0.02008,-0.373965,0.8801460000000001,-0.36417,-0.195868,1.0951259999999998,-0.34928,-0.2100699999999999
106,1.0021895,0.6759999999999999,-0.103531,0.8587935000000001,0.460485,-0.089334,0.7429835,0.6984699999999999,-0.137894,1.1356435,0.4601989999999999,-0.104687,1.2469635000000001,0.70147,-0.180932,0.7016835,0.95691,-0.207518,1.2623535,0.9574,-0.26897,0.9197265,0.0036299999999999,0.0081799999999999,1.0802735,-0.00363,-0.00818,0.8241535,-0.01399,-0.34552,1.0931034999999998,-0.00907,-0.37444,0.8792395,-0.35648,-0.202154,1.0947935,-0.33963,-0.210818
107,1.002518,0.673945,-0.104558,0.8588,0.459349,-0.090394,0.74291,0.698205,-0.13945,1.13593,0.459124,-0.106102,1.2476399999999999,0.699875,-0.181269,0.7016100000000001,0.955135,-0.209061,1.26314,0.958975,-0.26952,0.9194599999999999,0.0036749999999999,0.00814,1.08054,-0.0036749999999999,-0.00814,0.82524,-0.0041249999999999,-0.34633,1.0928,0.001475,-0.37482,0.882261,-0.350095,-0.203064,1.09459,-0.330535,-0.211546
108,1.003058,0.672385,-0.105427,0.8589249999999999,0.458383,-0.091158,0.742915,0.698245,-0.139887,1.136385,0.457956,-0.107141,1.248765,0.693875,-0.181278,0.701935,0.953535,-0.209422,1.264245,0.955655,-0.270065,0.919095,0.003915,0.008195,1.080905,-0.003915,-0.008195,0.826545,0.005765,-0.346875,1.092725,0.0121549999999999,-0.375135,0.88415,-0.343765,-0.207876,1.094725,-0.321295,-0.212286
109,1.003679,0.67047,-0.10591,0.859021,0.457611,-0.091524,0.7424310000000001,0.6983,-0.140219,1.137041,0.456969,-0.107773,1.250141,0.6879500000000001,-0.181732,0.702161,0.95206,-0.209764,1.265721,0.95157,-0.270085,0.918729,0.0040899999999999,0.0082849999999999,1.081271,-0.0040899999999999,-0.008285,0.8277910000000002,0.0157499999999999,-0.347225,1.092921,0.0226,-0.375065,0.88671,-0.33705,-0.210163,1.094961,-0.31226,-0.21278
110,1.004262,0.6688700000000001,-0.1061599999999999,0.859027,0.45684,-0.091581,0.7418469999999999,0.6993100000000001,-0.140376,1.137827,0.45553,-0.107999,1.251247,0.68501,-0.181773,0.702297,0.95146,-0.209845,1.268127,0.94222,-0.27014,0.918353,0.00425,0.0083199999999999,1.081647,-0.0042499999999999,-0.0083199999999999,0.828927,0.02603,-0.34747,1.093207,0.03303,-0.37444,0.887548,-0.3296,-0.2143709999999999,1.095187,-0.3035099999999999,-0.2131219999999999
111,1.0046545,0.668275,-0.106236,0.8589735000000001,0.456721,-0.091586,0.7412035,0.696555,-0.140285,1.1384635,0.456127,-0.108115,1.2525635,0.681415,-0.181896,0.7023535000000001,0.948675,-0.20973,1.2706335,0.932215,-0.27016,0.9180265,0.004305,0.0083599999999999,1.0819735,-0.004305,-0.00836,0.8299935,0.0339249999999999,-0.3475,1.0935235,0.041015,-0.3736399999999999,0.8874065,-0.3246849999999999,-0.217279,1.0954635,-0.297305,-0.21348
112,1.0051299999999999,0.6674249999999999,-0.106312,0.858962,0.456528,-0.091583,0.7405619999999999,0.694275,-0.140181,1.139262,0.456364,-0.108243,1.254032,0.678005,-0.182117,0.702322,0.946385,-0.209566,1.273292,0.922495,-0.27029,0.917808,0.0043949999999999,0.0083999999999999,1.082192,-0.004395,-0.0084,0.830932,0.0418949999999999,-0.34739,1.093932,0.0491749999999999,-0.3727,0.888575,-0.318275,-0.216295,1.095792,-0.290815,-0.213606
113,1.005631,0.6667,-0.1063919999999999,0.8588930000000001,0.4565309999999999,-0.0914629999999999,0.7399830000000001,0.6923699999999999,-0.140087,1.140213,0.4563199999999999,-0.1083959999999999,1.256073,0.67475,-0.182616,0.7019230000000001,0.94538,-0.209501,1.2762229999999999,0.91342,-0.27083,0.917627,0.0045099999999999,0.00843,1.082373,-0.00451,-0.0084299999999999,0.8317829999999999,0.0499099999999999,-0.34712,1.094363,0.0573099999999999,-0.3716399999999999,0.889513,-0.31187,-0.214766,1.096163,-0.28411,-0.213254
114,1.006277,0.66613,-0.106199,0.858992,0.456909,-0.090955,0.740022,0.68955,-0.139689,1.1413820000000001,0.456691,-0.107703,1.258042,0.67326,-0.182479,0.7018420000000001,0.94483,-0.209145,1.2792919999999999,0.90689,-0.27133,0.917618,0.00461,0.0083199999999999,1.082382,-0.00461,-0.00832,0.832492,0.05768,-0.34653,1.094922,0.06506,-0.37028,0.8917470000000001,-0.3057899999999999,-0.214996,1.096662,-0.27774,-0.213214
115,1.0070595,0.66492,-0.105216,0.8591525,0.457922,-0.089944,0.7404525,0.68667,-0.13851,1.1426825,0.457274,-0.106564,1.2598025,0.6712400000000001,-0.181785,0.7016225,0.9426,-0.207325,1.2818825,0.90089,-0.271355,0.9177175,0.00472,0.008215,1.0822825,-0.0047199999999999,-0.008215,0.8333125,0.06523,-0.345445,1.0955225,0.07213,-0.368655,0.8922255,-0.2981899999999999,-0.208151,1.0973725,-0.27112,-0.21287
116,1.0079209999999998,0.66405,-0.1039119999999999,0.859438,0.458951,-0.0884399999999999,0.7411480000000001,0.68428,-0.136867,1.1441379999999999,0.4578090000000001,-0.1050439999999999,1.261728,0.66991,-0.180718,0.701678,0.94163,-0.2047529999999999,1.284648,0.89653,-0.270985,0.917875,0.00482,0.008285,1.082125,-0.0048199999999999,-0.0082849999999999,0.834278,0.07389,-0.3438949999999999,1.096118,0.08025,-0.366845,0.893371,-0.2895199999999999,-0.1961609999999999,1.098158,-0.2633899999999999,-0.2124299999999999
117,1.0084635,0.66341,-0.102383,0.8595385,0.4601780000000001,-0.086814,0.7415685000000001,0.68188,-0.134592,1.1453185,0.458181,-0.103389,1.2630785,0.67278,-0.180338,0.7016185000000001,0.94072,-0.20197,1.2871185,0.8968400000000001,-0.270545,0.9180975000000001,0.00482,0.0083449999999999,1.0819025,-0.0048199999999999,-0.008345,0.8348485,0.0826,-0.342025,1.0962185,0.08781,-0.366265,0.8946395,-0.28128,-0.18742,1.0986185,-0.2558299999999999,-0.211618
118,1.008944,0.663175,-0.1004859999999999,0.85949,0.461312,-0.0851109999999999,0.74193,0.679595,-0.1317559999999999,1.14606,0.4586139999999999,-0.1015719999999999,1.2645,0.675675,-0.1804449999999999,0.7016,0.939515,-0.198814,1.2889899999999999,0.897655,-0.2700399999999999,0.918269,0.0047749999999999,0.00842,1.081731,-0.0047749999999999,-0.0084199999999999,0.83531,0.0913649999999999,-0.3399999999999999,1.09628,0.0953549999999999,-0.3654199999999999,0.895244,-0.273425,-0.1801539999999999,1.09906,-0.2483349999999999,-0.2108809999999999
119,1.0093584999999998,0.662845,-0.098521,0.8591995,0.462595,-0.0832609999999999,0.7422095,0.677495,-0.128972,1.1469095,0.459417,-0.0997079999999999,1.2656995,0.678015,-0.179974,0.7014895,0.938105,-0.1958079999999999,1.2900395,0.904295,-0.26954,0.9184455,0.0047249999999999,0.00857,1.0815545,-0.0047249999999999,-0.0085699999999999,0.8354695,0.099895,-0.33768,1.0961795,0.102225,-0.3644199999999999,0.8951515,-0.265475,-0.175373,1.0991295,-0.2416849999999999,-0.209303
120,1.0096345,0.662595,-0.095983,0.8589925,0.464237,-0.080943,0.7420625000000001,0.6797949999999999,-0.127062,1.1476925,0.460449,-0.097572,1.2669825000000001,0.6801349999999999,-0.179218,0.7007925000000002,0.939445,-0.193527,1.2911925,0.911455,-0.268765,0.9186505000000001,0.004615,0.0087749999999999,1.0813495,-0.004615,-0.008775,0.8357125,0.109775,-0.334305,1.0960425,0.106555,-0.363235,0.8966275,-0.2577549999999999,-0.171123,1.0987625,-0.239365,-0.205174
121,1.0098795,0.662715,-0.093341,0.8588205,0.465774,-0.078543,0.7419005000000001,0.681585,-0.125052,1.1483904999999999,0.460547,-0.09543,1.2684205,0.682025,-0.178993,0.6997605,0.940375,-0.191242,1.2923805,0.918295,-0.26792,0.9188405,0.0045749999999999,0.00902,1.0811595,-0.0045749999999999,-0.00902,0.8360205,0.119725,-0.33062,1.0958505,0.110675,-0.3619799999999999,0.8978695,-0.2502249999999999,-0.165585,1.0983005,-0.2372949999999999,-0.200717
122,1.0100414999999998,0.6628499999999999,-0.090768,0.8587184999999999,0.4672589999999999,-0.076128,0.7415285,0.6828,-0.123038,1.1489085,0.4608689999999999,-0.093248,1.2696285,0.6839599999999999,-0.178742,0.6984684999999999,0.94132,-0.189279,1.2935785,0.92452,-0.2673999999999999,0.9189795000000001,0.0044999999999999,0.00927,1.0810205,-0.0045,-0.00927,0.8363484999999999,0.1297799999999999,-0.32665,1.0956685,0.1144199999999999,-0.36072,0.8978845,-0.2419000000000001,-0.161314,1.0977985,-0.23555,-0.196043
123,1.010077,0.6631450000000001,-0.0882179999999999,0.8585100000000001,0.468609,-0.0736719999999999,0.7408399999999999,0.6840950000000001,-0.1211749999999999,1.14939,0.461233,-0.0912219999999999,1.2706,0.6855350000000001,-0.1783449999999999,0.69711,0.941875,-0.1874499999999999,1.29466,0.930055,-0.2668999999999999,0.9190659999999999,0.004345,0.00953,1.080934,-0.0043449999999999,-0.0095299999999999,0.83659,0.139205,-0.32275,1.0953799999999998,0.117395,-0.35951,0.8989930000000002,-0.2343049999999998,-0.153962,1.09722,-0.2344549999999999,-0.191212
124,1.0099135,0.663805,-0.086406,0.8582735,0.4693759999999999,-0.071606,0.7401234999999999,0.685515,-0.119945,1.1497335,0.460985,-0.0895519999999999,1.2711335,0.6873049999999999,-0.178055,0.6959435,0.943575,-0.186396,1.2955135,0.934255,-0.26657,0.9191085,0.0042349999999999,0.00979,1.0808915,-0.0042349999999999,-0.00979,0.8368535,0.1470449999999999,-0.31923,1.0950335,0.1190649999999999,-0.35872,0.8987575000000001,-0.228625,-0.149891,1.0965535,-0.234555,-0.186897
125,1.009808,0.664231,-0.0848999999999999,0.8580960000000001,0.470126,-0.0700919999999999,0.739366,0.686495,-0.1190239999999999,1.1500759999999999,0.460985,-0.0882839999999999,1.2716560000000001,0.688975,-0.1777399999999999,0.694836,0.944565,-0.185245,1.296376,0.937345,-0.266105,0.919133,0.0041149999999999,0.009945,1.080867,-0.0041149999999999,-0.0099449999999999,0.8372760000000001,0.152935,-0.316185,1.094896,0.1196649999999999,-0.358355,0.899136,-0.224065,-0.1485739999999999,1.0961859999999999,-0.235645,-0.1830899999999999
126,1.0097,0.6644180000000001,-0.083475,0.8579230000000001,0.47059,-0.068687,0.738633,0.68726,-0.118225,1.150333,0.46101,-0.0871009999999999,1.2721230000000001,0.6899000000000001,-0.177444,0.6936629999999999,0.94495,-0.18422,1.2971629999999998,0.93965,-0.26569,0.9191680000000001,0.00397,0.01008,1.080832,-0.0039699999999999,-0.0100799999999999,0.8376930000000001,0.15787,-0.3135,1.094733,0.11927,-0.3582999999999999,0.899639,-0.22026,-0.14537,1.095803,-0.2374899999999999,-0.179587
127,1.009615,0.6646270000000001,-0.0821909999999999,0.857839,0.47107,-0.0673639999999999,0.737949,0.68786,-0.1174409999999999,1.150569,0.4608,-0.0860779999999999,1.272549,0.69072,-0.1771289999999999,0.692469,0.94521,-0.183491,1.297869,0.94145,-0.26535,0.9192,0.0039,0.0102099999999999,1.0808,-0.0038999999999999,-0.0102099999999999,0.838049,0.16214,-0.31111,1.094549,0.11798,-0.3585199999999999,0.898413,-0.2174999999999999,-0.1468799999999999,1.0953789999999999,-0.23995,-0.176365
128,1.009393,0.664888,-0.0807539999999999,0.8577640000000001,0.471415,-0.065932,0.737134,0.688345,-0.116376,1.150464,0.461005,-0.084907,1.272684,0.691505,-0.176758,0.691064,0.945675,-0.18279,1.298184,0.943325,-0.26499,0.9192130000000001,0.0038249999999999,0.01031,1.080787,-0.0038249999999999,-0.01031,0.838084,0.166555,-0.30895,1.094184,0.117155,-0.35879,0.8974460000000001,-0.214555,-0.147826,1.095004,-0.242295,-0.173471
129,1.009198,0.665803,-0.080467,0.857637,0.4710750000000001,-0.0651539999999999,0.7365470000000001,0.688505,-0.116031,1.150337,0.460565,-0.084394,1.272837,0.6913950000000001,-0.176739,0.690087,0.945485,-0.182611,1.298377,0.943275,-0.26513,0.91909,0.003875,0.0102899999999999,1.08091,-0.0038749999999999,-0.0102899999999999,0.837997,0.168225,-0.30833,1.093827,0.118825,-0.35856,0.896741,-0.2137749999999999,-0.147983,1.094797,-0.2406249999999999,-0.173261
130,1.0090305,0.6665120000000001,-0.0803769999999999,0.8575395,0.47026,-0.064644,0.7361095,0.6881900000000001,-0.115904,1.1502195,0.4607500000000001,-0.084046,1.2729995,0.69071,-0.176852,0.6894795,0.9448,-0.182671,1.2985795,0.9426,-0.26537,0.9189555,0.00392,0.0102899999999999,1.0810445,-0.0039199999999999,-0.0102899999999999,0.8379695,0.1689400000000001,-0.30827,1.0935095,0.11954,-0.35845,0.8963365000000001,-0.2141899999999998,-0.149365,1.0946295,-0.2399099999999999,-0.173171
131,1.0088875,0.6665120000000001,-0.0803219999999999,0.8574065000000001,0.4694800000000001,-0.064524,0.7358365,0.68805,-0.1158289999999999,1.1502565,0.4607200000000001,-0.0840209999999999,1.2732065000000001,0.6900000000000001,-0.177096,0.6892365,0.9437600000000002,-0.1828969999999999,1.2988165,0.94165,-0.265685,0.9188015,0.00392,0.010275,1.0811985,-0.0039199999999999,-0.0102749999999999,0.8382465,0.1689400000000001,-0.308285,1.0932765,0.11954,-0.358375,0.8961935,-0.2151799999999999,-0.14931,1.0944865,-0.2399099999999999,-0.173116
132,1.00883,0.6665120000000001,-0.0803089999999999,0.857275,0.4688500000000001,-0.064499,0.735625,0.68805,-0.115841,1.150315,0.4607200000000001,-0.0840269999999999,1.273455,0.68966,-0.177395,0.689065,0.94314,-0.183151,1.299115,0.94092,-0.26603,0.9186640000000001,0.00392,0.0103,1.0813359999999999,-0.0039199999999999,-0.0102999999999999,0.8385050000000001,0.16871,-0.30832,1.092905,0.12385,-0.3567099999999999,0.8961010000000001,-0.2150999999999999,-0.148372,1.094505,-0.2349999999999998,-0.175224
133,1.008852,0.6665120000000001,-0.080368,0.857209,0.4684000000000001,-0.064491,0.735499,0.68805,-0.115861,1.150619,0.4607200000000001,-0.084078,1.273739,0.68966,-0.177601,0.688909,0.94294,-0.183431,1.299509,0.9403700000000002,-0.266415,0.9185540000000001,0.00392,0.0103149999999999,1.081446,-0.0039199999999999,-0.010315,0.838709,0.1681,-0.308455,1.092669,0.1277700000000001,-0.355165,0.896389,-0.2153399999999998,-0.146329,1.094589,-0.2302499999999999,-0.177433
134,1.008924,0.667055,-0.080841,0.857168,0.46778,-0.064631,0.7353080000000001,0.68758,-0.116296,1.150908,0.46028,-0.084271,1.274098,0.68919,-0.177979,0.688748,0.94247,-0.18398,1.300028,0.93963,-0.266995,0.9184060000000001,0.0040299999999999,0.010215,1.081594,-0.0040299999999999,-0.010215,0.838678,0.16629,-0.309675,1.092448,0.13096,-0.353915,0.897036,-0.2164599999999999,-0.145726,1.094648,-0.2260499999999999,-0.179995
135,1.008995,0.6675660000000001,-0.081375,0.85722,0.467125,-0.064856,0.73518,0.687235,-0.116921,1.15123,0.459865,-0.084625,1.27439,0.688535,-0.178538,0.68866,0.941815,-0.184685,1.30058,0.938895,-0.26773,0.918278,0.004145,0.01009,1.081722,-0.0041449999999999,-0.01009,0.83868,0.164105,-0.31101,1.09233,0.133785,-0.3528,0.897839,-0.2174049999999999,-0.143918,1.09475,-0.222055,-0.182733
136,1.0089309999999998,0.668105,-0.082141,0.857368,0.4658599999999999,-0.065357,0.735078,0.6868799999999999,-0.117929,1.1515179999999998,0.4590599999999999,-0.085242,1.274318,0.6873699999999999,-0.179346,0.6887380000000001,0.94055,-0.185525,1.3009979999999999,0.93763,-0.26873,0.918172,0.0042799999999999,0.00994,1.081828,-0.00428,-0.00994,0.8386979999999999,0.1611199999999999,-0.31274,1.092348,0.1357299999999999,-0.35231,0.89808,-0.21843,-0.144275,1.094918,-0.21871,-0.185643
137,1.0088315,0.668474,-0.083166,0.8574215000000001,0.46397,-0.066051,0.7348615000000001,0.6867300000000001,-0.119258,1.1514615,0.45833,-0.085975,1.2742115,0.6861,-0.180438,0.6888515,0.93892,-0.186658,1.3008415,0.93574,-0.270105,0.9180865,0.00441,0.009805,1.0819135,-0.00441,-0.009805,0.8384315,0.15809,-0.314775,1.0924315,0.1372,-0.352985,0.8983015,-0.2203199999999999,-0.14655,1.0948915,-0.21597,-0.188611
138,1.0086285,0.6685850000000001,-0.084623,0.8573585,0.462715,-0.0677339999999999,0.7346285,0.686165,-0.121117,1.1512985,0.456795,-0.0871929999999999,1.2739685,0.6848050000000001,-0.182117,0.6889385,0.936665,-0.188291,1.3005585,0.932865,-0.27207,0.9178895,0.004815,0.0097399999999999,1.0821105,-0.0048149999999999,-0.0097399999999999,0.8380785,0.153775,-0.31716,1.0923885,0.137325,-0.3539,0.8974715,-0.2233449999999999,-0.14956,1.0944885,-0.2140649999999999,-0.191267
139,1.00819,0.66927,-0.087266,0.857007,0.46113,-0.070432,0.7339170000000002,0.68774,-0.125053,1.151037,0.45377,-0.088931,1.2733970000000001,0.6826,-0.184292,0.689067,0.93648,-0.191904,1.300127,0.9279,-0.274735,0.917744,0.00534,0.009505,1.082256,-0.00534,-0.009505,0.837587,0.14675,-0.320355,1.092247,0.13465,-0.355035,0.897287,-0.22826,-0.150837,1.094047,-0.21441,-0.194161
140,1.0074055,0.66996,-0.0913259999999999,0.8565465000000001,0.460059,-0.0744359999999999,0.7331465000000001,0.6893199999999999,-0.1298329999999999,1.1503465,0.4507099999999999,-0.092525,1.2724465,0.68129,-0.187052,0.6893865,0.93552,-0.196695,1.2989964999999999,0.92724,-0.2790749999999999,0.9176635,0.00595,0.009235,1.0823365,-0.00595,-0.0092349999999999,0.8368765,0.1335499999999999,-0.325125,1.0919965,0.1266399999999999,-0.356595,0.8979545,-0.23784,-0.152164,1.0936865,-0.2193,-0.1972479999999999
141,1.006551,0.670995,-0.095002,0.856027,0.458105,-0.078403,0.7323770000000001,0.6901349999999999,-0.134299,1.149497,0.4480069999999999,-0.096108,1.270727,0.680285,-0.190443,0.689407,0.936595,-0.201188,1.297937,0.926105,-0.28344,0.917709,0.0060149999999999,0.0089799999999999,1.0822910000000001,-0.0060149999999999,-0.00898,0.836017,0.1190749999999999,-0.3293399999999999,1.091617,0.1145049999999999,-0.35835,0.898022,-0.248395,-0.158563,1.0936569999999999,-0.230205,-0.198415
142,1.0056855,0.671425,-0.09813,0.8557445000000001,0.458135,-0.082029,0.7317945,0.691875,-0.137724,1.1483145,0.449023,-0.099679,1.2701445,0.6792050000000001,-0.193612,0.6893545,0.936475,-0.205067,1.2970745,0.923085,-0.287255,0.9177505,0.005905,0.0086749999999999,1.0822495,-0.0059049999999999,-0.008675,0.8351745000000002,0.102405,-0.333005,1.0914244999999998,0.100345,-0.359715,0.8978035,-0.260285,-0.163776,1.0936845,-0.2431149999999999,-0.199212
143,1.0048615,0.67204,-0.1005289999999999,0.8556145,0.458191,-0.085057,0.7313545,0.69356,-0.140292,1.1471445,0.449767,-0.1025299999999999,1.2695245,0.67727,-0.195998,0.6892145000000001,0.9365,-0.2078209999999999,1.2961445,0.91938,-0.2904799999999999,0.9178215000000001,0.0057899999999999,0.00845,1.0821785,-0.0057899999999999,-0.0084499999999999,0.8344145000000001,0.08494,-0.33552,1.0913944999999998,0.08548,-0.36058,0.8971625,-0.273,-0.167754,1.0939145,-0.25673,-0.1999119999999999
144,1.004062,0.67345,-0.102075,0.8555159999999999,0.4579129999999999,-0.087099,0.7311259999999999,0.69516,-0.141648,1.146156,0.4498339999999999,-0.104372,1.267986,0.67872,-0.196167,0.689236,0.94003,-0.208232,1.295186,0.92213,-0.291235,0.9179440000000001,0.0055799999999999,0.0083949999999999,1.082056,-0.00558,-0.008395,0.8338760000000001,0.0676699999999999,-0.336195,1.091786,0.0681399999999999,-0.361385,0.896284,-0.28617,-0.171043,1.094086,-0.27134,-0.20011
145,1.0030525,0.67609,-0.103432,0.8552615,0.459183,-0.088979,0.7306815,0.69682,-0.142211,1.1450115,0.451616,-0.1057989999999999,1.2660115,0.68018,-0.19587,0.6891715,0.94147,-0.208222,1.2940015,0.9228,-0.291715,0.9182315,0.00539,0.008355,1.0817685,-0.00539,-0.008355,0.8331015000000002,0.04746,-0.336775,1.0920115,0.04892,-0.362345,0.8948345,-0.3017899999999999,-0.1725209999999999,1.0942015,-0.2890299999999999,-0.2002959999999999
146,1.00182,0.67857,-0.1042479999999999,0.854785,0.460255,-0.0904479999999999,0.729905,0.69829,-0.14225,1.1438549999999998,0.45347,-0.1068819999999999,1.263755,0.68209,-0.195507,0.6889449999999999,0.94174,-0.2081869999999999,1.292495,0.92278,-0.29147,0.9186660000000001,0.0050299999999999,0.00828,1.081334,-0.0050299999999999,-0.0082799999999999,0.832085,0.0255799999999999,-0.3366099999999999,1.0921750000000001,0.02733,-0.36268,0.892092,-0.31959,-0.1752439999999999,1.094245,-0.30873,-0.2000219999999999
147,1.000712,0.68225,-0.1047869999999999,0.854456,0.461428,-0.0912359999999999,0.729676,0.70164,-0.1421579999999999,1.142736,0.456711,-0.1077939999999999,1.261566,0.68298,-0.195098,0.688446,0.94523,-0.2080499999999999,1.290596,0.91849,-0.2911049999999999,0.91921,0.0044799999999999,0.008145,1.08079,-0.0044799999999999,-0.0081449999999999,0.831076,-0.00161,-0.336465,1.092366,0.00014,-0.362865,0.889852,-0.3438599999999999,-0.177774,1.094426,-0.33353,-0.1996549999999999
148,0.9999245,0.686205,-0.104061,0.8542425000000001,0.462995,-0.090585,0.7288325,0.703105,-0.141407,1.1417025,0.461466,-0.107604,1.2586425,0.687315,-0.194012,0.6880625,0.947355,-0.207297,1.2888325,0.925195,-0.2902099999999999,0.9198155000000001,0.0037449999999999,0.0078499999999999,1.0801844999999999,-0.0037449999999999,-0.00785,0.8299825000000001,-0.027515,-0.33567,1.0926625,-0.025745,-0.3623,0.8872965,-0.365975,-0.17762,1.0946825,-0.357035,-0.198689
149,0.9994495000000001,0.689955,-0.103019,0.8540345,0.463791,-0.089586,0.7280845,0.704195,-0.14032,1.1413245,0.466812,-0.106578,1.2557345,0.688455,-0.191835,0.6877745,0.949335,-0.205621,1.2882445,0.926045,-0.289095,0.9203355,0.0028449999999999,0.0075649999999999,1.0796645,-0.0028449999999999,-0.007565,0.8291545,-0.050775,-0.334575,1.0930345,-0.0483049999999999,-0.361385,0.8845445,-0.385685,-0.17671,1.0950644999999999,-0.378155,-0.197177
150,0.999189,0.69327,-0.101501,0.8538680000000001,0.46533,-0.088082,0.728048,0.70599,-0.138285,1.141078,0.472,-0.1050619999999999,1.254628,0.6895500000000001,-0.188859,0.687468,0.9508,-0.203004,1.288258,0.92737,-0.28712,0.9208010000000001,0.00235,0.0071699999999999,1.0791989999999998,-0.0023499999999999,-0.0071699999999999,0.8285580000000001,-0.0725599999999999,-0.33286,1.093478,-0.0695099999999999,-0.35998,0.8820479999999999,-0.40481,-0.174832,1.095578,-0.3987199999999999,-0.19488
151,0.999033,0.69746,-0.099172,0.8533999999999999,0.46768,-0.085587,0.7278900000000001,0.70841,-0.13363,1.14115,0.4734699999999999,-0.102927,1.255,0.68947,-0.18489,0.68706,0.95593,-0.197847,1.28858,0.92966,-0.283435,0.921407,0.0022399999999999,0.0068249999999999,1.078593,-0.00224,-0.006825,0.8281499999999999,-0.09333,-0.329555,1.09398,-0.0896,-0.357405,0.8799399999999999,-0.4246,-0.172345,1.0959599999999998,-0.4190399999999999,-0.1922
152,0.999047,0.70218,-0.095518,0.853077,0.47003,-0.081952,0.728377,0.7109800000000001,-0.1283,1.141247,0.47558,-0.099684,1.256267,0.69292,-0.179817,0.6863970000000001,0.96113,-0.191952,1.289567,0.93507,-0.277815,0.921891,0.00213,0.0065149999999999,1.078109,-0.0021299999999999,-0.006515,0.828017,-0.1129099999999999,-0.324525,1.094617,-0.1090199999999999,-0.353235,0.877007,-0.4448,-0.171764,1.096257,-0.4387099999999999,-0.189235
153,0.9994495000000001,0.7071,-0.0906599999999999,0.8529825,0.4720299999999999,-0.077623,0.7285325,0.7137,-0.1215369999999999,1.1414725,0.47722,-0.095743,1.2579625,0.6948799999999999,-0.174147,0.6862425,0.96197,-0.185298,1.2907425,0.93612,-0.271505,0.9224845,0.0020999999999999,0.006295,1.0775155,-0.0021,-0.0062949999999999,0.8283325,-0.13202,-0.3187149999999999,1.0955925,-0.12771,-0.348175,0.8756425,-0.46609,-0.167784,1.0972425,-0.45963,-0.186355
154,0.999993,0.70993,-0.085571,0.8528439999999999,0.47481,-0.072253,0.728674,0.7162299999999999,-0.115181,1.142224,0.48049,-0.090457,1.256974,0.6975100000000001,-0.167591,0.686374,0.96328,-0.17828,1.292044,0.93786,-0.26496,0.922973,0.0019199999999999,0.00612,1.077027,-0.0019199999999999,-0.00612,0.829014,-0.1490199999999999,-0.31222,1.096784,-0.14444,-0.34212,0.874524,-0.48733,-0.164479,1.098254,-0.4794199999999999,-0.184019
155,1.0007755,0.713625,-0.079514,0.8525925,0.478425,-0.0657899999999999,0.7288924999999999,0.718325,-0.107788,1.1430725,0.4818949999999999,-0.084795,1.2590625,0.6980850000000001,-0.161791,0.6868325,0.966525,-0.170609,1.2937524999999999,0.939685,-0.257395,0.9234305,0.002175,0.005905,1.0765695,-0.002175,-0.0059049999999999,0.8301525000000001,-0.164485,-0.304705,1.0982225,-0.160055,-0.335165,0.8736825,-0.508535,-0.161231,1.0991525,-0.499225,-0.18142
156,1.001412,0.716715,-0.0733539999999999,0.8521730000000001,0.480815,-0.0590539999999999,0.728553,0.7208950000000001,-0.1005529999999999,1.143733,0.482415,-0.0791579999999999,1.2584629999999999,0.700985,-0.155413,0.687263,0.966605,-0.1638029999999999,1.294933,0.948135,-0.250345,0.923718,0.002225,0.005655,1.076282,-0.002225,-0.0056549999999999,0.831133,-0.176545,-0.297205,1.099173,-0.171045,-0.327885,0.873053,-0.526125,-0.1565309999999999,1.099743,-0.5158849999999999,-0.178139
157,1.00216,0.719425,-0.066812,0.851708,0.483515,-0.051899,0.728028,0.723385,-0.093415,1.144428,0.482915,-0.073505,1.256628,0.699085,-0.147153,0.6871480000000001,0.968455,-0.156821,1.296518,0.944955,-0.241871,0.924051,0.0023749999999999,0.0054489999999999,1.075949,-0.002375,-0.005449,0.832338,-0.189305,-0.288661,1.100298,-0.183915,-0.319811,0.872668,-0.5449350000000001,-0.151351,1.100508,-0.534155,-0.174112
158,1.0029264999999998,0.7225400000000001,-0.0603609999999999,0.8514205,0.4869599999999999,-0.0451569999999999,0.7276005,0.72674,-0.0863539999999999,1.1451205,0.48163,-0.0681229999999999,1.2552405,0.7003900000000001,-0.139564,0.6870005,0.97091,-0.150133,1.2983805,0.94462,-0.233931,0.9243895,0.0027699999999999,0.005139,1.0756105,-0.0027699999999999,-0.0051389999999999,0.8336005,-0.20066,-0.280211,1.1014704999999998,-0.19558,-0.311771,0.8723505,-0.56213,-0.146691,1.1013004999999998,-0.55113,-0.170288
159,1.003488,0.724605,-0.0537305,0.851046,0.490955,-0.0381045,0.727026,0.729355,-0.0792655,1.145566,0.482225,-0.0623725,1.254716,0.699715,-0.1319075,0.686866,0.970205,-0.1431275,1.3004660000000001,0.944355,-0.2255305,0.924903,0.0029949999999999,0.0048995,1.075097,-0.0029949999999999,-0.0048995,0.8351459999999999,-0.213445,-0.2703405,1.102736,-0.208385,-0.3022605,0.871976,-0.580415,-0.1418085,1.1021459999999998,-0.569645,-0.1660444999999999
160,1.0038295,0.7263850000000001,-0.047021,0.8505834999999999,0.492805,-0.031398,0.7262934999999999,0.7304550000000001,-0.071926,1.1460735,0.483365,-0.056765,1.2539535,0.699935,-0.124337,0.6853935,0.971485,-0.135625,1.3028735,0.944195,-0.217782,0.9254455,0.0030149999999999,0.0047499999999999,1.0745545,-0.003015,-0.00475,0.8367835,-0.225885,-0.259342,1.1035135,-0.221225,-0.291682,0.8714035,-0.5980749999999999,-0.136972,1.1028435,-0.587925,-0.161492
161,1.004265,0.72831,-0.0402495,0.850105,0.49473,-0.0247355,0.725735,0.7319500000000001,-0.0645995,1.146535,0.4846,-0.0509415,1.2564250000000001,0.69876,-0.1183875,0.6838850000000001,0.97343,-0.1278255,1.305055,0.94297,-0.2099885,0.926016,0.0029099999999999,0.0047934999999999,1.073984,-0.0029099999999999,-0.0047935,0.838625,-0.24495,-0.2478785,1.104405,-0.23803,-0.2805085,0.871075,-0.61667,-0.1318115,1.103235,-0.60805,-0.1566695
162,1.0046495,0.7298,-0.0340764999999999,0.8496575,0.49797,-0.0182325,0.7251475000000001,0.73361,-0.0577994999999999,1.1470675,0.48699,-0.0450004999999999,1.2599675000000001,0.69667,-0.1122404999999999,0.6820075,0.97539,-0.1199445,1.3069674999999998,0.93916,-0.2020635,0.9265655,0.0027699999999999,0.0047285,1.0734345,-0.0027699999999999,-0.0047284999999999,0.8410875,-0.26546,-0.2342535,1.1053475,-0.25575,-0.2673835,0.8708675000000001,-0.6358600000000001,-0.1264664999999999,1.1037975,-0.62849,-0.1517335
163,1.005636,0.730156,-0.0237375,0.850105,0.497256,-0.0080864999999999,0.725895,0.7331059999999999,-0.0464655,1.148245,0.485786,-0.0353865,1.264065,0.692516,-0.1021465,0.680625,0.977326,-0.1078535,1.309485,0.936436,-0.1897734999999999,0.927086,0.002543,0.0045224999999999,1.072914,-0.002543,-0.0045224999999999,0.844395,-0.286104,-0.2156035,1.106825,-0.274224,-0.2489835,0.8713150000000001,-0.655444,-0.1166455,1.104975,-0.649234,-0.1424305
164,1.006448,0.729833,-0.0145684999999999,0.850684,0.497223,0.0007705,0.7259439999999999,0.7353430000000001,-0.0362375,1.1495739999999999,0.4866229999999999,-0.0266085,1.268054,0.694723,-0.0926555,0.678984,0.978633,-0.0966725,1.312124,0.940383,-0.1787305,0.927468,0.0021349999999999,0.0043725,1.072532,-0.0021349999999999,-0.0043725,0.848964,-0.305147,-0.1933905,1.107414,-0.292337,-0.2272305,0.872144,-0.673557,-0.1067485,1.106204,-0.668277,-0.1328945
165,1.0073095,0.730483,-0.0058335,0.8513625,0.497633,0.0093565,0.7262725,0.735743,-0.0261945,1.1510425,0.486573,-0.0181495,1.2706625,0.695003,-0.0835905,0.6772724999999999,0.980523,-0.0858675,1.3146025,0.941773,-0.1683805,0.9277515000000001,0.0019619999999999,0.0039944999999999,1.0722485,-0.001962,-0.0039945,0.8535925,-0.322357,-0.1711305,1.1077925,-0.309297,-0.2052105,0.8731525,-0.689967,-0.0971385,1.1075225,-0.685487,-0.1234775
166,1.0082545,0.7305794999999999,0.0021399999999999,0.8521335,0.4973995,0.01736,0.7268935000000001,0.7359395,-0.017394,1.1524535,0.4868295,-0.010251,1.2719135,0.6980295,-0.075666,0.6765135,0.9797795,-0.075828,1.3170235,0.9453195,-0.15984,0.9280385,0.0016774999999999,0.0036269999999999,1.0719615,-0.0016775,-0.003627,0.8579435000000001,-0.3381105,-0.14969,1.1080735,-0.3235805,-0.18366,0.8742835,-0.7043605000000001,-0.088113,1.1087835,-0.7008205000000001,-0.114361
167,1.0091895,0.7301310000000001,0.0100869999999999,0.8528255000000001,0.497731,0.025346,0.7276754999999999,0.736291,-0.0090459999999999,1.1541055,0.489161,-0.0024199999999999,1.2739555,0.700261,-0.067897,0.6758655,0.978671,-0.065948,1.3192154999999999,0.946761,-0.15118,0.9283224999999999,0.0011409999999999,0.0033429999999999,1.0716775,-0.0011409999999999,-0.0033429999999999,0.8622255,-0.354809,-0.127973,1.1082954999999999,-0.338159,-0.16148,0.8755155,-0.7190589999999999,-0.077392,1.1100454999999998,-0.7161090000000001,-0.10547
168,1.0103445,0.7298319999999999,0.0176509999999999,0.8535874999999999,0.498012,0.0324829999999999,0.7286775,0.737462,-0.001256,1.1560575,0.489702,0.0048909999999999,1.2755174999999999,0.7051719999999999,-0.0604,0.6754775,0.979362,-0.056669,1.3211974999999998,0.948322,-0.143055,0.9283635000000001,0.0008789999999999,0.0029759999999999,1.0716364999999999,-0.0008789999999999,-0.002976,0.8663775,-0.3702379999999999,-0.107322,1.1086475,-0.350418,-0.140545,0.8767475,-0.731828,-0.06756,1.1114375,-0.7293080000000001,-0.097161
169,1.0114699999999999,0.729429,0.0248925,0.854328,0.497779,0.0390305,0.729698,0.738819,0.0063245,1.158158,0.489909,0.0119575,1.2794780000000001,0.710579,-0.0543774999999999,0.676158,0.975499,-0.0480525,1.322948,0.950229,-0.1349705,0.928386,0.000576,0.0025695,1.071614,-0.000576,-0.0025694999999999,0.870428,-0.384961,-0.0874155,1.108708,-0.362131,-0.1202935,0.877978,-0.7434710000000001,-0.0580484999999999,1.112788,-0.7407410000000001,-0.0876425
170,1.0124814999999998,0.7282495,0.0314665,0.8550055,0.4979095,0.0452145,0.7306455000000001,0.7399595,0.0137065,1.1600555,0.4901495,0.0187985,1.2823155,0.7148995,-0.0484835,0.6769155,0.9712795,-0.0397074999999999,1.3246755000000001,0.9512495,-0.1271904999999999,0.9283265,0.0003704999999999,0.0019805,1.0716735,-0.0003705,-0.0019804999999999,0.8742755,-0.3994105,-0.0678515,1.1086554999999998,-0.3738505,-0.1005125,0.8791555,-0.7544605,-0.0488085,1.1139955,-0.7520405,-0.0790704999999999
171,1.0133804999999998,0.7265405,0.037513,0.8556545,0.4973405000000001,0.050899,0.7315745,0.7404905,0.020623,1.1618245,0.4902105,0.024831,1.2855345,0.7176405,-0.0433029999999999,0.6777945000000001,0.9676905,-0.032083,1.3262645,0.9526005,-0.119984,0.9283005,0.0002314999999999,0.0014359999999999,1.0716995,-0.0002314999999999,-0.001436,0.8775745,-0.4128595,-0.050845,1.1085345,-0.3847394999999999,-0.082877,0.8802045000000001,-0.7641395,-0.040308,1.1150445,-0.7613694999999999,-0.070168
172,1.013588,0.726865,0.038684,0.8556779999999999,0.4987549999999999,0.05168,0.731778,0.743255,0.022428,1.162798,0.490745,0.0260649999999999,1.288518,0.721635,-0.043203,0.6781980000000001,0.965945,-0.029343,1.327108,0.954525,-0.1174849999999999,0.9280990000000001,0.0002869999999999,0.001079,1.071901,-0.0002869999999999,-0.001079,0.880038,-0.424825,-0.039708,1.107828,-0.393485,-0.071386,0.880518,-0.771895,-0.03702,1.115598,-0.768555,-0.066129
173,1.0137165,0.7274565,0.0397179999999999,0.8556555,0.4991065,0.052339,0.7319455,0.7436365,0.024165,1.1634354999999998,0.4912565,0.027238,1.2889455,0.7207565,-0.041591,0.6786755000000001,0.9641765,-0.026957,1.3276655,0.9506165,-0.115145,0.9278395000000002,0.0002465,0.000778,1.0721604999999998,-0.0002464999999999,-0.000778,0.8813355,-0.4301635,-0.033277,1.1078755,-0.3991335,-0.06408,0.8806155,-0.7775135,-0.034695,1.1159854999999999,-0.7737835,-0.062921
174,1.0136489999999998,0.7267475,0.0403004999999999,0.855553,0.4992675,0.0527405,0.7322230000000001,0.7438174999999999,0.0252435,1.163953,0.4927275,0.0281495,1.289283,0.7208975,-0.0404245,0.678983,0.9623475,-0.0252255,1.328023,0.9476575,-0.1135265,0.9276560000000001,0.0001014999999999,0.0006055,1.072344,-0.0001015,-0.0006055,0.882333,-0.4347725,-0.0280965,1.1079729999999999,-0.4033625,-0.0583845,0.880803,-0.7819425000000001,-0.0328035,1.116073,-0.7780425000000001,-0.0602715
175,1.0136444999999998,0.7261385,0.040839,0.8555465,0.4996685,0.053014,0.7325065,0.7440184999999999,0.026076,1.1645064999999999,0.4938685,0.028797,1.2896665,0.7201584999999999,-0.0392319999999999,0.6793065,0.9606685,-0.0236919999999999,1.3284665,0.9451585,-0.112012,0.9274895,2.6499999999998747e-05,0.0004979999999999,1.0725105,-2.6499999999998747e-05,-0.000498,0.8833664999999999,-0.4389714999999999,-0.0233729999999999,1.1083465,-0.4075514999999999,-0.053431,0.8812165,-0.7857315,-0.0310049999999999,1.1162165,-0.7817215000000001,-0.057689
176,1.0136314999999998,0.725835,0.0413215,0.8556285000000001,0.499075,0.0533135,0.7324385,0.743475,0.0268205,1.1649585,0.493755,0.0295585,1.2895885,0.719035,-0.0378555,0.6796185,0.959565,-0.0221965,1.3286685,0.943265,-0.1102264999999999,0.9273485,4.700000000000537e-05,0.0004334999999999,1.0726515,-4.699999999999843e-05,-0.0004335,0.8840685000000001,-0.441865,-0.0190445,1.1088485,-0.410195,-0.0491145,0.8812185,-0.788635,-0.0292205,1.1165285,-0.784145,-0.0549855
177,1.0135865,0.7256515,0.0417435,0.8556925,0.4986414999999999,0.0536275,0.7323824999999999,0.7431315000000001,0.0275944999999999,1.1653525,0.4937614999999999,0.0302945,1.2896725,0.7172415,-0.0365085,0.6800225,0.9588615,-0.0207835,1.3288425,0.9417215,-0.1085445,0.9272355,6.450000000000206e-05,0.0003775,1.0727645,-6.450000000000206e-05,-0.0003775,0.8846325,-0.4441184999999999,-0.0149735,1.1094525,-0.4121685,-0.0448244999999999,0.8811725,-0.7909984999999999,-0.0274785,1.1166525,-0.7857585,-0.0523135
178,1.0134505,0.725633,0.0422009999999999,0.8556675000000001,0.498313,0.054013,0.7322875000000001,0.742733,0.028521,1.1655375000000001,0.493673,0.0309799999999999,1.2897575,0.716143,-0.035299,0.6802775000000001,0.958463,-0.019645,1.3289374999999999,0.940903,-0.107184,0.9271875,5.700000000000149e-05,0.000386,1.0728125,-5.700000000000149e-05,-0.000386,0.8851875,-0.4450969999999999,-0.011643,1.1101175,-0.412837,-0.041146,0.8813175,-0.791967,-0.026064,1.1164475,-0.786057,-0.049312
179,1.0132899999999998,0.725713,0.0425635,0.855608,0.4979429999999999,0.0543854999999999,0.732288,0.7423230000000001,0.0294195,1.165698,0.493613,0.0315665,1.289548,0.715333,-0.0341615,0.680518,0.958153,-0.0186225,1.329048,0.940323,-0.1059595,0.927142,5.100000000000243e-05,0.0004475,1.072858,-5.100000000000243e-05,-0.0004475,0.885698,-0.445867,-0.0084715,1.110738,-0.413217,-0.0377105,0.8814379999999999,-0.7925869999999999,-0.0247325,1.116358,-0.786187,-0.0467585
180,1.0130994999999998,0.725888,0.0429035,0.8555465000000001,0.497668,0.0547085,0.7323865,0.741928,0.0302384999999999,1.1658565,0.493598,0.0321425,1.2891765,0.7151379999999999,-0.0333095,0.6807265,0.958168,-0.0176735,1.3291265,0.939938,-0.1048205,0.9271125,3.900000000000431e-05,0.0005254999999999,1.0728875,-3.899999999999737e-05,-0.0005254999999999,0.8861865,-0.4464519999999999,-0.0053595,1.1113265,-0.413802,-0.0344125,0.8815465,-0.793012,-0.0235445,1.1162465,-0.785912,-0.0435635
181,1.0128275,0.726084,0.0431675,0.8553445,0.4974639999999999,0.0549995,0.7320745,0.741614,0.0310025,1.1658344999999999,0.493604,0.0325775,1.2883045,0.7146239999999999,-0.0323435,0.6805945,0.958354,-0.0167865,1.3291045000000001,0.939704,-0.1039235,0.9270825,3.700000000000231e-05,0.0005414999999999,1.0729175,-3.700000000000231e-05,-0.0005414999999999,0.8866845,-0.446876,-0.0021775,1.1119645,-0.414026,-0.0314324999999999,0.8816845,-0.7934260000000001,-0.0225375,1.1161745,-0.785096,-0.0405364999999999
182,1.012596,0.72613,0.04342,0.855137,0.49732,0.055226,0.7317469999999999,0.74133,0.031696,1.165807,0.49362,0.032929,1.287777,0.71389,-0.031495,0.680417,0.95854,-0.01601,1.329087,0.93953,-0.103108,0.927065,3.399999999999931e-05,0.0005959999999999,1.072935,-3.399999999999931e-05,-0.000596,0.887227,-0.4472399999999999,0.000983,1.112567,-0.41391,-0.028817,0.881847,-0.79374,-0.021597,1.116137,-0.78403,-0.03723
