sb224sc-HT22-VT27/4dt907/src/ml-research/a10/datafiles/kinect_good_preprocessed_A9_mediapipe/A43_kinect_mirrored.csv
FrameNo,nose_3d_x,nose_3d_y,nose_3d_z,left_shoulder_3d_x,left_shoulder_3d_y,left_shoulder_3d_z,left_elbow_3d_x,left_elbow_3d_y,left_elbow_3d_z,right_shoulder_3d_x,right_shoulder_3d_y,right_shoulder_3d_z,right_elbow_3d_x,right_elbow_3d_y,right_elbow_3d_z,left_wrist_3d_x,left_wrist_3d_y,left_wrist_3d_z,right_wrist_3d_x,right_wrist_3d_y,right_wrist_3d_z,left_hip_3d_x,left_hip_3d_y,left_hip_3d_z,right_hip_3d_x,right_hip_3d_y,right_hip_3d_z,left_knee_3d_x,left_knee_3d_y,left_knee_3d_z,right_knee_3d_x,right_knee_3d_y,right_knee_3d_z,left_ankle_3d_x,left_ankle_3d_y,left_ankle_3d_z,right_ankle_3d_x,right_ankle_3d_y,right_ankle_3d_z
25,0.9855215,0.7006865,0.0826855,0.8570785,0.4689964999999999,0.0581965,0.7911785,0.7161164999999999,0.0169684999999999,1.1290685,0.4935864999999999,0.0614524999999999,1.1894585,0.7520565,0.0165654999999999,0.7594485,0.9371665,-0.0193675,1.2107585,0.9753865,-0.0147765,0.9274495,-0.0038294999999999,-0.0004695,1.0725505,0.0038294999999999,0.0004694999999999,0.8870685,-0.4505335,0.0058664999999999,1.1279785,-0.4178834999999999,-0.0180285,0.8755185,-0.8149535,-0.0266305,1.1366785,-0.8012835,-0.0194835
26,0.9845610000000001,0.6985665,0.082455,0.857544,0.4686464999999999,0.0582159999999999,0.795464,0.7104165,0.0243439999999999,1.127954,0.4950765,0.062583,1.187364,0.7538665,0.0230819999999999,0.762974,0.9395665,-0.007288,1.208064,0.9776465,-0.001587,0.927812,-0.0039184999999999,-0.000788,1.072188,0.0039185,0.0007879999999999,0.887014,-0.4528235,0.0056979999999999,1.127954,-0.4200235,-0.018468,0.875534,-0.8175435,-0.027034,1.136684,-0.8045235000000001,-0.020013
27,0.9835110000000001,0.6970545,0.0825335,0.857992,0.4687145,0.0581615,0.7989220000000001,0.7048145,0.0299125,1.126802,0.4967145,0.0636945,1.185912,0.7553945000000001,0.0287005,0.7659020000000001,0.9420245,0.0025845,1.206112,0.9796245,0.0096595,0.928146,-0.0039724999999999,-0.0011795,1.071854,0.0039725,0.0011795,0.886932,-0.4547354999999999,0.0054365,1.127932,-0.4220454999999999,-0.0189975,0.875582,-0.8199455,-0.0275025,1.136642,-0.8065055,-0.0204554999999999
28,0.982735,0.6955185,0.0825845,0.858678,0.4678285,0.0580315,0.802148,0.6980985000000001,0.0341815,1.1260379999999999,0.4976785,0.0647675,1.185018,0.7569385000000001,0.0335645,0.7688280000000001,0.9436585,0.0105874999999999,1.204938,0.9811585,0.0185164999999999,0.928357,-0.0040624999999999,-0.0015235,1.071643,0.0040624999999999,0.0015234999999999,0.886688,-0.4559014999999999,0.0052644999999999,1.1277579999999998,-0.4233614999999999,-0.0194075,0.875348,-0.8212815,-0.0278655,1.136498,-0.8076715,-0.0206845
29,0.9819575,0.694269,0.0826755,0.8594275,0.467539,0.0578105,0.8052375,0.692509,0.0382405,1.1254375,0.499259,0.0655975,1.1843975,0.759259,0.0383005,0.7713975,0.945609,0.0179995,1.2049775,0.983609,0.0265175,0.9285405,-0.0041319999999999,-0.0018294999999999,1.0714595,0.0041319999999999,0.0018295,0.8864675,-0.457151,0.0050805,1.1276175,-0.4246109999999999,-0.0197554999999999,0.8751275000000001,-0.822531,-0.0281374999999999,1.1363975,-0.808921,-0.0208804999999999
30,0.9812225,0.6929244999999999,0.082759,0.8601525,0.4674745,0.0576499999999999,0.8081025,0.6872145,0.041911,1.1248325,0.5010845,0.066557,1.1840725,0.7621845,0.041718,0.7731925,0.9480745,0.0234559999999999,1.2044625,0.9846745,0.0337699999999999,0.9287015,-0.0041624999999999,-0.002099,1.0712985,0.0041624999999999,0.0020989999999999,0.8862725,-0.4583855,0.0048799999999999,1.1275025,-0.4258455,-0.020101,0.8749225,-0.8237655,-0.02846,1.1362625,-0.8101355,-0.020753
31,0.980725,0.6921295,0.0826485,0.860869,0.4680695,0.0573775,0.809339,0.6812995,0.0449925,1.1243889999999999,0.5027695,0.0675325,1.184039,0.7646295,0.0447055,0.7742290000000001,0.9475995,0.0284345,1.2042089999999999,0.9853995,0.0398055,0.9289229999999999,-0.0041175,-0.0023354999999999,1.071077,0.0041174999999999,0.0023355,0.886089,-0.4596205,0.0047705,1.127459,-0.4271105,-0.0204504999999999,0.874809,-0.8252105000000001,-0.0287795,1.136129,-0.8106905,-0.0203795
32,0.9804115,0.6913929999999999,0.08261,0.8613085,0.467653,0.057199,0.8118485,0.6756629999999999,0.048053,1.1243684999999999,0.5027630000000001,0.068219,1.1842285,0.7669330000000001,0.047545,0.7755785,0.946883,0.032613,1.2041385,0.985783,0.044968,0.9290905,-0.004032,-0.0025489999999999,1.0709095,0.0040319999999999,0.002549,0.8859985,-0.460237,0.004728,1.1275085,-0.427927,-0.0207489999999999,0.8747485,-0.826247,-0.0290939999999999,1.1361085,-0.8112870000000001,-0.0202849999999999
33,0.9802180000000001,0.6907139999999999,0.0826995,0.8617239999999999,0.4671339999999999,0.0571485,0.813904,0.669984,0.0507665,1.1243940000000001,0.5028239999999999,0.0688915,1.184394,0.770344,0.0501014999999999,0.776614,0.945214,0.0366745,1.204164,0.985714,0.0497195,0.929252,-0.003976,-0.0027464999999999,1.070748,0.0039759999999999,0.0027464999999999,0.885864,-0.460636,0.0046454999999999,1.1275439999999999,-0.428616,-0.0210385,0.874664,-0.827176,-0.0293475,1.136014,-0.811746,-0.0203465
34,0.980238,0.6901820000000001,0.0829455,0.8621420000000001,0.466632,0.0571485,0.8143620000000001,0.667952,0.0516275,1.124442,0.502722,0.0695365,1.1844819999999998,0.7713220000000001,0.0512065,0.7767820000000001,0.943972,0.0389045,1.2041520000000001,0.985372,0.0506185,0.929386,-0.003929,-0.0028975,1.070614,0.0039289999999999,0.0028975,0.885752,-0.460708,0.0045825,1.127582,-0.429668,-0.0212785,0.874592,-0.8279679999999999,-0.0295365,1.135962,-0.812188,-0.0205354999999999
35,0.980234,0.689832,0.083286,0.862299,0.466122,0.0572229999999999,0.8151889999999999,0.666922,0.052344,1.124479,0.5027320000000001,0.069923,1.184539,0.772632,0.0522199999999999,0.7768790000000001,0.942892,0.040637,1.204559,0.984792,0.0507979999999999,0.9294789999999999,-0.003875,-0.002937,1.070521,0.003875,0.0029369999999999,0.885639,-0.4606479999999999,0.0046009999999999,1.1275789999999999,-0.430488,-0.021515,0.874479,-0.828438,-0.029773,1.135919,-0.812288,-0.020733
36,0.980262,0.68947,0.0836244999999999,0.862454,0.4655,0.0572895,0.8152340000000001,0.66609,0.0528855,1.124544,0.5029399999999999,0.0702425,1.184804,0.7739199999999999,0.0526385,0.776954,0.94206,0.0416674999999999,1.205154,0.98396,0.0506125,0.929542,-0.0037869999999999,-0.0028945,1.070458,0.0037869999999999,0.0028945,0.885564,-0.46055,0.0045784999999999,1.127584,-0.43127,-0.0218044999999999,0.874374,-0.82882,-0.0300054999999999,1.135874,-0.81291,-0.0212895
37,0.980369,0.689249,0.084035,0.862484,0.464939,0.0573879999999999,0.816194,0.666159,0.052856,1.124564,0.503179,0.0703719999999999,1.185414,0.7743089999999999,0.0525,0.777524,0.941499,0.041786,1.2050939999999999,0.982099,0.050385,0.929567,-0.0037179999999999,-0.0027879999999999,1.070433,0.0037179999999999,0.0027879999999999,0.885354,-0.460501,0.0045949999999999,1.127584,-0.431831,-0.022054,0.874274,-0.8290109999999999,-0.030317,1.135954,-0.8129310000000001,-0.021768
38,0.9805765,0.6889435,0.0844465,0.8624935,0.4644835,0.0574505,0.8150735,0.6663835,0.0531134999999999,1.1247835,0.5033735,0.0702565,1.1860435,0.7745135,0.0521595,0.7768535,0.9410435,0.0415424999999999,1.2051135,0.9816435,0.0504595,0.9295865000000001,-0.0036665,-0.0026575,1.0704135,0.0036665,0.0026574999999999,0.8850735,-0.4604765,0.0045744999999999,1.1275735,-0.4322865,-0.0223465,0.8742135,-0.8290665,-0.0306105,1.1360035,-0.8128165,-0.0223285
39,0.980832,0.6885304999999999,0.084607,0.862663,0.4643205,0.057287,0.814823,0.6673905,0.053302,1.124943,0.5035105,0.069879,1.186513,0.7750604999999999,0.051638,0.7764630000000001,0.9404905,0.041139,1.2059630000000001,0.9823905,0.0499099999999999,0.9296570000000001,-0.0036864999999999,-0.0025939999999999,1.0703429999999998,0.0036864999999999,0.0025939999999999,0.8847929999999999,-0.4604895,0.0043309999999999,1.127603,-0.4329895,-0.022833,0.874123,-0.8291495,-0.0312469999999999,1.136043,-0.8123795,-0.0225949999999999
40,0.9812670000000001,0.6880995,0.0844449999999999,0.8629169999999999,0.4640495,0.0569,0.814787,0.6684795,0.0533219999999999,1.125127,0.5034394999999999,0.069244,1.187237,0.7750595,0.050628,0.776017,0.9396495,0.040521,1.207127,0.9845495,0.049126,0.92973,-0.0036904999999999,-0.002522,1.07027,0.0036904999999999,0.002522,0.884657,-0.4605005,0.0036899999999999,1.1276869999999999,-0.4337505,-0.023487,0.8741570000000001,-0.8290705,-0.03206,1.136097,-0.8124305,-0.023322
41,0.9818585000000001,0.688006,0.0842055,0.8631195,0.4641459999999999,0.0563745,0.8146995000000001,0.669796,0.0531755,1.1252895,0.5035959999999999,0.0685975,1.1874095,0.774846,0.0490975,0.7752095,0.939936,0.0398305,1.2077395,0.987936,0.0481385,0.9297995,-0.0037009999999999,-0.0024185,1.0702004999999999,0.003701,0.0024185,0.8845095000000001,-0.460534,0.0029514999999999,1.1277495,-0.4342439999999999,-0.0242045,0.8741895,-0.829094,-0.0329565,1.1361094999999999,-0.812464,-0.0241534999999999
42,0.9824885000000001,0.687878,0.083579,0.8633345,0.464128,0.055869,0.8145845,0.671038,0.052326,1.1254745,0.5033679999999999,0.06766,1.1874945000000001,0.774618,0.046832,0.7746545,0.937308,0.037734,1.2082345,0.991508,0.046279,0.9298455,-0.0037149999999999,-0.00237,1.0701545,0.003715,0.0023699999999999,0.8844045,-0.460512,0.0019189999999999,1.1278245,-0.434592,-0.025245,0.8742945,-0.829132,-0.03414,1.1360045,-0.812692,-0.025472
43,0.983498,0.688061,0.082244,0.86383,0.465541,0.055276,0.81459,0.672621,0.050683,1.12586,0.5032409999999999,0.066213,1.18775,0.774491,0.043681,0.77429,0.934681,0.034955,1.20869,0.995081,0.04174,0.929867,-0.0036039999999999,-0.0022119999999999,1.070133,0.0036039999999999,0.002212,0.88422,-0.460629,0.00013,1.1277499999999998,-0.435329,-0.026887,0.87433,-0.829259,-0.0358879999999999,1.13597,-0.813249,-0.027762
44,0.9845725000000001,0.688298,0.0807545,0.8644155,0.4667679999999999,0.0546075,0.8145855000000001,0.674288,0.0489255,1.1262355,0.503238,0.0646045,1.1880655,0.773188,0.0403985,0.7740055,0.931778,0.0319755,1.2087455,0.994778,0.0370565,0.9298865000000001,-0.003511,-0.0020834999999999,1.0701135,0.003511,0.0020835,0.8840555,-0.460742,-0.0019004999999999,1.1276855000000001,-0.436592,-0.0287095,0.8743855,-0.829352,-0.0377944999999999,1.1359555000000001,-0.813612,-0.0301385
45,0.9858155000000001,0.6886755,0.078663,0.8650845,0.4678655,0.053378,0.8140245,0.6749555,0.047061,1.1266545,0.5029655,0.062429,1.1884045,0.7698054999999999,0.03655,0.7738345,0.9303055,0.027414,1.2093145,0.9979055,0.031538,0.9298575,-0.0034964999999999,-0.001877,1.0701425,0.0034964999999999,0.001877,0.8839645,-0.4607645,-0.004744,1.1277345,-0.4378045,-0.0311149999999999,0.8745745,-0.8292744999999999,-0.040294,1.1361045,-0.8141045,-0.033189
46,0.9869160000000001,0.688855,0.076164,0.865784,0.468835,0.051819,0.8143940000000001,0.6755450000000001,0.043905,1.127154,0.5026250000000001,0.06002,1.188624,0.765665,0.0322869999999999,0.774004,0.928885,0.02231,1.209884,1.000685,0.025395,0.9297680000000001,-0.0034519999999999,-0.001753,1.0702319999999999,0.003452,0.001753,0.8839440000000001,-0.460745,-0.008236,1.127634,-0.439145,-0.034002,0.874704,-0.829375,-0.043259,1.136234,-0.8151250000000001,-0.036732
47,0.9879530000000001,0.6890025000000001,0.0734944999999999,0.86642,0.4694225000000001,0.0501905,0.81428,0.6774825,0.0407395,1.12744,0.5016725000000001,0.0575974999999999,1.18881,0.7610825,0.0279405,0.77353,0.9262325,0.0169025,1.21022,1.0007325,0.0189685,0.929613,-0.0034015,-0.0017425,1.070387,0.0034015,0.0017424999999999,0.88385,-0.4607375,-0.0121205,1.12746,-0.4407075,-0.0372385,0.8748400000000001,-0.8295075,-0.0463695,1.1364,-0.8160175,-0.0404855
48,0.9887660000000001,0.6894805,0.070198,0.866872,0.4699105,0.048191,0.8133020000000001,0.6794305,0.037052,1.127442,0.5006705,0.054691,1.188652,0.7573405,0.02297,0.772382,0.9250305,0.009886,1.210282,1.0010105,0.011145,0.92933,-0.0032604999999999,-0.0015879999999999,1.07067,0.0032604999999999,0.001588,0.8834420000000001,-0.4606595,-0.016956,1.127192,-0.4418295,-0.041362,0.874832,-0.8290095,-0.050228,1.136382,-0.8170995,-0.045263
49,0.9895295,0.68969,0.066855,0.8672795,0.4702399999999999,0.046271,0.8131794999999999,0.68506,0.033218,1.1273294999999999,0.4987799999999999,0.051842,1.1883895,0.75331,0.017924,0.7713695,0.92411,0.002974,1.2102595,1.0011,0.003027,0.9289725,-0.003123,-0.001459,1.0710275,0.003123,0.001459,0.8829495,-0.46073,-0.022127,1.1269695,-0.44263,-0.045765,0.8747595,-0.82851,-0.054328,1.1363195,-0.8181499999999999,-0.05021
50,0.9901000000000001,0.6893754999999999,0.063235,0.867602,0.4707455,0.044211,0.812162,0.6900354999999999,0.028346,1.127072,0.4957955,0.0488059999999999,1.187982,0.7491654999999999,0.012944,0.7702220000000001,0.9234555,-0.0039869999999999,1.209632,0.9977055,-0.006879,0.928542,-0.0028605,-0.001452,1.071458,0.0028605,0.001452,0.8822220000000001,-0.4606845,-0.028321,1.126712,-0.4427545,-0.050941,0.874622,-0.8277545000000001,-0.05867,1.136182,-0.8190545,-0.055827
51,0.990582,0.6891875000000001,0.059376,0.8678440000000001,0.4714975,0.041566,0.8110440000000001,0.6887175,0.021234,1.126804,0.4929075,0.045325,1.187564,0.7452375,0.007565,0.7697039999999999,0.9231775,-0.0125239999999999,1.208884,0.9945375,-0.017213,0.928129,-0.0026505,-0.001539,1.071871,0.0026505,0.001539,0.881304,-0.4604425,-0.035679,1.126504,-0.4430125,-0.057416,0.874494,-0.8267225,-0.06372,1.136204,-0.8199425,-0.062299
52,0.9907015000000001,0.6885410000000001,0.055859,0.8679555,0.472341,0.038793,0.8084955,0.691041,0.014533,1.1264255,0.4894509999999999,0.042198,1.1871355000000001,0.741811,0.0027129999999999,0.7681855000000001,0.924141,-0.020673,1.2083955,0.991901,-0.025012,0.9278195,-0.002348,-0.00184,1.0721805,0.0023479999999999,0.00184,0.8803555,-0.460269,-0.043117,1.1263755,-0.442679,-0.064187,0.8745255000000001,-0.825569,-0.068488,1.1361454999999998,-0.820569,-0.068384
53,0.9907490000000001,0.6877665,0.0521765,0.8677800000000001,0.4722564999999999,0.0357175,0.8067500000000001,0.6894165,0.0078725,1.12589,0.4862265,0.0388945,1.1868,0.7402065,-0.0024565,0.76652,0.9244765,-0.0285665,1.20764,0.9853565,-0.0329065,0.9275720000000001,-0.0020435,-0.0020495,1.072428,0.0020434999999999,0.0020494999999999,0.87933,-0.4597835,-0.0511665,1.12604,-0.4420935,-0.0719405,0.87439,-0.8239935,-0.0734725,1.13591,-0.8207935000000001,-0.0746275
54,0.990695,0.6872115000000001,0.0485015,0.867451,0.4710715000000001,0.0329944999999999,0.8038810000000001,0.6925115000000001,0.0010434999999999,1.125411,0.4830515000000001,0.0356045,1.186591,0.7400515000000001,-0.0077595,0.7646310000000001,0.9268715,-0.0366215,1.207071,0.9800515,-0.0406465,0.927384,-0.0017114999999999,-0.0021894999999999,1.072616,0.0017115,0.0021895,0.878291,-0.4583684999999999,-0.0600514999999999,1.125581,-0.4398585,-0.0806065,0.874181,-0.8210685,-0.0786704999999999,1.135661,-0.8187485,-0.0806245
55,0.9904915000000001,0.68606,0.0449755,0.8668975,0.46881,0.0305425,0.8007075000000001,0.6953900000000001,-0.0057655,1.1251475,0.4793599999999999,0.0323795,1.1862375,0.74006,-0.0129515,0.7624875,0.92949,-0.0447855,1.2065374999999998,0.97506,-0.0481595,0.9271735,-0.001397,-0.0022275,1.0728265,0.0013969999999999,0.0022275,0.8772075,-0.45626,-0.0690254999999999,1.1250575,-0.43707,-0.0894275,0.8740675,-0.81772,-0.0837455,1.1354875,-0.81555,-0.0863265
56,0.990043,0.6845695,0.040909,0.866059,0.4677794999999999,0.027456,0.7972589999999999,0.6994095,-0.013894,1.124669,0.4776094999999999,0.028636,1.1855689999999999,0.7412995,-0.01927,0.759879,0.9319495,-0.053977,1.205729,0.9710395,-0.056462,0.926952,-0.0011164999999999,-0.002496,1.073048,0.0011164999999999,0.0024959999999999,0.875769,-0.4529405,-0.079539,1.124289,-0.4325705,-0.09977,0.873889,-0.8129204999999999,-0.089364,1.1350289999999998,-0.8109105,-0.092753
57,0.989521,0.6837625,0.0371419999999999,0.865048,0.4662225,0.024669,0.794108,0.7047825,-0.021601,1.124078,0.4757425,0.0256099999999999,1.185288,0.7422125,-0.025041,0.757428,0.9364525,-0.062,1.204818,0.9683025,-0.063907,0.9265740000000001,-0.0009184999999999,-0.002651,1.073426,0.0009185,0.002651,0.874188,-0.4481374999999999,-0.089754,1.1234579999999998,-0.4266474999999999,-0.109878,0.874178,-0.8067575,-0.094391,1.134418,-0.8042475,-0.098191
58,0.988994,0.6836865,0.0333875,0.863965,0.4647464999999999,0.0217215,0.7914550000000001,0.7097165,-0.0297635,1.123575,0.4752065,0.0223564999999999,1.185055,0.7435065,-0.0311395,0.755055,0.9423465,-0.0706635,1.204005,0.9669765,-0.0716845,0.926082,-0.0006034999999999,-0.0028105,1.073918,0.0006034999999999,0.0028105,0.8724450000000001,-0.4413435,-0.1006394999999999,1.122705,-0.4206335,-0.1209114999999999,0.874315,-0.7983735,-0.0993975,1.133835,-0.7956935,-0.1035585
59,0.988556,0.683248,0.0297445,0.863085,0.464198,0.0187995,0.788925,0.714928,-0.0375495,1.1232149999999999,0.476248,0.0191705,1.185085,0.745248,-0.0375584999999999,0.752975,0.949478,-0.0806785,1.203835,0.967928,-0.0786805,0.925636,-0.0004219999999999,-0.0029774999999999,1.074364,0.0004219999999999,0.0029775,0.870785,-0.4336919999999999,-0.1122015,1.122185,-0.413742,-0.1320445,0.874625,-0.7887919999999999,-0.1042855,1.133595,-0.785722,-0.1092775
60,0.9882715000000001,0.682477,0.026507,0.8624095,0.464117,0.0162,0.7875995,0.7211669999999999,-0.043289,1.1230795,0.476727,0.016416,1.1853095,0.7462770000000001,-0.043258,0.7512095,0.955187,-0.089453,1.2038795,0.969657,-0.085031,0.9253804999999999,-0.0001779999999999,-0.0030369999999999,1.0746195,0.000178,0.0030369999999999,0.8693295,-0.425383,-0.123511,1.1217594999999998,-0.406543,-0.142566,0.8752095,-0.778173,-0.108567,1.1336095,-0.7746930000000001,-0.113922
61,0.9878555,0.681941,0.0230235,0.8617455,0.464891,0.0131744999999999,0.7867355,0.728071,-0.0492605,1.1224655000000001,0.4785709999999999,0.0132014999999999,1.1855455,0.747661,-0.0490235,0.7500055,0.955481,-0.0975925,1.2038355,0.972031,-0.0917725,0.9251085,-5.3000000000000096e-05,-0.0028745,1.0748915,5.299999999999923e-05,0.0028745,0.8678055,-0.416199,-0.1344955,1.1211755,-0.398859,-0.1529925,0.8756955,-0.767019,-0.1129225,1.1334755,-0.762849,-0.1186525
62,0.987676,0.6813859999999999,0.0195135,0.861202,0.465966,0.0100524999999999,0.785922,0.732316,-0.0552415,1.1224319999999999,0.479776,0.0098065,1.1855419999999999,0.748486,-0.0547505,0.748982,0.956346,-0.1056334999999999,1.204722,0.975646,-0.0987755,0.924804,0.0001069999999999,-0.0028585,1.075196,-0.000107,0.0028585,0.866402,-0.406384,-0.1453145,1.120682,-0.390694,-0.1629345,0.8759520000000001,-0.755254,-0.1171204999999999,1.133452,-0.7505040000000001,-0.1233495
63,0.9876190000000001,0.6803950000000001,0.016588,0.860974,0.468005,0.0073659999999999,0.785254,0.733565,-0.060808,1.122614,0.481975,0.0071239999999999,1.185954,0.749565,-0.060096,0.7478940000000001,0.955455,-0.113146,1.205734,0.977255,-0.105766,0.924484,0.000168,-0.002895,1.075516,-0.000168,0.0028949999999999,0.865164,-0.397035,-0.155028,1.120294,-0.384105,-0.171918,0.8764640000000001,-0.7448049999999999,-0.120657,1.133644,-0.7389049999999999,-0.127773
64,0.98786,0.6803595,0.0136739999999999,0.860842,0.4665595,0.004782,0.784992,0.7318095,-0.066477,1.122992,0.4848595,0.004504,1.186112,0.7518395,-0.065366,0.7464220000000001,0.9540595,-0.1203579999999999,1.206732,0.9796395,-0.112741,0.924191,4.4999999999975615e-06,-0.0028229999999999,1.075809,-4.500000000001031e-06,0.0028229999999999,0.864112,-0.3866005,-0.164508,1.1200219999999999,-0.3766105,-0.180728,0.876892,-0.7331305,-0.124079,1.133972,-0.7261704999999999,-0.132567
65,0.9882410000000001,0.680978,0.0113414999999999,0.860797,0.465298,0.0024645,0.784807,0.730218,-0.0708025,1.123487,0.483428,0.0025314999999999,1.186937,0.750268,-0.0695915,0.7451370000000002,0.951438,-0.1264414999999999,1.207877,0.983398,-0.1188165,0.9239090000000001,-6.799999999999862e-05,-0.0023484999999999,1.076091,6.800000000000556e-05,0.0023485,0.863317,-0.375982,-0.1727314999999999,1.119967,-0.369812,-0.1885015,0.877107,-0.720742,-0.1274155,1.134477,-0.712902,-0.1368035
66,0.9885260000000001,0.6800265000000001,0.00859,0.860456,0.4652865,2.4000000000003185e-05,0.784416,0.7296465000000001,-0.073905,1.123596,0.4837965,0.000599,1.1867860000000001,0.7503665,-0.0741459999999999,0.743776,0.9489265,-0.133322,1.208626,0.9795765,-0.12516,0.923804,-2.0499999999999685e-05,-0.0021559999999999,1.076196,2.0499999999999685e-05,0.002156,0.862256,-0.3630335,-0.181431,1.119746,-0.3568635,-0.1963809999999999,0.877196,-0.7077935,-0.129686,1.134236,-0.6987534999999999,-0.140741
67,0.988865,0.6793155,0.005781,0.860144,0.4646455,-0.00277,0.784114,0.7287455,-0.076412,1.123334,0.4825555,-0.001778,1.186424,0.7491155,-0.077484,0.742864,0.9465155,-0.1389389999999999,1.209204,0.9760455,-0.13089,0.923726,-6.749999999999812e-05,-0.0019909999999999,1.076274,6.749999999999812e-05,0.0019909999999999,0.861164,-0.3500545,-0.189637,1.119534,-0.3441945,-0.203227,0.877354,-0.6948145,-0.131625,1.133904,-0.6846445,-0.144262
68,0.9890415,0.6806654999999999,-0.000933,0.8598415,0.4649855,-0.00903,0.7840615000000001,0.7289755,-0.083255,1.1230315,0.4823155,-0.00827,1.1858315,0.7485854999999999,-0.084978,0.7419415,0.9401455,-0.146862,1.2092014999999998,0.9792255,-0.139792,0.9234855,-0.0002634999999999,-0.001369,1.0765145,0.0002634999999999,0.0013689999999999,0.8598315,-0.3360145,-0.200504,1.1190215000000001,-0.3312345,-0.213584,0.8773015,-0.6807745000000001,-0.13726,1.1334115,-0.6695644999999999,-0.150465
69,0.989279,0.683619,-0.0083864999999999,0.85938,0.467859,-0.0167324999999999,0.78363,0.7235590000000001,-0.0909835,1.12249,0.482689,-0.0159964999999999,1.18517,0.7483690000000001,-0.0931835,0.74112,0.936889,-0.1562915,1.20891,0.984399,-0.1494625,0.923453,3.800000000001025e-05,-0.0006714999999999,1.076547,-3.799999999999637e-05,0.0006715,0.8579200000000001,-0.318791,-0.2135795,1.11802,-0.316281,-0.2271595,0.87691,-0.663931,-0.1439125,1.1326,-0.6525209999999999,-0.1575925
70,0.9894725,0.68714,-0.01596,0.8591785000000001,0.4708099999999999,-0.02488,0.7837185,0.7185,-0.09959,1.1219785,0.4833199999999999,-0.024307,1.1847285,0.74359,-0.102326,0.7409685000000001,0.93985,-0.166263,1.2086385,0.98176,-0.159991,0.9234875,-2.0000000000006124e-05,1.4000000000000123e-05,1.0765125,2.0000000000006124e-05,-1.4000000000000123e-05,0.8559085,-0.30081,-0.22707,1.1169984999999998,-0.30078,-0.24098,0.8767285,-0.64561,-0.150735,1.1318185,-0.63433,-0.164979
71,0.9898645000000001,0.689905,-0.0234015,0.8598265,0.474395,-0.0332485,0.7842365,0.713465,-0.1080255,1.1216865,0.483985,-0.0327094999999999,1.1843865,0.7402150000000001,-0.1111965,0.7403165,0.943085,-0.1759095,1.2084765,0.980205,-0.1702825,0.9233525,6.499999999998174e-05,0.0007204999999999,1.0766475,-6.50000000000095e-05,-0.0007204999999999,0.8542164999999999,-0.281145,-0.2408195,1.1159965,-0.284245,-0.2548694999999999,0.8766865000000001,-0.626115,-0.1573995,1.1307865,-0.6156349999999999,-0.1725795
72,0.9905845,0.6926950000000001,-0.03103,0.8606275,0.475815,-0.041981,0.7842175,0.706895,-0.116392,1.1214375,0.483845,-0.041147,1.1841675,0.738885,-0.120125,0.7400074999999999,0.943515,-0.184142,1.2083075,0.979675,-0.181021,0.9232285000000001,9.500000000001174e-05,0.001196,1.0767715,-9.4999999999984e-05,-0.001196,0.8525275,-0.2612449999999999,-0.254952,1.1150075,-0.265995,-0.268592,0.8761575,-0.604805,-0.164343,1.1295875,-0.5953949999999999,-0.180273
73,0.9910205,0.69312,-0.0396135,0.8611505,0.4789099999999999,-0.0511375,0.7837705,0.7078099999999999,-0.1250395,1.1208905,0.48045,-0.0504285,1.1835505,0.73443,-0.1298115,0.7391305,0.9468,-0.1949795,1.2079005,0.97718,-0.1924195,0.9229205,0.0004899999999999,0.0016324999999999,1.0770795,-0.0004899999999999,-0.0016325,0.8504505,-0.23881,-0.2699795,1.1137605,-0.24487,-0.2834295,0.8752705000000001,-0.58068,-0.1713335,1.1281605,-0.57255,-0.1870685
74,0.991183,0.69416,-0.0483884999999999,0.861603,0.48109,-0.0603384999999999,0.783373,0.70844,-0.1345825,1.120123,0.48075,-0.0594494999999999,1.1827429999999999,0.73309,-0.1394715,0.7378030000000001,0.9522,-0.2073015,1.208393,0.97094,-0.2051515,0.922601,0.00073,0.0019845,1.077399,-0.00073,-0.0019845,0.848363,-0.21676,-0.2847815,1.112563,-0.22414,-0.2977315,0.874213,-0.55684,-0.1786295,1.126363,-0.55009,-0.1946485
75,0.9913755,0.69536,-0.0568455,0.8621775,0.4819299999999999,-0.0696905,0.7833175,0.70799,-0.1456285,1.1194775,0.47985,-0.0684675,1.1818675,0.72824,-0.1492975,0.7367175,0.95755,-0.2191805,1.2088375,0.97241,-0.2171905,0.9221105,0.0009099999999999,0.0024694999999999,1.0778895,-0.00091,-0.0024694999999999,0.8466075,-0.19487,-0.2988605,1.1115675,-0.20325,-0.3117805,0.8734675000000001,-0.53345,-0.1859505,1.1243975,-0.5276799999999999,-0.2021905
76,0.9916355000000001,0.69537,-0.065293,0.8627815,0.48416,-0.078679,0.7831515,0.70905,-0.155913,1.1187115,0.4798,-0.077246,1.1809615,0.72466,-0.158656,0.7354815,0.96218,-0.230405,1.2091414999999999,0.97283,-0.229675,0.9217235,0.00117,0.0029649999999999,1.0782765,-0.00117,-0.002965,0.8451815000000001,-0.17381,-0.312515,1.1104015,-0.18325,-0.325715,0.8728315,-0.5112300000000001,-0.193113,1.1222615,-0.5076,-0.209465
77,0.9920185000000001,0.694075,-0.0701429999999999,0.8635605,0.4840649999999999,-0.0839449999999999,0.7833605,0.708425,-0.162418,1.1181905,0.479025,-0.0819889999999999,1.1808905,0.7206049999999999,-0.164579,0.7345405,0.970305,-0.237905,1.2095105,0.967935,-0.238155,0.9212975,0.0013549999999999,0.003115,1.0787025,-0.0013549999999999,-0.0031149999999999,0.8440805,-0.153905,-0.322105,1.1092905,-0.163265,-0.335435,0.8727605,-0.490395,-0.195907,1.1203605,-0.489105,-0.212775
78,0.9919235,0.690295,-0.074437,0.8639825,0.480765,-0.08865,0.7837324999999999,0.7129749999999999,-0.167597,1.1177225,0.475465,-0.086371,1.1803925,0.717625,-0.170394,0.7335225000000001,0.975335,-0.24428,1.2100724999999999,0.963015,-0.24585,0.9209755,0.0012249999999999,0.00315,1.0790245,-0.001225,-0.00315,0.8429525,-0.133855,-0.32887,1.1081325,-0.143005,-0.34164,0.8725425,-0.469805,-0.197811,1.1188524999999998,-0.471655,-0.21483
79,0.9918805,0.68586,-0.078856,0.8642395,0.47774,-0.092878,0.7841295,0.70935,-0.173038,1.1173395,0.47163,-0.090242,1.1803295,0.71634,-0.175644,0.7332095000000001,0.97016,-0.249325,1.2107295,0.95851,-0.253145,0.9206795,0.00154,0.003025,1.0793205,-0.0015399999999999,-0.003025,0.8419595,-0.1138799999999999,-0.334705,1.1071095,-0.1233499999999999,-0.346985,0.8724995,-0.44975,-0.200447,1.1176795,-0.45482,-0.216565
80,0.991943,0.6811849999999999,-0.08366,0.8643000000000001,0.473145,-0.0976269999999999,0.7844,0.707165,-0.177926,1.11708,0.4678749999999999,-0.094527,1.17994,0.7151449999999999,-0.181062,0.73299,0.967115,-0.256485,1.2105,0.954205,-0.260385,0.920408,0.0015549999999999,0.002975,1.0795919999999999,-0.001555,-0.002975,0.8410500000000001,-0.093655,-0.339855,1.10623,-0.103345,-0.352065,0.87249,-0.429695,-0.202969,1.1170399999999998,-0.437695,-0.218085
81,0.9922745000000001,0.676835,-0.088343,0.8642715,0.4707049999999999,-0.102085,0.7842315000000001,0.706655,-0.184275,1.1168415,0.4646949999999999,-0.098853,1.1798015,0.712445,-0.187212,0.7327715,0.966945,-0.26385,1.2106215,0.949705,-0.26707,0.9201415,0.0015949999999999,0.0031199999999999,1.0798585,-0.001595,-0.0031199999999999,0.8407415000000001,-0.078275,-0.3442199999999999,1.1052815,-0.088605,-0.35689,0.8721515000000001,-0.411275,-0.206809,1.1158614999999998,-0.421315,-0.21873
82,0.992794,0.6746099999999999,-0.091922,0.864425,0.47075,-0.105699,0.783245,0.69982,-0.188713,1.116835,0.46463,-0.1021519999999999,1.179685,0.71089,-0.192471,0.732335,0.96255,-0.27012,1.210785,0.94643,-0.27376,0.919928,0.0015799999999999,0.0032299999999999,1.080072,-0.00158,-0.0032299999999999,0.840905,-0.0653099999999999,-0.3471,1.104625,-0.0757999999999999,-0.35994,0.871745,-0.39636,-0.210602,1.114775,-0.40807,-0.21953
83,0.993424,0.67059,-0.095111,0.864521,0.470589,-0.108802,0.782781,0.69344,-0.192066,1.116911,0.4643359999999999,-0.104936,1.179511,0.7075499999999999,-0.1971689999999999,0.731951,0.95865,-0.273995,1.210501,0.94411,-0.278665,0.919683,0.0015899999999999,0.0032649999999999,1.080317,-0.00159,-0.003265,0.841251,-0.05155,-0.349315,1.104021,-0.06204,-0.362515,0.8717509999999999,-0.38243,-0.211927,1.114181,-0.39319,-0.221885
84,0.9941550000000001,0.6675150000000001,-0.097731,0.864854,0.470197,-0.111191,0.781454,0.690025,-0.193735,1.117244,0.463444,-0.107265,1.1795740000000001,0.7079150000000001,-0.201193,0.730864,0.955025,-0.27782,1.209884,0.942335,-0.28463,0.919377,0.001585,0.0032899999999999,1.0806230000000001,-0.001585,-0.00329,0.8421040000000001,-0.036665,-0.35069,1.103644,-0.0479649999999999,-0.36412,0.872104,-0.3691149999999999,-0.211946,1.1137839999999999,-0.379775,-0.22374
85,0.994944,0.664875,-0.100219,0.865335,0.469375,-0.113517,0.781085,0.685075,-0.197155,1.117745,0.462409,-0.109222,1.179895,0.7075549999999999,-0.205335,0.729705,0.949035,-0.28271,1.209465,0.940095,-0.28984,0.9191660000000001,0.001475,0.0032999999999999,1.0808339999999999,-0.001475,-0.0033,0.843355,-0.0220449999999999,-0.3520999999999999,1.103535,-0.0344149999999999,-0.3658,0.874575,-0.3587349999999999,-0.212863,1.114555,-0.366215,-0.22616
86,0.9955495000000001,0.662455,-0.102625,0.8656845,0.4690959999999999,-0.115605,0.7810145,0.6798949999999999,-0.20048,1.1181445,0.460982,-0.1111419999999999,1.1796145,0.7066749999999999,-0.209416,0.7291845,0.942245,-0.2882099999999999,1.2087444999999999,0.939725,-0.29499,0.9190785,0.0013949999999999,0.00331,1.0809215,-0.001395,-0.0033099999999999,0.8445945,-0.008165,-0.35357,1.1036045,-0.021475,-0.36754,0.8774945000000001,-0.349105,-0.213588,1.1161545,-0.354025,-0.22979
87,0.9962145000000001,0.660935,-0.104295,0.8661805000000001,0.47034,-0.116934,0.7816305,0.678085,-0.201885,1.1185205,0.461678,-0.112132,1.1796404999999999,0.7041550000000001,-0.212392,0.7291505,0.938665,-0.292435,1.2077005,0.937765,-0.299615,0.9190965,0.001255,0.0032949999999999,1.0809035,-0.001255,-0.003295,0.8460705,0.0060049999999999,-0.354215,1.1041505,-0.0079049999999999,-0.368535,0.8809405,-0.3388449999999999,-0.213494,1.1179405,-0.341835,-0.232625
88,0.99711,0.65932,-0.104659,0.866716,0.470192,-0.1177609999999999,0.782226,0.68466,-0.201631,1.118926,0.462079,-0.112383,1.179776,0.70543,-0.214091,0.7296560000000001,0.94586,-0.293685,1.2064659999999998,0.94092,-0.3026149999999999,0.919133,0.001,0.003345,1.080867,-0.001,-0.003345,0.8473459999999999,0.0200699999999999,-0.3537949999999999,1.104866,0.0061599999999999,-0.368545,0.8833759999999999,-0.32711,-0.2128,1.119926,-0.32968,-0.235345
89,0.9978555000000001,0.658395,-0.1044629999999999,0.8668095,0.4717479999999999,-0.1175799999999999,0.7825995,0.691365,-0.20148,1.1191995,0.462929,-0.1118789999999999,1.1799195,0.701715,-0.2151799999999999,0.7301095,0.950395,-0.29456,1.2054395,0.942745,-0.3054599999999999,0.9191644999999999,0.0008849999999999,0.00339,1.0808355,-0.000885,-0.0033899999999999,0.8484995000000001,0.0328249999999999,-0.35294,1.1055395,0.0189149999999999,-0.36792,0.8834895,-0.314355,-0.2111299999999999,1.1216294999999998,-0.318645,-0.23807
90,0.9983220000000002,0.6577500000000001,-0.103792,0.866815,0.472992,-0.116849,0.782755,0.6897800000000001,-0.200532,1.119665,0.463108,-0.1108219999999999,1.180135,0.69851,-0.2155999999999999,0.730035,0.94878,-0.29486,1.204225,0.94428,-0.30748,0.91927,0.00089,0.00341,1.08073,-0.00089,-0.0034099999999999,0.849445,0.0459499999999999,-0.3513,1.106055,0.03147,-0.3665899999999999,0.8860580000000001,-0.30294,-0.208811,1.123665,-0.3077399999999999,-0.24095
91,0.9985125000000001,0.6566799999999999,-0.103049,0.8668935,0.4737539999999999,-0.115625,0.7822035,0.6899,-0.199989,1.1200735,0.463366,-0.109637,1.1802735,0.69712,-0.215255,0.7296435,0.94454,-0.295315,1.2030934999999998,0.94302,-0.307705,0.9193775,0.0007199999999999,0.0034949999999999,1.0806225,-0.0007199999999999,-0.0034949999999999,0.8504835,0.0593699999999999,-0.349615,1.1065835,0.0433399999999999,-0.364875,0.8866625,-0.29108,-0.2046879999999999,1.1262635,-0.29711,-0.245595
92,0.998595,0.65635,-0.102099,0.8669700000000001,0.473859,-0.114073,0.78152,0.6883699999999999,-0.199241,1.12052,0.463327,-0.108476,1.1804999999999999,0.69737,-0.214745,0.7291099999999999,0.93885,-0.296115,1.20231,0.94287,-0.308435,0.919544,0.0005799999999999,0.0036049999999999,1.080456,-0.00058,-0.0036049999999999,0.85106,0.0715699999999999,-0.347855,1.10692,0.0543299999999999,-0.363195,0.887155,-0.28437,-0.20309,1.12887,-0.2880899999999999,-0.250145
93,0.9987640000000001,0.6556299999999999,-0.100882,0.867185,0.4747139999999999,-0.112244,0.780885,0.6853499999999999,-0.198262,1.120985,0.463669,-0.107229,1.1807050000000001,0.6964699999999999,-0.213855,0.728605,0.9318,-0.296285,1.2019549999999999,0.93672,-0.307585,0.919628,0.00056,0.0036649999999999,1.080372,-0.00056,-0.003665,0.8513550000000001,0.0829699999999999,-0.346015,1.107315,0.0645699999999999,-0.361365,0.887813,-0.27953,-0.201568,1.131535,-0.2796,-0.254345
94,0.9987030000000001,0.6542049999999999,-0.099716,0.866718,0.4749799999999999,-0.110446,0.780018,0.6826049999999999,-0.19648,1.121248,0.4650239999999999,-0.106031,1.180798,0.6945349999999999,-0.21273,0.727698,0.927865,-0.29548,1.201918,0.934315,-0.30623,0.919867,0.0002249999999999,0.0036899999999999,1.080133,-0.000225,-0.0036899999999999,0.851448,0.0967249999999999,-0.34282,1.107418,0.0772749999999999,-0.35919,0.8878170000000001,-0.271895,-0.2019989999999999,1.132918,-0.268835,-0.25793
95,0.998042,0.65256,-0.098307,0.866192,0.475756,-0.108693,0.779062,0.6804,-0.194823,1.121442,0.465559,-0.104896,1.180922,0.6922,-0.211313,0.725842,0.92581,-0.294533,1.202222,0.93366,-0.305583,0.920093,0.00026,0.003847,1.079907,-0.00026,-0.003847,0.851612,0.11158,-0.338453,1.107682,0.09172,-0.356143,0.8880000000000001,-0.2585699999999999,-0.195759,1.133762,-0.25588,-0.258063
96,0.9972075,0.651175,-0.097461,0.8656955,0.475298,-0.107618,0.7780655,0.6757949999999999,-0.193772,1.1215455,0.4668179999999999,-0.104142,1.1809155,0.690325,-0.210332,0.7239455,0.921055,-0.293732,1.2020055,0.927965,-0.305472,0.9202665,9.499999999995624e-05,0.0040179999999999,1.0797335,-9.500000000006724e-05,-0.004018,0.8516555,0.1226549999999999,-0.334592,1.1079055,0.1029549999999999,-0.353592,0.8875835,-0.243995,-0.190197,1.1345055,-0.246485,-0.260742
97,0.9963040000000001,0.650172,-0.0970365,0.865151,0.4751299999999999,-0.1071135,0.7774210000000001,0.6687799999999999,-0.1918415,1.121581,0.4673559999999999,-0.1037565,1.180761,0.6868299999999999,-0.2099085,0.7218910000000001,0.91487,-0.2934585,1.202341,0.92551,-0.3060085,0.920436,-4.000000000004e-05,0.0041714999999999,1.079564,3.999999999992898e-05,-0.0041715,0.851611,0.1323799999999999,-0.3310385,1.108031,0.1123899999999999,-0.3514085,0.8846110000000001,-0.2278,-0.1833275,1.135151,-0.23847,-0.2639185
98,0.9952925,0.649837,-0.0964805,0.8645484999999999,0.474925,-0.1065105,0.7768485,0.6618550000000001,-0.1895835,1.1216385,0.467788,-0.1032775,1.1803985,0.6872550000000001,-0.2090495,0.7195885,0.909815,-0.2922595,1.2025585,0.922345,-0.3066195,0.9208145,-0.000205,0.0043605,1.0791855,0.000205,-0.0043605,0.8514485,0.142025,-0.3269295,1.1078585,0.121945,-0.3488894999999999,0.8811785,-0.2118149999999999,-0.1805824999999999,1.1360985000000001,-0.2301849999999999,-0.2660095
99,0.9942010000000001,0.649228,-0.0961335,0.8638049999999999,0.474544,-0.1059465,0.776265,0.662814,-0.1890015,1.121395,0.468513,-0.1029935,1.179925,0.686445,-0.2079234999999999,0.7170650000000001,0.910445,-0.2912035,1.202575,0.918405,-0.3070235,0.921102,-0.0004049999999999,0.0044865,1.078898,0.0004049999999999,-0.0044865,0.850855,0.150365,-0.3228735,1.1071449999999998,0.130235,-0.3463235,0.8780950000000001,-0.198705,-0.1777794999999999,1.136685,-0.223125,-0.2679335
100,0.9926860000000001,0.6487700000000001,-0.095763,0.8628930000000001,0.474179,-0.104849,0.7751330000000001,0.663844,-0.188414,1.121043,0.469275,-0.102653,1.1793230000000001,0.684725,-0.207057,0.714753,0.915745,-0.290047,1.203433,0.917125,-0.307157,0.921248,-0.0005749999999999,0.004593,1.078752,0.0005749999999999,-0.004593,0.849973,0.157995,-0.318467,1.106203,0.138145,-0.343787,0.875473,-0.186465,-0.1740769999999999,1.136473,-0.2164849999999999,-0.267667
101,0.9911755,0.6481539999999999,-0.0948585,0.8622055,0.4742949999999999,-0.1034505,0.7739155,0.6656209999999999,-0.1878815,1.1208954999999998,0.4692449999999999,-0.1018905,1.1789355,0.6824349999999999,-0.2065115,0.7127055000000001,0.921195,-0.2888415,1.2043255,0.916185,-0.3070915,0.9214195000000001,-0.000705,0.0046984999999999,1.0785805,0.0007049999999999,-0.0046984999999999,0.8489655,0.1655049999999999,-0.3137715,1.1054255,0.1459149999999999,-0.3409315,0.8731355000000001,-0.1736850000000001,-0.1704795,1.1362455,-0.209205,-0.2675915
102,0.989697,0.647435,-0.0936169999999999,0.8616110000000001,0.47421,-0.101865,0.772561,0.667435,-0.187242,1.120771,0.46876,-0.1012199999999999,1.178621,0.678744,-0.205313,0.7103809999999999,0.92661,-0.288053,1.205521,0.91808,-0.306963,0.921564,-0.00085,0.0049669999999999,1.078436,0.00085,-0.0049669999999999,0.847851,0.17248,-0.309423,1.104681,0.15305,-0.338303,0.8722110000000001,-0.16105,-0.167435,1.135851,-0.2023399999999999,-0.267713
103,0.988649,0.647545,-0.092204,0.86129,0.47463,-0.100432,0.7716400000000001,0.6689970000000001,-0.186617,1.1208699999999998,0.46781,-0.100548,1.17851,0.676784,-0.203751,0.70861,0.92989,-0.287751,1.20697,0.91931,-0.306611,0.921602,-0.0006899999999999,0.005179,1.078398,0.0006899999999999,-0.005179,0.8466400000000001,0.17718,-0.306531,1.10411,0.1578999999999999,-0.336391,0.87181,-0.15188,-0.163978,1.1356,-0.19776,-0.267621
104,0.9881365,0.6478489999999999,-0.09086,0.8610285,0.4747249999999999,-0.099279,0.7712384999999999,0.6705629999999999,-0.186005,1.1210085,0.467255,-0.099856,1.1784585,0.6750109999999999,-0.202287,0.7078185,0.931635,-0.287557,1.2084385,0.920395,-0.306197,0.9215815,-0.000675,0.0053129999999999,1.0784185,0.0006749999999999,-0.0053129999999999,0.8457785,0.1797549999999999,-0.304997,1.1034185,0.1608149999999999,-0.335247,0.8719985,-0.1497750000000001,-0.163507,1.1354185,-0.195045,-0.267407
105,0.9879435,0.6480110000000001,-0.0895445,0.8610005000000001,0.4749300000000001,-0.0982005,0.7711605,0.6719040000000001,-0.1854115,1.1213704999999998,0.46642,-0.0991485,1.1786505,0.673502,-0.2008765,0.7075705,0.93306,-0.2869665,1.2101804999999999,0.92132,-0.3061865,0.9215635,-0.0006399999999999,0.0054535,1.0784365,0.00064,-0.0054535,0.8451705,0.18181,-0.3038265,1.1027905,0.16287,-0.3342565,0.8711105,-0.1445399999999999,-0.1634865,1.1353205,-0.1932799999999999,-0.2672664999999999
106,0.987759,0.648183,-0.0882085,0.861216,0.4753,-0.0971465,0.7711060000000001,0.673281,-0.1847815,1.121786,0.46579,-0.0983525,1.1788859999999999,0.672181,-0.1994854999999999,0.7075359999999999,0.93448,-0.2860735,1.210836,0.92243,-0.3061035,0.921551,-0.0005899999999999,0.0055864999999999,1.078449,0.0005899999999999,-0.0055864999999999,0.844596,0.1834599999999999,-0.3027935,1.102256,0.1649399999999999,-0.3333534999999999,0.871316,-0.14842,-0.1641405,1.135226,-0.19161,-0.2671234999999999
107,0.9877225000000001,0.648086,-0.086955,0.8614235,0.475545,-0.096128,0.7711335000000001,0.674317,-0.184182,1.1221935,0.465055,-0.097616,1.1792235,0.670613,-0.198139,0.7076035,0.935515,-0.285048,1.2116334999999998,0.923435,-0.305818,0.9215415,-0.0005249999999999,0.005592,1.0784585,0.0005249999999999,-0.005592,0.8440835,0.184085,-0.301968,1.1019335,0.1657549999999999,-0.332548,0.8714435,-0.1472649999999999,-0.163781,1.1352134999999999,-0.190925,-0.267068
108,0.9876465,0.6487379999999999,-0.085714,0.8616185000000001,0.4757049999999999,-0.095102,0.7711585,0.6753,-0.18338,1.1225885,0.4652449999999999,-0.096968,1.1795685,0.669157,-0.196717,0.7076585,0.936645,-0.283807,1.2125185,0.924235,-0.305137,0.9215115,-0.000435,0.0056329999999999,1.0784885,0.0004349999999999,-0.0056329999999999,0.8435885,0.1850149999999999,-0.301177,1.1013985,0.1671149999999999,-0.331817,0.8708184999999999,-0.140355,-0.162547,1.1350185,-0.189545,-0.267157
109,0.9874950000000001,0.64981,-0.0848465,0.861734,0.4756299999999999,-0.0942585,0.7712740000000001,0.6757899999999999,-0.1826205,1.1229239999999998,0.4653299999999999,-0.0964765,1.179964,0.668025,-0.1954925,0.707704,0.93725,-0.2826505,1.213284,0.92462,-0.3050205,0.921446,-0.00035,0.0056795,1.078554,0.0003499999999999,-0.0056795,0.843194,0.1852499999999999,-0.3009405,1.100814,0.1678499999999999,-0.3314205,0.870374,-0.1386400000000001,-0.1614715,1.134794,-0.18867,-0.2674405
110,0.9877055,0.6503050000000001,-0.0845389999999999,0.8620315000000001,0.4751350000000001,-0.093829,0.7716915,0.6755720000000001,-0.181929,1.1233615,0.465825,-0.0963739999999999,1.1805615,0.6675200000000001,-0.194763,0.7082915000000001,0.937205,-0.2817,1.2143515,0.924195,-0.30403,0.9213395,-0.0002949999999999,0.00573,1.0786605,0.000295,-0.0057299999999999,0.8432615,0.1851850000000001,-0.30081,1.1004015,0.168125,-0.33125,0.8708215,-0.1387849999999999,-0.161198,1.1344515,-0.1881949999999999,-0.26778
111,0.987916,0.6503050000000001,-0.084306,0.862247,0.4745950000000001,-0.093658,0.772157,0.6755720000000001,-0.181402,1.123757,0.465825,-0.096215,1.181057,0.6675200000000001,-0.194497,0.709017,0.937035,-0.281058,1.215087,0.923445,-0.303338,0.921235,-0.0002949999999999,0.005732,1.078765,0.000295,-0.005732,0.843437,0.184545,-0.300638,1.100197,0.167825,-0.331048,0.871657,-0.1398149999999999,-0.161529,1.1341269999999999,-0.1882349999999999,-0.267528
112,0.988121,0.6503050000000001,-0.0840795,0.862448,0.4745950000000001,-0.0934845,0.772698,0.6755720000000001,-0.1809235,1.124098,0.465825,-0.0960515,1.181608,0.6675200000000001,-0.1940764999999999,0.7098180000000001,0.936935,-0.2804445,1.215528,0.923445,-0.3027345,0.921116,-0.0002949999999999,0.0057255,1.078884,0.000295,-0.0057254999999999,0.843588,0.183315,-0.3006145,1.100038,0.1673650000000001,-0.3308545,0.873278,-0.1455049999999998,-0.1614585,1.133778,-0.1883449999999998,-0.2671845
113,0.988351,0.651074,-0.0838915,0.862617,0.4745950000000001,-0.0933185,0.773327,0.6755720000000001,-0.1805224999999999,1.124327,0.4659750000000001,-0.0959354999999999,1.1821769999999998,0.6675200000000001,-0.1939405,0.7105969999999999,0.936715,-0.2799785,1.216027,0.923445,-0.3022185,0.920959,-0.0002949999999999,0.0057315,1.079041,0.000295,-0.0057315,0.8436270000000001,0.1820150000000001,-0.3011985,1.099937,0.1664750000000001,-0.3311085,0.877687,-0.1512149999999998,-0.1618335,1.1334469999999999,-0.1889849999999999,-0.2668485
114,0.988676,0.6521929999999999,-0.0840095,0.862784,0.474475,-0.0933845,0.774074,0.675573,-0.1803095,1.124474,0.466815,-0.0961974999999999,1.182764,0.667623,-0.1937654999999999,0.7114940000000001,0.936655,-0.2797635,1.216494,0.923405,-0.3018635,0.920792,-0.000245,0.0057465,1.079208,0.0002449999999999,-0.0057465,0.8437140000000001,0.1806249999999999,-0.3023834999999999,1.099754,0.1653249999999999,-0.3319435,0.879914,-0.156605,-0.1658895,1.132454,-0.189255,-0.2667735
115,0.9890445,0.6542600000000001,-0.0842015,0.8626834999999999,0.472285,-0.0936705,0.7749135,0.674803,-0.1799985,1.1244535,0.4663050000000001,-0.0965105,1.1831535,0.667417,-0.1935885,0.7128135,0.934345,-0.2791755,1.2167735,0.924615,-0.3013455,0.9207915,-0.0001249999999999,0.0057445,1.0792085,0.000125,-0.0057445,0.8433634999999999,0.177045,-0.3049855,1.0993335,0.161785,-0.3338855,0.8815935,-0.1635649999999999,-0.1700815,1.1310635,-0.1917649999999999,-0.2666655
116,0.9891465000000002,0.656496,-0.084448,0.8624935,0.46944,-0.0940739999999999,0.7749535,0.6735490000000001,-0.180002,1.1244234999999998,0.46549,-0.096883,1.1835835000000001,0.6717420000000001,-0.19343,0.7133635,0.93068,-0.279215,1.2175435000000001,0.92998,-0.300365,0.9207585000000001,-2.000000000002e-05,0.005745,1.0792415,2.000000000002e-05,-0.005745,0.8429735,0.1719,-0.3083249999999999,1.0988435,0.15651,-0.3366449999999999,0.8813035,-0.1710499999999999,-0.174222,1.1293035,-0.1957099999999999,-0.263395
117,0.9890065000000001,0.660188,-0.0864355,0.8620405000000001,0.46654,-0.0966544999999999,0.7752905,0.671084,-0.1811735,1.1241105,0.46257,-0.0994034999999999,1.1838305,0.6716610000000001,-0.1951215,0.7141905,0.92857,-0.2798385,1.2182505,0.93076,-0.3009385,0.9205945000000001,0.0002199999999999,0.0058215,1.0794055,-0.0002199999999999,-0.0058214999999999,0.8425104999999999,0.1583,-0.3132685,1.0982605,0.14278,-0.3405585,0.8808605,-0.18564,-0.1792774999999999,1.1266205,-0.2073699999999999,-0.2587885
118,0.988925,0.662588,-0.0877105,0.861605,0.4645799999999999,-0.0986115,0.775265,0.6677,-0.1821215,1.123815,0.4626999999999999,-0.1009545,1.183825,0.6695599999999999,-0.1958185,0.7142550000000001,0.92537,-0.2795565,1.2188649999999999,0.92952,-0.3002765,0.920501,2.999999999997449e-05,0.0057035,1.079499,-3.0000000000085517e-05,-0.0057035,0.842105,0.1395499999999999,-0.3172165,1.097755,0.1242699999999999,-0.3429164999999999,0.880475,-0.20523,-0.1832285,1.1240549999999998,-0.22445,-0.2524265
119,0.988826,0.66532,-0.088794,0.861154,0.462642,-0.099974,0.775244,0.66986,-0.182755,1.123474,0.46231,-0.101937,1.183834,0.67097,-0.196011,0.7142840000000001,0.92618,-0.27949,1.219214,0.93069,-0.2990899999999999,0.920513,0.00012,0.0055199999999999,1.079487,-0.00012,-0.00552,0.841724,0.12,-0.32016,1.097264,0.10574,-0.34439,0.880224,-0.22562,-0.186276,1.121604,-0.2427099999999999,-0.24595
120,0.9880955,0.668035,-0.089126,0.8603285,0.461277,-0.100895,0.7750684999999999,0.669065,-0.183992,1.1229485,0.461668,-0.102285,1.1838585,0.675485,-0.195825,0.7142385,0.922425,-0.279118,1.2192885,0.936135,-0.297338,0.9205695,0.000205,0.005232,1.0794305,-0.000205,-0.005232,0.8413585,0.094065,-0.322608,1.0968585,0.080515,-0.345148,0.8802385,-0.2528049999999999,-0.188697,1.1191985,-0.266015,-0.2385779999999999
121,0.9871240000000001,0.670975,-0.0893065,0.859361,0.460689,-0.1015995,0.774221,0.674905,-0.1843575,1.121861,0.461969,-0.1024565,1.183741,0.677025,-0.1954064999999999,0.7139409999999999,0.929015,-0.2781575,1.219731,0.936735,-0.2952975,0.9206,0.000275,0.0050125,1.0794,-0.000275,-0.0050125,0.840891,0.063945,-0.3248875,1.0964909999999999,0.050395,-0.3456275,0.8759510000000001,-0.279585,-0.1900185,1.116761,-0.2938349999999999,-0.2307075
122,0.9861445,0.6742,-0.089274,0.8583775,0.460935,-0.101896,0.7733875,0.68154,-0.183871,1.1209375,0.462341,-0.102428,1.1839575,0.67652,-0.194283,0.7134674999999999,0.93579,-0.276886,1.2205475,0.93466,-0.292476,0.9204675,0.0003,0.0049839999999999,1.0795325,-0.0002999999999999,-0.004984,0.8409675,0.03095,-0.325656,1.0964474999999998,0.0174,-0.345666,0.8740075,-0.30899,-0.190797,1.1146275,-0.3243199999999999,-0.222386
123,0.9850705000000001,0.67816,-0.088923,0.8574165,0.4608319999999999,-0.101642,0.7728665,0.68596,-0.183149,1.1199765,0.46412,-0.102077,1.1841365,0.67684,-0.192517,0.7134665,0.94109,-0.27534,1.2208665,0.93719,-0.28944,0.9203625,0.00018,0.00486,1.0796375,-0.00018,-0.00486,0.8408765,-0.0037599999999999,-0.32562,1.0963765,-0.01668,-0.34547,0.8743164999999999,-0.3437,-0.190636,1.1133264999999999,-0.3559799999999999,-0.21427
124,0.983824,0.682555,-0.088131,0.856536,0.4614089999999999,-0.1012639999999999,0.772336,0.691345,-0.1821229999999999,1.119016,0.4668239999999999,-0.101516,1.184306,0.680985,-0.190257,0.713456,0.948705,-0.273625,1.221566,0.940815,-0.286285,0.920389,-0.000195,0.0047149999999999,1.079611,0.000195,-0.0047149999999999,0.8408059999999999,-0.036985,-0.325295,1.096216,-0.048615,-0.345145,0.874686,-0.377535,-0.19035,1.112336,-0.386115,-0.205955
125,0.982471,0.68697,-0.086814,0.855907,0.46529,-0.100699,0.7714770000000001,0.69466,-0.180317,1.118057,0.4690499999999999,-0.100624,1.184657,0.6780200000000001,-0.187618,0.713287,0.95474,-0.271458,1.2220369999999998,0.9375,-0.283088,0.920655,6.0000000000004494e-05,0.004442,1.079345,-6.0000000000004494e-05,-0.004442,0.840847,-0.07195,-0.324778,1.096367,-0.0821899999999999,-0.343918,0.874937,-0.41417,-0.190505,1.1119869999999998,-0.41883,-0.200218
126,0.9809025,0.691585,-0.084598,0.8553135000000001,0.467605,-0.099748,0.7704735,0.698625,-0.177377,1.1173535,0.4741849999999999,-0.099065,1.1850135,0.681005,-0.184021,0.7127535,0.958895,-0.267155,1.2226935,0.939445,-0.2772949999999999,0.9208295,-0.0002349999999999,0.004025,1.0791705,0.0002349999999999,-0.004025,0.8410735,-0.100715,-0.323905,1.0966635,-0.108925,-0.341595,0.8736735,-0.441525,-0.1876729999999999,1.1125535,-0.446415,-0.19704
127,0.978789,0.69649,-0.0809024999999999,0.8544229999999999,0.47014,-0.0968874999999999,0.768753,0.70234,-0.1731935,1.116593,0.47706,-0.0957754999999999,1.185193,0.6874899999999999,-0.1781785,0.711403,0.96302,-0.2612415,1.223853,0.93953,-0.2706915,0.921314,-7.00000000000145e-05,0.0036685,1.078686,6.999999999995898e-05,-0.0036684999999999,0.841433,-0.12716,-0.3195415,1.096953,-0.13343,-0.3366715,0.872833,-0.46799,-0.1835655,1.112823,-0.47273,-0.1938955
128,0.9770695000000001,0.701705,-0.0765565,0.8536625000000001,0.471885,-0.0936665,0.7674825000000001,0.703765,-0.1688195,1.1160225,0.480205,-0.0921155,1.1854425,0.690505,-0.1721285,0.7104125,0.966335,-0.2552125,1.2247925,0.937175,-0.2620625,0.9218325,-0.0002849999999999,0.0034244999999999,1.0781675,0.000285,-0.0034244999999999,0.8419825,-0.152735,-0.3140225,1.0974825,-0.157275,-0.3304225,0.8730225,-0.495715,-0.1792675,1.1132325,-0.4991449999999999,-0.1902995
129,0.9764880000000001,0.7061649999999999,-0.0692185,0.853132,0.475865,-0.0867015,0.7657020000000001,0.713535,-0.1616885,1.115912,0.483865,-0.0848395,1.185952,0.688485,-0.1629485,0.7091620000000001,0.979515,-0.2460095,1.225692,0.933265,-0.2507795,0.92249,-0.000295,0.0030654999999999,1.07751,0.0002949999999999,-0.0030654999999999,0.8429120000000001,-0.172315,-0.3047395,1.098382,-0.175275,-0.3213095,0.873562,-0.520445,-0.1726185,1.114162,-0.523235,-0.1853604999999999
130,0.9762195,0.71087,-0.0610519999999999,0.8527994999999999,0.47792,-0.0792799999999999,0.7647695,0.71557,-0.1530849999999999,1.1164895,0.48661,-0.0771959999999999,1.1871595,0.68926,-0.152685,0.7084895,0.98148,-0.235508,1.2270094999999999,0.93637,-0.239058,0.9229305,-0.00039,0.002893,1.0770695,0.00039,-0.0028929999999999,0.8440995,-0.18897,-0.294238,1.0995294999999998,-0.19045,-0.3117379999999999,0.8742894999999999,-0.54294,-0.166387,1.1152395,-0.5447,-0.1803989999999999
131,0.9761315,0.71545,-0.0528069999999999,0.8527665,0.47846,-0.072138,0.7642765,0.71651,-0.142855,1.1170965,0.48917,-0.069887,1.1883564999999998,0.69197,-0.142286,0.7077865000000001,0.98296,-0.225092,1.2283164999999998,0.94254,-0.227222,0.9234665,-0.0005,0.00281,1.0765335,0.0005,-0.0028099999999999,0.8453765,-0.20344,-0.284012,1.1006665,-0.20405,-0.302262,0.8750865,-0.5630499999999999,-0.1601719999999999,1.1162965,-0.56381,-0.17529
132,0.9764755,0.7192649999999999,-0.044143,0.8527605,0.480915,-0.064303,0.7634805,0.719145,-0.132693,1.1181405,0.490305,-0.062289,1.1895905,0.694665,-0.132086,0.7072205,0.984015,-0.213395,1.2299205,0.942665,-0.214305,0.9241735000000001,-0.000395,0.0027869999999999,1.0758264999999998,0.0003949999999999,-0.002787,0.8469205000000001,-0.225035,-0.271505,1.1018705,-0.225395,-0.291085,0.8758205,-0.586645,-0.153189,1.1175505000000001,-0.586725,-0.16818
133,0.9774125000000001,0.72237,-0.0348469999999999,0.8529825,0.48466,-0.055734,0.7632125000000001,0.7197199999999999,-0.120958,1.1194725,0.49276,-0.05397,1.1914725,0.6936100000000001,-0.121478,0.7070125,0.98389,-0.2004179999999999,1.2325325,0.94018,-0.2001279999999999,0.9249615,-0.00018,0.002541,1.0750385,0.0001799999999999,-0.002541,0.8489125000000001,-0.24816,-0.257438,1.1034025,-0.24839,-0.277628,0.8766625000000001,-0.6117300000000001,-0.145451,1.1190825,-0.61093,-0.160636
134,0.979006,0.72439,-0.020943,0.853445,0.48508,-0.042294,0.763305,0.71984,-0.10517,1.121215,0.49374,-0.040742,1.193965,0.69291,-0.106495,0.707705,0.98375,-0.1816789999999999,1.236065,0.93664,-0.1813389999999999,0.9255480000000001,-0.0006499999999999,0.002298,1.074452,0.0006499999999999,-0.002298,0.8513450000000001,-0.27185,-0.237729,1.105275,-0.27195,-0.258649,0.877835,-0.6368900000000001,-0.132825,1.120985,-0.63535,-0.148258
135,0.9805275,0.725166,-0.0079269999999999,0.8537185,0.487186,-0.0294009999999999,0.7626485000000001,0.726616,-0.090918,1.1227385,0.496166,-0.0281079999999999,1.1969185,0.697586,-0.092369,0.7079885,0.982946,-0.165414,1.2394485,0.938606,-0.165064,0.9260515,-0.0006629999999999,0.00203,1.0739485,0.000663,-0.0020299999999999,0.8548785,-0.294744,-0.213954,1.1071685,-0.294324,-0.236954,0.8788585,-0.660124,-0.119645,1.1227385,-0.658344,-0.135693
136,0.9820560000000002,0.727268,0.0037805,0.854051,0.487988,-0.0181674999999999,0.761661,0.7343679999999999,-0.0778855,1.124291,0.497268,-0.0170374999999999,1.199941,0.7001379999999999,-0.0806325,0.7082010000000001,0.982648,-0.1504285,1.242391,0.943848,-0.1499984999999999,0.926422,-0.000653,0.0017605,1.073578,0.0006529999999999,-0.0017604999999999,0.858351,-0.313742,-0.1921485,1.109161,-0.312182,-0.2165185,0.879901,-0.6798919999999999,-0.1080125,1.124711,-0.677902,-0.1242515
137,0.9833935,0.7284145,0.0149905,0.8542145,0.4891245,-0.0070805,0.7603745,0.7383845,-0.0650215,1.1259845,0.4987745,-0.0063355,1.2029345,0.7044045000000001,-0.0691305,0.7083145,0.9786945,-0.1356905,1.2450145,0.9487345,-0.1367605,0.9269265,-0.0006175,0.0014295,1.0730735,0.0006175,-0.0014295,0.8615045,-0.3316755,-0.1702605,1.1111144999999998,-0.3298255,-0.1960005,0.8804745,-0.6994655000000001,-0.0969145,1.1265245,-0.6970354999999999,-0.1128865
138,0.9849185,0.7296545,0.025494,0.8545845,0.4881344999999999,0.0030499999999999,0.7602045,0.7377144999999999,-0.0533439999999999,1.1276845,0.4992844999999999,0.003485,1.2057945,0.7100845,-0.058668,0.7091745,0.9720345,-0.121639,1.2476544999999999,0.9529445,-0.1236189999999999,0.9273895,-0.0008854999999999,0.0010889999999999,1.0726105,0.0008855,-0.0010889999999999,0.8647245,-0.3471455,-0.149209,1.1129145,-0.3449055,-0.175889,0.8809245,-0.7173555,-0.086751,1.1283045,-0.7143655,-0.102051
139,0.9865130000000001,0.7297855,0.034776,0.854962,0.4886855,0.012289,0.760212,0.7383755,-0.042779,1.129202,0.4995055,0.01232,1.208442,0.7156855,-0.0497159999999999,0.710082,0.9660955,-0.108333,1.250102,0.9548355,-0.111543,0.927817,-0.0009954999999999,0.000799,1.0721829999999999,0.0009954999999999,-0.000799,0.867752,-0.3610345,-0.129483,1.114602,-0.3582045,-0.156873,0.881272,-0.7319345,-0.077451,1.129992,-0.7288845,-0.092064
140,0.9877275,0.7298315000000001,0.0437235,0.8552435,0.4901215,0.0213095,0.7600835,0.7399115,-0.0325945,1.1306235,0.4997515,0.0209585,1.2109035,0.7208715,-0.0410294999999999,0.7106735,0.9630915,-0.0949275,1.2515535,0.9544215,-0.1002045,0.9280855000000001,-0.0011064999999999,0.0005114999999999,1.0719144999999999,0.0011064999999999,-0.0005114999999999,0.8706834999999999,-0.3751685,-0.1095045,1.1162735,-0.3713185,-0.1377945,0.8815735000000001,-0.7460785,-0.0678505,1.1315735,-0.7428984999999999,-0.0823445
141,0.9889080000000001,0.7298939999999999,0.051604,0.855379,0.490304,0.029288,0.759819,0.741694,-0.0239519999999999,1.131839,0.500134,0.028671,1.213309,0.725034,-0.0332279999999999,0.7111890000000001,0.961854,-0.083044,1.2527089999999999,0.955094,-0.090211,0.928288,-0.001347,0.000289,1.071712,0.001347,-0.0002889999999999,0.8733290000000001,-0.3867359999999999,-0.091321,1.117699,-0.3814059999999999,-0.120241,0.881759,-0.756936,-0.05925,1.132929,-0.7536660000000001,-0.073408
142,0.99011,0.7291265,0.0587115,0.855502,0.4903865,0.0365465,0.759932,0.7455665,-0.0162124999999999,1.133042,0.4993364999999999,0.0354975,1.215222,0.7291665,-0.0260924999999999,0.711722,0.9614865,-0.0724095,1.253592,0.9546765,-0.0816175,0.928025,-0.0015044999999999,0.0002285,1.071975,0.0015045,-0.0002284999999999,0.875972,-0.3974735,-0.0742275,1.119102,-0.3913835,-0.1045905,0.881942,-0.7673935,-0.0513644999999999,1.1342819999999998,-0.7642835,-0.0650355
143,0.9910895,0.729134,0.0604855,0.8553575,0.490884,0.0385215,0.7597475000000001,0.750834,-0.0137035,1.1338375,0.500834,0.0371035,1.2166374999999998,0.735414,-0.0247345,0.7118275000000001,0.963774,-0.0678735,1.2541175,0.957654,-0.0779275,0.9277875,-0.001669,0.0004084999999999,1.0722125,0.001669,-0.0004084999999999,0.8781875,-0.405136,-0.0635965,1.1200475,-0.3981059999999999,-0.0950675,0.8817475,-0.774526,-0.0486454999999999,1.1352175,-0.771076,-0.0618375
144,0.9919875000000001,0.7284765,0.0621824999999999,0.8554125,0.4912965,0.0403125,0.7600625,0.7509165,-0.0114655,1.1344425,0.4999964999999999,0.0385665,1.2171625,0.7346564999999999,-0.0230895,0.7120925,0.9665965,-0.0639365,1.2546925,0.9540565,-0.0747225,0.9275335,-0.0018834999999999,0.0006444999999999,1.0724665,0.0018834999999999,-0.0006445,0.8792725,-0.4107134999999999,-0.0572325,1.1208625,-0.4030534999999999,-0.0887475,0.8815925,-0.7797035,-0.0465185,1.1361025,-0.7760235,-0.0593295
145,0.9927825000000001,0.7273055,0.0636859999999999,0.8555095,0.4917554999999999,0.041983,0.7605595,0.7499955,-0.009223,1.1350095,0.4999355,0.039898,1.2176495,0.7343855,-0.021563,0.7124094999999999,0.9699455,-0.0603969999999999,1.2554695,0.9534355,-0.071633,0.9273355000000001,-0.0021735,0.000896,1.0726645,0.0021734999999999,-0.0008959999999999,0.8803895,-0.4153745,-0.0504079999999999,1.1217495,-0.4075645,-0.082368,0.8816695,-0.7842144999999999,-0.044406,1.1367295,-0.7805344999999999,-0.0569019999999999
146,0.993438,0.7263,0.0651559999999999,0.855558,0.4926,0.043574,0.760938,0.74923,-0.007369,1.135488,0.49972,0.0412509999999999,1.218008,0.7314999999999999,-0.020067,0.7126779999999999,0.97355,-0.057229,1.2565179999999998,0.95308,-0.068805,0.9270750000000001,-0.0023899999999999,0.0011109999999999,1.072925,0.0023899999999999,-0.001111,0.881458,-0.41929,-0.043601,1.122668,-0.4114799999999999,-0.076362,0.8816180000000001,-0.78813,-0.042308,1.137238,-0.78445,-0.054452
147,0.994048,0.7248605,0.066761,0.855819,0.4925705,0.0452049999999999,0.761679,0.7481905,-0.004681,1.135919,0.4988305,0.042776,1.218349,0.7295605000000001,-0.018283,0.713069,0.9743205,-0.054762,1.256729,0.9511305,-0.066171,0.9268810000000001,-0.0025295,0.001364,1.073119,0.0025294999999999,-0.001364,0.882329,-0.4209695,-0.036371,1.123599,-0.4116395,-0.070455,0.881139,-0.7918594999999999,-0.0406239999999999,1.137689,-0.7875495,-0.0511449999999999
148,0.9946485,0.723684,0.0682815,0.8561075,0.492314,0.0467485,0.7626475,0.747054,-0.0021464999999999,1.1363275,0.4980739999999999,0.0442025,1.2186775,0.7277739999999999,-0.0165924999999999,0.7134575000000001,0.975524,-0.0522725,1.2570675,0.949824,-0.0630474999999999,0.9266975000000001,-0.0027299999999999,0.0016605,1.0733024999999998,0.00273,-0.0016604999999999,0.8831575,-0.4220959999999999,-0.0294094999999999,1.1244774999999998,-0.411846,-0.0649385,0.8809475,-0.7947160000000001,-0.0390444999999999,1.1381375,-0.7897660000000001,-0.0478534999999999
149,0.995182,0.722406,0.069685,0.856384,0.491926,0.048337,0.763664,0.745286,0.0003209999999999,1.1366939999999999,0.4972159999999999,0.045611,1.218964,0.726326,-0.0145139999999999,0.713804,0.974336,-0.0500129999999999,1.257474,0.948986,-0.0600049999999999,0.926536,-0.0028639999999999,0.001923,1.073464,0.0028639999999999,-0.001923,0.883904,-0.423504,-0.0228459999999999,1.1254739999999999,-0.411244,-0.059161,0.880794,-0.7970539999999999,-0.037306,1.138564,-0.7914939999999999,-0.044498
150,0.9960055,0.720724,0.0706115,0.8567975,0.491334,0.0497725,0.7651175,0.742464,0.0029894999999999,1.1372875,0.495924,0.0468835,1.2194275,0.723724,-0.0121775,0.7146775000000001,0.973314,-0.0475805,1.2582175,0.945594,-0.0570144999999999,0.9265245,-0.002915,0.0020594999999999,1.0734755,0.002915,-0.0020594999999999,0.8847475,-0.424886,-0.0163695,1.1266375,-0.411016,-0.0530905,0.8805375,-0.799146,-0.0348455,1.1389675,-0.792886,-0.0399565
151,0.996728,0.719252,0.0713565,0.857125,0.490392,0.0511235,0.7666950000000001,0.739972,0.0055885,1.137755,0.494812,0.0480865,1.219805,0.721372,-0.0101185,0.715525,0.972582,-0.0451745,1.258915,0.942022,-0.0542755,0.9266280000000001,-0.002971,0.0021995,1.073372,0.002971,-0.0021995,0.8854150000000001,-0.425948,-0.0104684999999999,1.127705,-0.410478,-0.0473925,0.8802250000000001,-0.800868,-0.0319685,1.1393550000000001,-0.793828,-0.0353864999999999
152,0.9973520000000001,0.7178525,0.071854,0.8574220000000001,0.4896625,0.052307,0.7681020000000001,0.7375925,0.0080459999999999,1.1381919999999999,0.4937425,0.049185,1.220132,0.7191225,-0.008457,0.7167520000000001,0.9721425,-0.042791,1.259482,0.9394625,-0.052728,0.926742,-0.0029425,0.0022959999999999,1.073258,0.0029424999999999,-0.0022959999999999,0.886002,-0.4265274999999999,-0.00517,1.128662,-0.4097275,-0.042244,0.879862,-0.8023275,-0.02921,1.139722,-0.7944074999999999,-0.0310599999999999
153,0.9979245000000001,0.7165094999999999,0.07235,0.8576865000000001,0.4889895,0.0535289999999999,0.7686565000000001,0.7357895000000001,0.00989,1.1386365,0.4926695,0.050272,1.2204165,0.7171695,-0.006904,0.7178865,0.9718795,-0.04043,1.2601265,0.9365295,-0.0512,0.9268355,-0.0029185,0.0023509999999999,1.0731645,0.0029184999999999,-0.0023509999999999,0.8865065,-0.4271605,-0.000539,1.1295765,-0.4091705,-0.0374699999999999,0.8794765,-0.8035604999999999,-0.026458,1.1400765,-0.7949305,-0.026892
154,0.998277,0.715451,0.072808,0.857932,0.488421,0.0546649999999999,0.7694719999999999,0.733641,0.0119349999999999,1.138952,0.4913609999999999,0.051342,1.220772,0.715421,-0.005398,0.718812,0.971781,-0.038192,1.260742,0.934651,-0.049713,0.926925,-0.002881,0.0024249999999999,1.073075,0.0028809999999999,-0.002425,0.886862,-0.427459,0.0032859999999999,1.1303320000000001,-0.408789,-0.033036,0.879092,-0.804619,-0.023742,1.140372,-0.795469,-0.023013
155,0.9984655,0.7142885,0.0731755,0.8581894999999999,0.4879685,0.0558655,0.7697095,0.7315785,0.0135065,1.1392995,0.4900685,0.0524515,1.2212595,0.7138885,-0.0038445,0.7195995,0.9717085,-0.0359064999999999,1.2619695,0.9355285,-0.0485515,0.9270545,-0.0028335,0.0025164999999999,1.0729454999999999,0.0028334999999999,-0.0025164999999999,0.8871195000000001,-0.4283515,0.0066765,1.1310795,-0.4084715,-0.0288695,0.8788395,-0.8056115,-0.0211885,1.1406895,-0.7965115,-0.0193525
156,0.9985950000000001,0.7136315000000001,0.0732685,0.8584309999999999,0.4879214999999999,0.0568405,0.769951,0.7299215,0.0151654999999999,1.139611,0.4893715,0.0533275,1.221771,0.7129815,-0.0025495,0.719991,0.9721615,-0.0339435,1.262941,0.9372815,-0.0480595,0.927112,-0.0028385,0.0025444999999999,1.072888,0.0028385,-0.0025444999999999,0.8871910000000001,-0.4286285,0.0086725,1.1317409999999999,-0.4080385,-0.0253504999999999,0.8785610000000001,-0.8061085,-0.0188545,1.140921,-0.7972984999999999,-0.0168065
