sb224sc-HT22-VT27/4dt907/src/ml-research/a10/datafiles/kinect_good_preprocessed_A9_mediapipe/A6_kinect_mirrored.csv
FrameNo,nose_3d_x,nose_3d_y,nose_3d_z,left_shoulder_3d_x,left_shoulder_3d_y,left_shoulder_3d_z,left_elbow_3d_x,left_elbow_3d_y,left_elbow_3d_z,right_shoulder_3d_x,right_shoulder_3d_y,right_shoulder_3d_z,right_elbow_3d_x,right_elbow_3d_y,right_elbow_3d_z,left_wrist_3d_x,left_wrist_3d_y,left_wrist_3d_z,right_wrist_3d_x,right_wrist_3d_y,right_wrist_3d_z,left_hip_3d_x,left_hip_3d_y,left_hip_3d_z,right_hip_3d_x,right_hip_3d_y,right_hip_3d_z,left_knee_3d_x,left_knee_3d_y,left_knee_3d_z,right_knee_3d_x,right_knee_3d_y,right_knee_3d_z,left_ankle_3d_x,left_ankle_3d_y,left_ankle_3d_z,right_ankle_3d_x,right_ankle_3d_y,right_ankle_3d_z
30,0.9980895,0.7207410000000001,0.0783265,0.8507505,0.4793209999999999,0.0544605,0.7508205,0.7292310000000001,0.0434705,1.1493405,0.500641,0.0657995,1.2641105000000001,0.733951,0.0454335,0.7258305,0.976651,0.0181765,1.3107005,0.973551,0.0237905,0.9300085,-0.002441,-0.0005205,1.0699915,0.0024409999999999,0.0005205,0.8712205,-0.427849,0.0141065,1.1212605,-0.399249,-0.0093344999999999,0.8515604999999999,-0.794569,-0.0068734999999999,1.1275705,-0.786419,-0.0063774999999999
31,0.9980315000000001,0.720542,0.0782124999999999,0.8509735,0.478762,0.0544285,0.7512935000000001,0.729702,0.0487125,1.1491135,0.500412,0.0662804999999999,1.2639434999999999,0.7374919999999999,0.0507885,0.7234535,0.977022,0.0330055,1.3099935,0.978322,0.0342004999999999,0.9300155,-0.002507,-0.0006945,1.0699845,0.0025069999999999,0.0006944999999999,0.8710635,-0.427768,0.0142055,1.1210535,-0.3997279999999999,-0.0093465,0.8514435,-0.795438,-0.0068264999999999,1.1274835,-0.787998,-0.0069045
32,0.9979895,0.720418,0.078149,0.8511005,0.478428,0.054423,0.7511405,0.732838,0.054089,1.1489305,0.499958,0.066492,1.2635905,0.7380979999999999,0.05461,0.7208005,0.976988,0.042748,1.3100304999999999,0.980188,0.040546,0.9300215000000001,-0.002554,-0.000841,1.0699785,0.002554,0.0008409999999999,0.8708705,-0.427432,0.0144,1.1208505,-0.400232,-0.009258,0.8512605,-0.796212,-0.006669,1.1272605,-0.789332,-0.007355
33,0.9979945000000001,0.720266,0.078132,0.8511835,0.478216,0.054519,0.7506535,0.736176,0.058415,1.1488035,0.499606,0.066644,1.2630735,0.737536,0.05757,0.7183135,0.977326,0.052243,1.3102335,0.981626,0.045893,0.9300435,-0.0025579999999999,-0.0009919999999999,1.0699565,0.002558,0.000992,0.8707435,-0.427504,0.01465,1.1207135,-0.400634,-0.009145,0.8511235,-0.796684,-0.0064969999999999,1.1270535,-0.7899539999999999,-0.007258
34,0.9980735000000001,0.720365,0.0781495,0.8511695,0.478135,0.0546325,0.7502895,0.7358750000000001,0.0622285,1.1486695,0.499305,0.0667655,1.2630895,0.739575,0.0600005,0.7158895000000001,0.977025,0.0611105,1.3103795,0.982825,0.0503695,0.9300385,-0.002533,-0.0011045,1.0699615,0.002533,0.0011044999999999,0.8706095,-0.427565,0.0148884999999999,1.1205495,-0.400845,-0.0090195,0.8509895000000001,-0.796885,-0.0064245,1.1269095,-0.7902549999999999,-0.0071934999999999
35,0.9982900000000001,0.720289,0.078238,0.8510630000000001,0.477859,0.054899,0.750203,0.735409,0.065738,1.148663,0.498839,0.066926,1.263413,0.7416290000000001,0.062149,0.7137830000000001,0.976559,0.068422,1.310433,0.983559,0.05353,0.930024,-0.002496,-0.001264,1.069976,0.0024959999999999,0.001264,0.870363,-0.427861,0.015133,1.120313,-0.400891,-0.0088439999999999,0.850723,-0.797021,-0.00619,1.126753,-0.790931,-0.0073
36,0.9985265,0.7202689999999999,0.0784315,0.8510075,0.4776289999999999,0.0551335,0.7496275,0.737999,0.0690715,1.1487175,0.498399,0.0672475,1.2636775,0.742719,0.0641775,0.7118475,0.977959,0.0748445,1.3104874999999998,0.983959,0.0557924999999999,0.9299675000000001,-0.002443,-0.0014785,1.0700325,0.002443,0.0014785,0.8700975,-0.428081,0.0152705,1.1200374999999998,-0.400871,-0.0087054999999999,0.8502975,-0.797071,-0.0059705,1.1263175,-0.790621,-0.0068295
37,0.998735,0.72011,0.078666,0.850948,0.4773699999999999,0.055395,0.7493179999999999,0.7360099999999999,0.0722319999999999,1.148858,0.49793,0.067478,1.263598,0.74161,0.066027,0.710088,0.97933,0.0800879999999999,1.310648,0.98423,0.057699,0.92989,-0.002409,-0.0016679999999999,1.0701100000000001,0.002409,0.0016679999999999,0.869838,-0.4285099999999999,0.015438,1.119748,-0.40088,-0.008536,0.8498680000000001,-0.7972400000000001,-0.0056459999999999,1.1258679999999999,-0.7903100000000001,-0.006314
38,0.9989075000000001,0.719962,0.078859,0.8508855,0.477112,0.055596,0.7491055000000001,0.732862,0.074377,1.1489354999999999,0.4974919999999999,0.067607,1.2632955,0.739802,0.067019,0.7094455,0.980652,0.081293,1.3109155000000001,0.984352,0.058928,0.9298035,-0.002405,-0.0018019999999999,1.0701965,0.0024049999999999,0.001802,0.8695955,-0.428888,0.015535,1.1194655,-0.400848,-0.0084529999999999,0.8494555,-0.797388,-0.005467,1.1254255,-0.789958,-0.005918
39,0.999083,0.7198125,0.079025,0.850807,0.4768424999999999,0.055911,0.7482770000000001,0.7324625,0.076414,1.1490070000000001,0.4970924999999999,0.0678479999999999,1.262837,0.7373425,0.068004,0.709407,0.9817525,0.082298,1.3111169999999999,0.9841525,0.059377,0.929705,-0.0024095,-0.0017959999999999,1.070295,0.0024095,0.001796,0.8693770000000001,-0.4293975,0.015038,1.119207,-0.4009975,-0.008487,0.849087,-0.7977075,-0.0054429999999999,1.125127,-0.7910875,-0.0062229999999999
40,0.999058,0.71983,0.079221,0.850695,0.47688,0.056431,0.747655,0.7293799999999999,0.0784,1.148915,0.4969499999999999,0.068412,1.262075,0.73458,0.068872,0.7091350000000001,0.98261,0.082489,1.311175,0.98441,0.059578,0.929666,-0.002441,-0.0017929999999999,1.070334,0.0024409999999999,0.001793,0.8691949999999999,-0.42975,0.01427,1.118955,-0.40114,-0.0085599999999999,0.848815,-0.79785,-0.0054619999999999,1.125025,-0.79165,-0.006217
41,0.9990585,0.7197899999999999,0.079447,0.8505595,0.47706,0.057115,0.7472795,0.7263999999999999,0.079361,1.1488595,0.49699,0.069077,1.2616695,0.7333700000000001,0.069667,0.7088595,0.98351,0.08268,1.3112095,0.98451,0.05978,0.9295975,-0.002441,-0.0017889999999999,1.0704025,0.0024409999999999,0.001789,0.8690095,-0.4302,0.013103,1.1187095,-0.40114,-0.008764,0.8485695,-0.79785,-0.0054849999999999,1.1249795,-0.7924199999999999,-0.006482
42,0.999034,0.7195800000000001,0.0797555,0.85045,0.47718,0.0587365,0.7469,0.72342,0.0801715,1.14881,0.49698,0.0699545,1.26089,0.7310700000000001,0.0705595,0.70875,0.98441,0.0826325,1.3112300000000001,0.98461,0.0598365,0.92954,-0.002441,-0.0017464999999999,1.07046,0.0024409999999999,0.0017464999999999,0.86877,-0.43078,0.0112955,1.1185100000000001,-0.40114,-0.0093934999999999,0.84839,-0.79785,-0.0058165,1.12485,-0.79284,-0.0072025
43,0.998936,0.7193195,0.080071,0.8501,0.4771195,0.060457,0.7465200000000001,0.7204495000000001,0.08089,1.14884,0.4967995,0.071197,1.26059,0.7301695,0.070931,0.70819,0.9849695,0.081394,1.31118,0.9847695,0.059215,0.929476,-0.0024285,-0.001653,1.070524,0.0024285,0.001653,0.8684100000000001,-0.4322105,0.007612,1.11817,-0.4025505,-0.012045,0.84814,-0.7979605,-0.0076999999999999,1.12461,-0.7934405,-0.0093639999999999
44,0.9988295000000001,0.7194235,0.080249,0.8496665000000001,0.4771935,0.0621769999999999,0.7454665,0.7194735,0.0813919999999999,1.1487765,0.4971834999999999,0.0725669999999999,1.2605665,0.7297035000000001,0.070786,0.7071765,0.9850735,0.0798059999999999,1.3110465,0.9848735,0.058216,0.9294165,-0.0024185,-0.001555,1.0705835,0.0024184999999999,0.0015549999999999,0.8680165,-0.4341465,0.0032099999999999,1.1178465,-0.4044565,-0.015324,0.8477965000000001,-0.7979965,-0.010043,1.1243265,-0.7940265,-0.011959
45,0.9987675,0.719613,0.080411,0.8491935000000002,0.477383,0.06412,0.7443934999999999,0.7186629999999999,0.081659,1.1487635,0.4974229999999999,0.07398,1.2599235,0.727083,0.070786,0.7058035,0.985263,0.077829,1.3109135,0.985063,0.056925,0.9293685,-0.0023769999999999,-0.0015119999999999,1.0706315,0.002377,0.001512,0.8676035,-0.436077,-0.0017019999999999,1.1174935,-0.406837,-0.0192789999999999,0.8474735000000001,-0.798147,-0.0128319999999999,1.1240635,-0.794597,-0.01505
46,0.9987035000000001,0.719772,0.080453,0.8486965,0.477832,0.066046,0.7434164999999999,0.718492,0.081301,1.1488265,0.497822,0.075253,1.2593765,0.724462,0.070469,0.7042065,0.985712,0.075321,1.3107864999999999,0.985512,0.055243,0.9293095,-0.002313,-0.00144,1.0706905,0.0023129999999999,0.0014399999999999,0.8671465,-0.437838,-0.007204,1.1171065,-0.409298,-0.023928,0.8471665000000002,-0.798148,-0.016313,1.1237865,-0.795208,-0.018889
47,0.998431,0.7199135,0.080137,0.848049,0.4785935,0.0677069999999999,0.7430289999999999,0.7158935000000001,0.080163,1.148579,0.4987235,0.076322,1.259449,0.7242835000000001,0.069536,0.702149,0.9865335,0.072079,1.310489,0.9863335,0.05303,0.92928,-0.0022744999999999,-0.001322,1.0707200000000001,0.0022745,0.001322,0.866719,-0.4392764999999999,-0.0136239999999999,1.116719,-0.4111165,-0.029425,0.846859,-0.7978565,-0.02053,1.123639,-0.7956365,-0.023719
48,0.99824,0.7200829999999999,0.07974,0.847457,0.479333,0.0691529999999999,0.742857,0.715363,0.078933,1.148377,0.499683,0.07693,1.2596370000000001,0.724193,0.0682369999999999,0.7000770000000001,0.987053,0.068528,1.310297,0.987153,0.0508639999999999,0.929213,-0.002202,-0.001132,1.070787,0.0022019999999999,0.0011319999999999,0.866257,-0.440787,-0.019848,1.1163669999999999,-0.413227,-0.035672,0.846557,-0.797477,-0.024793,1.123597,-0.7964870000000001,-0.028834
49,0.9980650000000001,0.720055,0.079251,0.846935,0.4800150000000001,0.070328,0.741835,0.715265,0.076905,1.1483349999999999,0.5007550000000001,0.077115,1.259305,0.7225750000000001,0.066273,0.6979850000000001,0.987575,0.064682,1.310125,0.988275,0.048292,0.929181,-0.002119,-0.0009559999999999,1.070819,0.002119,0.000956,0.865845,-0.441565,-0.026248,1.116085,-0.414335,-0.042158,0.846365,-0.796955,-0.0290459999999999,1.123635,-0.797335,-0.034066
50,0.99783,0.7198405,0.0785125,0.846435,0.4806605,0.0712205,0.741005,0.7152705,0.0744015,1.148305,0.5020505000000001,0.0768605,1.259075,0.7210005,0.0638485,0.6958150000000001,0.9879705,0.0605555,1.309935,0.9894705,0.0452474999999999,0.9291780000000001,-0.0019744999999999,-0.0008885,1.070822,0.0019745,0.0008884999999999,0.865425,-0.4408895,-0.0328015,1.115845,-0.4148995,-0.0492235,0.846135,-0.7963494999999999,-0.0335624999999999,1.123645,-0.7978695,-0.0391515
51,0.9976500000000001,0.7194535,0.0774125,0.8459110000000001,0.4810535,0.0709955,0.7406809999999999,0.7148034999999999,0.0717405,1.148341,0.5026235,0.0762785,1.258921,0.7196435,0.0608805,0.693651,0.9882035,0.0563415,1.309881,0.9908035,0.0422465,0.929107,-0.0017995,-0.0009235,1.070893,0.0017995,0.0009234999999999,0.8650610000000001,-0.4388165,-0.0394575,1.115711,-0.4144365,-0.0563014999999999,0.846051,-0.7954265,-0.0378255,1.123721,-0.7970765000000001,-0.0437875
52,0.9975525000000001,0.7185765,0.0758135,0.8455795,0.4809065,0.0703165,0.7399595,0.7139665,0.0695875,1.1482495,0.5025365,0.0747755,1.2588395000000001,0.7185265,0.0586865,0.6917295,0.9882565,0.0525325,1.3098995,0.9921565,0.0400455,0.9290545,-0.0016024999999999,-0.0009965,1.0709455,0.0016024999999999,0.0009964999999999,0.8645395,-0.4362635,-0.0455735,1.1157295,-0.4118835,-0.0626915,0.8459995000000001,-0.7940135,-0.0411345,1.1235895,-0.7955735,-0.0473825
53,0.997504,0.7176505000000001,0.0738495,0.845383,0.4806204999999999,0.0692295,0.739333,0.7133105000000001,0.0674385,1.148163,0.5018205,0.0729315,1.258863,0.7173505,0.0564955,0.6901930000000001,0.9882005,0.0482275,1.309903,0.9932005,0.0377425,0.928944,-0.0014195,-0.0010645,1.071056,0.0014194999999999,0.0010645,0.863833,-0.4331195,-0.0524095,1.1159329999999998,-0.4087395,-0.0694395,0.8460030000000001,-0.7919995,-0.0445015,1.1235330000000001,-0.7933994999999999,-0.0509375
54,0.9974590000000001,0.7167885,0.071786,0.845225,0.4800685,0.067185,0.739215,0.7128785000000001,0.06538,1.147945,0.5011785000000001,0.070879,1.258905,0.7160885,0.054426,0.688955,0.9880785,0.043541,1.309895,0.9940785,0.0351999999999999,0.9288780000000001,-0.0012474999999999,-0.001173,1.071122,0.0012474999999999,0.001173,0.863085,-0.4306215,-0.05946,1.116185,-0.4058815,-0.076263,0.846035,-0.7896215,-0.047711,1.123495,-0.7907015,-0.054253
55,0.997592,0.715335,0.06981,0.845221,0.479705,0.0653,0.7385010000000001,0.7116849999999999,0.062067,1.148151,0.5004550000000001,0.068898,1.259301,0.714655,0.051489,0.688051,0.987825,0.038742,1.3099910000000001,0.994225,0.0318839999999999,0.928816,-0.0011209999999999,-0.001258,1.071184,0.001121,0.001258,0.8623609999999999,-0.427105,-0.0665299999999999,1.1166209999999999,-0.403365,-0.082936,0.846261,-0.787145,-0.050515,1.123631,-0.787795,-0.057033
56,0.9978365,0.7135335,0.068179,0.8453825,0.4794135,0.063674,0.7379525,0.7105435,0.058779,1.1484825,0.4999435,0.067261,1.2598125,0.7129435,0.048623,0.6873925000000001,0.9877535,0.034296,1.3101825,0.9938535,0.02852,0.9287595,-0.0009424999999999,-0.001464,1.0712405,0.0009424999999999,0.001464,0.8617425,-0.4231364999999999,-0.0734359999999999,1.1172925,-0.4011365,-0.08961,0.8466325,-0.7845965,-0.052848,1.1238625,-0.7846165,-0.059122
57,0.9983175000000001,0.7123855,0.065879,0.8456435000000001,0.4781954999999999,0.061767,0.7372935,0.7109155,0.054638,1.1489535,0.4983055,0.06518,1.2604235,0.7128055000000001,0.045052,0.6868835000000001,0.9894255,0.029397,1.3104835000000001,0.9949255,0.024146,0.9286115,-0.0007835,-0.001646,1.0713885,0.0007834999999999,0.001646,0.8612135000000001,-0.4183545,-0.081167,1.1182335,-0.3964645,-0.096676,0.8470835000000001,-0.7800644999999999,-0.0555719999999999,1.1241935,-0.7794445,-0.0614969999999999
58,0.9989295,0.7114215,0.063272,0.8460045,0.4774915,0.059494,0.7365145,0.7121715000000001,0.050206,1.1494645000000001,0.4969715,0.06263,1.2610744999999999,0.7127315000000001,0.041109,0.6863745,0.9885515,0.022222,1.3108645,0.9957515,0.0193659999999999,0.9284225,-0.0006835,-0.001696,1.0715775,0.0006835,0.001696,0.8607445000000001,-0.4128285,-0.0893009999999999,1.1192644999999999,-0.3904384999999999,-0.104064,0.8476245,-0.7748785,-0.058459,1.1246044999999998,-0.7736085,-0.06403
59,0.9995185,0.710213,0.0601415,0.8463815,0.476933,0.0568314999999999,0.7354215,0.713093,0.0449615,1.1499615,0.495973,0.0598154999999999,1.2616815,0.712313,0.0365464999999999,0.6858515000000001,0.984673,0.0144485,1.3111515,0.996063,0.0138264999999999,0.9282795,-0.000588,-0.0017395,1.0717205,0.000588,0.0017394999999999,0.8602715,-0.405737,-0.0979435,1.1202115,-0.383227,-0.1120855,0.8482514999999999,-0.7684470000000001,-0.0614625,1.1249715,-0.766387,-0.0670275
60,0.9999705,0.7089605,0.056849,0.8468315000000001,0.4765605,0.054143,0.7344815,0.7143305,0.039539,1.1504415,0.4952305,0.056952,1.2621415,0.7118605,0.0319,0.6852715,0.9810005,0.006599,1.3111715,0.9945605,0.007136,0.9281815,-0.0005355,-0.001811,1.0718185,0.0005355,0.001811,0.8596915,-0.3987394999999999,-0.106552,1.1210415,-0.3770695,-0.1200239999999999,0.8487115000000001,-0.7616094999999999,-0.064403,1.1252515,-0.7593495,-0.069871
61,1.0003095,0.707481,0.053617,0.8471145,0.4765709999999999,0.051604,0.7333545,0.7159110000000001,0.034379,1.1507445,0.495021,0.054265,1.2624845,0.711271,0.027527,0.6848045,0.977501,-0.000852,1.3111545,0.992351,0.000307,0.9280765,-0.000542,-0.001784,1.0719235,0.000542,0.001784,0.8592145,-0.392169,-0.1140819999999999,1.1216645,-0.371149,-0.127212,0.8490645,-0.755019,-0.067052,1.1253644999999999,-0.7525189999999999,-0.072474
62,1.000471,0.7058145,0.050484,0.847199,0.4766045,0.0492439999999999,0.732729,0.7167745000000001,0.029365,1.150849,0.4951945,0.051957,1.262659,0.7102345,0.023291,0.6841290000000001,0.9734945,-0.0080799999999999,1.311019,0.9896345,-0.0063459999999999,0.927941,-0.0005625,-0.0016689999999999,1.072059,0.0005625,0.001669,0.858719,-0.3865555,-0.120429,1.121949,-0.3667655,-0.133879,0.849449,-0.7490555,-0.069357,1.125379,-0.7463455,-0.074847
63,1.000529,0.7041179999999999,0.0471604999999999,0.847129,0.476498,0.0467235,0.731609,0.7165279999999999,0.0240764999999999,1.150879,0.494098,0.0493155,1.262669,0.7093879999999999,0.0186405,0.683119,0.970138,-0.0157615,1.310699,0.987938,-0.0132055,0.927854,-0.000524,-0.0015745,1.072146,0.000524,0.0015744999999999,0.857979,-0.379552,-0.1272985,1.121989,-0.361452,-0.1407285,0.8496589999999999,-0.7416820000000001,-0.0721405,1.1253090000000001,-0.7385820000000001,-0.0774125
64,1.0006495,0.7032554999999999,0.0435815,0.8470365,0.4760755,0.0440225,0.7303865,0.7178255,0.0189024999999999,1.1507465,0.4932955,0.0464565,1.2628065,0.7097555,0.0134985,0.6820965,0.9683955,-0.0233425,1.3102865000000001,0.9878155,-0.0202335,0.9278235,-0.0005785,-0.0012545,1.0721765,0.0005784999999999,0.0012544999999999,0.8572265,-0.3717945,-0.1344665,1.1220365,-0.3561845,-0.1479465,0.8498365000000001,-0.7326145000000001,-0.0751035,1.1251765,-0.7291745000000001,-0.0802345
65,1.0007765,0.702471,0.039752,0.8469015,0.475531,0.041245,0.7297015,0.716571,0.013769,1.1505615,0.4910609999999999,0.043203,1.2626215,0.710681,0.007861,0.6810915,0.964711,-0.030947,1.3101715,0.983621,-0.028845,0.9278495,-0.000579,-0.0008529999999999,1.0721505,0.0005789999999999,0.000853,0.8564215,-0.364359,-0.141696,1.1220015,-0.350509,-0.155186,0.8499315000000001,-0.722269,-0.0783919999999999,1.1249715,-0.718529,-0.083396
66,1.000903,0.701333,0.036431,0.846883,0.475493,0.038982,0.729143,0.7140029999999999,0.009045,1.150303,0.4903229999999999,0.040293,1.2623229999999999,0.7096629999999999,0.00246,0.6800930000000001,0.959703,-0.038092,1.310033,0.973303,-0.037519,0.927812,-0.000583,-0.000403,1.072188,0.000583,0.000403,0.8556430000000002,-0.358017,-0.148141,1.121833,-0.345787,-0.161491,0.850023,-0.713227,-0.081403,1.124713,-0.709207,-0.0863029999999999
67,1.0009335,0.7003765000000001,0.0331675,0.8468525,0.4751864999999999,0.0367145,0.7286125,0.7106865,0.0043745,1.1501125,0.4892565,0.0372715,1.2619625,0.7092665,-0.0028765,0.6791825,0.9578065,-0.0429854999999999,1.3098524999999999,0.9636865,-0.0459835,0.9276835,-0.0004774999999999,-2.4500000000000216e-05,1.0723165,0.0004774999999999,2.4500000000000216e-05,0.8548225,-0.3515035,-0.1541795,1.1216325,-0.3407035,-0.1677795,0.8500325,-0.7040535,-0.0844445,1.1248125,-0.6995135,-0.0894075
68,1.0008054999999998,0.699168,0.029677,0.8466605,0.475048,0.034245,0.7280105,0.7069179999999999,-2.500000000000072e-05,1.1498504999999999,0.4887979999999999,0.034166,1.2614505,0.7053579999999999,-0.00801,0.6781505,0.959628,-0.047652,1.3097105,0.952508,-0.0537789999999999,0.9274645,-0.000496,0.000459,1.0725355,0.0004959999999999,-0.000459,0.8536005,-0.346192,-0.160578,1.1213605,-0.335712,-0.173488,0.8499505,-0.694852,-0.087714,1.1250805,-0.689612,-0.0927559999999999
69,1.0005814999999998,0.6987760000000001,0.0259775,0.8466495,0.474606,0.0312245,0.7273095,0.704296,-0.0042304999999999,1.1496795,0.488176,0.0308625,1.2610095000000001,0.7029960000000001,-0.0130275,0.6769795000000001,0.954996,-0.0537235,1.3096495,0.944386,-0.0605485,0.9272135,-0.000417,0.0009254999999999,1.0727865,0.000417,-0.0009254999999999,0.8523995,-0.339344,-0.1666425,1.1210595,-0.329314,-0.1791525,0.8498095,-0.6845939999999999,-0.0912405,1.1253595,-0.678774,-0.0965024999999999
70,0.999835,0.6984684999999999,0.022482,0.8464240000000001,0.4739485,0.028146,0.726684,0.7017385,-0.008178,1.148914,0.4871884999999999,0.027515,1.260154,0.7013885,-0.017835,0.675624,0.9508185,-0.0595519999999999,1.309304,0.9371285,-0.067145,0.927077,-0.0003195,0.0013319999999999,1.072923,0.0003195,-0.0013319999999999,0.851004,-0.3291315,-0.172655,1.120644,-0.3195515,-0.184425,0.849534,-0.6740915,-0.093993,1.125554,-0.6676515,-0.100219
71,0.9989905,0.6981675,0.019111,0.8461515,0.4730675,0.024986,0.7263115,0.6997175,-0.012013,1.1480614999999998,0.4858774999999999,0.0240169999999999,1.2592315,0.7003575000000001,-0.022405,0.6745215,0.9475175,-0.065012,1.3088115,0.9311275,-0.073602,0.9269045,-0.0002525,0.0017299999999999,1.0730955,0.0002525,-0.0017299999999999,0.8495715,-0.3184125,-0.178751,1.1202115,-0.3096824999999999,-0.189451,0.8490215,-0.6628824999999999,-0.096339,1.1255315,-0.6563924999999999,-0.103914
72,0.9981460000000001,0.697675,0.015589,0.845793,0.472615,0.021713,0.7257830000000001,0.699395,-0.015993,1.147193,0.485175,0.020271,1.258313,0.700315,-0.026957,0.673563,0.945145,-0.070178,1.307943,0.926025,-0.080204,0.926639,-0.000155,0.0021869999999999,1.073361,0.0001549999999999,-0.0021869999999999,0.848233,-0.3073249999999999,-0.184094,1.120003,-0.299575,-0.194644,0.848623,-0.651315,-0.0983329999999999,1.125503,-0.644935,-0.1075639999999999
73,0.9969845,0.69927,0.007557,0.8453625,0.47135,0.013283,0.7246725,0.69769,-0.0247739999999999,1.1455425,0.48477,0.01171,1.2570225,0.70077,-0.035826,0.6722925,0.94459,-0.0798639999999999,1.3068325,0.92368,-0.091361,0.9263165,-7.000000000000062e-05,0.002707,1.0736835,7.000000000000062e-05,-0.002707,0.8457725,-0.29353,-0.197201,1.1204325,-0.28686,-0.208511,0.8482525,-0.63637,-0.1045329999999999,1.1251825,-0.63077,-0.115569
74,0.9957830000000001,0.70022,-0.000405,0.844889,0.4709,0.0048479999999999,0.723519,0.69824,-0.03362,1.143699,0.4858099999999999,0.003462,1.255519,0.69994,-0.044205,0.670949,0.94504,-0.089537,1.3058290000000001,0.92614,-0.1014,0.926071,-0.00019,0.0032949999999999,1.073929,0.0001899999999999,-0.0032949999999999,0.843229,-0.28051,-0.210266,1.120979,-0.27433,-0.222346,0.847939,-0.62109,-0.110741,1.124849,-0.617,-0.123206
75,0.9946050000000001,0.701385,-0.0084945,0.844337,0.470935,-0.0037155,0.722397,0.698875,-0.0423575,1.141617,0.4863349999999999,-0.0049955,1.254027,0.697825,-0.0524445,0.669637,0.946135,-0.0991525,1.304767,0.932855,-0.1107525,0.925849,-0.000255,0.0039234999999999,1.074151,0.0002549999999999,-0.0039235,0.840627,-0.266925,-0.2235565,1.1216869999999999,-0.260885,-0.2368664999999999,0.8475969999999999,-0.6049950000000001,-0.1170185,1.124527,-0.602545,-0.1310494999999999
76,0.9934475,0.7021000000000001,-0.016706,0.8439785000000001,0.47057,-0.0123889999999999,0.7214185,0.70028,-0.050985,1.1396685,0.48651,-0.0134569999999999,1.2524585,0.69604,-0.060469,0.6684985,0.94251,-0.108608,1.3037785,0.93904,-0.120762,0.9256455,-0.0003799999999999,0.004517,1.0743545,0.0003799999999999,-0.004517,0.8379785000000001,-0.2521099999999999,-0.237064,1.1224985,-0.2462799999999999,-0.251644,0.8474585,-0.5877899999999999,-0.123276,1.1236884999999999,-0.58698,-0.138366
77,0.992645,0.7033499999999999,-0.0244315,0.8439040000000001,0.4697699999999999,-0.0207045,0.7202040000000001,0.7023600000000001,-0.0591235,1.138034,0.48585,-0.0217735,1.2515139999999998,0.69855,-0.0680995,0.667544,0.93791,-0.1176865,1.3030439999999999,0.94806,-0.1306585,0.925526,-0.00045,0.0050715,1.074474,0.0004499999999999,-0.0050715,0.8357740000000001,-0.23747,-0.2493614999999999,1.123604,-0.23196,-0.2660215,0.8475239999999999,-0.57097,-0.1290745,1.123114,-0.5716399999999999,-0.1448955
78,0.9919335,0.704515,-0.0320459999999999,0.8437115,0.469415,-0.0283999999999999,0.7191215,0.703265,-0.0673139999999999,1.1363515,0.485555,-0.0297869999999999,1.2502515,0.699425,-0.0759919999999999,0.6666415,0.939715,-0.1251489999999999,1.3022015,0.955835,-0.140262,0.9253665000000001,-0.0005649999999999,0.005573,1.0746334999999998,0.000565,-0.0055729999999999,0.8335415000000002,-0.2240149999999999,-0.261416,1.1246115,-0.2186249999999999,-0.280146,0.8478415,-0.5552549999999999,-0.134975,1.1225415,-0.557165,-0.151038
79,0.9912535000000001,0.70537,-0.039735,0.8437205,0.4674899999999999,-0.0366919999999999,0.7182405000000001,0.7048099999999999,-0.075824,1.1347305,0.48461,-0.0380579999999999,1.2490805,0.70038,-0.0841089999999999,0.6656005,0.94158,-0.132716,1.3014705,0.96361,-0.14982,0.9251245,-0.00071,0.006052,1.0748755,0.0007099999999999,-0.006052,0.8312405,-0.21029,-0.273806,1.1254305,-0.20473,-0.294576,0.8482805,-0.5390600000000001,-0.140824,1.1220405,-0.5425900000000001,-0.156968
80,0.9908935000000001,0.70613,-0.0477405,0.8438895000000001,0.46689,-0.0451285,0.7166695000000001,0.70719,-0.0851315,1.1334595,0.48392,-0.0465355,1.2484695,0.70228,-0.0932025,0.6651095,0.9437,-0.1411605,1.3009995,0.96783,-0.1611415,0.9249715000000001,-0.0007199999999999,0.0064474999999999,1.0750285,0.0007199999999999,-0.0064475,0.8289394999999999,-0.19409,-0.2868055,1.1264095,-0.18818,-0.3096755,0.8489895000000001,-0.52139,-0.1463075,1.1215195,-0.52655,-0.1629805
81,0.9905815,0.707205,-0.055381,0.8439435,0.465895,-0.05326,0.7150735000000001,0.708845,-0.094241,1.1322335,0.483755,-0.054486,1.2480835,0.700285,-0.101815,0.6644835,0.944355,-0.14949,1.3005735,0.971025,-0.171879,0.9248525,-0.0009049999999999,0.0068509999999999,1.0751475,0.0009049999999999,-0.006851,0.8266635,-0.178115,-0.299648,1.1272335,-0.172815,-0.324018,0.8497235,-0.504625,-0.151439,1.1208535,-0.5116850000000001,-0.168845
82,0.9906270000000001,0.7058500000000001,-0.0583755,0.8441280000000001,0.46606,-0.0562105,0.7149480000000001,0.7109700000000001,-0.0988135,1.132218,0.48301,-0.0575404999999999,1.248028,0.6972200000000001,-0.1058475,0.664558,0.94217,-0.1534485,1.300448,0.9706,-0.1776344999999999,0.92468,-0.0009699999999999,0.0069015,1.07532,0.00097,-0.0069014999999999,0.825518,-0.1659899999999999,-0.3041144999999999,1.127398,-0.1614099999999999,-0.3290545,0.850388,-0.4921999999999999,-0.1528675,1.120448,-0.50061,-0.1702294999999999
83,0.9907610000000001,0.706445,-0.0620195,0.844399,0.466375,-0.0594055,0.714939,0.713665,-0.1045794999999999,1.132229,0.481325,-0.0609565,1.248189,0.695835,-0.1104624999999999,0.664729,0.938765,-0.1595085,1.300849,0.970265,-0.1836785,0.9244829999999999,-0.0008449999999999,0.0067654999999999,1.075517,0.0008449999999999,-0.0067654999999999,0.824639,-0.153415,-0.3084504999999999,1.127629,-0.149515,-0.3337405,0.851449,-0.4796149999999999,-0.1545355,1.120289,-0.489085,-0.1716885
84,0.9907295000000002,0.7047950000000001,-0.0659179999999999,0.8443945000000002,0.465565,-0.0629439999999999,0.7148844999999999,0.715535,-0.1104299999999999,1.1322045,0.480105,-0.064632,1.2480545,0.6960850000000001,-0.1162299999999999,0.6647845,0.933815,-0.166094,1.3011645,0.969295,-0.1911689999999999,0.9242525,-0.0007649999999999,0.006611,1.0757475,0.000765,-0.0066109999999999,0.8236645000000001,-0.140355,-0.3127689999999999,1.1276745,-0.136455,-0.338159,0.8524245,-0.4665549999999999,-0.1563709999999999,1.1199245,-0.477195,-0.1731019999999999
85,0.991411,0.702995,-0.069746,0.844974,0.465095,-0.066307,0.715164,0.712395,-0.115974,1.132604,0.478985,-0.068273,1.248854,0.696555,-0.122319,0.665324,0.932405,-0.172862,1.3021340000000001,0.968535,-0.197995,0.924086,-0.000645,0.0065159999999999,1.075914,0.000645,-0.006516,0.823234,-0.131035,-0.316725,1.128074,-0.1266149999999999,-0.342075,0.853714,-0.4543549999999999,-0.158186,1.119624,-0.4660649999999999,-0.173891
86,0.9923790000000001,0.7016100000000001,-0.073267,0.845791,0.4651499999999999,-0.069766,0.715741,0.71019,-0.121423,1.133331,0.47752,-0.07214,1.250081,0.69558,-0.128596,0.6658010000000001,0.93199,-0.179449,1.303431,0.96259,-0.20566,0.923858,-0.0004899999999999,0.006402,1.076142,0.0004899999999999,-0.0064019999999999,0.823081,-0.12123,-0.3207299999999999,1.1286209999999999,-0.11659,-0.34577,0.855281,-0.44242,-0.160383,1.119501,-0.4545499999999999,-0.1745249999999999
87,0.9933875,0.699165,-0.0766545,0.8466055,0.4647549999999999,-0.0734005,0.7165954999999999,0.7082849999999999,-0.1269025,1.1341855,0.4760949999999999,-0.0761395,1.2515455,0.695275,-0.1346975,0.6665255,0.932185,-0.1864595,1.3048255,0.957865,-0.2135165,0.9236935,-0.000385,0.0064035,1.0763065,0.0003849999999999,-0.0064035,0.8230755000000001,-0.110575,-0.3247465,1.1291155,-0.105895,-0.3495865,0.8566355,-0.4299550000000001,-0.1623015,1.1193655,-0.442525,-0.1753055
88,0.9944425000000001,0.6973400000000001,-0.0798675,0.8476035,0.46533,-0.0766345,0.7177735000000001,0.7061200000000001,-0.1324065,1.1349935,0.4751000000000001,-0.0800135,1.2532335,0.6946000000000001,-0.1407054999999999,0.6674135,0.93224,-0.1936075,1.3062235,0.95382,-0.2212065,0.9235415,-0.0002499999999999,0.0064634999999999,1.0764585,0.00025,-0.0064634999999999,0.8232735000000001,-0.0996499999999999,-0.3284665,1.1295235,-0.0954799999999999,-0.3531165,0.8581635,-0.4178799999999999,-0.1646685,1.1192935,-0.43065,-0.1761905
89,0.9952575000000001,0.6952400000000001,-0.0826765,0.8483115,0.46481,-0.0798185,0.7191415,0.70335,-0.1369874999999999,1.1358815,0.47402,-0.0836125,1.2545315,0.6939500000000001,-0.1449524999999999,0.6686015000000001,0.93272,-0.2001185,1.3076115,0.95388,-0.2259485,0.9233415,-0.0001599999999999,0.0065915,1.0766585,0.0001599999999999,-0.0065915,0.8236515,-0.0890799999999999,-0.3312184999999999,1.1295015,-0.0854499999999999,-0.3560385,0.8596915,-0.40655,-0.1667905,1.1185015,-0.4194199999999999,-0.1770045
90,0.9959855000000001,0.69299,-0.085187,0.8489275000000001,0.46464,-0.082849,0.7206874999999999,0.70001,-0.141141,1.1367175,0.47251,-0.087,1.2556875,0.69555,-0.148896,0.6708175000000001,0.92927,-0.2061899999999999,1.3090875,0.95347,-0.2313799999999999,0.9230975,4.999999999999449e-05,0.00675,1.0769025,-4.999999999999449e-05,-0.00675,0.8239575,-0.07829,-0.3336,1.1293274999999998,-0.0753699999999999,-0.35865,0.8614175,-0.39564,-0.168741,1.1175875,-0.40823,-0.177572
91,0.996572,0.6907749999999999,-0.0872255,0.849187,0.46442,-0.0856135,0.7221470000000001,0.696635,-0.1446235,1.1376369999999998,0.471045,-0.0900465,1.256647,0.6938949999999999,-0.1524255,0.673117,0.926135,-0.2115415,1.310567,0.951685,-0.2365014999999999,0.922835,0.0002449999999999,0.0070184999999999,1.077165,-0.0002449999999999,-0.0070184999999999,0.824127,-0.067085,-0.3356715,1.128957,-0.065085,-0.3610215,0.863047,-0.384665,-0.1704844999999999,1.116807,-0.397115,-0.1779975
92,0.997313,0.68684,-0.088933,0.849322,0.462439,-0.088287,0.7236020000000001,0.69321,-0.147206,1.138532,0.469188,-0.092721,1.257862,0.68878,-0.155608,0.675102,0.92476,-0.214731,1.311942,0.9464,-0.240771,0.922614,0.0003199999999999,0.0073389999999999,1.077386,-0.0003199999999999,-0.007339,0.824272,-0.0537099999999999,-0.337511,1.128292,-0.0528199999999999,-0.363371,0.864752,-0.3726899999999999,-0.171447,1.1163219999999998,-0.38493,-0.1784649999999999
93,0.9979755000000001,0.684815,-0.0903345,0.8494245,0.4613529999999999,-0.0902075,0.7248845000000002,0.6905049999999999,-0.1494575,1.1393145,0.4672789999999999,-0.0947895,1.2588145,0.684255,-0.1575575,0.6768645,0.924465,-0.2167555,1.3142945,0.942085,-0.2432955,0.9224605,0.0003849999999999,0.0076045,1.0775395,-0.000385,-0.0076045,0.8243845,-0.041495,-0.3388755,1.1275645,-0.041545,-0.3650854999999999,0.8648245,-0.362435,-0.1730384999999999,1.1160845,-0.373745,-0.1792615
94,0.9985180000000001,0.683165,-0.0916495,0.8494550000000001,0.460101,-0.0918805,0.7248050000000001,0.6923349999999999,-0.1515555,1.140035,0.46567,-0.0965945,1.259605,0.6790849999999999,-0.1593665,0.678105,0.924555,-0.2184535,1.316715,0.937915,-0.2455335,0.92242,0.0003549999999999,0.0078065,1.07758,-0.0003549999999999,-0.0078064999999999,0.824415,-0.029685,-0.3401635,1.126805,-0.030685,-0.3664435,0.8647750000000001,-0.352635,-0.1745675,1.116055,-0.3630949999999999,-0.1805395
95,0.998987,0.681155,-0.092198,0.849391,0.458689,-0.093246,0.7246510000000002,0.693875,-0.153546,1.1407209999999999,0.464183,-0.098076,1.260361,0.6754249999999999,-0.16138,0.679181,0.925005,-0.219752,1.319311,0.938595,-0.247632,0.922337,0.0003749999999999,0.0081079999999999,1.077663,-0.000375,-0.008108,0.824491,-0.017635,-0.341392,1.125991,-0.019665,-0.367662,0.864641,-0.343465,-0.176249,1.115951,-0.352385,-0.181758
96,0.999469,0.679125,-0.0926869999999999,0.849386,0.457665,-0.0942839999999999,0.724456,0.695055,-0.154845,1.1413859999999998,0.462443,-0.0991669999999999,1.261106,0.671515,-0.163123,0.679956,0.923765,-0.2207299999999999,1.322096,0.938315,-0.2488,0.922237,0.0004349999999999,0.0084199999999999,1.077763,-0.000435,-0.0084199999999999,0.824636,-0.006335,-0.34222,1.125076,-0.009165,-0.3686,0.8637760000000001,-0.335715,-0.183197,1.115786,-0.342165,-0.182676
97,0.999909,0.67734,-0.092793,0.84936,0.457498,-0.095025,0.72404,0.6961900000000001,-0.156249,1.14193,0.46062,-0.099945,1.26178,0.66779,-0.164583,0.68045,0.92271,-0.221505,1.32513,0.93708,-0.249805,0.922031,0.00054,0.008775,1.077969,-0.0005399999999999,-0.008775,0.8247800000000001,0.00454,-0.342505,1.12405,0.00145,-0.369345,0.8644700000000001,-0.32841,-0.184409,1.11559,-0.3321499999999999,-0.183808
98,1.0002095,0.676005,-0.092472,0.8491805,0.457155,-0.09547,0.7233404999999999,0.6975450000000001,-0.15709,1.1420205,0.458686,-0.100407,1.2626705,0.663455,-0.165567,0.6804805,0.919195,-0.22195,1.3279305,0.935035,-0.2505199999999999,0.9217695,0.000605,0.0091099999999999,1.0782305,-0.0006049999999999,-0.00911,0.8249205,0.014055,-0.34221,1.1231505,0.011045,-0.36977,0.8649305,-0.322585,-0.18534,1.1157105,-0.323415,-0.185202
99,1.0002425,0.674775,-0.091864,0.8488855,0.456646,-0.09573,0.7233755,0.699575,-0.157372,1.1421055,0.4572799999999999,-0.100692,1.2636755,0.660225,-0.166479,0.6802055,0.920175,-0.22187,1.3307555,0.932705,-0.25105,0.9214745,0.0005949999999999,0.00941,1.0785255,-0.000595,-0.00941,0.8250955,0.023455,-0.34174,1.1224055,0.020175,-0.37001,0.8659155000000001,-0.3165449999999999,-0.184825,1.1159854999999999,-0.314855,-0.186554
100,1.000133,0.67333,-0.091168,0.848611,0.455693,-0.095703,0.723211,0.70145,-0.157519,1.142161,0.456133,-0.10075,1.264921,0.66028,-0.167166,0.679951,0.92096,-0.22152,1.333291,0.92898,-0.25143,0.9211050000000001,0.0005499999999999,0.00959,1.078895,-0.0005499999999999,-0.00959,0.8253110000000001,0.0326,-0.34103,1.121791,0.0290199999999999,-0.37024,0.866611,-0.31063,-0.18428,1.116361,-0.3065,-0.187786
101,0.9999375,0.6726449999999999,-0.090298,0.8482605,0.455269,-0.095366,0.7225805000000001,0.7025049999999999,-0.15748,1.1421105,0.456041,-0.10057,1.2659505,0.663615,-0.167334,0.6797505000000001,0.922565,-0.220775,1.3355605,0.928635,-0.251575,0.9208545,0.0005549999999999,0.009605,1.0791455,-0.000555,-0.009605,0.8253905,0.0393649999999999,-0.3403549999999999,1.1214905,0.0352949999999999,-0.370225,0.8669305,-0.306945,-0.183604,1.1176705,-0.300245,-0.1895089999999999
102,0.999827,0.67136,-0.089299,0.847967,0.454984,-0.0947129999999999,0.721197,0.70013,-0.157709,1.142067,0.455428,-0.100017,1.267127,0.66698,-0.167411,0.678547,0.91896,-0.219905,1.336677,0.92917,-0.251625,0.920681,0.00057,0.009635,1.079319,-0.00057,-0.009635,0.825377,0.04631,-0.339835,1.121227,0.0418899999999999,-0.370185,0.864587,-0.30116,-0.189716,1.119617,-0.2937899999999999,-0.191952
103,0.9997065,0.66994,-0.088248,0.8475254999999999,0.4544,-0.0939499999999999,0.7198755,0.69694,-0.156837,1.1419755,0.454721,-0.0993469999999999,1.2689055,0.6700200000000001,-0.167926,0.6773555,0.91591,-0.21908,1.3374454999999998,0.92613,-0.252,0.9204995,0.00063,0.00975,1.0795005,-0.00063,-0.0097499999999999,0.8252755,0.0531699999999999,-0.33921,1.1208855,0.0483899999999999,-0.3700599999999999,0.8626555,-0.29611,-0.1905899999999999,1.1213855,-0.28754,-0.194699
104,0.9995200000000001,0.6680649999999999,-0.0868375,0.8472990000000001,0.4538139999999999,-0.0927895,0.718729,0.6931449999999999,-0.1553095,1.142029,0.4540209999999999,-0.0981135,1.270899,0.6729149999999999,-0.1686715,0.676369,0.911875,-0.2178415,1.338109,0.922775,-0.2521915,0.9203560000000001,0.0006549999999999,0.0100185,1.0796439999999998,-0.000655,-0.0100185,0.8253090000000001,0.0592749999999999,-0.3382315,1.120699,0.0539049999999999,-0.3696115,0.863069,-0.291805,-0.1895455,1.123179,-0.282345,-0.1978865
105,0.9993795,0.66682,-0.084983,0.8472505,0.4537319999999999,-0.091336,0.7178505,0.6894699999999999,-0.153372,1.1422605,0.4531899999999999,-0.096478,1.2728805,0.6760599999999999,-0.169163,0.6748805,0.90911,-0.2165139999999999,1.3385905,0.91963,-0.251944,0.9200785,0.0007299999999999,0.010186,1.0799215,-0.00073,-0.010186,0.8255205,0.0658599999999999,-0.336954,1.1207105,0.0596899999999999,-0.368684,0.8619505000000001,-0.28771,-0.191629,1.1251205,-0.27681,-0.200208
106,0.9991920000000001,0.6654599999999999,-0.0829095,0.847033,0.452742,-0.0895605,0.717213,0.68302,-0.1513585,1.142493,0.4524879999999999,-0.0946845,1.274883,0.67902,-0.1694905,0.6731929999999999,0.90529,-0.2149835,1.338773,0.9162,-0.2517534999999999,0.919881,0.0007499999999999,0.0103464999999999,1.080119,-0.00075,-0.0103464999999999,0.8257630000000001,0.0721299999999999,-0.3357535,1.120743,0.0649599999999999,-0.3676935,0.861243,-0.28384,-0.1925155,1.127143,-0.27182,-0.2024135
107,0.998831,0.66447,-0.080817,0.846633,0.4511259999999999,-0.087643,0.7166430000000001,0.67648,-0.149156,1.142693,0.4525639999999999,-0.092723,1.275283,0.6816599999999999,-0.168994,0.671323,0.90299,-0.21333,1.3389229999999999,0.91223,-0.25148,0.919735,0.00063,0.0104199999999999,1.080265,-0.00063,-0.0104199999999999,0.8258030000000001,0.0782699999999999,-0.33445,1.120633,0.0700599999999999,-0.36657,0.861443,-0.27982,-0.191452,1.128803,-0.26685,-0.203994
108,0.9982680000000002,0.6624950000000001,-0.078587,0.8461830000000001,0.450167,-0.085571,0.7163630000000001,0.670855,-0.14698,1.142633,0.45201,-0.090675,1.276023,0.684615,-0.168816,0.6692130000000001,0.901035,-0.2117919999999999,1.339083,0.908925,-0.251392,0.919569,0.0003149999999999,0.010328,1.080431,-0.0003149999999999,-0.010328,0.825883,0.0854349999999999,-0.332762,1.120523,0.075695,-0.365512,0.863883,-0.2751949999999999,-0.184008,1.1306129999999999,-0.2613649999999999,-0.205384
109,0.9975175,0.66075,-0.0764525,0.8457985,0.449603,-0.0835455,0.7162385,0.66492,-0.1443385,1.1424985,0.4519439999999999,-0.0887655,1.2767785,0.68773,-0.1687895,0.6667585,0.89948,-0.2102635,1.3389385,0.90856,-0.2514935,0.9193815,-0.00031,0.0101264999999999,1.0806185,0.0003099999999999,-0.0101265,0.8259785,0.0935999999999999,-0.3303335,1.1203585,0.0823599999999999,-0.3641835,0.8664885,-0.2698400000000001,-0.1758815,1.1321785,-0.25514,-0.2067135
110,0.9967170000000001,0.65884,-0.0743834999999999,0.845426,0.4491429999999999,-0.0814564999999999,0.716316,0.65928,-0.1416425,1.142356,0.4517459999999999,-0.0868245,1.277376,0.6875899999999999,-0.1689665,0.6642060000000001,0.8968099999999999,-0.2086805,1.3384960000000001,0.90795,-0.2515905,0.919184,-0.00096,0.0098395,1.080816,0.0009599999999999,-0.0098395,0.8260660000000001,0.1018499999999999,-0.3278105,1.120216,0.0891399999999999,-0.3626305,0.868906,-0.2656400000000001,-0.1722235,1.1335259999999998,-0.24909,-0.2078805
111,0.9961840000000001,0.6577250000000001,-0.0724775,0.8451010000000001,0.4491200000000001,-0.0796525,0.7165509999999999,0.657205,-0.1388625,1.142131,0.450366,-0.0852354999999999,1.277851,0.6884250000000001,-0.1699284999999999,0.662111,0.8998250000000001,-0.2072554999999999,1.337491,0.907225,-0.2519455,0.918995,-0.0014849999999999,0.0094545,1.081005,0.001485,-0.0094545,0.826191,0.110555,-0.3248455,1.120161,0.096575,-0.3603355,0.870871,-0.2607449999999999,-0.1674175,1.134331,-0.2425749999999998,-0.2088355
112,0.99583,0.6567449999999999,-0.0707869999999999,0.844857,0.4494489999999999,-0.077917,0.716827,0.6559349999999999,-0.13702,1.141987,0.4493809999999999,-0.0838569999999999,1.278117,0.6893749999999998,-0.169182,0.6600269999999999,0.900345,-0.206041,1.3369469999999999,0.909105,-0.252181,0.91889,-0.002075,0.009029,1.08111,0.0020749999999999,-0.0090289999999999,0.826307,0.1190049999999999,-0.321821,1.120197,0.1039249999999999,-0.357961,0.872127,-0.255345,-0.1631659999999999,1.136297,-0.2372050000000001,-0.211781
113,0.9955245000000001,0.6560149999999999,-0.069362,0.8445405,0.4496189999999999,-0.076336,0.7170205000000001,0.6543349999999999,-0.13578,1.1418405,0.4487109999999999,-0.082764,1.2783205,0.6900149999999999,-0.168588,0.6579705,0.9004549999999999,-0.205227,1.3365305,0.910295,-0.252907,0.9188165000000001,-0.002685,0.0086429999999999,1.0811834999999999,0.0026849999999999,-0.0086429999999999,0.8264205,0.1270349999999999,-0.318987,1.1201705,0.1110049999999999,-0.355687,0.8733905000000001,-0.2485050000000001,-0.158706,1.1380705,-0.2320050000000001,-0.214547
114,0.9952410000000002,0.65533,-0.0684665,0.844093,0.44949,-0.0750055,0.716703,0.652412,-0.1347875,1.141523,0.4483399999999999,-0.0820215,1.277623,0.68889,-0.1682115,0.656243,0.8996599999999999,-0.2053694999999999,1.335703,0.91074,-0.2542795,0.918839,-0.00331,0.0083504999999999,1.081161,0.00331,-0.0083504999999999,0.8265330000000001,0.1342899999999999,-0.3163295,1.119903,0.1179699999999999,-0.3534495,0.873973,-0.24207,-0.1554685,1.139513,-0.2272,-0.2174695
115,0.995044,0.6545930000000001,-0.0678155,0.8438210000000002,0.4501550000000001,-0.0740115,0.715971,0.652722,-0.1338425,1.141161,0.448215,-0.0813865,1.276191,0.6828550000000001,-0.1678325,0.654621,0.8990450000000001,-0.2055145,1.335031,0.910695,-0.2558344999999999,0.918821,-0.0039149999999998,0.0080655,1.0811790000000001,0.003915,-0.0080654999999999,0.8266410000000001,0.141165,-0.3136845,1.119591,0.124715,-0.3510744999999999,0.874701,-0.235695,-0.1514905,1.140801,-0.2224349999999999,-0.2203844999999999
116,0.9949225000000002,0.653644,-0.0672855,0.8437365,0.4513549999999999,-0.0731495,0.7152465,0.6528339999999999,-0.1329985,1.1408765,0.447605,-0.0808725,1.2746365,0.676955,-0.1674575,0.6529265,0.898125,-0.2056695,1.3343865,0.910865,-0.2576195,0.9188054999999999,-0.004425,0.0078604999999999,1.0811945,0.004425,-0.0078605,0.8267765,0.1475849999999999,-0.3109595,1.1192565,0.1310849999999999,-0.3486995,0.8759065,-0.229725,-0.1470475,1.1419065,-0.217755,-0.2233495
117,0.994839,0.653671,-0.0671385,0.843673,0.452065,-0.0725585,0.715213,0.651854,-0.1325225,1.140663,0.447475,-0.0805905,1.272573,0.6681900000000001,-0.1661475,0.6510830000000001,0.896135,-0.2055845,1.333823,0.908215,-0.2594745,0.918837,-0.004715,0.0076754999999999,1.081163,0.004715,-0.0076755,0.826833,0.152635,-0.3086845,1.118773,0.136485,-0.3464945,0.878243,-0.225345,-0.1412935,1.142783,-0.2142149999999999,-0.2263145
118,0.9947655000000001,0.6537200000000001,-0.0670395,0.8436095,0.45276,-0.0720855,0.7145195000000001,0.6513610000000001,-0.1323685,1.1405695,0.44667,-0.0803764999999999,1.2703895,0.658914,-0.1648804999999999,0.6494495,0.89319,-0.2057385,1.3334394999999999,0.90497,-0.2613185,0.9188625,-0.0046599999999999,0.0074415,1.0811375,0.0046599999999999,-0.0074414999999999,0.8268595,0.15617,-0.3072185,1.1183195,0.14042,-0.3446785,0.8791395,-0.22231,-0.1378235,1.1436695000000001,-0.21204,-0.2293285
119,0.9946125,0.6538470000000001,-0.0670715,0.8435085,0.4535,-0.0718385,0.7137085000000001,0.651262,-0.1323575,1.1404285,0.44594,-0.0803565,1.2685485,0.654514,-0.1649575,0.6478185000000001,0.89062,-0.2062555,1.3332385,0.90337,-0.2632355,0.9188475,-0.0045899999999999,0.0072344999999999,1.0811525,0.0045899999999999,-0.0072345,0.8269885000000001,0.15904,-0.3060655,1.1175185,0.14405,-0.3430855,0.8795585,-0.2194199999999999,-0.1378995,1.1444185,-0.21026,-0.2326255
120,0.9944045,0.6536810000000001,-0.067134,0.8434025,0.45387,-0.0716219999999999,0.7128325,0.6514420000000001,-0.132343,1.1403025,0.44686,-0.080375,1.2669324999999998,0.647105,-0.164254,0.6463825000000001,0.8869100000000001,-0.207011,1.3328324999999999,0.8994500000000001,-0.264941,0.9188265,-0.0046399999999999,0.007149,1.0811735,0.00464,-0.007149,0.8270025,0.16024,-0.305481,1.1166524999999998,0.14597,-0.3423509999999999,0.8802725,-0.2163999999999999,-0.134825,1.1452625,-0.2101299999999999,-0.235591
121,0.994242,0.6535400000000001,-0.0672545,0.8433120000000001,0.45422,-0.0714644999999999,0.7116819999999999,0.6518520000000001,-0.1324595,1.140172,0.44727,-0.0803815,1.2663419999999999,0.644333,-0.1650555,0.645162,0.88517,-0.2079605,1.3326419999999999,0.8977400000000001,-0.2664505,0.918792,-0.0046299999999999,0.0071195,1.081208,0.00463,-0.0071194999999999,0.826982,0.16088,-0.3051104999999999,1.115752,0.14723,-0.3418805,0.880182,-0.2162799999999999,-0.1348345,1.145262,-0.2098199999999999,-0.2362705
122,0.994191,0.6535400000000001,-0.0674895,0.843279,0.45422,-0.0713415,0.7103090000000001,0.6518520000000001,-0.1328185,1.140129,0.44727,-0.0804204999999999,1.266799,0.646086,-0.1668575,0.644109,0.8834200000000001,-0.2091565,1.332719,0.89663,-0.2681265,0.91876,-0.0046299999999999,0.0071034999999999,1.08124,0.00463,-0.0071034999999999,0.826999,0.16108,-0.3049565,1.114909,0.148,-0.3416765,0.880179,-0.2160799999999999,-0.1348504999999999,1.145279,-0.2098499999999998,-0.2366165
123,0.9941925000000001,0.6535400000000001,-0.067862,0.8432175,0.45422,-0.071247,0.7086075000000001,0.6518520000000001,-0.133575,1.1401575,0.44734,-0.080406,1.2654675,0.6432970000000001,-0.166729,0.6434575,0.8820400000000002,-0.210332,1.3331975,0.8962800000000001,-0.269652,0.9187475,-0.0046299999999999,0.0070879999999999,1.0812525,0.00463,-0.007088,0.8270275,0.16132,-0.304942,1.1142075,0.14867,-0.341612,0.8802075,-0.2159499999999999,-0.134836,1.1453075,-0.2098499999999998,-0.236602
124,0.994114,0.6535400000000001,-0.068271,0.8431290000000001,0.45422,-0.0712149999999999,0.706739,0.652131,-0.134629,1.140169,0.4476500000000001,-0.080424,1.265419,0.6432970000000001,-0.1667449999999999,0.643059,0.8820400000000002,-0.211552,1.333409,0.8962800000000001,-0.271352,0.918716,-0.0046299999999999,0.007098,1.081284,0.00463,-0.0070979999999999,0.8270590000000001,0.1614000000000001,-0.304952,1.113629,0.1491,-0.341582,0.8806990000000001,-0.2159499999999999,-0.1371099999999999,1.145139,-0.2092099999999999,-0.2366019999999999
125,0.9939835,0.653782,-0.06883,0.8430005,0.4544049999999999,-0.071209,0.7054405,0.653721,-0.135655,1.1401504999999998,0.4482049999999999,-0.0804489999999999,1.2654305,0.643242,-0.16697,0.6429605,0.881985,-0.2125969999999999,1.3335305,0.8962249999999999,-0.273027,0.9186945,-0.004605,0.0071029999999999,1.0813055,0.0046049999999999,-0.0071029999999999,0.8270805,0.1613449999999999,-0.304957,1.1132505,0.1491949999999999,-0.341557,0.8814105,-0.214015,-0.135426,1.1448505,-0.208535,-0.236587
126,0.9938575000000001,0.6541279999999999,-0.069311,0.8429255,0.4541499999999999,-0.071118,0.7042155,0.655837,-0.1366399999999999,1.1401055,0.4488899999999999,-0.080541,1.2654455,0.6428119999999999,-0.1676079999999999,0.6430155,0.88124,-0.2132359999999999,1.3336955,0.8954799999999999,-0.274686,0.9186675,-0.00455,0.007234,1.0813325,0.0045499999999999,-0.007234,0.8270655,0.1605999999999999,-0.305226,1.1130455,0.1484499999999999,-0.3418259999999999,0.8797155,-0.21357,-0.139973,1.1443755,-0.2075300000000001,-0.234426
127,0.994003,0.65475,-0.0700425,0.843116,0.45367,-0.0711485,0.7032959999999999,0.65841,-0.1377375,1.140306,0.44924,-0.0807965,1.266656,0.649373,-0.1707405,0.6433260000000001,0.8836,-0.2143695,1.334146,0.89512,-0.2765495,0.918615,-0.0043499999999999,0.0072505,1.081385,0.00435,-0.0072504999999999,0.827276,0.15936,-0.3060295,1.113116,0.14721,-0.3424995,0.877626,-0.21255,-0.1466825,1.144166,-0.2070299999999999,-0.2321895
128,0.9942880000000001,0.655136,-0.0708605,0.843403,0.452765,-0.0713345,0.7025030000000001,0.663173,-0.1397595,1.140693,0.449795,-0.0811295,1.2681230000000001,0.655189,-0.1740654999999999,0.643753,0.885605,-0.2155425,1.334683,0.894175,-0.2784025,0.918521,-0.0039949999999999,0.0072674999999999,1.081479,0.003995,-0.0072674999999999,0.827683,0.157085,-0.3075725,1.113353,0.144975,-0.3435125,0.875843,-0.2146849999999999,-0.1518455,1.1441029999999999,-0.2081449999999999,-0.2299225
129,0.994607,0.65554,-0.0717694999999999,0.843606,0.4527299999999999,-0.0718925,0.7020660000000001,0.66808,-0.1418075,1.141076,0.44982,-0.0816335,1.269796,0.662655,-0.1780505,0.644646,0.88722,-0.2168705,1.335526,0.89488,-0.2805904999999999,0.91853,-0.00339,0.0073995,1.08147,0.00339,-0.0073994999999999,0.828146,0.15335,-0.3093605,1.1136759999999999,0.1412999999999999,-0.3446805,0.8741760000000001,-0.2191199999999999,-0.1577204999999999,1.143826,-0.21101,-0.2274105
130,0.9948800000000001,0.655896,-0.073045,0.8440150000000001,0.452145,-0.072731,0.701605,0.672175,-0.144124,1.1412849999999999,0.449895,-0.082499,1.271145,0.669745,-0.182159,0.645695,0.8885350000000001,-0.218481,1.3363450000000001,0.8950450000000001,-0.282991,0.9185989999999999,-0.0028249999999999,0.007619,1.081401,0.0028249999999999,-0.007619,0.828505,0.148305,-0.311241,1.113915,0.136195,-0.346071,0.872405,-0.224535,-0.163868,1.143365,-0.2148949999999999,-0.225021
131,0.9948935000000001,0.657262,-0.0751675,0.8440985000000001,0.45078,-0.0742875,0.7015285,0.67682,-0.1471305,1.1412685,0.4497299999999999,-0.0840855,1.2717585,0.67623,-0.1860425,0.6465085000000002,0.88974,-0.2207485,1.3369385,0.89619,-0.2857484999999999,0.9186425,-0.0024199999999999,0.0077514999999999,1.0813575,0.0024199999999999,-0.0077514999999999,0.8285685,0.14187,-0.3138585,1.1138185,0.1293699999999999,-0.3481685,0.8694585000000001,-0.23012,-0.1730035,1.1426085,-0.2200999999999999,-0.2227285
132,0.9949485,0.658775,-0.077726,0.8441855,0.4500649999999999,-0.07631,0.7007855000000001,0.6814749999999999,-0.150555,1.1412655,0.450215,-0.086286,1.2721655,0.6814749999999999,-0.189503,0.6471655000000001,0.8917649999999999,-0.223686,1.3372955,0.897685,-0.288566,0.9187835,-0.001855,0.007984,1.0812165,0.0018549999999999,-0.007984,0.8289055,0.1342549999999999,-0.316826,1.1137655,0.1215549999999999,-0.350326,0.8665955,-0.2353549999999999,-0.181355,1.1417455,-0.225315,-0.220866
133,0.9951565,0.6602199999999999,-0.081042,0.8444185,0.4498749999999999,-0.079192,0.7006185,0.6847599999999999,-0.154614,1.1415085,0.4506429999999999,-0.089103,1.2725685,0.6821299999999999,-0.192084,0.6480585,0.8943099999999999,-0.227421,1.3377785,0.89899,-0.291741,0.9189805,-0.0012700000000001,0.0083589999999999,1.0810195,0.0012699999999999,-0.008359,0.8294385,0.1251899999999999,-0.320401,1.1138685,0.1125699999999999,-0.352781,0.8666685000000001,-0.24312,-0.185394,1.1403885,-0.23158,-0.217831
134,0.9953050000000001,0.661955,-0.084958,0.844624,0.4480139999999999,-0.082488,0.700724,0.687155,-0.159235,1.141684,0.4516949999999999,-0.092562,1.272804,0.681815,-0.194658,0.648864,0.8979349999999999,-0.232535,1.337974,0.899545,-0.295355,0.919233,-0.0010449999999999,0.0085949999999999,1.080767,0.0010449999999999,-0.008595,0.829674,0.114865,-0.324075,1.1142239999999999,0.102395,-0.355355,0.8655240000000001,-0.250855,-0.189579,1.138124,-0.238975,-0.2141549999999999
135,0.9953935000000002,0.6631999999999999,-0.089281,0.8449025,0.4483339999999999,-0.08633,0.7007325,0.6897899999999999,-0.163855,1.1417525,0.4517359999999999,-0.096192,1.2740425,0.6778199999999999,-0.199033,0.6495525,0.90158,-0.238145,1.3384925,0.89957,-0.2991749999999999,0.9195215,-0.00057,0.0086749999999999,1.0804785,0.0005699999999999,-0.008675,0.8296625,0.1029999999999999,-0.327695,1.1145225,0.0913899999999999,-0.358265,0.8636925,-0.2594600000000001,-0.19358,1.1358625,-0.2470000000000001,-0.213105
136,0.9956075000000001,0.664315,-0.093637,0.8451945,0.4483089999999999,-0.090273,0.7011944999999999,0.691645,-0.168266,1.1419044999999999,0.452237,-0.099833,1.2745045,0.6728149999999999,-0.202669,0.6502645,0.900245,-0.242925,1.3388345,0.899305,-0.302945,0.9198165000000001,-0.000225,0.0085949999999999,1.0801835,0.000225,-0.008595,0.8296445,0.090565,-0.330885,1.1148645,0.079975,-0.361195,0.8645245,-0.266295,-0.193447,1.1335745,-0.255765,-0.212224
137,0.99611,0.66653,-0.0976409999999999,0.8456859999999999,0.4494579999999999,-0.0940459999999999,0.702196,0.69042,-0.171589,1.142266,0.453042,-0.1029649999999999,1.274606,0.66637,-0.205079,0.651966,0.90198,-0.24647,1.339396,0.89867,-0.3059199999999999,0.920065,9.99999999995449e-06,0.00836,1.079935,-1.0000000000065512e-05,-0.0083599999999999,0.8296060000000001,0.0736999999999999,-0.33338,1.115226,0.0642999999999999,-0.36315,0.865186,-0.27824,-0.192593,1.131036,-0.26936,-0.2111239999999999
138,0.9967955,0.6690400000000001,-0.100691,0.8463765,0.449461,-0.09698,0.7032165,0.6895600000000001,-0.173819,1.1430265,0.454672,-0.105136,1.2756465000000001,0.66591,-0.206987,0.6536965,0.9042,-0.248425,1.3404765,0.9002300000000001,-0.307825,0.9203015,3.0000000000030003e-05,0.007805,1.0796985000000001,-2.999999999997449e-05,-0.007805,0.8295965,0.05645,-0.335215,1.1157664999999999,0.04743,-0.3641149999999999,0.8651665,-0.29155,-0.191806,1.1287565,-0.28623,-0.209497
139,0.9973915000000001,0.672175,-0.1028419999999999,0.8469785000000001,0.449933,-0.0990279999999999,0.7043785,0.689725,-0.1749649999999999,1.1435785,0.456279,-0.1065669999999999,1.2758685,0.665365,-0.2070459999999999,0.6551184999999999,0.906405,-0.2495899999999999,1.3415685,0.902225,-0.3089699999999999,0.9206845,-4.999999999977245e-06,0.0073,1.0793155,4.999999999977245e-06,-0.0072999999999999,0.8294185000000001,0.038955,-0.33628,1.1161485,0.0299349999999999,-0.3639599999999999,0.8635085,-0.3054249999999999,-0.1928039999999999,1.1263785,-0.3036449999999999,-0.207164
140,0.9979635000000001,0.6743600000000001,-0.10368,0.8476385000000001,0.452108,-0.1002309999999999,0.7055485,0.69218,-0.175138,1.1443285,0.458591,-0.1067119999999999,1.2758785000000001,0.66578,-0.205322,0.6562185,0.90986,-0.2497599999999999,1.3428485000000001,0.90184,-0.30915,0.9212385,0.00018,0.00717,1.0787615,-0.0001799999999999,-0.0071699999999999,0.8292984999999999,0.01842,-0.33572,1.1165285,0.0094,-0.3621299999999999,0.8622685,-0.3227099999999999,-0.192821,1.1240385,-0.32384,-0.2040779999999999
141,0.998673,0.67786,-0.1038139999999999,0.848447,0.4530389999999999,-0.101335,0.706897,0.69304,-0.175112,1.145027,0.4601739999999999,-0.1067579999999999,1.276017,0.66429,-0.2038599999999999,0.6567970000000001,0.91347,-0.249795,1.344287,0.90252,-0.308195,0.921543,0.0002199999999999,0.0071449999999999,1.078457,-0.0002199999999999,-0.0071449999999999,0.828937,-0.0076499999999999,-0.334295,1.116827,-0.0150799999999999,-0.359585,0.8610869999999999,-0.3438,-0.190516,1.121827,-0.3484899999999999,-0.200905
142,0.999468,0.681205,-0.103865,0.849255,0.454966,-0.1015929999999999,0.708285,0.693935,-0.175199,1.145825,0.4617019999999999,-0.106801,1.276165,0.664865,-0.202021,0.657365,0.915405,-0.249385,1.345875,0.901985,-0.306975,0.921858,0.0003149999999999,0.0071249999999999,1.078142,-0.000315,-0.0071249999999999,0.828865,-0.033555,-0.332895,1.1174149999999998,-0.039205,-0.357005,0.861105,-0.367155,-0.188427,1.120515,-0.373915,-0.199352
143,1.0001325,0.685385,-0.1035649999999999,0.8500274999999999,0.458828,-0.101536,0.7097875,0.695535,-0.173569,1.1465575000000001,0.464294,-0.106353,1.2755975,0.6677649999999999,-0.199149,0.6579275,0.917325,-0.247615,1.3474575,0.905715,-0.304295,0.9220695,0.0007349999999999,0.0067649999999999,1.0779305,-0.0007349999999999,-0.0067649999999999,0.8285075,-0.059875,-0.330495,1.1181675,-0.063645,-0.353565,0.8599975,-0.3909749999999999,-0.185947,1.1202575,-0.400985,-0.198992
144,1.0008425,0.69017,-0.1023449999999999,0.8506945,0.46007,-0.1003139999999999,0.7113545,0.69699,-0.1709669999999999,1.1473645000000001,0.4676,-0.104488,1.2761445,0.67353,-0.195079,0.6589845000000001,0.92279,-0.244855,1.3489645000000001,0.90952,-0.3000049999999999,0.9224455,0.00074,0.006045,1.0775545,-0.0007399999999999,-0.0060449999999999,0.8280945,-0.0850399999999999,-0.326855,1.1192745,-0.0867,-0.349105,0.8587745,-0.4155799999999999,-0.182251,1.1200745,-0.4283199999999999,-0.197183
145,1.001696,0.694665,-0.099547,0.8514070000000001,0.463445,-0.097646,0.712477,0.698745,-0.1658,1.148097,0.4701849999999999,-0.100902,1.277187,0.676885,-0.188815,0.660107,0.927035,-0.23951,1.350667,0.912185,-0.29352,0.922847,0.0008749999999999,0.0050499999999999,1.077153,-0.000875,-0.0050499999999999,0.827737,-0.110965,-0.32124,1.120667,-0.111035,-0.34251,0.8575670000000001,-0.444225,-0.177717,1.119897,-0.457325,-0.19374
146,1.0023749999999998,0.6991050000000001,-0.095554,0.8520570000000001,0.465435,-0.094389,0.713387,0.701675,-0.159379,1.148607,0.473045,-0.0963789999999999,1.2790169999999998,0.681595,-0.18203,0.660957,0.928805,-0.2321,1.352637,0.916075,-0.2859,0.923219,0.000765,0.00433,1.076781,-0.0007649999999999,-0.00433,0.827667,-0.131295,-0.31502,1.1217069999999998,-0.1301649999999999,-0.3359,0.857497,-0.4683849999999999,-0.173011,1.119757,-0.4812349999999999,-0.1896169999999999
147,1.002966,0.703325,-0.089951,0.852276,0.468115,-0.089784,0.714086,0.707175,-0.151846,1.148866,0.475345,-0.090793,1.280346,0.684755,-0.174159,0.661896,0.932165,-0.2220099999999999,1.354206,0.920155,-0.27581,0.9237720000000001,0.000805,0.0037899999999999,1.076228,-0.000805,-0.00379,0.827786,-0.150665,-0.30669,1.122306,-0.1489849999999999,-0.32731,0.857446,-0.492915,-0.167261,1.119536,-0.506025,-0.184111
148,1.003568,0.707315,-0.0837745,0.852553,0.470775,-0.0848035,0.714833,0.712125,-0.1439985,1.149183,0.477285,-0.0848465,1.281573,0.687625,-0.1658825,0.662833,0.934855,-0.2115205,1.355743,0.923655,-0.2653505,0.924373,0.000975,0.0033294999999999,1.0756269999999999,-0.0009749999999999,-0.0033294999999999,0.8279230000000001,-0.1692849999999999,-0.2977305,1.122523,-0.1675249999999999,-0.3179605,0.856133,-0.517255,-0.1625465,1.119153,-0.5304949999999999,-0.1783635
149,1.003904,0.7117450000000001,-0.0772615,0.852848,0.4716249999999999,-0.0794795,0.7154480000000001,0.713365,-0.1359845,1.149188,0.4780549999999999,-0.0789405,1.282778,0.689135,-0.1583555,0.662738,0.935845,-0.2007654999999999,1.3567580000000001,0.928575,-0.2545255,0.924772,0.0010949999999999,0.0029145,1.075228,-0.001095,-0.0029145,0.827898,-0.185115,-0.2888055,1.122528,-0.183505,-0.3085255,0.854868,-0.539355,-0.1576515,1.119198,-0.5524150000000001,-0.1737415
150,1.00391,0.71423,-0.0710835,0.852986,0.47716,-0.0738534999999999,0.7159059999999999,0.71582,-0.1277505,1.149076,0.47986,-0.0730405,1.2839859999999998,0.69145,-0.1505324999999999,0.662426,0.93957,-0.1904104999999999,1.3578459999999999,0.93166,-0.2444734999999999,0.925218,0.0013799999999999,0.0024785,1.074782,-0.0013799999999999,-0.0024784999999999,0.828156,-0.19816,-0.2798235,1.122486,-0.19746,-0.2989935,0.853996,-0.55908,-0.1524585,1.119216,-0.57125,-0.1681805
151,1.0037874999999998,0.7165750000000001,-0.064223,0.8525595,0.478575,-0.067414,0.7160995,0.7186950000000001,-0.118202,1.1488595,0.482345,-0.0664579999999999,1.2848695,0.694535,-0.141598,0.6621695000000001,0.942395,-0.179313,1.3587195,0.934055,-0.233398,0.9259075,0.0013249999999999,0.00196,1.0740925,-0.0013249999999999,-0.0019599999999999,0.8286395,-0.212335,-0.269098,1.1223794999999999,-0.212385,-0.2875379999999999,0.8530795,-0.579635,-0.146562,1.1191195,-0.590635,-0.161572
152,1.003496,0.7188,-0.057684,0.8521310000000001,0.47985,-0.061122,0.716421,0.7213700000000001,-0.109595,1.148431,0.48341,-0.060551,1.284981,0.6964600000000001,-0.133411,0.661781,0.94995,-0.169012,1.359341,0.93697,-0.223305,0.92672,0.00114,0.001652,1.07328,-0.00114,-0.001652,0.8295310000000001,-0.2249199999999999,-0.258295,1.1222509999999999,-0.2255299999999999,-0.275905,0.8522910000000001,-0.59819,-0.141006,1.119131,-0.60766,-0.154989
153,1.0031469999999998,0.7215950000000001,-0.051805,0.851619,0.4823949999999999,-0.055187,0.716689,0.7246750000000001,-0.101222,1.147959,0.4848449999999999,-0.055369,1.285169,0.6982550000000001,-0.125767,0.661619,0.954655,-0.159384,1.360029,0.939835,-0.213996,0.927519,0.001085,0.001516,1.072481,-0.001085,-0.001516,0.830719,-0.236355,-0.247396,1.1221189999999999,-0.237935,-0.264336,0.851509,-0.6150049999999999,-0.135657,1.119189,-0.6228849999999999,-0.148788
154,1.0028435,0.7240885,-0.0468095,0.8512204999999999,0.4847884999999999,-0.0499875,0.7169205000000001,0.7276285,-0.0937665,1.1478205,0.4866785,-0.0502855,1.2854204999999999,0.7028785,-0.1193525,0.6614005000000001,0.9605485,-0.1506185,1.3606205,0.9431485,-0.2053905,0.9282425,0.0009014999999999,0.0014185,1.0717575,-0.0009014999999999,-0.0014185,0.8319705,-0.2532315,-0.2367305,1.1217005,-0.2525714999999999,-0.2532305,0.8508105,-0.6309415,-0.1307055,1.1188605,-0.6383615,-0.1430115
155,1.002692,0.726631,-0.0415364999999999,0.8507899999999999,0.487741,-0.0444804999999999,0.71736,0.730571,-0.0860414999999999,1.14783,0.487551,-0.0448364999999999,1.28589,0.707531,-0.1123644999999999,0.66179,0.967331,-0.1409605,1.3614600000000001,0.945431,-0.1958635,0.928766,0.0009339999999999,0.0011735,1.071234,-0.000934,-0.0011734999999999,0.83392,-0.270579,-0.2241334999999999,1.12143,-0.268139,-0.2398835,0.85028,-0.648529,-0.1251875,1.11879,-0.655009,-0.1369604999999999
156,1.0029445,0.727222,-0.0327264999999999,0.8505335,0.4882519999999999,-0.0352824999999999,0.7182235,0.729282,-0.0746505,1.1483435,0.486992,-0.0354565,1.2865935,0.706282,-0.1014075,0.6625635000000001,0.970412,-0.1287015,1.3626035,0.945302,-0.1829345,0.9292695,0.0007459999999999,0.0009125,1.0707305,-0.000746,-0.0009124999999999,0.8364035000000001,-0.286978,-0.2075345,1.1211535,-0.283488,-0.2225444999999999,0.8502135,-0.665108,-0.1157634999999999,1.1191135,-0.670538,-0.1274885
157,1.0030569999999999,0.72844,-0.023893,0.850286,0.49046,-0.0259889999999999,0.718656,0.72963,-0.06312,1.149516,0.48908,-0.0259889999999999,1.287386,0.7066899999999999,-0.090348,0.663266,0.97433,-0.11638,1.3638759999999999,0.94831,-0.1685579999999999,0.9296139999999999,0.000676,0.0006029999999999,1.070386,-0.0006759999999999,-0.0006029999999999,0.839796,-0.30306,-0.186968,1.119766,-0.29918,-0.2016379999999999,0.849996,-0.68217,-0.105654,1.119356,-0.6866500000000001,-0.116883
158,1.0032219999999998,0.7286954999999999,-0.0145525,0.8500449999999999,0.4932255,-0.0161165,0.718945,0.7303755,-0.0515675,1.1506750000000001,0.4911554999999999,-0.0161555,1.2881649999999998,0.7077355,-0.0787085,0.663985,0.9784155,-0.1037495,1.365075,0.9497655,-0.1534265,0.930033,0.0003925,0.0002554999999999,1.0699670000000001,-0.0003924999999999,-0.0002554999999999,0.843485,-0.3201245,-0.1652664999999999,1.118455,-0.3165545,-0.1799265,0.849805,-0.7003245,-0.0954865,1.119415,-0.7040445000000001,-0.1053804999999999
159,1.0034035,0.7293565000000001,-0.005599,0.8497165,0.4917865,-0.006997,0.7193565,0.7332465,-0.040549,1.1520165,0.4920565,-0.00667,1.2883965,0.7094765000000001,-0.067563,0.6646965,0.9787465,-0.091836,1.3658065,0.9500765,-0.139057,0.9304445,-6.149999999999906e-05,4.499999999999643e-05,1.0695555,6.149999999999906e-05,-4.500000000000337e-05,0.8469165,-0.3363835,-0.144527,1.1173965,-0.3318835,-0.159127,0.8496765,-0.7166935,-0.086134,1.1195265,-0.7194635,-0.094558
160,1.003671,0.7301765,0.0025825,0.8495380000000001,0.4928465,0.0013195,0.719908,0.7362365,-0.0309774999999999,1.1535579999999999,0.4923065,0.0021035,1.288858,0.7098065,-0.0572105,0.665518,0.9808865,-0.0805325,1.366638,0.9521465,-0.1251705,0.930656,-0.0002515,-0.0001984999999999,1.069344,0.0002515,0.0001985,0.8504579999999999,-0.3499535,-0.1249185,1.116908,-0.3439235,-0.1396265,0.8498180000000001,-0.7289535,-0.0768875,1.1197879999999998,-0.7317235000000001,-0.0848895
161,1.00398,0.7297395,0.0102429999999999,0.8496220000000001,0.4937695,0.009245,0.720432,0.7388895,-0.02162,1.155202,0.4924095,0.0106589999999999,1.289592,0.7097694999999999,-0.04684,0.6660820000000001,0.9773795,-0.068861,1.367462,0.9500495,-0.1110589999999999,0.930781,-0.0003194999999999,-0.00066,1.069219,0.0003195,0.00066,0.853832,-0.3618004999999999,-0.106001,1.116412,-0.3539604999999999,-0.121113,0.8500719999999999,-0.7397905,-0.06774,1.120192,-0.7421305,-0.075632
162,1.0041395,0.728503,0.0177035,0.8496275,0.494083,0.0169855,0.7207075000000001,0.740733,-0.0126765,1.1566175,0.492233,0.0191334999999999,1.2900875,0.708283,-0.0365525,0.6665274999999999,0.974233,-0.0569965,1.3679575,0.948633,-0.0969065,0.9308514999999999,-0.0003799999999999,-0.0011445,1.0691485,0.00038,0.0011444999999999,0.8570275,-0.374027,-0.0874695,1.1159075,-0.364137,-0.1030205,0.8500575000000001,-0.7508670000000001,-0.0591885,1.1204675,-0.752147,-0.0663785
163,1.004249,0.7274579999999999,0.024886,0.8496600000000001,0.492708,0.024414,0.72105,0.742448,-0.004069,1.158,0.492288,0.027225,1.29022,0.7066479999999999,-0.0263879999999999,0.66692,0.971618,-0.045399,1.36838,0.948038,-0.083037,0.930812,-0.0004869999999999,-0.0015359999999999,1.069188,0.000487,0.001536,0.85997,-0.386852,-0.069646,1.11559,-0.374552,-0.085467,0.8500400000000001,-0.7619520000000001,-0.050548,1.12068,-0.761842,-0.057455
164,1.004506,0.7254659999999999,0.031633,0.849826,0.491486,0.03145,0.7213959999999999,0.743236,0.003935,1.159436,0.492356,0.034993,1.290426,0.7055859999999999,-0.0168709999999999,0.667856,0.967896,-0.03507,1.3688259999999999,0.948396,-0.070132,0.930782,-0.0005939999999999,-0.001896,1.069218,0.000594,0.001896,0.862426,-0.399444,-0.053534,1.115376,-0.384824,-0.070067,0.850156,-0.772234,-0.042115,1.1208960000000001,-0.771104,-0.048909
165,1.0046134999999998,0.725162,0.034193,0.8498335000000001,0.492012,0.034123,0.7215035000000001,0.7454419999999999,0.007614,1.1606535,0.4938819999999999,0.038398,1.2902635,0.706162,-0.0115179999999999,0.6686335,0.966052,-0.028929,1.3691635,0.949132,-0.06162,0.9306145,-0.0006539999999999,-0.002224,1.0693855,0.000654,0.002224,0.8643935,-0.410238,-0.042514,1.1152135,-0.392978,-0.0593809999999999,0.8501235,-0.780548,-0.038357,1.1210734999999998,-0.778278,-0.043734
166,1.0047085,0.7238564999999999,0.0367025,0.8499345,0.4907364999999999,0.0364955,0.7215245,0.7462165000000001,0.0112865,1.1609645,0.4930365,0.0415124999999999,1.2901345,0.7057065,-0.0062644999999999,0.6694545000000001,0.9642265,-0.0231365,1.3695045000000001,0.9477665,-0.0542565,0.9303915,-0.0008524999999999,-0.0024504999999999,1.0696085,0.0008525,0.0024505,0.8652045000000002,-0.4146235,-0.0355034999999999,1.1155245,-0.3969035,-0.0522065,0.8500745000000001,-0.7860834999999999,-0.0353605,1.1211845,-0.7822035,-0.0393685
167,1.0046959999999998,0.723035,0.0385245,0.849786,0.489685,0.0380895,0.721576,0.7452949999999999,0.0142575,1.161096,0.492895,0.0438605,1.290156,0.7049249999999999,-0.0019384999999999,0.670066,0.963075,-0.0186945,1.369686,0.947735,-0.0481265,0.930051,-0.000851,-0.0025585,1.069949,0.0008509999999999,0.0025585,0.865536,-0.417055,-0.0299534999999999,1.115646,-0.398855,-0.0462965,0.849896,-0.788745,-0.0330265,1.121146,-0.784155,-0.0355845
168,1.0046525,0.7223900000000001,0.0402875,0.8496215,0.48878,0.0395025,0.7214715,0.74502,0.0168965,1.1611815,0.49282,0.0461515,1.2902114999999998,0.7044300000000001,0.0023325,0.6706915,0.9622000000000002,-0.0143235,1.3697215,0.94781,-0.0419615,0.9297175,-0.0008269999999999,-0.0027254999999999,1.0702825,0.000827,0.0027255,0.8657815,-0.41894,-0.0242404999999999,1.1157914999999998,-0.40033,-0.0402355,0.8496615,-0.79091,-0.0306665,1.1211415,-0.78563,-0.0316025
169,1.00467,0.7220034999999999,0.041819,0.849692,0.4880334999999999,0.040418,0.721292,0.7442835,0.019022,1.161332,0.4927535,0.047973,1.2903120000000001,0.7036534999999999,0.005982,0.671262,0.9616635,-0.0106409999999999,1.369532,0.9479935,-0.0366579999999999,0.929485,-0.0008184999999999,-0.002762,1.0705149999999999,0.0008184999999999,0.002762,0.8659420000000001,-0.4199265,-0.019141,1.116342,-0.4006665,-0.035193,0.849482,-0.7925465,-0.0285089999999999,1.1212419999999998,-0.7864665000000001,-0.0279129999999999
170,1.0046849999999998,0.7216724999999999,0.043186,0.849776,0.4871924999999999,0.0412649999999999,0.721276,0.7439125,0.020736,1.161356,0.4921924999999999,0.04938,1.290176,0.7030425,0.008963,0.671716,0.9613225,-0.0077389999999999,1.369486,0.9483725,-0.032308,0.929359,-0.0007855,-0.002744,1.070641,0.0007855,0.002744,0.866126,-0.4204274999999999,-0.014363,1.116956,-0.4008475,-0.0304779999999999,0.8493660000000001,-0.7933875,-0.0264529999999999,1.1213559999999998,-0.7868275,-0.024321
171,1.0047115,0.7212784999999999,0.0443095,0.8498855000000001,0.4864885,0.0418905,0.7212755,0.7433985,0.0222045,1.1614455,0.4916585,0.0505815,1.2902455,0.7024185,0.0114515,0.6721355,0.9609585,-0.0051555,1.3696155,0.9481485,-0.0292375,0.9292915,-0.0007824999999999,-0.0027224999999999,1.0707085,0.0007824999999999,0.0027225,0.8663355,-0.4208015,-0.0100484999999999,1.1175855,-0.4009315,-0.0261865,0.8492955,-0.7941515,-0.0245125,1.1215454999999999,-0.7871315,-0.0209475
172,1.004811,0.7210850000000001,0.0454295,0.850068,0.485965,0.0423485,0.7214980000000001,0.742345,0.0235905,1.161678,0.4912249999999999,0.0516925,1.290368,0.701855,0.0133495,0.6725480000000001,0.960595,-0.0028205,1.369758,0.947765,-0.0269795,0.929292,-0.0007729999999999,-0.0027205,1.070708,0.000773,0.0027205,0.8665080000000001,-0.420975,-0.0060265,1.118148,-0.401015,-0.0224895,0.849288,-0.794715,-0.0226604999999999,1.1217679999999999,-0.7870849999999999,-0.0178055
