sb224sc-HT22-VT27/4dt907/src/ml-research/a10/datafiles/kinect_good_preprocessed_A9_mediapipe/A7_kinect_mirrored.csv
FrameNo,nose_3d_x,nose_3d_y,nose_3d_z,left_shoulder_3d_x,left_shoulder_3d_y,left_shoulder_3d_z,left_elbow_3d_x,left_elbow_3d_y,left_elbow_3d_z,right_shoulder_3d_x,right_shoulder_3d_y,right_shoulder_3d_z,right_elbow_3d_x,right_elbow_3d_y,right_elbow_3d_z,left_wrist_3d_x,left_wrist_3d_y,left_wrist_3d_z,right_wrist_3d_x,right_wrist_3d_y,right_wrist_3d_z,left_hip_3d_x,left_hip_3d_y,left_hip_3d_z,right_hip_3d_x,right_hip_3d_y,right_hip_3d_z,left_knee_3d_x,left_knee_3d_y,left_knee_3d_z,right_knee_3d_x,right_knee_3d_y,right_knee_3d_z,left_ankle_3d_x,left_ankle_3d_y,left_ankle_3d_z,right_ankle_3d_x,right_ankle_3d_y,right_ankle_3d_z
46,1.0017825,0.7373385,0.059715,0.8488135,0.4807284999999999,0.053545,0.7506635,0.7230085,0.047462,1.1480535,0.5012885,0.056111,1.2506534999999999,0.7342885,0.040403,0.7241335,0.9632285,0.002795,1.2753835,0.9756285,0.006826,0.9266525,-0.0026165,-0.0027649999999999,1.0733475,0.0026164999999999,0.002765,0.8787834999999999,-0.4401915,0.001307,1.1233635,-0.4114515,-0.021564,0.8692934999999999,-0.7956814999999999,-0.0170499999999999,1.1350035,-0.7906814999999999,-0.0321719999999999
47,1.002359,0.7371965,0.057992,0.849183,0.4807764999999999,0.053247,0.750453,0.7222065,0.046018,1.148513,0.5015364999999999,0.055831,1.251893,0.7345765,0.038155,0.723203,0.9633165,0.000757,1.276003,0.9759165,0.004324,0.9266449999999999,-0.0025784999999999,-0.0028429999999999,1.073355,0.0025784999999999,0.002843,0.878123,-0.4410735,-0.0036969999999999,1.1230229999999999,-0.4141835,-0.0254459999999999,0.869083,-0.7958935,-0.020342,1.134833,-0.7914235000000001,-0.036043
48,1.002906,0.7369144999999999,0.05604,0.849584,0.4808245,0.052887,0.7503840000000002,0.7212744999999999,0.044383,1.148814,0.5018045,0.054847,1.253114,0.7348844999999999,0.035387,0.722254,0.9634245,-0.001523,1.2764039999999999,0.9762245,0.001517,0.926643,-0.0025385,-0.002916,1.0733570000000001,0.0025384999999999,0.0029159999999999,0.877574,-0.4415455,-0.008688,1.122644,-0.4167254999999999,-0.029542,0.868904,-0.7961555,-0.023861,1.134464,-0.7925055000000001,-0.0397509999999999
49,1.0033205,0.7364345,0.0540425,0.8499635,0.4809345,0.0526574999999999,0.7501735,0.7204645,0.0426375,1.1491434999999999,0.5020845,0.0539795,1.2542635,0.7352545,0.0325585,0.7213235,0.9634845,-0.0038914999999999,1.2766335,0.9765845,-0.0013945,0.9266485,-0.0024685,-0.0029115,1.0733515,0.0024684999999999,0.0029115,0.8770235000000001,-0.4416955,-0.0135185,1.1222035,-0.4188455,-0.0337535,0.8686834999999999,-0.7965155,-0.0277234999999999,1.1340535,-0.7931855,-0.0436094999999999
50,1.003807,0.73539,0.051484,0.85019,0.48193,0.051698,0.74968,0.71995,0.040305,1.14947,0.50266,0.05258,1.25442,0.7342,0.029205,0.7201,0.96434,-0.0068579999999999,1.2772700000000001,0.97724,-0.0052369999999999,0.926642,-0.0023219999999999,-0.0028819999999999,1.073358,0.002322,0.002882,0.8763,-0.44044,-0.0198469999999999,1.1216,-0.42012,-0.0397089999999999,0.86839,-0.7959700000000001,-0.032172,1.13366,-0.79298,-0.0482279999999999
51,1.00416,0.7342215000000001,0.048896,0.850617,0.4828815,0.051179,0.7492570000000001,0.7191715000000001,0.037853,1.149797,0.5026315,0.051555,1.2552569999999998,0.7343915000000001,0.025798,0.718917,0.9653115,-0.0098559999999999,1.277927,0.9778115,-0.0090519999999999,0.9266280000000001,-0.0021754999999999,-0.0029119999999999,1.073372,0.0021754999999999,0.002912,0.875577,-0.4390685,-0.026068,1.121047,-0.4202885,-0.0461239999999999,0.868097,-0.7953184999999999,-0.036523,1.133207,-0.7923684999999999,-0.0529239999999999
52,1.004367,0.7327684999999999,0.0464025,0.85089,0.4836385,0.0505995,0.74854,0.7187285000000001,0.0353595,1.14999,0.5024185000000001,0.0506724999999999,1.25595,0.7345984999999999,0.0224004999999999,0.7176100000000001,0.9664485,-0.0128575,1.27838,0.9786485,-0.0128775,0.9265909999999999,-0.0020125,-0.0029425,1.073409,0.0020124999999999,0.0029424999999999,0.87468,-0.4375315,-0.0322465,1.12045,-0.4197415,-0.0528735,0.86758,-0.7943015,-0.0408355,1.1325,-0.7915414999999999,-0.0575915
53,1.0048614999999999,0.7309125,0.044222,0.8508855000000001,0.4842825,0.04929,0.7478055,0.7183124999999999,0.032848,1.1501554999999999,0.5025124999999999,0.0493829999999999,1.2560555,0.7336524999999999,0.019451,0.7163955,0.9678525,-0.0156199999999999,1.2789355,0.9798525,-0.0166669999999999,0.9265335,-0.0018224999999999,-0.003043,1.0734665,0.0018224999999999,0.003043,0.8737755,-0.4358875,-0.038928,1.1199855,-0.4188075,-0.05996,0.8671455,-0.7930275,-0.045089,1.1318855,-0.7906275,-0.0621739999999999
54,1.0056675,0.729105,0.0423145,0.8513295000000001,0.4843449999999999,0.0479324999999999,0.7474995,0.718225,0.0304905,1.1506795,0.5020650000000001,0.0480005,1.2561295000000001,0.7324550000000001,0.0169195,0.7154795,0.969485,-0.0181814999999999,1.2797595,0.981385,-0.0201794999999999,0.9265355,-0.001575,-0.0029674999999999,1.0734645,0.001575,0.0029675,0.8731395,-0.434225,-0.0458765,1.1200195,-0.417655,-0.0671105,0.8669895000000001,-0.791395,-0.0491785,1.1315795,-0.789245,-0.0665175
55,1.0065115,0.727318,0.040564,0.8518735,0.484398,0.046519,0.7472935,0.718308,0.0282,1.1512935,0.501788,0.0467579999999999,1.2562535000000001,0.731278,0.01452,0.7146035,0.971358,-0.020642,1.2806134999999998,0.983158,-0.023593,0.9265405,-0.001366,-0.002913,1.0734595,0.0013659999999999,0.002913,0.8725235,-0.432292,-0.0528779999999999,1.1201735,-0.416032,-0.074344,0.8668335,-0.789462,-0.053441,1.1314135,-0.787602,-0.070737
56,1.0072965,0.7254125,0.038971,0.8524105,0.4840224999999999,0.045531,0.7466705,0.7186225,0.026118,1.1518605,0.5006425,0.045817,1.2563005,0.7278925,0.012609,0.7135005,0.9738525,-0.023064,1.2815005,0.9854125,-0.026722,0.9265595000000001,-0.0010454999999999,-0.002698,1.0734404999999998,0.0010455,0.002698,0.8718105,-0.4287175,-0.060939,1.1201905,-0.4129575,-0.082556,0.8668105,-0.7859474999999999,-0.057689,1.1311805,-0.7844774999999999,-0.075312
57,1.008019,0.723483,0.0372,0.8529180000000001,0.483163,0.044474,0.7458279999999999,0.719303,0.023842,1.152398,0.498823,0.044975,1.256328,0.724453,0.010526,0.712218,0.977053,-0.0257629999999999,1.282708,0.987433,-0.03009,0.926586,-0.000675,-0.002401,1.073414,0.0006749999999999,0.002401,0.870958,-0.423897,-0.070021,1.120118,-0.408457,-0.091983,0.866738,-0.781107,-0.062466,1.131048,-0.779637,-0.079867
58,1.0087625,0.7215104999999999,0.035593,0.8534225,0.4819405,0.043425,0.7450425,0.7197605,0.021683,1.1529525,0.4969405,0.044098,1.2564425,0.7219705,0.008439,0.7109624999999999,0.9807405,-0.028461,1.2840224999999998,0.9889905,-0.033532,0.9265695,-0.0003154999999999,-0.0021499999999999,1.0734305,0.0003154999999999,0.00215,0.8700525,-0.4182495,-0.0797409999999999,1.1201725,-0.4033294999999999,-0.102049,0.8671025,-0.7755995,-0.067108,1.1308825,-0.7736395,-0.085198
59,1.0094865,0.720197,0.034449,0.8541225,0.480867,0.043087,0.7444725,0.720157,0.019936,1.1536325,0.4957170000000001,0.043735,1.2567125,0.7189070000000001,0.0069369999999999,0.7101425,0.983987,-0.030737,1.2849825,0.989977,-0.036153,0.9265305,-7.200000000000002e-05,-0.001831,1.0734695,7.200000000000088e-05,0.0018309999999999,0.8692825,-0.4132229999999999,-0.088098,1.1202925,-0.398723,-0.110566,0.8677925,-0.7704329999999999,-0.0708049999999999,1.1308725,-0.768143,-0.089575
60,1.0102235,0.7188610000000001,0.0332815,0.8546385,0.479821,0.0424854999999999,0.7439184999999999,0.7204510000000001,0.0181885,1.1543085,0.494181,0.0431975,1.2569884999999998,0.7162310000000001,0.0054555,0.7094185,0.987101,-0.0329745,1.2858785,0.990881,-0.0387445,0.9265205,0.0001809999999999,-0.0016274999999999,1.0734795,-0.0001809999999999,0.0016275,0.8685185,-0.407829,-0.0963455,1.1204985,-0.394169,-0.1187145,0.8684784999999999,-0.7649889999999999,-0.0746575,1.1309585,-0.7620189999999999,-0.0937775
61,1.0108849999999998,0.7174025,0.032102,0.8550949999999999,0.4789124999999999,0.041981,0.743355,0.7205525,0.016189,1.154995,0.4930624999999999,0.042633,1.257165,0.7139025,0.003905,0.7087050000000001,0.9898325,-0.035447,1.2867950000000001,0.9917925,-0.041361,0.926523,0.0003884999999999,-0.0014219999999999,1.073477,-0.0003884999999999,0.0014219999999999,0.867695,-0.4022675,-0.104584,1.120755,-0.3891875,-0.126587,0.869135,-0.7592074999999999,-0.078851,1.131065,-0.7555175,-0.097937
62,1.011296,0.716418,0.030857,0.855654,0.478348,0.0415289999999999,0.742834,0.720718,0.014155,1.155724,0.491768,0.042208,1.257524,0.712788,0.002158,0.708094,0.992398,-0.037714,1.287664,0.992048,-0.043782,0.92654,0.000639,-0.001268,1.07346,-0.000639,0.001268,0.8669640000000001,-0.397222,-0.111985,1.121084,-0.383942,-0.13391,0.8698440000000001,-0.753382,-0.082713,1.131234,-0.748382,-0.1018429999999999
63,1.01168,0.7153255,0.0295835,0.855953,0.4782055,0.0410325,0.742243,0.7201655,0.0121715,1.156293,0.4910255,0.0418675,1.257873,0.7118355,0.0002325,0.707483,0.9941755,-0.0399435,1.2884229999999999,0.9918655,-0.0461475,0.926548,0.0008254999999999,-0.0010994999999999,1.073452,-0.0008254999999999,0.0010994999999999,0.866233,-0.3923845,-0.1189925,1.121433,-0.3793445,-0.1410225,0.870583,-0.7476645,-0.0864755,1.131493,-0.7413245,-0.1057345
64,1.0118384999999999,0.7140285,0.028228,0.8561205000000001,0.4780085,0.040562,0.7414704999999999,0.7200485000000001,0.010302,1.1565905,0.4900885,0.041272,1.2578705000000001,0.7109684999999999,-0.0018219999999999,0.7066205,0.9902385,-0.042543,1.2889405,0.9914185,-0.0484949999999999,0.9265585000000001,0.0009575,-0.0009659999999999,1.0734415,-0.0009575,0.000966,0.8651705000000001,-0.3872815,-0.126759,1.1217105,-0.3739715,-0.148359,0.8712505,-0.7412915,-0.090178,1.1316405,-0.7336315,-0.109577
65,1.011862,0.7129719999999999,0.027183,0.856195,0.477432,0.039942,0.7408250000000001,0.719722,0.008846,1.156675,0.489802,0.040662,1.258035,0.710402,-0.003616,0.705965,0.986012,-0.044846,1.289145,0.990832,-0.05038,0.926547,0.000988,-0.0008739999999999,1.073453,-0.0009879999999999,0.0008739999999999,0.864195,-0.383098,-0.132759,1.122035,-0.369458,-0.154199,0.871695,-0.7359979999999999,-0.093341,1.131665,-0.727368,-0.112226
66,1.0119254999999998,0.7118180000000001,0.0264665,0.8563565,0.476958,0.0393645,0.7403965,0.718738,0.0077985,1.1567465,0.489528,0.0399925,1.2581665,0.709848,-0.0050344999999999,0.7055865,0.981488,-0.0466795,1.2891964999999999,0.990288,-0.0518895,0.9264705,0.0009789999999999,-0.0008874999999999,1.0735295,-0.000979,0.0008875,0.8635565000000001,-0.379212,-0.1376815,1.1224365,-0.3657019999999999,-0.1589315,0.8722265,-0.731602,-0.0958675,1.1317964999999999,-0.721972,-0.1145225
67,1.011915,0.7109690000000001,0.0256715,0.8564010000000001,0.476519,0.0387525,0.739951,0.718259,0.0068045,1.156771,0.489459,0.0393165,1.258311,0.709639,-0.0062574999999999,0.705201,0.976849,-0.0483305,1.289191,0.990119,-0.0533255,0.926473,0.000951,-0.0008634999999999,1.073527,-0.000951,0.0008635,0.862911,-0.3753709999999999,-0.1419315,1.122731,-0.3623309999999999,-0.1630915,0.872401,-0.727171,-0.0982015,1.131961,-0.717181,-0.1159645
68,1.0118275,0.7095560000000001,0.024678,0.8564105000000001,0.477006,0.037784,0.7394704999999999,0.717376,0.005493,1.1567705,0.489376,0.038354,1.2586305,0.709686,-0.007836,0.7047405,0.972516,-0.0502399999999999,1.2891305,0.990246,-0.055283,0.9264695000000001,0.0009499999999999,-0.0009079999999999,1.0735305,-0.0009499999999999,0.000908,0.8622704999999999,-0.371014,-0.146739,1.1230205,-0.359124,-0.167869,0.8724705,-0.722244,-0.100805,1.1321105,-0.7115539999999999,-0.117727
69,1.0114595,0.7088154999999999,0.0233524999999999,0.8564645,0.4759855,0.0364635,0.7386945,0.7170354999999999,0.0038674999999999,1.1564345,0.4879055,0.0370025,1.2588845,0.7112554999999999,-0.0100625,0.7038645,0.9686055,-0.0524165,1.2887445,0.9919255,-0.0577075,0.9263875,0.0008844999999999,-0.0008184999999999,1.0736125,-0.0008845,0.0008184999999999,0.8612945,-0.3653545,-0.1520965,1.1229545,-0.3537345,-0.1729264999999999,0.8722745000000001,-0.7151645,-0.1035005,1.1321444999999999,-0.7038545,-0.1198665
70,1.010926,0.7084185000000001,0.021477,0.8562190000000001,0.4750585,0.034846,0.737889,0.7176685,0.001966,1.155769,0.4873485,0.035059,1.2591890000000001,0.7126785,-0.013115,0.702679,0.9655985,-0.0549879999999999,1.289349,0.9843985,-0.062188,0.926253,0.0008165,-0.0006809999999999,1.073747,-0.0008164999999999,0.000681,0.860119,-0.3588915,-0.15777,1.122539,-0.3478815,-0.17835,0.871879,-0.7073915,-0.106134,1.131909,-0.6952315,-0.122307
71,1.0104135,0.7071045,0.0194449999999999,0.8560385,0.4742745,0.033122,0.7372685,0.7181545,1.1000000000000593e-05,1.1552585,0.4870445,0.0329939999999999,1.2596384999999999,0.7140845,-0.016326,0.7015685,0.9624845,-0.0576,1.2899085,0.9769645,-0.066774,0.9260955,0.0006665,-0.00042,1.0739045,-0.0006665,0.00042,0.8590085000000001,-0.3526855,-0.163395,1.1221185,-0.3423055,-0.183805,0.8715585,-0.6998455,-0.108781,1.1317885,-0.6868855,-0.124863
72,1.0097824999999998,0.7058515,0.017347,0.8559065,0.4739215,0.030981,0.7365165,0.7168215,-0.0022979999999999,1.1546865,0.4869915,0.030891,1.2592765,0.7156315,-0.0197859999999999,0.7004665,0.9600915,-0.0602869999999999,1.2903565000000001,0.9697115,-0.071389,0.9258205,0.0005445,-0.0001419999999999,1.0741795,-0.0005445,0.000142,0.8579565,-0.3447085,-0.169148,1.1217065,-0.3343285,-0.189318,0.8712965,-0.6918685,-0.110912,1.1314365,-0.6787585,-0.127394
73,1.0091124999999999,0.704958,0.0150929999999999,0.8558215,0.4733279999999999,0.0286879999999999,0.7357515,0.714708,-0.004869,1.1540515,0.4866279999999999,0.0286469999999999,1.2587515,0.7164780000000001,-0.023595,0.6994115000000001,0.956418,-0.062804,1.2907215,0.961878,-0.076054,0.9256044999999999,0.0005109999999999,-3.100000000000325e-05,1.0743955,-0.0005109999999999,3.099999999999631e-05,0.8569015,-0.3366519999999999,-0.174372,1.1211515,-0.326322,-0.194492,0.8710015,-0.683862,-0.113185,1.1308915,-0.670582,-0.130066
74,1.0084514999999998,0.7038800000000001,0.012399,0.8556785,0.4726,0.025949,0.7349085,0.71287,-0.007869,1.1532985,0.48621,0.025909,1.2580485000000001,0.71733,-0.02822,0.6984985,0.9536,-0.065888,1.2912185,0.95406,-0.081599,0.9253275,0.000492,0.0001569999999999,1.0746725,-0.0004919999999999,-0.000157,0.8557285,-0.3276099999999999,-0.180052,1.1204885,-0.31748,-0.199872,0.8706484999999999,-0.67509,-0.115867,1.1301985,-0.6615599999999999,-0.132711
75,1.0072385,0.70445,0.0035349999999999,0.8551124999999999,0.47252,0.017458,0.7335725,0.71334,-0.017171,1.1513625,0.48522,0.0163849999999999,1.2568225,0.7178,-0.038939,0.6968425,0.9542,-0.076236,1.2910725,0.95025,-0.094714,0.9250655,0.00042,0.0008699999999999,1.0749345,-0.00042,-0.00087,0.8534625,-0.31095,-0.193717,1.1196725,-0.3020899999999999,-0.214007,0.8697825000000001,-0.66043,-0.123492,1.1289525,-0.64787,-0.1410259999999999
76,1.0060175,0.7046049999999999,-0.0058704999999999,0.8546265,0.473015,0.0086725,0.7323065,0.7124849999999999,-0.0270284999999999,1.1493665,0.484755,0.0065665,1.2556665,0.718325,-0.0502294999999999,0.6952065000000001,0.954715,-0.0871985,1.2910065,0.947265,-0.1087654999999999,0.9247815,0.000335,0.0015545,1.0752185,-0.000335,-0.0015544999999999,0.8512365,-0.294145,-0.2074534999999999,1.1188965,-0.286155,-0.2282235,0.8688565,-0.6447050000000001,-0.1309044999999999,1.1277165,-0.633395,-0.1494865
77,1.0047985,0.7054549999999999,-0.016297,0.8541115000000001,0.471865,-0.0009809999999999,0.7310115000000001,0.712675,-0.037981,1.1473415,0.483805,-0.0040289999999999,1.2551014999999999,0.718565,-0.062388,0.6936115,0.955565,-0.100093,1.2908515,0.945785,-0.124313,0.9245825,0.0002649999999999,0.0021879999999999,1.0754175,-0.000265,-0.002188,0.8487315000000001,-0.277085,-0.221405,1.1181015,-0.269945,-0.242505,0.8680815,-0.626665,-0.137605,1.1259314999999999,-0.617385,-0.158244
78,1.003647,0.70543,-0.0266285,0.853254,0.47233,-0.0104175,0.729824,0.71235,-0.0487815,1.145564,0.48444,-0.0143405,1.254044,0.71767,-0.0740285,0.692114,0.9562,-0.1127515,1.290794,0.94313,-0.1395895,0.924414,0.0002199999999999,0.0027934999999999,1.075586,-0.0002199999999999,-0.0027935,0.846334,-0.26174,-0.2347955,1.1174439999999999,-0.2556199999999999,-0.2562554999999999,0.8674040000000001,-0.61017,-0.1439805,1.124094,-0.60305,-0.1665335
79,1.0025914999999999,0.70547,-0.036932,0.8525085,0.47299,-0.019578,0.7287585,0.7111799999999999,-0.05947,1.1438385,0.48407,-0.024421,1.2527784999999998,0.7171000000000001,-0.085102,0.6907185,0.95645,-0.125246,1.2895185,0.94982,-0.152887,0.9243365,0.0002399999999999,0.0033849999999999,1.0756635,-0.00024,-0.0033849999999999,0.8440885,-0.24718,-0.247599,1.1169085,-0.24179,-0.269679,0.8667985,-0.59409,-0.150022,1.1222485,-0.5892900000000001,-0.174285
80,1.0015429999999999,0.70622,-0.0474539999999999,0.851834,0.47374,-0.0288729999999999,0.727704,0.70982,-0.070906,1.142074,0.48445,-0.0345379999999999,1.2514539999999998,0.7176400000000001,-0.0960599999999999,0.689554,0.95361,-0.137552,1.288214,0.95618,-0.16459,0.924221,0.0002199999999999,0.003839,1.075779,-0.0002199999999999,-0.0038389999999999,0.8418140000000001,-0.2309999999999999,-0.260877,1.116404,-0.2259499999999999,-0.283207,0.8661840000000001,-0.57629,-0.156123,1.120324,-0.57412,-0.182355
81,1.0004784999999998,0.7065549999999999,-0.0579435,0.8510535,0.472725,-0.0386515,0.7266735,0.711075,-0.0824155,1.1403535,0.483205,-0.0448975,1.2497634999999998,0.713315,-0.1068045,0.6885235000000001,0.951425,-0.1500555,1.2872835,0.960025,-0.1777745,0.9241135,0.0001549999999999,0.0042634999999999,1.0758865,-0.000155,-0.0042635,0.8393835000000001,-0.213625,-0.2741814999999999,1.1158535,-0.209615,-0.2966815,0.8655235,-0.557945,-0.1621675,1.1181635,-0.558505,-0.1900545
82,0.9993875,0.70675,-0.06793,0.8506655,0.47084,-0.048394,0.7255655000000001,0.71217,-0.093569,1.1386254999999998,0.48266,-0.054783,1.2478955,0.70841,-0.117016,0.6874955,0.95527,-0.162023,1.2857755,0.96314,-0.190805,0.9239345,-1.000000000001e-05,0.0047529999999999,1.0760655,1.000000000001e-05,-0.004753,0.8369955,-0.1961699999999999,-0.287077,1.1153555,-0.1931,-0.309957,0.8648355,-0.5396099999999999,-0.167809,1.1159655,-0.54288,-0.197397
83,0.9984430000000001,0.70661,-0.077544,0.850353,0.4697,-0.057923,0.7245630000000001,0.71363,-0.104802,1.137143,0.48104,-0.064691,1.246223,0.70339,-0.12671,0.686713,0.95803,-0.173496,1.284673,0.96661,-0.203439,0.923763,-9.9999999999989e-05,0.0051799999999999,1.0762369999999999,0.0001,-0.00518,0.834733,-0.1786899999999999,-0.29973,1.115033,-0.1765499999999999,-0.3230699999999999,0.8640530000000001,-0.5210199999999999,-0.173651,1.113853,-0.52712,-0.204407
84,0.9980685000000001,0.704815,-0.081144,0.8506535,0.469295,-0.061603,0.7242635,0.713855,-0.109928,1.1365335,0.481335,-0.067967,1.2454435,0.699775,-0.130481,0.6867335,0.956295,-0.177836,1.2849534999999999,0.966105,-0.209585,0.9235615000000001,-0.0001049999999999,0.0051149999999999,1.0764384999999999,0.0001049999999999,-0.005115,0.8334735,-0.1660249999999999,-0.304705,1.1148835,-0.163885,-0.327615,0.8638535,-0.507555,-0.174878,1.1128835,-0.5144550000000001,-0.20595
85,0.9977605,0.703145,-0.084251,0.8508435000000001,0.467845,-0.065143,0.7240234999999999,0.715225,-0.114276,1.1359435,0.480835,-0.071112,1.2449735,0.696735,-0.133721,0.6868735,0.954035,-0.181451,1.2856435,0.965455,-0.21476,0.9233325,-0.0001149999999999,0.0050199999999999,1.0766675,0.000115,-0.00502,0.8322535,-0.1536449999999999,-0.30964,1.1147035,-0.151505,-0.33196,0.8637235,-0.494595,-0.175976,1.1120335,-0.502185,-0.2075
86,0.9974620000000001,0.7013050000000001,-0.086027,0.851063,0.467225,-0.067574,0.723833,0.716105,-0.117381,1.135373,0.480365,-0.073402,1.244583,0.694375,-0.136011,0.687083,0.951135,-0.182923,1.2865229999999999,0.963715,-0.219005,0.923145,-0.0001649999999999,0.0050149999999999,1.0768550000000001,0.000165,-0.005015,0.831373,-0.1422549999999999,-0.313455,1.1146029999999998,-0.140115,-0.335485,0.863603,-0.483205,-0.176824,1.111683,-0.4908749999999999,-0.20851
87,0.9974095000000001,0.700105,-0.087924,0.8513115,0.466025,-0.070295,0.7238715,0.716675,-0.120537,1.1348915,0.479565,-0.07617,1.2449014999999999,0.692965,-0.138626,0.6873515,0.949105,-0.184453,1.2874715,0.962515,-0.22281,0.9230225,-0.000155,0.0050599999999999,1.0769775,0.000155,-0.00506,0.8305615,-0.132795,-0.31742,1.1148415,-0.131295,-0.33932,0.8634215000000001,-0.470065,-0.1782969999999999,1.1110315,-0.478545,-0.209943
88,0.9974180000000001,0.698745,-0.089625,0.85151,0.464705,-0.073048,0.7240800000000001,0.717285,-0.123747,1.13459,0.478545,-0.079201,1.2453699999999999,0.691495,-0.141451,0.6876599999999999,0.943385,-0.186026,1.2885499999999999,0.960925,-0.226375,0.922926,-0.0001649999999999,0.0050749999999999,1.077074,0.000165,-0.005075,0.82978,-0.123255,-0.321345,1.11504,-0.122195,-0.342985,0.86322,-0.456835,-0.1799089999999999,1.11045,-0.466375,-0.211471
89,0.9973470000000001,0.69738,-0.0914499999999999,0.8516770000000001,0.4635399999999999,-0.0756709999999999,0.7243269999999999,0.71661,-0.126322,1.134367,0.4766,-0.082312,1.245957,0.68953,-0.144761,0.687757,0.94123,-0.187699,1.2896969999999999,0.95983,-0.22987,0.922851,-1.000000000001e-05,0.00514,1.077149,1.000000000001e-05,-0.0051399999999999,0.829097,-0.11419,-0.32464,1.1152069999999998,-0.11332,-0.3463699999999999,0.863007,-0.44603,-0.183106,1.1100169999999998,-0.4562199999999999,-0.21366
90,0.9973655,0.69699,-0.09342,0.8518445,0.46409,-0.077879,0.7247545,0.71585,-0.128698,1.1342245,0.47564,-0.085103,1.2465945,0.68939,-0.148196,0.6879744999999999,0.93877,-0.189382,1.2908645,0.95594,-0.23404,0.9227935,0.00024,0.00524,1.0772065,-0.00024,-0.0052399999999999,0.8286344999999999,-0.1054399999999999,-0.3273899999999999,1.1154145,-0.10485,-0.3493199999999999,0.8630145,-0.4357799999999999,-0.185062,1.1095645,-0.4467,-0.2155099999999999
91,0.9973385000000001,0.69615,-0.0956709999999999,0.8517575,0.46474,-0.080096,0.7252974999999999,0.71438,-0.131294,1.1341675,0.47464,-0.088075,1.2470875,0.69129,-0.151766,0.6881475,0.93779,-0.191437,1.2920875,0.95431,-0.23815,0.9227045,0.0004899999999999,0.00544,1.0772955,-0.0004899999999999,-0.00544,0.8283475000000001,-0.0964399999999999,-0.32997,1.1154175,-0.0962399999999999,-0.35232,0.8630575,-0.4255199999999999,-0.187278,1.1092875,-0.43717,-0.21678
92,0.9974520000000001,0.6959949999999999,-0.097668,0.851749,0.4649749999999999,-0.082236,0.725989,0.712345,-0.133406,1.134239,0.4743349999999999,-0.090802,1.246959,0.693465,-0.155231,0.688329,0.937275,-0.19384,1.293119,0.952925,-0.24211,0.92252,0.0006549999999999,0.0056599999999999,1.07748,-0.000655,-0.0056599999999999,0.828239,-0.087625,-0.33231,1.115379,-0.087685,-0.35482,0.863229,-0.415695,-0.189081,1.109109,-0.4279050000000001,-0.21789
93,0.9975005000000001,0.69604,-0.100253,0.8517765000000002,0.46418,-0.084512,0.7265565,0.71013,-0.135428,1.1342065,0.47279,-0.093804,1.2470365,0.69508,-0.159178,0.6884665,0.93782,-0.196642,1.2935565,0.95236,-0.245565,0.9221715,0.0007699999999999,0.0058649999999999,1.0778285,-0.0007699999999999,-0.005865,0.8282865,-0.0795699999999999,-0.334355,1.1154065,-0.0795699999999999,-0.357085,0.8641165,-0.40698,-0.191016,1.1089065,-0.4197299999999999,-0.219115
94,0.9975785,0.69533,-0.102853,0.8516245,0.46363,-0.0866,0.7267945,0.70706,-0.137579,1.1342145,0.47064,-0.096882,1.2471945,0.6949,-0.163569,0.6885745,0.93852,-0.20021,1.2940145,0.95134,-0.249695,0.9218715,0.0009899999999999,0.0061249999999999,1.0781285,-0.0009899999999999,-0.006125,0.8284045,-0.07127,-0.336155,1.1155145,-0.07123,-0.359085,0.8654545000000001,-0.39844,-0.194078,1.1079644999999998,-0.41137,-0.2201449999999999
95,0.997525,0.695025,-0.105304,0.8513390000000001,0.463233,-0.088587,0.726869,0.7031350000000001,-0.139598,1.134229,0.468705,-0.099703,1.247069,0.694435,-0.167085,0.688489,0.939085,-0.2038309999999999,1.293869,0.949825,-0.25343,0.921525,0.0012349999999999,0.0063499999999999,1.078475,-0.0012349999999999,-0.00635,0.828429,-0.063095,-0.33784,1.115499,-0.063305,-0.36091,0.866919,-0.390265,-0.196556,1.107199,-0.403345,-0.2208999999999999
96,0.9975035,0.693265,-0.10764,0.8510905,0.463037,-0.090138,0.7269005,0.699755,-0.1414119999999999,1.1342605,0.467383,-0.101879,1.2470105,0.689975,-0.169919,0.6883805000000001,0.938675,-0.207679,1.2944105,0.945835,-0.2570449999999999,0.9212275,0.001375,0.0065149999999999,1.0787725,-0.001375,-0.0065149999999999,0.8285605,-0.0557849999999999,-0.338985,1.1153705,-0.056255,-0.362195,0.8686105,-0.3833049999999999,-0.1984989999999999,1.1066705,-0.396545,-0.220915
97,0.9974075000000001,0.69167,-0.1095589999999999,0.8508475,0.462763,-0.091636,0.7268574999999999,0.69633,-0.143708,1.1342374999999998,0.466674,-0.1035069999999999,1.2469675,0.68535,-0.172153,0.6881675,0.9391,-0.2108789999999999,1.2949675,0.94179,-0.2603,0.9210355000000001,0.00142,0.0066599999999999,1.0789644999999999,-0.0014199999999999,-0.0066599999999999,0.8289175,-0.04629,-0.34012,1.1151875,-0.0474399999999999,-0.36343,0.8707275000000001,-0.37556,-0.2002419999999999,1.1061175,-0.3874799999999999,-0.220287
98,0.9972380000000001,0.6899299999999999,-0.110929,0.85053,0.461364,-0.092988,0.7267,0.69546,-0.146004,1.13416,0.465286,-0.104913,1.24686,0.67916,-0.173768,0.68781,0.9388,-0.213885,1.29536,0.9367,-0.263145,0.92096,0.0013199999999999,0.0067349999999999,1.07904,-0.0013199999999999,-0.006735,0.8293699999999999,-0.0349599999999999,-0.341075,1.11485,-0.03694,-0.364615,0.87282,-0.3660199999999999,-0.201052,1.10539,-0.37701,-0.219108
99,0.9970755000000001,0.687895,-0.111955,0.8500925,0.459819,-0.094111,0.7262225000000001,0.694095,-0.148256,1.1340225,0.464507,-0.106179,1.2465024999999998,0.6758550000000001,-0.17501,0.6875725000000001,0.937835,-0.216592,1.2957225,0.936385,-0.264995,0.9209674999999999,0.0011349999999999,0.0067949999999999,1.0790325,-0.0011349999999999,-0.0067949999999999,0.8298525,-0.0241249999999999,-0.341925,1.1141425,-0.0267349999999999,-0.365615,0.8748425,-0.3573049999999999,-0.201703,1.1053925,-0.3663549999999999,-0.2191
100,0.9968375,0.686175,-0.112712,0.8495505000000001,0.459018,-0.094885,0.7257405,0.694515,-0.150267,1.1339505,0.4626689999999999,-0.10721,1.2461305,0.672375,-0.17615,0.6872505,0.936135,-0.218933,1.2959304999999999,0.935765,-0.2666,0.9208495,0.0011149999999999,0.00683,1.0791505,-0.001115,-0.00683,0.8303905,-0.013185,-0.34241,1.1133804999999999,-0.016495,-0.36634,0.8768005,-0.3487450000000001,-0.201986,1.1052605,-0.355865,-0.218584
101,0.996504,0.683145,-0.113205,0.848773,0.45818,-0.0954359999999999,0.724493,0.695785,-0.15209,1.133753,0.4614109999999999,-0.107879,1.245763,0.669395,-0.177042,0.686633,0.934485,-0.220702,1.295983,0.935345,-0.267885,0.920557,0.0009949999999999,0.006815,1.079443,-0.000995,-0.006815,0.831043,-0.001585,-0.342665,1.112403,-0.005905,-0.366705,0.8787119999999999,-0.340495,-0.201043,1.104963,-0.344555,-0.218673
102,0.996006,0.68022,-0.1134749999999999,0.847943,0.457196,-0.095555,0.723163,0.69678,-0.1530139999999999,1.133513,0.460144,-0.108181,1.245603,0.66659,-0.177871,0.685893,0.93216,-0.22227,1.295943,0.93478,-0.268985,0.920197,0.00089,0.006805,1.079803,-0.00089,-0.0068049999999999,0.831803,0.0097799999999999,-0.3426249999999999,1.111443,0.0042899999999999,-0.366595,0.880155,-0.33237,-0.199762,1.104663,-0.33319,-0.218688
103,0.995441,0.677935,-0.113823,0.847213,0.456552,-0.0955999999999999,0.7216830000000001,0.698465,-0.153517,1.1332529999999998,0.459768,-0.108195,1.245383,0.665295,-0.178769,0.6850630000000001,0.928995,-0.222942,1.296033,0.934365,-0.26964,0.919997,0.000705,0.00678,1.080003,-0.000705,-0.0067799999999999,0.832703,0.021285,-0.34262,1.110593,0.014695,-0.36641,0.880321,-0.324415,-0.198661,1.104753,-0.321605,-0.218733
104,0.9947850000000001,0.6753899999999999,-0.114182,0.84639,0.4556209999999999,-0.095539,0.7201299999999999,0.7008399999999999,-0.153825,1.13294,0.4596099999999999,-0.108179,1.24498,0.66435,-0.179657,0.6840900000000001,0.92604,-0.223299,1.29608,0.9345,-0.27085,0.9198300000000001,0.0004699999999999,0.00679,1.0801699999999999,-0.00047,-0.00679,0.83351,0.0331899999999999,-0.34254,1.10974,0.0256899999999999,-0.36612,0.8803100000000001,-0.3162600000000001,-0.198111,1.10492,-0.30976,-0.21876
105,0.9941840000000001,0.6733750000000001,-0.114259,0.845511,0.455731,-0.095226,0.718901,0.699005,-0.153546,1.132781,0.459649,-0.10793,1.245351,0.667175,-0.18081,0.682761,0.921145,-0.22356,1.2962609999999999,0.936525,-0.27208,0.919779,0.0002949999999999,0.0067099999999999,1.080221,-0.0002949999999999,-0.00671,0.834361,0.0463149999999999,-0.34209,1.1089209999999998,0.0380249999999999,-0.36574,0.880097,-0.306565,-0.197601,1.1059809999999999,-0.296825,-0.2192629999999999
106,0.9936145000000001,0.67107,-0.114284,0.8446335,0.455513,-0.094883,0.7179234999999999,0.69755,-0.153194,1.1327535,0.458764,-0.107525,1.2456634999999998,0.67012,-0.181639,0.6814635,0.91905,-0.2236,1.2963635,0.93354,-0.27366,0.9197265,0.00045,0.00658,1.0802735,-0.00045,-0.00658,0.8349934999999999,0.05646,-0.34151,1.1081335,0.04814,-0.36487,0.8804675,-0.29848,-0.196646,1.1081335,-0.28685,-0.220821
107,0.9930990000000001,0.6691449999999999,-0.113858,0.8436330000000001,0.456151,-0.094327,0.717123,0.6953849999999999,-0.15288,1.132673,0.4586689999999999,-0.107077,1.245813,0.674565,-0.182392,0.680183,0.917455,-0.22359,1.296343,0.932025,-0.27495,0.9197470000000001,0.0006949999999998,0.0064599999999999,1.080253,-0.000695,-0.00646,0.8353830000000001,0.0646349999999999,-0.34072,1.107293,0.0562549999999999,-0.36402,0.8803380000000001,-0.2923450000000001,-0.196134,1.110203,-0.279005,-0.222477
108,0.9925605,0.66722,-0.1135819999999999,0.8426935,0.45654,-0.0934349999999999,0.7165635,0.69304,-0.152496,1.1325235,0.458298,-0.1065509999999999,1.2470135,0.67945,-0.183238,0.6790935,0.91625,-0.22285,1.2964235,0.93136,-0.27636,0.9197365,0.0008799999999999,0.00628,1.0802635,-0.0008799999999999,-0.0062799999999999,0.8356635,0.07344,-0.3396599999999999,1.1064235,0.06491,-0.36293,0.8799715,-0.28369,-0.195392,1.1123535,-0.2712799999999999,-0.22466
109,0.992237,0.6656599999999999,-0.1126679999999999,0.841926,0.4573429999999999,-0.092055,0.7164159999999999,0.69053,-0.151125,1.132536,0.4590549999999999,-0.105748,1.2486259999999998,0.68297,-0.184052,0.678336,0.91556,-0.2217299999999999,1.296746,0.93056,-0.27681,0.919854,0.0009299999999999,0.0061399999999999,1.080146,-0.00093,-0.0061399999999999,0.8360460000000001,0.0827099999999999,-0.33787,1.105796,0.0734399999999999,-0.36111,0.8796170000000001,-0.27598,-0.1931109999999999,1.114736,-0.2632500000000001,-0.22747
110,0.991976,0.665235,-0.111891,0.8414079999999999,0.458205,-0.090578,0.716348,0.687425,-0.149396,1.132688,0.459759,-0.104826,1.250578,0.685885,-0.185807,0.677818,0.914645,-0.22071,1.2970279999999998,0.929145,-0.278155,0.919912,0.000985,0.005975,1.080088,-0.000985,-0.005975,0.836248,0.091075,-0.335835,1.105298,0.081035,-0.359145,0.879952,-0.269475,-0.191125,1.117278,-0.255965,-0.2301949999999999
111,0.9917535,0.6649100000000001,-0.1108289999999999,0.8410905,0.458928,-0.0889959999999999,0.7163305000000001,0.68398,-0.147222,1.1325905,0.460399,-0.1036629999999999,1.2522105,0.68903,-0.1876789999999999,0.6773505,0.9146800000000002,-0.219515,1.2973405,0.92753,-0.278765,0.9199395,0.00106,0.0058549999999999,1.0800605,-0.0010599999999999,-0.0058549999999999,0.8363105,0.09999,-0.333435,1.1046705,0.08895,-0.3568949999999999,0.8803065,-0.2620599999999999,-0.1893429999999999,1.1199005,-0.2486999999999999,-0.233535
112,0.991596,0.6645300000000001,-0.109705,0.840749,0.459951,-0.087465,0.716329,0.68086,-0.144909,1.132729,0.460809,-0.102492,1.252459,0.69089,-0.187198,0.6769689999999999,0.91538,-0.218409,1.2974489999999999,0.92594,-0.278455,0.9199809999999999,0.0011499999999999,0.0057149999999999,1.080019,-0.0011499999999999,-0.005715,0.836359,0.10885,-0.330925,1.103969,0.09696,-0.354575,0.880707,-0.25449,-0.187621,1.122369,-0.2416999999999999,-0.236215
113,0.9915095,0.66395,-0.1087389999999999,0.8405545,0.461007,-0.0858219999999999,0.7167844999999999,0.67803,-0.142504,1.1329645,0.4611700000000001,-0.1012779999999999,1.2526045,0.69264,-0.186392,0.6765645,0.91614,-0.217227,1.2974545,0.92417,-0.277935,0.9201055,0.0012200000000001,0.005595,1.0798945,-0.0012199999999999,-0.0055949999999999,0.8365045,0.11745,-0.328195,1.1032845,0.10504,-0.352225,0.8815065,-0.2471799999999999,-0.184971,1.1245545,-0.2350899999999999,-0.238305
114,0.9914815000000001,0.6644,-0.107616,0.8405725,0.461508,-0.084151,0.7172125,0.6794800000000001,-0.140743,1.1331625,0.460917,-0.099952,1.2528425,0.69431,-0.185507,0.6763625000000001,0.91918,-0.21597,1.2976025,0.92279,-0.2771,0.9202475,0.00141,0.0056299999999999,1.0797525000000001,-0.00141,-0.0056299999999999,0.8366825,0.12505,-0.32536,1.1025625,0.11219,-0.34995,0.8823705,-0.2409399999999999,-0.182238,1.1263325,-0.2301999999999999,-0.23961
115,0.9915875,0.66495,-0.10643,0.8406165,0.46237,-0.082506,0.7176565000000001,0.68042,-0.1391919999999999,1.1333165,0.46147,-0.098718,1.2532165,0.6889500000000001,-0.184634,0.6763065000000001,0.92193,-0.214698,1.2979465000000001,0.92352,-0.2762449999999999,0.9203435000000001,0.0013,0.005655,1.0796564999999998,-0.0012999999999999,-0.0056549999999999,0.8368265,0.1322100000000001,-0.322455,1.1019265,0.1188900000000001,-0.347825,0.8830365,-0.2345099999999998,-0.179242,1.1276365,-0.2252399999999998,-0.2405149999999999
116,0.991771,0.665261,-0.105256,0.840681,0.463115,-0.0810859999999999,0.718091,0.680565,-0.137745,1.133501,0.462015,-0.0974859999999999,1.253501,0.682455,-0.1834259999999999,0.6762710000000001,0.923815,-0.213668,1.2982909999999999,0.922975,-0.27543,0.9204390000000001,0.0011649999999999,0.00571,1.079561,-0.0011649999999999,-0.0057099999999999,0.836901,0.138865,-0.31965,1.101331,0.125145,-0.3457599999999999,0.8842210000000001,-0.228205,-0.1754939999999999,1.1288610000000001,-0.2208949999999999,-0.24135
117,0.992006,0.665224,-0.10406,0.840789,0.464025,-0.080025,0.718349,0.681015,-0.136668,1.133689,0.462695,-0.096391,1.253429,0.675575,-0.18135,0.676409,0.925455,-0.212599,1.2985389999999999,0.921995,-0.2738,0.920481,0.001055,0.0057799999999999,1.079519,-0.001055,-0.00578,0.8369690000000001,0.144535,-0.31709,1.100799,0.130605,-0.34393,0.885016,-0.2228749999999999,-0.171844,1.129999,-0.2169249999999999,-0.24209
118,0.9921445000000001,0.6648339999999999,-0.1029419999999999,0.8407705,0.46491,-0.079326,0.7184105000000001,0.68087,-0.135993,1.1336305,0.46307,-0.095612,1.2531605,0.6702859999999999,-0.179896,0.6764405,0.92659,-0.211841,1.2989405,0.92126,-0.27229,0.9204895,0.0010299999999999,0.00583,1.0795105,-0.0010299999999999,-0.00583,0.8367905,0.1491599999999999,-0.31486,1.0999705,0.1351699999999999,-0.34231,0.8864065,-0.21845,-0.168584,1.1308805,-0.2143399999999999,-0.24267
119,0.9923,0.66458,-0.102075,0.84089,0.4657949999999999,-0.078814,0.7184900000000001,0.680731,-0.135603,1.13361,0.463175,-0.094983,1.25248,0.66403,-0.177935,0.67645,0.927185,-0.211445,1.29939,0.919385,-0.27083,0.9205099999999999,0.0010449999999999,0.0058999999999999,1.07949,-0.0010449999999999,-0.0059,0.83663,0.1531549999999999,-0.31291,1.09954,0.1389849999999999,-0.34159,0.887758,-0.214635,-0.16548,1.13196,-0.212395,-0.24274
120,0.9923510000000001,0.664262,-0.101459,0.840948,0.466165,-0.078512,0.7185079999999999,0.6806570000000001,-0.1353629999999999,1.133548,0.463865,-0.0945969999999999,1.251828,0.657464,-0.176373,0.676308,0.927275,-0.211191,1.299868,0.917425,-0.27017,0.920512,0.0009149999999999,0.00596,1.079488,-0.0009149999999999,-0.0059599999999999,0.836408,0.156255,-0.3112399999999999,1.099288,0.142075,-0.34133,0.8888560000000001,-0.211635,-0.1625869999999999,1.1321679999999998,-0.210075,-0.2425199999999999
121,0.9923715000000001,0.6642159999999999,-0.101221,0.8409955,0.4663949999999999,-0.078266,0.7185254999999999,0.6802119999999999,-0.135163,1.1334755,0.4641049999999999,-0.094305,1.2522355,0.6521419999999999,-0.175623,0.6761355,0.927505,-0.210974,1.3004954999999998,0.915295,-0.27003,0.9205145,0.0008249999999999,0.0059899999999999,1.0794855,-0.000825,-0.0059899999999999,0.8361855,0.1587649999999999,-0.30986,1.0993855,0.1448449999999999,-0.34028,0.8896115000000001,-0.2091250000000001,-0.160117,1.1323655,-0.2077850000000001,-0.2431999999999999
122,0.9925285,0.6642669999999999,-0.1010399999999999,0.8411135,0.4668699999999999,-0.0780819999999999,0.7185135,0.679572,-0.1351969999999999,1.1335235,0.4640299999999999,-0.0940049999999999,1.2527235,0.646778,-0.174902,0.6759535,0.92744,-0.211314,1.3014035,0.91302,-0.269915,0.9205365000000001,0.0008799999999999,0.0060349999999999,1.0794635,-0.0008799999999999,-0.0060349999999999,0.8360434999999999,0.1610399999999999,-0.3086649999999999,1.0995635,0.1474499999999999,-0.339065,0.8898425000000001,-0.2068500000000001,-0.15932,1.1326535,-0.20551,-0.243755
123,0.9926985000000002,0.663927,-0.101054,0.8412505,0.46731,-0.078092,0.7182705,0.6787270000000001,-0.135852,1.1335605,0.4642,-0.0939079999999999,1.2525104999999999,0.640563,-0.1738589999999999,0.6757504999999999,0.9269,-0.212383,1.3024505,0.91028,-0.27,0.9205795,0.0008299999999999,0.0060299999999999,1.0794205,-0.0008299999999999,-0.0060299999999999,0.8359305000000001,0.16233,-0.30795,1.0995305,0.14936,-0.33803,0.8900385000000001,-0.2056899999999999,-0.158894,1.1328005,-0.20421,-0.2436
124,0.9927300000000001,0.663739,-0.101017,0.841257,0.46763,-0.078054,0.717867,0.6781469999999999,-0.13666,1.133507,0.4639799999999999,-0.093778,1.251787,0.640486,-0.1732449999999999,0.675287,0.92648,-0.213715,1.303077,0.91013,-0.269915,0.920583,0.0008299999999999,0.0060349999999999,1.079417,-0.0008299999999999,-0.0060349999999999,0.8358369999999999,0.16329,-0.307355,1.099567,0.1510399999999999,-0.336855,0.890254,-0.2047999999999999,-0.158611,1.133107,-0.20321,-0.243585
125,0.992773,0.663624,-0.101157,0.841271,0.46791,-0.078062,0.717511,0.678045,-0.137632,1.1334710000000001,0.4636599999999999,-0.093682,1.251101,0.640503,-0.172752,0.6750510000000001,0.92666,-0.21523,1.303661,0.91005,-0.2699,0.920569,0.00087,0.0060299999999999,1.079431,-0.00087,-0.00603,0.8358410000000001,0.16425,-0.3069,1.099521,0.15259,-0.33571,0.890243,-0.2039499999999999,-0.158399,1.1336709999999999,-0.20184,-0.24362
126,0.992847,0.663601,-0.101461,0.841235,0.468175,-0.078195,0.717205,0.678165,-0.138711,1.133535,0.4638449999999999,-0.093662,1.250365,0.639693,-0.172196,0.674825,0.926855,-0.217255,1.304025,0.909405,-0.2701449999999999,0.920585,0.000955,0.0060049999999999,1.079415,-0.000955,-0.006005,0.835845,0.165165,-0.306525,1.0994950000000001,0.153555,-0.3350349999999999,0.890245,-0.203115,-0.15826,1.134015,-0.2010549999999999,-0.243745
127,0.992953,0.6636439999999999,-0.101819,0.8412440000000001,0.468595,-0.078338,0.716974,0.678195,-0.139693,1.133584,0.4636349999999999,-0.093655,1.2503039999999999,0.6388969999999999,-0.172594,0.674614,0.926915,-0.21926,1.3044639999999998,0.908515,-0.2714999999999999,0.920586,0.0009949999999999,0.0059899999999999,1.079414,-0.000995,-0.00599,0.8358340000000001,0.1659449999999999,-0.3063,1.099424,0.1546549999999999,-0.33442,0.890256,-0.202415,-0.158252,1.1342240000000001,-0.199915,-0.24421
128,0.993072,0.663808,-0.102099,0.841286,0.468725,-0.0784899999999999,0.716816,0.67833,-0.1406319999999999,1.133676,0.463435,-0.0936499999999999,1.250306,0.638463,-0.173379,0.674426,0.927265,-0.221075,1.304866,0.907615,-0.273065,0.920584,0.0010449999999999,0.005975,1.079416,-0.0010449999999999,-0.0059749999999999,0.835806,0.166415,-0.306285,1.099306,0.155445,-0.3340349999999999,0.889972,-0.202025,-0.158214,1.134356,-0.199075,-0.244725
129,0.993222,0.663739,-0.102325,0.841367,0.46864,-0.078604,0.7166870000000001,0.678415,-0.141537,1.133747,0.46329,-0.093642,1.250457,0.638202,-0.17436,0.674267,0.92727,-0.22281,1.305427,0.90685,-0.27464,0.920573,0.0011299999999999,0.00597,1.079427,-0.0011299999999999,-0.00597,0.835847,0.16606,-0.30628,1.099207,0.15534,-0.33401,0.889693,-0.20243,-0.158175,1.134587,-0.1990999999999999,-0.24533
130,0.9933025000000001,0.663739,-0.102463,0.8415785,0.46864,-0.078852,0.7165185000000001,0.678415,-0.142369,1.1338085,0.46329,-0.093631,1.2508985,0.638731,-0.175246,0.6740785,0.92727,-0.224445,1.3057685,0.90717,-0.275965,0.9205615,0.0011299999999999,0.005955,1.0794385,-0.0011299999999999,-0.005955,0.8359685,0.16557,-0.3062749999999999,1.0992985,0.15508,-0.3340349999999999,0.8896045,-0.2030299999999999,-0.15815,1.1349285,-0.19886,-0.245945
131,0.9934575,0.663739,-0.1025499999999999,0.8418545,0.46864,-0.079119,0.7164645000000001,0.678415,-0.143055,1.1340345,0.46329,-0.093679,1.2514245,0.6394610000000001,-0.1757989999999999,0.6741345000000001,0.92727,-0.2254749999999999,1.3060945,0.90766,-0.277335,0.9205455,0.0011299999999999,0.005915,1.0794545,-0.0011299999999999,-0.0059149999999999,0.8362045000000001,0.16503,-0.306305,1.0993845,0.15471,-0.3344749999999999,0.8895075,-0.2030299999999999,-0.158742,1.1350845,-0.19821,-0.2464849999999999
132,0.9936420000000001,0.663739,-0.10268,0.842142,0.46881,-0.079584,0.716432,0.678823,-0.14399,1.134542,0.46329,-0.094078,1.251952,0.640415,-0.176563,0.674402,0.92727,-0.22655,1.306572,0.9087,-0.2782,0.920528,0.0011299999999999,0.0059099999999999,1.079472,-0.0011299999999999,-0.0059099999999999,0.836452,0.16448,-0.30685,1.099472,0.15369,-0.33555,0.8879400000000001,-0.2030299999999999,-0.162288,1.1351419999999999,-0.1979699999999999,-0.24686
133,0.9938435000000001,0.664109,-0.102795,0.8424185000000001,0.4684499999999999,-0.080208,0.7162685000000001,0.6792459999999999,-0.145189,1.1350385,0.4627799999999999,-0.0946309999999999,1.2526585,0.645334,-0.1789899999999999,0.6747385,0.92683,-0.22775,1.3076585,0.90984,-0.27986,0.9204915,0.0012499999999999,0.0059,1.0795085,-0.00125,-0.0059,0.8366385000000001,0.1630099999999999,-0.3079199999999999,1.0995185,0.1516199999999999,-0.33667,0.8868745,-0.2041900000000001,-0.165922,1.1351785,-0.19813,-0.2469
134,0.9939955000000001,0.66523,-0.1031459999999999,0.8426105,0.4672449999999999,-0.0810819999999999,0.7161605,0.679213,-0.14648,1.1354505,0.4622849999999999,-0.0953839999999999,1.2537505,0.6534089999999999,-0.18234,0.6750805,0.925815,-0.2292349999999999,1.3086704999999998,0.912195,-0.281925,0.9203495,0.0013349999999999,0.005835,1.0796505,-0.001335,-0.0058349999999999,0.8367105,0.1599749999999999,-0.3096649999999999,1.0993205,0.1491449999999999,-0.337005,0.8860335,-0.2070550000000001,-0.1693349999999999,1.1351404999999999,-0.199535,-0.2469849999999999
135,0.9941675000000001,0.665783,-0.103579,0.8427865,0.465895,-0.082396,0.7159964999999999,0.678641,-0.147946,1.1358265,0.461635,-0.0965689999999999,1.2540065,0.658891,-0.185275,0.6753565,0.923785,-0.230735,1.3093265,0.912605,-0.284585,0.9201535,0.0015249999999999,0.0058249999999999,1.0798465,-0.0015249999999999,-0.0058249999999999,0.8366264999999999,0.155385,-0.311995,1.0991165,0.145175,-0.337175,0.8846115000000001,-0.211025,-0.169384,1.1351165,-0.2027449999999999,-0.2471749999999999
136,0.994365,0.666264,-0.10391,0.842928,0.46382,-0.083827,0.715758,0.681273,-0.150759,1.1361379999999999,0.4613899999999999,-0.098044,1.253838,0.662743,-0.187648,0.675968,0.92365,-0.23294,1.309258,0.91357,-0.28747,0.919962,0.0013699999999999,0.0058999999999999,1.080038,-0.0013699999999999,-0.0059,0.8364380000000001,0.1486099999999999,-0.31466,1.098878,0.13792,-0.33928,0.8839589999999999,-0.2171699999999999,-0.169735,1.133918,-0.20836,-0.24647
137,0.994671,0.6684490000000001,-0.104527,0.8431690000000001,0.459645,-0.085401,0.715249,0.681965,-0.153772,1.136469,0.461215,-0.099665,1.253899,0.665721,-0.1905379999999999,0.676679,0.922435,-0.235205,1.3097889999999999,0.915605,-0.290355,0.919781,0.000935,0.0059649999999999,1.080219,-0.000935,-0.0059649999999999,0.836239,0.139155,-0.318045,1.098549,0.127635,-0.343005,0.882939,-0.2253649999999999,-0.172698,1.131469,-0.2170149999999999,-0.243615
138,0.994966,0.67008,-0.105021,0.8437060000000001,0.45808,-0.087496,0.714906,0.6836000000000001,-0.156869,1.136746,0.4602400000000001,-0.101588,1.253086,0.66644,-0.19219,0.677276,0.9206,-0.237995,1.309706,0.91588,-0.292405,0.919714,0.00108,0.0058949999999999,1.080286,-0.0010799999999999,-0.005895,0.835906,0.12535,-0.322435,1.098226,0.11387,-0.346855,0.88163,-0.2370599999999999,-0.177432,1.128076,-0.2292699999999999,-0.239635
139,0.995496,0.672455,-0.105344,0.844327,0.4561639999999999,-0.089483,0.7149570000000001,0.6856749999999999,-0.159742,1.137377,0.4607239999999999,-0.1032309999999999,1.2547869999999999,0.668895,-0.195399,0.677897,0.920165,-0.2407699999999999,1.310877,0.918175,-0.29552,0.919633,0.0010049999999999,0.00584,1.080367,-0.001005,-0.0058399999999999,0.835757,0.1103549999999999,-0.32679,1.098137,0.0989249999999999,-0.35077,0.880294,-0.248775,-0.1820609999999999,1.124337,-0.242775,-0.2349399999999999
140,0.9961555,0.67482,-0.105499,0.8450245000000001,0.4544029999999999,-0.091352,0.7151445000000001,0.68763,-0.162038,1.1380245,0.4609229999999999,-0.104734,1.2562245,0.6739999999999999,-0.19799,0.6786745000000001,0.91911,-0.24325,1.3121345,0.92301,-0.2980399999999999,0.9195055,0.0009399999999999,0.0058199999999999,1.0804945,-0.00094,-0.00582,0.8356745,0.0939299999999999,-0.33092,1.0981445,0.0827599999999999,-0.35422,0.8793615,-0.26167,-0.18588,1.1211145,-0.2576600000000001,-0.23144
141,0.996798,0.6777149999999998,-0.105227,0.8456980000000001,0.4533779999999999,-0.092973,0.715368,0.688985,-0.16372,1.1384679999999998,0.4605059999999999,-0.1059539999999999,1.257298,0.6777049999999999,-0.1997189999999999,0.679368,0.918035,-0.245075,1.313098,0.926165,-0.299985,0.919472,0.0009249999999999,0.0057549999999999,1.080528,-0.000925,-0.0057549999999999,0.835458,0.0761949999999999,-0.334665,1.098178,0.0655449999999999,-0.356965,0.878132,-0.2753650000000001,-0.1904799999999999,1.117798,-0.2727250000000001,-0.227895
142,0.9973680000000001,0.680555,-0.104938,0.846367,0.4530289999999999,-0.094282,0.715597,0.692275,-0.165011,1.138977,0.460765,-0.106825,1.258957,0.6790849999999999,-0.200452,0.6800670000000001,0.920805,-0.245995,1.314097,0.927785,-0.300385,0.9195230000000001,0.0009649999999999,0.0056849999999999,1.080477,-0.0009649999999999,-0.005685,0.8351370000000001,0.0576849999999999,-0.337745,1.098247,0.0475149999999999,-0.3590649999999999,0.876127,-0.289985,-0.194437,1.114387,-0.288835,-0.224375
143,0.997852,0.684345,-0.104787,0.84699,0.452298,-0.095376,0.7157,0.6952050000000001,-0.166296,1.13952,0.460115,-0.107283,1.26026,0.677045,-0.200716,0.6807000000000001,0.922855,-0.24633,1.31511,0.929915,-0.30036,0.91964,0.000925,0.0056099999999999,1.08036,-0.0009249999999999,-0.00561,0.8346899999999999,0.038375,-0.3399,1.0985,0.028925,-0.36053,0.87631,-0.305605,-0.193801,1.11102,-0.3058349999999999,-0.22084
144,0.9983440000000001,0.687605,-0.1044799999999999,0.847747,0.453497,-0.0957389999999999,0.715577,0.698075,-0.16695,1.140147,0.462785,-0.107019,1.261407,0.673995,-0.200498,0.681387,0.924525,-0.246075,1.3156970000000001,0.931315,-0.300095,0.919753,0.000695,0.0054249999999999,1.080247,-0.000695,-0.0054249999999999,0.834177,0.018295,-0.340955,1.098877,0.009325,-0.361145,0.876407,-0.3214449999999999,-0.192788,1.107887,-0.323965,-0.216695
145,0.9988145,0.69157,-0.104033,0.8484805,0.454759,-0.095722,0.7158605,0.69957,-0.166487,1.1407805,0.464767,-0.106587,1.2623105,0.67715,-0.200038,0.6818705,0.92532,-0.24562,1.3164205,0.93435,-0.29967,0.9198495,0.0007099999999999,0.0052399999999999,1.0801505,-0.0007099999999999,-0.00524,0.8336805,-0.00095,-0.3414399999999999,1.0993705,-0.0099199999999999,-0.36109,0.8746305,-0.33711,-0.193,1.1055305,-0.34182,-0.21345
146,0.9992125,0.694285,-0.103032,0.8492835,0.458223,-0.095231,0.7160635,0.7027950000000001,-0.165739,1.1413734999999998,0.466595,-0.105874,1.2626435,0.6793849999999999,-0.19819,0.6822635,0.926785,-0.244895,1.3173935,0.937125,-0.298715,0.9199465,0.0010249999999999,0.005135,1.0800535,-0.0010249999999999,-0.005135,0.8332634999999999,-0.020045,-0.340645,1.0999035,-0.029015,-0.360375,0.8737635,-0.352675,-0.190919,1.1048935,-0.359505,-0.210847
147,0.9995,0.697635,-0.101783,0.849363,0.459331,-0.094295,0.7163630000000001,0.705375,-0.164822,1.141863,0.4687749999999999,-0.104968,1.263173,0.682785,-0.196106,0.682573,0.929195,-0.24395,1.3183829999999999,0.940535,-0.29705,0.920117,0.0007949999999999,0.00489,1.079883,-0.000795,-0.00489,0.832813,-0.037205,-0.3396599999999999,1.100323,-0.045635,-0.35946,0.872363,-0.366585,-0.189656,1.104943,-0.374745,-0.208345
148,0.9999705,0.70029,-0.1004,0.8498595,0.459878,-0.093364,0.7176795,0.70726,-0.162569,1.1424595,0.468614,-0.103634,1.2641095,0.68663,-0.194043,0.6831695,0.93318,-0.24194,1.3198095,0.94393,-0.29475,0.9202605,0.0007899999999999,0.0045699999999999,1.0797395,-0.00079,-0.00457,0.8325695,-0.05398,-0.33866,1.1009995,-0.06131,-0.35855,0.8706195,-0.38085,-0.188309,1.1051695,-0.38981,-0.205852
149,1.0006835,0.70427,-0.098186,0.8503115,0.4597219999999999,-0.092303,0.7186515,0.70844,-0.160207,1.1431615,0.4702199999999999,-0.101892,1.2653415,0.6857199999999999,-0.191848,0.6838915000000001,0.9348,-0.23964,1.3215315,0.94281,-0.29233,0.9205285,0.0006299999999999,0.0042399999999999,1.0794715,-0.00063,-0.0042399999999999,0.8325015,-0.07153,-0.33688,1.1019215,-0.07693,-0.35585,0.8689815,-0.39704,-0.187144,1.1055315000000001,-0.40632,-0.203432
150,1.0012139999999998,0.7071149999999999,-0.095873,0.8507600000000001,0.461265,-0.090676,0.71994,0.7104550000000001,-0.15733,1.14375,0.4717449999999999,-0.099678,1.26685,0.689925,-0.189718,0.6846,0.936865,-0.23626,1.32382,0.946685,-0.2898,0.92082,0.000595,0.0039399999999999,1.07918,-0.000595,-0.00394,0.8326,-0.088205,-0.33348,1.1029,-0.091805,-0.35231,0.86782,-0.413375,-0.185821,1.10584,-0.422535,-0.201642
151,1.0019444999999998,0.710055,-0.093301,0.8511115000000001,0.462325,-0.088666,0.7212915,0.711125,-0.153766,1.1441515,0.472595,-0.097237,1.2687015,0.6893750000000001,-0.187139,0.6854415,0.940335,-0.23258,1.3260815,0.948115,-0.28723,0.9211285,0.000585,0.00361,1.0788715,-0.000585,-0.00361,0.8330215000000001,-0.103885,-0.32954,1.1040015,-0.1055249999999999,-0.34822,0.8661715,-0.428955,-0.18424,1.1068515,-0.438225,-0.200343
152,1.0024819999999999,0.71071,-0.090589,0.851415,0.4639399999999999,-0.086601,0.722415,0.71296,-0.150268,1.1444949999999998,0.4741799999999999,-0.094878,1.270205,0.69065,-0.184637,0.6861250000000001,0.94446,-0.22894,1.328215,0.95058,-0.28406,0.921455,0.0005999999999999,0.0034199999999999,1.078545,-0.0006,-0.00342,0.833535,-0.11738,-0.3254,1.104855,-0.11728,-0.3442199999999999,0.8645849999999999,-0.44328,-0.182687,1.107425,-0.45288,-0.199059
153,1.0028394999999999,0.7132499999999999,-0.087915,0.8516475,0.46281,-0.084567,0.7228775000000001,0.7148399999999999,-0.14642,1.1448274999999999,0.47257,-0.092588,1.2711075,0.69617,-0.182168,0.6864874999999999,0.94962,-0.225335,1.3295975,0.9545,-0.280765,0.9218415000000001,0.00062,0.0033549999999999,1.0781584999999998,-0.00062,-0.003355,0.8340275,-0.12886,-0.321115,1.1056275,-0.12737,-0.340345,0.8646575,-0.4575,-0.179859,1.1079775,-0.46648,-0.197721
154,1.00322,0.716475,-0.0849495,0.851975,0.4653049999999999,-0.0822465,0.723365,0.714135,-0.1422425,1.1451049999999998,0.473975,-0.0898805,1.271495,0.695595,-0.1790525,0.6869550000000001,0.951995,-0.2213574999999999,1.330125,0.954505,-0.2770375,0.922172,0.0008349999999999,0.0030825,1.077828,-0.000835,-0.0030825,0.834615,-0.141135,-0.3158674999999999,1.106425,-0.138075,-0.3355074999999999,0.864785,-0.473265,-0.1771235,1.1085049999999999,-0.4812849999999999,-0.1959525
155,1.0035775,0.7185900000000001,-0.082044,0.8523025,0.46701,-0.079712,0.7236625,0.71468,-0.1375299999999999,1.1454225,0.47447,-0.087266,1.2718725,0.69676,-0.175934,0.6874225,0.95431,-0.217216,1.3305725,0.95379,-0.273206,0.9225295,0.00098,0.0028839999999999,1.0774705,-0.0009799999999999,-0.0028839999999999,0.8352725,-0.1524799999999999,-0.310556,1.1070525,-0.1482599999999999,-0.330486,0.8649025000000001,-0.4880099999999999,-0.174243,1.1091425,-0.49539,-0.192664
156,1.0040529999999999,0.72159,-0.077503,0.852452,0.46886,-0.075668,0.724262,0.7170799999999999,-0.130482,1.145472,0.47505,-0.083434,1.272542,0.69862,-0.170283,0.6881619999999999,0.95676,-0.209673,1.3313920000000001,0.95627,-0.265683,0.922957,0.00105,0.0026999999999999,1.077043,-0.0010499999999999,-0.0027,0.836522,-0.1661599999999999,-0.302553,1.107892,-0.16101,-0.322863,0.865212,-0.5074799999999999,-0.169814,1.109972,-0.51447,-0.188202
157,1.0044175,0.725125,-0.0721515,0.8524435,0.470665,-0.0709925,0.7242335000000001,0.7189749999999999,-0.1231395,1.1455235,0.4757949999999999,-0.0788825,1.2725435,0.699805,-0.1628925,0.6884135,0.958005,-0.2013125,1.3324035,0.958175,-0.2564325,0.9233845,0.001125,0.0025374999999999,1.0766155,-0.0011249999999999,-0.0025375,0.8379735,-0.180745,-0.2935225,1.1088635,-0.174885,-0.3140125,0.8656135,-0.528575,-0.1648665,1.1108235,-0.534675,-0.1830905
158,1.004432,0.726995,-0.0668135,0.852177,0.4742849999999999,-0.0661575,0.7245269999999999,0.721645,-0.1155275,1.145187,0.476305,-0.0742345,1.272287,0.702075,-0.1552995,0.688287,0.961115,-0.1923265,1.3327969999999998,0.961105,-0.2464865,0.923719,0.001305,0.0023554999999999,1.076281,-0.001305,-0.0023555,0.839457,-0.193715,-0.2842965,1.109747,-0.188175,-0.3048965,0.865947,-0.547975,-0.1597155,1.111507,-0.5532750000000001,-0.1783565
159,1.0042535,0.73004,-0.0611525,0.8518855,0.4772,-0.0611785,0.7251155,0.7233799999999999,-0.1072845,1.1448555,0.47699,-0.0692525,1.2721255,0.7035800000000001,-0.1474675,0.6878854999999999,0.96398,-0.1827215,1.3330555,0.95899,-0.2358035,0.9241064999999999,0.00143,0.0020204999999999,1.0758935,-0.0014299999999999,-0.0020205,0.8414755,-0.2067999999999999,-0.2741535,1.1106055,-0.20153,-0.2943935,0.8662155,-0.56796,-0.1544145,1.1121955,-0.5720000000000001,-0.1732785
160,1.0035554999999998,0.7325200000000001,-0.0553945,0.8511615000000001,0.47963,-0.0560025,0.7245315,0.72468,-0.0993115,1.1442315,0.47895,-0.0640854999999999,1.2718015,0.7081500000000001,-0.1396485,0.6864715,0.96569,-0.1728475,1.3330815,0.96369,-0.2244515,0.9246675,0.0012399999999999,0.0017595,1.0753325,-0.0012399999999999,-0.0017594999999999,0.8436615000000001,-0.21992,-0.2632215,1.1112415,-0.2149499999999999,-0.2829215,0.8662915,-0.58804,-0.1487455,1.1126415,-0.59085,-0.1681774999999999
161,1.002545,0.73619,-0.0501004999999999,0.850277,0.4826499999999999,-0.0507195,0.723657,0.7256199999999999,-0.0913435,1.143257,0.4821499999999999,-0.0589195,1.271537,0.71167,-0.1317765,0.6848970000000001,0.9671,-0.1627865,1.332807,0.9663,-0.2136325,0.9252940000000001,0.0009799999999999,0.0014274999999999,1.074706,-0.00098,-0.0014274999999999,0.845667,-0.23325,-0.2516025,1.111917,-0.22857,-0.2705025,0.866317,-0.60817,-0.1428984999999999,1.1130369999999998,-0.61019,-0.1628375
162,1.0014394999999998,0.73958,-0.044823,0.8493645,0.48649,-0.045529,0.7227545,0.7275,-0.083941,1.1430745,0.48585,-0.053706,1.2706845,0.71507,-0.124119,0.6830944999999999,0.96949,-0.1527,1.3318945,0.96877,-0.202906,0.9258745,0.0007299999999999,0.0010659999999999,1.0741255,-0.00073,-0.001066,0.8479945,-0.25378,-0.239606,1.1124444999999998,-0.2465999999999999,-0.257646,0.8663045,-0.62876,-0.137109,1.1133945,-0.63065,-0.157559
163,1.000151,0.7405889999999999,-0.0398159999999999,0.848331,0.487159,-0.040752,0.7216010000000002,0.7301289999999999,-0.077099,1.1429610000000001,0.486889,-0.0487779999999999,1.2695509999999999,0.7189789999999999,-0.1165779999999999,0.6810510000000001,0.972919,-0.1432169999999999,1.3307909999999998,0.972109,-0.192555,0.926554,0.0004709999999999,0.001069,1.073446,-0.000471,-0.0010689999999999,0.850051,-0.272721,-0.2275849999999999,1.112821,-0.2634309999999999,-0.244925,0.8661610000000001,-0.647541,-0.13135,1.113761,-0.6492910000000001,-0.152253
164,0.99944,0.744229,-0.030971,0.847832,0.487619,-0.0317139999999999,0.7207520000000001,0.732169,-0.066107,1.143452,0.487899,-0.039568,1.268992,0.721179,-0.104822,0.679582,0.974649,-0.1293059999999999,1.330382,0.974619,-0.177649,0.927028,0.0003979999999999,0.000723,1.072972,-0.0003979999999999,-0.0007229999999999,0.852932,-0.293321,-0.209439,1.113932,-0.281841,-0.226309,0.866362,-0.668011,-0.121082,1.114742,-0.669501,-0.142237
165,0.9989005000000001,0.7449565,-0.0232534999999999,0.8471055000000001,0.4867665,-0.0234914999999999,0.7200455,0.7313465,-0.0568235,1.1439255,0.4908065,-0.0312615,1.2684755,0.7229965,-0.0949695,0.6771855,0.9757165,-0.1181084999999999,1.3302955,0.9730565,-0.1655055,0.9273534999999999,9.150000000000824e-05,0.0004165,1.0726465,-9.149999999999436e-05,-0.0004164999999999,0.8560655,-0.3094735,-0.1890055,1.1145954999999999,-0.2978935,-0.2059155,0.8665855,-0.6844335,-0.1113995,1.1158154999999998,-0.6857835,-0.1322634999999999
166,0.9986515,0.7447520000000001,-0.0153315,0.8466445,0.486572,-0.0159145,0.7194245,0.7314120000000001,-0.0481395,1.1444245,0.494052,-0.0236775,1.2685445,0.724982,-0.0866015,0.6750845,0.974692,-0.1076874999999999,1.3307245,0.971442,-0.1548775,0.9275855,-0.0001859999999999,0.0001325,1.0724145,0.0001859999999999,-0.0001325,0.8591445,-0.323828,-0.1691575,1.1151845,-0.312448,-0.1862375,0.8668745,-0.699418,-0.1022855,1.1168545,-0.700708,-0.1227195
167,0.9986815000000001,0.7448589999999999,-0.0081679999999999,0.8460135,0.487009,-0.0086809999999999,0.7188035000000002,0.7329589999999999,-0.039719,1.1449835,0.495869,-0.0163859999999999,1.2688035,0.727649,-0.078488,0.6732735000000001,0.974049,-0.097742,1.3315235,0.970169,-0.144873,0.9277445,-0.000462,-0.0002149999999999,1.0722555,0.0004619999999999,0.0002149999999999,0.8619235000000001,-0.336631,-0.149913,1.1158235,-0.325841,-0.166813,0.8672535,-0.7134710000000001,-0.093714,1.1180534999999998,-0.7146410000000001,-0.113397
168,0.9988105,0.744569,-0.0013114999999999,0.8453645,0.486259,-0.0018374999999999,0.7181345,0.734789,-0.0319485,1.1456945,0.497649,-0.0092674999999999,1.2690145,0.726749,-0.0707945,0.6716044999999999,0.973219,-0.0886425,1.3322445,0.969789,-0.1357295,0.9279485000000001,-0.0008629999999999,-0.0003624999999999,1.0720515,0.000863,0.0003625,0.8640345,-0.349211,-0.1315695,1.1163545,-0.336741,-0.1486695,0.8676845,-0.725151,-0.0854704999999999,1.1192544999999998,-0.725691,-0.1045654999999999
169,0.9991400000000001,0.7442875,0.0053769999999999,0.8448810000000001,0.4860575,0.004911,0.717811,0.7365475,-0.0240529999999999,1.1463510000000001,0.4985675,-0.00246,1.269251,0.7237875,-0.063246,0.6714709999999999,0.9685275,-0.079708,1.332841,0.9636275,-0.127241,0.928185,-0.0010854999999999,-0.0005929999999999,1.071815,0.0010855,0.0005929999999999,0.865881,-0.3609825,-0.113771,1.116741,-0.3465824999999999,-0.131251,0.868291,-0.7348825,-0.076768,1.120451,-0.7355725,-0.095554
170,0.9996105,0.7432895,0.012147,0.8445825,0.4856495,0.012193,0.7185425,0.7382795000000001,-0.015517,1.1474725000000001,0.4989995,0.004787,1.2699425,0.7222395,-0.055328,0.6719725,0.9650695,-0.0703279999999999,1.3332625,0.9581495,-0.118295,0.9283785,-0.0012085,-0.0008539999999999,1.0716215,0.0012085,0.000854,0.8679725,-0.3732205,-0.09543,1.1172425,-0.3565105,-0.1135149999999999,0.8688724999999999,-0.7442804999999999,-0.067583,1.1218925,-0.7453504999999999,-0.086145
171,1.0002145,0.7415135,0.018599,0.8445005000000001,0.4852535,0.019495,0.7196705,0.7383435,-0.006952,1.1488005000000001,0.4988035,0.011882,1.2703005,0.7187035,-0.0470999999999999,0.6728305,0.9608335,-0.0608639999999999,1.3337505,0.9523535,-0.109029,0.9284405,-0.0012585,-0.0011749999999999,1.0715595,0.0012584999999999,0.001175,0.8702205000000001,-0.3870765,-0.077006,1.1179005,-0.3681864999999999,-0.095875,0.8696305,-0.7548765,-0.058038,1.1234605,-0.7564365,-0.076156
172,1.001416,0.7405940000000001,0.0252495,0.844949,0.4847039999999999,0.0272155,0.721529,0.737454,0.0020115,1.150739,0.498134,0.0196095,1.270989,0.715624,-0.0383334999999999,0.674509,0.957034,-0.0509235,1.334279,0.946974,-0.0991425,0.928361,-0.001426,-0.0016714999999999,1.071639,0.001426,0.0016715,0.872859,-0.401276,-0.0581555,1.118899,-0.380296,-0.0782414999999999,0.870559,-0.7655959999999999,-0.0481115,1.125559,-0.7675259999999999,-0.0655955
173,1.0024724999999999,0.7376199999999999,0.02837,0.8452745,0.4849299999999999,0.030638,0.7232445000000001,0.73575,0.006732,1.1528245,0.4981799999999999,0.023044,1.2715345,0.71414,-0.033983,0.6761845,0.95555,-0.045371,1.3344645,0.94249,-0.093666,0.9281715,-0.001738,-0.001877,1.0718285,0.001738,0.001877,0.8749845,-0.41338,-0.045377,1.1194945,-0.39018,-0.066732,0.8716245,-0.77399,-0.042504,1.1273945,-0.77602,-0.0596419999999999
174,1.0034699999999999,0.7360855,0.031204,0.845825,0.4859854999999999,0.033393,0.724815,0.7346355,0.010561,1.154515,0.4965855,0.025994,1.272105,0.7132155,-0.030057,0.6778650000000002,0.9543655,-0.04038,1.334625,0.9399555,-0.088849,0.927965,-0.0017905,-0.0021249999999999,1.072035,0.0017905,0.002125,0.876615,-0.4191545,-0.037845,1.120365,-0.3955445,-0.059902,0.872615,-0.7794145,-0.0380519999999999,1.128995,-0.7813845,-0.05506
175,1.0044185,0.7349765,0.0341695,0.8462525,0.4873065,0.0361975,0.7263824999999999,0.7342165,0.0146635,1.1561124999999999,0.4950765,0.0290705,1.2726125,0.7125265000000001,-0.0258495,0.6794525,0.9536565,-0.0351235,1.3347625,0.9382865,-0.0834195,0.9276295,-0.0018525,-0.0024605,1.0723705,0.0018525,0.0024605,0.8781025000000001,-0.4240935,-0.0303564999999999,1.1213225,-0.4003035,-0.0533725,0.8735025000000001,-0.7842235,-0.0335354999999999,1.1305125,-0.7862135,-0.0504094999999999
176,1.0051605,0.7340335,0.0371615,0.8469855,0.4868535,0.0390555,0.7279154999999999,0.7323835000000001,0.0187295,1.1574555,0.4935835,0.0323965,1.2729055,0.7121535,-0.0215425,0.6807555000000001,0.9536135,-0.0299205,1.3347055,0.9375835,-0.0778765,0.9273045,-0.0018425,-0.0026785,1.0726955,0.0018424999999999,0.0026785,0.8796255,-0.4281365,-0.0233175,1.1222355,-0.4041765,-0.0475084999999999,0.8741555,-0.7881064999999999,-0.0291495,1.1317655,-0.7901064999999999,-0.0457844999999999
177,1.005814,0.7332575,0.040521,0.847634,0.4865974999999999,0.04211,0.7291540000000001,0.7320274999999999,0.023045,1.158334,0.4921675,0.035737,1.273154,0.7120274999999999,-0.01693,0.6829240000000001,0.9541775,-0.02466,1.3345639999999999,0.9385175,-0.0716729999999999,0.9271020000000001,-0.0017705,-0.0029329999999999,1.072898,0.0017704999999999,0.002933,0.880514,-0.4290724999999999,-0.016567,1.123184,-0.4049725,-0.041931,0.874534,-0.7906225,-0.024867,1.132874,-0.7921425000000001,-0.0413669999999999
178,1.0062685,0.7320945,0.043828,0.8481434999999999,0.4864444999999999,0.045089,0.7296435,0.7316945,0.02773,1.1590635,0.4906445,0.03902,1.2733335000000001,0.7120145,-0.0121599999999999,0.6850335000000001,0.9550245,-0.0194709999999999,1.3343235,0.9398145,-0.065194,0.9269145,-0.0016885,-0.003144,1.0730855,0.0016885,0.003144,0.8812335,-0.4300455,-0.0103489999999999,1.1240735,-0.4055255,-0.036606,0.8747035,-0.7925555,-0.0206739999999999,1.1337735,-0.7935555,-0.036913
179,1.0064805,0.7312114999999999,0.046601,0.8483565,0.4863415,0.0476179999999999,0.7307665,0.7317914999999999,0.03183,1.1593965,0.4895815,0.0417639999999999,1.2733065,0.7116815000000001,-0.0077629999999999,0.6868164999999999,0.9556615,-0.014942,1.3341365,0.9417315,-0.058977,0.9268115,-0.0016194999999999,-0.003278,1.0731885,0.0016195,0.0032779999999999,0.8817265,-0.4311085,-0.005428,1.1245465,-0.4055185,-0.03229,0.8746365,-0.7936485,-0.01723,1.1342865,-0.7938285,-0.03303
180,1.0066425,0.7313145,0.049193,0.8485315,0.4863245,0.050058,0.7321715000000001,0.7319045000000001,0.03593,1.1596215,0.4895645,0.044328,1.2732915,0.7116645,-0.0030249999999999,0.6886415,0.9562445,-0.0102649999999999,1.3340515,0.9438145,-0.0523489999999999,0.9268055,-0.0016134999999999,-0.0033419999999999,1.0731945,0.0016135,0.003342,0.8821115,-0.4308255,-0.0010659999999999,1.1248915,-0.4054855,-0.0283429999999999,0.8744815,-0.7935854999999999,-0.0142829999999999,1.1346015,-0.7929955,-0.0297839999999999
181,1.0068184999999998,0.731429,0.0511865,0.8486695,0.486319,0.0517355,0.7333495,0.7318990000000001,0.0392835,1.1597994999999999,0.4895590000000001,0.0462615,1.2735395,0.711659,0.0010945,0.6898295,0.956439,-0.0062144999999999,1.3344195,0.945449,-0.0466044999999999,0.9268085000000001,-0.001608,-0.0033124999999999,1.0731914999999999,0.0016079999999999,0.0033125,0.8823595,-0.4303209999999999,0.0017595,1.1251395,-0.405481,-0.0255784999999999,0.8745695,-0.793571,-0.0121334999999999,1.1348395,-0.792261,-0.0275674999999999
182,1.0069919999999999,0.731619,0.053232,0.848787,0.486319,0.053153,0.7336670000000001,0.731969,0.041617,1.1600769999999998,0.4891690000000001,0.04819,1.273807,0.711659,0.0050809999999999,0.690637,0.956839,-0.0025379999999999,1.334737,0.946799,-0.041399,0.926802,-0.001608,-0.003303,1.073198,0.0016079999999999,0.003303,0.882557,-0.429811,0.0040759999999999,1.1255169999999999,-0.405441,-0.023111,0.874617,-0.793571,-0.010382,1.135037,-0.791801,-0.025602
183,1.0071329999999998,0.7312145,0.055821,0.848838,0.4862345,0.05467,0.733878,0.7315845,0.044357,1.160378,0.4878645,0.050467,1.2739880000000001,0.7113545,0.008992,0.691238,0.9573145,0.001162,1.3349579999999999,0.9483045,-0.0362229999999999,0.926746,-0.0015375,-0.0032899999999999,1.073254,0.0015374999999999,0.00329,0.882708,-0.4301755,0.006285,1.125908,-0.4051355,-0.0207219999999999,0.874538,-0.7939355,-0.0088589999999999,1.1351879999999999,-0.7912454999999999,-0.022966
184,1.0070824999999999,0.7310800000000001,0.0583625,0.8486055,0.4863899999999999,0.0561295,0.7337255,0.73197,0.0467895,1.1604455,0.4869699999999999,0.0524025,1.2738555,0.71111,0.0124685,0.6913555,0.95864,0.0045895,1.3348255,0.95015,-0.0318674999999999,0.9267365,-0.001431,-0.0031654999999999,1.0732635,0.001431,0.0031655,0.8825855,-0.42996,0.0081175,1.1261655,-0.40437,-0.0186254999999999,0.8741855000000001,-0.7937299999999999,-0.0075304999999999,1.1350455,-0.79004,-0.0207465
185,1.0069715,0.7310255,0.060807,0.8483005,0.4865954999999999,0.057554,0.7333905000000001,0.7333955,0.049105,1.1603804999999998,0.4863855,0.05419,1.2737005,0.7108655,0.015844,0.6913305000000001,0.9597255,0.00819,1.3346805,0.9520055,-0.0275349999999999,0.9267125,-0.0013304999999999,-0.003035,1.0732875,0.0013304999999999,0.003035,0.8823505,-0.4297445,0.009914,1.1264005,-0.4034645,-0.0166009999999999,0.8738505,-0.7933845,-0.006336,1.1348405,-0.7887145,-0.018686
186,1.0068895,0.7312835,0.0627875,0.8480395000000001,0.4867835,0.0588405,0.7329494999999999,0.7352034999999999,0.0512915,1.1603195,0.4859435,0.0557794999999999,1.2735895,0.7106835,0.0186985,0.6912695,0.9608435,0.0115045,1.3345595000000001,0.9537035,-0.0240825,0.9266975000000001,-0.0012174999999999,-0.0029385,1.0733024999999998,0.0012175,0.0029384999999999,0.8821395,-0.4294965,0.0114685,1.1266295,-0.4025065,-0.0148575,0.8734495000000001,-0.7929965000000001,-0.0053945,1.1346995,-0.7874165,-0.0167575
187,1.006867,0.7317060000000001,0.0645024999999999,0.84787,0.4869459999999999,0.0600194999999999,0.73247,0.737506,0.0533564999999999,1.16029,0.485656,0.0571644999999999,1.27355,0.7103360000000001,0.0211804999999999,0.6912499999999999,0.961876,0.0146204999999999,1.33454,0.955256,-0.0212415,0.926687,-0.001122,-0.0028485,1.073313,0.0011219999999999,0.0028484999999999,0.88197,-0.429224,0.0128304999999999,1.12682,-0.401554,-0.0134875,0.87317,-0.792604,-0.0046135,1.13465,-0.786284,-0.0149685
