sb224sc-HT22-VT27/4dt907/src/ml-research/a10/datafiles/kinect_good_preprocessed_A9_mediapipe/A8_kinect_mirrored.csv
FrameNo,nose_3d_x,nose_3d_y,nose_3d_z,left_shoulder_3d_x,left_shoulder_3d_y,left_shoulder_3d_z,left_elbow_3d_x,left_elbow_3d_y,left_elbow_3d_z,right_shoulder_3d_x,right_shoulder_3d_y,right_shoulder_3d_z,right_elbow_3d_x,right_elbow_3d_y,right_elbow_3d_z,left_wrist_3d_x,left_wrist_3d_y,left_wrist_3d_z,right_wrist_3d_x,right_wrist_3d_y,right_wrist_3d_z,left_hip_3d_x,left_hip_3d_y,left_hip_3d_z,right_hip_3d_x,right_hip_3d_y,right_hip_3d_z,left_knee_3d_x,left_knee_3d_y,left_knee_3d_z,right_knee_3d_x,right_knee_3d_y,right_knee_3d_z,left_ankle_3d_x,left_ankle_3d_y,left_ankle_3d_z,right_ankle_3d_x,right_ankle_3d_y,right_ankle_3d_z
51,1.0008205,0.7351125,0.070284,0.8515375000000001,0.4838924999999999,0.0552109999999999,0.7453375,0.7235325,0.0524339999999999,1.1504075,0.4994425,0.062875,1.2553475,0.7143324999999999,0.047417,0.7193375,0.9787725,0.028356,1.2972075,0.9810725,0.019018,0.9277975,-0.0010734999999999,-0.0029159999999999,1.0722025,0.0010734999999999,0.0029159999999999,0.8809875,-0.4435075,0.0117309999999999,1.1207975000000001,-0.4052375,-0.008723,0.8688375,-0.7918475,-0.016026,1.1264575,-0.7874575,-0.010109
52,1.0009825,0.735018,0.070141,0.8515785000000001,0.4838179999999999,0.055209,0.7462685,0.720588,0.052662,1.1506785,0.499468,0.062977,1.2554485,0.714088,0.04793,0.7191585,0.979158,0.02851,1.2975485,0.981358,0.019523,0.9278065,-0.0010729999999999,-0.0029169999999999,1.0721935,0.001073,0.0029169999999999,0.8809585,-0.4438419999999999,0.011874,1.1207985,-0.405582,-0.00862,0.8688285,-0.791842,-0.0159919999999999,1.1264685,-0.787672,-0.0094589999999999
53,1.0012325,0.734925,0.070065,0.8516005,0.4837249999999999,0.055207,0.7472605,0.717585,0.053065,1.1510205,0.499515,0.063124,1.2556005,0.712765,0.048402,0.7189905,0.979635,0.028884,1.2979405,0.981635,0.019969,0.9278215,-0.001065,-0.002918,1.0721785,0.0010649999999999,0.002918,0.8809804999999999,-0.444455,0.012041,1.1208505,-0.405945,-0.0085279999999999,0.8689105,-0.791865,-0.016002,1.1265005,-0.788115,-0.009092
54,1.001549,0.73489,0.0700175,0.851573,0.48368,0.0553105,0.7477130000000001,0.7159599999999999,0.0536965,1.151393,0.4995099999999999,0.0633425,1.255783,0.7126699999999999,0.0488045,0.718833,0.98024,0.0293675,1.298393,0.98184,0.0204645,0.927806,-0.001055,-0.0029435,1.072194,0.001055,0.0029435,0.881013,-0.44447,0.0121765,1.120923,-0.40591,-0.0085145,0.869003,-0.7918700000000001,-0.0160114999999999,1.126533,-0.78819,-0.0090854999999999
55,1.0019705,0.7348169999999999,0.0698054999999999,0.8515965,0.4836469999999999,0.0554335,0.7480365,0.714997,0.0542505,1.1518165,0.4994969999999999,0.0633955,1.2558665,0.711997,0.0490755,0.7187265,0.980837,0.0297815,1.2989264999999999,0.982137,0.0207265,0.9278035,-0.001051,-0.0029145,1.0721965,0.0010509999999999,0.0029145,0.8810965,-0.444573,0.0120925,1.1210865,-0.405883,-0.0086634999999999,0.8692465,-0.7918930000000001,-0.0162124999999999,1.1266465,-0.788293,-0.0092775
56,1.002441,0.7348169999999999,0.0694775,0.851591,0.4836469999999999,0.0556985,0.7484310000000001,0.7145469999999999,0.0548494999999999,1.152311,0.4994969999999999,0.0634135,1.256151,0.711997,0.0487605,0.7187610000000001,0.981337,0.0303335,1.299481,0.982137,0.0207695,0.9277970000000001,-0.001051,-0.0028815,1.072203,0.0010509999999999,0.0028814999999999,0.881181,-0.444573,0.0118064999999999,1.121281,-0.405883,-0.0089685,0.869531,-0.7918930000000001,-0.0165275,1.1267909999999999,-0.788293,-0.0095835
57,1.002989,0.734757,0.0693875,0.8515700000000002,0.4835969999999999,0.0564775,0.74871,0.714117,0.0553765,1.15284,0.4994969999999999,0.0635555,1.2565199999999999,0.711857,0.0486955,0.71888,0.981737,0.0313465,1.30005,0.982137,0.0208585,0.927781,-0.001051,-0.0028694999999999,1.072219,0.0010509999999999,0.0028695,0.8812800000000001,-0.444973,0.0112545,1.12149,-0.406013,-0.0095424999999999,0.86992,-0.791973,-0.0170224999999999,1.12694,-0.788293,-0.0101384999999999
58,1.0035575,0.7346795,0.0692295,0.8515195,0.4835595,0.0572335,0.7489995,0.7137995,0.0557845,1.1533495,0.4994995,0.0635935,1.2569195,0.7117095,0.0485305,0.7190195000000001,0.9821395,0.0322305,1.3006294999999999,0.9821395,0.0208505,0.9277685,-0.0010525,-0.0029224999999999,1.0722315,0.0010524999999999,0.0029225,0.8813795,-0.4454705,0.0105565,1.1217095,-0.4061405,-0.0102275,0.8702795,-0.7920605000000001,-0.0176855,1.1270795,-0.7888205,-0.0110865
59,1.0042225,0.734421,0.069216,0.8514585,0.483851,0.058053,0.7494585,0.713171,0.056295,1.1537885,0.4992709999999999,0.063706,1.2573385,0.7112609999999999,0.048487,0.7192585,0.982741,0.0333,1.3013185,0.982441,0.021002,0.9277405,-0.001065,-0.00298,1.0722595,0.0010649999999999,0.00298,0.8814485,-0.446039,0.00964,1.1218385,-0.406439,-0.0111279999999999,0.8705985,-0.792269,-0.018852,1.1272484999999999,-0.7895390000000001,-0.0124509999999999
60,1.0049134999999998,0.7342110000000001,0.0691315,0.8513865,0.484201,0.0589395,0.7499365,0.712531,0.0567395,1.1542265,0.499081,0.0636164999999999,1.2577665,0.710801,0.0481945,0.7195465000000001,0.983441,0.0342245,1.3020165000000001,0.982741,0.0210605,0.9276935,-0.0010799999999999,-0.0029685,1.0723065,0.00108,0.0029684999999999,0.8815665,-0.446539,0.0085925,1.1219765,-0.406629,-0.0121705,0.8709065,-0.792689,-0.0200795,1.1275065,-0.7901889999999999,-0.0138375
61,1.0055874999999999,0.7340555,0.0690275,0.8513405000000001,0.4845555,0.0596385,0.7503605,0.7119255,0.0570674999999999,1.1546905,0.4989155,0.0633305,1.2584005,0.7115955,0.0478245,0.7199205,0.9837555,0.0348025,1.3026605,0.9829555,0.0209545,0.9276575,-0.0011094999999999,-0.0029705,1.0723425,0.0011094999999999,0.0029705,0.8816905,-0.4470645,0.0073534999999999,1.1221105,-0.4068345,-0.0132925,0.8712405,-0.7931644999999999,-0.0213905,1.1277905,-0.7912144999999999,-0.0154425
62,1.0062505,0.7339180000000001,0.0688075,0.8513855,0.484888,0.0601985,0.7507355,0.711338,0.0571985,1.1551855,0.498758,0.0629484999999999,1.2588955,0.711688,0.0473165,0.7202554999999999,0.984178,0.0351185,1.3033555,0.983278,0.0207915,0.9276215,-0.001152,-0.0029794999999999,1.0723785,0.001152,0.0029794999999999,0.8818055,-0.447592,0.0056275,1.1221855,-0.407062,-0.0146395,0.8715355,-0.793612,-0.0230235,1.1280755,-0.792272,-0.0171704999999999
63,1.006827,0.733795,0.0684994999999999,0.8514120000000001,0.485195,0.0606625,0.7510220000000001,0.710785,0.0570615,1.155522,0.498575,0.0625235,1.259342,0.7117850000000001,0.0467405,0.7204820000000001,0.984515,0.0352505,1.303982,0.983615,0.0204834999999999,0.927605,-0.0011969999999999,-0.0030325,1.072395,0.001197,0.0030324999999999,0.881912,-0.448075,0.0037064999999999,1.122202,-0.407365,-0.0161145,0.871772,-0.7941549999999999,-0.0248545,1.128392,-0.793245,-0.0190035
64,1.00726,0.7336870000000001,0.06828,0.851394,0.485517,0.060947,0.751174,0.7110970000000001,0.056831,1.155684,0.4983169999999999,0.062141,1.259754,0.7117870000000001,0.046085,0.720574,0.984827,0.035247,1.3045239999999998,0.983927,0.020113,0.927589,-0.001239,-0.0030679999999999,1.072411,0.0012389999999999,0.003068,0.881924,-0.448573,0.0016649999999999,1.122084,-0.407723,-0.017684,0.8718640000000001,-0.794793,-0.026872,1.128614,-0.794103,-0.020793
65,1.0076265,0.7336590000000001,0.0679905,0.8514335,0.485879,0.0609685,0.7512935000000001,0.7115090000000001,0.0563815,1.1558035,0.498159,0.0616825,1.2603135,0.711829,0.0460514999999999,0.7205835,0.985239,0.0348865,1.3050335,0.984339,0.0196805,0.9275645,-0.001278,-0.0030165,1.0724355,0.001278,0.0030165,0.8819535000000001,-0.4489309999999999,-0.0006094999999999,1.1219435,-0.408011,-0.0193535,0.8719235000000001,-0.795281,-0.0291335,1.1288835,-0.794821,-0.0226525
66,1.007969,0.7336604999999999,0.067671,0.85151,0.4862204999999999,0.060726,0.75133,0.7119605,0.055822,1.15587,0.4980605,0.061302,1.26087,0.7119605,0.045966,0.72052,0.9853605,0.034315,1.30552,0.9846605,0.0191789999999999,0.927547,-0.0013195,-0.002985,1.072453,0.0013195,0.002985,0.88193,-0.4493395,-0.0030349999999999,1.12175,-0.4083695,-0.021124,0.8722,-0.7957995,-0.030599,1.1292,-0.7955695,-0.024577
67,1.0083704999999998,0.733595,0.0672625,0.8517205,0.486575,0.0603535,0.7504905,0.7128150000000001,0.0551045,1.1559504999999999,0.498005,0.0609134999999999,1.2615005,0.712145,0.0457145,0.7204205,0.985505,0.0334275,1.3060805,0.985005,0.0185415,0.9275445,-0.0013519999999999,-0.0029344999999999,1.0724555,0.0013519999999999,0.0029344999999999,0.8819005,-0.449645,-0.0057505,1.1214505,-0.409785,-0.0232425,0.8725505,-0.7963749999999999,-0.0323235,1.1295605,-0.796175,-0.0267635
68,1.0086644999999999,0.733587,0.066598,0.8518465,0.486547,0.059794,0.7495765000000001,0.713137,0.054071,1.1559065,0.498057,0.06036,1.2620265,0.711967,0.045245,0.7201165,0.985517,0.031934,1.3064165,0.985017,0.017531,0.9275695,-0.001347,-0.002885,1.0724305,0.001347,0.002885,0.8818465,-0.449863,-0.0084129999999999,1.1211665,-0.411263,-0.0253159999999999,0.8728465000000001,-0.796773,-0.0339029999999999,1.1298465,-0.7967329999999999,-0.028987
69,1.008883,0.7335425,0.0659059999999999,0.85199,0.4865025,0.058987,0.74868,0.7131525,0.0529309999999999,1.15585,0.4980725,0.059961,1.26251,0.7117325,0.0447439999999999,0.7196899999999999,0.9856125,0.030382,1.3067199999999999,0.9850125,0.016422,0.927606,-0.0013615,-0.002877,1.072394,0.0013615,0.0028769999999999,0.88175,-0.4501775,-0.011195,1.1209,-0.4127975,-0.027464,0.87283,-0.7975075,-0.0362409999999999,1.1301,-0.7972975,-0.031223
70,1.008829,0.7335435,0.0651565,0.8519010000000001,0.4864935,0.0581575,0.747421,0.7130535,0.0515334999999999,1.155561,0.4981635,0.0595995,1.262651,0.7113634999999999,0.0440785,0.718951,0.9856635,0.0287835,1.306741,0.9851635,0.0150375,0.927663,-0.0013655,-0.0028585,1.072337,0.0013654999999999,0.0028585,0.881541,-0.4501165,-0.0139505,1.120641,-0.4143365,-0.0297365,0.872841,-0.7978765,-0.0386525,1.130151,-0.7978065000000001,-0.0335245
71,1.0085525,0.733674,0.064371,0.8518465,0.486624,0.057286,0.7460964999999999,0.713234,0.050128,1.1552265,0.498294,0.059227,1.2626865,0.711494,0.043306,0.7180965,0.985594,0.027249,1.3066365,0.985494,0.013528,0.9276665,-0.0013739999999999,-0.0028079999999999,1.0723335,0.001374,0.0028079999999999,0.8813265000000001,-0.449986,-0.016442,1.1204665,-0.416106,-0.032002,0.8727665,-0.797936,-0.0407379999999999,1.1301565,-0.798206,-0.035967
72,1.0083834999999999,0.7339135,0.0634315,0.8516705,0.4868135,0.0561754999999999,0.7447605000000002,0.7133235,0.0485695,1.1549205,0.4985435,0.0586355,1.2627205,0.7117035,0.0422605,0.7172205,0.9856435,0.0254544999999999,1.3065205,0.9857435,0.0117825,0.9276635,-0.0013494999999999,-0.0028515,1.0723365,0.0013495,0.0028514999999999,0.8810905,-0.4497164999999999,-0.0191835,1.1203105,-0.4178265,-0.0344495,0.8727405,-0.7980265,-0.0433495,1.1301505,-0.7984565,-0.0386325
73,1.008276,0.733919,0.061996,0.851588,0.487029,0.054935,0.743498,0.713489,0.046636,1.154708,0.498829,0.057637,1.262768,0.7120190000000001,0.040673,0.715868,0.985559,0.022661,1.306318,0.986059,0.0096289999999999,0.9276570000000001,-0.001346,-0.002953,1.0723429999999998,0.001346,0.002953,0.8807580000000002,-0.449401,-0.02279,1.120098,-0.419781,-0.037632,0.872478,-0.798141,-0.046378,1.130288,-0.7986209999999999,-0.041936
74,1.0080725,0.733886,0.0603525,0.8514045,0.4870859999999999,0.0535855,0.7421445000000001,0.714086,0.0444325,1.1544045,0.499026,0.0564945,1.2626745,0.712426,0.0382575,0.7142845000000001,0.985666,0.0193215,1.3060645,0.986766,0.0072245,0.9276675,-0.0013729999999999,-0.0031515,1.0723325,0.0013729999999999,0.0031515,0.8802745,-0.448694,-0.0267495,1.1197645,-0.421244,-0.0412105,0.8721645,-0.797804,-0.0499485,1.1304345,-0.7984439999999999,-0.0456815
75,1.00786,0.733379,0.058631,0.8512770000000001,0.4870389999999999,0.052296,0.740857,0.714829,0.042019,1.154227,0.498839,0.055221,1.262587,0.7122090000000001,0.035699,0.712637,0.985769,0.015635,1.305817,0.986969,0.004397,0.927669,-0.001362,-0.003373,1.072331,0.001362,0.003373,0.879727,-0.447641,-0.031397,1.119537,-0.421741,-0.045475,0.871927,-0.7974209999999999,-0.053506,1.130607,-0.798051,-0.04976
76,1.0076159999999998,0.7327825,0.0567924999999999,0.851147,0.4866125,0.0508405,0.7404570000000001,0.7155725,0.0393064999999999,1.154007,0.4985225,0.0538615,1.262287,0.7112425,0.0330155,0.711017,0.9861625,0.0116775,1.305507,0.9869625,0.0010294999999999,0.927682,-0.0013544999999999,-0.0034725,1.072318,0.0013545,0.0034725,0.879117,-0.4461575,-0.0365194999999999,1.119397,-0.4208375,-0.0501565,0.871907,-0.7966275,-0.0571575,1.130757,-0.7972575000000001,-0.0541305
77,1.007345,0.732003,0.0549785,0.85102,0.486023,0.0491045,0.7400800000000001,0.7165229999999999,0.0365425,1.15375,0.498113,0.0524705,1.26193,0.710483,0.0301864999999999,0.70965,0.986473,0.0076625,1.30513,0.986973,-0.0026564999999999,0.927709,-0.0013149999999999,-0.0035914999999999,1.0722909999999999,0.001315,0.0035915,0.87842,-0.4443769999999999,-0.0418875,1.11927,-0.419827,-0.0550735,0.8719100000000001,-0.795597,-0.0607385,1.1307800000000001,-0.795987,-0.0585684999999999
78,1.0070679999999999,0.7310800000000001,0.0526895,0.8510759999999999,0.48522,0.0474225,0.7396659999999999,0.7175,0.0336385,1.153436,0.49777,0.0507555,1.2616559999999999,0.7098,0.0270865,0.708636,0.98709,0.0034885,1.304756,0.98709,-0.0068574999999999,0.9277029999999999,-0.0012319999999999,-0.0037294999999999,1.072297,0.001232,0.0037295,0.877646,-0.44204,-0.0478785,1.119296,-0.41791,-0.0609134999999999,0.871836,-0.7936799999999999,-0.0645595,1.1304159999999999,-0.7940699999999999,-0.0628895
79,1.0067244999999998,0.7301795000000001,0.0504975,0.8510655,0.4845695,0.0455465,0.7392055,0.7172995000000001,0.0306644999999999,1.1530055,0.4968795,0.0488515,1.2613955,0.7093995000000001,0.0236485,0.7074955,0.9881295,-0.0008824999999999,1.3042155,0.9873295,-0.0114925,0.9276515,-0.0011434999999999,-0.0038484999999999,1.0723485,0.0011435,0.0038484999999999,0.8766855,-0.4390905,-0.0544725,1.1193355,-0.4153705,-0.0670235,0.8715455,-0.7911205,-0.0687805,1.1299455,-0.7915304999999999,-0.0673435
80,1.006331,0.7290495,0.047832,0.850781,0.4839495,0.043151,0.7384110000000002,0.7168395,0.027233,1.152431,0.4958994999999999,0.046499,1.261101,0.7088495,0.019653,0.706161,0.9882095,-0.0060509999999999,1.303471,0.9875095,-0.0167,0.927611,-0.0010875,-0.0038269999999999,1.072389,0.0010874999999999,0.0038269999999999,0.875491,-0.4355505,-0.0620589999999999,1.119341,-0.4127305,-0.074072,0.871011,-0.7877405000000001,-0.073414,1.129401,-0.7881505,-0.072121
81,1.0060075,0.727416,0.0447735,0.8505215,0.4828559999999999,0.0404965,0.7374715000000001,0.716586,0.0226335,1.1519115,0.494436,0.0437805,1.2611314999999998,0.708066,0.0149655,0.7047815,0.989436,-0.0124895,1.3027115,0.987336,-0.0230415,0.9275265,-0.000917,-0.0037295,1.0724735,0.000917,0.0037295,0.8739915,-0.430774,-0.0718205,1.1197015,-0.409074,-0.0832545,0.8701015,-0.782414,-0.0785005,1.1289315,-0.782914,-0.0771525
82,1.0058125,0.7256675,0.0418715,0.8504345,0.4815875,0.0377955,0.7366745,0.7161375,0.0181525,1.1516045,0.4932074999999999,0.0413165,1.2612945,0.7075075000000001,0.0104715,0.7037545000000001,0.9904075,-0.0182195,1.3020045,0.9872075,-0.0290575,0.9273775,-0.0007785,-0.0035654999999999,1.0726225,0.0007785,0.0035655,0.8725745,-0.4252025,-0.0815005,1.1200845,-0.4044825,-0.0923824999999999,0.8693845,-0.7760225,-0.0832255,1.1283045,-0.7765725,-0.0817125
83,1.005652,0.7235094999999999,0.0385825,0.850555,0.4809395,0.0348085,0.7357549999999999,0.7157795,0.0131825,1.1513149999999999,0.4931895,0.0385235,1.261425,0.7063594999999999,0.0055984999999999,0.7026049999999999,0.9852795,-0.0252305,1.301175,0.9860795,-0.0357165,0.927231,-0.0005695,-0.0033945,1.072769,0.0005695,0.0033944999999999,0.870965,-0.4177305,-0.0927925,1.120745,-0.3978005,-0.1033615,0.868595,-0.7677105000000001,-0.0881775,1.127715,-0.7683605,-0.0864335
84,1.005447,0.721952,0.0351885,0.850545,0.479332,0.0317395,0.734885,0.716342,0.0081755,1.151155,0.492352,0.0357195,1.261625,0.706172,0.0006015,0.7015549999999999,0.981002,-0.0321535,1.300495,0.985922,-0.0423145,0.927055,-0.000382,-0.0031265,1.072945,0.000382,0.0031264999999999,0.869425,-0.409438,-0.1038724999999999,1.121375,-0.390218,-0.1139065,0.868175,-0.7586080000000001,-0.0932325,1.127175,-0.759138,-0.0909975
85,1.0052355,0.7202755,0.0320594999999999,0.8505845,0.4778155,0.0288594999999999,0.7340745,0.7147954999999999,0.0034994999999999,1.1509445,0.4916655,0.0330285,1.2618545,0.7063355,-0.0042565,0.7007145,0.9774655,-0.0387945,1.3000545,0.9860755,-0.0485825,0.9268495,-0.0002274999999999,-0.0028435,1.0731505,0.0002275,0.0028434999999999,0.8678445,-0.4008845,-0.1145505,1.1219945,-0.3818145,-0.1239475,0.8678045,-0.7490445,-0.0978075,1.1266345,-0.7495845000000001,-0.0951025
86,1.005053,0.71875,0.0287404999999999,0.8506130000000001,0.47657,0.0258935,0.7335230000000001,0.71365,-0.0011175,1.150663,0.49134,0.0303415,1.2620930000000001,0.70652,-0.0090905,0.699813,0.97469,-0.0454385,1.299613,0.98628,-0.0547295,0.9265740000000001,-9.200000000000008e-05,-0.0025885,1.073426,9.200000000000008e-05,0.0025885,0.866283,-0.39245,-0.1254655,1.122733,-0.37345,-0.1342775,0.867703,-0.73906,-0.1022525,1.125993,-0.73911,-0.0986035
87,1.004566,0.717254,0.0255745,0.850326,0.475454,0.0232954999999999,0.732836,0.712724,-0.0054995,1.150226,0.490774,0.0277904999999999,1.261386,0.706374,-0.0136535,0.6989460000000001,0.972174,-0.0519265,1.298796,0.982054,-0.0611015,0.92639,1.4000000000000123e-05,-0.0023164999999999,1.07361,-1.4000000000000123e-05,0.0023164999999999,0.8647460000000001,-0.383936,-0.1358965,1.123306,-0.365056,-0.1439635,0.867476,-0.729026,-0.1069535,1.125496,-0.728926,-0.1025085
88,1.004193,0.7156220000000001,0.022607,0.850223,0.474132,0.020815,0.7323030000000001,0.711982,-0.0097509999999999,1.149923,0.489902,0.025384,1.260933,0.706272,-0.017868,0.6983429999999999,0.968832,-0.058197,1.298693,0.978322,-0.067274,0.926228,7.700000000000068e-05,-0.0020809999999999,1.073772,-7.700000000000068e-05,0.0020809999999999,0.8635030000000001,-0.375608,-0.145972,1.124123,-0.356738,-0.153462,0.8674430000000001,-0.7185879999999999,-0.111325,1.125203,-0.718618,-0.106303
89,1.0039425,0.7143385,0.0200235,0.8502525,0.4730285,0.0185965,0.7318925000000001,0.7087285,-0.0135165,1.1496925,0.4886085,0.0232054999999999,1.2606225,0.7065085,-0.0216674999999999,0.6979025000000001,0.9654485,-0.0636055,1.2986625,0.9754585,-0.0729155,0.9261505,0.0002225,-0.0020545,1.0738495,-0.0002225,0.0020545,0.8623425,-0.3674015,-0.1555814999999999,1.1248624999999999,-0.3488615,-0.1623515,0.8675825,-0.7081514999999999,-0.1152705,1.1249525,-0.7082615,-0.1096534999999999
90,1.003898,0.7123635,0.0177524999999999,0.8502149999999999,0.4728035,0.0164944999999999,0.731595,0.7058235,-0.0161755,1.149495,0.4885435,0.0211335,1.260395,0.7026235,-0.0246715,0.6971149999999999,0.9541835,-0.0680485,1.298745,0.9713935,-0.0773205,0.926093,0.0002004999999999,-0.0019055,1.073907,-0.0002005,0.0019054999999999,0.861565,-0.3592765,-0.1631945,1.125405,-0.3425765,-0.1693645,0.8680550000000001,-0.6982165,-0.1187775,1.125545,-0.6983465,-0.1135955
91,1.003936,0.7111705,0.0153175,0.850109,0.4721505,0.0141775,0.731379,0.7038205000000001,-0.0189314999999999,1.149279,0.4876204999999999,0.0187155,1.259989,0.7005705,-0.0279254999999999,0.696549,0.9455605,-0.0726835,1.298789,0.9624305,-0.0828305,0.925951,0.0002995,-0.0017224999999999,1.074049,-0.0002995,0.0017225,0.860819,-0.3503895,-0.1709525,1.125819,-0.3348595,-0.1764725,0.868539,-0.6872094999999999,-0.1224244999999999,1.126189,-0.6871594999999999,-0.1177074999999999
92,1.0041719999999998,0.7105184999999999,0.0133935,0.850279,0.4706685,0.0122584999999999,0.731419,0.7020485,-0.0211385,1.149289,0.4857384999999999,0.0168065,1.259609,0.6997185,-0.0305505,0.696189,0.9437985,-0.0757055,1.299019,0.9550185,-0.0874485,0.925755,0.0003224999999999,-0.0015605,1.074245,-0.0003225,0.0015604999999999,0.860399,-0.3427015,-0.1769025,1.126069,-0.3279915,-0.1815324999999999,0.8693690000000001,-0.6776015000000001,-0.1253935,1.127159,-0.6773615000000001,-0.1212105
93,1.0042945,0.7097015,0.0115154999999999,0.8504955,0.4696614999999999,0.0103744999999999,0.7314155,0.6994615,-0.0233195,1.1491655,0.4851215,0.0149445,1.2587755,0.6987915,-0.0334175,0.6958755,0.9427015,-0.0786805,1.2990655,0.9488215,-0.0918945,0.9254785000000001,0.0003455,-0.0014105,1.0745215,-0.0003454999999999,0.0014104999999999,0.8599455,-0.3325585,-0.1828135,1.1263355,-0.3178485,-0.1866335,0.8701755,-0.6671785,-0.1280125,1.1280755,-0.6675085000000001,-0.1248595
94,1.0046125,0.7085385,0.009312,0.8507454999999999,0.4701785,0.0083379999999999,0.7314455,0.6986785,-0.0258499999999999,1.1489455,0.4856385,0.012897,1.2578955,0.6969384999999999,-0.036728,0.6958455,0.9418285,-0.082055,1.2991355,0.9440685,-0.096403,0.9251795,0.0003755,-0.0013309999999999,1.0748205,-0.0003755,0.0013309999999999,0.8595155,-0.3216215,-0.188967,1.1267355000000001,-0.3069115,-0.192147,0.8710555,-0.6560915,-0.13026,1.1288955,-0.6567015,-0.128523
95,1.0047979999999999,0.7090095,0.0027194999999999,0.8507,0.4730395,0.0018394999999999,0.73165,0.6997095,-0.0329085,1.14847,0.4842495,0.0056254999999999,1.25679,0.6963695,-0.0445565,0.6957,0.9424995,-0.0898705,1.2991,0.9418195,-0.1053885,0.924894,0.0004325,-0.0009995,1.075106,-0.0004324999999999,0.0009995,0.85895,-0.3086905,-0.1995914999999999,1.12694,-0.2939905,-0.2016815,0.8717699999999999,-0.6429805000000001,-0.1367955,1.12925,-0.6438605000000001,-0.1360945
96,1.0050115,0.710065,-0.003891,0.8507825,0.472355,-0.005219,0.7318925000000001,0.699995,-0.040303,1.1473925,0.482815,-0.002111,1.2564025,0.695905,-0.052354,0.6955125,0.943405,-0.097952,1.2992925,0.944915,-0.114032,0.9246735000000001,0.000465,-0.000573,1.0753264999999999,-0.0004649999999999,0.000573,0.8580425,-0.295905,-0.212868,1.1279225,-0.282375,-0.215408,0.8724425,-0.629205,-0.143436,1.1292525,-0.630365,-0.143499
97,1.0052565,0.71174,-0.010721,0.8508145,0.47227,-0.012159,0.7319245,0.6997500000000001,-0.047753,1.1463245,0.48283,-0.009801,1.2562445,0.6952400000000001,-0.060147,0.6952944999999999,0.94454,-0.106118,1.2992545,0.94704,-0.122783,0.9244955,0.0004899999999999,-8.800000000000474e-05,1.0755045,-0.0004899999999999,8.800000000000474e-05,0.8570945,-0.28327,-0.225892,1.1289445,-0.2711,-0.228942,0.8732145,-0.6155600000000001,-0.149742,1.1292045,-0.61711,-0.15105
98,1.0055175,0.7127100000000001,-0.0175199999999999,0.8508985,0.47274,-0.018979,0.7320185,0.70292,-0.055215,1.1452985,0.4829299999999999,-0.01756,1.2561585,0.6952400000000001,-0.06776,0.6952585,0.94748,-0.114198,1.2992985,0.94948,-0.130356,0.9243455,0.0004899999999999,0.0003829999999999,1.0756545,-0.0004899999999999,-0.0003829999999999,0.8560685,-0.2694499999999999,-0.238632,1.1301785,-0.2587399999999999,-0.242442,0.8740384999999999,-0.6013499999999999,-0.155709,1.1290885,-0.60326,-0.15809
99,1.006007,0.7138399999999999,-0.0240695,0.851105,0.47182,-0.0264605,0.732205,0.70516,-0.0626215,1.144225,0.4821,-0.0258895,1.2561149999999999,0.69906,-0.0756425,0.695755,0.95466,-0.1218335,1.2992949999999999,0.95343,-0.1376455,0.924208,0.00039,0.0008294999999999,1.075792,-0.00039,-0.0008294999999999,0.854545,-0.25159,-0.2523855,1.131605,-0.242,-0.2569755,0.874565,-0.58321,-0.1608585,1.129045,-0.5859500000000001,-0.1640595
100,1.0065449999999998,0.7147049999999999,-0.0302225,0.851272,0.471305,-0.0336405,0.732402,0.706845,-0.0695935,1.143172,0.481085,-0.0341965,1.2559420000000001,0.702075,-0.0834245,0.696122,0.958785,-0.1290825,1.299702,0.963145,-0.1436195,0.9241310000000001,0.000255,0.0012344999999999,1.075869,-0.000255,-0.0012344999999999,0.852962,-0.235125,-0.2656035,1.133062,-0.226725,-0.2711735,0.875012,-0.5663849999999999,-0.1655415,1.128852,-0.5698049999999999,-0.1695225
101,1.007221,0.715165,-0.0361614999999999,0.851415,0.471665,-0.0403684999999999,0.732155,0.708235,-0.0765425,1.142305,0.479285,-0.0421514999999999,1.255835,0.705225,-0.0913025,0.696745,0.962135,-0.1360115,1.300325,0.972575,-0.1495965,0.924078,0.000285,0.0016275,1.075922,-0.000285,-0.0016274999999999,0.851415,-0.219625,-0.2784185,1.134555,-0.211725,-0.2850085,0.875365,-0.549605,-0.1701705,1.1287449999999999,-0.553825,-0.1747584999999999
102,1.008007,0.715715,-0.0418365,0.851715,0.471965,-0.0468225,0.732085,0.710225,-0.0834665,1.141385,0.477905,-0.0497675,1.256705,0.708685,-0.0989585,0.6977450000000001,0.963045,-0.1428145,1.300975,0.981415,-0.1558975,0.924023,0.000295,0.0019845,1.075977,-0.0002949999999999,-0.0019845,0.849545,-0.204225,-0.2911655,1.135945,-0.196405,-0.2989055,0.875645,-0.532725,-0.1746355,1.127505,-0.537835,-0.1798165
103,1.0085005,0.71697,-0.047314,0.8519635,0.4715,-0.053093,0.7317735000000001,0.7135100000000001,-0.089819,1.1407734999999999,0.47579,-0.05715,1.2575135,0.71331,-0.10626,0.6984635,0.96327,-0.149003,1.3014535,0.98908,-0.162194,0.9238995,0.00029,0.002445,1.0761005,-0.0002899999999999,-0.002445,0.8477034999999999,-0.18871,-0.303495,1.1371835,-0.1813599999999999,-0.312395,0.8758735,-0.51639,-0.1787,1.1260535,-0.52244,-0.184537
104,1.0092804999999998,0.71696,-0.048891,0.8525055,0.46846,-0.05549,0.7318255,0.7143999999999999,-0.092317,1.1405254999999999,0.47538,-0.059838,1.2585754999999998,0.71658,-0.109657,0.6992655,0.96129,-0.150867,1.3021155,0.99419,-0.164574,0.9238055000000001,0.00023,0.0025,1.0761945,-0.00023,-0.0025,0.8460855,-0.17509,-0.31151,1.1386055,-0.16814,-0.32191,0.8761655,-0.50187,-0.17892,1.1247455,-0.5089,-0.185266
105,1.010163,0.716575,-0.050688,0.852894,0.469105,-0.057599,0.731914,0.7154849999999999,-0.094655,1.140304,0.475765,-0.062256,1.259954,0.720305,-0.1131679999999999,0.6994840000000001,0.957545,-0.152503,1.303754,0.992995,-0.1688029999999999,0.92374,8.500000000000174e-05,0.0023999999999999,1.07626,-8.500000000000174e-05,-0.0023999999999999,0.844954,-0.161585,-0.3167299999999999,1.139224,-0.155725,-0.32702,0.876434,-0.488495,-0.179397,1.123474,-0.496795,-0.186199
106,1.0111475,0.714205,-0.05222,0.8532955,0.469085,-0.059857,0.7319655,0.717085,-0.097165,1.1401055,0.474805,-0.064986,1.2616455,0.718305,-0.11668,0.6994755000000001,0.954115,-0.153983,1.3056554999999999,0.991545,-0.173026,0.9237165,7.499999999999174e-05,0.0023299999999999,1.0762835,-7.500000000004725e-05,-0.0023299999999999,0.8439255,-0.147285,-0.3218999999999999,1.1398255,-0.142175,-0.33231,0.8767255,-0.474615,-0.179729,1.1222254999999999,-0.4845750000000001,-0.186749
107,1.011958,0.712945,-0.053676,0.853715,0.467865,-0.062211,0.7318549999999999,0.718125,-0.09932,1.139785,0.474805,-0.067344,1.2634349999999999,0.716775,-0.120186,0.6992149999999999,0.950795,-0.155127,1.307545,0.990175,-0.177434,0.923679,-2.4999999999997247e-05,0.0024549999999999,1.076321,2.500000000005276e-05,-0.002455,0.842935,-0.132955,-0.326625,1.140135,-0.128405,-0.337055,0.8768050000000001,-0.4609649999999999,-0.179861,1.121015,-0.472525,-0.187137
108,1.01277,0.71227,-0.055646,0.85437,0.46753,-0.064282,0.73183,0.71727,-0.101923,1.14023,0.4740799999999999,-0.0695,1.26398,0.7170300000000001,-0.12362,0.69904,0.94841,-0.156881,1.3096700000000001,0.98601,-0.182309,0.923678,4.999999999999449e-05,0.0025699999999999,1.076322,-5.000000000005e-05,-0.00257,0.84259,-0.12444,-0.32984,1.1403,-0.12054,-0.34019,0.87713,-0.451,-0.180266,1.12025,-0.46289,-0.187936
109,1.0134035,0.711095,-0.057728,0.8548525,0.467375,-0.066167,0.7317024999999999,0.7162250000000001,-0.104482,1.1406325,0.474275,-0.071309,1.2641925,0.716405,-0.126673,0.6986924999999999,0.946685,-0.158718,1.3112525,0.980405,-0.187022,0.9236285,9.500000000001174e-05,0.0027249999999999,1.0763715,-9.499999999995624e-05,-0.002725,0.8421925,-0.1165149999999999,-0.332505,1.1402725,-0.1132949999999999,-0.342865,0.8773425,-0.4415949999999999,-0.181005,1.1192425,-0.453855,-0.188748
110,1.013853,0.71068,-0.059809,0.855247,0.46674,-0.067979,0.731437,0.71518,-0.106924,1.141057,0.47555,-0.07299,1.264197,0.71221,-0.129274,0.698187,0.94498,-0.160589,1.312497,0.97405,-0.191732,0.923569,-4.999999999999449e-05,0.0028899999999999,1.076431,4.999999999999449e-05,-0.00289,0.841687,-0.1087799999999999,-0.33496,1.140157,-0.1061499999999999,-0.34538,0.877457,-0.43226,-0.181591,1.118247,-0.44494,-0.189374
111,1.0141285,0.70977,-0.062178,0.8554075,0.46662,-0.069834,0.7310175,0.71286,-0.109309,1.1416075,0.4749299999999999,-0.07494,1.2644475,0.70584,-0.131757,0.6971775,0.94491,-0.162497,1.3136275,0.96696,-0.196101,0.9234275,-2.000000000002e-05,0.0030049999999999,1.0765725,2.000000000002e-05,-0.003005,0.8411375,-0.10097,-0.337125,1.1399575,-0.09871,-0.347785,0.8777175,-0.4233499999999999,-0.182472,1.1172275,-0.43621,-0.18962
112,1.0144025,0.707955,-0.0643489999999999,0.8554355000000001,0.466285,-0.07167,0.7305155,0.7095750000000001,-0.111646,1.1420355,0.474145,-0.07689,1.2641054999999999,0.699355,-0.13368,0.6964655,0.944285,-0.1641449999999999,1.3141954999999998,0.959705,-0.1996939999999999,0.9232975,-1.4999999999987246e-05,0.0031599999999999,1.0767025000000001,1.4999999999987246e-05,-0.0031599999999999,0.8405455,-0.0938249999999999,-0.33911,1.1395755,-0.092015,-0.34997,0.8779855,-0.415445,-0.183602,1.1161955,-0.4283849999999999,-0.189993
113,1.0146125,0.7061599999999999,-0.066312,0.8552775,0.4656399999999999,-0.073274,0.7301275,0.70685,-0.113618,1.1425275,0.4728699999999999,-0.078803,1.2638975000000001,0.6934199999999999,-0.135361,0.6958275,0.9445,-0.165776,1.3148275,0.95297,-0.205281,0.9231765,7.999999999996898e-05,0.00342,1.0768235,-8.00000000000245e-05,-0.00342,0.8400275,-0.08651,-0.34069,1.1389874999999998,-0.08503,-0.35197,0.8783275,-0.40785,-0.184162,1.1149874999999998,-0.42059,-0.19045
114,1.0147645,0.703835,-0.068388,0.8551915,0.465015,-0.075111,0.7298015,0.704115,-0.115608,1.1431615,0.470975,-0.081008,1.2638215,0.6880850000000001,-0.137397,0.6951615,0.946105,-0.167525,1.3147915000000001,0.952505,-0.208014,0.9230835,0.0002949999999999,0.0036299999999999,1.0769165,-0.0002949999999999,-0.0036299999999999,0.8398015,-0.0776949999999999,-0.34236,1.1383015,-0.0770449999999999,-0.35419,0.8787515,-0.399745,-0.185824,1.1134715,-0.4117349999999999,-0.1908949999999999
115,1.014705,0.7032400000000001,-0.070484,0.855293,0.464242,-0.076948,0.7294630000000001,0.70162,-0.117315,1.143473,0.46984,-0.082909,1.263603,0.68502,-0.139343,0.6944430000000001,0.94322,-0.16909,1.3144930000000001,0.94931,-0.210645,0.92295,0.0004,0.0038649999999999,1.07705,-0.0003999999999999,-0.003865,0.839533,-0.0686599999999999,-0.343825,1.137543,-0.0688999999999999,-0.356275,0.8796930000000001,-0.39237,-0.188276,1.112053,-0.40283,-0.191037
116,1.0147069999999998,0.7013750000000001,-0.0721769999999999,0.8551839999999999,0.464342,-0.078095,0.728884,0.698715,-0.119066,1.143664,0.468304,-0.084567,1.2634940000000001,0.6817850000000001,-0.140991,0.693594,0.940365,-0.170867,1.314244,0.946115,-0.212965,0.922762,0.000615,0.0040749999999999,1.077238,-0.0006149999999999,-0.0040749999999999,0.839404,-0.0594649999999999,-0.344955,1.136824,-0.0605549999999999,-0.358215,0.880444,-0.3852049999999999,-0.191344,1.110914,-0.393795,-0.190857
117,1.0146745,0.7001949999999999,-0.073391,0.8550255000000001,0.463248,-0.0788389999999999,0.7283355,0.698725,-0.120115,1.1438955,0.4673799999999999,-0.085392,1.2634154999999998,0.677925,-0.142152,0.6928755,0.939475,-0.172155,1.3140654999999999,0.946235,-0.214605,0.9224915,0.0006649999999999,0.0044249999999999,1.0775085,-0.000665,-0.0044249999999999,0.8393955000000001,-0.050715,-0.345705,1.1362455,-0.0523649999999999,-0.3597249999999999,0.8807855,-0.378325,-0.19526,1.1099455,-0.385155,-0.190356
118,1.0145979999999999,0.698955,-0.074165,0.854792,0.462426,-0.079603,0.727862,0.698615,-0.121291,1.143972,0.465735,-0.086227,1.263492,0.674345,-0.143283,0.692222,0.937535,-0.173499,1.313972,0.947475,-0.216135,0.9221320000000001,0.0007449999999999,0.004765,1.0778679999999998,-0.0007449999999999,-0.004765,0.8394820000000001,-0.041235,-0.346485,1.135702,-0.0433649999999999,-0.361085,0.8803920000000001,-0.371485,-0.199841,1.109142,-0.376185,-0.189857
119,1.0144199999999999,0.69687,-0.0749749999999999,0.8545340000000001,0.461448,-0.080408,0.727434,0.69891,-0.1225029999999999,1.144154,0.46322,-0.08706,1.263494,0.67186,-0.144393,0.691344,0.93523,-0.174813,1.314114,0.94663,-0.21835,0.9217990000000001,0.00087,0.00507,1.078201,-0.0008699999999999,-0.0050699999999999,0.839664,-0.03014,-0.34733,1.135014,-0.0327699999999999,-0.36223,0.879904,-0.36343,-0.2037359999999999,1.108444,-0.36593,-0.1894409999999999
120,1.0142005,0.69556,-0.075795,0.8542185,0.461006,-0.0808909999999999,0.7267585000000001,0.69939,-0.1235319999999999,1.1441985,0.462382,-0.0878979999999999,1.2632385,0.67099,-0.145641,0.6908385,0.93121,-0.1759029999999999,1.3143285,0.94569,-0.22053,0.9215085,0.0008799999999999,0.00538,1.0784915,-0.0008799999999999,-0.0053799999999999,0.8400785,-0.01899,-0.34813,1.1341485,-0.02198,-0.36322,0.8807885,-0.35556,-0.205399,1.1081085,-0.35556,-0.189869
121,1.0138975,0.693845,-0.076474,0.8539505000000001,0.45985,-0.080979,0.7263204999999999,0.700475,-0.124279,1.1443805,0.4608859999999999,-0.088632,1.2629105,0.670495,-0.146678,0.6904405,0.927785,-0.17671,1.3146105,0.945135,-0.222855,0.9212675,0.0009149999999999,0.0056449999999999,1.0787325,-0.0009149999999999,-0.0056449999999999,0.8405905000000001,-0.007035,-0.348765,1.1332205,-0.010375,-0.363935,0.8819005,-0.347035,-0.2067709999999999,1.1078005,-0.344235,-0.190624
122,1.0137305,0.69148,-0.0765809999999999,0.8538135,0.458985,-0.0807219999999999,0.7259435000000001,0.7012499999999999,-0.1248239999999999,1.1443835,0.459737,-0.0890799999999999,1.2633235,0.66987,-0.1477359999999999,0.6901735,0.92305,-0.177225,1.3150135,0.94445,-0.2250849999999999,0.9210325,0.0008299999999999,0.005835,1.0789675,-0.0008299999999999,-0.0058349999999999,0.8413335,0.0047099999999999,-0.349085,1.1322135,0.001,-0.364455,0.8829435,-0.33856,-0.2083149999999999,1.1076035,-0.33307,-0.1911939999999999
123,1.013731,0.68894,-0.076363,0.853835,0.45804,-0.080176,0.725625,0.70126,-0.125117,1.144395,0.458722,-0.088907,1.264475,0.6686799999999999,-0.1489,0.690075,0.91794,-0.177529,1.315555,0.94321,-0.227105,0.920823,0.0007199999999999,0.005915,1.079177,-0.0007199999999999,-0.005915,0.8420449999999999,0.01583,-0.348975,1.1312749999999998,0.0119199999999999,-0.364765,0.883745,-0.3302,-0.210255,1.108065,-0.32256,-0.191597
124,1.0139064999999998,0.68653,-0.075805,0.8541025,0.457674,-0.079361,0.7254125,0.6987,-0.124958,1.1447025,0.457399,-0.088456,1.2659325,0.67139,-0.150243,0.6900325,0.91611,-0.177477,1.3162825,0.93972,-0.22939,0.9205235,0.0007099999999999,0.0058399999999999,1.0794765,-0.0007099999999999,-0.00584,0.8428725,0.02733,-0.34859,1.1304325,0.0232899999999999,-0.36486,0.8844325000000001,-0.32096,-0.213664,1.1097825000000001,-0.31159,-0.193015
125,1.0138855,0.68485,-0.075047,0.8543345,0.456913,-0.078412,0.7249745000000001,0.69658,-0.124587,1.1449544999999999,0.455649,-0.087732,1.2667545,0.67303,-0.151087,0.6898945000000001,0.91332,-0.1770499999999999,1.3167545,0.93542,-0.231385,0.9203135,0.0006599999999999,0.0057949999999999,1.0796865,-0.0006599999999999,-0.0057949999999999,0.8434545,0.03761,-0.347945,1.1297045,0.0335699999999999,-0.364645,0.8844945,-0.31214,-0.215885,1.1116645,-0.30173,-0.194685
126,1.0137205,0.682565,-0.073981,0.8541955,0.457192,-0.076994,0.7244455000000001,0.693925,-0.123925,1.1452255,0.454274,-0.086891,1.2675655,0.6747650000000001,-0.151684,0.6896355000000001,0.910825,-0.176625,1.3170155000000001,0.931495,-0.23318,0.9200805,0.000585,0.0057899999999999,1.0799195,-0.000585,-0.00579,0.8439655,0.0477449999999999,-0.34723,1.1290455,0.0434749999999999,-0.36414,0.8841755,-0.303745,-0.21744,1.1140755,-0.292235,-0.197041
127,1.0134414999999999,0.6804,-0.072861,0.8538034999999999,0.4572429999999999,-0.0752029999999999,0.7240135000000001,0.69191,-0.1231889999999999,1.1454734999999998,0.453611,-0.0859149999999999,1.2682535,0.67679,-0.152306,0.6889635000000001,0.90998,-0.17656,1.3173835,0.92786,-0.23517,0.9197705,0.0003999999999999,0.0058,1.0802295,-0.0004,-0.0058,0.8445235,0.0579899999999999,-0.34634,1.1284334999999999,0.0534799999999999,-0.36307,0.8846835,-0.29297,-0.2145409999999999,1.1166135,-0.28259,-0.199666
128,1.0130675,0.6786,-0.071509,0.8533135000000001,0.457325,-0.073523,0.7238335,0.68948,-0.122019,1.1456735,0.45382,-0.084863,1.2689235,0.67729,-0.152919,0.6884635,0.91011,-0.176389,1.3175935,0.92691,-0.236,0.9197345000000001,0.0001299999999999,0.0056599999999999,1.0802654999999999,-0.0001299999999999,-0.0056599999999999,0.8448635000000001,0.06791,-0.34511,1.1277435,0.06306,-0.36152,0.8849535,-0.2846499999999999,-0.214421,1.1209735,-0.2748199999999999,-0.206012
129,1.0126799999999998,0.676385,-0.070092,0.852782,0.457277,-0.071742,0.7238720000000001,0.687445,-0.120406,1.145872,0.453605,-0.083714,1.269472,0.678135,-0.153229,0.6880120000000001,0.911175,-0.176063,1.317852,0.926155,-0.236585,0.919812,-0.0001149999999999,0.0053649999999999,1.080188,0.0001149999999999,-0.005365,0.845262,0.077255,-0.343625,1.127102,0.072105,-0.359815,0.885652,-0.2771949999999999,-0.213668,1.125432,-0.2675649999999999,-0.212288
130,1.0123595,0.67537,-0.068663,0.8523815000000001,0.457695,-0.069994,0.7239515000000001,0.68497,-0.118471,1.1461815,0.45416,-0.082458,1.2705115,0.6798299999999999,-0.153619,0.6876515000000001,0.91211,-0.17556,1.3183015,0.92508,-0.236945,0.9200095000000001,-0.00036,0.0049649999999999,1.0799904999999999,0.00036,-0.0049649999999999,0.8457315,0.08633,-0.3419149999999999,1.1265715,0.08078,-0.357835,0.8865015,-0.26879,-0.206229,1.1299415,-0.2603299999999999,-0.218415
131,1.012045,0.67459,-0.066939,0.8520989999999999,0.458113,-0.068098,0.724089,0.68148,-0.116129,1.146589,0.455081,-0.080945,1.271679,0.68127,-0.153763,0.687609,0.90864,-0.173897,1.318599,0.92321,-0.236925,0.920214,-0.0008,0.0044749999999999,1.079786,0.0008,-0.004475,0.846229,0.09542,-0.339875,1.1261489999999998,0.08921,-0.355655,0.887869,-0.26217,-0.199336,1.134719,-0.25332,-0.224335
132,1.0117355,0.674215,-0.065306,0.8519335,0.459021,-0.066062,0.7242435,0.6799350000000001,-0.1138749999999999,1.1469835,0.456102,-0.079328,1.2728635,0.6831550000000001,-0.15372,0.6874534999999999,0.906895,-0.172258,1.3190635,0.922135,-0.236765,0.9204655,-0.0010049999999999,0.0039249999999999,1.0795345,0.001005,-0.0039249999999999,0.8466735000000001,0.105455,-0.3372549999999999,1.1255735,0.098325,-0.352745,0.8894635000000001,-0.2544549999999999,-0.192033,1.1387435,-0.2457049999999999,-0.229235
133,1.011521,0.6734100000000001,-0.063683,0.851797,0.459546,-0.064035,0.724437,0.68037,-0.112208,1.147427,0.457589,-0.077689,1.274017,0.68413,-0.15362,0.687467,0.90693,-0.17072,1.319477,0.92657,-0.236255,0.920685,-0.0011999999999999,0.0033849999999999,1.079315,0.0011999999999999,-0.003385,0.847057,0.1149999999999999,-0.334405,1.1251769999999999,0.10698,-0.349635,0.891737,-0.24726,-0.184876,1.142007,-0.2385899999999999,-0.232635
134,1.011297,0.672625,-0.062153,0.851777,0.46,-0.062099,0.725117,0.680795,-0.11064,1.147797,0.459261,-0.0760629999999999,1.275077,0.684565,-0.153616,0.687477,0.906985,-0.169392,1.3197269999999999,0.930515,-0.23579,0.920867,-0.001395,0.00288,1.079133,0.001395,-0.0028799999999999,0.8473470000000001,0.124305,-0.33145,1.124757,0.115325,-0.34643,0.8930800000000001,-0.2404849999999999,-0.179035,1.145277,-0.2320949999999999,-0.23596
135,1.011184,0.672185,-0.061039,0.8520179999999999,0.4607009999999999,-0.060415,0.725838,0.681235,-0.109412,1.148228,0.460769,-0.074466,1.275988,0.6859649999999999,-0.153741,0.687538,0.906325,-0.168348,1.3198979999999998,0.933495,-0.23608,0.921019,-0.0014049999999999,0.0024199999999999,1.078981,0.0014049999999999,-0.00242,0.847638,0.1332249999999999,-0.32843,1.1242779999999999,0.1233349999999999,-0.34329,0.894051,-0.234535,-0.175715,1.149128,-0.226555,-0.23945
136,1.0112165,0.67196,-0.060082,0.8521515,0.4613199999999999,-0.058989,0.7259515000000001,0.68123,-0.108341,1.1486215,0.4620599999999999,-0.072976,1.2756015,0.68404,-0.152922,0.6873715,0.90693,-0.167852,1.3195815,0.93548,-0.23549,0.9213055,-0.00134,0.0020499999999999,1.0786945000000001,0.00134,-0.0020499999999999,0.8478615,0.1409699999999999,-0.32562,1.1236515,0.1306199999999999,-0.34037,0.8946075,-0.22982,-0.172835,1.1530015,-0.22203,-0.24323
137,1.0111945,0.67183,-0.0593489999999999,0.8521555000000001,0.46196,-0.0578169999999999,0.7259355000000001,0.68067,-0.107613,1.1490355,0.46298,-0.071793,1.2761255,0.68506,-0.1529829999999999,0.6871955000000001,0.90601,-0.1674739999999999,1.3196455,0.93704,-0.2360199999999999,0.9215105,-0.00119,0.00182,1.0784895,0.00119,-0.0018199999999999,0.8479455,0.1472,-0.3232,1.1231754999999999,0.1365799999999999,-0.3378299999999999,0.8953645000000001,-0.2263399999999999,-0.169588,1.1549455,-0.21779,-0.24352
138,1.011195,0.671749,-0.058653,0.8521810000000001,0.46237,-0.056815,0.726021,0.6800700000000001,-0.107085,1.149531,0.46338,-0.070719,1.275581,0.6857700000000001,-0.152115,0.6871510000000001,0.90493,-0.1671429999999999,1.319381,0.93823,-0.23555,0.921682,-0.0010599999999999,0.00159,1.0783179999999999,0.00106,-0.0015899999999999,0.848051,0.1528100000000001,-0.32096,1.1228609999999999,0.1419,-0.33543,0.8963760000000001,-0.2234599999999998,-0.166266,1.1570909999999999,-0.2140199999999998,-0.24391
139,1.0111614999999998,0.671616,-0.058157,0.8522315,0.462815,-0.055912,0.7262615,0.679325,-0.106704,1.1500314999999999,0.463475,-0.069773,1.2748815,0.685955,-0.151162,0.6872214999999999,0.903355,-0.1669479999999999,1.3191914999999999,0.938955,-0.235105,0.9218215,-0.0008749999999999,0.001445,1.0781785,0.0008749999999999,-0.001445,0.8481315,0.157615,-0.318975,1.1225714999999998,0.146525,-0.333285,0.8967655,-0.220535,-0.16605,1.1592915,-0.2109349999999999,-0.244405
140,1.0112655,0.671477,-0.057973,0.8524745,0.463385,-0.055163,0.7268844999999999,0.679419,-0.106538,1.1506645,0.463235,-0.06905,1.2753145,0.682185,-0.150638,0.6874845,0.905235,-0.167228,1.3197445,0.937765,-0.23549,0.9218554999999999,-0.000425,0.00139,1.0781445,0.000425,-0.00139,0.8484445,0.161685,-0.31736,1.1224145,0.150605,-0.33132,0.8972555000000001,-0.218315,-0.165995,1.1614345,-0.208165,-0.24505
141,1.0114805,0.671509,-0.0579469999999999,0.8528625,0.46349,-0.0546629999999999,0.7277025000000001,0.678367,-0.1064459999999999,1.1514025,0.46283,-0.0685329999999999,1.2757325,0.677242,-0.150188,0.6876825000000001,0.90612,-0.1676559999999999,1.3203925,0.93547,-0.23603,0.9218595,-0.0002199999999999,0.00138,1.0781405,0.0002199999999999,-0.0013799999999999,0.8487425,0.16406,-0.31627,1.1224524999999999,0.15323,-0.32997,0.8977145,-0.2173399999999999,-0.165984,1.1635825,-0.20704,-0.24602
142,1.0117675,0.6720539999999999,-0.057956,0.8533145,0.4635749999999999,-0.054313,0.7285545,0.6771989999999999,-0.106493,1.1520845,0.4622249999999999,-0.068176,1.2761045,0.671658,-0.14982,0.6878845,0.906275,-0.16834,1.3210845,0.933215,-0.23672,0.9218505,-6.500000000009276e-05,0.0013699999999999,1.0781495,6.499999999998174e-05,-0.00137,0.8490445,0.1655549999999999,-0.31562,1.1225044999999998,0.1548249999999999,-0.32903,0.8979025,-0.217145,-0.167928,1.1655445,-0.206635,-0.24694
143,1.01225,0.6723939999999999,-0.0580009999999999,0.853778,0.4637449999999999,-0.0542569999999999,0.729418,0.6763939999999999,-0.1065629999999999,1.152798,0.461425,-0.0679729999999999,1.276208,0.6651649999999999,-0.148536,0.6881280000000001,0.906745,-0.169756,1.321518,0.929025,-0.236735,0.921824,7.499999999993623e-05,0.001355,1.078176,-7.500000000004725e-05,-0.0013549999999999,0.849468,0.1667049999999999,-0.3152749999999999,1.122568,0.1560549999999999,-0.328365,0.898224,-0.217045,-0.170046,1.167548,-0.2065450000000001,-0.247885
144,1.012728,0.672439,-0.058109,0.854133,0.46379,-0.054314,0.7300329999999999,0.675766,-0.106692,1.153483,0.46043,-0.0679289999999999,1.276313,0.65894,-0.147232,0.688463,0.90693,-0.17082,1.321913,0.92461,-0.23674,0.921798,0.00012,0.00138,1.078202,-0.00012,-0.00138,0.8497129999999999,0.16681,-0.31533,1.1226029999999998,0.15632,-0.3281,0.898368,-0.21728,-0.172158,1.168933,-0.2068099999999999,-0.24875
145,1.013111,0.672521,-0.0584399999999999,0.854406,0.46379,-0.0543869999999999,0.730496,0.675766,-0.106871,1.153896,0.46043,-0.0680099999999999,1.274986,0.654766,-0.1455989999999999,0.688716,0.90766,-0.1719649999999999,1.322426,0.92144,-0.23696,0.921797,0.00012,0.00138,1.078203,-0.00012,-0.0013799999999999,0.849856,0.16682,-0.31539,1.122566,0.15633,-0.32815,0.8981560000000001,-0.21718,-0.1743859999999999,1.169266,-0.20706,-0.24935
146,1.0135424999999998,0.6729390000000001,-0.059009,0.8545175,0.46386,-0.054466,0.7305475,0.675639,-0.107579,1.1540975,0.46031,-0.068096,1.2748775,0.654496,-0.145664,0.6889875,0.90813,-0.173317,1.3228775,0.92117,-0.237935,0.9217725,0.0001999999999999,0.001375,1.0782275000000001,-0.0001999999999999,-0.001375,0.8498975,0.16655,-0.315465,1.1225874999999998,0.15606,-0.328225,0.8980475,-0.2169999999999999,-0.174451,1.1691575,-0.20733,-0.249415
147,1.0140174999999998,0.673679,-0.05969,0.8546455,0.463875,-0.054649,0.7306655,0.675574,-0.108447,1.1541455,0.460245,-0.068157,1.2756355,0.6545030000000001,-0.145991,0.6895155,0.909595,-0.1747179999999999,1.3232154999999999,0.921105,-0.23833,0.9217325,0.000265,0.0013499999999999,1.0782675,-0.0002649999999999,-0.00135,0.8500255,0.166485,-0.31562,1.1227755,0.155995,-0.3282899999999999,0.8979115,-0.2170649999999999,-0.175933,1.1691155,-0.207395,-0.24947
148,1.0141025,0.674059,-0.0607049999999999,0.8544855,0.463405,-0.0552219999999999,0.7307355,0.674896,-0.110113,1.1538555,0.459515,-0.06878,1.2760455,0.656012,-0.1474,0.6897655,0.912295,-0.177723,1.3232855,0.920015,-0.2386499999999999,0.9215504999999999,0.0001149999999999,0.00132,1.0784495,-0.0001149999999999,-0.00132,0.8498855000000001,0.165395,-0.31618,1.1228155,0.1547549999999999,-0.32892,0.8969765,-0.217605,-0.177327,1.1688555,-0.208485,-0.24956
149,1.0140339999999999,0.6741409999999999,-0.062724,0.854073,0.4619649999999999,-0.056477,0.7306630000000001,0.675025,-0.1131129999999999,1.153373,0.4585349999999999,-0.070246,1.275733,0.658589,-0.149485,0.689783,0.913765,-0.181409,1.323883,0.918295,-0.239735,0.921404,-1.5000000000098268e-05,0.001485,1.078596,1.4999999999987246e-05,-0.001485,0.849583,0.1616149999999999,-0.3177149999999999,1.1226829999999999,0.1510049999999999,-0.330775,0.8966570000000001,-0.2201550000000001,-0.177848,1.166173,-0.210245,-0.2475149999999999
150,1.0136475,0.673947,-0.0649859999999999,0.8536715000000001,0.4602199999999999,-0.0580869999999999,0.7304915000000001,0.6764899999999999,-0.116712,1.1528014999999998,0.4588799999999999,-0.072207,1.2742815,0.658497,-0.150372,0.6897715000000001,0.91504,-0.185414,1.3244315,0.91884,-0.241345,0.9212635,-0.0003199999999999,0.001725,1.0787365,0.0003199999999999,-0.0017249999999999,0.8492014999999999,0.1567499999999999,-0.319525,1.1224515,0.1462699999999999,-0.333125,0.8949785,-0.22347,-0.180705,1.1631715,-0.21271,-0.245445
151,1.013,0.674625,-0.0676,0.853208,0.458155,-0.060284,0.730208,0.679695,-0.1209939999999999,1.1519879999999998,0.459385,-0.07479,1.273798,0.665676,-0.154415,0.6899379999999999,0.916575,-0.189658,1.324878,0.923395,-0.2446749999999999,0.9211360000000001,-0.0006249999999999,0.0021349999999999,1.0788639999999998,0.0006249999999999,-0.0021349999999999,0.8487480000000001,0.150465,-0.321705,1.122118,0.140305,-0.336035,0.892448,-0.2277949999999999,-0.185786,1.1594479999999998,-0.2161949999999999,-0.2436149999999999
152,1.012446,0.675765,-0.070916,0.8529010000000001,0.454365,-0.0629339999999999,0.730131,0.681115,-0.125699,1.151131,0.459215,-0.07789,1.271671,0.665705,-0.157159,0.690431,0.918365,-0.194403,1.324681,0.925025,-0.24726,0.9212500000000001,-0.000835,0.0029799999999999,1.0787499999999999,0.000835,-0.0029799999999999,0.848361,0.141255,-0.32437,1.121961,0.131455,-0.33991,0.891657,-0.2334049999999999,-0.187475,1.153331,-0.2222549999999999,-0.23822
153,1.0119805,0.67815,-0.074316,0.8526475,0.4518999999999999,-0.066064,0.7301075,0.68411,-0.130723,1.1503275,0.4596869999999999,-0.081055,1.2707875,0.67075,-0.161756,0.6910974999999999,0.92084,-0.199433,1.3242675,0.93016,-0.25088,0.9215595,-0.0010299999999999,0.00389,1.0784405,0.0010299999999999,-0.00389,0.8479375,0.13071,-0.32715,1.1217475,0.1212099999999999,-0.34415,0.8909635,-0.23926,-0.1891189999999999,1.1470874999999998,-0.2296599999999999,-0.2323
154,1.0115315,0.679065,-0.07751,0.8524035,0.4490159999999999,-0.069203,0.7302435,0.686735,-0.135653,1.1494835,0.460576,-0.084242,1.2698735,0.6742049999999999,-0.165586,0.6918835,0.925535,-0.204725,1.3238535,0.933515,-0.254295,0.9218905,-0.001365,0.0048249999999999,1.0781095,0.0013649999999999,-0.0048249999999999,0.8475035,0.1187649999999999,-0.330035,1.1215535,0.109545,-0.348615,0.8899495,-0.245955,-0.190583,1.1406235,-0.238385,-0.226235
155,1.0109945,0.68233,-0.080907,0.8524655000000001,0.449114,-0.073063,0.7303955000000001,0.69078,-0.140424,1.1487355,0.463115,-0.087812,1.2696255,0.67961,-0.169913,0.6932955000000001,0.93037,-0.209987,1.3236455,0.93417,-0.25776,0.9219105,-0.0015899999999999,0.0056499999999999,1.0780895,0.0015899999999999,-0.00565,0.8472855,0.1043999999999999,-0.33255,1.1213355,0.09589,-0.35105,0.8877055000000001,-0.25554,-0.193443,1.1340755,-0.2501099999999999,-0.22065
156,1.0110299999999999,0.6859949999999999,-0.0841249999999999,0.852643,0.4509649999999999,-0.0765329999999999,0.730593,0.693645,-0.144616,1.147903,0.4658339999999999,-0.0902909999999999,1.268603,0.684655,-0.17214,0.694753,0.938705,-0.214686,1.323233,0.939255,-0.2609399999999999,0.921943,-0.0016249999999999,0.00614,1.078057,0.0016249999999999,-0.0061399999999999,0.847193,0.0886849999999999,-0.3338,1.121253,0.080175,-0.35231,0.885423,-0.266665,-0.195473,1.127223,-0.263525,-0.214851
157,1.0111284999999999,0.68957,-0.087059,0.8529615,0.4530559999999999,-0.079636,0.7310515,0.69781,-0.147802,1.1470415,0.467545,-0.092142,1.2678115,0.69101,-0.174843,0.6963515,0.94451,-0.21719,1.3227315,0.94544,-0.263955,0.9220035,-0.00133,0.006535,1.0779965,0.0013299999999999,-0.0065349999999999,0.8469815,0.0730599999999999,-0.334935,1.1212115,0.06455,-0.3534549999999999,0.8828515,-0.27764,-0.1970009999999999,1.1210915,-0.27677,-0.209117
158,1.0114755,0.692075,-0.087749,0.8534865,0.454187,-0.081478,0.7321365,0.699955,-0.148568,1.1465265,0.468249,-0.092645,1.2686865,0.691585,-0.175545,0.6982665,0.945705,-0.218057,1.3229165,0.946285,-0.26478,0.9221855,-0.0010949999999999,0.0063499999999999,1.0778145,0.001095,-0.00635,0.8467965,0.051495,-0.3351,1.1213465,0.043165,-0.35363,0.8809565,-0.2942749999999999,-0.197027,1.1176965,-0.2963449999999999,-0.204745
159,1.0118315,0.696245,-0.0881309999999999,0.8543405,0.45586,-0.082932,0.7333605000000001,0.702075,-0.148652,1.1461005,0.469167,-0.09262,1.2696304999999999,0.687435,-0.175611,0.7001605,0.949465,-0.218185,1.3225205,0.944655,-0.26476,0.9224785,-0.0006349999999999,0.00633,1.0775215,0.0006349999999999,-0.00633,0.8465605,0.0218949999999999,-0.3342699999999999,1.1212505,0.014705,-0.35268,0.8789605,-0.320015,-0.196173,1.1141804999999998,-0.324865,-0.200251
160,1.0121734999999998,0.699775,-0.088466,0.8551265,0.45858,-0.083972,0.7343265,0.702375,-0.148714,1.1461765,0.470445,-0.092622,1.2707465,0.687575,-0.175683,0.7017765,0.951325,-0.21829,1.3220465,0.947225,-0.26473,0.9229015,-0.0001349999999999,0.0063,1.0770985,0.0001349999999999,-0.0063,0.8464565,-0.0072349999999999,-0.33301,1.1213165,-0.0130649999999999,-0.35104,0.8774865000000001,-0.345325,-0.1943,1.1113465,-0.3527849999999999,-0.195794
161,1.0126845,0.703735,-0.088474,0.8562845,0.463831,-0.084901,0.7351845,0.7054549999999999,-0.148745,1.1465445,0.471631,-0.092621,1.2708145,0.691835,-0.174418,0.7032244999999999,0.955905,-0.21836,1.3208845,0.948085,-0.2646199999999999,0.9233745,0.000385,0.0062399999999999,1.0766255,-0.0003849999999999,-0.00624,0.8467245,-0.0370849999999999,-0.33025,1.1217645,-0.0411349999999999,-0.34782,0.8759145,-0.3745649999999999,-0.19417,1.1113644999999999,-0.383115,-0.195081
162,1.0134174999999999,0.7072750000000001,-0.0878569999999999,0.8572875,0.467965,-0.0843599999999999,0.7358075,0.707625,-0.147694,1.1468375,0.472865,-0.091759,1.2712075,0.696875,-0.172363,0.7045875000000001,0.959335,-0.217444,1.3196075,0.947565,-0.26315,0.9238055000000001,0.000805,0.0059999999999999,1.0761945,-0.000805,-0.0059999999999999,0.8471575,-0.0678349999999999,-0.32581,1.1222575,-0.0705549999999999,-0.34285,0.8765275,-0.4054749999999999,-0.189386,1.1115075,-0.416095,-0.193535
163,1.0141575,0.7110799999999999,-0.086239,0.8582635000000001,0.47272,-0.082908,0.7363235,0.7085,-0.145117,1.1471935,0.4747599999999999,-0.089733,1.2712335000000001,0.70077,-0.169109,0.7056935000000001,0.96028,-0.215197,1.3185335,0.95004,-0.259615,0.9241685,0.0013099999999999,0.0055849999999999,1.0758315,-0.0013099999999999,-0.005585,0.8475135,-0.09824,-0.320065,1.1227235,-0.09996,-0.336245,0.8764235,-0.4387899999999999,-0.185643,1.1117435,-0.4495499999999999,-0.191443
164,1.0145665,0.712195,-0.0837229999999999,0.8588435,0.474115,-0.080906,0.7366435,0.710395,-0.141369,1.1472134999999999,0.4745749999999999,-0.08696,1.2704535,0.702475,-0.164848,0.7058235000000002,0.961025,-0.211698,1.3178235,0.954025,-0.25495,0.9242165,0.0017449999999999,0.00486,1.0757835,-0.0017449999999999,-0.0048599999999999,0.8474935,-0.1258849999999999,-0.31308,1.1228135,-0.126585,-0.32799,0.8743735,-0.470085,-0.1835689999999999,1.1118335,-0.481035,-0.18857
165,1.0152475,0.714855,-0.0803349999999999,0.8595005,0.4747949999999999,-0.077801,0.7369405,0.7133050000000001,-0.1365569999999999,1.1475205,0.473995,-0.083094,1.2697105,0.703485,-0.159661,0.7060805,0.958725,-0.20687,1.3178505,0.955225,-0.248945,0.9242255,0.002035,0.004015,1.0757745,-0.002035,-0.0040149999999999,0.8477005,-0.152345,-0.304695,1.1229505,-0.152125,-0.318195,0.8733705,-0.5018750000000001,-0.179659,1.1119904999999999,-0.512295,-0.184952
166,1.01611,0.71754,-0.0765629999999999,0.860213,0.47531,-0.0743819999999999,0.7372529999999999,0.71448,-0.131465,1.148033,0.47473,-0.078703,1.270573,0.7035199999999999,-0.1539289999999999,0.7064429999999999,0.95575,-0.201021,1.3181029999999998,0.9555,-0.24258,0.924204,0.0021599999999999,0.00334,1.075796,-0.0021599999999999,-0.0033399999999999,0.848093,-0.17859,-0.29547,1.1231129999999998,-0.17747,-0.30745,0.873633,-0.53485,-0.175257,1.112173,-0.54425,-0.181039
167,1.0168819999999998,0.72149,-0.071349,0.860458,0.47803,-0.069465,0.7372879999999999,0.71749,-0.125035,1.147988,0.47687,-0.073303,1.2713379999999999,0.70079,-0.146768,0.706298,0.95836,-0.193795,1.3180779999999999,0.95758,-0.2355,0.924499,0.00238,0.0025499999999999,1.075501,-0.0023799999999999,-0.00255,0.848098,-0.1990299999999999,-0.28525,1.123148,-0.19838,-0.29717,0.872748,-0.56269,-0.170452,1.1120079999999999,-0.57165,-0.176773
168,1.0166629999999999,0.724925,-0.0659995,0.8602870000000001,0.480175,-0.0645905,0.737027,0.720045,-0.1182025,1.147687,0.478005,-0.0685615,1.272097,0.702955,-0.1397565,0.705627,0.959185,-0.1859985,1.317907,0.959845,-0.2276975,0.924606,0.002445,0.0018624999999999,1.075394,-0.002445,-0.0018625,0.847727,-0.210965,-0.2762775,1.122797,-0.211165,-0.2881575,0.871857,-0.580665,-0.1660005,1.111847,-0.5895250000000001,-0.1727485
169,1.0161019999999998,0.7277549999999999,-0.060326,0.859731,0.482475,-0.059297,0.736341,0.722145,-0.110972,1.1474609999999998,0.479815,-0.06343,1.272691,0.7052849999999999,-0.132433,0.7047210000000002,0.960005,-0.177681,1.317491,0.956975,-0.218855,0.9248830000000001,0.002465,0.0013249999999999,1.0751169999999999,-0.0024649999999999,-0.001325,0.847131,-0.2237349999999999,-0.266225,1.122121,-0.2247549999999999,-0.278125,0.8706510000000001,-0.5992550000000001,-0.160876,1.1114709999999999,-0.608115,-0.168128
170,1.0153745,0.7298600000000001,-0.0545655,0.8592525,0.48436,-0.0543445,0.7357325,0.7229800000000001,-0.1041555,1.1473425,0.4819799999999999,-0.0584555,1.2724425,0.7040700000000001,-0.1248555,0.7038424999999999,0.95836,-0.1697665,1.3169724999999999,0.95925,-0.2099484999999999,0.9258625,0.0023999999999999,0.0014605,1.0741375,-0.0023999999999999,-0.0014605,0.8467325,-0.23355,-0.2564585,1.1213324999999998,-0.23621,-0.2684585,0.8693825,-0.61461,-0.1548574999999999,1.1110025000000001,-0.6229899999999999,-0.1632425
171,1.0145955,0.7307554999999999,-0.0493615,0.8587545,0.4856555,-0.0499565,0.7349245,0.7242154999999999,-0.0980165,1.1472345,0.4831355,-0.0538935,1.2728845,0.7024155000000001,-0.1181765,0.7028745000000001,0.9580255,-0.1628215,1.3170145,0.9632555,-0.2022845,0.9267555,0.0024364999999999,0.0015344999999999,1.0732445,-0.0024365,-0.0015345,0.8465644999999999,-0.2415045,-0.2477045,1.1206845,-0.2453945,-0.2598045,0.8679545,-0.6266445,-0.1494825,1.1105845,-0.6343645,-0.1585995
172,1.013938,0.732578,-0.0449845,0.858033,0.486008,-0.0456325,0.734253,0.727278,-0.0921875,1.1472129999999998,0.4823579999999999,-0.0492475,1.273363,0.704568,-0.1113255,0.701873,0.957408,-0.1562505,1.317353,0.965048,-0.1957435,0.927499,0.002446,0.0016064999999999,1.072501,-0.002446,-0.0016064999999999,0.846523,-0.253192,-0.2387635,1.120053,-0.257022,-0.2511135,0.867123,-0.638332,-0.1442995,1.110263,-0.6460520000000001,-0.1538925
173,1.0133455,0.734212,-0.0399055,0.8574725,0.487822,-0.0407485,0.7336725,0.727152,-0.0860445,1.1471725,0.483842,-0.0440965,1.2736325,0.705092,-0.1045785,0.7002825000000001,0.958792,-0.1491715,1.3181825,0.967162,-0.1886025,0.9282785,0.00236,0.0018314999999999,1.0717215,-0.00236,-0.0018315,0.8464225,-0.266128,-0.2279625,1.1192324999999999,-0.269958,-0.2406025,0.8663625,-0.651268,-0.1385815,1.1097725,-0.658988,-0.1486755
174,1.0129715,0.732558,-0.0304435,0.8572655,0.4870279999999999,-0.0313585,0.7331355000000002,0.725178,-0.0753735,1.1472355,0.484178,-0.0345095,1.2741855,0.7062980000000001,-0.0937295,0.6987555000000001,0.957818,-0.1378565,1.3193455,0.965988,-0.1774125,0.9289155,0.002161,0.0019664999999999,1.0710845,-0.0021609999999999,-0.0019665,0.8466155,-0.279432,-0.2119925,1.1185855,-0.283262,-0.2253925,0.8654255000000001,-0.6648419999999999,-0.1283285,1.1094555,-0.6725819999999999,-0.1392785
175,1.01268,0.7333109999999999,-0.0210494999999999,0.857178,0.487481,-0.0223354999999999,0.732748,0.724281,-0.0647114999999999,1.148148,0.485501,-0.0253334999999999,1.274608,0.707341,-0.0833385,0.6971480000000001,0.959011,-0.1267285,1.320758,0.964691,-0.1659475,0.929443,0.002179,0.0017805,1.070557,-0.002179,-0.0017804999999999,0.847758,-0.294689,-0.1924774999999999,1.117128,-0.296489,-0.2067075,0.864548,-0.679439,-0.1176295,1.109238,-0.686729,-0.1290434999999999
176,1.012602,0.7341540000000001,-0.012559,0.8572640000000001,0.487664,-0.014189,0.7325740000000001,0.7238340000000001,-0.055152,1.149324,0.4866439999999999,-0.017,1.275314,0.710084,-0.074447,0.696094,0.960714,-0.116875,1.322384,0.965334,-0.155225,0.929657,0.0021089999999999,0.0015399999999999,1.070343,-0.0021089999999999,-0.00154,0.849134,-0.307966,-0.174315,1.115764,-0.307726,-0.189675,0.863714,-0.6920259999999999,-0.108036,1.109264,-0.6979759999999999,-0.119195
177,1.0127374999999998,0.733518,-0.0035695,0.8574405,0.488298,-0.0060455,0.7326205,0.724028,-0.0458805,1.1509805,0.487548,-0.0081115,1.2763005,0.712738,-0.0655145,0.6951205,0.961198,-0.1071365,1.3242005,0.965338,-0.1450385,0.9298085,0.001836,0.0014174999999999,1.0701915,-0.001836,-0.0014175,0.8509405,-0.3223519999999999,-0.1546585,1.1146305,-0.319802,-0.1720285,0.8633105,-0.704962,-0.0978335,1.1094005,-0.709742,-0.1090885
178,1.01308,0.7331390000000001,0.0050284999999999,0.857789,0.488139,0.0020164999999999,0.732819,0.7238690000000001,-0.0366585,1.152729,0.487649,0.0006055,1.277409,0.7109890000000001,-0.0566325,0.694339,0.961399,-0.0974965,1.326259,0.965629,-0.1352555,0.929742,0.001549,0.0012105,1.070258,-0.0015489999999999,-0.0012104999999999,0.853119,-0.336771,-0.1350555,1.113709,-0.331811,-0.1544255,0.862849,-0.717221,-0.0878745,1.109609,-0.7208009999999999,-0.0985385
179,1.0135895,0.7324615,0.0134635,0.8580635,0.4874315,0.0101875,0.7331235,0.7235815,-0.0277215,1.1546735,0.4881815,0.0091564999999999,1.2786534999999999,0.7103315,-0.0480354999999999,0.6937535,0.9618415,-0.0881095,1.3284734999999999,0.9611215,-0.1257085,0.9297455,0.0012255,0.0009184999999999,1.0702544999999999,-0.0012255,-0.0009184999999999,0.8556935,-0.3519485,-0.1158694999999999,1.1129535,-0.3440884999999999,-0.1368285,0.8625635,-0.7293085,-0.0775335,1.1099535,-0.7314885,-0.0884085
180,1.0139125,0.732141,0.0205759999999999,0.8582285000000001,0.487141,0.0176209999999999,0.7333784999999999,0.722561,-0.0188489999999999,1.1566085,0.4892509999999999,0.017005,1.2797185,0.709681,-0.040207,0.6930885,0.961571,-0.078819,1.3305785,0.956451,-0.116121,0.9298045,0.000845,0.000673,1.0701955,-0.0008449999999999,-0.000673,0.8584485,-0.367349,-0.096581,1.1123684999999999,-0.356129,-0.119001,0.8622084999999999,-0.741479,-0.067258,1.1102585,-0.7421289999999999,-0.077508
181,1.0140745,0.731751,0.0276109999999999,0.8582505,0.4876109999999999,0.024959,0.7335705,0.7210510000000001,-0.010208,1.1583605,0.491041,0.024401,1.2803205,0.7066410000000001,-0.032207,0.6924805,0.961711,-0.0696229999999999,1.3323005,0.951391,-0.106642,0.9298675,0.0005879999999999,0.0004149999999999,1.0701325,-0.000588,-0.000415,0.8613005,-0.382639,-0.077598,1.1119904999999999,-0.367899,-0.101172,0.8618405,-0.753539,-0.057328,1.1104604999999999,-0.7522690000000001,-0.066395
182,1.013988,0.7316514999999999,0.034028,0.85824,0.4868915,0.031784,0.7336,0.7200314999999999,-0.0022419999999999,1.15971,0.4914114999999999,0.031052,1.28072,0.7052715,-0.024835,0.69208,0.9595215,-0.0611489999999999,1.3334,0.9467115,-0.097778,0.929914,0.0003524999999999,6.20000000000002e-05,1.070086,-0.0003525,-6.199999999999999e-05,0.86378,-0.3962885,-0.060506,1.1117599999999999,-0.3778385,-0.084794,0.8615000000000002,-0.7636585,-0.048161,1.11056,-0.7603385,-0.055478
183,1.013525,0.7327684999999999,0.0353615,0.857694,0.4875785,0.0338885,0.733004,0.7207385,0.0010034999999999,1.160384,0.4932084999999999,0.0328755,1.280174,0.7045184999999999,-0.0221905,0.691194,0.9596685,-0.0574535,1.3337539999999999,0.9439085,-0.0937745,0.929867,0.0001724999999999,-0.0001585,1.070133,-0.0001725,0.0001584999999999,0.865714,-0.4081115,-0.0488964999999999,1.111154,-0.3856315,-0.0727935,0.860684,-0.7713515,-0.0439055,1.110194,-0.7660815,-0.0493885
184,1.0129409999999999,0.731884,0.0370115,0.857016,0.487344,0.0358895,0.732386,0.720544,0.0040025,1.160086,0.493044,0.0345015,1.279536,0.704384,-0.0195655,0.690426,0.958194,-0.0539045,1.333736,0.941914,-0.0899224999999999,0.929705,-7.900000000000268e-05,-0.0002385,1.070295,7.900000000000268e-05,0.0002385,0.866746,-0.413876,-0.0408945,1.110946,-0.391126,-0.0636534999999999,0.8597260000000001,-0.776816,-0.0405265,1.1097659999999998,-0.770616,-0.0428685
185,1.012187,0.7311375,0.0387939999999999,0.8559760000000001,0.4872974999999999,0.037925,0.731626,0.7199774999999999,0.007025,1.159476,0.4929175,0.036176,1.278766,0.7037975,-0.016765,0.6895560000000001,0.9564475,-0.0503819999999999,1.333436,0.9399575,-0.0857069999999999,0.929358,-0.0003035,-0.000217,1.070642,0.0003034999999999,0.000217,0.867606,-0.4192525,-0.032542,1.110626,-0.3964725,-0.053983,0.8587060000000001,-0.7821625,-0.037321,1.109196,-0.7756125,-0.036395
186,1.0116604999999999,0.7308945,0.0400574999999999,0.8551955,0.4870244999999999,0.0396075,0.7311255000000001,0.7186345,0.0094405,1.1589255,0.4931645,0.0371105,1.2783055,0.7030945,-0.0145024999999999,0.6889855,0.9552645,-0.0474875,1.3331255,0.9387245,-0.0816915,0.9288514999999999,-0.0002855,-0.0002664999999999,1.0711485,0.0002855,0.0002665,0.8683755,-0.4231755,-0.0255655,1.1105955,-0.4003555,-0.0452525,0.8581155,-0.7860455,-0.0349315,1.1089055,-0.7792155,-0.0304405
187,1.0109685,0.730807,0.041222,0.8545035,0.4866369999999999,0.040938,0.7303435,0.718117,0.0114659999999999,1.1582035,0.492847,0.037771,1.2775735,0.702937,-0.012574,0.6882535000000001,0.954437,-0.044953,1.3326535,0.938347,-0.077867,0.9287515000000001,-0.000235,-0.0004039999999999,1.0712484999999998,0.0002349999999999,0.0004039999999999,0.8686035,-0.425073,-0.019435,1.1108135,-0.401653,-0.037459,0.8569935000000001,-0.7882429999999999,-0.033125,1.1084334999999998,-0.778983,-0.025073
188,1.0103035,0.7309355000000001,0.0423645,0.8537494999999999,0.4863954999999999,0.0421355,0.7294995,0.7179955,0.0135225,1.1574995,0.4924755,0.0383535,1.2767294999999999,0.7028155,-0.0106144999999999,0.6875095,0.9536555,-0.0424775,1.3322695,0.9383455,-0.0738574999999999,0.9286205,-0.0002085,-0.0004674999999999,1.0713795,0.0002085,0.0004675,0.8686995,-0.4267745,-0.0137254999999999,1.1109995,-0.4027545,-0.0302904999999999,0.8559895000000001,-0.7894945,-0.0313625,1.1079695,-0.7784044999999999,-0.0197154999999999
189,1.009679,0.7312285000000001,0.043806,0.852875,0.4860184999999999,0.043521,0.7288050000000001,0.7182185000000001,0.0153109999999999,1.156795,0.4920785,0.0393919999999999,1.275685,0.7026185,-0.008646,0.6869149999999999,0.9532585,-0.040227,1.332115,0.9388985,-0.069998,0.928503,-0.0001215,-0.000557,1.071497,0.0001214999999999,0.0005569999999999,0.868625,-0.4271715,-0.008628,1.111255,-0.4031515,-0.023827,0.855185,-0.7898915,-0.029949,1.107485,-0.7781715,-0.015405
190,1.0090314999999999,0.731344,0.0452095,0.8520575,0.4859739999999999,0.0447025,0.7281175,0.719384,0.0168995,1.1559674999999998,0.492034,0.0404464999999999,1.2748275,0.702574,-0.0067195,0.6864475,0.953214,-0.0382545,1.3321175,0.939724,-0.0660865,0.9283935,-9.50000000000048e-05,-0.0006374999999999,1.0716065,9.499999999999786e-05,0.0006374999999999,0.8684875,-0.427216,-0.0042064999999999,1.1116775,-0.403196,-0.0182734999999999,0.8546475,-0.789936,-0.0283925,1.1071875,-0.7780959999999999,-0.0117195
191,1.008406,0.7313639999999999,0.046435,0.851332,0.4859739999999999,0.04574,0.727482,0.7202040000000001,0.018288,1.155152,0.492034,0.041193,1.274032,0.7025939999999999,-0.0049909999999999,0.6860120000000001,0.953214,-0.036557,1.332152,0.940514,-0.0623839999999999,0.928276,-9.50000000000048e-05,-0.0007759999999999,1.071724,9.499999999999786e-05,0.000776,0.8684419999999999,-0.427216,-0.0003969999999999,1.112162,-0.403196,-0.0136719999999999,0.854082,-0.789936,-0.02701,1.106972,-0.778076,-0.008552
192,1.007938,0.7313639999999999,0.047265,0.850765,0.4859739999999999,0.046407,0.727025,0.720534,0.019511,1.154355,0.491814,0.041705,1.273555,0.7025939999999999,-0.0028779999999999,0.6858150000000001,0.953214,-0.034418,1.3324449999999999,0.940954,-0.058756,0.928151,-9.50000000000048e-05,-0.0008669999999999,1.071849,9.499999999999786e-05,0.0008669999999999,0.868505,-0.427466,0.002522,1.112475,-0.403366,-0.0106039999999999,0.8535350000000002,-0.789976,-0.0262189999999999,1.106895,-0.7778959999999999,-0.0057949999999999
193,1.0074035,0.7313639999999999,0.0479259999999999,0.8502725,0.485654,0.0469389999999999,0.7260225,0.7205539999999999,0.0204859999999999,1.1536624999999998,0.491314,0.042102,1.2735425,0.702534,-0.001348,0.6855925,0.953114,-0.0327159999999999,1.3326925,0.940954,-0.056319,0.9281185,-9.50000000000048e-05,-0.0008669999999999,1.0718815,9.499999999999786e-05,0.0008669999999999,0.8685925,-0.427876,0.0047819999999999,1.1126025,-0.403566,-0.0090079999999999,0.8531625,-0.790176,-0.025128,1.1067925,-0.777566,-0.004784
194,1.00686,0.731405,0.048476,0.849919,0.4853849999999999,0.0473819999999999,0.7249690000000001,0.720645,0.0214079999999999,1.153229,0.490565,0.0426039999999999,1.273609,0.702345,-0.000244,0.6853290000000001,0.953005,-0.031412,1.332899,0.941045,-0.055071,0.928114,2.4000000000003185e-05,-0.000928,1.0718860000000001,-2.3999999999996247e-05,0.0009279999999999,0.868549,-0.428205,0.0063979999999999,1.112679,-0.403615,-0.008161,0.852919,-0.790565,-0.024051,1.106719,-0.777335,-0.003899
