sb224sc-HT22-VT27/4dt907/src/ml-research/a10/datafiles/kinect_good_preprocessed_A9_mediapipe/B15_kinect_mirrored.csv
FrameNo,nose_3d_x,nose_3d_y,nose_3d_z,left_shoulder_3d_x,left_shoulder_3d_y,left_shoulder_3d_z,left_elbow_3d_x,left_elbow_3d_y,left_elbow_3d_z,right_shoulder_3d_x,right_shoulder_3d_y,right_shoulder_3d_z,right_elbow_3d_x,right_elbow_3d_y,right_elbow_3d_z,left_wrist_3d_x,left_wrist_3d_y,left_wrist_3d_z,right_wrist_3d_x,right_wrist_3d_y,right_wrist_3d_z,left_hip_3d_x,left_hip_3d_y,left_hip_3d_z,right_hip_3d_x,right_hip_3d_y,right_hip_3d_z,left_knee_3d_x,left_knee_3d_y,left_knee_3d_z,right_knee_3d_x,right_knee_3d_y,right_knee_3d_z,left_ankle_3d_x,left_ankle_3d_y,left_ankle_3d_z,right_ankle_3d_x,right_ankle_3d_y,right_ankle_3d_z
111,1.0225135,0.704925,0.0293254999999999,0.8430905,0.5083949999999999,0.0162885,0.7315905,0.702695,-0.0285245,1.1710705,0.513855,-0.0079855,1.2932505,0.718945,-0.0791854999999999,0.6843805000000001,0.897945,-0.0456875,1.3617805,0.936615,-0.1062825,0.9257455,0.001298,0.0017285,1.0742545,-0.001298,-0.0017285,0.8860605,-0.373555,-0.0163745,1.1081205,-0.380075,-0.0511745,0.9062745,-0.715335,0.0457585,1.1128605,-0.735485,0.0175975
112,1.0230355,0.7034225,0.027233,0.8440645000000001,0.5076725,0.014424,0.7317245,0.7024225,-0.0315639999999999,1.1715645000000001,0.5132625,-0.009061,1.2932245,0.7169525,-0.082051,0.6851045,0.8969925,-0.049758,1.3616845,0.9343725,-0.110624,0.9254785000000001,0.0013545,0.0019089999999999,1.0745215,-0.0013545,-0.001909,0.8842145000000001,-0.3698775,-0.024509,1.1095345,-0.3765375,-0.059085,0.9066555000000001,-0.7115275,0.040519,1.1132944999999999,-0.7312275,0.013019
113,1.0235395,0.70197,0.02497,0.8451445,0.50722,0.01252,0.7319445,0.70253,-0.034781,1.1719045,0.51171,-0.010218,1.2931045,0.7152099999999999,-0.084974,0.6859445,0.89596,-0.054084,1.3616845,0.93233,-0.11503,0.9251645,0.001452,0.0020879999999999,1.0748355,-0.001452,-0.0020879999999999,0.8824545,-0.3656,-0.032721,1.1109245,-0.37232,-0.0670009999999999,0.9070755,-0.70664,0.035165,1.1137945,-0.7259300000000001,0.008354
114,1.0240805,0.70015,0.022765,0.8464025,0.5068600000000001,0.010466,0.7322225,0.7025800000000001,-0.038063,1.1722725,0.51026,-0.011359,1.2930025,0.7135100000000001,-0.0879139999999999,0.6869925,0.8949,-0.0585549999999999,1.3615724999999999,0.93066,-0.119408,0.9248295,0.00162,0.0022189999999999,1.0751705,-0.00162,-0.002219,0.8807325,-0.36127,-0.041229,1.1122725,-0.36747,-0.074543,0.9075934999999999,-0.7010099999999999,0.0298389999999999,1.1144325,-0.72003,0.0036639999999999
115,1.0246549999999999,0.6990765,0.0202229999999999,0.847775,0.5062865,0.00816,0.7326450000000001,0.7025865,-0.0414719999999999,1.172695,0.5090165,-0.012583,1.293085,0.7127865,-0.090992,0.6882550000000001,0.8940865,-0.063093,1.361375,0.9298365,-0.123696,0.924451,0.0016984999999999,0.002411,1.075549,-0.0016985,-0.002411,0.879315,-0.3558834999999999,-0.049766,1.113685,-0.3617634999999999,-0.082142,0.908057,-0.6946135,0.0243929999999999,1.115175,-0.7129035,-0.001166
116,1.025074,0.697754,0.0178745,0.849152,0.5054339999999999,0.0060375,0.732862,0.702804,-0.0451224999999999,1.1729020000000001,0.5075839999999999,-0.0136305,1.292882,0.7119139999999999,-0.0939505,0.6894020000000001,0.893304,-0.0676705,1.360862,0.929604,-0.1283725,0.924031,0.0019069999999999,0.0024385,1.075969,-0.001907,-0.0024385,0.877832,-0.350286,-0.0581025,1.114962,-0.3559159999999999,-0.0896635,0.9082830000000001,-0.6877960000000001,0.0191045,1.115862,-0.704936,-0.0059135
117,1.0253999999999999,0.696944,0.015331,0.85072,0.504654,0.003603,0.7331100000000002,0.702794,-0.0489,1.17289,0.505814,-0.015053,1.29265,0.7109340000000001,-0.096914,0.6905400000000002,0.891344,-0.072536,1.3608799999999999,0.935324,-0.132571,0.9236330000000001,0.0020829999999999,0.0024029999999999,1.0763669999999999,-0.002083,-0.002403,0.8765000000000001,-0.3443659999999999,-0.06629,1.11628,-0.3496959999999999,-0.097235,0.9084240000000001,-0.680276,0.0137939999999999,1.1166099999999999,-0.695986,-0.01074
118,1.0255985,0.6949639999999999,0.0128855,0.8522205,0.503964,0.0011055,0.7332105,0.7028139999999999,-0.0527125,1.1726605,0.5039939999999999,-0.0165195,1.2921705,0.7100639999999999,-0.0999355,0.6916105,0.889154,-0.0774665,1.3608205,0.940454,-0.1366244999999999,0.9232975,0.002189,0.0022985,1.0767025000000001,-0.002189,-0.0022984999999999,0.8750505000000001,-0.3390459999999999,-0.0744785,1.1174505,-0.3434959999999999,-0.1046875,0.9084025,-0.6723060000000001,0.0084785,1.1173005,-0.686516,-0.0156675
119,1.0256725,0.69415,0.0100475,0.8533255000000001,0.50229,-0.0018655,0.7332655,0.70307,-0.0566635,1.1723454999999998,0.50311,-0.0188175,1.2919855,0.71143,-0.1032355,0.6925955000000001,0.8870600000000001,-0.0827895,1.3607055,0.94171,-0.1406955,0.9230135,0.002204,0.0021595,1.0769865,-0.0022039999999999,-0.0021595,0.8738355,-0.3333199999999999,-0.0828055,1.1184455,-0.33681,-0.1122475,0.9083155,-0.6631199999999999,0.0030695,1.1181055,-0.67581,-0.0209805
120,1.0256939999999999,0.6931795000000001,0.0072575,0.8541440000000001,0.5016995,-0.0048865,0.7333339999999999,0.7029595000000001,-0.0606305,1.171924,0.5019395,-0.0211635,1.291834,0.7122795000000001,-0.1063025,0.6933739999999999,0.8884795,-0.0878065,1.360554,0.9422595,-0.1444295,0.922757,0.0023265,0.0020155,1.077243,-0.0023265,-0.0020155,0.8730440000000002,-0.3268704999999999,-0.0904465,1.119324,-0.3303505,-0.1196595,0.908235,-0.6535805,-0.0021394999999999,1.118834,-0.6647105,-0.0262345
121,1.0257085,0.6919025,0.0046354999999999,0.8546675,0.5009725,-0.0079145,0.7333875000000001,0.7025825,-0.0647195,1.1714674999999999,0.5002825,-0.0236695,1.2915075,0.7120124999999999,-0.1094835,0.6940075,0.8909325,-0.0927294999999999,1.3602275,0.9421925,-0.1481245,0.9224755,0.0023605,0.0018414999999999,1.0775245,-0.0023605,-0.0018415,0.8723275,-0.3211075,-0.0980525,1.1201375,-0.3241175,-0.1267345,0.9081235,-0.6444375,-0.0073795,1.1195275,-0.6538075,-0.0315415
122,1.0255725,0.690936,0.0017824999999999,0.8552435,0.500456,-0.0112275,0.7334635,0.701286,-0.0688795,1.1711735,0.498976,-0.0263155,1.2910935000000001,0.711256,-0.1130635,0.6945535,0.894436,-0.0977535,1.3597635000000001,0.941716,-0.1517975,0.9223125000000001,0.002415,0.0016884999999999,1.0776875,-0.002415,-0.0016884999999999,0.8717535,-0.315064,-0.1055654999999999,1.1209035,-0.317904,-0.1335675,0.9080005,-0.6352639999999999,-0.0127575,1.1201635,-0.642874,-0.0371435
123,1.025223,0.6891879999999999,-0.001549,0.855599,0.499078,-0.014781,0.7334890000000001,0.7002679999999999,-0.073532,1.170729,0.497928,-0.029422,1.290409,0.710628,-0.117227,0.6948290000000001,0.899378,-0.1030119999999999,1.359059,0.941958,-0.1560969999999999,0.922174,0.0024729999999999,0.0015019999999999,1.077826,-0.002473,-0.0015019999999999,0.871179,-0.308232,-0.1131539999999999,1.121479,-0.311382,-0.140557,0.907829,-0.6255219999999999,-0.018559,1.120589,-0.6311420000000001,-0.043023
124,1.0248345,0.686779,-0.0047339999999999,0.8559065,0.498039,-0.0182959999999999,0.7334465,0.698969,-0.078566,1.1703365,0.496429,-0.032594,1.2897465000000001,0.709469,-0.121165,0.6950765,0.905039,-0.108334,1.3582765,0.941869,-0.160393,0.9221604999999999,0.002558,0.001286,1.0778395,-0.0025579999999999,-0.0012859999999999,0.8705665,-0.301751,-0.120681,1.1219065,-0.305241,-0.1471029999999999,0.9076835,-0.615491,-0.0241569999999999,1.1209165,-0.619471,-0.0488099999999999
125,1.024407,0.6849265,-0.008453,0.85611,0.4964365,-0.022226,0.7333800000000001,0.6976765,-0.083854,1.1699,0.4946965,-0.036064,1.2888600000000001,0.7084565,-0.125275,0.69582,0.9036065,-0.114685,1.35701,0.9412965,-0.164904,0.922157,0.0025335,0.0012449999999999,1.077843,-0.0025334999999999,-0.001245,0.8700200000000001,-0.2910235,-0.128262,1.12224,-0.2950135,-0.153744,0.907591,-0.6046335,-0.029826,1.12101,-0.6072835000000001,-0.054526
126,1.0240055,0.6826949999999999,-0.012151,0.8564725,0.494205,-0.026296,0.7335725,0.6957049999999999,-0.089179,1.1696225,0.493565,-0.039637,1.2879625,0.706635,-0.12934,0.6964625,0.901905,-0.120965,1.3553925,0.934795,-0.170075,0.9221565,0.0024549999999999,0.0012689999999999,1.0778435,-0.0024549999999999,-0.0012689999999999,0.8694725,-0.280165,-0.135672,1.1224625,-0.284395,-0.160205,0.9075065000000001,-0.593635,-0.035299,1.1209525,-0.595155,-0.059817
127,1.0234075,0.6810700000000001,-0.0207855,0.8565645,0.49345,-0.0350925,0.7337345,0.69437,-0.0993415,1.1691845,0.49392,-0.0478834999999999,1.2867945,0.7052900000000001,-0.1381715,0.6971645,0.90121,-0.1320635,1.3536545,0.93033,-0.1801444999999999,0.9220855,0.00247,0.0012795,1.0779144999999999,-0.00247,-0.0012794999999999,0.8687745,-0.26753,-0.1475825,1.1225145,-0.27241,-0.1713245,0.9072235000000001,-0.58154,-0.0454715,1.1206945,-0.58212,-0.0697665
128,1.0229495,0.682585,-0.0311205,0.8567635,0.4925549999999999,-0.0453005,0.7343135000000001,0.6947650000000001,-0.1110705,1.1680535,0.491855,-0.0576745,1.2849635,0.703825,-0.1482415,0.6979635,0.904325,-0.1447034999999999,1.3521635,0.932005,-0.1919515,0.9220195,0.002475,0.0018325,1.0779805,-0.002475,-0.0018325,0.8666635,-0.2521449999999999,-0.1644115,1.1236035,-0.257165,-0.1864515,0.9070665,-0.566465,-0.0571695,1.1205535,-0.566715,-0.0809795
129,1.022462,0.6825749999999999,-0.0417024999999999,0.857411,0.490495,-0.0557715,0.734801,0.694145,-0.1232805,1.167011,0.490735,-0.0676715,1.283361,0.703025,-0.1582875,0.698801,0.905095,-0.1585415,1.350771,0.934065,-0.2038995,0.921919,0.002445,0.0021835,1.078081,-0.002445,-0.0021835,0.8648610000000001,-0.236235,-0.1816195,1.124831,-0.241175,-0.2018795,0.9069860000000001,-0.5504549999999999,-0.0689525,1.120291,-0.5508949999999999,-0.0922895
130,1.0220475,0.6824349999999999,-0.0524459999999999,0.8582435000000002,0.488935,-0.0665299999999999,0.7357535,0.693975,-0.135695,1.1659335,0.489175,-0.077777,1.2819335,0.7022349999999999,-0.168531,0.6998035,0.903865,-0.172744,1.3494234999999999,0.932515,-0.215867,0.9218215,0.002545,0.002466,1.0781785,-0.0025449999999999,-0.0024659999999999,0.8634035000000001,-0.2201849999999999,-0.198867,1.1262035,-0.224725,-0.217497,0.9070625,-0.533625,-0.080686,1.1200335,-0.5344949999999999,-0.103471
131,1.0218675,0.68241,-0.063116,0.8593824999999999,0.48668,-0.077593,0.7367125,0.6943900000000001,-0.148175,1.1648425,0.48809,-0.088125,1.2804825,0.70181,-0.178678,0.7008924999999999,0.90264,-0.187184,1.3482625,0.93275,-0.227774,0.9217525,0.0025999999999999,0.0027169999999999,1.0782475,-0.0025999999999999,-0.0027169999999999,0.8622624999999999,-0.20342,-0.216314,1.1276725,-0.20757,-0.233124,0.9072275,-0.51595,-0.0924369999999999,1.1196625,-0.51727,-0.114644
132,1.0215805,0.6834,-0.0732679999999999,0.8602675,0.48566,-0.0878529999999999,0.7375275,0.69454,-0.160461,1.1636675,0.48639,-0.0979979999999999,1.2789975,0.70073,-0.1883849999999999,0.7021075,0.89777,-0.2014829999999999,1.3469975,0.9318,-0.23873,0.9216615,0.00272,0.00292,1.0783385,-0.00272,-0.0029199999999999,0.8610175,-0.18732,-0.2329399999999999,1.1290075,-0.19157,-0.24808,0.9072105,-0.49857,-0.1035639999999999,1.1191375,-0.50037,-0.1253189999999999
133,1.0211735,0.684115,-0.08366,0.8610785,0.483765,-0.098276,0.7382885,0.694685,-0.1726059999999999,1.1625185,0.4852649999999999,-0.108016,1.2773184999999998,0.700045,-0.198174,0.7033685000000001,0.893435,-0.216021,1.3455085,0.929455,-0.250015,0.9216295,0.002665,0.003085,1.0783705,-0.002665,-0.0030849999999999,0.8596285000000001,-0.1703249999999999,-0.249415,1.1302085,-0.175065,-0.2630949999999999,0.9071345000000001,-0.480665,-0.114832,1.1184785,-0.483025,-0.136129
134,1.020869,0.68396,-0.0937039999999999,0.862097,0.48266,-0.1086569999999999,0.739217,0.69487,-0.184548,1.161287,0.48428,-0.1178369999999999,1.276157,0.6995,-0.207982,0.704607,0.89306,-0.22973,1.344457,0.92754,-0.2610599999999999,0.9215810000000001,0.0026499999999999,0.00318,1.0784189999999998,-0.00265,-0.0031799999999999,0.8584970000000001,-0.15364,-0.26548,1.131607,-0.15857,-0.27753,0.9071899999999999,-0.46304,-0.1258459999999999,1.117977,-0.46601,-0.146445
135,1.020311,0.6830050000000001,-0.103824,0.8627009999999999,0.480615,-0.118895,0.739661,0.694885,-0.196523,1.159881,0.483455,-0.127766,1.274651,0.700125,-0.217577,0.7058610000000001,0.8945150000000001,-0.24307,1.343271,0.929575,-0.2717199999999999,0.921543,0.0024049999999999,0.0031799999999999,1.078457,-0.0024049999999999,-0.0031799999999999,0.8572310000000001,-0.1349849999999999,-0.2817699999999999,1.1329509999999998,-0.140245,-0.29193,0.907231,-0.443825,-0.136836,1.117341,-0.4473749999999999,-0.156575
136,1.0198925,0.68265,-0.108666,0.8635005,0.4773699999999999,-0.124122,0.7401005,0.69444,-0.203619,1.1586005,0.48009,-0.13262,1.2734305,0.69995,-0.2217319999999999,0.7070505,0.89618,-0.251275,1.3422905,0.92982,-0.277095,0.9214535000000001,0.0022499999999999,0.0031549999999999,1.0785464999999999,-0.00225,-0.0031549999999999,0.8562505,-0.11612,-0.293105,1.1343504999999998,-0.1213,-0.301305,0.9074405000000001,-0.42464,-0.142783,1.1168905,-0.42865,-0.161349
137,1.0194795,0.6785650000000001,-0.111575,0.8643415,0.475385,-0.12721,0.7404215000000001,0.691755,-0.208484,1.1580415,0.478075,-0.135462,1.2728815,0.697655,-0.224705,0.7082315,0.8946350000000001,-0.257275,1.3414015,0.927885,-0.280405,0.9213875,0.002375,0.0027149999999999,1.0786125,-0.0023749999999999,-0.0027149999999999,0.8560615,-0.099725,-0.298455,1.1348815,-0.1045849999999999,-0.306025,0.9076365,-0.408385,-0.146528,1.1165515,-0.4125649999999999,-0.164092
138,1.0192854999999998,0.6756599999999999,-0.113954,0.8647665,0.47439,-0.129617,0.7409965000000001,0.69,-0.212354,1.1575065,0.47569,-0.13761,1.2725965000000001,0.69548,-0.227081,0.7094365,0.89441,-0.26205,1.3409864999999999,0.92588,-0.2827699999999999,0.9213445,0.00241,0.00247,1.0786555,-0.0024099999999999,-0.00247,0.8558665,-0.0838999999999999,-0.3027499999999999,1.1353564999999999,-0.08847,-0.30977,0.9078435,-0.3928699999999999,-0.149678,1.1164465,-0.3968199999999999,-0.166431
139,1.0190435,0.67351,-0.1156619999999999,0.8651395,0.47211,-0.131353,0.7413895000000001,0.68777,-0.2154889999999999,1.1570895,0.47417,-0.1392209999999999,1.2721594999999999,0.694,-0.2287799999999999,0.7105895,0.8951100000000001,-0.266275,1.3407795,0.92695,-0.284485,0.9213375,0.00239,0.0023249999999999,1.0786625,-0.00239,-0.0023249999999999,0.8556295,-0.0677599999999999,-0.306235,1.1358095,-0.07233,-0.312695,0.9080345000000001,-0.37731,-0.152133,1.1163695,-0.3810699999999999,-0.168096
140,1.018541,0.670275,-0.116615,0.8650320000000001,0.469595,-0.132785,0.741222,0.685125,-0.218003,1.156472,0.471935,-0.14012,1.272032,0.691665,-0.230005,0.711392,0.889695,-0.269805,1.340292,0.925665,-0.285685,0.921209,0.0023149999999999,0.002165,1.078791,-0.002315,-0.002165,0.855912,-0.056505,-0.308905,1.136012,-0.060975,-0.3148849999999999,0.907954,-0.363095,-0.153884,1.116032,-0.3666250000000001,-0.169007
141,1.018254,0.667695,-0.1174689999999999,0.8651390000000001,0.466265,-0.133796,0.741259,0.6822250000000001,-0.219811,1.156139,0.469915,-0.140717,1.271819,0.689765,-0.230611,0.7122590000000001,0.887965,-0.27253,1.339989,0.924165,-0.28667,0.9210389999999999,0.002095,0.0019399999999999,1.078961,-0.0020949999999999,-0.0019399999999999,0.856189,-0.044435,-0.31121,1.136489,-0.0491749999999999,-0.31684,0.908031,-0.3484849999999999,-0.155148,1.1159189999999999,-0.351955,-0.16951
142,1.0179075,0.6664300000000001,-0.117536,0.8651075000000001,0.465751,-0.134182,0.7415775,0.68162,-0.221244,1.1559375,0.469072,-0.14065,1.2717075,0.6890499999999999,-0.230929,0.7128175,0.88655,-0.274735,1.3395275,0.92226,-0.288055,0.9209335,0.0022199999999999,0.001945,1.0790665,-0.0022199999999999,-0.001945,0.8561475000000001,-0.0305399999999999,-0.312925,1.1369175,-0.0355999999999999,-0.318345,0.9079785000000001,-0.3324099999999999,-0.15584,1.1156875,-0.3358699999999999,-0.169338
143,1.017359,0.66505,-0.117779,0.864847,0.465226,-0.134541,0.741517,0.68083,-0.222666,1.155577,0.468739,-0.140502,1.271427,0.6878900000000001,-0.231844,0.712477,0.8873200000000001,-0.276705,1.338877,0.92012,-0.289385,0.920865,0.00209,0.001945,1.079135,-0.0020899999999999,-0.001945,0.855827,-0.0169199999999999,-0.314635,1.137027,-0.0223699999999999,-0.319825,0.90773,-0.3169599999999999,-0.15635,1.1153170000000001,-0.32045,-0.169139
144,1.016801,0.66391,-0.117826,0.864416,0.466041,-0.134736,0.741306,0.6807399999999999,-0.223896,1.155036,0.468651,-0.140546,1.270596,0.6845699999999999,-0.232718,0.7119660000000001,0.8866,-0.278855,1.338206,0.91819,-0.290945,0.920713,0.0020299999999999,0.0019549999999999,1.0792869999999999,-0.00203,-0.001955,0.855446,-0.00517,-0.315915,1.137026,-0.0107,-0.321125,0.907296,-0.3037500000000001,-0.156711,1.114936,-0.30729,-0.169064
145,1.016305,0.664125,-0.1173829999999999,0.863883,0.466681,-0.1341669999999999,0.741053,0.681485,-0.223906,1.154463,0.469,-0.1399519999999999,1.269743,0.684075,-0.2328339999999999,0.711433,0.8868050000000001,-0.2800899999999999,1.337493,0.917825,-0.2918699999999999,0.92071,0.002085,0.0019,1.07929,-0.002085,-0.0018999999999999,0.854973,0.007965,-0.3160499999999999,1.136933,0.0023849999999999,-0.3218,0.906865,-0.289195,-0.1560809999999999,1.114503,-0.2930149999999999,-0.1681299999999999
146,1.0158605,0.664,-0.116558,0.8633435,0.467713,-0.133042,0.7406335,0.6825300000000001,-0.223587,1.1538935,0.470595,-0.138919,1.2695735,0.68557,-0.232557,0.7109635000000001,0.88531,-0.280745,1.3368335,0.91648,-0.292415,0.9206745000000001,0.00198,0.001925,1.0793255,-0.0019799999999999,-0.001925,0.8545535,0.02032,-0.315785,1.1368435,0.01473,-0.321915,0.9065035,-0.2756499999999999,-0.155025,1.1141334999999999,-0.2796999999999999,-0.166761
147,1.015336,0.66379,-0.1154029999999999,0.862878,0.4675669999999999,-0.131546,0.739898,0.68282,-0.2226949999999999,1.153268,0.470867,-0.137617,1.269078,0.68578,-0.23179,0.710338,0.88358,-0.280405,1.336288,0.91439,-0.292675,0.92062,0.00195,0.002035,1.07938,-0.00195,-0.0020349999999999,0.854058,0.0318399999999999,-0.315015,1.136588,0.02615,-0.321565,0.9060980000000001,-0.26315,-0.153524,1.113678,-0.26746,-0.164932
148,1.0148244999999998,0.664805,-0.113221,0.8624445000000001,0.469929,-0.129096,0.7395345,0.685025,-0.220676,1.1527045,0.472329,-0.135372,1.2686145,0.687355,-0.23003,0.7097245,0.882465,-0.278595,1.3357044999999999,0.914345,-0.291835,0.9205715,0.001945,0.0022749999999999,1.0794285,-0.0019449999999999,-0.0022749999999999,0.8535845,0.044465,-0.312995,1.1364345,0.038555,-0.320115,0.9056985,-0.2498049999999999,-0.151076,1.1132944999999999,-0.2546349999999999,-0.162169
149,1.014348,0.665505,-0.110888,0.861856,0.472549,-0.126533,0.739116,0.687275,-0.21836,1.152156,0.4746889999999999,-0.133046,1.267576,0.687855,-0.228041,0.709096,0.8849149999999999,-0.27645,1.3350659999999999,0.913555,-0.29088,0.920624,0.0019849999999999,0.0024499999999999,1.079376,-0.001985,-0.00245,0.853066,0.0567149999999999,-0.31043,1.136346,0.0506549999999999,-0.31824,0.905305,-0.236915,-0.148521,1.112926,-0.2424049999999999,-0.159285
150,1.0138195,0.666085,-0.107859,0.8614125000000001,0.475564,-0.123383,0.7387625000000001,0.690165,-0.215689,1.1515525,0.476376,-0.130124,1.2667424999999999,0.688035,-0.225428,0.7084025,0.887825,-0.2737549999999999,1.3340825,0.913655,-0.289395,0.9206555,0.002085,0.0025749999999999,1.0793445,-0.002085,-0.0025749999999999,0.8525525,0.070095,-0.3072749999999999,1.1365825,0.063655,-0.315625,0.9049765,-0.2230149999999999,-0.145377,1.1126325,-0.229255,-0.155789
151,1.013337,0.665565,-0.1050479999999999,0.8609,0.476461,-0.1202849999999999,0.73804,0.691065,-0.2131429999999999,1.1510399999999998,0.476774,-0.1274189999999999,1.26599,0.686845,-0.2230579999999999,0.70767,0.8889549999999999,-0.27098,1.33311,0.915135,-0.2871,0.920629,0.0019449999999999,0.00267,1.079371,-0.0019449999999999,-0.0026699999999999,0.85206,0.0810549999999999,-0.30445,1.13699,0.0741649999999999,-0.3130699999999999,0.904785,-0.2115749999999999,-0.1420199999999999,1.11259,-0.218415,-0.152603
152,1.012734,0.6658850000000001,-0.102272,0.8602920000000001,0.477402,-0.117198,0.737222,0.691855,-0.210569,1.150482,0.477014,-0.124781,1.265212,0.6858850000000001,-0.220475,0.706712,0.8907050000000001,-0.26824,1.3320020000000001,0.915925,-0.28552,0.920726,0.001985,0.0028299999999999,1.079274,-0.001985,-0.0028299999999999,0.8514820000000001,0.091845,-0.30158,1.137352,0.084595,-0.31038,0.904571,-0.2001849999999999,-0.138649,1.112532,-0.2075249999999999,-0.149623
153,1.012292,0.6666599999999999,-0.099463,0.859816,0.4784329999999999,-0.114208,0.736286,0.6930999999999999,-0.208127,1.150086,0.4765829999999999,-0.12224,1.264486,0.6863499999999999,-0.218074,0.705816,0.8929699999999998,-0.2655349999999999,1.3308959999999999,0.91777,-0.2840249999999999,0.920879,0.0022799999999999,0.003085,1.079121,-0.00228,-0.003085,0.850916,0.1020499999999999,-0.2986649999999999,1.137926,0.0944799999999999,-0.307625,0.904543,-0.1893100000000001,-0.135347,1.112816,-0.1971300000000001,-0.146847
154,1.0118995,0.6652900000000002,-0.097486,0.8593895,0.478864,-0.111874,0.7353095000000001,0.69327,-0.206252,1.1498395,0.4762430000000001,-0.120365,1.2641395,0.6843400000000001,-0.216455,0.7049395,0.8926500000000002,-0.263605,1.3297394999999999,0.91743,-0.283235,0.9209185,0.00245,0.003275,1.0790815,-0.0024499999999999,-0.003275,0.8502995,0.1090800000000001,-0.296375,1.1385995,0.1013500000000001,-0.305595,0.9045645,-0.1813899999999999,-0.132719,1.1131895,-0.1894599999999998,-0.144389
155,1.011345,0.6643800000000001,-0.0956,0.858683,0.479816,-0.109436,0.7343729999999999,0.6937500000000001,-0.204111,1.1495630000000001,0.476414,-0.118475,1.263443,0.68281,-0.214798,0.704053,0.89347,-0.261685,1.3281830000000001,0.9172,-0.282535,0.9210500000000001,0.0022199999999999,0.0033949999999999,1.0789499999999999,-0.0022199999999999,-0.003395,0.849583,0.11642,-0.293465,1.139203,0.10844,-0.303635,0.904501,-0.1731999999999999,-0.130139,1.113303,-0.1815199999999999,-0.141948
156,1.0108705,0.664205,-0.093706,0.8581135,0.481611,-0.1068979999999999,0.7334235,0.6949850000000001,-0.202069,1.1492735,0.476938,-0.116479,1.2627935,0.682405,-0.213339,0.7031535,0.894545,-0.25958,1.3265435,0.917415,-0.28189,0.9213015,0.0020149999999999,0.00359,1.0786985,-0.0020149999999999,-0.0035899999999999,0.8489035,0.123965,-0.29007,1.1398234999999999,0.115795,-0.30159,0.9047235,-0.1642349999999999,-0.127174,1.1134435,-0.1733349999999999,-0.139492
157,1.0104719999999998,0.66252,-0.092671,0.857581,0.4816339999999999,-0.105236,0.732351,0.6944999999999999,-0.201077,1.149001,0.4765139999999999,-0.115389,1.262551,0.6808099999999999,-0.212859,0.702251,0.8953599999999999,-0.25835,1.3249710000000001,0.91595,-0.28211,0.921477,0.0017099999999999,0.00368,1.078523,-0.0017100000000001,-0.00368,0.848311,0.1295399999999999,-0.28745,1.140691,0.1211499999999999,-0.29981,0.905167,-0.1571800000000001,-0.124752,1.113591,-0.16718,-0.137947
158,1.0102,0.6619999999999999,-0.091664,0.8571520000000001,0.4821709999999999,-0.103603,0.7313419999999999,0.6945599999999998,-0.200093,1.148832,0.4762379999999999,-0.114294,1.262342,0.6813599999999999,-0.212525,0.7014120000000001,0.8978599999999999,-0.257225,1.3237320000000001,0.91581,-0.282535,0.921672,0.0014499999999999,0.0037949999999999,1.078328,-0.00145,-0.003795,0.847782,0.1354299999999998,-0.284675,1.1416520000000001,0.1269299999999998,-0.297715,0.905783,-0.1496900000000001,-0.122241,1.113712,-0.16058,-0.136385
159,1.0099179999999999,0.660653,-0.091333,0.856675,0.482751,-0.1027339999999999,0.730235,0.694355,-0.1998249999999999,1.1485649999999998,0.476553,-0.113788,1.262025,0.682035,-0.213006,0.700545,0.898325,-0.25675,1.322735,0.914655,-0.2834299999999999,0.921979,0.001175,0.0039399999999999,1.078021,-0.001175,-0.0039399999999999,0.8472649999999999,0.138955,-0.28251,1.1423549999999998,0.130535,-0.29621,0.9062300000000001,-0.1446849999999999,-0.120418,1.1136949999999999,-0.1563949999999999,-0.13538
160,1.0096685,0.659504,-0.091086,0.8562435000000002,0.48346,-0.102,0.7291635000000001,0.694215,-0.199658,1.1483435,0.476358,-0.113379,1.2619935,0.682195,-0.213486,0.6997935,0.8986149999999999,-0.25631,1.3218334999999999,0.912945,-0.28439,0.9222445,0.0009649999999999,0.00406,1.0777555,-0.0009649999999999,-0.0040599999999999,0.8468135,0.141735,-0.2805999999999999,1.1431035,0.133525,-0.29476,0.9066555000000001,-0.140425,-0.118998,1.1135234999999999,-0.152555,-0.134457
161,1.0094474999999998,0.658508,-0.090831,0.8558795,0.484374,-0.101277,0.7281495,0.694565,-0.199389,1.1481994999999998,0.475911,-0.112841,1.2617595,0.682555,-0.213533,0.6991995,0.898865,-0.25599,1.3209995,0.911725,-0.28482,0.9224825000000001,0.000885,0.0041899999999999,1.0775175,-0.000885,-0.00419,0.8463594999999999,0.144335,-0.27874,1.1439195,0.136305,-0.29335,0.9071285,-0.136595,-0.117547,1.1133495,-0.148985,-0.133429
162,1.0092965,0.657683,-0.090779,0.8555955,0.4854820000000001,-0.100671,0.7274955000000001,0.6949050000000001,-0.19938,1.1483455,0.476076,-0.1123019999999999,1.2619255,0.6833150000000001,-0.214138,0.6987955,0.899495,-0.25597,1.3202455,0.910965,-0.28518,0.9227125,0.000715,0.00433,1.0772875,-0.0007149999999999,-0.0043299999999999,0.8461355,0.147035,-0.27712,1.1447455,0.139015,-0.292,0.9075365,-0.1328649999999999,-0.116254,1.1131955,-0.1453549999999999,-0.1329779999999999
163,1.0092269999999999,0.6569900000000001,-0.090841,0.8553310000000001,0.4868920000000001,-0.1001799999999999,0.727031,0.6953050000000001,-0.199462,1.148621,0.4765850000000001,-0.111797,1.262121,0.6841450000000001,-0.21474,0.698501,0.900525,-0.256065,1.319641,0.910495,-0.285715,0.922932,0.000445,0.0044049999999999,1.077068,-0.0004449999999999,-0.0044049999999999,0.8460110000000001,0.1497150000000001,-0.275575,1.145511,0.1416150000000001,-0.290675,0.907873,-0.1293949999999999,-0.115081,1.113071,-0.1418749999999998,-0.132416
164,1.009365,0.6565179999999999,-0.0910079999999999,0.855275,0.4872999999999999,-0.1000129999999999,0.726765,0.695275,-0.199635,1.148895,0.4766849999999999,-0.111566,1.262425,0.6843049999999999,-0.215391,0.6984250000000001,0.900665,-0.256305,1.319425,0.909895,-0.286375,0.923018,0.000545,0.004455,1.076982,-0.000545,-0.004455,0.845985,0.1513149999999999,-0.274665,1.1464050000000001,0.143115,-0.289595,0.9083950000000001,-0.1271149999999999,-0.11399,1.113295,-0.1396549999999999,-0.132192
165,1.0096575,0.655984,-0.09123,0.8553085000000001,0.487836,-0.099923,0.7267085000000001,0.69527,-0.199923,1.1490785,0.47746,-0.111459,1.2627685,0.68405,-0.216052,0.6984385,0.9004700000000001,-0.256645,1.3193385,0.90931,-0.287105,0.9230775,0.00063,0.0044649999999999,1.0769225,-0.00063,-0.004465,0.8459985,0.15227,-0.274175,1.1473585,0.14396,-0.288835,0.9084355,-0.1261599999999999,-0.113757,1.1134385,-0.1382299999999999,-0.131809
166,1.010027,0.655917,-0.091175,0.8553430000000001,0.488131,-0.099853,0.7268330000000001,0.695565,-0.200101,1.149113,0.4777549999999999,-0.111389,1.262963,0.683565,-0.216666,0.698453,0.9000349999999999,-0.256955,1.319273,0.908735,-0.287895,0.92311,0.0007949999999999,0.0044949999999999,1.07689,-0.0007949999999999,-0.0044949999999999,0.846033,0.1525649999999999,-0.274075,1.1480730000000001,0.1442049999999999,-0.288375,0.90847,-0.125865,-0.113687,1.113483,-0.137735,-0.131673
167,1.0104745,0.655917,-0.091531,0.8556805000000001,0.488131,-0.099844,0.7269305000000001,0.695565,-0.200409,1.1492004999999998,0.4777549999999999,-0.111369,1.2630205,0.683565,-0.217231,0.6985705,0.9000349999999999,-0.257245,1.3192605,0.908735,-0.288615,0.9231955000000001,0.0007949999999999,0.0044649999999999,1.0768045,-0.0007949999999999,-0.004465,0.8461205,0.1525649999999999,-0.274055,1.1487305,0.1441549999999999,-0.288275,0.9085575,-0.125865,-0.113667,1.1135705,-0.137615,-0.131541
168,1.0108499999999998,0.655917,-0.092005,0.856027,0.488131,-0.099945,0.7270570000000001,0.695565,-0.200666,1.1492969999999998,0.4777549999999999,-0.111374,1.2630970000000001,0.683565,-0.217781,0.698877,0.9000349999999999,-0.25758,1.319267,0.908735,-0.28952,0.923292,0.0007949999999999,0.00446,1.076708,-0.0007949999999999,-0.00446,0.846177,0.1525949999999999,-0.27406,1.149217,0.1441549999999999,-0.2883,0.908505,-0.1260650000000001,-0.113665,1.113667,-0.137495,-0.131482
169,1.0110759999999999,0.655917,-0.092619,0.856326,0.4888359999999999,-0.100113,0.7271160000000001,0.695765,-0.200737,1.149256,0.4779349999999999,-0.11148,1.263096,0.683565,-0.218326,0.6992560000000001,0.9000349999999999,-0.257945,1.319186,0.908735,-0.290625,0.923313,0.0007949999999999,0.004485,1.076687,-0.0007949999999999,-0.004485,0.846176,0.1527449999999999,-0.274085,1.149486,0.1441749999999999,-0.288335,0.908206,-0.126375,-0.113985,1.1138359999999998,-0.137495,-0.13146
170,1.01118,0.656394,-0.093407,0.856626,0.489434,-0.100285,0.727266,0.696415,-0.20097,1.149076,0.478575,-0.111741,1.263016,0.683115,-0.218866,0.699606,0.899885,-0.25839,1.318986,0.908475,-0.29184,0.923323,0.000935,0.0044899999999999,1.076677,-0.000935,-0.00449,0.8460460000000001,0.152245,-0.27446,1.149626,0.143555,-0.28837,0.907643,-0.127445,-0.114616,1.114066,-0.1381649999999999,-0.131511
171,1.0112889999999999,0.658595,-0.094637,0.856917,0.489749,-0.100691,0.727687,0.6970350000000001,-0.201291,1.148997,0.478743,-0.112204,1.2624069999999998,0.684575,-0.2195889999999999,0.699927,0.899765,-0.258975,1.3186369999999998,0.911495,-0.293085,0.923323,0.001065,0.004445,1.076677,-0.0010649999999999,-0.004445,0.845917,0.150895,-0.275175,1.149607,0.142205,-0.288675,0.907073,-0.1291749999999999,-0.115433,1.114277,-0.1395149999999999,-0.131744
172,1.011301,0.660983,-0.0961449999999999,0.857195,0.489415,-0.1014199999999999,0.7282850000000001,0.697325,-0.2019289999999999,1.148835,0.478359,-0.112979,1.261445,0.685575,-0.2206509999999999,0.700175,0.899015,-0.25987,1.318155,0.914315,-0.29462,0.92338,0.001155,0.00433,1.07662,-0.001155,-0.0043299999999999,0.845825,0.148065,-0.2765999999999999,1.149505,0.139375,-0.28972,0.90638,-0.1324149999999999,-0.1166069999999999,1.114445,-0.1423649999999999,-0.132376
173,1.0111675,0.6630640000000001,-0.097902,0.8572585,0.489384,-0.102613,0.7288585000000001,0.6977800000000001,-0.202522,1.1483885,0.48081,-0.114513,1.2602484999999999,0.68881,-0.221865,0.7002085,0.89978,-0.260875,1.3174285000000001,0.91683,-0.295595,0.9234455,0.00112,0.0040649999999999,1.0765545,-0.0011199999999998,-0.0040649999999999,0.8454984999999999,0.14265,-0.279065,1.1491685,0.13403,-0.291645,0.9054795,-0.1384999999999999,-0.118223,1.1144785,-0.1478999999999999,-0.133196
174,1.010823,0.6637000000000001,-0.1007359999999999,0.857452,0.487435,-0.1052019999999999,0.7288320000000001,0.6961700000000001,-0.204419,1.147682,0.479966,-0.117073,1.259852,0.68892,-0.2244749999999999,0.699902,0.89906,-0.262545,1.316552,0.91693,-0.2983449999999999,0.923473,0.00102,0.003625,1.076527,-0.00102,-0.003625,0.845012,0.13304,-0.282605,1.148352,0.12457,-0.294295,0.904465,-0.1485999999999999,-0.1209129999999999,1.114392,-0.1574499999999999,-0.134978
175,1.0101580000000001,0.66622,-0.103832,0.857312,0.486003,-0.108083,0.728682,0.69559,-0.206533,1.1466020000000001,0.479034,-0.119838,1.258952,0.68948,-0.2276,0.6992320000000001,0.90049,-0.2643999999999999,1.315322,0.9195,-0.3013,0.923351,0.00092,0.00317,1.076649,-0.00092,-0.00317,0.8442419999999999,0.1228,-0.28635,1.146952,0.11467,-0.29712,0.903194,-0.1592099999999999,-0.123897,1.113882,-0.1674799999999999,-0.136831
176,1.009479,0.66909,-0.107399,0.856835,0.483324,-0.111494,0.7282850000000001,0.69434,-0.209214,1.145615,0.476725,-0.123119,1.257695,0.6894,-0.231135,0.6985250000000001,0.90112,-0.267085,1.314065,0.92158,-0.304675,0.923183,0.00101,0.003055,1.076817,-0.0010099999999999,-0.003055,0.843985,0.11058,-0.290275,1.145465,0.10254,-0.300375,0.9019420000000001,-0.1722099999999999,-0.127383,1.113195,-0.1798199999999999,-0.139148
177,1.008697,0.66876,-0.110872,0.856221,0.480593,-0.115356,0.728291,0.6920299999999999,-0.211775,1.144531,0.4754339999999999,-0.126939,1.255961,0.68909,-0.23456,0.697721,0.90204,-0.27003,1.312671,0.92148,-0.30739,0.923021,0.0009099999999999,0.00259,1.076979,-0.00091,-0.00259,0.843641,0.0927599999999999,-0.29435,1.143501,0.0846499999999999,-0.30342,0.901002,-0.19078,-0.130798,1.112401,-0.19807,-0.141733
178,1.007997,0.6695949999999999,-0.114297,0.855835,0.478446,-0.119119,0.727635,0.6904349999999999,-0.214504,1.143595,0.475207,-0.130548,1.254145,0.689985,-0.237955,0.6972050000000001,0.902745,-0.272585,1.311505,0.923425,-0.310555,0.922682,0.000765,0.0021249999999999,1.077318,-0.000765,-0.002125,0.843675,0.0743649999999999,-0.297685,1.141625,0.0663049999999999,-0.305835,0.900284,-0.209875,-0.133915,1.1117650000000001,-0.216965,-0.144127
179,1.007333,0.6700200000000001,-0.116875,0.8554220000000001,0.475831,-0.122494,0.727282,0.68785,-0.216828,1.142692,0.474269,-0.133909,1.252472,0.68989,-0.241145,0.696592,0.90155,-0.274865,1.310412,0.92281,-0.312755,0.922349,0.00062,0.001695,1.077651,-0.00062,-0.001695,0.8439719999999999,0.05312,-0.300455,1.139712,0.0453399999999999,-0.307815,0.899701,-0.2317199999999999,-0.136421,1.111162,-0.23861,-0.145806
180,1.0068935,0.668825,-0.118527,0.8552915,0.473048,-0.125311,0.7269615,0.685625,-0.218477,1.1420415,0.47489,-0.136628,1.2510715000000001,0.687145,-0.243235,0.6960615,0.899375,-0.276365,1.3093314999999999,0.920535,-0.314355,0.9220855,0.000165,0.0014049999999999,1.0779144999999999,-0.0001649999999999,-0.001405,0.8445815,0.030655,-0.302205,1.1380914999999998,0.023025,-0.309205,0.8993695,-0.255255,-0.138332,1.1106715,-0.261945,-0.14679
181,1.0064155,0.6682600000000001,-0.119222,0.8549625,0.473444,-0.127664,0.7269225,0.68424,-0.219056,1.1412325,0.474618,-0.138564,1.2495725,0.68727,-0.244395,0.6953425,0.89645,-0.277045,1.3081825,0.91979,-0.315025,0.9218485,0.0003199999999999,0.0011649999999999,1.0781515,-0.0003199999999999,-0.0011649999999999,0.8453425,0.00752,-0.302955,1.1363325,0.00029,-0.309845,0.8989675,-0.2799,-0.139531,1.1099725,-0.28648,-0.146957
182,1.0061635,0.66866,-0.119747,0.8548685,0.4719449999999999,-0.129151,0.7266785,0.6828099999999999,-0.219488,1.1407985,0.472182,-0.139506,1.2490885,0.68487,-0.2451,0.6946585000000001,0.89706,-0.27691,1.3076385,0.92023,-0.31525,0.9217265,0.0002299999999999,0.0012599999999999,1.0782734999999999,-0.00023,-0.00126,0.8464585,-0.01467,-0.30318,1.1349084999999999,-0.02135,-0.30965,0.8988955,-0.30425,-0.139943,1.1095184999999999,-0.31083,-0.146596
183,1.0058135,0.6715099999999999,-0.119733,0.8545695,0.47322,-0.130183,0.7266495,0.68399,-0.219473,1.1401595,0.4725549999999999,-0.140325,1.2491895,0.68564,-0.24532,0.6937295,0.89808,-0.2765,1.3069295,0.92302,-0.31503,0.9215175,0.0004899999999999,0.0012699999999999,1.0784825,-0.00049,-0.00127,0.8476695,-0.03452,-0.30324,1.1337995,-0.04079,-0.30905,0.8986995000000001,-0.32718,-0.14019,1.1089395,-0.33376,-0.146124
184,1.005506,0.67256,-0.119718,0.85442,0.47336,-0.131172,0.72575,0.68434,-0.219927,1.14006,0.47315,-0.141145,1.24904,0.68614,-0.245315,0.6929700000000001,0.89646,-0.276205,1.30649,0.92367,-0.315145,0.9214390000000001,0.0005399999999999,0.0012749999999999,1.0785609999999999,-0.0005399999999999,-0.0012749999999999,0.84903,-0.0556099999999999,-0.302945,1.13309,-0.0615499999999999,-0.307745,0.898438,-0.35245,-0.140336,1.1086699999999998,-0.35884,-0.146209
185,1.0051615,0.6750700000000001,-0.119492,0.8543265000000001,0.47561,-0.132122,0.7251365000000001,0.68499,-0.220232,1.1400165,0.47547,-0.141863,1.2487965,0.68773,-0.245205,0.6922665,0.89544,-0.275575,1.3060765,0.92519,-0.314485,0.9213285,0.0004199999999999,0.0012749999999999,1.0786715,-0.00042,-0.0012749999999999,0.8500465,-0.0765899999999999,-0.300975,1.1324665,-0.08217,-0.305305,0.8983615000000001,-0.3779599999999999,-0.140453,1.1085165,-0.38468,-0.14621
186,1.004899,0.6797,-0.118041,0.8542890000000001,0.47639,-0.131656,0.724899,0.68662,-0.219298,1.1400190000000001,0.47769,-0.14113,1.248639,0.6904600000000001,-0.243845,0.6918489999999999,0.89597,-0.273545,1.305959,0.92916,-0.3124949999999999,0.9214940000000001,0.00017,0.001455,1.078506,-0.00017,-0.001455,0.851409,-0.09187,-0.297765,1.132439,-0.09724,-0.301855,0.898566,-0.3991599999999999,-0.139349,1.1087289999999999,-0.4060899999999999,-0.14498
187,1.004635,0.6827,-0.1158599999999999,0.85402,0.4800999999999999,-0.130796,0.72427,0.69013,-0.217827,1.13997,0.47799,-0.1397429999999999,1.24858,0.69133,-0.2419649999999999,0.69152,0.89614,-0.270615,1.30585,0.92908,-0.3098849999999999,0.921654,0.0004399999999999,0.001745,1.078346,-0.0004399999999999,-0.0017449999999999,0.85293,-0.10841,-0.2927149999999999,1.1325299999999998,-0.11329,-0.297295,0.898617,-0.42318,-0.139184,1.10896,-0.42905,-0.1432959999999999
188,1.0039405,0.686075,-0.113091,0.8536185000000001,0.483125,-0.1291,0.7235185,0.693255,-0.215767,1.1396085,0.480995,-0.1372779999999999,1.2487685,0.695335,-0.239435,0.6909784999999999,0.896965,-0.266855,1.3058585,0.935395,-0.3069349999999999,0.9217755,0.000315,0.0016849999999999,1.0782245,-0.0003149999999999,-0.0016849999999999,0.8540285,-0.1231249999999999,-0.286695,1.1321885,-0.1275949999999999,-0.291415,0.8981865,-0.445315,-0.138169,1.1089285,-0.4502649999999999,-0.141159
189,1.0032029999999998,0.6908350000000001,-0.109772,0.853187,0.489355,-0.126948,0.723157,0.696775,-0.212777,1.139567,0.482335,-0.134412,1.2484169999999999,0.699945,-0.236105,0.690307,0.900995,-0.262855,1.3053270000000001,0.939895,-0.302585,0.921955,0.000825,0.0018849999999999,1.078045,-0.0008249999999999,-0.0018849999999999,0.855117,-0.137285,-0.279425,1.131657,-0.1409349999999999,-0.284815,0.897756,-0.466235,-0.136834,1.108947,-0.4702949999999999,-0.138933
190,1.0024535,0.696455,-0.106246,0.8526855,0.492235,-0.124413,0.7225254999999999,0.701225,-0.209894,1.1390255,0.4850449999999999,-0.131609,1.2477455,0.702965,-0.23273,0.6895555,0.906375,-0.25871,1.3048555,0.942645,-0.29829,0.9221765,0.000705,0.0020799999999999,1.0778235,-0.000705,-0.00208,0.8559955000000001,-0.149895,-0.27218,1.1310055,-0.152835,-0.27821,0.8968315,-0.485185,-0.135713,1.1090755,-0.488175,-0.137176
191,1.0012525,0.7026349999999999,-0.102589,0.8515455000000001,0.498515,-0.12163,0.7217955,0.7054849999999999,-0.206637,1.1379355,0.489275,-0.129095,1.2466655,0.7073450000000001,-0.228815,0.6886455,0.908015,-0.254195,1.3038455,0.947165,-0.2935149999999999,0.9224635,0.000835,0.002295,1.0775365,-0.000835,-0.0022949999999999,0.8565255,-0.1625349999999999,-0.263885,1.1297755,-0.1647549999999999,-0.270865,0.8953005,-0.5037750000000001,-0.134423,1.1089654999999998,-0.5058050000000001,-0.13571
192,1.000106,0.70626,-0.097936,0.850241,0.5007900000000001,-0.117859,0.721211,0.70841,-0.202442,1.136981,0.49276,-0.125591,1.245731,0.71072,-0.22416,0.688041,0.90921,-0.24855,1.303071,0.95062,-0.28805,0.922933,-1.999999999999225e-05,0.00253,1.077067,1.999999999999225e-05,-0.00253,0.8571410000000002,-0.1769,-0.2529,1.128171,-0.17804,-0.26032,0.893305,-0.52391,-0.131354,1.108941,-0.5247,-0.132589
193,0.9986790000000001,0.710245,-0.092947,0.848304,0.5059549999999999,-0.1142659999999999,0.720584,0.711735,-0.1978929999999999,1.1355039999999998,0.496265,-0.122336,1.244914,0.714405,-0.2193,0.687064,0.914645,-0.24296,1.301604,0.953605,-0.28192,0.92346,-0.0003149999999999,0.0026,1.07654,0.000315,-0.0026,0.857224,-0.190255,-0.24123,1.125904,-0.1906049999999999,-0.24958,0.8906340000000001,-0.542325,-0.128599,1.1084640000000001,-0.542195,-0.128885
194,0.99672,0.7137100000000001,-0.088102,0.845345,0.51134,-0.1104779999999999,0.719175,0.71512,-0.193509,1.133665,0.50014,-0.118982,1.242875,0.7173,-0.21406,0.6856949999999999,0.91851,-0.2374299999999999,1.299555,0.95489,-0.2762799999999999,0.9239370000000001,-0.00067,0.0025,1.076063,0.00067,-0.0025,0.856985,-0.2025799999999999,-0.22884,1.122585,-0.20249,-0.2378199999999999,0.887325,-0.55947,-0.123955,1.107405,-0.55812,-0.1241279999999999
195,0.9965440000000001,0.7181145,-0.0829725,0.8444590000000001,0.5175845,-0.1063735,0.719589,0.7183645,-0.1888285,1.134169,0.5030545,-0.1153175,1.243399,0.7195445,-0.2088575,0.686069,0.9204145,-0.2318475,1.299159,0.9551945,-0.2703475,0.924053,-0.0007054999999999,0.0025024999999999,1.075947,0.0007055,-0.0025025,0.858519,-0.2176055,-0.2154875,1.120669,-0.2190654999999999,-0.2249875,0.887089,-0.5772055,-0.1184155,1.107809,-0.5766255,-0.1186175
196,0.996479,0.723409,-0.0783364999999999,0.8439360000000001,0.520269,-0.1024064999999999,0.7199960000000001,0.718899,-0.1842214999999999,1.134696,0.509569,-0.1121114999999999,1.243896,0.7233189999999999,-0.2038835,0.6865760000000001,0.922789,-0.2265734999999999,1.299066,0.959979,-0.2648935,0.92432,-0.0013279999999999,0.0023895,1.07568,0.001328,-0.0023894999999999,0.8600559999999999,-0.2313909999999999,-0.2031035,1.118516,-0.234641,-0.2117935,0.887386,-0.592731,-0.1131514999999999,1.108316,-0.593641,-0.1133835
197,0.996679,0.7270135,-0.0694105,0.84354,0.5226435,-0.0947245,0.72069,0.7195035000000001,-0.1756525,1.1352,0.5140635,-0.1054055,1.24426,0.7232734999999999,-0.1951395,0.6872199999999999,0.9241235,-0.2174795,1.29868,0.9592435,-0.2551195,0.924598,-0.0015825,0.0020804999999999,1.075402,0.0015825,-0.0020804999999999,0.86199,-0.2458765,-0.1855075,1.1164399999999999,-0.2509065,-0.1938095,0.88795,-0.6088765,-0.1040535,1.10896,-0.6111765,-0.1042895
198,0.997104,0.7260545,-0.0575365,0.843404,0.5212845,-0.0845175,0.721624,0.7159745000000001,-0.1637405,1.136114,0.5152445,-0.0949915,1.244654,0.7239245000000001,-0.1839535,0.6885840000000001,0.9215145,-0.2047835,1.298394,0.9524045,-0.2416535,0.925007,-0.0015854999999999,0.0017034999999999,1.074993,0.0015855,-0.0017035,0.866544,-0.2658255,-0.1619815,1.114344,-0.2725855,-0.1702955,0.888894,-0.6302755,-0.0893765,1.109984,-0.6339054999999999,-0.0903645
199,0.997336,0.723989,-0.045907,0.843023,0.520659,-0.074458,0.722683,0.711769,-0.15193,1.136673,0.516319,-0.08455,1.245223,0.723869,-0.173084,0.689643,0.919139,-0.192044,1.297963,0.946329,-0.228304,0.925366,-0.001527,0.0013249999999999,1.074634,0.001527,-0.0013249999999999,0.870913,-0.285281,-0.138609,1.111993,-0.293201,-0.14707,0.889733,-0.650571,-0.073024,1.1106530000000001,-0.6560010000000001,-0.075766
200,0.9977225000000001,0.721255,-0.0344905,0.8429595,0.5179849999999999,-0.0646805,0.7237295,0.7080449999999999,-0.1406125,1.1374295,0.515505,-0.0738574999999999,1.2459395,0.723115,-0.1624875,0.6908695,0.915935,-0.1797675,1.2977595,0.943545,-0.2151575,0.9256605,-0.0014069999999999,0.0008874999999999,1.0743395,0.001407,-0.0008874999999999,0.8754095000000001,-0.303415,-0.1158175,1.1096295,-0.312415,-0.1241255,0.8907095,-0.6691050000000001,-0.0564905,1.1113195,-0.676355,-0.0609435
201,0.9980205000000001,0.7203695,-0.024471,0.8429955,0.5189495,-0.05604,0.7246455,0.7056994999999999,-0.130791,1.1380155,0.5154194999999999,-0.064255,1.2464355,0.7233594999999999,-0.1532379999999999,0.6921855,0.9142495,-0.168978,1.2976655,0.9419695,-0.2033579999999999,0.9256255,-0.0006754999999999,0.0003619999999999,1.0743745,0.0006754999999999,-0.000362,0.8798255000000001,-0.3177405,-0.095121,1.1072955,-0.3256905,-0.103639,0.8914555000000001,-0.6828905000000001,-0.041538,1.1115955,-0.6910905,-0.0471
202,0.9984435,0.7188025,-0.0144839999999999,0.8432545000000001,0.5173525,-0.0471279999999999,0.7256545,0.7027625,-0.120883,1.1386945,0.5162025,-0.0543759999999999,1.2474845,0.7236724999999999,-0.144054,0.6936945,0.9097225,-0.158174,1.2976345,0.9401825,-0.191484,0.9254385,-0.0003305,-4.39999999999989e-05,1.0745615,0.0003304999999999,4.400000000000237e-05,0.8845145000000001,-0.3305875,-0.074522,1.1048045,-0.3380675,-0.082653,0.8925845,-0.6959175,-0.025681,1.1118245,-0.7052175,-0.032679
203,0.9991130000000001,0.715708,-0.0046094999999999,0.8437640000000001,0.5148680000000001,-0.0385135,0.7267140000000001,0.700348,-0.1112775,1.1398139999999999,0.516508,-0.0447855,1.248144,0.724218,-0.1350875,0.695424,0.906618,-0.1473975,1.297854,0.939438,-0.1806075,0.9249910000000001,-1.0000000000003062e-05,-0.0005164999999999,1.0750089999999999,9.999999999996125e-06,0.0005164999999999,0.889234,-0.341802,-0.0545645,1.1024239999999998,-0.348552,-0.0623544999999999,0.894054,-0.7067620000000001,-0.0098515,1.111984,-0.7169319999999999,-0.0177795
