sb224sc-HT22-VT27/4dt907/src/ml-research/a10/datafiles/kinect_good_preprocessed_A9_mediapipe/B20_kinect_mirrored.csv
FrameNo,nose_3d_x,nose_3d_y,nose_3d_z,left_shoulder_3d_x,left_shoulder_3d_y,left_shoulder_3d_z,left_elbow_3d_x,left_elbow_3d_y,left_elbow_3d_z,right_shoulder_3d_x,right_shoulder_3d_y,right_shoulder_3d_z,right_elbow_3d_x,right_elbow_3d_y,right_elbow_3d_z,left_wrist_3d_x,left_wrist_3d_y,left_wrist_3d_z,right_wrist_3d_x,right_wrist_3d_y,right_wrist_3d_z,left_hip_3d_x,left_hip_3d_y,left_hip_3d_z,right_hip_3d_x,right_hip_3d_y,right_hip_3d_z,left_knee_3d_x,left_knee_3d_y,left_knee_3d_z,right_knee_3d_x,right_knee_3d_y,right_knee_3d_z,left_ankle_3d_x,left_ankle_3d_y,left_ankle_3d_z,right_ankle_3d_x,right_ankle_3d_y,right_ankle_3d_z
98,1.0152515,0.7041875,0.0472265,0.8381855,0.5167175,0.0344495,0.7220155000000001,0.6960775,0.0015814999999999,1.1680755,0.5199375,0.0050745,1.2832055,0.7186675,-0.0501714999999999,0.6796854999999999,0.8987375,-0.0025234999999999,1.3490655,0.9128575,-0.0694645,0.9267895,0.0017635,0.0015274999999999,1.0732105,-0.0017634999999999,-0.0015275,0.8987555,-0.3842325,-0.0043795,1.0984895,-0.3927025,-0.0265385,0.9071575000000001,-0.7399725,0.0361625,1.1039855,-0.7403125,0.0275675
99,1.0153435,0.7028665,0.0444679999999999,0.8388245,0.5158564999999999,0.031109,0.7212244999999999,0.6957065,-0.0021659999999999,1.1679045000000001,0.5203265,0.002467,1.2830745000000001,0.7174465,-0.053374,0.6796045,0.9000365,-0.006722,1.3483245,0.9081365,-0.074403,0.9265445,0.0016255,0.001559,1.0734555000000001,-0.0016254999999999,-0.0015589999999999,0.8971245000000001,-0.3820935,-0.011633,1.0994645,-0.3909435,-0.0339239999999999,0.9070285000000001,-0.7378635,0.031406,1.1037345,-0.7396235,0.022815
100,1.0153205,0.7013565,0.0415295,0.8395745,0.5152765,0.0275065,0.7203145,0.6949365,-0.0062244999999999,1.1676845,0.5209265,-0.0003204999999999,1.2828945,0.7156965,-0.0568415,0.6794645,0.9016965,-0.0113605,1.3474945,0.9041765,-0.0795595,0.9262215,0.0014344999999999,0.0016415,1.0737785,-0.0014344999999999,-0.0016414999999999,0.8952745,-0.3791635,-0.0195245,1.1004144999999999,-0.3886535,-0.0417975,0.9068385,-0.7350035,0.0262905,1.1034644999999998,-0.7384935,0.0177555
101,1.0151949999999998,0.7005104999999999,0.0380645,0.840236,0.5130905,0.0235575,0.7193960000000001,0.6952404999999999,-0.0107894999999999,1.167266,0.5193205,-0.0025464999999999,1.282476,0.7146305,-0.0608784999999999,0.679316,0.9005205,-0.0173755,1.346646,0.9032405,-0.0846725,0.925831,0.0013395,0.0017675,1.074169,-0.0013395,-0.0017675,0.893266,-0.3748395,-0.0278885,1.101416,-0.3851295,-0.0501565,0.906569,-0.7305295,0.0207555,1.103156,-0.7355095,0.0123395
102,1.014954,0.6994619999999999,0.034437,0.840514,0.5107619999999999,0.0196259999999999,0.718514,0.695442,-0.0155819999999999,1.166714,0.518432,-0.005035,1.281834,0.713592,-0.06518,0.6791039999999999,0.899992,-0.023714,1.346204,0.907572,-0.089138,0.9254290000000001,0.0011569999999999,0.0019399999999999,1.074571,-0.0011569999999999,-0.00194,0.891184,-0.369788,-0.036441,1.102444,-0.381168,-0.058767,0.906243,-0.725268,0.0150019999999999,1.102824,-0.731468,0.0066919999999999
103,1.0146355,0.698118,0.0306579999999999,0.8410695000000001,0.508988,0.015679,0.7177495,0.6953079999999999,-0.020678,1.1659795,0.517278,-0.007704,1.2810995,0.712878,-0.0695419999999999,0.6789795000000001,0.8995179999999999,-0.030487,1.3455995,0.912978,-0.0936869999999999,0.9251015,0.001062,0.002005,1.0748985,-0.001062,-0.002005,0.8888495000000001,-0.364452,-0.045344,1.1034295,-0.376522,-0.067166,0.9058735,-0.718952,0.009195,1.1025095,-0.7267020000000001,0.00084
104,1.0142654999999998,0.6964225,0.026832,0.8414794999999999,0.5090725,0.011755,0.7171695,0.6940525000000001,-0.025721,1.1651494999999998,0.5156225000000001,-0.0102079999999999,1.2802195,0.7121125,-0.073837,0.6790295,0.8985525000000001,-0.037375,1.3450095,0.9188425,-0.097798,0.9248095000000001,0.0010494999999999,0.002077,1.0751905,-0.0010495,-0.0020769999999999,0.8864195,-0.3595775,-0.05425,1.1042394999999998,-0.3719975,-0.075683,0.9055775000000001,-0.7122474999999999,0.003549,1.1021094999999999,-0.7217374999999999,-0.0051629999999999
105,1.0138975,0.6949985,0.0230795,0.8418155,0.5080785,0.0078664999999999,0.7167255,0.6930284999999999,-0.0308485,1.1642855,0.5141184999999999,-0.0126155,1.2791855,0.7110785,-0.0782795,0.6791055000000001,0.8979385,-0.0446094999999999,1.3443654999999999,0.9254285,-0.1023165,0.9245045000000001,0.0010464999999999,0.0021275,1.0754955,-0.0010465,-0.0021275,0.8842055,-0.3542015,-0.0629455,1.1050155,-0.3669515,-0.0842084999999999,0.9052395,-0.7053015,-0.0022435,1.1016555,-0.7156015,-0.0113145
106,1.0135005,0.694156,0.019419,0.8420275,0.506306,0.0040799999999999,0.7163174999999999,0.692566,-0.035904,1.1634674999999999,0.512636,-0.014829,1.2781775,0.7117060000000001,-0.082621,0.6795375,0.8961760000000001,-0.051946,1.3437774999999998,0.932596,-0.106683,0.9242135,0.0011089999999999,0.0021969999999999,1.0757865,-0.001109,-0.002197,0.8822575,-0.348584,-0.071415,1.1058775,-0.361354,-0.092654,0.9048625000000001,-0.6977639999999999,-0.008015,1.1012975,-0.7083539999999999,-0.017328
107,1.0131545,0.693174,0.0158045,0.8423165000000001,0.504664,0.0005994999999999,0.7160265,0.692264,-0.0412845,1.1628665,0.5109440000000001,-0.0169015,1.2772565,0.7128540000000001,-0.0868585,0.6803265000000001,0.893724,-0.0596915,1.3431065,0.939794,-0.1109354999999999,0.9240805,0.001202,0.0023325,1.0759195,-0.001202,-0.0023325,0.8804065,-0.342746,-0.0798445,1.1068765,-0.355256,-0.1013785,0.9045665,-0.689036,-0.0135775,1.1010564999999999,-0.699846,-0.0233365
108,1.01277,0.6923005,0.012516,0.842527,0.5028605,-0.0025839999999999,0.715857,0.6917105,-0.046533,1.162387,0.5087205,-0.0188419999999999,1.276447,0.7135305,-0.090869,0.681257,0.8913004999999999,-0.06733,1.342117,0.9460205,-0.114935,0.923974,0.0013055,0.0024059999999999,1.076026,-0.0013054999999999,-0.0024059999999999,0.8784270000000001,-0.3368494999999999,-0.088114,1.107797,-0.3487395,-0.109941,0.9044220000000001,-0.6801095,-0.0188979999999999,1.101037,-0.6906795,-0.029317
109,1.0123635,0.691067,0.0093019999999999,0.8431275,0.500467,-0.005947,0.7157975000000001,0.691487,-0.051627,1.1618775000000001,0.506517,-0.020587,1.2757875,0.714927,-0.094812,0.6822775000000001,0.8900170000000001,-0.074603,1.3407875,0.947387,-0.119232,0.9237935,0.001434,0.0023709999999999,1.0762065,-0.001434,-0.002371,0.8764375000000001,-0.330793,-0.095967,1.1086075,-0.341783,-0.11826,0.9043385,-0.670393,-0.02393,1.1009475,-0.680623,-0.035161
110,1.012172,0.689588,0.006469,0.844106,0.499598,-0.0089279999999999,0.715876,0.690828,-0.0564039999999999,1.161626,0.506218,-0.023149,1.275366,0.716168,-0.098718,0.6837060000000001,0.8891979999999999,-0.080832,1.339546,0.948698,-0.123245,0.9234789999999999,0.001499,0.002375,1.076521,-0.001499,-0.002375,0.874756,-0.324872,-0.10327,1.109286,-0.335322,-0.1264279999999999,0.904397,-0.660312,-0.028615,1.1009259999999998,-0.670182,-0.040908
111,1.0119449999999999,0.6879695,0.0037899999999999,0.844789,0.4981394999999999,-0.011815,0.7161390000000001,0.6894295,-0.061242,1.161379,0.5044895,-0.025446,1.274989,0.7168295,-0.102384,0.6850890000000001,0.8868395,-0.086952,1.3382589999999999,0.9497695,-0.1271749999999999,0.92317,0.0016694999999999,0.0023019999999999,1.07683,-0.0016695,-0.0023019999999999,0.8730789999999999,-0.3192905,-0.110468,1.109799,-0.3286105,-0.13416,0.904498,-0.6501005,-0.033043,1.100879,-0.6591405,-0.046516
112,1.0117515,0.6863184999999999,0.001243,0.8455085,0.4961785,-0.0144929999999999,0.7165485,0.6881284999999999,-0.065803,1.1613985,0.5030985,-0.0275579999999999,1.2746885,0.7159785,-0.105975,0.6862085,0.8844084999999999,-0.0925709999999999,1.3369785,0.9506785,-0.130955,0.9229575,0.0017514999999999,0.002334,1.0770425,-0.0017515,-0.0023339999999999,0.8715785,-0.3134515,-0.117183,1.1102685,-0.3220814999999999,-0.141764,0.9046715,-0.6397415000000001,-0.037214,1.1008885,-0.6477015,-0.0519289999999999
113,1.0116405,0.684763,-0.0015725,0.8459835,0.493303,-0.0173195,0.7170035,0.687563,-0.0707445,1.1616635,0.502353,-0.0299165,1.2744035,0.715593,-0.1097745,0.6871335000000001,0.8837130000000001,-0.0983925,1.3357435,0.951533,-0.1349325,0.9227755,0.001808,0.0022024999999999,1.0772245,-0.0018079999999999,-0.0022025,0.8702035,-0.306737,-0.1241485,1.1107635,-0.3147069999999999,-0.1491825,0.9049445,-0.6284369999999999,-0.0415915,1.1009735,-0.635277,-0.0572175
114,1.0116755,0.682483,-0.0045364999999999,0.8466755000000001,0.4917229999999999,-0.0200655,0.7173955000000001,0.686083,-0.0755985,1.1620555,0.501693,-0.0322155,1.2742855,0.715533,-0.1135915,0.6880655,0.8835729999999999,-0.1039725,1.3344654999999999,0.951893,-0.1388585,0.9226375,0.0017659999999999,0.0021375,1.0773625,-0.001766,-0.0021375,0.8689255000000001,-0.299777,-0.1310215,1.1113455,-0.307707,-0.1566175,0.9053205,-0.6164970000000001,-0.0458675,1.1010255,-0.6225670000000001,-0.0618185
115,1.0117075,0.6788595000000001,-0.007365,0.8474275,0.4906494999999999,-0.02277,0.7177975,0.6837795,-0.080248,1.1622074999999998,0.5018395,-0.034564,1.2741274999999999,0.7124795,-0.116652,0.6884575,0.8798095,-0.110095,1.3332575,0.9492595,-0.142625,0.9224525000000001,0.0016305,0.002048,1.0775474999999999,-0.0016304999999999,-0.002048,0.8675075,-0.2901405,-0.13766,1.1116875,-0.2977204999999999,-0.163551,0.9056295,-0.6049905,-0.049693,1.1007974999999999,-0.6107205,-0.066029
116,1.0119165,0.67635,-0.0100895,0.8481325,0.48863,-0.0254614999999999,0.7182525,0.68221,-0.0845225,1.1624325,0.49876,-0.0369025,1.2740225,0.7102599999999999,-0.1197985,0.6886225,0.8782399999999999,-0.1157335,1.3323625,0.9427,-0.1478695,0.9223055,0.0016199999999999,0.0019305,1.0776945,-0.00162,-0.0019305,0.8662725,-0.27903,-0.1441855,1.1119825,-0.28647,-0.1701835,0.9059405000000001,-0.5928,-0.0533465,1.1005725,-0.5982799999999999,-0.0699405
117,1.0118835,0.675405,-0.0176744999999999,0.8484515,0.487865,-0.0332935,0.7183815,0.682075,-0.0935324999999999,1.1623115,0.498505,-0.0440504999999999,1.2736015,0.709455,-0.1279934999999999,0.6886415,0.8788849999999999,-0.1260045,1.3315615,0.939605,-0.1581245,0.9221675,0.001535,0.0018805,1.0778325,-0.0015349999999999,-0.0018804999999999,0.8649415,-0.2657049999999999,-0.1553065,1.1119715000000001,-0.273265,-0.1812805,0.9059035,-0.578255,-0.0617124999999999,1.1000415000000001,-0.5840749999999999,-0.0784585
118,1.0116925,0.67824,-0.0265439999999999,0.8490875,0.48665,-0.042106,0.7183475,0.68336,-0.10363,1.1614375,0.49694,-0.0527539999999999,1.2727975,0.7090799999999999,-0.137239,0.6885275,0.8814,-0.137598,1.3312375,0.94352,-0.168743,0.9221115,0.00145,0.0019419999999999,1.0778885,-0.00145,-0.0019419999999999,0.8619275,-0.24874,-0.171618,1.1125475,-0.25654,-0.196176,0.9056905,-0.56043,-0.071109,1.0993275,-0.56671,-0.08777
119,1.0114665,0.6791,-0.0354279999999999,0.8498255,0.48567,-0.0507419999999999,0.7182455000000001,0.68387,-0.113893,1.1605155,0.49586,-0.0611989999999999,1.2719455,0.70817,-0.14627,0.6884555,0.88575,-0.149333,1.3307655,0.94587,-0.1792409999999999,0.9219775,0.00136,0.002014,1.0780224999999999,-0.00136,-0.002014,0.8589755,-0.23264,-0.187514,1.1130955,-0.24012,-0.210324,0.9054505,-0.54385,-0.080242,1.0986654999999999,-0.55053,-0.096501
120,1.0111845,0.679975,-0.044707,0.8505775000000001,0.485175,-0.0594849999999999,0.7181474999999999,0.6846749999999999,-0.124121,1.1596175,0.495845,-0.069669,1.2712075,0.7077549999999999,-0.155188,0.6884075000000001,0.889745,-0.16128,1.3303375,0.947565,-0.189725,0.9218255,0.001225,0.002112,1.0781745,-0.0012249999999999,-0.002112,0.8561675,-0.216505,-0.203375,1.1136475,-0.2236449999999999,-0.224505,0.9052555,-0.526945,-0.089363,1.0980675,-0.5340849999999999,-0.105001
121,1.0109555,0.680955,-0.054322,0.8512645,0.485085,-0.0684,0.7179945,0.685485,-0.134608,1.1585945,0.494445,-0.078411,1.2710045,0.707535,-0.164317,0.6884345000000001,0.8935850000000001,-0.173543,1.3300245,0.947335,-0.200799,0.9216435000000001,0.0011649999999999,0.0022039999999999,1.0783565,-0.0011649999999999,-0.0022039999999999,0.8535545,-0.200235,-0.219179,1.1142245,-0.207065,-0.238619,0.9051395,-0.5096750000000001,-0.098699,1.0976045,-0.517145,-0.113678
122,1.01076,0.681915,-0.063724,0.851867,0.483975,-0.0768689999999999,0.7178869999999999,0.686005,-0.144683,1.157817,0.493165,-0.087004,1.270257,0.707055,-0.173233,0.688237,0.895105,-0.185668,1.329667,0.944065,-0.21261,0.921532,0.001035,0.0024399999999999,1.078468,-0.001035,-0.0024399999999999,0.8511070000000001,-0.184165,-0.2344399999999999,1.114767,-0.190685,-0.2526,0.9050549999999999,-0.4925549999999999,-0.107653,1.097228,-0.500195,-0.122081
123,1.0105734999999998,0.6832,-0.073484,0.8524765,0.48358,-0.085559,0.7178665,0.6872499999999999,-0.154971,1.1569265,0.49224,-0.09576,1.2696064999999999,0.7057,-0.182358,0.6878965,0.89555,-0.198222,1.3292865,0.94173,-0.224595,0.9214205,0.0010399999999999,0.002555,1.0785795,-0.00104,-0.002555,0.8486965,-0.16852,-0.249655,1.1153464999999998,-0.1744399999999999,-0.266245,0.9049155,-0.47535,-0.116654,1.0968065,-0.48322,-0.130744
124,1.0103605,0.6855249999999999,-0.083275,0.8531175,0.483645,-0.094164,0.7180675000000001,0.688655,-0.165377,1.1563175,0.490645,-0.104104,1.2688675,0.707505,-0.191689,0.6874575,0.8984650000000001,-0.210244,1.3286875,0.942285,-0.236685,0.9214275000000001,0.001105,0.0027449999999999,1.0785725,-0.0011049999999999,-0.002745,0.8463674999999999,-0.1518549999999999,-0.264465,1.1158474999999999,-0.1575749999999999,-0.279815,0.9047115,-0.457755,-0.125626,1.0964435,-0.4659949999999999,-0.139078
125,1.010102,0.6857150000000001,-0.0930709999999999,0.853654,0.481925,-0.103154,0.718244,0.688245,-0.175754,1.155734,0.491155,-0.1127099999999999,1.268004,0.707885,-0.201372,0.687084,0.900365,-0.2224979999999999,1.328024,0.946785,-0.247635,0.921402,0.000985,0.0027749999999999,1.078598,-0.000985,-0.0027749999999999,0.8439639999999999,-0.134815,-0.2792449999999999,1.116254,-0.140795,-0.2931249999999999,0.9044270000000001,-0.4403249999999999,-0.1346349999999999,1.095984,-0.448935,-0.1473729999999999
126,1.009975,0.68395,-0.097799,0.854298,0.47897,-0.107044,0.718648,0.6847799999999999,-0.181291,1.154928,0.4896999999999999,-0.116767,1.267358,0.70777,-0.205842,0.687138,0.8983,-0.229973,1.327598,0.94736,-0.25356,0.921402,0.0008999999999999,0.0027399999999999,1.078598,-0.0009,-0.00274,0.841958,-0.11997,-0.28878,1.116768,-0.12564,-0.30125,0.904347,-0.4254800000000001,-0.138661,1.095699,-0.4342,-0.150739
127,1.0099799999999999,0.68073,-0.10144,0.854312,0.4779899999999999,-0.109753,0.719052,0.68255,-0.185836,1.1547619999999998,0.4881299999999999,-0.119943,1.266902,0.70663,-0.209511,0.687562,0.8947299999999999,-0.236588,1.327442,0.94582,-0.258665,0.921375,0.0007499999999999,0.0027649999999999,1.078625,-0.00075,-0.002765,0.841862,-0.1056,-0.292865,1.1167319999999998,-0.11127,-0.305515,0.904407,-0.41174,-0.141901,1.095524,-0.42018,-0.153262
128,1.0097645,0.67727,-0.1050809999999999,0.8542244999999999,0.47685,-0.1123719999999999,0.7193145000000001,0.67964,-0.1901579999999999,1.1543845,0.48616,-0.1230639999999999,1.2665445,0.7016100000000001,-0.213219,0.6879445,0.8912500000000001,-0.2428199999999999,1.3269944999999999,0.93985,-0.2645599999999999,0.9213695,0.0007599999999999,0.00268,1.0786305,-0.0007599999999999,-0.0026799999999999,0.8416345000000001,-0.09169,-0.29679,1.1165145,-0.09736,-0.30967,0.9043865,-0.3985599999999999,-0.1450459999999999,1.0952195,-0.4066,-0.1556719999999999
129,1.009648,0.675055,-0.108194,0.854454,0.476255,-0.114885,0.719524,0.6786449999999999,-0.194025,1.153954,0.484365,-0.125919,1.266194,0.699225,-0.216773,0.688434,0.891525,-0.24836,1.326464,0.936825,-0.26997,0.921393,0.0009049999999999,0.0030799999999999,1.078607,-0.0009049999999999,-0.0030799999999999,0.841464,-0.076125,-0.29963,1.116344,-0.081795,-0.3133599999999999,0.904424,-0.3837049999999999,-0.147875,1.094949,-0.391345,-0.157756
130,1.0095204999999998,0.672925,-0.110896,0.8546005,0.475225,-0.117056,0.7195605,0.677475,-0.197554,1.1539705,0.4835049999999999,-0.128243,1.2661305,0.697855,-0.22024,0.6892705,0.8873850000000001,-0.253405,1.3262005000000001,0.935385,-0.274775,0.9214225,0.001045,0.003565,1.0785775,-0.001045,-0.003565,0.8414605,-0.063695,-0.301885,1.1162005,-0.0692249999999999,-0.3164949999999999,0.9045215,-0.369435,-0.150261,1.0947025,-0.3766449999999999,-0.159513
131,1.009137,0.6703049999999999,-0.11314,0.854548,0.4748349999999999,-0.118678,0.719598,0.675535,-0.200612,1.1538979999999999,0.4811249999999999,-0.129876,1.265858,0.695375,-0.222992,0.689898,0.8844449999999999,-0.257585,1.3254579999999998,0.935565,-0.2780749999999999,0.921318,0.0013449999999999,0.0041749999999999,1.078682,-0.001345,-0.004175,0.841298,-0.051565,-0.3033949999999999,1.115848,-0.057035,-0.319065,0.904424,-0.3556950000000001,-0.152197,1.094243,-0.362535,-0.160866
132,1.008528,0.66979,-0.114476,0.8543419999999999,0.473805,-0.119562,0.7193620000000001,0.67529,-0.202796,1.153382,0.48053,-0.130769,1.265052,0.69594,-0.224994,0.690292,0.88303,-0.260715,1.324462,0.93685,-0.280695,0.9213280000000001,0.00134,0.0048749999999999,1.0786719999999999,-0.00134,-0.004875,0.840972,-0.0366799999999999,-0.304245,1.115332,-0.0422599999999999,-0.321295,0.9040990000000001,-0.33945,-0.153431,1.093553,-0.3459,-0.161519
133,1.00777,0.66811,-0.115488,0.853734,0.471955,-0.120096,0.719244,0.67488,-0.204583,1.152824,0.478925,-0.1313669999999999,1.264254,0.69503,-0.226577,0.6901740000000001,0.88384,-0.26306,1.3232439999999999,0.93685,-0.28297,0.921352,0.00148,0.0054599999999999,1.078648,-0.0014799999999999,-0.0054599999999999,0.8404739999999999,-0.0219899999999999,-0.3047999999999999,1.114814,-0.0276199999999999,-0.32319,0.903599,-0.3236599999999999,-0.1543479999999999,1.092771,-0.3296399999999999,-0.162024
134,1.006912,0.667875,-0.1162669999999999,0.8526580000000001,0.4729,-0.1201399999999999,0.718538,0.675505,-0.206111,1.152318,0.4788489999999999,-0.1318129999999999,1.263478,0.694455,-0.227647,0.689828,0.883515,-0.265165,1.3218779999999999,0.932925,-0.285045,0.9214249999999999,0.0015549999999999,0.005825,1.078575,-0.001555,-0.0058249999999999,0.839988,-0.007245,-0.305085,1.114408,-0.012915,-0.324625,0.902909,-0.308175,-0.1550679999999999,1.091912,-0.313695,-0.162289
135,1.0060099999999998,0.66769,-0.117012,0.851457,0.474497,-0.120165,0.717597,0.67759,-0.207497,1.151737,0.477294,-0.13211,1.262557,0.69279,-0.228687,0.689137,0.88349,-0.26715,1.320497,0.9308,-0.28703,0.92145,0.00189,0.00617,1.07855,-0.00189,-0.00617,0.839467,0.00785,-0.3054,1.114017,0.0023299999999999,-0.32575,0.902091,-0.29231,-0.155669,1.090953,-0.29741,-0.16251
136,1.0051325,0.66673,-0.117122,0.8503155,0.474004,-0.119837,0.7168155,0.6779299999999999,-0.20848,1.1513054999999999,0.477973,-0.1318119999999999,1.2617955,0.69242,-0.229216,0.6883155000000001,0.8830899999999999,-0.268655,1.3193255,0.92828,-0.288495,0.9213605,0.0016899999999999,0.0063249999999999,1.0786395,-0.00169,-0.0063249999999999,0.8392755000000001,0.02176,-0.304695,1.1138455,0.0163799999999999,-0.325875,0.9013645,-0.27761,-0.155604,1.0901395,-0.28243,-0.162263
137,1.00439,0.667545,-0.1170519999999999,0.8497049999999999,0.473929,-0.1194109999999999,0.715875,0.679295,-0.209089,1.151085,0.478624,-0.1312529999999999,1.261255,0.6959550000000001,-0.229576,0.6877250000000001,0.882255,-0.269735,1.3186449999999998,0.931395,-0.289035,0.921303,0.001385,0.006705,1.078697,-0.0013849999999999,-0.0067049999999999,0.839345,0.036695,-0.303335,1.113965,0.031965,-0.325545,0.900864,-0.2617549999999999,-0.1552339999999999,1.089552,-0.2663049999999999,-0.161736
138,1.003664,0.66688,-0.116545,0.848981,0.472832,-0.118525,0.715301,0.67847,-0.209497,1.150831,0.478455,-0.130607,1.2607110000000001,0.69648,-0.229572,0.6871309999999999,0.8789899999999999,-0.27071,1.318031,0.93141,-0.28952,0.921253,0.0010499999999999,0.0071799999999999,1.078747,-0.0010499999999999,-0.00718,0.839271,0.04896,-0.30181,1.114111,0.0449399999999999,-0.32509,0.900366,-0.2483899999999999,-0.15474,1.088976,-0.25281,-0.160999
139,1.0028234999999999,0.66682,-0.115756,0.8480115,0.472599,-0.117203,0.7145215,0.67854,-0.209381,1.1502115,0.479008,-0.129767,1.2600815,0.69728,-0.229366,0.6863215,0.88079,-0.27165,1.3173515,0.92955,-0.28971,0.9212675,0.0004399999999999,0.0079799999999999,1.0787325,-0.0004399999999999,-0.00798,0.8390715,0.06187,-0.2995,1.1141515,0.05843,-0.32429,0.8999225,-0.2343799999999999,-0.15391,1.0883725,-0.2389199999999999,-0.159876
140,1.0022145,0.6669050000000001,-0.115087,0.8471765,0.472937,-0.11596,0.7137565,0.6797150000000001,-0.2091319999999999,1.1497465,0.480278,-0.129104,1.2596064999999999,0.6985750000000001,-0.229256,0.6854865,0.882135,-0.272835,1.3169165,0.925275,-0.290675,0.9214964999999999,-0.0002049999999999,0.0086749999999999,1.0785035,0.000205,-0.0086749999999999,0.8389965,0.074485,-0.297165,1.1144065,0.071675,-0.3234249999999999,0.8996305,-0.2205749999999999,-0.153136,1.0879325,-0.2252349999999999,-0.158919
141,1.0017615,0.664405,-0.114088,0.8466325,0.473211,-0.114505,0.7130325,0.678165,-0.208373,1.1496425000000001,0.479366,-0.127946,1.2593925000000001,0.697555,-0.228857,0.6846725,0.881495,-0.273635,1.3166125,0.918445,-0.291375,0.9215925,-0.0005749999999999,0.0089049999999999,1.0784075,0.0005749999999999,-0.0089049999999999,0.8388525,0.083515,-0.294775,1.1148125,0.081135,-0.322345,0.8994675,-0.2104249999999999,-0.151732,1.0876315,-0.2152849999999999,-0.157713
142,1.001331,0.663925,-0.112586,0.846309,0.473612,-0.112512,0.7122189999999999,0.678135,-0.206923,1.149459,0.480071,-0.126372,1.259239,0.698295,-0.227912,0.683369,0.882035,-0.273995,1.316309,0.914025,-0.291565,0.921713,-0.0015549999999999,0.0090049999999999,1.078287,0.0015549999999999,-0.009005,0.838759,0.093775,-0.2915149999999999,1.115179,0.091915,-0.320455,0.899314,-0.1989849999999999,-0.149358,1.087343,-0.2041349999999999,-0.15614
143,1.0009475,0.6632149999999999,-0.110996,0.8460105,0.4742039999999999,-0.110568,0.7112404999999999,0.676955,-0.205524,1.1493605,0.4804869999999999,-0.124892,1.2590504999999999,0.698885,-0.227112,0.6819305,0.8828449999999999,-0.274045,1.3160005,0.913095,-0.291495,0.9218625,-0.002315,0.0090449999999999,1.0781375,0.0023149999999999,-0.0090449999999999,0.8385805,0.1028149999999999,-0.288265,1.1154205,0.1013849999999999,-0.3183249999999999,0.8991405000000001,-0.188795,-0.146863,1.0871725,-0.1942750000000001,-0.154645
144,1.0007725,0.6626050000000001,-0.109674,0.8455105,0.4740420000000001,-0.108665,0.7105205,0.6758050000000001,-0.204317,1.1495505,0.481914,-0.123619,1.2591505,0.700165,-0.22662,0.6807004999999999,0.884455,-0.274045,1.3159605,0.911045,-0.291645,0.9219385,-0.0032749999999999,0.008995,1.0780615,0.003275,-0.008995,0.8386005,0.111195,-0.285195,1.1159205,0.109985,-0.315915,0.8992395,-0.1792349999999999,-0.144226,1.0873495,-0.1853449999999999,-0.153297
145,1.000597,0.661365,-0.1085589999999999,0.845245,0.474675,-0.1071399999999999,0.709695,0.674185,-0.203318,1.1495549999999999,0.48169,-0.1224479999999999,1.259085,0.697335,-0.226441,0.6795249999999999,0.885085,-0.273985,1.315695,0.909135,-0.2918849999999999,0.9220490000000001,-0.003645,0.008875,1.0779509999999999,0.003645,-0.0088749999999999,0.838525,0.118005,-0.282385,1.1163049999999999,0.117095,-0.313365,0.899324,-0.1710749999999999,-0.1415489999999999,1.087594,-0.1778649999999999,-0.1521559999999999
146,1.0002924999999998,0.660215,-0.1072639999999999,0.8449485,0.4746979999999999,-0.1057039999999999,0.7087785,0.6724549999999999,-0.202075,1.1493985,0.4819779999999999,-0.1213949999999999,1.2587885,0.695025,-0.2262429999999999,0.6783684999999999,0.8869849999999999,-0.2737,1.3156485,0.905605,-0.29205,0.9221775,-0.004125,0.00879,1.0778225,0.0041249999999999,-0.0087899999999999,0.8382985000000001,0.1241749999999999,-0.27936,1.1165384999999999,0.1234349999999999,-0.31071,0.8994525,-0.163505,-0.1386069999999999,1.0877785,-0.171225,-0.1509829999999999
147,1.0000905,0.659327,-0.105864,0.8447335000000001,0.4757389999999999,-0.10454,0.7080535,0.6715,-0.20064,1.1494835,0.481993,-0.120157,1.2587635,0.69345,-0.22613,0.6774335,0.88869,-0.27308,1.3156135,0.90187,-0.29217,0.9223145,-0.0046,0.0086999999999999,1.0776855,0.0045999999999999,-0.0087,0.8381735000000001,0.1303999999999999,-0.27625,1.1169535,0.12983,-0.30817,0.8997895,-0.15592,-0.135624,1.0880305,-0.16462,-0.149576
148,1.000025,0.658015,-0.1043739999999999,0.844614,0.4759569999999999,-0.1034109999999999,0.707454,0.66994,-0.1992689999999999,1.149654,0.481936,-0.1189559999999999,1.258764,0.69179,-0.2260559999999999,0.676894,0.89001,-0.2722199999999999,1.315634,0.89928,-0.29228,0.9223399999999999,-0.0049099999999999,0.00859,1.07766,0.0049099999999999,-0.0085899999999999,0.837954,0.1354399999999999,-0.2734499999999999,1.1176039999999998,0.13504,-0.30582,0.900449,-0.14882,-0.1326429999999999,1.0883639999999999,-0.15918,-0.1481809999999999
149,1.0000975,0.65746,-0.10292,0.8446195,0.475809,-0.102285,0.7070995,0.668887,-0.197666,1.1499495,0.482504,-0.117709,1.2588795,0.6908650000000001,-0.225882,0.6765395000000001,0.891325,-0.271385,1.3156495000000001,0.900385,-0.291805,0.9224155,-0.0053249999999999,0.0084749999999999,1.0775845,0.005325,-0.008475,0.8377495,0.140245,-0.270595,1.1184195,0.140055,-0.303515,0.9013385,-0.142015,-0.129664,1.0888195,-0.1540049999999999,-0.146745
150,1.0000085,0.657664,-0.101547,0.8445755,0.475465,-0.101255,0.7067255,0.66846,-0.196001,1.1500655,0.482855,-0.116542,1.2586855,0.6900350000000001,-0.225819,0.6759355,0.8903350000000001,-0.27066,1.3154455,0.901575,-0.29161,0.9226055,-0.0057649999999999,0.00836,1.0773945,0.005765,-0.00836,0.8373655,0.145105,-0.26772,1.1190655,0.145225,-0.3012,0.9021115000000001,-0.1352549999999999,-0.126952,1.0891355,-0.1487849999999999,-0.145149
151,0.999965,0.656933,-0.1005959999999999,0.8446670000000001,0.47544,-0.100848,0.706567,0.6670290000000001,-0.194639,1.150197,0.4824,-0.1158619999999999,1.258707,0.6884300000000001,-0.226218,0.675497,0.8879,-0.27026,1.315297,0.90147,-0.29193,0.922586,-0.0057599999999999,0.00839,1.077414,0.00576,-0.00839,0.836927,0.14839,-0.26566,1.119797,0.14884,-0.2993599999999999,0.902763,-0.13044,-0.125207,1.089357,-0.1449899999999999,-0.143988
152,0.999938,0.656311,-0.099794,0.844824,0.4750899999999999,-0.100564,0.706404,0.66679,-0.193397,1.150434,0.4819299999999999,-0.11516,1.258754,0.6869799999999999,-0.226679,0.6751040000000001,0.8856799999999999,-0.269755,1.315144,0.90157,-0.292345,0.922586,-0.00582,0.0083649999999999,1.077414,0.0058199999999999,-0.008365,0.836464,0.1513799999999999,-0.263665,1.120584,0.1522199999999999,-0.297565,0.903398,-0.12599,-0.123672,1.089454,-0.14155,-0.14295
153,0.9999265,0.656386,-0.0990299999999999,0.8449945,0.47483,-0.1002249999999999,0.7062945,0.667059,-0.192344,1.1506945,0.4814,-0.114505,1.2587745,0.685666,-0.226983,0.6747345,0.88394,-0.26924,1.3150145,0.90196,-0.29273,0.9225625000000001,-0.00592,0.00833,1.0774374999999998,0.00592,-0.00833,0.8360845,0.15449,-0.2616199999999999,1.1213845,0.1557,-0.29568,0.9038955,-0.1218099999999999,-0.122455,1.0894845,-0.13805,-0.1419059999999999
154,0.9999215,0.65606,-0.0983989999999999,0.8451515,0.474585,-0.099935,0.7062014999999999,0.66697,-0.191527,1.1508815000000001,0.481465,-0.1139729999999999,1.2587614999999999,0.68763,-0.2271389999999999,0.6744015,0.881625,-0.26863,1.3148214999999999,0.901965,-0.2931399999999999,0.9225565,-0.006005,0.00833,1.0774435,0.006005,-0.00833,0.8356715,0.156825,-0.25999,1.1223215,0.158225,-0.2941,0.9042685,-0.118805,-0.1215329999999999,1.0895215,-0.135525,-0.1407759999999999
155,0.9998975,0.655759,-0.097885,0.8452195,0.47458,-0.099587,0.7060895,0.666873,-0.190901,1.1509795,0.4813,-0.113476,1.2587495,0.689114,-0.227308,0.6741795000000002,0.88043,-0.26808,1.3144995,0.90249,-0.29357,0.9225495,-0.0060599999999999,0.0083399999999999,1.0774505,0.00606,-0.00834,0.8351995,0.1588,-0.2586,1.1232595,0.16028,-0.29276,0.9044495,-0.1164199999999999,-0.12092,1.0895295,-0.1333799999999999,-0.139743
156,0.9998630000000001,0.655764,-0.0974749999999999,0.845167,0.47464,-0.099266,0.705997,0.666775,-0.190409,1.150927,0.48194,-0.1132289999999999,1.2586870000000001,0.6901120000000001,-0.227489,0.673997,0.87958,-0.267545,1.314187,0.90364,-0.293985,0.92256,-0.0061799999999999,0.008365,1.07744,0.00618,-0.0083649999999999,0.834697,0.16033,-0.257405,1.124097,0.16181,-0.291725,0.9045420000000001,-0.1146799999999999,-0.1203939999999999,1.089497,-0.1316799999999999,-0.13904
157,0.9998325000000001,0.655732,-0.0971549999999999,0.8451375,0.4750949999999999,-0.0990249999999999,0.7059275,0.666526,-0.189967,1.1508875,0.4817849999999999,-0.1130739999999999,1.2586375,0.690294,-0.2275959999999999,0.6738575,0.8784749999999999,-0.267015,1.3137775,0.904095,-0.294375,0.9225405,-0.005995,0.008395,1.0774595,0.0059949999999999,-0.0083949999999999,0.8341675,0.1607849999999999,-0.2565449999999999,1.1248075,0.1623549999999999,-0.2910549999999999,0.9045225000000001,-0.114225,-0.1198759999999999,1.0893875,-0.1310350000000001,-0.138396
158,0.9998415,0.655732,-0.096997,0.8451555,0.4750949999999999,-0.0987659999999999,0.7058955,0.666526,-0.189958,1.1508855,0.4817849999999999,-0.1131089999999999,1.2586355,0.690294,-0.227651,0.6737455,0.8784649999999999,-0.26646,1.3133854999999999,0.904095,-0.29471,0.9225425,-0.005995,0.00843,1.0774575,0.0059949999999999,-0.0084299999999999,0.8336655,0.1607849999999999,-0.2561799999999999,1.1254955,0.1625449999999999,-0.29089,0.9045435,-0.114225,-0.1195339999999999,1.0893855000000001,-0.130825,-0.1377999999999999
159,0.999846,0.655732,-0.096924,0.845155,0.4750949999999999,-0.098646,0.7058249999999999,0.666526,-0.189959,1.150835,0.4817849999999999,-0.113126,1.258635,0.690294,-0.227656,0.673645,0.8784649999999999,-0.266115,1.312905,0.904095,-0.294865,0.922542,-0.005995,0.0084249999999999,1.077458,0.0059949999999999,-0.008425,0.833145,0.1608249999999999,-0.256155,1.126115,0.1628449999999999,-0.290925,0.904543,-0.114225,-0.119539,1.089415,-0.130615,-0.137433
160,0.999819,0.655732,-0.097073,0.844966,0.4754949999999999,-0.0987,0.705716,0.666526,-0.189898,1.150736,0.4817849999999999,-0.11327,1.258586,0.690294,-0.227804,0.673536,0.8784649999999999,-0.265835,1.312316,0.904775,-0.295005,0.9225510000000001,-0.005995,0.008575,1.0774489999999999,0.0059949999999999,-0.008575,0.832576,0.1610049999999999,-0.256265,1.126746,0.1632849999999999,-0.291115,0.9044540000000001,-0.114775,-0.119684,1.089416,-0.130435,-0.137335
161,0.9997915,0.655489,-0.097548,0.8449895000000001,0.4760949999999999,-0.0991789999999999,0.7056295,0.666688,-0.1903699999999999,1.1504694999999998,0.4814449999999999,-0.1138299999999999,1.2584495,0.689411,-0.228273,0.6734895000000001,0.877385,-0.2658549999999999,1.3117495,0.905005,-0.295595,0.9225505,-0.005725,0.008875,1.0774495,0.0057249999999999,-0.0088749999999999,0.8318795,0.1601849999999999,-0.2567049999999999,1.1273595,0.1626849999999999,-0.291625,0.9043435,-0.116415,-0.1201549999999999,1.0894695,-0.131365,-0.137589
162,0.999868,0.655829,-0.098315,0.84519,0.476525,-0.099953,0.7055899999999999,0.667434,-0.191211,1.14999,0.481215,-0.11486,1.25827,0.688071,-0.229126,0.6737,0.879095,-0.26602,1.31132,0.904715,-0.29672,0.9226610000000001,-0.0054149999999999,0.0092099999999999,1.0773389999999998,0.005415,-0.00921,0.83128,0.158025,-0.25758,1.12764,0.160565,-0.29252,0.903977,-0.1194349999999999,-0.121304,1.08973,-0.1336349999999999,-0.138219
163,0.999774,0.6581130000000001,-0.0991769999999999,0.845399,0.4766,-0.1007669999999999,0.705769,0.6690360000000001,-0.1918139999999999,1.149399,0.48146,-0.1161609999999999,1.257679,0.686604,-0.2296869999999999,0.673869,0.88092,-0.26608,1.3103989999999999,0.90691,-0.2974599999999999,0.9228689999999999,-0.0050099999999999,0.00954,1.077131,0.00501,-0.0095399999999999,0.8306290000000001,0.15443,-0.25915,1.127769,0.15689,-0.2941,0.9033770000000001,-0.1240399999999999,-0.1227319999999999,1.089979,-0.1374699999999999,-0.139007
164,0.9996750000000001,0.659413,-0.100584,0.845202,0.477445,-0.102084,0.705642,0.6709280000000001,-0.193335,1.148382,0.481665,-0.11794,1.257052,0.6876850000000001,-0.230872,0.6738919999999999,0.8842450000000001,-0.26648,1.309482,0.908755,-0.29903,0.922816,-0.0044949999999999,0.0099499999999999,1.077184,0.004495,-0.00995,0.829952,0.148135,-0.26128,1.127852,0.150485,-0.29649,0.902534,-0.131235,-0.125019,1.090192,-0.143775,-0.140171
165,0.9996735,0.6615420000000001,-0.103186,0.8451705,0.477631,-0.104686,0.7056605,0.672517,-0.196003,1.1474405,0.480422,-0.121098,1.2562305,0.68715,-0.233219,0.6740605,0.8867800000000001,-0.26791,1.3087305,0.91093,-0.30191,0.9228525,-0.0036299999999999,0.0105,1.0771475,0.00363,-0.0105,0.8294205,0.13921,-0.2649,1.1280705,0.1413,-0.30024,0.9018455,-0.1412599999999999,-0.128624,1.0905405,-0.15286,-0.14255
166,0.9996515000000001,0.663915,-0.105913,0.8451385000000001,0.47779,-0.107659,0.7056085000000001,0.674465,-0.198841,1.1463884999999998,0.479136,-0.1245189999999999,1.2554085,0.687405,-0.235833,0.6740685,0.890325,-0.26932,1.3078785,0.914405,-0.3051899999999999,0.9228605,-0.0028549999999999,0.01064,1.0771395,0.002855,-0.01064,0.8288785000000001,0.128935,-0.26914,1.1279885,0.131035,-0.30339,0.9012035,-0.152525,-0.1326709999999999,1.0909485,-0.1633449999999999,-0.145205
167,0.9995130000000001,0.66364,-0.1085759999999999,0.845121,0.477188,-0.110791,0.705631,0.67347,-0.2015199999999999,1.145261,0.478219,-0.128045,1.254341,0.68603,-0.238195,0.674091,0.88957,-0.270885,1.307131,0.91642,-0.307845,0.922871,-0.00197,0.010805,1.077129,0.00197,-0.0108049999999999,0.828381,0.11207,-0.2740749999999999,1.127951,0.11412,-0.306145,0.90062,-0.1702899999999999,-0.136867,1.091431,-0.1805,-0.147915
168,0.9991635,0.66538,-0.111533,0.8452495,0.4754579999999999,-0.1142929999999999,0.7055495,0.6741699999999999,-0.2045,1.1441695,0.477201,-0.131925,1.2532895,0.6859599999999999,-0.240884,0.6739995,0.8893,-0.27276,1.3059195,0.91788,-0.31086,0.9228425,-0.00133,0.01036,1.0771575,0.0013299999999999,-0.0103599999999999,0.8279495,0.0944499999999999,-0.27934,1.1274895,0.0964599999999999,-0.30912,0.9000705,-0.18883,-0.141448,1.0918895,-0.19854,-0.150942
169,0.9993015000000001,0.66778,-0.113924,0.8460705,0.47386,-0.1172179999999999,0.7060605000000001,0.67534,-0.206902,1.1438005,0.477341,-0.135076,1.2527305,0.68616,-0.2429879999999999,0.6745305000000001,0.8901600000000001,-0.27413,1.3054005,0.91814,-0.3132,0.9227095,-0.0008,0.0096799999999999,1.0772905,0.0008,-0.0096799999999999,0.8283005,0.0728099999999999,-0.28383,1.1272405,0.0738,-0.3115099999999999,0.9001625,-0.21216,-0.145643,1.0930304999999998,-0.22146,-0.15334
170,0.9997935,0.67008,-0.115577,0.8469395,0.472761,-0.119334,0.7068795,0.67473,-0.208632,1.1437594999999998,0.477981,-0.137096,1.2524395,0.68557,-0.244341,0.6752495000000001,0.8893500000000001,-0.27459,1.3051395000000001,0.92006,-0.31484,0.9223885000000001,-0.00023,0.0088899999999999,1.0776115,0.00023,-0.00889,0.8291195,0.0499899999999999,-0.28731,1.1270095,0.04909,-0.3133,0.9005145,-0.23775,-0.149436,1.0943895,-0.24678,-0.155159
171,1.000405,0.6721900000000001,-0.1163839999999999,0.848007,0.473444,-0.1207999999999999,0.7078070000000001,0.67536,-0.2097549999999999,1.144087,0.478577,-0.13828,1.252377,0.68841,-0.2448769999999999,0.676097,0.88947,-0.27426,1.304937,0.92491,-0.31571,0.9221820000000001,0.00029,0.00822,1.077818,-0.00029,-0.0082199999999999,0.830187,0.02698,-0.28933,1.126757,0.02401,-0.3143,0.901347,-0.26439,-0.152001,1.095837,-0.27315,-0.156409
172,1.0013774999999998,0.673085,-0.116384,0.8494285,0.47417,-0.121717,0.7090585,0.675655,-0.21013,1.1443385,0.478223,-0.139023,1.2528584999999999,0.690385,-0.245009,0.6771585,0.890145,-0.273305,1.3055885,0.925135,-0.316145,0.9218615,0.000875,0.0075049999999999,1.0781385,-0.000875,-0.007505,0.8314985,0.0033549999999999,-0.290145,1.1265985,-0.001695,-0.314545,0.9024905,-0.2923249999999999,-0.15393,1.0974585,-0.300705,-0.157234
173,1.002228,0.67555,-0.1154129999999999,0.850741,0.475069,-0.1220129999999999,0.710241,0.67645,-0.2093989999999999,1.145451,0.477904,-0.139307,1.2536209999999999,0.69004,-0.2442079999999999,0.678361,0.89039,-0.270935,1.3063310000000001,0.92356,-0.315485,0.921685,0.00134,0.007305,1.078315,-0.00134,-0.0073049999999999,0.833061,-0.0195099999999999,-0.290455,1.126261,-0.02648,-0.3137649999999999,0.903712,-0.3207099999999999,-0.154994,1.098991,-0.3286799999999999,-0.157545
174,1.0028074999999999,0.677895,-0.113635,0.8515175,0.475975,-0.122051,0.7113075,0.677565,-0.208114,1.1460675,0.479485,-0.139027,1.2541974999999999,0.691995,-0.242987,0.6792675,0.891425,-0.2677,1.3067475,0.926315,-0.3127,0.9216145,0.001375,0.0073099999999999,1.0783855,-0.0013749999999999,-0.00731,0.8342775,-0.0415549999999999,-0.29052,1.1259175,-0.0501049999999999,-0.3124,0.9045925,-0.348905,-0.155731,1.1002375,-0.3562349999999999,-0.157714
175,1.003497,0.680035,-0.11127,0.852374,0.478045,-0.121977,0.712404,0.679145,-0.206543,1.146704,0.480935,-0.138695,1.2546439999999999,0.692375,-0.241931,0.6804140000000001,0.890555,-0.2642299999999999,1.307104,0.926925,-0.31009,0.921682,0.001535,0.0071799999999999,1.0783179999999999,-0.001535,-0.0071799999999999,0.835734,-0.0644849999999999,-0.2904299999999999,1.125894,-0.0745349999999999,-0.3097,0.9051760000000001,-0.378535,-0.157153,1.101524,-0.385535,-0.157685
176,1.004358,0.68423,-0.107928,0.853112,0.48083,-0.121101,0.713402,0.6825399999999999,-0.204133,1.147222,0.4849099999999999,-0.136924,1.255312,0.6967099999999999,-0.239726,0.6815720000000001,0.8928,-0.259905,1.307392,0.9278,-0.306515,0.921773,0.0013299999999999,0.0065649999999999,1.078227,-0.0013299999999999,-0.006565,0.837322,-0.08301,-0.288735,1.125842,-0.0944,-0.305935,0.905584,-0.40417,-0.158246,1.102762,-0.41075,-0.157184
177,1.005343,0.688235,-0.102973,0.853692,0.484475,-0.118783,0.714392,0.686185,-0.200289,1.147692,0.488295,-0.133633,1.255982,0.698585,-0.2356639999999999,0.682782,0.896615,-0.253635,1.308622,0.927485,-0.3012249999999999,0.922054,0.001325,0.005535,1.077946,-0.0013249999999999,-0.0055349999999999,0.838632,-0.1014149999999999,-0.285885,1.126082,-0.1129749999999999,-0.300765,0.90554,-0.429875,-0.158339,1.103962,-0.4355949999999999,-0.155948
178,1.0059775,0.69238,-0.096865,0.8537735000000001,0.48677,-0.11518,0.7148034999999999,0.6888700000000001,-0.195645,1.1477035,0.49007,-0.129235,1.2567035,0.69925,-0.230343,0.6835035,0.89737,-0.246108,1.3093535,0.92653,-0.29517,0.9224114999999999,0.00123,0.0047799999999999,1.0775885,-0.0012299999999999,-0.00478,0.8396935,-0.1173299999999999,-0.28139,1.1259635000000001,-0.12805,-0.29459,0.9050095,-0.45233,-0.157151,1.1046634999999998,-0.4570499999999999,-0.153871
179,1.0067385,0.696555,-0.090288,0.8545754999999999,0.491995,-0.111664,0.7152555,0.6938150000000001,-0.190473,1.1479555,0.492405,-0.124475,1.2572755,0.704785,-0.223953,0.6844455,0.8993550000000001,-0.238152,1.3103455,0.924435,-0.288015,0.9224575,0.001125,0.003945,1.0775425,-0.0011249999999999,-0.003945,0.8414055,-0.1324249999999999,-0.274925,1.1260055,-0.141065,-0.288285,0.9046895,-0.4731049999999999,-0.155852,1.1056255,-0.4760849999999999,-0.15179
180,1.007285,0.70129,-0.083329,0.855153,0.49515,-0.107577,0.715943,0.69713,-0.184579,1.148233,0.49499,-0.119226,1.258013,0.70657,-0.217039,0.6848730000000001,0.90239,-0.229645,1.311153,0.92637,-0.280075,0.922473,0.0011099999999999,0.0036349999999999,1.077527,-0.0011099999999999,-0.0036349999999999,0.842893,-0.1468,-0.267475,1.125783,-0.15328,-0.281275,0.903871,-0.49265,-0.154014,1.106453,-0.49402,-0.149495
181,1.0074865,0.705525,-0.0767069999999999,0.8549855,0.499785,-0.1034219999999999,0.7157655,0.7011649999999999,-0.1789059999999999,1.1485254999999999,0.497885,-0.1142489999999999,1.2583455,0.710465,-0.2103149999999999,0.6849455000000001,0.905745,-0.221076,1.3117755,0.928215,-0.272485,0.9224625,0.0008849999999999,0.003455,1.0775375,-0.0008849999999999,-0.0034549999999999,0.8444955000000001,-0.160185,-0.259715,1.1251255,-0.164535,-0.2741249999999999,0.9027655,-0.5108050000000001,-0.1521379999999999,1.1070255,-0.510895,-0.148193
182,1.0074619999999999,0.70977,-0.069848,0.854486,0.50204,-0.098881,0.715376,0.70362,-0.172791,1.148566,0.5004200000000001,-0.109016,1.258436,0.7133,-0.203774,0.6846760000000001,0.90799,-0.212689,1.312876,0.93508,-0.263565,0.922729,0.00082,0.003335,1.077271,-0.0008199999999999,-0.003335,0.8462959999999999,-0.1737599999999999,-0.250705,1.1240759999999999,-0.17641,-0.265745,0.901406,-0.52838,-0.150067,1.1073659999999999,-0.5272,-0.145867
183,1.0072895,0.7140150000000001,-0.063356,0.8538765,0.504065,-0.0943949999999999,0.7148565,0.706395,-0.167051,1.1486265,0.503825,-0.1039399999999999,1.2584165,0.716575,-0.197428,0.6841865,0.911255,-0.2049419999999999,1.3135465,0.938245,-0.256335,0.9231115,0.000625,0.003055,1.0768885,-0.0006249999999999,-0.003055,0.8482864999999999,-0.186375,-0.2417349999999999,1.1227965,-0.1871749999999999,-0.257245,0.8997965,-0.5442549999999999,-0.148168,1.1076565,-0.541915,-0.14332
184,1.0066915,0.71864,-0.056963,0.8519795,0.50972,-0.089309,0.7139694999999999,0.7093100000000001,-0.161401,1.1484195,0.50812,-0.098776,1.2579295,0.7198200000000001,-0.1908099999999999,0.6833395,0.91384,-0.197257,1.3136995,0.94128,-0.249025,0.9236725000000001,0.00041,0.003005,1.0763274999999999,-0.0004099999999999,-0.0030049999999999,0.8503895,-0.1982899999999999,-0.231395,1.1208495,-0.1977499999999999,-0.247925,0.8981295,-0.5589500000000001,-0.145177,1.1075395,-0.55549,-0.139879
185,1.005773,0.72409,-0.05113,0.849975,0.51414,-0.084951,0.712995,0.71309,-0.156494,1.148035,0.51147,-0.094818,1.257135,0.7214900000000001,-0.184832,0.6822450000000001,0.91673,-0.190447,1.313645,0.9445,-0.24224,0.924202,0.0003,0.0028299999999999,1.075798,-0.0002999999999999,-0.0028299999999999,0.852005,-0.2083099999999999,-0.222079,1.118325,-0.2072699999999999,-0.23803,0.895475,-0.5714199999999999,-0.141911,1.1071449999999998,-0.56821,-0.1364
186,1.0043225,0.728034,-0.045601,0.8482625,0.517694,-0.081119,0.7116724999999999,0.715214,-0.151754,1.1468525,0.514844,-0.091016,1.2559924999999998,0.724224,-0.179045,0.6808325,0.920024,-0.184489,1.3125624999999999,0.948614,-0.235505,0.9247164999999999,0.0002419999999999,0.002585,1.0752835,-0.000242,-0.002585,0.8531925,-0.218206,-0.212039,1.1152324999999998,-0.217706,-0.227035,0.8927525000000001,-0.583406,-0.138018,1.1059525,-0.580886,-0.132599
187,1.0032015,0.7334040000000001,-0.0411,0.8462575,0.521524,-0.077967,0.7108775,0.718264,-0.147965,1.1466574999999999,0.520664,-0.087972,1.2553174999999999,0.729714,-0.175972,0.6800375000000001,0.925204,-0.179609,1.3119774999999998,0.954584,-0.230155,0.9250695,0.0001379999999999,0.002475,1.0749305,-0.0001379999999999,-0.002475,0.8546775,-0.231076,-0.202652,1.1125475,-0.2316559999999999,-0.216395,0.8919575,-0.596096,-0.134938,1.1051575,-0.5944659999999999,-0.129519
188,1.00219,0.738775,-0.0373659999999999,0.844438,0.522365,-0.075235,0.710048,0.7204349999999999,-0.144649,1.146018,0.525045,-0.085092,1.254588,0.7320249999999999,-0.173087,0.679378,0.930895,-0.175568,1.311348,0.960625,-0.22549,0.925489,1.000000000001e-06,0.0024399999999999,1.074511,-1.000000000001e-06,-0.0024399999999999,0.856268,-0.2430649999999999,-0.193398,1.109878,-0.245195,-0.204642,0.891228,-0.607715,-0.132053,1.104428,-0.6080650000000001,-0.126634
189,1.001439,0.743147,-0.030169,0.842665,0.5243869999999999,-0.069062,0.709625,0.7206670000000001,-0.138258,1.1458949999999999,0.529787,-0.078933,1.254245,0.732827,-0.166701,0.6790050000000001,0.932077,-0.168448,1.311085,0.958097,-0.2178399999999999,0.925974,-0.00017,0.002,1.074026,0.0001699999999999,-0.002,0.8585849999999999,-0.257263,-0.178655,1.107365,-0.260393,-0.188186,0.8909549999999999,-0.621313,-0.123932,1.104055,-0.623283,-0.117994
190,1.0007795,0.7409555,-0.018655,0.8407225,0.5224855,-0.058372,0.7093725,0.7147555,-0.127271,1.1460725,0.5309755,-0.068206,1.2547325,0.7323755000000001,-0.155832,0.6787525,0.9261155,-0.157461,1.3109325,0.9539255,-0.205653,0.9262895,-0.0001904999999999,0.0014559999999999,1.0737105,0.0001904999999999,-0.0014559999999999,0.8643725000000001,-0.2771245,-0.156339,1.1046325,-0.2800645,-0.165432,0.8911825,-0.6408545,-0.109078,1.1038625,-0.6431445,-0.104252
191,1.000189,0.7390235,-0.0081125,0.838896,0.5223735,-0.0483115,0.709506,0.7104635,-0.1171255,1.146536,0.5325835,-0.0583995,1.255206,0.7326335,-0.1462485,0.678636,0.9205035,-0.1472925,1.310776,0.9470235,-0.1954895,0.926404,-0.0003655,0.0008944999999999,1.073596,0.0003654999999999,-0.0008945,0.869876,-0.2939965,-0.1355335,1.1021759999999998,-0.2964565,-0.1441035,0.891596,-0.6576465,-0.0949735,1.103666,-0.6600165,-0.0907905
192,0.9996755,0.7371495,0.0019134999999999,0.8373325,0.5232295,-0.0384744999999999,0.7096425,0.7067195,-0.1072375,1.1470125,0.5329095,-0.0488384999999999,1.2555825,0.7321695,-0.1369075,0.6790525000000001,0.9142695,-0.1373905,1.3107025,0.9391395,-0.1855575,0.9264705,-0.0003325,0.0003024999999999,1.0735295,0.0003324999999999,-0.0003024999999999,0.8756225,-0.3099705,-0.1148865,1.0998125,-0.3119305,-0.1223785,0.8925125,-0.6735705,-0.0803975,1.1033125,-0.6763205,-0.0766604999999999
193,0.9992465000000001,0.7351205000000001,0.011355,0.8363405000000002,0.5192805,-0.029456,0.7100705,0.7023805000000001,-0.098226,1.1476505,0.5324305,-0.039873,1.2560505,0.7327105,-0.12867,0.6799605,0.9116205,-0.128044,1.3108605,0.9323305,-0.176167,0.9265545,-0.0003785,-0.000283,1.0734455,0.0003785,0.000283,0.8814605000000001,-0.3237695,-0.095277,1.0977915,-0.3260295,-0.101582,0.8937705,-0.6869595,-0.066355,1.1030805,-0.6906995,-0.062157
194,0.9989150000000001,0.7329454999999999,0.0208679999999999,0.8362080000000001,0.5167355,-0.020356,0.7106380000000001,0.6988955,-0.089519,1.148098,0.5299855,-0.030747,1.256558,0.7327855,-0.120029,0.681168,0.9083255,-0.118916,1.310668,0.9267255,-0.16686,0.926597,-0.0002684999999999,-0.000826,1.0734029999999999,0.0002685,0.000826,0.887568,-0.3374145,-0.075221,1.096053,-0.3395245,-0.08106,0.8952180000000001,-0.6993845000000001,-0.051877,1.102968,-0.7044645,-0.047963
195,0.9986685,0.7304955000000001,0.0301919999999999,0.8361195,0.5149555,-0.01153,0.7108194999999999,0.6952155,-0.081051,1.1484495,0.5279655,-0.022015,1.2567694999999999,0.7331755,-0.111559,0.6823494999999999,0.9019055,-0.110309,1.3102095,0.9218155,-0.157335,0.9266285,-0.0001965,-0.001243,1.0733715,0.0001964999999999,0.0012429999999999,0.8936495,-0.3500445,-0.055628,1.0943384999999999,-0.3522944999999999,-0.061237,0.8968295,-0.7105745,-0.037217,1.1029195,-0.7173145,-0.034022
196,0.9985480000000001,0.726,0.039672,0.836177,0.51353,-0.003082,0.711287,0.69132,-0.072461,1.148637,0.52451,-0.0131,1.257017,0.73238,-0.103165,0.683697,0.89549,-0.1019529999999999,1.309817,0.91714,-0.147705,0.926663,-0.00011,-0.001638,1.073337,0.0001099999999999,0.001638,0.899628,-0.36315,-0.036191,1.09288,-0.36523,-0.04203,0.898407,-0.72201,-0.02284,1.102827,-0.73015,-0.020426
