sb224sc-HT22-VT27/4dt907/src/data/kinect_good_preprocessed_A9_mediapipe/A104_kinect.csv
FrameNo,nose_3d_x,nose_3d_y,nose_3d_z,left_shoulder_3d_x,left_shoulder_3d_y,left_shoulder_3d_z,left_elbow_3d_x,left_elbow_3d_y,left_elbow_3d_z,right_shoulder_3d_x,right_shoulder_3d_y,right_shoulder_3d_z,right_elbow_3d_x,right_elbow_3d_y,right_elbow_3d_z,left_wrist_3d_x,left_wrist_3d_y,left_wrist_3d_z,right_wrist_3d_x,right_wrist_3d_y,right_wrist_3d_z,left_hip_3d_x,left_hip_3d_y,left_hip_3d_z,right_hip_3d_x,right_hip_3d_y,right_hip_3d_z,left_knee_3d_x,left_knee_3d_y,left_knee_3d_z,right_knee_3d_x,right_knee_3d_y,right_knee_3d_z,left_ankle_3d_x,left_ankle_3d_y,left_ankle_3d_z,right_ankle_3d_x,right_ankle_3d_y,right_ankle_3d_z
2,-0.005801500000000002,0.7808309999999999,0.11271800000000001,-0.1745585,0.5816209999999999,0.086507,-0.2488585,0.852331,0.009124,0.1737915,0.573751,0.11022299999999999,0.27997150000000004,0.821831,0.060852,-0.2451085,1.1562910000000002,-0.045651000000000004,0.30877150000000003,1.062591,-0.017344,-0.07862949999999999,0.002985,-0.00011200000000000099,0.07862949999999999,-0.002985,0.00011200000000000099,-0.1281485,-0.43800900000000004,-0.01373,0.1238415,-0.528329,0.036305,-0.1320585,-0.855739,0.009366,0.1333615,-0.855629,-0.0019360000000000002
3,-0.0048895000000000015,0.7782375,0.11569,-0.1740505,0.5813375000000001,0.08824399999999999,-0.2482305,0.8522875000000001,0.011228999999999996,0.1744095,0.5730075,0.11183399999999999,0.2807495,0.8216875,0.063549,-0.2442305,1.1564975,-0.042365,0.3098695,1.0619975000000001,-0.013719000000000002,-0.0786245,0.0031094999999999994,-0.0002750000000000044,0.0786245,-0.0031094999999999994,0.00027499999999999747,-0.1286205,-0.4378225,-0.015168000000000008,0.1233495,-0.5286025,0.034685999999999995,-0.1329605,-0.8549325,0.007181999999999994,0.1327695,-0.8557925,-0.0044400000000000064
4,-0.004794499999999998,0.7791454999999999,0.115714,-0.1741885,0.5813955,0.088225,-0.2484685,0.8520255,0.010129000000000003,0.1743315,0.5728555,0.111572,0.28077149999999995,0.8222254999999999,0.0632,-0.2444385,1.1563455,-0.042747999999999994,0.30995150000000005,1.0622455000000002,-0.013635999999999995,-0.0786255,0.0030924999999999998,-0.0003549999999999942,0.0786255,-0.0030925000000000015,0.00035500000000000115,-0.1288585,-0.43845449999999997,-0.014758999999999994,0.1206615,-0.5190045,0.035203000000000005,-0.1327885,-0.8545545,0.007608000000000004,0.1385515,-0.9126345,0.0031820000000000043
5,-0.004458499999999997,0.7797595,0.1148435,-0.1744055,0.5816595,0.08806149999999999,-0.24858550000000001,0.8517695000000001,0.009455499999999995,0.1743345,0.5731795000000001,0.11141649999999999,0.2806945,0.8227595,0.0635365,-0.2448455,1.1559995,-0.0438665,0.3099745,1.0624995,-0.013436500000000004,-0.0786545,0.003105499999999999,-0.0005505000000000024,0.0786545,-0.0031055000000000006,0.0005504999999999954,-0.1283555,-0.4449305,-0.013841500000000007,0.1216945,-0.5243005,0.0363055,-0.1325055,-0.8530605,0.008640499999999995,0.13872450000000003,-0.9102005,0.004687499999999997
6,-0.004365500000000004,0.7782365,0.1152155,-0.1743375,0.5819265,0.08844850000000001,-0.2490775,0.8522465,0.008392500000000004,0.1743825,0.5733064999999999,0.11110350000000001,0.2812725,0.8318365,0.060056500000000006,-0.2453775,1.1564065000000001,-0.04585249999999999,0.3099725,1.0631065000000002,-0.013352499999999996,-0.0786875,0.0029055,-0.000837499999999998,0.0786875,-0.0029054999999999984,0.0008375000000000049,-0.1285075,-0.4481035,-0.012912499999999993,0.1227925,-0.5284135,0.035515500000000005,-0.1332775,-0.8497635,0.009073500000000005,0.1389925,-0.9096935,0.005670500000000002
7,-0.004366999999999998,0.77873,0.1145985,-0.174279,0.58154,0.08788750000000001,-0.24920899999999999,0.85224,0.007571499999999998,0.174321,0.57305,0.1108135,0.28081100000000003,0.83155,0.060935500000000004,-0.24539899999999998,1.1563,-0.04724250000000001,0.309981,1.0635000000000001,-0.013693499999999997,-0.078659,0.0028529999999999996,-0.0008685000000000012,0.078659,-0.0028530000000000014,0.0008685000000000012,-0.128249,-0.45135000000000003,-0.011903499999999997,0.12402100000000002,-0.5268,0.0354335,-0.132679,-0.84789,0.010482499999999999,0.13839100000000001,-0.90735,0.0063765
8,-0.004294999999999994,0.7786879999999999,0.114713,-0.174267,0.581518,0.087981,-0.249357,0.8522879999999999,0.007040999999999999,0.174323,0.573058,0.110776,0.280813,0.831438,0.060784000000000005,-0.24554700000000002,1.1563080000000001,-0.04797799999999999,0.309973,1.063608,-0.013427999999999995,-0.078667,0.002801999999999999,-0.001004999999999999,0.078667,-0.002801999999999999,0.001004999999999999,-0.128357,-0.45124200000000003,-0.011684,0.123953,-0.527792,0.035321,-0.13261699999999998,-0.847902,0.011094000000000003,0.138133,-0.908432,0.006318999999999998
9,-0.004307499999999998,0.7786879999999999,0.114844,-0.1742845,0.581518,0.088146,-0.24951449999999997,0.8522879999999999,0.006557999999999994,0.1743155,0.573058,0.110732,0.2808155,0.831438,0.060682,-0.2457045,1.1563080000000001,-0.048684000000000005,0.3099555,1.063608,-0.013198000000000001,-0.0786815,0.002801999999999999,-0.0011070000000000038,0.0786815,-0.002801999999999999,0.0011069999999999969,-0.12839450000000002,-0.45208200000000004,-0.011396000000000003,0.12395550000000001,-0.5278320000000001,0.035338999999999995,-0.13257449999999998,-0.847902,0.011798999999999997,0.1381255,-0.909872,0.006134999999999995
10,-0.004321000000000004,0.7786879999999999,0.114998,-0.17430400000000001,0.581518,0.08832,-0.249654,0.8522879999999999,0.006020999999999999,0.17431599999999997,0.573058,0.11068599999999999,0.280806,0.831438,0.060656999999999996,-0.245844,1.1563080000000001,-0.049399,0.309946,1.063608,-0.012989,-0.078697,0.002801999999999999,-0.0011960000000000026,0.078697,-0.002801999999999999,0.0011959999999999957,-0.12842399999999998,-0.452212,-0.011188000000000003,0.12408599999999999,-0.527862,0.035363,-0.13258399999999998,-0.847902,0.012357999999999997,0.138326,-0.909872,0.006742999999999999
11,-0.004326499999999997,0.7787879999999999,0.11498499999999999,-0.1743555,0.581518,0.08838599999999999,-0.2497855,0.8522879999999999,0.005597999999999992,0.1742745,0.573058,0.110618,0.2807345,0.831668,0.060795999999999996,-0.2459855,1.1563080000000001,-0.05000500000000001,0.3099345,1.063808,-0.012913000000000008,-0.0787105,0.002801999999999999,-0.0012540000000000051,0.0787105,-0.002801999999999999,0.0012539999999999982,-0.12835549999999998,-0.454122,-0.010903000000000003,0.12422450000000002,-0.527532,0.035375,-0.1324955,-0.847492,0.013071999999999997,0.1385245,-0.909872,0.007276999999999992
12,-0.004320999999999996,0.7787375,0.1149,-0.174395,0.5814675,0.08842,-0.250005,0.8523975,0.005087000000000001,0.174185,0.5731175,0.110505,0.280565,0.8317074999999999,0.060841000000000006,-0.246245,1.1563475,-0.050675,0.309945,1.0642475,-0.012891999999999994,-0.078729,0.0027405,-0.0013079999999999967,0.078729,-0.0027405,0.0013080000000000036,-0.128315,-0.45639250000000003,-0.010634999999999999,0.124475,-0.5277925,0.035433000000000006,-0.132435,-0.8468325,0.013820000000000002,0.138615,-0.9095625,0.007670000000000003
13,-0.004338999999999996,0.7786529999999999,0.11484849999999999,-0.174406,0.5813929999999999,0.0884775,-0.250196,0.852553,0.0047045,0.174094,0.5731729999999999,0.1103855,0.28038399999999997,0.8315629999999999,0.0609305,-0.24648599999999998,1.156463,-0.051140500000000005,0.30995399999999995,1.0644630000000002,-0.012853500000000004,-0.078747,0.002690999999999999,-0.0013705000000000037,0.078747,-0.0026910000000000007,0.0013704999999999967,-0.12831599999999999,-0.458657,-0.010377500000000005,0.124754,-0.5281170000000001,0.0355555,-0.132416,-0.8465670000000001,0.014394499999999998,0.138704,-0.9097270000000001,0.007960499999999995
14,-0.004341499999999998,0.778768,0.1147975,-0.1744115,0.581298,0.0885325,-0.25038150000000003,0.852678,0.004375500000000004,0.1740085,0.573238,0.1102405,0.28020849999999997,0.831298,0.0610045,-0.2467115,1.156548,-0.0516735,0.30997850000000005,1.064648,-0.012781500000000001,-0.0787635,0.002661,-0.001398499999999997,0.0787635,-0.002661,0.001398500000000004,-0.1283615,-0.458972,-0.010180500000000002,0.12494849999999999,-0.528062,0.0356765,-0.1324415,-0.846182,0.014974500000000002,0.1387685,-0.909612,0.008514500000000001
15,-0.0043179999999999955,0.7789365,0.114761,-0.174403,0.5812365,0.088581,-0.25054299999999996,0.8527865,0.004115000000000001,0.173927,0.5733365,0.11007499999999999,0.28006699999999995,0.8310365000000001,0.061014,-0.24693299999999999,1.1565465000000001,-0.052082,0.310037,1.0646465,-0.012699000000000002,-0.078778,0.0026385000000000002,-0.0014120000000000035,0.078778,-0.0026385000000000002,0.0014119999999999966,-0.128433,-0.4592235,-0.010105000000000003,0.125037,-0.5280134999999999,0.035803999999999996,-0.132473,-0.8457834999999999,0.015451999999999997,0.13872700000000002,-0.9095934999999999,0.009029999999999996
16,-0.004304500000000003,0.7790130000000001,0.114761,-0.1744375,0.581183,0.0886,-0.2506875,0.852843,0.0039039999999999977,0.1738725,0.5734330000000001,0.10993599999999999,0.2799225,0.8307530000000001,0.06103,-0.24713749999999998,1.156643,-0.05246000000000001,0.3101325,1.064543,-0.012555000000000004,-0.07879649999999999,0.002619999999999999,-0.0014170000000000016,0.07879649999999999,-0.002620000000000001,0.0014169999999999947,-0.1283975,-0.459147,-0.010113000000000004,0.12511250000000002,-0.5279769999999999,0.035907999999999995,-0.1324575,-0.845317,0.015909999999999997,0.13871250000000002,-0.909577,0.009167999999999996
17,-0.004288499999999998,0.7792795,0.11476399999999999,-0.1744665,0.5811595,0.08860499999999999,-0.2507965,0.8528695000000001,0.0036829999999999988,0.1738335,0.5735295,0.109803,0.27980350000000004,0.8303795,0.06103599999999999,-0.2473065,1.1566395,-0.05282100000000001,0.31027350000000004,1.0643395,-0.012422000000000002,-0.0788095,0.0026225,-0.0014200000000000046,0.0788095,-0.0026225,0.0014199999999999977,-0.1283665,-0.45916049999999997,-0.010337000000000006,0.1251335,-0.5279604999999999,0.036035,-0.1324565,-0.8445905,0.016350999999999997,0.1390335,-0.9101505,0.009309999999999999
18,-0.0042715,0.779543,0.114762,-0.17448249999999998,0.581153,0.088599,-0.2509125,0.852873,0.003467999999999999,0.1737875,0.573643,0.109661,0.27968750000000003,0.830043,0.061029,-0.2474525,1.156543,-0.053217,0.3105075,1.064143,-0.012297000000000002,-0.07881250000000001,0.002633999999999999,-0.0014460000000000028,0.07881250000000001,-0.002634000000000001,0.001445999999999996,-0.1283425,-0.459227,-0.010561000000000001,0.12511750000000002,-0.527957,0.036192,-0.1324225,-0.843487,0.016624,0.1390375,-0.910487,0.009037999999999997
19,-0.004264000000000002,0.7798865,0.1148035,-0.17452099999999998,0.5812065000000001,0.0885245,-0.251011,0.8528865,0.0032555000000000014,0.173749,0.5737965,0.1095275,0.279599,0.8296165000000001,0.0610265,-0.247531,1.1565765,-0.0535725,0.310799,1.0638765,-0.012145499999999997,-0.078814,0.0026575,-0.0014725000000000016,0.078814,-0.0026575,0.0014725000000000016,-0.12845099999999998,-0.45775350000000004,-0.010847499999999996,0.12511899999999998,-0.5279834999999999,0.0362245,-0.132351,-0.8438034999999999,0.0167215,0.139169,-0.9111834999999999,0.0091385
20,-0.004236499999999997,0.7801985,0.11482300000000001,-0.1745635,0.5812685000000001,0.088394,-0.2510835,0.8528285,0.003027000000000002,0.1737165,0.5739385,0.10939,0.27956650000000005,0.8292185000000001,0.060999000000000005,-0.2475935,1.1564984999999999,-0.05399999999999999,0.3111065,1.0635985,-0.012018999999999995,-0.07881350000000001,0.0026625,-0.0015069999999999945,0.07881350000000001,-0.0026625000000000017,0.0015070000000000014,-0.1285335,-0.45842150000000004,-0.010927,0.1250165,-0.5280014999999999,0.036258000000000006,-0.13227350000000002,-0.8437914999999999,0.016790000000000003,0.1393865,-0.9114614999999999,0.009509000000000004
21,-0.0042095,0.7804415,0.1148685,-0.1746065,0.5813015,0.08830550000000001,-0.2510865,0.8528115,0.0029124999999999984,0.1737235,0.5739415,0.1093435,0.2795635,0.8291115,0.0610635,-0.2475765,1.1564815,-0.0542995,0.3114735,1.0635815,-0.011890499999999998,-0.07881250000000001,0.0026455000000000003,-0.0015475000000000003,0.07881250000000001,-0.0026455000000000003,0.0015475000000000003,-0.1285965,-0.4594885,-0.0108655,0.1249335,-0.5279785,0.036379499999999995,-0.1322565,-0.8434685,0.0168555,0.13940349999999999,-0.9114785,0.0099465
22,-0.004185499999999998,0.7805515,0.114895,-0.17462149999999999,0.5813515,0.088143,-0.2510715,0.8528115,0.0027449999999999974,0.1737185,0.5739615,0.109302,0.27955850000000004,0.8290415,0.061089,-0.24755149999999998,1.1564815,-0.054744,0.3119285,1.0634815,-0.011714000000000002,-0.0788095,0.0026455000000000003,-0.001572000000000004,0.0788095,-0.0026455000000000003,0.001571999999999997,-0.12859150000000003,-0.4601185,-0.010943000000000001,0.12484850000000002,-0.5279785,0.036493,-0.13219150000000002,-0.8434685,0.016217999999999996,0.13938850000000003,-0.9115985,0.010451999999999996
23,-0.004158999999999999,0.7807015,0.114922,-0.174622,0.5814015,0.08798600000000001,-0.251062,0.8528115,0.0025439999999999977,0.173718,0.5739715,0.10927800000000001,0.27955800000000003,0.8289815,0.061114,-0.247532,1.1564815,-0.055101000000000004,0.312388,1.0633815,-0.011624000000000002,-0.078808,0.0026455000000000003,-0.0015960000000000002,0.078808,-0.0026455000000000003,0.0015960000000000002,-0.128592,-0.4604085,-0.010943000000000001,0.124828,-0.5279785,0.036474,-0.132122,-0.8434685,0.015665000000000002,0.139458,-0.9109885,0.011244
24,-0.004055500000000002,0.780835,0.1149835,-0.17459550000000001,0.581475,0.0877985,-0.2510155,0.8526649999999999,0.0022614999999999996,0.17375449999999998,0.5740449999999999,0.10925549999999999,0.2796245,0.8286749999999999,0.0611575,-0.24743549999999997,1.156255,-0.055496500000000004,0.31301450000000003,1.062955,-0.011496500000000007,-0.0788075,0.002652,-0.0016135000000000038,0.0788075,-0.002652,0.0016134999999999969,-0.12854549999999998,-0.462925,-0.010909500000000003,0.12476449999999999,-0.5280050000000001,0.036401499999999996,-0.13203550000000003,-0.843825,0.014904499999999998,0.13945449999999998,-0.9103950000000001,0.011161499999999998
25,-0.003946500000000002,0.7809900000000001,0.11504149999999999,-0.1745755,0.58156,0.08758949999999999,-0.2509355,0.85248,0.001861499999999995,0.17379450000000002,0.5741,0.10921449999999999,0.2797245,0.82842,0.061162499999999995,-0.2473055,1.1561,-0.056051500000000004,0.3136545,1.0624,-0.0114625,-0.0788075,0.00264,-0.0016135000000000038,0.0788075,-0.00264,0.0016134999999999969,-0.1285055,-0.46541,-0.010818500000000002,0.1245545,-0.52804,0.036323499999999995,-0.1320555,-0.84414,0.014154499999999997,0.13943450000000002,-0.91021,0.011517499999999996
26,-0.003822000000000002,0.781183,0.1151185,-0.174535,0.581643,0.0873585,-0.250855,0.852273,0.0014164999999999942,0.173835,0.574133,0.1091645,0.279845,0.8281229999999999,0.0611555,-0.247175,1.155833,-0.0566875,0.31425499999999995,1.061933,-0.011445500000000004,-0.078807,0.0026429999999999995,-0.0016205000000000039,0.078807,-0.0026429999999999995,0.001620499999999997,-0.128455,-0.46473699999999996,-0.011036500000000005,0.124445,-0.528097,0.036290499999999996,-0.132255,-0.844607,0.013422499999999997,0.139485,-0.9101670000000001,0.011792499999999997
27,-0.003725000000000004,0.781321,0.115186,-0.174497,0.581721,0.087119,-0.250767,0.8520610000000001,0.0008570000000000036,0.173873,0.5741510000000001,0.109124,0.280003,0.8277610000000001,0.061141,-0.247007,1.155551,-0.057491,0.31480299999999994,1.061651,-0.011438999999999998,-0.078806,0.002657999999999999,-0.0016320000000000015,0.078806,-0.0026580000000000006,0.0016320000000000015,-0.128267,-0.463549,-0.011324,0.12429299999999999,-0.528169,0.03601,-0.132337,-0.8450789999999999,0.012839000000000003,0.139433,-0.910469,0.011974000000000002
28,-0.0035795000000000007,0.7814585,0.115201,-0.17449150000000002,0.5818585,0.086842,-0.2507015,0.8519384999999999,5.6999999999994555e-05,0.1738985,0.5741885,0.109056,0.2802385,0.8274185,0.061055,-0.2467315,1.1550885,-0.059186,0.3153685,1.0612885,-0.011478000000000002,-0.0787995,0.0026695,-0.0016590000000000008,0.0787995,-0.0026695,0.0016589999999999938,-0.1280215,-0.4624415,-0.011675000000000005,0.12414850000000001,-0.5282315000000001,0.03571099999999999,-0.13241150000000002,-0.8455415000000001,0.012263999999999997,0.13939849999999998,-0.9105315,0.012237999999999995
29,-0.003410500000000004,0.781617,0.115047,-0.1744695,0.5820569999999999,0.08646,-0.25059950000000003,0.851837,-0.0009979999999999989,0.1739105,0.574237,0.108848,0.2805105,0.827087,0.060835,-0.2464695,1.154537,-0.061018,0.3160105,1.061037,-0.011764000000000004,-0.07879549999999999,0.00268,-0.001697000000000004,0.07879549999999999,-0.00268,0.0016969999999999971,-0.1275995,-0.46307299999999996,-0.011816,0.12397050000000001,-0.528333,0.03533,-0.1322795,-0.8466330000000001,0.011472999999999997,0.1394705,-0.911003,0.011661999999999999
30,-0.003199999999999998,0.7817845,0.11480599999999999,-0.174452,0.5822445,0.086002,-0.250482,0.8517245,-0.0021690000000000043,0.173948,0.5742745,0.10855100000000001,0.280798,0.8268145,0.060519,-0.246152,1.1524945,-0.06326999999999999,0.316688,1.0606945,-0.012355999999999999,-0.07879,0.0026934999999999997,-0.0017059999999999992,0.07879,-0.0026934999999999997,0.0017059999999999992,-0.127172,-0.4631155,-0.012033000000000002,0.123858,-0.5284255,0.034954,-0.132172,-0.8482255,0.010713,0.139588,-0.9115955,0.010748999999999998
31,-0.0029679999999999984,0.781951,0.114488,-0.17441099999999998,0.582521,0.085457,-0.250321,0.8516009999999999,-0.003691,0.17397900000000002,0.574351,0.108142,0.281139,0.826601,0.059998,-0.245781,1.150481,-0.06643299999999999,0.31731899999999996,1.060481,-0.013343,-0.07878199999999999,0.0027410000000000004,-0.0017150000000000012,0.07878199999999999,-0.0027410000000000004,0.0017150000000000012,-0.126721,-0.464619,-0.012352999999999996,0.12373900000000002,-0.528559,0.034654000000000004,-0.13211099999999998,-0.848889,0.010351000000000003,0.139439,-0.911859,0.010421000000000003
32,-0.0027044999999999964,0.782152,0.114043,-0.17436849999999998,0.582822,0.084751,-0.2501285,0.851582,-0.0055649999999999936,0.1740115,0.574442,0.107587,0.28151149999999997,0.8264619999999999,0.059294,-0.2453385,1.148492,-0.069828,0.3179415,1.060292,-0.014716999999999994,-0.0787985,0.00281,-0.0017749999999999988,0.0787985,-0.00281,0.0017750000000000057,-0.1262885,-0.46575799999999995,-0.012835999999999993,0.12367150000000002,-0.528728,0.03419900000000001,-0.13204849999999999,-0.849558,0.009902000000000005,0.13924150000000002,-0.912088,0.009959000000000006
33,-0.0023300000000000026,0.782392,0.11302000000000001,-0.174352,0.583182,0.083708,-0.249772,0.851582,-0.008313999999999995,0.17402800000000002,0.574572,0.106708,0.281978,0.826272,0.05810900000000001,-0.244832,1.147212,-0.07416299999999999,0.318568,1.059912,-0.016681999999999995,-0.07884,0.002893999999999999,-0.0018579999999999985,0.07884,-0.0028940000000000007,0.0018580000000000055,-0.125842,-0.46606800000000004,-0.013816999999999996,0.12356800000000001,-0.528948,0.03351900000000001,-0.13206199999999998,-0.8503580000000001,0.009127000000000003,0.13905800000000001,-0.912088,0.009260000000000004
34,-0.0018624999999999965,0.782756,0.1115185,-0.1743645,0.583606,0.0825275,-0.2493945,0.851676,-0.011230499999999997,0.1740255,0.574746,0.1057315,0.2825055,0.826066,0.0565815,-0.2443545,1.1462860000000001,-0.0785645,0.31916550000000005,1.0593860000000002,-0.0189485,-0.0789205,0.003023999999999999,-0.0019435000000000008,0.0789205,-0.0030240000000000006,0.0019435000000000008,-0.1254445,-0.46611400000000003,-0.014974500000000002,0.12344549999999999,-0.529204,0.0327035,-0.1322245,-0.850184,0.008511500000000002,0.1389755,-0.912174,0.007612500000000001
35,-0.0014054999999999992,0.783026,0.10970500000000001,-0.1744005,0.5838559999999999,0.081202,-0.2491105,0.851676,-0.014602999999999998,0.1739495,0.5747559999999999,0.10465100000000001,0.28289949999999997,0.826066,0.054893000000000004,-0.2440305,1.1462860000000001,-0.08312299999999999,0.3197895,1.0593860000000002,-0.021373999999999997,-0.07904649999999999,0.003023999999999999,-0.002008999999999997,0.07904649999999999,-0.0030240000000000006,0.002009000000000004,-0.1250505,-0.46634400000000004,-0.01599099999999999,0.12338949999999999,-0.529204,0.03194500000000001,-0.1323105,-0.850184,0.007836000000000006,0.1389695,-0.911424,0.006788000000000006
36,-0.0009210000000000004,0.783282,0.1075805,-0.174445,0.584102,0.0796155,-0.248805,0.851672,-0.018125499999999996,0.173885,0.574782,0.10349050000000001,0.283245,0.826062,0.0530645,-0.243715,1.146282,-0.08806649999999999,0.320415,1.059382,-0.0238525,-0.079176,0.0030279999999999994,-0.0020324999999999996,0.079176,-0.0030279999999999994,0.0020324999999999996,-0.12470500000000001,-0.464158,-0.0177415,0.123475,-0.529208,0.030929500000000002,-0.132345,-0.850188,0.007091500000000004,0.138985,-0.910388,0.005867500000000005
37,-0.0004909999999999992,0.783689,0.1050845,-0.174504,0.584289,0.0780055,-0.248474,0.851649,-0.021832499999999998,0.173836,0.574879,0.1022595,0.283506,0.826039,0.051139500000000004,-0.243474,1.1462590000000001,-0.09250649999999999,0.320956,1.0593590000000002,-0.026418499999999998,-0.07931,0.003044,-0.002087499999999999,0.07931,-0.003044,0.002087499999999999,-0.124444,-0.46492100000000003,-0.0196475,0.12354599999999999,-0.529231,0.029813500000000003,-0.132444,-0.850201,0.006362500000000004,0.139046,-0.908671,0.0047805000000000035
38,-1.0500000000000093e-05,0.78445,0.101611,-0.1744935,0.58468,0.07583999999999999,-0.2480835,0.8514999999999999,-0.026531,0.1738465,0.5752299999999999,0.100455,0.2838165,0.82592,0.048479,-0.2431635,1.14556,-0.098081,0.3215565,1.05796,-0.029773999999999995,-0.0794465,0.0031410000000000006,-0.0022099999999999967,0.0794465,-0.0031409999999999997,0.0022100000000000036,-0.12427350000000001,-0.46436,-0.02157,0.12366649999999998,-0.52956,0.028664000000000002,-0.13216350000000002,-0.8515600000000001,0.005866,0.13906649999999998,-0.90981,0.003393
39,0.0004510000000000048,0.78527,0.0980065,-0.174477,0.5851000000000001,0.0736375,-0.24767699999999998,0.85131,-0.0314595,0.17385299999999998,0.5756100000000001,0.09855850000000001,0.284123,0.82592,0.0457375,-0.24290699999999998,1.1449,-0.10371449999999999,0.322083,1.0566,-0.0330255,-0.07958,0.003254999999999999,-0.0023564999999999975,0.07958,-0.003255000000000001,0.002356500000000001,-0.124177,-0.46384000000000003,-0.0236445,0.12367299999999999,-0.5298999999999999,0.027682500000000002,-0.131917,-0.85264,0.005365500000000002,0.139233,-0.91153,0.002755500000000001
40,0.0009429999999999985,0.7860905,0.09400900000000001,-0.17434100000000002,0.5854505,0.071295,-0.247251,0.8509105,-0.036510999999999995,0.173829,0.5761105,0.096611,0.284379,0.8259105,0.042821,-0.24272100000000002,1.1453105,-0.10899700000000001,0.32254900000000003,1.0552105,-0.036195,-0.079748,0.0033514999999999994,-0.002473999999999997,0.079748,-0.0033515000000000003,0.0024740000000000005,-0.124091,-0.4646095,-0.026096,0.123789,-0.5302295,0.026668,-0.13134099999999999,-0.8539795,0.004692999999999999,0.139409,-0.9120195,0.001743999999999999
41,0.0014615000000000006,0.786935,0.08993300000000001,-0.1741315,0.585855,0.068936,-0.2467915,0.850595,-0.04152,0.1738585,0.576765,0.094664,0.28462849999999995,0.825875,0.039929000000000006,-0.2424615,1.145405,-0.11434399999999999,0.3231085,1.053805,-0.03922199999999999,-0.0799215,0.0033990000000000005,-0.0025599999999999998,0.0799215,-0.003399,0.0025600000000000032,-0.1239615,-0.465315,-0.028884,0.1239885,-0.5304449999999999,0.025730000000000003,-0.1307415,-0.855255,0.003986000000000003,0.1395685,-0.912335,0.0008640000000000037
42,0.0018589999999999995,0.7877165,0.0860475,-0.173784,0.5863765,0.0666855,-0.246284,0.8501165,-0.0461745,0.173956,0.5775965000000001,0.0928035,0.284906,0.8257865,0.0372725,-0.242064,1.1443765,-0.1192755,0.323766,1.0521764999999998,-0.041934500000000006,-0.080041,0.0034815000000000002,-0.002630500000000001,0.080041,-0.0034815000000000002,0.0026304999999999974,-0.123774,-0.4668735,-0.031547500000000006,0.12427600000000001,-0.5306835,0.024856499999999997,-0.13008399999999998,-0.8565635,0.0033984999999999987,0.13990599999999997,-0.9126735,-0.0004945000000000019
43,0.002164500000000005,0.7881815,0.082115,-0.1733495,0.5868815000000001,0.063383,-0.24574949999999998,0.8491615,-0.051288999999999994,0.17396050000000002,0.5782615,0.090751,0.28520049999999997,0.8255515,0.034746,-0.2414595,1.1418614999999999,-0.12476699999999999,0.3244705,1.0505615,-0.044642999999999995,-0.0801365,0.0035904999999999995,-0.002695999999999997,0.0801365,-0.0035905,0.0026960000000000005,-0.1235395,-0.4684185,-0.034071,0.12444050000000001,-0.5304285,0.023918000000000002,-0.12943949999999999,-0.8578485,0.0027340000000000003,0.1401505,-0.9129984999999999,-0.0020589999999999983
44,0.0024880000000000006,0.7882685,0.078308,-0.17292000000000002,0.5873385,0.060143,-0.24519000000000002,0.8480885,-0.05645900000000001,0.17396,0.5788285,0.088635,0.28554,0.8252385,0.031988,-0.24078,1.1393485,-0.130867,0.32526000000000005,1.0489485,-0.047589000000000006,-0.08025399999999999,0.0037175000000000003,-0.0028090000000000025,0.08025399999999999,-0.0037175,0.0028090000000000025,-0.12328,-0.46963150000000004,-0.036734,0.12467999999999999,-0.5309415000000001,0.022748,-0.12874,-0.8587815,0.0019130000000000015,0.14037,-0.9132715,-0.0035949999999999975
45,0.003000500000000005,0.7883215,0.0736025,-0.1722965,0.5871915,0.0568775,-0.2444665,0.8472215000000001,-0.06290849999999999,0.1739135,0.5794315,0.0859495,0.2860335,0.8251215000000001,0.028397500000000003,-0.2400265,1.1384314999999998,-0.1387295,0.3262935,1.0477314999999998,-0.051575499999999996,-0.0805045,0.0038244999999999998,-0.0030945,0.0805045,-0.0038245,0.0030945,-0.1229565,-0.4703585,-0.0398815,0.1251635,-0.5303585,0.020896500000000002,-0.1277565,-0.8596585,0.0008184999999999998,0.1406935,-0.9131285,-0.0051655
46,0.0034774999999999962,0.78813,0.06868450000000001,-0.17161150000000003,0.58702,0.0536205,-0.2438015,0.84648,-0.0695635,0.1738185,0.57992,0.0832135,0.28647849999999997,0.8249299999999999,0.0246155,-0.23916150000000003,1.13659,-0.1472525,0.32732849999999997,1.0467899999999999,-0.0559475,-0.0807305,0.00392,-0.0034415,0.0807305,-0.00392,0.0034415,-0.1226615,-0.46995,-0.042993500000000004,0.12567849999999997,-0.52957,0.0185735,-0.1267315,-0.86036,-0.00028950000000000156,0.14122849999999998,-0.91284,-0.006606500000000001
47,0.0038674999999999977,0.78813,0.06424250000000001,-0.17098850000000002,0.58702,0.0508745,-0.2432085,0.84632,-0.0758665,0.1737215,0.57992,0.0810105,0.28690150000000003,0.8249299999999999,0.0211755,-0.2383085,1.13529,-0.15546649999999998,0.3282815,1.04649,-0.060197499999999994,-0.0809025,0.00392,-0.0037844999999999997,0.0809025,-0.00392,0.0037844999999999997,-0.1224785,-0.46912,-0.0462995,0.1260615,-0.529,0.0157875,-0.1261185,-0.86036,-0.0013335000000000014,0.1416115,-0.91278,-0.0079855
48,0.004198000000000002,0.78813,0.059311,-0.170295,0.58702,0.045808,-0.242595,0.8458,-0.08253200000000001,0.173645,0.57992,0.078675,0.287355,0.8249299999999999,0.017444,-0.237435,1.13299,-0.164192,0.329275,1.04619,-0.065251,-0.081077,0.00392,-0.004126000000000001,0.081077,-0.00392,0.004126000000000001,-0.122315,-0.46893999999999997,-0.049945,0.126405,-0.52856,0.01215,-0.125445,-0.86036,-0.0025610000000000008,0.14194500000000002,-0.91274,-0.009323000000000001
49,0.004647999999999999,0.78813,0.054164000000000004,-0.169437,0.58702,0.040407,-0.241817,0.8450799999999999,-0.089728,0.173703,0.57992,0.076192,0.287953,0.8249299999999999,0.013135,-0.236307,1.12939,-0.17380800000000002,0.330413,1.04579,-0.070961,-0.081239,0.00392,-0.0046110000000000005,0.081239,-0.00392,0.0046110000000000005,-0.12201700000000001,-0.46853,-0.05352899999999999,0.12701300000000001,-0.52822,0.008388,-0.124757,-0.86036,-0.003914000000000001,0.142483,-0.91261,-0.010603999999999999
50,0.0052090000000000036,0.7874300000000001,0.048527,-0.168299,0.5868,0.034672,-0.240799,0.8436600000000001,-0.097618,0.173811,0.58035,0.073581,0.288731,0.82464,0.00839,-0.23477900000000002,1.12363,-0.18429800000000002,0.331581,1.04473,-0.077488,-0.08139199999999999,0.00408,-0.005093,0.08139199999999999,-0.00408,0.005093,-0.121749,-0.46684,-0.057102,0.127671,-0.52717,0.0043279999999999985,-0.123939,-0.86026,-0.005823000000000002,0.143021,-0.91218,-0.012847
51,0.005802499999999998,0.786654,0.0426995,-0.16705550000000002,0.5867439999999999,0.0285665,-0.23960550000000003,0.841924,-0.1061445,0.1738445,0.580994,0.0705405,0.28963449999999996,0.824244,0.003034499999999999,-0.23315550000000002,1.1177139999999999,-0.19488450000000002,0.3327945,1.043714,-0.08456449999999999,-0.0815705,0.004138,-0.0055615000000000005,0.0815705,-0.004138,0.0055615000000000005,-0.1211455,-0.466656,-0.0610065,0.1284945,-0.525166,-0.00017450000000000104,-0.1230255,-0.860546,-0.0085415,0.14361449999999998,-0.911596,-0.0155075
52,0.006508,0.785566,0.035709500000000005,-0.165851,0.586716,0.022534500000000002,-0.238201,0.839726,-0.11609150000000001,0.174119,0.581536,0.0671085,0.290769,0.823656,-0.003758499999999998,-0.231211,1.111916,-0.2075015,0.334289,1.041216,-0.09358149999999998,-0.08185500000000001,0.004200000000000001,-0.0060104999999999985,0.08185500000000001,-0.0042,0.006010500000000002,-0.12027099999999999,-0.465454,-0.06616849999999999,0.129499,-0.522734,-0.005385499999999998,-0.12185099999999999,-0.860784,-0.011590499999999997,0.144279,-0.910834,-0.0183725
53,0.007367500000000001,0.783997,0.0277295,-0.1643895,0.585297,0.0146075,-0.2366995,0.837447,-0.1264495,0.1744305,0.582267,0.0635185,0.2919805,0.822937,-0.011036499999999998,-0.2289795,1.106067,-0.2208095,0.3358605,1.038967,-0.1032395,-0.0821095,0.004312999999999999,-0.0065015,0.0821095,-0.004313,0.0065015,-0.1193295,-0.464933,-0.0715695,0.1305505,-0.520113,-0.0108405,-0.1206895,-0.860763,-0.014790499999999998,0.1449505,-0.909793,-0.021471499999999998
54,0.008210500000000003,0.782369,0.020418000000000002,-0.1628515,0.583669,0.006268000000000001,-0.2352415,0.834769,-0.136479,0.1748285,0.5831689999999999,0.060251,0.2932285,0.822229,-0.018109999999999998,-0.2268815,1.100679,-0.233169,0.33732850000000003,1.0371789999999999,-0.11271899999999999,-0.08226349999999999,0.0044090000000000015,-0.006949,0.08226349999999999,-0.004409,0.006949000000000001,-0.1184615,-0.464371,-0.07731299999999999,0.1314885,-0.5170910000000001,-0.016106,-0.11972150000000001,-0.8600110000000001,-0.018001999999999997,0.1455285,-0.9082610000000001,-0.024047
55,0.00925,0.78067,0.012598999999999999,-0.16127799999999998,0.58211,-0.002673,-0.23347800000000002,0.83249,-0.14727099999999999,0.17520200000000002,0.5835899999999999,0.055675999999999996,0.29470199999999996,0.82157,-0.025626000000000003,-0.22461799999999998,1.0961500000000002,-0.24573099999999998,0.338912,1.03535,-0.12271099999999999,-0.08246,0.004390999999999999,-0.007351,0.08246,-0.004391000000000001,0.007350999999999999,-0.117508,-0.46286,-0.08355000000000001,0.132492,-0.51357,-0.021374999999999998,-0.118708,-0.85879,-0.021318000000000004,0.146152,-0.90619,-0.026436
56,0.0105885,0.7793329999999999,0.0038275,-0.1592565,0.5808329999999999,-0.013157499999999999,-0.2311065,0.829213,-0.1589515,0.1756835,0.583433,0.049951499999999996,0.2966735,0.8211029999999999,-0.0346065,-0.22133650000000002,1.0916430000000001,-0.2604315,0.34090349999999997,1.0332430000000001,-0.1347015,-0.0827705,0.004369999999999999,-0.0077925,0.0827705,-0.004369999999999999,0.0077925,-0.11614649999999999,-0.46100700000000006,-0.0907105,0.1337535,-0.5086470000000001,-0.026932499999999998,-0.11744650000000001,-0.856237,-0.0248585,0.14706349999999999,-0.9027970000000001,-0.029337500000000002
57,0.011894500000000002,0.7776135000000001,-0.0048655,-0.1573715,0.5798835,-0.0218505,-0.2285515,0.8262235,-0.17134549999999998,0.1761085,0.5828935000000001,0.04414850000000001,0.2987685,0.8203235,-0.0437955,-0.21769149999999998,1.0869135,-0.2755155,0.34286849999999996,1.0308135,-0.1464855,-0.08307049999999999,0.004322500000000002,-0.0083185,0.08307049999999999,-0.0043225,0.0083185,-0.11457149999999999,-0.45871649999999997,-0.0980055,0.1350585,-0.5037065,-0.032059500000000005,-0.11625150000000001,-0.8535065,-0.0282695,0.1479385,-0.8992165,-0.0318215
58,0.0131905,0.7756244999999999,-0.013561499999999997,-0.1555205,0.5792845,-0.030132499999999996,-0.22586050000000002,0.8235945,-0.1843225,0.1765495,0.5822744999999999,0.0382835,0.3008195,0.8195844999999999,-0.0527935,-0.2138305,1.0825145,-0.2910725,0.34484950000000003,1.0282145,-0.1584425,-0.08342849999999999,0.004192499999999998,-0.0087415,0.08342849999999999,-0.004192500000000002,0.0087415,-0.1128305,-0.4566655,-0.1053225,0.1363995,-0.4986055,-0.0373425,-0.1150205,-0.8511255000000001,-0.0318425,0.14883949999999999,-0.8952255,-0.034216500000000004
59,0.014483499999999995,0.7739550000000001,-0.022425,-0.1535835,0.576435,-0.039672,-0.2243235,0.819775,-0.19735,0.1769365,0.581935,0.032076999999999994,0.3027865,0.818015,-0.062193,-0.2097235,1.077155,-0.30727,0.3468165,1.026255,-0.17032,-0.0837955,0.004024,-0.009299,0.0837955,-0.004024,0.009299,-0.11076350000000001,-0.454215,-0.11282,0.1376365,-0.492475,-0.042788999999999994,-0.1134735,-0.8480449999999999,-0.03611400000000001,0.1497365,-0.8907349999999999,-0.036633
60,0.015779500000000002,0.7721515000000001,-0.0311835,-0.15166849999999998,0.5737315000000001,-0.0490155,-0.22281849999999997,0.8166815000000001,-0.2101355,0.17744149999999997,0.5814315000000001,0.0261465,0.3047515,0.8162315,-0.07119550000000001,-0.20544849999999998,1.0716415000000001,-0.3235955,0.3487715,1.0241915,-0.1822655,-0.0841775,0.0039914999999999985,-0.0099005,0.0841775,-0.003991500000000002,0.0099005,-0.1086085,-0.4522985,-0.1201755,0.1387315,-0.48706849999999996,-0.0480195,-0.1118985,-0.8442084999999999,-0.0398005,0.15086149999999998,-0.8862985000000001,-0.039523499999999996
61,0.016926999999999998,0.7704075,-0.038962,-0.14992500000000003,0.5713675,-0.057779,-0.221505,0.8133475,-0.221685,0.177655,0.5805875,0.020348,0.30655499999999997,0.8138175000000001,-0.078853,-0.20114500000000002,1.0662874999999998,-0.338695,0.350485,1.0201275,-0.192945,-0.084564,0.0039935000000000005,-0.010585,0.084564,-0.003993499999999997,0.010585,-0.106355,-0.4501125,-0.126425,0.139615,-0.48202249999999996,-0.052744,-0.110585,-0.8400225,-0.043252,0.15147499999999997,-0.8813924999999999,-0.04177
62,0.018272999999999998,0.7687405,-0.047001,-0.14785299999999998,0.5700605000000001,-0.06589199999999999,-0.22023299999999998,0.8075405,-0.234536,0.177937,0.5796005000000001,0.013962999999999998,0.308407,0.8115305,-0.086664,-0.196563,1.0609905,-0.354846,0.35211699999999996,1.0161305,-0.203066,-0.084947,0.003976500000000001,-0.011329,0.084947,-0.003976500000000001,0.011329,-0.103303,-0.4480695,-0.133166,0.140627,-0.4761195,-0.057614000000000005,-0.10911300000000002,-0.8355195,-0.047665,0.152217,-0.8757395,-0.044532
63,0.019583000000000003,0.7674325,-0.0551175,-0.14569700000000002,0.5685725,-0.0741165,-0.21758699999999997,0.8024924999999999,-0.2465715,0.17811300000000002,0.5785125,0.007443499999999999,0.31007300000000004,0.8094125,-0.0943305,-0.191957,1.0561824999999998,-0.37098149999999996,0.35363300000000003,1.0120925,-0.2126015,-0.08536,0.004007499999999997,-0.012030500000000001,0.08536,-0.004007500000000004,0.0120305,-0.100337,-0.4451675,-0.1391015,0.14176300000000003,-0.46972749999999996,-0.0621805,-0.10757699999999999,-0.8301375,-0.0513425,0.152773,-0.8699275,-0.0475265
64,0.0211455,0.7657339999999999,-0.063419,-0.1434125,0.566244,-0.082921,-0.2149625,0.796744,-0.259256,0.17833749999999998,0.578044,0.0015410000000000007,0.3115975,0.806754,-0.10198299999999999,-0.1870525,1.051494,-0.387956,0.35562750000000004,1.007324,-0.221986,-0.0857675,0.004021999999999998,-0.012726,0.0857675,-0.004021999999999998,0.012726000000000001,-0.0970325,-0.441436,-0.145336,0.14292749999999999,-0.462706,-0.067205,-0.10582249999999999,-0.823956,-0.055483,0.1532875,-0.8636560000000001,-0.051519
65,0.0223675,0.7635975,-0.071155,-0.14151750000000002,0.5633275,-0.090877,-0.2126675,0.7920375,-0.270914,0.1783825,0.5780075,-0.0037929999999999995,0.3126425,0.8039375,-0.108426,-0.1831375,1.0470775,-0.403114,0.3573425,1.0029175000000001,-0.22928400000000002,-0.08608650000000001,0.003997500000000001,-0.013378,0.08608650000000001,-0.003997500000000001,0.013378,-0.0939275,-0.4379925,-0.150624,0.1437925,-0.45650250000000003,-0.07152800000000001,-0.10407749999999999,-0.8182825,-0.059636999999999996,0.1534825,-0.8578225,-0.055223999999999995
66,0.023537999999999996,0.7617995,-0.07903650000000001,-0.139629,0.5607195,-0.0987325,-0.21038900000000002,0.7868694999999999,-0.2820055,0.178371,0.5781194999999999,-0.0094035,0.313711,0.8011094999999999,-0.11500650000000001,-0.179509,1.0430095,-0.41818550000000004,0.359101,0.9987895,-0.2365755,-0.08646799999999999,0.004019499999999995,-0.0139865,0.08646799999999999,-0.004019500000000009,0.013986499999999999,-0.090699,-0.4347705,-0.1553955,0.144681,-0.4510405,-0.0764025,-0.102249,-0.8122505,-0.0641795,0.15373099999999998,-0.8514705,-0.0593255
67,0.024623,0.7598575000000001,-0.08728749999999999,-0.13779799999999998,0.5569875,-0.10763049999999999,-0.209268,0.7815375,-0.2923755,0.17819200000000002,0.5781075,-0.015531499999999998,0.314812,0.7979575,-0.1218455,-0.17609799999999998,1.0392275,-0.4328455,0.361022,0.9945975,-0.24378550000000002,-0.086718,0.003980499999999998,-0.014608499999999998,0.086718,-0.003980499999999998,0.0146085,-0.087598,-0.43060250000000005,-0.1601055,0.14578200000000002,-0.4464925,-0.0811775,-0.100488,-0.8057525,-0.0693465,0.153752,-0.8451225,-0.0636055
68,0.025636499999999996,0.757424,-0.095445,-0.1361035,0.555384,-0.115219,-0.2087035,0.7769539999999999,-0.302569,0.1778965,0.577434,-0.021561,0.3159965,0.795414,-0.128529,-0.1729235,1.037024,-0.446879,0.3634265,0.989394,-0.251349,-0.0869335,0.00397299999999999,-0.015095,0.0869335,-0.003973000000000004,0.015094999999999997,-0.08468250000000001,-0.426636,-0.164379,0.14689649999999999,-0.44231600000000004,-0.085669,-0.0990235,-0.799926,-0.07360900000000001,0.15366649999999998,-0.838666,-0.067133
69,0.026570999999999997,0.7549290000000001,-0.1042525,-0.134298,0.5531389999999999,-0.12341450000000001,-0.208188,0.772059,-0.3131345,0.177442,0.576719,-0.028292499999999998,0.317162,0.793079,-0.1357845,-0.170038,1.031749,-0.4615645,0.365842,0.984549,-0.2587545,-0.08701800000000001,0.0038509999999999933,-0.0155315,0.08701800000000001,-0.003851000000000007,0.0155315,-0.08190700000000001,-0.422011,-0.16904450000000001,0.147842,-0.438141,-0.0906145,-0.097688,-0.793601,-0.0782825,0.153332,-0.832021,-0.0716695
70,0.027378000000000003,0.75169,-0.11445999999999999,-0.13220600000000002,0.54881,-0.132584,-0.20680600000000002,0.7649499999999999,-0.325274,0.177074,0.5757,-0.035915,0.318204,0.79053,-0.144514,-0.167316,1.02668,-0.477054,0.368914,0.98129,-0.267874,-0.087096,0.0035099999999999992,-0.015880000000000002,0.087096,-0.0035099999999999992,0.015880000000000002,-0.07942199999999999,-0.41643,-0.174124,0.148704,-0.43404000000000004,-0.095843,-0.09650600000000001,-0.7865300000000001,-0.083626,0.152834,-0.8245600000000001,-0.074723
71,0.0282675,0.748285,-0.124337,-0.1304855,0.544505,-0.141186,-0.2053455,0.760165,-0.33595600000000003,0.17695450000000001,0.574455,-0.043281,0.3186145,0.787635,-0.153316,-0.1646355,1.020435,-0.49153600000000003,0.3722245,0.977475,-0.27739600000000003,-0.0872955,0.0031150000000000067,-0.016109,0.0872955,-0.0031149999999999928,0.016109,-0.0771735,-0.41068499999999997,-0.178846,0.1495845,-0.43062500000000004,-0.10083700000000001,-0.0950655,-0.778075,-0.08628,0.15253450000000002,-0.817615,-0.079757
72,0.029329,0.744625,-0.1347015,-0.12876500000000002,0.539925,-0.1501315,-0.20369500000000001,0.755035,-0.3476015,0.176935,0.574405,-0.0508165,0.319135,0.784625,-0.16255150000000002,-0.16198500000000002,1.013685,-0.5062415,0.37555499999999997,0.973025,-0.2881415,-0.08754500000000001,0.0027249999999999774,-0.0165885,0.08754500000000001,-0.002725000000000005,0.0165885,-0.074961,-0.40444500000000005,-0.1841515,0.15054499999999998,-0.426855,-0.10626649999999999,-0.093865,-0.770475,-0.0919415,0.152445,-0.809715,-0.0851605
73,0.030437499999999996,0.7406900000000001,-0.14492850000000002,-0.1270135,0.5360100000000001,-0.1582585,-0.2024735,0.7503900000000001,-0.3585085,0.1770765,0.57471,-0.0577025,0.3199665,0.7815799999999999,-0.1712385,-0.1595235,1.00672,-0.5199085,0.3786465,0.9686699999999999,-0.2984085,-0.08769350000000001,0.0022900000000000142,-0.017138499999999997,0.08769350000000001,-0.0022899999999999865,0.0171385,-0.07302449999999999,-0.39889,-0.1887985,0.1516465,-0.42327999999999993,-0.1108905,-0.09286350000000002,-0.7632099999999999,-0.0961885,0.1520765,-0.8024499999999999,-0.0897155
74,0.031484,0.7376199999999999,-0.15534799999999999,-0.125419,0.53216,-0.166608,-0.199799,0.74635,-0.369548,0.17724099999999998,0.57112,-0.066342,0.32115099999999996,0.77427,-0.179938,-0.15691899999999998,0.99989,-0.5336879999999999,0.381721,0.9616899999999999,-0.308988,-0.087799,0.0018900000000000028,-0.017715999999999996,0.087799,-0.0018900000000000028,0.017716000000000003,-0.07129,-0.3900600000000001,-0.193658,0.15282099999999998,-0.41544000000000003,-0.115714,-0.09175900000000001,-0.7566200000000001,-0.10178799999999999,0.152461,-0.79362,-0.093111
75,0.032905,0.7342,-0.1659005,-0.12380400000000001,0.52749,-0.17529050000000002,-0.197934,0.74189,-0.38040050000000003,0.177566,0.5683400000000001,-0.0743915,0.32261599999999996,0.76761,-0.1883505,-0.15406399999999998,0.99225,-0.5474705,0.384826,0.95462,-0.3192605,-0.088004,0.0014000000000000123,-0.0182755,0.088004,-0.0013999999999999846,0.0182755,-0.069499,-0.38114000000000003,-0.1983105,0.153926,-0.40652,-0.1195705,-0.09091400000000001,-0.74795,-0.10596449999999999,0.152876,-0.7847,-0.09627350000000001
76,0.034742999999999996,0.7311000000000001,-0.1807485,-0.121948,0.52359,-0.1876085,-0.194788,0.7365700000000001,-0.3956685,0.178202,0.56646,-0.0864915,0.324402,0.76173,-0.2006085,-0.150998,0.9847600000000001,-0.5651385,0.388012,0.9477800000000001,-0.33443849999999997,-0.08806800000000001,0.0007300000000000084,-0.018863499999999995,0.08806800000000001,-0.0007300000000000084,0.0188635,-0.06739799999999999,-0.37224,-0.2075185,0.155092,-0.39762,-0.1279295,-0.08987799999999999,-0.73932,-0.11526349999999999,0.15366200000000002,-0.7757999999999999,-0.10296649999999999
77,0.038358500000000004,0.7326349999999999,-0.198195,-0.11863950000000001,0.521345,-0.202035,-0.1897195,0.734785,-0.41298500000000005,0.1802105,0.568415,-0.101743,0.3274605,0.760465,-0.215575,-0.1465895,0.980565,-0.5846250000000001,0.3919605,0.9454549999999999,-0.351835,-0.08775949999999999,-0.00027499999999999747,-0.018518,0.08775949999999999,0.00027499999999999747,0.018518,-0.06344649999999999,-0.357615,-0.225565,0.1606005,-0.38410500000000003,-0.144881,-0.08764949999999999,-0.7258950000000001,-0.12652,0.1558705,-0.760015,-0.111778
78,0.041954000000000005,0.73353,-0.21545899999999998,-0.11570799999999998,0.5192,-0.215659,-0.18520799999999998,0.73289,-0.42935900000000005,0.181932,0.5704400000000001,-0.116169,0.330412,0.75909,-0.230709,-0.14232799999999998,0.97974,-0.603359,0.395712,0.94174,-0.369799,-0.08746799999999999,-0.0012199999999999989,-0.018241999999999994,0.08746799999999999,0.0012199999999999989,0.018242000000000008,-0.059871,-0.34339000000000003,-0.243119,0.16593200000000002,-0.36699,-0.16115200000000002,-0.08559800000000001,-0.7133400000000001,-0.136222,0.157842,-0.7478400000000001,-0.121485
79,0.045527000000000005,0.73488,-0.23115549999999999,-0.113206,0.51932,-0.2279655,-0.181026,0.73403,-0.44434549999999995,0.183594,0.57273,-0.1292475,0.333314,0.7585600000000001,-0.2451055,-0.13835599999999998,0.9795100000000001,-0.6210955,0.398764,0.9398500000000001,-0.38594549999999994,-0.08713599999999999,-0.001899999999999985,-0.01808549999999999,0.08713599999999999,0.0019000000000000128,0.018085500000000004,-0.05658699999999999,-0.33029000000000003,-0.2600655,0.171234,-0.35078000000000004,-0.1771395,-0.083566,-0.7016800000000001,-0.1455185,0.160194,-0.73217,-0.1288365
80,0.0492975,0.735665,-0.24638800000000002,-0.11061950000000001,0.5190049999999999,-0.240048,-0.17664950000000001,0.734965,-0.458998,0.1853105,0.572485,-0.143852,0.3363105,0.7577550000000001,-0.259648,-0.1346695,0.975745,-0.6375780000000001,0.4021405,0.937095,-0.402868,-0.0867195,-0.002574999999999994,-0.01795200000000001,0.0867195,0.0025750000000000217,0.017951999999999996,-0.053711499999999995,-0.317535,-0.276668,0.1766605,-0.335075,-0.19295800000000002,-0.08162950000000001,-0.689375,-0.154893,0.1623805,-0.717295,-0.13589800000000002
81,0.052876000000000006,0.737125,-0.261355,-0.10717599999999998,0.517135,-0.251665,-0.172456,0.733565,-0.472765,0.18687399999999998,0.5716049999999999,-0.158516,0.33928400000000003,0.757125,-0.274495,-0.131086,0.972985,-0.653085,0.405364,0.935165,-0.419295,-0.086326,-0.003505000000000008,-0.017604999999999996,0.086326,0.003505000000000008,0.01760500000000001,-0.051380999999999996,-0.305615,-0.292945,0.182144,-0.32304499999999997,-0.210165,-0.079886,-0.6769050000000001,-0.16338599999999998,0.164314,-0.703025,-0.142793
82,0.056547999999999994,0.737145,-0.2759375,-0.10400700000000002,0.5157050000000001,-0.26325750000000003,-0.166437,0.732735,-0.4869775,0.18856299999999998,0.5690550000000001,-0.1744005,0.342503,0.756015,-0.29166749999999997,-0.127497,0.9678450000000001,-0.6694475,0.40864300000000003,0.932125,-0.4385875,-0.08588699999999999,-0.00411499999999998,-0.017142500000000005,0.08588699999999999,0.0041150000000000075,0.01714249999999999,-0.04917,-0.29396500000000003,-0.3094475,0.18764299999999998,-0.30952499999999994,-0.2276175,-0.078267,-0.663275,-0.1710815,0.16655299999999998,-0.6884049999999999,-0.1496255
83,0.060042,0.735815,-0.290049,-0.100835,0.514625,-0.273949,-0.16034500000000002,0.730685,-0.5006889999999999,0.189765,0.570805,-0.187936,0.345305,0.756935,-0.308749,-0.12419499999999999,0.960355,-0.685319,0.41157499999999997,0.929905,-0.45719899999999997,-0.085685,-0.004704999999999987,-0.016581,0.085685,0.004705000000000015,0.016581000000000012,-0.047236,-0.28200499999999995,-0.32557899999999995,0.19297499999999998,-0.297145,-0.244769,-0.077205,-0.651715,-0.179,0.168615,-0.674805,-0.156411
84,0.0635265,0.7344299999999999,-0.30394,-0.0977415,0.5129699999999999,-0.28427,-0.1558515,0.72814,-0.51432,0.1909185,0.57275,-0.201726,0.3482185,0.75818,-0.32642,-0.1205315,0.95482,-0.7018099999999999,0.41480849999999997,0.9282199999999999,-0.47664,-0.0854315,-0.005599999999999994,-0.016039999999999985,0.0854315,0.005599999999999994,0.01604,-0.0453515,-0.27022,-0.34199999999999997,0.1982685,-0.28398,-0.26217,-0.0761515,-0.6392800000000001,-0.187191,0.1706885,-0.66051,-0.163208
85,0.06646350000000001,0.7322649999999999,-0.312915,-0.09525549999999999,0.509855,-0.289995,-0.1522555,0.724765,-0.5232049999999999,0.1914245,0.5739449999999999,-0.21099099999999998,0.3505945,0.755895,-0.33950499999999995,-0.11689550000000001,0.949275,-0.714585,0.4174445,0.923875,-0.490825,-0.0853255,-0.0063549999999999995,-0.015524999999999983,0.0853255,0.0063549999999999995,0.015525000000000011,-0.0440315,-0.25870499999999996,-0.353635,0.2029145,-0.270385,-0.27497499999999997,-0.0756355,-0.627845,-0.19069399999999997,0.1727345,-0.646065,-0.16760999999999998
86,0.068208,0.7270300000000001,-0.320185,-0.093232,0.5049699999999999,-0.29457500000000003,-0.149022,0.7166699999999999,-0.531625,0.191878,0.5682,-0.219754,0.352828,0.7492099999999999,-0.350645,-0.11359199999999998,0.9380599999999999,-0.727055,0.419348,0.9144300000000001,-0.503865,-0.085312,-0.006670000000000009,-0.015735,0.085312,0.006670000000000009,0.015735,-0.04366099999999999,-0.2516,-0.357745,0.20401800000000003,-0.26338,-0.28098500000000004,-0.07552199999999999,-0.61941,-0.194047,0.173168,-0.6352800000000001,-0.169486
87,0.069936,0.7219800000000001,-0.32723,-0.09110299999999999,0.50041,-0.29922000000000004,-0.146023,0.70715,-0.53996,0.192077,0.56247,-0.228588,0.354807,0.7418,-0.36128,-0.11033299999999999,0.92599,-0.7392799999999999,0.42172699999999996,0.90478,-0.51678,-0.085313,-0.006859999999999977,-0.015730000000000008,0.085313,0.006860000000000033,0.015729999999999994,-0.043391,-0.24434999999999996,-0.36197,0.205367,-0.2562,-0.28720999999999997,-0.075323,-0.6122299999999999,-0.197075,0.173627,-0.62769,-0.172856
88,0.07185849999999999,0.7173400000000001,-0.33470500000000003,-0.08899750000000001,0.49522,-0.304105,-0.14295750000000002,0.69747,-0.5481750000000001,0.1924825,0.55737,-0.23775200000000002,0.35686249999999997,0.73413,-0.372015,-0.10709750000000001,0.91127,-0.7508650000000001,0.4244425,0.8946000000000001,-0.530015,-0.0853275,-0.00713999999999998,-0.015435000000000004,0.0853275,0.007140000000000035,0.015434999999999977,-0.0426985,-0.23695999999999995,-0.36651500000000004,0.2068725,-0.24880999999999998,-0.293655,-0.07502750000000001,-0.60481,-0.20077,0.17423249999999998,-0.6203,-0.17655900000000002
89,0.07269,0.71278,-0.342545,-0.087485,0.48771,-0.308825,-0.141685,0.68686,-0.5563849999999999,0.191905,0.5542,-0.245075,0.357985,0.7266900000000001,-0.38231499999999996,-0.104725,0.90159,-0.762575,0.426215,0.8846499999999999,-0.542665,-0.085715,-0.007480000000000042,-0.015054999999999985,0.085715,0.007479999999999987,0.015055000000000013,-0.043447,-0.23041,-0.37066499999999997,0.20781500000000003,-0.24080000000000001,-0.30042499999999994,-0.075865,-0.5968,-0.20435099999999998,0.173645,-0.61229,-0.18062099999999998
90,0.0731285,0.7078,-0.34985999999999995,-0.0873495,0.48202,-0.31296999999999997,-0.14045950000000001,0.6778500000000001,-0.5642499999999999,0.19102049999999998,0.5504,-0.25251,0.3585905,0.71861,-0.39185,-0.10287950000000001,0.88977,-0.77437,0.4277805,0.87393,-0.5546,-0.08617949999999999,-0.007940000000000003,-0.014619999999999994,0.08617949999999999,0.007940000000000003,0.014620000000000022,-0.0444695,-0.22397999999999996,-0.37494,0.2084405,-0.23419999999999996,-0.30535999999999996,-0.07692950000000001,-0.58916,-0.20782599999999998,0.1728505,-0.60504,-0.18465499999999999
91,0.073492,0.7047950000000001,-0.35621499999999995,-0.087836,0.47619500000000003,-0.316725,-0.13961600000000002,0.668305,-0.570375,0.190004,0.546845,-0.25870499999999996,0.35916400000000004,0.711045,-0.39907499999999996,-0.101386,0.879745,-0.784725,0.429574,0.8639450000000001,-0.563795,-0.086476,-0.008384999999999976,-0.014174999999999993,0.086476,0.008385000000000031,0.014175000000000021,-0.045436,-0.21741499999999991,-0.378905,0.209184,-0.22802499999999992,-0.31003499999999995,-0.07802599999999998,-0.581695,-0.21095699999999998,0.172044,-0.598525,-0.188487
92,0.0739895,0.702815,-0.36246,-0.08817849999999999,0.471145,-0.32050999999999996,-0.1389585,0.659405,-0.57626,0.18927149999999998,0.544135,-0.26495,0.3598315,0.705735,-0.40581,-0.0997185,0.871355,-0.79453,0.4318015,0.856825,-0.57343,-0.08681849999999999,-0.009035000000000015,-0.013819999999999999,0.08681849999999999,0.00903499999999996,0.013819999999999999,-0.0459835,-0.210175,-0.38334,0.2100215,-0.221055,-0.31489999999999996,-0.07890849999999999,-0.5725750000000001,-0.213364,0.17131149999999998,-0.590975,-0.19248099999999999
93,0.07434400000000001,0.70114,-0.36832,-0.08858,0.46723,-0.32406999999999997,-0.13875,0.65189,-0.5821700000000001,0.18882,0.5410999999999999,-0.27116,0.36046,0.70021,-0.41182,-0.09873000000000001,0.86041,-0.8026500000000001,0.43432000000000004,0.84898,-0.58238,-0.08722,-0.009530000000000038,-0.013560000000000016,0.08722,0.009529999999999983,0.013559999999999989,-0.046194,-0.20309,-0.38770000000000004,0.21085,-0.21463,-0.31962999999999997,-0.07979,-0.56583,-0.216932,0.17013999999999999,-0.58267,-0.195551
94,0.0744155,0.698855,-0.37416499999999997,-0.0895385,0.461635,-0.32742499999999997,-0.1391685,0.644165,-0.587755,0.1888715,0.536835,-0.277155,0.36061150000000003,0.698495,-0.417825,-0.09866849999999999,0.849655,-0.809525,0.4366215,0.844305,-0.591715,-0.0877085,-0.01005499999999998,-0.013465000000000005,0.0877085,0.01005499999999998,0.013465000000000005,-0.0461895,-0.19552499999999995,-0.392255,0.2116415,-0.20780500000000002,-0.324345,-0.0811585,-0.559125,-0.220832,0.16896150000000001,-0.575265,-0.199543
95,0.074013,0.69529,-0.37851999999999997,-0.091055,0.4562,-0.32933,-0.13983500000000001,0.63764,-0.59102,0.188445,0.53621,-0.28003,0.36035500000000004,0.6927399999999999,-0.42227000000000003,-0.09903499999999998,0.8411,-0.81437,0.43857500000000005,0.8379399999999999,-0.59895,-0.08801500000000001,-0.01100000000000001,-0.013520000000000004,0.08801500000000001,0.01100000000000001,0.013520000000000004,-0.046061,-0.18951,-0.39578,0.212585,-0.20248000000000005,-0.32703000000000004,-0.08252499999999999,-0.5528599999999999,-0.22207000000000002,0.167435,-0.56978,-0.202625
96,0.0731955,0.692575,-0.38229,-0.0923195,0.44950300000000004,-0.33131999999999995,-0.1410595,0.6317250000000001,-0.59392,0.18811049999999999,0.5349250000000001,-0.28298999999999996,0.3599005,0.688065,-0.42619,-0.09946949999999999,0.833065,-0.81907,0.4399905,0.833135,-0.60515,-0.08836949999999999,-0.012004999999999988,-0.013759999999999994,0.08836949999999999,0.012005000000000043,0.013760000000000022,-0.04565350000000001,-0.18328499999999992,-0.39914,0.21328049999999998,-0.197125,-0.32941,-0.0842995,-0.546995,-0.22361999999999999,0.1657205,-0.5637949999999999,-0.20531499999999997
97,0.072161,0.6899150000000001,-0.385305,-0.09386,0.442666,-0.33282500000000004,-0.14240999999999998,0.6259250000000001,-0.595815,0.18799000000000002,0.533335,-0.285555,0.3591,0.6840649999999999,-0.428955,-0.09985,0.827255,-0.8231550000000001,0.44114,0.828865,-0.610305,-0.08868999999999999,-0.013045000000000029,-0.014215000000000005,0.08868999999999999,0.013044999999999973,0.014215000000000005,-0.045115999999999996,-0.177265,-0.402225,0.21402000000000002,-0.19196500000000005,-0.331385,-0.08598,-0.5406150000000001,-0.224181,0.16398000000000001,-0.558125,-0.207436
98,0.07126099999999999,0.687665,-0.38754500000000003,-0.09532700000000001,0.438932,-0.33403499999999997,-0.143447,0.621355,-0.597395,0.187913,0.5326649999999999,-0.287815,0.358353,0.680335,-0.431575,-0.10001700000000001,0.821035,-0.8270249999999999,0.442173,0.825145,-0.614695,-0.088867,-0.013975000000000015,-0.014524999999999982,0.088867,0.013975000000000015,0.01452500000000001,-0.044306000000000005,-0.17179500000000003,-0.405155,0.21464299999999997,-0.18694500000000003,-0.33296499999999996,-0.087927,-0.535505,-0.224943,0.162373,-0.552275,-0.20868699999999998
99,0.0699225,0.685335,-0.389405,-0.0967395,0.435309,-0.335515,-0.14407950000000003,0.617345,-0.598925,0.18774049999999998,0.531225,-0.289635,0.3576105,0.6767650000000001,-0.433925,-0.1003195,0.815885,-0.8304549999999999,0.4430805,0.8215749999999999,-0.618955,-0.0890495,-0.014655000000000029,-0.014715000000000006,0.0890495,0.014654999999999974,0.014715000000000006,-0.0436795,-0.16666500000000006,-0.408175,0.2151305,-0.18177500000000002,-0.334755,-0.08967950000000001,-0.530595,-0.225635,0.1606805,-0.5461050000000001,-0.209555
100,0.0681815,0.6830350000000001,-0.39135,-0.0982445,0.431531,-0.33677,-0.14504450000000002,0.613375,-0.60068,0.18748549999999997,0.530855,-0.29124,0.3567555,0.6725749999999999,-0.43638,-0.10083450000000001,0.8109850000000001,-0.83355,0.4434755,0.818585,-0.62311,-0.0892645,-0.015564999999999996,-0.014880000000000004,0.0892645,0.015564999999999996,0.014880000000000004,-0.043576500000000004,-0.16173500000000002,-0.41132,0.21540549999999997,-0.17660499999999996,-0.33672,-0.09163450000000001,-0.5252950000000001,-0.226281,0.1588255,-0.540395,-0.210346
101,0.06605149999999999,0.680755,-0.39300999999999997,-0.1001345,0.427083,-0.33807,-0.1464645,0.6094849999999999,-0.60245,0.1867355,0.527135,-0.29323,0.3555155,0.6684049999999999,-0.43894,-0.1021245,0.806265,-0.83625,0.4433855,0.814165,-0.6271,-0.0896545,-0.01604500000000003,-0.014869999999999994,0.0896545,0.016044999999999976,0.014869999999999994,-0.04387150000000001,-0.15664500000000003,-0.41372,0.2157555,-0.17172500000000002,-0.33904999999999996,-0.0940445,-0.521085,-0.227286,0.1566855,-0.5352950000000001,-0.210817
102,0.063716,0.6771499999999999,-0.39429000000000003,-0.101719,0.422628,-0.33930000000000005,-0.148689,0.60518,-0.60404,0.186541,0.52315,-0.29513,0.354081,0.6633,-0.4413,-0.10346899999999999,0.8027599999999999,-0.83892,0.442631,0.80997,-0.63068,-0.089947,-0.016199999999999992,-0.014860000000000012,0.089947,0.016199999999999992,0.014859999999999984,-0.044358999999999996,-0.15158000000000005,-0.41589000000000004,0.216401,-0.16707000000000005,-0.34165,-0.096419,-0.51704,-0.22810600000000003,0.154621,-0.5300900000000001,-0.21095000000000003
103,0.0615335,0.674775,-0.395185,-0.1033495,0.421184,-0.34038499999999994,-0.1508795,0.6025050000000001,-0.605625,0.1855505,0.520535,-0.296925,0.3526905,0.6569849999999999,-0.443505,-0.1048995,0.7985949999999999,-0.841425,0.4418005,0.805205,-0.633705,-0.0901035,-0.016264999999999974,-0.014944999999999986,0.0901035,0.01626500000000003,0.014945000000000014,-0.0448295,-0.147185,-0.41773499999999997,0.2171905,-0.16297499999999998,-0.344265,-0.0989095,-0.513355,-0.22920199999999996,0.1526305,-0.525495,-0.21097999999999997
104,0.059452500000000005,0.67274,-0.396065,-0.10469049999999999,0.41990099999999997,-0.341585,-0.1528705,0.6002799999999999,-0.6072649999999999,0.1847595,0.51782,-0.298685,0.35130950000000005,0.655,-0.44571500000000003,-0.10680049999999999,0.79455,-0.843315,0.4408995,0.80254,-0.6365149999999999,-0.0902675,-0.01609000000000005,-0.014915000000000012,0.0902675,0.016089999999999993,0.014914999999999984,-0.045420499999999996,-0.14364,-0.419265,0.2174695,-0.15949000000000002,-0.347115,-0.1009105,-0.5102300000000001,-0.23004200000000002,0.1507195,-0.52144,-0.21112200000000003
105,0.057173999999999996,0.66988,-0.39656,-0.105744,0.41969300000000004,-0.34267000000000003,-0.15412399999999998,0.5987600000000001,-0.6086,0.18369599999999997,0.51587,-0.29982,0.349076,0.6529,-0.44582,-0.108734,0.7904500000000001,-0.8445699999999999,0.439666,0.7996700000000001,-0.63912,-0.090367,-0.015959999999999974,-0.01471,0.090367,0.01596000000000003,0.01471,-0.046027,-0.14052999999999993,-0.42032,0.217636,-0.15642999999999996,-0.34974,-0.103274,-0.5070199999999999,-0.23043,0.148816,-0.51755,-0.210319
106,0.0551795,0.66759,-0.396415,-0.1067415,0.419907,-0.343345,-0.1553115,0.59754,-0.609915,0.1825585,0.51432,-0.300445,0.3468585,0.65107,-0.445565,-0.1106915,0.7864599999999999,-0.845275,0.4378285,0.7968,-0.6395150000000001,-0.0904635,-0.01580999999999999,-0.014415000000000011,0.0904635,0.01580999999999999,0.014414999999999983,-0.046620499999999995,-0.13777,-0.420665,0.21759850000000003,-0.15353,-0.351915,-0.1052415,-0.5025599999999999,-0.22960400000000003,0.14677849999999998,-0.5138499999999999,-0.209424
107,0.051997,0.66692,-0.396335,-0.108659,0.42036099999999993,-0.34409500000000004,-0.157799,0.59688,-0.611175,0.180491,0.51296,-0.301175,0.344511,0.6500299999999999,-0.447405,-0.11352899999999999,0.7829699999999999,-0.845875,0.43523100000000003,0.79448,-0.641935,-0.090524,-0.01584000000000002,-0.014165000000000011,0.090524,0.015839999999999965,0.014164999999999983,-0.04745799999999999,-0.13553000000000004,-0.42096500000000003,0.216641,-0.15081,-0.35399500000000006,-0.10811899999999999,-0.49888,-0.22950400000000004,0.143931,-0.50987,-0.20849300000000004
108,0.049175,0.666615,-0.396285,-0.11060400000000001,0.42102100000000003,-0.344505,-0.16003399999999998,0.596935,-0.612005,0.17860600000000001,0.512375,-0.30152500000000004,0.342306,0.6497350000000001,-0.449045,-0.11633399999999999,0.779765,-0.8462050000000001,0.432746,0.7926550000000001,-0.6438250000000001,-0.09054000000000001,-0.015764999999999973,-0.013975000000000015,0.09054000000000001,0.01576500000000003,0.013974999999999987,-0.047643,-0.13402499999999995,-0.420785,0.215876,-0.148505,-0.355725,-0.11050399999999999,-0.49468499999999993,-0.22842200000000001,0.14130600000000001,-0.506415,-0.207464
109,0.046608500000000004,0.66681,-0.396425,-0.1122315,0.421332,-0.345065,-0.1622115,0.59692,-0.612535,0.1768785,0.5116970000000001,-0.30201500000000003,0.34027850000000004,0.65099,-0.450165,-0.1192115,0.7772600000000001,-0.846555,0.4304985,0.7919400000000001,-0.645575,-0.0905815,-0.015710000000000002,-0.013945000000000013,0.0905815,0.015710000000000002,0.013944999999999985,-0.0471445,-0.13320000000000004,-0.420785,0.2151185,-0.14667000000000002,-0.35706499999999997,-0.1123315,-0.49084999999999995,-0.22726400000000002,0.1389085,-0.5037499999999999,-0.206372
110,0.0443155,0.6670149999999999,-0.396285,-0.1135785,0.42128599999999994,-0.345245,-0.1643985,0.5967749999999999,-0.612695,0.1752915,0.513002,-0.302145,0.3383015,0.652295,-0.450835,-0.12200849999999999,0.775295,-0.8467450000000001,0.42849149999999997,0.7918049999999999,-0.646555,-0.09048149999999999,-0.01576500000000003,-0.01389499999999999,0.09048149999999999,0.015764999999999973,0.013895000000000018,-0.0464635,-0.13366500000000003,-0.420795,0.2141015,-0.14612500000000006,-0.357265,-0.1140285,-0.48912500000000003,-0.227074,0.1368015,-0.502445,-0.205392
111,0.0422325,0.6674,-0.39592000000000005,-0.1149075,0.421613,-0.34550000000000003,-0.1672375,0.59716,-0.61302,0.1735325,0.513387,-0.30241,0.33625249999999995,0.65268,-0.45112,-0.1248775,0.77402,-0.84707,0.4262125,0.79219,-0.64685,-0.0903625,-0.01599999999999996,-0.01372000000000001,0.0903625,0.016000000000000014,0.013719999999999982,-0.0456465,-0.13496999999999992,-0.42089000000000004,0.2123625,-0.14639000000000002,-0.35753,-0.1156175,-0.48973999999999995,-0.22837500000000002,0.1345825,-0.5021599999999999,-0.204775
112,0.040389499999999995,0.6674,-0.395555,-0.1161635,0.421613,-0.34580500000000003,-0.1697135,0.59716,-0.613395,0.1718965,0.513387,-0.302735,0.3344965,0.65268,-0.451455,-0.1276135,0.77402,-0.847455,0.42385649999999997,0.79219,-0.647215,-0.0902665,-0.01599999999999996,-0.013474999999999987,0.0902665,0.016000000000000014,0.013475000000000015,-0.044771500000000006,-0.13649999999999995,-0.420565,0.2105565,-0.14694999999999991,-0.357865,-0.1175035,-0.49058999999999997,-0.228568,0.1326565,-0.5023099999999999,-0.204572
113,0.03889800000000001,0.6674,-0.39537999999999995,-0.117095,0.421613,-0.34655,-0.171535,0.59716,-0.61413,0.17056500000000002,0.513433,-0.30301,0.333055,0.6529900000000001,-0.45223,-0.129915,0.77402,-0.8481299999999999,0.421565,0.79219,-0.64803,-0.09024499999999999,-0.01599999999999996,-0.013240000000000002,0.09024499999999999,0.016000000000000014,0.013240000000000002,-0.04369699999999999,-0.13796999999999993,-0.41993,0.20911500000000002,-0.14737,-0.35863999999999996,-0.11873500000000001,-0.48997,-0.227901,0.13095500000000002,-0.5025,-0.20490599999999998
114,0.037568,0.67003,-0.395595,-0.11807300000000001,0.421613,-0.34677499999999994,-0.17358300000000002,0.59731,-0.613855,0.169177,0.51491,-0.30288499999999996,0.331627,0.6547000000000001,-0.453005,-0.132103,0.77402,-0.8486549999999999,0.419337,0.79224,-0.648555,-0.09035699999999999,-0.01599999999999996,-0.013114999999999988,0.09035699999999999,0.016000000000000014,0.013115000000000016,-0.042794,-0.13935999999999993,-0.419275,0.207667,-0.14788,-0.35904499999999995,-0.12032300000000001,-0.48917999999999995,-0.228368,0.129357,-0.5029899999999999,-0.20596099999999998
115,0.0360975,0.673605,-0.39508,-0.11902950000000001,0.42207100000000003,-0.34631999999999996,-0.1755395,0.5977950000000001,-0.61327,0.1677005,0.517105,-0.30203,0.33020049999999995,0.6577850000000001,-0.45307,-0.1343195,0.7735650000000001,-0.84843,0.4171605,0.792875,-0.64821,-0.09056049999999999,-0.016154999999999975,-0.012569999999999998,0.09056049999999999,0.01615500000000003,0.012569999999999998,-0.0422455,-0.140895,-0.41789999999999994,0.2059405,-0.14858499999999997,-0.35879,-0.12202950000000001,-0.490305,-0.229397,0.12778050000000002,-0.504225,-0.206866
116,0.035347500000000004,0.67767,-0.39444999999999997,-0.1190995,0.42260699999999995,-0.34576,-0.1766895,0.59843,-0.61258,0.1670405,0.51905,-0.30136,0.3295705,0.66089,-0.45287,-0.1356795,0.77471,-0.84813,0.41594050000000005,0.7950200000000001,-0.64771,-0.0908805,-0.01632,-0.012300000000000005,0.0908805,0.01632,0.012300000000000005,-0.0415995,-0.14256000000000002,-0.41659,0.2044505,-0.14998,-0.35853999999999997,-0.1217795,-0.49187000000000003,-0.229025,0.1271805,-0.50622,-0.208018
117,0.034636999999999994,0.681905,-0.39368000000000003,-0.11884700000000001,0.42834300000000003,-0.34496,-0.176539,0.600175,-0.61139,0.166311,0.520985,-0.30062,0.328991,0.6631750000000001,-0.45254,-0.137019,0.776365,-0.8476300000000001,0.414811,0.797865,-0.6470400000000001,-0.09116099999999999,-0.015914999999999957,-0.01208999999999999,0.09116099999999999,0.015915000000000012,0.01208999999999999,-0.041615,-0.145725,-0.41459,0.202511,-0.15285499999999996,-0.35806,-0.121889,-0.49424499999999993,-0.228808,0.126381,-0.509095,-0.208987
118,0.0336585,0.68719,-0.39127,-0.11933549999999998,0.432889,-0.34418,-0.1768435,0.60334,-0.60986,0.1653965,0.52151,-0.29996999999999996,0.3282465,0.66763,-0.45177,-0.1383435,0.7799,-0.8463999999999999,0.4136665,0.8014,-0.64528,-0.09153649999999999,-0.015199999999999991,-0.011709999999999998,0.09153649999999999,0.015199999999999991,0.011709999999999998,-0.0424105,-0.15119,-0.41158,0.2000865,-0.15760999999999997,-0.35749,-0.1226235,-0.49899999999999994,-0.229657,0.1254965,-0.5138499999999999,-0.209811
119,0.032675499999999996,0.69199,-0.38810999999999996,-0.1199985,0.43685599999999997,-0.34238999999999997,-0.1776215,0.6071799999999999,-0.60719,0.1648485,0.52149,-0.29851,0.3276385,0.67225,-0.44939999999999997,-0.13948149999999998,0.78443,-0.84383,0.4124285,0.80679,-0.6419999999999999,-0.0917085,-0.014460000000000028,-0.011549999999999977,0.0917085,0.014459999999999973,0.011550000000000005,-0.0431825,-0.15766999999999998,-0.40769999999999995,0.1975585,-0.16273000000000004,-0.35631,-0.1227115,-0.50377,-0.22937599999999997,0.12480849999999999,-0.5192100000000001,-0.210065
120,0.031550999999999996,0.697035,-0.38439,-0.120114,0.44088,-0.3397,-0.179658,0.612575,-0.6034900000000001,0.163992,0.524735,-0.29498,0.326962,0.676375,-0.44582,-0.140728,0.789785,-0.8401400000000001,0.411202,0.812395,-0.6377200000000001,-0.09174199999999999,-0.013954999999999995,-0.011450000000000016,0.09174199999999999,0.013954999999999995,0.011449999999999988,-0.044054,-0.16533500000000007,-0.4028,0.19453199999999998,-0.16899500000000006,-0.35444,-0.122698,-0.510645,-0.229284,0.124112,-0.526335,-0.210204
121,0.0301345,0.702585,-0.38070499999999996,-0.1207915,0.445419,-0.336275,-0.1822485,0.617725,-0.599555,0.1627515,0.530015,-0.291005,0.32590149999999996,0.680755,-0.44181499999999996,-0.1423585,0.796485,-0.835715,0.40977149999999996,0.817875,-0.633025,-0.0917115,-0.013635000000000008,-0.011454999999999993,0.0917115,0.013635000000000008,0.011454999999999993,-0.0451485,-0.17333500000000002,-0.397825,0.1905315,-0.17454499999999995,-0.35201499999999997,-0.1238185,-0.519445,-0.229329,0.1232415,-0.533805,-0.21034599999999998
122,0.028532500000000002,0.7076800000000001,-0.37704,-0.12184249999999999,0.45043500000000003,-0.33265,-0.1847075,0.6228400000000001,-0.59568,0.1613925,0.53484,-0.28702,0.32500249999999997,0.6847400000000001,-0.43735999999999997,-0.1442375,0.80484,-0.83157,0.40824249999999995,0.82311,-0.62738,-0.09150249999999999,-0.013339999999999963,-0.011439999999999978,0.09150249999999999,0.013340000000000019,0.011440000000000006,-0.0463695,-0.1824,-0.39303,0.18611250000000001,-0.18157999999999996,-0.34965999999999997,-0.1250075,-0.5286099999999999,-0.229096,0.1222925,-0.54265,-0.210358
123,0.0272955,0.71185,-0.373025,-0.12242549999999999,0.45767599999999997,-0.329325,-0.1875155,0.6287499999999999,-0.592425,0.16042450000000003,0.53917,-0.28342500000000004,0.32461450000000003,0.6895,-0.432585,-0.14584550000000002,0.8133900000000001,-0.826935,0.40715450000000003,0.82978,-0.6219250000000001,-0.0910945,-0.012830000000000008,-0.011395000000000016,0.0910945,0.012830000000000008,0.011394999999999988,-0.0474435,-0.19158000000000003,-0.38849500000000003,0.1823745,-0.18888,-0.347305,-0.12610549999999998,-0.5384,-0.229019,0.1218145,-0.5523499999999999,-0.21097500000000002
124,0.0257895,0.7168950000000001,-0.367915,-0.1231475,0.46434500000000006,-0.326095,-0.1910405,0.6359250000000001,-0.587635,0.1594695,0.543135,-0.280065,0.3239595,0.6951350000000001,-0.426995,-0.1478005,0.824165,-0.821345,0.4058395,0.8375950000000001,-0.615625,-0.0907895,-0.012544999999999973,-0.011295,0.0907895,0.012545000000000028,0.011295,-0.0486925,-0.20066499999999998,-0.384255,0.1788195,-0.1959249999999999,-0.344665,-0.1270205,-0.549225,-0.22955699999999998,0.12152949999999998,-0.5615549999999999,-0.211411
125,0.024159,0.722545,-0.36122,-0.12422,0.47228500000000007,-0.32116,-0.19451,0.644755,-0.58091,0.15791,0.547645,-0.27474,0.32341000000000003,0.701895,-0.42053,-0.15066,0.8348450000000001,-0.8130999999999999,0.40389,0.845955,-0.60738,-0.09057000000000001,-0.011904999999999999,-0.011319999999999997,0.09057000000000001,0.011904999999999999,0.011319999999999997,-0.050648,-0.21188499999999993,-0.37824,0.17523,-0.204965,-0.33977,-0.12794,-0.5606249999999999,-0.228503,0.12128,-0.5727249999999999,-0.210784
126,0.0219955,0.729875,-0.352665,-0.1252345,0.477965,-0.315305,-0.1980945,0.6554949999999999,-0.572965,0.1575655,0.5520849999999999,-0.267688,0.32303550000000003,0.710745,-0.41295499999999996,-0.15444449999999998,0.8485149999999999,-0.801145,0.4019855,0.8569149999999999,-0.597545,-0.0904055,-0.011514999999999997,-0.01103499999999999,0.0904055,0.011514999999999997,0.01103499999999999,-0.0538725,-0.223065,-0.371375,0.1713655,-0.21554500000000004,-0.33296499999999996,-0.12844450000000002,-0.572195,-0.225705,0.1213255,-0.5860350000000001,-0.209317
127,0.0202105,0.7361500000000001,-0.34496,-0.1261205,0.48434,-0.30916,-0.20141050000000002,0.66577,-0.56443,0.15746949999999998,0.55742,-0.26023,0.3226595,0.7176100000000001,-0.40474,-0.1582705,0.86175,-0.78872,0.4000795,0.86739,-0.58831,-0.09011949999999999,-0.011249999999999982,-0.01088,0.09011949999999999,0.011250000000000038,0.01088,-0.0571215,-0.23326000000000002,-0.36523,0.1678295,-0.22546,-0.32564000000000004,-0.1289005,-0.58606,-0.224157,0.1215495,-0.59878,-0.207364
128,0.018463499999999994,0.742875,-0.33628,-0.1267005,0.49077499999999996,-0.30310000000000004,-0.2047005,0.676175,-0.55402,0.15751949999999998,0.562925,-0.252535,0.3221795,0.724305,-0.39655,-0.1627705,0.8760049999999999,-0.77511,0.3972695,0.876565,-0.57833,-0.0896795,-0.010794999999999999,-0.01075000000000001,0.0896795,0.010794999999999999,0.010749999999999982,-0.0606345,-0.24290499999999998,-0.35912,0.16409949999999998,-0.23550500000000002,-0.31820000000000004,-0.1288905,-0.600835,-0.22279400000000002,0.1220395,-0.6117250000000001,-0.20524000000000003
129,0.0166715,0.749975,-0.32589,-0.1281535,0.4977349999999999,-0.2959,-0.2075735,0.685835,-0.54293,0.1581965,0.567035,-0.244338,0.3209965,0.731055,-0.38728,-0.16810350000000002,0.892515,-0.7596499999999999,0.39339650000000004,0.8866649999999999,-0.56725,-0.0890465,-0.01021500000000003,-0.010599999999999998,0.0890465,0.010214999999999974,0.010599999999999998,-0.06552050000000001,-0.25236500000000006,-0.35357,0.1602765,-0.24600500000000003,-0.30948,-0.1285935,-0.616645,-0.222301,0.12335650000000001,-0.6297050000000001,-0.206252
130,0.015052499999999996,0.7559100000000001,-0.314625,-0.1302415,0.50704,-0.28774500000000003,-0.21032150000000002,0.69923,-0.530455,0.15915849999999998,0.5684199999999999,-0.236022,0.3199585,0.7388600000000001,-0.378205,-0.17363150000000002,0.90849,-0.7433150000000001,0.38921849999999997,0.8959600000000001,-0.555795,-0.0883185,-0.009160000000000001,-0.010784999999999989,0.0883185,0.009160000000000001,0.010784999999999989,-0.0707595,-0.26028,-0.347295,0.1568985,-0.25806999999999997,-0.300685,-0.12797150000000002,-0.6320999999999999,-0.22277,0.1248185,-0.64802,-0.207031
131,0.013893500000000003,0.76227,-0.30257999999999996,-0.1318885,0.51573,-0.27928,-0.21305849999999998,0.7125,-0.51746,0.1606915,0.57006,-0.227263,0.3193115,0.74675,-0.36934,-0.17879849999999997,0.9253100000000001,-0.7255199999999999,0.3857315,0.90628,-0.54514,-0.0877715,-0.00810999999999995,-0.010550000000000004,0.0877715,0.008110000000000006,0.010550000000000004,-0.0755335,-0.26742,-0.34103,0.15447149999999998,-0.26922999999999997,-0.29186999999999996,-0.1275385,-0.6454599999999999,-0.22431099999999998,0.12659150000000002,-0.66383,-0.207648
132,0.012954,0.768785,-0.290245,-0.132973,0.521875,-0.271105,-0.21463300000000002,0.7254149999999999,-0.503735,0.16283699999999998,0.5714049999999999,-0.218849,0.319127,0.754215,-0.360925,-0.183863,0.942735,-0.707475,0.382527,0.914965,-0.535025,-0.087527,-0.0068849999999999745,-0.01030499999999998,0.087527,0.006885000000000002,0.010305000000000009,-0.08091999999999999,-0.272385,-0.33486499999999997,0.15234699999999998,-0.279945,-0.283055,-0.126953,-0.659445,-0.225055,0.128967,-0.679045,-0.209143
133,0.0124475,0.774305,-0.278055,-0.1334455,0.529075,-0.26170499999999997,-0.2158155,0.737615,-0.490095,0.16547450000000002,0.575205,-0.209368,0.3192845,0.759965,-0.352335,-0.18869550000000002,0.957975,-0.6882349999999999,0.3797745,0.927485,-0.525115,-0.0873145,-0.005475000000000008,-0.009885000000000005,0.0873145,0.005475000000000008,0.009885000000000005,-0.0857705,-0.278355,-0.327845,0.1507945,-0.29232499999999995,-0.274045,-0.1256155,-0.673645,-0.224037,0.13173449999999998,-0.694555,-0.21007
134,0.012305499999999997,0.77784,-0.26636000000000004,-0.1337195,0.53556,-0.25311,-0.21696949999999998,0.7483099999999999,-0.47716000000000003,0.1677805,0.5774699999999999,-0.201121,0.31978049999999997,0.76429,-0.34398,-0.1928995,0.97151,-0.6700699999999999,0.3779105,0.93786,-0.5163800000000001,-0.0870705,-0.004260000000000014,-0.009349999999999997,0.0870705,0.004259999999999986,0.009349999999999997,-0.0898245,-0.28303,-0.32178,0.14987050000000002,-0.30056000000000005,-0.26628,-0.1246295,-0.68774,-0.224034,0.1348705,-0.70858,-0.211362
135,0.012687,0.77837,-0.254625,-0.134504,0.5386200000000001,-0.244135,-0.217844,0.75585,-0.463835,0.170156,0.5787,-0.19363,0.320276,0.76765,-0.336015,-0.196584,0.98192,-0.653025,0.37597600000000003,0.94409,-0.508005,-0.08688599999999999,-0.003349999999999992,-0.009175000000000016,0.08688599999999999,0.0033500000000000196,0.009174999999999989,-0.09295700000000001,-0.28798999999999997,-0.315355,0.149386,-0.30682,-0.25943499999999997,-0.123634,-0.69967,-0.22429700000000002,0.13780599999999998,-0.7212999999999999,-0.212282
136,0.013157499999999996,0.7776099999999999,-0.2419,-0.13532650000000002,0.5426500000000001,-0.23452,-0.2192065,0.7643899999999999,-0.44875,0.1727735,0.5798300000000001,-0.185892,0.32098350000000003,0.7706200000000001,-0.32822,-0.2006965,0.99377,-0.6336700000000001,0.3737035,0.95208,-0.49906000000000006,-0.08670749999999999,-0.002589999999999981,-0.00902,0.08670749999999999,0.002590000000000009,0.00902,-0.09696450000000001,-0.29405,-0.30739000000000005,0.1490435,-0.31287000000000004,-0.25275000000000003,-0.12314649999999999,-0.7120899999999999,-0.224085,0.1407935,-0.73458,-0.21285900000000002
137,0.013804499999999997,0.7785,-0.22930299999999998,-0.1363295,0.5468500000000001,-0.224466,-0.22078950000000003,0.77335,-0.43349499999999996,0.1761205,0.5807,-0.177942,0.3219805,0.77369,-0.320605,-0.2041595,1.0051100000000002,-0.6140749999999999,0.3719405,0.95907,-0.491025,-0.0863965,-0.0019299999999999873,-0.008794999999999997,0.0863965,0.001930000000000015,0.008795000000000025,-0.10105650000000001,-0.30036999999999997,-0.298995,0.1490305,-0.31894,-0.245495,-0.1230495,-0.72508,-0.22317599999999999,0.1433005,-0.74757,-0.21215699999999998
138,0.014680500000000003,0.778075,-0.21801399999999999,-0.13693249999999998,0.550265,-0.215536,-0.2225025,0.781525,-0.41847,0.1779175,0.579555,-0.17196699999999998,0.32345749999999995,0.777095,-0.31421,-0.2066625,1.014885,-0.59517,0.37081749999999997,0.967225,-0.48444,-0.08605550000000001,-0.0011849999999999916,-0.008469999999999991,0.08605550000000001,0.0011850000000000194,0.008470000000000005,-0.10418649999999999,-0.30533499999999997,-0.29058,0.1496075,-0.323965,-0.23939,-0.1232425,-0.735665,-0.21999,0.14490750000000002,-0.758035,-0.208172
139,0.015867000000000003,0.7774650000000001,-0.20587699999999998,-0.137038,0.554905,-0.205762,-0.224108,0.787595,-0.40398,0.179822,0.578485,-0.166006,0.32497200000000004,0.7787649999999999,-0.30745,-0.208788,1.024095,-0.57594,0.370032,0.977565,-0.47815,-0.085561,-0.0004149999999999987,-0.00814999999999999,0.085561,0.0004149999999999987,0.00814999999999999,-0.10681,-0.311025,-0.28200000000000003,0.150532,-0.32898499999999997,-0.23337,-0.12336799999999999,-0.7437050000000001,-0.215893,0.14655200000000002,-0.7676050000000001,-0.203982
140,0.016625499999999994,0.7766149999999999,-0.19459200000000001,-0.1374995,0.559645,-0.196733,-0.22516950000000002,0.794435,-0.389815,0.1813705,0.579195,-0.160553,0.3259805,0.780965,-0.30095500000000003,-0.21135949999999998,1.0316649999999998,-0.557105,0.3687505,0.987245,-0.47214500000000004,-0.0849805,0.00013499999999999623,-0.0077050000000000035,0.0849805,-0.00013499999999999623,0.0077050000000000035,-0.1098195,-0.315675,-0.273505,0.1504105,-0.333425,-0.227215,-0.12361950000000001,-0.752325,-0.212302,0.14771050000000002,-0.776215,-0.20031700000000002
141,0.0172245,0.77417,-0.182796,-0.1381495,0.56379,-0.18717299999999998,-0.2273295,0.80127,-0.374635,0.1827305,0.57909,-0.15434799999999999,0.3270305,0.78208,-0.29383499999999996,-0.2138195,1.0377800000000001,-0.536815,0.36754050000000005,0.99609,-0.465205,-0.0843195,0.00029000000000001247,-0.006934999999999997,0.0843195,-0.0002899999999999847,0.006934999999999997,-0.1115895,-0.32600999999999997,-0.263465,0.1499105,-0.34376,-0.219715,-0.1237695,-0.76266,-0.208002,0.1482605,-0.78399,-0.19352799999999998
142,0.01792,0.77117,-0.170356,-0.13834200000000002,0.56891,-0.176296,-0.22942200000000001,0.80811,-0.359405,0.184658,0.58046,-0.148217,0.328178,0.78331,-0.286615,-0.216252,1.04339,-0.516305,0.366858,0.9993,-0.457575,-0.08421899999999999,0.0008199999999999874,-0.006104999999999999,0.08421899999999999,-0.0008200000000000152,0.006104999999999999,-0.11330199999999999,-0.33642,-0.252195,0.148178,-0.35417000000000004,-0.20931,-0.123702,-0.76997,-0.201612,0.147898,-0.79177,-0.184564
143,0.018246,0.7666299999999999,-0.152886,-0.13859100000000002,0.57146,-0.160223,-0.230871,0.81265,-0.337975,0.186039,0.57999,-0.136768,0.32891899999999996,0.78243,-0.274055,-0.21897100000000003,1.04788,-0.490315,0.36571899999999996,1.00093,-0.443345,-0.084147,0.00179,-0.005174999999999999,0.084147,-0.00179,0.005174999999999999,-0.11539100000000001,-0.34836999999999996,-0.233375,0.14593899999999999,-0.36622,-0.193497,-0.12405100000000001,-0.7790600000000001,-0.188109,0.14704899999999999,-0.80149,-0.170279
144,0.018731000000000005,0.7685150000000001,-0.135106,-0.13886,0.575095,-0.14248,-0.23289,0.8165450000000001,-0.315712,0.18719,0.578195,-0.124028,0.32975,0.779195,-0.259912,-0.22215000000000001,1.053525,-0.463762,0.36461,1.001465,-0.427902,-0.08412700000000001,0.002125000000000002,-0.003691,0.08412700000000001,-0.002125000000000002,0.003691,-0.11743,-0.360035,-0.210422,0.14337,-0.38068500000000005,-0.17345,-0.12473000000000001,-0.789025,-0.17193,0.14593,-0.811925,-0.154798
145,0.019531999999999997,0.771585,-0.11852599999999999,-0.139116,0.5784549999999999,-0.125195,-0.23483600000000002,0.8187249999999999,-0.295377,0.188174,0.576865,-0.111631,0.330894,0.7758349999999999,-0.24633699999999997,-0.224916,1.056645,-0.440177,0.363984,1.000015,-0.413167,-0.084078,0.0025199999999999945,-0.002363000000000004,0.084078,-0.0025200000000000083,0.002363000000000004,-0.118286,-0.37087499999999995,-0.189057,0.140824,-0.394505,-0.15357300000000002,-0.12512600000000001,-0.797255,-0.155574,0.14488399999999999,-0.8211050000000001,-0.13913
146,0.020271,0.772631,-0.10254650000000001,-0.139569,0.582471,-0.1078385,-0.236859,0.816401,-0.2770145,0.188991,0.575361,-0.0994995,0.332341,0.771981,-0.2330645,-0.228129,1.055371,-0.41786449999999997,0.363811,0.998321,-0.3986145,-0.084041,0.003020000000000009,-0.0011385000000000006,0.084041,-0.003019999999999995,0.0011384999999999867,-0.11884900000000001,-0.383409,-0.16743950000000002,0.13817100000000002,-0.411499,-0.1334915,-0.125639,-0.805129,-0.13866250000000002,0.14333100000000001,-0.831719,-0.1232285
147,0.020673499999999997,0.7741315,-0.0866975,-0.1404145,0.5867614999999999,-0.0903885,-0.23919449999999998,0.8123214999999999,-0.2584335,0.18953550000000002,0.5739115,-0.0872995,0.3336055,0.7666115,-0.2200935,-0.2317245,1.0515915,-0.3965535,0.3633255,0.9918315,-0.3840535,-0.0839995,0.003516499999999992,0.0001255000000000006,0.0839995,-0.0035165000000000057,-0.00012549999999999367,-0.11973450000000001,-0.3948385,-0.14545550000000002,0.13537549999999998,-0.4294285,-0.1132965,-0.12661450000000002,-0.8128485000000001,-0.1217755,0.1415555,-0.8426385000000001,-0.10715649999999999
148,0.021096000000000007,0.7766795,-0.071997,-0.141348,0.5872094999999999,-0.07503,-0.242418,0.8044095,-0.24016500000000002,0.190022,0.5730795,-0.075465,0.335302,0.7578095,-0.207535,-0.23557799999999998,1.0428595,-0.375535,0.36276200000000003,0.9812795,-0.369695,-0.084146,0.0037745,0.0014110000000000025,0.084146,-0.0037745,-0.0014110000000000025,-0.120698,-0.4046905,-0.12418099999999999,0.132652,-0.44736050000000005,-0.093429,-0.127638,-0.8196105,-0.10466400000000001,0.139682,-0.8525605,-0.090989
149,0.021525000000000002,0.779131,-0.0569295,-0.142416,0.5873109999999999,-0.059175500000000006,-0.247596,0.793831,-0.2205375,0.190334,0.570931,-0.06371650000000001,0.337504,0.747031,-0.19515749999999998,-0.239736,1.032081,-0.3543975,0.362324,0.970501,-0.3552175,-0.084285,0.004119999999999999,0.002649499999999999,0.084285,-0.004119999999999999,-0.002649499999999999,-0.121766,-0.41427899999999995,-0.10299649999999999,0.130514,-0.465239,-0.0737115,-0.128596,-0.8256990000000001,-0.08708450000000001,0.138024,-0.8625390000000001,-0.0754145
150,0.022067499999999997,0.7840564999999999,-0.0425335,-0.1435075,0.5880265,-0.0436665,-0.2536375,0.7846865,-0.20272050000000003,0.1906525,0.5698765,-0.0525425,0.3405825,0.7378865,-0.18341049999999998,-0.2439175,1.0229365,-0.33521049999999997,0.36272249999999995,0.9613565,-0.3408805,-0.0843685,0.0046485,0.0035595,0.0843685,-0.0046485,-0.0035595,-0.12227750000000001,-0.4225235,-0.0827445,0.1286425,-0.4818535,-0.0551305,-0.12919750000000002,-0.8302235,-0.0702135,0.1365625,-0.8715135,-0.062149499999999996
151,0.022501000000000004,0.7892695,-0.029366999999999997,-0.14423,0.5869795,-0.029885,-0.26108,0.7775295,-0.18542,0.19061999999999998,0.5648195,-0.042201999999999996,0.34505,0.7307295,-0.17240999999999998,-0.2485,1.0157795,-0.31639,0.36371,0.9541995,-0.32757,-0.084403,0.004841500000000002,0.0042130000000000015,0.084403,-0.004841500000000002,-0.004212999999999998,-0.12253,-0.4315805,-0.064147,0.12782,-0.4964105,-0.039538,-0.12956,-0.8332805,-0.054084,0.13591999999999999,-0.8787005,-0.051745
152,0.023215000000000003,0.796942,-0.021639000000000002,-0.144673,0.587552,-0.021569,-0.269163,0.773242,-0.174701,0.190917,0.562252,-0.037272,0.350237,0.725782,-0.167111,-0.252503,1.011202,-0.303961,0.36528700000000003,0.947312,-0.32126099999999996,-0.084422,0.004472999999999998,0.004576999999999998,0.084422,-0.004473000000000001,-0.004577000000000001,-0.122393,-0.437248,-0.053319,0.127297,-0.508138,-0.029417000000000002,-0.129683,-0.833348,-0.045656,0.135647,-0.882848,-0.046836
153,0.023735000000000003,0.8001935,-0.015354499999999998,-0.145121,0.5874535000000001,-0.015553499999999998,-0.27897099999999997,0.7646935,-0.16537849999999998,0.19139899999999999,0.5620435,-0.0332905,0.355769,0.7193435,-0.1640085,-0.256281,1.0041635,-0.2935185,0.36679900000000004,0.9394135,-0.3166085,-0.084557,0.0045725,0.0046485,0.084557,-0.0045725,-0.004648499999999998,-0.122391,-0.4397665,-0.0476695,0.126859,-0.5112464999999999,-0.0237365,-0.129801,-0.8310365,-0.0398325,0.135349,-0.8849865,-0.043732499999999994
154,0.023655500000000003,0.803467,-0.0091105,-0.1462525,0.586317,-0.0096235,-0.2896725,0.752467,-0.1563995,0.1915675,0.561197,-0.0289915,0.3609875,0.708407,-0.1607995,-0.26093249999999996,0.991677,-0.2826795,0.36771750000000003,0.925837,-0.31188950000000004,-0.08426149999999999,0.0047230000000000015,0.004861500000000001,0.08426149999999999,-0.004722999999999998,-0.0048614999999999995,-0.1230225,-0.443053,-0.0412575,0.12632749999999998,-0.513363,-0.0178805,-0.1304825,-0.828753,-0.034506499999999996,0.1348175,-0.886183,-0.040820499999999996
