sb224sc-HT22-VT27/4dt907/src/data/kinect_good_preprocessed_A9_mediapipe/A10_kinect.csv
FrameNo,nose_3d_x,nose_3d_y,nose_3d_z,left_shoulder_3d_x,left_shoulder_3d_y,left_shoulder_3d_z,left_elbow_3d_x,left_elbow_3d_y,left_elbow_3d_z,right_shoulder_3d_x,right_shoulder_3d_y,right_shoulder_3d_z,right_elbow_3d_x,right_elbow_3d_y,right_elbow_3d_z,left_wrist_3d_x,left_wrist_3d_y,left_wrist_3d_z,right_wrist_3d_x,right_wrist_3d_y,right_wrist_3d_z,left_hip_3d_x,left_hip_3d_y,left_hip_3d_z,right_hip_3d_x,right_hip_3d_y,right_hip_3d_z,left_knee_3d_x,left_knee_3d_y,left_knee_3d_z,right_knee_3d_x,right_knee_3d_y,right_knee_3d_z,left_ankle_3d_x,left_ankle_3d_y,left_ankle_3d_z,right_ankle_3d_x,right_ankle_3d_y,right_ankle_3d_z
42,0.0035965000000000007,0.7339105,0.06725149999999999,-0.1434375,0.5086605000000001,0.0688815,-0.24503750000000002,0.7229505,0.0369335,0.15144249999999998,0.48240049999999995,0.0528005,0.2512825,0.7022905,0.0312125,-0.2839775,0.9593705000000001,-0.007963499999999998,0.2785725,0.9632705000000001,-0.0217045,-0.0719815,0.0022365000000000024,0.004707500000000003,0.0719815,-0.0022364999999999954,-0.0047075,-0.1195475,-0.4032295,-0.0051135,0.12297250000000001,-0.4413995,0.005595500000000003,-0.1188275,-0.7787795,-0.0016514999999999967,0.1369425,-0.7985295,-0.0212575
43,0.002812999999999998,0.73369,0.06747149999999999,-0.143774,0.50863,0.0696335,-0.24513400000000002,0.7222500000000001,0.0389215,0.150886,0.48246999999999995,0.0530655,0.250246,0.70251,0.032286499999999996,-0.28483400000000003,0.96039,-0.0051725,0.277806,0.9631900000000001,-0.0204765,-0.07195499999999999,0.0021899999999999975,0.004793499999999999,0.07195499999999999,-0.0021900000000000044,-0.004793500000000003,-0.11921400000000001,-0.40374,-0.0051785000000000025,0.123286,-0.44162,0.005486499999999998,-0.11857400000000001,-0.77921,-0.0019755000000000016,0.137346,-0.79877,-0.021295500000000002
44,0.0020260000000000026,0.7334275,0.067767,-0.144154,0.5085575,0.070491,-0.24524400000000002,0.7215275,0.040931999999999996,0.150356,0.4824975,0.053419999999999995,0.24930600000000003,0.7027074999999999,0.033289,-0.285684,0.9612175000000001,-0.002418,0.27701600000000004,0.9630175000000001,-0.019347000000000003,-0.07192,0.0021564999999999987,0.004855999999999999,0.07192,-0.0021564999999999987,-0.004856000000000003,-0.118904,-0.4042425,-0.005242,0.123596,-0.4418725,0.005386999999999999,-0.118294,-0.7796525,-0.0023110000000000006,0.137766,-0.7990125,-0.021296000000000002
45,0.0012144999999999986,0.7331825,0.068053,-0.1445035,0.5085225,0.07118000000000001,-0.2453735,0.7208625,0.042894,0.1498065,0.48252249999999997,0.053799,0.2484465,0.7029325,0.034189,-0.28652350000000004,0.9617825,4.300000000000137e-05,0.2762165,0.9629825000000001,-0.018309999999999996,-0.0718755,0.0021454999999999946,0.004934000000000001,0.0718755,-0.0021455000000000016,-0.004934000000000001,-0.1186235,-0.40466749999999996,-0.005308,0.1239065,-0.44209750000000003,0.0052780000000000014,-0.1180335,-0.7800375,-0.002631999999999999,0.1382665,-0.7990475,-0.021532
46,0.00042150000000000477,0.7329155,0.068409,-0.14481349999999998,0.5085055,0.071795,-0.2456235,0.7202455,0.044730000000000006,0.14928650000000002,0.48258549999999995,0.054239,0.2476565,0.7030755000000001,0.03494,-0.2873435,0.9622655,0.0023650000000000025,0.27544650000000004,0.9630655000000001,-0.017442999999999997,-0.0718325,0.0021144999999999983,0.004999,0.0718325,-0.0021144999999999983,-0.004999,-0.11837349999999999,-0.40488450000000004,-0.005378999999999998,0.12421650000000001,-0.44234450000000003,0.005171000000000002,-0.11770349999999999,-0.7805344999999999,-0.0028909999999999977,0.1387065,-0.7990244999999999,-0.021688000000000002
47,-0.00033199999999999723,0.732707,0.068744,-0.145122,0.508417,0.072414,-0.246032,0.719677,0.046226,0.149058,0.482637,0.054643,0.246978,0.703187,0.035503,-0.28813199999999994,0.9627169999999999,0.004367999999999997,0.27472799999999997,0.9632170000000001,-0.016779000000000002,-0.071796,0.0020630000000000023,0.005075,0.071796,-0.0020629999999999954,-0.005075000000000003,-0.118132,-0.40501299999999996,-0.005479000000000001,0.124518,-0.442513,0.005027999999999998,-0.117382,-0.780923,-0.0030430000000000006,0.139118,-0.799053,-0.021862
48,-0.0010505000000000046,0.732534,0.069099,-0.1454125,0.508104,0.07302,-0.2464825,0.719204,0.047625,0.1488775,0.48274399999999995,0.055055,0.2463375,0.703294,0.036011,-0.2889025,0.9632240000000001,0.0061839999999999985,0.2740775,0.9633240000000001,-0.016221,-0.0717705,0.0019860000000000017,0.005141,0.0717705,-0.0019860000000000017,-0.005141000000000003,-0.1179125,-0.405036,-0.005605000000000002,0.1248175,-0.442576,0.004875999999999998,-0.11704250000000001,-0.780976,-0.003226000000000003,0.1394975,-0.798926,-0.021971000000000004
49,-0.0017165000000000036,0.7324365,0.06946749999999999,-0.14567850000000002,0.5077665,0.0736645,-0.24700850000000002,0.7189065,0.048959499999999996,0.1487015,0.4829065,0.0554025,0.24578149999999999,0.7035165,0.036401499999999996,-0.2896985,0.9637465000000001,0.007862499999999998,0.2734815,0.9636465000000001,-0.015755500000000006,-0.0717555,0.0019204999999999986,0.005215499999999998,0.0717555,-0.0019204999999999986,-0.005215500000000001,-0.1176985,-0.4049335,-0.005801500000000001,0.12510149999999998,-0.4425435,0.004694499999999997,-0.1166485,-0.7807535,-0.003355500000000001,0.1398715,-0.7986935,-0.0220705
50,-0.002330500000000001,0.732358,0.0698485,-0.14591349999999997,0.507448,0.0742665,-0.2475735,0.7187279999999999,0.0501755,0.1485165,0.48275799999999996,0.0557685,0.2452765,0.703768,0.0367165,-0.2904835,0.964298,0.0094245,0.2729565,0.963998,-0.0153505,-0.0717455,0.0018610000000000015,0.0052854999999999985,0.0717455,-0.0018609999999999946,-0.0052854999999999985,-0.1174835,-0.404802,-0.006033500000000001,0.1254065,-0.442532,0.004507500000000001,-0.1162435,-0.780432,-0.0034964999999999996,0.14016649999999997,-0.798432,-0.022195500000000003
51,-0.002913000000000004,0.732298,0.0702025,-0.14612400000000003,0.507158,0.0748405,-0.248164,0.718668,0.051222500000000004,0.14833599999999997,0.482658,0.056085499999999996,0.24481599999999998,0.704028,0.036915500000000004,-0.29122400000000004,0.964868,0.010854500000000001,0.27249599999999996,0.964368,-0.0150045,-0.071743,0.0018159999999999982,0.0053384999999999995,0.071743,-0.0018160000000000051,-0.0053384999999999995,-0.117284,-0.404672,-0.006262500000000001,0.125696,-0.442492,0.0043254999999999995,-0.115744,-0.7803920000000001,-0.003797499999999999,0.140436,-0.7982020000000001,-0.0222475
52,-0.002965499999999994,0.7322955,0.0704495,-0.1461825,0.5069755,0.0752035,-0.2483625,0.7187455,0.0520415,0.14828750000000002,0.4823155,0.0562695,0.2447675,0.7040155,0.0370115,-0.2914025,0.9652455,0.011935499999999998,0.2724375,0.9644455000000001,-0.0148055,-0.07174749999999999,0.0018225000000000047,0.005393499999999999,0.07174749999999999,-0.0018224999999999977,-0.0053935000000000025,-0.11731249999999999,-0.4046645,-0.0065175000000000025,0.12569750000000002,-0.44249449999999996,0.0041455,-0.1156325,-0.7803145,-0.0039655,0.1403975,-0.7982644999999999,-0.0223275
53,-0.003024999999999999,0.7322845,0.07065250000000001,-0.14623899999999998,0.5067845,0.0753765,-0.248549,0.7187945,0.0526315,0.148231,0.4820145,0.0564095,0.244721,0.7040045,0.0370255,-0.291549,0.9658144999999999,0.012727500000000001,0.272381,0.9645145,-0.0145665,-0.071746,0.0018275000000000027,0.005471500000000001,0.071746,-0.0018274999999999958,-0.005471500000000001,-0.11735899999999999,-0.4047455,-0.006731499999999998,0.125691,-0.4425055,0.0039515,-0.11551900000000001,-0.7802455,-0.004244499999999998,0.140381,-0.7982855,-0.0224485
54,-0.0030869999999999986,0.7322675,0.070876,-0.146297,0.5066674999999999,0.07557,-0.248707,0.7188675,0.053175,0.148173,0.4817175,0.056572,0.24466300000000002,0.7040575,0.037058,-0.291707,0.9664875,0.013534999999999998,0.27231299999999997,0.9646875,-0.014203,-0.071745,0.0018325000000000008,0.00554,0.071745,-0.0018325000000000008,-0.00554,-0.117407,-0.40482250000000003,-0.006909000000000002,0.125663,-0.4425025,0.0037400000000000003,-0.115437,-0.7801725,-0.004463000000000002,0.14036300000000002,-0.7982425,-0.022616000000000004
55,-0.003082999999999999,0.7322365,0.071159,-0.146152,0.5065365,0.07578,-0.24883199999999997,0.7189464999999999,0.053692000000000004,0.148348,0.48138649999999994,0.056724000000000004,0.24474800000000002,0.7040664999999999,0.037134,-0.29183200000000004,0.9671065,0.014281000000000002,0.272538,0.9648065,-0.013657999999999997,-0.071748,0.001851499999999999,0.005621000000000001,0.071748,-0.001851499999999999,-0.0056209999999999975,-0.11743200000000001,-0.40480350000000004,-0.007101,0.125668,-0.4425635,0.0035320000000000004,-0.11536199999999999,-0.7801235,-0.004652,0.140348,-0.7981035,-0.022720999999999998
56,-0.002985500000000002,0.7322475,0.071553,-0.14596949999999997,0.5065075,0.076231,-0.2489495,0.7190675000000001,0.05428,0.14854050000000002,0.4810674999999999,0.056958,0.2449405,0.7040875,0.037257,-0.2919595,0.9679274999999999,0.015080000000000001,0.2728105,0.9650275,-0.013081999999999996,-0.0717565,0.0018724999999999992,0.005679,0.0717565,-0.0018724999999999992,-0.005679,-0.1174495,-0.40500250000000004,-0.007259999999999999,0.12567050000000002,-0.4426125,0.0033420000000000012,-0.1152595,-0.7800024999999999,-0.004806999999999999,0.14033050000000002,-0.7979725,-0.022879999999999998
57,-0.0028180000000000045,0.732284,0.07197999999999999,-0.145814,0.506494,0.07677,-0.249064,0.719234,0.05493,0.14872599999999997,0.48077400000000003,0.057159,0.245216,0.704154,0.037385,-0.292104,0.968694,0.015864,0.273116,0.965294,-0.012526000000000002,-0.071771,0.001899999999999999,0.005707999999999998,0.071771,-0.001899999999999999,-0.005708000000000001,-0.117464,-0.405246,-0.0074,0.125666,-0.442666,0.003147999999999998,-0.115244,-0.780326,-0.005156000000000001,0.140316,-0.797796,-0.023028
58,-0.0025664999999999985,0.7323655,0.072421,-0.1456835,0.5065054999999999,0.07725599999999999,-0.2492035,0.7194254999999999,0.055486999999999995,0.1489465,0.48048550000000007,0.057357,0.2455365,0.7042354999999999,0.037568,-0.29222349999999997,0.9694754999999999,0.016547999999999997,0.27344650000000004,0.9654754999999999,-0.011975,-0.0717815,0.0019204999999999986,0.005707999999999998,0.0717815,-0.0019204999999999986,-0.005708000000000001,-0.1174935,-0.4054945,-0.007518000000000004,0.12566650000000001,-0.4426545,0.0029079999999999974,-0.11515349999999999,-0.7801545000000001,-0.0054560000000000025,0.1402465,-0.7975945000000001,-0.023175
59,-0.002267500000000003,0.7324065000000001,0.0728645,-0.1455595,0.5064965,0.0778035,-0.2493495,0.7195665,0.0560525,0.1490105,0.4804965,0.0575515,0.24591049999999998,0.7042765,0.0378015,-0.29234950000000004,0.9702164999999999,0.0172155,0.27382049999999997,0.9657165,-0.011424499999999997,-0.0717935,0.0019354999999999997,0.005706500000000003,0.0717935,-0.0019354999999999997,-0.0057065,-0.1174895,-0.40596350000000003,-0.007587499999999997,0.12569049999999998,-0.44265350000000003,0.002676500000000002,-0.1151195,-0.7801135,-0.005743499999999999,0.14017049999999998,-0.7974335,-0.023324499999999998
60,-0.0019409999999999991,0.7324590000000001,0.0733585,-0.145451,0.5064690000000001,0.0782145,-0.24951099999999998,0.719719,0.0566055,0.149069,0.48054899999999995,0.057735499999999995,0.246339,0.7043590000000001,0.0380785,-0.292481,0.9708690000000001,0.0177695,0.274189,0.965969,-0.010915499999999998,-0.071802,0.0019519999999999954,0.0057035,0.071802,-0.0019520000000000023,-0.0057035,-0.117481,-0.406411,-0.007685500000000001,0.125719,-0.442661,0.0024414999999999992,-0.115151,-0.780121,-0.0061224999999999995,0.140109,-0.7972809999999999,-0.0234695
61,-0.0015770000000000029,0.7325904999999999,0.073854,-0.14534400000000003,0.5064305,0.07860700000000001,-0.249724,0.7198605,0.057125,0.149096,0.48061049999999994,0.057883000000000004,0.246826,0.7044805,0.03840400000000001,-0.292634,0.9715305,0.018256,0.274576,0.9661304999999999,-0.010444999999999996,-0.071808,0.001964500000000001,0.005664000000000002,0.071808,-0.001964499999999994,-0.005663999999999999,-0.117494,-0.40689949999999997,-0.007845999999999999,0.125776,-0.4426795,0.002172000000000004,-0.115214,-0.7800595,-0.006493999999999996,0.14002599999999998,-0.7971195,-0.023648999999999996
62,-0.0012065000000000053,0.732708,0.0743015,-0.1452635,0.506328,0.0789835,-0.2499635,0.719978,0.0575615,0.14909650000000002,0.48072800000000004,0.0580035,0.24730649999999998,0.704618,0.038753499999999996,-0.2928335,0.972088,0.0185705,0.2749565,0.9661879999999999,-0.010121499999999999,-0.0718265,0.0019769999999999996,0.0055745,0.0718265,-0.0019769999999999996,-0.0055745,-0.1174835,-0.407412,-0.0080695,0.1258165,-0.442722,0.001865499999999999,-0.1153135,-0.780002,-0.006721499999999998,0.13993650000000002,-0.797022,-0.0238515
63,-0.000823,0.732837,0.074716,-0.145124,0.506257,0.07923,-0.250284,0.720017,0.057888999999999996,0.149176,0.48084699999999997,0.058075,0.247906,0.7047869999999999,0.039040000000000005,-0.293064,0.9723169999999999,0.018671,0.275406,0.9663169999999999,-0.010001,-0.07186999999999999,0.0019759999999999986,0.005432000000000001,0.07186999999999999,-0.0019759999999999986,-0.005431999999999999,-0.11746400000000001,-0.40795299999999995,-0.008341000000000001,0.125906,-0.44276299999999996,0.001242,-0.11546400000000001,-0.780263,-0.006998999999999998,0.139786,-0.797023,-0.024130999999999996
64,-0.000648000000000004,0.7330135,0.0749605,-0.14514000000000002,0.5061535,0.0793815,-0.25067,0.7200635000000001,0.0580065,0.14917,0.48104350000000007,0.0580845,0.24831999999999999,0.7049835,0.0392195,-0.29339,0.9725634999999999,0.0185765,0.27571999999999997,0.9664634999999999,-0.010155500000000001,-0.07192899999999999,0.001978499999999994,0.005207499999999999,0.07192899999999999,-0.001978500000000001,-0.0052075,-0.11748,-0.40837650000000003,-0.008696500000000003,0.12596,-0.44278649999999997,0.00025149999999999825,-0.11573,-0.7807965,-0.0074825,0.13957,-0.7970565,-0.024492500000000004
65,-0.0005379999999999955,0.7330395,0.0750145,-0.145214,0.5061194999999999,0.0791345,-0.25102399999999997,0.7201195,0.057928499999999994,0.14910600000000002,0.4810995,0.0580175,0.248616,0.7050394999999999,0.039265499999999995,-0.29365399999999997,0.9726194999999999,0.0182845,0.27601600000000004,0.9665194999999999,-0.010430500000000002,-0.072008,0.001983499999999999,0.0049124999999999985,0.072008,-0.001983499999999999,-0.0049125,-0.117464,-0.40881049999999997,-0.009232500000000001,0.125926,-0.44282049999999995,-0.0010805000000000016,-0.11609399999999999,-0.7813705000000001,-0.008150500000000001,0.139256,-0.7970805000000001,-0.024999500000000004
66,-0.0004860000000000003,0.733037,0.075066,-0.145318,0.506037,0.078757,-0.25140799999999996,0.720157,0.057741,0.149062,0.48110700000000006,0.058011999999999994,0.248872,0.705097,0.039306999999999995,-0.29390799999999995,0.9726769999999999,0.017886,0.276342,0.9665769999999999,-0.010737,-0.072105,0.0019829999999999987,0.004621999999999999,0.072105,-0.0019829999999999987,-0.004622000000000001,-0.117418,-0.40924299999999997,-0.009855,0.12590200000000001,-0.442833,-0.0027240000000000007,-0.116518,-0.782283,-0.009379000000000002,0.138902,-0.7971429999999999,-0.025675
67,-0.0004824999999999951,0.7330734999999999,0.074916,-0.1454855,0.5061034999999999,0.078155,-0.2518455,0.7201934999999999,0.05730300000000001,0.1490245,0.48117350000000003,0.05787300000000001,0.24911450000000002,0.7051634999999999,0.039139,-0.2942455,0.9727434999999999,0.017227000000000003,0.2767545,0.9666434999999999,-0.011202,-0.0721985,0.001986499999999995,0.004377000000000001,0.0721985,-0.001986500000000002,-0.004376999999999999,-0.1173355,-0.4096965,-0.010745999999999999,0.1259045,-0.44284650000000003,-0.004927999999999998,-0.1169355,-0.7833165,-0.011023999999999999,0.1385845,-0.7970765,-0.026578
68,-0.0003674999999999989,0.733467,0.074954,-0.14548250000000001,0.506107,0.077597,-0.2522725,0.7203569999999999,0.05692900000000001,0.1490475,0.481757,0.057833999999999997,0.24948750000000003,0.705687,0.039049,-0.2945925,0.9730869999999999,0.016703000000000003,0.2773975,0.966787,-0.011518,-0.0722965,0.0019849999999999937,0.004125000000000002,0.0722965,-0.0019850000000000007,-0.004125,-0.1172925,-0.410493,-0.012219999999999998,0.1258575,-0.442963,-0.007604999999999997,-0.1176425,-0.7844530000000001,-0.013589999999999998,0.13809749999999998,-0.7971130000000001,-0.028001999999999996
69,-0.00028850000000000013,0.7340085000000001,0.07454849999999999,-0.14543450000000002,0.5060884999999999,0.0765875,-0.25273450000000003,0.7206485,0.0560305,0.1491055,0.48245849999999996,0.0574995,0.2499155,0.7063085,0.0383105,-0.2949445,0.9734885,0.0154995,0.2781855,0.9670885,-0.012528500000000001,-0.0724145,0.0019465000000000038,0.003969499999999999,0.0724145,-0.0019464999999999968,-0.003969500000000001,-0.1172345,-0.4116315,-0.0145255,0.1256855,-0.4430115,-0.0110635,-0.1184145,-0.7851815,-0.0166515,0.1375455,-0.7970915000000001,-0.030303500000000004
70,-0.00018699999999999728,0.7345095,0.0739035,-0.14531,0.5060595,0.0755335,-0.25313,0.7209595,0.0549285,0.14925000000000002,0.48313950000000006,0.0571035,0.25057,0.7069295,0.0372725,-0.29523,0.9738995000000001,0.0139855,0.27912,0.9672995,-0.0138935,-0.072495,0.0019125000000000045,0.0037964999999999995,0.072495,-0.0019124999999999975,-0.0037965000000000013,-0.11712,-0.4129805,-0.0171535,0.12549,-0.44323049999999997,-0.014877499999999998,-0.11912,-0.7859305,-0.0199975,0.13704000000000002,-0.7971905,-0.0329865
71,-5.450000000000084e-05,0.7349665,0.073099,-0.14516250000000003,0.5060665,0.07422,-0.25345249999999997,0.7212665,0.053571,0.14952749999999998,0.4838365,0.056622,0.2513975,0.7076065,0.035961,-0.2954425,0.9744565,0.012183,0.2801675,0.9674565,-0.015594,-0.0725725,0.0018875000000000003,0.003627,0.0725725,-0.0018875000000000003,-0.003627,-0.1169925,-0.4146635,-0.02019,0.12532749999999998,-0.4434635,-0.019007,-0.1198225,-0.7869235,-0.023792,0.1366075,-0.7972835,-0.03596
72,3.449999999999829e-05,0.735485,0.071996,-0.1451385,0.506265,0.072817,-0.2537585,0.7216750000000001,0.051877999999999994,0.1498015,0.484575,0.055945999999999996,0.2520915,0.708325,0.034312999999999996,-0.29562849999999996,0.9749450000000001,0.009999999999999998,0.2811715,0.967845,-0.017692,-0.0726375,0.0018610000000000015,0.0035249999999999995,0.0726375,-0.0018610000000000015,-0.0035250000000000004,-0.1169385,-0.41655499999999995,-0.023652000000000003,0.1251715,-0.443695,-0.023312000000000003,-0.12052850000000001,-0.787885,-0.027968000000000003,0.1361115,-0.797365,-0.039403999999999995
73,0.00017950000000000203,0.7360785,0.0706475,-0.1450435,0.5066284999999999,0.0713555,-0.2539835,0.7222284999999999,0.0499785,0.1501365,0.4854885,0.0550675,0.2529365,0.7091485,0.0323935,-0.29571349999999996,0.9757084999999999,0.0073574999999999995,0.2822565,0.9683085,-0.0202095,-0.07270650000000001,0.0018395000000000009,0.0034824999999999995,0.07270650000000001,-0.0018395000000000009,-0.0034824999999999995,-0.11692349999999999,-0.4184715,-0.0274895,0.1251165,-0.4436915,-0.0277125,-0.1212635,-0.7886215,-0.0325815,0.1357765,-0.7974215,-0.0431255
74,0.00036449999999999666,0.736669,0.069161,-0.1447905,0.507019,0.069759,-0.2541105,0.722989,0.047684000000000004,0.1505595,0.48648900000000006,0.053929000000000005,0.2539395,0.710129,0.030164,-0.2956905,0.976669,0.004413,0.2834495,0.968969,-0.023112,-0.0727495,0.00179,0.003581,0.0727495,-0.0017900000000000034,-0.003581,-0.11693049999999999,-0.41974100000000003,-0.031561,0.12527950000000002,-0.44288099999999997,-0.032236999999999995,-0.1219005,-0.789171,-0.037436,0.1356095,-0.797221,-0.047174999999999995
75,0.000578000000000003,0.7373715,0.06726,-0.144462,0.5073515,0.06787800000000001,-0.254212,0.7239015,0.04504,0.150978,0.4874815,0.052488999999999994,0.255018,0.7112615,0.027540000000000002,-0.295612,0.9777615000000001,0.001123,0.284738,0.9697915,-0.026359,-0.07277900000000001,0.0017385000000000005,0.003646,0.07277900000000001,-0.0017385000000000005,-0.003646,-0.11691199999999999,-0.4207785,-0.03603,0.125398,-0.44169850000000005,-0.036911,-0.122502,-0.7892485,-0.042298,0.135588,-0.7967385,-0.051443
76,0.0008184999999999975,0.737823,0.065098,-0.14404050000000002,0.507133,0.065883,-0.2543305,0.724853,0.042037000000000005,0.1513795,0.48808299999999993,0.050982,0.2562695,0.7126629999999999,0.024462,-0.2954505,0.979053,-0.002453,0.2860795,0.9707129999999999,-0.029892,-0.0728105,0.0016709999999999989,0.0036950000000000004,0.0728105,-0.0016709999999999989,-0.003695,-0.1168505,-0.420667,-0.041183,0.12549949999999999,-0.44012700000000005,-0.041802000000000006,-0.1230905,-0.788957,-0.047737,0.13557950000000002,-0.7958970000000001,-0.056070999999999996
77,0.0009840000000000011,0.737653,0.0622815,-0.14369600000000002,0.5066930000000001,0.0633335,-0.254426,0.7251730000000001,0.0381875,0.151724,0.487893,0.0489535,0.25758400000000004,0.713603,0.0206265,-0.295386,0.980323,-0.0066124999999999995,0.28734400000000004,0.971603,-0.0338435,-0.072831,0.001583000000000001,0.0037755,0.072831,-0.001583000000000001,-0.0037754999999999998,-0.11682599999999999,-0.419157,-0.0474145,0.125654,-0.438357,-0.047572500000000004,-0.12337599999999999,-0.7878269999999999,-0.0527805,0.135604,-0.7945369999999999,-0.0608155
78,0.0011094999999999998,0.7371335,0.059660000000000005,-0.1434025,0.5059935,0.06102500000000001,-0.25452250000000004,0.7254535,0.03465700000000001,0.1519875,0.48738349999999997,0.047041,0.2588475,0.7145535000000001,0.017144,-0.2953425,0.9816935000000001,-0.010502999999999998,0.2885375,0.9724535,-0.037513,-0.0728885,0.0015385000000000017,0.003699000000000001,0.0728885,-0.0015384999999999982,-0.003698999999999999,-0.1169025,-0.41718649999999996,-0.053384,0.12586750000000002,-0.4363865,-0.053177,-0.1236125,-0.7864265,-0.057463,0.13559749999999998,-0.7927365,-0.065248
79,0.001313499999999998,0.7367024999999999,0.05714649999999999,-0.1430395,0.5051525,0.0585855,-0.25453950000000003,0.7252925,0.031201499999999997,0.1523505,0.48672249999999995,0.045023499999999994,0.2600205,0.7156925,0.0137315,-0.2951095,0.9832124999999999,-0.014432500000000001,0.2897305,0.9735625,-0.0412345,-0.0728895,0.0014535,0.003700499999999999,0.0728895,-0.0014535,-0.0037005000000000007,-0.1171295,-0.4158375,-0.0599195,0.1262505,-0.43406750000000005,-0.059134500000000007,-0.1237795,-0.7848075,-0.0621255,0.1355305,-0.7904575,-0.0696195
80,0.0014579999999999986,0.7359610000000001,0.054689,-0.142801,0.5040910000000001,0.056218000000000004,-0.254631,0.725131,0.027898999999999997,0.15242899999999998,0.48618100000000003,0.042941999999999994,0.261109,0.7170110000000001,0.010336999999999999,-0.29496100000000003,0.9848110000000001,-0.018914,0.290919,0.974731,-0.045487,-0.07289100000000001,0.001361000000000001,0.0037230000000000006,0.07289100000000001,-0.001361000000000001,-0.0037230000000000006,-0.11743100000000001,-0.414069,-0.066618,0.126779,-0.431139,-0.065223,-0.12390100000000001,-0.7824089999999999,-0.066456,0.135689,-0.788189,-0.073956
81,0.0016225000000000059,0.7351935,0.0523305,-0.1426365,0.5029635,0.0537975,-0.2546965,0.7248635,0.024543499999999996,0.1525835,0.48538349999999997,0.0408155,0.2623135,0.7181235,0.007005499999999998,-0.2946265,0.9861635,-0.0232785,0.2921635,0.9759135,-0.0496255,-0.0728805,0.0012685000000000023,0.0036724999999999987,0.0728805,-0.0012684999999999988,-0.003672500000000002,-0.11774649999999999,-0.4124065,-0.0733035,0.1274235,-0.4267465,-0.0718695,-0.12368649999999999,-0.7797565,-0.07054550000000001,0.1358035,-0.7856465,-0.0780065
82,0.001806499999999997,0.7334139999999999,0.049869000000000004,-0.1424295,0.500834,0.050790999999999996,-0.2547195,0.722804,0.020501,0.15278049999999999,0.484684,0.038028,0.26345050000000003,0.718634,0.0028590000000000004,-0.2942495,0.986954,-0.028144,0.2931405,0.978294,-0.054585999999999996,-0.0729335,0.0011439999999999992,0.003596000000000002,0.0729335,-0.001144000000000001,-0.0035959999999999985,-0.1184095,-0.408846,-0.081594,0.12818049999999998,-0.421336,-0.080091,-0.12368950000000001,-0.775266,-0.074767,0.13589049999999997,-0.7814460000000001,-0.082734
83,0.0021249999999999976,0.732187,0.047179500000000006,-0.142105,0.499177,0.0476325,-0.254595,0.721087,0.0161185,0.153075,0.48363700000000004,0.035082499999999996,0.264575,0.719387,-0.0016205000000000004,-0.29379500000000003,0.9879370000000001,-0.0334475,0.294115,0.981067,-0.059887499999999996,-0.07308300000000001,0.0010750000000000004,0.003418499999999998,0.07308300000000001,-0.0010749999999999996,-0.003418499999999998,-0.119085,-0.40362299999999995,-0.0909625,0.129185,-0.41489299999999996,-0.0895605,-0.12348500000000001,-0.769183,-0.07901649999999999,0.13605499999999998,-0.775853,-0.0875135
84,0.0022909999999999996,0.7303514999999999,0.0444905,-0.141795,0.4978415,0.0447105,-0.25456500000000004,0.7189215,0.011418499999999998,0.153125,0.4820815,0.0319305,0.26561500000000005,0.7189015,-0.006575499999999998,-0.29335500000000003,0.9884715,-0.0390915,0.29483499999999996,0.9831915,-0.0652935,-0.073229,0.0008885,0.003183499999999999,0.073229,-0.0008885,-0.003183499999999999,-0.119935,-0.3962185,-0.1013555,0.130335,-0.4072185,-0.1002625,-0.123265,-0.7611185,-0.0834235,0.136225,-0.7682085000000001,-0.0925305
85,0.0023360000000000004,0.7288945,0.041824,-0.14158199999999999,0.4968145,0.04174599999999999,-0.25459200000000004,0.7169645,0.006722999999999993,0.152978,0.4808345,0.028774999999999995,0.266418,0.7185245,-0.011625000000000003,-0.292972,0.9890445,-0.044750000000000005,0.295228,0.9828245,-0.07109700000000001,-0.073401,0.0007605000000000008,0.0028689999999999966,0.073401,-0.000760499999999999,-0.0028690000000000035,-0.12093200000000001,-0.3879555,-0.112351,0.131528,-0.3978455,-0.11189700000000001,-0.123192,-0.7514155,-0.088198,0.135938,-0.7589555,-0.09736800000000001
86,0.0022504999999999947,0.726727,0.03966549999999999,-0.14152750000000003,0.496207,0.0392415,-0.2546875,0.715237,0.002397499999999997,0.1527925,0.480227,0.0259065,0.2667325,0.7171470000000001,-0.015957500000000006,-0.29268750000000004,0.989217,-0.04991450000000001,0.2957525,0.982307,-0.0763105,-0.0736285,0.0005950000000000018,0.0025844999999999965,0.0736285,-0.0005949999999999983,-0.0025845000000000035,-0.12192750000000001,-0.380063,-0.1223535,0.1325225,-0.388533,-0.12279150000000001,-0.12315750000000002,-0.741683,-0.0924645,0.13557249999999998,-0.749713,-0.1017485
87,0.0020564999999999993,0.7252475,0.03761199999999999,-0.1415745,0.4957175,0.03676299999999999,-0.25474450000000004,0.7140375,-0.0019510000000000013,0.1526055,0.4789775,0.02320599999999999,0.26707549999999997,0.7163475,-0.020185000000000005,-0.29314450000000003,0.9854775,-0.055696,0.2962355,0.9810875,-0.081454,-0.0739175,0.0004305000000000003,0.002355999999999997,0.0739175,-0.0004305000000000003,-0.002356000000000004,-0.1228545,-0.3720525,-0.132542,0.1335155,-0.3786725,-0.133698,-0.1232345,-0.7312725,-0.097013,0.1353055,-0.7395725,-0.105883
88,0.0019110000000000015,0.7239009999999999,0.03545349999999999,-0.141642,0.494331,0.03423349999999999,-0.254632,0.713391,-0.006387500000000004,0.152448,0.47819100000000003,0.0202945,0.26755799999999996,0.716051,-0.0243545,-0.293762,0.9768709999999999,-0.0615425,0.296768,0.9762909999999999,-0.0867575,-0.07414899999999999,0.0002319999999999961,0.0020184999999999995,0.07414899999999999,-0.00023200000000000304,-0.0020184999999999995,-0.12345199999999998,-0.362699,-0.1429215,0.134658,-0.367569,-0.1447265,-0.123112,-0.7191890000000001,-0.10165650000000001,0.135028,-0.7278690000000001,-0.11004549999999999
89,0.0017104999999999972,0.7226644999999999,0.0333585,-0.1417545,0.49313450000000003,0.031670500000000004,-0.2545245,0.7098745,-0.010787499999999998,0.15216549999999998,0.4769945,0.0171945,0.2679155,0.7133845,-0.028612500000000003,-0.2944045,0.9674444999999999,-0.0672435,0.2973055,0.9675345,-0.0918675,-0.0743695,-4.950000000000093e-05,0.0016634999999999983,0.0743695,4.950000000000093e-05,-0.0016634999999999983,-0.12391450000000001,-0.35232549999999996,-0.1534295,0.1361055,-0.3570255,-0.15677950000000002,-0.12314450000000002,-0.7052655,-0.1066045,0.1346755,-0.7140555000000001,-0.1141455
90,0.0014614999999999997,0.7216775,0.0312295,-0.1419735,0.4918575,0.029055500000000005,-0.25457349999999995,0.7070275,-0.015078500000000002,0.1517965,0.4761375,0.0141195,0.2680965,0.7113775,-0.0329415,-0.2951235,0.9588675,-0.0731215,0.29764650000000004,0.9597075,-0.0968995,-0.0746755,-0.00033650000000000346,0.0013545000000000015,0.0746755,0.00033650000000000346,-0.0013545000000000015,-0.1244635,-0.34147249999999996,-0.1638065,0.1374165,-0.3462125,-0.1680965,-0.1232635,-0.6906825,-0.1116465,0.13415649999999998,-0.6995525,-0.11816850000000001
91,0.0011774999999999997,0.7208915,0.029343999999999995,-0.1420525,0.4922915,0.026762000000000008,-0.2545425,0.7063315,-0.018694999999999996,0.15144749999999998,0.47483149999999996,0.011585999999999999,0.2680075,0.7093515,-0.036405999999999994,-0.2958625,0.9518915,-0.078396,0.2978675,0.9522115,-0.10105,-0.07498650000000001,-0.0005635000000000084,0.0011029999999999998,0.07498650000000001,0.0005634999999999946,-0.0011029999999999998,-0.1247025,-0.32809849999999996,-0.17277199999999998,0.1386375,-0.33107850000000005,-0.178282,-0.12344250000000001,-0.6766085,-0.11626399999999999,0.13373749999999998,-0.6853184999999999,-0.121544
92,0.0008929999999999962,0.7197034999999999,0.027701999999999997,-0.14186700000000002,0.4914535,0.024693,-0.254457,0.7051735,-0.021764,0.151163,0.4735935,0.009393999999999993,0.26775299999999996,0.7073935,-0.039407,-0.296697,0.9468435,-0.083175,0.297933,0.9467135,-0.104616,-0.07522000000000001,-0.000956499999999999,0.0009090000000000001,0.07522000000000001,0.000956499999999999,-0.0009090000000000001,-0.12484700000000001,-0.3143965,-0.18154599999999999,0.13974299999999998,-0.3156065,-0.187466,-0.123307,-0.6613165,-0.12087600000000001,0.133433,-0.6698465,-0.124856
93,0.0010114999999999968,0.72039,0.0217025,-0.1412905,0.49230999999999997,0.018391500000000005,-0.25427049999999995,0.70655,-0.028908499999999997,0.1512895,0.4747,0.0028725,0.2675695,0.70921,-0.0464275,-0.2973405,0.94534,-0.0920785,0.2981395,0.94435,-0.1128245,-0.0753355,-0.0010500000000000093,0.00036050000000000665,0.0753355,0.0010499999999999954,-0.0003604999999999997,-0.12470049999999999,-0.29997,-0.19359749999999998,0.1411095,-0.30078,-0.2002175,-0.12306049999999999,-0.6446500000000001,-0.1295565,0.1333595,-0.65284,-0.1321715
94,0.001152999999999997,0.720935,0.015645000000000006,-0.140827,0.49139499999999997,0.01233300000000001,-0.25420699999999996,0.706255,-0.03563299999999999,0.151383,0.474735,-0.003477999999999995,0.267393,0.707615,-0.05350399999999999,-0.29821699999999995,0.944265,-0.10051299999999999,0.298343,0.944715,-0.12037799999999999,-0.075556,-0.0012050000000000116,-0.00019799999999998985,0.075556,0.0012049999999999839,0.00019800000000000373,-0.12559700000000001,-0.286605,-0.209302,0.142493,-0.286985,-0.214582,-0.12270700000000001,-0.628855,-0.13727899999999998,0.133703,-0.636095,-0.139152
95,0.001330500000000001,0.722485,0.009576500000000002,-0.1403345,0.490815,0.0060655000000000014,-0.25399449999999996,0.704685,-0.0421555,0.1513155,0.47446499999999997,-0.010344499999999993,0.26732550000000005,0.708435,-0.060865499999999996,-0.29885449999999997,0.942105,-0.1092515,0.29850550000000003,0.946245,-0.1287035,-0.07579549999999999,-0.0013249999999999929,-0.0008465,0.07579549999999999,0.0013249999999999929,0.0008465,-0.12680450000000001,-0.269665,-0.2259195,0.1439855,-0.270165,-0.22949950000000002,-0.1223745,-0.610995,-0.1450075,0.1339455,-0.616385,-0.14623049999999999
96,0.0016455000000000003,0.72351,0.003737000000000004,-0.13970349999999998,0.48994000000000004,-0.0009380000000000083,-0.25343350000000003,0.70382,-0.048583,0.1512465,0.4747,-0.017066000000000005,0.2674565,0.7086600000000001,-0.068255,-0.2990535,0.94492,-0.117553,0.2987665,0.9455,-0.136937,-0.07602149999999999,-0.00136,-0.0014379999999999948,0.07602149999999999,0.00136,0.0014379999999999948,-0.12807349999999998,-0.25200999999999996,-0.242531,0.1455565,-0.25244,-0.244451,-0.1217935,-0.5922299999999999,-0.152095,0.13421650000000002,-0.59556,-0.153037
97,0.0020459999999999957,0.72424,-0.0017120000000000052,-0.13914500000000002,0.48971,-0.007553000000000004,-0.252895,0.7029700000000001,-0.05498800000000001,0.151225,0.47442,-0.023465000000000007,0.26771500000000004,0.7081500000000001,-0.07541700000000001,-0.298975,0.95261,-0.125537,0.29907500000000004,0.9483299999999999,-0.14489400000000002,-0.07625799999999999,-0.00136,-0.0020600000000000063,0.07625799999999999,0.00136,0.0020599999999999924,-0.129315,-0.23541,-0.25829,0.147055,-0.23582000000000003,-0.25880000000000003,-0.12116500000000002,-0.5744800000000001,-0.158674,0.134545,-0.5755600000000001,-0.159509
98,0.002452500000000005,0.72499,-0.007440500000000003,-0.1384725,0.48983,-0.014064500000000008,-0.2524425,0.70102,-0.061417500000000014,0.15139750000000002,0.47485,-0.029742500000000012,0.26839749999999996,0.7099000000000001,-0.0826805,-0.2989225,0.95723,-0.1335605,0.2994375,0.9547100000000001,-0.1529525,-0.0764585,-0.0012300000000000089,-0.002633500000000011,0.0764585,0.0012300000000000089,0.002633499999999997,-0.1305325,-0.21995,-0.2734975,0.1483675,-0.22055,-0.2716375,-0.1205225,-0.5583699999999999,-0.1649695,0.1348775,-0.55723,-0.1658075
99,0.002763500000000004,0.725585,-0.013447000000000014,-0.1378475,0.488535,-0.021169000000000007,-0.2520475,0.698305,-0.06788000000000001,0.1515325,0.475725,-0.03588200000000001,0.2686625,0.7111149999999999,-0.09029100000000001,-0.2992475,0.960145,-0.142852,0.3000025,0.959855,-0.16114,-0.0767025,-0.0012450000000000239,-0.0031850000000000073,0.0767025,0.0012449999999999961,0.0031849999999999934,-0.1317675,-0.204795,-0.288643,0.1497325,-0.20547500000000002,-0.284493,-0.1195775,-0.542875,-0.171039,0.1352725,-0.539415,-0.171966
100,0.003070000000000005,0.726375,-0.019443500000000002,-0.137229,0.48702500000000004,-0.028399500000000008,-0.251539,0.696075,-0.0741865,0.151561,0.474515,-0.042586500000000006,0.269091,0.713215,-0.0979555,-0.299159,0.963095,-0.1519955,0.30063100000000004,0.9631350000000001,-0.1695985,-0.076897,-0.0011150000000000049,-0.003766500000000006,0.076897,0.0011150000000000049,0.003766499999999992,-0.133049,-0.190155,-0.3036635,0.15111100000000002,-0.190935,-0.2967835,-0.11873899999999998,-0.5276649999999999,-0.17676350000000002,0.13562100000000002,-0.5220349999999999,-0.1777915
101,0.0032140000000000007,0.72757,-0.025608999999999993,-0.136701,0.48626,-0.035924999999999985,-0.251551,0.69445,-0.08132899999999998,0.151389,0.47378,-0.04953999999999999,0.269699,0.71469,-0.10636,-0.299751,0.96444,-0.161184,0.301009,0.96471,-0.178194,-0.077034,-0.0008100000000000329,-0.004379999999999995,0.077034,0.0008099999999999774,0.004380000000000009,-0.134391,-0.17686000000000002,-0.31783,0.152519,-0.17625000000000002,-0.30882,-0.117781,-0.5139900000000001,-0.182091,0.135879,-0.50684,-0.183041
102,0.003145000000000001,0.7264600000000001,-0.027325000000000002,-0.136386,0.48408000000000007,-0.03905800000000001,-0.251676,0.6913800000000001,-0.08440900000000001,0.15079399999999998,0.47112000000000004,-0.052348000000000006,0.269914,0.71353,-0.11011100000000001,-0.300296,0.96342,-0.166019,0.30142399999999997,0.96389,-0.182295,-0.07708100000000001,-0.0007399999999999629,-0.004585000000000006,0.07708100000000001,0.0007400000000000184,0.004584999999999992,-0.135576,-0.16504999999999997,-0.32767500000000005,0.15387399999999998,-0.16291999999999995,-0.31606500000000004,-0.116846,-0.5016499999999999,-0.18280800000000003,0.136154,-0.4936999999999999,-0.18374600000000002
103,0.002921999999999995,0.725535,-0.029168000000000013,-0.13593,0.48304500000000006,-0.04223900000000001,-0.25206,0.6900850000000001,-0.08772200000000001,0.1502,0.47027500000000005,-0.05508000000000001,0.27055999999999997,0.7161250000000001,-0.11381400000000001,-0.30097,0.962115,-0.17122300000000001,0.30195,0.960775,-0.18654700000000002,-0.077249,-0.0007749999999999702,-0.0046700000000000075,0.077249,0.0007750000000000257,0.004669999999999994,-0.13571,-0.15381499999999992,-0.33248,0.15502,-0.14988499999999993,-0.32013,-0.11597,-0.48960499999999996,-0.183347,0.13634999999999997,-0.4806649999999999,-0.18440900000000002
104,0.0024714999999999997,0.72504,-0.031298000000000006,-0.13563350000000002,0.48127,-0.04530700000000001,-0.2526635,0.6907300000000001,-0.09144200000000001,0.14972649999999998,0.47031,-0.05732500000000001,0.27084650000000005,0.71811,-0.11767200000000001,-0.3017335,0.9626,-0.176207,0.30219650000000003,0.95731,-0.190009,-0.0775335,-0.0008900000000000019,-0.004735000000000003,0.0775335,0.0008900000000000019,0.004734999999999989,-0.13552350000000002,-0.14266999999999996,-0.336055,0.15563649999999998,-0.13873999999999997,-0.32337499999999997,-0.11529350000000002,-0.47938000000000003,-0.183878,0.1360565,-0.46951999999999994,-0.184907
105,0.0019315000000000061,0.7236149999999999,-0.033346,-0.1353835,0.48028499999999996,-0.047876999999999996,-0.2535535,0.690755,-0.09548999999999999,0.14942650000000002,0.46927499999999994,-0.059921999999999996,0.2708065,0.7189049999999999,-0.121458,-0.30293349999999997,0.9573649999999999,-0.18153799999999998,0.3023265,0.957715,-0.193506,-0.07768749999999999,-0.0009450000000000292,-0.004830000000000001,0.07768749999999999,0.0009449999999999736,0.004830000000000001,-0.1352435,-0.13237500000000002,-0.33936,0.1559665,-0.12786500000000006,-0.32634,-0.11469349999999998,-0.4695450000000001,-0.18407400000000002,0.1356765,-0.4586650000000001,-0.184668
106,0.0011694999999999987,0.722465,-0.035354,-0.1356775,0.479455,-0.050574,-0.2550975,0.691135,-0.099563,0.1489125,0.468735,-0.06251,0.2709625,0.7196450000000001,-0.125441,-0.3039575,0.951875,-0.186916,0.3024025,0.957855,-0.197097,-0.0777765,-0.0009549999999999836,-0.004924999999999999,0.0777765,0.0009550000000000392,0.004924999999999999,-0.1350375,-0.12468499999999999,-0.342515,0.1561625,-0.11927499999999996,-0.329255,-0.1141675,-0.459665,-0.184144,0.13518249999999998,-0.44850499999999993,-0.184774
107,0.0002664999999999994,0.721375,-0.03786400000000001,-0.13612649999999998,0.47780500000000004,-0.053923000000000006,-0.2566465,0.693855,-0.104252,0.14841349999999998,0.468295,-0.065464,0.27074349999999997,0.718675,-0.129421,-0.3055565,0.952685,-0.192743,0.3025835,0.9560850000000001,-0.201805,-0.0778415,-0.0010850000000000026,-0.004975000000000007,0.0778415,0.0010850000000000026,0.004974999999999993,-0.13484649999999998,-0.11434499999999997,-0.346055,0.15634350000000002,-0.10775499999999999,-0.332395,-0.1137565,-0.447155,-0.184261,0.13413350000000002,-0.43619499999999994,-0.184944
108,-0.0007100000000000006,0.71994,-0.041221999999999995,-0.13669599999999998,0.47729,-0.057423,-0.257426,0.69583,-0.110048,0.14780400000000002,0.46653,-0.06911600000000001,0.27040400000000003,0.71594,-0.133997,-0.306846,0.95408,-0.198294,0.302454,0.95381,-0.20749499999999999,-0.07804900000000001,-0.0010299999999999754,-0.005045000000000008,0.07804900000000001,0.0010300000000000309,0.005044999999999994,-0.13458599999999998,-0.10441,-0.34962499999999996,0.156384,-0.09675,-0.335375,-0.112766,-0.43515000000000004,-0.18469000000000002,0.132714,-0.42433999999999994,-0.185808
109,-0.0014894999999999978,0.7185250000000001,-0.044939,-0.1370915,0.476375,-0.061336999999999996,-0.2577715,0.698115,-0.116168,0.1474285,0.466405,-0.072836,0.27021850000000003,0.712845,-0.138684,-0.30808149999999995,0.9553149999999999,-0.204318,0.3023285,0.9532849999999999,-0.21350999999999998,-0.0781915,-0.0010850000000000026,-0.005169999999999994,0.0781915,0.0010850000000000026,0.005170000000000008,-0.1341415,-0.094005,-0.35253,0.1565285,-0.08508500000000002,-0.33784000000000003,-0.1114215,-0.42299499999999995,-0.184976,0.1315085,-0.412515,-0.186943
110,-0.002302999999999996,0.716415,-0.048752000000000004,-0.137516,0.475465,-0.06529700000000001,-0.258656,0.699695,-0.12221000000000001,0.147214,0.46636500000000003,-0.07647000000000001,0.269704,0.709695,-0.143366,-0.309416,0.955875,-0.210385,0.302044,0.952435,-0.219645,-0.07837,-0.0012150000000000216,-0.005365000000000009,0.07837,0.0012150000000000216,0.005364999999999995,-0.133736,-0.08370500000000003,-0.35502500000000003,0.156444,-0.073685,-0.339905,-0.110036,-0.41127500000000006,-0.18523,0.130334,-0.401185,-0.188295
111,-0.002921,0.71499,-0.052549000000000005,-0.137834,0.47404,-0.06900700000000001,-0.259274,0.69655,-0.127783,0.14716600000000002,0.466412,-0.079611,0.269106,0.70639,-0.147905,-0.310554,0.9526699999999999,-0.216055,0.30165600000000004,0.9513799999999999,-0.225615,-0.078497,-0.0012699999999999934,-0.005605000000000013,0.078497,0.0012699999999999934,0.005604999999999999,-0.133214,-0.07424000000000003,-0.356965,0.156246,-0.06298999999999999,-0.341425,-0.108614,-0.40099,-0.18541000000000002,0.128766,-0.39121,-0.189167
112,-0.0035785,0.71187,-0.056608000000000006,-0.1382585,0.473583,-0.072961,-0.25905849999999997,0.69384,-0.13356,0.14714149999999998,0.464607,-0.08326800000000001,0.26832150000000005,0.70297,-0.15285500000000002,-0.3117385,0.94938,-0.223335,0.3010315,0.95266,-0.23250500000000002,-0.0786975,-0.0010900000000000354,-0.0057849999999999985,0.0786975,0.0010899999999999799,0.0057849999999999985,-0.1325885,-0.06366000000000005,-0.359215,0.1557515,-0.051490000000000036,-0.343335,-0.1073585,-0.38998,-0.185963,0.12708150000000001,-0.38047,-0.19044
113,-0.0040695,0.709155,-0.06048,-0.1385515,0.472451,-0.076836,-0.2587315,0.691255,-0.139509,0.14733849999999998,0.462003,-0.086938,0.2678085,0.698135,-0.157658,-0.3129115,0.9460550000000001,-0.230995,0.3003285,0.9535149999999999,-0.23962499999999998,-0.0789175,-0.0008549999999999947,-0.005945000000000006,0.0789175,0.0008549999999999947,0.005945000000000006,-0.1317715,-0.05243500000000001,-0.361425,0.1551985,-0.03974500000000003,-0.345155,-0.1062015,-0.378665,-0.186552,0.1272685,-0.36871499999999996,-0.192733
114,-0.004484000000000002,0.70669,-0.06448499999999999,-0.138678,0.47056,-0.08082299999999999,-0.25840799999999997,0.6883699999999999,-0.14523999999999998,0.147612,0.460989,-0.090178,0.267622,0.69331,-0.162485,-0.313508,0.9475100000000001,-0.238315,0.299282,0.95225,-0.246635,-0.079147,-0.0007699999999999929,-0.0061149999999999954,0.079147,0.0007699999999999929,0.006115000000000009,-0.13083799999999998,-0.04125000000000001,-0.36334500000000003,0.15460200000000002,-0.02856000000000003,-0.34713499999999997,-0.104878,-0.36791,-0.18717499999999998,0.126082,-0.35869999999999996,-0.19519999999999998
115,-0.0046110000000000005,0.704285,-0.06807400000000001,-0.138626,0.468468,-0.084623,-0.258376,0.681345,-0.15060800000000002,0.147914,0.45999799999999996,-0.09331600000000001,0.267504,0.688645,-0.166769,-0.314036,0.945025,-0.246005,0.298284,0.9510749999999999,-0.253505,-0.079403,-0.0007949999999999902,-0.006265000000000007,0.079403,0.0007949999999999902,0.006264999999999993,-0.129806,-0.030795000000000017,-0.365255,0.15409399999999998,-0.017845,-0.34909500000000004,-0.103996,-0.35798500000000005,-0.188341,0.125474,-0.34949500000000006,-0.19778600000000002
116,-0.0046040000000000005,0.701805,-0.071019,-0.138561,0.46698900000000004,-0.087849,-0.258231,0.676875,-0.15523199999999998,0.148209,0.45819600000000005,-0.09614899999999998,0.267409,0.686705,-0.170773,-0.314031,0.940905,-0.25326,0.297199,0.950625,-0.25927999999999995,-0.079774,-0.0006549999999999612,-0.006499999999999992,0.079774,0.0006550000000000167,0.006500000000000006,-0.128931,-0.02215499999999998,-0.36716,0.153759,-0.008684999999999998,-0.35091,-0.103421,-0.349905,-0.189598,0.124939,-0.34301499999999996,-0.201757
117,-0.004603500000000003,0.69971,-0.07278399999999999,-0.1385845,0.46604300000000004,-0.09015999999999999,-0.2581045,0.6738,-0.15863999999999998,0.1484855,0.45689,-0.09815199999999999,0.2672755,0.68708,-0.17352499999999998,-0.3141345,0.9376300000000001,-0.259295,0.29594550000000003,0.94746,-0.26387499999999997,-0.0801385,-0.0005399999999999849,-0.006694999999999993,0.0801385,0.0005400000000000404,0.0066950000000000065,-0.12834450000000003,-0.012369999999999992,-0.368425,0.1534455,0.001040000000000041,-0.35160499999999995,-0.1032045,-0.34092,-0.191029,0.1242755,-0.33573,-0.20306599999999997
118,-0.004639500000000001,0.69644,-0.07345199999999999,-0.1387355,0.464775,-0.091416,-0.2580955,0.6700699999999999,-0.161304,0.1487745,0.455759,-0.098913,0.26662450000000004,0.68364,-0.175224,-0.31413549999999996,0.93415,-0.264615,0.29504450000000004,0.9437599999999999,-0.266845,-0.08047950000000001,-0.00042999999999998595,-0.006864999999999996,0.08047950000000001,0.00042999999999998595,0.006864999999999996,-0.1277855,-0.0028900000000000037,-0.368825,0.1530945,0.01052000000000003,-0.351205,-0.1030555,-0.3324,-0.191689,0.1236545,-0.32847,-0.202982
119,-0.004750999999999998,0.69331,-0.073722,-0.139076,0.463021,-0.091942,-0.25814600000000004,0.66664,-0.16352899999999998,0.148814,0.454384,-0.099245,0.26583399999999996,0.6797300000000001,-0.176277,-0.31426600000000005,0.9309000000000001,-0.26954,0.294164,0.94006,-0.26908,-0.08069599999999999,-0.00036999999999998145,-0.006999999999999992,0.08069599999999999,0.00037000000000003697,0.007000000000000006,-0.12736599999999998,0.006390000000000007,-0.36841,0.152734,0.01980000000000004,-0.35025,-0.103026,-0.3237,-0.191954,0.123584,-0.31794999999999995,-0.202173
120,-0.004733499999999998,0.69059,-0.07372200000000001,-0.1392715,0.461761,-0.09214800000000001,-0.2579915,0.66787,-0.165587,0.14894849999999998,0.45283,-0.09924000000000001,0.26555850000000003,0.67618,-0.177039,-0.3142815,0.93043,-0.274125,0.2933885,0.93662,-0.270955,-0.0809025,-0.00031999999999998696,-0.007004999999999997,0.0809025,0.00031999999999998696,0.007004999999999997,-0.1268915,0.015770000000000006,-0.367905,0.1526285,0.02915000000000001,-0.349305,-0.10373149999999999,-0.31539000000000006,-0.19197999999999998,0.1232785,-0.31148,-0.202192
121,-0.0047199999999999985,0.689295,-0.07372300000000001,-0.13951999999999998,0.460212,-0.092193,-0.25794,0.669005,-0.16767500000000002,0.14900999999999998,0.452835,-0.09923900000000001,0.26532,0.672775,-0.17752600000000002,-0.31442000000000003,0.9257249999999999,-0.27703500000000003,0.29268,0.929535,-0.271885,-0.081051,-0.0004049999999999887,-0.007004999999999997,0.081051,0.0004049999999999887,0.007004999999999997,-0.12656,0.02609499999999998,-0.367655,0.15261000000000002,0.038764999999999994,-0.348835,-0.10545,-0.306725,-0.192857,0.12386,-0.304555,-0.206208
122,-0.004840999999999998,0.687445,-0.07362300000000001,-0.139928,0.459362,-0.09224500000000001,-0.258108,0.669945,-0.169499,0.148982,0.452814,-0.099152,0.264982,0.670465,-0.17794900000000002,-0.314718,0.920895,-0.2793,0.291952,0.922735,-0.27262000000000003,-0.08116899999999999,-0.0004149999999999987,-0.007010000000000002,0.08116899999999999,0.0004149999999999987,0.007010000000000002,-0.126438,0.036034999999999984,-0.36765000000000003,0.15249200000000002,0.04812499999999997,-0.34884,-0.10857800000000001,-0.298195,-0.195416,0.12310199999999999,-0.298605,-0.20412400000000003
123,-0.005058,0.68607,-0.07316500000000001,-0.140408,0.45887900000000004,-0.09198600000000001,-0.259538,0.67091,-0.171218,0.14896199999999998,0.45280400000000004,-0.09873100000000001,0.264762,0.6695800000000001,-0.17801,-0.315208,0.91593,-0.28076,0.291512,0.91781,-0.27294,-0.081369,-0.00026999999999999247,-0.007020000000000012,0.081369,0.00026999999999999247,0.0070199999999999985,-0.126438,0.04619000000000001,-0.36736,0.152282,0.057630000000000015,-0.34855,-0.112338,-0.28957,-0.197495,0.122312,-0.29325,-0.207756
124,-0.005306500000000002,0.68449,-0.072235,-0.1409605,0.458548,-0.09111999999999999,-0.26128049999999997,0.67547,-0.172451,0.1488795,0.452608,-0.097733,0.2644695,0.66858,-0.177366,-0.3158105,0.9144300000000001,-0.281045,0.2911595,0.9121,-0.27246499999999996,-0.0816395,-0.000140000000000029,-0.007035,0.0816395,0.000140000000000029,0.0070350000000000135,-0.12651050000000003,0.056369999999999976,-0.366195,0.1519295,0.06717000000000001,-0.34719500000000003,-0.1161205,-0.28112000000000004,-0.199214,0.12136949999999999,-0.28774999999999995,-0.203799
125,-0.0056280000000000045,0.683225,-0.070376,-0.141658,0.45789900000000006,-0.08948899999999999,-0.26352800000000004,0.6794150000000001,-0.173224,0.148812,0.452863,-0.09595999999999999,0.264032,0.6668350000000001,-0.17587,-0.31653800000000004,0.912375,-0.280395,0.290722,0.9080250000000001,-0.271065,-0.081921,-0.00013499999999999623,-0.006934999999999997,0.081921,0.00013499999999999623,0.006935000000000011,-0.126718,0.06600500000000004,-0.364295,0.151502,0.07630500000000007,-0.345145,-0.120028,-0.27290499999999995,-0.200117,0.11954200000000001,-0.281315,-0.199247
126,-0.005934499999999995,0.68173,-0.068262,-0.1423245,0.457126,-0.087552,-0.2658445,0.68276,-0.173745,0.14875549999999998,0.453262,-0.093964,0.2639455,0.66405,-0.174312,-0.31715449999999995,0.90953,-0.279285,0.29029550000000004,0.90728,-0.269505,-0.0822125,-0.00012999999999996348,-0.0068050000000000055,0.0822125,0.00012999999999996348,0.006804999999999992,-0.1268545,0.07476,-0.362255,0.1510755,0.08455999999999997,-0.342765,-0.1239645,-0.26536000000000004,-0.20082,0.1195755,-0.27584,-0.20149
127,-0.006083499999999999,0.6813799999999999,-0.06601900000000001,-0.14290150000000001,0.4569539999999999,-0.08549100000000001,-0.2686515,0.6864899999999999,-0.17411200000000002,0.14888849999999998,0.4535329999999999,-0.091894,0.2639285,0.6654399999999999,-0.172703,-0.3179115,0.9068599999999999,-0.27776500000000004,0.28991849999999997,0.9065699999999999,-0.26793500000000003,-0.0825115,0.00020999999999993246,-0.006725000000000009,0.0825115,-0.00021000000000004349,0.006724999999999995,-0.12681150000000002,0.08356999999999992,-0.360205,0.15065850000000003,0.09282999999999991,-0.340445,-0.12748149999999997,-0.2574200000000001,-0.200953,0.1207085,-0.2700500000000001,-0.205906
128,-0.0063005000000000005,0.681115,-0.06401299999999999,-0.1435285,0.457389,-0.08358299999999999,-0.2715685,0.689805,-0.174609,0.1488715,0.453344,-0.08996099999999999,0.2637715,0.666965,-0.171061,-0.3186985,0.9033150000000001,-0.27625999999999995,0.28945150000000003,0.905435,-0.26621,-0.0825755,0.0006350000000000522,-0.00646999999999999,0.0825755,-0.0006349999999999412,0.0064700000000000035,-0.1267385,0.09157500000000002,-0.35833,0.1501015,0.100445,-0.33836999999999995,-0.13107850000000001,-0.25007499999999994,-0.20119399999999998,0.1186015,-0.26392499999999997,-0.200282
129,-0.006486000000000002,0.680805,-0.062306,-0.14403300000000002,0.45746,-0.081877,-0.274403,0.692345,-0.175327,0.14881699999999998,0.45299,-0.088271,0.263577,0.668345,-0.169621,-0.319573,0.8998550000000001,-0.27502000000000004,0.289727,0.904085,-0.26494,-0.082598,0.0010449999999999626,-0.0061299999999999966,0.082598,-0.0010449999999999626,0.0061299999999999966,-0.126533,0.098665,-0.35677000000000003,0.149727,0.10729499999999997,-0.3367,-0.134453,-0.244135,-0.201627,0.116277,-0.258285,-0.19197999999999998
130,-0.0067445000000000005,0.680755,-0.06123099999999999,-0.1445415,0.45793900000000004,-0.080727,-0.2762715,0.694195,-0.17624399999999998,0.1486485,0.452228,-0.08710699999999999,0.2642985,0.6692750000000001,-0.16885699999999998,-0.32073149999999995,0.9003950000000001,-0.2744,0.28996849999999996,0.9059250000000001,-0.26415999999999995,-0.0826545,0.0015450000000000186,-0.005569999999999992,0.0826545,-0.0015450000000000186,0.0055700000000000055,-0.1263515,0.10329500000000003,-0.35592,0.1492385,0.11182500000000001,-0.33567,-0.1372515,-0.240325,-0.20243,0.1134585,-0.25573499999999993,-0.185082
131,-0.006904500000000001,0.67981,-0.060325000000000004,-0.1449125,0.458444,-0.07970000000000001,-0.27787249999999997,0.69554,-0.177234,0.1485375,0.45207300000000006,-0.086143,0.2654175,0.67086,-0.168713,-0.32215249999999995,0.9013,-0.27401,0.2904675,0.90804,-0.26352,-0.0827195,0.002080000000000082,-0.0050000000000000044,0.0827195,-0.0020799999999999708,0.0049999999999999906,-0.1259125,0.10838000000000003,-0.3544,0.1488475,0.11691000000000001,-0.33404,-0.1387325,-0.23632999999999993,-0.202514,0.1106875,-0.25368,-0.17877700000000002
132,-0.007213000000000001,0.67906,-0.05952099999999999,-0.14538199999999998,0.45870200000000005,-0.078924,-0.278322,0.69654,-0.176914,0.14824800000000002,0.45203000000000004,-0.085448,0.266298,0.67247,-0.16866199999999998,-0.324002,0.90262,-0.27374,0.29092799999999996,0.90985,-0.26298,-0.08268600000000001,0.0024899999999999922,-0.004669999999999994,0.08268600000000001,-0.0024899999999999922,0.0046700000000000075,-0.125392,0.11331000000000002,-0.35296,0.148348,0.12234000000000006,-0.33253,-0.142332,-0.23331000000000002,-0.203727,0.108184,-0.25125,-0.176234
133,-0.007634499999999999,0.678495,-0.05883800000000001,-0.14584550000000002,0.45816499999999993,-0.078279,-0.2802455,0.6967549999999999,-0.178076,0.1477945,0.45228499999999994,-0.084812,0.2663145,0.6742049999999999,-0.168382,-0.3259855,0.9046649999999999,-0.27365,0.29120450000000003,0.9137949999999999,-0.26269,-0.0825615,0.002874999999999961,-0.004380000000000009,0.0825615,-0.002875000000000072,0.004379999999999995,-0.12492550000000001,0.11918499999999993,-0.35064,0.1477545,0.12883499999999992,-0.33049,-0.14607550000000002,-0.2293750000000001,-0.204956,0.1069295,-0.24812500000000004,-0.176151
134,-0.008072000000000006,0.67773,-0.058478999999999996,-0.146255,0.45783000000000007,-0.077887,-0.281905,0.69664,-0.179386,0.147305,0.45228,-0.084419,0.266125,0.67567,-0.168387,-0.328025,0.9089200000000001,-0.273565,0.291565,0.91703,-0.262675,-0.082399,0.0033000000000000806,-0.00437499999999999,0.082399,-0.0032999999999999696,0.004375000000000004,-0.12437500000000001,0.12430000000000002,-0.348535,0.14715499999999998,0.13443000000000005,-0.328665,-0.149795,-0.22580999999999996,-0.206029,0.10382899999999999,-0.24551999999999996,-0.17630099999999999
135,-0.008533000000000004,0.67706,-0.058321000000000005,-0.14669900000000002,0.45801000000000003,-0.07772000000000001,-0.282389,0.69688,-0.179606,0.14680100000000001,0.45262,-0.084162,0.265731,0.6779200000000001,-0.168604,-0.329769,0.9107400000000001,-0.273885,0.291991,0.91946,-0.262655,-0.082218,0.0037000000000000366,-0.004165000000000002,0.082218,-0.0036999999999999256,0.004165000000000002,-0.12383899999999999,0.12999000000000005,-0.346265,0.14642099999999997,0.14036000000000004,-0.326635,-0.153459,-0.2217699999999999,-0.20739000000000002,0.101938,-0.2416299999999999,-0.17489300000000002
136,-0.008980000000000004,0.6769550000000001,-0.05821800000000001,-0.147036,0.4576950000000001,-0.07755800000000002,-0.282826,0.6961350000000001,-0.179791,0.146344,0.45316500000000004,-0.08395200000000001,0.26528399999999996,0.6775650000000001,-0.168371,-0.330716,0.9111750000000001,-0.27401,0.292414,0.9203650000000001,-0.26238,-0.08206,0.0037449999999999983,-0.003990000000000007,0.08206,-0.0037449999999999983,0.0039899999999999936,-0.12363600000000002,0.13339500000000004,-0.34412,0.145724,0.14464500000000002,-0.32462,-0.157036,-0.219615,-0.208673,0.098967,-0.2388349999999999,-0.16895700000000002
137,-0.009253499999999996,0.676601,-0.058411,-0.14726849999999997,0.45678500000000005,-0.077715,-0.2826085,0.6897150000000001,-0.178639,0.1460615,0.45399500000000004,-0.084114,0.2653215,0.677265,-0.16854,-0.33149850000000003,0.910915,-0.27419,0.2929615,0.9211450000000001,-0.26247,-0.0818185,0.0038050000000000583,-0.0036199999999999982,0.0818185,-0.0038049999999999473,0.0036199999999999982,-0.1231185,0.13743500000000003,-0.34218,0.1451515,0.14877500000000005,-0.32294,-0.1602785,-0.21797499999999992,-0.21006,0.0970155,-0.23701499999999998,-0.169518
138,-0.009598500000000003,0.676191,-0.05876599999999999,-0.1476115,0.45582500000000004,-0.078036,-0.28190149999999997,0.6836450000000001,-0.177423,0.1456085,0.455145,-0.08449599999999999,0.2651485,0.677482,-0.168866,-0.3323815,0.911325,-0.27302499999999996,0.2931885,0.922695,-0.26292499999999996,-0.08157149999999999,0.003815000000000013,-0.003254999999999994,0.08157149999999999,-0.003815000000000013,0.003255000000000008,-0.12295150000000002,0.14119500000000001,-0.340555,0.1444385,0.15327500000000005,-0.321275,-0.1636215,-0.215955,-0.21103499999999997,0.0944535,-0.23361500000000002,-0.16986099999999998
139,-0.010239499999999995,0.6755800000000001,-0.059223,-0.1481005,0.4545,-0.078372,-0.2802105,0.675377,-0.175011,0.14481950000000002,0.45631000000000005,-0.084869,0.26469950000000003,0.6777810000000001,-0.169286,-0.3332605,0.9020300000000001,-0.27175,0.29305950000000003,0.92461,-0.26373,-0.0814205,0.0037400000000000766,-0.0028699999999999976,0.0814205,-0.0037399999999999656,0.0028699999999999976,-0.12319049999999998,0.14587000000000006,-0.33884,0.14354950000000002,0.15789000000000003,-0.31962,-0.1670505,-0.2119899999999999,-0.21323,0.0931265,-0.2307499999999999,-0.17052699999999998
140,-0.010916999999999996,0.675674,-0.059775,-0.148629,0.453535,-0.078818,-0.27834899999999996,0.667348,-0.17219099999999998,0.14398100000000003,0.456885,-0.085141,0.264091,0.677366,-0.169598,-0.334429,0.891785,-0.270515,0.292781,0.925925,-0.264475,-0.081278,0.003615000000000035,-0.0025550000000000017,0.081278,-0.003615000000000035,0.0025550000000000017,-0.12371900000000001,0.14903500000000003,-0.338025,0.14270100000000002,0.161725,-0.318515,-0.17063899999999999,-0.21084499999999995,-0.214345,0.091905,-0.228645,-0.17069099999999998
141,-0.011379499999999994,0.675464,-0.060218,-0.14893249999999997,0.45281,-0.079128,-0.2762925,0.6592709999999999,-0.169043,0.14341750000000003,0.45719,-0.085292,0.2635675,0.676689,-0.169564,-0.3356725,0.8813,-0.2691,0.2926575,0.92685,-0.26504,-0.0811225,0.0034999999999999476,-0.0021899999999999975,0.0811225,-0.0034999999999999476,0.0021899999999999975,-0.1240025,0.15047,-0.3371,0.1420975,0.1644,-0.31723,-0.1714025,-0.21191000000000004,-0.21525,0.09142950000000001,-0.22619999999999996,-0.170758
142,-0.011789499999999998,0.675015,-0.06049,-0.14908949999999999,0.45335000000000003,-0.07925199999999999,-0.2746595,0.652014,-0.165827,0.1429805,0.45714,-0.085241,0.2630805,0.6758930000000001,-0.169209,-0.3366395,0.8702799999999999,-0.26755,0.29260050000000004,0.9274800000000001,-0.2654,-0.0810485,0.0035000000000000586,-0.002019999999999994,0.0810485,-0.0034999999999999476,0.002019999999999994,-0.12409949999999999,0.15084000000000003,-0.33693,0.14161050000000003,0.16686,-0.31602,-0.17232950000000002,-0.21311999999999998,-0.2158,0.0910635,-0.22395999999999994,-0.17063
143,-0.012212499999999998,0.6746829999999999,-0.060916000000000005,-0.1492105,0.45471999999999996,-0.079345,-0.2734705,0.644708,-0.162799,0.1425295,0.45779,-0.085153,0.2623795,0.675308,-0.168695,-0.3374305,0.85945,-0.265945,0.29254949999999996,0.9282299999999999,-0.265775,-0.0809925,0.0034799999999999276,-0.0018550000000000094,0.0809925,-0.0034800000000000386,0.0018549999999999955,-0.12450049999999999,0.15077999999999997,-0.336905,0.1411995,0.16952999999999996,-0.314705,-0.1733805,-0.21438000000000001,-0.21607500000000002,0.09070349999999999,-0.22153,-0.170465
144,-0.012655499999999997,0.6746239999999999,-0.06108099999999999,-0.1494205,0.45585,-0.07938199999999998,-0.2728505,0.6372849999999999,-0.159995,0.14213950000000003,0.4586299999999999,-0.08509499999999999,0.2618295,0.6739919999999999,-0.168346,-0.3379405,0.84786,-0.26419499999999996,0.2925295,0.9282999999999999,-0.266105,-0.0809855,0.0034999999999999476,-0.001794999999999991,0.0809855,-0.0035000000000000586,0.001795000000000005,-0.12487049999999998,0.15245999999999993,-0.336225,0.1407295,0.17142999999999992,-0.313745,-0.1744005,-0.21321,-0.215835,0.0902255,-0.2200200000000001,-0.170336
145,-0.0131135,0.674497,-0.061461,-0.1496595,0.45691499999999996,-0.079433,-0.27231950000000005,0.62968,-0.157189,0.1418005,0.459965,-0.085036,0.26181049999999995,0.674938,-0.168481,-0.33842950000000005,0.836285,-0.26241,0.29252049999999996,0.928985,-0.26649,-0.0809845,0.0034450000000000314,-0.0017400000000000054,0.0809845,-0.0034450000000000314,0.0017400000000000054,-0.1252895,0.15452500000000002,-0.33526,0.1402905,0.173195,-0.31289,-0.1752895,-0.21160500000000004,-0.21574,0.0897715,-0.218615,-0.170114
146,-0.013571499999999997,0.6745280000000001,-0.061854,-0.1498715,0.4584650000000001,-0.079451,-0.27234149999999996,0.6278530000000001,-0.156626,0.1415085,0.46138500000000005,-0.08502699999999999,0.26174850000000005,0.6759310000000001,-0.168593,-0.33889149999999996,0.8257750000000001,-0.26105,0.2925185,0.9299050000000001,-0.2669,-0.0809925,0.0033850000000000824,-0.001689999999999997,0.0809925,-0.0033849999999999714,0.001689999999999997,-0.1258215,0.15695500000000007,-0.33418,0.1399085,0.1749050000000001,-0.31207,-0.1761915,-0.20925499999999997,-0.21606999999999998,0.0893815,-0.21723499999999996,-0.169841
147,-0.014081999999999997,0.67442,-0.06229300000000001,-0.150065,0.4598150000000001,-0.07938700000000001,-0.272935,0.625588,-0.156052,0.14131500000000002,0.462735,-0.08496400000000001,0.261555,0.675953,-0.168524,-0.339605,0.8148350000000001,-0.26097000000000004,0.292395,0.930405,-0.26744999999999997,-0.080996,0.0033650000000000624,-0.0017100000000000032,0.080996,-0.0033649999999999514,0.0017099999999999893,-0.126415,0.15865500000000005,-0.33289,0.13964500000000002,0.17594500000000002,-0.31157,-0.177085,-0.207685,-0.21629,0.089011,-0.21657499999999996,-0.169551
148,-0.014605,0.674291,-0.062716,-0.150247,0.460685,-0.07934,-0.272947,0.6255109999999999,-0.156072,0.141103,0.46360499999999993,-0.08494,0.261503,0.675655,-0.168621,-0.340067,0.813325,-0.26078999999999997,0.292143,0.930645,-0.26822,-0.081008,0.0033649999999999514,-0.0017299999999999954,0.081008,-0.0033650000000000624,0.0017300000000000093,-0.127027,0.15946499999999997,-0.33172,0.139413,0.17651499999999998,-0.31134,-0.177917,-0.20708500000000007,-0.21625,0.08865100000000001,-0.21635500000000008,-0.169344
149,-0.015107499999999996,0.6741119999999999,-0.06320899999999999,-0.1504025,0.460955,-0.079265,-0.2729425,0.6257809999999999,-0.156072,0.1409975,0.4638749999999999,-0.084933,0.2614775,0.674875,-0.16863,-0.3400525,0.813595,-0.26108,0.2917975,0.930485,-0.26896,-0.0810035,0.003414999999999946,-0.0017299999999999954,0.0810035,-0.003415000000000057,0.0017300000000000093,-0.1274225,0.159485,-0.33082999999999996,0.1392275,0.17646499999999998,-0.31134,-0.1785325,-0.20726500000000003,-0.21615,0.08833450000000001,-0.21669500000000008,-0.169296
150,-0.015452500000000001,0.6741119999999999,-0.063745,-0.15044849999999999,0.46097499999999997,-0.079181,-0.2727785,0.6257809999999999,-0.156033,0.1410115,0.4638749999999999,-0.0849,0.2618015,0.674875,-0.168764,-0.3408585,0.812265,-0.260815,0.2914315,0.930375,-0.269565,-0.0810035,0.003414999999999946,-0.001695000000000002,0.0810035,-0.003415000000000057,0.001695000000000002,-0.1276285,0.15928499999999995,-0.330695,0.1391315,0.17612499999999998,-0.311315,-0.1785085,-0.20726500000000003,-0.21524500000000002,0.08839849999999999,-0.21669500000000008,-0.169261
151,-0.015529500000000005,0.6741119999999999,-0.064247,-0.1504785,0.461595,-0.07908799999999999,-0.27421850000000003,0.6257809999999999,-0.156359,0.1409815,0.46429499999999996,-0.084825,0.26208149999999997,0.674885,-0.168886,-0.3420285,0.812265,-0.26093,0.29098149999999995,0.930375,-0.26985000000000003,-0.0809765,0.003414999999999946,-0.001689999999999997,0.0809765,-0.003415000000000057,0.001689999999999997,-0.1277485,0.161315,-0.33062,0.1391015,0.17617499999999997,-0.31123999999999996,-0.1784885,-0.20489500000000005,-0.21428999999999998,0.08836849999999999,-0.21669500000000008,-0.169186
152,-0.0155285,0.6741119999999999,-0.064558,-0.15049449999999998,0.46291499999999997,-0.078933,-0.2756045,0.626195,-0.156611,0.14096550000000002,0.46524499999999996,-0.08467,0.2621255,0.674885,-0.168872,-0.3432745,0.812265,-0.261095,0.2905355,0.930375,-0.269895,-0.0809645,0.003414999999999946,-0.0017350000000000004,0.0809645,-0.003415000000000057,0.0017350000000000004,-0.12772450000000002,0.16163499999999997,-0.331555,0.13908549999999997,0.17626499999999995,-0.311155,-0.1783745,-0.204005,-0.213245,0.0883525,-0.21669500000000008,-0.169031
153,-0.015383000000000004,0.67416,-0.064878,-0.150477,0.46424,-0.078752,-0.27696699999999996,0.628101,-0.157858,0.141093,0.46624,-0.084511,0.262413,0.674807,-0.168985,-0.344387,0.8164899999999999,-0.2622,0.290223,0.93016,-0.26983,-0.081005,0.003449999999999953,-0.0018600000000000005,0.081005,-0.003449999999999953,0.0018600000000000005,-0.127587,0.16415000000000002,-0.33149,0.139233,0.17569,-0.31145,-0.176957,-0.19967000000000001,-0.21301,0.090509,-0.21687999999999996,-0.16889700000000002
154,-0.015211999999999996,0.674371,-0.06526900000000001,-0.150405,0.46437000000000006,-0.07864700000000001,-0.279055,0.635321,-0.16062300000000002,0.141495,0.4661900000000001,-0.084468,0.262825,0.6750140000000001,-0.169471,-0.345995,0.8256100000000001,-0.264635,0.289955,0.9286500000000001,-0.26998500000000003,-0.081068,0.0032800000000000606,-0.0019750000000000045,0.081068,-0.0032799999999999496,0.0019749999999999907,-0.127365,0.15998000000000007,-0.333545,0.139405,0.17169000000000006,-0.31355500000000003,-0.17463499999999998,-0.20319999999999994,-0.211532,0.092975,-0.2184799999999999,-0.169748
155,-0.014946999999999998,0.67427,-0.06568399999999999,-0.150357,0.463585,-0.07864299999999999,-0.280227,0.642416,-0.162472,0.141593,0.465685,-0.084608,0.263483,0.6758500000000001,-0.170077,-0.347567,0.834595,-0.26637500000000003,0.289623,0.929225,-0.270305,-0.081126,0.0031050000000000244,-0.002034999999999995,0.081126,-0.0031050000000000244,0.002034999999999995,-0.12675699999999998,0.15847500000000003,-0.33469499999999996,0.139513,0.16740500000000003,-0.316175,-0.17146699999999998,-0.202195,-0.210683,0.09485299999999999,-0.22053500000000004,-0.169625
156,-0.014532499999999993,0.6748799999999999,-0.06641,-0.15052649999999998,0.4630399999999999,-0.078684,-0.28192649999999997,0.649006,-0.164667,0.1417235,0.46334,-0.084923,0.26426350000000004,0.6754899999999999,-0.171001,-0.3490665,0.8422399999999999,-0.268345,0.2893535,0.9274799999999999,-0.270735,-0.0811855,0.0028199999999999337,-0.0021950000000000025,0.0811855,-0.0028200000000000447,0.0021950000000000025,-0.12635649999999998,0.15125999999999995,-0.337035,0.1397335,0.16018999999999994,-0.319315,-0.16740649999999999,-0.20651000000000008,-0.20899,0.09735850000000001,-0.22497000000000011,-0.170814
157,-0.0140055,0.6753020000000001,-0.067528,-0.1506525,0.46208000000000005,-0.07905500000000001,-0.2832925,0.654765,-0.167139,0.14198750000000002,0.46097,-0.08585600000000002,0.2649775,0.678193,-0.172967,-0.3505225,0.84897,-0.27052,0.28927749999999997,0.9272100000000001,-0.27161,-0.08106050000000001,0.0023400000000000087,-0.0028800000000000076,0.08106050000000001,-0.0023400000000000087,0.0028799999999999937,-0.1258525,0.14258000000000004,-0.33969000000000005,0.1400875,0.15083000000000002,-0.32315000000000005,-0.1629425,-0.21265,-0.20744800000000002,0.1000295,-0.23078999999999994,-0.172434
158,-0.013451499999999998,0.6787449999999999,-0.06903600000000001,-0.1507385,0.462775,-0.07952700000000001,-0.28477850000000005,0.659748,-0.169797,0.1422315,0.460225,-0.087176,0.2652615,0.681955,-0.17486100000000002,-0.35203850000000003,0.8620749999999999,-0.27291,0.2891815,0.9305950000000001,-0.27298,-0.08083850000000001,0.0017049999999999566,-0.0036500000000000005,0.08083850000000001,-0.0017049999999999566,0.0036499999999999866,-0.1254185,0.131915,-0.34251,0.1403915,0.13909499999999997,-0.32698000000000005,-0.1565085,-0.22108499999999998,-0.205316,0.10257450000000001,-0.23860499999999996,-0.174157
159,-0.012894,0.681845,-0.07039000000000001,-0.150944,0.46406200000000003,-0.08011499999999999,-0.28622400000000003,0.668995,-0.172566,0.142486,0.460863,-0.08844099999999999,0.26534599999999997,0.685735,-0.176567,-0.35354399999999997,0.8746050000000001,-0.27524499999999996,0.289346,0.932405,-0.27458499999999997,-0.080584,0.0009949999999999681,-0.004224999999999993,0.080584,-0.0009949999999999681,0.0042250000000000065,-0.124884,0.11805500000000002,-0.345905,0.140646,0.12448500000000001,-0.33109500000000003,-0.148494,-0.23200500000000002,-0.202536,0.105507,-0.247985,-0.176271
160,-0.012063,0.686645,-0.07130499999999998,-0.15090800000000001,0.46698700000000004,-0.080453,-0.287388,0.678085,-0.174807,0.14302199999999998,0.46071,-0.08930799999999998,0.265512,0.690445,-0.17779099999999998,-0.354898,0.8878550000000001,-0.27695499999999995,0.289872,0.933415,-0.275605,-0.08043800000000001,0.0005249999999999977,-0.004584999999999992,0.08043800000000001,-0.0005249999999999977,0.004585000000000006,-0.12400800000000001,0.10289500000000001,-0.349095,0.141172,0.10900500000000002,-0.334605,-0.140318,-0.243525,-0.199658,0.108742,-0.25766500000000003,-0.17811699999999997
161,-0.011046,0.692145,-0.07175199999999998,-0.15075,0.470359,-0.08066899999999999,-0.28838,0.687795,-0.17627099999999998,0.1437,0.459438,-0.090058,0.26593,0.694795,-0.178855,-0.35588000000000003,0.902215,-0.27779,0.29058999999999996,0.9391050000000001,-0.27632,-0.080237,0.00013499999999999623,-0.004859999999999989,0.080237,-0.00013499999999999623,0.004860000000000003,-0.12294,0.08604500000000004,-0.3519,0.14188,0.09264500000000003,-0.33776,-0.13197,-0.256185,-0.19640799999999997,0.11259,-0.268035,-0.181278
162,-0.009807,0.69705,-0.07166,-0.150754,0.4717009999999999,-0.08055600000000002,-0.28849400000000003,0.6964199999999999,-0.176214,0.144176,0.45955099999999993,-0.09008500000000001,0.267586,0.69768,-0.179805,-0.35694400000000004,0.9095799999999999,-0.27776500000000004,0.29150600000000004,0.94133,-0.276565,-0.080037,-0.000200000000000089,-0.005105000000000012,0.080037,0.00019999999999997797,0.005104999999999998,-0.121774,0.061979999999999924,-0.35380500000000004,0.142776,0.06940999999999992,-0.339945,-0.125504,-0.27616000000000007,-0.194275,0.114896,-0.2857700000000001,-0.184032
163,-0.008039499999999995,0.70211,-0.071589,-0.1501595,0.474551,-0.08026900000000001,-0.2869395,0.6977,-0.17615,0.14518050000000002,0.45971399999999996,-0.09016099999999999,0.2695505,0.70112,-0.179726,-0.3564795,0.91033,-0.27774,0.29292050000000003,0.94417,-0.27651000000000003,-0.0797625,-0.00032999999999999696,-0.005080000000000001,0.0797625,0.00032999999999999696,0.005080000000000001,-0.1200795,0.03810999999999998,-0.35373,0.1442505,0.04531999999999997,-0.34016,-0.11894949999999999,-0.29794000000000004,-0.192353,0.11763050000000001,-0.30633000000000005,-0.18649100000000002
164,-0.0061270000000000005,0.7066600000000001,-0.07120700000000002,-0.149058,0.477814,-0.07956200000000002,-0.285248,0.6986,-0.175161,0.14632199999999998,0.458616,-0.08980700000000001,0.271212,0.7028,-0.179353,-0.354778,0.9169,-0.276785,0.29443199999999997,0.9449099999999999,-0.276145,-0.07936599999999999,-0.00030000000000002247,-0.005335000000000006,0.07936599999999999,0.00030000000000002247,0.0053349999999999925,-0.118278,0.013950000000000018,-0.353355,0.14582199999999998,0.021029999999999993,-0.339795,-0.113258,-0.32054000000000005,-0.190586,0.120702,-0.3277,-0.187925
165,-0.004343000000000003,0.711375,-0.07072,-0.147817,0.479498,-0.078742,-0.283837,0.698485,-0.174688,0.147403,0.461785,-0.08934600000000001,0.272333,0.707665,-0.17889,-0.353567,0.9232849999999999,-0.27632500000000004,0.295803,0.948985,-0.275665,-0.07896500000000001,-0.0005550000000000277,-0.005534999999999998,0.07896500000000001,0.0005549999999999722,0.005534999999999998,-0.11663699999999999,-0.009675000000000045,-0.352875,0.147213,-0.002945000000000031,-0.339325,-0.108537,-0.343125,-0.189364,0.12227299999999999,-0.348595,-0.186896
166,-0.0025384999999999956,0.71542,-0.070247,-0.1464775,0.481462,-0.078079,-0.2823075,0.6987300000000001,-0.171809,0.1480725,0.463077,-0.08925899999999999,0.27294250000000003,0.70825,-0.178633,-0.3520075,0.93009,-0.274045,0.2971325,0.95098,-0.275175,-0.0787155,-0.00020999999999998797,-0.005464999999999998,0.0787155,0.00021000000000004349,0.0054650000000000115,-0.11506750000000002,-0.03436,-0.352225,0.1484925,-0.027629999999999988,-0.339215,-0.1036775,-0.36546999999999996,-0.18818000000000001,0.1252825,-0.36973,-0.187629
167,-0.000896499999999998,0.71723,-0.06928300000000001,-0.1450765,0.48187899999999995,-0.077074,-0.2810665,0.69817,-0.16858900000000002,0.14920350000000002,0.464022,-0.088589,0.2734335,0.70729,-0.176946,-0.3504665,0.9301999999999999,-0.27081500000000003,0.2983035,0.95197,-0.27366500000000005,-0.07845350000000001,6.999999999995898e-05,-0.005205000000000001,0.07845350000000001,-7.00000000000145e-05,0.005204999999999987,-0.11362649999999999,-0.06000000000000005,-0.35079499999999997,0.1497735,-0.053600000000000037,-0.338425,-0.10127649999999999,-0.389,-0.187205,0.1283235,-0.39168000000000003,-0.18731
168,0.000684000000000004,0.721065,-0.06719900000000001,-0.14382,0.4816849999999999,-0.07561100000000001,-0.27986,0.6976749999999999,-0.164727,0.15011999999999998,0.463205,-0.08729,0.27395,0.707225,-0.174632,-0.34925,0.9340149999999999,-0.26682,0.29887,0.955345,-0.27183999999999997,-0.078043,0.0002749999999999697,-0.004630000000000009,0.078043,-0.0002750000000000252,0.004629999999999995,-0.11245999999999999,-0.08416500000000005,-0.34724,0.15084000000000003,-0.07795500000000005,-0.33593,-0.09997,-0.413485,-0.18583,0.13115,-0.41403500000000004,-0.186313
169,0.0017604999999999982,0.72269,-0.063723,-0.14301350000000002,0.48139,-0.07269600000000001,-0.27912349999999997,0.69911,-0.15948600000000002,0.1509065,0.46323000000000003,-0.08443800000000001,0.27410650000000003,0.70556,-0.16973100000000002,-0.3481935,0.93765,-0.26114000000000004,0.2990765,0.95857,-0.26864,-0.0774155,0.0005200000000000204,-0.003990000000000007,0.0774155,-0.0005200000000000204,0.0039899999999999936,-0.1118435,-0.10827999999999999,-0.34214,0.1515065,-0.10227999999999998,-0.33206,-0.0990735,-0.43850999999999996,-0.183065,0.1335865,-0.43754000000000004,-0.18404700000000002
170,0.002976000000000003,0.724025,-0.057912000000000005,-0.142131,0.479885,-0.06821100000000001,-0.27841099999999996,0.699365,-0.15287800000000001,0.151769,0.465555,-0.0792,0.274469,0.7046049999999999,-0.162387,-0.346921,0.9401250000000001,-0.253585,0.299289,0.9572149999999999,-0.261965,-0.077046,0.0004350000000000187,-0.003495000000000012,0.077046,-0.0004350000000000187,0.003494999999999998,-0.111481,-0.13454499999999997,-0.334235,0.151889,-0.128245,-0.325235,-0.09817100000000001,-0.467455,-0.178484,0.136069,-0.465365,-0.180436
171,0.0043279999999999985,0.726285,-0.05220600000000001,-0.14100100000000002,0.480075,-0.063611,-0.276981,0.699265,-0.145907,0.152559,0.466165,-0.074052,0.274959,0.704555,-0.154888,-0.345151,0.944025,-0.24568,0.29956900000000003,0.959265,-0.25482000000000005,-0.077074,0.0002550000000000052,-0.0029600000000000043,0.077074,-0.0002550000000000052,0.0029599999999999904,-0.110851,-0.153395,-0.32688,0.152469,-0.147005,-0.31787,-0.09776099999999999,-0.490255,-0.174876,0.138209,-0.48719500000000004,-0.176728
172,0.004840999999999998,0.728785,-0.046351500000000004,-0.140654,0.480805,-0.058925500000000006,-0.27638399999999996,0.699515,-0.1377015,0.15256599999999998,0.46962499999999996,-0.0685355,0.274806,0.707885,-0.1471945,-0.344114,0.951175,-0.2370645,0.298836,0.9609150000000001,-0.2470545,-0.076941,0.00010499999999999399,-0.0025055000000000077,0.076941,-0.00010499999999999399,0.002505499999999994,-0.111194,-0.169625,-0.3182245,0.152086,-0.16350499999999998,-0.30953450000000005,-0.098114,-0.511895,-0.1710385,0.13950600000000002,-0.507915,-0.1734255
173,0.005283999999999999,0.73229,-0.040615,-0.140788,0.48096000000000005,-0.054025,-0.275708,0.7,-0.129824,0.15240199999999998,0.47369,-0.06306,0.274542,0.71133,-0.139431,-0.343178,0.95216,-0.228916,0.297892,0.9671299999999999,-0.239276,-0.07669000000000001,-0.00017000000000000348,-0.0020609999999999934,0.07669000000000001,0.00017000000000000348,0.0020610000000000073,-0.11163800000000001,-0.18499999999999997,-0.309016,0.151612,-0.17949,-0.300786,-0.09884799999999999,-0.53349,-0.167126,0.140402,-0.52894,-0.169809
174,0.005750500000000002,0.73492,-0.03458150000000001,-0.1404995,0.48231999999999997,-0.048614500000000005,-0.2756595,0.70183,-0.12198350000000001,0.15239049999999998,0.47407,-0.057439500000000004,0.2740605,0.7127699999999999,-0.13139050000000002,-0.3416495,0.95495,-0.2203555,0.2967905,0.9719800000000001,-0.2311555,-0.0763775,4.999999999999449e-05,-0.0020645000000000108,0.0763775,-5.000000000002225e-05,0.002064499999999997,-0.1122595,-0.19841000000000003,-0.29951550000000005,0.1512505,-0.19384,-0.2919155,-0.0995495,-0.5537000000000001,-0.1623545,0.14121050000000002,-0.5481800000000001,-0.1645855
175,0.0060435,0.7384999999999999,-0.028607499999999994,-0.14023449999999998,0.48360000000000003,-0.0432175,-0.2755545,0.70344,-0.1142855,0.1524855,0.47628000000000004,-0.0517655,0.2738255,0.71482,-0.12333549999999999,-0.3402845,0.95763,-0.2117095,0.29561550000000003,0.97744,-0.22266950000000002,-0.0759725,-0.00014000000000000123,-0.0020084999999999964,0.0759725,0.00014000000000000123,0.0020084999999999964,-0.1128345,-0.2119,-0.2901395,0.15075550000000001,-0.20719,-0.2827095,-0.0998945,-0.5740500000000001,-0.1569575,0.1417955,-0.5671700000000001,-0.15899449999999998
176,0.006202000000000003,0.740915,-0.0229655,-0.14010399999999998,0.486255,-0.0379715,-0.275544,0.705605,-0.1065865,0.15257600000000002,0.478215,-0.0465925,0.27361599999999997,0.716735,-0.1156995,-0.339694,0.959045,-0.2035605,0.294666,0.979365,-0.2147205,-0.07549900000000001,-0.00017499999999998073,-0.002209500000000003,0.07549900000000001,0.00017500000000000848,0.002209500000000003,-0.11341399999999999,-0.224595,-0.2800005,0.150086,-0.219235,-0.2729605,-0.10006399999999999,-0.593295,-0.1514525,0.142256,-0.585825,-0.1534275
177,0.006250499999999999,0.74278,-0.017499000000000008,-0.1400405,0.48916000000000004,-0.03303300000000001,-0.2760905,0.7082,-0.09932600000000001,0.1525195,0.48107,-0.04136600000000001,0.2728695,0.71872,-0.10827900000000001,-0.3397405,0.95772,-0.19561,0.2941395,0.98148,-0.20627,-0.0749895,-3.0000000000002247e-05,-0.0024380000000000096,0.0749895,3.0000000000002247e-05,0.0024379999999999957,-0.11409050000000001,-0.23582,-0.27041000000000004,0.1494295,-0.23016,-0.26364,-0.1004305,-0.60996,-0.14583200000000002,0.1426595,-0.6025699999999999,-0.14813
178,0.006358500000000003,0.74459,-0.011941499999999994,-0.1399085,0.49011,-0.028160499999999998,-0.2768985,0.70778,-0.0920505,0.1526115,0.48296,-0.036094499999999995,0.27214150000000004,0.72045,-0.10087549999999999,-0.3397185,0.95488,-0.1875375,0.29378150000000003,0.98386,-0.1973975,-0.0744245,-0.00014000000000000123,-0.002513500000000002,0.0744245,0.00014000000000000123,0.002513500000000002,-0.11475850000000001,-0.2469,-0.2604075,0.1490515,-0.24080999999999997,-0.2540075,-0.10077850000000001,-0.6268,-0.1406945,0.1431015,-0.61966,-0.1430015
179,0.006550999999999998,0.746225,-0.00788450000000001,-0.13991399999999998,0.49156500000000003,-0.024257500000000008,-0.27763400000000005,0.706885,-0.08601850000000001,0.152916,0.483665,-0.03234350000000001,0.271426,0.722215,-0.09520350000000001,-0.34046400000000004,0.951225,-0.1804165,0.29385599999999995,0.986325,-0.19033650000000002,-0.07386999999999999,-2.5000000000011124e-05,-0.0023775000000000046,0.07386999999999999,2.4999999999997247e-05,0.0023774999999999907,-0.11472399999999999,-0.258765,-0.2517465,0.148876,-0.25414499999999995,-0.2459365,-0.100714,-0.6391749999999999,-0.1365125,0.14349599999999998,-0.632595,-0.1384525
180,0.0065205,0.7483424999999999,-0.0037335000000000007,-0.1399155,0.49307249999999997,-0.020250499999999998,-0.2787255,0.7057424999999999,-0.0797905,0.1531045,0.4860725,-0.0286005,0.2708545,0.7239225,-0.0893805,-0.3404255,0.9533125,-0.1731305,0.2939145,0.9889325,-0.1833305,-0.0733925,1.7500000000003624e-05,-0.002200499999999994,0.0733925,-1.7500000000003624e-05,0.002200499999999994,-0.1147455,-0.2708775,-0.2426505,0.1486445,-0.2673075,-0.23740050000000001,-0.1006055,-0.6514975000000001,-0.1322525,0.1435445,-0.6457575,-0.1339175
181,0.006158,0.7479635,0.004958499999999998,-0.140256,0.4917935,-0.011624500000000003,-0.279606,0.7049235,-0.0700475,0.153204,0.4849735,-0.020307500000000006,0.270304,0.7200335,-0.0788875,-0.340886,0.9525135,-0.16194150000000002,0.293704,0.9911435,-0.1721115,-0.072866,-4.849999999999299e-05,-0.0020555000000000018,0.072866,4.850000000000687e-05,0.002055499999999995,-0.11502599999999999,-0.2831665,-0.2293915,0.148214,-0.27959649999999997,-0.2245215,-0.100816,-0.6630265,-0.1233085,0.143364,-0.6580465,-0.1247565
182,0.005626499999999996,0.7479939999999999,0.0134805,-0.1420135,0.49352399999999996,-0.0033545000000000033,-0.2797835,0.705674,-0.0605445,0.1527765,0.48482400000000003,-0.012292500000000005,0.2700665,0.7186939999999999,-0.0684105,-0.34237350000000005,0.952924,-0.1506285,0.29363649999999997,0.989304,-0.1606485,-0.0724445,-1.5000000000001124e-05,-0.001844499999999999,0.0724445,1.5000000000001124e-05,0.001844499999999999,-0.11454349999999999,-0.295176,-0.2124885,0.1466965,-0.29228600000000005,-0.2076385,-0.1012035,-0.674436,-0.1136875,0.1432165,-0.6701360000000001,-0.1154005
183,0.0050100000000000006,0.7476590000000001,0.021512499999999997,-0.143842,0.494629,0.004686499999999996,-0.28004199999999996,0.706329,-0.0513945,0.152278,0.485559,-0.004369499999999998,0.269658,0.717779,-0.058021500000000004,-0.344282,0.9533290000000001,-0.1390515,0.293488,0.987379,-0.1488375,-0.072134,-0.00017000000000000348,-0.0013594999999999996,0.072134,0.00016999999999999654,0.0013594999999999996,-0.113922,-0.307441,-0.19543750000000001,0.145188,-0.305771,-0.1903975,-0.10154200000000001,-0.6864809999999999,-0.1040055,0.143098,-0.6831210000000001,-0.10635249999999999
184,0.0043575,0.7477705,0.029178999999999997,-0.1456295,0.4957105,0.012062999999999997,-0.2807595,0.7081405000000001,-0.042777,0.1518005,0.48602049999999997,0.003032,0.2687205,0.7181905000000001,-0.04807,-0.34623950000000003,0.9547905000000001,-0.127743,0.29314049999999997,0.9854605000000001,-0.137605,-0.0719785,-0.00027850000000000097,-0.0009160000000000001,0.0719785,0.00027850000000000097,0.0009160000000000001,-0.11313950000000002,-0.3189595,-0.17840499999999998,0.1438405,-0.3190095,-0.17335499999999998,-0.1018795,-0.6973594999999999,-0.09458,0.1431605,-0.6952695,-0.097399
185,0.003608499999999997,0.7479485,0.0365885,-0.1473625,0.4949985,0.019320500000000004,-0.2818025,0.7104985,-0.034990499999999994,0.1512675,0.4856685,0.010147500000000004,0.2678575,0.7194985,-0.0390555,-0.34786249999999996,0.9568985,-0.1172135,0.2923675,0.9834285,-0.1267725,-0.0717935,-0.00022250000000000048,-0.0004974999999999979,0.0717935,0.00022249999999999354,0.0004975000000000014,-0.1123425,-0.32935149999999996,-0.1615125,0.1425975,-0.3318815,-0.1562525,-0.1021125,-0.7070514999999999,-0.08506949999999999,0.1431975,-0.7068015,-0.08889649999999999
186,0.0025675000000000003,0.7469625,0.0441815,-0.1492645,0.4944225,0.026882499999999997,-0.2825045,0.7080025,-0.0268925,0.1507155,0.4850425,0.0172485,0.2670555,0.7190325,-0.030228500000000002,-0.3494045,0.9580225,-0.1065875,0.29156550000000003,0.9796925,-0.1162685,-0.0716225,-0.00016050000000000092,-5.8500000000002994e-05,0.0716225,0.00016050000000000092,5.8499999999999525e-05,-0.1113545,-0.3408175,-0.14351850000000002,0.1412955,-0.3455075,-0.1378585,-0.10215450000000001,-0.7177175,-0.0754375,0.1433655,-0.7194175,-0.0802155
187,0.0015579999999999969,0.7467739999999999,0.051461,-0.15107500000000001,0.49433400000000005,0.034133,-0.283095,0.706734,-0.019116,0.150195,0.48537399999999997,0.023905000000000003,0.26626500000000003,0.719164,-0.022016,-0.35078499999999996,0.960004,-0.09672,0.29113500000000003,0.979004,-0.10627700000000001,-0.07148199999999999,-0.00012799999999999964,0.0004080000000000004,0.07148199999999999,0.00012800000000000138,-0.0004080000000000004,-0.110295,-0.35212600000000005,-0.125258,0.140015,-0.35856600000000005,-0.119278,-0.102125,-0.727286,-0.065652,0.14349499999999998,-0.730336,-0.07089200000000001
188,0.0005719999999999961,0.7463475,0.058476,-0.15283800000000003,0.4944275,0.040989,-0.283538,0.7055875,-0.011343,0.14985199999999999,0.4858075,0.030438000000000003,0.265552,0.7188275000000001,-0.014197999999999999,-0.352068,0.9621675000000001,-0.087408,0.290642,0.9777775,-0.096624,-0.071337,-0.00010150000000000003,0.000892,0.071337,0.00010150000000000003,-0.000892,-0.109088,-0.3642125,-0.106808,0.138842,-0.3723925,-0.10054300000000001,-0.102118,-0.7367325,-0.056001,0.143702,-0.7419625,-0.061763000000000005
189,-0.00038000000000000186,0.7452394999999999,0.064917,-0.15458899999999998,0.4947495,0.047539,-0.283999,0.7048194999999999,-0.003885,0.149441,0.48499950000000003,0.036528,0.264821,0.7183394999999999,-0.006846999999999999,-0.352879,0.9587595,-0.078515,0.29012099999999996,0.9765594999999999,-0.087426,-0.071161,-9.49999999999996e-06,0.0013230000000000002,0.071161,9.49999999999996e-06,-0.001323,-0.10784900000000001,-0.37540049999999997,-0.089034,0.137661,-0.38578049999999997,-0.082168,-0.102119,-0.7452105,-0.046645,0.14394099999999999,-0.7527305000000001,-0.052894
190,-0.0012344999999999995,0.7460845,0.0660705,-0.1562075,0.49690449999999997,0.0490365,-0.2843775,0.7053445,-0.0015435000000000006,0.1492325,0.4857945,0.0374795,0.26421249999999996,0.7191645,-0.0047705000000000004,-0.3534275,0.9567345,-0.07483050000000001,0.2896925,0.9766845,-0.0835895,-0.0711215,0.00019249999999999996,0.0017414999999999996,0.0711215,-0.00019249999999999996,-0.0017415,-0.10648749999999998,-0.3847555,-0.0766865,0.1366525,-0.39790549999999997,-0.06922450000000001,-0.1020475,-0.7523755,-0.042304499999999995,0.1442825,-0.7613555,-0.0491905
191,-0.002078499999999997,0.7461180000000001,0.06711400000000001,-0.1567055,0.49611800000000006,0.050496,-0.28486550000000005,0.704408,0.0007159999999999996,0.1488045,0.48599800000000004,0.038384999999999996,0.2635945,0.718198,-0.0029230000000000003,-0.3539755,0.953798,-0.071621,0.2891645,0.976078,-0.080157,-0.0712145,0.0002489999999999992,0.0021019999999999997,0.0712145,-0.0002489999999999992,-0.0021019999999999997,-0.1062255,-0.39101199999999997,-0.06845,0.13593449999999999,-0.404902,-0.060584,-0.10199549999999999,-0.757772,-0.038085,0.1445445,-0.768662,-0.047214
192,-0.002764500000000003,0.746352,0.0680235,-0.1571505,0.495812,0.051832500000000004,-0.2853205,0.703882,0.0026654999999999995,0.1484695,0.48560200000000003,0.0390785,0.2631195,0.7171620000000001,-0.0013185000000000002,-0.3544605,0.951432,-0.0689505,0.2887195,0.9762820000000001,-0.0773565,-0.0713145,0.000449999999999999,0.0022445,0.0713145,-0.000449999999999999,-0.0022445,-0.10618050000000001,-0.395638,-0.0607945,0.1350695,-0.410348,-0.052352499999999996,-0.1022305,-0.762018,-0.0341075,0.1444695,-0.773528,-0.045451500000000006
193,-0.0032855000000000002,0.746065,0.0689015,-0.1574585,0.495765,0.0531145,-0.28557849999999996,0.7029449999999999,0.0045555,0.1482615,0.485475,0.0397365,0.2628215,0.715505,0.00027450000000000044,-0.3548185,0.948875,-0.06638849999999999,0.28834150000000003,0.976455,-0.07467950000000001,-0.0715845,0.0006229999999999986,0.0023485,0.0715845,-0.000623000000000002,-0.0023485,-0.10607849999999999,-0.399745,-0.053312500000000006,0.1343715,-0.415415,-0.0441595,-0.1023385,-0.7648750000000001,-0.029947500000000002,0.14431149999999998,-0.778085,-0.0437535
194,-0.003848000000000004,0.7461385,0.069622,-0.157812,0.4960385,0.053844,-0.28551200000000004,0.7025585000000001,0.006195999999999999,0.147888,0.48506849999999996,0.040361999999999995,0.26250799999999996,0.7137185,0.001556,-0.35488200000000003,0.9473185000000001,-0.06413100000000001,0.28764799999999996,0.9775185000000001,-0.072371,-0.071764,0.0006934999999999997,0.0023999999999999994,0.071764,-0.0006934999999999997,-0.002400000000000001,-0.106062,-0.4010915,-0.046715000000000007,0.134218,-0.4178815,-0.037294999999999995,-0.102512,-0.7667115,-0.026595999999999998,0.144698,-0.7812115,-0.042247999999999994
195,-0.004299999999999998,0.7461485,0.0702325,-0.15815700000000002,0.4959985,0.0543435,-0.285557,0.7023685000000001,0.007367500000000001,0.147453,0.4845885,0.0406865,0.26182300000000003,0.7127285,0.0028824999999999996,-0.354777,0.9464485,-0.0620005,0.28690299999999996,0.9793185000000001,-0.0700695,-0.071863,0.0007155000000000009,0.0024194999999999998,0.071863,-0.0007155000000000009,-0.0024194999999999998,-0.106447,-0.4014115,-0.0408945,0.133983,-0.4194615,-0.0316505,-0.102977,-0.7676014999999999,-0.0236065,0.144733,-0.7837415,-0.0408785
196,-0.004782999999999999,0.7459085,0.07076350000000001,-0.158534,0.49592850000000005,0.0548055,-0.285814,0.7022984999999999,0.008220500000000002,0.146976,0.48418849999999997,0.0410165,0.26118600000000003,0.7118384999999999,0.004094500000000001,-0.35481399999999996,0.9457884999999999,-0.060160500000000006,0.28633600000000003,0.9787885,-0.0682445,-0.071964,0.0007355,0.0023525000000000004,0.071964,-0.0007355,-0.0023524999999999987,-0.10688399999999999,-0.4016215,-0.0363255,0.133616,-0.4206015,-0.027250499999999997,-0.103504,-0.7682315000000001,-0.020844500000000002,0.144436,-0.7855915,-0.039669499999999996
197,-0.005270500000000001,0.7457940000000001,0.071103,-0.1589325,0.495704,0.055085999999999996,-0.2862325,0.7023240000000001,0.008696,0.1465775,0.48412399999999994,0.041292999999999996,0.2607175,0.711604,0.00469,-0.35503250000000003,0.945424,-0.058857999999999994,0.2858275,0.978664,-0.066747,-0.07207949999999999,0.0007399999999999976,0.0022510000000000013,0.07207949999999999,-0.0007399999999999976,-0.0022509999999999995,-0.1074425,-0.40163600000000005,-0.032861,0.1332075,-0.42122600000000004,-0.023895999999999997,-0.10404250000000001,-0.767836,-0.01842,0.1441675,-0.786886,-0.038852
198,-0.0057315000000000005,0.7456915,0.0714125,-0.1592395,0.49544150000000003,0.0552765,-0.28675949999999994,0.7024214999999999,0.0092005,0.1461605,0.48429150000000004,0.0416005,0.2601605,0.7115214999999999,0.0053255,-0.35537949999999996,0.9450615,-0.057660499999999996,0.28525049999999996,0.9785114999999999,-0.06525249999999999,-0.0721825,0.0007464999999999972,0.002120500000000001,0.0721825,-0.0007465000000000041,-0.002120499999999999,-0.1080495,-0.4014785,-0.029713499999999997,0.1327105,-0.42168849999999997,-0.021068499999999997,-0.1046595,-0.7675985000000001,-0.016004499999999998,0.1437705,-0.7879985,-0.0380125
199,-0.006174500000000003,0.7456210000000001,0.0716985,-0.1595455,0.49537099999999995,0.055385500000000004,-0.2871955,0.7025910000000001,0.0097065,0.14582450000000002,0.484651,0.0417675,0.2596445,0.7116410000000001,0.005832500000000001,-0.35571549999999996,0.9447810000000001,-0.0568255,0.2847045,0.9785310000000002,-0.0639325,-0.0723085,0.0007080000000000003,0.002042500000000001,0.0723085,-0.0007080000000000003,-0.002042499999999999,-0.1085955,-0.401249,-0.027079499999999996,0.1322445,-0.422109,-0.0185895,-0.1052355,-0.7673589999999999,-0.013972499999999999,0.14337450000000002,-0.788909,-0.0372195
200,-0.00655,0.745572,0.072061,-0.159798,0.495362,0.055281000000000004,-0.287578,0.702712,0.010216000000000001,0.14551199999999997,0.484852,0.041757,0.259462,0.712192,0.006423000000000002,-0.356048,0.9445220000000001,-0.056194,0.284322,0.9787720000000001,-0.06274199999999999,-0.072393,0.0006369999999999987,0.0018970000000000011,0.072393,-0.0006369999999999987,-0.0018969999999999994,-0.10911799999999999,-0.401098,-0.024659,0.131822,-0.422638,-0.016148,-0.105798,-0.767528,-0.012653999999999999,0.14300200000000002,-0.789808,-0.036336
201,-0.006963500000000004,0.7455674999999999,0.0723185,-0.1600865,0.4953774999999999,0.0550165,-0.28799650000000004,0.7027675,0.0106465,0.1451535,0.4847475,0.0416825,0.25930349999999996,0.7127375,0.0070615,-0.35644650000000005,0.9442975,-0.055563499999999995,0.28394349999999996,0.9789475,-0.06179249999999999,-0.0724315,0.0005684999999999996,0.0017895000000000012,0.0724315,-0.0005685000000000065,-0.0017895000000000012,-0.1096765,-0.4009325,-0.0224035,0.1313635,-0.42381250000000004,-0.014022499999999999,-0.10642650000000001,-0.7677525000000001,-0.0114705,0.1426635,-0.7905625000000001,-0.0353785
202,-0.007464500000000002,0.7455445,0.0723305,-0.16040349999999998,0.49536450000000004,0.0542015,-0.2884835,0.7028945000000001,0.0107475,0.14470650000000002,0.48460449999999994,0.0415435,0.2591365,0.7130845,0.0078805,-0.3567735,0.9438345,-0.0547455,0.28352649999999996,0.9792145,-0.060978500000000005,-0.0724465,0.0004914999999999989,0.001775500000000001,0.0724465,-0.0004914999999999989,-0.0017754999999999993,-0.11035350000000001,-0.4008455,-0.0207555,0.1308165,-0.42455550000000003,-0.0122805,-0.1072135,-0.7679855,-0.010340499999999999,0.1421865,-0.7912655,-0.0342465
