sb224sc-HT22-VT27/4dt907/src/data/kinect_good_preprocessed_A9_mediapipe/A126_kinect.csv
FrameNo,nose_3d_x,nose_3d_y,nose_3d_z,left_shoulder_3d_x,left_shoulder_3d_y,left_shoulder_3d_z,left_elbow_3d_x,left_elbow_3d_y,left_elbow_3d_z,right_shoulder_3d_x,right_shoulder_3d_y,right_shoulder_3d_z,right_elbow_3d_x,right_elbow_3d_y,right_elbow_3d_z,left_wrist_3d_x,left_wrist_3d_y,left_wrist_3d_z,right_wrist_3d_x,right_wrist_3d_y,right_wrist_3d_z,left_hip_3d_x,left_hip_3d_y,left_hip_3d_z,right_hip_3d_x,right_hip_3d_y,right_hip_3d_z,left_knee_3d_x,left_knee_3d_y,left_knee_3d_z,right_knee_3d_x,right_knee_3d_y,right_knee_3d_z,left_ankle_3d_x,left_ankle_3d_y,left_ankle_3d_z,right_ankle_3d_x,right_ankle_3d_y,right_ankle_3d_z
144,-0.009288499999999996,0.721773,0.037772,-0.1687845,0.530773,-0.0010469999999999993,-0.2515245,0.751723,-0.127507,0.1650455,0.523893,0.009013,0.2765355,0.728143,-0.11363700000000002,-0.1855445,0.9793430000000001,-0.182017,0.2263255,0.930103,-0.17222700000000002,-0.0824975,-0.0005459999999999979,-0.0006429999999999977,0.0824975,0.0005459999999999979,0.0006429999999999977,-0.13905449999999997,-0.434427,-0.015592000000000002,0.13014550000000003,-0.439117,0.013617999999999998,-0.16404449999999998,-0.789827,0.075234,0.13235550000000001,-0.797867,0.092502
145,-0.009103999999999998,0.7198484999999999,0.030672999999999995,-0.16847,0.5294985000000001,-0.006183000000000001,-0.25353,0.7440484999999999,-0.13441399999999998,0.16595000000000001,0.5222985,0.0037509999999999974,0.27998,0.7228485,-0.12059399999999999,-0.18707,0.9736685,-0.19091400000000003,0.22954,0.9302185000000001,-0.18031400000000003,-0.082805,-0.000503499999999997,-0.0004040000000000016,0.082805,0.0005035000000000039,0.00040399999999999464,-0.13985999999999998,-0.4276815,-0.028295,0.13407,-0.4326715,-0.000793000000000002,-0.16317,-0.7845314999999999,0.069475,0.13365,-0.7913714999999999,0.086599
146,-0.008937000000000004,0.717271,0.022788500000000003,-0.168199,0.527571,-0.011771499999999997,-0.25528900000000004,0.737631,-0.14168150000000002,0.16662100000000002,0.5203310000000001,-0.0018224999999999977,0.283281,0.7169810000000001,-0.1281315,-0.188539,0.9683010000000001,-0.2005715,0.232221,0.930971,-0.18910149999999998,-0.083105,-0.0004949999999999954,-0.00015549999999999592,0.083105,0.0004950000000000024,0.00015550000000000286,-0.14097900000000002,-0.419549,-0.0420465,0.138301,-0.42468900000000004,-0.016202499999999995,-0.162259,-0.7778889999999999,0.0632855,0.135031,-0.7835989999999999,0.0801965
147,-0.008701,0.7150815,0.014220999999999998,-0.16785999999999998,0.5259715,-0.017974000000000004,-0.25694,0.7317815,-0.149614,0.16737000000000002,0.5180215,-0.008008000000000001,0.28647,0.7113515,-0.136584,-0.19002,0.9630815,-0.21119400000000002,0.23470000000000002,0.9266815,-0.199414,-0.08346,-0.0004185000000000022,2.5999999999998247e-05,0.08346,0.0004185000000000022,-2.5999999999998247e-05,-0.14218,-0.4097185,-0.056019000000000006,0.14251,-0.4149785,-0.032265999999999996,-0.16133999999999998,-0.7697585,0.056464,0.13643,-0.7742384999999999,0.073104
148,-0.008423999999999996,0.712511,0.005244000000000006,-0.167562,0.524301,-0.024561999999999994,-0.25835199999999997,0.726311,-0.15832,0.168078,0.515011,-0.014449999999999998,0.289288,0.705361,-0.14521,-0.19114199999999998,0.9590510000000001,-0.22245,0.23669800000000002,0.9240910000000001,-0.20997,-0.08398800000000001,-0.0002899999999999986,5.200000000000343e-05,0.08398800000000001,0.00029000000000000206,-5.1999999999996493e-05,-0.14355199999999999,-0.398449,-0.07035999999999999,0.146688,-0.404059,-0.048327999999999996,-0.160372,-0.760169,0.049407000000000006,0.13783800000000002,-0.7635689999999999,0.065654
149,-0.007939999999999994,0.7095615,-0.004342499999999999,-0.167267,0.5215814999999999,-0.0314555,-0.259497,0.7210215,-0.16764949999999998,0.16881300000000002,0.5122915,-0.0211985,0.292103,0.6993914999999999,-0.15424949999999998,-0.190657,0.9612915,-0.2329995,0.238233,0.9217915,-0.2211995,-0.084363,-0.00019350000000000096,3.550000000000081e-05,0.084363,0.00019349999999999923,-3.550000000000081e-05,-0.14481699999999997,-0.3864185,-0.0847695,0.15077300000000002,-0.39189850000000004,-0.0639755,-0.15917699999999999,-0.7493885,0.0419675,0.13936300000000001,-0.7516385,0.0579315
150,-0.0073300000000000014,0.7071719999999999,-0.013377,-0.166767,0.5193019999999999,-0.038268,-0.260467,0.7155619999999999,-0.176641,0.16936299999999999,0.509582,-0.027738,0.294353,0.694252,-0.162761,-0.191187,0.958252,-0.244381,0.239673,0.9186219999999999,-0.231961,-0.084718,-3.399999999999996e-05,-0.0002449999999999987,0.084718,3.399999999999996e-05,0.0002449999999999987,-0.145987,-0.37445799999999996,-0.097721,0.154393,-0.379368,-0.077685,-0.158107,-0.737438,0.0349,0.140723,-0.738828,0.050471
151,-0.006638500000000004,0.70503,-0.0224315,-0.1663385,0.51662,-0.0454745,-0.2613785,0.71007,-0.1860465,0.1698015,0.50703,-0.0343525,0.2962815,0.68857,-0.17150649999999998,-0.1920285,0.95532,-0.2559965,0.24078149999999998,0.91609,-0.2427165,-0.0850495,9.199999999999833e-05,-0.0005284999999999995,0.0850495,-9.20000000000018e-05,0.0005285000000000012,-0.14738849999999998,-0.36283,-0.11043649999999999,0.1579215,-0.36711,-0.09116650000000001,-0.15721849999999998,-0.72447,0.0278345,0.14187149999999998,-0.72517,0.0430105
152,-0.006087500000000004,0.7025345000000001,-0.031663000000000004,-0.1659535,0.5157345,-0.052825000000000004,-0.2622435,0.7033745,-0.19589299999999998,0.1702665,0.5041445,-0.041186,0.2977365,0.6840045,-0.180513,-0.1931335,0.9511945,-0.268163,0.24191649999999998,0.9125145,-0.253903,-0.0854165,0.0002434999999999972,-0.0009919999999999998,0.0854165,-0.00024350000000000066,0.0009919999999999998,-0.14901350000000002,-0.35193549999999996,-0.12313299999999999,0.1612065,-0.35550550000000003,-0.104123,-0.1565435,-0.7113855,0.020645,0.1427665,-0.7113955,0.035502
153,-0.005548499999999996,0.7001314999999999,-0.0413985,-0.1654745,0.5122715,-0.0610895,-0.2629945,0.6966015000000001,-0.2058425,0.1706655,0.5022015,-0.0480825,0.2989055,0.6788615,-0.1898125,-0.1944145,0.9430415000000001,-0.2807725,0.24262550000000002,0.9076915000000001,-0.2654825,-0.0854975,0.0003615000000000007,-0.0016195,0.0854975,-0.00036149999999999377,0.0016195,-0.1509045,-0.3401385,-0.13560250000000001,0.1640755,-0.34159849999999997,-0.1167425,-0.1560445,-0.6974285,0.0133355,0.1434155,-0.6969084999999999,0.027913499999999997
154,-0.005190000000000002,0.6975425,-0.049862,-0.16514600000000002,0.5093225,-0.068607,-0.26350599999999996,0.6935825,-0.214768,0.17092400000000002,0.5000525,-0.054074,0.299794,0.6743024999999999,-0.198218,-0.195776,0.9349124999999999,-0.291968,0.243174,0.9007925,-0.275938,-0.085484,0.00032749999999999446,-0.0020570000000000002,0.085484,-0.0003275000000000014,0.002057,-0.15273599999999998,-0.3300875,-0.145968,0.16660399999999997,-0.3295275,-0.126938,-0.155696,-0.6848675000000001,0.007219,0.14379399999999998,-0.6841675,0.021616999999999997
155,-0.004455999999999996,0.695929,-0.0633005,-0.164441,0.507659,-0.0811605,-0.263351,0.690959,-0.2293555,0.17156900000000003,0.498799,-0.0652555,0.30127899999999996,0.671259,-0.2115055,-0.19654100000000002,0.928199,-0.3081755,0.24400899999999998,0.892509,-0.29193549999999996,-0.085386,0.0004149999999999987,-0.002521500000000001,0.085386,-0.0004149999999999987,0.002521500000000001,-0.15398099999999998,-0.318531,-0.16038550000000001,0.16929899999999998,-0.316361,-0.1411855,-0.154891,-0.6712809999999999,-0.003865500000000001,0.144519,-0.670311,0.010480499999999998
156,-0.003597999999999997,0.6968155,-0.077621,-0.162572,0.5041154999999999,-0.094648,-0.26274200000000003,0.6904555,-0.24529800000000002,0.172278,0.4994455,-0.07743,0.303098,0.6692155,-0.22554800000000003,-0.196932,0.9209255,-0.326398,0.244848,0.8925055,-0.307998,-0.085285,8.750000000000424e-05,-0.0029299999999999986,0.085285,-8.749999999999036e-05,0.0029299999999999986,-0.15650199999999997,-0.3046745,-0.17924800000000002,0.17347800000000002,-0.3009845,-0.161248,-0.15399200000000002,-0.6553045,-0.015622,0.14732800000000001,-0.6574745,-0.006509999999999998
157,-0.002699999999999996,0.696815,-0.0916795,-0.160767,0.500995,-0.1076775,-0.262207,0.6875249999999999,-0.2607395,0.17272300000000002,0.500645,-0.0891345,0.305013,0.667665,-0.2395195,-0.19724699999999998,0.913875,-0.3437795,0.245953,0.890295,-0.3245795,-0.08534900000000001,-0.00018499999999999073,-0.003320499999999997,0.08534900000000001,0.0001850000000000046,0.003320499999999997,-0.15919699999999998,-0.291485,-0.1973395,0.177293,-0.286705,-0.1804695,-0.15337699999999999,-0.640275,-0.0269715,0.147703,-0.642315,-0.0178105
158,-0.0015785,0.696485,-0.1060445,-0.1589815,0.49875500000000006,-0.12095049999999999,-0.26170150000000003,0.684095,-0.2756305,0.1734585,0.500785,-0.1013705,0.3069885,0.665775,-0.2534505,-0.1971315,0.9068550000000001,-0.3609405,0.2472285,0.888545,-0.3411205,-0.0854235,-0.0002949999999999897,-0.0037394999999999998,0.0854235,0.0002950000000000036,0.0037394999999999998,-0.1619815,-0.278405,-0.21536049999999998,0.1812285,-0.27310500000000004,-0.1995005,-0.1528215,-0.625335,-0.0381135,0.1480085,-0.627435,-0.0290685
159,-0.000338500000000002,0.696115,-0.120232,-0.1570995,0.495855,-0.13419799999999998,-0.2611695,0.681625,-0.290536,0.17434049999999998,0.5012650000000001,-0.113621,0.30896049999999997,0.662725,-0.267406,-0.1965395,0.904775,-0.377496,0.2477805,0.888205,-0.357906,-0.08550250000000001,-0.0004850000000000132,-0.004000999999999998,0.08550250000000001,0.00048499999999998544,0.004000999999999998,-0.1648395,-0.265505,-0.23324599999999998,0.1851205,-0.259865,-0.21809599999999998,-0.1522495,-0.610885,-0.049075999999999995,0.1483005,-0.612985,-0.040038
160,0.0009635000000000008,0.695415,-0.1345945,-0.15505449999999998,0.493855,-0.14711849999999999,-0.2606445,0.679255,-0.3056315,0.1754255,0.500205,-0.1260205,0.3109755,0.6601750000000001,-0.2811415,-0.1960045,0.9021250000000001,-0.39455149999999994,0.2484955,0.887125,-0.3752615,-0.08553350000000001,-0.0005149999999999877,-0.004244499999999998,0.08553350000000001,0.0005150000000000154,0.004244499999999998,-0.16790449999999998,-0.251845,-0.2506615,0.18880550000000001,-0.246915,-0.2362515,-0.1517545,-0.5963849999999999,-0.0598645,0.1485255,-0.598645,-0.050755499999999995
161,0.002407999999999995,0.6946300000000001,-0.148573,-0.15288200000000002,0.49067,-0.15959600000000002,-0.259802,0.67743,-0.32039700000000004,0.176618,0.5001800000000001,-0.137931,0.31281800000000004,0.65781,-0.294477,-0.195552,0.89967,-0.411417,0.24936799999999998,0.8868499999999999,-0.392177,-0.085557,-0.0005400000000000127,-0.004349000000000006,0.085557,0.0005399999999999849,0.004348999999999992,-0.171132,-0.23829,-0.267067,0.192248,-0.23456,-0.253567,-0.151462,-0.58215,-0.0702,0.148638,-0.5846199999999999,-0.06091300000000001
162,0.003783499999999997,0.693735,-0.162071,-0.1507815,0.490975,-0.17115799999999998,-0.2587315,0.676715,-0.335295,0.1777685,0.498525,-0.149671,0.31494849999999996,0.655535,-0.307635,-0.19436150000000002,0.900935,-0.42783499999999997,0.2503185,0.8878649999999999,-0.408515,-0.08547550000000001,-0.00040500000000001646,-0.0043269999999999975,0.08547550000000001,0.0004049999999999887,0.004327000000000011,-0.17440150000000001,-0.225335,-0.28269500000000003,0.1954385,-0.222835,-0.270015,-0.15129150000000002,-0.5682450000000001,-0.080022,0.14863849999999998,-0.570935,-0.070571
163,0.0053475000000000016,0.69281,-0.1754385,-0.1481655,0.48834,-0.1831385,-0.2573855,0.6759,-0.35045649999999995,0.17903449999999999,0.49704000000000004,-0.1610895,0.3173945,0.65322,-0.32096650000000004,-0.19321549999999998,0.90124,-0.44454649999999996,0.2525045,0.88402,-0.42532650000000005,-0.0853575,-0.00023000000000000798,-0.004293500000000006,0.0853575,0.00023000000000000798,0.004293499999999992,-0.17778549999999999,-0.21256,-0.29790649999999996,0.19872450000000003,-0.21073,-0.2860565,-0.1509955,-0.55465,-0.0895495,0.1486845,-0.55747,-0.0799045
164,0.006742000000000001,0.691165,-0.1835055,-0.145843,0.48507500000000003,-0.18985649999999998,-0.25628300000000004,0.673285,-0.36007649999999997,0.180147,0.495035,-0.1673525,0.31936699999999996,0.649825,-0.3295165,-0.192523,0.896775,-0.4565365,0.25428700000000004,0.881905,-0.4359865,-0.085316,-0.00019500000000000073,-0.004293499999999992,0.085316,0.00019500000000000073,0.004293500000000006,-0.181593,-0.20130500000000004,-0.30790649999999997,0.201717,-0.199495,-0.2969765,-0.150983,-0.542525,-0.09376549999999999,0.148357,-0.545585,-0.0840575
165,0.0080145,0.6859949999999999,-0.1905095,-0.1448675,0.48389499999999996,-0.1951115,-0.2551575,0.6676150000000001,-0.36865749999999997,0.18106250000000002,0.490975,-0.17239549999999998,0.3208025,0.6442950000000001,-0.3365875,-0.1915075,0.8924749999999999,-0.46619750000000004,0.2561725,0.875955,-0.4458075,-0.0853415,0.00016499999999999848,-0.004312499999999997,0.0853415,-0.00016500000000002624,0.004312500000000011,-0.1842675,-0.191815,-0.3126275,0.2031325,-0.190145,-0.30116750000000003,-0.1510575,-0.5332650000000001,-0.09669449999999999,0.1479825,-0.5366550000000001,-0.0869325
166,0.009130999999999997,0.6817500000000001,-0.197307,-0.143795,0.48256,-0.20038100000000003,-0.253955,0.66386,-0.37712500000000004,0.18199500000000002,0.4869,-0.17745500000000003,0.321755,0.63893,-0.343785,-0.190515,0.8873800000000001,-0.47619500000000003,0.25798499999999996,0.87104,-0.45518500000000006,-0.085279,0.0003599999999999992,-0.004295000000000007,0.085279,-0.0003599999999999992,0.004294999999999993,-0.186965,-0.18189,-0.317245,0.204595,-0.18022,-0.30540500000000004,-0.151065,-0.52373,-0.09958300000000002,0.147625,-0.5275,-0.08974700000000002
167,0.010209,0.678275,-0.203242,-0.142656,0.481655,-0.204818,-0.252826,0.660635,-0.38549500000000003,0.182954,0.482335,-0.181896,0.32252400000000003,0.633755,-0.350705,-0.189526,0.882185,-0.485815,0.25975400000000004,0.866055,-0.46414500000000003,-0.085152,0.0007250000000000034,-0.0042149999999999965,0.085152,-0.0007250000000000034,0.0042149999999999965,-0.189616,-0.17226499999999997,-0.321185,0.205764,-0.170395,-0.309235,-0.151056,-0.5143650000000001,-0.102041,0.147254,-0.518475,-0.092047
168,0.011138499999999999,0.6754450000000001,-0.209103,-0.14146350000000002,0.480095,-0.209507,-0.2519535,0.657945,-0.39383,0.18388649999999998,0.478595,-0.186399,0.3232765,0.6300250000000001,-0.35752,-0.1886735,0.8773850000000001,-0.49564,0.2622565,0.8581350000000001,-0.47279,-0.08517949999999999,0.0009949999999999959,-0.004140000000000005,0.08517949999999999,-0.0009949999999999681,0.004139999999999991,-0.1921835,-0.163425,-0.3247,0.2066565,-0.16273500000000002,-0.31308,-0.1510035,-0.504615,-0.104636,0.1447165,-0.505925,-0.089382
169,0.011888999999999995,0.672355,-0.214365,-0.140413,0.47817499999999996,-0.213825,-0.25122300000000003,0.653705,-0.401675,0.18449700000000002,0.47672499999999995,-0.190313,0.324047,0.625705,-0.364435,-0.18806299999999998,0.870435,-0.504845,0.26470699999999997,0.8505849999999999,-0.480425,-0.085203,0.0011649999999999716,-0.004144999999999996,0.085203,-0.0011650000000000271,0.004144999999999996,-0.19444299999999998,-0.15566500000000005,-0.327695,0.207227,-0.15578500000000006,-0.31633500000000003,-0.150963,-0.495985,-0.106886,0.144287,-0.49670500000000006,-0.091385
170,0.012522999999999996,0.669915,-0.21995,-0.139239,0.47538500000000006,-0.21877000000000002,-0.250729,0.650415,-0.40944,0.185221,0.474175,-0.19490800000000003,0.324721,0.622615,-0.37151,-0.187609,0.8643449999999999,-0.5139900000000001,0.267031,0.843915,-0.48826,-0.085224,0.0012449999999999961,-0.004280000000000006,0.085224,-0.0012449999999999961,0.004279999999999992,-0.196519,-0.147345,-0.33118000000000003,0.207531,-0.14803499999999997,-0.31996,-0.150899,-0.48703499999999994,-0.10952700000000001,0.143801,-0.487095,-0.09390800000000002
171,0.013282500000000001,0.66676,-0.22532000000000002,-0.13790249999999998,0.47168,-0.2237,-0.25008250000000004,0.6463699999999999,-0.41675,0.18600750000000002,0.47203999999999996,-0.19942100000000001,0.32507749999999996,0.61917,-0.37847000000000003,-0.18691249999999998,0.8581,-0.52291,0.26951749999999997,0.83619,-0.49637000000000003,-0.0852935,0.0011799999999999589,-0.004400000000000001,0.0852935,-0.0011800000000000144,0.004400000000000001,-0.19837249999999998,-0.13973000000000002,-0.33423,0.2076075,-0.14055,-0.32331,-0.1507125,-0.47879000000000005,-0.112136,0.1433675,-0.47813000000000005,-0.096415
172,0.014131999999999997,0.663135,-0.230825,-0.13663199999999998,0.470225,-0.227975,-0.249332,0.641745,-0.42401500000000003,0.186778,0.47058500000000003,-0.204105,0.32557800000000003,0.614135,-0.384935,-0.186112,0.852335,-0.531725,0.27112800000000004,0.832575,-0.504275,-0.085449,0.0010049999999999781,-0.004595000000000002,0.085449,-0.0010050000000000336,0.004595000000000002,-0.20018200000000003,-0.131955,-0.337045,0.20749800000000002,-0.132805,-0.326525,-0.150372,-0.470395,-0.11475600000000001,0.142988,-0.469885,-0.099112
173,0.015116499999999998,0.65982,-0.23612,-0.1352775,0.46873,-0.23212,-0.24819750000000002,0.6374299999999999,-0.43116999999999994,0.1875525,0.46975,-0.20852700000000002,0.32632249999999996,0.6097699999999999,-0.39149999999999996,-0.1850775,0.8445499999999999,-0.54064,0.2729625,0.82822,-0.51235,-0.0855085,0.0009500000000000064,-0.004849999999999993,0.0855085,-0.0009500000000000064,0.004849999999999993,-0.20168750000000002,-0.12423000000000001,-0.33969,0.2075325,-0.12505,-0.32953,-0.1498875,-0.46217,-0.11738699999999999,0.14276250000000001,-0.46185000000000004,-0.101821
174,0.016087,0.65722,-0.241,-0.13357599999999997,0.46624000000000004,-0.23598000000000002,-0.246956,0.63347,-0.43744000000000005,0.188884,0.46702000000000005,-0.21282600000000002,0.327054,0.60649,-0.39801,-0.18435600000000002,0.8377,-0.54897,0.274584,0.8248,-0.51991,-0.085529,0.001040000000000041,-0.005190000000000014,0.085529,-0.0010399999999999854,0.00519,-0.203036,-0.11672999999999994,-0.34237,0.207604,-0.11706999999999995,-0.33226,-0.149356,-0.45419999999999994,-0.12003200000000001,0.14257399999999998,-0.45404999999999995,-0.10453200000000001
175,0.017063500000000002,0.654585,-0.24558,-0.1318355,0.462925,-0.23969000000000001,-0.24574549999999998,0.629795,-0.44346,0.1901845,0.464425,-0.216926,0.3276645,0.603445,-0.40433,-0.1838155,0.831915,-0.55662,0.27621450000000003,0.821205,-0.52723,-0.08553949999999999,0.0011849999999999916,-0.005489999999999995,0.08553949999999999,-0.0011849999999999916,0.005489999999999995,-0.2043655,-0.10964499999999999,-0.34499,0.2076845,-0.10927500000000001,-0.33482999999999996,-0.1488355,-0.446535,-0.12261899999999999,0.14245449999999998,-0.446435,-0.107183
176,0.0180675,0.6518550000000001,-0.249785,-0.1301205,0.45916500000000005,-0.243235,-0.24446050000000003,0.626395,-0.448985,0.1913195,0.46309500000000003,-0.220609,0.3282295,0.6008150000000001,-0.41019500000000003,-0.1826005,0.826125,-0.563975,0.2778395,0.817215,-0.534525,-0.08553050000000001,0.0010750000000000481,-0.005775000000000002,0.08553050000000001,-0.0010749999999999926,0.005775000000000002,-0.2056505,-0.10314499999999999,-0.347665,0.20766949999999998,-0.10212499999999997,-0.33747499999999997,-0.1483005,-0.439485,-0.12529200000000001,0.14233949999999998,-0.43940499999999993,-0.10984100000000001
177,0.019307500000000005,0.6484099999999999,-0.25331,-0.1284905,0.45680999999999994,-0.24569,-0.2430605,0.6224,-0.45356,0.1924595,0.46112,-0.223638,0.3288095,0.59773,-0.41558,-0.1811205,0.8199799999999999,-0.57029,0.2786895,0.81614,-0.54115,-0.0855335,0.0011399999999999744,-0.00606000000000001,0.0855335,-0.0011400000000000299,0.00606000000000001,-0.2067405,-0.09796000000000005,-0.34977,0.2076295,-0.09628000000000003,-0.33967,-0.1477605,-0.43374,-0.12751,0.14231950000000002,-0.4336,-0.112035
178,0.0207405,0.6460049999999999,-0.2566,-0.1267215,0.454295,-0.24814,-0.2415415,0.619265,-0.45758,0.1937085,0.458725,-0.22668,0.32932849999999997,0.595375,-0.42045,-0.1793415,0.815815,-0.57619,0.2795585,0.814835,-0.54775,-0.08561250000000001,0.0011950000000000016,-0.006319999999999992,0.08561250000000001,-0.0011950000000000016,0.006319999999999992,-0.20767149999999998,-0.09263500000000002,-0.35172000000000003,0.2076285,-0.09037500000000004,-0.34178,-0.14714149999999998,-0.42799500000000007,-0.129716,0.1424185,-0.42768500000000004,-0.114262
179,0.022096500000000005,0.6433249999999999,-0.259135,-0.1252775,0.45231499999999997,-0.24980500000000003,-0.2401075,0.6158049999999999,-0.460955,0.1946225,0.45686499999999997,-0.22890700000000003,0.32984250000000004,0.592875,-0.424655,-0.1775775,0.811375,-0.5812550000000001,0.2802925,0.8129949999999999,-0.553485,-0.08569650000000001,0.0012949999999999906,-0.006455000000000016,0.08569650000000001,-0.0012949999999999906,0.0064549999999999885,-0.2085975,-0.08835500000000002,-0.352905,0.2076325,-0.08542500000000003,-0.34311500000000006,-0.1466775,-0.423115,-0.13140000000000002,0.1424925,-0.422725,-0.11597400000000002
180,0.023249,0.641485,-0.261285,-0.12406800000000001,0.450675,-0.251375,-0.238928,0.612865,-0.46382500000000004,0.195402,0.455175,-0.230723,0.330312,0.590635,-0.428335,-0.175958,0.807585,-0.5856650000000001,0.280832,0.811035,-0.5584450000000001,-0.085874,0.001434999999999964,-0.0065950000000000175,0.085874,-0.0014350000000000196,0.00659499999999999,-0.20949800000000002,-0.084345,-0.35399500000000006,0.207532,-0.08092500000000002,-0.34431500000000004,-0.146398,-0.41866499999999995,-0.13293500000000003,0.14249199999999998,-0.418195,-0.11756200000000003
181,0.024214,0.64026,-0.26277,-0.12310800000000001,0.44918,-0.25275000000000003,-0.237948,0.6108100000000001,-0.46576,0.19618200000000002,0.45286,-0.232157,0.33062199999999997,0.59033,-0.43159000000000003,-0.17474800000000001,0.80318,-0.58928,0.281072,0.8099000000000001,-0.5622199999999999,-0.086061,0.0017300000000000093,-0.0067000000000000115,0.086061,-0.0017300000000000093,0.006699999999999984,-0.21006799999999998,-0.08133000000000001,-0.35478,0.20745200000000003,-0.07756999999999997,-0.3452,-0.146268,-0.41526,-0.134334,0.14256200000000002,-0.41475999999999996,-0.11893800000000002
182,0.024953499999999997,0.63905,-0.26399,-0.12231449999999999,0.447592,-0.25392,-0.23734449999999999,0.60887,-0.46719,0.1968755,0.45011100000000004,-0.23338099999999998,0.33073549999999996,0.58957,-0.43396999999999997,-0.1737745,0.8039000000000001,-0.59171,0.28121549999999995,0.80881,-0.5655600000000001,-0.0861925,0.0019500000000000073,-0.006729999999999986,0.0861925,-0.0019500000000000073,0.006730000000000014,-0.2105645,-0.07891999999999999,-0.35536,0.2073555,-0.07486999999999999,-0.34592999999999996,-0.1462045,-0.41253,-0.13558399999999998,0.1425555,-0.412,-0.12016499999999998
183,0.0255735,0.637745,-0.26517,-0.12201150000000002,0.44665800000000005,-0.25483,-0.2369715,0.6069950000000001,-0.46837,0.19703849999999998,0.449589,-0.23457500000000003,0.33077850000000003,0.588555,-0.43597,-0.1730515,0.803845,-0.59406,0.2813085,0.807385,-0.56862,-0.08622650000000001,0.00195500000000004,-0.006780000000000008,0.08622650000000001,-0.0019549999999999845,0.0067799999999999805,-0.21101150000000002,-0.07723499999999994,-0.35576,0.2072685,-0.07296499999999995,-0.34641,-0.1461915,-0.410605,-0.136747,0.1424985,-0.4100349999999999,-0.12126500000000001
184,0.026131500000000002,0.6369,-0.266335,-0.12177349999999998,0.44623499999999994,-0.255535,-0.2366635,0.60542,-0.469545,0.19719650000000002,0.449125,-0.23575600000000002,0.3308465,0.58756,-0.437525,-0.1725435,0.80363,-0.5963350000000001,0.2814065,0.8063499999999999,-0.5712550000000001,-0.08622450000000001,0.0019499999999999518,-0.0068150000000000155,0.08622450000000001,-0.0019500000000000073,0.006814999999999988,-0.2112335,-0.07579000000000002,-0.356135,0.2072565,-0.07154000000000005,-0.346795,-0.1462035,-0.40917000000000003,-0.13795100000000002,0.14248650000000002,-0.40854,-0.12234900000000001
185,0.026475,0.6361749999999999,-0.267385,-0.12183400000000001,0.44670299999999996,-0.256155,-0.23669400000000002,0.603675,-0.470845,0.197226,0.44865999999999995,-0.23680400000000001,0.33057600000000004,0.586695,-0.438935,-0.17254399999999998,0.803855,-0.598275,0.281246,0.8055049999999999,-0.5733550000000001,-0.086307,0.002004999999999979,-0.006874999999999992,0.086307,-0.0020050000000000345,0.006874999999999992,-0.211354,-0.07487500000000002,-0.35641500000000004,0.20717599999999997,-0.07077500000000003,-0.347045,-0.14628400000000003,-0.4083650000000001,-0.139062,0.142416,-0.407675,-0.123337
186,0.026549499999999997,0.63556,-0.26829000000000003,-0.1219285,0.447118,-0.25685,-0.2367785,0.60204,-0.47186000000000006,0.1971715,0.448166,-0.237517,0.3300915,0.5857300000000001,-0.43996,-0.1726085,0.80379,-0.59993,0.28092150000000005,0.80477,-0.57518,-0.0864195,0.0020800000000000263,-0.006940000000000002,0.0864195,-0.0020799999999999708,0.006940000000000002,-0.2114885,-0.07445999999999997,-0.35656,0.2070615,-0.07046999999999998,-0.3472,-0.1464185,-0.40803,-0.140095,0.1423015,-0.4073,-0.124221
187,0.02648,0.63498,-0.26915500000000003,-0.122036,0.447148,-0.257465,-0.236856,0.60131,-0.47262499999999996,0.197104,0.447818,-0.238164,0.329454,0.5848,-0.44089500000000004,-0.172656,0.80382,-0.601275,0.280374,0.80419,-0.576735,-0.086477,0.0021100000000000008,-0.006995000000000001,0.086477,-0.0021100000000000008,0.006995000000000001,-0.211616,-0.07443,-0.35663500000000004,0.206944,-0.07052000000000003,-0.347275,-0.146546,-0.40805,-0.141041,0.142204,-0.40730999999999995,-0.125001
188,0.026343500000000002,0.6349,-0.26994,-0.1222005,0.447148,-0.25807,-0.2370105,0.6013,-0.4733,0.1969595,0.447818,-0.238772,0.32873949999999996,0.58435,-0.44176,-0.1727805,0.80382,-0.60248,0.2796295,0.80386,-0.57818,-0.0865095,0.0021100000000000008,-0.0070199999999999985,0.0865095,-0.0021100000000000008,0.0070199999999999985,-0.2117905,-0.07441000000000003,-0.35655000000000003,0.20675949999999998,-0.07061,-0.34732,-0.1467405,-0.40808999999999995,-0.141877,0.14203949999999999,-0.40734000000000004,-0.125691
189,0.026195500000000004,0.6349,-0.27069,-0.1225175,0.447627,-0.25862,-0.2373175,0.6013,-0.47396,0.19680250000000002,0.447818,-0.2394,0.3279725,0.5842,-0.44249,-0.1732375,0.80382,-0.60356,0.27875249999999996,0.80386,-0.57936,-0.08653849999999999,0.0021100000000000008,-0.0070400000000000185,0.08653849999999999,-0.0021100000000000008,0.007039999999999991,-0.2119675,-0.07438,-0.35645000000000004,0.2065625,-0.07067000000000001,-0.34734,-0.1469375,-0.40812000000000004,-0.142659,0.1418625,-0.4074,-0.12632200000000002
190,0.026067999999999997,0.634835,-0.271305,-0.12292600000000001,0.44866700000000004,-0.25904499999999997,-0.23777600000000002,0.601235,-0.47448500000000005,0.196694,0.447753,-0.239913,0.32715399999999994,0.5841350000000001,-0.44289500000000004,-0.174006,0.804125,-0.604445,0.277894,0.803795,-0.580305,-0.08656,0.002175000000000038,-0.007074999999999998,0.08656,-0.0021749999999999825,0.007074999999999998,-0.21207600000000001,-0.074405,-0.35629500000000003,0.206434,-0.07076499999999997,-0.347295,-0.147086,-0.40820500000000004,-0.14329,0.141714,-0.407535,-0.126815
191,0.0258655,0.63445,-0.27183,-0.1233465,0.450087,-0.25948000000000004,-0.2382165,0.60085,-0.47488,0.1966435,0.447442,-0.24038,0.3264835,0.58375,-0.44321,-0.1749765,0.80473,-0.6051,0.27712349999999997,0.80341,-0.58115,-0.08653849999999999,0.0022900000000000142,-0.007110000000000005,0.08653849999999999,-0.0022900000000000142,0.0071099999999999774,-0.21209650000000002,-0.07476,-0.35611000000000004,0.2063835,-0.07118000000000002,-0.34725,-0.1471065,-0.40859000000000006,-0.143875,0.1416635,-0.40798000000000006,-0.12726400000000002
192,0.025452,0.63407,-0.27209500000000003,-0.123893,0.451375,-0.259805,-0.238823,0.60051,-0.47491500000000003,0.196437,0.447253,-0.240684,0.325737,0.583,-0.443255,-0.176263,0.80559,-0.605565,0.276237,0.8033,-0.5815950000000001,-0.08654400000000001,0.0023900000000000032,-0.007065000000000016,0.08654400000000001,-0.0023900000000000032,0.007064999999999988,-0.212143,-0.07546999999999998,-0.355795,0.20626699999999998,-0.07194,-0.347105,-0.147203,-0.40934000000000004,-0.14424700000000001,0.141527,-0.40876999999999997,-0.127608
193,0.024956,0.6341600000000001,-0.27203,-0.124449,0.452639,-0.25998,-0.239449,0.6000800000000001,-0.47441999999999995,0.196231,0.44707900000000006,-0.240839,0.32498099999999996,0.58218,-0.44310000000000005,-0.17771900000000002,0.80677,-0.60589,0.27564099999999997,0.8031300000000001,-0.58188,-0.08649899999999999,0.0025200000000000222,-0.006989999999999996,0.08649899999999999,-0.0025199999999999667,0.006989999999999996,-0.21213900000000002,-0.07641999999999993,-0.35531,0.20616099999999998,-0.07295999999999997,-0.34686,-0.147259,-0.4103399999999999,-0.14451,0.14141099999999998,-0.4098299999999999,-0.127804
194,0.0242625,0.6346449999999999,-0.271645,-0.1250575,0.45369499999999996,-0.259945,-0.2401275,0.6002149999999999,-0.473685,0.1958625,0.446698,-0.240845,0.3240025,0.581525,-0.442595,-0.1794275,0.808245,-0.606005,0.2750925,0.802735,-0.5819650000000001,-0.0865245,0.0026450000000000085,-0.0069250000000000145,0.0865245,-0.0026450000000000085,0.006924999999999987,-0.21216749999999998,-0.07791500000000001,-0.354655,0.20590250000000002,-0.074515,-0.34631500000000004,-0.1473975,-0.411895,-0.14455800000000002,0.1412025,-0.41139500000000007,-0.127781
195,0.023501999999999995,0.6359699999999999,-0.2709,-0.125708,0.45464,-0.25949,-0.24076799999999998,0.6013599999999999,-0.47283,0.195162,0.44753899999999996,-0.24043599999999998,0.322982,0.581,-0.44125,-0.181318,0.8106599999999999,-0.60599,0.274842,0.8026899999999999,-0.5819799999999999,-0.08657000000000001,0.0026299999999999657,-0.006929999999999992,0.08657000000000001,-0.002630000000000021,0.0069300000000000195,-0.211988,-0.08092000000000005,-0.35374,0.205502,-0.07774000000000003,-0.34545,-0.147458,-0.41513,-0.144526,0.141002,-0.4146500000000001,-0.127714
196,0.022647,0.637925,-0.26993999999999996,-0.126413,0.45623499999999995,-0.25898,-0.241343,0.602795,-0.47187999999999997,0.194377,0.448325,-0.240025,0.321937,0.580625,-0.44006999999999996,-0.183083,0.814245,-0.60578,0.274327,0.802715,-0.5818099999999999,-0.08660599999999999,0.002674999999999983,-0.006929999999999992,0.08660599999999999,-0.0026750000000000385,0.0069300000000000195,-0.211583,-0.08472500000000005,-0.35268,0.205017,-0.08203500000000002,-0.34443,-0.147483,-0.4193950000000001,-0.144444,0.140827,-0.4189550000000001,-0.127654
197,0.021672500000000004,0.64002,-0.268695,-0.1269615,0.45652,-0.258345,-0.24164149999999998,0.60415,-0.470775,0.1935285,0.44825,-0.239443,0.3208485,0.58201,-0.438785,-0.1845515,0.81709,-0.6058250000000001,0.27415849999999997,0.80323,-0.581395,-0.0866965,0.002620000000000011,-0.0067949999999999955,0.0866965,-0.002620000000000011,0.006795000000000023,-0.2109515,-0.09009,-0.351225,0.2043885,-0.08814,-0.343155,-0.1475515,-0.42543,-0.144226,0.1406485,-0.42507000000000006,-0.12752
198,0.020700499999999997,0.64194,-0.266925,-0.12752349999999998,0.45681000000000005,-0.257295,-0.2419735,0.6057300000000001,-0.469125,0.1924365,0.44979,-0.238435,0.3197665,0.5830500000000001,-0.437165,-0.18597349999999999,0.8181700000000001,-0.605515,0.2739665,0.80384,-0.5808450000000001,-0.0868215,0.0025200000000000222,-0.0064850000000000185,0.0868215,-0.0025199999999999667,0.006484999999999991,-0.2101935,-0.09691,-0.349335,0.20362650000000002,-0.09576999999999997,-0.34136500000000003,-0.1476235,-0.43306999999999995,-0.143599,0.1404565,-0.43281000000000003,-0.12698
199,0.0197335,0.6454850000000001,-0.26463000000000003,-0.12808049999999999,0.456915,-0.25601,-0.24235049999999997,0.609005,-0.46722,0.1913395,0.45043500000000003,-0.23764800000000003,0.3186895,0.585445,-0.43523,-0.1873805,0.8207850000000001,-0.6049800000000001,0.27374950000000003,0.807445,-0.58005,-0.0868955,0.002625000000000044,-0.006210000000000021,0.0868955,-0.0026249999999999885,0.006209999999999993,-0.2091305,-0.10386499999999999,-0.34695,0.2027295,-0.10368499999999997,-0.33937,-0.1477305,-0.44140499999999994,-0.142717,0.1402195,-0.441295,-0.126258
200,0.018542999999999997,0.649125,-0.26169,-0.12903900000000001,0.45877500000000004,-0.25412,-0.24287899999999998,0.612215,-0.46514,0.189831,0.451715,-0.23628300000000002,0.31742099999999995,0.588025,-0.43282,-0.188809,0.8242450000000001,-0.6037399999999999,0.27341099999999996,0.8100149999999999,-0.57862,-0.086771,0.002595000000000014,-0.005849999999999994,0.086771,-0.002595000000000014,0.005849999999999994,-0.207419,-0.11367499999999997,-0.34323000000000004,0.201041,-0.114595,-0.33614,-0.148069,-0.453625,-0.141234,0.139751,-0.45354500000000003,-0.125023
201,0.017411000000000003,0.65356,-0.258745,-0.130079,0.46045,-0.252155,-0.243449,0.6158399999999999,-0.463265,0.18830100000000002,0.45285,-0.234863,0.316311,0.59144,-0.430645,-0.19005899999999998,0.8282499999999999,-0.6025050000000001,0.273121,0.815,-0.5770649999999999,-0.08666499999999999,0.0025100000000000122,-0.005534999999999984,0.08666499999999999,-0.0025100000000000122,0.005535000000000012,-0.205449,-0.12437999999999999,-0.33906499999999995,0.199071,-0.12640999999999997,-0.332195,-0.148609,-0.46764,-0.13990899999999998,0.139221,-0.46705,-0.12372999999999998
202,0.016464000000000003,0.657305,-0.25564,-0.131053,0.46269499999999997,-0.24986999999999998,-0.24387299999999998,0.618835,-0.46107,0.186907,0.456875,-0.233102,0.31539700000000004,0.594605,-0.42789,-0.190913,0.830255,-0.60099,0.273077,0.819145,-0.57502,-0.08662700000000001,0.0021449999999999525,-0.00519,0.08662700000000001,-0.002145000000000008,0.00519,-0.202873,-0.13682500000000003,-0.33392,0.196677,-0.14020500000000002,-0.32686,-0.149013,-0.48441500000000004,-0.138284,0.138817,-0.483185,-0.122062
203,0.015641999999999996,0.6615599999999999,-0.2525,-0.13207300000000002,0.46526,-0.24757,-0.244213,0.62307,-0.45881,0.185557,0.46043999999999996,-0.23111199999999998,0.31471699999999997,0.59874,-0.42529,-0.19149300000000002,0.83453,-0.59953,0.272907,0.82433,-0.5729,-0.086694,0.0018599999999999728,-0.004840000000000011,0.086694,-0.0018600000000000283,0.004840000000000011,-0.199853,-0.14922999999999997,-0.32852000000000003,0.19413699999999998,-0.15424,-0.32128999999999996,-0.14938300000000002,-0.5019,-0.136564,0.13849699999999998,-0.50067,-0.120483
204,0.014883499999999994,0.665835,-0.249545,-0.13322550000000002,0.467335,-0.24562499999999998,-0.2443255,0.627345,-0.45686499999999997,0.18471449999999998,0.46140499999999995,-0.229291,0.3141145,0.6038049999999999,-0.42330500000000004,-0.1920155,0.838395,-0.598045,0.2727345,0.8303750000000001,-0.570975,-0.0866245,0.00189499999999998,-0.004475000000000007,0.0866245,-0.0018950000000000078,0.004475000000000007,-0.1967955,-0.161205,-0.322685,0.1914545,-0.167725,-0.315405,-0.15067550000000002,-0.519415,-0.136618,0.1380845,-0.518135,-0.11877499999999999
205,0.014262499999999994,0.669885,-0.24667499999999998,-0.1342655,0.467875,-0.243645,-0.24414550000000002,0.631105,-0.45494500000000004,0.1841045,0.46113499999999996,-0.22740899999999997,0.3135445,0.608405,-0.42142499999999994,-0.1924055,0.840105,-0.5966049999999999,0.27282449999999997,0.836715,-0.5690149999999999,-0.0865065,0.002035000000000009,-0.004195000000000004,0.0865065,-0.002035000000000009,0.004195000000000004,-0.1934455,-0.173845,-0.316175,0.18885449999999998,-0.18137499999999998,-0.308755,-0.1519555,-0.537755,-0.136678,0.1378845,-0.536585,-0.117015
206,0.013823499999999996,0.674275,-0.243875,-0.1351555,0.46846499999999996,-0.241635,-0.2436355,0.635205,-0.452955,0.1836645,0.462375,-0.225456,0.3132545,0.6129249999999999,-0.419465,-0.1926555,0.8429549999999999,-0.595195,0.2729745,0.8442050000000001,-0.567035,-0.08631849999999999,0.002004999999999979,-0.00412499999999999,0.08631849999999999,-0.0020050000000000068,0.00412499999999999,-0.1901055,-0.186185,-0.309415,0.1864345,-0.19393500000000002,-0.301505,-0.1531655,-0.555515,-0.136816,0.1392645,-0.5550950000000001,-0.118619
207,0.013377999999999998,0.6783049999999999,-0.24103,-0.13603400000000002,0.471945,-0.23957,-0.243064,0.639275,-0.45039999999999997,0.18340599999999999,0.465015,-0.22381299999999998,0.312946,0.616845,-0.41742,-0.192724,0.8461350000000001,-0.59371,0.273096,0.850085,-0.56475,-0.086133,0.0020449999999999913,-0.0040999999999999925,0.086133,-0.002045000000000019,0.0040999999999999925,-0.186484,-0.198795,-0.30129,0.183826,-0.20686500000000002,-0.293,-0.154414,-0.5746549999999999,-0.136913,0.140866,-0.5748249999999999,-0.12066099999999999
208,0.012731000000000003,0.6817949999999999,-0.23838,-0.13718399999999997,0.47530500000000003,-0.23744,-0.24270399999999998,0.642655,-0.44819000000000003,0.182936,0.467735,-0.222128,0.31236600000000003,0.6204149999999999,-0.41528,-0.19285399999999997,0.849035,-0.59167,0.272986,0.8535649999999999,-0.56259,-0.085893,0.001915,-0.00408,0.085893,-0.001915,0.00408,-0.183324,-0.21193499999999998,-0.29277,0.18104599999999998,-0.219825,-0.2841,-0.15589399999999998,-0.5940749999999999,-0.136913,0.14235599999999998,-0.5945050000000001,-0.122392
209,0.012223999999999999,0.6855150000000001,-0.23590499999999998,-0.138102,0.47680500000000003,-0.235305,-0.242002,0.647015,-0.445865,0.182528,0.468795,-0.220355,0.31189799999999995,0.624795,-0.41312499999999996,-0.19259199999999999,0.852435,-0.589485,0.272958,0.859785,-0.560415,-0.085642,0.0019850000000000145,-0.004044999999999993,0.085642,-0.0019849999999999868,0.004045000000000021,-0.180652,-0.22285499999999997,-0.284555,0.178808,-0.23046499999999998,-0.27558499999999997,-0.157302,-0.6105749999999999,-0.136655,0.143968,-0.610835,-0.12355799999999999
210,0.011567000000000001,0.68815,-0.23265999999999998,-0.13908800000000002,0.47782,-0.23292000000000002,-0.241278,0.6513199999999999,-0.44294,0.182022,0.46957,-0.218301,0.311402,0.62922,-0.41059,-0.192308,0.8561099999999999,-0.58699,0.272832,0.86378,-0.5578099999999999,-0.085512,0.0020699999999999885,-0.003939999999999999,0.085512,-0.0020699999999999885,0.003939999999999999,-0.178308,-0.23321999999999998,-0.27607,0.176542,-0.24081000000000002,-0.26680000000000004,-0.159008,-0.6266400000000001,-0.136374,0.145512,-0.62659,-0.124362
211,0.011011,0.68948,-0.22846499999999997,-0.14005900000000002,0.48128000000000004,-0.230505,-0.240379,0.65703,-0.43955500000000003,0.181591,0.46663,-0.215797,0.310781,0.63341,-0.407315,-0.191659,0.86206,-0.584105,0.273171,0.8687600000000001,-0.554745,-0.08533299999999999,0.0025600000000000067,-0.0038649999999999934,0.08533299999999999,-0.002559999999999993,0.0038650000000000073,-0.17605900000000002,-0.24258,-0.26707499999999995,0.174891,-0.25029,-0.257945,-0.160419,-0.6408499999999999,-0.135231,0.146811,-0.6412599999999999,-0.12376399999999999
212,0.010582500000000005,0.690396,-0.22333,-0.1407985,0.483416,-0.22714,-0.2393785,0.660796,-0.43556,0.1815115,0.468566,-0.212505,0.31032150000000003,0.637276,-0.40335,-0.1906885,0.865426,-0.5800500000000001,0.2735615,0.874696,-0.55083,-0.08511250000000001,0.002713999999999994,-0.0036800000000000027,0.08511250000000001,-0.002714000000000008,0.0036800000000000027,-0.17356850000000001,-0.252814,-0.25669,0.17337149999999998,-0.260084,-0.24764999999999998,-0.16160850000000002,-0.655544,-0.133356,0.14820149999999999,-0.656814,-0.1222
213,0.009992499999999998,0.6899235,-0.217785,-0.1416705,0.4858135,-0.223885,-0.23874050000000002,0.6642735,-0.431315,0.1812295,0.47172349999999996,-0.209226,0.3097595,0.6415235,-0.39929499999999996,-0.1897605,0.8694934999999999,-0.575435,0.2738495,0.8800135,-0.546455,-0.0849445,0.0027844999999999953,-0.0035649999999999987,0.0849445,-0.0027844999999999953,0.0035649999999999987,-0.1713605,-0.2623765,-0.246545,0.1717795,-0.26914649999999996,-0.237505,-0.16217050000000002,-0.6692665,-0.129871,0.14916949999999998,-0.6713765,-0.120034
214,0.009437500000000005,0.687751,-0.210622,-0.1425535,0.48985100000000004,-0.21922,-0.2387535,0.6682710000000001,-0.42557,0.1812165,0.47606099999999996,-0.204669,0.3092865,0.645351,-0.39394,-0.18903350000000002,0.873591,-0.56891,0.2744365,0.883741,-0.5399499999999999,-0.0847175,0.002803,-0.0036199999999999982,0.0847175,-0.002803,0.0036199999999999982,-0.1690835,-0.271919,-0.23465999999999998,0.1699365,-0.27842900000000004,-0.22574,-0.1627535,-0.682559,-0.125156,0.1498065,-0.685759,-0.11591
215,0.008935000000000002,0.6846015,-0.20308700000000002,-0.14336100000000002,0.4945715,-0.214495,-0.23835099999999998,0.6745815,-0.419265,0.181429,0.4801315,-0.200077,0.308929,0.6484215,-0.388465,-0.18851099999999998,0.8785915,-0.561285,0.275459,0.8863715,-0.532915,-0.084509,0.0029555,-0.003595000000000001,0.084509,-0.0029555,0.003595000000000001,-0.16641099999999998,-0.2805785,-0.222765,0.168049,-0.2873885,-0.21376499999999998,-0.16324100000000002,-0.6948685,-0.120411,0.14931899999999998,-0.6990885,-0.111165
216,0.0080715,0.6813015,-0.19494,-0.14439749999999998,0.49644150000000004,-0.209995,-0.2389075,0.6810315,-0.413145,0.1811325,0.4819815,-0.19555,0.30818249999999997,0.6531915,-0.38309499999999996,-0.18832749999999998,0.8856915,-0.553295,0.27653249999999996,0.8906615,-0.525615,-0.0841385,0.0030145000000000033,-0.003595000000000001,0.0841385,-0.0030144999999999963,0.003595000000000001,-0.16404749999999998,-0.28796849999999996,-0.211605,0.16591250000000002,-0.2950485,-0.202186,-0.16376749999999998,-0.7040085,-0.114922,0.1486025,-0.7101784999999999,-0.106655
217,0.007132500000000001,0.6763939999999999,-0.186666,-0.14554650000000002,0.498494,-0.205591,-0.2388865,0.685974,-0.407471,0.1806335,0.484664,-0.19111899999999998,0.3074735,0.659804,-0.377581,-0.1887765,0.892624,-0.544451,0.2776335,0.897294,-0.517361,-0.0839095,0.0029739999999999975,-0.003478999999999996,0.0839095,-0.0029740000000000044,0.003478999999999996,-0.16152650000000002,-0.295116,-0.199834,0.1630835,-0.302756,-0.189586,-0.16424650000000002,-0.712616,-0.109016,0.14769349999999998,-0.720896,-0.102241
218,0.006059000000000005,0.6709675,-0.1784535,-0.146857,0.5004775,-0.20109749999999998,-0.23943699999999998,0.6914675,-0.4004175,0.17997300000000002,0.4879375,-0.18665949999999998,0.306603,0.6653075,-0.37192749999999997,-0.18972699999999998,0.8971475,-0.5350374999999999,0.27853300000000003,0.9022775000000001,-0.5087275,-0.083503,0.002861500000000003,-0.0033774999999999916,0.083503,-0.0028614999999999995,0.0033775000000000055,-0.159047,-0.30628249999999996,-0.1874465,0.15985300000000002,-0.3139225,-0.1765255,-0.16466699999999998,-0.7209725,-0.10257849999999999,0.14606300000000003,-0.7294625,-0.0939835
219,0.004773000000000001,0.671845,-0.169609,-0.148421,0.5058549999999999,-0.194901,-0.240421,0.694735,-0.39212099999999994,0.179189,0.494245,-0.181033,0.305969,0.669465,-0.365491,-0.191161,0.901985,-0.523621,0.279329,0.906385,-0.498791,-0.083094,0.002803,-0.0031839999999999924,0.083094,-0.002803,0.0031840000000000063,-0.156021,-0.31848499999999996,-0.173058,0.155999,-0.326125,-0.16205,-0.164551,-0.730725,-0.09437999999999999,0.144149,-0.738335,-0.084648
220,0.0035410000000000025,0.6739535000000001,-0.156272,-0.149936,0.5077635,-0.183712,-0.241626,0.6990835000000001,-0.377562,0.178344,0.5009935000000001,-0.170544,0.30531400000000003,0.6744935000000001,-0.35366200000000003,-0.19270600000000002,0.9060735000000001,-0.506902,0.27984400000000004,0.9110635,-0.483082,-0.08293,0.0027075,-0.0029870000000000035,0.08293,-0.0027075000000000003,0.0029870000000000035,-0.152956,-0.3293965,-0.153557,0.151824,-0.3370365,-0.142194,-0.164406,-0.7402365,-0.080671,0.141784,-0.7461764999999999,-0.069386
221,0.002436,0.6782245,-0.14281349999999998,-0.151196,0.5107145,-0.17178949999999998,-0.24301599999999998,0.7025245,-0.36237949999999997,0.17755400000000002,0.5025645,-0.15957749999999998,0.304504,0.6782245,-0.3407395,-0.194206,0.9098145,-0.4891495,0.280454,0.9130245,-0.4665195,-0.082896,0.0025554999999999987,-0.002750499999999989,0.082896,-0.0025555000000000005,0.002750500000000003,-0.149856,-0.3425955,-0.1318055,0.146954,-0.35028549999999997,-0.1198195,-0.16408599999999998,-0.7500055,-0.0664385,0.13886400000000002,-0.7543555,-0.05419049999999999
222,0.0014984999999999998,0.6830525,-0.1288625,-0.1523865,0.5136625,-0.1592695,-0.2444765,0.7056025,-0.3466755,0.1768235,0.5046125,-0.1478205,0.3037935,0.6808725,-0.32665550000000004,-0.1956765,0.9127725,-0.4702755,0.2812535,0.9146624999999999,-0.4488555,-0.0827785,0.0023374999999999993,-0.002302499999999999,0.0827785,-0.0023374999999999993,0.002302499999999999,-0.1468865,-0.3563175,-0.1096975,0.1421935,-0.3637975,-0.0971345,-0.1638165,-0.7597275,-0.0518945,0.13607350000000001,-0.7626075,-0.0384385
223,0.000688999999999996,0.68953,-0.11608299999999999,-0.153422,0.51576,-0.147042,-0.245802,0.70935,-0.331314,0.175958,0.50715,-0.136449,0.303278,0.68495,-0.31257399999999996,-0.19750199999999998,0.91725,-0.45184399999999997,0.281998,0.91799,-0.431824,-0.08276800000000001,0.002024999999999999,-0.0015879999999999991,0.08276800000000001,-0.0020250000000000025,0.001588000000000006,-0.144122,-0.36896,-0.08882399999999999,0.137518,-0.37555,-0.075889,-0.163612,-0.76776,-0.038279999999999995,0.133548,-0.76944,-0.024328999999999996
224,-8.600000000000014e-05,0.696748,-0.10314300000000001,-0.154607,0.518558,-0.13406,-0.247397,0.711288,-0.315384,0.17502299999999998,0.509388,-0.124838,0.302763,0.688448,-0.297514,-0.199767,0.9205679999999999,-0.43310400000000004,0.28259300000000004,0.9212279999999999,-0.41438400000000003,-0.082703,0.0017549999999999996,-0.0008480000000000015,0.082703,-0.0017549999999999996,0.0008480000000000015,-0.141547,-0.38214200000000004,-0.067626,0.132763,-0.387822,-0.054605,-0.163497,-0.775312,-0.024631,0.131073,-0.776302,-0.010300000000000004
225,-0.0006700000000000039,0.704755,-0.090339,-0.155735,0.521085,-0.120613,-0.249065,0.713045,-0.298626,0.17426499999999998,0.510945,-0.112595,0.302325,0.691295,-0.28162600000000004,-0.202155,0.923585,-0.413646,0.283025,0.924845,-0.396426,-0.082598,0.0016069999999999973,-0.00019600000000000173,0.082598,-0.0016070000000000043,0.00019599999999999826,-0.139195,-0.395135,-0.046981,0.128295,-0.399825,-0.033732,-0.163355,-0.782295,-0.011088,0.12892499999999998,-0.782635,0.003355999999999998
226,-0.001096999999999999,0.713538,-0.07691100000000001,-0.156817,0.523768,-0.107056,-0.250867,0.715418,-0.28085000000000004,0.17369300000000001,0.512678,-0.099814,0.301743,0.691638,-0.2653,-0.204467,0.925808,-0.39379,0.283293,0.926038,-0.37843000000000004,-0.082583,0.0014959999999999973,0.0004040000000000016,0.082583,-0.0014960000000000043,-0.0004039999999999981,-0.137077,-0.408642,-0.027488,0.12449299999999999,-0.412302,-0.013948999999999998,-0.163167,-0.789192,0.002190000000000001,0.127173,-0.788372,0.016506
227,-0.0015054999999999982,0.7225985,-0.0632615,-0.1579205,0.5266784999999999,-0.0930975,-0.2525505,0.7162585,-0.2642115,0.1732595,0.5148685,-0.08691950000000001,0.3011595,0.6921085,-0.24858149999999998,-0.2067305,0.9290185,-0.3737315,0.2835295,0.9272585,-0.3599715,-0.0826225,0.0013754999999999948,0.0008474999999999993,0.0826225,-0.0013755000000000017,-0.0008475000000000002,-0.1353505,-0.4214915,-0.0094275,0.12102950000000001,-0.42439150000000003,0.0052005,-0.1631705,-0.7953615,0.014773499999999998,0.1256095,-0.7933815000000001,0.029056500000000002
228,-0.0018369999999999984,0.725651,-0.0503965,-0.15894999999999998,0.527161,-0.08043449999999999,-0.25436000000000003,0.718961,-0.24761550000000002,0.17294,0.514621,-0.0750545,0.3004,0.693171,-0.2323355,-0.2092,0.931191,-0.3548055,0.28367000000000003,0.929401,-0.3422955,-0.0826,0.001232999999999998,0.0012545,0.0826,-0.001233000000000005,-0.0012545,-0.13428,-0.432369,0.006172499999999999,0.11827000000000001,-0.434679,0.022242500000000002,-0.1638,-0.799499,0.025451500000000002,0.12448000000000001,-0.796699,0.0400205
229,-0.001763499999999996,0.72926,-0.0425485,-0.1595705,0.5282800000000001,-0.0728325,-0.25544049999999996,0.71997,-0.2372925,0.1730795,0.51488,-0.06857750000000001,0.3001595,0.69382,-0.2213325,-0.2111905,0.93449,-0.3410425,0.2842095,0.9309200000000001,-0.3305225,-0.0826755,0.0009750000000000036,0.0016144999999999996,0.0826755,-0.0009750000000000036,-0.0016144999999999996,-0.1332105,-0.44275000000000003,0.0151545,0.11622950000000001,-0.44432,0.0325195,-0.16402049999999999,-0.8029799999999999,0.0302445,0.1238495,-0.79947,0.0449445
230,-0.001624500000000001,0.7304245,-0.035593,-0.1600575,0.5296544999999999,-0.06622499999999999,-0.2569875,0.7222945000000001,-0.227394,0.1733525,0.5161545000000001,-0.06263099999999999,0.3000325,0.6952545000000001,-0.211784,-0.2133275,0.9383445000000001,-0.328644,0.2848325,0.9335045,-0.319994,-0.0826925,0.0010285000000000016,0.0017850000000000001,0.0826925,-0.0010285000000000016,-0.0017850000000000001,-0.1325875,-0.4449855,0.020232,0.11531250000000001,-0.4462855,0.038593,-0.1641675,-0.8052355,0.034034,0.12370249999999999,-0.8007455000000001,0.048889
231,-0.0016399999999999974,0.7316545,-0.028218499999999997,-0.160317,0.5314144999999999,-0.0599205,-0.258247,0.7242945,-0.21821549999999998,0.17369300000000001,0.5171445,-0.056994500000000003,0.29989299999999997,0.6964745,-0.20300549999999998,-0.215707,0.9417645,-0.3172855,0.285463,0.9358645,-0.31031549999999997,-0.082691,0.0011255000000000015,0.001821500000000002,0.082691,-0.0011255000000000015,-0.0018215000000000002,-0.13200699999999999,-0.4467055,0.024495500000000003,0.114453,-0.4476555,0.0438855,-0.164297,-0.8070055,0.037305500000000005,0.123563,-0.8021855,0.0522845
232,-0.0018864999999999976,0.7326035,-0.0215635,-0.16071649999999998,0.5333935000000001,-0.053989499999999996,-0.2601465,0.7254434999999999,-0.2100865,0.17389349999999998,0.5178735000000001,-0.0519675,0.2996435,0.6970935,-0.1953565,-0.21831650000000002,0.9446735000000002,-0.3070865,0.2858935,0.9375735000000001,-0.3016965,-0.0825475,0.0012075000000000002,0.0018255000000000007,0.0825475,-0.0012075000000000002,-0.0018255000000000007,-0.1317065,-0.4479465,0.0272855,0.1137835,-0.4484465,0.0479315,-0.16458650000000002,-0.8082564999999999,0.0400345,0.1233035,-0.8033064999999999,0.0551685
233,-0.002097999999999999,0.733426,-0.015519999999999999,-0.161083,0.5344059999999999,-0.04913000000000001,-0.26198299999999997,0.726086,-0.202717,0.174177,0.518606,-0.04743,0.29962700000000003,0.6974859999999999,-0.188827,-0.220923,0.946906,-0.298027,0.28631700000000004,0.938906,-0.294077,-0.08235200000000001,0.0012840000000000074,0.0017919999999999985,0.08235200000000001,-0.0012839999999999935,-0.001792000000000002,-0.13156299999999999,-0.448724,0.029517,0.11346699999999998,-0.448754,0.050669,-0.164743,-0.809214,0.04231,0.12318699999999999,-0.804234,0.057578
234,-0.002331999999999999,0.734121,-0.010312499999999995,-0.161511,0.5352509999999999,-0.0447825,-0.26377100000000003,0.726571,-0.1962935,0.174439,0.519111,-0.0435275,0.299759,0.6977909999999999,-0.18314350000000001,-0.223501,0.948801,-0.2903335,0.286639,0.9397009999999999,-0.28757350000000004,-0.08221200000000001,0.0012859999999999955,0.0018435000000000014,0.08221200000000001,-0.0012860000000000094,-0.001843499999999998,-0.131421,-0.44925899999999996,0.0313595,0.113289,-0.44882900000000003,0.052499500000000004,-0.16489099999999998,-0.809929,0.0441825,0.12317900000000001,-0.8048890000000001,0.0595545
235,-0.0024745000000000027,0.734587,-0.005934000000000002,-0.1619155,0.535867,-0.040712,-0.2654655,0.726747,-0.19104500000000002,0.17470449999999998,0.519497,-0.040203,0.2999445,0.697867,-0.17841500000000002,-0.22588550000000002,0.9498969999999999,-0.284205,0.2869345,0.9399970000000001,-0.282395,-0.0821185,0.0012869999999999965,0.0018519999999999995,0.0821185,-0.0012869999999999965,-0.0018519999999999995,-0.1312855,-0.449703,0.032825,0.1131945,-0.448933,0.053955,-0.1649855,-0.8104830000000001,0.045674,0.12325449999999999,-0.805543,0.061154
236,-0.0025374999999999946,0.7349405,-0.002271499999999999,-0.1624495,0.5362905,-0.0374165,-0.2670395,0.7267705,-0.18663649999999998,0.1748805,0.5199305,-0.0373855,0.3001505,0.6979305,-0.1745165,-0.2280395,0.9507405,-0.2791565,0.28721050000000004,0.9403405,-0.2784365,-0.0820365,0.0012744999999999979,0.0019045,0.0820365,-0.0012744999999999979,-0.0019045,-0.13114949999999997,-0.45009950000000004,0.0333465,0.1131105,-0.44908950000000003,0.0551485,-0.1650295,-0.8109495,0.0468965,0.1233505,-0.8058495,0.062483500000000004
237,-0.0026580000000000024,0.7353085,0.0010315000000000012,-0.162959,0.5364185,-0.0346205,-0.268409,0.7267684999999999,-0.1832085,0.174981,0.5203085,-0.034836500000000006,0.300291,0.6980185,-0.1712185,-0.229849,0.9513284999999999,-0.2754785,0.287381,0.9405285,-0.2752485,-0.081961,0.0012545000000000056,0.0018624999999999996,0.081961,-0.0012544999999999917,-0.0018624999999999996,-0.131069,-0.4504515,0.033369499999999996,0.11303099999999999,-0.44936149999999997,0.055940500000000004,-0.16505899999999998,-0.8113215,0.047730499999999995,0.12341099999999999,-0.8060915000000001,0.0634455
238,-0.002772500000000006,0.7355990000000001,0.0036775,-0.1634085,0.536389,-0.0322605,-0.2695485,0.726699,-0.18042850000000002,0.1750115,0.520629,-0.032452499999999995,0.30038149999999997,0.6981790000000001,-0.1688385,-0.2314785,0.9512289999999999,-0.2727285,0.2873615,0.940529,-0.2725285,-0.0818735,0.001236000000000001,0.001865499999999999,0.0818735,-0.0012359999999999871,-0.001865499999999999,-0.1309785,-0.450781,0.0332945,0.11297149999999999,-0.449631,0.0563945,-0.1650585,-0.8116810000000001,0.0484295,0.12347149999999998,-0.8063210000000001,0.0642505
239,-0.0029140000000000017,0.735789,0.005877500000000001,-0.163842,0.536329,-0.0302425,-0.270452,0.726619,-0.17857250000000002,0.17504799999999998,0.520919,-0.030655500000000002,0.300438,0.6982889999999999,-0.16686250000000002,-0.232682,0.9511489999999999,-0.2707425,0.28737799999999997,0.940449,-0.2703625,-0.081793,0.0012230000000000019,0.0018784999999999982,0.081793,-0.0012230000000000019,-0.0018785000000000017,-0.130862,-0.451081,0.0330615,0.112918,-0.449251,0.056306499999999995,-0.165032,-0.811971,0.0489275,0.12355799999999999,-0.806601,0.06482450000000001
240,-0.003044,0.7358600000000001,0.007532500000000001,-0.164235,0.53628,-0.028460499999999996,-0.271095,0.72657,-0.1770875,0.175125,0.52114,-0.0292125,0.300515,0.6984,-0.16538750000000002,-0.233485,0.9511,-0.26934749999999996,0.287455,0.9404,-0.26862749999999996,-0.081708,0.0012019999999999947,0.0018875000000000003,0.081708,-0.0012020000000000086,-0.0018875000000000003,-0.13072499999999998,-0.45133,0.0327565,0.112875,-0.44894,0.0561095,-0.164985,-0.81224,0.0492755,0.12367500000000001,-0.80682,0.0652555
241,-0.0031369999999999974,0.7359135,0.008884500000000004,-0.16453500000000001,0.5362435,-0.0269065,-0.271615,0.7263535,-0.1758415,0.175275,0.5212635,-0.027991499999999996,0.30067499999999997,0.6985135,-0.1643215,-0.23397500000000002,0.9509635,-0.2683515,0.287595,0.9403635,-0.2673015,-0.081644,0.0011924999999999991,0.0018995000000000019,0.081644,-0.0011924999999999991,-0.0018994999999999984,-0.130565,-0.45152650000000005,0.032455500000000005,0.112925,-0.44884650000000004,0.0558485,-0.164865,-0.8124764999999999,0.0494795,0.123865,-0.8069765,0.0655545
242,-0.003216,0.736,0.010036,-0.16475499999999998,0.5362199999999999,-0.025534,-0.271985,0.7263299999999999,-0.174889,0.175415,0.52135,-0.026937000000000003,0.300885,0.69868,-0.163499,-0.234155,0.9506399999999999,-0.267709,0.287575,0.94034,-0.266219,-0.081619,0.0011789999999999995,0.001915,0.081619,-0.0011789999999999995,-0.001915,-0.130435,-0.45159,0.032213,0.112945,-0.4485,0.055578,-0.16467500000000002,-0.8125,0.049642,0.124065,-0.8070700000000001,0.06578
243,-0.0032525,0.7361015,0.011024500000000003,-0.16491450000000002,0.5361215,-0.0242425,-0.27226449999999996,0.7260515,-0.17401650000000002,0.1754755,0.5214415,-0.025987499999999997,0.30112550000000005,0.6988215,-0.16291650000000002,-0.23415450000000002,0.9502315,-0.2671965,0.28740550000000004,0.9401315,-0.2652965,-0.08159849999999999,0.001175499999999996,0.0019275000000000021,0.08159849999999999,-0.0011755000000000099,-0.0019274999999999987,-0.1302845,-0.4516285,0.0319985,0.1129755,-0.4482985,0.055357500000000004,-0.1644245,-0.8125185,0.0497755,0.12430549999999999,-0.8070985,0.0659495
244,-0.003244499999999999,0.7361964999999999,0.0119625,-0.1650455,0.5359864999999999,-0.023061500000000002,-0.27240549999999997,0.7257665,-0.1731985,0.1754945,0.5214865,-0.0249945,0.3013445,0.6990265,-0.1624185,-0.23406549999999998,0.9500265,-0.2666785,0.2871445,0.9399265,-0.26448849999999996,-0.0815665,0.001180500000000001,0.0019535000000000004,0.0815665,-0.001180500000000001,-0.0019535000000000004,-0.1301255,-0.45169349999999997,0.0319445,0.1130445,-0.44825349999999997,0.0552345,-0.1641455,-0.8125435000000001,0.049881499999999995,0.1245545,-0.8071035000000001,0.0661025
245,-0.003237000000000001,0.7362740000000001,0.012904500000000001,-0.165079,0.5358240000000001,-0.0221055,-0.272449,0.7255039999999999,-0.1724995,0.17549099999999998,0.5214840000000001,-0.024038499999999997,0.301541,0.6992339999999999,-0.1620095,-0.233899,0.949824,-0.2661595,0.286841,0.939724,-0.26374949999999997,-0.08154600000000001,0.0011830000000000035,0.0019734999999999996,0.08154600000000001,-0.0011830000000000035,-0.0019734999999999996,-0.129949,-0.451696,0.031878500000000004,0.113151,-0.448146,0.0551545,-0.163859,-0.8125560000000001,0.0499695,0.12477099999999999,-0.8071060000000001,0.0662285
246,-0.003118000000000001,0.736324,0.013646500000000002,-0.16501300000000002,0.535604,-0.0213425,-0.27238300000000004,0.7251540000000001,-0.1718085,0.17551699999999998,0.5214840000000001,-0.0232635,0.301737,0.699444,-0.1617185,-0.233643,0.949724,-0.2656585,0.28667699999999996,0.939524,-0.2631585,-0.081527,0.0011830000000000035,0.001994500000000003,0.081527,-0.0011830000000000035,-0.0019944999999999997,-0.129833,-0.451696,0.031796500000000005,0.113247,-0.448066,0.0550435,-0.163553,-0.812576,0.0500505,0.12499700000000001,-0.8071060000000001,0.0663495
247,-0.0029934999999999988,0.7363379999999999,0.014289000000000001,-0.1649075,0.535408,-0.020675,-0.27229749999999997,0.724878,-0.171286,0.1755325,0.521478,-0.02253,0.3019925,0.699558,-0.16145600000000002,-0.2333175,0.9497180000000001,-0.265206,0.2865725,0.9391179999999999,-0.262586,-0.0815215,0.0011829999999999896,0.0020100000000000014,0.0815215,-0.0011830000000000035,-0.002009999999999998,-0.12974750000000002,-0.451762,0.031709,0.1133725,-0.448052,0.054948,-0.1632775,-0.812622,0.050099000000000005,0.1252425,-0.807112,0.066469
248,-0.0028439999999999984,0.7363465,0.014853,-0.16475700000000001,0.5352465,-0.020131000000000003,-0.272167,0.7246865,-0.170808,0.175563,0.5214665,-0.021845999999999997,0.302243,0.6996965,-0.161188,-0.232997,0.9496165000000001,-0.264718,0.286513,0.9386165,-0.262048,-0.081513,0.001180500000000001,0.0020230000000000005,0.081513,-0.001180500000000001,-0.0020230000000000005,-0.12964699999999998,-0.4518235,0.031666,0.11350299999999999,-0.4482735,0.05481,-0.163007,-0.8126935,0.050127000000000005,0.125463,-0.8071135,0.066575
249,-0.0026980000000000033,0.73634,0.015344,-0.16457,0.5351199999999999,-0.019763000000000003,-0.27206,0.72455,-0.17044299999999998,0.17557999999999999,0.52142,-0.021311999999999998,0.3025,0.69978,-0.160933,-0.23271,0.9496100000000001,-0.26415299999999997,0.28651,0.93821,-0.261583,-0.081508,0.0011710000000000054,0.002023999999999998,0.081508,-0.0011709999999999915,-0.0020240000000000015,-0.12961,-0.45197,0.031591,0.11363999999999999,-0.44831,0.054663,-0.16275,-0.8127800000000001,0.050142,0.12566,-0.80715,0.06665399999999999
250,-0.0025700000000000002,0.736339,0.015875,-0.164429,0.5350189999999999,-0.019397000000000005,-0.271929,0.7244889999999999,-0.170154,0.175611,0.5213789999999999,-0.020787,0.30274100000000004,0.699869,-0.16068400000000002,-0.232449,0.949609,-0.263534,0.286531,0.937809,-0.261194,-0.081495,0.0011649999999999994,0.00204,0.081495,-0.0011649999999999994,-0.00204,-0.129629,-0.452171,0.031493,0.113761,-0.448331,0.054533,-0.162529,-0.8128610000000001,0.050171,0.125841,-0.807191,0.06673799999999999
251,-0.0024480000000000014,0.7363325,0.016354,-0.164321,0.5349125,-0.019022999999999998,-0.271811,0.7244325,-0.169855,0.175639,0.5213325,-0.020249000000000003,0.302979,0.6999125,-0.16042499999999998,-0.232201,0.9496125000000001,-0.26294500000000004,0.286579,0.9375125000000001,-0.26084500000000005,-0.081486,0.0011614999999999959,0.0020519999999999983,0.081486,-0.0011614999999999959,-0.0020520000000000017,-0.129661,-0.4523875,0.031316,0.113879,-0.4483575,0.054355,-0.162341,-0.8129375,0.050194,0.125979,-0.8071775,0.06683800000000001
252,-0.002314999999999995,0.7363025,0.016893000000000002,-0.16413499999999998,0.5348824999999999,-0.018826999999999997,-0.271675,0.7243925,-0.16952799999999998,0.175685,0.5212625,-0.019714999999999996,0.303205,0.6999725,-0.160078,-0.231955,0.9497225,-0.262318,0.28663500000000003,0.9372224999999998,-0.26041800000000004,-0.08147499999999999,0.0011634999999999979,0.0020630000000000023,0.08147499999999999,-0.0011634999999999979,-0.002062999999999999,-0.12975499999999998,-0.45263749999999997,0.031089000000000002,0.11399500000000001,-0.4483375,0.054131,-0.16216499999999998,-0.8130275,0.050256,0.12610500000000002,-0.8071375000000001,0.066962
253,-0.0021879999999999972,0.7362744999999999,0.017394,-0.163972,0.5348645,-0.018618999999999997,-0.27154199999999995,0.7242744999999999,-0.169116,0.175758,0.5211945,-0.019298000000000003,0.303408,0.6999945,-0.159706,-0.231732,0.9497345,-0.26173599999999997,0.28668800000000005,0.9370344999999999,-0.259996,-0.081481,0.001166499999999987,0.002069999999999999,0.081481,-0.0011665000000000009,-0.002069999999999999,-0.12990200000000002,-0.45288550000000005,0.030843,0.114108,-0.44832550000000004,0.053935,-0.162022,-0.8130955000000001,0.050313,0.12620800000000001,-0.8070855,0.067104
254,-0.0020455000000000056,0.7362355,0.017825,-0.1638155,0.5348255,-0.018389999999999997,-0.27141550000000003,0.7241555,-0.16872399999999999,0.1758645,0.5211155000000001,-0.018956,0.30361449999999995,0.7000154999999999,-0.159314,-0.2315255,0.9498455000000001,-0.261224,0.28675449999999997,0.9367455,-0.25958400000000004,-0.08148949999999999,0.0011685000000000029,0.002079000000000001,0.08148949999999999,-0.001168499999999989,-0.0020789999999999975,-0.1300455,-0.4531545,0.030569000000000002,0.11423449999999999,-0.4483045,0.053771,-0.1618755,-0.8131645000000001,0.05038,0.1263345,-0.8070744999999999,0.06725500000000001
255,-0.0019230000000000028,0.7362285,0.018283000000000004,-0.163659,0.5347885,-0.018226,-0.271289,0.7239985,-0.16835,0.175951,0.5210385,-0.018603999999999996,0.303791,0.7000284999999999,-0.15893000000000002,-0.231349,0.9498585,-0.2607,0.286811,0.9366585,-0.25918,-0.081493,0.001173499999999994,0.0021040000000000017,0.081493,-0.0011735000000000079,-0.0021039999999999982,-0.130129,-0.4533915,0.030303000000000004,0.114371,-0.4482415,0.053643,-0.16175900000000001,-0.8131915,0.05047,0.126441,-0.8070515,0.067413
256,-0.0017954999999999959,0.7362305,0.018680000000000002,-0.1635065,0.5347704999999999,-0.018093,-0.2711765,0.7238405,-0.167963,0.1760435,0.5209505,-0.018259,0.3039435,0.7000405,-0.158583,-0.2311865,0.9498805,-0.26020299999999996,0.2868535,0.9364804999999999,-0.258843,-0.08148849999999999,0.001174499999999995,0.002144,0.08148849999999999,-0.001174499999999995,-0.002144,-0.13029649999999998,-0.4536095,0.029976,0.1144635,-0.4481495,0.053482,-0.1616265,-0.8131995000000001,0.050609,0.1265435,-0.8069995000000001,0.067584
257,-0.0016895000000000044,0.736186,0.019040500000000002,-0.16339350000000002,0.534746,-0.018010500000000002,-0.2710735,0.723666,-0.1675765,0.17614649999999998,0.520866,-0.017941500000000003,0.30406649999999996,0.7000460000000001,-0.1582865,-0.23106349999999998,0.9498960000000001,-0.2597365,0.2868865,0.936396,-0.2585465,-0.0814855,0.0011729999999999935,0.0021644999999999998,0.0814855,-0.0011729999999999935,-0.0021644999999999998,-0.1304835,-0.45384399999999997,0.0296145,0.1145365,-0.448074,0.053363499999999994,-0.16151350000000003,-0.813184,0.0507905,0.12661650000000002,-0.806964,0.06777949999999999
258,-0.0015910000000000056,0.7361380000000001,0.019387500000000002,-0.163307,0.534728,-0.0178605,-0.270967,0.723468,-0.1672305,0.176253,0.520768,-0.0176305,0.304193,0.7000580000000001,-0.15805049999999998,-0.230937,0.9499080000000001,-0.2594705,0.286933,0.936308,-0.25834050000000003,-0.08147599999999999,0.0011739999999999945,0.0021825000000000004,0.08147599999999999,-0.0011740000000000084,-0.0021825000000000004,-0.130627,-0.454002,0.029236500000000002,0.11461299999999999,-0.44806199999999996,0.053220500000000004,-0.161437,-0.813172,0.0509955,0.126683,-0.806972,0.0679845
259,-0.0015060000000000013,0.735994,0.020041,-0.163345,0.534494,-0.016861,-0.27075499999999997,0.723044,-0.16636,0.17624499999999999,0.520894,-0.017021,0.304385,0.700074,-0.15749000000000002,-0.230765,0.949764,-0.25893,0.28705499999999995,0.936164,-0.2576,-0.081467,0.0011499999999999982,0.0022660000000000007,0.081467,-0.0011499999999999982,-0.002265999999999997,-0.13061499999999998,-0.45424600000000004,0.028999,0.114875,-0.44803600000000005,0.053201,-0.161235,-0.813356,0.051332,0.126805,-0.807256,0.0682
260,-0.0013689999999999987,0.736126,0.020353999999999997,-0.163361,0.534416,-0.016163999999999998,-0.270551,0.722926,-0.165971,0.176489,0.520466,-0.016989000000000004,0.304499,0.700136,-0.157141,-0.230631,0.949876,-0.258571,0.287039,0.936376,-0.25717100000000004,-0.08145,0.001133000000000009,0.0023560000000000005,0.08145,-0.0011329999999999951,-0.002356000000000004,-0.131041,-0.45420399999999994,0.028468999999999998,0.114759,-0.447504,0.052876,-0.161111,-0.8131240000000001,0.051404,0.126889,-0.807024,0.068564
