sb224sc-HT22-VT27/4dt907/src/data/kinect_good_preprocessed_A9_mediapipe/A143_kinect_mirrored.csv
FrameNo,nose_3d_x,nose_3d_y,nose_3d_z,left_shoulder_3d_x,left_shoulder_3d_y,left_shoulder_3d_z,left_elbow_3d_x,left_elbow_3d_y,left_elbow_3d_z,right_shoulder_3d_x,right_shoulder_3d_y,right_shoulder_3d_z,right_elbow_3d_x,right_elbow_3d_y,right_elbow_3d_z,left_wrist_3d_x,left_wrist_3d_y,left_wrist_3d_z,right_wrist_3d_x,right_wrist_3d_y,right_wrist_3d_z,left_hip_3d_x,left_hip_3d_y,left_hip_3d_z,right_hip_3d_x,right_hip_3d_y,right_hip_3d_z,left_knee_3d_x,left_knee_3d_y,left_knee_3d_z,right_knee_3d_x,right_knee_3d_y,right_knee_3d_z,left_ankle_3d_x,left_ankle_3d_y,left_ankle_3d_z,right_ankle_3d_x,right_ankle_3d_y,right_ankle_3d_z
23,1.000664,0.7124725,0.0490795,0.85339,0.4730925,0.0422144999999999,0.77822,0.7270025,0.0145264999999999,1.13631,0.5027525,0.0577955,1.2251,0.7513425,0.0339565,0.72784,0.9733925,-0.0128905,1.26365,0.9891925,0.0264944999999999,0.928512,0.0006104999999999,-0.0027065,1.071488,-0.0006104999999999,0.0027064999999999,0.87896,-0.3620575,-0.0078465,1.11759,-0.3655775,-0.0166285,0.859,-0.7200275,0.0102674999999999,1.1249,-0.7401575,0.0080444999999999
24,1.0011195,0.7126855000000001,0.0490204999999999,0.8534015,0.4727854999999999,0.0421425,0.7781315,0.7266355,0.0146264999999999,1.1363315,0.5027155,0.0578065,1.2241515,0.7517155,0.0340824999999999,0.7277715,0.9728755,-0.0129755,1.2616915,0.9932155,0.0271054999999999,0.9285185,0.0005964999999999,-0.0027665,1.0714815,-0.0005964999999999,0.0027664999999999,0.8788615,-0.3619445,-0.0076695,1.1174115,-0.3653945,-0.0165735,0.8589215,-0.7201245,0.0104934999999999,1.1247814999999999,-0.7401245,0.0081514999999999
25,1.001562,0.712841,0.0489239999999999,0.8534840000000001,0.472471,0.042074,0.778124,0.7262609999999999,0.0147279999999999,1.136404,0.502691,0.057765,1.223244,0.752031,0.034212,0.727794,0.973041,-0.0128759999999999,1.259464,0.997141,0.027607,0.928505,0.000581,-0.002811,1.071495,-0.0005809999999999,0.002811,0.878854,-0.361809,-0.007498,1.117304,-0.3652689999999999,-0.016517,0.858894,-0.720219,0.0105999999999999,1.124714,-0.740109,0.0082879999999999
26,1.0019414999999998,0.712924,0.048789,0.8535865,0.4722639999999999,0.042029,0.7781365,0.7259840000000001,0.014681,1.1364565,0.5026440000000001,0.057672,1.2222164999999998,0.752384,0.03407,0.7278465000000001,0.972954,-0.012783,1.2570065000000001,1.000954,0.027895,0.9284975,0.0005789999999999,-0.0028559999999999,1.0715025,-0.0005789999999999,0.0028559999999999,0.8789065000000001,-0.361526,-0.00735,1.1172065,-0.365136,-0.016457,0.8588865,-0.720316,0.0107169999999999,1.1246565,-0.7401359999999999,0.008433
27,1.002098,0.7129150000000001,0.0485995,0.853648,0.4722449999999999,0.0420445,0.778088,0.7259650000000001,0.0144374999999999,1.136518,0.502635,0.0575995,1.221458,0.7526050000000001,0.0337195,0.7278980000000002,0.972935,-0.0127634999999999,1.254568,1.004535,0.0280145,0.9284870000000001,0.00058,-0.0028725,1.071513,-0.00058,0.0028725,0.8789780000000001,-0.361155,-0.0072945,1.1172179999999998,-0.365055,-0.0164534999999999,0.858918,-0.720285,0.0107594999999999,1.1247079999999998,-0.7401249999999999,0.0084945
28,1.0021855,0.7128965,0.048389,0.8536995000000001,0.4722265,0.042054,0.7781195,0.7259465,0.0141439999999999,1.1365695,0.5026265,0.057512,1.2208495,0.7527665,0.033231,0.7279295,0.9729165,-0.012867,1.2524195,1.0081165,0.0280909999999999,0.9284845,0.0005784999999999,-0.002873,1.0715155,-0.0005784999999999,0.002873,0.8790295,-0.3607634999999999,-0.007245,1.1172195,-0.3649735,-0.016464,0.8589295,-0.7202635,0.0107039999999999,1.1247495,-0.7401335,0.0085509999999999
29,1.0022225,0.7129335,0.0480445,0.8537475,0.4722435,0.0420635,0.7781375,0.7260735,0.0138505,1.1365975,0.5026135,0.0573965,1.2203375,0.7529235,0.0326045,0.7277875,0.9728935,-0.0132955,1.2505375,1.0113934999999998,0.0280285,0.9284845,0.0005785,-0.0028755,1.0715155,-0.0005784999999999,0.0028755,0.8790775000000001,-0.3603665,-0.0071774999999999,1.1172175,-0.3648765,-0.0164735,0.8589275000000001,-0.7202365,0.0107345,1.1247575,-0.7401165,0.0086275
30,1.0022495,0.71298,0.047626,0.8537585,0.47222,0.042066,0.7778985,0.72607,0.013497,1.1365685,0.50259,0.057283,1.2198985,0.75305,0.031948,0.7272985000000001,0.97204,-0.0143329999999999,1.2489185,1.01467,0.027966,0.9284835,0.0005779999999999,-0.0028769999999999,1.0715165,-0.000578,0.002877,0.8791785,-0.3599799999999999,-0.0071059999999999,1.1172185,-0.36478,-0.0165039999999999,0.8589385,-0.7202200000000001,0.010766,1.1247685,-0.74009,0.008662
31,1.002265,0.713008,0.047186,0.853799,0.472198,0.042058,0.777549,0.726058,0.0130129999999999,1.136539,0.502568,0.0571789999999999,1.219509,0.753178,0.031256,0.7266589999999999,0.971208,-0.0153389999999999,1.248319,1.014848,0.0277539999999999,0.928479,0.0005779999999999,-0.00288,1.071521,-0.000578,0.00288,0.879229,-0.359602,-0.007042,1.117199,-0.364682,-0.016534,0.858939,-0.720192,0.0107949999999999,1.124769,-0.740082,0.008728
32,1.002214,0.712963,0.046492,0.853802,0.472133,0.041909,0.777082,0.725793,0.0121889999999999,1.136472,0.502563,0.056929,1.219222,0.753233,0.030297,0.725712,0.970903,-0.0170279999999999,1.247942,1.014973,0.027046,0.9284749999999999,0.000562,-0.002882,1.071525,-0.000562,0.002882,0.879242,-0.359627,-0.006955,1.117172,-0.364657,-0.016507,0.8589220000000001,-0.720197,0.0108639999999999,1.124762,-0.740177,0.0088779999999999
33,1.0021,0.71291,0.045742,0.8538060000000001,0.4720799999999999,0.04173,0.776436,0.72557,0.011091,1.136356,0.50259,0.056614,1.219106,0.7533,0.029233,0.724576,0.97032,-0.0194249999999999,1.247906,1.01509,0.026008,0.928473,0.0005539999999999,-0.0028779999999999,1.071527,-0.000554,0.0028779999999999,0.879246,-0.3601,-0.006871,1.117176,-0.36474,-0.0164519999999999,0.858906,-0.72022,0.010894,1.124746,-0.74026,0.008985
34,1.0019615,0.712819,0.0449909999999999,0.8538505000000001,0.4724589999999999,0.0411799999999999,0.7755005,0.725449,0.0098489999999999,1.1361204999999999,0.502689,0.056046,1.2191005,0.753319,0.0281359999999999,0.7233205,0.969479,-0.021856,1.2478805,1.015069,0.0241069999999999,0.9284765000000001,0.000522,-0.0028719999999999,1.0715234999999999,-0.0005219999999999,0.0028719999999999,0.8792805,-0.3607209999999999,-0.0067989999999999,1.1172004999999998,-0.3648909999999999,-0.01639,0.8589505,-0.720691,0.0110089999999999,1.1247605,-0.740371,0.0090909999999999
35,1.0018334999999998,0.7127105,0.043997,0.8539215,0.4728805,0.04043,0.7744715,0.7253705,0.0083039999999999,1.1358715,0.5028305,0.05518,1.2191115,0.7532205,0.026632,0.7218415,0.9688505,-0.024672,1.2478615,1.0150104999999998,0.021508,0.9284815,0.0004755,-0.002861,1.0715185,-0.0004754999999999,0.0028609999999999,0.8791915,-0.3613794999999999,-0.006723,1.1172315,-0.3651895,-0.016349,0.8590115,-0.7211595,0.0110759999999999,1.1247915,-0.7404895,0.0091909999999999
36,1.001741,0.712609,0.0427219999999999,0.854014,0.473589,0.039662,0.773474,0.725549,0.0064699999999999,1.135694,0.5029790000000001,0.054318,1.219124,0.753069,0.024886,0.719794,0.968229,-0.028848,1.247824,1.014849,0.0181799999999999,0.928473,0.000431,-0.00284,1.071527,-0.000431,0.0028399999999999,0.878934,-0.3620409999999999,-0.006836,1.117224,-0.365511,-0.0164279999999999,0.859084,-0.721661,0.0111399999999999,1.124794,-0.740661,0.00929
37,1.0016745,0.7125225,0.041239,0.8541655,0.4742825,0.0388269999999999,0.7725255,0.7256225,0.0044659999999999,1.1355455,0.5031125,0.0534119999999999,1.2191455,0.7528625,0.0228059999999999,0.7179255,0.9689925,-0.032747,1.2479655,1.0145925,0.0143579999999999,0.9284675,0.0003835,-0.002786,1.0715325,-0.0003834999999999,0.0027859999999999,0.8786255000000001,-0.3626974999999999,-0.007095,1.1171555,-0.3659174999999999,-0.016662,0.8592355,-0.7223175000000001,0.0111469999999999,1.1247855,-0.7409075,0.0093439999999999
38,1.0016695,0.7124739999999999,0.039597,0.8543025,0.4749139999999999,0.037545,0.7715225,0.725634,0.002223,1.1354624999999998,0.503244,0.052529,1.2193925,0.7526039999999999,0.020468,0.7160625,0.968554,-0.036481,1.2482625,1.014254,0.010124,0.9284555,0.00032,-0.0027449999999999,1.0715445,-0.00032,0.002745,0.8782225,-0.363706,-0.0075689999999999,1.1170825,-0.366406,-0.0169899999999999,0.8594025000000001,-0.722966,0.011144,1.1247725,-0.741136,0.009375
39,1.0016945,0.712617,0.037721,0.8543955,0.475457,0.036222,0.7705655,0.725517,-0.000146,1.1354454999999999,0.503427,0.05158,1.2197255,0.752087,0.017697,0.7143855,0.967167,-0.039937,1.2487055,1.013737,0.005324,0.9284355,0.0002279999999999,-0.0027439999999999,1.0715645,-0.0002279999999999,0.002744,0.8777255,-0.364763,-0.0084599999999999,1.1169255,-0.366923,-0.017458,0.8595755,-0.723523,0.010874,1.1247655,-0.741303,0.009333
40,1.0016785,0.7125885,0.0355985,0.8544615,0.4754484999999999,0.0350535,0.7696815000000001,0.7254785,-0.0027594999999999,1.1354214999999999,0.5034285,0.0506065,1.2201615000000001,0.7520785,0.0145054999999999,0.7128215,0.9670185,-0.0435905,1.2493015,1.0137385,0.0001195,0.9283965,0.0002264999999999,-0.0027374999999999,1.0716035,-0.0002264999999999,0.0027374999999999,0.8771815000000001,-0.3654315,-0.0096515,1.1169015,-0.3669215,-0.0180834999999999,0.8599015,-0.7236515,0.0102674999999999,1.1248315,-0.7413015000000001,0.0092394999999999
41,1.0017269999999998,0.7125684999999999,0.0333775,0.854571,0.4754385,0.0339395,0.768831,0.7254585,-0.0052965,1.135481,0.5034285,0.0498115,1.220521,0.7520685,0.0113585,0.7107209999999999,0.9667085,-0.0487535,1.250011,1.0137385,-0.0051345,0.928347,0.0002264999999999,-0.0027135,1.071653,-0.0002264999999999,0.0027135,0.876541,-0.3665415,-0.0114744999999999,1.117041,-0.3669215,-0.0188874999999999,0.860431,-0.7242215000000001,0.0095874999999999,1.124951,-0.7413015000000001,0.0090944999999999
42,1.001758,0.712576,0.030462,0.854734,0.4754360000000001,0.032756,0.768064,0.7254360000000001,-0.008389,1.135454,0.503436,0.049001,1.220774,0.751766,0.007411,0.708634,0.966676,-0.053714,1.250574,1.013346,-0.011949,0.9282680000000001,0.0002189999999999,-0.002623,1.071732,-0.0002189999999999,0.002623,0.875834,-0.368054,-0.014089,1.117184,-0.367054,-0.020456,0.8609740000000001,-0.724984,0.008305,1.125124,-0.741294,0.008667
43,1.0017909999999999,0.7126170000000001,0.026889,0.85488,0.475967,0.031494,0.76719,0.7252270000000001,-0.0121359999999999,1.13548,0.5037370000000001,0.047929,1.2208700000000001,0.7512070000000001,0.002301,0.7066,0.967147,-0.060167,1.25084,1.012627,-0.0200989999999999,0.928161,0.00016,-0.0025939999999999,1.071839,-0.00016,0.002594,0.87519,-0.370113,-0.0181459999999999,1.11729,-0.367953,-0.023551,0.86136,-0.7262029999999999,0.006492,1.1252900000000001,-0.741393,0.007179
44,1.0017945,0.7122005,0.0228155,0.8551625,0.4763905,0.0302335,0.7665525000000001,0.7248104999999999,-0.0161125,1.1354425,0.5039804999999999,0.0469645,1.2208725,0.7503405,-0.0028544999999999,0.7049025,0.9680305,-0.0673035,1.2507424999999999,1.0116205,-0.0284714999999999,0.9280125,8.449999999999777e-05,-0.0025404999999999,1.0719875,-8.450000000000124e-05,0.0025405,0.8745025000000001,-0.3719794999999999,-0.0226704999999999,1.1173525,-0.3687695,-0.0275684999999999,0.8614725,-0.7273995000000001,0.0043405,1.1254025,-0.7414395,0.0053175
45,1.0018794999999998,0.7115349999999999,0.018805,0.8554595,0.476755,0.02798,0.7658795,0.724335,-0.020574,1.1353695,0.5033449999999999,0.043945,1.2208595,0.749065,-0.0084419999999999,0.7038095,0.968945,-0.073305,1.2506495,1.010175,-0.036958,0.9278425,1.8999999999998185e-05,-0.002542,1.0721575,-1.900000000000165e-05,0.002542,0.8739295,-0.3738849999999999,-0.0281859999999999,1.1175295,-0.369565,-0.032595,0.8615695,-0.728425,0.002105,1.1255295,-0.7414050000000001,0.0032189999999999
46,1.0019865,0.710143,0.015309,0.8554815,0.4760729999999999,0.026333,0.7651615,0.723013,-0.024668,1.1353815,0.502783,0.04132,1.2208714999999999,0.747223,-0.013737,0.7034214999999999,0.968923,-0.079111,1.2505515,1.008023,-0.045451,0.9276725,-2.399999999999972e-05,-0.002521,1.0723275,2.399999999999972e-05,0.002521,0.8733115,-0.375397,-0.034573,1.1179015,-0.370497,-0.038046,0.8616715,-0.728737,-0.0002469999999999,1.1257115,-0.740977,0.0014139999999999
47,1.002001,0.7086515,0.0116329999999999,0.8552270000000001,0.4747215,0.0234909999999999,0.764827,0.7212915,-0.028973,1.135097,0.5006215,0.0372659999999999,1.220357,0.7451015,-0.019037,0.703287,0.9668915,-0.08498,1.250157,1.0057015,-0.05402,0.9276260000000001,5.450000000000246e-05,-0.002517,1.072374,-5.4499999999998994e-05,0.0025169999999999,0.872527,-0.3754384999999999,-0.042372,1.118367,-0.3703484999999999,-0.044511,0.861617,-0.7274785,-0.003128,1.1258169999999998,-0.7390185,-0.000741
48,1.0019035,0.7067455,0.0075894999999999,0.8549615,0.4737754999999999,0.0204024999999999,0.7643215,0.7197755,-0.0336945,1.1347215,0.4990654999999999,0.0331524999999999,1.2196514999999999,0.7435355,-0.0246655,0.7030415000000001,0.9662455,-0.0918765,1.2491115,1.0019255,-0.0642065,0.9276005,0.0001114999999999,-0.0025235,1.0723995,-0.0001115,0.0025234999999999,0.8715815,-0.3753045,-0.0510785,1.1192115,-0.3715345,-0.0531265,0.8615815,-0.7253445000000001,-0.0064705,1.1259014999999999,-0.7362945,-0.0030635
49,1.001483,0.7049340000000001,0.0033369999999999,0.854622,0.474044,0.0167539999999999,0.763352,0.719494,-0.039694,1.134082,0.497384,0.0285989999999999,1.2180819999999999,0.742034,-0.031494,0.702352,0.967254,-0.100094,1.246892,0.997944,-0.075964,0.927234,-2.599999999999998e-05,-0.002646,1.072766,2.599999999999998e-05,0.0026459999999999,0.869992,-0.370926,-0.064804,1.121002,-0.367656,-0.066474,0.861212,-0.715276,-0.009556,1.125642,-0.726216,-0.005486
50,1.0010655,0.703284,-0.000971,0.8541345000000001,0.473954,0.0133219999999999,0.7623545,0.714534,-0.045552,1.1336245,0.496734,0.0243759999999999,1.2168345,0.741264,-0.038707,0.7014445,0.963694,-0.106066,1.2451345,0.994884,-0.086976,0.9268505,-0.0001419999999999,-0.00275,1.0731495,0.0001419999999999,0.0027499999999999,0.8683845,-0.366306,-0.0791159999999999,1.1230345,-0.363496,-0.080506,0.8608545000000001,-0.703826,-0.013992,1.1252845,-0.715206,-0.008018
51,1.000539,0.7006110000000001,-0.0037364999999999,0.853648,0.473861,0.0103925,0.761448,0.712721,-0.0498835,1.132998,0.493511,0.0202375,1.2150979999999998,0.738981,-0.0443185,0.700628,0.958061,-0.1135635,1.243018,0.992391,-0.0953835,0.9263260000000001,-0.000131,-0.0028824999999999,1.073674,0.0001309999999999,0.0028825,0.866608,-0.359309,-0.0934235,1.125248,-0.356849,-0.0941735,0.860208,-0.6889489999999999,-0.0187185,1.124928,-0.701019,-0.0101074999999999
52,0.9998410000000001,0.6983035000000001,-0.0080865,0.853118,0.4738435,0.0051985,0.760338,0.7115035000000001,-0.0562315,1.1322079999999999,0.4910335,0.0142764999999999,1.213748,0.7371035,-0.0515415,0.6992579999999999,0.9532435,-0.1217515,1.241568,0.9903235,-0.1051915,0.925816,-0.0001034999999999,-0.0023425,1.074184,0.0001034999999999,0.0023424999999999,0.864698,-0.3516865,-0.1097414999999999,1.127568,-0.3492565,-0.1097915,0.859268,-0.6723764999999999,-0.0255365,1.124468,-0.6851065,-0.0138075
53,0.998936,0.6957415,-0.012936,0.852218,0.4732215,-0.001362,0.759058,0.7106315,-0.06363,1.130998,0.4880815,0.006974,1.2120980000000001,0.7348715,-0.05988,0.698708,0.9526215,-0.12978,1.239668,0.9877215,-0.11673,0.925254,-0.0002325,-0.002,1.074746,0.0002324999999999,0.002,0.862218,-0.3387585,-0.12877,1.129988,-0.3363385,-0.1272499999999999,0.8582380000000001,-0.6511685,-0.0336449999999999,1.123638,-0.6647885,-0.0182419999999999
54,0.9977865,0.693358,-0.0185295,0.8512365,0.472518,-0.0078685,0.7576165,0.709898,-0.0713755,1.1296864999999998,0.485878,0.0008514999999999,1.2104765,0.732998,-0.0680755,0.6982065,0.952678,-0.1380855,1.2378465,0.985718,-0.1272355,0.9247385,-4.200000000000037e-05,-0.0016895,1.0752615,4.200000000000037e-05,0.0016894999999999,0.8588665,-0.3214019999999999,-0.1493555,1.1325065,-0.3199919999999999,-0.1452255,0.8570765,-0.626022,-0.0416814999999999,1.1227965,-0.6404719999999999,-0.0235594999999999
55,0.9968695000000001,0.69266,-0.0239695,0.8504975,0.47385,-0.0136244999999999,0.7560575,0.71107,-0.0785905,1.1283775,0.48543,-0.0042854999999999,1.2087375,0.73378,-0.0753305,0.6981775,0.95486,-0.1462705,1.2361175,0.98531,-0.1371305,0.9241105000000001,-0.0003899999999999,-0.0013475,1.0758895,0.00039,0.0013475,0.8555575,-0.30243,-0.1680605,1.1351275,-0.30225,-0.1623005,0.8557575,-0.5991,-0.0481105,1.1220675,-0.6144,-0.0279534999999999
56,0.996083,0.6942900000000001,-0.0288839999999999,0.8504590000000001,0.4752699999999999,-0.018357,0.754699,0.71207,-0.085241,1.1269989999999999,0.48561,-0.009006,1.206739,0.7326600000000001,-0.082061,0.698079,0.95589,-0.154611,1.234609,0.98369,-0.147011,0.92357,-0.00029,-0.0010949999999999,1.07643,0.0002899999999999,0.001095,0.851529,-0.28032,-0.188551,1.138009,-0.28132,-0.182991,0.8545090000000001,-0.5692900000000001,-0.053761,1.121329,-0.5852900000000001,-0.0319499999999999
57,0.9950885000000002,0.69604,-0.0334905,0.8501485,0.47737,-0.0227695,0.7535085,0.71031,-0.0917775,1.1257785,0.48575,-0.0137885,1.2051285,0.7319100000000001,-0.0880975,0.6966085,0.95462,-0.1624375,1.2329585,0.98446,-0.1549475,0.9230095,-0.0003799999999999,-0.0006805,1.0769905,0.00038,0.0006805,0.8473984999999999,-0.25897,-0.2078475,1.1403185,-0.25831,-0.2015275,0.8525885,-0.53945,-0.0589275,1.1205785,-0.5559799999999999,-0.0360155
58,0.994415,0.69597,-0.0377229999999999,0.850297,0.47802,-0.02667,0.752567,0.70892,-0.0978449999999999,1.124947,0.48507,-0.018555,1.203907,0.72829,-0.092365,0.695747,0.95328,-0.169315,1.231697,0.98277,-0.160725,0.9227920000000001,-0.0002199999999999,-0.0007729999999999,1.077208,0.00022,0.000773,0.8437870000000001,-0.2405899999999999,-0.221965,1.141947,-0.2382599999999999,-0.215855,0.8519570000000001,-0.51512,-0.0638349999999999,1.120177,-0.53195,-0.0399149999999999
59,0.9939385,0.6963699999999999,-0.041216,0.8503725,0.47883,-0.030666,0.7512025,0.71336,-0.103696,1.1244025,0.48316,-0.0237749999999999,1.2030124999999998,0.72326,-0.095766,0.6945625,0.95765,-0.176026,1.2311424999999998,0.97775,-0.167976,0.9224455,-4.000000000001225e-05,-0.0008179999999999,1.0775545,3.999999999998449e-05,0.000818,0.8399325,-0.22062,-0.235336,1.1434825,-0.2171,-0.229846,0.8516125,-0.48956,-0.067226,1.1201725,-0.50698,-0.043916
60,0.9938340000000001,0.69672,-0.0458165,0.850962,0.47942,-0.0348915,0.751002,0.71486,-0.1099365,1.124652,0.48417,-0.0286735,1.202452,0.7210000000000001,-0.1003565,0.693892,0.96359,-0.1829765,1.231572,0.97502,-0.1753165,0.922073,-6.999999999995898e-05,-0.0009205,1.077927,7.00000000000145e-05,0.0009204999999999,0.835932,-0.1959499999999999,-0.2483065,1.144902,-0.1917999999999999,-0.2444565,0.8517020000000001,-0.4623199999999999,-0.0690565,1.120532,-0.4784899999999999,-0.0477965
61,0.994151,0.69601,-0.0512435,0.852245,0.4791999999999999,-0.0397835,0.750975,0.7151099999999999,-0.1168934999999999,1.125185,0.48417,-0.0342625,1.202815,0.71761,-0.1049435,0.693145,0.96729,-0.1905235,1.2331649999999998,0.971,-0.1830235,0.921816,-0.0002,-0.0003174999999999,1.078184,0.0001999999999999,0.0003174999999999,0.832205,-0.16815,-0.2615435,1.1464349999999999,-0.16551,-0.2591135,0.852055,-0.43312,-0.0700834999999999,1.121155,-0.4481900000000001,-0.0525534999999999
62,0.994552,0.6953,-0.0560894999999999,0.853618,0.47982,-0.0438695,0.750738,0.71468,-0.1229794999999999,1.125718,0.4856,-0.0390265,1.203498,0.71504,-0.1088095,0.691818,0.96691,-0.1979994999999999,1.235668,0.96723,-0.1892994999999999,0.921807,-0.0002599999999999,0.0002305,1.078193,0.0002599999999999,-0.0002305,0.828948,-0.14439,-0.2723795,1.147608,-0.14329,-0.2718395,0.851928,-0.4082099999999999,-0.0713594999999999,1.121848,-0.42147,-0.0570894999999999
63,0.995087,0.69575,-0.0607665,0.8553100000000001,0.47986,-0.0485265,0.7506000000000002,0.71421,-0.1289765,1.1263,0.4855,-0.0442865,1.20457,0.71524,-0.1134365,0.6910499999999999,0.96579,-0.2060665,1.2383,0.96511,-0.1964965,0.921824,-0.0004,0.0007714999999999,1.078176,0.0004,-0.0007715,0.82614,-0.12051,-0.2813664999999999,1.14852,-0.12142,-0.2843765,0.85185,-0.38259,-0.0736465,1.12275,-0.39409,-0.0613565
64,0.9957,0.693765,-0.0630635,0.85693,0.4793739999999999,-0.0516035,0.75036,0.713195,-0.1325535,1.12693,0.484718,-0.0480835,1.20562,0.7092849999999999,-0.1158034999999999,0.69042,0.959635,-0.2115835,1.24051,0.957135,-0.2011135,0.921824,1.4999999999987246e-05,0.0007785,1.078176,-1.5000000000042755e-05,-0.0007784999999999,0.8230500000000001,-0.097715,-0.2883435,1.14935,-0.099515,-0.2944235,0.85178,-0.357555,-0.0743835,1.12346,-0.367215,-0.0639235
65,0.996355,0.6895899999999999,-0.065216,0.858105,0.479927,-0.054006,0.750325,0.71326,-0.135826,1.127745,0.485422,-0.050656,1.206875,0.70598,-0.118236,0.690295,0.95554,-0.216646,1.242985,0.95183,-0.205196,0.9215490000000001,-0.00023,0.0008009999999999,1.0784509999999998,0.00023,-0.000801,0.820505,-0.07755,-0.291736,1.149985,-0.08111,-0.2995859999999999,0.851865,-0.3364399999999999,-0.0752159999999999,1.124425,-0.34378,-0.066396
66,0.9968255,0.685565,-0.067164,0.8590424999999999,0.479749,-0.056334,0.7498525,0.716025,-0.138594,1.1282424999999998,0.485793,-0.053184,1.2078125,0.701945,-0.120754,0.6896525,0.954325,-0.221274,1.2455924999999999,0.946005,-0.209614,0.9214135,-0.0002749999999999,0.0008689999999999,1.0785865000000001,0.000275,-0.000869,0.8178325000000001,-0.0558849999999999,-0.295074,1.1504424999999998,-0.0626949999999999,-0.304734,0.8518425000000001,-0.315905,-0.075474,1.1250125,-0.3213049999999999,-0.069444
67,0.9975795000000001,0.68392,-0.0687075,0.8601795,0.4796859999999999,-0.0582274999999999,0.7495695,0.7159099999999999,-0.1398875,1.1291695,0.4868749999999999,-0.0549275,1.2091695,0.70121,-0.1232375,0.6897795,0.9533,-0.2250575,1.2488895,0.94364,-0.2138174999999999,0.9213535,-0.0004,0.0008745,1.0786465,0.0003999999999999,-0.0008745,0.8155595000000001,-0.03507,-0.2979275,1.1510894999999999,-0.04504,-0.3089475,0.8521295,-0.29689,-0.0757175,1.1258895,-0.2998,-0.0722275
68,0.9981835,0.6814100000000001,-0.070157,0.8610085000000001,0.47956,-0.0597369999999999,0.7491085,0.71453,-0.140727,1.1303284999999998,0.4882,-0.056127,1.2108185,0.70082,-0.125587,0.6886385000000002,0.95082,-0.2288369999999999,1.2527585,0.94369,-0.216747,0.9213845,-0.0005399999999999,0.0009979999999999,1.0786155,0.0005399999999999,-0.0009979999999999,0.8137085,-0.0208599999999999,-0.299847,1.1517285,-0.0308799999999999,-0.312237,0.8517185,-0.2802699999999999,-0.0765069999999999,1.1265285,-0.28014,-0.074347
69,0.9986825,0.6797350000000001,-0.0704335,0.8615135,0.4794390000000001,-0.0606035,0.7480135,0.7130850000000001,-0.1410435,1.1308935,0.4890710000000001,-0.0567635,1.2126535,0.6996550000000001,-0.1266635,0.6876635000000001,0.949405,-0.2296535,1.2572635,0.941555,-0.2195734999999999,0.9213365,-0.0005849999999999,0.0010844999999999,1.0786635,0.000585,-0.0010845,0.8123635000000001,-0.0109749999999999,-0.3006335,1.1523035,-0.0219049999999999,-0.3136735,0.8511635000000001,-0.2690249999999999,-0.0774235,1.1269334999999998,-0.2672749999999999,-0.0759235
70,0.9988755000000001,0.6790200000000001,-0.0704835,0.8617055,0.4797530000000001,-0.0608735,0.7479955,0.7126100000000001,-0.1408035,1.1311955,0.49018,-0.0571035,1.2143455,0.6990600000000001,-0.1276035,0.6863155000000001,0.94836,-0.2302635,1.2617855,0.94016,-0.2219034999999999,0.9212445,-0.0006499999999999,0.0011865,1.0787555,0.00065,-0.0011865,0.8108055000000001,-0.0038599999999998,-0.3005835,1.1524855,-0.0149499999999999,-0.3144335,0.8503355,-0.2611999999999999,-0.0783534999999999,1.1271054999999999,-0.2578699999999999,-0.0767934999999999
71,0.9991675000000001,0.67905,-0.0705274999999999,0.8619844999999999,0.479759,-0.0611375,0.7474745,0.71271,-0.1405975,1.1315945,0.490343,-0.0575275,1.2158745,0.69908,-0.1284075,0.6852045,0.94751,-0.2306474999999999,1.2654645,0.93984,-0.2237875,0.9211165,-0.0006199999999999,0.0013034999999999,1.0788834999999999,0.00062,-0.0013034999999999,0.8093745,0.00268,-0.3005374999999999,1.1526945,-0.00817,-0.3150975,0.8494945,-0.2535199999999999,-0.0792475,1.1272845,-0.2493499999999999,-0.0775775
72,0.9997215000000002,0.678215,-0.070535,0.8625455,0.481091,-0.060965,0.7467455000000001,0.712925,-0.140335,1.1322154999999998,0.492224,-0.057355,1.2173355,0.696655,-0.128925,0.6846355,0.947385,-0.230495,1.2691955,0.938005,-0.225585,0.9212415,-0.0007249999999999,0.0013629999999999,1.0787585,0.0007249999999999,-0.001363,0.8084955,0.0052949999999999,-0.300415,1.1530055,-0.004695,-0.315095,0.8494655,-0.250835,-0.0795749999999999,1.1274855,-0.2453849999999999,-0.078235
73,0.9999805,0.67881,-0.070523,0.8628825,0.481348,-0.060803,0.7458925000000001,0.71238,-0.139463,1.1326725,0.492837,-0.057233,1.2185625,0.69828,-0.129343,0.6836725,0.95053,-0.230433,1.2727225,0.94092,-0.227263,0.9212955,-0.0007699999999999,0.0014549999999999,1.0787045,0.00077,-0.001455,0.8077425,0.00685,-0.300373,1.1530425,-0.0025699999999999,-0.315133,0.8487225,-0.2496699999999999,-0.0803929999999999,1.1275825,-0.2431099999999999,-0.078983
74,1.000088,0.67947,-0.0704799999999999,0.863182,0.480998,-0.0606199999999999,0.745552,0.71151,-0.13818,1.133152,0.492892,-0.05701,1.220102,0.69973,-0.12981,0.682682,0.95271,-0.23021,1.276392,0.94289,-0.22743,0.921361,-0.00077,0.0015509999999999,1.078639,0.00077,-0.0015509999999999,0.807402,0.0084999999999999,-0.30031,1.1530420000000001,-0.0009399999999999,-0.3156,0.8486819999999999,-0.2487399999999999,-0.08095,1.127642,-0.2415699999999999,-0.0796099999999999
75,1.0002575,0.680305,-0.0703129999999999,0.8631854999999999,0.480418,-0.060163,0.7448655,0.710585,-0.137383,1.1337155,0.492788,-0.056763,1.2217455,0.701145,-0.130013,0.6818655,0.954305,-0.2299129999999999,1.2799855,0.944495,-0.2280829999999999,0.9213935,-0.0007649999999999,0.0016439999999999,1.0786065,0.000765,-0.0016439999999999,0.8072155,0.009755,-0.300033,1.1533755,0.000435,-0.316253,0.8487955,-0.2481249999999999,-0.0811129999999999,1.1278755,-0.2400049999999999,-0.0793829999999999
76,1.000434,0.6803649999999999,-0.0702434999999999,0.863336,0.4807349999999999,-0.0596634999999999,0.7448060000000001,0.710625,-0.1361735,1.134246,0.4929629999999999,-0.0563935,1.223376,0.7009449999999999,-0.1301835,0.681146,0.955065,-0.2295335,1.283226,0.944725,-0.2292735,0.921403,-0.000675,0.0016305,1.078597,0.0006749999999999,-0.0016304999999999,0.8070760000000001,0.0099149999999998,-0.2998135,1.153656,0.0007549999999999,-0.3169335,0.8489860000000001,-0.2484250000000001,-0.0809034999999999,1.128176,-0.239825,-0.0791735
77,1.0007214999999998,0.6805500000000001,-0.0700585,0.8635815,0.48096,-0.0591285,0.7452215,0.7106100000000001,-0.1350385,1.1348415,0.4931250000000001,-0.0560084999999999,1.2248315,0.7006100000000001,-0.1304785,0.6810514999999999,0.95554,-0.2291484999999999,1.2856515,0.94476,-0.2296685,0.9214185,-0.0005899999999999,0.0016305,1.0785815,0.00059,-0.0016305,0.8070215000000001,0.01001,-0.2997585,1.1538815,0.00082,-0.3177585,0.8495715,-0.2483199999999998,-0.0805384999999999,1.1285315,-0.2397699999999999,-0.0788184999999999
78,1.001039,0.6805500000000001,-0.069871,0.863902,0.48096,-0.058731,0.7458020000000001,0.7106100000000001,-0.134711,1.135422,0.4931250000000001,-0.0556409999999999,1.225682,0.6999900000000001,-0.130161,0.681262,0.95585,-0.229011,1.287102,0.94438,-0.229371,0.921454,-0.0005899999999999,0.0016569999999999,1.078546,0.00059,-0.001657,0.807052,0.01002,-0.299701,1.1540219999999999,0.00074,-0.318581,0.850152,-0.2483199999999998,-0.0802109999999999,1.128802,-0.2396099999999998,-0.078621
79,1.001442,0.6803549999999999,-0.0696809999999999,0.8643340000000002,0.4817829999999999,-0.058311,0.7464740000000001,0.7106549999999999,-0.133741,1.136074,0.4930969999999999,-0.0552509999999999,1.226394,0.7004949999999999,-0.129811,0.6819040000000001,0.956025,-0.2285809999999999,1.288244,0.944555,-0.2290309999999999,0.9214670000000001,-0.000485,0.001633,1.078533,0.0004849999999999,-0.0016329999999999,0.807374,0.0100549999999999,-0.299751,1.154204,0.0006949999999998,-0.319001,0.850904,-0.248515,-0.0797809999999999,1.129284,-0.2396850000000001,-0.078441
80,1.0018099999999999,0.68015,-0.0695089999999999,0.8646929999999999,0.482539,-0.0579689999999999,0.747073,0.7106,-0.133519,1.136673,0.493019,-0.054969,1.226993,0.70113,-0.129589,0.6825130000000001,0.95625,-0.2281389999999999,1.288843,0.94478,-0.2288089999999999,0.921486,-0.0003999999999999,0.001506,1.078514,0.0003999999999999,-0.0015059999999999,0.807803,0.00985,-0.299909,1.1545429999999999,0.00063,-0.318879,0.851653,-0.2487199999999999,-0.079409,1.129893,-0.23989,-0.078429
81,1.0019725,0.68059,-0.0693375,0.8650945,0.48287,-0.0577275,0.7475244999999999,0.71195,-0.1333375,1.1371845,0.492884,-0.0547275,1.2281245,0.70085,-0.1293975,0.6830445,0.95784,-0.2279574999999999,1.2899445,0.94447,-0.2286375,0.9214495,-0.00029,0.0013255,1.0785505,0.00029,-0.0013254999999999,0.8083145,0.00917,-0.3001375,1.1549045,9.00000000000345e-05,-0.3186975,0.8522445000000001,-0.24897,-0.0791675,1.1304044999999998,-0.2401999999999999,-0.0787374999999999
82,1.001984,0.6812349999999999,-0.069155,0.865383,0.482778,-0.057445,0.7478830000000001,0.712815,-0.133255,1.137563,0.4924769999999999,-0.054485,1.229173,0.7004049999999999,-0.129115,0.683523,0.958585,-0.227545,1.290683,0.943675,-0.228175,0.921381,-0.000205,0.0011409999999999,1.078619,0.000205,-0.001141,0.808763,0.007915,-0.3002249999999999,1.155243,-0.001025,-0.318515,0.853003,-0.249615,-0.078875,1.130793,-0.240875,-0.078795
83,1.00189,0.68222,-0.0688999999999999,0.8649490000000001,0.4822040000000001,-0.0570499999999999,0.7482390000000001,0.71367,-0.1326999999999999,1.137509,0.491624,-0.0537999999999999,1.229629,0.6980600000000001,-0.12872,0.6840189999999999,0.95846,-0.22686,1.2911489999999999,0.94069,-0.2276599999999999,0.921329,-0.0002399999999999,0.000978,1.078671,0.00024,-0.0009779999999999,0.8092090000000001,0.00429,-0.30025,1.155609,-0.0043999999999999,-0.31828,0.854109,-0.25276,-0.0782199999999999,1.1312389999999999,-0.2440699999999999,-0.07868
84,1.0016174999999998,0.68276,-0.0687065,0.8641814999999999,0.481569,-0.0566965,0.7486515,0.71357,-0.1330765,1.1372815,0.491069,-0.0529064999999999,1.2298915,0.7008300000000001,-0.1281565,0.6844815,0.95815,-0.2266965,1.2914715,0.94359,-0.2268065,0.9212775,-0.0002699999999999,0.0007964999999999,1.0787225,0.0002699999999999,-0.0007965,0.8095515,-0.00129,-0.3000865,1.1556715,-0.00939,-0.3178665,0.8553815,-0.25786,-0.0777165,1.1317015,-0.2497199999999999,-0.0784665
85,1.0011789999999998,0.68341,-0.068226,0.863201,0.481118,-0.056156,0.748881,0.7138800000000001,-0.133136,1.136951,0.490276,-0.051776,1.229921,0.7011499999999999,-0.127066,0.684871,0.95613,-0.226386,1.2915510000000001,0.94416,-0.225376,0.921312,-0.0003699999999999,0.0007979999999999,1.078688,0.0003699999999999,-0.000798,0.810271,-0.00843,-0.299786,1.155681,-0.0158,-0.316976,0.856731,-0.2652299999999999,-0.076866,1.132181,-0.25765,-0.078066
86,1.0004709999999999,0.68449,-0.0675935,0.862134,0.48042,-0.0555735,0.749124,0.71304,-0.1326735,1.136414,0.489499,-0.0504235,1.229214,0.69986,-0.1252235,0.6853739999999999,0.95548,-0.2256835,1.291304,0.94324,-0.2228735,0.921266,-0.0004399999999999,0.0007444999999999,1.078734,0.0004399999999999,-0.0007445,0.811144,-0.01666,-0.2995135,1.155674,-0.0234199999999999,-0.3154435,0.857934,-0.2739899999999999,-0.0760435,1.132394,-0.26671,-0.0777535
87,0.9998545,0.686025,-0.0665419999999999,0.8610515,0.4798,-0.0548619999999999,0.7492015000000001,0.7134050000000001,-0.132202,1.1358315,0.488846,-0.0487819999999999,1.2290815,0.699075,-0.122972,0.6860015000000002,0.956045,-0.225142,1.2912314999999999,0.942575,-0.2202319999999999,0.9212625,-0.0004849999999999,0.000609,1.0787375,0.000485,-0.0006089999999999,0.8123914999999999,-0.0282749999999999,-0.298782,1.1556615,-0.0348349999999999,-0.312862,0.8593515,-0.2869849999999999,-0.075072,1.1326014999999998,-0.2818649999999999,-0.0773119999999999
88,0.999027,0.68767,-0.0651085,0.859592,0.479778,-0.0536485,0.749512,0.71448,-0.1315785,1.135092,0.487805,-0.0470685,1.228562,0.69753,-0.1206285,0.6867719999999999,0.95706,-0.2245184999999999,1.290802,0.94123,-0.2176284999999999,0.921254,-0.00044,0.0004635,1.078746,0.0004399999999999,-0.0004635,0.813582,-0.0423,-0.2978685,1.155382,-0.0487199999999999,-0.3096985,0.860652,-0.3033600000000001,-0.0740885,1.132512,-0.30112,-0.0762384999999999
89,0.9982445,0.689855,-0.0629075,0.8581485,0.480073,-0.0517374999999999,0.7496385,0.716315,-0.1305975,1.1343685,0.486642,-0.0448774999999999,1.2277585,0.695235,-0.1175874999999999,0.6874285,0.957435,-0.2235275,1.2903685,0.938595,-0.2141074999999999,0.9212655,-0.0004149999999999,0.0002595,1.0787345,0.000415,-0.0002594999999999,0.8149385,-0.0586949999999999,-0.2960374999999999,1.1549185,-0.064975,-0.3057775,0.8619685,-0.3231849999999999,-0.0726975,1.1325684999999999,-0.3239949999999999,-0.0742875
90,0.9975555,0.69196,-0.0603485,0.8565965,0.480687,-0.0492684999999999,0.7496365,0.71614,-0.1290784999999999,1.1336864999999998,0.486427,-0.0421484999999999,1.2268565,0.69737,-0.1142584999999999,0.6879265,0.9574,-0.2223585,1.2898465,0.94114,-0.2100284999999999,0.9212835,-0.0003199999999999,4.550000000000387e-05,1.0787165,0.00032,-4.549999999998999e-05,0.8162865,-0.0759999999999999,-0.2934285,1.1540765,-0.08071,-0.3006685,0.8631465,-0.3449599999999999,-0.0709984999999999,1.1327565,-0.34816,-0.0725684999999999
91,0.9970055,0.69466,-0.057266,0.8551085,0.481147,-0.0466059999999999,0.7496484999999999,0.71416,-0.127156,1.1330885,0.48574,-0.0391559999999999,1.2259985,0.6983699999999999,-0.110766,0.6884585,0.95558,-0.220406,1.2894885,0.94241,-0.204406,0.9213115000000001,-0.0002699999999999,-0.0001819999999999,1.0786885,0.0002699999999999,0.000182,0.8178685,-0.09336,-0.2894059999999999,1.1530885,-0.0973,-0.295276,0.8641985,-0.36845,-0.0691759999999999,1.1327684999999998,-0.37362,-0.070386
92,0.9967830000000001,0.697055,-0.0535715,0.854397,0.4832749999999999,-0.0431515,0.750287,0.7162649999999999,-0.1240515,1.133127,0.4855549999999999,-0.0360015,1.226547,0.699085,-0.1066115,0.689527,0.958475,-0.2179515,1.290097,0.943635,-0.1985015,0.9215409999999999,-5.500000000002725e-05,-0.0002015,1.078459,5.499999999997174e-05,0.0002014999999999,0.8199069999999999,-0.110365,-0.2832715,1.152077,-0.115385,-0.2894314999999999,0.864787,-0.3939950000000001,-0.0669115,1.133007,-0.4008750000000001,-0.0677115
93,0.9966960000000001,0.69946,-0.049388,0.853916,0.48512,-0.0389979999999999,0.7509760000000001,0.71495,-0.117538,1.133286,0.48582,-0.032208,1.2273859999999999,0.6933,-0.101958,0.690836,0.95571,-0.214468,1.2904360000000001,0.9368,-0.191788,0.922165,0.00015,-0.000181,1.077835,-0.0001499999999999,0.000181,0.822106,-0.1298499999999999,-0.275358,1.150616,-0.1352699999999999,-0.281848,0.8654660000000001,-0.42291,-0.065108,1.1332659999999999,-0.4303899999999999,-0.064138
94,0.9967845,0.702375,-0.0451885,0.8535585,0.486675,-0.0348385,0.7512885,0.7139949999999999,-0.1133185,1.1339985,0.486155,-0.0283685,1.2287185,0.693335,-0.0972485,0.6915585,0.955155,-0.2103785,1.2912285,0.936495,-0.1855885,0.9227985,0.000255,-6.849999999999912e-05,1.0772015,-0.000255,6.849999999999912e-05,0.8240085,-0.1470949999999999,-0.2670285,1.1489485,-0.153275,-0.2740985,0.8661485,-0.449235,-0.0624484999999999,1.1331685,-0.4574149999999999,-0.0606685
95,0.997317,0.705605,-0.0407045,0.853151,0.489585,-0.0302545,0.751901,0.711915,-0.1079745,1.134961,0.486475,-0.0245265,1.231171,0.696965,-0.0927445,0.6925410000000001,0.949185,-0.2060445,1.292911,0.940155,-0.1801045,0.923503,0.000445,0.0001234999999999,1.076497,-0.000445,-0.0001234999999999,0.826121,-0.166525,-0.2569445,1.146991,-0.172915,-0.2646345,0.867081,-0.477705,-0.0596945,1.1329609999999999,-0.4882350000000001,-0.0566944999999999
96,0.9984880000000002,0.70911,-0.035827,0.853147,0.49276,-0.025147,0.753007,0.70963,-0.102177,1.136407,0.48671,-0.0205059999999999,1.232687,0.6959299999999999,-0.088157,0.693997,0.94633,-0.201267,1.294937,0.93958,-0.174597,0.924615,0.00053,0.000197,1.075385,-0.00053,-0.000197,0.828827,-0.18774,-0.243877,1.145147,-0.19345,-0.252377,0.867927,-0.5074000000000001,-0.0568469999999999,1.133087,-0.5185299999999999,-0.052467
97,0.9999245,0.7103950000000001,-0.0261364999999999,0.8533045000000001,0.492405,-0.0161665,0.7532145,0.708855,-0.0921765,1.1383945,0.488185,-0.0119374999999999,1.2347945,0.6985650000000001,-0.0793265,0.6934345,0.945145,-0.1922565,1.2976345,0.942295,-0.1645565,0.9256795,0.000595,0.0001025,1.0743205,-0.0005949999999999,-0.0001024999999999,0.8338145000000001,-0.212825,-0.2208264999999999,1.1417645,-0.218105,-0.2295565,0.8689645,-0.540575,-0.0465265,1.1331145,-0.5518749999999999,-0.0409065
98,1.001487,0.711505,-0.0171645,0.8535,0.492865,-0.0077535,0.75295,0.708515,-0.0825645,1.14044,0.489695,-0.0038305,1.23759,0.701795,-0.0711845,0.69228,0.945025,-0.1832045,1.30085,0.946255,-0.1553245,0.9267690000000001,0.0006249999999999,-1.4500000000000624e-05,1.0732309999999998,-0.0006249999999999,1.4500000000000624e-05,0.83907,-0.235865,-0.1980845,1.13843,-0.240435,-0.2061245,0.8700600000000001,-0.570875,-0.0365145,1.1334,-0.582105,-0.0299345
99,1.0030825,0.7131500000000001,-0.008212,0.8538304999999999,0.4937,0.0002899999999999,0.7522905000000001,0.70968,-0.073362,1.1426505,0.49036,0.0036639999999999,1.2407205000000001,0.7015,-0.063542,0.6912405000000001,0.94373,-0.174132,1.3038905,0.94589,-0.146732,0.9278135,0.0006899999999999,-0.000136,1.0721865,-0.00069,0.0001359999999999,0.8447105,-0.2578,-0.174542,1.1353705,-0.2631099999999999,-0.182082,0.8715105000000001,-0.59924,-0.026442,1.1336905,-0.6115999999999999,-0.018602
100,1.0045975,0.7143849999999999,0.00035,0.8542225000000001,0.494935,0.0080419999999999,0.7516925,0.713255,-0.064495,1.1448125,0.491485,0.0107219999999999,1.2438425,0.703305,-0.056325,0.6902825,0.944765,-0.165845,1.3068225,0.947605,-0.139705,0.9287755,0.000842,-0.0002329999999999,1.0712245,-0.0008419999999999,0.0002329999999999,0.8501725,-0.278925,-0.151795,1.1325625,-0.2840749999999999,-0.157995,0.8730025000000001,-0.625715,-0.016535,1.1341825,-0.639705,-0.0072149999999999
101,1.005849,0.7158835,0.0084829999999999,0.8545330000000001,0.4949435,0.0149569999999999,0.750733,0.7129735,-0.056865,1.1468530000000001,0.4922435,0.0171279999999999,1.246933,0.7068735,-0.049615,0.688463,0.9419735,-0.158345,1.309653,0.9515035,-0.133235,0.929391,0.0009595,-0.000505,1.070609,-0.0009595,0.0005049999999999,0.855133,-0.2982065,-0.129775,1.129743,-0.3018465,-0.133655,0.873963,-0.6480064999999999,-0.006965,1.134523,-0.6640364999999999,0.0035049999999999
102,1.006612,0.7173299999999999,0.016497,0.8544970000000001,0.4956,0.021343,0.749347,0.7163299999999999,-0.05025,1.148317,0.49188,0.022582,1.248857,0.7110399999999999,-0.04306,0.685947,0.9448,-0.1504,1.3116970000000001,0.95661,-0.12722,0.929789,0.0011569999999999,-0.0007899999999999,1.070211,-0.001157,0.0007899999999999,0.859847,-0.31394,-0.10855,1.127107,-0.31708,-0.11009,0.874507,-0.66595,0.00264,1.134337,-0.6843,0.014831
103,1.007257,0.7178565,0.024422,0.8542190000000001,0.4959365,0.027254,0.747769,0.7186665,-0.0436749999999999,1.149639,0.4915865,0.027606,1.250769,0.7116264999999999,-0.0369849999999999,0.683529,0.9473065,-0.143055,1.3137889999999999,0.9572965,-0.121455,0.930124,0.0014175,-0.001055,1.069876,-0.0014175,0.001055,0.864559,-0.3308135,-0.087095,1.124579,-0.3329135,-0.086515,0.875009,-0.6845335,0.0122349999999999,1.134179,-0.7043735,0.025749
104,1.0077155,0.717463,0.032044,0.8539745,0.4949829999999999,0.032498,0.7459445,0.723193,-0.037785,1.1506945,0.491283,0.032277,1.2521145,0.709803,-0.0311449999999999,0.6808145,0.954083,-0.135885,1.3156744999999999,0.955373,-0.1159849999999999,0.9303095,0.001555,-0.001235,1.0696905,-0.0015549999999999,0.001235,0.8690245,-0.344667,-0.066705,1.1223045,-0.346027,-0.064165,0.8754245,-0.699607,0.021842,1.1338345,-0.719427,0.035899
105,1.00812,0.7163395,0.0388589999999999,0.853656,0.4934195,0.037497,0.743926,0.7266495000000001,-0.03261,1.151806,0.4912195,0.037149,1.2526760000000001,0.7120895,-0.02634,0.6778759999999999,0.9567695,-0.12921,1.316206,0.9573295,-0.11148,0.9303669999999999,0.0016735,-0.00132,1.069633,-0.0016734999999999,0.00132,0.8730760000000001,-0.3534405,-0.04919,1.1207859999999998,-0.3545705,-0.04528,0.875646,-0.7091605,0.0309259999999999,1.133436,-0.7289905,0.045376
106,1.008324,0.7173780000000001,0.042529,0.853348,0.494558,0.040297,0.743448,0.7277279999999999,-0.0296799999999999,1.151948,0.490488,0.039908,1.253038,0.711328,-0.0237899999999999,0.676918,0.957428,-0.12513,1.316578,0.956668,-0.1084899999999999,0.930455,0.0017089999999999,-0.00132,1.069545,-0.001709,0.00132,0.8752380000000001,-0.355962,-0.0387199999999999,1.121018,-0.356552,-0.03504,0.875668,-0.7116819999999999,0.034568,1.133208,-0.732132,0.0487949999999999
107,1.008488,0.717978,0.0465219999999999,0.853101,0.494408,0.0435459999999999,0.743301,0.7275980000000001,-0.027035,1.152041,0.489798,0.0428699999999999,1.253451,0.710828,-0.020575,0.676211,0.957968,-0.121755,1.316921,0.956208,-0.105375,0.930592,0.0017929999999999,-0.001325,1.069408,-0.001793,0.0013249999999999,0.8773110000000001,-0.357912,-0.027795,1.121181,-0.358292,-0.0252249999999999,0.8757610000000001,-0.713822,0.0382629999999999,1.132971,-0.7346119999999999,0.0523989999999999
108,1.0081725,0.71782,0.050548,0.8526195,0.49372,0.046763,0.7429395000000001,0.72683,-0.02412,1.1518395,0.48939,0.046086,1.2536595,0.7104,-0.0170799999999999,0.6753995000000002,0.95907,-0.1183799999999999,1.3170095,0.95588,-0.1022899999999999,0.9301505,0.0017689999999999,-0.0013099999999999,1.0698495,-0.0017689999999999,0.00131,0.8787495,-0.35997,-0.01785,1.1210095,-0.35974,-0.0166899999999999,0.8757195,-0.71525,0.0417,1.1324995,-0.73616,0.055352
109,1.007676,0.717236,0.0524909999999999,0.851892,0.492846,0.0479659999999999,0.7423919999999999,0.725866,-0.02165,1.1514319999999998,0.489226,0.0474479999999999,1.253722,0.7100460000000001,-0.01561,0.674482,0.960146,-0.11585,1.316812,0.955536,-0.10071,0.929703,0.001736,-0.00124,1.070297,-0.0017359999999999,0.0012399999999999,0.879952,-0.360934,-0.01031,1.120752,-0.360324,-0.0109,0.875452,-0.716424,0.0428049999999999,1.131842,-0.737394,0.0557389999999999
110,1.0069735,0.7165499999999999,0.0537989999999999,0.8509725,0.49216,0.049052,0.7416525,0.7251799999999999,-0.0199649999999999,1.1509525,0.4894,0.0487999999999999,1.2537425,0.7098,-0.014925,0.6734825000000001,0.96117,-0.113835,1.3168825,0.9552,-0.099865,0.9293505,0.001615,-0.001235,1.0706495,-0.0016149999999999,0.001235,0.8808125,-0.36162,-0.004445,1.1205625,-0.36063,-0.007235,0.8749625,-0.7173400000000001,0.042862,1.1309825,-0.73829,0.0552439999999999
111,1.0059945,0.7162485,0.054654,0.8499035,0.4918685,0.049712,0.7406135,0.7248785,-0.0189499999999999,1.1503535,0.4899985,0.050109,1.2536835,0.7098585,-0.01506,0.6723435,0.9620485,-0.11285,1.3171335,0.9551385,-0.0997899999999999,0.9291605000000001,0.0014484999999999,-0.00118,1.0708395,-0.0014485,0.00118,0.8812235,-0.3621515,0.0001299999999999,1.1204435,-0.3607115,-0.00508,0.8740335000000001,-0.7178415,0.041877,1.1300235,-0.7386115,0.053419
112,1.004805,0.716032,0.0549859999999999,0.8488169999999999,0.4916719999999999,0.0504339999999999,0.739437,0.724782,-0.01857,1.149677,0.490632,0.0511199999999999,1.253457,0.7098720000000001,-0.01574,0.671207,0.962802,-0.11234,1.3172169999999999,0.955032,-0.10023,0.929005,0.00127,-0.0012,1.070995,-0.00127,0.0011999999999999,0.881297,-0.362848,0.0035699999999999,1.120297,-0.360808,-0.00378,0.8730169999999999,-0.718368,0.0400159999999999,1.128887,-0.7388279999999999,0.0511579999999999
113,1.003628,0.7155885,0.0549715,0.847837,0.4913185,0.0511115,0.738347,0.7241985,-0.0184644999999999,1.149087,0.4912984999999999,0.0518925,1.253217,0.7098785,-0.0166245,0.670187,0.9633385,-0.1122745,1.317097,0.9549285,-0.1008244999999999,0.928897,0.0011064999999999,-0.0012844999999999,1.071103,-0.0011064999999999,0.0012845,0.881257,-0.3639715,0.0060165,1.120167,-0.3610915,-0.0034845,0.872077,-0.7188515,0.0376705,1.127837,-0.7390015,0.0486645
114,1.0026745,0.714819,0.0546344999999999,0.8471045,0.4906589999999999,0.0510734999999999,0.7374745,0.723449,-0.0187745,1.1486945,0.491699,0.0516115,1.2531345,0.709549,-0.0176344999999999,0.6694345000000002,0.963439,-0.1124245,1.3168045,0.954539,-0.1019844999999999,0.9287385,0.0009769999999999,-0.0013704999999999,1.0712615,-0.0009769999999999,0.0013704999999999,0.8812745,-0.365051,0.0074484999999999,1.1202445,-0.361271,-0.0036805,0.8714045,-0.7192810000000001,0.0352904999999999,1.1271145,-0.739021,0.0460794999999999
115,1.0022145,0.7142595,0.0540574999999999,0.8468735000000001,0.4901795,0.0505565,0.7371935000000001,0.7229195,-0.0192425,1.1485835,0.4917895,0.0504465,1.2536035,0.7091395,-0.0197625,0.6691435,0.9633695,-0.1129125,1.3166134999999999,0.9542295,-0.1058525,0.9286645,0.0008554999999999,-0.0014115,1.0713355,-0.0008554999999999,0.0014114999999999,0.8812135,-0.3657605,0.0076624999999999,1.1205635,-0.3615605,-0.0044925,0.8709935,-0.7195404999999999,0.0323394999999999,1.1268235,-0.7389505,0.0432204999999999
116,1.0016345,0.713893,0.0530259999999999,0.8466915,0.489903,0.0497149999999999,0.7364014999999999,0.7225630000000001,-0.019812,1.1485414999999999,0.491803,0.0492209999999999,1.2540615,0.7088230000000001,-0.023102,0.6685315000000001,0.963383,-0.113472,1.3164814999999999,0.954003,-0.110062,0.9286615,0.0007759999999999,-0.001494,1.0713385,-0.0007759999999999,0.0014939999999999,0.8811815000000001,-0.366167,0.0068489999999999,1.1207415,-0.361767,-0.005832,0.8706615,-0.719707,0.0293659999999999,1.1266415,-0.7386569999999999,0.0402289999999999
117,1.0008724999999998,0.7135455,0.0515479999999999,0.8464075,0.4897255,0.0489389999999999,0.7348775000000001,0.7221255,-0.020352,1.1485075,0.4918655,0.0479509999999999,1.2544275,0.7085555,-0.027092,0.6676475,0.9634455,-0.114102,1.3163574999999998,0.9537955,-0.114032,0.9286645,0.0007134999999999,-0.001408,1.0713355,-0.0007134999999999,0.0014079999999999,0.8811375000000001,-0.3664345,0.0053949999999999,1.1206875,-0.3619345,-0.007453,0.8702575000000001,-0.7197344999999999,0.0262689999999999,1.1265175,-0.7383244999999999,0.0372779999999999
118,0.9995590000000001,0.7131784999999999,0.04924,0.8445690000000001,0.4892584999999999,0.048998,0.730289,0.7188884999999999,-0.0205479999999999,1.148179,0.4919084999999999,0.046314,1.255229,0.7072585,-0.030918,0.665799,0.9563485,-0.113858,1.313799,0.9499485,-0.1177579999999999,0.928557,0.0005705,-0.00132,1.071443,-0.0005705,0.00132,0.881109,-0.3667315,0.0033009999999999,1.120749,-0.3621315,-0.0089879999999999,0.8698890000000001,-0.7196615000000001,0.023078,1.1265290000000001,-0.7379215,0.034401
119,0.9980980000000002,0.7128859999999999,0.0467005,0.842698,0.488976,0.0492785,0.724138,0.713556,-0.0207424999999999,1.147788,0.4920159999999999,0.0441545,1.257728,0.7032959999999999,-0.0340184999999999,0.663558,0.945176,-0.1139284999999999,1.311268,0.943296,-0.1209684999999999,0.928387,0.0003249999999999,-0.0010314999999999,1.071613,-0.0003249999999999,0.0010315,0.8810880000000001,-0.366984,0.0007065,1.121318,-0.362244,-0.0098204999999999,0.870058,-0.7194440000000001,0.0203665,1.127028,-0.737464,0.0321645
