sb224sc-HT22-VT27/4dt907/src/data/kinect_good_preprocessed_A9_mediapipe/A144_kinect.csv
FrameNo,nose_3d_x,nose_3d_y,nose_3d_z,left_shoulder_3d_x,left_shoulder_3d_y,left_shoulder_3d_z,left_elbow_3d_x,left_elbow_3d_y,left_elbow_3d_z,right_shoulder_3d_x,right_shoulder_3d_y,right_shoulder_3d_z,right_elbow_3d_x,right_elbow_3d_y,right_elbow_3d_z,left_wrist_3d_x,left_wrist_3d_y,left_wrist_3d_z,right_wrist_3d_x,right_wrist_3d_y,right_wrist_3d_z,left_hip_3d_x,left_hip_3d_y,left_hip_3d_z,right_hip_3d_x,right_hip_3d_y,right_hip_3d_z,left_knee_3d_x,left_knee_3d_y,left_knee_3d_z,right_knee_3d_x,right_knee_3d_y,right_knee_3d_z,left_ankle_3d_x,left_ankle_3d_y,left_ankle_3d_z,right_ankle_3d_x,right_ankle_3d_y,right_ankle_3d_z
46,-0.0038664999999999984,0.71401,0.0316325,-0.14240049999999999,0.49948,0.0427545,-0.2248405,0.74949,0.0271575,0.1449195,0.48050999999999994,0.0356025,0.2291895,0.7306400000000001,0.0184825,-0.2625005,0.98018,0.0168135,0.27773950000000003,0.9893800000000001,-0.003306499999999997,-0.0723355,-0.00020000000000000573,0.003423500000000003,0.0723355,0.0001999999999999988,-0.003423500000000003,-0.1236805,-0.36479,-0.015269499999999998,0.1237395,-0.37116,0.0029344999999999996,-0.1340605,-0.73332,0.0075485,0.1463295,-0.71897,0.0292275
47,-0.0038710000000000016,0.7140115,0.030806000000000004,-0.1426,0.4994815,0.04222,-0.22547999999999999,0.7494515,0.024603000000000003,0.14475000000000002,0.4805115,0.035152,0.23015,0.7305915000000001,0.016597000000000004,-0.2625,0.9791814999999999,0.012089000000000003,0.28039000000000003,0.9888815,-0.0078109999999999985,-0.072434,-0.00019850000000000423,0.0034240000000000034,0.072434,0.0001984999999999973,-0.0034239999999999965,-0.12345,-0.3649985,-0.017110999999999994,0.12456999999999999,-0.3737085,-0.0002849999999999936,-0.1343,-0.7333185,0.006822000000000002,0.14611000000000002,-0.7202585,0.028130000000000002
48,-0.003911500000000002,0.7140115,0.029789499999999997,-0.14281850000000001,0.4994815,0.04164349999999999,-0.2261585,0.7494415,0.021538499999999995,0.1445615,0.4805115,0.0346955,0.2310915,0.7305215,0.014415499999999994,-0.26259849999999996,0.9777815000000001,0.006741499999999994,0.2829515,0.9880815000000001,-0.013273500000000008,-0.0725225,-0.00019850000000000423,0.003418499999999998,0.0725225,0.0001984999999999973,-0.003418500000000005,-0.12332850000000001,-0.3656285,-0.0195815,0.1255415,-0.3763485,-0.003921500000000008,-0.1344385,-0.7333385,0.0059494999999999965,0.1458715,-0.7216585,0.026647499999999998
49,-0.0040530000000000045,0.7138715,0.028187999999999998,-0.143171,0.4994815,0.04112,-0.226401,0.7493515000000001,0.017872,0.144259,0.4805115,0.034321,0.232159,0.7300715,0.011473999999999998,-0.262641,0.9756815000000001,0.0004119999999999957,0.28469900000000004,0.9871814999999999,-0.018917000000000003,-0.072632,-0.00019850000000000423,0.0034439999999999957,0.072632,0.0001984999999999973,-0.0034440000000000026,-0.12358100000000001,-0.3663685,-0.023778,0.12664899999999998,-0.37910849999999996,-0.008870000000000003,-0.134681,-0.7334784999999999,0.004806999999999999,0.145729,-0.7233085,0.024888
50,-0.004136999999999999,0.7129230000000001,0.026140000000000004,-0.143548,0.499663,0.040451,-0.226658,0.7492530000000001,0.013666000000000001,0.143972,0.48055299999999995,0.033696000000000004,0.233242,0.729523,0.008081000000000001,-0.26277799999999996,0.973533,-0.006044000000000001,0.286612,0.9863330000000001,-0.025075,-0.07273,-0.00020699999999999885,0.0034390000000000046,0.07273,0.00020699999999999885,-0.0034389999999999976,-0.12375799999999999,-0.367827,-0.029450000000000004,0.127952,-0.381677,-0.015632,-0.134818,-0.733567,0.0034129999999999994,0.145692,-0.7248169999999999,0.022692000000000004
51,-0.003982500000000002,0.7113355,0.023567999999999995,-0.1437695,0.49964549999999996,0.03949,-0.2268195,0.7488755,0.008880999999999997,0.1437805,0.48069550000000005,0.032917999999999996,0.2343505,0.7289655,0.003976999999999994,-0.2627795,0.9718655,-0.013167000000000005,0.28838050000000004,0.9855655000000001,-0.03165000000000001,-0.07291249999999999,-0.00022749999999999854,0.0034299999999999956,0.07291249999999999,0.00022749999999999854,-0.0034300000000000025,-0.12380949999999999,-0.3695345,-0.03647600000000001,0.1293905,-0.38372449999999997,-0.023894000000000006,-0.13485950000000002,-0.7332744999999999,0.0014819999999999972,0.14578049999999998,-0.7258344999999999,0.019964999999999997
52,-0.0037914999999999976,0.709755,0.020304000000000003,-0.1428215,0.498325,0.037385,-0.22674149999999998,0.7472449999999999,0.003571999999999999,0.14362850000000002,0.48002500000000003,0.030742000000000002,0.23559850000000002,0.727965,-0.0005980000000000013,-0.2625715,0.9725349999999999,-0.021447999999999995,0.2902785,0.984235,-0.03917999999999999,-0.07321549999999999,-0.00033600000000000296,0.0033100000000000004,0.07321549999999999,0.000335999999999996,-0.0033100000000000004,-0.1238415,-0.37090500000000004,-0.046422000000000005,0.1312685,-0.384545,-0.035178,-0.1350615,-0.7307750000000001,-0.0010770000000000016,0.14587850000000002,-0.724225,0.016223
53,-0.0034265000000000007,0.707504,0.0170675,-0.1416385,0.4970340000000001,0.0353655,-0.2263385,0.7456240000000001,-0.0013854999999999978,0.14364149999999998,0.47950400000000004,0.028812499999999998,0.2371315,0.726794,-0.005340499999999998,-0.2619785,0.974154,-0.029367500000000005,0.2919715,0.9826540000000001,-0.048131499999999994,-0.0735155,-0.00031599999999999684,0.003199500000000001,0.0735155,0.0003160000000000038,-0.003199500000000001,-0.1238985,-0.371436,-0.0574905,0.1333415,-0.38442600000000005,-0.047035499999999994,-0.1351985,-0.726926,-0.003447499999999999,0.1462115,-0.7211059999999999,0.012469500000000001
54,-0.0031389999999999964,0.705226,0.014615,-0.140619,0.495826,0.033886,-0.22574899999999998,0.7441559999999999,-0.005664000000000002,0.143931,0.47931599999999996,0.027356,0.238401,0.726106,-0.009392000000000005,-0.261349,0.9740059999999999,-0.0369,0.292551,0.9791159999999999,-0.053511,-0.073736,-0.0002449999999999987,0.0030849999999999975,0.073736,0.00024500000000000216,-0.0030850000000000044,-0.12445899999999999,-0.370084,-0.070157,0.13540100000000002,-0.38163400000000003,-0.05942700000000001,-0.13544899999999999,-0.7200840000000001,-0.005476000000000002,0.146451,-0.713514,0.009378999999999998
55,-0.002812999999999998,0.7026384999999999,0.012195499999999998,-0.13949,0.49446850000000003,0.0325985,-0.22498,0.7424385,-0.010548500000000002,0.14431,0.4785085,0.0257655,0.23974,0.7249085,-0.013532500000000003,-0.26054,0.9762885,-0.0442005,0.2931,0.9705685,-0.0599515,-0.073974,-0.00023450000000000033,0.0027275000000000008,0.073974,0.00023450000000000033,-0.0027275000000000008,-0.12519999999999998,-0.3664615,-0.08384150000000001,0.13729000000000002,-0.3750215,-0.0725015,-0.1356,-0.7100915,-0.007442499999999998,0.14643,-0.7025715,0.005350500000000001
56,-0.002262000000000004,0.69989,0.010099999999999998,-0.138292,0.49349,0.031483,-0.22401200000000002,0.73813,-0.014408999999999998,0.144888,0.47784,0.024461,0.24115799999999998,0.72394,-0.017045000000000005,-0.259582,0.97631,-0.050494,0.293958,0.9640099999999999,-0.06523,-0.074019,-0.000199,0.0025550000000000017,0.074019,0.000199,-0.0025550000000000017,-0.126212,-0.36107,-0.09730000000000001,0.139358,-0.36658,-0.08541,-0.135592,-0.69831,-0.008726999999999999,0.146648,-0.6895600000000001,0.002031999999999999
57,-0.0016624999999999986,0.6960345,0.008451499999999994,-0.13707249999999999,0.4923445,0.030597499999999993,-0.2230625,0.7353845,-0.017288500000000012,0.1455875,0.4781245,0.023782499999999995,0.2429275,0.7230045,-0.0209545,-0.2586425,0.9757145,-0.057732500000000006,0.29474750000000005,0.9597045,-0.0699525,-0.0740165,-0.00020750000000000282,0.0024804999999999966,0.0740165,0.00020749999999999935,-0.0024805000000000035,-0.1279725,-0.3535755,-0.1113525,0.1416475,-0.3574655,-0.09947250000000002,-0.1359925,-0.6841655,-0.009742500000000008,0.1468275,-0.6737555,-0.0013615000000000085
58,-0.0012050000000000034,0.6933255,0.007897000000000008,-0.135684,0.49064549999999996,0.030098000000000007,-0.22201400000000002,0.7318955,-0.019313999999999998,0.14646599999999999,0.4766955,0.023076000000000006,0.243916,0.7214155,-0.02349799999999999,-0.257694,0.9769555000000001,-0.06256199999999999,0.29508599999999996,0.9571455000000001,-0.074532,-0.074187,-0.00010650000000000243,0.0023360000000000047,0.074187,0.00010649999999999549,-0.002335999999999998,-0.130334,-0.34437450000000003,-0.123822,0.143766,-0.3466945,-0.11243199999999999,-0.136574,-0.6678244999999999,-0.009487999999999996,0.146866,-0.6562045,-0.0038589999999999944
59,-0.0006544999999999949,0.690845,0.007735000000000006,-0.1340815,0.489505,0.03001700000000001,-0.2206815,0.729175,-0.02071999999999999,0.1474385,0.475985,0.02262100000000001,0.2456185,0.720465,-0.025803999999999994,-0.25740149999999995,0.979045,-0.06684499999999999,0.2957685,0.955895,-0.078875,-0.0746005,-5.999999999999062e-06,0.002265000000000003,0.0746005,5.999999999999062e-06,-0.0022649999999999892,-0.1327015,-0.333795,-0.135605,0.1460785,-0.335785,-0.12506499999999998,-0.1371015,-0.6500049999999999,-0.008721999999999994,0.1470485,-0.637125,-0.006451999999999999
60,9.899999999999926e-05,0.6879565000000001,0.0030414999999999956,-0.132218,0.4897365,0.0257405,-0.218958,0.7267665000000001,-0.0266415,0.148192,0.4750165,0.0174435,0.247192,0.7185465,-0.0327105,-0.256428,0.9807665000000001,-0.07533949999999999,0.29572200000000004,0.9539664999999999,-0.0877295,-0.075072,6.849999999999912e-05,0.0018934999999999994,0.075072,-6.849999999999912e-05,-0.0018935000000000063,-0.134778,-0.3226835,-0.1512795,0.148642,-0.3234835,-0.1414495,-0.137558,-0.6314835000000001,-0.012357500000000007,0.147372,-0.6174535000000001,-0.013027499999999997
61,0.0006690000000000012,0.6869149999999999,-0.0019560000000000133,-0.131571,0.488585,0.02030599999999999,-0.21826099999999998,0.725975,-0.032824000000000006,0.14875899999999997,0.474335,0.012272999999999992,0.24871899999999997,0.717795,-0.039581000000000005,-0.256121,0.980455,-0.08319100000000001,0.296629,0.953175,-0.096111,-0.075339,4.500000000000337e-05,0.0016109999999999874,0.075339,-4.500000000000337e-05,-0.0016110000000000013,-0.13677099999999998,-0.307375,-0.165141,0.15091900000000003,-0.307885,-0.15738100000000002,-0.13822099999999998,-0.610595,-0.017503000000000005,0.146849,-0.597245,-0.01886800000000001
62,0.0012655000000000001,0.685225,-0.007393499999999997,-0.13083450000000002,0.487635,0.0148345,-0.21775450000000002,0.725205,-0.0395745,0.14930549999999998,0.473815,0.006947500000000002,0.2499455,0.717185,-0.046674499999999994,-0.2557445,0.979335,-0.0917345,0.2973655,0.952715,-0.1033045,-0.07565150000000001,-0.0001250000000000001,0.0015954999999999997,0.07565150000000001,0.0001250000000000001,-0.0015954999999999997,-0.13871450000000002,-0.292045,-0.1779845,0.1529555,-0.293005,-0.17237449999999999,-0.13885450000000002,-0.590175,-0.022667499999999993,0.14617549999999999,-0.577755,-0.02462249999999999
63,0.001920999999999999,0.6867,-0.013183999999999987,-0.13006500000000001,0.4868,0.008687000000000014,-0.217485,0.72297,-0.046317999999999984,0.149595,0.47406000000000004,0.001487000000000016,0.251215,0.71685,-0.05419799999999998,-0.25542499999999996,0.97939,-0.099298,0.298175,0.95542,-0.11210799999999999,-0.07602500000000001,4.000000000001225e-05,0.001576000000000008,0.07602500000000001,-3.999999999998449e-05,-0.001575999999999994,-0.14064500000000002,-0.27138999999999996,-0.192928,0.15542499999999998,-0.27366999999999997,-0.18790799999999996,-0.139565,-0.5654199999999999,-0.02683999999999999,0.14535499999999998,-0.55404,-0.029695999999999986
64,0.002656999999999998,0.686935,-0.018625500000000003,-0.12973400000000002,0.486885,0.0031474999999999975,-0.217234,0.721835,-0.0516195,0.149836,0.475515,-0.0030624999999999958,0.252456,0.715275,-0.06113950000000001,-0.255594,0.977465,-0.1080895,0.29932600000000004,0.960935,-0.12121950000000001,-0.076409,-5.4999999999999494e-05,0.0015565000000000023,0.076409,5.4999999999999494e-05,-0.0015565000000000023,-0.142324,-0.252205,-0.2059595,0.15778599999999998,-0.255965,-0.2010295,-0.140214,-0.543365,-0.030300500000000008,0.144416,-0.532625,-0.0328285
65,0.0033209999999999993,0.6870700000000001,-0.024446999999999997,-0.129612,0.48674,-0.0022950000000000054,-0.217062,0.72478,-0.057815000000000005,0.150058,0.47539,-0.007782999999999998,0.253518,0.71462,-0.06791499999999999,-0.256252,0.97573,-0.11747500000000001,0.300188,0.96563,-0.130845,-0.07674900000000001,1.9999999999992246e-05,0.0011670000000000014,0.07674900000000001,-2.0000000000020002e-05,-0.0011670000000000014,-0.143802,-0.23249999999999998,-0.21840499999999996,0.160388,-0.23803000000000002,-0.213955,-0.14081200000000002,-0.52085,-0.034065,0.143378,-0.51076,-0.036205
66,0.004076500000000004,0.68775,-0.031594,-0.1292625,0.4866,-0.008610999999999994,-0.2166825,0.72566,-0.066541,0.15040750000000003,0.47444,-0.013948000000000002,0.25464749999999997,0.713,-0.07552099999999999,-0.2575225,0.9763599999999999,-0.12611099999999997,0.3011875,0.9674400000000001,-0.141001,-0.0770695,0.00016999999999997573,0.000674000000000001,0.0770695,-0.00017000000000000348,-0.000673999999999994,-0.14482250000000002,-0.21095000000000003,-0.230981,0.16322750000000003,-0.21735,-0.226481,-0.14083249999999997,-0.49717000000000006,-0.038381,0.14246750000000002,-0.48794,-0.04022099999999999
67,0.0047984999999999955,0.6877599999999999,-0.0392535,-0.1284805,0.48744,-0.015475500000000003,-0.2156805,0.72802,-0.0755715,0.1507795,0.47517999999999994,-0.020298499999999997,0.25519949999999997,0.71323,-0.08380150000000001,-0.2582005,0.97551,-0.1373315,0.3022295,0.96822,-0.15175149999999998,-0.0774395,0.00020999999999998797,0.0004544999999999966,0.0774395,-0.00021000000000001573,-0.0004545000000000035,-0.14562049999999999,-0.19007000000000002,-0.24409149999999996,0.1663195,-0.19676000000000005,-0.23933149999999997,-0.1406105,-0.47413000000000005,-0.043901499999999996,0.1419895,-0.46479000000000004,-0.044741500000000003
68,0.0054009999999999996,0.6889350000000001,-0.047184000000000004,-0.127806,0.487695,-0.022899000000000003,-0.215286,0.7294050000000001,-0.085054,0.151134,0.475355,-0.02718100000000001,0.25619400000000003,0.713025,-0.092324,-0.258986,0.975685,-0.150264,0.30316400000000004,0.967815,-0.162864,-0.077818,0.0002750000000000252,5.9999999999997555e-05,0.077818,-0.0002749999999999697,-6.0000000000004494e-05,-0.146366,-0.168365,-0.25698400000000005,0.16919399999999998,-0.17543499999999995,-0.25114400000000003,-0.140466,-0.45084499999999994,-0.05010400000000001,0.141504,-0.441385,-0.049124
69,0.005856,0.690385,-0.055647,-0.127419,0.486525,-0.031310000000000004,-0.214979,0.730575,-0.094777,0.15115099999999998,0.475365,-0.034661,0.256431,0.7134149999999999,-0.101357,-0.260039,0.976125,-0.163697,0.303971,0.967675,-0.174807,-0.07813999999999999,0.0004149999999999987,-0.0003799999999999984,0.07813999999999999,-0.0004149999999999987,0.0003799999999999984,-0.14710900000000002,-0.14571500000000004,-0.270207,0.17202099999999998,-0.153945,-0.263237,-0.140349,-0.427115,-0.056776999999999994,0.140981,-0.417925,-0.054217
70,0.006106499999999997,0.690755,-0.064834,-0.1272425,0.48728499999999997,-0.03913200000000001,-0.2151225,0.7309349999999999,-0.10522400000000001,0.1505375,0.4755849999999999,-0.042304,0.2572875,0.7129049999999999,-0.11150400000000002,-0.2613225,0.9762149999999999,-0.177934,0.3047175,0.9645349999999999,-0.188114,-0.0784305,0.0007649999999999602,-0.0006870000000000001,0.0784305,-0.0007650000000000157,0.0006870000000000001,-0.1479825,-0.12476500000000001,-0.283614,0.1745575,-0.13271500000000003,-0.273964,-0.1403425,-0.404355,-0.06265400000000002,0.1406875,-0.394455,-0.06011400000000001
71,0.006232000000000005,0.690725,-0.0738625,-0.127161,0.48807500000000004,-0.0472755,-0.21548099999999998,0.7257750000000001,-0.11564250000000001,0.14981899999999998,0.475775,-0.0502865,0.25737899999999997,0.712365,-0.1217725,-0.262641,0.969965,-0.1917025,0.305309,0.961305,-0.2009425,-0.078528,0.0011249999999999871,-0.0010474999999999998,0.078528,-0.0011249999999999871,0.0010474999999999998,-0.148661,-0.104875,-0.29710250000000005,0.177029,-0.112485,-0.28473250000000005,-0.14037099999999997,-0.38229499999999994,-0.0689625,0.140359,-0.37180499999999994,-0.0658425
72,0.006111500000000001,0.68848,-0.07781,-0.1273135,0.48900999999999994,-0.04997,-0.2158135,0.72446,-0.12096,0.14926650000000002,0.47506,-0.053259,0.2574765,0.7114499999999999,-0.1266,-0.26387350000000004,0.96729,-0.20106999999999997,0.3057665,0.95953,-0.20822000000000002,-0.0784825,0.0010399999999999854,-0.0011800000000000005,0.0784825,-0.001040000000000041,0.0011800000000000005,-0.14906350000000002,-0.08963000000000004,-0.30141,0.17869649999999998,-0.09641000000000005,-0.28802,-0.1405535,-0.36478,-0.07114,0.13999650000000002,-0.3539,-0.06806
73,0.006011500000000003,0.686365,-0.08132349999999999,-0.1279305,0.48812300000000003,-0.0527055,-0.2166505,0.7225250000000001,-0.1263435,0.14870950000000002,0.474111,-0.0561295,0.2575595,0.712375,-0.13121349999999998,-0.2646705,0.964665,-0.20830349999999997,0.3063195,0.959725,-0.2135335,-0.0783835,0.0011750000000000371,-0.0013314999999999994,0.0783835,-0.0011749999999999816,0.0013314999999999994,-0.1494305,-0.07503499999999996,-0.3056335,0.1808595,-0.07916499999999999,-0.2913035,-0.1407405,-0.34738499999999994,-0.0733035,0.13979950000000002,-0.336545,-0.0702935
74,0.005775000000000006,0.68548,-0.083902,-0.128551,0.48822,-0.055129000000000004,-0.217551,0.72123,-0.130802,0.148119,0.474336,-0.058505999999999996,0.25770899999999997,0.71224,-0.135542,-0.26539100000000004,0.96658,-0.21450200000000003,0.306779,0.95933,-0.218372,-0.078262,0.0012399999999999634,-0.0014359999999999998,0.078262,-0.0012400000000000189,0.0014359999999999998,-0.149591,-0.060770000000000046,-0.30953200000000003,0.182979,-0.06213000000000002,-0.293782,-0.140931,-0.33007,-0.075542,0.139599,-0.31931,-0.07217200000000001
75,0.005517000000000006,0.6840649999999999,-0.08562399999999999,-0.129205,0.488629,-0.05712299999999999,-0.218385,0.7205250000000001,-0.13362400000000002,0.147635,0.474605,-0.060233999999999996,0.258045,0.712955,-0.137704,-0.265965,0.9661550000000001,-0.22009399999999996,0.307085,0.959635,-0.22233399999999998,-0.078146,0.0012550000000000061,-0.0014869999999999953,0.078146,-0.0012550000000000061,0.0014870000000000022,-0.149735,-0.050275000000000014,-0.31245399999999995,0.185045,-0.051634999999999986,-0.295234,-0.141145,-0.315985,-0.07757399999999999,0.139485,-0.308675,-0.07385399999999999
76,0.005467499999999998,0.68383,-0.0870825,-0.1294045,0.48798700000000006,-0.05874649999999999,-0.2189045,0.71977,-0.1360225,0.1472855,0.474746,-0.0614295,0.2582255,0.71264,-0.1394125,-0.26673450000000004,0.96181,-0.2238025,0.3077255,0.95909,-0.2253025,-0.07812150000000001,0.0012500000000000289,-0.0015724999999999975,0.07812150000000001,-0.0012499999999999734,0.0015725000000000044,-0.1495745,-0.039409999999999945,-0.31440250000000003,0.1872355,-0.04028999999999999,-0.29588250000000005,-0.1411145,-0.30179,-0.07910249999999999,0.1398455,-0.29811999999999994,-0.07491249999999999
77,0.005520499999999994,0.68318,-0.08823249999999999,-0.1295135,0.48754200000000003,-0.0604515,-0.2193435,0.71949,-0.1382125,0.1470265,0.475258,-0.062183499999999996,0.2588665,0.71233,-0.1406425,-0.2673935,0.95672,-0.2261425,0.3084765,0.9587100000000001,-0.2282025,-0.0780965,0.0012400000000000189,-0.0016924999999999996,0.0780965,-0.0012399999999999634,0.0016924999999999996,-0.1493235,-0.02953,-0.31590250000000003,0.18963649999999999,-0.029810000000000003,-0.29649250000000005,-0.1412435,-0.28884999999999994,-0.0803825,0.1402965,-0.28837,-0.07599249999999999
78,0.005541999999999995,0.68332,-0.089059,-0.129639,0.48769400000000007,-0.061863,-0.219499,0.71967,-0.140289,0.146721,0.475847,-0.062824,0.259321,0.71157,-0.141289,-0.26791899999999996,0.9521200000000001,-0.22824899999999998,0.309111,0.95781,-0.23045899999999997,-0.07803399999999999,0.0012000000000000344,-0.0018339999999999954,0.07803399999999999,-0.0011999999999999789,0.0018340000000000023,-0.14910900000000002,-0.020059999999999967,-0.317239,0.191941,-0.019649999999999945,-0.29699899999999996,-0.14150900000000002,-0.27659999999999996,-0.08155899999999999,0.140871,-0.27874999999999994,-0.076519
79,0.0056194999999999995,0.6825749999999999,-0.089377,-0.1298325,0.489035,-0.062445,-0.2201625,0.720645,-0.142157,0.1464175,0.476403,-0.063165,0.2599275,0.7112149999999999,-0.141577,-0.2685125,0.9479949999999999,-0.230087,0.3096075,0.959415,-0.231577,-0.0779205,0.0012449999999999961,-0.002023999999999998,0.0779205,-0.0012449999999999961,0.002024000000000005,-0.1488125,-0.01293500000000003,-0.31870699999999996,0.1940875,-0.012075000000000002,-0.297157,-0.1417525,-0.267375,-0.08262699999999999,0.1418175,-0.27187500000000003,-0.07668699999999999
80,0.0057345,0.68333,-0.0896875,-0.1299825,0.490263,-0.06285450000000001,-0.2206925,0.72715,-0.14387750000000002,0.14612750000000002,0.47679,-0.0634895,0.2606675,0.71126,-0.14184750000000002,-0.2692225,0.95072,-0.2315975,0.3111375,0.96079,-0.23243750000000002,-0.0777845,0.0013299999999999979,-0.0022174999999999973,0.0777845,-0.0013299999999999979,0.0022175000000000007,-0.1485625,-0.005799999999999972,-0.3200075,0.1962275,-0.0037800000000000056,-0.2970175,-0.14199250000000002,-0.25828,-0.08367749999999999,0.1428375,-0.26465999999999995,-0.0768575
81,0.005815499999999994,0.683215,-0.08980099999999999,-0.1300945,0.49104000000000003,-0.06298700000000002,-0.2214945,0.730985,-0.143971,0.1458055,0.47694600000000004,-0.06348700000000002,0.2614655,0.711015,-0.141931,-0.2700245,0.950885,-0.23275099999999999,0.3126755,0.960035,-0.232641,-0.0776405,0.0014450000000000296,-0.002248,0.0776405,-0.0014450000000000296,0.0022479999999999965,-0.1483745,-0.0007449999999999957,-0.320971,0.1983855,0.0024450000000000305,-0.296341,-0.14237450000000001,-0.25160499999999997,-0.084541,0.1438555,-0.259795,-0.076851
82,0.005838000000000001,0.68416,-0.08956149999999999,-0.13028800000000001,0.49255899999999997,-0.0631265,-0.222198,0.7341099999999999,-0.14379150000000002,0.145362,0.47674999999999995,-0.06303349999999999,0.262162,0.71068,-0.14149150000000002,-0.270928,0.95062,-0.2340415,0.314232,0.9596,-0.23267150000000003,-0.077547,0.0015999999999999348,-0.002295499999999999,0.077547,-0.0016000000000000458,0.002295499999999999,-0.148228,0.0045399999999999885,-0.3219215,0.20011199999999998,0.009399999999999964,-0.2955415,-0.14305800000000002,-0.24506000000000006,-0.08501149999999999,0.144792,-0.25522,-0.0767815
83,0.0058449999999999995,0.6838599999999999,-0.08917050000000001,-0.130556,0.49286399999999997,-0.06322250000000001,-0.222506,0.73474,-0.1438805,0.144874,0.47695599999999994,-0.0624125,0.262624,0.71034,-0.1404105,-0.271696,0.9491799999999999,-0.2351605,0.315714,0.9586399999999999,-0.2326705,-0.077465,0.0016100000000000003,-0.0023644999999999985,0.077465,-0.0016100000000000003,0.0023644999999999985,-0.14810600000000002,0.00820999999999994,-0.3227505,0.201514,0.013799999999999923,-0.2947705,-0.143706,-0.24079000000000006,-0.08545050000000001,0.145834,-0.2530800000000001,-0.07677049999999999
84,0.005898999999999998,0.684545,-0.08856050000000001,-0.13073,0.492977,-0.0631855,-0.22232000000000002,0.732325,-0.1438105,0.14449,0.477053,-0.061567500000000004,0.26306999999999997,0.7100150000000001,-0.1391105,-0.27205,0.946295,-0.2355905,0.3172,0.9577450000000001,-0.2325405,-0.077306,0.0016450000000000076,-0.0024985000000000007,0.077306,-0.0016450000000000076,0.0024985000000000007,-0.14805000000000001,0.012014999999999998,-0.3234805,0.20265,0.01890499999999995,-0.2940005,-0.14436,-0.23678500000000002,-0.08575050000000001,0.14706000000000002,-0.24817500000000003,-0.0768605
85,0.006036999999999994,0.68426,-0.087854,-0.130831,0.49369299999999994,-0.063069,-0.222161,0.7289599999999999,-0.143714,0.144339,0.47735299999999997,-0.060625,0.263569,0.7097199999999999,-0.137374,-0.272031,0.94844,-0.23595400000000002,0.318329,0.95741,-0.23213399999999998,-0.07714,0.0016999999999999238,-0.002602,0.07714,-0.0017000000000000348,0.0026020000000000036,-0.147981,0.014209999999999945,-0.324144,0.203639,0.02188000000000001,-0.29327400000000003,-0.145041,-0.23459000000000008,-0.085754,0.148119,-0.24533000000000005,-0.076954
86,0.006202000000000001,0.68381,-0.08702299999999999,-0.130904,0.49420600000000003,-0.06295100000000001,-0.221954,0.72509,-0.143393,0.144236,0.47763700000000003,-0.059688,0.263766,0.70948,-0.135323,-0.27205399999999996,0.94919,-0.23625300000000002,0.319406,0.95706,-0.23122299999999998,-0.07702700000000001,0.0017400000000000748,-0.0026650000000000007,0.07702700000000001,-0.0017399999999999638,0.0026649999999999972,-0.148154,0.015800000000000036,-0.32482300000000003,0.20452599999999999,0.023859999999999992,-0.292603,-0.14544400000000002,-0.23288999999999993,-0.085953,0.149176,-0.24363,-0.07700300000000002
87,0.006281000000000004,0.6835749999999999,-0.086213,-0.130954,0.49423799999999996,-0.062847,-0.221824,0.722035,-0.142193,0.144286,0.4783569999999999,-0.058796,0.264096,0.7104149999999999,-0.13382300000000003,-0.27228399999999997,0.9498849999999999,-0.23640300000000003,0.320036,0.9579949999999999,-0.229883,-0.076906,0.001714999999999911,-0.002699,0.076906,-0.001715000000000022,0.002699,-0.148514,0.016264999999999974,-0.32561300000000004,0.205426,0.02430499999999991,-0.292003,-0.14585399999999998,-0.23216500000000007,-0.086103,0.150026,-0.2432350000000001,-0.076853
88,0.0063560000000000005,0.6835749999999999,-0.085393,-0.130987,0.49423799999999996,-0.062753,-0.222117,0.722035,-0.141023,0.144493,0.4783569999999999,-0.058113,0.264263,0.7104149999999999,-0.13233299999999998,-0.272497,0.9498849999999999,-0.23645299999999997,0.320903,0.9579949999999999,-0.227553,-0.076888,0.001714999999999911,-0.0027410000000000004,0.076888,-0.001715000000000022,0.002740999999999997,-0.148967,0.016264999999999974,-0.325673,0.206123,0.02430499999999991,-0.291413,-0.145757,-0.23216500000000007,-0.086443,0.150273,-0.2432350000000001,-0.076883
89,0.006343999999999997,0.6835749999999999,-0.0845605,-0.13118100000000002,0.49423799999999996,-0.0625045,-0.222531,0.722035,-0.1396505,0.144619,0.4783569999999999,-0.0575355,0.264199,0.7104149999999999,-0.1307905,-0.272781,0.9498849999999999,-0.2365005,0.321069,0.9579949999999999,-0.22504049999999998,-0.076901,0.001714999999999911,-0.002776500000000001,0.076901,-0.001715000000000022,0.0027764999999999977,-0.14955100000000002,0.016264999999999974,-0.3257405,0.206419,0.024334999999999885,-0.2909605,-0.14567100000000002,-0.23216500000000007,-0.0865505,0.15042899999999998,-0.2432350000000001,-0.0769105
90,0.006312999999999997,0.6835749999999999,-0.0834015,-0.131282,0.49423799999999996,-0.062342499999999995,-0.22279200000000002,0.722035,-0.1381215,0.144698,0.4783569999999999,-0.0570035,0.264168,0.710965,-0.1293415,-0.27295200000000003,0.9498849999999999,-0.23657150000000002,0.32106799999999996,0.958575,-0.2224415,-0.076908,0.001714999999999911,-0.0028204999999999966,0.076908,-0.001715000000000022,0.0028205000000000036,-0.150102,0.016264999999999974,-0.32558149999999997,0.206538,0.024534999999999973,-0.29063150000000004,-0.145542,-0.23216500000000007,-0.0864115,0.15056799999999998,-0.2432350000000001,-0.07695149999999999
91,0.006248500000000001,0.6837249999999999,-0.08229,-0.13132749999999999,0.49333599999999994,-0.061645,-0.2225775,0.7204849999999999,-0.13657,0.1446425,0.47864199999999996,-0.05599400000000001,0.2642325,0.711865,-0.12832000000000002,-0.27286750000000004,0.948755,-0.23588000000000003,0.3211225,0.959015,-0.22017000000000003,-0.0769395,0.001595000000000013,-0.0028530000000000014,0.0769395,-0.001595000000000013,0.002852999999999998,-0.1508475,0.011915000000000009,-0.32533,0.2066525,0.02012499999999995,-0.29059,-0.1454675,-0.23802500000000004,-0.08643999999999999,0.1506425,-0.24823499999999998,-0.07683000000000001
92,0.006210999999999998,0.6841349999999999,-0.08154900000000001,-0.131298,0.492151,-0.061170999999999996,-0.222548,0.716255,-0.134939,0.144632,0.478579,-0.05531200000000001,0.264432,0.711925,-0.127669,-0.273638,0.944585,-0.23508900000000002,0.320662,0.9580949999999999,-0.21787900000000002,-0.076988,0.001434999999999964,-0.0028410000000000032,0.076988,-0.001434999999999964,0.0028409999999999998,-0.151288,0.005654999999999966,-0.325909,0.20677199999999998,0.013135000000000008,-0.290439,-0.145488,-0.24629500000000004,-0.08698900000000001,0.150612,-0.255385,-0.07655899999999999
93,0.006196000000000002,0.68546,-0.080875,-0.131315,0.49118300000000004,-0.060687000000000005,-0.222515,0.7097800000000001,-0.135565,0.144745,0.478831,-0.054691000000000004,0.264525,0.7121,-0.127485,-0.274405,0.93895,-0.23530500000000001,0.320255,0.95884,-0.216665,-0.077098,0.0012199999999999989,-0.0028740000000000016,0.077098,-0.0012199999999999989,0.0028740000000000016,-0.151315,-0.0025600000000000067,-0.32564499999999996,0.206495,0.0043199999999999905,-0.290065,-0.145485,-0.25742,-0.087615,0.150565,-0.26386,-0.075935
94,0.0062875000000000006,0.686315,-0.0798895,-0.1313705,0.49057999999999996,-0.059790499999999996,-0.22252049999999998,0.704075,-0.1344395,0.1448895,0.478933,-0.053748500000000005,0.2647295,0.7122649999999999,-0.1264995,-0.2753405,0.932695,-0.2337195,0.3195795,0.957005,-0.2142395,-0.0771905,0.0011549999999999616,-0.0029435000000000017,0.0771905,-0.0011550000000000171,0.0029435000000000017,-0.1511605,-0.013284999999999991,-0.32473949999999996,0.2056895,-0.006184999999999996,-0.2890695,-0.1452105,-0.271405,-0.0875895,0.14989950000000002,-0.274355,-0.0743595
95,0.006143999999999997,0.687045,-0.078543,-0.13156700000000002,0.489539,-0.058438000000000004,-0.222887,0.700115,-0.132983,0.145073,0.478666,-0.05234799999999999,0.264753,0.7117249999999999,-0.125433,-0.276717,0.931635,-0.23117300000000002,0.318803,0.9515750000000001,-0.211813,-0.077236,0.0009750000000000036,-0.0029929999999999957,0.077236,-0.0009750000000000036,0.0029930000000000026,-0.151157,-0.025615,-0.322543,0.204623,-0.019125000000000003,-0.287703,-0.145007,-0.28862499999999996,-0.086803,0.149093,-0.288175,-0.07230299999999999
96,0.005765999999999998,0.68713,-0.07703499999999999,-0.13200900000000002,0.488576,-0.056563,-0.223139,0.7016899999999999,-0.13178499999999999,0.145261,0.479018,-0.05075299999999999,0.264621,0.71207,-0.12451499999999999,-0.278439,0.93067,-0.228625,0.318091,0.95021,-0.209715,-0.077232,0.0007300000000000084,-0.003035999999999997,0.077232,-0.0007300000000000084,0.0030360000000000005,-0.15121900000000002,-0.04275000000000001,-0.31969499999999995,0.20327099999999998,-0.03659000000000001,-0.28613500000000003,-0.14469900000000002,-0.31211000000000005,-0.085815,0.148091,-0.30853,-0.070295
97,0.005302499999999999,0.688225,-0.07513,-0.13252350000000002,0.488132,-0.054214,-0.2241535,0.699565,-0.13069000000000003,0.1455165,0.479935,-0.048499,0.2644265,0.712855,-0.12347000000000001,-0.2805435,0.928285,-0.22591,0.31730650000000005,0.951025,-0.20859,-0.07721349999999999,0.0005249999999999977,-0.0030890000000000015,0.07721349999999999,-0.0005249999999999977,0.003088999999999998,-0.1504735,-0.06143500000000002,-0.31457,0.20148649999999999,-0.05644500000000002,-0.2826,-0.14412350000000002,-0.33916500000000005,-0.08503000000000001,0.14714649999999999,-0.33394500000000005,-0.06832
98,0.004688000000000002,0.6904049999999999,-0.072877,-0.13316,0.486465,-0.051502000000000006,-0.22543000000000002,0.699375,-0.12821700000000003,0.14565,0.48172499999999996,-0.04575,0.26385,0.7137849999999999,-0.12194700000000001,-0.28293,0.927495,-0.223227,0.31645999999999996,0.951755,-0.207407,-0.077153,0.00016499999999997073,-0.0031160000000000007,0.077153,-0.00016500000000002624,0.0031159999999999972,-0.14948,-0.08354500000000004,-0.30772700000000003,0.19924000000000003,-0.07883500000000004,-0.276957,-0.14342,-0.370625,-0.083897,0.14631,-0.36358500000000005,-0.06640800000000001
99,0.004129000000000001,0.692465,-0.07025300000000001,-0.133848,0.48665500000000006,-0.048121000000000004,-0.22689800000000002,0.696035,-0.125333,0.14585199999999998,0.48224500000000003,-0.04262899999999999,0.262952,0.714615,-0.11979299999999998,-0.285568,0.923725,-0.21961299999999997,0.315552,0.9521350000000001,-0.205593,-0.07696,-3.4999999999951736e-05,-0.0029819999999999985,0.07696,3.500000000000725e-05,0.002982000000000002,-0.148308,-0.10703499999999999,-0.299643,0.197022,-0.10230499999999998,-0.27005300000000004,-0.142598,-0.40395499999999995,-0.082183,0.145552,-0.39458499999999996,-0.06400700000000001
100,0.0035029999999999983,0.694925,-0.06748399999999999,-0.13449,0.48636500000000005,-0.045493,-0.22886,0.693295,-0.122034,0.1461,0.48372500000000007,-0.04025599999999999,0.26195,0.7146650000000001,-0.11694399999999999,-0.28823,0.923115,-0.215524,0.31448,0.951835,-0.20311400000000002,-0.07675699999999999,-0.00021499999999996522,-0.0027830000000000008,0.07675699999999999,0.00021500000000002073,0.0027830000000000008,-0.14703,-0.12765499999999996,-0.29108399999999995,0.19457,-0.12220499999999995,-0.26256399999999996,-0.14193,-0.43322499999999997,-0.08055399999999999,0.14573,-0.42259499999999994,-0.063328
101,0.0030304999999999967,0.697615,-0.06463,-0.1349745,0.486445,-0.042705999999999994,-0.2306145,0.695905,-0.11843400000000001,0.1465455,0.486435,-0.037576,0.2622855,0.7175549999999999,-0.113674,-0.2901245,0.9292750000000001,-0.212054,0.3135655,0.9552149999999999,-0.200024,-0.07660449999999999,-0.00045500000000001095,-0.002606999999999998,0.07660449999999999,0.0004549999999999832,0.002606999999999998,-0.14556449999999999,-0.14709500000000003,-0.281594,0.19238550000000001,-0.140835,-0.254494,-0.1410245,-0.46158499999999997,-0.078554,0.1460055,-0.45019499999999996,-0.062012
102,0.002546500000000001,0.700995,-0.061233499999999996,-0.1354245,0.48541500000000004,-0.039959499999999995,-0.2321045,0.7000149999999999,-0.1145325,0.1469855,0.48855499999999996,-0.0349015,0.2624055,0.719965,-0.1104525,-0.29174449999999996,0.936085,-0.2084125,0.31282550000000003,0.957515,-0.19667249999999997,-0.0763885,-0.0006349999999999967,-0.002417499999999996,0.0763885,0.0006349999999999967,0.002417500000000003,-0.14399450000000003,-0.165345,-0.2716825,0.1903555,-0.15832500000000002,-0.2460525,-0.14004450000000002,-0.488155,-0.0764625,0.1463855,-0.477475,-0.060828499999999994
103,0.0022194999999999984,0.7049,-0.0573005,-0.1356885,0.48785,-0.036256500000000004,-0.2325185,0.70427,-0.1103895,0.1475615,0.48949,-0.0316155,0.2633215,0.72123,-0.10631949999999998,-0.2928685,0.94415,-0.2041995,0.3120815,0.9612,-0.1925795,-0.0759015,-0.0005600000000000049,-0.0022565000000000016,0.0759015,0.0005600000000000049,0.0022565000000000016,-0.1420385,-0.18284,-0.2602795,0.1887215,-0.17465000000000003,-0.23667950000000001,-0.1388885,-0.51391,-0.0737495,0.1469115,-0.50484,-0.058792500000000004
104,0.0019169999999999973,0.707465,-0.052503,-0.136014,0.48724500000000004,-0.032198,-0.231814,0.7036549999999999,-0.105381,0.148176,0.49265499999999995,-0.027176,0.263676,0.7244349999999999,-0.101111,-0.292824,0.943345,-0.20044099999999998,0.311256,0.965495,-0.187921,-0.07528,-0.0004250000000000087,-0.0022889999999999994,0.07528,0.0004250000000000087,0.0022889999999999994,-0.139984,-0.201775,-0.24777100000000002,0.186176,-0.190435,-0.224841,-0.13786400000000001,-0.540025,-0.07050100000000001,0.147356,-0.530625,-0.056288
105,0.001731500000000001,0.710975,-0.04776049999999999,-0.1362545,0.486965,-0.0282585,-0.2336445,0.6997150000000001,-0.10057550000000001,0.1487855,0.49416499999999997,-0.022710499999999995,0.26353550000000003,0.7261650000000001,-0.09571550000000001,-0.2935445,0.9418850000000001,-0.1971855,0.31038550000000004,0.964555,-0.1827255,-0.0745275,-0.00039500000000000646,-0.0022345000000000004,0.0745275,0.00039500000000000646,0.0022345000000000004,-0.1380045,-0.219005,-0.23334549999999998,0.1832755,-0.208615,-0.21208549999999998,-0.1367845,-0.564095,-0.0672555,0.1469655,-0.5547749999999999,-0.05364449999999999
106,0.0015564999999999976,0.7128615,-0.0436535,-0.13655050000000002,0.4858715,-0.0247265,-0.2354005,0.6978115,-0.0961625,0.1492295,0.4946315,-0.018901499999999995,0.2633895,0.7270215,-0.0905825,-0.2947705,0.9399815,-0.1957125,0.30987950000000003,0.9596015,-0.1771725,-0.07371649999999999,-0.0003544999999999937,-0.0021394999999999956,0.07371649999999999,0.0003544999999999937,0.0021395000000000025,-0.1365705,-0.23684850000000002,-0.2198025,0.18013949999999998,-0.22680850000000002,-0.2000725,-0.13569050000000002,-0.5868884999999999,-0.0640825,0.1470695,-0.5762084999999999,-0.0517325
107,0.0012944999999999992,0.7128015,-0.036008,-0.1369855,0.4843615,-0.017795999999999992,-0.23673550000000002,0.6942315,-0.08960399999999999,0.14947449999999998,0.4927015,-0.011716999999999998,0.2628245,0.7265015,-0.082394,-0.2959755,0.9364015,-0.188154,0.3092345,0.9524915,-0.167754,-0.07295850000000001,-0.00019249999999999823,-0.001785999999999996,0.07295850000000001,0.00019250000000000517,0.0017860000000000029,-0.1355855,-0.25369850000000005,-0.202384,0.1767445,-0.24476849999999997,-0.184404,-0.1349855,-0.6078785,-0.057244,0.14692449999999999,-0.5959585,-0.046289
108,0.0007700000000000022,0.7130235,-0.028763500000000004,-0.138295,0.4851735,-0.010957500000000002,-0.237865,0.6988335,-0.08334550000000002,0.149535,0.4926835,-0.004640499999999999,0.262115,0.7262335000000001,-0.07473550000000001,-0.298115,0.9405935000000001,-0.1812955,0.30859499999999995,0.9444235000000001,-0.1588955,-0.072355,-8.44999999999943e-05,-0.0017274999999999999,0.072355,8.450000000000124e-05,0.0017274999999999999,-0.133555,-0.2698965,-0.1818355,0.171485,-0.2624065,-0.16588550000000002,-0.134385,-0.6277564999999999,-0.047871500000000004,0.146715,-0.6153865,-0.038274499999999996
109,0.00020649999999999922,0.7131305,-0.021516499999999994,-0.13959349999999998,0.48654050000000004,-0.004194499999999997,-0.2400135,0.7006804999999999,-0.0772095,0.14959650000000002,0.4927805,0.0023864999999999997,0.2613865,0.7274105,-0.06759949999999999,-0.2999135,0.9429504999999999,-0.1746895,0.3081565,0.9381605,-0.15074949999999998,-0.0718075,-7.249999999999965e-05,-0.0017024999999999957,0.0718075,7.250000000000312e-05,0.0017025000000000026,-0.13154349999999998,-0.2851395,-0.16193950000000001,0.1663365,-0.2788595,-0.14802949999999998,-0.13382349999999998,-0.6459095,-0.038155499999999995,0.14648650000000002,-0.6335095000000001,-0.029927499999999996
110,-0.0004320000000000027,0.7131405,-0.014326500000000006,-0.140968,0.4877105,0.0022504999999999956,-0.24213800000000002,0.6997405,-0.0711605,0.149392,0.4919805,0.009052499999999998,0.260722,0.7264505,-0.0608205,-0.301468,0.9413605,-0.16841050000000002,0.307742,0.9302205,-0.14317049999999998,-0.071359,-1.7500000000000154e-05,-0.0016084999999999988,0.071359,1.7500000000000154e-05,0.0016084999999999988,-0.129578,-0.2998695,-0.1422605,0.160942,-0.2946795,-0.13024049999999998,-0.133388,-0.6620695,-0.028228500000000004,0.146222,-0.6496695,-0.021221500000000004
111,-0.0008835000000000023,0.711769,-0.007860500000000006,-0.1421435,0.48984900000000003,0.008263499999999993,-0.2438635,0.6998289999999999,-0.06572450000000002,0.1493865,0.491789,0.015263499999999992,0.2610765,0.7260989999999999,-0.05479450000000001,-0.3024835,0.9408289999999999,-0.1619345,0.3075365,0.9217289999999999,-0.1361245,-0.0710185,2.499999999999898e-05,-0.0014815000000000106,0.0710185,-2.5000000000000716e-05,0.0014814999999999967,-0.1274735,-0.314341,-0.12297450000000001,0.1556265,-0.30922099999999997,-0.11265450000000002,-0.1328635,-0.677061,-0.01845050000000001,0.1458765,-0.6646610000000001,-0.012407500000000002
112,-0.0016509999999999954,0.7108504999999999,-0.0013684999999999947,-0.143472,0.48839049999999995,0.013572500000000001,-0.245492,0.6995304999999999,-0.060196500000000014,0.149178,0.49281049999999993,0.0211345,0.261178,0.7268905,-0.049626500000000004,-0.303612,0.9403805,-0.1556065,0.307138,0.9145504999999999,-0.1290965,-0.07092999999999999,-0.00030749999999999875,-0.0012744999999999979,0.07092999999999999,0.00030749999999999875,0.0012744999999999979,-0.12551199999999998,-0.3267495,-0.1043065,0.149978,-0.32136950000000003,-0.0950965,-0.132652,-0.6900695,-0.008738499999999996,0.14508800000000002,-0.6771895,-0.0034415
113,-0.002370499999999996,0.711383,0.004680500000000004,-0.14478249999999998,0.490473,0.0191915,-0.2467625,0.7026629999999999,-0.0550735,0.1490775,0.49177299999999996,0.0260255,0.2610075,0.7264029999999999,-0.0437635,-0.3047125,0.943603,-0.1492535,0.3069175,0.910333,-0.1222935,-0.07087750000000001,-0.0005760000000000001,-0.0009114999999999956,0.07087750000000001,0.0005760000000000001,0.0009114999999999956,-0.12369249999999998,-0.335117,-0.08683350000000001,0.1451875,-0.329447,-0.07920350000000001,-0.13237249999999998,-0.699917,0.0004595000000000016,0.14418750000000002,-0.6864070000000001,0.0057264999999999955
114,-0.0030229999999999996,0.7115525,0.010983500000000007,-0.14597,0.4924925,0.0251875,-0.248,0.7067625,-0.0497605,0.14908,0.4914925,0.030962500000000004,0.26096,0.7264625,-0.037900500000000004,-0.30563999999999997,0.9477525,-0.1425305,0.30663,0.9071725,-0.11546050000000001,-0.070943,-0.0006354999999999972,-0.0006204999999999961,0.070943,0.0006355000000000041,0.0006204999999999961,-0.12227,-0.3421475,-0.0703805,0.14059,-0.33684749999999997,-0.06287050000000001,-0.13212000000000002,-0.7090175,0.009983500000000006,0.14323000000000002,-0.6947575,0.015196500000000002
115,-0.0036250000000000032,0.712088,0.016883499999999996,-0.14703700000000003,0.494708,0.030644499999999998,-0.24839700000000003,0.7119279999999999,-0.044716500000000006,0.149163,0.491538,0.035248499999999995,0.260993,0.726818,-0.0326765,-0.305697,0.9533180000000001,-0.1362365,0.30672299999999997,0.905308,-0.1097165,-0.07105,-0.0007250000000000034,-0.00027749999999999997,0.07105,0.0007249999999999965,0.00027749999999999997,-0.121417,-0.347162,-0.05556649999999999,0.13664300000000001,-0.344402,-0.04800650000000001,-0.131977,-0.716672,0.018958499999999996,0.141893,-0.701322,0.024347499999999994
116,-0.004443000000000003,0.713231,0.020102499999999995,-0.148167,0.498451,0.0333785,-0.24937700000000002,0.717271,-0.04195650000000001,0.148963,0.492711,0.036752499999999994,0.260243,0.728341,-0.030216500000000007,-0.30596700000000004,0.9595309999999999,-0.13249650000000002,0.306263,0.906031,-0.1069165,-0.07105,-0.0007690000000000058,-0.00027749999999999997,0.07105,0.0007689999999999989,0.00027749999999999997,-0.120857,-0.351349,-0.04485650000000001,0.133023,-0.352679,-0.0373665,-0.13198700000000002,-0.722759,0.025165499999999993,0.14049299999999998,-0.708139,0.030558499999999995
117,-0.005158500000000001,0.713564,0.023631,-0.1483045,0.497834,0.036069,-0.2494445,0.716394,-0.039252999999999996,0.1487655,0.49260399999999993,0.038543,0.2598355,0.728544,-0.027552999999999994,-0.3060345,0.960054,-0.12977300000000003,0.3061355,0.908524,-0.103113,-0.0709775,-0.0008210000000000023,-0.00027399999999999647,0.0709775,0.0008210000000000023,0.00027399999999999647,-0.1211745,-0.352916,-0.03729300000000001,0.1311255,-0.353976,-0.029522999999999994,-0.1320945,-0.724506,0.028566,0.13990550000000002,-0.710146,0.034027
118,-0.005658,0.7132225,0.027499000000000003,-0.14840899999999999,0.49747250000000004,0.039407,-0.249319,0.7160325,-0.036038,0.148651,0.4922825,0.041021,0.259571,0.7285225,-0.024237999999999996,-0.305959,0.9602924999999999,-0.125668,0.306681,0.9165924999999999,-0.09856799999999999,-0.070852,-0.0008545000000000011,-0.00026800000000000435,0.070852,0.0008545000000000011,0.00026800000000000435,-0.121309,-0.35382749999999996,-0.029147999999999993,0.12951100000000001,-0.35482749999999996,-0.020297999999999997,-0.131989,-0.7256075000000001,0.032122,0.13959100000000002,-0.7115775000000001,0.03782
119,-0.005943499999999997,0.7132229999999999,0.029913000000000002,-0.14833249999999998,0.497463,0.041769,-0.2490525,0.716023,-0.033862,0.1487275,0.49227299999999996,0.042149,0.2595175,0.728563,-0.022272,-0.3057125,0.9604829999999999,-0.122972,0.3075575,0.924563,-0.094752,-0.0710575,-0.0008540000000000006,-3.300000000000525e-05,0.0710575,0.0008540000000000006,3.300000000000525e-05,-0.1212425,-0.354387,-0.023052000000000003,0.12831750000000003,-0.355997,-0.012454000000000007,-0.1316925,-0.726167,0.033686,0.1395475,-0.712537,0.039598
120,-0.006115000000000001,0.7132125,0.03225200000000001,-0.148155,0.49705249999999995,0.04415100000000001,-0.24852500000000002,0.7159325000000001,-0.030426999999999996,0.148875,0.4922625,0.04336300000000001,0.259505,0.7285925,-0.019980999999999985,-0.30461499999999997,0.9604724999999998,-0.117617,0.30862500000000004,0.9320625,-0.09167699999999998,-0.071214,-0.0008514999999999981,0.00019700000000000273,0.071214,0.0008514999999999981,-0.00019699999999998885,-0.121525,-0.35544749999999997,-0.018411999999999984,0.12754500000000002,-0.3580675,-0.005723999999999993,-0.131535,-0.7277875,0.03382800000000001,0.139845,-0.7139275,0.04012000000000001
121,-0.006211000000000001,0.7132054999999999,0.033879,-0.147891,0.4964055,0.046293,-0.247951,0.7153355,-0.027646000000000004,0.14909899999999998,0.4922555,0.043995,0.259539,0.7286055,-0.018129000000000006,-0.30355099999999996,0.9604654999999999,-0.113313,0.309809,0.9393954999999999,-0.09018300000000001,-0.07136999999999999,-0.000844499999999998,0.00044500000000000095,0.07136999999999999,0.000844499999999998,-0.00044500000000000095,-0.12177100000000002,-0.3564845,-0.014891000000000001,0.127149,-0.3600545,-0.00032999999999999696,-0.131301,-0.7292745,0.032605,0.14029899999999998,-0.7152845,0.039096
122,-0.0062599999999999965,0.7126939999999999,0.03527499999999999,-0.147551,0.495664,0.04764899999999999,-0.24735100000000002,0.7144739999999999,-0.025202000000000016,0.14935900000000002,0.491754,0.04432499999999999,0.259609,0.728604,-0.016456000000000012,-0.302551,0.9604639999999999,-0.109347,0.311069,0.946314,-0.08913700000000002,-0.07148499999999999,-0.0008429999999999965,0.0005869999999999903,0.07148499999999999,0.0008430000000000035,-0.0005870000000000042,-0.122031,-0.357406,-0.01213800000000001,0.126889,-0.361916,0.004265999999999992,-0.13106099999999998,-0.730746,0.03102499999999999,0.140879,-0.716496,0.03761099999999999
123,-0.0063770000000000025,0.7118344999999999,0.036243,-0.147266,0.4956045,0.048174999999999996,-0.24685600000000002,0.7134645,-0.023842000000000002,0.14963400000000002,0.4909144999999999,0.044364,0.259644,0.7282645,-0.015406000000000003,-0.301916,0.9603544999999999,-0.107536,0.312274,0.9529645,-0.088486,-0.07155700000000001,-0.0007904999999999995,0.0006540000000000018,0.07155700000000001,0.0007904999999999995,-0.0006540000000000018,-0.12232599999999999,-0.3581755,-0.010860000000000009,0.126814,-0.36357550000000005,0.007334999999999994,-0.130876,-0.7320855000000001,0.028855,0.14136400000000002,-0.7175255,0.035662
124,-0.006461,0.7106935,0.036895,-0.146965,0.49571350000000003,0.048358,-0.24639500000000003,0.7123335000000001,-0.022812,0.149885,0.49017350000000004,0.04424,0.259665,0.7279535,-0.014543,-0.301315,0.9598035,-0.105926,0.313505,0.9596035,-0.08783600000000001,-0.07162099999999999,-0.0007175000000000029,0.0006289999999999976,0.07162099999999999,0.0007174999999999959,-0.0006290000000000046,-0.12274500000000002,-0.3586965,-0.010158,0.126755,-0.3650765,0.009774999999999999,-0.130715,-0.7332465,0.026380999999999995,0.141845,-0.7181664999999999,0.03351899999999999
125,-0.006477999999999994,0.709612,0.037308999999999995,-0.14666800000000002,0.49519199999999997,0.048358,-0.24601800000000001,0.7112120000000001,-0.022249000000000005,0.150152,0.489402,0.043858999999999995,0.25990199999999997,0.727612,-0.013808,-0.30070800000000003,0.9592919999999999,-0.10468600000000002,0.314712,0.9659920000000001,-0.08733600000000001,-0.071687,-0.0006279999999999966,0.0005869999999999972,0.071687,0.0006280000000000036,-0.0005870000000000042,-0.123238,-0.35881799999999997,-0.009877999999999998,0.12668200000000002,-0.366348,0.011586999999999993,-0.130608,-0.734018,0.023756,0.14229200000000003,-0.718318,0.031176999999999996
126,-0.0064180000000000036,0.7085955,0.0374745,-0.14641099999999999,0.4943955,0.0481825,-0.245801,0.7101655,-0.021929500000000005,0.150369,0.48877550000000003,0.0432755,0.260099,0.7272755,-0.013125499999999998,-0.300221,0.9584354999999999,-0.10381349999999999,0.316039,0.9726355000000001,-0.0877835,-0.071748,-0.0005695000000000006,0.0005464999999999984,0.071748,0.0005695000000000006,-0.0005464999999999984,-0.12365100000000001,-0.3583245,-0.010279499999999997,0.12664899999999998,-0.3675645,0.012635500000000001,-0.130621,-0.7342245000000001,0.0211645,0.14274900000000001,-0.7180745000000001,0.0287515
127,-0.006374500000000003,0.7077895000000001,0.037429500000000004,-0.1463385,0.49365950000000003,0.0478135,-0.2457385,0.7094495000000001,-0.022205500000000003,0.1504615,0.48818950000000005,0.0425195,0.2601215,0.7269195,-0.012570499999999998,-0.30001849999999997,0.9577295000000001,-0.10437450000000001,0.3165015,0.9738295000000001,-0.0885145,-0.07179350000000001,-0.0005245000000000041,0.00042750000000000427,0.07179350000000001,0.0005244999999999972,-0.0004274999999999973,-0.12397850000000002,-0.3578205,-0.0110315,0.1264815,-0.3686705,0.012597500000000005,-0.13069850000000002,-0.7343204999999999,0.018525500000000004,0.14303149999999998,-0.7177804999999999,0.026094500000000003
128,-0.006352499999999999,0.7072309999999999,0.037102500000000004,-0.1462765,0.49299099999999996,0.0468615,-0.2456865,0.708861,-0.023150499999999997,0.1505135,0.487691,0.0414645,0.26009350000000003,0.726681,-0.011945499999999998,-0.2997065,0.9572309999999999,-0.1061095,0.31694350000000004,0.9745309999999999,-0.09013950000000001,-0.0717805,-0.0004869999999999944,9.15000000000013e-05,0.0717805,0.0004870000000000013,-9.15000000000013e-05,-0.1241765,-0.35733899999999996,-0.012282499999999995,0.1263735,-0.368549,0.011488499999999999,-0.13085650000000001,-0.734319,0.0158345,0.1432235,-0.7174090000000001,0.0234525
129,-0.006292499999999998,0.7072309999999999,0.035941,-0.14622449999999998,0.49299099999999996,0.045589,-0.24557450000000003,0.7083809999999999,-0.025608,0.1505955,0.487691,0.039943,0.2602755,0.726541,-0.011825000000000002,-0.2992645,0.956681,-0.108658,0.3175755,0.9745309999999999,-0.09217800000000001,-0.0717685,-0.0004869999999999944,-0.0001449999999999993,0.0717685,0.0004870000000000013,0.0001449999999999993,-0.12412449999999998,-0.35733899999999996,-0.013178999999999996,0.1264255,-0.368549,0.010367000000000001,-0.1307545,-0.734319,0.013829000000000001,0.1433855,-0.7174090000000001,0.021407
130,-0.006236999999999998,0.7070519999999999,0.034434,-0.146159,0.49262200000000006,0.044081999999999996,-0.24580899999999997,0.708302,-0.027129,0.150681,0.48762200000000006,0.038893,0.261281,0.726022,-0.011276000000000001,-0.298879,0.956542,-0.11015499999999999,0.31833100000000003,0.9729919999999999,-0.09308499999999999,-0.071773,-0.0004610000000000031,-0.00047900000000000026,0.071773,0.00046099999999999614,0.00047900000000000026,-0.124109,-0.357278,-0.013906000000000002,0.126671,-0.368488,0.008912999999999997,-0.130709,-0.7342580000000001,0.012614,0.143441,-0.7173480000000001,0.020301
131,-0.006059500000000001,0.707015,0.03318550000000001,-0.1461615,0.49256500000000003,0.0428245,-0.24692149999999996,0.7079449999999999,-0.028444499999999998,0.15082849999999998,0.487565,0.038129500000000004,0.2633785,0.724545,-0.010598499999999997,-0.2981815,0.952185,-0.1113725,0.3194885,0.9730549999999999,-0.0940825,-0.0718235,-0.0004539999999999961,-0.0008074999999999957,0.0718235,0.000454000000000003,0.0008075000000000027,-0.12415150000000001,-0.357215,-0.014484499999999997,0.12666850000000002,-0.368425,0.007655500000000003,-0.1307315,-0.734195,0.011627500000000006,0.1434185,-0.7172850000000001,0.019342500000000006
132,-0.005983500000000001,0.7070085,0.0322485,-0.14632850000000003,0.49235850000000003,0.041874499999999995,-0.24984850000000003,0.7073085,-0.029535500000000006,0.15085149999999997,0.4875885,0.037684499999999996,0.2672515,0.7222885,-0.009411500000000003,-0.29769850000000003,0.9475985,-0.11296250000000001,0.3210615,0.9707385,-0.0949425,-0.0718685,-0.0004114999999999952,-0.0012105000000000032,0.0718685,0.00041150000000000214,0.0012104999999999963,-0.12434850000000001,-0.3568115,-0.014769500000000005,0.1265415,-0.3679015,0.006707499999999998,-0.1308085,-0.7333815,0.011179499999999998,0.14352150000000002,-0.7162115,0.0184065
