sb224sc-HT22-VT27/4dt907/src/data/kinect_good_preprocessed_A9_mediapipe/A145_kinect.csv
FrameNo,nose_3d_x,nose_3d_y,nose_3d_z,left_shoulder_3d_x,left_shoulder_3d_y,left_shoulder_3d_z,left_elbow_3d_x,left_elbow_3d_y,left_elbow_3d_z,right_shoulder_3d_x,right_shoulder_3d_y,right_shoulder_3d_z,right_elbow_3d_x,right_elbow_3d_y,right_elbow_3d_z,left_wrist_3d_x,left_wrist_3d_y,left_wrist_3d_z,right_wrist_3d_x,right_wrist_3d_y,right_wrist_3d_z,left_hip_3d_x,left_hip_3d_y,left_hip_3d_z,right_hip_3d_x,right_hip_3d_y,right_hip_3d_z,left_knee_3d_x,left_knee_3d_y,left_knee_3d_z,right_knee_3d_x,right_knee_3d_y,right_knee_3d_z,left_ankle_3d_x,left_ankle_3d_y,left_ankle_3d_z,right_ankle_3d_x,right_ankle_3d_y,right_ankle_3d_z
42,-0.0034785000000000007,0.7113315,0.0407745,-0.13550849999999998,0.5030115000000001,0.0482775,-0.2294985,0.7486515,0.022744499999999997,0.1416115,0.4858815000000001,0.044345499999999996,0.23295149999999998,0.7337215,0.0301695,-0.28020849999999997,0.9851115000000001,0.004896499999999998,0.3013815,0.9794115000000001,0.009167499999999999,-0.0718195,-0.0004375000000000004,0.0012835,0.0718195,0.0004375000000000004,-0.0012835,-0.1240285,-0.36952850000000004,-0.0258595,0.1238715,-0.3725585,-0.004852500000000003,-0.1398485,-0.7376984999999999,-0.007913500000000004,0.1432215,-0.7123284999999999,0.009188499999999999
43,-0.003877999999999996,0.7117530000000001,0.039525000000000005,-0.135705,0.5032030000000001,0.047049,-0.229325,0.748963,0.02006,0.141615,0.485433,0.04317,0.233065,0.733253,0.028172000000000003,-0.27756499999999995,0.983913,0.0001030000000000024,0.301775,0.9789129999999999,0.0036200000000000017,-0.07187099999999999,-0.00037199999999999733,0.001170000000000001,0.07187099999999999,0.00037200000000000427,-0.0011699999999999974,-0.123885,-0.369637,-0.027288,0.12429500000000002,-0.372857,-0.0065679999999999975,-0.139875,-0.7376269999999999,-0.008995999999999997,0.143075,-0.712967,0.007513000000000002
44,-0.004292499999999997,0.7118030000000001,0.037821999999999995,-0.13599850000000002,0.503243,0.045515,-0.2291085,0.7490530000000001,0.016467,0.14165149999999999,0.48505300000000007,0.041693999999999995,0.2332015,0.732843,0.025623999999999997,-0.2748585,0.984313,-0.005700000000000004,0.3023215,0.977813,-0.002789,-0.0719055,-0.00037199999999999733,0.001072,0.0719055,0.00037200000000000427,-0.001072,-0.1236485,-0.370007,-0.029213000000000003,0.1249015,-0.37437699999999996,-0.008995000000000003,-0.13988849999999997,-0.737467,-0.010432000000000004,0.14291150000000002,-0.713517,0.005384
45,-0.004697999999999999,0.7118030000000001,0.035239000000000006,-0.136555,0.503243,0.043495000000000006,-0.228865,0.7490530000000001,0.011485000000000002,0.141765,0.484823,0.039651000000000006,0.233515,0.7326130000000001,0.021826,-0.271515,0.984413,-0.014355,0.302325,0.976213,-0.010153999999999996,-0.07200899999999999,-0.00037199999999999733,0.0009700000000000021,0.07200899999999999,0.00037200000000000427,-0.0009699999999999986,-0.123635,-0.370787,-0.032014,0.12559499999999998,-0.376197,-0.012125999999999998,-0.139795,-0.737397,-0.012560999999999996,0.142765,-0.713957,0.0025740000000000034
46,-0.0050955000000000045,0.7118030000000001,0.03203,-0.13684849999999998,0.503243,0.04116,-0.2285985,0.7490530000000001,0.0056760000000000005,0.1416115,0.484823,0.03728,0.2340415,0.732433,0.017089,-0.2684185,0.9828129999999999,-0.023329000000000003,0.3024115,0.9731130000000001,-0.018827999999999998,-0.0721495,-0.00037199999999999733,0.0009279999999999983,0.0721495,0.00037200000000000427,-0.0009280000000000017,-0.1236585,-0.371637,-0.035707,0.1263315,-0.37840700000000005,-0.015959,-0.1396785,-0.7374269999999999,-0.014976000000000003,0.1428415,-0.714387,-0.0010000000000000009
47,-0.005356999999999997,0.7119635000000001,0.028245,-0.137158,0.5034035,0.038391999999999996,-0.228268,0.7492135000000001,-0.0010170000000000005,0.141522,0.4847035,0.034520999999999996,0.234762,0.7320335,0.011552,-0.265238,0.9809734999999999,-0.034356,0.30265200000000003,0.9699735,-0.02769,-0.07230500000000001,-0.0003075000000000022,0.0008239999999999983,0.07230500000000001,0.0003074999999999953,-0.0008239999999999983,-0.123778,-0.37235650000000003,-0.040305,0.127152,-0.3804165,-0.020824000000000002,-0.139638,-0.7372964999999999,-0.018015999999999997,0.142872,-0.7149264999999999,-0.005104000000000001
48,-0.005458500000000004,0.711775,0.023257999999999997,-0.1374085,0.503215,0.034858,-0.2278385,0.7489750000000001,-0.009098000000000002,0.14137149999999998,0.484405,0.031,0.2358115,0.731285,0.004691999999999998,-0.26240850000000004,0.9794849999999999,-0.046114,0.3031115,0.962585,-0.038246,-0.0724355,-0.00026600000000000235,0.000725,0.0724355,0.00026600000000000235,-0.000725,-0.1237785,-0.372525,-0.046861,0.1282815,-0.381955,-0.027955999999999998,-0.13945849999999999,-0.736605,-0.022018,0.14298149999999998,-0.715645,-0.010281000000000002
49,-0.0055035000000000014,0.710556,0.0182115,-0.1375155,0.501066,0.0304585,-0.2268455,0.7470060000000001,-0.0171165,0.14134449999999998,0.48378600000000005,0.0273055,0.23703449999999998,0.730186,-0.0021635000000000005,-0.2595455,0.978506,-0.057633500000000004,0.3040045,0.956606,-0.0480685,-0.07257649999999999,-0.0002549999999999983,0.0006254999999999993,0.07257649999999999,0.0002550000000000052,-0.0006254999999999993,-0.12363550000000001,-0.372034,-0.054455500000000004,0.1294145,-0.38285399999999997,-0.036053499999999995,-0.13935550000000002,-0.735304,-0.026529499999999998,0.1428245,-0.715724,-0.0131745
50,-0.005377999999999998,0.709302,0.012995,-0.13771,0.49925200000000003,0.026023,-0.22562,0.745322,-0.025608,0.14138,0.483252,0.023580999999999998,0.23862,0.7289920000000001,-0.009382,-0.2566,0.978052,-0.070848,0.30522,0.9511620000000001,-0.058149,-0.07278399999999999,-0.0002459999999999962,0.0005330000000000005,0.07278399999999999,0.00024600000000000316,-0.0005330000000000005,-0.12348999999999999,-0.37389799999999995,-0.063508,0.13079000000000002,-0.38338799999999995,-0.044891,-0.13912,-0.733688,-0.031083,0.14298,-0.715668,-0.018931999999999997
51,-0.005229999999999998,0.7074035,0.007769,-0.13777,0.4975435,0.02175,-0.22464,0.7435535,-0.033568,0.1415,0.48273350000000004,0.020021999999999998,0.24023999999999998,0.7276935,-0.016237,-0.25432,0.9780935000000001,-0.08265700000000001,0.30628,0.9460535,-0.066414,-0.07288800000000001,-0.00031950000000000034,0.00043400000000000036,0.07288800000000001,0.00031950000000000034,-0.00043400000000000036,-0.12329999999999999,-0.3753865,-0.07269999999999999,0.13214,-0.3832165,-0.053877,-0.13883,-0.7316965,-0.035539,0.14325,-0.7150565,-0.024817
52,-0.004908999999999999,0.704649,0.0023269999999999996,-0.137592,0.496079,0.017636,-0.223432,0.741869,-0.041530000000000004,0.141608,0.48234899999999997,0.016662,0.241978,0.725969,-0.023157999999999998,-0.252292,0.9784289999999999,-0.09423100000000001,0.307288,0.941139,-0.07374900000000001,-0.072987,-0.0003949999999999995,0.0003519999999999999,0.072987,0.0003949999999999995,-0.0003519999999999999,-0.12329200000000001,-0.376721,-0.082298,0.133478,-0.38259099999999996,-0.06311900000000001,-0.138602,-0.729801,-0.04037,0.143348,-0.7147410000000001,-0.030542999999999997
53,-0.0044874999999999984,0.702387,-0.0031505000000000005,-0.1372285,0.494527,0.0127685,-0.2221085,0.7400869999999999,-0.0502125,0.1417515,0.48148700000000005,0.0125515,0.2437115,0.724227,-0.030373499999999998,-0.2502985,0.979927,-0.1064495,0.30859149999999996,0.938757,-0.08174050000000001,-0.0731405,-0.00041200000000000264,0.0001234999999999999,0.0731405,0.00041200000000000264,-0.00012350000000000035,-0.1233485,-0.375243,-0.09347050000000001,0.13480150000000002,-0.378683,-0.0740885,-0.1382785,-0.7246330000000001,-0.0456655,0.1435315,-0.711233,-0.0359995
54,-0.004137000000000004,0.6987315,-0.008056,-0.13676200000000002,0.4933515,0.008347,-0.220642,0.7385115,-0.058724,0.14185799999999998,0.48075150000000005,0.008879999999999999,0.24545799999999998,0.7224714999999999,-0.037044,-0.24924200000000002,0.9783515,-0.117192,0.310098,0.9370615,-0.089615,-0.073358,-0.0003515000000000011,-5.100000000000005e-05,0.073358,0.0003515000000000011,5.100000000000005e-05,-0.12349199999999999,-0.3735385,-0.104442,0.13599799999999998,-0.3747685,-0.085177,-0.13789200000000001,-0.7191785,-0.050588,0.14401799999999998,-0.7069785000000001,-0.041725
55,-0.0037379999999999996,0.6957925,-0.012843,-0.136441,0.49057249999999997,0.003457,-0.219201,0.7357025,-0.06644900000000001,0.142009,0.4803825,0.005311,0.247249,0.7212324999999999,-0.043247,-0.248051,0.9789225,-0.127578,0.311569,0.9386325,-0.096347,-0.073578,-0.000448500000000001,-0.0003920000000000001,0.073578,0.000448500000000001,0.000392,-0.123881,-0.3702075,-0.11555800000000001,0.137469,-0.3687075,-0.09663300000000001,-0.137441,-0.7113275,-0.055458999999999994,0.144579,-0.6999875,-0.047167999999999995
56,-0.003259500000000002,0.6934815,-0.0174805,-0.13601249999999998,0.4884615,-0.0012935000000000002,-0.2180825,0.7333515,-0.0740795,0.1422075,0.4799715,0.0016695,0.2491175,0.7200115,-0.0492875,-0.2472125,0.9800115,-0.1368285,0.31297749999999996,0.9329815,-0.1048185,-0.0738065,-0.0005555000000000004,-0.0006004999999999999,0.0738065,0.0005554999999999996,0.0006004999999999999,-0.12434250000000001,-0.3660985,-0.1265585,0.13909749999999999,-0.3620185,-0.1079385,-0.1370425,-0.7023285,-0.0603125,0.1451675,-0.6916185,-0.0521415
57,-0.0028099999999999957,0.691357,-0.021618,-0.13519,0.48622699999999996,-0.005951,-0.21735000000000002,0.7308370000000001,-0.081201,0.14231,0.479657,-0.0017009999999999998,0.25034,0.718597,-0.055214,-0.24639,0.981067,-0.146971,0.31431,0.934307,-0.112361,-0.07402600000000001,-0.000503,-0.000781,0.07402600000000001,0.000503,0.0007810000000000004,-0.12487999999999999,-0.359003,-0.137271,0.14049,-0.353153,-0.118481,-0.13652,-0.690703,-0.06461700000000001,0.14543999999999999,-0.6804629999999999,-0.057254
58,-0.0022024999999999983,0.6895065,-0.0263765,-0.13440950000000002,0.48579649999999996,-0.0104325,-0.21589950000000002,0.7267264999999999,-0.0886465,0.1426805,0.47990649999999996,-0.0056425,0.25162049999999997,0.7176764999999999,-0.0619985,-0.2455795,0.9783364999999999,-0.15728950000000003,0.3147905,0.9369765,-0.1217995,-0.0742795,-0.0005325000000000017,-0.0009254999999999992,0.0742795,0.0005324999999999983,0.0009255000000000001,-0.12542949999999997,-0.3513735,-0.1484295,0.14204050000000001,-0.34218350000000003,-0.1297095,-0.1359595,-0.6765335,-0.06746350000000001,0.14534049999999998,-0.6667835,-0.0584265
59,-0.0012250000000000021,0.6886859999999999,-0.0348055,-0.133357,0.486846,-0.0175745,-0.214397,0.7242259999999999,-0.0992245,0.14336300000000002,0.481636,-0.012132500000000001,0.253133,0.717946,-0.0725045,-0.24451699999999998,0.975846,-0.1704385,0.315723,0.941326,-0.1353385,-0.07463600000000001,-0.0003459999999999991,-0.0013604999999999997,0.07463600000000001,0.0003459999999999991,0.0013605000000000006,-0.125527,-0.338084,-0.1616385,0.14394300000000002,-0.329644,-0.1436885,-0.135007,-0.659474,-0.0724525,0.145593,-0.6502640000000001,-0.0617475
60,0.00010149999999999873,0.6895855,-0.042689,-0.1315935,0.4857555,-0.026129,-0.21247349999999998,0.7224554999999999,-0.110101,0.1444465,0.48201550000000004,-0.019527,0.2551465,0.7175155,-0.083206,-0.24375349999999998,0.9729154999999999,-0.185627,0.3177765,0.9452754999999999,-0.149317,-0.07507749999999999,-0.0002864999999999951,-0.0017989999999999985,0.07507749999999999,0.0002864999999999951,0.0017990000000000003,-0.1253735,-0.3216745,-0.177857,0.1468765,-0.3141245,-0.159697,-0.1334535,-0.6392145,-0.078414,0.1462965,-0.6312645,-0.068132
61,0.0016584999999999955,0.6903725,-0.051742500000000004,-0.1299565,0.4847325,-0.035756500000000004,-0.21075649999999999,0.7160425,-0.1220495,0.1457135,0.48224249999999996,-0.0283225,0.2571835,0.7172225,-0.0955015,-0.2431365,0.9653225,-0.2017495,0.3201235,0.9454525,-0.16614949999999998,-0.07554949999999999,-0.00021949999999999747,-0.0021875,0.07554949999999999,0.00021949999999999747,0.0021875,-0.1254665,-0.30050750000000004,-0.1940595,0.1502435,-0.29322750000000003,-0.1759695,-0.1316065,-0.6155775,-0.0809735,0.14709350000000002,-0.6065375000000001,-0.0736335
62,0.002607499999999999,0.690525,-0.060038999999999995,-0.1287395,0.483775,-0.043947,-0.20908949999999998,0.7106750000000001,-0.13178900000000002,0.1465505,0.483165,-0.035703,0.2588405,0.717055,-0.107042,-0.2429995,0.958415,-0.21646900000000002,0.32200049999999997,0.943765,-0.18102900000000002,-0.07587350000000001,-0.00019500000000000073,-0.0024720000000000002,0.07587350000000001,0.00019500000000000073,0.0024720000000000002,-0.1260195,-0.280615,-0.20763900000000002,0.1531205,-0.273425,-0.189369,-0.1299995,-0.594155,-0.081726,0.1474905,-0.584145,-0.077552
63,0.003570000000000002,0.69166,-0.0683355,-0.127385,0.48216,-0.0525735,-0.207395,0.70578,-0.1410075,0.14743499999999998,0.48387,-0.0432805,0.26056500000000005,0.71677,-0.11871749999999999,-0.243015,0.95457,-0.2319575,0.32382500000000003,0.94244,-0.1961475,-0.07613400000000001,-0.00023999999999999022,-0.0027004999999999998,0.07613400000000001,0.00024000000000001798,0.0027004999999999998,-0.126815,-0.26053,-0.2208475,0.15609499999999998,-0.25363,-0.20198750000000001,-0.128395,-0.57209,-0.0822155,0.147915,-0.56112,-0.08155849999999999
64,0.004434000000000002,0.691775,-0.0773485,-0.126163,0.48223499999999997,-0.061215500000000006,-0.20544300000000001,0.702775,-0.1521635,0.148237,0.48406499999999997,-0.051517499999999994,0.26188700000000004,0.715735,-0.1314335,-0.24310299999999999,0.949205,-0.24836350000000001,0.325537,0.939085,-0.21290350000000002,-0.076381,-0.00010500000000002174,-0.0027164999999999984,0.076381,0.00010499999999999399,0.0027165,-0.12790300000000002,-0.240195,-0.2339535,0.159567,-0.23351500000000003,-0.2150235,-0.127753,-0.550865,-0.0842455,0.148977,-0.535815,-0.0854175
65,0.005467500000000004,0.6915899999999999,-0.086934,-0.12455150000000001,0.48171,-0.07092999999999999,-0.2039015,0.69776,-0.163599,0.1491185,0.48424,-0.060589000000000004,0.2636785,0.71468,-0.144919,-0.2433415,0.93854,-0.264229,0.3268585,0.943,-0.229369,-0.07659450000000001,-6.0000000000004494e-05,-0.0027089999999999996,0.07659450000000001,6.0000000000004494e-05,0.0027089999999999996,-0.1290215,-0.21863,-0.247549,0.1632185,-0.21177,-0.228529,-0.1265815,-0.52809,-0.08418,0.1494285,-0.51125,-0.087949
66,0.0066015,0.6914899999999999,-0.09615900000000001,-0.12286850000000002,0.48166000000000003,-0.08011900000000001,-0.2020385,0.69322,-0.17379,0.1501015,0.48443,-0.069365,0.2656515,0.71417,-0.15732000000000002,-0.2433185,0.92967,-0.27874,0.3281815,0.94479,-0.24524,-0.07693849999999999,-9.999999999998899e-05,-0.0027600000000000003,0.07693849999999999,0.00010000000000001674,0.0027600000000000003,-0.12988850000000002,-0.19893,-0.25984,0.1668915,-0.19193,-0.24105000000000001,-0.12496850000000001,-0.50696,-0.084718,0.15022149999999998,-0.48809,-0.090731
67,0.007741000000000002,0.69119,-0.10484,-0.12159,0.48236999999999997,-0.088321,-0.20078,0.69202,-0.183512,0.15093,0.48502,-0.077111,0.26715,0.7138100000000001,-0.168962,-0.24293,0.9243600000000001,-0.29166200000000003,0.32905999999999996,0.9443600000000001,-0.25924200000000003,-0.077129,-6.0000000000004494e-05,-0.003136999999999999,0.077129,5.999999999997674e-05,0.003136999999999999,-0.13074999999999998,-0.18064000000000002,-0.271222,0.17056000000000002,-0.17475000000000002,-0.252912,-0.12408999999999998,-0.48815000000000003,-0.08609699999999999,0.15066000000000002,-0.46784,-0.093017
68,0.008333500000000002,0.6905300000000001,-0.1115,-0.1206745,0.4796,-0.096383,-0.20017449999999998,0.6903900000000001,-0.191345,0.1513155,0.4818,-0.085108,0.2682055,0.71108,-0.17785499999999999,-0.24308450000000004,0.91961,-0.30189499999999997,0.32957549999999997,0.94226,-0.270395,-0.0772825,-0.00014999999999998348,-0.0034890000000000008,0.0772825,0.000150000000000039,0.003488999999999999,-0.13166450000000002,-0.16391999999999995,-0.281335,0.17376550000000002,-0.15796,-0.26376499999999997,-0.12357449999999999,-0.47021,-0.086206,0.1504855,-0.44884,-0.093902
69,0.008709499999999995,0.68845,-0.11774649999999999,-0.12021949999999999,0.48066,-0.1017795,-0.20012950000000002,0.68658,-0.1977365,0.15127049999999997,0.48167,-0.09092549999999999,0.26837049999999996,0.7098,-0.1857365,-0.24314950000000002,0.91572,-0.3091165,0.32932049999999996,0.9403199999999999,-0.2799165,-0.0773625,-7.00000000000145e-05,-0.0039585,0.0773625,6.999999999995898e-05,0.0039585,-0.13264950000000003,-0.14943,-0.2882365,0.17591049999999997,-0.14286000000000004,-0.2717065,-0.1237495,-0.45348,-0.08634549999999999,0.15004050000000002,-0.43044000000000004,-0.09415749999999999
70,0.009098000000000002,0.687715,-0.121422,-0.119673,0.480865,-0.105313,-0.200263,0.688855,-0.201312,0.15124700000000002,0.48094499999999996,-0.09464,0.26880699999999996,0.708865,-0.190192,-0.24313300000000002,0.9178649999999999,-0.31402199999999997,0.329727,0.9412750000000001,-0.284702,-0.077493,-1.4999999999987246e-05,-0.004246000000000001,0.077493,1.4999999999987246e-05,0.004246,-0.133263,-0.137965,-0.294082,0.17766700000000002,-0.13155500000000003,-0.278012,-0.12421299999999999,-0.43802500000000005,-0.08836000000000001,0.14996700000000002,-0.414475,-0.09448000000000001
71,0.009226499999999997,0.686825,-0.121614,-0.1194145,0.481245,-0.105434,-0.1999645,0.691375,-0.20219399999999998,0.15114550000000002,0.48011499999999996,-0.09481200000000001,0.26885549999999997,0.7079949999999999,-0.19064399999999998,-0.2431345,0.919845,-0.315934,0.32973549999999996,0.942285,-0.285634,-0.0776055,2.4999999999997247e-05,-0.004306,0.0776055,-2.4999999999997247e-05,0.004306,-0.1338945,-0.12555500000000003,-0.297164,0.1790955,-0.11922500000000003,-0.281144,-0.12505449999999999,-0.42241500000000004,-0.087003,0.1495155,-0.398425,-0.09207
72,0.009249500000000004,0.6861900000000001,-0.1212505,-0.11940449999999998,0.48102,-0.10483050000000001,-0.19960450000000002,0.69416,-0.2024605,0.15090550000000003,0.47897,-0.09442850000000001,0.2686755,0.7069700000000001,-0.1899505,-0.2432745,0.92315,-0.3137805,0.32957549999999997,0.9432,-0.2849205,-0.0777505,0.0001000000000000445,-0.0042845,0.0777505,-9.999999999998899e-05,0.0042845,-0.13422450000000002,-0.11467999999999995,-0.3000105,0.18055549999999998,-0.10863999999999996,-0.28439050000000005,-0.1261445,-0.40649,-0.08570950000000001,0.1489255,-0.38232,-0.08884750000000001
73,0.009109999999999998,0.685225,-0.11998800000000001,-0.119502,0.481115,-0.103658,-0.19995200000000002,0.696645,-0.200798,0.150548,0.47826500000000005,-0.093308,0.268318,0.706465,-0.187898,-0.24355200000000002,0.926525,-0.311068,0.32946800000000004,0.9444950000000001,-0.282498,-0.07785700000000001,0.00018499999999999073,-0.004277999999999999,0.07785700000000001,-0.00018499999999999073,0.0042780000000000006,-0.134142,-0.10473499999999997,-0.302668,0.181328,-0.098555,-0.286808,-0.127662,-0.391105,-0.08655499999999999,0.148668,-0.36635499999999993,-0.086198
74,0.008964999999999997,0.684705,-0.11850299999999998,-0.11952100000000002,0.480955,-0.102203,-0.200471,0.700735,-0.19895300000000002,0.150219,0.477435,-0.091723,0.267909,0.706105,-0.185173,-0.24387100000000003,0.934905,-0.306913,0.329129,0.945895,-0.278833,-0.077925,0.0004049999999999887,-0.004232,0.077925,-0.0004049999999999887,0.004232,-0.13420100000000001,-0.095725,-0.305373,0.182049,-0.089565,-0.289103,-0.129061,-0.37695500000000004,-0.088173,0.14831899999999998,-0.35167499999999996,-0.084406
75,0.0088515,0.684415,-0.11672300000000001,-0.1196555,0.481055,-0.100673,-0.2010055,0.705175,-0.19769299999999998,0.1498845,0.476434,-0.090283,0.2675545,0.7056450000000001,-0.182463,-0.24400550000000001,0.943195,-0.30283299999999996,0.3287345,0.946795,-0.274773,-0.07792450000000001,0.0005749999999999922,-0.004151000000000002,0.07792450000000001,-0.0005749999999999922,0.004151,-0.1342855,-0.08657500000000001,-0.308153,0.1828645,-0.08055499999999999,-0.291223,-0.1303455,-0.36267499999999997,-0.088093,0.1475445,-0.338685,-0.082863
76,0.008832499999999997,0.684675,-0.11468900000000001,-0.1196515,0.48065100000000005,-0.099459,-0.2013215,0.7061550000000001,-0.19622900000000001,0.1496085,0.474561,-0.089269,0.2675285,0.704775,-0.179359,-0.2444615,0.944415,-0.299059,0.3296485,0.946195,-0.270709,-0.07790749999999999,0.0008150000000000102,-0.004060999999999999,0.07790749999999999,-0.0008149999999999546,0.004060999999999999,-0.1345415,-0.07703499999999996,-0.310769,0.1837485,-0.07074499999999995,-0.292789,-0.1314315,-0.348225,-0.090299,0.1472385,-0.326055,-0.08144900000000001
77,0.009177999999999999,0.6838299999999999,-0.112565,-0.119566,0.482874,-0.09751499999999999,-0.20188599999999998,0.70731,-0.19478499999999999,0.149464,0.475198,-0.087295,0.26788399999999996,0.7053499999999999,-0.176595,-0.245096,0.9402999999999999,-0.29652500000000004,0.33084399999999997,0.94686,-0.266975,-0.077897,0.0010600000000000054,-0.004091000000000001,0.077897,-0.0010600000000000054,0.004091000000000001,-0.13455599999999998,-0.06819000000000003,-0.31344500000000003,0.18493400000000002,-0.06141000000000002,-0.293955,-0.132686,-0.33415,-0.092205,0.147094,-0.31446999999999997,-0.080105
78,0.009677,0.68372,-0.11044399999999999,-0.11944099999999999,0.48230300000000004,-0.096464,-0.20230099999999998,0.7120299999999999,-0.193414,0.14946900000000002,0.474707,-0.085814,0.268229,0.7059,-0.17371399999999998,-0.245661,0.93742,-0.295674,0.332179,0.94808,-0.264204,-0.07794100000000001,0.0011400000000000299,-0.004136000000000001,0.07794100000000001,-0.0011399999999999744,0.004136000000000001,-0.134711,-0.05867,-0.315614,0.186439,-0.05197999999999997,-0.294414,-0.133461,-0.32057,-0.09212400000000001,0.146769,-0.30308,-0.077854
79,0.010475999999999994,0.682315,-0.10879849999999999,-0.11921300000000001,0.48249600000000004,-0.09579850000000001,-0.202543,0.715125,-0.1929085,0.149597,0.475283,-0.0845085,0.268707,0.706705,-0.17148850000000002,-0.24588300000000002,0.935165,-0.2959285,0.333837,0.949685,-0.26211850000000003,-0.077973,0.0011150000000000326,-0.004235500000000003,0.077973,-0.0011149999999999771,0.004235499999999996,-0.134663,-0.04983499999999996,-0.3178185,0.188597,-0.04342499999999999,-0.2945985,-0.134213,-0.30766499999999997,-0.0900785,0.14682699999999999,-0.293845,-0.0755585
80,0.0112255,0.681705,-0.107567,-0.1190605,0.48265900000000006,-0.095727,-0.20294050000000002,0.7145950000000001,-0.19248700000000002,0.14980949999999998,0.47560300000000005,-0.08379700000000001,0.2693795,0.707335,-0.169907,-0.24645049999999996,0.9337550000000001,-0.296157,0.3362395,0.949295,-0.261077,-0.0779665,0.0012150000000000216,-0.004298999999999997,0.0779665,-0.001214999999999966,0.004299000000000001,-0.1347605,-0.04077499999999995,-0.319467,0.1907395,-0.03437499999999999,-0.294687,-0.13507049999999998,-0.29539499999999996,-0.08904699999999999,0.1470495,-0.28524499999999997,-0.073797
81,0.011943500000000003,0.681175,-0.1070925,-0.11896150000000001,0.483996,-0.0963025,-0.20337149999999998,0.713105,-0.19255250000000002,0.15009850000000002,0.475783,-0.0838825,0.2694585,0.707735,-0.16874250000000002,-0.24804150000000003,0.9315249999999999,-0.2967325,0.3389385,0.948625,-0.2597125,-0.0777885,0.001354999999999995,-0.004464499999999996,0.0777885,-0.001354999999999995,0.004464500000000003,-0.13492149999999997,-0.032104999999999995,-0.32090250000000003,0.1927485,-0.025355000000000016,-0.2944725,-0.13571149999999998,-0.28360499999999994,-0.0885425,0.1473985,-0.277175,-0.0725725
82,0.012513,0.681405,-0.1073085,-0.11884800000000001,0.48468600000000006,-0.0975885,-0.203798,0.7113750000000001,-0.1934085,0.150372,0.47580700000000004,-0.08467849999999999,0.271282,0.707345,-0.1685985,-0.25013799999999997,0.9288750000000001,-0.2990185,0.342372,0.947775,-0.2590685,-0.077622,0.0014450000000000296,-0.0046034999999999965,0.077622,-0.001444999999999974,0.0046035,-0.135148,-0.023455000000000004,-0.3221885,0.194662,-0.01671499999999998,-0.2941785,-0.135998,-0.27275499999999997,-0.0884885,0.147782,-0.2695449999999999,-0.0721385
83,0.013196,0.680975,-0.107898,-0.118762,0.485361,-0.09895799999999999,-0.203862,0.709715,-0.194608,0.15062799999999998,0.476138,-0.085778,0.273118,0.707095,-0.168818,-0.252102,0.925995,-0.299188,0.34627800000000003,0.946735,-0.258828,-0.077468,0.0014350000000000196,-0.004653999999999998,0.077468,-0.001434999999999964,0.004654000000000002,-0.13547199999999998,-0.01560499999999998,-0.322888,0.19658799999999998,-0.008984999999999965,-0.293998,-0.13614199999999999,-0.263425,-0.088658,0.14834799999999998,-0.262945,-0.071898
84,0.013801500000000003,0.6804749999999999,-0.10863700000000001,-0.1186535,0.485513,-0.100407,-0.2039535,0.707425,-0.195517,0.15083649999999998,0.476653,-0.08665700000000001,0.2748065,0.706855,-0.169127,-0.2543035,0.921925,-0.299977,0.3503065,0.945605,-0.25915699999999997,-0.0773125,0.001434999999999964,-0.004644000000000002,0.0773125,-0.0014350000000000196,0.004643999999999999,-0.1358635,-0.008874999999999966,-0.322997,0.1984565,-0.002145000000000008,-0.293877,-0.1364035,-0.255495,-0.08893699999999999,0.1490565,-0.25717500000000004,-0.071657
85,0.014299500000000003,0.6803199999999999,-0.10948,-0.1186045,0.48558399999999996,-0.10171,-0.2040945,0.70871,-0.19638999999999998,0.15097549999999998,0.47729699999999997,-0.08729,0.2762655,0.70671,-0.16935999999999998,-0.2566745,0.92468,-0.30089000000000005,0.3529155,0.94622,-0.25998000000000004,-0.0771115,0.0014199999999999768,-0.004630999999999996,0.0771115,-0.0014200000000000879,0.004631,-0.1363145,-0.0021200000000000108,-0.32321,0.20013550000000002,0.0039599999999999635,-0.29377000000000003,-0.13671450000000002,-0.24834,-0.08889,0.14996550000000003,-0.25176,-0.07128000000000001
86,0.014644,0.6804,-0.11047649999999999,-0.11851300000000001,0.484709,-0.1029865,-0.204233,0.70802,-0.19667649999999998,0.150957,0.47759,-0.0877565,0.277357,0.7064,-0.1697165,-0.258673,0.93031,-0.3018165,0.355297,0.94529,-0.2612565,-0.07694899999999999,0.0013199999999999878,-0.004726499999999995,0.07694899999999999,-0.0013199999999999878,0.0047265000000000015,-0.136713,0.0039000000000000146,-0.3235665,0.201517,0.008870000000000045,-0.29335649999999996,-0.136933,-0.24295,-0.0889665,0.151037,-0.24783999999999995,-0.0710365
87,0.0148605,0.68007,-0.1116435,-0.1183265,0.484691,-0.1039735,-0.2043765,0.7055,-0.1974735,0.1510035,0.47729699999999997,-0.0883435,0.27829349999999997,0.70547,-0.1702335,-0.2607065,0.93365,-0.30496350000000005,0.3575635,0.94356,-0.2629135,-0.07690949999999999,0.0013999999999999568,-0.004867500000000004,0.07690949999999999,-0.0013999999999999568,0.004867499999999997,-0.1370065,0.008329999999999949,-0.3242935,0.20257350000000002,0.012159999999999949,-0.29276349999999995,-0.1366365,-0.23889000000000005,-0.0893635,0.1522335,-0.24583999999999995,-0.0709735
88,0.014974000000000005,0.68042,-0.11297650000000001,-0.118143,0.484338,-0.10501650000000001,-0.204473,0.70331,-0.1985065,0.151087,0.476699,-0.0891265,0.279147,0.70442,-0.1709865,-0.262363,0.9359500000000001,-0.3079065,0.359487,0.9426,-0.2646665,-0.07686799999999999,0.0015500000000000513,-0.005090500000000005,0.07686799999999999,-0.0015500000000000513,0.005090499999999998,-0.137253,0.011719999999999953,-0.3254565,0.203097,0.015179999999999971,-0.2920265,-0.13627299999999998,-0.23550000000000004,-0.0900565,0.152927,-0.24290999999999996,-0.07116650000000001
89,0.015105500000000001,0.6802699999999999,-0.11465,-0.1179595,0.48381799999999997,-0.10628000000000001,-0.2045695,0.7020299999999999,-0.19961,0.1511805,0.476081,-0.09022,0.2799105,0.70329,-0.17204,-0.2638395,0.93609,-0.31179999999999997,0.3605605,0.94268,-0.26680000000000004,-0.0768355,0.0015600000000000058,-0.005249999999999998,0.0768355,-0.0015600000000000058,0.005250000000000001,-0.1376095,0.01313999999999993,-0.32594999999999996,0.2035005,0.017469999999999986,-0.29124000000000005,-0.1360495,-0.23306000000000004,-0.09069,0.1535405,-0.24059000000000008,-0.07195
90,0.015292,0.679885,-0.11623399999999999,-0.11774299999999999,0.48285999999999996,-0.107534,-0.204523,0.7009449999999999,-0.200884,0.15120699999999998,0.47590199999999994,-0.091484,0.280607,0.7027249999999999,-0.17326400000000003,-0.264603,0.9357949999999999,-0.314604,0.36080700000000004,0.942665,-0.268654,-0.07674900000000001,0.001475000000000004,-0.005292999999999999,0.07674900000000001,-0.001475000000000004,0.005292999999999999,-0.13795300000000002,0.01381499999999991,-0.32602400000000004,0.203867,0.018934999999999924,-0.290844,-0.136043,-0.23162500000000008,-0.091074,0.15428699999999998,-0.23905500000000002,-0.073174
91,0.0154255,0.67961,-0.1173845,-0.1175455,0.482108,-0.1085345,-0.2043555,0.69941,-0.20148449999999998,0.1512845,0.475657,-0.0924845,0.2808045,0.70291,-0.17417449999999998,-0.26469550000000003,0.93529,-0.3159345,0.3610345,0.94276,-0.2698145,-0.07671649999999999,0.0014199999999999768,-0.005297499999999997,0.07671649999999999,-0.0014199999999999768,0.0052975,-0.1383155,0.014990000000000059,-0.32556450000000003,0.2042945,0.02022999999999997,-0.2905045,-0.13596550000000002,-0.23028000000000004,-0.09113450000000001,0.1550045,-0.23780999999999997,-0.07413449999999999
92,0.015476999999999996,0.6794450000000001,-0.11800100000000001,-0.11744,0.4816040000000001,-0.10907100000000002,-0.20414000000000002,0.697675,-0.201841,0.1513,0.47534400000000004,-0.093001,0.28096,0.7030150000000001,-0.17466099999999998,-0.26454,0.9345950000000001,-0.316471,0.36119,0.9430550000000001,-0.270351,-0.076684,0.0014250000000000096,-0.005382000000000001,0.076684,-0.0014249999999998986,0.005382000000000001,-0.13868,0.01613500000000001,-0.325581,0.20457999999999998,0.021435000000000093,-0.290211,-0.13579,-0.22874499999999998,-0.09044100000000001,0.15545,-0.23656499999999991,-0.07465100000000001
93,0.015456000000000003,0.679055,-0.1180135,-0.11735899999999999,0.481799,-0.10906350000000001,-0.20405900000000002,0.6957749999999999,-0.2014535,0.151281,0.47586999999999996,-0.09264349999999999,0.281091,0.703365,-0.1741235,-0.264429,0.9334149999999999,-0.3164635,0.361301,0.943605,-0.2703435,-0.07666500000000001,0.001354999999999995,-0.005380500000000003,0.07666500000000001,-0.001354999999999995,0.0053805,-0.139049,0.017064999999999997,-0.32560350000000005,0.204841,0.02220499999999992,-0.2900535,-0.13550900000000002,-0.22746500000000003,-0.0892935,0.156061,-0.23561500000000002,-0.0750635
94,0.0153045,0.6784100000000001,-0.1180255,-0.11739849999999999,0.481924,-0.1089755,-0.2043885,0.69454,-0.2008055,0.1511115,0.47613500000000003,-0.09222550000000002,0.28044149999999995,0.70303,-0.1735855,-0.2649685,0.9322600000000001,-0.31649550000000004,0.3606415,0.9438300000000001,-0.2703855,-0.0766355,0.0011800000000000699,-0.005378500000000001,0.0766355,-0.0011799999999999589,0.005378499999999998,-0.1396085,0.017220000000000013,-0.32564550000000003,0.2049215,0.022340000000000027,-0.2900455,-0.1356085,-0.22719999999999996,-0.0891055,0.1566615,-0.23534999999999995,-0.0757555
95,0.015197500000000001,0.6784100000000001,-0.11803549999999999,-0.1174085,0.481924,-0.1088555,-0.2044985,0.69454,-0.1999955,0.1510315,0.47613500000000003,-0.0917955,0.27989149999999996,0.70303,-0.1730355,-0.26528850000000004,0.9322600000000001,-0.3159655,0.35943149999999996,0.9438300000000001,-0.2702255,-0.0766355,0.0011800000000000699,-0.005378500000000001,0.0766355,-0.0011799999999999589,0.005378499999999998,-0.14003849999999998,0.01699000000000006,-0.32566550000000005,0.2050315,0.022310000000000052,-0.2900455,-0.1355285,-0.22719999999999996,-0.0891055,0.1566815,-0.23500999999999994,-0.07596549999999999
96,0.015087499999999998,0.6784,-0.11798650000000001,-0.1174585,0.48191399999999995,-0.1086565,-0.2047485,0.69453,-0.1999665,0.15098150000000002,0.47641799999999995,-0.0913365,0.2794015,0.70302,-0.17241649999999997,-0.2654785,0.93225,-0.3147665,0.35800150000000003,0.94382,-0.2696765,-0.07664950000000001,0.0011899999999999133,-0.005408499999999997,0.07664950000000001,-0.0011900000000000244,0.0054085,-0.1401885,0.01793,-0.3259865,0.2052215,0.02242999999999995,-0.28998650000000004,-0.1354785,-0.22671000000000008,-0.0890565,0.1567015,-0.23468,-0.0767665
97,0.014837000000000001,0.6784,-0.11705299999999999,-0.11780499999999999,0.48191399999999995,-0.10766300000000001,-0.205165,0.69453,-0.198623,0.150755,0.47641799999999995,-0.090183,0.278785,0.70302,-0.170903,-0.265885,0.93225,-0.312753,0.355815,0.94382,-0.267593,-0.076753,0.0011899999999999133,-0.005415000000000003,0.076753,-0.0011900000000000244,0.005415,-0.14030499999999999,0.01855999999999991,-0.325773,0.205375,0.02242999999999995,-0.289603,-0.135515,-0.22626000000000002,-0.088253,0.156585,-0.23464000000000007,-0.076553
98,0.014391000000000004,0.6795450000000001,-0.115902,-0.11834499999999999,0.4814690000000001,-0.106232,-0.20565499999999998,0.692285,-0.197292,0.15043499999999999,0.4765230000000001,-0.088902,0.27792500000000003,0.7024650000000001,-0.169092,-0.26647499999999996,0.9301050000000001,-0.310452,0.35375500000000004,0.943805,-0.265322,-0.076877,0.0010650000000000936,-0.005308,0.076877,-0.0010649999999999826,0.005308,-0.140515,0.016915000000000124,-0.325512,0.20514500000000002,0.020175000000000054,-0.289112,-0.13572499999999998,-0.22797499999999993,-0.087342,0.15574500000000002,-0.23618499999999998,-0.076042
99,0.0141,0.6803649999999999,-0.11476999999999998,-0.11890800000000001,0.4818369999999999,-0.10468,-0.206638,0.6927549999999999,-0.19594,0.150212,0.47686699999999993,-0.08745,0.27722199999999997,0.7034849999999999,-0.16737,-0.26768800000000004,0.9311649999999999,-0.3083,0.352242,0.9432849999999999,-0.26278999999999997,-0.07702200000000001,0.0009549999999999281,-0.005305999999999998,0.07702200000000001,-0.0009550000000000392,0.005306000000000005,-0.140628,0.010584999999999956,-0.32476000000000005,0.205012,0.013544999999999918,-0.28815999999999997,-0.135828,-0.23463500000000004,-0.08667,0.154412,-0.24067500000000008,-0.07557
100,0.013632,0.6811800000000001,-0.11356599999999999,-0.11977199999999999,0.4824820000000001,-0.102956,-0.207882,0.6909900000000001,-0.193946,0.149898,0.4765810000000001,-0.086016,0.276338,0.7034900000000001,-0.16565600000000003,-0.26905199999999996,0.92981,-0.306136,0.35093799999999997,0.94184,-0.260176,-0.077127,0.0009100000000000774,-0.005316999999999995,0.077127,-0.0009099999999999664,0.005317000000000002,-0.140682,0.0016500000000000403,-0.32379600000000003,0.204728,0.00499000000000005,-0.287156,-0.135972,-0.2439499999999999,-0.085856,0.152618,-0.2474599999999999,-0.074716
101,0.0131815,0.68216,-0.11242250000000001,-0.12061849999999999,0.48261400000000004,-0.1012625,-0.2091685,0.6939200000000001,-0.1930225,0.1496215,0.47631500000000004,-0.08453250000000001,0.2758615,0.70333,-0.1641025,-0.2708685,0.93299,-0.3048425,0.3500215,0.9423600000000001,-0.2576425,-0.0772065,0.0007500000000000284,-0.0052035,0.0772065,-0.0007499999999999729,0.005203499999999996,-0.1403085,-0.00920999999999994,-0.3225225,0.2044915,-0.0044799999999999285,-0.2863425,-0.1358285,-0.2557499999999999,-0.08434250000000001,0.1506715,-0.2561,-0.0739725
102,0.012823999999999999,0.68335,-0.111337,-0.12138700000000002,0.483889,-0.09924699999999999,-0.210477,0.69401,-0.191087,0.149663,0.476072,-0.083067,0.275673,0.70313,-0.16273700000000002,-0.272397,0.93302,-0.302867,0.349163,0.94091,-0.255407,-0.077299,0.0007500000000000284,-0.005150999999999996,0.077299,-0.0007499999999999729,0.005151000000000003,-0.13928700000000002,-0.02178000000000002,-0.321077,0.204063,-0.015979999999999994,-0.285657,-0.13578700000000002,-0.27085000000000004,-0.08348699999999999,0.148863,-0.26749999999999996,-0.073237
103,0.012521500000000001,0.68378,-0.1098305,-0.1221035,0.483688,-0.09686049999999999,-0.21169349999999998,0.69311,-0.1891405,0.1497465,0.476694,-0.0808805,0.2755165,0.70368,-0.1609205,-0.2733635,0.93214,-0.3007305,0.3483865,0.94146,-0.2532605,-0.07729749999999999,0.00030999999999997696,-0.005232500000000001,0.07729749999999999,-0.00030999999999997696,0.005232499999999998,-0.1380035,-0.03926000000000002,-0.3190605,0.2033965,-0.03165000000000001,-0.2844605,-0.1357835,-0.29242,-0.0827405,0.1471865,-0.28451000000000004,-0.0724005
104,0.012023000000000002,0.685575,-0.10763099999999999,-0.12301999999999999,0.48435,-0.09380100000000001,-0.21241000000000002,0.695295,-0.187091,0.14973,0.478212,-0.078011,0.27536000000000005,0.704755,-0.15909099999999998,-0.27404999999999996,0.932315,-0.299001,0.34784000000000004,0.941145,-0.251151,-0.07730200000000001,0.00011500000000003174,-0.005200000000000003,0.07730200000000001,-0.00011499999999997623,0.005199999999999996,-0.13661,-0.057804999999999995,-0.316551,0.20245,-0.04946499999999998,-0.282341,-0.13581000000000001,-0.31659499999999996,-0.082021,0.14543,-0.30539499999999997,-0.070991
105,0.011424499999999997,0.688375,-0.10503100000000001,-0.12390849999999999,0.4842,-0.09076100000000001,-0.21226850000000003,0.696165,-0.184901,0.14973150000000002,0.47913700000000004,-0.074911,0.2752615,0.705945,-0.157011,-0.2741885,0.930875,-0.296871,0.34690150000000003,0.9404250000000001,-0.248191,-0.0773215,-1.4999999999987246e-05,-0.005098000000000005,0.0773215,1.5000000000042757e-05,0.005097999999999998,-0.1352585,-0.07741499999999996,-0.313661,0.2012715,-0.06767499999999999,-0.279261,-0.13578849999999998,-0.342205,-0.08106100000000001,0.1437215,-0.328195,-0.069511
106,0.010701999999999995,0.691535,-0.102148,-0.12484900000000002,0.48395499999999997,-0.087268,-0.211959,0.695165,-0.18209799999999998,0.149661,0.47994499999999995,-0.071578,0.27502099999999996,0.707575,-0.154408,-0.274559,0.929205,-0.292618,0.34629099999999996,0.942175,-0.24525800000000003,-0.07722899999999999,-0.00011500000000003174,-0.005098000000000005,0.07722899999999999,0.00011499999999997623,0.005097999999999998,-0.13403900000000002,-0.09783500000000006,-0.309858,0.19961099999999998,-0.08639500000000006,-0.275248,-0.135739,-0.3697750000000001,-0.07972800000000001,0.141591,-0.3519150000000001,-0.066068
107,0.010093000000000003,0.693335,-0.0985845,-0.125778,0.484395,-0.0839445,-0.214158,0.693695,-0.1795045,0.149652,0.480715,-0.0680845,0.27461199999999997,0.7089650000000001,-0.1515845,-0.276248,0.927735,-0.28865450000000004,0.345752,0.9433050000000001,-0.24207450000000003,-0.07711799999999999,-0.00014500000000000624,-0.0050605000000000025,0.07711799999999999,0.00014500000000000624,0.0050604999999999956,-0.132898,-0.11688500000000002,-0.3041545,0.197942,-0.10440499999999997,-0.2701845,-0.135378,-0.39759500000000003,-0.0781445,0.140652,-0.37768499999999994,-0.06292450000000001
108,0.009558500000000003,0.69593,-0.09468349999999999,-0.12667250000000002,0.48421000000000003,-0.0805235,-0.2162325,0.69018,-0.1760735,0.14973750000000002,0.48387,-0.06428350000000001,0.2738775,0.71085,-0.14851350000000002,-0.2779625,0.92371,-0.2843735,0.3454175,0.9427300000000001,-0.2386835,-0.0768905,-0.00030999999999997696,-0.004969500000000002,0.0768905,0.00031000000000003247,0.004969500000000002,-0.1320425,-0.13348999999999994,-0.2969835,0.1960075,-0.12007999999999996,-0.2644335,-0.13499250000000002,-0.4226899999999999,-0.0765935,0.14040750000000002,-0.40286,-0.0601135
109,0.009238,0.69875,-0.0903565,-0.127263,0.484,-0.0767565,-0.218033,0.68814,-0.1715765,0.150027,0.4861,-0.0603025,0.273677,0.71185,-0.1445065,-0.279523,0.9212800000000001,-0.2797365,0.34535699999999997,0.9455800000000001,-0.2350465,-0.07646700000000001,-0.00042999999999998595,-0.004876499999999999,0.07646700000000001,0.00042999999999998595,0.004876499999999999,-0.131333,-0.15039000000000002,-0.2892465,0.193967,-0.13583,-0.2575465,-0.134093,-0.44773999999999997,-0.0742865,0.14030700000000002,-0.42840000000000006,-0.057313499999999996
110,0.009008,0.701185,-0.08592199999999998,-0.127857,0.485155,-0.072892,-0.219277,0.687485,-0.167522,0.15052300000000002,0.489045,-0.056061,0.274223,0.711785,-0.14000200000000002,-0.28097700000000003,0.920415,-0.275712,0.345443,0.944575,-0.23155200000000004,-0.07601,-0.0004049999999999887,-0.004810999999999996,0.07601,0.00040500000000001646,0.004811000000000003,-0.130807,-0.166555,-0.280462,0.19195299999999998,-0.151835,-0.250102,-0.133187,-0.472525,-0.071902,0.14054299999999997,-0.453835,-0.05614899999999999
111,0.008857000000000004,0.70451,-0.08099700000000001,-0.12833,0.48474999999999996,-0.069167,-0.22003999999999999,0.6910499999999999,-0.16267700000000002,0.15095,0.49234,-0.051714,0.27475,0.71147,-0.134827,-0.2815,0.92364,-0.270707,0.34558,0.94449,-0.22782700000000003,-0.075626,-0.0006500000000000117,-0.004808,0.075626,0.0006499999999999839,0.004808,-0.13061999999999999,-0.18217,-0.271667,0.18987,-0.16629,-0.242347,-0.13217,-0.49573000000000006,-0.06947700000000001,0.14072,-0.47783000000000003,-0.052979000000000005
112,0.008417000000000001,0.708835,-0.0755105,-0.129061,0.48616499999999996,-0.0651305,-0.221581,0.695565,-0.15733049999999998,0.151139,0.49485500000000004,-0.047243499999999994,0.274999,0.714045,-0.1294705,-0.28261099999999995,0.9283750000000001,-0.26510049999999996,0.345129,0.940855,-0.22244049999999999,-0.075041,-0.00038499999999999646,-0.004881499999999997,0.075041,0.00038499999999999646,0.004881500000000004,-0.130811,-0.19380499999999998,-0.2620805,0.187449,-0.17986499999999997,-0.23402049999999996,-0.13134099999999999,-0.515025,-0.0670905,0.140659,-0.49860499999999996,-0.0499405
113,0.008022499999999998,0.711785,-0.0703465,-0.1296615,0.486615,-0.06139650000000001,-0.22372150000000002,0.696455,-0.15270650000000002,0.1514085,0.49629500000000004,-0.043174500000000005,0.2746985,0.715545,-0.1234465,-0.2837515,0.931455,-0.2600265,0.34427850000000004,0.936835,-0.2158065,-0.0744795,-0.00037499999999998646,-0.004973499999999999,0.0744795,0.0003750000000000142,0.004973499999999999,-0.1310115,-0.204945,-0.2529165,0.18507849999999998,-0.19233499999999998,-0.2255165,-0.13058150000000002,-0.5331549999999999,-0.0648365,0.13981849999999998,-0.5174949999999999,-0.0460285
114,0.007306999999999995,0.71318,-0.05960699999999999,-0.130768,0.486,-0.05220599999999999,-0.226658,0.69338,-0.141237,0.151512,0.49524,-0.03422599999999999,0.273972,0.715,-0.112557,-0.285618,0.9310700000000001,-0.24788699999999997,0.342802,0.93604,-0.205517,-0.073544,-0.0005399999999999849,-0.004761999999999995,0.073544,0.0005400000000000127,0.004762000000000002,-0.130008,-0.22315000000000002,-0.23368699999999998,0.17999199999999999,-0.21214,-0.20865699999999998,-0.129578,-0.55818,-0.057587,0.138652,-0.5433,-0.037408
115,0.006576500000000003,0.7141000000000001,-0.048981500000000004,-0.1326815,0.48902,-0.042960500000000006,-0.2292715,0.69816,-0.1299465,0.1517585,0.49707,-0.024907500000000006,0.27352849999999995,0.71699,-0.1021765,-0.2876215,0.9367300000000001,-0.23685649999999997,0.3413385,0.93206,-0.1942465,-0.0729345,-0.00045000000000000595,-0.0043915,0.0729345,0.0004499999999999921,0.0043915,-0.1282815,-0.2412,-0.21121649999999997,0.1741185,-0.23217000000000002,-0.1893065,-0.1285615,-0.5824199999999999,-0.049221499999999994,0.1376785,-0.56889,-0.0278555
116,0.005704000000000001,0.7159599999999999,-0.037766,-0.134296,0.49085,-0.033734999999999994,-0.230906,0.70387,-0.120194,0.151684,0.49875,-0.015632,0.272354,0.7197,-0.090784,-0.288786,0.94295,-0.225214,0.339734,0.93514,-0.182224,-0.072358,-0.0005470000000000058,-0.003978000000000002,0.072358,0.0005469999999999919,0.003978000000000002,-0.12656599999999998,-0.26012,-0.188614,0.167994,-0.25256,-0.168684,-0.12792599999999998,-0.60643,-0.040899,0.13675400000000001,-0.59314,-0.019699
117,0.004744500000000002,0.717158,-0.026826999999999997,-0.13584749999999998,0.49269799999999997,-0.024812000000000008,-0.2328575,0.7088679999999999,-0.11052800000000002,0.15148250000000002,0.49792800000000004,-0.006887999999999998,0.27092249999999996,0.720448,-0.07946800000000001,-0.29100750000000003,0.948838,-0.21264800000000003,0.3379025,0.9403779999999999,-0.17061800000000002,-0.07174449999999999,-0.0005560000000000009,-0.0036640000000000006,0.07174449999999999,0.0005560000000000009,0.0036640000000000006,-0.12493749999999998,-0.278242,-0.165668,0.16155250000000002,-0.27188199999999996,-0.14691800000000002,-0.1274875,-0.6293420000000001,-0.03243100000000001,0.1357225,-0.615542,-0.011784999999999997
118,0.003905,0.7180525,-0.016703499999999996,-0.137238,0.4944525,-0.016755500000000006,-0.235338,0.7145325,-0.1011305,0.151402,0.4983825,0.0013164999999999982,0.269532,0.7229224999999999,-0.06907049999999999,-0.293478,0.9554225,-0.2008605,0.336152,0.9431725,-0.15870050000000002,-0.071229,-0.0005964999999999998,-0.003414500000000001,0.071229,0.0005964999999999998,0.003414500000000001,-0.12340799999999999,-0.29449749999999997,-0.1429805,0.155302,-0.28961749999999997,-0.12524049999999998,-0.127098,-0.6502175,-0.023982500000000004,0.135552,-0.6357775,-0.006135500000000002
119,0.003229499999999998,0.7189114999999999,-0.006936499999999998,-0.1384195,0.4954815,-0.008709499999999995,-0.2369395,0.7159215,-0.09160449999999999,0.1511105,0.4985915,0.009180500000000001,0.2681205,0.7270314999999999,-0.0596845,-0.2950595,0.9577815,-0.18834450000000003,0.33422050000000003,0.9482915,-0.1464245,-0.07083149999999999,-0.0006175,-0.003207500000000002,0.07083149999999999,0.0006175,0.003207500000000002,-0.1221795,-0.31061849999999996,-0.1208945,0.14898050000000002,-0.30701849999999997,-0.1027445,-0.1268395,-0.6702185,-0.015544500000000003,0.1347805,-0.6549685000000001,0.0008014999999999967
120,0.0026349999999999976,0.7187695,0.002176499999999998,-0.139414,0.4970595,-0.0009704999999999991,-0.238024,0.7155594999999999,-0.0819835,0.150936,0.4984495,0.0166865,0.266606,0.7314195,-0.0501935,-0.29597399999999996,0.9586994999999999,-0.1760235,0.33256600000000003,0.9543794999999999,-0.1340635,-0.070533,-0.0005395,-0.003001500000000004,0.070533,0.0005395,0.003001500000000004,-0.12101400000000001,-0.32577049999999996,-0.09901349999999999,0.14313599999999999,-0.3229505,-0.08072349999999999,-0.126614,-0.6889805,-0.006840499999999999,0.134236,-0.6729905,0.0083115
121,0.0021655000000000008,0.718144,0.010635499999999992,-0.1403405,0.49821399999999993,0.006451499999999992,-0.2389305,0.715104,-0.07252050000000002,0.1507995,0.49799399999999994,0.023763499999999993,0.26504950000000005,0.731964,-0.04050050000000001,-0.29662049999999995,0.9590339999999999,-0.1636205,0.33074950000000003,0.961904,-0.12262050000000002,-0.0702255,-0.0005219999999999982,-0.0026875000000000093,0.0702255,0.0005220000000000016,0.0026874999999999954,-0.11987049999999999,-0.340186,-0.07777050000000002,0.1374595,-0.33794599999999997,-0.05912050000000002,-0.1264905,-0.705816,0.001831499999999986,0.1338895,-0.688836,0.01586349999999999
122,0.001628000000000001,0.7172685,0.019295499999999993,-0.14122600000000002,0.49922849999999996,0.013929499999999997,-0.239296,0.7145385,-0.06240650000000002,0.15062399999999998,0.49752849999999993,0.030871499999999996,0.26363400000000003,0.7328585,-0.0312665,-0.297166,0.9595085,-0.15009650000000002,0.328764,0.9706284999999999,-0.11135650000000001,-0.069916,-0.0005135000000000001,-0.0023885000000000017,0.069916,0.0005135000000000001,0.0023885000000000017,-0.118916,-0.35284150000000003,-0.05610650000000002,0.13169399999999998,-0.35120150000000006,-0.03733650000000001,-0.12663600000000003,-0.7208615,0.010713499999999994,0.13368400000000003,-0.7029315,0.024173499999999994
123,0.0011645000000000006,0.7171305,0.024262000000000006,-0.1419185,0.5015505,0.018145,-0.23955849999999998,0.7194404999999999,-0.056539000000000006,0.1504115,0.49934049999999996,0.03509,0.26253150000000003,0.7356105,-0.024650999999999992,-0.2975985,0.9653005,-0.141619,0.3266315,0.9763004999999999,-0.10211899999999999,-0.06985649999999999,-0.00032550000000000634,-0.0023849999999999982,0.06985649999999999,0.0003254999999999994,0.0023849999999999982,-0.1195485,-0.35694950000000003,-0.042309,0.1284815,-0.3562995,-0.02204099999999999,-0.1268985,-0.7269695,0.016460000000000002,0.13355150000000002,-0.7079995,0.028043000000000005
124,0.001195499999999997,0.71734,0.029184999999999996,-0.14181850000000001,0.50033,0.021974,-0.2395185,0.7182700000000001,-0.051776,0.1503315,0.49833000000000005,0.038849999999999996,0.26135149999999996,0.7358100000000001,-0.017963000000000007,-0.29748850000000004,0.96504,-0.134036,0.32478149999999995,0.98314,-0.09420600000000001,-0.0700215,-0.00031899999999999984,-0.0023959999999999954,0.0700215,0.00031899999999999984,0.0023959999999999954,-0.1198485,-0.35971,-0.032246,0.12666149999999998,-0.35999,-0.009898000000000004,-0.1268285,-0.73185,0.02083,0.1338015,-0.71138,0.031027
125,0.0013305000000000027,0.7161655,0.03256250000000001,-0.14168550000000002,0.49996550000000006,0.025387500000000007,-0.23921549999999997,0.7178955,-0.04690349999999999,0.15065450000000002,0.49776549999999997,0.04226450000000001,0.2611445,0.7355055,-0.012925499999999993,-0.2969155,0.9653455,-0.1272535,0.32357450000000004,0.9835455,-0.08758349999999998,-0.0701835,-0.00024750000000000466,-0.002406499999999992,0.0701835,0.0002474999999999977,0.002406500000000006,-0.12001550000000001,-0.36044450000000006,-0.024240499999999998,0.1252045,-0.36263449999999997,-0.00026449999999998697,-0.1267255,-0.7342345,0.024651500000000007,0.13377450000000002,-0.7126245,0.03409450000000001
126,0.001634499999999998,0.715124,0.0334545,-0.1413935,0.49961400000000006,0.0265535,-0.2390035,0.717414,-0.04462050000000001,0.1508665,0.49712399999999995,0.0433645,0.2611965,0.735154,-0.010372500000000007,-0.2967935,0.965374,-0.12364050000000001,0.3229865,0.9839739999999999,-0.08312050000000001,-0.07055149999999999,-0.00013200000000000017,-0.0023175,0.07055149999999999,0.00013200000000000017,0.0023175,-0.1199335,-0.362276,-0.019960500000000006,0.12424650000000001,-0.364676,0.005327499999999999,-0.12697350000000002,-0.735956,0.025648499999999998,0.13470649999999998,-0.714256,0.034693499999999995
127,0.001899000000000004,0.714086,0.034394999999999995,-0.14068,0.499326,0.027779999999999992,-0.23833000000000001,0.716806,-0.042605000000000004,0.15101,0.496566,0.04451399999999999,0.26138,0.734726,-0.008175000000000002,-0.29583,0.9652960000000002,-0.120055,0.32269000000000003,0.9840960000000001,-0.079545,-0.070875,-6.199999999999956e-05,-0.0022800000000000042,0.070875,6.199999999999956e-05,0.0022799999999999904,-0.12054999999999999,-0.362534,-0.016609000000000013,0.12339,-0.365584,0.009686999999999994,-0.1273,-0.737414,0.02631299999999999,0.13566999999999999,-0.7138439999999999,0.03509399999999999
128,0.0025539999999999972,0.7136285,0.035527500000000004,-0.14000800000000002,0.49892850000000005,0.028779500000000006,-0.23749800000000001,0.7164585000000001,-0.04062049999999999,0.151202,0.49612850000000003,0.045498500000000004,0.261512,0.7342785000000001,-0.006228499999999998,-0.294548,0.9653385000000001,-0.1168805,0.322682,0.9839385,-0.0761705,-0.07111300000000001,-3.150000000000375e-05,-0.0023404999999999954,0.07111300000000001,3.149999999999681e-05,0.0023405000000000023,-0.121558,-0.3623815,-0.014316499999999996,0.122752,-0.3658815,0.012253500000000007,-0.127998,-0.7382215000000001,0.026652500000000003,0.136562,-0.7127615,0.0351515
129,0.003219500000000001,0.7133784999999999,0.036680000000000004,-0.1393605,0.4987285,0.029789999999999997,-0.2366705,0.7162985,-0.038762000000000005,0.1513695,0.4958985,0.046531,0.2616195,0.7340285,-0.004308000000000006,-0.2932405,0.9653885,-0.11387199999999999,0.3227095,0.9836885,-0.07293200000000001,-0.0712505,2.4499999999996747e-05,-0.0023050000000000015,0.0712505,-2.4500000000003685e-05,0.0023050000000000015,-0.12245049999999999,-0.36218150000000005,-0.012597999999999998,0.1222895,-0.36613150000000005,0.014126,-0.1286805,-0.7387415,0.026601,0.1374995,-0.7118915,0.034819
130,0.003758999999999994,0.713302,0.037733,-0.138852,0.49874199999999996,0.030835000000000005,-0.235982,0.7162820000000001,-0.03711,0.151418,0.49589199999999994,0.047470000000000005,0.261698,0.733952,-0.0026539999999999966,-0.29212200000000005,0.965412,-0.11139199999999999,0.322638,0.983612,-0.07015199999999999,-0.07136100000000001,6.1000000000005494e-05,-0.002243000000000002,0.07136100000000001,-6.0999999999998555e-05,0.002243000000000002,-0.123202,-0.362058,-0.011667999999999991,0.121968,-0.36620800000000003,0.015253000000000003,-0.129392,-0.7388979999999999,0.026411000000000004,0.138268,-0.7110179999999999,0.034460000000000005
131,0.004279999999999999,0.712833,0.038066,-0.138471,0.498743,0.031703,-0.235521,0.7161930000000001,-0.03666799999999999,0.151549,0.49594299999999997,0.048452,0.26190899999999995,0.733603,-0.0012829999999999994,-0.29113100000000003,0.965323,-0.11158599999999999,0.322519,0.983523,-0.06834599999999999,-0.071368,0.00013099999999999917,-0.002137,0.071368,-0.00013099999999999917,0.002137,-0.12341099999999999,-0.362147,-0.011682999999999999,0.121999,-0.36629700000000004,0.014713000000000004,-0.130011,-0.7387469999999999,0.025558000000000004,0.138859,-0.710627,0.03377
132,0.004942500000000001,0.712223,0.037387,-0.13804650000000002,0.498493,0.031872,-0.2354565,0.7160030000000001,-0.03766,0.1518035,0.49597299999999994,0.049548999999999996,0.2624235,0.7331030000000001,-0.00011300000000000199,-0.2901865,0.965323,-0.11251799999999999,0.3228035,0.9833230000000001,-0.06710800000000001,-0.0713645,0.00013099999999999917,-0.0021910000000000054,0.0713645,-0.00013099999999999917,0.0021909999999999985,-0.12338650000000001,-0.362147,-0.011923000000000003,0.12206349999999999,-0.366387,0.013720999999999997,-0.1305565,-0.738567,0.024801999999999998,0.1393635,-0.7103269999999999,0.032805999999999995
133,0.0057465,0.7115225000000001,0.036669499999999994,-0.1376035,0.49807250000000003,0.0316555,-0.2354235,0.7156725,-0.038427499999999996,0.1522865,0.4956925,0.0507175,0.2632565,0.7324325,0.0010355000000000017,-0.2893035,0.9652625,-0.11323549999999999,0.3239565,0.9828625000000001,-0.0657555,-0.0713715,0.00017049999999999704,-0.0023385000000000003,0.0713715,-0.00017050000000000398,0.0023385000000000003,-0.12339349999999999,-0.36210749999999997,-0.012166500000000004,0.1220965,-0.3666675,0.0129535,-0.1311435,-0.7383275,0.024209500000000002,0.1396765,-0.7101675,0.0320565
134,0.006876499999999999,0.7107445,0.036652000000000004,-0.1376075,0.4977745,0.031565,-0.23620750000000001,0.7151445,-0.03856899999999999,0.1535325,0.4952145,0.052955,0.2660425,0.7317144999999999,0.0028700000000000045,-0.2886375,0.9648045000000001,-0.113277,0.3280425,0.9818045,-0.064387,-0.07141449999999999,0.00021250000000000435,-0.0024319999999999967,0.07141449999999999,-0.0002124999999999974,0.0024320000000000036,-0.1241775,-0.36201550000000005,-0.012308,0.12161250000000001,-0.36723550000000005,0.012831000000000002,-0.13249750000000002,-0.7378355,0.024126,0.13920249999999998,-0.7099255,0.031935000000000005
135,0.008311000000000006,0.7097235,0.036745,-0.137714,0.49703349999999996,0.031557,-0.238694,0.7123335,-0.039361999999999994,0.155516,0.4950735,0.054837000000000004,0.271116,0.7288235,0.004848000000000005,-0.287404,0.9579635,-0.116135,0.333386,0.9788634999999999,-0.06347499999999999,-0.07145699999999999,0.00036850000000000077,-0.0024349999999999997,0.07145699999999999,-0.00036850000000000077,0.0024350000000000066,-0.125804,-0.3620465,-0.012413999999999994,0.12076600000000001,-0.3680065,0.011570000000000004,-0.134804,-0.7370765,0.02414,0.137366,-0.7089165000000001,0.031599
