sb224sc-HT22-VT27/4dt907/src/data/kinect_good_preprocessed_A9_mediapipe/A148_kinect_mirrored.csv
FrameNo,nose_3d_x,nose_3d_y,nose_3d_z,left_shoulder_3d_x,left_shoulder_3d_y,left_shoulder_3d_z,left_elbow_3d_x,left_elbow_3d_y,left_elbow_3d_z,right_shoulder_3d_x,right_shoulder_3d_y,right_shoulder_3d_z,right_elbow_3d_x,right_elbow_3d_y,right_elbow_3d_z,left_wrist_3d_x,left_wrist_3d_y,left_wrist_3d_z,right_wrist_3d_x,right_wrist_3d_y,right_wrist_3d_z,left_hip_3d_x,left_hip_3d_y,left_hip_3d_z,right_hip_3d_x,right_hip_3d_y,right_hip_3d_z,left_knee_3d_x,left_knee_3d_y,left_knee_3d_z,right_knee_3d_x,right_knee_3d_y,right_knee_3d_z,left_ankle_3d_x,left_ankle_3d_y,left_ankle_3d_z,right_ankle_3d_x,right_ankle_3d_y,right_ankle_3d_z
23,0.998231,0.7062295,0.048841,0.8524570000000001,0.4905794999999999,0.05344,0.763247,0.7366295,0.038938,1.1399869999999999,0.5059095,0.063108,1.239947,0.7370795,0.040984,0.7194670000000001,0.9696095,0.020504,1.3006669999999998,0.9846295,0.024816,0.928895,0.0006584999999999,-0.0029959999999999,1.071105,-0.0006585,0.0029959999999999,0.880267,-0.3657405,-0.005238,1.121697,-0.3700305,-0.02301,0.8586670000000001,-0.7176305,0.011624,1.131217,-0.7446005,0.004354
24,0.9984700000000001,0.7065644999999999,0.0484955,0.852624,0.4908245,0.0526215,0.762764,0.7372544999999999,0.0369945,1.139894,0.5058845,0.0626105,1.239534,0.7371544999999999,0.0396414999999999,0.719164,0.9687045,0.0180404999999999,1.299684,0.9835745,0.0213434999999999,0.928887,0.0006814999999999,-0.0030325,1.071113,-0.0006815,0.0030325,0.880194,-0.3658055,-0.0062285,1.121564,-0.3703355,-0.0236405,0.858884,-0.7178055,0.0112834999999999,1.131464,-0.7447555,0.0041864999999999
25,0.9987065,0.7067844999999999,0.0480185,0.8527865,0.4909445,0.0517524999999999,0.7622865,0.7376745,0.0350184999999999,1.1397765,0.5058845,0.0619664999999999,1.2390765,0.7371845,0.0378494999999999,0.7189465000000002,0.9673845,0.0155234999999999,1.2986265000000001,0.9823745,0.0179074999999999,0.9288695,0.0006814999999999,-0.0030575,1.0711305,-0.0006815,0.0030574999999999,0.8799265000000001,-0.3660655,-0.0079535,1.1213065,-0.3712554999999999,-0.0247015,0.8590965,-0.7180855,0.0105864999999999,1.1317365,-0.7449855000000001,0.0039154999999999
26,0.998991,0.707064,0.047442,0.852961,0.490814,0.050782,0.761651,0.7381540000000001,0.032599,1.139901,0.505904,0.061173,1.2386409999999999,0.7372240000000001,0.03583,0.718701,0.966324,0.013254,1.2974510000000001,0.981644,0.014289,0.928842,0.000698,-0.0030799999999999,1.071158,-0.000698,0.0030799999999999,0.879571,-0.366546,-0.0103349999999999,1.1210209999999998,-0.372396,-0.025952,0.8593310000000001,-0.7184259999999999,0.009571,1.1320109999999999,-0.745116,0.00356
27,0.9994310000000001,0.7073465,0.046604,0.8532590000000001,0.4907065,0.049663,0.761359,0.7380465,0.03019,1.140319,0.5059465,0.059987,1.238389,0.7373165,0.0333,0.718289,0.9652965,0.010162,1.295889,0.9812365,0.010153,0.9287940000000001,0.0007274999999999,-0.0030889999999999,1.0712059999999999,-0.0007274999999999,0.003089,0.879129,-0.3673335,-0.0136439999999999,1.120629,-0.3739635,-0.0278269999999999,0.8597290000000001,-0.7188435,0.008308,1.132379,-0.7452235,0.002987
28,1.000143,0.7073465,0.0447875,0.8537129999999999,0.4907065,0.0474755,0.761233,0.7380465,0.0261945,1.141013,0.5060965000000001,0.0579355,1.238413,0.7372665,0.0291455,0.7178530000000001,0.9643865,0.0050875,1.294233,0.9807365,0.0040634999999999,0.928694,0.0007274999999999,-0.0030104999999999,1.071306,-0.0007274999999999,0.0030104999999999,0.878663,-0.3681935,-0.0183064999999999,1.120253,-0.3765135,-0.0315654999999999,0.860033,-0.7191935,0.0061285,1.132803,-0.7452235,0.0012305
29,1.0009175,0.7073465,0.042144,0.8540185,0.4907065,0.044819,0.7611585000000001,0.7380465,0.021464,1.1417285,0.5060865,0.05552,1.2384685,0.7371165000000001,0.024078,0.7173885,0.9631265,-0.001833,1.2926484999999999,0.9795765,-0.002978,0.9285805,0.0007274999999999,-0.002873,1.0714195,-0.0007274999999999,0.002873,0.8780185,-0.3691435,-0.023257,1.1197285,-0.3792435,-0.035681,0.8601084999999999,-0.7198335,0.0035839999999999,1.1329185,-0.7450035,-0.000738
30,1.0016554999999998,0.7076815,0.0390975,0.8542275,0.4905515,0.0418225,0.7610275,0.7377414999999999,0.0164055,1.1424875,0.5064015,0.0527625,1.2385975,0.7373115,0.0184965,0.7169575,0.9626215,-0.0090094999999999,1.2910675,0.9787115,-0.0104924999999999,0.9284565,0.0007454999999999,-0.0027264999999999,1.0715435,-0.0007455,0.0027264999999999,0.8772975000000001,-0.3703385,-0.0287565,1.1192475,-0.3819785,-0.0404095,0.8602675,-0.7203385,0.0006745,1.1330375,-0.7445485000000001,-0.0031444999999999
31,1.002425,0.70752,0.035244,0.85444,0.4898999999999999,0.03838,0.7609,0.7369,0.010768,1.14347,0.50676,0.049486,1.23898,0.73753,0.012068,0.71662,0.96246,-0.0170719999999999,1.2899,0.97793,-0.0185439999999999,0.928318,0.000775,-0.0025219999999999,1.071682,-0.0007749999999999,0.002522,0.8764,-0.37148,-0.03554,1.11882,-0.38481,-0.046392,0.86041,-0.7208399999999999,-0.003547,1.13315,-0.7440599999999999,-0.0063849999999999
32,1.003144,0.7070500000000001,0.030778,0.854544,0.48927,0.034588,0.760714,0.73602,0.0043239999999999,1.144374,0.5073500000000001,0.045878,1.2393839999999998,0.7376600000000001,0.0047979999999999,0.716024,0.96169,-0.02631,1.288724,0.97727,-0.027824,0.928194,0.0007759999999999,-0.002252,1.071806,-0.000776,0.0022519999999999,0.875474,-0.37225,-0.043091,1.118454,-0.3873,-0.0534,0.860574,-0.72103,-0.008441,1.133224,-0.7432,-0.010428
33,1.0038815,0.7061535000000001,0.0257905,0.8550195,0.4882435,0.0305075,0.7607395,0.7346735,-0.0027904999999999,1.1448795,0.5078535,0.0419505,1.2398695,0.7377635,-0.0030624999999999,0.7156695,0.9606535,-0.0361845,1.2877795,0.9770935,-0.0374374999999999,0.9280965,0.0007384999999999,-0.0019334999999999,1.0719035,-0.0007385,0.0019335,0.8745295,-0.3734065,-0.0516285,1.1182095,-0.3893765,-0.0611755,0.8608395,-0.7208165,-0.0139444999999999,1.1333195,-0.7418564999999999,-0.0148884999999999
34,1.0046799999999998,0.704349,0.0202994999999999,0.855428,0.487129,0.0260714999999999,0.760628,0.7332190000000001,-0.0104085,1.145428,0.508179,0.0377995,1.240348,0.737299,-0.0116085,0.715258,0.959549,-0.0467555,1.286968,0.976959,-0.0480845,0.9280180000000001,0.0007919999999999,-0.0017845,1.071982,-0.0007919999999999,0.0017844999999999,0.873738,-0.373911,-0.0605845,1.118148,-0.390561,-0.0696235,0.861118,-0.7199409999999999,-0.0197015,1.133378,-0.740051,-0.0197715
35,1.005427,0.7024929999999999,0.0143524999999999,0.855793,0.486363,0.0214655,0.7605230000000001,0.731993,-0.0181605,1.1459929999999998,0.5074329999999999,0.0332084999999999,1.2408229999999998,0.7361129999999999,-0.0207105,0.714753,0.958543,-0.0582275,1.286303,0.976753,-0.0597495,0.927945,0.00084,-0.0015695,1.072055,-0.0008399999999999,0.0015694999999999,0.872913,-0.374727,-0.0702115,1.118283,-0.391397,-0.0789475,0.861523,-0.718307,-0.0256215,1.133413,-0.737457,-0.0251455
36,1.0061135,0.7017654999999999,0.0087485,0.8560695,0.4849155,0.0162795,0.7605195,0.7303655,-0.0254895,1.1462495,0.5044854999999999,0.0276785,1.2411695,0.7347055,-0.0296304999999999,0.7144895,0.9561355,-0.0695045,1.2859494999999999,0.9768955,-0.0711535,0.9275895,0.0009304999999999,-0.0011474999999999,1.0724105,-0.0009304999999999,0.0011475,0.8721995000000001,-0.3738345,-0.0796304999999999,1.1188095,-0.3899645,-0.0883195,0.8619995,-0.7144245,-0.0312794999999999,1.1334195,-0.7324345,-0.0304754999999999
37,1.0065419999999998,0.7005910000000001,0.0040005,0.8563720000000001,0.4840509999999999,0.0122275,0.760182,0.729221,-0.0318335,1.146322,0.502221,0.0230845,1.241102,0.733591,-0.0374245,0.714582,0.955361,-0.0786315,1.285562,0.974741,-0.0821784999999999,0.927315,0.0010019999999999,-0.0007985,1.0726849999999999,-0.001002,0.0007985,0.871432,-0.372239,-0.0883414999999999,1.1192019999999998,-0.387179,-0.0969815,0.862512,-0.709689,-0.0361654999999999,1.133282,-0.7262689999999999,-0.0348545
38,1.0067994999999998,0.6986595,0.0001665,0.8567485,0.4832395,0.0089025,0.7597085,0.7280395,-0.0373675,1.1463185,0.5004394999999999,0.0191525,1.2407985,0.7326094999999999,-0.0444345,0.7143085,0.9555795,-0.0858805,1.2850785,0.9734095,-0.0919705,0.9270305000000001,0.0010265,-0.0003704999999999,1.0729695,-0.0010264999999999,0.0003705,0.8705085,-0.3706005,-0.0971904999999999,1.1194484999999998,-0.3840505,-0.1056604999999999,0.8628985,-0.7041005,-0.0407094999999999,1.1333685,-0.7194205,-0.0388205
39,1.0069095,0.69665,-0.0034554999999999,0.8570895000000001,0.48256,0.0058605,0.7592095,0.72676,-0.0429135,1.1463495,0.49778,0.0150975,1.2404194999999998,0.73067,-0.0512535,0.7140295,0.95667,-0.0932284999999999,1.2846795,0.9729,-0.1019485,0.9267425,0.0009319999999999,-4.55000000000004e-05,1.0732575,-0.000932,4.55000000000004e-05,0.8694295,-0.3679,-0.1062485,1.1195995,-0.37998,-0.1145484999999999,0.8631895,-0.69716,-0.0452985,1.1334595,-0.71125,-0.0424585
40,1.0067245,0.695302,-0.005774,0.8571375,0.481992,0.003913,0.7586575,0.722622,-0.047036,1.1461075,0.495482,0.012099,1.2396475,0.725512,-0.0565689999999999,0.7135875,0.955792,-0.0991119999999999,1.2841075,0.969572,-0.110062,0.9266345,0.000871,-4.200000000000037e-05,1.0733655,-0.000871,4.200000000000037e-05,0.8682375,-0.3644179999999999,-0.113872,1.1196675,-0.374998,-0.122122,0.8633375,-0.688558,-0.047805,1.1332175,-0.701858,-0.044861
41,1.0063805,0.6941885,-0.0083995,0.8571335,0.4808785,0.0011535,0.7579935000000001,0.7201285,-0.0508225,1.1454535,0.4927985,0.0085565,1.2386635,0.7219385,-0.0619555,0.7127935000000001,0.9517385,-0.1061745,1.2836035,0.9671985,-0.1184144999999999,0.9265485,0.0008345,-3.950000000000134e-05,1.0734515,-0.0008345,3.9499999999999605e-05,0.8670635,-0.3604015,-0.1222144999999999,1.1200835,-0.3692615,-0.1300345,0.8637835,-0.6789715000000001,-0.0500635,1.1329535,-0.6921615,-0.0468935
42,1.0059935,0.6932875000000001,-0.0112905,0.8571635,0.4807774999999999,-0.0016925,0.7572835,0.7188175,-0.0548045,1.1446035,0.4905275,0.0046865,1.2373635,0.7195175,-0.0671745,0.7119435000000001,0.9484175,-0.1127445,1.2829635,0.9657275,-0.1269245,0.9265485,0.0007674999999999,-3.950000000000134e-05,1.0734515,-0.0007675,3.9499999999999605e-05,0.8661735,-0.3553225,-0.1303145,1.1205735,-0.3633125,-0.1381945,0.8643835,-0.6688824999999999,-0.0526125,1.1326135,-0.6819525,-0.0492175
43,1.0054335,0.69313,-0.0153514999999999,0.8571655,0.48041,-0.0061064999999999,0.7564655,0.7176499999999999,-0.0606565,1.1434455,0.48769,-0.0006034999999999,1.2358955,0.7170000000000001,-0.0734955,0.7107355,0.94831,-0.1197695,1.2822155,0.96395,-0.1354395,0.9262745,0.000595,0.0001895,1.0737255,-0.0005949999999999,-0.0001895,0.8650655,-0.3478,-0.1396794999999999,1.1212055,-0.3548,-0.1476595,0.8646155,-0.65438,-0.0551435,1.1319655,-0.66733,-0.0517375
44,1.0047959999999998,0.6928125,-0.0207804999999999,0.857207,0.4799225,-0.0121224999999999,0.755687,0.7164425000000001,-0.0678595,1.142257,0.4858425,-0.0072594999999999,1.2345769999999998,0.7150224999999999,-0.0809545,0.709757,0.9481025,-0.1281415,1.281537,0.9616225,-0.1463315,0.925951,0.0004524999999999,0.0002365,1.074049,-0.0004524999999999,-0.0002364999999999,0.863907,-0.3404475,-0.1503115,1.121787,-0.3464275,-0.1579515,0.864777,-0.6402874999999999,-0.0592755,1.131257,-0.6532875,-0.0556085
45,1.0039195,0.6907545,-0.0264065,0.8571044999999999,0.4805845,-0.0171725,0.7550145,0.7152745,-0.0752995,1.1413945,0.4866345,-0.0124824999999999,1.2329645,0.7133545,-0.0881975,0.7092145000000001,0.9501645,-0.1359375,1.2805945,0.9593145,-0.1565774999999999,0.9255555,0.0002214999999999,0.0002824999999999,1.0744445,-0.0002214999999999,-0.0002824999999999,0.8625745,-0.3317255,-0.1603774999999999,1.1223245,-0.3375055,-0.1679774999999999,0.8648245,-0.6273755,-0.0633035,1.1303845,-0.6407855,-0.0589225
46,1.0025545,0.6895399999999999,-0.0325345,0.8565725,0.47972,-0.0234785,0.7535325000000002,0.7137699999999999,-0.0834195,1.1399925,0.48719,-0.0189014999999999,1.2309425,0.71215,-0.0962995,0.7081925,0.9515,-0.1461495,1.2793425,0.95796,-0.1666595,0.9251135,9.999999999996125e-06,0.0005025,1.0748865,-9.999999999996125e-06,-0.0005024999999999,0.8608025,-0.31971,-0.1707195,1.1227325,-0.32488,-0.1777895,0.8643325,-0.6114700000000001,-0.0675545,1.1289925,-0.62578,-0.0618885
47,1.0009005,0.68872,-0.0382405,0.8557625,0.4799,-0.0289345,0.7523025,0.7124,-0.0911044999999999,1.1384225,0.4892,-0.0242105,1.2291825,0.7108800000000001,-0.1040445,0.7069325,0.95243,-0.1555845,1.2777325,0.95738,-0.1761945,0.9245925000000002,-0.0004099999999999,0.0007744999999999,1.0754074999999998,0.00041,-0.0007745,0.8589725,-0.30687,-0.1801545,1.1228725,-0.3118499999999999,-0.1864145,0.8635425000000001,-0.5942,-0.0706295,1.1275125,-0.60959,-0.0643275
48,0.999044,0.690465,-0.043577,0.854712,0.480095,-0.03503,0.750302,0.7124349999999999,-0.098357,1.136342,0.488855,-0.030867,1.227402,0.710925,-0.111007,0.7052320000000001,0.952065,-0.166067,1.276202,0.958405,-0.1848169999999999,0.924342,-0.000215,0.0009449999999999,1.075658,0.0002149999999999,-0.0009449999999999,0.856102,-0.291135,-0.192027,1.123522,-0.296075,-0.1982769999999999,0.862622,-0.574275,-0.07278,1.125862,-0.590815,-0.06305
49,0.9971850000000001,0.6914250000000001,-0.048704,0.8537399999999999,0.481285,-0.040276,0.74849,0.716145,-0.1055219999999999,1.13437,0.488595,-0.036609,1.2258499999999999,0.714535,-0.1178519999999999,0.7036,0.951125,-0.175742,1.27475,0.958905,-0.1948119999999999,0.924137,-0.0001149999999999,0.0010419999999999,1.075863,0.000115,-0.001042,0.8533200000000001,-0.275935,-0.202772,1.12426,-0.280505,-0.2088819999999999,0.8618399999999999,-0.555095,-0.0745229999999999,1.12453,-0.572465,-0.0641559999999999
50,0.9954885000000001,0.6924399999999999,-0.0540475,0.8527575000000001,0.48205,-0.0456785,0.7469675,0.71745,-0.1136595,1.1324575000000001,0.48839,-0.0425325,1.2237375,0.71397,-0.1247995,0.7021475000000001,0.9559,-0.1844295,1.2729675,0.95757,-0.2043695,0.9239415,-0.00018,0.0009905,1.0760585,0.0001799999999999,-0.0009904999999999,0.8499675000000001,-0.25797,-0.2138795,1.1251875,-0.26264,-0.2201595,0.8613474999999999,-0.53398,-0.0761095,1.1231875,-0.55172,-0.0648044999999999
51,0.9939055000000001,0.693595,-0.0594829999999999,0.8519194999999999,0.482355,-0.051148,0.7456295000000002,0.7159150000000001,-0.121423,1.1306295,0.487915,-0.048487,1.2217595,0.7137850000000001,-0.1316729999999999,0.7007995,0.958835,-0.193653,1.2710995,0.956835,-0.213593,0.9236785,-0.000195,0.000895,1.0763215,0.000195,-0.000895,0.8467195000000001,-0.240535,-0.224963,1.1261295,-0.244645,-0.2312129999999999,0.8608195000000001,-0.5124850000000001,-0.07697,1.1219595,-0.530375,-0.066049
52,0.9928885,0.69489,-0.0630594999999999,0.8514545,0.48324,-0.0544195,0.7444345,0.7158,-0.1263065,1.1292845,0.48823,-0.0526435,1.2206044999999999,0.7155400000000001,-0.1363565,0.6995045000000001,0.95984,-0.2015565,1.2700745,0.95736,-0.2213065,0.9235065000000001,-0.0001499999999999,0.0008534999999999,1.0764935,0.00015,-0.0008535,0.8440245,-0.2252099999999999,-0.2338965,1.1271545,-0.22907,-0.2402365,0.8608045,-0.49411,-0.0768685,1.1215145,-0.51309,-0.0682754999999999
53,0.9917545,0.6954199999999999,-0.0677545,0.8509355000000001,0.48222,-0.0590165,0.7435755,0.71515,-0.1318165,1.1278555,0.4875499999999999,-0.0575025,1.2192955,0.71703,-0.1415065,0.6985755,0.96065,-0.2092065,1.2687454999999999,0.95913,-0.2278364999999999,0.9232925,-0.00024,0.0007274999999999,1.0767075,0.0002399999999999,-0.0007275,0.8409355000000001,-0.20574,-0.2447264999999999,1.1281255,-0.20955,-0.2510965,0.8608155,-0.47189,-0.0767365,1.1211855,-0.49188,-0.0701104999999999
54,0.9906825000000001,0.69696,-0.071946,0.8504845,0.4814199999999999,-0.06331,0.7427945,0.71546,-0.136787,1.1265045,0.4871199999999999,-0.0621909999999999,1.2180845,0.71909,-0.146437,0.6978845,0.96129,-0.216167,1.2673145,0.95653,-0.2343269999999999,0.9230405,-0.0002,0.0007059999999999,1.0769595,0.0001999999999999,-0.0007059999999999,0.8380045,-0.1864,-0.254947,1.1292245,-0.18958,-0.261887,0.8611545,-0.4501900000000001,-0.076317,1.1211345,-0.47055,-0.0717
55,0.9900670000000001,0.6974450000000001,-0.076094,0.850379,0.482485,-0.066892,0.742599,0.716365,-0.141254,1.125529,0.487015,-0.066218,1.217459,0.7206950000000001,-0.150814,0.698069,0.962255,-0.221524,1.266429,0.956545,-0.2396339999999999,0.922865,-0.0002249999999999,0.000796,1.077135,0.000225,-0.0007959999999999,0.835259,-0.169435,-0.265774,1.1302889999999999,-0.1728549999999999,-0.2729439999999999,0.861819,-0.431435,-0.076014,1.121599,-0.451825,-0.074264
56,0.9895415000000001,0.6986300000000001,-0.078866,0.8503615000000001,0.48147,-0.069719,0.7422314999999999,0.71657,-0.144106,1.1248015,0.48445,-0.06978,1.2169115,0.71982,-0.153236,0.6982014999999999,0.96169,-0.2253959999999999,1.2657715,0.95721,-0.243506,0.9229215,-3.999999999998449e-05,0.0008669999999999,1.0770785,4.000000000004e-05,-0.0008669999999999,0.8325515,-0.1516099999999999,-0.275466,1.1314615,-0.1554199999999999,-0.283716,0.8626315,-0.4127699999999999,-0.075266,1.1224615,-0.4319999999999999,-0.076206
57,0.9891005,0.696795,-0.081295,0.8503315000000001,0.480855,-0.071055,0.7418815000000001,0.7156750000000001,-0.146255,1.1245115,0.485265,-0.070855,1.2162215,0.719365,-0.155215,0.6979115,0.962095,-0.2270249999999999,1.2651415,0.956835,-0.246495,0.9230155,-0.000395,0.0009379999999999,1.0769845,0.0003949999999999,-0.000938,0.8307115,-0.136125,-0.281785,1.1318315,-0.140575,-0.289915,0.8632915000000001,-0.397235,-0.074585,1.1235515,-0.414935,-0.077335
58,0.9885495,0.695155,-0.0836295,0.8498985,0.4791649999999999,-0.0727095,0.7413084999999999,0.714155,-0.1482195,1.1241185,0.485155,-0.0725795,1.2152285,0.719565,-0.1568895,0.6974985,0.964915,-0.2292795,1.2643685,0.959865,-0.2475295,0.9230285,-0.000755,0.0009584999999999,1.0769715,0.000755,-0.0009585,0.8288085000000001,-0.117575,-0.2890395,1.1321685,-0.122345,-0.2972895,0.8636185000000001,-0.3799849999999999,-0.0747195,1.1247685,-0.396095,-0.0791095
59,0.9882340000000001,0.69365,-0.0827065,0.84985,0.478612,-0.0709165,0.74108,0.71351,-0.1467665,1.12394,0.48504,-0.0710265,1.21501,0.72265,-0.1547065,0.69731,0.96578,-0.2280265,1.26385,0.96104,-0.2451665,0.9227980000000001,-0.00092,0.0008854999999999,1.077202,0.0009199999999999,-0.0008855,0.82757,-0.10027,-0.2925765,1.13247,-0.10558,-0.3010865,0.86375,-0.3645899999999999,-0.0726665,1.12616,-0.37912,-0.0786365
60,0.9879270000000001,0.6917949999999999,-0.081483,0.849909,0.477886,-0.0691229999999999,0.7406889999999999,0.7149449999999999,-0.145363,1.123899,0.4850509999999999,-0.069453,1.214989,0.724375,-0.151913,0.6964090000000001,0.964585,-0.2267529999999999,1.263089,0.959765,-0.242023,0.922601,-0.001165,0.000798,1.077399,0.0011649999999999,-0.000798,0.826409,-0.086365,-0.295983,1.132979,-0.091405,-0.304963,0.8638589999999999,-0.349145,-0.071343,1.127539,-0.362305,-0.077953
61,0.9875240000000001,0.689905,-0.0803145,0.8497890000000001,0.476887,-0.0675045,0.740379,0.714935,-0.1443245,1.123689,0.484975,-0.0678845,1.214739,0.724985,-0.1494245,0.6951689999999999,0.962985,-0.2251044999999999,1.262319,0.958025,-0.2393845,0.922399,-0.0014049999999999,0.0007204999999999,1.077601,0.0014049999999999,-0.0007204999999999,0.825109,-0.072795,-0.2992045,1.1333389999999999,-0.077265,-0.3086645,0.863749,-0.3344749999999999,-0.0705445,1.1281889999999999,-0.345365,-0.0761445
62,0.987064,0.688975,-0.0790084999999999,0.8495429999999999,0.477564,-0.0655785,0.7396130000000001,0.715345,-0.1431585,1.123383,0.485996,-0.0665685,1.2136529999999999,0.723205,-0.1474685,0.693873,0.962445,-0.2241385,1.261303,0.956095,-0.2374285,0.922226,-0.0015149999999999,0.0007274999999999,1.077774,0.0015149999999999,-0.0007274999999999,0.8241030000000001,-0.060805,-0.3008285,1.133613,-0.065125,-0.3116784999999999,0.8634729999999999,-0.323125,-0.0706585,1.128603,-0.331885,-0.0753485
63,0.9865835,0.68748,-0.0780714999999999,0.8491725,0.477718,-0.0642515,0.7390425,0.71533,-0.1424315,1.1230325,0.486439,-0.0655415,1.2131224999999999,0.72036,-0.1461415,0.6924925,0.96202,-0.2234215,1.2607724999999999,0.95784,-0.2361015,0.9220524999999999,-0.0017399999999999,0.0007185,1.0779475,0.00174,-0.0007184999999999,0.8230025,-0.0487799999999999,-0.3022215,1.1338025,-0.0528299999999999,-0.3145314999999999,0.8628925000000001,-0.31154,-0.0710315,1.1287025,-0.31859,-0.0751015
64,0.9862525000000001,0.686205,-0.077059,0.8488735000000001,0.4769279999999999,-0.063229,0.7388135,0.714595,-0.141409,1.1227735,0.4855549999999999,-0.064769,1.2126035,0.7167349999999999,-0.146029,0.6911835,0.960015,-0.222369,1.2603035,0.958265,-0.234379,0.9219935,-0.001855,0.000835,1.0780065,0.0018549999999999,-0.000835,0.8220035,-0.037215,-0.302149,1.1340735,-0.040915,-0.316729,0.8623735000000001,-0.300545,-0.070719,1.1287535,-0.3058850000000001,-0.075049
65,0.9858315,0.684,-0.076834,0.8486025,0.477169,-0.062964,0.7383925,0.7139,-0.141184,1.1224825,0.485191,-0.064544,1.2126425,0.7153,-0.146384,0.6900325,0.95926,-0.2221139999999999,1.2605525,0.95587,-0.233984,0.9219075,-0.0018999999999999,0.0010279999999999,1.0780925,0.0019,-0.001028,0.8210425,-0.0279399999999999,-0.302094,1.1343525,-0.03115,-0.318454,0.8619525,-0.2910399999999999,-0.070594,1.1286925,-0.2959799999999999,-0.075364
66,0.985395,0.682955,-0.0767005,0.848556,0.477472,-0.0624705,0.737606,0.713825,-0.1410404999999999,1.122326,0.48524,-0.0644204999999999,1.212836,0.714635,-0.1464305,0.689156,0.959245,-0.2219705,1.2606760000000001,0.950605,-0.2322905,0.921926,-0.0019549999999999,0.0010785,1.078074,0.001955,-0.0010784999999999,0.820006,-0.017405,-0.3019405,1.1347260000000001,-0.0204149999999999,-0.3198404999999999,0.8610260000000001,-0.280745,-0.0704505,1.128596,-0.285135,-0.0757205
67,0.985135,0.682535,-0.076595,0.84882,0.478163,-0.061605,0.73731,0.714155,-0.140635,1.1224,0.485493,-0.064325,1.2136,0.714155,-0.145905,0.68866,0.959405,-0.221515,1.2610000000000001,0.945665,-0.230745,0.922064,-0.001875,0.0010649999999999,1.077936,0.001875,-0.001065,0.81776,-0.0079549999999999,-0.301765,1.13533,-0.0109149999999999,-0.320555,0.85957,-0.274815,-0.071595,1.12842,-0.275515,-0.076025
68,0.9853145000000001,0.68182,-0.075998,0.8492945000000001,0.4786149999999999,-0.0600879999999999,0.7369245,0.7143999999999999,-0.140138,1.1226245,0.4859999999999999,-0.0640179999999999,1.2144845,0.71397,-0.145358,0.6884645,0.95938,-0.220498,1.2619045,0.94336,-0.229118,0.9221355,-0.00184,0.0010819999999999,1.0778645,0.0018399999999999,-0.0010819999999999,0.8153045,3.999999999992898e-05,-0.301548,1.1361145,-0.00239,-0.3211179999999999,0.8587945,-0.2703000000000001,-0.0727579999999999,1.1285645,-0.26687,-0.076168
69,0.98563,0.68153,-0.074973,0.849777,0.479202,-0.058463,0.7371369999999999,0.71485,-0.1378329999999999,1.1229669999999998,0.486487,-0.063573,1.215457,0.71384,-0.144793,0.688257,0.96241,-0.2188629999999999,1.262857,0.94239,-0.2275329999999999,0.922141,-0.0017099999999999,0.0012539999999999,1.077859,0.0017099999999999,-0.0012539999999999,0.812697,0.0069399999999999,-0.301093,1.136777,0.0051799999999999,-0.321473,0.8581170000000001,-0.2668899999999999,-0.073783,1.1285569999999998,-0.25911,-0.076363
70,0.9859380000000001,0.6811349999999999,-0.0738699999999999,0.850195,0.4804929999999999,-0.05702,0.736965,0.7160849999999999,-0.13568,1.123325,0.4875169999999999,-0.06309,1.216675,0.714375,-0.14436,0.688035,0.965095,-0.21766,1.263785,0.941285,-0.2261399999999999,0.922146,-0.001665,0.001415,1.077854,0.0016649999999999,-0.0014149999999999,0.8102050000000001,0.0135149999999999,-0.30027,1.137395,0.0123349999999998,-0.32202,0.857455,-0.2641450000000001,-0.07453,1.128555,-0.2520350000000001,-0.07662
71,0.9862865,0.680505,-0.0726875,0.8508005000000001,0.481636,-0.0554475,0.7369505000000001,0.7161250000000001,-0.1332575,1.1238305,0.488751,-0.0625275,1.2181004999999998,0.7179350000000001,-0.1442675,0.6879905,0.965955,-0.2159375,1.2647405,0.939785,-0.2248175,0.9221985,-0.0017049999999999,0.0015654999999999,1.0778015,0.001705,-0.0015655,0.8079105,0.019715,-0.2992575,1.1379504999999999,0.0189450000000001,-0.3235175,0.8568205,-0.2622449999999999,-0.0755975,1.1285305,-0.245525,-0.0786775
72,0.986929,0.679905,-0.0712775,0.851676,0.4828559999999999,-0.0538175,0.737446,0.717405,-0.1306875,1.124636,0.4899639999999999,-0.0618574999999999,1.219806,0.722035,-0.1439275,0.6883360000000001,0.966965,-0.2131175,1.2661660000000001,0.938795,-0.2236574999999999,0.92232,-0.001735,0.0017474999999999,1.07768,0.0017349999999999,-0.0017474999999999,0.805976,0.0249949999999999,-0.2980475,1.138676,0.0244249999999999,-0.3246975,0.8562260000000002,-0.2612150000000001,-0.0761775,1.128666,-0.240045,-0.0804475
73,0.98749,0.679685,-0.0698835,0.852382,0.484382,-0.0523135,0.737742,0.717905,-0.1280335,1.125242,0.491778,-0.0612235,1.221362,0.726425,-0.1435435,0.688662,0.968565,-0.2104935,1.267662,0.938095,-0.2224935,0.922484,-0.001815,0.0019424999999999,1.077516,0.001815,-0.0019424999999999,0.804072,0.0297749999999999,-0.2967935,1.1392120000000001,0.029375,-0.3257135,0.8555920000000001,-0.260605,-0.0763035,1.128512,-0.235085,-0.0821435
74,0.9880400000000001,0.679955,-0.0684589999999999,0.85301,0.485964,-0.050889,0.73802,0.720385,-0.1256489999999999,1.1257899999999998,0.493568,-0.0605989999999999,1.22272,0.729515,-0.142679,0.6888799999999999,0.970665,-0.207639,1.26929,0.938165,-0.221579,0.922645,-0.001905,0.002187,1.077355,0.001905,-0.002187,0.80218,0.034015,-0.295649,1.13951,0.0336549999999999,-0.326439,0.8546400000000001,-0.260125,-0.0763389999999999,1.12821,-0.230805,-0.083599
75,0.9888225,0.6794549999999999,-0.0670359999999999,0.8535265,0.487162,-0.049716,0.7385965,0.722065,-0.123356,1.1264965,0.494629,-0.059956,1.2246765,0.731375,-0.142426,0.6893865,0.971165,-0.204736,1.2711465,0.939875,-0.220656,0.9228415000000001,-0.001925,0.0025319999999999,1.0771585,0.0019249999999999,-0.0025319999999999,0.8006665,0.036115,-0.295116,1.1398765,0.035605,-0.326416,0.8544265,-0.261615,-0.076126,1.1280965,-0.2288649999999999,-0.084396
76,0.9894620000000001,0.678905,-0.065807,0.853853,0.487862,-0.048891,0.739153,0.722765,-0.121247,1.127073,0.495329,-0.059317,1.225883,0.731085,-0.141737,0.689883,0.971625,-0.2022169999999999,1.272973,0.940445,-0.219667,0.922983,-0.0020149999999999,0.0028489999999999,1.0770170000000001,0.0020149999999999,-0.002849,0.800453,0.0373149999999999,-0.294657,1.140163,0.0364149999999999,-0.326357,0.8543229999999999,-0.261085,-0.076007,1.127873,-0.228035,-0.085167
77,0.990083,0.678505,-0.0648245,0.854128,0.488082,-0.0482665,0.739868,0.722985,-0.1193845,1.1275979999999999,0.495549,-0.0587745,1.227378,0.731115,-0.1413845,0.690388,0.971845,-0.2000344999999999,1.274748,0.940545,-0.2186145,0.9231610000000001,-0.0020949999999999,0.0031334999999999,1.0768389999999999,0.002095,-0.0031334999999999,0.800708,0.038165,-0.2941445,1.140408,0.036885,-0.3262545,0.854198,-0.2610049999999999,-0.0759845,1.127438,-0.2275049999999999,-0.0859244999999999
78,0.990702,0.678235,-0.063964,0.854419,0.488082,-0.047596,0.740459,0.722985,-0.1187939999999999,1.128089,0.495549,-0.058114,1.228409,0.731115,-0.140514,0.690939,0.971845,-0.198414,1.276489,0.940425,-0.2174839999999999,0.923255,-0.0020949999999999,0.00319,1.076745,0.002095,-0.0031899999999999,0.800979,0.038745,-0.293394,1.140309,0.037125,-0.3259339999999999,0.854229,-0.261275,-0.0757539999999999,1.126439,-0.2271649999999999,-0.086404
79,0.9913045,0.678235,-0.0636215,0.8546525,0.488713,-0.0472945,0.7407325,0.723965,-0.1184914999999999,1.1285525,0.496213,-0.0578115,1.2299025000000001,0.731245,-0.1397215,0.6914125,0.971845,-0.1974615,1.2782025,0.940325,-0.2166515,0.9233235,-0.0020949999999999,0.0031785,1.0766765,0.002095,-0.0031785,0.8011925,0.0398549999999999,-0.2932415,1.1399625,0.0375849999999999,-0.3256914999999999,0.8545625,-0.261475,-0.0755215,1.1265925,-0.2272549999999999,-0.0881115
80,0.9918805,0.678235,-0.063646,0.8547865,0.489915,-0.047298,0.7408764999999999,0.725465,-0.1184959999999999,1.1288165000000001,0.497223,-0.057826,1.2312865,0.731645,-0.139426,0.6917765,0.972135,-0.197436,1.2796764999999999,0.940305,-0.2160659999999999,0.9234215,-0.0020949999999999,0.0031759999999999,1.0765785,0.002095,-0.003176,0.8013665,0.0410749999999999,-0.293356,1.1393965,0.037765,-0.325666,0.8547065,-0.261645,-0.0755359999999999,1.1267065,-0.2273149999999999,-0.089276
81,0.9925455000000001,0.6780050000000001,-0.063668,0.8548155,0.49122,-0.047299,0.7412255,0.727485,-0.118658,1.1289855,0.498309,-0.057698,1.2325955,0.732095,-0.139108,0.6919255,0.973205,-0.197438,1.2810455,0.940075,-0.215518,0.9234805,-0.0021649999999999,0.0031739999999999,1.0765195,0.002165,-0.003174,0.8017755,0.042255,-0.293368,1.1389655,0.0378250000000001,-0.325658,0.8547555,-0.2616549999999999,-0.075768,1.1265755,-0.2275549999999999,-0.091188
82,0.9932105,0.677575,-0.063688,0.8547755000000001,0.491811,-0.047365,0.7415255000000001,0.728785,-0.118758,1.1290855,0.498759,-0.057578,1.2335055,0.7325750000000001,-0.138688,0.6921955,0.973535,-0.197398,1.2822655,0.939565,-0.215558,0.9234805,-0.0021749999999999,0.0031739999999999,1.0765195,0.002175,-0.003174,0.8019355000000001,0.042685,-0.293368,1.1387554999999998,0.0374350000000001,-0.325648,0.8546555,-0.2620149999999999,-0.075978,1.1261255000000001,-0.2307349999999999,-0.092928
83,0.9938935000000001,0.6774549999999999,-0.064026,0.8547315,0.4921899999999999,-0.047649,0.7417715,0.7299549999999999,-0.118896,1.1291315,0.4987359999999999,-0.0577059999999999,1.2342015,0.7330549999999999,-0.137996,0.6926915,0.973855,-0.197286,1.2833515,0.938735,-0.215726,0.9234805000000001,-0.002045,0.003196,1.0765194999999999,0.0020449999999999,-0.0031959999999999,0.8019315000000001,0.0425749999999999,-0.293496,1.1386415,0.0364649999999999,-0.3240659999999999,0.8541615000000001,-0.262905,-0.075606,1.1260315,-0.234845,-0.092756
84,0.9943525,0.677745,-0.0649319999999999,0.8545965,0.49225,-0.048465,0.7416165,0.730505,-0.119582,1.1290865,0.498257,-0.058522,1.2345864999999998,0.733365,-0.137792,0.6935264999999999,0.974435,-0.197702,1.2841165,0.937455,-0.216092,0.9235835,-0.001885,0.003012,1.0764165,0.001885,-0.003012,0.8018365000000001,0.041755,-0.293882,1.1385265,0.035055,-0.322702,0.8537565,-0.263305,-0.075972,1.1257665000000001,-0.2380649999999999,-0.093402
85,0.9946315000000001,0.67842,-0.0658395,0.8545575,0.491172,-0.0494405,0.7418575000000001,0.72987,-0.1202095,1.1290875,0.496634,-0.0594995,1.2345475,0.7321200000000001,-0.1377295,0.6941474999999999,0.97451,-0.1983095,1.2843575,0.93995,-0.2167295,0.9237075,-0.00173,0.0028175,1.0762925,0.00173,-0.0028175,0.8019775,0.03918,-0.2941994999999999,1.1384975,0.03219,-0.3215095,0.8533575,-0.26486,-0.0765694999999999,1.1255074999999999,-0.2416699999999999,-0.0941595
86,0.9947360000000001,0.67914,-0.067065,0.854461,0.4891959999999999,-0.050676,0.742171,0.7281799999999999,-0.121455,1.129141,0.494152,-0.060625,1.234481,0.72995,-0.138135,0.6945410000000001,0.97396,-0.199665,1.284621,0.94071,-0.217745,0.923647,-0.00153,0.002706,1.0763530000000001,0.0015299999999999,-0.002706,0.801971,0.0350099999999999,-0.294475,1.138441,0.02788,-0.321605,0.852921,-0.2675,-0.077795,1.125711,-0.24636,-0.0967349999999999
87,0.9947195000000001,0.680125,-0.0685635,0.8546205,0.488999,-0.0514775,0.7424904999999999,0.727555,-0.1222135,1.1293705,0.492757,-0.0612235,1.2344505,0.726765,-0.1385935,0.6951505,0.972075,-0.2010835,1.2854804999999998,0.940015,-0.2185435,0.9236305,-0.001225,0.0025545,1.0763695,0.001225,-0.0025545,0.8019405,0.029735,-0.2947535,1.1384105,0.022225,-0.3222635,0.8525805000000001,-0.2722449999999999,-0.0792934999999999,1.1260705,-0.253335,-0.0998135
88,0.9946825,0.682625,-0.070799,0.8547315,0.488171,-0.0524869999999999,0.7424715,0.726735,-0.124479,1.1297115,0.491129,-0.062099,1.2343615,0.721625,-0.138579,0.6958715,0.972285,-0.203379,1.2863215000000001,0.936455,-0.220209,0.9235475,-0.000955,0.002522,1.0764525,0.000955,-0.0025219999999999,0.8018215,0.022635,-0.2950589999999999,1.1383115,0.014485,-0.323399,0.8521715,-0.280435,-0.081549,1.1263415,-0.263995,-0.103659
89,0.994603,0.68368,-0.0722485,0.8548390000000001,0.487071,-0.0525775,0.742659,0.72548,-0.1257984999999999,1.1301189999999999,0.489191,-0.0620785,1.2344789999999999,0.71468,-0.1392685,0.6966589999999999,0.97186,-0.2054185,1.2877290000000001,0.93254,-0.2215885,0.923488,-0.00069,0.0025414999999999,1.076512,0.0006899999999999,-0.0025415,0.8017190000000001,0.0104199999999999,-0.2951385,1.138949,0.0040799999999999,-0.3240985,0.8519090000000001,-0.2942599999999999,-0.0840585,1.126989,-0.27973,-0.1075685
90,0.994727,0.6848650000000001,-0.073027,0.8549780000000001,0.485869,-0.0519779999999999,0.7427980000000001,0.723745,-0.126707,1.130638,0.487798,-0.061687,1.234488,0.710615,-0.139067,0.697408,0.971115,-0.207147,1.289148,0.932555,-0.222237,0.923311,-0.0003549999999999,0.0025769999999999,1.076689,0.0003549999999999,-0.002577,0.801578,-0.003825,-0.294907,1.1401080000000001,-0.008475,-0.324387,0.851888,-0.3101049999999999,-0.085977,1.128148,-0.297745,-0.1119469999999999
91,0.99471,0.68677,-0.07267,0.855143,0.4850109999999999,-0.0504609999999999,0.742773,0.72234,-0.12648,1.131103,0.4861009999999999,-0.0603699999999999,1.233943,0.7091399999999999,-0.13818,0.697963,0.96993,-0.20782,1.2902529999999999,0.93495,-0.22228,0.923139,-0.00013,0.0026759999999999,1.076861,0.0001299999999999,-0.0026759999999999,0.801523,-0.01969,-0.2941,1.1411529999999999,-0.02284,-0.32442,0.8518129999999999,-0.32739,-0.08745,1.1303329999999998,-0.31789,-0.11512
92,0.9946765,0.6887800000000001,-0.071071,0.8551155,0.48446,-0.04808,0.7426455000000001,0.7214100000000001,-0.124931,1.1314955,0.484722,-0.058272,1.2328955,0.7075800000000001,-0.136151,0.6983455000000001,0.9686,-0.207121,1.2907355,0.93879,-0.221651,0.9230395,0.00015,0.0027159999999999,1.0769605,-0.0001499999999999,-0.002716,0.8013855,-0.0365499999999999,-0.292641,1.1415354999999998,-0.0382499999999999,-0.323461,0.8516055,-0.346,-0.088461,1.1332055,-0.34014,-0.118471
93,0.9945485,0.690555,-0.0681715,0.8549185000000001,0.484085,-0.0446274999999999,0.7424185000000001,0.720515,-0.1223314999999999,1.1318085,0.483276,-0.0551064999999999,1.2320085,0.705085,-0.1334115,0.6983685,0.965905,-0.2050114999999999,1.2911485,0.941765,-0.2199815,0.9229685,0.000375,0.0027184999999999,1.0770315,-0.0003749999999999,-0.0027184999999999,0.8012485,-0.053755,-0.2899215,1.1414885,-0.0545749999999999,-0.3218115,0.8512985,-0.366125,-0.0891315,1.1357585000000001,-0.363765,-0.1214015
94,0.9946505,0.692115,-0.064767,0.8549985,0.485305,-0.040562,0.7429285,0.7209749999999999,-0.119187,1.1323185,0.482975,-0.05157,1.2316085,0.701955,-0.129197,0.6986085,0.962155,-0.201887,1.2922685,0.939075,-0.217267,0.9231085,0.0005549999999999,0.002714,1.0768915,-0.000555,-0.002714,0.8012485,-0.070645,-0.286887,1.1415585,-0.071635,-0.319827,0.8510185,-0.386695,-0.089527,1.1361385,-0.384645,-0.122637
95,0.9946560000000001,0.6940500000000001,-0.0607995,0.855102,0.48703,-0.0362545,0.7429520000000001,0.72192,-0.1155895,1.132892,0.4839,-0.0476455,1.231522,0.69813,-0.1242295,0.698852,0.96288,-0.1983995,1.2933919999999999,0.93704,-0.2122395,0.923139,0.00078,0.0027135,1.076861,-0.00078,-0.0027135,0.801102,-0.0877,-0.2837095,1.141442,-0.0867899999999999,-0.3156795,0.850782,-0.4081199999999999,-0.0895195,1.134242,-0.406,-0.1206995
96,0.994596,0.696095,-0.055712,0.855272,0.487415,-0.031721,0.7430220000000001,0.721695,-0.1104479999999999,1.1337220000000001,0.484695,-0.043202,1.231512,0.693245,-0.1173879999999999,0.6989920000000001,0.964735,-0.194288,1.2943120000000001,0.934075,-0.206728,0.92313,0.0008549999999999,0.002963,1.07687,-0.0008549999999999,-0.002963,0.801452,-0.105955,-0.278548,1.141392,-0.1045749999999999,-0.310238,0.850652,-0.430685,-0.0890779999999999,1.134812,-0.430795,-0.119398
97,0.9947605,0.69753,-0.048499,0.8554885,0.48905,-0.025464,0.7432985000000001,0.72133,-0.1030009999999999,1.1345285,0.4843699999999999,-0.037489,1.2316585,0.69216,-0.110041,0.6992785,0.96175,-0.1861209999999999,1.2946085,0.936,-0.198271,0.9231265,0.0011599999999999,0.00313,1.0768735,-0.0011599999999999,-0.00313,0.8030085000000001,-0.1276499999999999,-0.271271,1.1413685,-0.12643,-0.301701,0.8506085,-0.45603,-0.087701,1.1350985,-0.45965,-0.1174109999999999
98,0.9952055,0.7010000000000001,-0.041126,0.8558765,0.49136,-0.019534,0.7434065000000001,0.72349,-0.094974,1.1355065,0.4843699999999999,-0.032087,1.2324864999999998,0.69859,-0.102214,0.6997264999999999,0.95713,-0.177054,1.2958465000000001,0.94054,-0.189044,0.9235045,0.0012699999999999,0.0030639999999999,1.0764955,-0.0012699999999999,-0.0030639999999999,0.8052665,-0.14638,-0.262944,1.1413464999999998,-0.14666,-0.290634,0.8506965,-0.47834,-0.085784,1.1351065,-0.48509,-0.114964
99,0.9959820000000001,0.70438,-0.0336179999999999,0.856044,0.49334,-0.0136049999999999,0.744364,0.7256799999999999,-0.0864569999999999,1.1366139999999998,0.48366,-0.026268,1.234044,0.70044,-0.0934469999999999,0.7002440000000001,0.95151,-0.167097,1.298414,0.94329,-0.179417,0.923851,0.0011499999999999,0.00293,1.076149,-0.00115,-0.0029299999999999,0.808014,-0.17024,-0.253667,1.141124,-0.17366,-0.278237,0.851004,-0.5051700000000001,-0.083047,1.135224,-0.51481,-0.112797
100,0.9966355,0.7066250000000001,-0.0255959999999999,0.8557605,0.493995,-0.0070789999999999,0.7443204999999999,0.726815,-0.0773269999999999,1.1373505,0.482295,-0.0199,1.2365005,0.698415,-0.0844169999999999,0.7002904999999999,0.945445,-0.156527,1.3005605,0.942495,-0.168897,0.9244565,0.001145,0.002778,1.0755435,-0.001145,-0.0027779999999999,0.8107005,-0.1944949999999999,-0.242607,1.1402805,-0.200505,-0.264197,0.8510805,-0.5324150000000001,-0.078567,1.1350105,-0.544225,-0.108957
101,0.9970770000000001,0.707005,-0.0144665,0.855273,0.494065,0.0029234999999999,0.743803,0.726485,-0.0651565,1.137713,0.4801649999999999,-0.0098915,1.238513,0.693015,-0.0722065,0.699913,0.944215,-0.1432965,1.302143,0.936955,-0.1536965,0.925403,0.0010249999999999,0.0025444999999999,1.074597,-0.0010249999999999,-0.0025445,0.815223,-0.221265,-0.2245665,1.137943,-0.229985,-0.2428265,0.850773,-0.562785,-0.0700465,1.134053,-0.576175,-0.0986565
102,0.9973620000000001,0.7081299999999999,-0.0036265,0.854523,0.49505,0.0126574999999999,0.7434430000000001,0.7275499999999999,-0.0532035,1.138753,0.4836399999999999,0.0001664999999999,1.239963,0.6952799999999999,-0.0599935,0.699353,0.94712,-0.1309435,1.302913,0.9362,-0.1390635,0.92631,0.0010099999999999,0.0022895,1.07369,-0.00101,-0.0022895,0.819893,-0.2486,-0.2042435,1.134563,-0.25833,-0.2170535,0.850843,-0.59256,-0.0591934999999999,1.133043,-0.6084700000000001,-0.0854935
103,0.997676,0.709435,0.006362,0.8538330000000001,0.495455,0.021237,0.743363,0.728445,-0.0423429999999999,1.1398329999999999,0.486575,0.009149,1.241383,0.698935,-0.0489629999999999,0.698843,0.951735,-0.1201029999999999,1.303853,0.936985,-0.125783,0.927206,0.0011049999999999,0.002014,1.072794,-0.001105,-0.002014,0.824753,-0.272325,-0.1845429999999999,1.131263,-0.2843449999999999,-0.191883,0.850983,-0.620445,-0.049153,1.132283,-0.639335,-0.0731129999999999
104,0.998297,0.7107045,0.0160695,0.853205,0.4963445,0.0295315,0.743295,0.7295345,-0.0321365,1.140595,0.4882845,0.0173284999999999,1.242165,0.7032045,-0.0396175,0.698295,0.9526545,-0.1097375,1.304205,0.9384545,-0.1147875,0.9279580000000001,0.0010814999999999,0.0017174999999999,1.072042,-0.0010814999999999,-0.0017174999999999,0.8307450000000001,-0.2951755,-0.1628175,1.128315,-0.3090055,-0.1660174999999999,0.8511150000000001,-0.6473055,-0.0395375,1.131425,-0.6700255,-0.0611775
105,0.9986940000000001,0.7118264999999999,0.0235795,0.852466,0.4963965,0.0357165,0.743486,0.7307565,-0.0241464999999999,1.140936,0.4886865,0.0231875,1.242896,0.7097865000000001,-0.0331054999999999,0.697506,0.9539065,-0.1005955,1.304856,0.9425065,-0.1052855,0.92854,0.0010425,0.0012085,1.07146,-0.0010425,-0.0012084999999999,0.836646,-0.3135535,-0.1424254999999999,1.125346,-0.3285135,-0.1417554999999999,0.851166,-0.6692635,-0.0312755,1.128136,-0.6949535,-0.0482854999999999
106,0.998751,0.7118855,0.028584,0.851739,0.4959655,0.03973,0.743539,0.7324755,-0.0190339999999999,1.141209,0.4906455,0.027505,1.244039,0.7143555,-0.0286,0.6966590000000001,0.9581155,-0.095442,1.3052190000000001,0.9447155,-0.098922,0.929146,0.0007925,0.0008299999999999,1.070854,-0.0007925,-0.0008299999999999,0.842489,-0.3249045,-0.1236819999999999,1.1223589999999999,-0.3417745,-0.119652,0.851349,-0.6846345,-0.0237229999999999,1.125139,-0.7129245,-0.0374619999999999
107,0.9988125000000001,0.711359,0.032406,0.8511385000000001,0.495029,0.043029,0.7436285,0.732019,-0.014907,1.1415285,0.492979,0.031299,1.2443785,0.7143189999999999,-0.0249019999999999,0.6960585,0.964559,-0.091539,1.3049884999999999,0.947269,-0.092939,0.9295695,0.0006739999999999,0.000639,1.0704305,-0.000674,-0.000639,0.8482485000000001,-0.3340909999999999,-0.105789,1.1202885,-0.350721,-0.099659,0.8517385,-0.6979010000000001,-0.017296,1.1235785,-0.725781,-0.029389
108,0.998804,0.7109854999999999,0.0360625,0.850455,0.4947855,0.0463465,0.743455,0.7322555,-0.0111175,1.141855,0.4953755,0.0348845,1.244085,0.7150255,-0.0217824999999999,0.695485,0.9725855,-0.0880265,1.304535,0.9482555,-0.0877265,0.92996,0.0006884999999999,0.0005924999999999,1.07004,-0.0006884999999999,-0.0005925,0.854075,-0.3439345,-0.0864165,1.118395,-0.3622045,-0.0796165,0.852235,-0.7113645000000001,-0.0111274999999999,1.122425,-0.7416645000000001,-0.0219305
109,0.998563,0.7109575,0.039331,0.849683,0.4955075,0.049432,0.742983,0.7332275,-0.0077219999999999,1.142043,0.4987574999999999,0.038257,1.2435329999999998,0.7167975,-0.0186799999999999,0.694653,0.9813975,-0.084761,1.303853,0.9505475,-0.0828509999999999,0.929833,0.0007024999999999,0.000533,1.070167,-0.0007025,-0.0005329999999999,0.859343,-0.3541925,-0.067491,1.1171829999999998,-0.3705325,-0.0604809999999999,0.852673,-0.7240025,-0.0060229999999999,1.121483,-0.7530125,-0.0158289999999999
110,0.9987565,0.712407,0.0420625,0.8494325,0.496687,0.0519785,0.7431025,0.734757,-0.0049344999999999,1.1426625,0.502707,0.0410745,1.2433224999999999,0.722097,-0.0163824999999999,0.6943425000000001,0.984877,-0.0818605,1.3033925,0.956327,-0.0794604999999999,0.9295975,0.0007239999999999,0.0005404999999999,1.0704025,-0.000724,-0.0005404999999999,0.8631725,-0.360383,-0.0518804999999999,1.1170825,-0.375623,-0.0434404999999999,0.8536525,-0.732193,-0.0010594999999999,1.1213024999999999,-0.761193,-0.0109925
111,0.999004,0.7128895,0.0443195,0.849278,0.4968895,0.0542985,0.743188,0.7348995,-0.0024014999999999,1.142728,0.5013495,0.0431325,1.2433379999999998,0.7208495,-0.0140214999999999,0.694168,0.9848895,-0.0789675,1.303038,0.9585595,-0.0763974999999999,0.929536,0.0006975,0.0005425,1.070464,-0.0006975,-0.0005424999999999,0.8669979999999999,-0.3649205,-0.0393674999999999,1.117058,-0.3799105,-0.0320974999999999,0.854088,-0.7364805,0.0013525,1.121248,-0.7654805,-0.0093584999999999
112,0.9992595,0.713082,0.0463485,0.8490685,0.497072,0.0565205,0.7432385,0.735062,1.15000000000115e-05,1.1427584999999998,0.5004620000000001,0.0452595,1.2434085,0.720012,-0.0120704999999999,0.6938885,0.985232,-0.0761324999999999,1.3028785,0.961282,-0.0741925,0.9293765,0.000623,0.0005475,1.0706235,-0.000623,-0.0005474999999999,0.8701785,-0.370378,-0.0267794999999999,1.1166885,-0.386248,-0.0207124999999999,0.8541485,-0.7403379999999999,0.0040135,1.1209485,-0.772438,-0.0076964999999999
113,0.9990680000000001,0.7129234999999999,0.0446205,0.8487080000000001,0.4970734999999999,0.0552785,0.743008,0.7352934999999999,-0.0009274999999999,1.142638,0.5004035,0.0443245,1.243318,0.7199935,-0.0131425,0.693388,0.9854535,-0.0769515,1.302788,0.9644335,-0.0757015,0.929101,0.0005815,0.0005305,1.070899,-0.0005815,-0.0005305,0.871748,-0.3742665,-0.0198205,1.116158,-0.3886265,-0.0167095,0.854048,-0.7427165,0.0035705,1.120758,-0.7748165,-0.0090874999999999
114,0.9989990000000001,0.712527,0.0428665,0.8485940000000001,0.497387,0.0543865,0.742954,0.735457,-0.0021634999999999,1.142484,0.500697,0.0435645,1.243104,0.7195969999999999,-0.0144924999999999,0.6927639999999999,0.985457,-0.0779965,1.302494,0.967367,-0.0780065,0.9290840000000001,0.0005949999999999,0.0005544999999999,1.070916,-0.000595,-0.0005544999999999,0.8727739999999999,-0.374923,-0.0142684999999999,1.115934,-0.387903,-0.0131444999999999,0.8540640000000002,-0.743403,0.0032584999999999,1.120774,-0.776483,-0.0103294999999999
115,0.9989485000000001,0.712148,0.0413025,0.8485705,0.497478,0.0538075,0.7429205,0.734908,-0.0030725,1.1423705,0.500538,0.0428525,1.2429005,0.7187180000000001,-0.0160145,0.6923305,0.984778,-0.0787565,1.3021705,0.969398,-0.0802765,0.9290865000000001,0.000628,0.0006374999999999,1.0709134999999999,-0.0006279999999999,-0.0006374999999999,0.8729205000000001,-0.376572,-0.0098835,1.1154805,-0.387602,-0.0106404999999999,0.8540605,-0.743452,0.0033475,1.1207405,-0.778092,-0.0112764999999999
116,0.9988670000000001,0.7116655,0.0398199999999999,0.848383,0.4976055,0.0538779999999999,0.742823,0.7343455,-0.003321,1.142273,0.4998355,0.0418079999999999,1.242783,0.7177755,-0.017642,0.691533,0.9841455,-0.079078,1.301773,0.9685055,-0.081898,0.929038,0.0007314999999999,0.0008499999999999,1.070962,-0.0007314999999999,-0.00085,0.873083,-0.3772445,-0.006564,1.115203,-0.3871645,-0.008458,0.854123,-0.7432645,0.0035869999999999,1.1207729999999998,-0.7790645,-0.01189
117,0.998657,0.7111805,0.0392654999999999,0.848109,0.4975405,0.0545994999999999,0.7422690000000001,0.7338505,-0.0027915,1.142299,0.4990205,0.0412454999999999,1.242769,0.7167105,-0.0182025,0.689829,0.9837805,-0.0789045,1.301759,0.9674405,-0.0824545,0.928878,0.0007964999999999,0.0012654999999999,1.071122,-0.0007964999999999,-0.0012655,0.873299,-0.3771195,-0.0051275,1.115009,-0.3866795,-0.0069125,0.854319,-0.7426794999999999,0.0041624999999999,1.120959,-0.7786695,-0.0116305
118,0.9984945000000001,0.7108975,0.0392254999999999,0.8479495,0.4979775,0.0553185,0.7415395,0.7338374999999999,-0.0021105,1.1427095,0.4984475,0.0411875,1.2428995,0.7161375,-0.0182525,0.6876695000000002,0.9832075,-0.0783435,1.3012595,0.9668675,-0.0829535,0.9287945,0.0007565,0.0013135,1.0712055,-0.0007565,-0.0013134999999999,0.8738895,-0.3782425,-0.0051334999999999,1.1156295,-0.3859825,-0.0060915,0.8552195,-0.7415425,0.0047405,1.1217895,-0.7770925000000001,-0.0107804999999999
119,0.998393,0.71092,0.039229,0.8478740000000001,0.49899,0.055756,0.740794,0.7338199999999999,-0.001464,1.143324,0.49843,0.0411679999999999,1.2431439999999998,0.71612,-0.0187449999999999,0.685494,0.98319,-0.077723,1.300964,0.96685,-0.085823,0.928817,0.000739,0.001313,1.071183,-0.000739,-0.0013129999999999,0.874634,-0.37949,-0.0051569999999999,1.117104,-0.3856199999999999,-0.006139,0.857004,-0.7398100000000001,0.004947,1.1235339999999998,-0.7749400000000001,-0.010379
