sb224sc-HT22-VT27/4dt907/src/data/kinect_good_preprocessed_A9_mediapipe/A153_kinect_mirrored.csv
FrameNo,nose_3d_x,nose_3d_y,nose_3d_z,left_shoulder_3d_x,left_shoulder_3d_y,left_shoulder_3d_z,left_elbow_3d_x,left_elbow_3d_y,left_elbow_3d_z,right_shoulder_3d_x,right_shoulder_3d_y,right_shoulder_3d_z,right_elbow_3d_x,right_elbow_3d_y,right_elbow_3d_z,left_wrist_3d_x,left_wrist_3d_y,left_wrist_3d_z,right_wrist_3d_x,right_wrist_3d_y,right_wrist_3d_z,left_hip_3d_x,left_hip_3d_y,left_hip_3d_z,right_hip_3d_x,right_hip_3d_y,right_hip_3d_z,left_knee_3d_x,left_knee_3d_y,left_knee_3d_z,right_knee_3d_x,right_knee_3d_y,right_knee_3d_z,left_ankle_3d_x,left_ankle_3d_y,left_ankle_3d_z,right_ankle_3d_x,right_ankle_3d_y,right_ankle_3d_z
65,1.029531,0.7241715,-0.020179,0.834145,0.5263415,-0.032852,0.683215,0.7118614999999999,-0.125153,1.196795,0.5035014999999999,-0.027996,1.384655,0.6729915,-0.104773,0.644085,0.9467315,-0.190903,1.447015,0.8970815,-0.174973,0.922959,0.0031954999999999,-0.000695,1.077041,-0.0031955,0.000695,0.8408250000000002,-0.4686185,0.0056349999999999,1.137165,-0.4658084999999999,0.023412,0.771305,-0.8615985,0.038865,1.182185,-0.8628485,0.071389
66,1.0302395,0.7224105000000001,-0.0272754999999999,0.8354785,0.5248405,-0.0407794999999999,0.6859585,0.7125705,-0.1320124999999999,1.1973885,0.5029505000000001,-0.0346115,1.3842485,0.6737705,-0.1109825,0.6488385,0.9447605,-0.1975025,1.4441485,0.8994005,-0.1788425,0.9228645,0.0033285,-0.0010624999999999,1.0771355,-0.0033285,0.0010625,0.8408285,-0.4663495,-0.0050965,1.1409085,-0.4634895,0.0123985,0.7735885,-0.8600494999999999,0.0346955,1.1848085,-0.8605495,0.0663775
67,1.031576,0.7188885,-0.0377544999999999,0.837526,0.5224085,-0.0516565,0.689276,0.7111285,-0.1428275,1.198396,0.5003085,-0.0442675,1.384586,0.6718785,-0.1210375,0.654756,0.9481885,-0.2073674999999999,1.440486,0.9032585,-0.1870475,0.92283,0.0034815,-0.0015235,1.07717,-0.0034814999999999,0.0015234999999999,0.840566,-0.4607914999999999,-0.0199855,1.145426,-0.4577914999999999,-0.0018725,0.776366,-0.8551215,0.0285535,1.188166,-0.8548515,0.0590175
68,1.0332185,0.7138565,-0.0504935,0.8402245,0.5197965,-0.0639845,0.6930145,0.7071265,-0.1563445,1.1996145,0.4972965,-0.0550815,1.3851944999999999,0.6689864999999999,-0.1332945,0.6618845,0.9515965,-0.2200145,1.4368145,0.9068265,-0.1982745,0.9229305,0.0036465,-0.0020675,1.0770695,-0.0036464999999999,0.0020675,0.8401645,-0.4533235,-0.0366675,1.1503245,-0.4502035,-0.0177475,0.7792945,-0.8482835000000001,0.0212915,1.1918345,-0.8472535,0.0501514999999999
69,1.034319,0.7080495,-0.0643105,0.842904,0.5159295,-0.0774415,0.696044,0.7024995,-0.1712295,1.2003339999999998,0.4945195,-0.0665275,1.3852039999999999,0.6653395,-0.1470195,0.668994,0.9553995,-0.2341195,1.432434,0.9048495,-0.2122695,0.92264,0.0036125,-0.0026015,1.07736,-0.0036125,0.0026014999999999,0.838604,-0.4436805,-0.0555984999999999,1.155364,-0.4406204999999999,-0.0350915,0.781664,-0.8392204999999999,0.0128005,1.195094,-0.8377505,0.0401065
70,1.035777,0.700733,-0.078992,0.845771,0.511073,-0.091433,0.699131,0.697353,-0.187346,1.201261,0.490053,-0.078262,1.385971,0.661153,-0.162256,0.6761710000000001,0.958803,-0.250736,1.428421,0.904063,-0.227486,0.922856,0.00363,-0.003073,1.077144,-0.0036299999999999,0.0030729999999999,0.836661,-0.4323769999999999,-0.074993,1.161931,-0.4302269999999999,-0.053492,0.784041,-0.827427,0.0037949999999999,1.1987709999999998,-0.825587,0.029757
71,1.0375345,0.6931499999999999,-0.0997774999999999,0.8486454999999999,0.5053799999999999,-0.1109235,0.7023855,0.69031,-0.2104895,1.2022855,0.48412,-0.0958914999999999,1.3872054999999999,0.65499,-0.1836295,0.6837355,0.95853,-0.2743695,1.4244055,0.8991399999999999,-0.2502395,0.9230405,0.0036759999999999,-0.0037205,1.0769595,-0.0036759999999999,0.0037204999999999,0.8333455,-0.4165999999999999,-0.1013085,1.1704755,-0.41545,-0.0787385,0.7858655,-0.81059,-0.0120415,1.2027355,-0.8078500000000001,0.0135274999999999
72,1.0397,0.6889435,-0.1209129999999999,0.852213,0.4995035,-0.130969,0.7057629999999999,0.6853735000000001,-0.2343469999999999,1.203193,0.4808035,-0.113995,1.387983,0.6526935,-0.2059269999999999,0.691333,0.9587035,-0.300157,1.420893,0.8953835,-0.2750869999999999,0.923233,0.0034654999999999,-0.0041219999999999,1.076767,-0.0034655,0.004122,0.827573,-0.3952365,-0.133818,1.183013,-0.3953765,-0.109942,0.7853330000000001,-0.7908965,-0.034101,1.207073,-0.7858864999999999,-0.0046079999999999
73,1.0416805,0.682258,-0.1426225,0.8553995,0.493768,-0.1517725,0.7083595,0.677958,-0.2595725,1.2038294999999999,0.475978,-0.1335435,1.3891695,0.647848,-0.2301425,0.6980395000000001,0.956068,-0.3258125,1.4167695,0.891128,-0.3007225,0.9235435,0.003491,-0.0044265,1.0764565,-0.0034909999999999,0.0044265,0.8215695000000001,-0.369502,-0.1658325,1.1950995,-0.370522,-0.1409905,0.7867295,-0.7644920000000001,-0.0525045,1.2108995,-0.759292,-0.0233465
74,1.043595,0.67572,-0.1638029999999999,0.8585039999999999,0.4895899999999999,-0.171003,0.710924,0.66943,-0.283443,1.204454,0.47208,-0.152096,1.390954,0.64353,-0.253653,0.704314,0.94684,-0.352873,1.412704,0.88631,-0.326073,0.923933,0.0035199999999999,-0.0046589999999999,1.076067,-0.00352,0.0046589999999999,0.815524,-0.34383,-0.196853,1.2063139999999999,-0.34576,-0.170543,0.7879039999999999,-0.73792,-0.070492,1.214184,-0.73253,-0.041475
75,1.0456515,0.6702400000000001,-0.1842155,0.8617835,0.4839099999999999,-0.1892855,0.7133535,0.6619700000000001,-0.3062455,1.2052435,0.4667599999999999,-0.1704955,1.3924835,0.63727,-0.2758155,0.7092435,0.94436,-0.3771955,1.4102035,0.88268,-0.3512755,0.9244135,0.00356,-0.0048805,1.0755865,-0.00356,0.0048804999999999,0.8094735,-0.3172399999999999,-0.2274555,1.2171135,-0.31976,-0.1995055,0.7889035,-0.7088099999999999,-0.0876565,1.2170935,-0.70368,-0.0585235
76,1.047569,0.6646650000000001,-0.201536,0.865122,0.478265,-0.204806,0.715712,0.654945,-0.326456,1.206042,0.463045,-0.185946,1.3938220000000001,0.633625,-0.295416,0.713522,0.937585,-0.400346,1.4085320000000001,0.872085,-0.374546,0.924981,0.0037349999999999,-0.005081,1.075019,-0.003735,0.005081,0.804012,-0.293485,-0.254266,1.227812,-0.295865,-0.225406,0.789622,-0.6815950000000001,-0.102805,1.219842,-0.676825,-0.073215
77,1.048873,0.659635,-0.217502,0.8679800000000001,0.472215,-0.219322,0.71729,0.647755,-0.344522,1.2064599999999999,0.458845,-0.200552,1.39483,0.627365,-0.313952,0.7156899999999999,0.930865,-0.421272,1.4069,0.859525,-0.395892,0.9254,0.0039049999999999,-0.005235,1.0746,-0.0039049999999999,0.0052349999999999,0.79802,-0.270065,-0.280342,1.23826,-0.272265,-0.250362,0.78974,-0.653675,-0.117083,1.22208,-0.649225,-0.086643
78,1.050232,0.65662,-0.2329285,0.870862,0.4688099999999999,-0.2328885,0.7187220000000001,0.64375,-0.3620784999999999,1.206872,0.45731,-0.2147085,1.396322,0.62212,-0.3315085,0.7175720000000001,0.91935,-0.4421585,1.405612,0.85093,-0.4167484999999999,0.925592,0.0037099999999999,-0.0054715,1.074408,-0.00371,0.0054714999999999,0.792292,-0.24538,-0.3059585,1.248212,-0.24673,-0.2757085,0.7898419999999999,-0.62394,-0.1302205,1.224502,-0.61931,-0.0992315
79,1.051872,0.653695,-0.2476235,0.873845,0.465505,-0.2460935,0.720225,0.6369750000000001,-0.3787435,1.207335,0.455185,-0.2285335,1.397855,0.6158250000000001,-0.3477135,0.7197450000000001,0.910985,-0.4610535,1.405225,0.840465,-0.4366735,0.925825,0.0038549999999999,-0.0056464999999999,1.074175,-0.0038549999999999,0.0056465,0.7859849999999999,-0.218155,-0.3314135,1.257975,-0.2179649999999999,-0.3007435,0.789715,-0.591935,-0.1421245,1.227025,-0.587565,-0.1108504999999999
80,1.0530145,0.65154,-0.2557,0.8763675000000001,0.46335,-0.25338,0.7214375,0.6334,-0.38869,1.2076775,0.4547299999999999,-0.23593,1.3993674999999999,0.61268,-0.35788,0.7217775,0.90169,-0.47451,1.4052075,0.83561,-0.45003,0.9261675,0.0037699999999999,-0.0055899999999999,1.0738325,-0.0037699999999999,0.0055899999999999,0.7802675,-0.19208,-0.34938,1.2661075,-0.19084,-0.31854,0.7898675,-0.56196,-0.14672,1.2289775,-0.55832,-0.115999
81,1.0543435,0.64699,-0.263085,0.8779165,0.46124,-0.259375,0.7224265000000001,0.62788,-0.397675,1.2079365,0.45025,-0.242635,1.4007465,0.60477,-0.367245,0.7232465,0.89397,-0.485435,1.4051365,0.83093,-0.461205,0.9263965,0.0041999999999999,-0.005665,1.0736035,-0.0041999999999999,0.005665,0.7764965,-0.17015,-0.360085,1.2705865,-0.16722,-0.329015,0.7898965,-0.53418,-0.148814,1.2305065,-0.53089,-0.118279
82,1.0552555,0.6445700000000001,-0.267025,0.8794195,0.460095,-0.262575,0.7230195000000001,0.62337,-0.403425,1.2080294999999999,0.447568,-0.246095,1.4015395,0.59855,-0.3717749999999999,0.7246795000000001,0.88558,-0.4950449999999999,1.4061095,0.82101,-0.4697949999999999,0.9264495000000001,0.00443,-0.0056449999999999,1.0735504999999999,-0.0044299999999999,0.0056449999999999,0.7720795,-0.1492299999999999,-0.367845,1.2748395000000001,-0.1448999999999999,-0.336015,0.7897095000000001,-0.50671,-0.148835,1.2318095,-0.50369,-0.118244
83,1.0562615,0.6420399999999999,-0.27063,0.8810525000000001,0.458091,-0.26598,0.7238725000000001,0.61802,-0.40908,1.2082325,0.44474,-0.24946,1.4024725,0.59137,-0.3756199999999999,0.7257425,0.88359,-0.50234,1.4072025,0.81247,-0.47777,0.9263825,0.00472,-0.00565,1.0736175000000001,-0.00472,0.00565,0.7677925,-0.12782,-0.37503,1.2791825000000001,-0.12212,-0.34235,0.7897225,-0.47829,-0.148839,1.2332025,-0.47543,-0.118197
84,1.0569004999999998,0.6401,-0.27366,0.8822695,0.458025,-0.26855,0.7246595,0.61416,-0.41411,1.2079595,0.444425,-0.25158,1.4032695,0.5861,-0.37931,0.7262495,0.87408,-0.50938,1.4079795,0.80366,-0.48451,0.9262395,0.00468,-0.00563,1.0737605000000001,-0.00468,0.0056299999999999,0.7633395000000001,-0.1060299999999999,-0.3805699999999999,1.2835795,-0.09975,-0.3468799999999999,0.7918995,-0.45018,-0.144811,1.2336195,-0.4467,-0.117377
85,1.057196,0.63937,-0.275925,0.883306,0.458667,-0.270495,0.7251259999999999,0.6097400000000001,-0.418475,1.206786,0.4433,-0.252755,1.4037359999999999,0.57647,-0.381675,0.725816,0.8696200000000001,-0.5145150000000001,1.409346,0.7932600000000001,-0.489035,0.926026,0.00464,-0.005595,1.073974,-0.0046399999999999,0.0055949999999999,0.758796,-0.0823899999999999,-0.385215,1.288176,-0.0760899999999999,-0.350595,0.7920659999999999,-0.4203899999999999,-0.143571,1.233766,-0.41596,-0.116306
86,1.057266,0.63872,-0.27761,0.8840950000000001,0.460744,-0.27211,0.725265,0.60774,-0.42271,1.205335,0.442759,-0.25362,1.403805,0.571032,-0.38355,0.725105,0.85858,-0.5205,1.410895,0.7855300000000001,-0.49373,0.926015,0.00478,-0.0054,1.073985,-0.00478,0.0053999999999999,0.754425,-0.05989,-0.38877,1.292415,-0.0530299999999999,-0.35387,0.792015,-0.39175,-0.142196,1.233735,-0.38636,-0.115344
87,1.0572754999999998,0.636825,-0.27918,0.8848705,0.4596979999999999,-0.2738,0.7253005,0.6010179999999999,-0.42668,1.2038405,0.4390809999999999,-0.25462,1.4045405,0.565434,-0.38547,0.7242105,0.853355,-0.52564,1.4128205,0.7802849999999999,-0.49746,0.9260105,0.0053249999999999,-0.00524,1.0739895,-0.005325,0.0052399999999999,0.7505705,-0.039425,-0.3907,1.2966505,-0.032245,-0.35548,0.7919705000000001,-0.364965,-0.141025,1.2343905,-0.361605,-0.11529
88,1.0568749999999998,0.6361160000000001,-0.280005,0.8850980000000002,0.4595250000000001,-0.274575,0.7249479999999999,0.5974170000000001,-0.429955,1.2017579999999999,0.4379050000000001,-0.254825,1.404678,0.5611550000000001,-0.387085,0.722458,0.8457050000000002,-0.530475,1.414058,0.775695,-0.501355,0.925928,0.005395,-0.004985,1.074072,-0.0053949999999999,0.004985,0.747428,-0.0218649999999999,-0.391305,1.299348,-0.0147749999999998,-0.355355,0.790898,-0.3445249999999998,-0.140379,1.234608,-0.3405449999999999,-0.114998
89,1.0564365,0.6351110000000001,-0.280755,0.8853425,0.45882,-0.275275,0.7242025000000001,0.592222,-0.4328349999999999,1.1998325,0.43672,-0.2550449999999999,1.4043124999999999,0.5552290000000001,-0.388115,0.7202925,0.8418700000000001,-0.534375,1.4150224999999998,0.76953,-0.504505,0.9258625,0.00559,-0.004805,1.0741375,-0.0055899999999999,0.004805,0.7447825,-0.0068599999999999,-0.391435,1.3014625,0.00065,-0.354995,0.7897325,-0.3267,-0.139478,1.2346325,-0.32219,-0.114566
90,1.056045,0.632845,-0.281065,0.8856550000000001,0.4580149999999999,-0.276055,0.7234150000000001,0.586516,-0.435225,1.198625,0.437295,-0.2550449999999999,1.404455,0.551177,-0.388815,0.718295,0.835385,-0.538605,1.4154849999999999,0.7626649999999999,-0.5072949999999999,0.925625,0.005425,-0.0047249999999999,1.074375,-0.005425,0.004725,0.7430150000000001,0.007155,-0.3914149999999999,1.303465,0.014255,-0.354835,0.788785,-0.310945,-0.138456,1.234775,-0.306175,-0.1141329999999999
91,1.055713,0.631779,-0.28112,0.885776,0.4568299999999999,-0.27631,0.722576,0.58256,-0.43676,1.197816,0.4377,-0.25509,1.4049559999999999,0.548539,-0.3897799999999999,0.7160759999999999,0.82664,-0.5414,1.416936,0.76022,-0.5099400000000001,0.9254560000000001,0.00517,-0.00461,1.074544,-0.00517,0.00461,0.7420059999999999,0.0161299999999999,-0.39144,1.304946,0.0228099999999999,-0.35476,0.788176,-0.30061,-0.137545,1.234826,-0.2954799999999999,-0.113536
92,1.0556365,0.631995,-0.281045,0.8860525,0.4562649999999999,-0.276215,0.7219425000000002,0.5823969999999999,-0.437725,1.1976025,0.4376549999999999,-0.255105,1.4067325,0.5461149999999999,-0.390195,0.7142725,0.8212649999999999,-0.541795,1.4184124999999999,0.7557449999999999,-0.5114150000000001,0.9252325,0.0049649999999999,-0.0044249999999999,1.0747675,-0.0049650000000001,0.0044249999999999,0.7413525000000001,0.0227249999999999,-0.391265,1.3067725000000001,0.0290549999999999,-0.354485,0.7877825,-0.293165,-0.136655,1.2352225,-0.2877550000000001,-0.113024
93,1.0551125,0.631556,-0.28095,0.8857305,0.456235,-0.27611,0.7207705,0.5809030000000001,-0.4377399999999999,1.1967805,0.437975,-0.25509,1.4070005,0.547257,-0.39052,0.7114105,0.820765,-0.54178,1.4193704999999999,0.752425,-0.5131600000000001,0.9250105,0.004975,-0.0042999999999999,1.0749895,-0.0049749999999999,0.0042999999999999,0.7396105,0.025125,-0.39088,1.3082705,0.0314149999999999,-0.35391,0.7868105000000001,-0.2904249999999999,-0.13575,1.2351005,-0.2844949999999999,-0.112665
94,1.0542085,0.631556,-0.281,0.8849415,0.456235,-0.27616,0.7189814999999999,0.5809030000000001,-0.43783,1.1954715,0.437975,-0.25485,1.4069015,0.547257,-0.39044,0.7076515,0.820385,-0.54194,1.4188415,0.752425,-0.5132099999999999,0.9247815,0.004975,-0.00421,1.0752185,-0.0049749999999999,0.0042099999999999,0.7373015,0.024695,-0.38993,1.3091415,0.0314149999999999,-0.3531499999999999,0.7853515,-0.2912549999999999,-0.135045,1.2343615,-0.285095,-0.112494
95,1.053261,0.631556,-0.28069,0.8840210000000001,0.456235,-0.27626,0.717061,0.5809030000000001,-0.4379,1.193811,0.437975,-0.25461,1.406671,0.547257,-0.38983,0.704501,0.820385,-0.54158,1.418061,0.752425,-0.5126900000000001,0.924731,0.004975,-0.00421,1.075269,-0.0049749999999999,0.0042099999999999,0.7346010000000001,0.024695,-0.38868,1.309701,0.0314149999999999,-0.35257,0.7835210000000001,-0.291455,-0.134584,1.233331,-0.2855649999999999,-0.112098
96,1.0521235,0.631556,-0.2802,0.8830785,0.456235,-0.27642,0.7149485,0.5809030000000001,-0.43798,1.1927585,0.437975,-0.25433,1.4069185,0.547257,-0.38956,0.7016585,0.820385,-0.54093,1.4174285,0.752425,-0.51153,0.9248035,0.004975,-0.0042099999999999,1.0751965,-0.0049749999999999,0.00421,0.7321185,0.024695,-0.38708,1.3103585,0.0314149999999999,-0.3519,0.7814785,-0.291455,-0.1343659999999999,1.2320985,-0.2855649999999999,-0.111297
97,1.051345,0.632663,-0.279055,0.8821550000000001,0.456775,-0.276415,0.7131149999999999,0.5813510000000001,-0.437115,1.1924949999999999,0.438685,-0.254285,1.406815,0.551018,-0.389675,0.6992050000000001,0.818485,-0.541105,1.416995,0.756575,-0.511665,0.925052,0.004885,-0.0043249999999999,1.074948,-0.004885,0.0043249999999999,0.7298450000000001,0.022795,-0.385295,1.311455,0.0296849999999999,-0.351175,0.779385,-0.293355,-0.13456,1.230945,-0.2874649999999999,-0.110612
98,1.0509235,0.6338520000000001,-0.277865,0.8813795,0.455725,-0.276445,0.7113495000000001,0.5816990000000001,-0.435675,1.1935095,0.441195,-0.2543149999999999,1.4069795,0.5550930000000001,-0.389865,0.6973495000000001,0.821535,-0.538995,1.4166995,0.760945,-0.5114650000000001,0.9253165,0.0042849999999999,-0.0045049999999999,1.0746835,-0.0042849999999999,0.004505,0.7280495,0.0178249999999999,-0.383655,1.3128595,0.024675,-0.349935,0.7774595,-0.299555,-0.134829,1.2299495,-0.2936649999999999,-0.109924
99,1.050821,0.635332,-0.27597,0.880706,0.45677,-0.2764,0.7096560000000001,0.584376,-0.43384,1.194526,0.4422199999999999,-0.25409,1.407596,0.559375,-0.38975,0.695596,0.82794,-0.53539,1.4162759999999999,0.76583,-0.50926,0.925625,0.00412,-0.0044899999999999,1.074375,-0.00412,0.00449,0.7263660000000001,0.0096399999999999,-0.38153,1.314736,0.0166499999999999,-0.34799,0.775406,-0.30942,-0.135019,1.2289759999999998,-0.30377,-0.1090209999999999
100,1.050574,0.6374430000000001,-0.273785,0.8799060000000001,0.4577200000000001,-0.276395,0.7077359999999999,0.5870440000000001,-0.4316149999999999,1.195506,0.4433500000000001,-0.253765,1.4077359999999999,0.5645560000000001,-0.3890249999999999,0.693596,0.8330900000000001,-0.531035,1.415386,0.77478,-0.506385,0.925878,0.00387,-0.004515,1.074122,-0.0038699999999999,0.0045149999999999,0.724506,-0.0006999999999999,-0.379395,1.316636,0.00584,-0.345805,0.773126,-0.3220599999999999,-0.135124,1.227866,-0.3171499999999999,-0.108019
101,1.0502805,0.639885,-0.2711,0.8790935000000001,0.458845,-0.27635,0.7058335,0.5919019999999999,-0.42907,1.1963234999999999,0.444355,-0.25334,1.4063735,0.571537,-0.38786,0.6913035000000001,0.8394550000000001,-0.52494,1.4143335000000001,0.781365,-0.503,0.9260794999999999,0.0037249999999999,-0.00458,1.0739205,-0.0037249999999999,0.00458,0.7223635000000002,-0.013465,-0.37716,1.3183035,-0.007565,-0.34348,0.7706135000000001,-0.337435,-0.135146,1.2263935,-0.333265,-0.106877
102,1.050035,0.6424050000000001,-0.268025,0.878476,0.4601290000000001,-0.275905,0.704486,0.5959830000000002,-0.426145,1.197336,0.4456270000000001,-0.252435,1.405276,0.57576,-0.385445,0.6893659999999999,0.8447650000000001,-0.517825,1.4134959999999999,0.7880750000000001,-0.497255,0.926374,0.003535,-0.004845,1.073626,-0.0035349999999999,0.004845,0.720376,-0.0286149999999999,-0.375165,1.319556,-0.0229049999999999,-0.340965,0.768226,-0.3553549999999998,-0.134959,1.225026,-0.3518849999999999,-0.105467
103,1.0496805,0.645955,-0.26431,0.8777995,0.4615439999999999,-0.27508,0.7037495,0.5993689999999999,-0.42257,1.1984294999999998,0.4474259999999999,-0.2510799999999999,1.4041295,0.5797279999999999,-0.38168,0.6875795,0.8497649999999999,-0.51047,1.4128995,0.7944849999999999,-0.48993,0.9266515,0.0033349999999999,-0.0050999999999999,1.0733485,-0.003335,0.0051,0.7185595,-0.0448750000000001,-0.37273,1.3201395,-0.039245,-0.33804,0.7658695,-0.3745950000000001,-0.13471,1.2236794999999998,-0.372735,-0.1049209999999999
104,1.0491455,0.648555,-0.260332,0.8769545,0.46218,-0.273932,0.7030845,0.602105,-0.418562,1.1992545,0.448949,-0.249342,1.4020645,0.587338,-0.3770719999999999,0.6863345000000001,0.8541350000000001,-0.5031220000000001,1.4121945,0.802835,-0.482292,0.9268285,0.0029649999999999,-0.005358,1.0731715,-0.0029649999999999,0.005358,0.7173745,-0.0616349999999999,-0.369942,1.3204745,-0.056615,-0.334592,0.7635244999999999,-0.395005,-0.134265,1.2223145,-0.393875,-0.103493
105,1.0486575,0.65083,-0.255918,0.8762215,0.463464,-0.272408,0.7026915,0.60517,-0.4144679999999999,1.1997315,0.449904,-0.247148,1.4001915,0.59148,-0.3721179999999999,0.6862415,0.8615200000000001,-0.495768,1.4108515,0.81223,-0.4721579999999999,0.9268435,0.00273,-0.005652,1.0731565,-0.00273,0.005652,0.7172615,-0.07821,-0.366908,1.3205515,-0.07382,-0.330648,0.7612814999999999,-0.415,-0.133929,1.2211915,-0.41503,-0.102259
106,1.0479325,0.653945,-0.2518694999999999,0.8754355,0.4635189999999999,-0.2708395,0.7026155000000001,0.607185,-0.4097895,1.2000055,0.450908,-0.2446095,1.3987555,0.598225,-0.3664095,0.6862355,0.864285,-0.4884195,1.4092855,0.8199749999999999,-0.4634795,0.9267195,0.0023549999999999,-0.0059405,1.0732805,-0.002355,0.0059405,0.7174255,-0.094725,-0.3632995,1.3193455,-0.0915949999999999,-0.3262895,0.7590155000000001,-0.435725,-0.1336335,1.2207055,-0.436845,-0.1009205
107,1.047254,0.658235,-0.246882,0.8749290000000001,0.465701,-0.2691719999999999,0.702679,0.6112150000000001,-0.405312,1.199419,0.449531,-0.242032,1.397819,0.605445,-0.360622,0.686249,0.869605,-0.480772,1.407859,0.8286150000000001,-0.4538719999999999,0.92655,0.002605,-0.006248,1.07345,-0.0026049999999999,0.006248,0.717829,-0.110205,-0.359402,1.317799,-0.1076349999999999,-0.322372,0.756619,-0.4548749999999999,-0.133791,1.220159,-0.4577249999999999,-0.099496
108,1.0461525,0.6615,-0.241596,0.8741225,0.4656889999999999,-0.267366,0.7026125000000001,0.61601,-0.400686,1.1987825,0.4507339999999999,-0.239086,1.3967425,0.6142,-0.354536,0.6859725,0.87627,-0.473246,1.4063824999999999,0.8423499999999999,-0.444456,0.9263445,0.0020999999999999,-0.006554,1.0736555,-0.0021,0.006554,0.7180525,-0.1231999999999999,-0.355456,1.3156725,-0.12279,-0.318466,0.7541625000000001,-0.47261,-0.133867,1.2192825,-0.47698,-0.098317
109,1.044995,0.6636550000000001,-0.2356605,0.8731300000000001,0.468545,-0.2642805,0.70231,0.619685,-0.3953905,1.19854,0.45477,-0.2347005,1.39568,0.619495,-0.3477805,0.68546,0.8809150000000001,-0.4649605,1.40491,0.847515,-0.4345104999999999,0.92638,0.002165,-0.0065894999999999,1.07362,-0.0021649999999999,0.0065895,0.71878,-0.1384149999999999,-0.3495605,1.31345,-0.1395649999999999,-0.3131505,0.7516,-0.492675,-0.1333645,1.22059,-0.497965,-0.0991104999999999
110,1.0437655,0.668895,-0.229771,0.8720415,0.470945,-0.260641,0.7021014999999999,0.622625,-0.389671,1.1983615,0.457739,-0.230051,1.3950215,0.626495,-0.3410809999999999,0.6849815,0.884885,-0.457411,1.4036914999999999,0.855125,-0.424591,0.9264275,0.001995,-0.006499,1.0735725,-0.0019949999999999,0.0064989999999999,0.7194415000000001,-0.1524449999999999,-0.343601,1.3113215,-0.1552049999999999,-0.307541,0.7471315000000001,-0.511505,-0.135485,1.2233815,-0.517575,-0.101359
111,1.042676,0.6733549999999999,-0.2242405,0.870996,0.4739549999999999,-0.2570105,0.701676,0.6273249999999999,-0.3841005,1.198016,0.4604749999999999,-0.2258205,1.394186,0.6329549999999999,-0.3351105,0.684456,0.890015,-0.4498805,1.402386,0.8609549999999999,-0.4157905,0.926369,0.0020049999999999,-0.0063715,1.073631,-0.002005,0.0063715,0.720636,-0.165935,-0.3373605,1.308606,-0.170395,-0.3019905,0.742656,-0.5305850000000001,-0.1380664999999999,1.226626,-0.536825,-0.1046045
112,1.0419735,0.67791,-0.218799,0.8701035,0.47672,-0.252889,0.7011635,0.63173,-0.378289,1.1976935,0.46289,-0.221659,1.3933635,0.64127,-0.329829,0.6841435,0.8949199999999999,-0.442449,1.4013135,0.86819,-0.407589,0.9262845000000001,0.0020499999999999,-0.006109,1.0737154999999998,-0.0020499999999999,0.006109,0.7218534999999999,-0.1781299999999999,-0.331049,1.3052335,-0.1854299999999999,-0.295979,0.7379335,-0.5497399999999999,-0.14264,1.2299435,-0.5562499999999999,-0.10787
113,1.0415645,0.6832100000000001,-0.212603,0.8693744999999999,0.4802,-0.247223,0.7008445000000001,0.63601,-0.371633,1.1977345,0.46654,-0.216983,1.3925945,0.647,-0.324373,0.6837145,0.8981300000000001,-0.434943,1.4010645,0.8746400000000001,-0.398403,0.9261485,0.00206,-0.005711,1.0738515,-0.00206,0.0057109999999999,0.7240945000000001,-0.1923599999999999,-0.322773,1.3002145,-0.20187,-0.288203,0.7337945,-0.57101,-0.146894,1.2331445,-0.57893,-0.110902
114,1.0410864999999998,0.687465,-0.206442,0.8683135,0.4813349999999999,-0.241662,0.7004835,0.640065,-0.364902,1.1977435,0.469005,-0.212362,1.3918735,0.6530549999999999,-0.319162,0.6826435,0.898435,-0.427102,1.4008034999999999,0.880405,-0.391322,0.9259415,0.001935,-0.005306,1.0740585,-0.001935,0.005306,0.7269835,-0.206565,-0.313902,1.2940135,-0.218575,-0.280112,0.7315834999999999,-0.592415,-0.148129,1.2341235,-0.601795,-0.11174
115,1.040856,0.6897150000000001,-0.199511,0.8673840000000002,0.482495,-0.236331,0.6998040000000001,0.647065,-0.358261,1.197854,0.470645,-0.208011,1.391424,0.6589750000000001,-0.314471,0.6817340000000001,0.905785,-0.418991,1.400904,0.887825,-0.384571,0.9257680000000001,0.002065,-0.0048559999999999,1.0742319999999999,-0.0020649999999999,0.0048559999999999,0.7303740000000001,-0.219675,-0.305131,1.287364,-0.2342949999999999,-0.271941,0.7292240000000001,-0.612225,-0.150169,1.233444,-0.622935,-0.111455
116,1.0402425,0.69141,-0.193018,0.8658375,0.48111,-0.229198,0.6986575000000002,0.6531399999999999,-0.351028,1.1977975,0.4724899999999999,-0.202898,1.3907475,0.6635,-0.309378,0.6805075,0.9173,-0.410998,1.4003075,0.8932599999999999,-0.378388,0.9256805,0.00156,-0.00461,1.0743195,-0.00156,0.00461,0.7337375000000002,-0.23312,-0.296108,1.2797975,-0.25011,-0.263018,0.7269775,-0.6320100000000001,-0.151237,1.2317775,-0.64391,-0.109519
117,1.0404085,0.69541,-0.1863705,0.8649585,0.4768799999999999,-0.2210305,0.6985285,0.65533,-0.3427105,1.1985285,0.4770899999999999,-0.1969705,1.3903485,0.66364,-0.3033504999999999,0.6795085000000001,0.91895,-0.4031305,1.4012185,0.89364,-0.3718805,0.9256215,0.0011799999999999,-0.0041645,1.0743785,-0.00118,0.0041645,0.7395085,-0.25029,-0.2839804999999999,1.2705885000000001,-0.2679,-0.2511505,0.7259485,-0.65418,-0.1489125,1.2306985,-0.66645,-0.1059715
118,1.041051,0.69868,-0.179374,0.8644980000000001,0.47087,-0.213264,0.6994280000000002,0.66088,-0.333454,1.199078,0.4805,-0.191744,1.390268,0.66943,-0.296814,0.6790080000000001,0.92482,-0.395094,1.402578,0.8986400000000001,-0.3646939999999999,0.9253750000000001,0.0003799999999999,-0.00404,1.074625,-0.0003799999999999,0.0040399999999999,0.745958,-0.26552,-0.271774,1.260768,-0.28389,-0.237864,0.7252980000000001,-0.6740900000000001,-0.145402,1.227568,-0.68739,-0.099797
119,1.041871,0.698785,-0.1722699999999999,0.863961,0.466175,-0.2053499999999999,0.7005509999999999,0.6659649999999999,-0.32404,1.199781,0.485385,-0.1857,1.389961,0.671575,-0.2897,0.6785909999999999,0.930025,-0.38689,1.403851,0.902865,-0.35701,0.924946,-0.0002649999999999,-0.003804,1.075054,0.000265,0.003804,0.752751,-0.284985,-0.25833,1.250251,-0.3022249999999999,-0.2231699999999999,0.724771,-0.696715,-0.141716,1.226881,-0.7105950000000001,-0.096118
120,1.0427505,0.701185,-0.163932,0.8633215,0.471455,-0.195772,0.7020215000000001,0.669305,-0.313622,1.2005415,0.487295,-0.178422,1.3895415,0.675945,-0.281082,0.6782115,0.931465,-0.377612,1.4057415,0.905355,-0.348692,0.9245525,0.0004949999999999,-0.003362,1.0754475000000001,-0.000495,0.003362,0.7615515000000002,-0.307885,-0.2414919999999999,1.2382415,-0.324075,-0.204472,0.7260615,-0.721545,-0.13671,1.2246915,-0.736505,-0.090118
121,1.0434515,0.705777,-0.155238,0.8627045,0.476677,-0.185583,0.7032845,0.674807,-0.302753,1.2011545,0.489827,-0.170503,1.3890345,0.678337,-0.271773,0.6778445,0.934337,-0.367423,1.4076845,0.907587,-0.339063,0.9241445000000001,0.0010019999999999,-0.002887,1.0758554999999999,-0.001002,0.002887,0.7707545,-0.330773,-0.2230929999999999,1.2256745,-0.3451929999999999,-0.184333,0.7277644999999999,-0.744533,-0.131026,1.2217745,-0.760433,-0.082701
122,1.044081,0.7069795,-0.1412845,0.861915,0.4794695,-0.1709835,0.704385,0.6767295,-0.2866235,1.201965,0.4899295,-0.1560635,1.388125,0.6766195,-0.2562335,0.678105,0.9383195,-0.3513834999999999,1.408745,0.9060095,-0.3238735,0.9238000000000001,0.0015504999999999,-0.0028845,1.0761999999999998,-0.0015505,0.0028844999999999,0.781085,-0.3544205,-0.1951035,1.211645,-0.3671505,-0.1566435,0.731135,-0.7674504999999999,-0.1122385,1.214335,-0.7827305,-0.0633295
123,1.0447745,0.7103,-0.127424,0.8610615,0.48418,-0.156067,0.7053715,0.67878,-0.270517,1.2028915,0.49191,-0.141367,1.3872214999999999,0.67542,-0.240147,0.6783115,0.94243,-0.335947,1.4097515,0.90288,-0.307307,0.9235375,0.0020569999999999,-0.0028229999999999,1.0764625,-0.002057,0.0028229999999999,0.7904715,-0.37655,-0.167407,1.1982815,-0.38779,-0.129437,0.7341715000000001,-0.78891,-0.092929,1.2063815,-0.80309,-0.043274
124,1.045249,0.7138745,-0.1140955,0.860146,0.4899945,-0.1407594999999999,0.706386,0.6791444999999999,-0.2545395,1.203736,0.4958645,-0.1265595,1.3863159999999999,0.6733745,-0.2235694999999999,0.678436,0.9427145,-0.3208895,1.4105459999999999,0.8994345,-0.2904695,0.923379,0.0023984999999999,-0.0026945,1.076621,-0.0023985,0.0026944999999999,0.799086,-0.3964054999999999,-0.1388595,1.185026,-0.4076455,-0.1022755,0.7378760000000001,-0.8084355,-0.0710615,1.198396,-0.8214255,-0.0229775
125,1.0457255,0.7174665,-0.1006795,0.8590465,0.4969365,-0.1268014999999999,0.7074865,0.6783365,-0.2388715,1.2043964999999999,0.5005965,-0.1123865,1.3853365,0.6708164999999999,-0.2070715,0.6787565,0.9328865,-0.3061315,1.4105965,0.8960665,-0.2738215,0.9233145,0.0030594999999999,-0.0023064999999999,1.0766855,-0.0030595,0.0023065,0.8071665,-0.4146835,-0.1096815,1.1721465,-0.4259235,-0.0753415,0.7411565,-0.8265035000000001,-0.0486265,1.1906465,-0.8383435,-0.0023474999999999
126,1.04621,0.7193940000000001,-0.0876625,0.85824,0.508534,-0.1133995,0.7083999999999999,0.6803640000000001,-0.2241195,1.20526,0.502274,-0.0982865,1.38455,0.670374,-0.1912495,0.67937,0.930684,-0.2919095,1.41132,0.891104,-0.2575995,0.923116,0.0040579999999999,-0.0020874999999999,1.076884,-0.0040579999999999,0.0020875,0.81358,-0.427466,-0.0833025,1.16163,-0.438416,-0.0511685,0.74312,-0.8387359999999999,-0.0282225,1.1850699999999998,-0.850266,0.0153355
127,1.046553,0.7225830000000001,-0.07499,0.857332,0.519043,-0.09969,0.708742,0.680143,-0.2104099999999999,1.206142,0.501923,-0.084039,1.383572,0.6673330000000001,-0.17615,0.679982,0.927503,-0.2781,1.4116119999999999,0.8859530000000001,-0.2420199999999999,0.9230970000000001,0.005075,-0.001543,1.076903,-0.005075,0.001543,0.819372,-0.439337,-0.057797,1.1521919999999999,-0.448407,-0.028216,0.744742,-0.8484269999999999,-0.0078599999999999,1.179882,-0.859587,0.032428
128,1.046908,0.7253050000000001,-0.0624895,0.856657,0.5287350000000001,-0.0861565,0.709017,0.679045,-0.1969865,1.207037,0.5009950000000001,-0.0705875,1.382737,0.664455,-0.1616564999999999,0.6805670000000001,0.925505,-0.2641465,1.411667,0.8810450000000001,-0.2270964999999999,0.923153,0.006115,-0.0010565,1.0768469999999999,-0.0061149999999999,0.0010564999999999,0.8248670000000001,-0.450025,-0.0336355,1.143577,-0.457535,-0.0067775,0.746387,-0.8568749999999999,0.0114694999999999,1.175317,-0.867325,0.0482045
129,1.0477305,0.7267585,-0.0515085,0.8566315,0.5279984999999999,-0.0744124999999999,0.7094715,0.6786584999999999,-0.1846685,1.2087815,0.5025584999999999,-0.0582204999999999,1.3825815000000001,0.6613785,-0.1489885,0.6819915,0.9254685,-0.2513485,1.4119715,0.8790884999999999,-0.2138185,0.9229985,0.0057315,-0.0007605,1.0770015,-0.0057315,0.0007605,0.8283615,-0.4581515,-0.0136395,1.1374615,-0.4644014999999999,0.0102795,0.7462615,-0.8623215000000001,0.0276385,1.1726415000000001,-0.8716215,0.0606255
130,1.0484574999999998,0.72468,-0.041453,0.8566165,0.5273,-0.063848,0.7098965000000002,0.67658,-0.173473,1.2104765,0.50349,-0.0470089999999999,1.3824465,0.65845,-0.137683,0.6833565000000001,0.92531,-0.2400029999999999,1.4118565,0.8771599999999999,-0.202423,0.9228135000000001,0.005558,-0.0005849999999999,1.0771864999999998,-0.005558,0.000585,0.8313265,-0.4667699999999999,0.004163,1.1324165,-0.47141,0.025006,0.7459965,-0.8675,0.041865,1.1705964999999998,-0.87548,0.071293
131,1.0493835,0.72471,-0.0378255,0.8570415,0.52733,-0.0592315,0.7107215,0.67658,-0.1687715,1.2119015,0.5045999999999999,-0.0431375,1.3830114999999998,0.65845,-0.1334015,0.6842815,0.92633,-0.2363515,1.4121915,0.8777699999999999,-0.1978915,0.9228185,0.005558,-0.0002045,1.0771815,-0.005558,0.0002044999999999,0.8321915,-0.46919,0.0099214999999999,1.1307315,-0.4737699999999999,0.0298574999999999,0.7462515000000001,-0.8675200000000001,0.0450724999999999,1.1693715,-0.87548,0.0734835
132,1.0494735,0.72471,-0.0345615,0.8566435,0.52733,-0.0549804999999999,0.7108835,0.67658,-0.1640144999999999,1.2123535,0.50484,-0.0396165,1.3825735,0.65845,-0.1296645,0.6845735,0.92856,-0.2326645,1.4117335,0.8781599999999999,-0.1956844999999999,0.9228065,0.005558,2.5499999999997747e-05,1.0771935,-0.005558,-2.5499999999997747e-05,0.8323435,-0.4713799999999999,0.0149045,1.1285034999999999,-0.47608,0.0343565,0.7459335,-0.8675200000000001,0.0480555,1.1674735,-0.87549,0.0755204999999999
133,1.0496155,0.72471,-0.0314765,0.8562905000000001,0.5274399999999999,-0.0510225,0.7107605,0.67668,-0.1596354999999999,1.2128805,0.50506,-0.0359135,1.3824005,0.65833,-0.1265155,0.6848505,0.93084,-0.2289855,1.4113805,0.8786499999999999,-0.1934755,0.9229695,0.005558,3.149999999999681e-05,1.0770305,-0.005558,-3.149999999999681e-05,0.8325505,-0.4734399999999999,0.0184415,1.1267505,-0.47795,0.0381965,0.7457104999999999,-0.8675200000000001,0.0506164999999999,1.1657205,-0.87549,0.0772935
134,1.049785,0.7258675,-0.02867,0.8561730000000001,0.5288875,-0.047438,0.710283,0.6775875,-0.155516,1.213433,0.5064875,-0.032069,1.382653,0.6586075,-0.1234859999999999,0.684903,0.9302475,-0.2256559999999999,1.411213,0.8804575,-0.191356,0.923207,0.0054584999999999,0.0001859999999999,1.076793,-0.0054584999999999,-0.0001859999999999,0.832883,-0.4738425,0.020929,1.125343,-0.4782525,0.041496,0.745383,-0.8661125000000001,0.052672,1.164173,-0.8735225,0.078857
135,1.05007,0.726075,-0.0260455,0.856233,0.529835,-0.0444405,0.709993,0.677815,-0.1519145,1.213473,0.507845,-0.0291655,1.3833129999999998,0.658135,-0.1207745,0.684723,0.927275,-0.2250645,1.411303,0.880945,-0.1902945,0.923357,0.0054099999999999,0.0004644999999999,1.076643,-0.0054099999999999,-0.0004644999999999,0.8332030000000001,-0.474165,0.0227595,1.124303,-0.478365,0.0441425,0.745363,-0.864615,0.0541065,1.162873,-0.871585,0.0801445
136,1.050252,0.7261540000000001,-0.0241765,0.856373,0.530254,-0.0424074999999999,0.709903,0.677444,-0.1495525,1.213393,0.508684,-0.0269905,1.384023,0.657084,-0.1188325,0.684743,0.924044,-0.2255625,1.411663,0.8812840000000001,-0.1907825,0.923347,0.005367,0.0007734999999999,1.076653,-0.0053669999999999,-0.0007735,0.833213,-0.4740459999999999,0.0233835,1.123783,-0.4783159999999999,0.0449665,0.745633,-0.863756,0.0546925,1.162033,-0.870486,0.0805915
137,1.0502429999999998,0.726206,-0.0229694999999999,0.856468,0.530606,-0.0409235,0.709848,0.677076,-0.1478545,1.2133379999999998,0.509306,-0.0254725,1.385028,0.655876,-0.1175445,0.684778,0.921026,-0.2264844999999999,1.4121380000000001,0.8814160000000001,-0.1916844999999999,0.923342,0.005353,0.0009254999999999,1.0766580000000001,-0.0053529999999999,-0.0009255,0.833208,-0.473964,0.0234025,1.1234179999999998,-0.478424,0.0450225,0.7459979999999999,-0.863034,0.0547524999999999,1.161498,-0.8698539999999999,0.0802635
138,1.0502595,0.726299,-0.0221469999999999,0.8565825,0.5309189999999999,-0.040006,0.7085625,0.676099,-0.146884,1.2133425,0.509279,-0.0242229999999999,1.3864425,0.6533990000000001,-0.116924,0.6840825000000001,0.917839,-0.227794,1.4131525,0.881399,-0.192934,0.9233875,0.0053829999999999,0.000975,1.0766125,-0.0053829999999999,-0.000975,0.8332725,-0.473851,0.022963,1.1231525,-0.478531,0.044458,0.7462925,-0.862411,0.054266,1.1611325,-0.869351,0.079405
