sb224sc-HT22-VT27/4dt907/src/data/kinect_good_preprocessed_A9_mediapipe/A156_kinect.csv
FrameNo,nose_3d_x,nose_3d_y,nose_3d_z,left_shoulder_3d_x,left_shoulder_3d_y,left_shoulder_3d_z,left_elbow_3d_x,left_elbow_3d_y,left_elbow_3d_z,right_shoulder_3d_x,right_shoulder_3d_y,right_shoulder_3d_z,right_elbow_3d_x,right_elbow_3d_y,right_elbow_3d_z,left_wrist_3d_x,left_wrist_3d_y,left_wrist_3d_z,right_wrist_3d_x,right_wrist_3d_y,right_wrist_3d_z,left_hip_3d_x,left_hip_3d_y,left_hip_3d_z,right_hip_3d_x,right_hip_3d_y,right_hip_3d_z,left_knee_3d_x,left_knee_3d_y,left_knee_3d_z,right_knee_3d_x,right_knee_3d_y,right_knee_3d_z,left_ankle_3d_x,left_ankle_3d_y,left_ankle_3d_z,right_ankle_3d_x,right_ankle_3d_y,right_ankle_3d_z
102,-0.031823500000000005,0.739904,-0.011739500000000003,-0.1991005,0.5147740000000001,-0.0262495,-0.3737905,0.700304,-0.0907695,0.1646595,0.535464,-0.038323499999999996,0.29976949999999997,0.736484,-0.11803949999999999,-0.4256905,0.910834,-0.16265949999999998,0.3238695,0.988004,-0.1855495,-0.0779115,-0.0029840000000000005,0.002264499999999999,0.0779115,0.0029840000000000005,-0.002264499999999999,-0.0948205,-0.477416,0.0280515,0.1235695,-0.490396,0.0176935,-0.1044205,-0.855306,0.0626115,0.1507595,-0.864606,0.0465035
103,-0.03171500000000001,0.738811,-0.014116000000000004,-0.198741,0.5144610000000001,-0.028470000000000002,-0.372641,0.701011,-0.094019,0.164299,0.534041,-0.041144,0.299409,0.732591,-0.12095900000000001,-0.423051,0.911621,-0.16597900000000002,0.322519,0.982491,-0.188599,-0.07802100000000001,-0.003013000000000002,0.002527999999999999,0.07802100000000001,0.0030129999999999983,-0.0025280000000000025,-0.09629000000000001,-0.476929,0.020932,0.122999,-0.489369,0.009014999999999997,-0.10481100000000002,-0.855649,0.060038999999999995,0.15039899999999998,-0.8640289999999999,0.044525999999999996
104,-0.031573500000000004,0.737533,-0.016909499999999997,-0.1984515,0.513943,-0.0309845,-0.3713515,0.701613,-0.0974055,0.1638285,0.532043,-0.0446275,0.2991785,0.7286630000000001,-0.1245055,-0.4203115,0.912933,-0.1696055,0.32128850000000003,0.977623,-0.1920255,-0.0781685,-0.0030230000000000014,0.0027875,0.0781685,0.0030230000000000014,-0.0027874999999999983,-0.0979795,-0.47591700000000003,0.012632500000000001,0.12230849999999999,-0.487877,-0.0010424999999999983,-0.10530149999999999,-0.8553069999999999,0.05697050000000001,0.1499685,-0.862807,0.0420615
105,-0.03140699999999999,0.7358355,-0.019936000000000002,-0.198239,0.5131755,-0.033729,-0.370089,0.7006455,-0.101224,0.163271,0.5301155000000001,-0.048312999999999995,0.29903100000000005,0.7241255,-0.128554,-0.41745899999999997,0.9144755,-0.173464,0.319991,0.9731955,-0.195664,-0.07833899999999999,-0.003057500000000001,0.003063999999999999,0.07833899999999999,0.0030574999999999977,-0.0030640000000000008,-0.100025,-0.47456450000000006,0.0030289999999999987,0.12149100000000002,-0.4860945,-0.012609000000000002,-0.10591899999999999,-0.8544845,0.053508,0.149441,-0.8611345,0.039313
106,-0.0312745,0.7339154999999999,-0.0230735,-0.1979875,0.5117754999999999,-0.0365925,-0.3689275,0.6997855,-0.10510649999999999,0.1625925,0.5279754999999999,-0.0520365,0.2989325,0.7198355,-0.1328765,-0.4144875,0.9166354999999999,-0.1775065,0.3186425,0.9695954999999999,-0.19949650000000002,-0.07854749999999999,-0.0030825,0.0032945000000000006,0.07854749999999999,0.0030824999999999984,-0.003294499999999999,-0.10240450000000001,-0.4723945,-0.0076945,0.12069250000000001,-0.48347450000000003,-0.0251425,-0.1066675,-0.8528345,0.0496805,0.1487325,-0.8587545,0.0363115
107,-0.031181499999999997,0.7319104999999999,-0.0263615,-0.1976305,0.5105605,-0.0395925,-0.36786050000000003,0.6985505,-0.1091585,0.1618995,0.5257805,-0.05586350000000001,0.29883950000000004,0.7158104999999999,-0.1373985,-0.4115105,0.9190805,-0.1818085,0.3171695,0.9666905,-0.2035485,-0.0787895,-0.0030445000000000003,0.0034764999999999987,0.0787895,0.003044500000000002,-0.0034765000000000004,-0.1052005,-0.4694095,-0.0194095,0.11992950000000001,-0.4800595,-0.03794550000000001,-0.1075405,-0.8503895,0.045525499999999997,0.1478995,-0.8555495000000001,0.0330825
108,-0.0310995,0.7298005,-0.029343,-0.19713050000000001,0.5092405,-0.042624999999999996,-0.3667205,0.6967405,-0.11329,0.1612395,0.5233905,-0.05960699999999999,0.2988095,0.7123204999999999,-0.14176,-0.40858049999999996,0.9220204999999999,-0.18608000000000002,0.3156495,0.9647205,-0.20753,-0.0790525,-0.0029855000000000003,0.003718000000000001,0.0790525,0.0029855000000000003,-0.003717999999999999,-0.10832049999999999,-0.4655795,-0.031828,0.11927950000000001,-0.4758695,-0.050471,-0.10849049999999999,-0.8471295000000001,0.041024,0.1470195,-0.8513895,0.029778
109,-0.031144999999999996,0.727296,-0.032161,-0.19675700000000002,0.507916,-0.045711,-0.36554699999999996,0.694216,-0.11744,0.160513,0.521076,-0.063238,0.29874300000000004,0.708276,-0.14589,-0.405557,0.9246260000000001,-0.19049,0.313883,0.963236,-0.2113,-0.07930999999999999,-0.002915,0.003915000000000001,0.07930999999999999,0.002915,-0.003915,-0.11177699999999999,-0.461374,-0.044415,0.11871300000000001,-0.471144,-0.062200000000000005,-0.109627,-0.8433539999999999,0.036255,0.146013,-0.846814,0.026225
110,-0.031181999999999998,0.7247669999999999,-0.0347185,-0.19652699999999998,0.5066769999999999,-0.0486165,-0.364317,0.691727,-0.12146850000000001,0.159803,0.519057,-0.0666155,0.29862299999999997,0.704757,-0.14966849999999998,-0.40237700000000004,0.927557,-0.1948585,0.311963,0.9624069999999999,-0.2146085,-0.079575,-0.0028770000000000002,0.0041355,0.079575,0.0028770000000000002,-0.0041355,-0.11493700000000001,-0.456323,-0.0558815,0.118333,-0.465503,-0.0732275,-0.11085700000000001,-0.8386830000000001,0.0314195,0.14500300000000002,-0.8414330000000001,0.022706499999999998
111,-0.0312505,0.7222675,-0.037247999999999996,-0.19637949999999998,0.5051775000000001,-0.051469999999999995,-0.3633195,0.6896675,-0.125604,0.1590905,0.5171375,-0.069777,0.2984305,0.7028274999999999,-0.153174,-0.39924950000000003,0.9305775,-0.199354,0.3099805,0.9620375,-0.21746400000000002,-0.07981150000000001,-0.002824499999999999,0.0043879999999999995,0.07981150000000001,0.0028245000000000006,-0.0043879999999999995,-0.1179395,-0.4506125,-0.06653200000000001,0.11839050000000001,-0.4592125,-0.08376800000000001,-0.11223949999999999,-0.8327825,0.026563999999999997,0.1440205,-0.8355525,0.019107
112,-0.0314955,0.720372,-0.039535,-0.1964815,0.503742,-0.053874,-0.3629015,0.688052,-0.12918400000000002,0.1584185,0.516242,-0.072104,0.2981885,0.701182,-0.155504,-0.3963915,0.9338219999999999,-0.203544,0.3080185,0.965762,-0.219504,-0.0799445,-0.0028059999999999995,0.004506,0.0799445,0.002806000000000001,-0.004506,-0.1208515,-0.44466799999999995,-0.075956,0.11855850000000001,-0.45282799999999995,-0.092546,-0.1136515,-0.8264980000000001,0.021959,0.1430885,-0.829518,0.015848
113,-0.03188,0.7182270000000001,-0.041707,-0.196643,0.502177,-0.056051,-0.362433,0.685997,-0.13250499999999998,0.157687,0.516007,-0.07428000000000001,0.297857,0.6993670000000001,-0.157375,-0.393863,0.936817,-0.20729499999999998,0.305977,0.9691770000000001,-0.221275,-0.079991,-0.0028509999999999994,0.004659,0.079991,0.0028509999999999994,-0.004659,-0.123893,-0.438633,-0.08476600000000001,0.11868699999999999,-0.44660299999999997,-0.100452,-0.11533299999999999,-0.820063,0.017576,0.142117,-0.8235629999999999,0.012864999999999998
114,-0.0322795,0.7163664999999999,-0.0436775,-0.1967505,0.5009365,-0.0581445,-0.3620205,0.6850765,-0.1354445,0.15699950000000001,0.5153464999999999,-0.0762965,0.2974595,0.6984064999999999,-0.15924449999999998,-0.39117050000000003,0.9395365,-0.2108045,0.3040795,0.9724364999999999,-0.2229145,-0.0800095,-0.002848499999999997,0.004713500000000001,0.0800095,0.0028485000000000003,-0.004713500000000001,-0.1268105,-0.4320635,-0.09288550000000001,0.1188695,-0.4402435,-0.10719450000000001,-0.1172105,-0.8135435000000001,0.013364500000000001,0.14118950000000002,-0.8171035000000001,0.0099965
115,-0.0326385,0.7149045,-0.045404,-0.1968605,0.4998345,-0.060163999999999995,-0.3614305,0.6833845000000001,-0.13833,0.1564595,0.5143245,-0.078118,0.29714949999999996,0.6958345,-0.16121,-0.38793049999999996,0.9368045,-0.21385,0.3025095,0.9749145,-0.22352,-0.0799945,-0.002874499999999995,0.004683,0.0799945,0.002874500000000002,-0.0046830000000000005,-0.1297005,-0.42521549999999997,-0.10057100000000001,0.11911949999999999,-0.43353549999999996,-0.11373,-0.1187905,-0.8065654999999999,0.009483,0.1402795,-0.8101355,0.007117
116,-0.032891000000000004,0.7133750000000001,-0.0469035,-0.196936,0.498245,-0.0621825,-0.360516,0.680235,-0.1410715,0.156044,0.512785,-0.07962749999999999,0.297124,0.693465,-0.16296149999999998,-0.384846,0.934135,-0.21644149999999998,0.301144,0.9769450000000001,-0.2237815,-0.079968,-0.0028859999999999997,0.0046914999999999995,0.079968,0.0028859999999999997,-0.0046914999999999995,-0.132226,-0.418845,-0.10753149999999999,0.119444,-0.426655,-0.1199715,-0.120296,-0.7995249999999999,0.0058355,0.139464,-0.803175,0.004425500000000001
117,-0.033140499999999996,0.711673,-0.048215999999999995,-0.1971775,0.496503,-0.064095,-0.3596975,0.6777329999999999,-0.14354,0.1555725,0.511513,-0.08090699999999999,0.2971425,0.6910029999999999,-0.16439,-0.3817675,0.930963,-0.21872,0.30058250000000003,0.9783529999999999,-0.22490000000000002,-0.0799025,-0.002902000000000002,0.004713,0.0799025,0.002902000000000002,-0.004713,-0.13465749999999999,-0.412857,-0.11376,0.1197625,-0.420047,-0.12601,-0.1217075,-0.7925270000000001,0.0027550000000000005,0.1385825,-0.796647,0.0018460000000000004
118,-0.033299499999999996,0.71033,-0.04922,-0.1973675,0.49486,-0.065793,-0.35893749999999996,0.67594,-0.146053,0.1552125,0.51006,-0.082173,0.2973525,0.6891299999999999,-0.165473,-0.3788775,0.92804,-0.220603,0.30010250000000005,0.9793,-0.225773,-0.07982149999999999,-0.0028950000000000017,0.004750000000000001,0.07982149999999999,0.0028950000000000017,-0.00475,-0.1368575,-0.40668,-0.119263,0.12014249999999999,-0.4135,-0.131583,-0.1229275,-0.78637,5.400000000000023e-05,0.1377825,-0.79005,-0.0005389999999999995
119,-0.033421000000000006,0.709283,-0.050087999999999994,-0.19750800000000002,0.49320300000000006,-0.067428,-0.358348,0.674103,-0.14860500000000001,0.15489199999999997,0.5083030000000001,-0.083597,0.297562,0.686633,-0.166215,-0.376288,0.923853,-0.222395,0.299622,0.979503,-0.226335,-0.07972,-0.0027219999999999883,0.004710000000000001,0.07972,0.002722000000000002,-0.00471,-0.139038,-0.40109700000000004,-0.124275,0.120632,-0.407157,-0.136805,-0.124048,-0.7802169999999999,-0.0025199999999999997,0.13702199999999998,-0.783507,-0.0028779999999999995
120,-0.033377000000000004,0.7077005,-0.050999,-0.197577,0.4918205,-0.06873699999999999,-0.35769700000000004,0.6717305,-0.150786,0.154703,0.5064005,-0.08492,0.297913,0.6841005,-0.16680599999999998,-0.374027,0.9192405,-0.22367599999999999,0.299813,0.9724805,-0.226466,-0.07963100000000001,-0.0026014999999999927,0.004591,0.07963100000000001,0.0026015000000000066,-0.004591,-0.141167,-0.39606949999999996,-0.128646,0.12113300000000002,-0.4012295,-0.141426,-0.12509699999999999,-0.7743295,-0.004274,0.13645300000000002,-0.7769995000000001,-0.004922
121,-0.033085,0.7058245,-0.0521335,-0.197453,0.4903845,-0.0701975,-0.35703300000000004,0.6703545,-0.1529655,0.154797,0.5042345,-0.08640149999999999,0.298477,0.6818745,-0.1678955,-0.37189300000000003,0.9148845,-0.2247655,0.30051700000000003,0.9652945,-0.2264855,-0.079612,-0.0024445000000000022,0.004590500000000001,0.079612,0.0024445000000000022,-0.0045905,-0.143063,-0.39173549999999996,-0.1327355,0.121837,-0.3961155,-0.14603549999999998,-0.125943,-0.7686054999999999,-0.0057185,0.135917,-0.7706054999999999,-0.0068745
122,-0.0325865,0.7043815,-0.053707500000000005,-0.1970775,0.4891315,-0.0719415,-0.3565975,0.6697115,-0.15543849999999998,0.1550125,0.5020415,-0.08832050000000001,0.2993125,0.6797615,-0.16975849999999998,-0.36971750000000003,0.9102115000000001,-0.22603849999999998,0.30151249999999996,0.9587815000000001,-0.22698849999999998,-0.0796205,-0.0022765000000000007,0.004590500000000001,0.0796205,0.0022765000000000007,-0.0045905,-0.1448175,-0.3879485,-0.1368085,0.1226325,-0.3910885,-0.1506285,-0.12649749999999998,-0.7628285,-0.007088499999999999,0.1356425,-0.7639485,-0.0088335
123,-0.032091,0.7030850000000001,-0.056223499999999996,-0.196771,0.48760499999999996,-0.0740845,-0.35623099999999996,0.668245,-0.15861350000000002,0.155219,0.49965499999999996,-0.0911525,0.300099,0.677135,-0.1728035,-0.36777099999999996,0.904655,-0.22785350000000001,0.302419,0.951365,-0.2287335,-0.07965,-0.002144999999999994,0.0045725,0.07965,0.002145000000000008,-0.004572499999999999,-0.14689100000000002,-0.384625,-0.14121350000000002,0.12354899999999999,-0.386695,-0.15586350000000002,-0.127141,-0.7557849999999999,-0.0087125,0.135039,-0.7570549999999999,-0.011238499999999998
124,-0.031412999999999996,0.7011400000000001,-0.058912,-0.19628600000000002,0.48629,-0.076168,-0.355956,0.66673,-0.161747,0.155414,0.49788,-0.094121,0.30104400000000003,0.67546,-0.17660700000000001,-0.36664599999999997,0.90408,-0.229747,0.30343400000000004,0.9440299999999999,-0.230807,-0.079666,-0.0019600000000000034,0.004428,0.079666,0.0019599999999999895,-0.004428,-0.14883600000000002,-0.38228,-0.145197,0.124564,-0.38338,-0.160537,-0.127766,-0.74936,-0.0103,0.134374,-0.7507299999999999,-0.01334
125,-0.030765499999999998,0.699445,-0.061368000000000006,-0.1957625,0.48523499999999997,-0.078109,-0.3560525,0.666545,-0.16504,0.15568749999999998,0.49687499999999996,-0.096991,0.3017175,0.673825,-0.18092,-0.3655225,0.902745,-0.23194,0.3043475,0.937025,-0.23332,-0.0797225,-0.001695000000000002,0.004316,0.0797225,0.001695000000000002,-0.0043159999999999995,-0.15104250000000002,-0.379995,-0.14912999999999998,0.1257275,-0.380705,-0.16505999999999998,-0.1284325,-0.742825,-0.011609999999999999,0.1336175,-0.744085,-0.015286000000000001
126,-0.0301685,0.697835,-0.06421400000000001,-0.19527550000000002,0.48439499999999996,-0.080121,-0.3562855,0.666275,-0.168628,0.15569449999999999,0.49582499999999996,-0.09994499999999999,0.30214450000000004,0.671905,-0.185788,-0.3646255,0.901605,-0.234458,0.3050645,0.929465,-0.236598,-0.0796985,-0.001605000000000023,0.0043879999999999995,0.0796985,0.0016049999999999953,-0.0043879999999999995,-0.1535555,-0.37782499999999997,-0.153358,0.12674449999999998,-0.37805500000000003,-0.169398,-0.12913550000000001,-0.736005,-0.012673,0.13262449999999998,-0.736845,-0.017085
127,-0.0296045,0.696445,-0.068083,-0.1948785,0.483275,-0.083143,-0.3567185,0.6658649999999999,-0.173062,0.15567150000000002,0.494945,-0.103758,0.30238149999999997,0.6703049999999999,-0.191722,-0.36397850000000004,0.900625,-0.238432,0.30549149999999997,0.922345,-0.241612,-0.0796365,-0.0016049999999999953,0.004417,0.0796365,0.0016049999999999953,-0.004417,-0.15630850000000002,-0.375775,-0.158422,0.12743149999999998,-0.375535,-0.174572,-0.12999850000000002,-0.728075,-0.014443999999999999,0.1314615,-0.7293050000000001,-0.019506
128,-0.029154,0.69453,-0.071704,-0.194522,0.48208,-0.086233,-0.357192,0.6650900000000001,-0.17746699999999999,0.154868,0.49434,-0.10740999999999999,0.302588,0.66735,-0.197807,-0.363162,0.90069,-0.242347,0.305788,0.91125,-0.247797,-0.07957800000000001,-0.0016299999999999926,0.00448,0.07957800000000001,0.0016300000000000203,-0.00448,-0.159112,-0.37092,-0.163387,0.127798,-0.37149999999999994,-0.179647,-0.131152,-0.7207899999999999,-0.015892,0.130298,-0.7219,-0.021842
129,-0.028741000000000003,0.6928350000000001,-0.07595450000000001,-0.19417,0.48111499999999996,-0.0896535,-0.35777000000000003,0.664655,-0.1826275,0.15392999999999998,0.492965,-0.11175750000000001,0.30272,0.6650449999999999,-0.2042775,-0.36246,0.8981049999999999,-0.2477975,0.30462,0.908865,-0.2532075,-0.079514,-0.0015150000000000163,0.0045095000000000005,0.079514,0.0015149999999999886,-0.0045095,-0.16183,-0.36425500000000005,-0.1690375,0.12791,-0.365725,-0.1854075,-0.13234,-0.7121250000000001,-0.0176195,0.12922,-0.7132449999999999,-0.0245065
130,-0.028505000000000003,0.69205,-0.0823115,-0.193967,0.48039000000000004,-0.0954855,-0.358317,0.66407,-0.1902045,0.15279299999999998,0.49191,-0.1184345,0.30267299999999997,0.6628000000000001,-0.2130645,-0.361877,0.89556,-0.2554645,0.303233,0.90746,-0.2609945,-0.079402,-0.0014099999999999946,0.0050715,0.079402,0.0014100000000000223,-0.0050715,-0.16478700000000002,-0.35666999999999993,-0.1767745,0.127633,-0.35883,-0.19321449999999998,-0.133787,-0.70253,-0.021503500000000002,0.127853,-0.70374,-0.0294065
131,-0.029143999999999996,0.694765,-0.0916275,-0.193718,0.481035,-0.1050125,-0.359638,0.667385,-0.2008115,0.150712,0.493095,-0.12825150000000002,0.301682,0.6636949999999999,-0.2245715,-0.362008,0.897195,-0.2662115,0.301072,0.908725,-0.2718115,-0.079362,-0.0013849999999999973,0.0050044999999999985,0.079362,0.0013849999999999973,-0.0050045,-0.170398,-0.345105,-0.1929915,0.126082,-0.348425,-0.21009150000000001,-0.137758,-0.693015,-0.0334955,0.12554200000000001,-0.6907449999999999,-0.0384245
132,-0.029643999999999997,0.696625,-0.100632,-0.193349,0.48146500000000003,-0.114261,-0.36072899999999997,0.670465,-0.211188,0.149011,0.49495500000000003,-0.137228,0.300931,0.664405,-0.235308,-0.361989,0.899325,-0.27667800000000004,0.299171,0.910145,-0.28166800000000003,-0.079231,-0.0014149999999999996,0.004935999999999999,0.079231,0.0014149999999999996,-0.004935999999999999,-0.17538900000000002,-0.334025,-0.20854799999999998,0.12428099999999999,-0.3385849999999999,-0.22613799999999998,-0.14130900000000002,-0.685215,-0.045122999999999996,0.12347100000000001,-0.6788649999999999,-0.046939999999999996
133,-0.0304325,0.69675,-0.10958749999999999,-0.1929795,0.48083000000000004,-0.1238575,-0.3618895,0.67186,-0.2222505,0.1473405,0.4973,-0.1461005,0.2998905,0.6652100000000001,-0.2462705,-0.3614495,0.9003000000000001,-0.2879305,0.2970605,0.9111800000000001,-0.2919705,-0.07913049999999999,-0.001679999999999987,0.004886500000000002,0.07913049999999999,0.0016800000000000148,-0.0048864999999999985,-0.1803195,-0.32310999999999995,-0.2243405,0.1223505,-0.32859,-0.2419905,-0.1448395,-0.6775100000000001,-0.056721499999999994,0.1212405,-0.66702,-0.055390499999999995
134,-0.0313195,0.69643,-0.119285,-0.1926185,0.48037,-0.133449,-0.36302850000000003,0.6733800000000001,-0.233239,0.1458915,0.49911,-0.155169,0.29894149999999997,0.66484,-0.257149,-0.3606885,0.90138,-0.29907900000000004,0.2950715,0.91178,-0.302379,-0.0789715,-0.0021100000000000008,0.0048889999999999975,0.0789715,0.0021100000000000008,-0.004889000000000001,-0.1847085,-0.31299999999999994,-0.24015899999999998,0.12066149999999999,-0.31860999999999995,-0.257749,-0.1462085,-0.6668999999999999,-0.06411,0.1192315,-0.65574,-0.064016
135,-0.032286999999999996,0.6967,-0.12899100000000002,-0.19242900000000002,0.47984000000000004,-0.143454,-0.363979,0.67518,-0.24446400000000001,0.144151,0.49871,-0.164904,0.298211,0.6648,-0.267974,-0.359859,0.90157,-0.310494,0.292961,0.9132199999999999,-0.31276400000000004,-0.07889099999999999,-0.002260000000000012,0.004857,0.07889099999999999,0.002260000000000012,-0.004857,-0.188549,-0.30296,-0.255964,0.119201,-0.30883000000000005,-0.273764,-0.147239,-0.65619,-0.07198,0.11730099999999999,-0.64444,-0.072823
136,-0.033337000000000006,0.69738,-0.13866099999999998,-0.192239,0.47973,-0.15332099999999999,-0.364829,0.67688,-0.255941,0.14245100000000002,0.49867000000000006,-0.174431,0.29755099999999995,0.66452,-0.278521,-0.358819,0.90125,-0.322061,0.290801,0.91462,-0.323071,-0.078861,-0.0022999999999999965,0.004856000000000006,0.078861,0.0022999999999999965,-0.004855999999999999,-0.191829,-0.29316,-0.271611,0.117661,-0.29943999999999993,-0.28974099999999997,-0.148029,-0.6455299999999999,-0.07994699999999999,0.11570099999999998,-0.63335,-0.081626
137,-0.0341175,0.698045,-0.1486185,-0.1922315,0.479835,-0.1632585,-0.3656615,0.678895,-0.2676085,0.1407985,0.498605,-0.1840885,0.29687850000000005,0.665795,-0.28892850000000003,-0.35788149999999996,0.9005050000000001,-0.33383850000000004,0.28875850000000003,0.9199250000000001,-0.3326785,-0.0788885,-0.002454999999999985,0.004809500000000001,0.0788885,0.0024550000000000127,-0.004809499999999994,-0.19380150000000002,-0.283425,-0.28748850000000004,0.11580850000000001,-0.290135,-0.3058385,-0.1485415,-0.6345449999999999,-0.0881575,0.11430850000000001,-0.6222650000000001,-0.0905485
138,-0.034863500000000006,0.6996,-0.1579895,-0.1923935,0.47892,-0.1729575,-0.36646350000000005,0.67986,-0.2786575,0.1391965,0.4998,-0.19321750000000001,0.2961065,0.66637,-0.2990575,-0.3572735,0.90323,-0.3441575,0.2864465,0.92391,-0.3421775,-0.0789665,-0.002819999999999989,0.0047285000000000035,0.0789665,0.002819999999999989,-0.0047285000000000035,-0.1953835,-0.27431999999999995,-0.3028175,0.1137165,-0.28180999999999995,-0.3212975,-0.1490335,-0.6247199999999999,-0.0963765,0.1129665,-0.6125,-0.0991905
139,-0.0354905,0.699975,-0.16424450000000002,-0.1925365,0.477815,-0.1791345,-0.3671365,0.680315,-0.2862345,0.1373735,0.498135,-0.1990445,0.29546350000000005,0.6669149999999999,-0.30601449999999997,-0.3566065,0.905605,-0.35153449999999997,0.28425350000000005,0.9269449999999999,-0.34832450000000004,-0.0790635,-0.0030649999999999844,0.004123500000000002,0.0790635,0.0030649999999999844,-0.004123500000000002,-0.19632650000000001,-0.265145,-0.3149145,0.1113635,-0.27352499999999996,-0.33356450000000004,-0.1494165,-0.6152949999999999,-0.1014715,0.1118935,-0.603275,-0.10465250000000001
140,-0.036127000000000006,0.696295,-0.16786399999999999,-0.192718,0.475375,-0.181854,-0.367398,0.676185,-0.291224,0.136492,0.49511499999999997,-0.20205399999999998,0.29521200000000003,0.6630849999999999,-0.310524,-0.355958,0.904225,-0.356534,0.28239200000000003,0.921355,-0.352144,-0.079092,-0.0032050000000000134,0.004280000000000006,0.079092,0.003204999999999958,-0.004279999999999992,-0.196548,-0.258375,-0.318954,0.108512,-0.26737500000000003,-0.337244,-0.149388,-0.608735,-0.103044,0.11075199999999999,-0.5965550000000001,-0.10651999999999999
141,-0.037056,0.6935,-0.17128749999999998,-0.192882,0.47275,-0.1844675,-0.367802,0.67239,-0.2959175,0.135638,0.49228000000000005,-0.2052075,0.294948,0.65958,-0.31504750000000004,-0.355552,0.89986,-0.36173750000000005,0.280678,0.91647,-0.3558675,-0.079098,-0.003339999999999954,0.004425499999999999,0.079098,0.0033400000000000096,-0.004425499999999999,-0.196762,-0.2512,-0.3228075,0.105268,-0.2602,-0.34082749999999995,-0.149252,-0.60183,-0.10469149999999999,0.109538,-0.58946,-0.10860349999999999
142,-0.03807,0.692615,-0.174792,-0.193026,0.4712550000000001,-0.186612,-0.368406,0.670455,-0.29981199999999997,0.134744,0.48895500000000003,-0.20847200000000002,0.294534,0.6561950000000001,-0.31892200000000004,-0.355706,0.897675,-0.36605200000000004,0.279354,0.9114650000000001,-0.359282,-0.079094,-0.0032749999999999724,0.004605999999999999,0.079094,0.003275000000000028,-0.004606000000000013,-0.196936,-0.24448499999999995,-0.325912,0.10184399999999999,-0.2533949999999999,-0.34394199999999997,-0.149126,-0.5953149999999999,-0.10633500000000001,0.10835399999999998,-0.5827249999999999,-0.11066600000000001
143,-0.03894,0.691505,-0.1780005,-0.19359800000000002,0.469475,-0.18890050000000003,-0.369018,0.667905,-0.3035905,0.133932,0.48582499999999995,-0.2118005,0.294232,0.653065,-0.3230005,-0.355688,0.895365,-0.37037050000000005,0.278512,0.905735,-0.36298050000000004,-0.079102,-0.0031849999999999934,0.004784499999999997,0.079102,0.0031849999999999934,-0.004784500000000011,-0.194808,-0.24069500000000005,-0.32872049999999997,0.09825199999999999,-0.249705,-0.3467405,-0.146778,-0.5862449999999999,-0.1039245,0.107112,-0.576565,-0.11237650000000002
144,-0.0398555,0.68962,-0.18108749999999998,-0.1941895,0.46746,-0.1907875,-0.36971950000000003,0.66437,-0.3068575,0.1334005,0.48516000000000004,-0.21424749999999998,0.2937805,0.64923,-0.3270275,-0.35567950000000004,0.8934900000000001,-0.37427750000000004,0.27782049999999997,0.9043300000000001,-0.3666775,-0.0791405,-0.003280000000000005,0.005016500000000007,0.0791405,0.003280000000000005,-0.005016499999999993,-0.1926495,-0.23806,-0.3306875,0.09470049999999999,-0.24684,-0.3484975,-0.1444495,-0.57893,-0.1017085,0.10588050000000002,-0.5723400000000001,-0.1138255
145,-0.040736,0.68705,-0.184068,-0.194953,0.46504,-0.192848,-0.37061299999999997,0.66296,-0.309878,0.13282700000000003,0.48395,-0.216808,0.293317,0.6456,-0.331048,-0.355663,0.8917900000000001,-0.37790799999999997,0.277287,0.90239,-0.37030799999999997,-0.079177,-0.003379999999999994,0.005202000000000012,0.079177,0.0033800000000000496,-0.005201999999999998,-0.190463,-0.23597999999999997,-0.33283799999999997,0.091077,-0.24456,-0.35043799999999997,-0.142173,-0.5729099999999999,-0.09967899999999999,0.104637,-0.5695899999999999,-0.11584799999999999
146,-0.041425500000000004,0.68483,-0.18708049999999998,-0.1956275,0.46245,-0.19496049999999998,-0.3714775,0.6612100000000001,-0.3127405,0.1322325,0.48258999999999996,-0.21925050000000001,0.2929225,0.64201,-0.33509049999999996,-0.3557875,0.8901000000000001,-0.38134049999999997,0.2768725,0.8972800000000001,-0.37401049999999997,-0.0792325,-0.003489999999999993,0.005408499999999997,0.0792325,0.003489999999999993,-0.005408499999999997,-0.1881875,-0.23452999999999996,-0.3350605,0.0876025,-0.24281000000000003,-0.3524505,-0.1417375,-0.5711599999999999,-0.1016005,0.1034225,-0.56803,-0.1179425
147,-0.042105500000000004,0.682275,-0.190165,-0.1961815,0.46086499999999997,-0.197365,-0.37245150000000005,0.660495,-0.315835,0.1316285,0.480925,-0.22175499999999998,0.29240849999999996,0.638755,-0.339235,-0.35601150000000004,0.8878550000000001,-0.384835,0.2763685,0.894215,-0.378365,-0.0792785,-0.0035049999999999804,0.005523,0.0792785,0.0035049999999999804,-0.005523,-0.1859115,-0.23395499999999997,-0.337385,0.0841585,-0.24223500000000003,-0.354635,-0.1413315,-0.5705849999999999,-0.10387300000000001,0.1022285,-0.5675650000000001,-0.12033
148,-0.042705999999999994,0.681145,-0.192927,-0.196684,0.46086499999999997,-0.19994699999999999,-0.374494,0.660495,-0.319217,0.131186,0.480925,-0.22439699999999999,0.291876,0.636555,-0.342787,-0.356404,0.886325,-0.387997,0.275466,0.8919950000000001,-0.38287699999999997,-0.079316,-0.0035049999999999804,0.005625000000000005,0.079316,0.0035049999999999804,-0.005624999999999991,-0.183744,-0.23395499999999997,-0.339277,0.081696,-0.24223500000000003,-0.356297,-0.140974,-0.5705849999999999,-0.106343,0.10119600000000001,-0.567615,-0.12289199999999999
149,-0.043037000000000006,0.681145,-0.1954545,-0.19711599999999999,0.46086499999999997,-0.2020045,-0.376516,0.660495,-0.3221645,0.130544,0.480925,-0.2269045,0.291384,0.636555,-0.34576450000000003,-0.356876,0.886155,-0.3906645,0.27448399999999995,0.8919950000000001,-0.3867245,-0.079284,-0.0035049999999999804,0.005610500000000004,0.079284,0.0035049999999999804,-0.005610500000000004,-0.182466,-0.23395499999999997,-0.3403045,0.08050399999999999,-0.24222499999999997,-0.3571245,-0.140826,-0.5706850000000001,-0.1086905,0.10095400000000002,-0.5677749999999999,-0.1252835
150,-0.043325999999999996,0.681145,-0.1981155,-0.19759100000000002,0.46086499999999997,-0.2038855,-0.378221,0.660495,-0.3247755,0.12983899999999998,0.480925,-0.2295555,0.290879,0.636555,-0.3485355,-0.357101,0.8860349999999999,-0.3933355,0.27348900000000004,0.8919950000000001,-0.3905355,-0.079239,-0.0035049999999999804,0.0056184999999999985,0.079239,0.0035049999999999804,-0.0056184999999999985,-0.181461,-0.233755,-0.3408055,0.079849,-0.24188499999999996,-0.3574355,-0.140631,-0.5706850000000001,-0.1110495,0.10097899999999999,-0.567925,-0.1275995
151,-0.043694000000000004,0.6798,-0.2014595,-0.19822,0.45993,-0.2057195,-0.37985,0.65964,-0.3280695,0.1291,0.48147,-0.2323195,0.29049,0.63521,-0.3518795,-0.35744,0.88469,-0.39667949999999996,0.27266,0.89065,-0.3946995,-0.07915,-0.0035499999999999976,0.005646499999999999,0.07915,0.0035499999999999976,-0.005646499999999999,-0.18048999999999998,-0.23416000000000003,-0.3404395,0.07987999999999999,-0.24183999999999994,-0.3569295,-0.14049,-0.57203,-0.1134465,0.10101999999999998,-0.56941,-0.1302125
152,-0.044098,0.6779,-0.204791,-0.198891,0.45913,-0.207491,-0.38131099999999996,0.65901,-0.331411,0.128419,0.48089,-0.235221,0.28997900000000004,0.63279,-0.35524100000000003,-0.35784099999999996,0.88133,-0.400051,0.27149900000000005,0.89205,-0.39854100000000003,-0.07907900000000001,-0.003520000000000023,0.005694999999999992,0.07907900000000001,0.0035199999999999676,-0.005695000000000006,-0.179921,-0.23557000000000006,-0.339291,0.07985899999999999,-0.24289000000000005,-0.355821,-0.140541,-0.57536,-0.115862,0.100879,-0.57275,-0.13234300000000002
153,-0.044417,0.676115,-0.207926,-0.199476,0.458915,-0.209136,-0.382636,0.658315,-0.334636,0.127914,0.480035,-0.237806,0.289534,0.630585,-0.35854600000000003,-0.358156,0.880605,-0.403076,0.270424,0.893215,-0.402096,-0.079014,-0.003454999999999986,0.005784000000000011,0.079014,0.0034550000000000414,-0.0057839999999999975,-0.179376,-0.23734500000000003,-0.337936,0.079874,-0.24446499999999993,-0.35449600000000003,-0.140566,-0.579405,-0.118171,0.10078400000000001,-0.5767749999999999,-0.134207
154,-0.044686,0.674545,-0.2107955,-0.199949,0.45872499999999994,-0.2106155,-0.383829,0.657875,-0.3375855,0.127591,0.479025,-0.2401655,0.28908100000000003,0.628915,-0.36172550000000003,-0.35850899999999997,0.8786349999999999,-0.40599549999999995,0.26932100000000003,0.8946649999999999,-0.40546550000000003,-0.078971,-0.003405000000000047,0.005864500000000009,0.078971,0.0034049999999999914,-0.005864499999999995,-0.178999,-0.239425,-0.3364755,0.079821,-0.24629500000000004,-0.3531655,-0.140709,-0.5841350000000001,-0.12043949999999999,0.10076099999999999,-0.581385,-0.1359095
155,-0.044865,0.673765,-0.21328049999999998,-0.200357,0.458405,-0.21205049999999998,-0.384867,0.657755,-0.34014049999999996,0.127433,0.478325,-0.2420805,0.28868299999999997,0.628085,-0.3644505,-0.35874700000000004,0.8765750000000001,-0.4087705,0.26831299999999997,0.8968050000000001,-0.4087105,-0.07892300000000001,-0.003375000000000017,0.005929500000000004,0.07892300000000001,0.003375000000000017,-0.00592949999999999,-0.178647,-0.24157500000000004,-0.33492049999999995,0.080483,-0.248145,-0.3517805,-0.140777,-0.5886549999999999,-0.1226905,0.10124300000000001,-0.5861749999999999,-0.13754349999999999
156,-0.045042,0.673555,-0.215296,-0.20069599999999999,0.45833500000000005,-0.21301599999999998,-0.385756,0.6583650000000001,-0.342286,0.127274,0.477235,-0.24368599999999999,0.288424,0.6278250000000001,-0.366686,-0.35892599999999997,0.875035,-0.411026,0.26768400000000003,0.896935,-0.411586,-0.078844,-0.0032649999999999624,0.006054000000000004,0.078844,0.003265000000000018,-0.00605399999999999,-0.178346,-0.24338499999999996,-0.333446,0.081704,-0.24980499999999994,-0.35065599999999997,-0.140826,-0.592665,-0.124526,0.101794,-0.590505,-0.139127
157,-0.045271,0.67345,-0.216885,-0.200896,0.45792,-0.21396500000000002,-0.385986,0.6571,-0.344055,0.127064,0.47624,-0.244805,0.288184,0.62778,-0.36857500000000004,-0.35915600000000003,0.87344,-0.412725,0.26734399999999997,0.89476,-0.41430500000000003,-0.078714,-0.003170000000000006,0.006175,0.078714,0.003170000000000006,-0.006175,-0.17815599999999998,-0.24527000000000004,-0.331855,0.083654,-0.25138,-0.349555,-0.140926,-0.5965499999999999,-0.126102,0.10234400000000002,-0.5947199999999999,-0.140578
158,-0.0453925,0.67353,-0.21797499999999997,-0.20102650000000002,0.45766,-0.214555,-0.3861465,0.6554800000000001,-0.345315,0.12696349999999998,0.47525,-0.245565,0.2880135,0.62791,-0.369935,-0.3592865,0.87216,-0.413935,0.2670935,0.89306,-0.416615,-0.0786035,-0.0030799999999999716,0.006295000000000009,0.0786035,0.003080000000000027,-0.006294999999999995,-0.17798650000000002,-0.24697000000000002,-0.330325,0.0859835,-0.25275000000000003,-0.348605,-0.1409465,-0.59984,-0.12747,0.10298349999999999,-0.59828,-0.14181
159,-0.045519000000000004,0.6736249999999999,-0.218635,-0.201294,0.45713499999999996,-0.215555,-0.38641400000000004,0.6538349999999999,-0.346325,0.126796,0.474275,-0.246285,0.28774599999999995,0.628025,-0.370935,-0.359514,0.8712949999999999,-0.41478499999999996,0.26689599999999997,0.891905,-0.41818500000000003,-0.078546,-0.00303500000000001,0.006375000000000006,0.078546,0.0030349999999999544,-0.006375000000000006,-0.178054,-0.24841500000000005,-0.329005,0.088336,-0.253675,-0.347835,-0.14111400000000002,-0.602595,-0.128618,0.10350599999999999,-0.601015,-0.142992
160,-0.045558,0.674235,-0.218605,-0.201503,0.45605500000000004,-0.216495,-0.386123,0.652935,-0.346055,0.12676700000000002,0.473965,-0.24642499999999998,0.28751699999999997,0.628625,-0.371325,-0.359663,0.871205,-0.415065,0.266727,0.891955,-0.418695,-0.078507,-0.0030649999999999844,0.006415000000000004,0.078507,0.00306500000000004,-0.00641499999999999,-0.178273,-0.24905499999999992,-0.328155,0.090287,-0.253865,-0.347365,-0.141283,-0.6040749999999999,-0.129484,0.10388700000000001,-0.602305,-0.14374199999999998
161,-0.045589000000000005,0.67479,-0.21837,-0.201518,0.45518000000000003,-0.21716000000000002,-0.38540800000000003,0.65181,-0.34495,0.12684199999999998,0.47397,-0.24635,0.287232,0.62941,-0.37146999999999997,-0.359738,0.87163,-0.41484,0.266352,0.89223,-0.41886999999999996,-0.078492,-0.003159999999999996,0.006409999999999999,0.078492,0.003159999999999996,-0.006409999999999999,-0.178628,-0.24943000000000004,-0.32755,0.09207199999999999,-0.25377000000000005,-0.34704,-0.141548,-0.60488,-0.130082,0.10406199999999999,-0.60295,-0.144719
162,-0.045583,0.6751100000000001,-0.218,-0.201366,0.45500000000000007,-0.21749000000000002,-0.384856,0.65163,-0.34402,0.126994,0.47434000000000004,-0.24631999999999998,0.286984,0.63005,-0.37152999999999997,-0.359686,0.8725700000000001,-0.41442999999999997,0.265944,0.89286,-0.419,-0.078454,-0.003339999999999954,0.006370000000000001,0.078454,0.0033400000000000096,-0.006370000000000001,-0.17901599999999998,-0.24922,-0.32745,0.093834,-0.25300999999999996,-0.34715,-0.141896,-0.60478,-0.130586,0.104124,-0.6027,-0.145587
163,-0.045424000000000006,0.6751100000000001,-0.217475,-0.200949,0.45500000000000007,-0.217695,-0.384249,0.65163,-0.343115,0.12717099999999998,0.47434000000000004,-0.246255,0.28680100000000003,0.63005,-0.371355,-0.359519,0.8731800000000001,-0.413495,0.265681,0.89347,-0.418845,-0.078391,-0.003339999999999954,0.006295000000000009,0.078391,0.0033400000000000096,-0.006294999999999995,-0.179579,-0.24907999999999997,-0.327685,0.095291,-0.25256,-0.347605,-0.142169,-0.60458,-0.130983,0.10413099999999999,-0.60232,-0.146357
164,-0.04527899999999999,0.6751100000000001,-0.2168,-0.200525,0.45500000000000007,-0.21769,-0.38370499999999996,0.65144,-0.34209,0.127385,0.47434000000000004,-0.24606,0.28673499999999996,0.63005,-0.37104,-0.359275,0.8737,-0.41234,0.26544500000000004,0.8937,-0.41834,-0.078375,-0.003339999999999954,0.006190000000000001,0.078375,0.0033400000000000096,-0.006190000000000001,-0.18018499999999998,-0.24907999999999997,-0.3281,0.096605,-0.25234,-0.34818,-0.142395,-0.60458,-0.131191,0.10403500000000002,-0.60181,-0.146893
165,-0.04514850000000001,0.675115,-0.216035,-0.2002195,0.454175,-0.217705,-0.3831995,0.650945,-0.340915,0.1274705,0.474345,-0.24573499999999998,0.2866105,0.630055,-0.37050500000000003,-0.35923950000000004,0.873705,-0.41114500000000004,0.26523050000000004,0.893705,-0.417545,-0.07829050000000001,-0.003344999999999987,0.006065000000000001,0.0782905,0.003344999999999987,-0.006065000000000001,-0.1810995,-0.249075,-0.328475,0.0975105,-0.25233500000000003,-0.348625,-0.14273950000000002,-0.6045750000000001,-0.131273,0.1037505,-0.6013949999999999,-0.14741300000000002
166,-0.04486,0.67543,-0.21537299999999998,-0.19991199999999998,0.45339,-0.217465,-0.382622,0.6501399999999999,-0.339865,0.12759800000000002,0.47472000000000003,-0.245575,0.286608,0.63043,-0.370095,-0.359092,0.8742300000000001,-0.410075,0.26522799999999996,0.8942300000000001,-0.41680500000000004,-0.07819799999999999,-0.0034500000000000086,0.005925,0.07819799999999999,0.0034500000000000086,-0.005925,-0.18193199999999998,-0.24855,-0.328725,0.09800800000000001,-0.25181000000000003,-0.348925,-0.142992,-0.60405,-0.131319,0.10353800000000002,-0.6006100000000001,-0.147894
167,-0.044576500000000005,0.675435,-0.214806,-0.1996095,0.452675,-0.21723,-0.38208949999999997,0.649445,-0.33884000000000003,0.1276605,0.475135,-0.24543,0.28672050000000004,0.630605,-0.3698,-0.3589095,0.875235,-0.40908,0.26530050000000005,0.895235,-0.41620999999999997,-0.07809050000000001,-0.003574999999999995,0.0057799999999999935,0.0780905,0.003574999999999995,-0.005780000000000007,-0.1828095,-0.24772499999999997,-0.32889999999999997,0.09833049999999999,-0.25080500000000006,-0.34925,-0.14325949999999998,-0.603085,-0.131391,0.10329050000000001,-0.599405,-0.148428
168,-0.044305,0.6753500000000001,-0.214419,-0.19934800000000003,0.4519500000000001,-0.216951,-0.38157800000000003,0.6484700000000001,-0.337765,0.127712,0.47562000000000004,-0.245255,0.286852,0.63077,-0.369675,-0.358838,0.87643,-0.40822499999999995,0.265492,0.89666,-0.41581500000000005,-0.077982,-0.003689999999999971,0.005655000000000007,0.077982,0.0036900000000000266,-0.005654999999999993,-0.183838,-0.24661999999999995,-0.329225,0.098672,-0.24944,-0.34979499999999997,-0.143548,-0.6017399999999999,-0.13151,0.103032,-0.59778,-0.148958
169,-0.044027000000000004,0.67534,-0.21421400000000002,-0.199349,0.45177999999999996,-0.21701399999999998,-0.381019,0.64726,-0.3368,0.12788100000000002,0.47548999999999997,-0.24493,0.286921,0.63043,-0.36980999999999997,-0.358869,0.87747,-0.40756000000000003,0.26569099999999995,0.89838,-0.41593,-0.077901,-0.003750000000000031,0.005569999999999992,0.077901,0.0037499999999999756,-0.0055700000000000055,-0.185259,-0.24477000000000004,-0.33004,0.09913099999999998,-0.24766,-0.35077,-0.143889,-0.59957,-0.13181500000000002,0.10269099999999999,-0.5953200000000001,-0.149818
170,-0.0437525,0.675205,-0.214179,-0.1993645,0.451785,-0.217136,-0.3808145,0.646495,-0.33653500000000003,0.1280955,0.475295,-0.244725,0.2869855,0.629965,-0.370265,-0.3589945,0.878565,-0.407355,0.2658955,0.9001349999999999,-0.41646500000000003,-0.07782549999999999,-0.003794999999999993,0.005474999999999994,0.0778255,0.003794999999999993,-0.005475000000000008,-0.18680449999999998,-0.24271499999999996,-0.331085,0.09960550000000001,-0.24573499999999998,-0.35202500000000003,-0.1441845,-0.597175,-0.13246100000000002,0.1022855,-0.592705,-0.150781
171,-0.0433815,0.67498,-0.21423699999999998,-0.1993885,0.45191000000000003,-0.217221,-0.3804685,0.6456500000000001,-0.336335,0.1283615,0.47497,-0.244415,0.28714150000000005,0.62927,-0.370815,-0.35908850000000003,0.87942,-0.40729499999999996,0.2661715,0.90161,-0.41710499999999995,-0.0777915,-0.0037800000000000056,0.005405000000000007,0.0777915,0.0037800000000000056,-0.005404999999999993,-0.1882485,-0.24063999999999997,-0.331825,0.10013150000000001,-0.24392999999999998,-0.353105,-0.14442850000000002,-0.59484,-0.133101,0.1019815,-0.59019,-0.15182299999999999
172,-0.043064,0.674635,-0.214402,-0.199405,0.452015,-0.21666300000000002,-0.380105,0.644765,-0.33609500000000003,0.128625,0.474595,-0.24422500000000003,0.287305,0.628425,-0.37146500000000005,-0.359095,0.880155,-0.407675,0.266495,0.9025650000000001,-0.417775,-0.077765,-0.003784999999999983,0.005434999999999995,0.077765,0.003784999999999983,-0.005435000000000009,-0.189645,-0.23861499999999997,-0.332465,0.100725,-0.24222499999999997,-0.35396500000000003,-0.144675,-0.592635,-0.133718,0.101695,-0.587845,-0.15283300000000002
173,-0.042741499999999995,0.6742900000000001,-0.214661,-0.1993895,0.45267,-0.216392,-0.3796895,0.6448,-0.336015,0.1289105,0.47435,-0.24410500000000002,0.28742049999999997,0.6274500000000001,-0.371985,-0.35898949999999996,0.88027,-0.40812499999999996,0.26689050000000003,0.90272,-0.41844499999999996,-0.0777005,-0.003740000000000021,0.005464999999999998,0.0777005,0.003740000000000021,-0.005464999999999998,-0.19082949999999999,-0.23709999999999998,-0.33308499999999996,0.10127050000000001,-0.24089000000000005,-0.354645,-0.1449095,-0.5911,-0.134288,0.10146050000000001,-0.58627,-0.153808
174,-0.042368,0.674255,-0.2152,-0.199233,0.45323500000000005,-0.216301,-0.379183,0.644565,-0.336245,0.129287,0.47381500000000004,-0.244365,0.287647,0.626995,-0.372655,-0.358703,0.880035,-0.408895,0.267287,0.9024650000000001,-0.419225,-0.07771700000000001,-0.003544999999999965,0.005535000000000012,0.07771700000000001,0.0035450000000000204,-0.005534999999999998,-0.191613,-0.23653499999999994,-0.33396499999999996,0.10197700000000001,-0.240325,-0.355585,-0.144973,-0.5905349999999999,-0.135127,0.10142699999999999,-0.585635,-0.15497899999999998
175,-0.0420685,0.674255,-0.215745,-0.1990695,0.45323500000000005,-0.216171,-0.3789095,0.644565,-0.33643,0.1296005,0.473685,-0.24459999999999998,0.2878705,0.626995,-0.37347,-0.3583495,0.8799250000000001,-0.40972,0.2676505,0.902455,-0.41989,-0.0777405,-0.003544999999999965,0.005569999999999992,0.0777405,0.0035450000000000204,-0.005569999999999992,-0.1923095,-0.23653499999999994,-0.33493,0.10272049999999999,-0.240325,-0.35660000000000003,-0.1450595,-0.590495,-0.136053,0.10141049999999999,-0.585565,-0.15621
176,-0.041565500000000005,0.674255,-0.216072,-0.1986645,0.45323500000000005,-0.215911,-0.3785645,0.644565,-0.33642,0.1300355,0.473685,-0.24486999999999998,0.2882555,0.626995,-0.37429999999999997,-0.3580445,0.8799250000000001,-0.41040999999999994,0.2681255,0.902455,-0.42064,-0.07778550000000001,-0.003544999999999965,0.005640000000000006,0.0777855,0.0035450000000000204,-0.005639999999999992,-0.1927945,-0.23653499999999994,-0.33541,0.1037855,-0.240325,-0.35741,-0.1451145,-0.590465,-0.13702699999999998,0.10151550000000001,-0.5854349999999999,-0.157333
177,-0.041070999999999996,0.674255,-0.216312,-0.198324,0.45365500000000003,-0.21565,-0.378314,0.644565,-0.33630000000000004,0.13037600000000002,0.473685,-0.24516,0.28871600000000003,0.626995,-0.37512,-0.357904,0.8799250000000001,-0.41089,0.268646,0.902455,-0.42161000000000004,-0.077796,-0.003544999999999965,0.005700000000000011,0.077796,0.0035450000000000204,-0.005699999999999997,-0.193164,-0.236255,-0.33541,0.10478600000000002,-0.24011499999999997,-0.35792,-0.145274,-0.590465,-0.137896,0.101546,-0.585235,-0.15839999999999999
178,-0.04060999999999999,0.67442,-0.21595999999999999,-0.197932,0.45471,-0.21481,-0.378012,0.64607,-0.33565500000000004,0.130538,0.47341,-0.245255,0.289418,0.6269899999999999,-0.375505,-0.357372,0.87965,-0.410755,0.269568,0.90218,-0.422185,-0.07777799999999999,-0.003400000000000014,0.005785000000000012,0.077778,0.003400000000000014,-0.0057849999999999985,-0.19324199999999997,-0.23614000000000002,-0.33465500000000004,0.105748,-0.23987000000000003,-0.35772499999999996,-0.14540199999999998,-0.59066,-0.138364,0.101618,-0.58527,-0.159012
179,-0.0400305,0.675035,-0.214889,-0.1975355,0.45587500000000003,-0.213473,-0.37782550000000004,0.647485,-0.33435499999999996,0.1307145,0.473075,-0.244775,0.29013449999999996,0.627085,-0.374955,-0.3569455,0.8794550000000001,-0.409495,0.2708045,0.901975,-0.422105,-0.0777845,-0.003145000000000009,0.005895000000000011,0.0777845,0.003145000000000009,-0.0058949999999999975,-0.1933455,-0.23666499999999996,-0.332925,0.10671450000000002,-0.24006500000000003,-0.356655,-0.1455255,-0.5917349999999999,-0.138312,0.10168450000000001,-0.586325,-0.15913
180,-0.039476500000000005,0.67544,-0.21362599999999998,-0.1970715,0.45738999999999996,-0.212079,-0.37762150000000005,0.64947,-0.332715,0.1309285,0.47282,-0.24394499999999997,0.2908185,0.62721,-0.37399499999999997,-0.3567815,0.8791599999999999,-0.40779499999999996,0.27235849999999995,0.90167,-0.42184499999999997,-0.0777785,-0.002970000000000028,0.005895000000000011,0.0777785,0.0029699999999999727,-0.005894999999999984,-0.1933915,-0.23787000000000003,-0.330765,0.10765849999999999,-0.24084000000000005,-0.35511499999999996,-0.1456715,-0.59382,-0.13807499999999998,0.10174849999999999,-0.58839,-0.159126
181,-0.038728,0.6766350000000001,-0.21215099999999998,-0.196504,0.458955,-0.21068399999999998,-0.377294,0.651425,-0.330655,0.131186,0.47343500000000005,-0.243025,0.29154599999999997,0.628135,-0.372715,-0.35677400000000004,0.880545,-0.405275,0.27415599999999996,0.9013950000000001,-0.421145,-0.077786,-0.002794999999999992,0.005895000000000011,0.077786,0.0027950000000000474,-0.005894999999999984,-0.193324,-0.24023499999999998,-0.328275,0.108596,-0.24251499999999993,-0.353395,-0.14583400000000002,-0.597285,-0.137819,0.10186600000000001,-0.591635,-0.15902299999999997
182,-0.0380245,0.678625,-0.21025100000000002,-0.1959185,0.460955,-0.209065,-0.3770085,0.6534249999999999,-0.328195,0.1314215,0.474175,-0.242065,0.2922915,0.630055,-0.37129500000000004,-0.35681850000000004,0.881855,-0.40241499999999997,0.2760815,0.900895,-0.420075,-0.0778015,-0.0026249999999999885,0.005904999999999994,0.0778015,0.0026249999999999885,-0.0059050000000000075,-0.1931385,-0.24334499999999998,-0.325525,0.10948150000000001,-0.24501500000000004,-0.351475,-0.1461485,-0.6020749999999999,-0.137941,0.10202150000000001,-0.595745,-0.158777
183,-0.0371775,0.68082,-0.208007,-0.19510049999999998,0.46275,-0.207268,-0.3765605,0.65683,-0.325055,0.13182950000000002,0.47504,-0.240905,0.2931895,0.6318900000000001,-0.369285,-0.35670050000000003,0.8825400000000001,-0.39903500000000003,0.2783795,0.89998,-0.418425,-0.0778395,-0.0024299999999999877,0.006044999999999995,0.0778395,0.0024299999999999877,-0.006045000000000009,-0.1927105,-0.2476,-0.322205,0.11059950000000002,-0.24852999999999997,-0.34902500000000003,-0.1463505,-0.60826,-0.13775600000000002,0.10243950000000002,-0.6019300000000001,-0.158613
184,-0.0362065,0.68295,-0.205207,-0.1942935,0.46531999999999996,-0.205062,-0.37595350000000005,0.65974,-0.32127,0.1326765,0.4769,-0.23887,0.2941465,0.63396,-0.36654,-0.35660349999999996,0.8828699999999999,-0.39474,0.28097649999999996,0.89825,-0.41615,-0.0778565,-0.0022500000000000298,0.006080000000000002,0.0778565,0.0022499999999999742,-0.006079999999999988,-0.1920735,-0.25287000000000004,-0.31811,0.1117765,-0.25295,-0.34582999999999997,-0.14653349999999998,-0.61575,-0.13713599999999998,0.10313649999999999,-0.6094200000000001,-0.158018
185,-0.0353295,0.68579,-0.201442,-0.19367249999999997,0.46712,-0.20235999999999998,-0.3751525,0.66293,-0.316005,0.1337275,0.47872000000000003,-0.235765,0.2949675,0.6373,-0.36245499999999997,-0.3567825,0.88428,-0.389185,0.2843575,0.8966299999999999,-0.41203500000000004,-0.0778675,-0.002129999999999993,0.00600500000000001,0.0778675,0.002129999999999993,-0.0060049999999999965,-0.19139250000000002,-0.25949,-0.312785,0.1127875,-0.25881,-0.341225,-0.14822249999999998,-0.62668,-0.13827,0.1040675,-0.6187900000000001,-0.156532
186,-0.03458700000000001,0.68889,-0.196924,-0.193108,0.46936999999999995,-0.19896199999999997,-0.374188,0.6664399999999999,-0.30971499999999996,0.134612,0.48072000000000004,-0.232045,0.29565199999999997,0.6402300000000001,-0.35755499999999996,-0.357038,0.8907799999999999,-0.381965,0.287852,0.89696,-0.406915,-0.077872,-0.0019699999999999995,0.005915000000000004,0.077872,0.0019699999999999995,-0.00591499999999999,-0.190638,-0.26654000000000005,-0.306655,0.11385200000000001,-0.26504999999999995,-0.33584499999999995,-0.149948,-0.63801,-0.138617,0.105712,-0.62991,-0.157075
187,-0.033644999999999994,0.692315,-0.19208799999999998,-0.192623,0.471455,-0.195303,-0.373063,0.668775,-0.30305000000000004,0.135907,0.48281500000000005,-0.22799,0.296367,0.643475,-0.35206000000000004,-0.357193,0.895915,-0.37436,0.290927,0.897375,-0.40118,-0.07794699999999999,-0.0016549999999999898,0.005890000000000006,0.077947,0.0016550000000000176,-0.005890000000000006,-0.189633,-0.273775,-0.29981,0.115047,-0.271835,-0.3297,-0.151343,-0.6495949999999999,-0.137826,0.107667,-0.641425,-0.156648
188,-0.032777,0.69575,-0.18714799999999998,-0.19192399999999998,0.47415,-0.191674,-0.371684,0.67207,-0.295995,0.137266,0.48386,-0.223785,0.297176,0.6481,-0.34652499999999997,-0.357274,0.9013,-0.366685,0.293906,0.89928,-0.394905,-0.078046,-0.0012199999999999989,0.005845000000000003,0.078046,0.0012199999999999989,-0.005845000000000003,-0.18842399999999998,-0.2809,-0.292755,0.11630600000000002,-0.27883,-0.323355,-0.152534,-0.66089,-0.136574,0.109876,-0.65264,-0.155744
189,-0.031818,0.69853,-0.181418,-0.19123400000000002,0.47551999999999994,-0.187488,-0.37024399999999996,0.67543,-0.28856,0.138666,0.48609,-0.21948,0.297956,0.65289,-0.34072,-0.357194,0.90647,-0.35844,0.296866,0.90194,-0.38803,-0.07821600000000001,-0.0011099999999999999,0.005860000000000004,0.078216,0.0011099999999999999,-0.00585999999999999,-0.18707400000000002,-0.28833,-0.28542999999999996,0.117666,-0.28583000000000003,-0.31645999999999996,-0.153704,-0.67229,-0.135733,0.11226599999999999,-0.66352,-0.154464
190,-0.030836499999999996,0.6989400000000001,-0.17508100000000001,-0.19025150000000002,0.47823,-0.183012,-0.3683915,0.67875,-0.2806,0.1403485,0.48821000000000003,-0.21478000000000003,0.2988885,0.6568,-0.33421,-0.3569715,0.90937,-0.34986,0.29890849999999997,0.9057,-0.38034999999999997,-0.0783185,-0.0007800000000000029,0.0056699999999999945,0.0783185,0.0007800000000000029,-0.005670000000000008,-0.1852815,-0.29627,-0.27702000000000004,0.1190585,-0.29351,-0.30839,-0.1546415,-0.6843299999999999,-0.13386900000000002,0.1148485,-0.6750099999999999,-0.151924
191,-0.029928500000000004,0.69824,-0.1688385,-0.1893515,0.48022,-0.1783045,-0.3667915,0.68224,-0.2726695,0.1419385,0.49044,-0.2100995,0.2998185,0.66014,-0.32708950000000003,-0.3568615,0.91273,-0.3408195,0.3007185,0.90889,-0.37262950000000006,-0.07842850000000001,-0.0005099999999999827,0.005410499999999999,0.0784285,0.0005100000000000104,-0.005410499999999999,-0.18353150000000001,-0.30432,-0.2683495,0.12016850000000001,-0.30112,-0.29987949999999997,-0.1556515,-0.69659,-0.1314605,0.1173885,-0.6864399999999999,-0.1488475
192,-0.028835999999999994,0.6965749999999999,-0.16216599999999998,-0.18830799999999998,0.482855,-0.173232,-0.365268,0.684895,-0.26443700000000003,0.143772,0.492465,-0.205057,0.300922,0.665275,-0.319827,-0.356688,0.916165,-0.33137700000000003,0.302362,0.9129849999999999,-0.364487,-0.07850199999999999,-0.00034500000000001196,0.005143000000000009,0.078502,0.0003449999999999842,-0.005142999999999995,-0.181348,-0.31228500000000003,-0.259357,0.12134199999999999,-0.308545,-0.290997,-0.156498,-0.709085,-0.128575,0.11989200000000001,-0.6981850000000001,-0.145067
193,-0.027713999999999996,0.6937,-0.155522,-0.18725599999999998,0.48512,-0.16790100000000002,-0.36409600000000003,0.6879200000000001,-0.256447,0.145194,0.49446,-0.19953700000000002,0.302024,0.6696500000000001,-0.312307,-0.356366,0.9219900000000001,-0.321547,0.303734,0.9234,-0.35574700000000004,-0.078594,-0.00012000000000000899,0.004817000000000002,0.078594,0.00012000000000000899,-0.004817000000000002,-0.178946,-0.32029,-0.249587,0.122574,-0.31605,-0.281527,-0.15699599999999997,-0.7218500000000001,-0.12452099999999999,0.12206399999999999,-0.71,-0.140091
194,-0.026821499999999998,0.689265,-0.149451,-0.1865675,0.48768500000000004,-0.163229,-0.3631475,0.690185,-0.24949000000000002,0.14618250000000002,0.496575,-0.19411,0.30275250000000004,0.672545,-0.30545,-0.35604749999999996,0.9285950000000001,-0.31245,0.3047225,0.9331149999999999,-0.34797,-0.0785925,7.50000000000195e-05,0.00458299999999999,0.0785925,-7.499999999999174e-05,-0.004583000000000004,-0.17674749999999997,-0.327355,-0.24011000000000002,0.12360249999999999,-0.32265499999999997,-0.27246000000000004,-0.15637749999999997,-0.733155,-0.11926400000000001,0.1237725,-0.720815,-0.134918
195,-0.02602,0.683435,-0.143565,-0.18598599999999998,0.489325,-0.15872,-0.362236,0.692495,-0.243053,0.14705400000000002,0.498285,-0.18884299999999998,0.30336399999999997,0.676155,-0.298883,-0.355856,0.929245,-0.304323,0.305664,0.940515,-0.34049300000000005,-0.078504,0.00013499999999999623,0.0042220000000000035,0.078504,-0.00013499999999999623,-0.0042220000000000035,-0.174566,-0.33431500000000003,-0.230303,0.12433399999999999,-0.329175,-0.26294300000000004,-0.155516,-0.7441150000000001,-0.113816,0.12464399999999999,-0.731305,-0.129471
196,-0.025783499999999997,0.679555,-0.1375115,-0.18589050000000001,0.490905,-0.15409250000000002,-0.3623405,0.695135,-0.2362745,0.1474495,0.499535,-0.1839245,0.3031995,0.678655,-0.29209450000000003,-0.3561105,0.930285,-0.2959445,0.30615950000000003,0.946365,-0.33307450000000005,-0.0783195,-5.0000000000050004e-06,0.0038995,0.0783195,5.0000000000050004e-06,-0.0038995,-0.1725505,-0.341405,-0.2197045,0.1241095,-0.335775,-0.2524145,-0.1550805,-0.754675,-0.1080075,0.1250795,-0.7417050000000001,-0.12366250000000001
197,-0.025496499999999995,0.6748350000000001,-0.130839,-0.1856505,0.49214499999999994,-0.14936500000000003,-0.3625005,0.696285,-0.22906400000000002,0.1478395,0.501915,-0.179114,0.3028895,0.6803750000000001,-0.284974,-0.3564505,0.930965,-0.287464,0.30587949999999997,0.950995,-0.32566399999999995,-0.0781895,-0.00038500000000001033,0.0036229999999999873,0.0781895,0.00038499999999999646,-0.0036230000000000012,-0.1702505,-0.34857499999999997,-0.208494,0.12356950000000001,-0.342495,-0.241014,-0.15444049999999998,-0.763015,-0.10026000000000002,0.1256595,-0.752535,-0.11746200000000001
198,-0.025358,0.670019,-0.12462000000000001,-0.18545199999999998,0.494979,-0.14498,-0.36297199999999996,0.696789,-0.222041,0.14810800000000002,0.504999,-0.174591,0.302678,0.682849,-0.277931,-0.356912,0.931659,-0.279351,0.30525800000000003,0.954689,-0.318541,-0.078188,-0.00037500000000000033,0.003236999999999997,0.078188,0.00037500000000000033,-0.003236999999999997,-0.16761199999999998,-0.358151,-0.19697099999999998,0.12249800000000001,-0.35297100000000003,-0.229271,-0.153742,-0.770961,-0.092407,0.126278,-0.760291,-0.107925
199,-0.025312499999999998,0.6668244999999999,-0.118812,-0.18541649999999998,0.4964645,-0.141027,-0.36357649999999997,0.6976645,-0.21559,0.1483235,0.5080345,-0.17060999999999998,0.3021535,0.6857145,-0.2714,-0.35762649999999996,0.9330745,-0.27168000000000003,0.3045935,0.9571745,-0.31196999999999997,-0.0782235,-0.0006864999999999927,0.003043999999999998,0.0782235,0.0006865000000000065,-0.003044000000000005,-0.1651165,-0.36740549999999994,-0.18601,0.1210335,-0.36293549999999997,-0.21761,-0.1528365,-0.7783255,-0.084536,0.1266835,-0.7676555,-0.098871
200,-0.0251945,0.662435,-0.1074405,-0.1852065,0.498645,-0.13174049999999998,-0.3640865,0.698415,-0.20369749999999998,0.14856350000000001,0.510145,-0.16116750000000002,0.3014635,0.688295,-0.2596875,-0.3586565,0.933935,-0.2584675,0.3044235,0.9591649999999999,-0.2998375,-0.0782735,-0.0010470000000000063,0.0027335,0.0782735,0.0010470000000000063,-0.0027335,-0.1617465,-0.37795500000000004,-0.1674875,0.11941349999999999,-0.374475,-0.1991575,-0.1513265,-0.786655,-0.0695625,0.12711350000000002,-0.776255,-0.0830755
201,-0.0255895,0.669074,-0.0959375,-0.1859925,0.500244,-0.12076150000000001,-0.36464250000000004,0.695764,-0.1901675,0.14913749999999998,0.513524,-0.1502375,0.3008475,0.687814,-0.2463775,-0.3598325,0.932984,-0.2437275,0.30464749999999996,0.958264,-0.2862475,-0.0783075,-0.0016390000000000016,0.003100499999999999,0.0783075,0.0016390000000000016,-0.0031005000000000026,-0.1567225,-0.391136,-0.1454675,0.1173975,-0.388246,-0.17581750000000002,-0.14850249999999998,-0.796776,-0.0514705,0.12747750000000002,-0.787386,-0.0637095
202,-0.026130999999999998,0.6768155,-0.08479300000000001,-0.186821,0.5013555000000001,-0.10983599999999999,-0.365311,0.6932354999999999,-0.176989,0.14946900000000002,0.5157754999999999,-0.139359,0.30001900000000004,0.6883655,-0.233329,-0.361371,0.9302554999999999,-0.22969900000000001,0.305429,0.9517154999999999,-0.27319899999999997,-0.078329,-0.002068500000000001,0.003460999999999999,0.078329,0.002068500000000001,-0.0034610000000000023,-0.15190099999999998,-0.4037145,-0.124499,0.11545899999999999,-0.4008245,-0.153419,-0.145951,-0.8061545000000001,-0.033789,0.12781900000000002,-0.7980645,-0.045169
203,-0.026898500000000002,0.6853265,-0.07400949999999999,-0.1879405,0.5023365000000001,-0.0987805,-0.3661305,0.6917865,-0.1640085,0.1497095,0.5181665,-0.1282885,0.29915949999999997,0.6916165,-0.22025850000000002,-0.3632305,0.9257265,-0.2157785,0.30587949999999997,0.9471265,-0.2602985,-0.0782995,-0.0023514999999999994,0.0036144999999999997,0.0782995,0.0023514999999999994,-0.0036145000000000005,-0.1470705,-0.4155535,-0.1038355,0.1136695,-0.4125735,-0.1309785,-0.1435205,-0.8152335,-0.016448499999999998,0.12799950000000002,-0.8087835,-0.027241500000000002
204,-0.027457000000000002,0.6946625000000001,-0.063682,-0.18897,0.5037525,-0.087733,-0.36662,0.6897625000000001,-0.151337,0.15016000000000002,0.5210625000000001,-0.11690700000000001,0.29846999999999996,0.6940825,-0.207057,-0.36531,0.9220625,-0.201567,0.30657999999999996,0.9429025000000001,-0.247117,-0.07822000000000001,-0.002578500000000001,0.003766,0.07822000000000001,0.002578500000000001,-0.0037659999999999994,-0.14195,-0.4270975,-0.083287,0.11231,-0.4243975,-0.108377,-0.14063,-0.8243474999999999,0.0009909999999999997,0.12842,-0.8197774999999999,-0.009609
205,-0.027873,0.7019075,-0.05318350000000001,-0.189886,0.5053075,-0.0768055,-0.366016,0.6864874999999999,-0.1387475,0.150784,0.5241175,-0.1053375,0.29820399999999997,0.6973975,-0.19374750000000002,-0.367466,0.9192575,-0.18719750000000002,0.307504,0.9402575,-0.23397749999999998,-0.078044,-0.0027384999999999996,0.0040325,0.078044,0.0027384999999999996,-0.004032500000000001,-0.136556,-0.4372525,-0.0632325,0.11169400000000002,-0.4356025,-0.08623750000000001,-0.137496,-0.8332025000000001,0.0177725,0.129314,-0.8301325,0.0071625000000000005
206,-0.028200999999999997,0.7095870000000001,-0.04222100000000001,-0.190776,0.5071270000000001,-0.065219,-0.36543600000000004,0.685717,-0.125693,0.151684,0.5268970000000001,-0.09302300000000001,0.298104,0.7007070000000001,-0.179193,-0.369736,0.916807,-0.172243,0.30890399999999996,0.9430270000000001,-0.218463,-0.077736,-0.002794,0.004226999999999998,0.077736,0.002794,-0.004227000000000002,-0.130536,-0.448303,-0.04191500000000001,0.11183400000000002,-0.447783,-0.061954999999999996,-0.134146,-0.842513,0.034973,0.130604,-0.840853,0.024243999999999998
207,-0.028433000000000003,0.717874,-0.0310695,-0.191534,0.5083740000000001,-0.05330649999999999,-0.364664,0.685054,-0.11264350000000001,0.15276599999999999,0.527494,-0.0806235,0.29809599999999997,0.7032940000000001,-0.1645435,-0.371854,0.914544,-0.1574435,0.310496,0.946204,-0.2028335,-0.07752200000000001,-0.0028280000000000007,0.004451500000000004,0.07752200000000001,0.0028280000000000007,-0.004451499999999997,-0.12468399999999999,-0.458856,-0.020582500000000004,0.112486,-0.459596,-0.037531499999999995,-0.130714,-0.8514459999999999,0.052140500000000006,0.13214599999999999,-0.850706,0.0409655
208,-0.028829999999999995,0.7256135,-0.020113999999999993,-0.19215200000000002,0.5096135,-0.04163599999999999,-0.363722,0.6843435,-0.09959299999999999,0.153808,0.5283735,-0.068463,0.298128,0.7061835,-0.149903,-0.373882,0.9126035,-0.143403,0.312098,0.9492935,-0.18751299999999999,-0.077307,-0.002802500000000003,0.004604000000000004,0.077307,0.0028024999999999994,-0.004603999999999997,-0.119032,-0.46964649999999997,0.0005189999999999986,0.113388,-0.4713465,-0.013608999999999996,-0.127452,-0.8597865,0.068627,0.133718,-0.8597465,0.057095
209,-0.029068499999999997,0.7348954999999999,-0.014901999999999999,-0.1926755,0.5103955,-0.03551499999999999,-0.36266550000000003,0.6838055,-0.09275799999999998,0.15503450000000002,0.5302954999999999,-0.06211799999999999,0.29846449999999997,0.7089854999999999,-0.141118,-0.37538550000000004,0.9107354999999999,-0.135828,0.3139945,0.9536555,-0.17818799999999999,-0.0771465,-0.0026885,0.004855000000000005,0.0771465,0.0026885,-0.004854999999999998,-0.1140265,-0.47885449999999996,0.013883000000000006,0.11465450000000002,-0.4813945,0.0030090000000000117,-0.1245455,-0.8664545,0.077729,0.1354045,-0.8670345,0.06622700000000001
210,-0.028679999999999997,0.733945,-0.010568999999999995,-0.19209,0.511385,-0.03129,-0.36156999999999995,0.686195,-0.088049,0.15632000000000001,0.531095,-0.057458999999999996,0.29896,0.713155,-0.13442900000000002,-0.37653,0.911085,-0.130959,0.31608,0.958925,-0.17178900000000003,-0.076899,-0.002250000000000002,0.004423999999999997,0.076899,0.002250000000000002,-0.004423999999999997,-0.11086,-0.482635,0.023016000000000002,0.11641000000000001,-0.485215,0.013830999999999996,-0.12261999999999999,-0.869805,0.083123,0.13714,-0.871215,0.071376
211,-0.028161499999999996,0.7336929999999999,-0.006596500000000005,-0.1914165,0.512423,-0.0271275,-0.3605765,0.688453,-0.08368450000000001,0.1575335,0.532063,-0.05283449999999999,0.2997335,0.716793,-0.1282045,-0.37745650000000003,0.9110429999999999,-0.12673449999999997,0.3181535,0.964093,-0.1659045,-0.0765895,-0.002009999999999998,0.004200499999999996,0.0765895,0.002010000000000005,-0.004200499999999996,-0.10776349999999998,-0.48603699999999994,0.0318755,0.11809349999999999,-0.488637,0.024315500000000004,-0.1206065,-0.872667,0.0887535,0.1388535,-0.874877,0.0763135
212,-0.027602,0.733404,-0.003030999999999992,-0.19069000000000003,0.513304,-0.023393999999999998,-0.35958,0.689844,-0.079836,0.15877000000000002,0.5321239999999999,-0.048325999999999994,0.30051,0.7182339999999999,-0.12269599999999999,-0.37822,0.911494,-0.122966,0.32022,0.9685839999999999,-0.16081600000000001,-0.076237,-0.0018460000000000004,0.004165000000000002,0.076237,0.0018460000000000004,-0.004165000000000002,-0.104955,-0.488666,0.039787,0.11969,-0.491276,0.033482000000000005,-0.11873,-0.8748360000000001,0.093973,0.14055,-0.877596,0.080859
213,-0.027166000000000003,0.733306,0.0004259999999999958,-0.189905,0.514116,-0.019998000000000002,-0.358725,0.6915060000000001,-0.07644899999999999,0.159875,0.532076,-0.043979000000000004,0.301245,0.719676,-0.11770900000000001,-0.37877500000000003,0.911956,-0.119529,0.322195,0.9729360000000001,-0.15659900000000002,-0.075945,-0.001687000000000001,0.004195999999999991,0.075945,0.001687000000000001,-0.004196000000000005,-0.102492,-0.49049400000000004,0.046915,0.12115499999999998,-0.493004,0.041637,-0.11711500000000001,-0.876374,0.09879199999999999,0.142205,-0.8795839999999999,0.08499999999999999
