sb224sc-HT22-VT27/4dt907/src/data/kinect_good_preprocessed_A9_mediapipe/A156_kinect_mirrored.csv
FrameNo,nose_3d_x,nose_3d_y,nose_3d_z,left_shoulder_3d_x,left_shoulder_3d_y,left_shoulder_3d_z,left_elbow_3d_x,left_elbow_3d_y,left_elbow_3d_z,right_shoulder_3d_x,right_shoulder_3d_y,right_shoulder_3d_z,right_elbow_3d_x,right_elbow_3d_y,right_elbow_3d_z,left_wrist_3d_x,left_wrist_3d_y,left_wrist_3d_z,right_wrist_3d_x,right_wrist_3d_y,right_wrist_3d_z,left_hip_3d_x,left_hip_3d_y,left_hip_3d_z,right_hip_3d_x,right_hip_3d_y,right_hip_3d_z,left_knee_3d_x,left_knee_3d_y,left_knee_3d_z,right_knee_3d_x,right_knee_3d_y,right_knee_3d_z,left_ankle_3d_x,left_ankle_3d_y,left_ankle_3d_z,right_ankle_3d_x,right_ankle_3d_y,right_ankle_3d_z
102,1.0318235,0.739904,-0.0117395,0.8353405,0.535464,-0.0383234999999999,0.7002305000000001,0.736484,-0.1180394999999999,1.1991005000000001,0.5147740000000001,-0.0262495,1.3737905000000001,0.700304,-0.0907695,0.6761305,0.988004,-0.1855495,1.4256905,0.910834,-0.1626594999999999,0.9220885,0.002984,-0.0022644999999999,1.0779115,-0.002984,0.0022644999999999,0.8764305,-0.490396,0.0176935,1.0948205,-0.477416,0.0280515,0.8492405000000001,-0.864606,0.0465035,1.1044205,-0.855306,0.0626115
103,1.031715,0.738811,-0.014116,0.835701,0.534041,-0.041144,0.700591,0.732591,-0.120959,1.198741,0.5144610000000001,-0.02847,1.372641,0.701011,-0.094019,0.677481,0.982491,-0.188599,1.423051,0.911621,-0.165979,0.921979,0.0030129999999999,-0.002528,1.078021,-0.003013,0.0025279999999999,0.877001,-0.489369,0.0090149999999999,1.09629,-0.476929,0.020932,0.849601,-0.8640289999999999,0.0445259999999999,1.104811,-0.855649,0.0600389999999999
104,1.0315735,0.737533,-0.0169094999999999,0.8361715000000001,0.532043,-0.0446275,0.7008215,0.7286630000000001,-0.1245055,1.1984515,0.513943,-0.0309845,1.3713515,0.701613,-0.0974055,0.6787115,0.977623,-0.1920255,1.4203115,0.912933,-0.1696055,0.9218315,0.003023,-0.0027874999999999,1.0781685,-0.003023,0.0027875,0.8776915000000001,-0.487877,-0.0010424999999999,1.0979795,-0.475917,0.0126325,0.8500315,-0.862807,0.0420615,1.1053015,-0.8553069999999999,0.0569705
105,1.031407,0.7358355,-0.019936,0.8367290000000001,0.5301155000000001,-0.0483129999999999,0.700969,0.7241255,-0.128554,1.198239,0.5131755,-0.033729,1.3700890000000001,0.7006455,-0.101224,0.680009,0.9731955,-0.195664,1.417459,0.9144755,-0.173464,0.9216610000000001,0.0030574999999999,-0.003064,1.078339,-0.0030575,0.0030639999999999,0.878509,-0.4860945,-0.012609,1.100025,-0.4745645,0.0030289999999999,0.8505590000000001,-0.8611345,0.039313,1.1059189999999999,-0.8544845,0.053508
106,1.0312745,0.7339154999999999,-0.0230735,0.8374075,0.5279754999999999,-0.0520365,0.7010675,0.7198355,-0.1328765,1.1979875,0.5117754999999999,-0.0365925,1.3689275,0.6997855,-0.1051064999999999,0.6813575000000001,0.9695955,-0.1994965,1.4144875,0.9166355,-0.1775065,0.9214525000000001,0.0030824999999999,-0.0032944999999999,1.0785475,-0.0030825,0.0032945,0.8793075,-0.4834745,-0.0251425,1.1024045,-0.4723945,-0.0076945,0.8512675000000001,-0.8587545,0.0363115,1.1066675,-0.8528345,0.0496805
107,1.0311815,0.7319104999999999,-0.0263615,0.8381005,0.5257805,-0.0558635,0.7011605000000001,0.7158104999999999,-0.1373985,1.1976305,0.5105605,-0.0395925,1.3678605,0.6985505,-0.1091585,0.6828305,0.9666905,-0.2035485,1.4115105,0.9190805,-0.1818085,0.9212105,0.0030445,-0.0034765,1.0787895,-0.0030445,0.0034764999999999,0.8800705,-0.4800595,-0.0379455,1.1052005,-0.4694095,-0.0194095,0.8521005,-0.8555495000000001,0.0330825,1.1075405,-0.8503895,0.0455254999999999
108,1.0310995,0.7298005,-0.029343,0.8387605,0.5233905,-0.0596069999999999,0.7011905,0.7123204999999999,-0.14176,1.1971305,0.5092405,-0.0426249999999999,1.3667205,0.6967405,-0.11329,0.6843505,0.9647205,-0.20753,1.4085804999999998,0.9220205,-0.18608,0.9209475,0.0029855,-0.0037179999999999,1.0790525,-0.0029855,0.003718,0.8807205,-0.4758695,-0.050471,1.1083204999999998,-0.4655795,-0.031828,0.8529805,-0.8513895,0.029778,1.1084904999999998,-0.8471295000000001,0.041024
109,1.031145,0.727296,-0.032161,0.839487,0.521076,-0.063238,0.701257,0.708276,-0.14589,1.196757,0.507916,-0.045711,1.3655469999999998,0.694216,-0.11744,0.686117,0.963236,-0.2113,1.405557,0.924626,-0.19049,0.9206900000000001,0.002915,-0.003915,1.07931,-0.002915,0.003915,0.881287,-0.471144,-0.0622,1.111777,-0.461374,-0.044415,0.853987,-0.846814,0.026225,1.109627,-0.8433539999999999,0.036255
110,1.0311819999999998,0.7247669999999999,-0.0347185,0.840197,0.519057,-0.0666155,0.7013770000000001,0.704757,-0.1496684999999999,1.196527,0.5066769999999999,-0.0486165,1.364317,0.691727,-0.1214685,0.688037,0.962407,-0.2146085,1.402377,0.927557,-0.1948585,0.920425,0.002877,-0.0041355,1.079575,-0.002877,0.0041355,0.881667,-0.465503,-0.0732275,1.114937,-0.456323,-0.0558815,0.854997,-0.8414330000000001,0.0227064999999999,1.110857,-0.8386830000000001,0.0314195
111,1.0312505,0.7222675,-0.0372479999999999,0.8409095,0.5171375,-0.069777,0.7015695,0.7028274999999999,-0.153174,1.1963795,0.5051775000000001,-0.0514699999999999,1.3633195,0.6896675,-0.125604,0.6900195,0.9620375,-0.217464,1.3992495,0.9305775,-0.199354,0.9201885,0.0028245,-0.0043879999999999,1.0798115,-0.0028244999999999,0.0043879999999999,0.8816095,-0.4592125,-0.083768,1.1179395,-0.4506125,-0.066532,0.8559795,-0.8355525,0.019107,1.1122394999999998,-0.8327825,0.0265639999999999
112,1.0314955,0.720372,-0.039535,0.8415815,0.516242,-0.072104,0.7018115,0.701182,-0.155504,1.1964815,0.503742,-0.053874,1.3629015,0.688052,-0.129184,0.6919815,0.965762,-0.219504,1.3963915,0.933822,-0.203544,0.9200555,0.002806,-0.004506,1.0799445,-0.0028059999999999,0.004506,0.8814415,-0.4528279999999999,-0.092546,1.1208515000000001,-0.4446679999999999,-0.075956,0.8569115,-0.829518,0.015848,1.1136515,-0.8264980000000001,0.021959
113,1.03188,0.7182270000000001,-0.041707,0.842313,0.516007,-0.07428,0.702143,0.6993670000000001,-0.157375,1.196643,0.502177,-0.056051,1.362433,0.685997,-0.1325049999999999,0.6940230000000001,0.969177,-0.221275,1.393863,0.936817,-0.2072949999999999,0.920009,0.0028509999999999,-0.004659,1.079991,-0.0028509999999999,0.004659,0.8813130000000001,-0.4466029999999999,-0.100452,1.123893,-0.438633,-0.084766,0.857883,-0.8235629999999999,0.0128649999999999,1.115333,-0.820063,0.017576
114,1.0322795,0.7163664999999999,-0.0436775,0.8430005,0.5153464999999999,-0.0762965,0.7025405,0.6984064999999999,-0.1592444999999999,1.1967505,0.5009365,-0.0581445,1.3620205,0.6850765,-0.1354445,0.6959204999999999,0.9724365,-0.2229145,1.3911704999999999,0.9395365,-0.2108045,0.9199905,0.0028485,-0.0047135,1.0800095,-0.0028484999999999,0.0047135,0.8811305,-0.4402435,-0.1071945,1.1268105,-0.4320635,-0.0928855,0.8588105,-0.8171035000000001,0.0099965,1.1172105,-0.8135435000000001,0.0133645
115,1.0326385,0.7149045,-0.045404,0.8435405,0.5143245,-0.078118,0.7028505,0.6958345,-0.16121,1.1968605,0.4998345,-0.0601639999999999,1.3614305,0.6833845000000001,-0.13833,0.6974905,0.9749145,-0.22352,1.3879305,0.9368045,-0.21385,0.9200055,0.0028745,-0.004683,1.0799945,-0.0028744999999999,0.004683,0.8808805000000001,-0.4335354999999999,-0.11373,1.1297005,-0.4252154999999999,-0.100571,0.8597205,-0.8101355,0.007117,1.1187905,-0.8065654999999999,0.009483
116,1.032891,0.7133750000000001,-0.0469035,0.843956,0.512785,-0.0796274999999999,0.7028760000000001,0.693465,-0.1629614999999999,1.196936,0.498245,-0.0621825,1.360516,0.680235,-0.1410715,0.6988559999999999,0.976945,-0.2237815,1.384846,0.934135,-0.2164414999999999,0.920032,0.0028859999999999,-0.0046914999999999,1.079968,-0.0028859999999999,0.0046914999999999,0.880556,-0.426655,-0.1199715,1.132226,-0.418845,-0.1075314999999999,0.860536,-0.803175,0.0044255,1.120296,-0.7995249999999999,0.0058355
117,1.0331404999999998,0.711673,-0.0482159999999999,0.8444275,0.511513,-0.0809069999999999,0.7028575,0.6910029999999999,-0.16439,1.1971775,0.496503,-0.064095,1.3596975,0.6777329999999999,-0.14354,0.6994175,0.978353,-0.2249,1.3817675,0.930963,-0.21872,0.9200975,0.002902,-0.004713,1.0799025,-0.002902,0.004713,0.8802375,-0.420047,-0.12601,1.1346574999999999,-0.412857,-0.11376,0.8614175,-0.796647,0.001846,1.1217075,-0.7925270000000001,0.002755
118,1.0332994999999998,0.71033,-0.04922,0.8447875,0.51006,-0.082173,0.7026475,0.6891299999999999,-0.165473,1.1973675,0.49486,-0.065793,1.3589375,0.67594,-0.146053,0.6998975000000001,0.9793,-0.225773,1.3788775,0.92804,-0.220603,0.9201785000000001,0.002895,-0.00475,1.0798215,-0.002895,0.00475,0.8798575000000001,-0.4135,-0.131583,1.1368575,-0.40668,-0.119263,0.8622175,-0.79005,-0.0005389999999999,1.1229275,-0.78637,5.400000000000023e-05
119,1.033421,0.709283,-0.0500879999999999,0.8451080000000001,0.5083030000000001,-0.083597,0.702438,0.686633,-0.166215,1.197508,0.493203,-0.067428,1.3583479999999999,0.674103,-0.148605,0.700378,0.979503,-0.226335,1.376288,0.923853,-0.222395,0.92028,0.002722,-0.00471,1.07972,-0.0027219999999999,0.00471,0.879368,-0.407157,-0.136805,1.139038,-0.401097,-0.124275,0.8629780000000001,-0.783507,-0.0028779999999999,1.124048,-0.7802169999999999,-0.0025199999999999
120,1.033377,0.7077005,-0.050999,0.845297,0.5064005,-0.08492,0.702087,0.6841005,-0.1668059999999999,1.197577,0.4918205,-0.0687369999999999,1.357697,0.6717305,-0.150786,0.700187,0.9724805,-0.226466,1.3740269999999999,0.9192405,-0.2236759999999999,0.920369,0.0026015,-0.004591,1.079631,-0.0026014999999999,0.004591,0.878867,-0.4012295,-0.141426,1.141167,-0.3960694999999999,-0.128646,0.8635470000000001,-0.7769995000000001,-0.004922,1.1250969999999998,-0.7743295,-0.004274
121,1.033085,0.7058245,-0.0521335,0.845203,0.5042345,-0.0864014999999999,0.701523,0.6818745,-0.1678955,1.1974529999999999,0.4903845,-0.0701975,1.357033,0.6703545,-0.1529655,0.6994830000000001,0.9652945,-0.2264855,1.371893,0.9148845,-0.2247655,0.920388,0.0024445,-0.0045905,1.079612,-0.0024445,0.0045905,0.878163,-0.3961155,-0.1460354999999999,1.143063,-0.3917354999999999,-0.1327355,0.8640829999999999,-0.7706054999999999,-0.0068745,1.125943,-0.7686054999999999,-0.0057185
122,1.0325865,0.7043815,-0.0537075,0.8449875,0.5020415,-0.0883205,0.7006875,0.6797615,-0.1697584999999999,1.1970775,0.4891315,-0.0719415,1.3565975,0.6697115,-0.1554384999999999,0.6984875000000001,0.9587815,-0.2269884999999999,1.3697175,0.9102115,-0.2260384999999999,0.9203795,0.0022765,-0.0045905,1.0796205,-0.0022765,0.0045905,0.8773675,-0.3910885,-0.1506285,1.1448175,-0.3879485,-0.1368085,0.8643575,-0.7639485,-0.0088335,1.1264975,-0.7628285,-0.0070884999999999
123,1.032091,0.7030850000000001,-0.0562234999999999,0.844781,0.4996549999999999,-0.0911525,0.699901,0.677135,-0.1728035,1.196771,0.4876049999999999,-0.0740845,1.356231,0.668245,-0.1586135,0.697581,0.951365,-0.2287335,1.3677709999999998,0.904655,-0.2278535,0.92035,0.002145,-0.0045724999999999,1.07965,-0.0021449999999999,0.0045725,0.8764510000000001,-0.386695,-0.1558635,1.146891,-0.384625,-0.1412135,0.864961,-0.7570549999999999,-0.0112384999999999,1.127141,-0.7557849999999999,-0.0087125
124,1.031413,0.7011400000000001,-0.058912,0.8445860000000001,0.49788,-0.094121,0.698956,0.67546,-0.176607,1.196286,0.48629,-0.076168,1.355956,0.66673,-0.161747,0.696566,0.94403,-0.230807,1.3666459999999998,0.90408,-0.229747,0.920334,0.0019599999999999,-0.004428,1.079666,-0.00196,0.004428,0.875436,-0.38338,-0.160537,1.148836,-0.38228,-0.145197,0.865626,-0.7507299999999999,-0.01334,1.127766,-0.74936,-0.0103
125,1.0307655,0.699445,-0.061368,0.8443125000000001,0.4968749999999999,-0.096991,0.6982824999999999,0.673825,-0.18092,1.1957625,0.4852349999999999,-0.078109,1.3560525,0.666545,-0.16504,0.6956525,0.937025,-0.23332,1.3655225,0.902745,-0.23194,0.9202775,0.001695,-0.0043159999999999,1.0797225,-0.001695,0.004316,0.8742725,-0.380705,-0.1650599999999999,1.1510425,-0.379995,-0.1491299999999999,0.8663825,-0.744085,-0.015286,1.1284325,-0.742825,-0.0116099999999999
126,1.0301685,0.697835,-0.064214,0.8443055000000002,0.4958249999999999,-0.0999449999999999,0.6978555,0.671905,-0.185788,1.1952755,0.4843949999999999,-0.080121,1.3562855,0.666275,-0.168628,0.6949354999999999,0.929465,-0.236598,1.3646255,0.901605,-0.234458,0.9203015,0.0016049999999999,-0.0043879999999999,1.0796985000000001,-0.001605,0.0043879999999999,0.8732555000000001,-0.378055,-0.169398,1.1535555,-0.3778249999999999,-0.153358,0.8673755000000001,-0.736845,-0.017085,1.1291355,-0.736005,-0.012673
127,1.0296045,0.696445,-0.068083,0.8443285,0.494945,-0.103758,0.6976185000000001,0.6703049999999999,-0.191722,1.1948785,0.483275,-0.083143,1.3567185,0.6658649999999999,-0.173062,0.6945085000000001,0.922345,-0.241612,1.3639785,0.900625,-0.238432,0.9203635,0.0016049999999999,-0.004417,1.0796364999999999,-0.0016049999999999,0.004417,0.8725685000000001,-0.375535,-0.174572,1.1563085,-0.375775,-0.158422,0.8685385,-0.7293050000000001,-0.019506,1.1299985,-0.728075,-0.0144439999999999
128,1.029154,0.69453,-0.071704,0.845132,0.49434,-0.1074099999999999,0.6974119999999999,0.66735,-0.197807,1.194522,0.48208,-0.086233,1.357192,0.6650900000000001,-0.1774669999999999,0.694212,0.91125,-0.247797,1.363162,0.90069,-0.242347,0.920422,0.00163,-0.00448,1.079578,-0.0016299999999999,0.00448,0.872202,-0.3714999999999999,-0.179647,1.159112,-0.37092,-0.163387,0.869702,-0.7219,-0.021842,1.131152,-0.7207899999999999,-0.015892
129,1.028741,0.6928350000000001,-0.0759545,0.8460700000000001,0.492965,-0.1117575,0.69728,0.6650449999999999,-0.2042775,1.19417,0.4811149999999999,-0.0896535,1.35777,0.664655,-0.1826275,0.69538,0.908865,-0.2532075,1.36246,0.8981049999999999,-0.2477975,0.920486,0.0015149999999999,-0.0045095,1.079514,-0.001515,0.0045095,0.87209,-0.365725,-0.1854075,1.16183,-0.364255,-0.1690375,0.87078,-0.7132449999999999,-0.0245065,1.1323400000000001,-0.7121250000000001,-0.0176195
130,1.028505,0.69205,-0.0823115,0.847207,0.49191,-0.1184345,0.697327,0.6628000000000001,-0.2130645,1.193967,0.48039,-0.0954855,1.358317,0.66407,-0.1902045,0.696767,0.90746,-0.2609945,1.361877,0.89556,-0.2554645,0.920598,0.00141,-0.0050715,1.079402,-0.0014099999999999,0.0050715,0.872367,-0.35883,-0.1932144999999999,1.164787,-0.3566699999999999,-0.1767745,0.872147,-0.70374,-0.0294065,1.1337869999999999,-0.70253,-0.0215035
131,1.0291439999999998,0.694765,-0.0916275,0.849288,0.493095,-0.1282515,0.698318,0.6636949999999999,-0.2245715,1.193718,0.481035,-0.1050125,1.359638,0.667385,-0.2008115,0.698928,0.908725,-0.2718115,1.3620079999999999,0.897195,-0.2662115,0.920638,0.0013849999999999,-0.0050045,1.079362,-0.0013849999999999,0.0050044999999999,0.873918,-0.348425,-0.2100915,1.170398,-0.345105,-0.1929915,0.874458,-0.6907449999999999,-0.0384245,1.137758,-0.693015,-0.0334955
132,1.029644,0.696625,-0.100632,0.850989,0.494955,-0.137228,0.6990689999999999,0.664405,-0.235308,1.193349,0.481465,-0.114261,1.3607289999999999,0.670465,-0.211188,0.7008289999999999,0.910145,-0.281668,1.361989,0.899325,-0.276678,0.920769,0.0014149999999999,-0.0049359999999999,1.079231,-0.0014149999999999,0.0049359999999999,0.8757190000000001,-0.3385849999999999,-0.2261379999999999,1.175389,-0.334025,-0.2085479999999999,0.876529,-0.6788649999999999,-0.0469399999999999,1.141309,-0.685215,-0.0451229999999999
133,1.0304325,0.69675,-0.1095874999999999,0.8526595,0.4973,-0.1461005,0.7001094999999999,0.6652100000000001,-0.2462705,1.1929795,0.48083,-0.1238575,1.3618895,0.67186,-0.2222505,0.7029395,0.91118,-0.2919705,1.3614495,0.9003000000000001,-0.2879305,0.9208695000000001,0.00168,-0.0048864999999999,1.0791305,-0.0016799999999999,0.0048865,0.8776495,-0.32859,-0.2419905,1.1803195,-0.3231099999999999,-0.2243405,0.8787595,-0.66702,-0.0553904999999999,1.1448395,-0.6775100000000001,-0.0567214999999999
134,1.0313195,0.69643,-0.119285,0.8541084999999999,0.49911,-0.155169,0.7010585,0.66484,-0.257149,1.1926185,0.48037,-0.133449,1.3630285,0.6733800000000001,-0.233239,0.7049285000000001,0.91178,-0.302379,1.3606885,0.90138,-0.299079,0.9210285,0.00211,-0.004889,1.0789715,-0.00211,0.0048889999999999,0.8793385000000001,-0.3186099999999999,-0.257749,1.1847085,-0.3129999999999999,-0.2401589999999999,0.8807685,-0.65574,-0.064016,1.1462085,-0.6668999999999999,-0.06411
135,1.032287,0.6967,-0.128991,0.855849,0.49871,-0.164904,0.701789,0.6648,-0.267974,1.192429,0.47984,-0.143454,1.363979,0.67518,-0.244464,0.707039,0.91322,-0.312764,1.359859,0.90157,-0.310494,0.9211090000000001,0.00226,-0.004857,1.0788909999999998,-0.00226,0.004857,0.880799,-0.30883,-0.273764,1.188549,-0.30296,-0.255964,0.8826990000000001,-0.64444,-0.072823,1.147239,-0.65619,-0.07198
136,1.033337,0.69738,-0.1386609999999999,0.857549,0.49867,-0.174431,0.7024490000000001,0.66452,-0.278521,1.192239,0.47973,-0.1533209999999999,1.364829,0.67688,-0.255941,0.709199,0.91462,-0.323071,1.358819,0.90125,-0.322061,0.921139,0.0022999999999999,-0.0048559999999999,1.078861,-0.0022999999999999,0.004856,0.882339,-0.2994399999999999,-0.2897409999999999,1.191829,-0.29316,-0.271611,0.8842990000000001,-0.63335,-0.081626,1.148029,-0.6455299999999999,-0.0799469999999999
137,1.0341175,0.698045,-0.1486185,0.8592015,0.498605,-0.1840885,0.7031215,0.665795,-0.2889285,1.1922315,0.479835,-0.1632585,1.3656614999999999,0.678895,-0.2676085,0.7112415000000001,0.919925,-0.3326785,1.3578815,0.9005050000000001,-0.3338385,0.9211115,0.002455,-0.0048094999999999,1.0788885,-0.0024549999999999,0.0048095,0.8841915,-0.290135,-0.3058385,1.1938015,-0.283425,-0.2874885,0.8856915,-0.6222650000000001,-0.0905485,1.1485414999999999,-0.6345449999999999,-0.0881575
138,1.0348635,0.6996,-0.1579895,0.8608035,0.4998,-0.1932175,0.7038935,0.66637,-0.2990575,1.1923935,0.47892,-0.1729575,1.3664635,0.67986,-0.2786575,0.7135535,0.92391,-0.3421775,1.3572735,0.90323,-0.3441575,0.9210335000000001,0.0028199999999999,-0.0047285,1.0789665,-0.0028199999999999,0.0047285,0.8862835,-0.2818099999999999,-0.3212975,1.1953835,-0.2743199999999999,-0.3028175,0.8870335,-0.6125,-0.0991905,1.1490335,-0.6247199999999999,-0.0963765
139,1.0354905,0.699975,-0.1642445,0.8626265,0.498135,-0.1990445,0.7045365,0.6669149999999999,-0.3060144999999999,1.1925365,0.477815,-0.1791345,1.3671365,0.680315,-0.2862345,0.7157465000000001,0.926945,-0.3483245,1.3566065,0.905605,-0.3515344999999999,0.9209365,0.0030649999999999,-0.0041235,1.0790635,-0.0030649999999999,0.0041235,0.8886365,-0.2735249999999999,-0.3335645,1.1963265,-0.265145,-0.3149145,0.8881065,-0.603275,-0.1046525,1.1494165,-0.6152949999999999,-0.1014715
140,1.036127,0.696295,-0.1678639999999999,0.8635079999999999,0.4951149999999999,-0.2020539999999999,0.704788,0.6630849999999999,-0.310524,1.192718,0.475375,-0.181854,1.3673980000000001,0.676185,-0.291224,0.717608,0.921355,-0.352144,1.355958,0.904225,-0.356534,0.9209080000000001,0.0032049999999999,-0.0042799999999999,1.079092,-0.003205,0.00428,0.8914880000000001,-0.267375,-0.337244,1.196548,-0.258375,-0.318954,0.889248,-0.5965550000000001,-0.1065199999999999,1.149388,-0.608735,-0.103044
141,1.037056,0.6935,-0.1712874999999999,0.864362,0.49228,-0.2052075,0.705052,0.65958,-0.3150475,1.192882,0.47275,-0.1844675,1.367802,0.67239,-0.2959175,0.719322,0.91647,-0.3558675,1.3555519999999999,0.89986,-0.3617375,0.920902,0.00334,-0.0044254999999999,1.0790980000000001,-0.0033399999999999,0.0044254999999999,0.894732,-0.2602,-0.3408274999999999,1.196762,-0.2512,-0.3228075,0.890462,-0.58946,-0.1086034999999999,1.149252,-0.60183,-0.1046914999999999
142,1.03807,0.692615,-0.174792,0.865256,0.488955,-0.208472,0.7054659999999999,0.6561950000000001,-0.318922,1.193026,0.4712550000000001,-0.186612,1.368406,0.670455,-0.2998119999999999,0.720646,0.911465,-0.359282,1.355706,0.897675,-0.366052,0.920906,0.003275,-0.004606,1.079094,-0.0032749999999999,0.0046059999999999,0.8981560000000001,-0.2533949999999999,-0.3439419999999999,1.196936,-0.2444849999999999,-0.325912,0.8916460000000002,-0.5827249999999999,-0.110666,1.149126,-0.5953149999999999,-0.106335
143,1.03894,0.691505,-0.1780005,0.8660680000000001,0.4858249999999999,-0.2118005,0.705768,0.653065,-0.3230005,1.193598,0.469475,-0.1889005,1.369018,0.667905,-0.3035905,0.721488,0.905735,-0.3629805,1.355688,0.895365,-0.3703705,0.920898,0.0031849999999999,-0.0047845,1.079102,-0.0031849999999999,0.0047844999999999,0.9017480000000001,-0.249705,-0.3467405,1.194808,-0.240695,-0.3287204999999999,0.892888,-0.576565,-0.1123765,1.146778,-0.5862449999999999,-0.1039245
144,1.0398555,0.68962,-0.1810874999999999,0.8665995,0.48516,-0.2142474999999999,0.7062195,0.64923,-0.3270275,1.1941895,0.46746,-0.1907875,1.3697195,0.66437,-0.3068575,0.7221795000000001,0.90433,-0.3666775,1.3556795,0.8934900000000001,-0.3742775,0.9208594999999999,0.00328,-0.0050164999999999,1.0791405,-0.00328,0.0050165,0.9052995000000001,-0.24684,-0.3484975,1.1926495,-0.23806,-0.3306875,0.8941195,-0.5723400000000001,-0.1138255,1.1444495,-0.57893,-0.1017085
145,1.040736,0.68705,-0.184068,0.867173,0.48395,-0.216808,0.706683,0.6456,-0.331048,1.194953,0.46504,-0.192848,1.3706129999999999,0.66296,-0.309878,0.7227129999999999,0.90239,-0.3703079999999999,1.355663,0.8917900000000001,-0.3779079999999999,0.920823,0.00338,-0.0052019999999999,1.079177,-0.0033799999999999,0.005202,0.908923,-0.24456,-0.3504379999999999,1.190463,-0.2359799999999999,-0.3328379999999999,0.895363,-0.5695899999999999,-0.1158479999999999,1.142173,-0.5729099999999999,-0.0996789999999999
146,1.0414255,0.68483,-0.1870804999999999,0.8677675,0.4825899999999999,-0.2192505,0.7070775,0.64201,-0.3350904999999999,1.1956275,0.46245,-0.1949604999999999,1.3714775000000001,0.6612100000000001,-0.3127405,0.7231274999999999,0.8972800000000001,-0.3740104999999999,1.3557875,0.8901000000000001,-0.3813404999999999,0.9207675,0.0034899999999999,-0.0054084999999999,1.0792325,-0.0034899999999999,0.0054084999999999,0.9123975,-0.24281,-0.3524505,1.1881875,-0.2345299999999999,-0.3350605,0.8965775,-0.56803,-0.1179425,1.1417375,-0.5711599999999999,-0.1016005
147,1.0421055,0.682275,-0.190165,0.8683715,0.480925,-0.2217549999999999,0.7075915000000002,0.638755,-0.339235,1.1961815,0.4608649999999999,-0.197365,1.3724515,0.660495,-0.315835,0.7236315,0.894215,-0.378365,1.3560115,0.8878550000000001,-0.384835,0.9207215,0.0035049999999999,-0.005523,1.0792785,-0.0035049999999999,0.005523,0.9158415,-0.242235,-0.354635,1.1859115,-0.2339549999999999,-0.337385,0.8977715,-0.5675650000000001,-0.12033,1.1413315,-0.5705849999999999,-0.103873
148,1.042706,0.681145,-0.192927,0.868814,0.480925,-0.2243969999999999,0.708124,0.636555,-0.342787,1.196684,0.4608649999999999,-0.1999469999999999,1.3744939999999999,0.660495,-0.319217,0.724534,0.8919950000000001,-0.3828769999999999,1.356404,0.886325,-0.387997,0.9206840000000001,0.0035049999999999,-0.0056249999999999,1.079316,-0.0035049999999999,0.005625,0.918304,-0.242235,-0.356297,1.183744,-0.2339549999999999,-0.339277,0.898804,-0.567615,-0.1228919999999999,1.140974,-0.5705849999999999,-0.106343
149,1.043037,0.681145,-0.1954545,0.869456,0.480925,-0.2269045,0.708616,0.636555,-0.3457645,1.1971159999999998,0.4608649999999999,-0.2020045,1.376516,0.660495,-0.3221645,0.725516,0.8919950000000001,-0.3867245,1.356876,0.886155,-0.3906645,0.920716,0.0035049999999999,-0.0056105,1.079284,-0.0035049999999999,0.0056105,0.9194960000000001,-0.2422249999999999,-0.3571245,1.182466,-0.2339549999999999,-0.3403045,0.899046,-0.5677749999999999,-0.1252835,1.1408260000000001,-0.5706850000000001,-0.1086905
150,1.043326,0.681145,-0.1981155,0.8701610000000001,0.480925,-0.2295555,0.709121,0.636555,-0.3485355,1.197591,0.4608649999999999,-0.2038855,1.378221,0.660495,-0.3247755,0.726511,0.8919950000000001,-0.3905355,1.3571010000000001,0.8860349999999999,-0.3933355,0.9207609999999999,0.0035049999999999,-0.0056184999999999,1.079239,-0.0035049999999999,0.0056184999999999,0.9201509999999999,-0.2418849999999999,-0.3574355,1.181461,-0.233755,-0.3408055,0.8990210000000001,-0.567925,-0.1275995,1.140631,-0.5706850000000001,-0.1110495
151,1.043694,0.6798,-0.2014595,0.8709,0.48147,-0.2323195,0.70951,0.63521,-0.3518795,1.19822,0.45993,-0.2057195,1.37985,0.65964,-0.3280695,0.72734,0.89065,-0.3946995,1.35744,0.88469,-0.3966794999999999,0.92085,0.0035499999999999,-0.0056464999999999,1.07915,-0.0035499999999999,0.0056464999999999,0.92012,-0.2418399999999999,-0.3569295,1.1804899999999998,-0.23416,-0.3404395,0.8989800000000001,-0.56941,-0.1302125,1.14049,-0.57203,-0.1134465
152,1.044098,0.6779,-0.204791,0.8715809999999999,0.48089,-0.235221,0.710021,0.63279,-0.355241,1.198891,0.45913,-0.207491,1.381311,0.65901,-0.331411,0.7285010000000001,0.89205,-0.398541,1.3578409999999999,0.88133,-0.400051,0.920921,0.0035199999999999,-0.005695,1.079079,-0.00352,0.0056949999999999,0.9201410000000001,-0.24289,-0.355821,1.179921,-0.23557,-0.339291,0.8991210000000001,-0.57275,-0.132343,1.140541,-0.57536,-0.115862
153,1.044417,0.676115,-0.207926,0.872086,0.480035,-0.237806,0.710466,0.630585,-0.358546,1.199476,0.458915,-0.209136,1.382636,0.658315,-0.334636,0.729576,0.893215,-0.402096,1.358156,0.880605,-0.403076,0.920986,0.003455,-0.0057839999999999,1.079014,-0.0034549999999999,0.005784,0.920126,-0.2444649999999999,-0.354496,1.179376,-0.237345,-0.337936,0.899216,-0.5767749999999999,-0.134207,1.140566,-0.579405,-0.118171
154,1.044686,0.674545,-0.2107955,0.872409,0.479025,-0.2401655,0.7109190000000001,0.628915,-0.3617255,1.199949,0.4587249999999999,-0.2106155,1.383829,0.657875,-0.3375855,0.7306790000000001,0.8946649999999999,-0.4054655,1.358509,0.8786349999999999,-0.4059954999999999,0.921029,0.0034049999999999,-0.0058644999999999,1.078971,-0.003405,0.0058645,0.920179,-0.246295,-0.3531655,1.178999,-0.239425,-0.3364755,0.8992390000000001,-0.581385,-0.1359095,1.140709,-0.5841350000000001,-0.1204394999999999
155,1.044865,0.673765,-0.2132804999999999,0.872567,0.478325,-0.2420805,0.7113170000000001,0.628085,-0.3644505,1.200357,0.458405,-0.2120504999999999,1.384867,0.657755,-0.3401404999999999,0.7316870000000001,0.8968050000000001,-0.4087105,1.358747,0.8765750000000001,-0.4087705,0.921077,0.003375,-0.0059294999999999,1.078923,-0.003375,0.0059295,0.919517,-0.248145,-0.3517805,1.178647,-0.241575,-0.3349204999999999,0.898757,-0.5861749999999999,-0.1375434999999999,1.140777,-0.5886549999999999,-0.1226905
156,1.045042,0.673555,-0.215296,0.872726,0.477235,-0.2436859999999999,0.711576,0.6278250000000001,-0.366686,1.200696,0.458335,-0.2130159999999999,1.385756,0.6583650000000001,-0.342286,0.732316,0.896935,-0.411586,1.3589259999999999,0.875035,-0.411026,0.921156,0.003265,-0.0060539999999999,1.078844,-0.0032649999999999,0.006054,0.918296,-0.2498049999999999,-0.3506559999999999,1.178346,-0.2433849999999999,-0.333446,0.8982060000000001,-0.590505,-0.139127,1.1408260000000001,-0.592665,-0.124526
157,1.045271,0.67345,-0.216885,0.8729359999999999,0.47624,-0.244805,0.711816,0.62778,-0.368575,1.200896,0.45792,-0.213965,1.385986,0.6571,-0.344055,0.7326560000000001,0.89476,-0.414305,1.359156,0.87344,-0.412725,0.921286,0.00317,-0.006175,1.078714,-0.00317,0.006175,0.916346,-0.25138,-0.349555,1.178156,-0.24527,-0.331855,0.897656,-0.5947199999999999,-0.140578,1.1409259999999999,-0.5965499999999999,-0.126102
158,1.0453925,0.67353,-0.2179749999999999,0.8730365000000001,0.47525,-0.245565,0.7119865000000001,0.62791,-0.369935,1.2010265,0.45766,-0.214555,1.3861465,0.6554800000000001,-0.345315,0.7329065,0.89306,-0.416615,1.3592865,0.87216,-0.413935,0.9213965,0.00308,-0.0062949999999999,1.0786035,-0.0030799999999999,0.006295,0.9140165,-0.25275,-0.348605,1.1779865,-0.24697,-0.330325,0.8970165000000001,-0.59828,-0.14181,1.1409465,-0.59984,-0.12747
159,1.045519,0.6736249999999999,-0.218635,0.873204,0.474275,-0.246285,0.7122540000000002,0.628025,-0.370935,1.201294,0.4571349999999999,-0.215555,1.386414,0.6538349999999999,-0.346325,0.7331040000000001,0.891905,-0.418185,1.359514,0.8712949999999999,-0.4147849999999999,0.921454,0.0030349999999999,-0.006375,1.078546,-0.003035,0.006375,0.911664,-0.253675,-0.347835,1.178054,-0.248415,-0.329005,0.8964940000000001,-0.601015,-0.142992,1.141114,-0.602595,-0.128618
160,1.045558,0.674235,-0.218605,0.873233,0.473965,-0.2464249999999999,0.7124830000000001,0.628625,-0.371325,1.201503,0.456055,-0.216495,1.386123,0.652935,-0.346055,0.7332730000000001,0.891955,-0.418695,1.359663,0.871205,-0.415065,0.921493,0.003065,-0.0064149999999999,1.078507,-0.0030649999999999,0.006415,0.909713,-0.253865,-0.347365,1.178273,-0.2490549999999999,-0.328155,0.896113,-0.602305,-0.1437419999999999,1.141283,-0.6040749999999999,-0.129484
161,1.045589,0.67479,-0.21837,0.8731580000000001,0.47397,-0.24635,0.7127680000000001,0.62941,-0.3714699999999999,1.201518,0.45518,-0.21716,1.385408,0.65181,-0.34495,0.7336480000000001,0.89223,-0.4188699999999999,1.3597380000000001,0.87163,-0.41484,0.921508,0.0031599999999999,-0.0064099999999999,1.078492,-0.0031599999999999,0.0064099999999999,0.9079280000000001,-0.25377,-0.34704,1.178628,-0.24943,-0.32755,0.8959380000000001,-0.60295,-0.144719,1.141548,-0.60488,-0.130082
162,1.045583,0.6751100000000001,-0.218,0.873006,0.47434,-0.2463199999999999,0.713016,0.63005,-0.3715299999999999,1.201366,0.455,-0.21749,1.384856,0.65163,-0.34402,0.734056,0.89286,-0.419,1.359686,0.8725700000000001,-0.4144299999999999,0.921546,0.00334,-0.00637,1.078454,-0.0033399999999999,0.00637,0.906166,-0.2530099999999999,-0.34715,1.1790159999999998,-0.24922,-0.32745,0.895876,-0.6027,-0.145587,1.141896,-0.60478,-0.130586
163,1.045424,0.6751100000000001,-0.217475,0.8728290000000001,0.47434,-0.246255,0.713199,0.63005,-0.371355,1.200949,0.455,-0.217695,1.384249,0.65163,-0.343115,0.7343189999999999,0.89347,-0.418845,1.359519,0.8731800000000001,-0.413495,0.921609,0.00334,-0.0062949999999999,1.078391,-0.0033399999999999,0.006295,0.904709,-0.25256,-0.347605,1.179579,-0.2490799999999999,-0.327685,0.8958690000000001,-0.60232,-0.146357,1.142169,-0.60458,-0.130983
164,1.0452789999999998,0.6751100000000001,-0.2168,0.872615,0.47434,-0.24606,0.713265,0.63005,-0.37104,1.200525,0.455,-0.21769,1.383705,0.65144,-0.34209,0.7345550000000001,0.8937,-0.41834,1.359275,0.8737,-0.41234,0.921625,0.00334,-0.00619,1.078375,-0.0033399999999999,0.00619,0.903395,-0.25234,-0.34818,1.1801849999999998,-0.2490799999999999,-0.3281,0.895965,-0.60181,-0.146893,1.142395,-0.60458,-0.131191
165,1.0451485,0.675115,-0.216035,0.8725295,0.474345,-0.2457349999999999,0.7133895,0.630055,-0.370505,1.2002195,0.454175,-0.217705,1.3831995,0.650945,-0.340915,0.7347695000000001,0.893705,-0.417545,1.3592395,0.873705,-0.411145,0.9217095,0.0033449999999999,-0.006065,1.0782905,-0.0033449999999999,0.006065,0.9024895,-0.252335,-0.348625,1.1810995,-0.249075,-0.328475,0.8962495,-0.6013949999999999,-0.147413,1.1427395,-0.6045750000000001,-0.131273
166,1.04486,0.67543,-0.2153729999999999,0.872402,0.47472,-0.245575,0.713392,0.63043,-0.370095,1.1999119999999999,0.45339,-0.217465,1.382622,0.6501399999999999,-0.339865,0.7347720000000001,0.8942300000000001,-0.416805,1.359092,0.8742300000000001,-0.410075,0.9218020000000001,0.00345,-0.005925,1.078198,-0.00345,0.005925,0.901992,-0.25181,-0.348925,1.181932,-0.24855,-0.328725,0.896462,-0.6006100000000001,-0.147894,1.142992,-0.60405,-0.131319
167,1.0445765,0.675435,-0.214806,0.8723395,0.475135,-0.24543,0.7132795000000001,0.630605,-0.3698,1.1996095,0.452675,-0.21723,1.3820895,0.649445,-0.33884,0.7346995000000001,0.895235,-0.4162099999999999,1.3589095,0.875235,-0.40908,0.9219095,0.0035749999999999,-0.00578,1.0780905,-0.0035749999999999,0.0057799999999999,0.9016695000000001,-0.250805,-0.34925,1.1828095,-0.2477249999999999,-0.3288999999999999,0.8967095,-0.599405,-0.148428,1.1432594999999999,-0.603085,-0.131391
168,1.044305,0.6753500000000001,-0.214419,0.872288,0.47562,-0.245255,0.713148,0.63077,-0.369675,1.199348,0.4519500000000001,-0.216951,1.381578,0.6484700000000001,-0.337765,0.7345079999999999,0.89666,-0.415815,1.358838,0.87643,-0.4082249999999999,0.922018,0.00369,-0.0056549999999999,1.077982,-0.0036899999999999,0.005655,0.901328,-0.24944,-0.3497949999999999,1.183838,-0.2466199999999999,-0.329225,0.896968,-0.59778,-0.148958,1.143548,-0.6017399999999999,-0.13151
169,1.044027,0.67534,-0.214214,0.872119,0.4754899999999999,-0.24493,0.713079,0.63043,-0.3698099999999999,1.199349,0.4517799999999999,-0.2170139999999999,1.381019,0.64726,-0.3368,0.7343090000000001,0.89838,-0.41593,1.3588689999999999,0.87747,-0.40756,0.922099,0.0037499999999999,-0.00557,1.077901,-0.00375,0.0055699999999999,0.9008690000000001,-0.24766,-0.35077,1.185259,-0.24477,-0.33004,0.8973090000000001,-0.5953200000000001,-0.149818,1.143889,-0.59957,-0.131815
170,1.0437525,0.675205,-0.214179,0.8719045,0.475295,-0.244725,0.7130145,0.629965,-0.370265,1.1993645,0.451785,-0.217136,1.3808145,0.646495,-0.336535,0.7341044999999999,0.9001349999999999,-0.416465,1.3589945,0.878565,-0.407355,0.9221745,0.0037949999999999,-0.005475,1.0778254999999999,-0.0037949999999999,0.0054749999999999,0.9003945,-0.2457349999999999,-0.352025,1.1868044999999998,-0.2427149999999999,-0.331085,0.8977145,-0.592705,-0.150781,1.1441845,-0.597175,-0.132461
171,1.0433815,0.67498,-0.2142369999999999,0.8716385,0.47497,-0.244415,0.7128585000000001,0.62927,-0.370815,1.1993885,0.45191,-0.217221,1.3804685,0.6456500000000001,-0.336335,0.7338285,0.90161,-0.4171049999999999,1.3590885,0.87942,-0.4072949999999999,0.9222085,0.00378,-0.0054049999999999,1.0777915,-0.00378,0.005405,0.8998685,-0.2439299999999999,-0.353105,1.1882485,-0.2406399999999999,-0.331825,0.8980185,-0.59019,-0.1518229999999999,1.1444285,-0.59484,-0.133101
172,1.043064,0.674635,-0.214402,0.871375,0.474595,-0.244225,0.7126950000000001,0.628425,-0.371465,1.199405,0.452015,-0.216663,1.380105,0.644765,-0.336095,0.7335050000000001,0.902565,-0.417775,1.359095,0.880155,-0.407675,0.922235,0.0037849999999999,-0.005435,1.077765,-0.0037849999999999,0.0054349999999999,0.899275,-0.2422249999999999,-0.353965,1.189645,-0.2386149999999999,-0.332465,0.898305,-0.587845,-0.152833,1.1446749999999999,-0.592635,-0.133718
173,1.0427415,0.6742900000000001,-0.214661,0.8710895,0.47435,-0.244105,0.7125795000000001,0.6274500000000001,-0.371985,1.1993895,0.45267,-0.216392,1.3796895,0.6448,-0.336015,0.7331095000000001,0.90272,-0.4184449999999999,1.3589894999999999,0.88027,-0.4081249999999999,0.9222995,0.00374,-0.0054649999999999,1.0777005,-0.00374,0.0054649999999999,0.8987295,-0.24089,-0.354645,1.1908295,-0.2370999999999999,-0.3330849999999999,0.8985395,-0.58627,-0.153808,1.1449095,-0.5911,-0.134288
174,1.042368,0.674255,-0.2152,0.870713,0.473815,-0.244365,0.712353,0.626995,-0.372655,1.199233,0.453235,-0.216301,1.379183,0.644565,-0.336245,0.732713,0.902465,-0.419225,1.358703,0.880035,-0.408895,0.922283,0.003545,-0.0055349999999999,1.077717,-0.0035449999999999,0.005535,0.898023,-0.240325,-0.355585,1.191613,-0.2365349999999999,-0.3339649999999999,0.8985730000000001,-0.585635,-0.1549789999999999,1.144973,-0.5905349999999999,-0.135127
175,1.0420685,0.674255,-0.215745,0.8703995,0.473685,-0.2445999999999999,0.7121295000000001,0.626995,-0.37347,1.1990695,0.453235,-0.216171,1.3789095,0.644565,-0.33643,0.7323495,0.902455,-0.41989,1.3583495,0.8799250000000001,-0.40972,0.9222595,0.003545,-0.0055699999999999,1.0777405,-0.0035449999999999,0.0055699999999999,0.8972795000000001,-0.240325,-0.3566,1.1923095,-0.2365349999999999,-0.33493,0.8985895000000002,-0.585565,-0.15621,1.1450595,-0.590495,-0.136053
176,1.0415655,0.674255,-0.216072,0.8699645,0.473685,-0.2448699999999999,0.7117445,0.626995,-0.3742999999999999,1.1986645,0.453235,-0.215911,1.3785645,0.644565,-0.33642,0.7318745,0.902455,-0.42064,1.3580445,0.8799250000000001,-0.4104099999999999,0.9222145,0.003545,-0.0056399999999999,1.0777855,-0.0035449999999999,0.00564,0.8962145,-0.240325,-0.35741,1.1927945,-0.2365349999999999,-0.33541,0.8984845,-0.5854349999999999,-0.157333,1.1451145,-0.590465,-0.1370269999999999
177,1.0410709999999999,0.674255,-0.216312,0.869624,0.473685,-0.24516,0.711284,0.626995,-0.37512,1.198324,0.453655,-0.21565,1.378314,0.644565,-0.3363,0.7313540000000001,0.902455,-0.42161,1.357904,0.8799250000000001,-0.41089,0.922204,0.003545,-0.0056999999999999,1.077796,-0.0035449999999999,0.0057,0.895214,-0.2401149999999999,-0.35792,1.193164,-0.236255,-0.33541,0.898454,-0.585235,-0.1583999999999999,1.145274,-0.590465,-0.137896
178,1.0406099999999998,0.67442,-0.2159599999999999,0.869462,0.47341,-0.245255,0.710582,0.6269899999999999,-0.375505,1.197932,0.45471,-0.21481,1.378012,0.64607,-0.335655,0.730432,0.90218,-0.422185,1.357372,0.87965,-0.410755,0.922222,0.0034,-0.0057849999999999,1.077778,-0.0034,0.005785,0.894252,-0.23987,-0.3577249999999999,1.193242,-0.23614,-0.334655,0.898382,-0.58527,-0.159012,1.1454019999999998,-0.59066,-0.138364
179,1.0400305,0.675035,-0.214889,0.8692854999999999,0.473075,-0.244775,0.7098655,0.627085,-0.374955,1.1975355,0.455875,-0.213473,1.3778255,0.647485,-0.3343549999999999,0.7291955,0.901975,-0.422105,1.3569455000000001,0.8794550000000001,-0.409495,0.9222155,0.003145,-0.0058949999999999,1.0777845,-0.003145,0.005895,0.8932855,-0.240065,-0.356655,1.1933455,-0.2366649999999999,-0.332925,0.8983155,-0.586325,-0.15913,1.1455255,-0.5917349999999999,-0.138312
180,1.0394765,0.67544,-0.2136259999999999,0.8690715,0.47282,-0.2439449999999999,0.7091815,0.62721,-0.3739949999999999,1.1970715,0.4573899999999999,-0.212079,1.3776215,0.64947,-0.332715,0.7276415,0.90167,-0.4218449999999999,1.3567814999999999,0.8791599999999999,-0.4077949999999999,0.9222215,0.0029699999999999,-0.0058949999999999,1.0777785,-0.00297,0.005895,0.8923415000000001,-0.24084,-0.3551149999999999,1.1933915,-0.23787,-0.330765,0.8982515000000001,-0.58839,-0.159126,1.1456715,-0.59382,-0.1380749999999999
181,1.038728,0.6766350000000001,-0.2121509999999999,0.868814,0.473435,-0.243025,0.7084540000000001,0.628135,-0.372715,1.196504,0.458955,-0.2106839999999999,1.377294,0.651425,-0.330655,0.7258440000000002,0.901395,-0.421145,1.356774,0.880545,-0.405275,0.922214,0.002795,-0.0058949999999999,1.077786,-0.0027949999999999,0.005895,0.891404,-0.2425149999999999,-0.353395,1.193324,-0.2402349999999999,-0.328275,0.898134,-0.591635,-0.1590229999999999,1.145834,-0.597285,-0.137819
182,1.0380245,0.678625,-0.210251,0.8685785,0.474175,-0.242065,0.7077085000000001,0.630055,-0.371295,1.1959184999999999,0.460955,-0.209065,1.3770085,0.6534249999999999,-0.328195,0.7239185,0.900895,-0.420075,1.3568185,0.881855,-0.4024149999999999,0.9221985,0.0026249999999999,-0.005905,1.0778015,-0.0026249999999999,0.0059049999999999,0.8905185,-0.245015,-0.351475,1.1931384999999999,-0.2433449999999999,-0.325525,0.8979785,-0.595745,-0.158777,1.1461485,-0.6020749999999999,-0.137941
183,1.0371775,0.68082,-0.208007,0.8681705,0.47504,-0.240905,0.7068105,0.6318900000000001,-0.369285,1.1951005,0.46275,-0.207268,1.3765605,0.65683,-0.325055,0.7216205,0.89998,-0.418425,1.3567005,0.8825400000000001,-0.399035,0.9221604999999999,0.0024299999999999,-0.006045,1.0778395,-0.0024299999999999,0.0060449999999999,0.8894005,-0.2485299999999999,-0.349025,1.1927105,-0.2476,-0.322205,0.8975605,-0.6019300000000001,-0.158613,1.1463505,-0.60826,-0.137756
184,1.0362065,0.68295,-0.205207,0.8673235,0.4769,-0.23887,0.7058535,0.63396,-0.36654,1.1942935000000001,0.4653199999999999,-0.205062,1.3759535,0.65974,-0.32127,0.7190235,0.89825,-0.41615,1.3566034999999999,0.8828699999999999,-0.39474,0.9221435,0.0022499999999999,-0.0060799999999999,1.0778565,-0.00225,0.00608,0.8882235,-0.25295,-0.3458299999999999,1.1920735,-0.25287,-0.31811,0.8968635000000001,-0.6094200000000001,-0.158018,1.1465334999999999,-0.61575,-0.1371359999999999
185,1.0353295,0.68579,-0.201442,0.8662725,0.47872,-0.235765,0.7050325,0.6373,-0.3624549999999999,1.1936725,0.46712,-0.2023599999999999,1.3751525,0.66293,-0.316005,0.7156425,0.8966299999999999,-0.412035,1.3567825,0.88428,-0.389185,0.9221325,0.0021299999999999,-0.0060049999999999,1.0778675,-0.0021299999999999,0.006005,0.8872125,-0.25881,-0.341225,1.1913925,-0.25949,-0.312785,0.8959325,-0.6187900000000001,-0.156532,1.1482225,-0.62668,-0.13827
186,1.034587,0.68889,-0.196924,0.865388,0.48072,-0.232045,0.7043480000000001,0.6402300000000001,-0.3575549999999999,1.193108,0.4693699999999999,-0.1989619999999999,1.374188,0.6664399999999999,-0.3097149999999999,0.712148,0.89696,-0.406915,1.357038,0.8907799999999999,-0.381965,0.9221280000000001,0.0019699999999999,-0.0059149999999999,1.077872,-0.0019699999999999,0.005915,0.886148,-0.2650499999999999,-0.3358449999999999,1.190638,-0.26654,-0.306655,0.894288,-0.62991,-0.157075,1.149948,-0.63801,-0.138617
187,1.033645,0.692315,-0.1920879999999999,0.864093,0.482815,-0.22799,0.703633,0.643475,-0.35206,1.192623,0.471455,-0.195303,1.373063,0.668775,-0.30305,0.7090730000000001,0.897375,-0.40118,1.357193,0.895915,-0.37436,0.922053,0.001655,-0.00589,1.077947,-0.0016549999999999,0.00589,0.884953,-0.271835,-0.3297,1.189633,-0.273775,-0.29981,0.892333,-0.641425,-0.156648,1.151343,-0.6495949999999999,-0.137826
188,1.032777,0.69575,-0.1871479999999999,0.862734,0.48386,-0.223785,0.702824,0.6481,-0.3465249999999999,1.191924,0.47415,-0.191674,1.3716840000000001,0.67207,-0.295995,0.706094,0.89928,-0.394905,1.3572739999999999,0.9013,-0.366685,0.9219539999999999,0.0012199999999999,-0.005845,1.078046,-0.0012199999999999,0.005845,0.883694,-0.27883,-0.323355,1.188424,-0.2809,-0.292755,0.890124,-0.65264,-0.155744,1.152534,-0.66089,-0.136574
189,1.031818,0.69853,-0.181418,0.861334,0.48609,-0.21948,0.702044,0.65289,-0.34072,1.191234,0.4755199999999999,-0.187488,1.370244,0.67543,-0.28856,0.7031339999999999,0.90194,-0.38803,1.357194,0.90647,-0.35844,0.921784,0.0011099999999999,-0.0058599999999999,1.078216,-0.0011099999999999,0.00586,0.882334,-0.28583,-0.3164599999999999,1.187074,-0.28833,-0.2854299999999999,0.8877340000000001,-0.66352,-0.154464,1.153704,-0.67229,-0.135733
190,1.0308365,0.6989400000000001,-0.175081,0.8596515,0.48821,-0.21478,0.7011115,0.6568,-0.33421,1.1902515,0.47823,-0.183012,1.3683915,0.67875,-0.2806,0.7010915000000001,0.9057,-0.3803499999999999,1.3569715,0.90937,-0.34986,0.9216815,0.00078,-0.00567,1.0783185,-0.00078,0.0056699999999999,0.8809415,-0.29351,-0.30839,1.1852814999999999,-0.29627,-0.27702,0.8851515,-0.6750099999999999,-0.151924,1.1546414999999999,-0.6843299999999999,-0.133869
191,1.0299285,0.69824,-0.1688385,0.8580615,0.49044,-0.2100995,0.7001815,0.66014,-0.3270895,1.1893515,0.48022,-0.1783045,1.3667915,0.68224,-0.2726695,0.6992815,0.90889,-0.3726295,1.3568615,0.91273,-0.3408195,0.9215715,0.00051,-0.0054104999999999,1.0784285,-0.0005099999999999,0.0054104999999999,0.8798315,-0.30112,-0.2998794999999999,1.1835315,-0.30432,-0.2683495,0.8826115,-0.6864399999999999,-0.1488475,1.1556515,-0.69659,-0.1314605
192,1.0288359999999999,0.6965749999999999,-0.1621659999999999,0.856228,0.492465,-0.205057,0.699078,0.665275,-0.319827,1.188308,0.482855,-0.173232,1.365268,0.684895,-0.264437,0.697638,0.912985,-0.364487,1.3566880000000001,0.916165,-0.331377,0.921498,0.0003449999999999,-0.0051429999999999,1.0785019999999998,-0.000345,0.005143,0.8786580000000002,-0.308545,-0.290997,1.181348,-0.312285,-0.259357,0.880108,-0.6981850000000001,-0.145067,1.156498,-0.709085,-0.128575
193,1.0277139999999998,0.6937,-0.155522,0.854806,0.49446,-0.199537,0.6979759999999999,0.6696500000000001,-0.312307,1.1872559999999999,0.48512,-0.167901,1.364096,0.6879200000000001,-0.256447,0.696266,0.9234,-0.355747,1.356366,0.92199,-0.321547,0.921406,0.00012,-0.004817,1.078594,-0.00012,0.004817,0.877426,-0.31605,-0.281527,1.178946,-0.32029,-0.249587,0.877936,-0.71,-0.140091,1.156996,-0.7218500000000001,-0.1245209999999999
194,1.0268214999999998,0.689265,-0.149451,0.8538175,0.496575,-0.19411,0.6972475,0.672545,-0.30545,1.1865675,0.487685,-0.163229,1.3631475,0.690185,-0.24949,0.6952775,0.933115,-0.34797,1.3560474999999999,0.928595,-0.31245,0.9214075,-7.499999999999174e-05,-0.004583,1.0785925,7.50000000000195e-05,0.0045829999999999,0.8763975,-0.3226549999999999,-0.27246,1.1767474999999998,-0.327355,-0.24011,0.8762275,-0.720815,-0.134918,1.1563774999999998,-0.733155,-0.119264
195,1.02602,0.683435,-0.143565,0.852946,0.498285,-0.1888429999999999,0.696636,0.676155,-0.298883,1.185986,0.489325,-0.15872,1.362236,0.692495,-0.243053,0.6943360000000001,0.940515,-0.340493,1.355856,0.929245,-0.304323,0.921496,-0.0001349999999999,-0.004222,1.078504,0.0001349999999999,0.004222,0.875666,-0.329175,-0.262943,1.174566,-0.334315,-0.230303,0.8753560000000001,-0.731305,-0.129471,1.155516,-0.7441150000000001,-0.113816
196,1.0257835,0.679555,-0.1375115,0.8525505,0.499535,-0.1839245,0.6968004999999999,0.678655,-0.2920945,1.1858905,0.490905,-0.1540925,1.3623405,0.695135,-0.2362745,0.6938405000000001,0.946365,-0.3330745,1.3561105,0.930285,-0.2959445,0.9216805,5.000000000005e-06,-0.0038995,1.0783195,-5.000000000005e-06,0.0038995,0.8758905,-0.335775,-0.2524145,1.1725505,-0.341405,-0.2197045,0.8749205,-0.7417050000000001,-0.1236625,1.1550805,-0.754675,-0.1080075
197,1.0254964999999998,0.6748350000000001,-0.130839,0.8521605,0.501915,-0.179114,0.6971105,0.6803750000000001,-0.284974,1.1856505,0.4921449999999999,-0.149365,1.3625005,0.696285,-0.229064,0.6941205000000001,0.950995,-0.3256639999999999,1.3564505,0.930965,-0.287464,0.9218105,0.0003849999999999,-0.003623,1.0781895,-0.000385,0.0036229999999999,0.8764305,-0.342495,-0.241014,1.1702505,-0.3485749999999999,-0.208494,0.8743405,-0.752535,-0.117462,1.1544405,-0.763015,-0.10026
198,1.025358,0.670019,-0.12462,0.851892,0.504999,-0.174591,0.697322,0.682849,-0.277931,1.185452,0.494979,-0.14498,1.3629719999999999,0.696789,-0.222041,0.694742,0.954689,-0.318541,1.356912,0.931659,-0.279351,0.921812,0.000375,-0.0032369999999999,1.078188,-0.000375,0.0032369999999999,0.877502,-0.352971,-0.229271,1.1676119999999999,-0.358151,-0.1969709999999999,0.873722,-0.760291,-0.107925,1.153742,-0.770961,-0.092407
199,1.0253124999999998,0.6668244999999999,-0.118812,0.8516765,0.5080345,-0.1706099999999999,0.6978465,0.6857145,-0.2714,1.1854164999999999,0.4964645,-0.141027,1.3635765,0.6976645,-0.21559,0.6954065,0.9571745,-0.3119699999999999,1.3576264999999998,0.9330745,-0.27168,0.9217765,0.0006865,-0.003044,1.0782235,-0.0006864999999999,0.0030439999999999,0.8789665,-0.3629354999999999,-0.21761,1.1651164999999999,-0.3674054999999999,-0.18601,0.8733165,-0.7676555,-0.098871,1.1528365,-0.7783255,-0.084536
200,1.0251945,0.662435,-0.1074405,0.8514365,0.510145,-0.1611675,0.6985365,0.688295,-0.2596875,1.1852065,0.498645,-0.1317404999999999,1.3640865,0.698415,-0.2036974999999999,0.6955765,0.959165,-0.2998375,1.3586565,0.933935,-0.2584675,0.9217265,0.001047,-0.0027335,1.0782734999999999,-0.001047,0.0027335,0.8805865000000002,-0.374475,-0.1991575,1.1617465,-0.377955,-0.1674875,0.8728865,-0.776255,-0.0830755,1.1513265,-0.786655,-0.0695625
201,1.0255895,0.669074,-0.0959375,0.8508625000000001,0.513524,-0.1502375,0.6991525000000001,0.687814,-0.2463775,1.1859925,0.500244,-0.1207615,1.3646425,0.695764,-0.1901675,0.6953525,0.958264,-0.2862475,1.3598325,0.932984,-0.2437275,0.9216925,0.001639,-0.0031005,1.0783075,-0.001639,0.0031004999999999,0.8826025,-0.388246,-0.1758175,1.1567224999999999,-0.391136,-0.1454675,0.8725225,-0.787386,-0.0637095,1.1485025,-0.796776,-0.0514705
202,1.026131,0.6768155,-0.084793,0.850531,0.5157754999999999,-0.139359,0.699981,0.6883655,-0.233329,1.186821,0.5013555000000001,-0.1098359999999999,1.365311,0.6932354999999999,-0.176989,0.694571,0.9517155,-0.2731989999999999,1.361371,0.9302555,-0.229699,0.921671,0.0020685,-0.003461,1.078329,-0.0020685,0.0034609999999999,0.8845410000000001,-0.4008245,-0.153419,1.1519009999999998,-0.4037145,-0.124499,0.872181,-0.7980645,-0.045169,1.145951,-0.8061545000000001,-0.033789
203,1.0268985,0.6853265,-0.0740094999999999,0.8502905000000001,0.5181665,-0.1282885,0.7008405000000001,0.6916165,-0.2202585,1.1879405,0.5023365000000001,-0.0987805,1.3661305000000001,0.6917865,-0.1640085,0.6941205000000001,0.9471265,-0.2602985,1.3632305,0.9257265,-0.2157785,0.9217005,0.0023514999999999,-0.0036145,1.0782995,-0.0023514999999999,0.0036144999999999,0.8863305,-0.4125735,-0.1309785,1.1470704999999999,-0.4155535,-0.1038355,0.8720005,-0.8087835,-0.0272415,1.1435205,-0.8152335,-0.0164484999999999
204,1.027457,0.6946625000000001,-0.063682,0.84984,0.5210625000000001,-0.116907,0.7015300000000001,0.6940825,-0.207057,1.18897,0.5037525,-0.087733,1.36662,0.6897625000000001,-0.151337,0.6934200000000001,0.9429025,-0.247117,1.36531,0.9220625,-0.201567,0.92178,0.0025785,-0.0037659999999999,1.07822,-0.0025785,0.003766,0.88769,-0.4243975,-0.108377,1.14195,-0.4270975,-0.083287,0.87158,-0.8197774999999999,-0.009609,1.14063,-0.8243474999999999,0.0009909999999999
205,1.027873,0.7019075,-0.0531835,0.849216,0.5241175,-0.1053375,0.7017960000000001,0.6973975,-0.1937475,1.189886,0.5053075,-0.0768055,1.3660160000000001,0.6864874999999999,-0.1387475,0.692496,0.9402575,-0.2339774999999999,1.367466,0.9192575,-0.1871975,0.921956,0.0027384999999999,-0.0040325,1.078044,-0.0027384999999999,0.0040325,0.888306,-0.4356025,-0.0862375,1.1365560000000001,-0.4372525,-0.0632325,0.870686,-0.8301325,0.0071625,1.137496,-0.8332025000000001,0.0177725
206,1.028201,0.7095870000000001,-0.042221,0.848316,0.5268970000000001,-0.093023,0.7018960000000001,0.7007070000000001,-0.179193,1.190776,0.5071270000000001,-0.065219,1.3654359999999999,0.685717,-0.125693,0.6910960000000002,0.943027,-0.218463,1.369736,0.916807,-0.172243,0.922264,0.002794,-0.004227,1.077736,-0.002794,0.0042269999999999,0.888166,-0.447783,-0.0619549999999999,1.130536,-0.448303,-0.041915,0.8693960000000001,-0.840853,0.0242439999999999,1.1341459999999999,-0.842513,0.034973
207,1.028433,0.717874,-0.0310695,0.847234,0.527494,-0.0806235,0.7019040000000001,0.7032940000000001,-0.1645435,1.191534,0.5083740000000001,-0.0533064999999999,1.3646639999999999,0.685054,-0.1126435,0.689504,0.946204,-0.2028335,1.371854,0.914544,-0.1574435,0.922478,0.002828,-0.0044514999999999,1.077522,-0.002828,0.0044515,0.887514,-0.459596,-0.0375314999999999,1.1246839999999998,-0.458856,-0.0205825,0.8678540000000001,-0.850706,0.0409655,1.130714,-0.8514459999999999,0.0521405
208,1.02883,0.7256135,-0.0201139999999999,0.846192,0.5283735,-0.068463,0.701872,0.7061835,-0.149903,1.192152,0.5096135,-0.0416359999999999,1.363722,0.6843435,-0.0995929999999999,0.687902,0.9492935,-0.1875129999999999,1.373882,0.9126035,-0.143403,0.922693,0.0028024999999999,-0.0046039999999999,1.077307,-0.0028025,0.004604,0.886612,-0.4713465,-0.0136089999999999,1.119032,-0.4696464999999999,0.0005189999999999,0.866282,-0.8597465,0.057095,1.127452,-0.8597865,0.068627
209,1.0290685,0.7348954999999999,-0.0149019999999999,0.8449655,0.5302954999999999,-0.0621179999999999,0.7015355000000001,0.7089854999999999,-0.141118,1.1926755,0.5103955,-0.0355149999999999,1.3626654999999999,0.6838055,-0.0927579999999999,0.6860055,0.9536555,-0.1781879999999999,1.3753855,0.9107355,-0.135828,0.9228535,0.0026885,-0.0048549999999999,1.0771465,-0.0026885,0.004855,0.8853455,-0.4813945,0.003009,1.1140265,-0.4788544999999999,0.013883,0.8645955,-0.8670345,0.066227,1.1245455,-0.8664545,0.077729
210,1.0286799999999998,0.733945,-0.0105689999999999,0.84368,0.531095,-0.0574589999999999,0.70104,0.713155,-0.134429,1.19209,0.511385,-0.03129,1.36157,0.686195,-0.088049,0.68392,0.958925,-0.171789,1.37653,0.911085,-0.130959,0.923101,0.00225,-0.0044239999999999,1.076899,-0.00225,0.0044239999999999,0.88359,-0.485215,0.0138309999999999,1.11086,-0.482635,0.023016,0.86286,-0.871215,0.071376,1.12262,-0.869805,0.083123
211,1.0281615,0.7336929999999999,-0.0065965,0.8424665,0.532063,-0.0528344999999999,0.7002665,0.716793,-0.1282045,1.1914164999999999,0.512423,-0.0271275,1.3605765,0.688453,-0.0836845,0.6818465,0.964093,-0.1659045,1.3774565,0.911043,-0.1267344999999999,0.9234105,0.00201,-0.0042004999999999,1.0765895,-0.0020099999999999,0.0042004999999999,0.8819065000000001,-0.488637,0.0243155,1.1077635,-0.4860369999999999,0.0318755,0.8611465,-0.874877,0.0763135,1.1206065,-0.872667,0.0887535
212,1.027602,0.733404,-0.0030309999999999,0.84123,0.5321239999999999,-0.0483259999999999,0.69949,0.7182339999999999,-0.1226959999999999,1.19069,0.513304,-0.0233939999999999,1.35958,0.689844,-0.079836,0.67978,0.968584,-0.160816,1.37822,0.911494,-0.122966,0.923763,0.001846,-0.004165,1.0762369999999999,-0.001846,0.004165,0.88031,-0.491276,0.033482,1.104955,-0.488666,0.039787,0.85945,-0.877596,0.080859,1.11873,-0.8748360000000001,0.093973
213,1.027166,0.733306,0.0004259999999999,0.840125,0.532076,-0.043979,0.698755,0.719676,-0.117709,1.189905,0.514116,-0.019998,1.358725,0.6915060000000001,-0.0764489999999999,0.677805,0.972936,-0.156599,1.378775,0.911956,-0.119529,0.924055,0.001687,-0.004196,1.075945,-0.001687,0.0041959999999999,0.8788450000000001,-0.493004,0.041637,1.102492,-0.490494,0.046915,0.857795,-0.8795839999999999,0.0849999999999999,1.117115,-0.876374,0.0987919999999999
