sb224sc-HT22-VT27/4dt907/src/data/kinect_good_preprocessed_A9_mediapipe/A157_kinect_mirrored.csv
FrameNo,nose_3d_x,nose_3d_y,nose_3d_z,left_shoulder_3d_x,left_shoulder_3d_y,left_shoulder_3d_z,left_elbow_3d_x,left_elbow_3d_y,left_elbow_3d_z,right_shoulder_3d_x,right_shoulder_3d_y,right_shoulder_3d_z,right_elbow_3d_x,right_elbow_3d_y,right_elbow_3d_z,left_wrist_3d_x,left_wrist_3d_y,left_wrist_3d_z,right_wrist_3d_x,right_wrist_3d_y,right_wrist_3d_z,left_hip_3d_x,left_hip_3d_y,left_hip_3d_z,right_hip_3d_x,right_hip_3d_y,right_hip_3d_z,left_knee_3d_x,left_knee_3d_y,left_knee_3d_z,right_knee_3d_x,right_knee_3d_y,right_knee_3d_z,left_ankle_3d_x,left_ankle_3d_y,left_ankle_3d_z,right_ankle_3d_x,right_ankle_3d_y,right_ankle_3d_z
138,1.0268625,0.729126,0.007727,0.8349085,0.538896,-0.017054,0.7041985,0.763966,-0.096867,1.1959285,0.513856,0.00064,1.3564885,0.724106,-0.067617,0.6665885,1.018916,-0.159737,1.4037985,0.968316,-0.132707,0.9237195,0.0022939999999999,0.000128,1.0762805,-0.002294,-0.0001279999999999,0.8673285,-0.503834,0.040867,1.1017225,-0.495244,0.042068,0.8340385,-0.873004,0.058692,1.1197385,-0.875604,0.071055
139,1.0269375,0.7291475000000001,0.0073649999999999,0.8349805000000001,0.5387875,-0.017365,0.7042005,0.7641875,-0.0974,1.1959505,0.5137975,0.0002619999999999,1.3564305,0.7241975,-0.06798,0.6668405,1.0195875,-0.16029,1.4034605,0.9751875,-0.13296,0.9237204999999999,0.0023265,0.00023,1.0762795,-0.0023264999999999,-0.00023,0.8672605,-0.5041725,0.04076,1.1017685,-0.4953225,0.04202,0.8341205,-0.8729724999999999,0.058449,1.1198405,-0.8756525,0.070831
140,1.026989,0.7291584999999999,0.0070129999999999,0.835046,0.5387084999999999,-0.0176699999999999,0.704206,0.7643685,-0.09789,1.1959659999999999,0.5137484999999999,-9.40000000000038e-05,1.356366,0.7242685,-0.06834,0.6670659999999999,1.0202585000000002,-0.16085,1.403086,0.9820585,-0.13318,0.92372,0.0023565,0.0003329999999999,1.07628,-0.0023564999999999,-0.0003329999999999,0.867196,-0.5045215,0.040672,1.101807,-0.4954115,0.041994,0.8341959999999999,-0.8730115,0.0581919999999999,1.119946,-0.8757815,0.070615
141,1.0269985,0.7290610000000001,0.0066345,0.8351025,0.538651,-0.0179685,0.7042325,0.764471,-0.0983764999999999,1.1959724999999999,0.5137010000000001,-0.0004525,1.3563025,0.7243310000000001,-0.0686965,0.6672425,1.020831,-0.1614264999999999,1.4024425,0.989231,-0.1333265,0.9237165,0.002384,0.0004334999999999,1.0762835,-0.0023839999999999,-0.0004335,0.8671425,-0.504919,0.0405855,1.1018405,-0.495519,0.0419765,0.8342225,-0.8730589999999999,0.0579934999999999,1.1200325,-0.8759089999999999,0.0703795
142,1.0269905,0.7289734999999999,0.0062924999999999,0.8351105,0.5386434999999999,-0.0182415,0.7042305,0.7645635,-0.0988355,1.1959705,0.5136634999999999,-0.0007845,1.3562205,0.7243735,-0.0690155,0.6673605,1.0213235,-0.1619555,1.4021205,0.9940235,-0.1333855,0.9237025000000001,0.0024155,0.0005384999999999,1.0762975,-0.0024155,-0.0005385,0.8670505,-0.5053065,0.0405384999999999,1.1018554999999999,-0.4956165,0.0419684999999999,0.8342404999999999,-0.8730565,0.0578174999999999,1.1201005,-0.8760165,0.0701804999999999
143,1.026978,0.728896,0.0059499999999999,0.835105,0.5386259999999999,-0.018507,0.7042349999999999,0.7645959999999999,-0.099274,1.195955,0.5136259999999999,-0.001104,1.3561649999999998,0.724416,-0.069304,0.6674250000000002,1.0217159999999998,-0.162464,1.402155,0.993916,-0.133644,0.923688,0.0024469999999999,0.000646,1.076312,-0.002447,-0.000646,0.866965,-0.505684,0.0404669999999999,1.101868,-0.495704,0.041941,0.834275,-0.873174,0.0576,1.120145,-0.876194,0.069978
144,1.0269655,0.728831,0.0056439999999999,0.8350865000000001,0.538611,-0.018737,0.7042364999999999,0.764591,-0.099645,1.1959365,0.513591,-0.001373,1.3561165,0.7244309999999999,-0.069545,0.6674665,1.0220010000000002,-0.162905,1.4021865,0.995401,-0.133865,0.9236715,0.002472,0.0007549999999999,1.0763285,-0.0024719999999999,-0.000755,0.8669165,-0.506029,0.0404239999999999,1.1018745,-0.4958089999999999,0.0419019999999999,0.8343365,-0.873389,0.057411,1.1201765,-0.876389,0.069814
145,1.026948,0.7287845000000001,0.0053524999999999,0.835075,0.5385845,-0.0189534999999999,0.7042349999999999,0.7645745,-0.0999795,1.195925,0.5135645,-0.0016325,1.356095,0.7244545,-0.0697895,0.667505,1.0222045,-0.1633195,1.402225,0.9954045,-0.1342694999999999,0.9236600000000001,0.0024805,0.0007855,1.0763399999999999,-0.0024804999999999,-0.0007855,0.866895,-0.5063055,0.0403605,1.10188,-0.4958955,0.0417865,0.8344050000000001,-0.8735655,0.0572494999999999,1.120215,-0.8765955,0.0696495
146,1.0269249999999999,0.7287905,0.0050855,0.835054,0.5385905000000001,-0.0191105,0.704244,0.7646005,-0.1002685,1.195924,0.5135805,-0.0018485,1.356064,0.7245205,-0.0699885,0.6675340000000001,1.0224505,-0.1636985,1.401564,0.9981505,-0.1340585,0.9236590000000001,0.0024614999999999,0.0007544999999999,1.076341,-0.0024614999999999,-0.0007544999999999,0.866864,-0.5065095,0.0403575,1.101881,-0.4958895,0.0417225,0.834464,-0.8737094999999999,0.0571595,1.120264,-0.8767195,0.0695295
147,1.026885,0.728783,0.004788,0.835009,0.538583,-0.0192609999999999,0.704229,0.764653,-0.100547,1.1959089999999999,0.513603,-0.0020529999999999,1.3560590000000001,0.724553,-0.070137,0.667549,1.022603,-0.163937,1.401659,0.998103,-0.134267,0.923669,0.002437,0.000702,1.076331,-0.002437,-0.000702,0.866859,-0.506707,0.040377,1.101866,-0.495877,0.041669,0.834509,-0.8738570000000001,0.057073,1.120309,-0.8768469999999999,0.069411
148,1.0268615,0.7288060000000001,0.0044739999999999,0.8349755,0.5386059999999999,-0.019443,0.7042155,0.764686,-0.100795,1.1959054999999998,0.5136259999999999,-0.002243,1.3560554999999999,0.7246060000000001,-0.070305,0.6675555,1.022676,-0.1641449999999999,1.4017855,0.997976,-0.134465,0.9236755000000001,0.0024209999999999,0.0006619999999999,1.0763245,-0.0024209999999999,-0.000662,0.8668755,-0.5068239999999999,0.0403679999999999,1.1018495,-0.495784,0.0416059999999999,0.8345255,-0.8738840000000001,0.0569419999999999,1.1203255,-0.876944,0.069265
149,1.0268774999999999,0.7288414999999999,0.004138,0.8349605,0.5386314999999999,-0.019621,0.7042205,0.7647115,-0.1010449999999999,1.1959205,0.5136014999999999,-0.0024729999999999,1.3560805,0.7246615,-0.070475,0.6675605,1.0227515,-0.164345,1.4020805,0.9978515,-0.134695,0.9236765,0.0024055,0.000629,1.0763235,-0.0024054999999999,-0.0006289999999999,0.8669105,-0.5070785,0.040293,1.1018395,-0.4956885,0.04156,0.8345505,-0.8739585000000001,0.056758,1.1203505,-0.8770485,0.069123
150,1.026929,0.7288239999999999,0.003821,0.8349700000000001,0.5386639999999999,-0.0197989999999999,0.70427,0.764694,-0.101287,1.19595,0.5135839999999999,-0.0027039999999999,1.35611,0.724684,-0.0706769999999999,0.66757,1.022734,-0.164487,1.40237,0.997834,-0.1349369999999999,0.9236759999999999,0.0023999999999999,0.000589,1.076324,-0.0023999999999999,-0.0005889999999999,0.86696,-0.507366,0.040181,1.101845,-0.4956359999999999,0.041428,0.8345800000000001,-0.8740260000000001,0.056622,1.1204,-0.877136,0.068942
151,1.0269964999999999,0.7289239999999999,0.0034939999999999,0.8349845000000001,0.5386639999999999,-0.01999,0.7043345000000001,0.764674,-0.101546,1.1960245,0.5135839999999999,-0.002975,1.3561645,0.724684,-0.0709159999999999,0.6675845,1.022734,-0.164656,1.4026645,0.997734,-0.135236,0.9236685,0.0023999999999999,0.0005429999999999,1.0763315,-0.0023999999999999,-0.000543,0.8670645000000001,-0.507506,0.040062,1.1018645,-0.4956359999999999,0.0412719999999999,0.8346445,-0.874156,0.0564719999999999,1.1204545,-0.8772460000000001,0.068754
152,1.0270299999999999,0.7289239999999999,0.0031274999999999,0.8350140000000001,0.5386639999999999,-0.0202264999999999,0.7043640000000001,0.764664,-0.1018645,1.196024,0.513574,-0.0033515,1.356184,0.724684,-0.0712044999999999,0.667594,1.022734,-0.1648545,1.402854,0.994634,-0.1360144999999999,0.923623,0.0023999999999999,0.0005114999999999,1.076377,-0.0023999999999999,-0.0005114999999999,0.8671440000000001,-0.507506,0.0398955,1.101895,-0.4956359999999999,0.0410704999999999,0.834694,-0.874326,0.0562665,1.120484,-0.8773460000000001,0.0685345
153,1.0270685,0.7289275,0.0027275,0.8350445000000001,0.5386675,-0.0205165,0.7044045,0.7646475,-0.1022435,1.1960345000000001,0.5135675,-0.0038205,1.3562145,0.7246875,-0.0716035,0.6676245000000001,1.0226375,-0.1650935,1.4025645,0.9945375,-0.1362035,0.9235725,0.0023965,0.0004844999999999,1.0764275,-0.0023964999999999,-0.0004844999999999,0.8672745,-0.5075025,0.0395175,1.1019255000000001,-0.4956325,0.0408815,0.8347545000000001,-0.8745825,0.0560774999999999,1.1205245,-0.8777625,0.0682065
154,1.027162,0.7289545,0.002202,0.83513,0.5386945,-0.020931,0.7045,0.7645245,-0.102751,1.1961,0.5134345,-0.0045779999999999,1.35625,0.7246645,-0.0722009999999999,0.6677,1.0223645,-0.165361,1.40265,0.9921645,-0.137031,0.923561,0.0024145,0.0004629999999999,1.076439,-0.0024145,-0.0004629999999999,0.8676699999999999,-0.5074655,0.0378,1.1020079999999999,-0.4954955,0.040223,0.8348599999999999,-0.8748155,0.055851,1.12061,-0.8781755,0.067837
155,1.0273295,0.7286760000000001,0.0008099999999999,0.8354395,0.538466,-0.022594,0.7047195000000002,0.763966,-0.104262,1.1961895,0.512436,-0.006906,1.3561895,0.7242660000000001,-0.073942,0.6678395000000001,1.022066,-0.166242,1.4021295,0.985966,-0.138332,0.9235215,0.0025089999999999,0.00034,1.0764785,-0.002509,-0.00034,0.8682295000000001,-0.507134,0.032493,1.1023625,-0.494904,0.036247,0.8351395,-0.874844,0.055062,1.1208195,-0.878134,0.066717
156,1.0276575000000001,0.7282105,-0.0015065,0.8361985000000001,0.5367405,-0.0260694999999999,0.7050385,0.7632005,-0.1067795,1.1963685,0.5111005,-0.0101665,1.3560885,0.7237505,-0.0768995,0.6681085,1.0224005,-0.1677595,1.4023785,0.9790005,-0.1408995,0.9233785,0.0025854999999999,0.0001304999999999,1.0766215,-0.0025855,-0.0001304999999999,0.8686785000000001,-0.5056795000000001,0.0249434999999999,1.1031125,-0.4936095,0.0303174999999999,0.8355985000000001,-0.8741095000000001,0.0535695,1.1211585,-0.8774195,0.0647625
157,1.028095,0.726779,-0.0046115,0.8367990000000001,0.535329,-0.0298225,0.705409,0.760539,-0.1100425,1.196599,0.509719,-0.0138835,1.355969,0.722509,-0.0806825,0.668649,1.0228989999999998,-0.1695924999999999,1.401699,0.973499,-0.1438025,0.923182,0.0026699999999999,-8.450000000000124e-05,1.076818,-0.0026699999999999,8.44999999999943e-05,0.869149,-0.503851,0.0154154999999999,1.1048689999999999,-0.491971,0.0219914999999999,0.8360790000000001,-0.873121,0.0516074999999999,1.1215989999999998,-0.876511,0.0622864999999999
158,1.028711,0.7237395,-0.0089949999999999,0.8376330000000001,0.5320395,-0.0356569999999999,0.706033,0.7581294999999999,-0.114826,1.1969429999999999,0.5071794999999999,-0.0190209999999999,1.356013,0.7213695,-0.0857159999999999,0.669783,1.0246695,-0.172256,1.400733,0.9734695,-0.147536,0.922934,0.0028364999999999,-0.0003229999999999,1.077066,-0.0028365,0.000323,0.8698930000000001,-0.5003005,0.003462,1.107403,-0.4887905,0.011803,0.836763,-0.8706105,0.048713,1.122303,-0.8740105,0.058962
159,1.029572,0.7203245,-0.014346,0.83882,0.5289845,-0.042108,0.7069,0.7540145,-0.120686,1.1973799999999999,0.5046245,-0.024818,1.35623,0.7190045,-0.091936,0.67172,1.0252045,-0.175276,1.39991,0.9682345,-0.151606,0.922653,0.0029974999999999,-0.000656,1.077347,-0.0029975,0.0006559999999999,0.87086,-0.4957155,-0.010264,1.11061,-0.4843355,0.0002819999999999,0.83757,-0.8669755,0.045297,1.1234,-0.8702555,0.0550419999999999
160,1.030509,0.7163395,-0.020711,0.839982,0.5253495,-0.0495449999999999,0.707802,0.7487295,-0.127745,1.197832,0.5021095,-0.0316199999999999,1.356272,0.7158495,-0.099415,0.6743319999999999,1.0247095,-0.179225,1.398832,0.9642295,-0.156895,0.922346,0.0030945,-0.0011019999999999,1.077654,-0.0030945,0.0011019999999999,0.871502,-0.4896205,-0.0257219999999999,1.1143619999999999,-0.4782405,-0.012648,0.838512,-0.8621005,0.040916,1.124652,-0.8647905,0.050437
161,1.031582,0.7125055,-0.0284265,0.841398,0.5207355,-0.0586675,0.7088480000000001,0.7439455,-0.1364834999999999,1.198328,0.4991855,-0.0396465,1.356468,0.7135755,-0.1083035,0.677338,1.0220055,-0.1866034999999999,1.398088,0.9611955,-0.1645535,0.922094,0.0031415,-0.0017085,1.077906,-0.0031415,0.0017084999999999,0.871998,-0.4809845,-0.0429115,1.118628,-0.4696645,-0.0272585,0.839648,-0.8549145,0.0353235,1.126128,-0.8570745,0.0444755
162,1.032668,0.7078685,-0.0385209999999999,0.842979,0.5148385,-0.0697019999999999,0.710299,0.7368385,-0.147862,1.198829,0.4953185,-0.0489279999999999,1.356489,0.7096585,-0.1191519999999999,0.680949,1.0197385,-0.1954719999999999,1.395509,0.9594485,-0.175182,0.921924,0.0031464999999999,-0.0024319999999999,1.078076,-0.0031465,0.002432,0.872019,-0.4681015,-0.062492,1.124099,-0.4579215,-0.0442959999999999,0.840839,-0.8442515,0.027903,1.128389,-0.8455415000000001,0.03688
163,1.033673,0.7007869999999999,-0.0494065,0.84468,0.509187,-0.0812165,0.71187,0.729267,-0.1603265,1.19923,0.491087,-0.0583965,1.35653,0.705407,-0.1308365,0.6850400000000001,1.017097,-0.2056265,1.3925100000000001,0.957867,-0.1872365,0.92178,0.003182,-0.0030775,1.07822,-0.0031819999999999,0.0030775,0.87166,-0.4536429999999999,-0.0823065,1.13006,-0.445793,-0.0623355,0.84212,-0.831893,0.0198215,1.1306999999999998,-0.832543,0.0285235
164,1.0347345,0.6948000000000001,-0.060475,0.8464135,0.50348,-0.092278,0.7132635,0.72092,-0.173178,1.1996235,0.48744,-0.066764,1.3562935,0.69994,-0.142368,0.6894635,1.01351,-0.215918,1.3896935,0.95112,-0.200068,0.9217474999999999,0.0029859999999999,-0.0036139999999999,1.0782525,-0.002986,0.0036139999999999,0.8706435,-0.43942,-0.099998,1.1367835,-0.43324,-0.078678,0.8434435,-0.81694,0.011734,1.1330735,-0.81723,0.020654
165,1.035645,0.6880955000000001,-0.0726285,0.84823,0.4986555,-0.1035095,0.7145900000000001,0.7126655000000001,-0.1875994999999999,1.1998,0.4836654999999999,-0.0761145,1.35583,0.6951555,-0.1556894999999999,0.69413,1.0080355,-0.2298695,1.3865,0.9512855,-0.2141595,0.921806,0.0028965,-0.0039425,1.078194,-0.0028964999999999,0.0039424999999999,0.86842,-0.4204345,-0.1196594999999999,1.1445400000000001,-0.4159745,-0.0976895,0.8448,-0.7961944999999999,0.0026715,1.1355199999999999,-0.7963545,0.0122875
166,1.0366974999999998,0.6816695,-0.086729,0.8501325,0.4928095,-0.1175989999999999,0.7160525,0.7058995,-0.204519,1.2001325,0.4797195,-0.087979,1.3555125000000001,0.6908395,-0.171409,0.6987825,0.9982695,-0.2470889999999999,1.3833525,0.9507795,-0.231459,0.9220625000000001,0.0029035,-0.004643,1.0779375,-0.0029035,0.0046429999999999,0.8660525,-0.4012905,-0.140569,1.1517125,-0.3979505,-0.117789,0.8462025,-0.7743605,-0.009189,1.1380824999999999,-0.7744705,0.001208
167,1.03833,0.6797150000000001,-0.1034149999999999,0.853152,0.488855,-0.133475,0.717962,0.698675,-0.223905,1.200072,0.4765549999999999,-0.103105,1.355022,0.6861550000000001,-0.189685,0.703592,0.986095,-0.267515,1.379952,0.948585,-0.252675,0.922255,0.0029949999999999,-0.00501,1.077745,-0.002995,0.00501,0.863522,-0.3788749999999999,-0.170035,1.160632,-0.376765,-0.146285,0.847782,-0.749175,-0.024647,1.141102,-0.749335,-0.0133829999999999
168,1.0400535,0.67636,-0.1198355,0.8558295,0.48466,-0.1488855,0.7197795,0.69328,-0.2425054999999999,1.1999594999999998,0.47336,-0.1177155,1.3545895,0.6821,-0.2072554999999999,0.7078694999999999,0.97562,-0.2879355,1.3764495,0.94547,-0.2738555,0.9223505,0.0031299999999999,-0.0052595,1.0776495,-0.00313,0.0052595,0.8611795,-0.35786,-0.1979755,1.1691795,-0.35642,-0.1740054999999999,0.8492095,-0.72451,-0.0397485,1.1440895,-0.72457,-0.0276825
169,1.041926,0.674945,-0.1363495,0.858967,0.480025,-0.1646095,0.721357,0.689945,-0.2619695,1.199867,0.470645,-0.1325895,1.354527,0.680275,-0.2253595,0.7120569999999999,0.969935,-0.3089695,1.372837,0.944375,-0.2958695,0.922478,0.003015,-0.0053564999999999,1.077522,-0.0030149999999999,0.0053565,0.858457,-0.3342549999999999,-0.2268895,1.1778469999999999,-0.3334749999999999,-0.2027295,0.850557,-0.696655,-0.0549714999999999,1.147227,-0.697065,-0.0423535
170,1.043755,0.669755,-0.1517775,0.861955,0.476295,-0.1790475,0.723175,0.686125,-0.2803975,1.199705,0.468005,-0.1466675,1.3544049999999999,0.676365,-0.2433675,0.716545,0.965955,-0.3276575,1.369135,0.941485,-0.3171075,0.922964,0.003175,-0.0054494999999999,1.077036,-0.003175,0.0054494999999999,0.855715,-0.311675,-0.2543375,1.186145,-0.312115,-0.2301375,0.851395,-0.669825,-0.0694795,1.150215,-0.670605,-0.0557384999999999
171,1.0456634999999999,0.667535,-0.1658805,0.8652225,0.473775,-0.1920105,0.7251225,0.684195,-0.2969605,1.2000325,0.464905,-0.1602605,1.3546924999999999,0.674275,-0.2600705,0.7209924999999999,0.962075,-0.3454205,1.3666425,0.938285,-0.3365305,0.9231925,0.003365,-0.0054284999999999,1.0768075,-0.003365,0.0054285,0.8531225,-0.290975,-0.2803205,1.1940225,-0.291405,-0.2560705,0.8523324999999999,-0.6439349999999999,-0.0822565,1.1527325,-0.6453749999999999,-0.0675475
172,1.0475735,0.667255,-0.1794455,0.8686865,0.470935,-0.2046655,0.7273765,0.683635,-0.3127555,1.2005365000000001,0.462715,-0.1734055,1.3551764999999998,0.672235,-0.2763355,0.7252865,0.957135,-0.3622355,1.3647565,0.934765,-0.3555455,0.9234165,0.003605,-0.0054074999999999,1.0765835,-0.0036049999999999,0.0054075,0.8500665000000001,-0.268775,-0.3057455,1.2022565,-0.2686349999999999,-0.2813155,0.8532565,-0.616935,-0.0943335,1.1552565,-0.6189049999999999,-0.0787025
173,1.049425,0.66655,-0.192379,0.872111,0.46926,-0.216659,0.729781,0.68394,-0.327389,1.2011109999999998,0.46125,-0.186639,1.355991,0.67125,-0.292409,0.7299810000000001,0.95294,-0.378599,1.363391,0.93144,-0.374259,0.923641,0.00379,-0.0053959999999999,1.076359,-0.00379,0.0053959999999999,0.846971,-0.24451,-0.330689,1.210081,-0.24402,-0.305769,0.854161,-0.58999,-0.1060369999999999,1.157681,-0.59253,-0.089827
174,1.051458,0.665825,-0.2034065,0.8753320000000001,0.467515,-0.2265565,0.732002,0.683855,-0.3399665,1.2015419999999999,0.460225,-0.1978765,1.3573119999999999,0.669065,-0.3059465,0.7345619999999999,0.949485,-0.3910565,1.362772,0.929365,-0.3908565,0.923942,0.003975,-0.0053065,1.076058,-0.003975,0.0053064999999999,0.8440719999999999,-0.221955,-0.3523865,1.217532,-0.220975,-0.3261565,0.8550920000000001,-0.564875,-0.1160155,1.160022,-0.567685,-0.0995015
175,1.0536545,0.66631,-0.2118765,0.8785125000000001,0.46693,-0.2330465,0.7341424999999999,0.68424,-0.3496765,1.2019224999999998,0.45916,-0.2062864999999999,1.3586325,0.66749,-0.3168765,0.7389924999999999,0.95143,-0.4001665,1.3625025,0.92869,-0.4046865,0.9241525,0.00413,-0.0049984999999999,1.0758475,-0.00413,0.0049984999999999,0.8407425,-0.1988799999999999,-0.3713565,1.2249625,-0.19709,-0.3437765,0.8558425000000001,-0.5387,-0.1229135,1.1625125,-0.54155,-0.1063655
176,1.0550709999999999,0.6638900000000001,-0.2161699999999999,0.8800340000000001,0.467352,-0.23575,0.735614,0.68142,-0.3555,1.202484,0.459698,-0.2099599999999999,1.359564,0.6623300000000001,-0.32415,0.742684,0.95435,-0.40542,1.362544,0.92525,-0.41432,0.9244640000000001,0.00398,-0.0049039999999999,1.0755359999999998,-0.0039799999999999,0.004904,0.8369139999999999,-0.18015,-0.3798,1.230034,-0.17745,-0.3513,0.8559140000000001,-0.51618,-0.125362,1.164184,-0.51924,-0.10874
177,1.056345,0.662165,-0.219289,0.8811510000000001,0.470668,-0.238139,0.736081,0.6811050000000001,-0.361269,1.2026810000000001,0.456879,-0.213169,1.360101,0.6603749999999999,-0.331229,0.7459910000000001,0.952305,-0.411589,1.363021,0.923035,-0.423629,0.9247410000000001,0.005145,-0.004853,1.075259,-0.005145,0.0048529999999999,0.832541,-0.1581149999999999,-0.388229,1.2352210000000001,-0.1543349999999999,-0.3589489999999999,0.8555910000000001,-0.4912749999999999,-0.127645,1.165341,-0.4949149999999999,-0.110758
178,1.0573469999999998,0.66057,-0.2209375,0.881838,0.470693,-0.2387975,0.736108,0.68022,-0.3649675,1.202678,0.456351,-0.2146974999999999,1.3604180000000001,0.6579699999999999,-0.3365575,0.7485280000000001,0.95017,-0.4161875,1.363378,0.92004,-0.4315575,0.924968,0.00483,-0.0047584999999999,1.075032,-0.00483,0.0047584999999999,0.8285279999999999,-0.1371699999999999,-0.3944375,1.239698,-0.1328999999999999,-0.3641574999999999,0.855208,-0.46684,-0.1286985,1.1661979999999998,-0.47112,-0.1113955
179,1.057773,0.662305,-0.222053,0.88208,0.471432,-0.239273,0.73603,0.679845,-0.368363,1.20256,0.456037,-0.215673,1.36074,0.656575,-0.340533,0.74897,0.949715,-0.419813,1.3632900000000001,0.917785,-0.438533,0.92518,0.004835,-0.004506,1.0748199999999999,-0.0048349999999999,0.0045059999999999,0.8240600000000001,-0.1174649999999999,-0.400213,1.24414,-0.1131149999999999,-0.369053,0.855,-0.4413049999999999,-0.129087,1.16598,-0.445585,-0.111302
180,1.058107,0.66162,-0.2224525,0.882332,0.471861,-0.2396725,0.735942,0.67901,-0.3711425,1.202332,0.457034,-0.2160825,1.361182,0.65474,-0.3436825,0.749612,0.94802,-0.4231725,1.363152,0.91181,-0.4444525,0.925412,0.0048199999999999,-0.0043484999999999,1.074588,-0.0048199999999999,0.0043485,0.819732,-0.0984899999999999,-0.4048025,1.248482,-0.09416,-0.3728125,0.854772,-0.41657,-0.1294374999999999,1.165742,-0.42085,-0.1112315
181,1.058562,0.660875,-0.2227965,0.882904,0.472216,-0.2400165,0.736144,0.676845,-0.3736265,1.2022140000000001,0.457276,-0.2164365,1.361834,0.652505,-0.3461065,0.750204,0.948565,-0.4261465,1.363594,0.907355,-0.4491365,0.925414,0.004725,-0.0042125,1.074586,-0.0047249999999999,0.0042124999999999,0.815974,-0.0812249999999999,-0.4082365,1.252864,-0.0763849999999999,-0.3755865,0.854774,-0.3932449999999999,-0.1295805,1.165734,-0.397525,-0.1110355
182,1.0587705,0.65976,-0.2230935,0.8832515000000001,0.4716,-0.2399035,0.7361715,0.67455,-0.3759435,1.2017215,0.457141,-0.2167535,1.3621915,0.65068,-0.3476635,0.7505014999999999,0.94741,-0.4295035,1.3640915,0.90875,-0.4524835,0.9254815,0.00482,-0.0041245,1.0745185,-0.0048199999999999,0.0041244999999999,0.8122715,-0.0658199999999999,-0.4105535,1.2566415,-0.0600699999999999,-0.3773935,0.8542215000000001,-0.3719699999999999,-0.1298925,1.1660915,-0.37693,-0.1113315
183,1.058725,0.6593,-0.2229685,0.883409,0.472039,-0.2393385,0.7361690000000001,0.67304,-0.3772885,1.201429,0.456839,-0.2166885,1.362369,0.65039,-0.3479985,0.750149,0.94744,-0.4325685,1.364769,0.90924,-0.4537685,0.925539,0.0049699999999999,-0.0040955,1.0744609999999999,-0.00497,0.0040955,0.809859,-0.05724,-0.4109385,1.259009,-0.05048,-0.3776885,0.8534790000000001,-0.35889,-0.1302424999999999,1.166269,-0.36427,-0.1113995
184,1.058414,0.658905,-0.2224935,0.8834120000000001,0.47257,-0.2385235,0.735942,0.672875,-0.3784035,1.201042,0.458018,-0.2166934999999999,1.3623619999999999,0.651935,-0.3484035,0.7495419999999999,0.945155,-0.4357335,1.365202,0.908905,-0.4541735,0.925482,0.004955,-0.0040504999999999,1.074518,-0.004955,0.0040504999999999,0.8080320000000001,-0.0516449999999999,-0.4113735,1.260612,-0.0442949999999999,-0.3780635,0.852612,-0.3511649999999999,-0.1306605,1.1662819999999998,-0.3566749999999999,-0.1112945
185,1.0582895,0.65873,-0.221557,0.8836335,0.4713610000000001,-0.237637,0.7359534999999999,0.6746900000000001,-0.378867,1.2008535,0.455577,-0.216167,1.3626235,0.6553900000000001,-0.348737,0.7486235,0.94118,-0.438477,1.3657935,0.91142,-0.454497,0.9252935,0.00518,-0.0040789999999999,1.0747065,-0.0051799999999999,0.0040789999999999,0.8072635,-0.0483999999999998,-0.411717,1.2617935,-0.0404899999999999,-0.378377,0.8520835,-0.3476599999999999,-0.1308409999999999,1.1669935,-0.3528999999999999,-0.111442
186,1.058189,0.65873,-0.221391,0.883941,0.4696010000000001,-0.237921,0.735651,0.6746900000000001,-0.3804909999999999,1.200481,0.455577,-0.216401,1.362871,0.6553900000000001,-0.349871,0.747391,0.94118,-0.4401609999999999,1.366141,0.91142,-0.456111,0.925301,0.00518,-0.003991,1.074699,-0.0051799999999999,0.0039909999999999,0.806211,-0.0483999999999998,-0.412661,1.261341,-0.0404899999999999,-0.379691,0.851001,-0.3483799999999999,-0.132299,1.167211,-0.3532499999999999,-0.112825
187,1.0584335,0.65873,-0.2213979999999999,0.8843385,0.4696010000000001,-0.239088,0.7351785,0.6746900000000001,-0.382678,1.2005385,0.455577,-0.2168479999999999,1.3636685,0.6553900000000001,-0.350778,0.7460085000000001,0.94118,-0.442358,1.3670585,0.91142,-0.458248,0.9253485,0.00518,-0.0040079999999999,1.0746515,-0.0051799999999999,0.004008,0.8050885,-0.0483999999999998,-0.413348,1.2602585,-0.0404899999999999,-0.380328,0.8499085,-0.3488999999999999,-0.1342249999999999,1.1673285,-0.3532499999999999,-0.114796
188,1.05864,0.65873,-0.222316,0.8845930000000001,0.4696010000000001,-0.240916,0.734853,0.6746900000000001,-0.385686,1.200483,0.455577,-0.218106,1.3641729999999999,0.6553900000000001,-0.351936,0.744373,0.94118,-0.445386,1.3683729999999998,0.91142,-0.459266,0.925333,0.00518,-0.0041479999999999,1.074667,-0.0051799999999999,0.0041479999999999,0.803783,-0.0483999999999998,-0.413536,1.258963,-0.0404899999999999,-0.381006,0.848633,-0.3493299999999999,-0.136566,1.167283,-0.3532499999999999,-0.117368
189,1.0593195,0.65911,-0.2238035,0.8852965,0.467041,-0.2431535,0.7350965,0.67506,-0.3884634999999999,1.2010565,0.4578949999999999,-0.2194535,1.3648265,0.6578299999999999,-0.3525034999999999,0.7433565,0.94665,-0.4491334999999999,1.3703265,0.91549,-0.4591134999999999,0.9253365,0.0040499999999999,-0.0043274999999999,1.0746635,-0.0040499999999999,0.0043274999999999,0.8033465,-0.04941,-0.4133035,1.2579164999999999,-0.04174,-0.3807035,0.8476465,-0.35194,-0.1396365,1.1671464999999999,-0.35581,-0.1203145
190,1.0602275,0.65808,-0.2253525,0.8860215,0.467119,-0.2457625,0.7354515000000001,0.67441,-0.3908825,1.2021015,0.457208,-0.2210625,1.3655015,0.65879,-0.3522025,0.7423315000000001,0.94774,-0.4526225,1.3723215,0.91587,-0.4579525,0.9253855,0.00458,-0.0047435,1.0746145,-0.00458,0.0047434999999999,0.8039415000000001,-0.05586,-0.4121325,1.2569515,-0.0479399999999999,-0.3798825,0.8465914999999999,-0.36146,-0.1435285,1.1668015,-0.3644499999999999,-0.1236865
191,1.0613575,0.657665,-0.226821,0.8868575,0.466012,-0.248881,0.7362275,0.672975,-0.392661,1.2034875,0.45613,-0.222491,1.3664175,0.660495,-0.351271,0.7414075,0.944075,-0.4559809999999999,1.3743975,0.916955,-0.455321,0.9255165,0.004525,-0.005207,1.0744835,-0.004525,0.005207,0.8058275,-0.065975,-0.409931,1.2545775,-0.0582449999999999,-0.378011,0.8455775,-0.376815,-0.147829,1.1661375,-0.378775,-0.12751
192,1.06223,0.661085,-0.2274205,0.8875990000000001,0.468126,-0.2512005,0.736909,0.6757350000000001,-0.3930405,1.2047889999999999,0.4576970000000001,-0.2227205,1.367549,0.6649750000000001,-0.3481205,0.739749,0.948355,-0.4562305,1.376049,0.926085,-0.4501805,0.926094,0.004455,-0.0056654999999999,1.073906,-0.0044549999999999,0.0056655,0.8082190000000001,-0.0800549999999999,-0.4072905,1.251189,-0.0724349999999999,-0.3757705,0.844509,-0.3976149999999999,-0.1520655,1.164879,-0.3983249999999999,-0.1312404999999999
193,1.0629835,0.66528,-0.2279455,0.8883355,0.4708699999999999,-0.2535455,0.7378055,0.6792499999999999,-0.3935355,1.2062455,0.461236,-0.2228955,1.3687055,0.67114,-0.3446755,0.7381154999999999,0.95075,-0.4567455,1.3778755,0.93183,-0.4454255,0.9266905,0.0041399999999999,-0.0059405,1.0733095,-0.00414,0.0059405,0.8111455000000001,-0.09509,-0.4054455,1.2468755,-0.08937,-0.3735855,0.8435055000000001,-0.42178,-0.1582095,1.1636255,-0.42107,-0.1353745
194,1.0635085,0.6665650000000001,-0.2293135,0.8888295000000002,0.467416,-0.2576334999999999,0.7384595,0.680955,-0.3945335,1.2076095,0.460365,-0.2242635,1.3698695,0.6761250000000001,-0.3421335,0.7367295,0.952775,-0.4569235,1.3801695,0.934535,-0.4406035,0.9268985,0.003655,-0.0064665,1.0731015,-0.0036549999999999,0.0064665,0.8156395000000001,-0.1155849999999999,-0.4011234999999999,1.2401095,-0.1118549999999999,-0.3689734999999999,0.8426195000000001,-0.453835,-0.1659185,1.1621695,-0.4512849999999999,-0.1409365
195,1.0631955,0.66842,-0.2293835,0.8886635,0.4682789999999999,-0.2594235,0.7387835,0.6810099999999999,-0.3945735,1.2081534999999999,0.4614229999999999,-0.2237735,1.3704035,0.6779299999999999,-0.3389434999999999,0.7352434999999999,0.951,-0.4554635,1.3821935,0.9348,-0.4352835,0.9267535,0.0034699999999999,-0.0069464999999999,1.0732465,-0.00347,0.0069465,0.8201735,-0.13552,-0.3952135,1.2331135,-0.13397,-0.3630735,0.8419135,-0.4858300000000001,-0.1721404999999999,1.1605234999999998,-0.4811500000000001,-0.1450685
196,1.0621885,0.671485,-0.22868,0.8881585,0.46806,-0.2607399999999999,0.7389985,0.680195,-0.39304,1.2081385,0.4614169999999999,-0.22315,1.3702685,0.677655,-0.33413,0.7335385,0.949345,-0.4533399999999999,1.3835685,0.934435,-0.42843,0.9266635,0.003085,-0.00731,1.0733365,-0.003085,0.0073099999999999,0.8246785,-0.1553149999999999,-0.38837,1.2256485,-0.156255,-0.3561499999999999,0.8416185,-0.517275,-0.177401,1.1590785,-0.510385,-0.15094
197,1.061283,0.672725,-0.22779,0.887824,0.468585,-0.26134,0.739124,0.681465,-0.39108,1.208194,0.463935,-0.22182,1.3704239999999999,0.681285,-0.32902,0.7323240000000001,0.955175,-0.44955,1.3844940000000001,0.933475,-0.42232,0.926593,0.002755,-0.0074499999999999,1.073407,-0.002755,0.00745,0.829484,-0.1755949999999999,-0.38003,1.217794,-0.1792749999999999,-0.34768,0.8414340000000001,-0.548455,-0.182556,1.157294,-0.540425,-0.1555869999999999
198,1.059982,0.674215,-0.225945,0.8873530000000001,0.4685749999999999,-0.261665,0.738993,0.682805,-0.388995,1.208373,0.464045,-0.220794,1.370293,0.683235,-0.324045,0.731133,0.954435,-0.446175,1.3849829999999999,0.937825,-0.416345,0.926674,0.0024549999999999,-0.0075549999999999,1.073326,-0.0024549999999999,0.007555,0.833863,-0.194965,-0.371035,1.210173,-0.2008549999999999,-0.338485,0.840963,-0.577115,-0.18714,1.155903,-0.5685849999999999,-0.159626
199,1.0585669999999998,0.6726099999999999,-0.222406,0.886668,0.47036,-0.26013,0.738678,0.68348,-0.38543,1.2080179999999998,0.46631,-0.217918,1.370468,0.68606,-0.3180199999999999,0.729668,0.9543,-0.4413499999999999,1.385298,0.93894,-0.40947,0.926688,0.00201,-0.0068799999999999,1.073312,-0.00201,0.0068799999999999,0.8375779999999999,-0.21516,-0.35887,1.2020979999999999,-0.22327,-0.32603,0.840238,-0.6063099999999999,-0.190734,1.154198,-0.5994900000000001,-0.1621389999999999
200,1.0573275,0.67403,-0.219704,0.8859995,0.47272,-0.258175,0.7381595000000001,0.68521,-0.3817549999999999,1.2074495,0.46829,-0.215562,1.3705395,0.68918,-0.312975,0.7283895,0.96118,-0.436235,1.3857295,0.93812,-0.403225,0.9266575,0.0019399999999999,-0.006465,1.0733425,-0.0019399999999999,0.0064649999999999,0.8404995,-0.23397,-0.3465249999999999,1.1948595,-0.24411,-0.313615,0.8395295,-0.63307,-0.194541,1.1522795,-0.6289,-0.164324
201,1.056179,0.671615,-0.216442,0.885177,0.474415,-0.2567,0.737797,0.6863049999999999,-0.37834,1.206677,0.467145,-0.214487,1.370167,0.691335,-0.30929,0.7268669999999999,0.961725,-0.43376,1.386297,0.932155,-0.39824,0.926359,0.001945,-0.00604,1.073641,-0.001945,0.0060399999999999,0.843137,-0.250795,-0.33403,1.187907,-0.263495,-0.30037,0.8391370000000001,-0.6569349999999999,-0.198192,1.150777,-0.6547649999999999,-0.166427
202,1.054473,0.6677299999999999,-0.212918,0.8840270000000001,0.4716599999999999,-0.25439,0.737087,0.6868099999999999,-0.37383,1.2054969999999998,0.4671,-0.21225,1.369577,0.69124,-0.30533,0.724757,0.96198,-0.43035,1.386447,0.93491,-0.39218,0.9262970000000001,0.0016999999999999,-0.0056799999999999,1.0737029999999999,-0.0017,0.0056799999999999,0.845367,-0.26985,-0.31793,1.1805169999999998,-0.28346,-0.28413,0.838577,-0.68142,-0.199683,1.1484869999999998,-0.68264,-0.167428
203,1.0523794999999998,0.66693,-0.2070179999999999,0.8828515,0.47377,-0.2489949999999999,0.7368515,0.68899,-0.3671449999999999,1.2041815,0.47157,-0.2076879999999999,1.3688715,0.69388,-0.298855,0.7231415,0.96494,-0.4251649999999999,1.3861415,0.93884,-0.385325,0.9263825,0.00113,-0.0049549999999999,1.0736175000000001,-0.0011299999999999,0.004955,0.8463215,-0.28524,-0.302625,1.1745315,-0.29904,-0.2681449999999999,0.8378215,-0.7006600000000001,-0.1985529999999999,1.1462215,-0.7044900000000001,-0.165424
204,1.0499525,0.66549,-0.2001049999999999,0.8812935000000001,0.47045,-0.244035,0.7369535,0.69213,-0.358085,1.2026235,0.4751999999999999,-0.203174,1.3676635,0.6998,-0.291765,0.7209335,0.9705,-0.4189049999999999,1.3855735,0.94569,-0.3770449999999999,0.9264305,0.0003499999999999,-0.0044749999999999,1.0735695,-0.00035,0.004475,0.8468635,-0.29888,-0.287215,1.1684135,-0.31317,-0.251475,0.8368635,-0.7176,-0.195765,1.1437635,-0.72438,-0.1629769999999999
205,1.0474135,0.66161,-0.193178,0.8794855,0.46728,-0.238705,0.7371155,0.69418,-0.349465,1.2008055,0.48069,-0.198218,1.3662155,0.70548,-0.285595,0.7184155,0.97647,-0.412175,1.3847954999999998,0.95274,-0.369445,0.9263325,-0.0003,-0.004475,1.0736675,0.0002999999999999,0.0044749999999999,0.8473555,-0.31311,-0.270805,1.1623355,-0.32744,-0.234965,0.8354555000000001,-0.73468,-0.189728,1.1411855,-0.7443,-0.158664
206,1.0450595,0.6613595,-0.186658,0.8772115,0.4633795,-0.232482,0.7356615,0.6966595,-0.34022,1.1987714999999999,0.4869995,-0.193373,1.3641714999999999,0.7116095,-0.27944,0.7156715,0.9794995,-0.40386,1.3839115,0.9606095,-0.36158,0.9263715,-0.0011034999999999,-0.00448,1.0736285,0.0011034999999999,0.0044799999999999,0.8471415,-0.3335705,-0.25455,1.1560415,-0.3451905,-0.218853,0.8336515000000001,-0.7502305,-0.183094,1.1381315,-0.7604305,-0.153847
207,1.0425464999999998,0.6669235,-0.18056,0.8744115,0.4604735,-0.225203,0.7343115,0.6983435,-0.329955,1.1964115,0.4948435,-0.187891,1.3619515,0.7170435,-0.272355,0.7127715,0.9843235,-0.395355,1.3829715,0.9594835,-0.352675,0.9262435,-0.0019104999999999,-0.004225,1.0737565,0.0019104999999999,0.004225,0.8471715000000001,-0.3529965,-0.237378,1.1492915,-0.3627765,-0.20199,0.8317114999999999,-0.7656665,-0.175676,1.1350315,-0.7755965,-0.148201
208,1.039917,0.6760965,-0.169844,0.8713790000000001,0.4557965,-0.2126279999999999,0.733039,0.7017565,-0.31426,1.193799,0.5006065,-0.177793,1.359839,0.7237465000000001,-0.25977,0.7105790000000001,0.9895065,-0.38147,1.381869,0.9633265,-0.33762,0.92607,-0.0021465,-0.00314,1.07393,0.0021465,0.00314,0.847379,-0.3681435,-0.215745,1.142719,-0.3779235,-0.180288,0.829249,-0.7788335,-0.16332,1.131949,-0.7866335,-0.136041
209,1.0371995,0.6812145,-0.154619,0.8676605,0.4615845,-0.195577,0.7316905,0.7060445,-0.294825,1.1926605000000001,0.5051945,-0.161293,1.3576005,0.7238945,-0.242605,0.7077905,0.9935945,-0.362205,1.3805705,0.9715145,-0.316905,0.9260065,-0.0021134999999999,-0.0024549999999999,1.0739935,0.0021134999999999,0.0024549999999999,0.8485805,-0.3883455,-0.187766,1.1351805,-0.3978855,-0.153083,0.8269105,-0.7977755,-0.145903,1.1286505,-0.8024055,-0.119192
210,1.0345285,0.686811,-0.140141,0.8640035,0.465221,-0.1786269999999999,0.7306235,0.708521,-0.27578,1.1913835,0.5103610000000001,-0.144546,1.3550935,0.722891,-0.2259,0.7049135,0.996751,-0.34257,1.3790635,0.979691,-0.29697,0.9258645,-0.002086,-0.00186,1.0741355,0.0020859999999999,0.00186,0.8497635,-0.408559,-0.159924,1.1276635,-0.416689,-0.127218,0.8246135,-0.815869,-0.128236,1.1253735,-0.818079,-0.102548
211,1.0326015,0.6938004999999999,-0.1256425,0.8608395,0.4727705,-0.1621044999999999,0.7301095,0.7118804999999999,-0.2562744999999999,1.1907595,0.5127505,-0.1286265,1.3530395,0.7236205,-0.2088045,0.7026895,1.0018405,-0.3218945,1.3779495,0.9811105,-0.2770145,0.9253195,-0.0016635,-0.0014055,1.0746805,0.0016635,0.0014055,0.8516295,-0.4267495,-0.1341515,1.1211795,-0.4320195,-0.1044105,0.8226895000000001,-0.8307095,-0.1115785,1.1218995,-0.8300295000000001,-0.0862035
212,1.0308335,0.700804,-0.1116815,0.8581955,0.481854,-0.1457665,0.7294155,0.715974,-0.2371125,1.1904855,0.515004,-0.1127944999999999,1.3511355,0.7229340000000001,-0.1923325,0.7004455,1.006834,-0.3012025,1.3769955,0.983564,-0.2569225,0.9249685,-0.0007649999999999,-0.0007344999999999,1.0750315,0.000765,0.0007344999999999,0.8536055000000001,-0.444426,-0.1092195,1.1156855,-0.4463359999999999,-0.0836515,0.8212155,-0.8438359999999999,-0.0948165,1.1186455,-0.841546,-0.0707105
213,1.029798,0.708368,-0.0980315,0.855626,0.492098,-0.1280015,0.728656,0.720498,-0.2189975,1.190386,0.516448,-0.0974745,1.3495759999999999,0.721288,-0.1762785,0.698366,1.012328,-0.2799275,1.376106,0.978228,-0.2375275,0.924804,-9.599999999999886e-05,-0.0002265,1.075196,9.600000000000232e-05,0.0002265,0.855396,-0.460752,-0.0859855,1.110906,-0.458772,-0.0645565,0.820286,-0.855242,-0.0792425,1.1156359999999999,-0.851372,-0.0556245
214,1.0293335,0.7164675,-0.085013,0.8537305,0.5028675,-0.110347,0.7282405000000001,0.7255275,-0.201305,1.1907805,0.5158874999999999,-0.0827089999999999,1.3487005,0.7195874999999999,-0.160418,0.6974104999999999,1.0190575,-0.258835,1.3757505,0.9739575,-0.2181449999999999,0.9246405,0.0007094999999999,-1.0999999999997123e-05,1.0753595,-0.0007095,1.0999999999997123e-05,0.8570805000000001,-0.4770725,-0.065028,1.1068605,-0.4714025,-0.046886,0.8195405,-0.8657025,-0.06469,1.1135605,-0.8599825,-0.042032
215,1.0293795,0.7225215,-0.0708485,0.8520705,0.5143914999999999,-0.0931605,0.7277705000000001,0.7295415000000001,-0.1838585,1.1921804999999999,0.5150014999999999,-0.0664635,1.3482505,0.7153915,-0.1444174999999999,0.6968505,1.0216415,-0.2402685,1.3764405,0.9702415,-0.1993185,0.9245655,0.0015374999999999,0.0003905,1.0754345,-0.0015375,-0.0003904999999999,0.8586705,-0.4928785,-0.0458974999999999,1.1036805,-0.4845485,-0.0306514999999999,0.8189405,-0.8755085,-0.0505194999999999,1.1116605,-0.8684985000000001,-0.0287564999999999
216,1.029639,0.7230295,-0.057106,0.850657,0.5256595,-0.077191,0.727237,0.7329995,-0.167435,1.193817,0.5136895,-0.051097,1.348107,0.7120295,-0.129525,0.696747,1.0238095,-0.221485,1.377657,0.9672095,-0.182665,0.924732,0.0023304999999999,0.00071,1.075268,-0.0023304999999999,-0.00071,0.859797,-0.5087805000000001,-0.02896,1.101227,-0.4973305,-0.016692,0.818447,-0.8851905,-0.037499,1.109997,-0.8764305,-0.016641
217,1.0299364999999998,0.722939,-0.0485185,0.8492955,0.536879,-0.0665975,0.7265455000000001,0.736119,-0.1565895,1.1956155,0.512289,-0.0405485,1.3482055,0.706819,-0.1204145,0.6967855000000001,1.0239390000000002,-0.2083995,1.3789455,0.971039,-0.1720595,0.9248775,0.0028229999999999,0.0006784999999999,1.0751225,-0.002823,-0.0006784999999999,0.8606755,-0.523551,-0.0187665,1.0993255,-0.509461,-0.0101605,0.8179155000000001,-0.893561,-0.0304465,1.1085055,-0.8840210000000001,-0.0110025
218,1.0301045,0.723558,-0.0435234999999999,0.8481195,0.537648,-0.0599295,0.7255595,0.737548,-0.1492485,1.1961095,0.512918,-0.0356465,1.3486194999999999,0.707248,-0.1152455,0.6970895000000001,1.023778,-0.1998384999999999,1.3804695,0.971178,-0.1670485,0.9248475,0.0027389999999999,0.0008765,1.0751525,-0.0027389999999999,-0.0008764999999999,0.8605995000000001,-0.523712,-0.0160394999999999,1.0982395,-0.509622,-0.0083994999999999,0.8170094999999999,-0.894352,-0.0282584999999999,1.1072495,-0.884212,-0.0092054999999999
219,1.0306385,0.723986,-0.039053,0.8475005,0.538436,-0.053193,0.7247105,0.7382259999999999,-0.1420529999999999,1.1971205,0.513496,-0.0306999999999999,1.3495804999999998,0.707226,-0.11025,0.6978805,1.023616,-0.1915029999999999,1.3823105,0.971316,-0.162223,0.9244965,0.00266,0.001144,1.0755035,-0.0026599999999999,-0.0011439999999999,0.8607505,-0.523914,-0.0135679999999999,1.0974905,-0.509794,-0.0066939999999999,0.8164105,-0.894754,-0.0262939999999999,1.1063304999999999,-0.884324,-0.0075019999999999
220,1.031687,0.724149,-0.0347085,0.847571,0.539329,-0.0465185,0.724301,0.738339,-0.1356575,1.198571,0.513989,-0.0259325,1.351121,0.707149,-0.1058655,0.698841,1.024339,-0.1843795,1.384341,0.971439,-0.1580895,0.92419,0.0026539999999999,0.0012714999999999,1.07581,-0.002654,-0.0012715,0.861211,-0.524041,-0.0118065,1.097161,-0.509871,-0.0052005,0.816281,-0.894831,-0.0246995,1.105791,-0.884131,-0.0058105
221,1.032127,0.7242315,-0.0307379999999999,0.8477,0.5401915,-0.0404239999999999,0.72426,0.7384115,-0.130004,1.19943,0.5143515,-0.02157,1.35221,0.7070815,-0.10213,0.6988300000000001,1.0231715,-0.178413,1.3864,0.9645715,-0.155293,0.9243540000000001,0.0026375,0.001252,1.0756459999999999,-0.0026375,-0.0012519999999999,0.8609100000000001,-0.5239484999999999,-0.0105749999999999,1.0965,-0.5096485,-0.0057819999999999,0.81531,-0.8948985,-0.0235769999999999,1.1046699999999998,-0.8841985,-0.0048739999999999
222,1.032551,0.7242230000000001,-0.0274834999999999,0.8477610000000001,0.540663,-0.0362274999999999,0.724021,0.738463,-0.1255015,1.200361,0.514363,-0.0175544999999999,1.3535009999999998,0.707003,-0.0993005,0.698341,1.020493,-0.1755135,1.388511,0.963893,-0.1542735,0.92447,0.00264,0.0012945,1.07553,-0.0026399999999999,-0.0012944999999999,0.860591,-0.524127,-0.0095474999999999,1.095771,-0.509277,-0.0061324999999999,0.8144310000000001,-0.894977,-0.0224665,1.103531,-0.884257,-0.0040854999999999
