sb224sc-HT22-VT27/4dt907/src/data/kinect_good_preprocessed_A9_mediapipe/A159_kinect_mirrored.csv
FrameNo,nose_3d_x,nose_3d_y,nose_3d_z,left_shoulder_3d_x,left_shoulder_3d_y,left_shoulder_3d_z,left_elbow_3d_x,left_elbow_3d_y,left_elbow_3d_z,right_shoulder_3d_x,right_shoulder_3d_y,right_shoulder_3d_z,right_elbow_3d_x,right_elbow_3d_y,right_elbow_3d_z,left_wrist_3d_x,left_wrist_3d_y,left_wrist_3d_z,right_wrist_3d_x,right_wrist_3d_y,right_wrist_3d_z,left_hip_3d_x,left_hip_3d_y,left_hip_3d_z,right_hip_3d_x,right_hip_3d_y,right_hip_3d_z,left_knee_3d_x,left_knee_3d_y,left_knee_3d_z,right_knee_3d_x,right_knee_3d_y,right_knee_3d_z,left_ankle_3d_x,left_ankle_3d_y,left_ankle_3d_z,right_ankle_3d_x,right_ankle_3d_y,right_ankle_3d_z
47,1.027872,0.726657,-0.0151674999999999,0.8368,0.529167,-0.0422165,0.7141299999999999,0.762207,-0.1129245,1.19255,0.523767,-0.0165645,1.34198,0.742127,-0.0672565,0.6815599999999999,1.022007,-0.1492445,1.38312,1.001507,-0.1105245,0.922637,0.0023639999999999,0.0002804999999999,1.077363,-0.0023639999999999,-0.0002804999999999,0.8513200000000001,-0.495743,0.0421765,1.11756,-0.483763,0.0412085,0.8012500000000001,-0.884663,0.0741615,1.15171,-0.880123,0.0694875
48,1.0284275,0.726657,-0.0167219999999999,0.8374055,0.529167,-0.043376,0.7149355,0.762087,-0.114015,1.1928455,0.523767,-0.0176549999999999,1.3420055,0.742027,-0.06842,0.6831555,1.022007,-0.150335,1.3824955,1.005007,-0.1129449999999999,0.9225485,0.0023639999999999,0.000158,1.0774515,-0.0023639999999999,-0.0001579999999999,0.8517055,-0.495543,0.039353,1.1181555,-0.483603,0.039865,0.8016655,-0.885733,0.072717,1.1522955,-0.880273,0.068292
49,1.029322,0.725743,-0.0202725,0.838469,0.529043,-0.0459315,0.715909,0.760773,-0.1162105,1.193479,0.523663,-0.0200414999999999,1.342159,0.740883,-0.0718405,0.685189,1.0216729999999998,-0.1525305,1.381909,1.005273,-0.1179704999999999,0.922428,0.0025239999999999,-0.0002174999999999,1.077572,-0.002524,0.0002174999999999,0.8519289999999999,-0.494987,0.0318155,1.119149,-0.483167,0.0351724999999999,0.802369,-0.886697,0.0695955,1.153289,-0.880277,0.0657145
50,1.030566,0.724388,-0.025431,0.839851,0.528788,-0.049797,0.717151,0.7587079999999999,-0.119421,1.194371,0.522438,-0.023702,1.342571,0.739658,-0.076958,0.6875910000000001,1.0218580000000002,-0.155671,1.3817709999999999,1.006458,-0.124451,0.922292,0.002713,-0.000767,1.0777079999999999,-0.002713,0.000767,0.852191,-0.493632,0.022011,1.120831,-0.481542,0.028441,0.8032710000000001,-0.886792,0.065304,1.154711,-0.879182,0.061888
51,1.032079,0.7222895,-0.0311884999999999,0.8417749999999999,0.5265195,-0.0551495,0.718665,0.7564195,-0.1239545,1.195405,0.5209695,-0.0280545,1.3430849999999999,0.7381295,-0.0833945,0.6903350000000001,1.0227695,-0.1599845,1.381785,1.0087695,-0.1320645,0.922083,0.0027984999999999,-0.0012975,1.077917,-0.0027985,0.0012975,0.852135,-0.4907605,0.0100985,1.123135,-0.4785304999999999,0.0199895,0.8043549999999999,-0.8856105,0.0601565,1.156435,-0.8768705,0.0572214999999999
52,1.0336205,0.718542,-0.038312,0.8437335,0.524112,-0.061384,0.7202635,0.753522,-0.130107,1.1965135,0.5201020000000001,-0.03305,1.3436935,0.736012,-0.091207,0.6932635,1.024392,-0.165847,1.3817635,1.008392,-0.141087,0.9219155,0.0028189999999999,-0.001954,1.0780845000000001,-0.002819,0.0019539999999999,0.8518935,-0.486408,-0.003198,1.1261735,-0.474848,0.0098769999999999,0.8055535,-0.8835679999999999,0.054039,1.1583435,-0.873748,0.051806
53,1.0355065,0.71423,-0.04632,0.8458145,0.5212800000000001,-0.069102,0.7222445,0.7495700000000001,-0.138011,1.1979945,0.51719,-0.038943,1.3448145,0.73279,-0.100421,0.6967945,1.02515,-0.173011,1.3816845,1.00815,-0.151241,0.9217575,0.003001,-0.002876,1.0782425,-0.003001,0.002876,0.8519145,-0.47974,-0.0179509999999999,1.1302845,-0.4695999999999999,-0.001982,0.8072045,-0.87954,0.047042,1.1608645,-0.86857,0.0452959999999999
54,1.037412,0.7093965,-0.0555245,0.847924,0.5177865,-0.0776304999999999,0.724194,0.7438065,-0.1472915,1.1994340000000001,0.5147365,-0.0455985,1.3459839999999998,0.7299665000000001,-0.1105815,0.700414,1.0241665,-0.1810315,1.381304,1.0087665,-0.1623115,0.921582,0.0031665,-0.0037605,1.078418,-0.0031664999999999,0.0037605,0.851674,-0.4730235,-0.0338915,1.134744,-0.4628835,-0.0150845,0.808844,-0.8739935,0.0394415,1.163474,-0.8621435,0.0380944999999999
55,1.039235,0.703996,-0.0655835,0.850132,0.5142559999999999,-0.0873725,0.726022,0.7387159999999999,-0.1579265,1.200802,0.5112059999999999,-0.0538155,1.347042,0.725656,-0.1220265,0.704072,1.019916,-0.1927965,1.380572,1.003616,-0.1765965,0.9214940000000001,0.0032949999999999,-0.0046535,1.078506,-0.0032949999999999,0.0046535,0.851372,-0.464074,-0.0508795,1.139692,-0.453944,-0.0294895,0.810512,-0.866274,0.0307765,1.1662819999999998,-0.853534,0.0297184999999999
56,1.0408435,0.6974935,-0.0769785,0.8521645000000001,0.5100335,-0.0975465,0.7273244999999999,0.7316235,-0.1697275,1.2020845,0.5070235000000001,-0.0626915,1.3480145000000001,0.7208335,-0.1338375,0.7076145,1.0168035,-0.2049875,1.3795945,1.0000034999999998,-0.1908575,0.9216035,0.0033615,-0.0053865,1.0783965,-0.0033615,0.0053864999999999,0.8505545000000001,-0.4532265,-0.0683755,1.1453645,-0.4431665,-0.0448345,0.8121245,-0.8563164999999999,0.0219105,1.1693045,-0.8430265,0.0207774999999999
57,1.042398,0.6900625,-0.088795,0.8546740000000002,0.5050224999999999,-0.108276,0.728464,0.7245325,-0.182493,1.203144,0.5020325,-0.072023,1.348904,0.7159225,-0.146353,0.710994,1.0143225,-0.217863,1.378294,0.9972125,-0.205733,0.921652,0.0033525,-0.006059,1.078348,-0.0033524999999999,0.0060589999999999,0.849064,-0.4402775,-0.085861,1.151924,-0.4318575,-0.061036,0.813774,-0.8439274999999999,0.0117479999999999,1.172584,-0.8301975,0.0107529999999999
58,1.043495,0.683191,-0.099787,0.856801,0.499431,-0.118226,0.729211,0.716251,-0.194688,1.2037309999999999,0.497081,-0.080657,1.349531,0.710851,-0.1578979999999999,0.7138610000000001,1.009781,-0.229728,1.376371,0.995721,-0.219238,0.921759,0.0032479999999999,-0.006541,1.078241,-0.003248,0.0065409999999999,0.846981,-0.426119,-0.100688,1.158671,-0.419109,-0.07501,0.8150310000000001,-0.829879,0.002789,1.175681,-0.815909,0.001062
59,1.0443555,0.6760280000000001,-0.1139365,0.8587275,0.494568,-0.1314585,0.7294275,0.709508,-0.2104805,1.2040574999999998,0.492838,-0.0929825,1.3499175,0.704808,-0.1730305,0.7165675,1.002268,-0.2459505,1.3738375,0.988688,-0.2374805,0.9217725,0.00297,-0.0068185,1.0782275000000001,-0.00297,0.0068184999999999,0.8447975,-0.4110419999999999,-0.1182095,1.1652775,-0.405412,-0.0928355,0.8159075,-0.815292,-0.0096305,1.1785275,-0.800152,-0.0120215
60,1.0447255,0.672387,-0.132503,0.8603864999999999,0.488717,-0.148523,0.7290765,0.703197,-0.230231,1.2034465,0.488517,-0.110188,1.3500165,0.702947,-0.1923409999999999,0.7182664999999999,0.994607,-0.266511,1.3711565000000001,0.984437,-0.259661,0.9218815,0.002515,-0.0073189999999999,1.0781185,-0.002515,0.0073189999999999,0.8414765000000001,-0.392343,-0.144151,1.1732365,-0.388493,-0.117657,0.8154865,-0.796713,-0.032084,1.1810865,-0.780223,-0.028858
61,1.045092,0.6688305000000001,-0.1502885,0.8620550000000001,0.4842605,-0.1648675,0.728905,0.6979705,-0.2490775,1.202905,0.4846805,-0.1269964999999999,1.349395,0.6987205000000001,-0.2119875,0.719955,0.9867905,-0.2865074999999999,1.368005,0.9785905,-0.2826675,0.921947,0.0019315,-0.0077054999999999,1.078053,-0.0019315,0.0077055,0.838035,-0.3734495,-0.1695775,1.181005,-0.3708495,-0.1419085,0.814895,-0.7777594999999999,-0.0540185,1.183555,-0.7593295,-0.0453024999999999
62,1.045471,0.664235,-0.1693075,0.863612,0.479745,-0.1806295,0.728692,0.696595,-0.2692195,1.202392,0.481095,-0.1440095,1.3487619999999998,0.695125,-0.2328095,0.722032,0.980605,-0.3063395,1.3641619999999999,0.969365,-0.3073295,0.922187,0.0017149999999999,-0.0076154999999999,1.077813,-0.0017149999999999,0.0076154999999999,0.8339120000000001,-0.353445,-0.1950195,1.189042,-0.352195,-0.1670355,0.814032,-0.7580250000000001,-0.0754595,1.1858819999999999,-0.736865,-0.0611694999999999
63,1.047014,0.66227,-0.187422,0.865959,0.47444,-0.196502,0.7296290000000001,0.6933,-0.288952,1.202659,0.47646,-0.1616179999999999,1.349099,0.69051,-0.254102,0.725159,0.97075,-0.328802,1.361829,0.95901,-0.332372,0.923158,0.0016599999999999,-0.0074639999999999,1.076842,-0.0016599999999999,0.0074639999999999,0.830199,-0.33128,-0.221742,1.1991589999999999,-0.3307099999999999,-0.192862,0.814049,-0.73549,-0.097271,1.189419,-0.71084,-0.076608
64,1.048584,0.65839,-0.204922,0.868128,0.46906,-0.211432,0.730478,0.68825,-0.307852,1.2028780000000001,0.47189,-0.1779939999999999,1.349348,0.68574,-0.274672,0.728468,0.96444,-0.348152,1.359618,0.95453,-0.354772,0.9240079999999999,0.00167,-0.007258,1.075992,-0.00167,0.007258,0.826148,-0.31132,-0.247502,1.208828,-0.31091,-0.217762,0.814258,-0.7144499999999999,-0.11635,1.192728,-0.6868299999999999,-0.090989
65,1.0501835,0.652655,-0.221065,0.8701085,0.464815,-0.2263049999999999,0.7316185,0.6851849999999999,-0.326655,1.2029185,0.467225,-0.193874,1.3496785,0.681465,-0.295825,0.7317785,0.956895,-0.3683649999999999,1.3575485,0.948325,-0.3794649999999999,0.9246624999999999,0.0018749999999999,-0.0070549999999999,1.0753375,-0.001875,0.007055,0.8215785000000001,-0.291715,-0.273275,1.2183885,-0.290465,-0.242375,0.8141285,-0.6926749999999999,-0.1351379999999999,1.1957685,-0.6625350000000001,-0.1048259999999999
66,1.0522,0.648575,-0.23743,0.872519,0.460635,-0.24084,0.7332890000000001,0.681435,-0.3449,1.203449,0.464075,-0.209467,1.350389,0.6772849999999999,-0.3166299999999999,0.735339,0.947725,-0.38911,1.356139,0.941725,-0.40358,0.9253750000000001,0.0020449999999999,-0.00698,1.074625,-0.002045,0.0069799999999999,0.8174590000000002,-0.271305,-0.2981,1.2279390000000001,-0.268705,-0.2657899999999999,0.816189,-0.669135,-0.147486,1.199039,-0.638355,-0.117318
67,1.0543375,0.64576,-0.2538249999999999,0.8749545,0.45744,-0.2551449999999999,0.7350045000000001,0.6798200000000001,-0.363195,1.2040745,0.46007,-0.225321,1.3512945,0.6733800000000001,-0.337485,0.7406145,0.94078,-0.4093949999999999,1.3555645,0.93599,-0.428165,0.9261115,0.00224,-0.0067649999999999,1.0738885,-0.0022399999999999,0.0067649999999999,0.8138545,-0.25056,-0.321455,1.2373645,-0.24655,-0.2886149999999999,0.8184345,-0.6449400000000001,-0.1594819999999999,1.2021945,-0.61375,-0.1288389999999999
68,1.056415,0.642815,-0.266685,0.877669,0.456285,-0.265185,0.7366790000000001,0.676695,-0.378255,1.204159,0.455295,-0.237075,1.352499,0.669645,-0.355415,0.7440990000000001,0.939515,-0.425265,1.355469,0.930845,-0.449435,0.926944,0.003255,-0.0067649999999999,1.073056,-0.0032549999999999,0.0067649999999999,0.809439,-0.2283649999999999,-0.341375,1.247469,-0.2232849999999999,-0.306875,0.820819,-0.6179049999999999,-0.167136,1.205309,-0.5878249999999999,-0.135702
69,1.0588215,0.637655,-0.27481,0.8804835,0.4540349999999999,-0.27091,0.7387635,0.6725749999999999,-0.38945,1.2050035000000001,0.451325,-0.24345,1.3543135,0.661055,-0.36801,0.7480534999999999,0.938045,-0.43695,1.3555234999999999,0.919325,-0.46648,0.9276435000000001,0.003605,-0.0065699999999999,1.0723565,-0.003605,0.0065699999999999,0.8060235,-0.2092049999999999,-0.3517099999999999,1.2556835,-0.2021649999999999,-0.31692,0.8236835,-0.593315,-0.168174,1.2085635,-0.564615,-0.137935
70,1.0612044999999999,0.63259,-0.28196,0.8831885,0.45202,-0.27629,0.7407185000000001,0.66757,-0.40047,1.2056085,0.4470700000000001,-0.24934,1.3569585,0.65567,-0.37907,0.7517685000000001,0.92989,-0.44999,1.3561085,0.90527,-0.48194,0.9283585,0.00436,-0.0064899999999999,1.0716415,-0.0043599999999999,0.0064899999999999,0.8027885,-0.18921,-0.36124,1.2633985,-0.1802999999999999,-0.3258,0.8263485,-0.56746,-0.168663,1.2117085,-0.5404899999999999,-0.139478
71,1.06308,0.630725,-0.287935,0.885518,0.4491549999999999,-0.281145,0.742218,0.658555,-0.4093249999999999,1.205738,0.445578,-0.254245,1.358438,0.6511149999999999,-0.388305,0.754488,0.916085,-0.4643349999999999,1.357618,0.8972049999999999,-0.4943149999999999,0.928858,0.0041649999999999,-0.006495,1.071142,-0.004165,0.006495,0.799938,-0.171215,-0.369955,1.269698,-0.160075,-0.332495,0.8284279999999999,-0.542525,-0.168875,1.214438,-0.517615,-0.1408569999999999
72,1.0636205,0.625435,-0.2938199999999999,0.8857155,0.448297,-0.28496,0.7425255,0.653805,-0.4178,1.2047455,0.441415,-0.2577,1.3588355,0.645275,-0.39615,0.7581355,0.909285,-0.47523,1.3578055,0.890735,-0.50532,0.9285355,0.004305,-0.0062699999999999,1.0714645,-0.004305,0.00627,0.7967355,-0.155525,-0.37638,1.2735055,-0.1429249999999999,-0.3377099999999999,0.8297654999999999,-0.520855,-0.164905,1.2158655,-0.497835,-0.141614
73,1.064127,0.62304,-0.29982,0.88584,0.447817,-0.2890899999999999,0.74297,0.65097,-0.42715,1.20381,0.440382,-0.26119,1.35934,0.64255,-0.40391,0.76088,0.90473,-0.4861,1.35815,0.88513,-0.51636,0.92822,0.00406,-0.0062,1.07178,-0.00406,0.0062,0.79382,-0.1386199999999999,-0.38363,1.27736,-0.1240299999999999,-0.3433,0.83151,-0.49743,-0.160563,1.21738,-0.47572,-0.142269
74,1.0643939999999998,0.6236900000000001,-0.30595,0.8855729999999999,0.446789,-0.29237,0.742993,0.64595,-0.4356299999999999,1.2027729999999999,0.440045,-0.26429,1.359633,0.6376200000000001,-0.41025,0.762073,0.89808,-0.49794,1.358123,0.88133,-0.5258,0.927933,0.00376,-0.00611,1.0720669999999999,-0.0037599999999999,0.00611,0.791853,-0.1204699999999999,-0.39014,1.280243,-0.1033499999999999,-0.34851,0.8333630000000001,-0.4726599999999999,-0.155617,1.218563,-0.4521699999999999,-0.142534
75,1.0639585,0.6234299999999999,-0.310525,0.8846875,0.446463,-0.294585,0.7423075,0.64161,-0.443195,1.2011775,0.4384849999999999,-0.266465,1.3593175,0.63274,-0.415115,0.7631275,0.89144,-0.508025,1.3572975,0.8772,-0.5345850000000001,0.9278475,0.0036399999999999,-0.006245,1.0721525,-0.00364,0.006245,0.7900175,-0.10219,-0.395455,1.2820675000000001,-0.0829699999999999,-0.352975,0.8350775,-0.447,-0.148916,1.2190175,-0.42877,-0.142062
76,1.0633405,0.62142,-0.31388,0.8837275,0.4471699999999999,-0.29603,0.7414675,0.63659,-0.44973,1.1993775,0.437679,-0.26765,1.3588075,0.6276999999999999,-0.4189,0.7639275,0.88327,-0.51786,1.3564775,0.87161,-0.54252,0.9278375,0.00395,-0.0061499999999999,1.0721625,-0.00395,0.00615,0.7885575,-0.08558,-0.40027,1.2833475,-0.06419,-0.35719,0.8366875,-0.42309,-0.14323,1.2193675,-0.40673,-0.141293
77,1.062587,0.62079,-0.316175,0.8829170000000001,0.443221,-0.2973949999999999,0.740707,0.63234,-0.454515,1.197487,0.435895,-0.2684649999999999,1.358287,0.62358,-0.420865,0.763937,0.87034,-0.526825,1.3558270000000001,0.86581,-0.548055,0.927837,0.0031999999999999,-0.005995,1.072163,-0.0032,0.005995,0.788007,-0.07013,-0.403895,1.283457,-0.04639,-0.3603849999999999,0.838057,-0.40082,-0.137957,1.219647,-0.38603,-0.1406639999999999
78,1.061238,0.618725,-0.31799,0.881979,0.4437479999999999,-0.29753,0.7394890000000001,0.6288649999999999,-0.45797,1.1953889999999998,0.4344929999999999,-0.26883,1.357509,0.6197349999999999,-0.42309,0.7635390000000001,0.8581549999999999,-0.5344,1.354539,0.8615949999999999,-0.55339,0.927439,0.0033449999999999,-0.00569,1.072561,-0.003345,0.00569,0.7876190000000001,-0.054955,-0.40645,1.2831890000000001,-0.0295250000000001,-0.36339,0.838049,-0.3789150000000001,-0.135874,1.219519,-0.366095,-0.139809
79,1.0596175,0.6176809999999999,-0.32015,0.8809565,0.4427719999999999,-0.29779,0.7379365,0.6256729999999999,-0.46115,1.1932365,0.4320399999999999,-0.26948,1.3569365,0.615335,-0.42549,0.7609465,0.8526399999999998,-0.5402,1.3537565,0.8592799999999999,-0.55933,0.9268765,0.0032799999999999,-0.00537,1.0731235,-0.00328,0.0053699999999999,0.7870365,-0.04117,-0.40835,1.2827564999999999,-0.0145400000000001,-0.36622,0.8377265,-0.3595800000000001,-0.134137,1.2190965,-0.3480900000000001,-0.139209
80,1.05781,0.615012,-0.321665,0.8800620000000001,0.44269,-0.298155,0.736352,0.6221150000000001,-0.464185,1.191032,0.42803,-0.270515,1.356072,0.611426,-0.428035,0.7584820000000001,0.85395,-0.544575,1.352492,0.85453,-0.566895,0.926362,0.00356,-0.005335,1.073638,-0.0035599999999998,0.0053349999999999,0.786272,-0.0286599999999999,-0.409545,1.282062,-0.0020999999999999,-0.368835,0.837072,-0.34231,-0.133207,1.218422,-0.3329599999999999,-0.139174
81,1.056207,0.613759,-0.322745,0.8793480000000001,0.442375,-0.2986649999999999,0.735178,0.617311,-0.466575,1.189228,0.427135,-0.271625,1.355368,0.609402,-0.430585,0.7563780000000001,0.852195,-0.5495650000000001,1.351328,0.849735,-0.573955,0.925778,0.003665,-0.0054349999999999,1.074222,-0.003665,0.0054349999999999,0.785728,-0.0192249999999999,-0.409755,1.2813780000000001,0.007305,-0.370635,0.836118,-0.330515,-0.132734,1.217728,-0.3214749999999999,-0.139274
82,1.054368,0.612454,-0.323105,0.8781410000000001,0.44153,-0.298775,0.7339710000000002,0.613198,-0.467375,1.1871909999999999,0.42328,-0.2723649999999999,1.3541210000000001,0.606919,-0.432255,0.754121,0.84773,-0.554385,1.350031,0.84536,-0.580675,0.9253210000000001,0.00424,-0.0054349999999999,1.074679,-0.00424,0.0054349999999999,0.784871,-0.0126399999999999,-0.409755,1.280311,0.01341,-0.371455,0.834571,-0.3221699999999999,-0.132485,1.216561,-0.3138999999999999,-0.139176
83,1.052759,0.611785,-0.323195,0.87677,0.4415449999999999,-0.298895,0.7326000000000001,0.611768,-0.467465,1.18582,0.422915,-0.272725,1.35275,0.606934,-0.432535,0.7526300000000001,0.843755,-0.555555,1.34809,0.844955,-0.582675,0.925,0.004255,-0.005345,1.075,-0.004255,0.0053449999999999,0.7838700000000001,-0.0132349999999999,-0.409845,1.27911,0.011885,-0.371545,0.83298,-0.3230349999999999,-0.131778,1.21522,-0.315075,-0.138845
84,1.0512865,0.611785,-0.323735,0.8754275,0.4415449999999999,-0.299435,0.7311375,0.611768,-0.468005,1.1843474999999999,0.422915,-0.273265,1.3512775000000001,0.606934,-0.433075,0.7517275,0.843755,-0.556095,1.3465275,0.844955,-0.583795,0.9248675000000001,0.004255,-0.004885,1.0751324999999998,-0.004255,0.004885,0.7831475,-0.0132349999999999,-0.410385,1.2778275,0.0115849999999999,-0.372085,0.8312975,-0.323625,-0.131759,1.2137475,-0.315605,-0.1392189999999999
85,1.049845,0.611785,-0.3248,0.8744060000000001,0.4415449999999999,-0.3004,0.730036,0.611768,-0.46907,1.182906,0.422915,-0.2743299999999999,1.349836,0.606934,-0.43414,0.750576,0.843755,-0.55716,1.345086,0.844955,-0.5848599999999999,0.9250659999999999,0.004255,-0.0045399999999999,1.074934,-0.004255,0.0045399999999999,0.782626,-0.0132349999999999,-0.41003,1.2765559999999998,0.0115849999999999,-0.37315,0.829736,-0.324015,-0.132084,1.2123059999999999,-0.315755,-0.140194
86,1.048427,0.6117300000000001,-0.32506,0.874359,0.4415500000000001,-0.3015,0.728959,0.6117130000000001,-0.4696,1.181799,0.42286,-0.27552,1.348749,0.607369,-0.43535,0.749369,0.8471300000000002,-0.55787,1.3437389999999998,0.8449000000000001,-0.58607,0.925369,0.00431,-0.0044299999999999,1.0746310000000001,-0.0043099999999999,0.00443,0.781839,-0.0132899999999999,-0.40904,1.275319,0.01153,-0.3733499999999999,0.8284190000000001,-0.3240699999999999,-0.13296,1.210909,-0.3158299999999999,-0.141313
87,1.04747,0.6133890000000001,-0.324905,0.874556,0.4420900000000001,-0.302915,0.728416,0.612754,-0.4695749999999999,1.1813259999999999,0.42439,-0.277145,1.348986,0.608642,-0.436685,0.747896,0.8490900000000001,-0.5586450000000001,1.343176,0.8434300000000001,-0.587695,0.925636,0.00417,-0.0042049999999999,1.074364,-0.0041699999999998,0.004205,0.781416,-0.0157499999999999,-0.408315,1.274186,0.00807,-0.373735,0.8273960000000001,-0.32753,-0.134534,1.209926,-0.3192899999999999,-0.1429379999999999
88,1.0471025,0.6168039999999999,-0.324625,0.8750875,0.4432649999999999,-0.304525,0.7284275,0.617181,-0.469625,1.1816375,0.4265949999999999,-0.278765,1.3495675,0.614413,-0.437145,0.7469675,0.854505,-0.559195,1.3430175,0.8446849999999999,-0.5871649999999999,0.9260835000000001,0.0036249999999999,-0.004175,1.0739165,-0.0036250000000001,0.0041749999999999,0.7811975,-0.019195,-0.407845,1.2732375,0.0028149999999999,-0.373955,0.8265575000000001,-0.3337850000000001,-0.136674,1.2091574999999999,-0.3255450000000001,-0.145049
89,1.04722,0.6210230000000001,-0.3238,0.875908,0.44692,-0.30587,0.729128,0.620816,-0.4688099999999999,1.183418,0.4331400000000001,-0.27952,1.350528,0.6215790000000001,-0.4368499999999999,0.746758,0.85989,-0.55888,1.343118,0.8496900000000001,-0.58519,0.926494,0.0032699999999999,-0.0042899999999999,1.073506,-0.0032699999999999,0.00429,0.7810980000000001,-0.02598,-0.40725,1.2724579999999999,-0.0061199999999999,-0.374,0.8258179999999999,-0.3443499999999999,-0.1388889999999999,1.208388,-0.33629,-0.147135
90,1.048175,0.620521,-0.322835,0.877044,0.445455,-0.307315,0.730364,0.623266,-0.467545,1.185764,0.43343,-0.280445,1.351834,0.624195,-0.435685,0.7463240000000001,0.8622000000000001,-0.556425,1.343594,0.8561300000000001,-0.580625,0.9270309999999999,0.00307,-0.0045349999999999,1.072969,-0.00307,0.004535,0.781094,-0.0414099999999999,-0.404635,1.271694,-0.0233799999999999,-0.3717749999999999,0.8249839999999999,-0.3647699999999999,-0.141814,1.207854,-0.35609,-0.149588
91,1.04951,0.6228950000000001,-0.3205599999999999,0.878251,0.44539,-0.30782,0.731921,0.628355,-0.46537,1.188221,0.4351590000000001,-0.2804299999999999,1.353431,0.629955,-0.43273,0.746541,0.8675550000000001,-0.55225,1.344311,0.8650150000000001,-0.57384,0.927535,0.002985,-0.0045899999999999,1.072465,-0.0029849999999999,0.00459,0.780671,-0.0575149999999999,-0.40182,1.270731,-0.0412949999999999,-0.36904,0.824181,-0.3861849999999999,-0.144242,1.207351,-0.3773449999999999,-0.151445
92,1.0518635,0.62552,-0.317965,0.8798625,0.446001,-0.307555,0.7339225,0.63195,-0.462095,1.1911725,0.4374639999999999,-0.279635,1.3549324999999999,0.63461,-0.4282749999999999,0.7482025,0.86808,-0.547005,1.3458325,0.87364,-0.563995,0.9275355,0.0030899999999999,-0.004885,1.0724645,-0.00309,0.004885,0.7815125,-0.0761899999999999,-0.3983649999999999,1.2697924999999999,-0.06123,-0.365645,0.8239125,-0.41039,-0.146519,1.2073225,-0.40132,-0.15303
93,1.0540429999999998,0.6313599999999999,-0.31359,0.881561,0.4487389999999999,-0.30618,0.7363310000000001,0.6396499999999999,-0.45674,1.1913610000000001,0.4418669999999999,-0.27905,1.355121,0.64182,-0.42158,0.749621,0.8731599999999999,-0.53842,1.3486609999999999,0.8798299999999999,-0.55013,0.927733,0.0029099999999999,-0.00508,1.072267,-0.00291,0.00508,0.7819310000000002,-0.0938,-0.39465,1.268981,-0.08127,-0.36134,0.822281,-0.4356300000000001,-0.15255,1.207421,-0.426,-0.154288
94,1.0556955,0.637405,-0.308395,0.8825155,0.4510809999999999,-0.304415,0.7379454999999999,0.6486449999999999,-0.450505,1.1938355,0.4455699999999999,-0.277005,1.3566755,0.649215,-0.413995,0.7501855000000001,0.8855649999999999,-0.5293950000000001,1.3509755,0.886195,-0.534965,0.9279615,0.0029549999999999,-0.005285,1.0720385000000001,-0.002955,0.0052849999999999,0.7814255000000001,-0.1110149999999999,-0.390325,1.2674855,-0.101195,-0.356835,0.8195455,-0.461235,-0.159459,1.2070555,-0.4505949999999999,-0.155433
95,1.0579715,0.63839,-0.301885,0.8834935,0.447858,-0.301715,0.7398135,0.6549499999999999,-0.443405,1.1969135,0.4411949999999999,-0.274305,1.3590735,0.65221,-0.405005,0.7514135,0.89521,-0.520135,1.3540135,0.8919999999999999,-0.520545,0.9281895,0.0036299999999999,-0.005525,1.0718105,-0.00363,0.005525,0.7821235000000001,-0.12754,-0.382775,1.2659335,-0.1201499999999999,-0.350345,0.8173235,-0.48652,-0.164302,1.2074135,-0.47469,-0.155673
96,1.0594735,0.638055,-0.295355,0.8841615,0.443848,-0.297385,0.7413514999999999,0.658865,-0.435285,1.1985315,0.43581,-0.271225,1.3612515,0.654195,-0.395355,0.7512415,0.8978349999999999,-0.511675,1.3568115,0.898425,-0.505865,0.9283515,0.0041549999999999,-0.005595,1.0716485,-0.004155,0.0055949999999999,0.7824515,-0.143505,-0.374945,1.2638715,-0.138525,-0.343365,0.8147015,-0.510945,-0.169087,1.2074615,-0.498285,-0.155857
97,1.0611105,0.64207,-0.288015,0.8849275,0.434949,-0.292505,0.7429675,0.6577999999999999,-0.425905,1.2002975,0.438203,-0.266285,1.3627475,0.6587000000000001,-0.3860949999999999,0.7513974999999999,0.89957,-0.501975,1.3597774999999999,0.90094,-0.4919449999999999,0.9283645000000001,0.00256,-0.006025,1.0716355,-0.00256,0.006025,0.7833375,-0.1615,-0.365875,1.2609075,-0.1585099999999999,-0.334225,0.8125775,-0.5371999999999999,-0.172375,1.2078175,-0.5231999999999999,-0.155609
98,1.0624455,0.64335,-0.280715,0.8854655000000001,0.4345799999999999,-0.287455,0.7439255,0.6620699999999999,-0.416595,1.2015955,0.43572,-0.261505,1.3634855,0.66018,-0.3761949999999999,0.7513255,0.90526,-0.4893849999999999,1.3623555,0.90892,-0.476145,0.9284695000000001,0.00306,-0.0062049999999999,1.0715305,-0.00306,0.006205,0.7840255,-0.18345,-0.353855,1.2573254999999999,-0.18166,-0.3237449999999999,0.8099755000000001,-0.56698,-0.1752599999999999,1.2078455,-0.55221,-0.1548599999999999
99,1.0628935,0.6487350000000001,-0.27366,0.8857715000000002,0.439505,-0.28236,0.7446515,0.668185,-0.40811,1.2024115,0.440415,-0.25645,1.3631315,0.667125,-0.36643,0.7503615000000001,0.912165,-0.47937,1.3645515,0.915085,-0.46221,0.9284985,0.0031049999999999,-0.00638,1.0715015,-0.003105,0.0063799999999999,0.7846415000000001,-0.199525,-0.3434,1.2533815,-0.1993349999999999,-0.31464,0.8075915000000001,-0.590575,-0.177105,1.2088215,-0.576285,-0.155675
100,1.0626325,0.65501,-0.26681,0.8856595,0.4437599999999999,-0.27745,0.7452295,0.67442,-0.39895,1.2026094999999999,0.4429099999999999,-0.25163,1.3636395000000001,0.67161,-0.3567,0.7492595,0.9158,-0.46942,1.3661995,0.92088,-0.44788,0.9284945,0.0032899999999999,-0.00651,1.0715055,-0.00329,0.0065099999999999,0.7855595,-0.21702,-0.33169,1.2487995,-0.21814,-0.30456,0.8048495,-0.61495,-0.178735,1.2093995,-0.6013700000000001,-0.155844
101,1.062032,0.66177,-0.259895,0.885317,0.44796,-0.2730749999999999,0.745857,0.68214,-0.389865,1.202607,0.4448499999999999,-0.246885,1.363467,0.6781200000000001,-0.347445,0.748297,0.92629,-0.458175,1.367437,0.92628,-0.434535,0.9279600000000001,0.00334,-0.0065449999999999,1.0720399999999999,-0.00334,0.0065449999999999,0.786517,-0.23245,-0.320625,1.244467,-0.2346599999999999,-0.295145,0.801547,-0.6368799999999999,-0.182842,1.2097769999999999,-0.6234599999999999,-0.155509
102,1.061068,0.66341,-0.25118,0.884527,0.45053,-0.26687,0.745627,0.68563,-0.37912,1.202067,0.44802,-0.239897,1.362597,0.68144,-0.33731,0.746787,0.93599,-0.4464,1.3672769999999999,0.9371,-0.4212,0.928181,0.00246,-0.0064,1.071819,-0.0024599999999999,0.0063999999999999,0.7869270000000002,-0.2499099999999999,-0.30671,1.238647,-0.2518999999999999,-0.28243,0.7998370000000001,-0.65859,-0.18113,1.209857,-0.6468099999999999,-0.152484
103,1.059782,0.662945,-0.241365,0.883246,0.453735,-0.260145,0.745296,0.688665,-0.367925,1.201306,0.452765,-0.232903,1.361806,0.6846749999999999,-0.3268649999999999,0.744336,0.938295,-0.433915,1.366436,0.946215,-0.408335,0.928454,0.0016049999999999,-0.0060449999999999,1.071546,-0.001605,0.0060449999999999,0.787656,-0.267235,-0.292815,1.232436,-0.269245,-0.268685,0.798556,-0.6793250000000001,-0.177265,1.208286,-0.670415,-0.148379
104,1.058223,0.6661300000000001,-0.231959,0.881858,0.46084,-0.25317,0.744508,0.6972,-0.3562499999999999,1.200258,0.46153,-0.225663,1.361038,0.6942299999999999,-0.3172899999999999,0.741958,0.94552,-0.42038,1.3656679999999999,0.95213,-0.3953299999999999,0.928791,0.00045,-0.0056599999999999,1.071209,-0.0004499999999999,0.0056599999999999,0.788118,-0.28079,-0.28068,1.2268379999999999,-0.2839399999999999,-0.25632,0.797158,-0.69547,-0.17315,1.206728,-0.68988,-0.143928
105,1.056268,0.667375,-0.221689,0.879882,0.467395,-0.2470049999999999,0.7432720000000002,0.7047950000000001,-0.344785,1.1988619999999999,0.4690149999999999,-0.218117,1.359372,0.703065,-0.307385,0.739142,0.951505,-0.406255,1.363982,0.959125,-0.381235,0.928803,-0.000655,-0.0050649999999999,1.071197,0.0006549999999999,0.005065,0.789472,-0.295545,-0.2677549999999999,1.220472,-0.299565,-0.242855,0.795612,-0.7123250000000001,-0.165277,1.204662,-0.7100250000000001,-0.138566
106,1.0544075,0.66428,-0.210922,0.8777915000000001,0.47218,-0.238105,0.7423314999999999,0.7114499999999999,-0.329565,1.1972814999999999,0.47419,-0.209891,1.3574715,0.70557,-0.294165,0.7361615,0.96248,-0.387705,1.3620815,0.97091,-0.363405,0.9285795,0.00032,-0.0049949999999999,1.0714204999999999,-0.00032,0.0049949999999999,0.7934915,-0.31747,-0.249305,1.2125915,-0.32014,-0.225655,0.7951615,-0.7341,-0.15303,1.2021315,-0.73132,-0.129378
107,1.052719,0.662277,-0.1980299999999999,0.875352,0.4792869999999999,-0.227775,0.740912,0.7179770000000001,-0.313295,1.195472,0.4802769999999999,-0.20021,1.355392,0.7121770000000001,-0.279895,0.733052,0.970797,-0.3703349999999999,1.359952,0.976157,-0.346655,0.928714,0.0001799999999999,-0.0042149999999999,1.071286,-0.0001799999999999,0.0042149999999999,0.799262,-0.338053,-0.228775,1.203462,-0.339793,-0.2058289999999999,0.795212,-0.7538929999999999,-0.137675,1.198492,-0.7510129999999999,-0.117576
108,1.0513665,0.6652255,-0.179151,0.8729595,0.4860655,-0.211562,0.7385295000000001,0.7250854999999999,-0.291032,1.1935195,0.4855055,-0.185079,1.3530095,0.7182554999999999,-0.260392,0.7303695,0.9796455,-0.3463819999999999,1.3576995,0.9842555,-0.323202,0.9287685,8.450000000000124e-05,-0.003318,1.0712315000000001,-8.450000000000124e-05,0.003318,0.8056295,-0.3583845,-0.2010219999999999,1.1940595,-0.3585845,-0.179699,0.7960895,-0.7729045,-0.114905,1.1945195,-0.7692145,-0.099061
109,1.050253,0.6698814999999999,-0.1572845,0.8714850000000001,0.4916615,-0.1918245,0.736945,0.7289815,-0.2661245,1.192995,0.4907715,-0.1666635,1.350695,0.7211314999999999,-0.2385644999999999,0.728655,0.9859615,-0.3187645,1.356085,0.9885115,-0.2969545,0.9287950000000001,0.0001904999999999,-0.0033934999999999,1.071205,-0.0001905,0.0033935,0.814335,-0.3805084999999999,-0.1681435,1.183825,-0.3800584999999999,-0.1489885,0.798355,-0.7939685000000001,-0.0878534999999999,1.191045,-0.7894385,-0.0771475
110,1.048628,0.6741634999999999,-0.135688,0.86903,0.4972635,-0.1720229999999999,0.7361,0.7331534999999999,-0.241813,1.1916,0.4965335,-0.148217,1.34756,0.7229835,-0.2170929999999999,0.7262,0.9888835,-0.292183,1.3536299999999999,0.9939435,-0.270743,0.9288800000000001,0.0003184999999999,-0.0034449999999999,1.0711199999999999,-0.0003185,0.003445,0.82197,-0.4017664999999999,-0.135395,1.17268,-0.4013164999999999,-0.118343,0.79977,-0.8144765,-0.060951,1.18644,-0.8101765000000001,-0.05493
111,1.0479085,0.6804725,-0.115286,0.8671645,0.5021625,-0.152775,0.7359645,0.7390025,-0.218535,1.1907444999999999,0.4992025,-0.130388,1.3449345,0.7259225,-0.1960049999999999,0.7243245,0.9903425,-0.265575,1.3517145,0.9958225,-0.244975,0.9282485,0.0012015,-0.0031999999999999,1.0717515,-0.0012014999999999,0.0032,0.8296045000000001,-0.4189775,-0.103726,1.1633745,-0.4185875,-0.0897989999999999,0.8017345000000001,-0.8311375,-0.0347709999999999,1.1812345,-0.8263975,-0.0311409999999999
112,1.046534,0.6885985,-0.0960244999999999,0.8652,0.5073685,-0.1333575,0.73548,0.7437585,-0.1956375,1.18979,0.5027785,-0.1123675,1.3421699999999999,0.7281685,-0.1751375,0.72247,0.9922885,-0.2392375,1.34878,0.9992785,-0.2171575,0.9275160000000001,0.0016625,-0.0033224999999999,1.072484,-0.0016625,0.0033225,0.8365800000000001,-0.4349815,-0.0723554999999999,1.15408,-0.4342415,-0.0615775,0.8034400000000002,-0.8459815,-0.0084225,1.17586,-0.8413715,-0.0076844999999999
113,1.0453075,0.6975725,-0.076583,0.8630765,0.5134525000000001,-0.113728,0.7346665,0.7453825000000001,-0.173708,1.1886865,0.5070025,-0.094226,1.3394965,0.7281925,-0.154588,0.7205565,0.9935625,-0.213588,1.3457365000000001,1.0007625,-0.190328,0.9267625,0.0022035,-0.0034139999999999,1.0732375,-0.0022035,0.003414,0.8433465,-0.4506875,-0.041541,1.1447965,-0.4490975,-0.033494,0.8048165,-0.8599775,0.0169059999999999,1.1703665,-0.8559975,0.015573
114,1.04448,0.707519,-0.0577965,0.861004,0.520249,-0.0940895,0.7338640000000001,0.747489,-0.1523795,1.187624,0.512109,-0.0764055,1.336794,0.729419,-0.1344294999999999,0.718294,0.994879,-0.1887095,1.343284,1.001279,-0.1649294999999999,0.925922,0.002908,-0.0036755,1.074078,-0.002908,0.0036755,0.849704,-0.467201,-0.0112925,1.136024,-0.464651,-0.0066234999999999,0.806304,-0.874161,0.0419174999999999,1.165004,-0.869751,0.0385195
115,1.0442965,0.7165175,-0.04159,0.8594405,0.5318875000000001,-0.077397,0.7333205,0.7529475,-0.135449,1.1870405,0.5113175,-0.060909,1.3345505,0.7308075,-0.117699,0.7166105,0.9936675,-0.168919,1.3407805,0.9991675,-0.144099,0.9253905,0.0035974999999999,-0.003649,1.0746095,-0.0035975,0.0036489999999999,0.8536805000000001,-0.4798025,0.0125509999999999,1.1301705,-0.4756725,0.0143949999999999,0.8067005,-0.8842725,0.062216,1.1619105,-0.8785824999999999,0.056873
116,1.043938,0.725793,-0.0272475,0.8576159999999999,0.532213,-0.0626694999999999,0.732506,0.753853,-0.1203164999999999,1.186166,0.512283,-0.0473084999999999,1.332516,0.729673,-0.1032464999999999,0.7151460000000001,0.992623,-0.1512765,1.338876,0.997923,-0.1265265,0.9249,0.003484,-0.0038224999999999,1.0751,-0.003484,0.0038224999999999,0.855386,-0.4899869999999999,0.0312145,1.1256059999999999,-0.483427,0.0312474999999999,0.805546,-0.891547,0.0785095,1.159476,-0.883687,0.0721005
117,1.042913,0.7316115,-0.0186954999999999,0.855593,0.5321714999999999,-0.0540024999999999,0.7310230000000001,0.7541315,-0.1109914999999999,1.185493,0.5130914999999999,-0.0387784999999999,1.330483,0.7288815,-0.0944714999999999,0.713303,0.9917515,-0.1402715,1.336763,0.9954515,-0.1158114999999999,0.9244130000000002,0.0036855,-0.0042814999999999,1.0755869999999998,-0.0036855,0.0042815,0.856533,-0.4993485,0.0418525,1.1216529999999998,-0.4907785,0.0410925,0.804033,-0.8978385000000001,0.0880155,1.157083,-0.8881185,0.0809065
118,1.040916,0.7322915000000001,-0.0141869999999999,0.8535,0.5325614999999999,-0.048933,0.7287700000000001,0.7552215,-0.1053679999999999,1.18405,0.5146314999999999,-0.0337319999999999,1.32803,0.7307215,-0.088948,0.7108300000000001,0.9930915,-0.1342479999999999,1.33388,0.9977915,-0.1092779999999999,0.923925,0.0035544999999999,-0.0037459999999999,1.076075,-0.0035545,0.0037459999999999,0.8553,-0.5001285,0.045947,1.1195599999999999,-0.4918285,0.045136,0.80217,-0.8985585,0.092742,1.1547,-0.8892884999999999,0.0859159999999999
119,1.0389585,0.732634,-0.0097319999999999,0.8515435,0.5327540000000001,-0.04392,0.7270435,0.755124,-0.100075,1.1832035,0.516784,-0.0284139999999999,1.3255735,0.7317440000000001,-0.0837349999999999,0.7088734999999999,0.993714,-0.130035,1.3307735,1.002014,-0.1036049999999999,0.9235355000000001,0.003436,-0.003333,1.0764645,-0.0034359999999999,0.003333,0.8541635000000001,-0.500896,0.049838,1.1176035,-0.492876,0.048999,0.8002735,-0.899036,0.096983,1.1527335,-0.889856,0.090249
120,1.03746,0.7328185,-0.0057275,0.850046,0.5328185,-0.0396855,0.725546,0.7546885,-0.0960575,1.182816,0.5189585,-0.0238265,1.323946,0.7322285,-0.0798175,0.707376,0.9935785,-0.1269175,1.329126,1.0033785,-0.1004875,0.9235750000000001,0.0033484999999999,-0.0033685,1.076425,-0.0033485,0.0033684999999999,0.853316,-0.5015215,0.0530014999999999,1.1161059999999998,-0.4938715,0.0521164999999999,0.798776,-0.8994715,0.1003465,1.151236,-0.8903615,0.0937824999999999
121,1.036354,0.7328545,-0.0025215,0.848928,0.5328845,-0.0361914999999999,0.724438,0.7543145,-0.0932225,1.182568,0.5206145,-0.0201364999999999,1.322838,0.7324145,-0.0771525,0.706118,0.9935045,-0.1246025,1.328018,1.0036045,-0.0981725,0.92362,0.0031494999999999,-0.0032594999999999,1.07638,-0.0031494999999999,0.0032594999999999,0.852738,-0.5020555,0.0553895,1.115288,-0.4947455,0.0544265,0.797668,-0.8991655,0.1028565,1.150128,-0.8907955,0.0964735
122,1.035414,0.7329075,-1.0500000000003562e-05,0.848078,0.5329775,-0.0332045,0.723598,0.7540375,-0.0912954999999999,1.182458,0.5219075000000001,-0.0169705,1.321998,0.7321375,-0.0752455,0.704658,0.9932275000000002,-0.1226955,1.327178,1.0033275,-0.0962654999999999,0.923664,0.0029394999999999,-0.0031375,1.076336,-0.0029394999999999,0.0031375,0.852348,-0.5025125,0.0571985,1.114808,-0.4954025,0.0562584999999999,0.7968379999999999,-0.8987624999999999,0.1049825,1.149278,-0.8911224999999999,0.0985385
