sb224sc-HT22-VT27/4dt907/src/data/kinect_good_preprocessed_A9_mediapipe/A17_kinect.csv
FrameNo,nose_3d_x,nose_3d_y,nose_3d_z,left_shoulder_3d_x,left_shoulder_3d_y,left_shoulder_3d_z,left_elbow_3d_x,left_elbow_3d_y,left_elbow_3d_z,right_shoulder_3d_x,right_shoulder_3d_y,right_shoulder_3d_z,right_elbow_3d_x,right_elbow_3d_y,right_elbow_3d_z,left_wrist_3d_x,left_wrist_3d_y,left_wrist_3d_z,right_wrist_3d_x,right_wrist_3d_y,right_wrist_3d_z,left_hip_3d_x,left_hip_3d_y,left_hip_3d_z,right_hip_3d_x,right_hip_3d_y,right_hip_3d_z,left_knee_3d_x,left_knee_3d_y,left_knee_3d_z,right_knee_3d_x,right_knee_3d_y,right_knee_3d_z,left_ankle_3d_x,left_ankle_3d_y,left_ankle_3d_z,right_ankle_3d_x,right_ankle_3d_y,right_ankle_3d_z
21,0.0036010000000000044,0.7236064999999999,0.063181,-0.147818,0.5042065,0.046209,-0.239188,0.7076764999999999,-0.016106000000000002,0.150772,0.48503650000000004,0.051601999999999995,0.240102,0.6933064999999999,0.005804,-0.270568,0.9239565,-0.08976600000000001,0.278572,0.9116565,-0.056779,-0.07184399999999999,0.0032314999999999983,0.0007349999999999995,0.07184399999999999,-0.0032314999999999983,-0.0007349999999999995,-0.132708,-0.3977535,-0.021935999999999997,0.119172,-0.4353035,0.006328999999999998,-0.14163800000000001,-0.7012835000000001,-0.031629,0.125812,-0.7382835000000001,-0.023168
22,0.0027440000000000003,0.723527,0.0621135,-0.14773699999999998,0.504637,0.0461565,-0.23937699999999998,0.7079169999999999,-0.015952499999999994,0.14991300000000002,0.48548699999999995,0.0512975,0.23919300000000002,0.6936770000000001,0.005599500000000004,-0.271897,0.9239869999999999,-0.0899985,0.277593,0.9119870000000001,-0.056987499999999996,-0.07186500000000001,0.003155999999999999,0.0007275000000000025,0.07186500000000001,-0.003156000000000006,-0.000727499999999999,-0.132527,-0.398833,-0.0220435,0.11952299999999999,-0.435513,0.006200500000000001,-0.14121699999999998,-0.7023630000000001,-0.031619499999999995,0.126243,-0.7385029999999999,-0.023342499999999995
23,0.0017670000000000038,0.7233395,0.0608775,-0.147785,0.5052695,0.0458915,-0.23974499999999999,0.7083695,-0.0160055,0.149115,0.4860495,0.050944500000000004,0.238465,0.6939195,0.005204500000000001,-0.272985,0.9241295,-0.0904105,0.276895,0.9119195,-0.05737949999999999,-0.071886,0.0031015,0.0007804999999999999,0.071886,-0.0031015,-0.0007804999999999999,-0.132435,-0.39938049999999997,-0.0223815,0.119705,-0.4358305,0.005860500000000001,-0.14107499999999998,-0.7029105,-0.0319615,0.126385,-0.7388405,-0.0237445
24,0.000840500000000001,0.72314,0.059612,-0.1479045,0.5056999999999999,0.045406,-0.2400445,0.7086399999999999,-0.016256,0.1483755,0.4866,0.050355,0.2378955,0.6941499999999999,0.004411999999999999,-0.27391449999999995,0.92413,-0.091016,0.2763955,0.9118299999999999,-0.05795600000000001,-0.0719005,0.003042000000000003,0.0008099999999999982,0.0719005,-0.003042000000000003,-0.0008100000000000017,-0.1323045,-0.39991,-0.022891,0.1199155,-0.43611999999999995,0.005274000000000001,-0.1409045,-0.7034400000000001,-0.032497,0.1265555,-0.7391300000000001,-0.024281000000000004
25,-7.750000000000118e-05,0.7229500000000001,0.0579875,-0.1480225,0.5061300000000001,0.0446115,-0.24042249999999998,0.7089000000000001,-0.017064500000000003,0.14769749999999998,0.48721999999999993,0.0494175,0.23739749999999998,0.6944400000000001,0.0025395,-0.27426249999999996,0.9239700000000001,-0.0923925,0.2761475,0.91179,-0.0606245,-0.0719135,0.0029799999999999965,0.0008094999999999977,0.0719135,-0.0029800000000000035,-0.0008095000000000012,-0.13207249999999998,-0.40059,-0.023809500000000004,0.1202175,-0.43644,0.0041495,-0.1406525,-0.7041299999999999,-0.0334145,0.12680750000000002,-0.73947,-0.025222500000000002
26,-0.0005694999999999971,0.7229500000000001,0.056239,-0.1479025,0.50629,0.04357,-0.24040250000000002,0.7089500000000001,-0.018518999999999997,0.1472775,0.48769999999999997,0.048038,0.23761749999999998,0.6945,0.0005490000000000009,-0.2738225,0.9239700000000001,-0.094148,0.27650749999999996,0.91179,-0.063842,-0.0719355,0.0029799999999999965,0.0007880000000000005,0.0719355,-0.0029800000000000035,-0.0007880000000000005,-0.1317125,-0.40137,-0.02517,0.1206575,-0.43644,0.0023360000000000013,-0.14022249999999997,-0.7049099999999999,-0.034997,0.12713750000000001,-0.73947,-0.026813
27,-0.0010665000000000032,0.7229500000000001,0.0542145,-0.1477115,0.5063000000000001,0.0422625,-0.2401315,0.7089500000000001,-0.0204245,0.1470185,0.48808,0.0465075,0.2378685,0.69455,-0.0017534999999999981,-0.2733615,0.9239700000000001,-0.0962145,0.2769585,0.91179,-0.0673275,-0.0719845,0.0029799999999999965,0.0007414999999999991,0.0719845,-0.0029800000000000035,-0.0007414999999999991,-0.1313115,-0.40278,-0.026809499999999997,0.1211285,-0.43644,0.0001465000000000008,-0.1398415,-0.70633,-0.03765049999999999,0.1275185,-0.73947,-0.0288245
28,-0.001440999999999996,0.7229500000000001,0.051624,-0.147496,0.5063000000000001,0.040422,-0.239776,0.7089500000000001,-0.022907000000000004,0.146734,0.48825999999999997,0.044504,0.238184,0.69455,-0.004546000000000001,-0.272846,0.9239700000000001,-0.099353,0.277484,0.91179,-0.07145000000000001,-0.07203799999999999,0.0029799999999999965,0.0006519999999999998,0.07203799999999999,-0.0029800000000000035,-0.0006519999999999998,-0.130856,-0.40423000000000003,-0.029054000000000003,0.12163399999999999,-0.43644,-0.0027780000000000027,-0.139446,-0.70777,-0.040714999999999994,0.127924,-0.73947,-0.031502
29,-0.0018049999999999976,0.722741,0.048843,-0.147304,0.506561,0.038498000000000004,-0.23941400000000002,0.709211,-0.025352,0.14650600000000003,0.48863100000000004,0.042436,0.238466,0.694731,-0.007457999999999999,-0.272194,0.923951,-0.102874,0.277856,0.911641,-0.07580400000000001,-0.072103,0.002937999999999996,0.0005760000000000001,0.072103,-0.002938000000000003,-0.0005760000000000001,-0.130614,-0.405719,-0.031622,0.121906,-0.436749,-0.006099,-0.13952399999999998,-0.709229,-0.044682999999999994,0.127936,-0.739789,-0.034606
30,-0.0021374999999999988,0.7225975,0.045923000000000005,-0.1471515,0.5069075,0.036398,-0.23904150000000002,0.7095175,-0.027971,0.1462485,0.4889875,0.040229,0.23880849999999998,0.6949275,-0.01055,-0.2713715,0.9239375,-0.106743,0.2783485,0.9114875,-0.08035300000000001,-0.0721855,0.0028725,0.0005369999999999993,0.0721855,-0.0028725,-0.0005369999999999993,-0.13037149999999997,-0.4074825,-0.034515000000000004,0.1221885,-0.43703250000000005,-0.009711000000000001,-0.13964149999999997,-0.7109625,-0.048746,0.1279885,-0.7401025,-0.037912
31,-0.0023304999999999975,0.7225374999999999,0.0428865,-0.1470205,0.5073875,0.0341285,-0.2386905,0.7099175,-0.030850500000000003,0.1461095,0.4894775,0.0378615,0.2391695,0.6950474999999999,-0.0137695,-0.2703905,0.9240174999999999,-0.1110255,0.2787895,0.9111675,-0.08475550000000001,-0.0722795,0.0028134999999999966,0.0005044999999999997,0.0722795,-0.0028135000000000035,-0.000504499999999998,-0.1301305,-0.40909249999999997,-0.0376515,0.12246950000000001,-0.43730250000000004,-0.013434499999999999,-0.1396805,-0.7125525,-0.052950500000000005,0.1280195,-0.7403825,-0.0414025
32,-0.002410000000000004,0.7224170000000001,0.039698,-0.146877,0.5078670000000001,0.031686,-0.238357,0.710267,-0.03418500000000001,0.146023,0.48987699999999995,0.035342,0.23952299999999999,0.6950970000000001,-0.017390000000000003,-0.269237,0.924007,-0.115923,0.279223,0.910687,-0.08977299999999999,-0.072386,0.0027459999999999984,0.0004569999999999991,0.072386,-0.0027459999999999984,-0.0004570000000000008,-0.129887,-0.410133,-0.041002,0.122783,-0.437583,-0.017246,-0.13967700000000002,-0.713563,-0.057397000000000004,0.128033,-0.740663,-0.045132000000000005
33,-0.0024275000000000026,0.722291,0.0361645,-0.1467275,0.508411,0.0290435,-0.2379975,0.710621,-0.0380905,0.1459725,0.490421,0.0326245,0.2399125,0.695141,-0.0213935,-0.26813750000000003,0.923911,-0.12154549999999999,0.2796825,0.910161,-0.09536549999999999,-0.0724915,0.002676999999999999,0.00040849999999999914,0.0724915,-0.0026770000000000058,-0.0004085000000000009,-0.1296275,-0.410889,-0.044718499999999994,0.1231425,-0.437739,-0.0212685,-0.13962750000000002,-0.714319,-0.0619335,0.12807249999999998,-0.740839,-0.0492365
34,-0.0021319999999999985,0.721999,0.0331585,-0.146462,0.508999,0.0264975,-0.237542,0.710999,-0.0420405,0.146028,0.490969,0.030095499999999997,0.240428,0.695149,-0.0253315,-0.266802,0.923859,-0.12699149999999998,0.280458,0.909609,-0.10053150000000001,-0.07257,0.002609,0.00046049999999999997,0.07257,-0.002609,-0.00046049999999999997,-0.129492,-0.411631,-0.0483395,0.123418,-0.437901,-0.025093499999999998,-0.13972199999999999,-0.715031,-0.0663455,0.128008,-0.741001,-0.0530915
35,-0.0019265000000000046,0.7217235,0.030379,-0.1462695,0.5092435,0.024012,-0.2371195,0.7110235,-0.045741,0.1462105,0.4912235,0.027656999999999998,0.2408705,0.6950935,-0.029093000000000004,-0.2658195,0.9234435000000001,-0.132424,0.2810705,0.9092235,-0.105504,-0.0726025,0.0025625000000000023,0.000497,0.0726025,-0.0025624999999999953,-0.000497,-0.12935950000000002,-0.4122365,-0.051796999999999996,0.1236805,-0.4378865,-0.028542,-0.1396495,-0.7156264999999999,-0.070275,0.1281505,-0.7409865,-0.056475
36,-0.0017140000000000037,0.721309,0.0274495,-0.14608700000000002,0.5094289999999999,0.0215405,-0.236657,0.710969,-0.0495065,0.14640299999999998,0.491439,0.0251585,0.24146299999999998,0.694889,-0.0327715,-0.264817,0.922719,-0.1380735,0.281713,0.908689,-0.11056350000000001,-0.07263800000000001,0.0025120000000000003,0.0004885,0.07263800000000001,-0.0025120000000000003,-0.0004885,-0.129227,-0.412361,-0.0553545,0.123943,-0.437881,-0.0320685,-0.139577,-0.715731,-0.0738835,0.128273,-0.7409910000000001,-0.059784500000000004
37,-0.0014180000000000009,0.7206969999999999,0.0246305,-0.145859,0.509527,0.0192205,-0.235939,0.7108669999999999,-0.0531945,0.146631,0.491377,0.0226295,0.242361,0.694247,-0.0364105,-0.263749,0.9221969999999999,-0.14312750000000002,0.282751,0.907627,-0.1154175,-0.072726,0.002474999999999998,0.0005565000000000001,0.072726,-0.002475000000000005,-0.0005564999999999999,-0.129129,-0.411493,-0.0589265,0.124151,-0.43677299999999997,-0.0356155,-0.139559,-0.714863,-0.0774495,0.128241,-0.739913,-0.0631995
38,-0.0012369999999999985,0.720063,0.021585,-0.14575000000000002,0.509043,0.016739999999999998,-0.23507,0.710343,-0.057090999999999996,0.14704,0.49078299999999997,0.019943,0.24306,0.693213,-0.040164,-0.26263,0.9212629999999999,-0.148451,0.28376,0.906073,-0.120601,-0.07288700000000001,0.002454000000000005,0.0006020000000000001,0.07288700000000001,-0.002453999999999998,-0.0006019999999999997,-0.12898,-0.410337,-0.062846,0.12455,-0.435387,-0.039467999999999996,-0.13962,-0.713717,-0.08068900000000001,0.12824,-0.7385470000000001,-0.066759
39,-0.0009814999999999963,0.718968,0.0180845,-0.1456205,0.508468,0.0137375,-0.2341405,0.7096480000000001,-0.061630500000000005,0.1478295,0.48999800000000004,0.0167805,0.24394949999999999,0.692028,-0.0446545,-0.2614405,0.920188,-0.1541855,0.2851995,0.903628,-0.1271855,-0.0730275,0.002493000000000002,0.0005574999999999998,0.0730275,-0.002493000000000002,-0.0005574999999999998,-0.12883050000000001,-0.408582,-0.0673665,0.1252095,-0.43364199999999997,-0.0441375,-0.1396205,-0.711942,-0.08448649999999999,0.1282595,-0.736842,-0.07090149999999999
40,-0.0006615000000000024,0.7178865,0.014555499999999999,-0.14546150000000002,0.5077165,0.010635499999999999,-0.23321150000000002,0.7087765,-0.06638949999999999,0.14853850000000002,0.48901649999999997,0.013545499999999999,0.2449985,0.6906965,-0.0493445,-0.2602915,0.9189465,-0.1600385,0.2865485,0.9008665,-0.1338585,-0.0731695,0.002527500000000002,0.0005114999999999998,0.0731695,-0.002527500000000002,-0.0005114999999999998,-0.12871149999999998,-0.4066635,-0.0719765,0.1259485,-0.4313935,-0.0490015,-0.1396215,-0.7100235,-0.08833450000000001,0.1282685,-0.7345935,-0.07507150000000001
41,-0.0002875000000000013,0.7165815,0.010831,-0.1453075,0.5070414999999999,0.007285,-0.23226750000000002,0.7079715,-0.071309,0.1491825,0.4880415,0.010126,0.2461025,0.6893914999999999,-0.054255,-0.2590875,0.9177915,-0.166013,0.2877825,0.8981115,-0.140193,-0.0732495,0.002548499999999995,0.0004399999999999994,0.0732495,-0.002548500000000002,-0.0004399999999999994,-0.1286075,-0.40442849999999997,-0.07675099999999999,0.1267725,-0.42885850000000003,-0.054145,-0.1395675,-0.7077885,-0.092219,0.1282825,-0.7320585000000001,-0.07933299999999999
42,0.00012950000000000114,0.715121,0.007072000000000002,-0.14512950000000002,0.5063709999999999,0.003930000000000003,-0.23128949999999998,0.707241,-0.07612,0.1496405,0.487071,0.006710000000000004,0.2471605,0.688091,-0.059072,-0.25790949999999996,0.9167109999999999,-0.171802,0.2889605,0.895311,-0.146292,-0.0733045,0.002589000000000001,0.0002720000000000014,0.0733045,-0.002589000000000001,-0.00027199999999999794,-0.1285195,-0.402269,-0.08139099999999999,0.1276505,-0.426189,-0.059452,-0.1395095,-0.705639,-0.09609299999999998,0.1283205,-0.7293890000000001,-0.083449
43,0.0005809999999999982,0.7136975000000001,0.003017500000000003,-0.144925,0.5058875,0.0002595000000000028,-0.230325,0.7065775000000001,-0.0814125,0.14998499999999998,0.48623750000000004,0.003036500000000001,0.248105,0.6868375000000001,-0.0642855,-0.256765,0.9156675000000001,-0.17814950000000002,0.289975,0.8924275,-0.1528495,-0.07336899999999999,0.0026014999999999996,-2.8499999999997278e-05,0.07336899999999999,-0.0026014999999999996,2.8500000000000747e-05,-0.128445,-0.4000025,-0.0864055,0.128595,-0.4229125,-0.0653145,-0.139455,-0.7033725,-0.10018250000000001,0.128305,-0.7261525,-0.08786549999999999
44,0.001097000000000006,0.7122885,-0.0013405000000000014,-0.144705,0.5052785000000001,-0.0036134999999999987,-0.229285,0.7057685,-0.0871715,0.150265,0.4855785,-0.0008885000000000004,0.249055,0.6855785,-0.0700695,-0.25553499999999996,0.9144685,-0.1848705,0.29086500000000004,0.8893585,-0.1596805,-0.073441,0.002536499999999997,-0.0003454999999999986,0.073441,-0.002536500000000004,0.0003454999999999986,-0.128365,-0.39755150000000006,-0.0916425,0.129445,-0.4198615,-0.0715085,-0.139475,-0.7009115,-0.1044445,0.128275,-0.7231415,-0.0925205
45,0.0014389999999999993,0.7107825,-0.005923499999999998,-0.144454,0.5047325,-0.007563499999999997,-0.22825399999999998,0.7049125,-0.09333249999999998,0.150656,0.4846425,-0.004968499999999997,0.249946,0.6840525,-0.07607549999999999,-0.254224,0.9134125,-0.1919405,0.291496,0.8862925,-0.1669905,-0.073522,0.0024075,-0.0005964999999999998,0.073522,-0.0024075,0.0005965000000000033,-0.12834399999999999,-0.3945675,-0.09726950000000001,0.130316,-0.4163175,-0.0780275,-0.13955399999999998,-0.6979275,-0.10878750000000001,0.128176,-0.7196275,-0.0974325
46,0.0015619999999999992,0.70907,-0.010520500000000002,-0.144357,0.5036700000000001,-0.011540500000000002,-0.227817,0.7034900000000001,-0.0996325,0.151053,0.48401000000000005,-0.009071500000000003,0.250483,0.68286,-0.0822765,-0.253147,0.91163,-0.1993925,0.29179299999999997,0.88321,-0.1744825,-0.073595,0.0021930000000000005,-0.0007965000000000055,0.073595,-0.0021930000000000005,0.0007964999999999986,-0.128377,-0.39257,-0.1030205,0.131123,-0.41356000000000004,-0.0844875,-0.139547,-0.6959,-0.1133205,0.12828299999999998,-0.7169099999999999,-0.1021335
47,0.0019125000000000045,0.7075615,-0.015662500000000006,-0.14406149999999998,0.5031715,-0.015635500000000007,-0.2273815,0.7024015,-0.10626150000000001,0.15153850000000002,0.48403149999999995,-0.013354500000000005,0.2513185,0.6819615,-0.08877950000000001,-0.2520815,0.9101115,-0.2070505,0.2922985,0.8804315,-0.18223050000000002,-0.07362250000000001,0.001919500000000001,-0.0010305000000000036,0.07362250000000001,-0.0019194999999999976,0.0010304999999999967,-0.12824149999999998,-0.3902985,-0.1089905,0.1320085,-0.4105185,-0.0911545,-0.1393315,-0.6936085,-0.11786550000000001,0.1285185,-0.7138785,-0.10696950000000001
48,0.0022500000000000003,0.7060535,-0.021106,-0.14381300000000002,0.5026835000000001,-0.019695,-0.22664299999999998,0.7010135,-0.113453,0.15180700000000003,0.4843035,-0.017626,0.251737,0.6810135,-0.09564600000000001,-0.25089300000000003,0.9080235,-0.216057,0.292757,0.8776635,-0.18967699999999998,-0.073676,0.0016115000000000018,-0.0012179999999999969,0.073676,-0.0016114999999999984,0.0012179999999999969,-0.128193,-0.38816649999999997,-0.115423,0.132627,-0.4073565,-0.09784799999999999,-0.13922299999999999,-0.6914065,-0.122382,0.12870700000000002,-0.7107165,-0.111713
49,0.0023864999999999997,0.7036565,-0.026546000000000004,-0.14364549999999998,0.5026265,-0.023839000000000003,-0.2257855,0.6998065,-0.120597,0.15206450000000002,0.48494649999999995,-0.021937,0.2521645,0.6802465,-0.102676,-0.2500855,0.9059465,-0.225406,0.2928945,0.8748265,-0.19719599999999998,-0.0736655,0.0013104999999999992,-0.0014140000000000055,0.0736655,-0.0013105000000000026,0.0014139999999999986,-0.1282355,-0.38663349999999996,-0.122799,0.1331445,-0.4029735,-0.104649,-0.1391455,-0.6897335,-0.127048,0.1289945,-0.7063335000000001,-0.11655
50,0.0024249999999999983,0.7011649999999999,-0.0321785,-0.14346799999999998,0.503085,-0.0279295,-0.224968,0.6986549999999999,-0.12804949999999998,0.15188200000000002,0.485495,-0.0261055,0.252562,0.679155,-0.10946349999999999,-0.24901800000000002,0.904095,-0.2348005,0.292862,0.871525,-0.2051105,-0.07366,0.0011330000000000003,-0.0016614999999999963,0.07366,-0.0011329999999999986,0.0016615000000000033,-0.128378,-0.385565,-0.1305365,0.133582,-0.398815,-0.1114275,-0.139098,-0.6884950000000001,-0.1317265,0.12909199999999998,-0.702165,-0.1212855
51,0.0023894999999999993,0.699315,-0.038211999999999996,-0.1434835,0.501635,-0.03269,-0.2241835,0.696435,-0.13574,0.1505265,0.48468500000000003,-0.030973,0.2525365,0.677145,-0.116619,-0.24832350000000003,0.901195,-0.244093,0.2924665,0.869065,-0.213593,-0.0736755,0.0008539999999999997,-0.0017479999999999996,0.0736755,-0.0008539999999999997,0.0017479999999999996,-0.1285135,-0.383685,-0.138725,0.1340465,-0.393965,-0.118459,-0.1391435,-0.6864049999999999,-0.136625,0.1292165,-0.6972849999999999,-0.12625799999999998
52,0.0023830000000000014,0.6975185,-0.044373,-0.143476,0.5001185,-0.037546,-0.223586,0.6941685000000001,-0.143375,0.149384,0.4837185,-0.035842000000000006,0.252634,0.6751385,-0.12360700000000001,-0.24743600000000002,0.8974885,-0.254674,0.292074,0.8668285,-0.222324,-0.07369600000000001,0.0005935000000000001,-0.0018300000000000052,0.07369600000000001,-0.0005934999999999998,0.0018299999999999983,-0.12859600000000002,-0.3818015,-0.147018,0.134634,-0.3883915,-0.125148,-0.139206,-0.6842515,-0.141432,0.129224,-0.6916515,-0.131116
53,0.0022825000000000033,0.6955865,-0.050517,-0.1434415,0.4985465,-0.042537000000000005,-0.2227215,0.6918464999999999,-0.15104299999999998,0.1482685,0.4826665,-0.040865,0.2525885,0.6730965,-0.130605,-0.24636149999999998,0.8940265,-0.264806,0.29174849999999997,0.8648264999999999,-0.231416,-0.0736945,0.00043950000000000065,-0.0018700000000000036,0.0736945,-0.00043950000000000065,0.0018699999999999967,-0.12866149999999998,-0.3794135,-0.15537299999999998,0.1352685,-0.38225349999999997,-0.13166,-0.13923149999999998,-0.6815735,-0.146163,0.12921850000000001,-0.6854535,-0.13586700000000002
54,0.0021944999999999985,0.6934895,-0.05652649999999999,-0.1432615,0.4970895,-0.047625499999999994,-0.22192150000000002,0.6894795,-0.1589285,0.14741849999999998,0.4822795,-0.0457825,0.2525085,0.6714795,-0.1378355,-0.24516150000000003,0.8902895000000001,-0.2754065,0.2915385,0.8625495,-0.2405965,-0.0736505,0.00036450000000000024,-0.0019144999999999926,0.0736505,-0.00036450000000000024,0.0019144999999999995,-0.12861150000000002,-0.3763005,-0.1635565,0.13598849999999998,-0.3758605,-0.13801449999999998,-0.13922150000000003,-0.6781505,-0.1509575,0.1292885,-0.6789805,-0.1405195
55,0.0024100000000000024,0.691609,-0.0624365,-0.14249499999999998,0.49651900000000004,-0.052713499999999996,-0.220735,0.687689,-0.1667225,0.146755,0.482229,-0.05075249999999999,0.252475,0.6700590000000001,-0.1451735,-0.243825,0.887559,-0.2854325,0.291575,0.8608790000000001,-0.2500925,-0.073679,0.00037000000000000227,-0.0019124999999999975,0.073679,-0.0003699999999999988,0.0019124999999999975,-0.128305,-0.367781,-0.1716025,0.136835,-0.367221,-0.1444295,-0.139085,-0.669631,-0.1557075,0.129555,-0.670341,-0.14508349999999998
56,0.0029289999999999976,0.6893975000000001,-0.06809799999999999,-0.14149599999999998,0.4947375,-0.058087,-0.219476,0.6852374999999999,-0.17448999999999998,0.146254,0.4800475,-0.056297,0.252534,0.6672175,-0.152337,-0.242426,0.8840574999999999,-0.29532,0.29165399999999997,0.8586674999999999,-0.2592,-0.073785,0.00035349999999999965,-0.0019279999999999992,0.073785,-0.00035349999999999965,0.0019279999999999992,-0.127826,-0.3582225,-0.17968,0.137994,-0.3575125,-0.151217,-0.138686,-0.6600725000000001,-0.160551,0.130024,-0.6606325,-0.149615
57,0.004101999999999996,0.6888074999999999,-0.07820150000000001,-0.14003900000000002,0.4940175,-0.0682985,-0.217919,0.6837774999999999,-0.1861885,0.14629099999999998,0.4793375,-0.0666445,0.25283100000000003,0.6659575,-0.1638865,-0.240989,0.8820175,-0.3083685,0.292331,0.8586075,-0.2728785,-0.073884,0.0003374999999999975,-0.0018795000000000062,0.073884,-0.0003374999999999975,0.0018794999999999923,-0.12693900000000002,-0.3470525,-0.1920085,0.139551,-0.3463225,-0.1626475,-0.137799,-0.6489025,-0.17046250000000002,0.130921,-0.6494425,-0.1588225
58,0.0057014999999999965,0.6873779999999999,-0.08828050000000001,-0.13812850000000002,0.490828,-0.07870350000000001,-0.21606850000000002,0.680648,-0.1974595,0.1465515,0.478448,-0.07691550000000001,0.2534515,0.664598,-0.1753805,-0.2394885,0.878378,-0.32103950000000003,0.2934015,0.859008,-0.2865595,-0.0740085,0.0002479999999999982,-0.001866500000000007,0.0740085,-0.00024800000000000516,0.0018664999999999932,-0.12569850000000002,-0.333052,-0.2063095,0.1419115,-0.331722,-0.17678750000000001,-0.1365385,-0.634312,-0.18140650000000003,0.1320415,-0.634152,-0.1680415
59,0.0069660000000000034,0.6869025,-0.0977575,-0.136265,0.4873625,-0.0887135,-0.214315,0.6774825,-0.20795550000000002,0.146795,0.4777325,-0.0868835,0.254135,0.6633125,-0.1866905,-0.23812500000000003,0.8738724999999999,-0.3335855,0.294655,0.8597724999999999,-0.2996855,-0.07412099999999999,0.00011249999999998761,-0.0018945000000000073,0.07412099999999999,-0.00011250000000000149,0.0018944999999999934,-0.12446499999999999,-0.3187975,-0.21978550000000002,0.144325,-0.31648750000000003,-0.1904075,-0.134955,-0.6194475,-0.1914725,0.133415,-0.6178375,-0.1766695
60,0.008273999999999998,0.686167,-0.10685,-0.134434,0.48559699999999995,-0.098031,-0.212494,0.675077,-0.218055,0.14799600000000002,0.47651699999999997,-0.096228,0.255156,0.661737,-0.197539,-0.23659399999999997,0.869747,-0.346125,0.295796,0.8585470000000001,-0.312005,-0.074245,8.999999999999286e-05,-0.0019949999999999968,0.074245,-9.000000000000674e-05,0.0019949999999999968,-0.12323399999999998,-0.304203,-0.23272500000000002,0.14674600000000002,-0.30121299999999995,-0.203595,-0.133384,-0.603953,-0.20121699999999998,0.134746,-0.601413,-0.184885
61,0.009365000000000002,0.6850455,-0.115738,-0.13297499999999998,0.4837755,-0.10724099999999999,-0.210865,0.6727455,-0.22782,0.149145,0.4753455,-0.105489,0.256205,0.6600655,-0.20821499999999998,-0.234975,0.8669155,-0.35675,0.296885,0.8570654999999999,-0.32395,-0.074347,0.00013950000000000073,-0.00204,0.074347,-0.00013950000000000073,0.00204,-0.12217499999999998,-0.2877845,-0.24539,0.14910500000000002,-0.2853445,-0.21687,-0.13183499999999998,-0.5866345000000001,-0.21097,0.136105,-0.5843145000000001,-0.193153
62,0.0106355,0.6832550000000001,-0.126484,-0.1316715,0.48126499999999994,-0.11803400000000001,-0.20917149999999998,0.669525,-0.239625,0.1504585,0.47418499999999997,-0.11621300000000001,0.2572885,0.6580050000000001,-0.220895,-0.2333415,0.862965,-0.36984500000000003,0.2981085,0.854405,-0.338785,-0.0744545,7.499999999999174e-05,-0.0021050000000000096,0.0744545,-7.500000000000562e-05,0.0021049999999999958,-0.1212715,-0.268655,-0.25949500000000003,0.15172850000000002,-0.267285,-0.232255,-0.13024149999999998,-0.566495,-0.221425,0.13762850000000001,-0.564945,-0.20231700000000002
63,0.011848000000000003,0.6813849999999999,-0.137184,-0.130049,0.478515,-0.128593,-0.207749,0.6659649999999999,-0.251425,0.15155100000000002,0.472095,-0.127023,0.258341,0.6555150000000001,-0.233035,-0.23213899999999998,0.8590150000000001,-0.382605,0.299221,0.8518650000000001,-0.352965,-0.07461000000000001,-2.4999999999997247e-05,-0.0021650000000000003,0.07461000000000001,2.4999999999997247e-05,0.0021650000000000003,-0.12056899999999998,-0.24994499999999997,-0.273475,0.154331,-0.249025,-0.247595,-0.128629,-0.546805,-0.231815,0.139081,-0.5452950000000001,-0.211343
64,0.013120500000000002,0.678895,-0.14825100000000002,-0.1282705,0.47552500000000003,-0.139827,-0.2063805,0.6624650000000001,-0.26415,0.1525795,0.468955,-0.138298,0.2594995,0.651715,-0.24595,-0.2306205,0.854225,-0.39721,0.3004095,0.8482050000000001,-0.36739,-0.0746205,-5.4999999999999494e-05,-0.0024100000000000232,0.0746205,5.4999999999999494e-05,0.0024099999999999955,-0.1199005,-0.229035,-0.2878,0.1568995,-0.22934499999999997,-0.26319000000000004,-0.1269105,-0.525015,-0.24228,0.1405595,-0.5243249999999999,-0.22051700000000002
65,0.0142825,0.673635,-0.15991899999999998,-0.1266805,0.477585,-0.1518,-0.2052405,0.660675,-0.277765,0.1532995,0.46602499999999997,-0.149415,0.2605195,0.647815,-0.259225,-0.2295305,0.851715,-0.413395,0.3015595,0.8430150000000001,-0.383075,-0.0746305,0.0010949999999999849,-0.0025249999999999995,0.0746305,-0.0010950000000000126,0.0025249999999999995,-0.1193305,-0.20575500000000002,-0.301975,0.1591695,-0.20781500000000003,-0.278835,-0.1253405,-0.5008650000000001,-0.252495,0.14173950000000002,-0.501555,-0.22966999999999999
66,0.015292499999999997,0.668425,-0.166901,-0.1255615,0.47201499999999996,-0.159104,-0.2045615,0.654385,-0.287155,0.1536385,0.463395,-0.156113,0.26121849999999996,0.643995,-0.268045,-0.2279815,0.8431949999999999,-0.42595500000000003,0.3024585,0.8380049999999999,-0.394175,-0.0746515,0.0009249999999999814,-0.002625000000000016,0.0746515,-0.0009250000000000091,0.0026249999999999885,-0.1190215,-0.18167500000000003,-0.311765,0.1610185,-0.185805,-0.289415,-0.1240915,-0.475975,-0.25788500000000003,0.1426085,-0.478265,-0.234301
67,0.016027999999999994,0.66485,-0.174331,-0.124445,0.46914999999999996,-0.166209,-0.20358500000000002,0.64999,-0.297255,0.153605,0.45986000000000005,-0.16292600000000002,0.261775,0.63945,-0.276575,-0.22647500000000004,0.8367899999999999,-0.439045,0.303065,0.83209,-0.40519499999999997,-0.074605,0.0009399999999999964,-0.0027649999999999897,0.074605,-0.0009399999999999964,0.0027649999999999897,-0.11887500000000001,-0.16145,-0.31850500000000004,0.162095,-0.16557999999999998,-0.296835,-0.12302500000000002,-0.45575,-0.262575,0.143425,-0.45804,-0.238906
68,0.016859,0.66077,-0.181836,-0.12348900000000002,0.46687,-0.17343,-0.202999,0.64603,-0.30779,0.153611,0.45602,-0.169818,0.262331,0.6349400000000001,-0.28503,-0.225099,0.83145,-0.45199,0.303831,0.82617,-0.41604,-0.07460900000000001,0.0010600000000000054,-0.002819999999999989,0.07460900000000001,-0.0010600000000000054,0.002819999999999989,-0.118729,-0.14045000000000002,-0.32524,0.163051,-0.14458,-0.30434,-0.12223900000000001,-0.43474999999999997,-0.26724000000000003,0.144071,-0.43704,-0.243391
69,0.017747500000000003,0.6560349999999999,-0.189454,-0.1224815,0.464435,-0.180953,-0.2018415,0.642065,-0.3196,0.1535485,0.453755,-0.176931,0.2628585,0.630815,-0.29454,-0.2235315,0.826435,-0.46484000000000003,0.3047685,0.820775,-0.42788000000000004,-0.0746115,0.0011549999999999894,-0.0028800000000000214,0.0746115,-0.0011550000000000171,0.0028799999999999937,-0.1185715,-0.11833500000000002,-0.33203000000000005,0.1639985,-0.12246499999999999,-0.31172,-0.12144150000000001,-0.412635,-0.27203,0.1450685,-0.414925,-0.247921
70,0.018695000000000003,0.6508499999999999,-0.1973,-0.12196,0.4615,-0.189053,-0.20061,0.63707,-0.331695,0.15358,0.45133999999999996,-0.18485100000000002,0.26368,0.6271100000000001,-0.304605,-0.22167,0.82006,-0.479105,0.30615000000000003,0.81481,-0.441395,-0.07435,0.0011499999999999844,-0.003165000000000001,0.07435,-0.0011499999999999844,0.003165000000000001,-0.11811999999999999,-0.09595999999999999,-0.33852499999999996,0.16509,-0.10069,-0.31872500000000004,-0.12041999999999999,-0.38977999999999996,-0.276505,0.14604,-0.39275,-0.251883
71,0.019728999999999997,0.6461300000000001,-0.20277299999999998,-0.121378,0.45967,-0.195076,-0.19912800000000003,0.63336,-0.34092,0.15368199999999999,0.44896,-0.19070499999999999,0.264912,0.62323,-0.31235,-0.21909800000000001,0.81454,-0.49127,0.30770200000000003,0.8094600000000001,-0.45156,-0.074288,0.0012300000000000089,-0.003479999999999983,0.07428799999999999,-0.0012299999999999534,0.003480000000000011,-0.11764799999999999,-0.07569999999999999,-0.34301,0.16600199999999998,-0.08048999999999995,-0.32306999999999997,-0.11927800000000001,-0.36900999999999995,-0.27988999999999997,0.14705200000000002,-0.37198999999999993,-0.25512599999999996
72,0.02066,0.641845,-0.207288,-0.12081900000000001,0.457585,-0.200221,-0.197739,0.629855,-0.34861,0.154091,0.446575,-0.195374,0.265961,0.6191450000000001,-0.31927,-0.216419,0.809115,-0.50197,0.30933099999999997,0.803705,-0.46087,-0.074179,0.0013250000000000206,-0.003909999999999997,0.074179,-0.0013250000000000206,0.003909999999999997,-0.117149,-0.05528499999999997,-0.34632,0.166791,-0.060004999999999975,-0.32630000000000003,-0.11823900000000001,-0.34844499999999995,-0.2824,0.148091,-0.351405,-0.257671
73,0.021554500000000004,0.6378950000000001,-0.210856,-0.1200595,0.455075,-0.203847,-0.1967395,0.6257250000000001,-0.35492,0.1546205,0.44470400000000004,-0.199116,0.2669705,0.6159650000000001,-0.32499999999999996,-0.2139295,0.803435,-0.51061,0.3108205,0.798575,-0.46943999999999997,-0.0741395,0.0013050000000000006,-0.004269999999999996,0.0741395,-0.0013050000000000006,0.004269999999999996,-0.11685949999999999,-0.035424999999999984,-0.3484,0.1674505,-0.03970499999999999,-0.32828,-0.11762949999999998,-0.32859499999999997,-0.2842,0.1490205,-0.331075,-0.25946199999999997
74,0.022457500000000005,0.63713,-0.21340199999999998,-0.1192455,0.448368,-0.20587,-0.1957755,0.62032,-0.359535,0.1550945,0.445316,-0.20177,0.2681945,0.61435,-0.330185,-0.2116155,0.7960400000000001,-0.5170349999999999,0.3121345,0.7956,-0.476625,-0.07409550000000001,3.999999999998449e-05,-0.00462499999999999,0.07409550000000001,-3.999999999998449e-05,0.004625000000000018,-0.1165755,-0.018569999999999975,-0.349545,0.1679245,-0.022029999999999994,-0.328775,-0.1173855,-0.31185999999999997,-0.285885,0.1493845,-0.31339,-0.260398
75,0.023376999999999995,0.63489,-0.21564100000000003,-0.118394,0.448924,-0.20793000000000003,-0.194744,0.61933,-0.36389000000000005,0.15556599999999998,0.443811,-0.204053,0.269326,0.61138,-0.33457000000000003,-0.209264,0.79312,-0.52379,0.313476,0.79077,-0.48319,-0.074044,0.00029000000000001247,-0.004620000000000013,0.074044,-0.00029000000000001247,0.004619999999999985,-0.116474,-0.0019299999999999873,-0.35018000000000005,0.168466,-0.005139999999999978,-0.32895,-0.11729400000000001,-0.29535999999999996,-0.2872,0.149616,-0.29666000000000003,-0.261189
76,0.024051500000000007,0.63264,-0.21746,-0.11757049999999998,0.449123,-0.21,-0.1938105,0.61808,-0.36780999999999997,0.1559095,0.443259,-0.206194,0.2702895,0.6093500000000001,-0.33894,-0.2071305,0.79023,-0.5291699999999999,0.3145295,0.78704,-0.48961,-0.0741005,0.0004899999999999904,-0.00470000000000001,0.07410050000000001,-0.0004899999999999904,0.00470000000000001,-0.11650049999999999,0.014660000000000006,-0.35046,0.16866950000000003,0.012019999999999975,-0.32901,-0.11746049999999998,-0.27890000000000004,-0.28827,0.1495795,-0.27956000000000003,-0.261675
77,0.023775000000000004,0.630405,-0.219201,-0.117589,0.44888500000000003,-0.21199700000000002,-0.19375900000000001,0.616685,-0.3693,0.155281,0.44286800000000004,-0.20824600000000001,0.27054100000000003,0.607125,-0.34294,-0.205699,0.787405,-0.5344800000000001,0.314751,0.7835350000000001,-0.49574,-0.07446900000000001,0.0005749999999999922,-0.004820000000000019,0.07446900000000001,-0.0005749999999999922,0.004819999999999991,-0.117169,0.03175500000000003,-0.35048,0.16811099999999998,0.030535000000000034,-0.32894,-0.11829900000000002,-0.262055,-0.28922000000000003,0.148391,-0.259875,-0.261556
78,0.023661,0.62863,-0.220382,-0.11748199999999999,0.44872999999999996,-0.213279,-0.192992,0.61544,-0.37238499999999997,0.15484799999999999,0.44275699999999996,-0.20968199999999998,0.270388,0.6059599999999999,-0.345425,-0.20418199999999997,0.78491,-0.539145,0.31496799999999997,0.7809299999999999,-0.500375,-0.074442,0.0006899999999999684,-0.005275000000000002,0.07444200000000001,-0.0006900000000000239,0.005275000000000002,-0.117332,0.04796999999999996,-0.350045,0.167638,0.04786999999999997,-0.32842499999999997,-0.118692,-0.24604000000000004,-0.288835,0.147438,-0.24291000000000007,-0.261167
79,0.023374,0.627255,-0.221294,-0.11736600000000001,0.447275,-0.214081,-0.19246600000000003,0.613705,-0.373975,0.154414,0.443851,-0.210108,0.270344,0.6050249999999999,-0.347375,-0.203386,0.781965,-0.542335,0.315144,0.779485,-0.503025,-0.074396,0.0005649999999999822,-0.005695000000000006,0.07439599999999999,-0.0005649999999999822,0.005695000000000006,-0.11747600000000001,0.060085,-0.34945499999999996,0.167284,0.061255000000000004,-0.327565,-0.11905600000000001,-0.23409500000000005,-0.288305,0.146304,-0.22940499999999997,-0.260436
80,0.0229905,0.62608,-0.222238,-0.11719550000000001,0.444974,-0.215013,-0.1918955,0.61159,-0.37557,0.1539945,0.444338,-0.210788,0.27033450000000003,0.6043,-0.34903,-0.2026755,0.77935,-0.5448999999999999,0.3152645,0.77827,-0.50537,-0.0743455,0.00037999999999999146,-0.006120000000000014,0.07434550000000001,-0.00038000000000004697,0.0061199999999999866,-0.1175255,0.07075999999999999,-0.34901000000000004,0.1672045,0.07177,-0.32672,-0.11920549999999999,-0.22352000000000005,-0.28802,0.1447245,-0.21894999999999998,-0.259681
81,0.022395499999999992,0.62415,-0.223162,-0.1169545,0.443888,-0.215813,-0.19135449999999998,0.61015,-0.37687499999999996,0.1535955,0.44454899999999997,-0.211581,0.2699555,0.60398,-0.350675,-0.2020745,0.7768999999999999,-0.547185,0.3148955,0.7775,-0.507585,-0.0742845,0.00045000000000000595,-0.006535000000000013,0.0742845,-0.00045000000000000595,0.006535000000000013,-0.1176445,0.08181,-0.347955,0.1670755,0.08282,-0.32515499999999997,-0.1193945,-0.21247000000000005,-0.28774500000000003,0.1432855,-0.20871000000000006,-0.259571
82,0.021864999999999996,0.6224449999999999,-0.223683,-0.116993,0.44327099999999997,-0.21643800000000002,-0.19094300000000003,0.6090249999999999,-0.37778,0.153127,0.44482399999999994,-0.21182499999999999,0.269867,0.603985,-0.3514,-0.201573,0.7750549999999999,-0.54889,0.314567,0.7772349999999999,-0.50879,-0.074223,0.0005549999999999722,-0.006720000000000004,0.074223,-0.0005550000000000277,0.006720000000000004,-0.11784299999999999,0.09085499999999996,-0.34679000000000004,0.16684700000000002,0.09186499999999997,-0.32350999999999996,-0.119623,-0.20342500000000008,-0.28733,0.141857,-0.200415,-0.259359
83,0.020531999999999998,0.62005,-0.22403599999999999,-0.1173,0.44279999999999997,-0.21715299999999998,-0.19115,0.60819,-0.378865,0.15228999999999998,0.443988,-0.21218299999999998,0.26891,0.603371,-0.351825,-0.20177,0.7736000000000001,-0.550805,0.31339,0.77641,-0.509575,-0.0742,0.0009200000000000319,-0.006855,0.07419999999999999,-0.0009200000000000319,0.006855,-0.11844,0.09933999999999998,-0.345875,0.1663,0.10214000000000001,-0.321875,-0.12063,-0.19493000000000005,-0.28712499999999996,0.14037,-0.19054000000000004,-0.259623
84,0.018945999999999998,0.61764,-0.22413300000000003,-0.117937,0.440518,-0.21774500000000002,-0.191567,0.606065,-0.379085,0.151363,0.443163,-0.212456,0.26770299999999997,0.602527,-0.352295,-0.20243699999999998,0.77206,-0.551065,0.311743,0.7759400000000001,-0.510015,-0.074157,0.0010299999999999754,-0.006855,0.074157,-0.0010299999999999754,0.006855,-0.11894700000000001,0.10632000000000003,-0.345075,0.16568299999999997,0.10999999999999999,-0.320475,-0.121457,-0.18801999999999996,-0.28703500000000004,0.139533,-0.18301,-0.259146
85,0.0174125,0.6146780000000001,-0.224275,-0.11842249999999999,0.43819700000000006,-0.218248,-0.1921225,0.603929,-0.37943499999999997,0.1503175,0.44209800000000005,-0.212732,0.2665875,0.60117,-0.35284499999999996,-0.2031925,0.770105,-0.551525,0.3099375,0.7749550000000001,-0.510555,-0.0741225,0.0010950000000000681,-0.006855,0.07412250000000001,-0.0010949999999999571,0.006855,-0.11925250000000001,0.11309500000000006,-0.34436500000000003,0.1652275,0.11727500000000002,-0.31898499999999996,-0.12208250000000001,-0.18133500000000002,-0.286745,0.1387675,-0.17620499999999995,-0.25882700000000003
86,0.015813999999999998,0.611647,-0.224372,-0.11907200000000001,0.43541300000000005,-0.218723,-0.192832,0.601283,-0.37948,0.149058,0.44082200000000005,-0.21285199999999999,0.264968,0.600102,-0.35319999999999996,-0.204192,0.76734,-0.55159,0.30776800000000004,0.77392,-0.51084,-0.074042,0.0011200000000000099,-0.006849999999999995,0.074042,-0.0011200000000000099,0.006849999999999995,-0.119612,0.11433000000000004,-0.3435,0.164758,0.12353000000000003,-0.31743,-0.12273200000000001,-0.18016999999999994,-0.28632,0.13783800000000002,-0.17009999999999992,-0.257665
87,0.014319500000000002,0.606507,-0.223909,-0.1196765,0.431115,-0.218552,-0.1937165,0.59752,-0.37902,0.1480935,0.43859100000000006,-0.212286,0.2632435,0.598368,-0.35275,-0.20494649999999998,0.7637550000000001,-0.55077,0.3051135,0.772335,-0.51025,-0.0736665,0.0011250000000000426,-0.0068999999999999895,0.0736665,-0.0011249999999999316,0.0068999999999999895,-0.1204265,0.11546500000000004,-0.34237,0.1652535,0.12640500000000005,-0.31556,-0.1230565,-0.17907499999999998,-0.28575,0.1373435,-0.167145,-0.25707
88,0.013176499999999997,0.601705,-0.223392,-0.12042050000000001,0.428585,-0.218074,-0.1944605,0.595055,-0.378495,0.1471095,0.435335,-0.211695,0.2614095,0.596076,-0.352295,-0.2056905,0.761225,-0.550235,0.3023595,0.7703150000000001,-0.509645,-0.0732705,0.0013849999999999696,-0.006855,0.0732705,-0.0013849999999999696,0.006855,-0.12122050000000001,0.11539500000000003,-0.341725,0.1657595,0.128465,-0.31427499999999997,-0.12336050000000001,-0.17915499999999995,-0.285115,0.1367895,-0.16498499999999994,-0.256454
89,0.012157000000000001,0.5970219999999999,-0.223099,-0.121003,0.42593499999999995,-0.217844,-0.195053,0.59246,-0.37815,0.146177,0.43220499999999995,-0.21138,0.259407,0.5939949999999999,-0.35212,-0.206283,0.758385,-0.54991,0.29975700000000005,0.768475,-0.50953,-0.072983,0.001654999999999962,-0.0068100000000000105,0.072983,-0.001655000000000073,0.0068100000000000105,-0.121863,0.11567499999999997,-0.34140000000000004,0.166437,0.13116499999999998,-0.31343,-0.123583,-0.1789550000000001,-0.28476,0.13647700000000001,-0.16276500000000005,-0.256348
90,0.010972500000000003,0.59885,-0.21850799999999998,-0.12173849999999999,0.42891,-0.21335499999999996,-0.19583849999999997,0.595162,-0.37366499999999997,0.14496150000000002,0.43578,-0.20676399999999998,0.2576615,0.597673,-0.347735,-0.20721849999999997,0.7613099999999999,-0.545755,0.2975815,0.77243,-0.505215,-0.0726985,0.0010799999999999699,-0.0065649999999999875,0.0726985,-0.0010799999999999699,0.006565000000000015,-0.12356850000000001,0.12207000000000001,-0.336875,0.16788150000000002,0.13979999999999998,-0.30872499999999997,-0.11956850000000001,-0.17279999999999995,-0.292095,0.1367915,-0.15453000000000006,-0.252471
91,0.009884500000000001,0.600862,-0.213381,-0.1224885,0.43176000000000003,-0.208439,-0.1971185,0.598082,-0.369185,0.1438115,0.4394,-0.201851,0.2561015,0.601256,-0.34291499999999997,-0.2085485,0.76427,-0.541615,0.2954515,0.77623,-0.500345,-0.0724185,0.0005199999999999649,-0.006205000000000016,0.0724185,-0.0005199999999999649,0.006204999999999988,-0.1254285,0.12823,-0.33208499999999996,0.1693715,0.14822999999999997,-0.303735,-0.11559849999999999,-0.16678000000000004,-0.299385,0.1382715,-0.14651999999999998,-0.248728
92,0.009015500000000003,0.603146,-0.208677,-0.1232355,0.43479999999999996,-0.20391299999999998,-0.1984255,0.600872,-0.3648,0.14276450000000002,0.44359999999999994,-0.197205,0.2547045,0.605444,-0.33845,-0.2097955,0.76705,-0.5375300000000001,0.2936145,0.78055,-0.49588,-0.0720555,-0.00017000000000000348,-0.005839999999999984,0.0720555,0.00017000000000000348,0.005840000000000012,-0.1274655,0.13242999999999994,-0.32779,0.17098449999999998,0.15456999999999993,-0.29912,-0.1115255,-0.16268000000000005,-0.3071,0.1394845,-0.14044,-0.246434
93,0.008118000000000004,0.605551,-0.203699,-0.123923,0.43901999999999997,-0.19910699999999998,-0.199833,0.604341,-0.36014,0.141837,0.44800999999999996,-0.19214,0.253467,0.609617,-0.33386,-0.211723,0.77025,-0.53296,0.291937,0.7848499999999999,-0.49146,-0.07177700000000001,-0.0008200000000000429,-0.005500000000000005,0.07177700000000001,0.0008199999999999319,0.005500000000000005,-0.129853,0.13545999999999997,-0.32406,0.172587,0.15996999999999995,-0.29473,-0.10750300000000002,-0.15977000000000008,-0.31543,0.140987,-0.13524000000000003,-0.24351699999999998
94,0.007291999999999996,0.6082270000000001,-0.198756,-0.12454899999999999,0.4428,-0.194287,-0.201039,0.607554,-0.35522,0.140931,0.4522900000000001,-0.187101,0.252231,0.613939,-0.32931,-0.213629,0.77336,-0.52804,0.290471,0.7891900000000001,-0.48685999999999996,-0.071546,-0.0014399999999999968,-0.00519,0.071546,0.0014399999999999968,0.00519,-0.131559,0.13840000000000002,-0.32037,0.174151,0.16477000000000003,-0.29042999999999997,-0.103379,-0.15696999999999994,-0.32384999999999997,0.142521,-0.13059999999999994,-0.24107
95,0.006769500000000001,0.6099270000000001,-0.19767599999999996,-0.12497149999999999,0.44556500000000004,-0.19328399999999998,-0.2021815,0.6104120000000001,-0.353935,0.1402585,0.45584500000000006,-0.18603599999999998,0.2513285,0.617545,-0.328605,-0.2153215,0.776355,-0.526535,0.2893285,0.7929350000000001,-0.486135,-0.07127549999999999,-0.0019449999999999745,-0.004154999999999992,0.07127549999999999,0.0019450000000000855,0.00415500000000002,-0.1317815,0.14563500000000007,-0.318755,0.1740285,0.17167500000000008,-0.289525,-0.09899149999999998,-0.149895,-0.334515,0.1422685,-0.12256499999999992,-0.24016499999999996
96,0.006400999999999997,0.6140769999999999,-0.19614,-0.12524200000000002,0.4503249999999999,-0.19190800000000002,-0.203242,0.6149379999999999,-0.35242,0.139768,0.4603049999999999,-0.184585,0.250848,0.6218899999999999,-0.3274,-0.216842,0.7807849999999998,-0.52505,0.288858,0.7973549999999999,-0.48487,-0.071001,-0.002535000000000065,-0.0032200000000000006,0.071001,0.002534999999999954,0.0032200000000000006,-0.13185200000000002,0.1512849999999999,-0.31674,0.173918,0.17784499999999992,-0.28832,-0.094422,-0.14432500000000015,-0.34478,0.142088,-0.11638500000000007,-0.237795
97,0.006134999999999998,0.6186569999999999,-0.194762,-0.12544899999999998,0.45490499999999995,-0.190527,-0.20431900000000003,0.6195179999999999,-0.3507,0.139351,0.46488499999999994,-0.183184,0.250441,0.62647,-0.32594,-0.218159,0.7853649999999999,-0.52315,0.288501,0.801935,-0.48324,-0.070729,-0.00311500000000009,-0.0024300000000000155,0.070729,0.003114999999999979,0.0024299999999999877,-0.131959,0.15586499999999992,-0.31614,0.17391099999999998,0.18242499999999995,-0.2877,-0.09436900000000001,-0.13974500000000012,-0.34519,0.141971,-0.11178500000000002,-0.235423
98,0.0055170000000000045,0.620517,-0.190913,-0.126134,0.45676500000000003,-0.18669000000000002,-0.20574399999999998,0.621378,-0.34641500000000003,0.138636,0.466745,-0.17934,0.249616,0.62833,-0.321755,-0.219964,0.7872250000000001,-0.518405,0.28739600000000004,0.803795,-0.478895,-0.07011,-0.0036650000000000293,-0.0020150000000000168,0.07011,0.0036650000000000293,0.002014999999999989,-0.13230399999999998,0.157725,-0.312985,0.17344600000000002,0.18428500000000003,-0.284895,-0.094794,-0.13788500000000004,-0.34299500000000005,0.140326,-0.10958499999999993,-0.228375
99,0.005698999999999999,0.620517,-0.190874,-0.126122,0.45687500000000003,-0.186415,-0.206372,0.621378,-0.34643999999999997,0.138768,0.466845,-0.179138,0.249478,0.62833,-0.32145999999999997,-0.220752,0.7872250000000001,-0.5181,0.286918,0.803795,-0.47853,-0.06992999999999999,-0.0036650000000000293,-0.0019500000000000073,0.06992999999999999,0.0036650000000000293,0.0019500000000000073,-0.13218200000000002,0.157825,-0.3143,0.172898,0.187475,-0.28554999999999997,-0.09465200000000001,-0.13788500000000004,-0.34279000000000004,0.138608,-0.10477499999999995,-0.22612
100,0.0059215,0.623802,-0.190862,-0.1260995,0.458185,-0.18629900000000002,-0.2069195,0.622691,-0.346125,0.1389605,0.46699500000000005,-0.179125,0.2493605,0.62873,-0.321125,-0.2216695,0.788805,-0.5174350000000001,0.28647049999999996,0.804455,-0.478015,-0.0697075,-0.0036650000000000293,-0.00193500000000002,0.0697075,0.0036650000000000293,0.0019349999999999923,-0.1320395,0.16324500000000003,-0.315925,0.1721705,0.189865,-0.286465,-0.09504950000000001,-0.13265499999999997,-0.342815,0.1368605,-0.10073500000000002,-0.223883
101,0.0062825,0.629499,-0.191187,-0.12602950000000002,0.46328500000000006,-0.186108,-0.20725949999999999,0.62715,-0.346085,0.1393005,0.469855,-0.17917,0.24936049999999998,0.631744,-0.32138500000000003,-0.2228295,0.793405,-0.516955,0.28642049999999997,0.807735,-0.478045,-0.0693985,-0.0036650000000000293,-0.001915,0.0693985,0.0036650000000000293,0.001915,-0.1317795,0.16874500000000003,-0.316245,0.1712705,0.191365,-0.28730500000000003,-0.0948495,-0.12719499999999995,-0.342805,0.1350405,-0.097445,-0.221545
102,0.006988499999999998,0.628438,-0.195996,-0.1258605,0.46211,-0.19052,-0.2072905,0.625915,-0.350385,0.1400695,0.46631,-0.184017,0.2498495,0.629176,-0.325975,-0.2231505,0.79305,-0.520575,0.2866795,0.80586,-0.482565,-0.0696035,-0.0024100000000000232,-0.001354999999999995,0.0696035,0.0024100000000000232,0.001354999999999995,-0.1294305,0.16410999999999998,-0.321075,0.1695895,0.18324000000000001,-0.292805,-0.0984405,-0.13139,-0.336045,0.1338895,-0.10423000000000004,-0.222816
103,0.007977500000000002,0.625521,-0.20191800000000001,-0.1253685,0.460105,-0.195527,-0.2070685,0.624109,-0.35515,0.1410515,0.460535,-0.189538,0.2502115,0.625411,-0.33121,-0.22335850000000002,0.791885,-0.52466,0.2871515,0.8023750000000001,-0.48697,-0.0698915,-0.0009050000000000447,-0.0006600000000000217,0.0698915,0.0009050000000000447,0.0006599999999999939,-0.1267785,0.15703499999999998,-0.32648,0.1678015,0.17294500000000002,-0.29900000000000004,-0.10168849999999999,-0.137915,-0.32959000000000005,0.1337315,-0.113425,-0.225722
104,0.009242,0.62797,-0.20745099999999997,-0.124746,0.45963,-0.20022099999999998,-0.206586,0.624018,-0.35945499999999997,0.14230399999999999,0.45969000000000004,-0.194814,0.250674,0.625119,-0.33591499999999996,-0.223086,0.79217,-0.528305,0.287584,0.80239,-0.490925,-0.070216,0.00034000000000000696,-0.0004049999999999887,0.070216,-0.00034000000000000696,0.00040500000000001646,-0.123866,0.14964,-0.331615,0.16628400000000002,0.16235,-0.305065,-0.10489599999999999,-0.14471999999999996,-0.32208499999999995,0.133964,-0.12287999999999999,-0.22888199999999997
105,0.010458500000000003,0.62577,-0.21253799999999998,-0.12411149999999999,0.45491000000000004,-0.204277,-0.20603149999999998,0.620038,-0.36267,0.1436485,0.45365,-0.199615,0.2509885,0.6203810000000001,-0.33995,-0.22330149999999999,0.78895,-0.53047,0.2878685,0.79827,-0.49412,-0.0706115,0.0014600000000000168,-0.00020999999999998797,0.0706115,-0.0014600000000000168,0.00021000000000001573,-0.1209915,0.13674000000000003,-0.33633,0.16485850000000002,0.14583000000000002,-0.31057999999999997,-0.1080515,-0.15698,-0.31372999999999995,0.1348685,-0.13840999999999992,-0.23210399999999998
106,0.011865499999999998,0.626707,-0.21730300000000002,-0.12347749999999999,0.453514,-0.208142,-0.2054675,0.6191679999999999,-0.365625,0.1449425,0.44992699999999997,-0.203966,0.2512525,0.617946,-0.343595,-0.22348749999999998,0.78746,-0.532415,0.2880825,0.79596,-0.496715,-0.0711475,0.0023100000000000342,0.00013499999999999623,0.0711475,-0.0023100000000000342,-0.00013499999999999623,-0.1188575,0.12439,-0.340965,0.1633525,0.13022,-0.316605,-0.1112175,-0.16927000000000003,-0.30500499999999997,0.1351425,-0.15300000000000002,-0.234369
107,0.012941500000000009,0.629288,-0.21984099999999998,-0.1230675,0.45374,-0.20999299999999999,-0.2052175,0.619844,-0.36665,0.14599250000000003,0.447616,-0.20637899999999998,0.2514325,0.617046,-0.34519999999999995,-0.22417749999999997,0.78939,-0.53213,0.2883025,0.79619,-0.49717,-0.0717675,0.0028200000000000447,0.0003599999999999992,0.07176750000000001,-0.0028200000000000447,-0.0003599999999999992,-0.11783749999999998,0.11124,-0.34399,0.1635025,0.11319000000000001,-0.32101999999999997,-0.11444749999999998,-0.18238,-0.29605,0.1353525,-0.16996,-0.235947
108,0.014002999999999995,0.6324799999999999,-0.22048199999999998,-0.122942,0.453341,-0.20915,-0.205072,0.62022,-0.36450499999999997,0.147058,0.445777,-0.20643099999999998,0.251608,0.61642,-0.34389499999999995,-0.225192,0.79017,-0.5295650000000001,0.288568,0.79627,-0.494785,-0.072382,0.0032600000000000406,0.0003250000000000197,0.072382,-0.0032600000000000406,-0.00032499999999999196,-0.11693200000000001,0.09244999999999998,-0.34513499999999997,0.163508,0.09095999999999999,-0.322895,-0.11783199999999999,-0.20111,-0.284725,0.136108,-0.19177,-0.23585
109,0.013916000000000008,0.63215,-0.220704,-0.123752,0.451936,-0.208409,-0.20502199999999998,0.61948,-0.36229500000000003,0.14722800000000003,0.44311700000000004,-0.206424,0.250768,0.61412,-0.342545,-0.225462,0.78974,-0.5266850000000001,0.28777800000000003,0.7945800000000001,-0.491685,-0.072282,0.0037800000000000056,0.00033500000000000196,0.07228200000000001,-0.0037800000000000056,-0.00033500000000000196,-0.117002,0.06384000000000001,-0.345665,0.162728,0.06312000000000001,-0.324225,-0.118282,-0.22973,-0.283295,0.135948,-0.21923000000000004,-0.235757
110,0.014460499999999998,0.632225,-0.219964,-0.12378750000000001,0.450019,-0.206885,-0.2046175,0.618845,-0.35923499999999997,0.1480425,0.440654,-0.20566800000000002,0.2504825,0.613885,-0.33938500000000005,-0.22600749999999997,0.789675,-0.522605,0.2878625,0.794815,-0.48750499999999997,-0.0728375,0.004274999999999973,-0.00022500000000000298,0.0728375,-0.004274999999999973,0.00022500000000000298,-0.1168975,0.03726499999999999,-0.345505,0.1627725,0.03509499999999999,-0.324305,-0.11799749999999999,-0.25616500000000003,-0.281045,0.13879249999999999,-0.24739499999999998,-0.237662
111,0.015612999999999998,0.6359,-0.21834,-0.12309900000000001,0.450057,-0.20405299999999998,-0.20405900000000002,0.61971,-0.355175,0.14938099999999999,0.44201999999999997,-0.204032,0.250741,0.61581,-0.335445,-0.225949,0.78818,-0.516665,0.28868099999999997,0.79738,-0.48258500000000004,-0.07325899999999999,0.003400000000000014,-0.0008350000000000024,0.07325899999999999,-0.003400000000000014,0.0008350000000000024,-0.11638900000000002,0.010809999999999986,-0.34392500000000004,0.163441,0.007589999999999986,-0.322715,-0.11710900000000002,-0.28235000000000005,-0.277845,0.141851,-0.27557000000000004,-0.23805199999999999
112,0.016359000000000002,0.6437999999999999,-0.21563,-0.12260499999999999,0.453225,-0.200684,-0.20361500000000002,0.62101,-0.34972000000000003,0.150435,0.44671299999999997,-0.201762,0.251165,0.6209,-0.33083,-0.22608499999999998,0.7897,-0.50985,0.289285,0.8036,-0.47658999999999996,-0.07366500000000001,0.0022099999999999898,-0.0012600000000000111,0.07366500000000001,-0.0022100000000000453,0.0012600000000000111,-0.11652500000000002,-0.019130000000000036,-0.34195,0.163805,-0.023860000000000048,-0.32071,-0.11554500000000001,-0.31165,-0.27441,0.144445,-0.30783000000000005,-0.237932
113,0.01742350000000001,0.64747,-0.214752,-0.12165649999999999,0.45504999999999995,-0.199035,-0.2028165,0.62467,-0.34572499999999995,0.15179350000000003,0.447225,-0.20110699999999998,0.25204350000000003,0.62332,-0.328065,-0.22546650000000001,0.79444,-0.504195,0.2901335,0.80697,-0.472615,-0.0739865,0.0013499999999999623,-0.0012749999999999984,0.07398650000000001,-0.0013500000000000179,0.0012749999999999984,-0.1162865,-0.04910000000000003,-0.341935,0.16455350000000002,-0.05507000000000001,-0.320665,-0.11413649999999999,-0.3410000000000001,-0.273405,0.1474235,-0.33989,-0.239607
114,0.017031500000000005,0.654185,-0.211241,-0.1222135,0.45992500000000003,-0.19446200000000002,-0.2032935,0.630425,-0.33858,0.1515465,0.4516450000000001,-0.19707600000000003,0.25133649999999996,0.6291150000000001,-0.32197,-0.22635349999999999,0.801035,-0.49513,0.2896365,0.8133950000000001,-0.46523000000000003,-0.0736235,0.0010050000000000336,-0.0016600000000000226,0.07362350000000001,-0.0010049999999999781,0.0016599999999999948,-0.11717349999999999,-0.07637499999999997,-0.33899,0.1636765,-0.08307499999999995,-0.31752,-0.11456349999999998,-0.3677849999999999,-0.26947,0.14792650000000002,-0.368815,-0.23780500000000002
115,0.0167485,0.659505,-0.205239,-0.12263950000000001,0.46282500000000004,-0.187148,-0.2033795,0.634595,-0.329025,0.1516405,0.455455,-0.190245,0.25129049999999997,0.634115,-0.31388499999999997,-0.2268895,0.805825,-0.483565,0.2895805,0.8197749999999999,-0.455245,-0.0734195,0.0007449999999999957,-0.00192500000000001,0.0734195,-0.0007449999999999957,0.00192500000000001,-0.1177095,-0.10602499999999998,-0.333155,0.1628505,-0.11146499999999998,-0.311195,-0.11492949999999999,-0.39721500000000004,-0.263515,0.1478505,-0.39857499999999996,-0.232863
116,0.016172000000000002,0.6653100000000001,-0.198042,-0.123239,0.46551,-0.179421,-0.202949,0.63791,-0.31935,0.151611,0.4588,-0.182757,0.250461,0.6385700000000001,-0.30457,-0.226999,0.80651,-0.47119,0.288651,0.82479,-0.44425000000000003,-0.073639,0.0006500000000000117,-0.0019699999999999995,0.07363900000000001,-0.0006500000000000117,0.0019699999999999995,-0.11844899999999998,-0.13507000000000002,-0.32611999999999997,0.162001,-0.13835999999999998,-0.30384999999999995,-0.11556899999999999,-0.4264,-0.25734,0.147631,-0.42716,-0.22761599999999999
117,0.015721,0.6714450000000001,-0.189167,-0.12367,0.470685,-0.171671,-0.20242000000000002,0.641005,-0.308075,0.15176,0.463955,-0.174478,0.25009,0.645105,-0.29374500000000003,-0.22672,0.8111349999999999,-0.45752499999999996,0.28808,0.831955,-0.43254499999999996,-0.07311999999999999,0.0006150000000000044,-0.0018650000000000055,0.07311999999999999,-0.0006150000000000044,0.0018650000000000055,-0.11938000000000001,-0.16063499999999997,-0.31703499999999996,0.16091999999999998,-0.16185499999999997,-0.294625,-0.11645,-0.45275499999999996,-0.250665,0.14729,-0.45219499999999996,-0.22196
118,0.015365,0.679515,-0.17942100000000002,-0.12418900000000001,0.475425,-0.16308200000000003,-0.201289,0.644105,-0.29635,0.151991,0.46965500000000004,-0.16574100000000003,0.24966100000000002,0.652935,-0.2824,-0.226369,0.8162050000000001,-0.44337000000000004,0.287271,0.8411350000000001,-0.41963,-0.072329,0.0005449999999999899,-0.0016500000000000126,0.072329,-0.0005449999999999899,0.0016499999999999848,-0.120569,-0.179735,-0.30463,0.15942099999999998,-0.18126499999999998,-0.28280000000000005,-0.11744900000000001,-0.4731449999999999,-0.24391000000000002,0.147201,-0.473085,-0.215561
119,0.014975500000000003,0.6873,-0.167722,-0.1243335,0.47972,-0.152925,-0.20041350000000002,0.6496500000000001,-0.28244,0.1523565,0.47511,-0.15515900000000002,0.24944650000000002,0.6589700000000001,-0.26981,-0.22723349999999998,0.82324,-0.42707000000000006,0.2869665,0.8486199999999999,-0.40466,-0.0715035,0.0005900000000000072,-0.0013800000000000062,0.0715035,-0.0005900000000000072,0.0013799999999999923,-0.1220835,-0.20027,-0.29034000000000004,0.15738649999999998,-0.20368000000000003,-0.26736000000000004,-0.11899349999999999,-0.49521,-0.23537000000000002,0.14648650000000002,-0.49737000000000003,-0.206843
120,0.014667499999999993,0.69649,-0.156111,-0.1244665,0.48358999999999996,-0.14354699999999998,-0.20028650000000003,0.65625,-0.268785,0.1523735,0.4789,-0.144887,0.24892350000000002,0.6649700000000001,-0.256055,-0.22780649999999997,0.8340500000000001,-0.41152500000000003,0.28629350000000003,0.85573,-0.387945,-0.0707565,0.000789999999999999,-0.0009249999999999953,0.0707565,-0.0007900000000000129,0.0009250000000000091,-0.1238865,-0.22608000000000003,-0.275145,0.1549535,-0.23324999999999999,-0.250635,-0.1203865,-0.52255,-0.22686499999999998,0.1449835,-0.52754,-0.198339
121,0.0143525,0.703302,-0.144896,-0.12466350000000001,0.484892,-0.13502,-0.20032350000000002,0.663312,-0.25595500000000004,0.1525365,0.481842,-0.135406,0.2484865,0.669452,-0.243135,-0.2273335,0.842962,-0.39600500000000005,0.28570650000000003,0.861502,-0.37258500000000006,-0.0700635,0.0010389999999999983,-0.00027499999999999747,0.0700635,-0.0010389999999999983,0.00027499999999999747,-0.1254435,-0.24768799999999996,-0.260255,0.1524265,-0.256358,-0.234295,-0.1217435,-0.545558,-0.218885,0.1441065,-0.550918,-0.19021
122,0.014121,0.7081615,-0.132601,-0.125115,0.4885515,-0.125026,-0.200485,0.6662515,-0.24270000000000003,0.152565,0.4830915,-0.12523499999999999,0.24834499999999998,0.6723414999999999,-0.22949000000000003,-0.227085,0.8470114999999999,-0.38022,0.28491500000000003,0.8660315,-0.35579,-0.069488,0.0011344999999999966,0.0006700000000000039,0.069488,-0.0011344999999999966,-0.0006700000000000039,-0.126805,-0.27026849999999997,-0.24384,0.149505,-0.2796785,-0.21681,-0.123305,-0.5693685,-0.20987,0.143195,-0.5748285000000001,-0.180806
123,0.013491000000000003,0.7129955,-0.115038,-0.125963,0.4928455,-0.109277,-0.20091299999999998,0.6724055,-0.224615,0.152667,0.48773550000000004,-0.109279,0.24779700000000002,0.6778755,-0.21093499999999998,-0.227313,0.8555155,-0.359265,0.283987,0.8733155,-0.334245,-0.06894800000000001,0.001175500000000003,0.0011700000000000044,0.06894800000000001,-0.001175499999999996,-0.0011700000000000044,-0.12734299999999998,-0.2925445,-0.216155,0.14585700000000001,-0.3025945,-0.190555,-0.124943,-0.5919544999999999,-0.192015,0.141767,-0.5980645,-0.165189
124,0.014124000000000001,0.7162085,-0.09836950000000001,-0.125721,0.4963885,-0.09453450000000001,-0.202021,0.6774685,-0.2072725,0.153749,0.4906685,-0.09442350000000001,0.248369,0.6820785,-0.1932125,-0.228111,0.8644185000000001,-0.3394825,0.284069,0.8791085000000001,-0.31364250000000005,-0.068913,0.0013695000000000027,0.001506499999999994,0.068913,-0.0013694999999999992,-0.0015065000000000078,-0.126391,-0.3118615,-0.18958250000000001,0.143339,-0.3221215,-0.1656545,-0.125371,-0.6113514999999999,-0.17470950000000002,0.141469,-0.6191715,-0.14995050000000001
125,0.014281499999999996,0.7182485,-0.0818035,-0.1261605,0.4988185,-0.0800525,-0.20208050000000002,0.6824684999999999,-0.1899345,0.1540995,0.4930685,-0.0799185,0.2481695,0.6861885,-0.1755045,-0.2272405,0.8745885,-0.32046450000000004,0.2835895,0.8848785,-0.2927345,-0.0689565,0.0016655,0.0017004999999999937,0.0689565,-0.0016655,-0.0017005000000000076,-0.12598050000000002,-0.3294415,-0.1635235,0.1403495,-0.34084149999999996,-0.14077250000000002,-0.12636050000000001,-0.6290215,-0.15761550000000002,0.1407195,-0.6393415,-0.1349605
126,0.013122999999999996,0.7190850000000001,-0.067204,-0.127801,0.498945,-0.065951,-0.203481,0.6876850000000001,-0.17449900000000002,0.15317899999999998,0.493145,-0.066189,0.246619,0.687635,-0.158519,-0.22783100000000003,0.8817550000000001,-0.302119,0.28169900000000003,0.8884150000000001,-0.27163899999999996,-0.069038,0.0020680000000000004,0.001913000000000005,0.069038,-0.0020680000000000004,-0.001912999999999998,-0.126861,-0.343275,-0.138838,0.136449,-0.357395,-0.117062,-0.128361,-0.6436949999999999,-0.140793,0.138849,-0.6572349999999999,-0.120457
127,0.0119525,0.7182385,-0.052794999999999995,-0.12924950000000002,0.49891849999999993,-0.052502,-0.2047695,0.6927285,-0.15922799999999998,0.1522905,0.49293849999999995,-0.052731,0.2450805,0.6892984999999999,-0.142178,-0.2280995,0.8888785,-0.284028,0.28004049999999997,0.8917984999999999,-0.252088,-0.0694715,0.0024034999999999994,0.0018799999999999997,0.0694715,-0.0024034999999999994,-0.0018799999999999997,-0.1274595,-0.35420149999999995,-0.116923,0.1330705,-0.3726115,-0.09472900000000001,-0.1298795,-0.6556915,-0.12407599999999999,0.1372705,-0.6734615,-0.10634
128,0.010899000000000002,0.717854,-0.039928,-0.130688,0.499404,-0.040242,-0.205978,0.6951940000000001,-0.145544,0.15146199999999999,0.493214,-0.040784999999999995,0.243692,0.691214,-0.12764999999999999,-0.228018,0.893644,-0.267604,0.278602,0.895444,-0.234064,-0.070072,0.0026399999999999965,0.0018770000000000037,0.070072,-0.00264,-0.0018769999999999967,-0.127748,-0.362196,-0.096313,0.130152,-0.384786,-0.074968,-0.131078,-0.664646,-0.108376,0.135762,-0.686496,-0.09326799999999999
129,0.009713500000000002,0.715576,-0.027334999999999998,-0.13211150000000002,0.499976,-0.027907999999999995,-0.2072415,0.697066,-0.131825,0.15063849999999998,0.49359600000000003,-0.028818999999999997,0.24238849999999998,0.692866,-0.11419499999999999,-0.22816150000000002,0.897396,-0.25132499999999997,0.2773585,0.898636,-0.217375,-0.0707125,0.0028359999999999982,0.0017670000000000012,0.0707125,-0.002836000000000005,-0.0017669999999999977,-0.1279515,-0.370794,-0.07669799999999999,0.1275385,-0.397914,-0.056989,-0.1323115,-0.673944,-0.09284200000000001,0.1342385,-0.700174,-0.08027
130,0.0083105,0.7133835000000001,-0.01427,-0.13368449999999998,0.5007835,-0.015238999999999999,-0.2091645,0.6986835,-0.11780600000000001,0.1495255,0.49374349999999995,-0.016489,0.2409655,0.6941335000000001,-0.09965,-0.2305045,0.9010435,-0.23424599999999998,0.2758755,0.9013935000000001,-0.199576,-0.07143949999999999,0.0030344999999999955,0.001667,0.07143949999999999,-0.0030345000000000025,-0.001667,-0.1282645,-0.3818865,-0.057962,0.1250955,-0.4114065,-0.039585,-0.13354449999999998,-0.6852765,-0.077491,0.1328655,-0.7139865,-0.067333
131,0.006964,0.7119795,-0.001834,-0.135048,0.49904950000000003,-0.003848,-0.210638,0.7004595,-0.10341600000000001,0.148532,0.4948095,-0.004729,0.23930200000000001,0.6962795,-0.084719,-0.230978,0.9050895,-0.216186,0.274412,0.9051595,-0.180746,-0.072108,0.003312499999999996,0.001157,0.072108,-0.003312500000000003,-0.0011569999999999998,-0.12850799999999998,-0.39391050000000005,-0.040848999999999996,0.12317199999999999,-0.42418049999999996,-0.023552,-0.134228,-0.6973104999999999,-0.063059,0.131622,-0.7267005,-0.055372
132,0.006055500000000002,0.7124900000000001,0.0049615,-0.1358695,0.49836,0.0012434999999999998,-0.2119195,0.70086,-0.0941635,0.1476105,0.49412,0.0005824999999999997,0.2381705,0.69693,-0.07496749999999999,-0.2319895,0.90699,-0.20357550000000002,0.2732105,0.9073100000000001,-0.16671550000000002,-0.0725335,0.003243000000000003,0.0009965,0.0725335,-0.003242999999999996,-0.0009965,-0.1292695,-0.39461999999999997,-0.0362185,0.12219050000000001,-0.42486999999999997,-0.0175915,-0.1349695,-0.69804,-0.058230500000000004,0.1310405,-0.72739,-0.0506285
133,0.005231999999999999,0.7132375,0.011269999999999999,-0.136623,0.4982375,0.005887,-0.213343,0.7010275,-0.08529199999999999,0.146817,0.4939975,0.0055509999999999995,0.23707699999999998,0.6975475,-0.065488,-0.23314300000000002,0.9086375,-0.19081700000000001,0.272077,0.9094075,-0.153057,-0.072902,0.0031605000000000036,0.0008939999999999998,0.072902,-0.0031604999999999966,-0.0008939999999999998,-0.129883,-0.3947425,-0.032160999999999995,0.12132699999999999,-0.4249925,-0.012104,-0.135603,-0.6981625,-0.053696,0.130677,-0.7275125,-0.046204999999999996
134,0.0044575,0.7136025,0.017228,-0.13731449999999998,0.49819250000000004,0.009992999999999998,-0.21461449999999999,0.7009825000000001,-0.076416,0.14612550000000002,0.4939525,0.010114,0.2361155,0.6976425,-0.05681,-0.23431449999999998,0.9096625,-0.178723,0.27108550000000003,0.9106025,-0.140923,-0.0731765,0.0031155,0.0009199999999999989,0.0731765,-0.0031155,-0.0009200000000000007,-0.1303945,-0.39478749999999996,-0.028477000000000002,0.1206255,-0.42503749999999996,-0.007689000000000001,-0.13618449999999999,-0.6982075,-0.049605,0.1304255,-0.7275575,-0.042154000000000004
135,0.0036904999999999976,0.7136819999999999,0.022882,-0.1378285,0.497612,0.013898,-0.2155585,0.700982,-0.068287,0.1454415,0.49348200000000003,0.014502000000000001,0.2350315,0.697792,-0.048724,-0.23542849999999999,0.910222,-0.16733599999999998,0.2699215,0.911712,-0.129986,-0.07344049999999999,0.0031149999999999997,0.0009510000000000005,0.07344049999999999,-0.0031149999999999997,-0.0009509999999999987,-0.1308585,-0.394418,-0.024929999999999997,0.12014149999999998,-0.424658,-0.004142,-0.1368385,-0.6978380000000001,-0.046033000000000004,0.1301915,-0.727218,-0.038372
136,0.0028484999999999986,0.7136795,0.0283125,-0.1384195,0.49615950000000003,0.0176485,-0.2165495,0.7009795000000001,-0.060408500000000004,0.1446005,0.49258949999999996,0.018638500000000002,0.2339305,0.6979295000000001,-0.040966499999999996,-0.2365995,0.9105295,-0.1565085,0.26878050000000003,0.9124494999999999,-0.1196285,-0.07362250000000001,0.003112499999999997,0.000958500000000001,0.07362250000000001,-0.003112500000000004,-0.0009584999999999975,-0.1313295,-0.3939305,-0.021497499999999996,0.1196605,-0.4246305,-0.0007094999999999983,-0.1375495,-0.6973805,-0.0425285,0.1299005,-0.7271605000000001,-0.0348085
137,0.0020290000000000048,0.7140555,0.033474500000000004,-0.13905800000000001,0.49506549999999994,0.021120500000000004,-0.217478,0.7009655,-0.053225499999999995,0.143792,0.49199550000000003,0.022568500000000002,0.232852,0.6983755,-0.0336825,-0.237898,0.9111255,-0.1468655,0.26763200000000004,0.9134154999999999,-0.11003550000000001,-0.073736,0.0030055000000000012,0.000847500000000001,0.073736,-0.0030055000000000012,-0.0008474999999999976,-0.131738,-0.3930845,-0.018792499999999997,0.119232,-0.42409450000000004,0.0024995000000000017,-0.138188,-0.6965545,-0.0393325,0.12965200000000002,-0.7266445,-0.0314925
138,0.001117499999999997,0.714544,0.0381545,-0.1398145,0.49425399999999997,0.0242975,-0.2188145,0.700784,-0.0467025,0.1429355,0.49164399999999997,0.026257500000000003,0.2317455,0.698964,-0.026902499999999996,-0.2396645,0.911704,-0.13804450000000001,0.2665355,0.914494,-0.10129450000000001,-0.07374349999999999,0.0028600000000000014,0.0007575000000000012,0.07374349999999999,-0.0028600000000000014,-0.0007574999999999978,-0.13221449999999998,-0.392096,-0.0169565,0.11884549999999999,-0.423376,0.005482500000000001,-0.1388245,-0.695586,-0.0363645,0.1293455,-0.725966,-0.028497500000000002
139,0.00039199999999999825,0.714574,0.0413415,-0.140459,0.49425399999999997,0.0268095,-0.220049,0.700784,-0.04204549999999999,0.14225100000000002,0.49164399999999997,0.028962500000000002,0.230871,0.698964,-0.021596499999999998,-0.24139900000000003,0.912074,-0.1318625,0.265671,0.914924,-0.09433249999999999,-0.07364,0.0028600000000000014,0.0006034999999999999,0.07364,-0.0028600000000000014,-0.0006034999999999999,-0.13253900000000002,-0.391696,-0.0159165,0.11851099999999999,-0.422906,0.007637500000000002,-0.139399,-0.695216,-0.033750499999999996,0.128901,-0.725536,-0.0258445
140,-0.00014649999999999733,0.714574,0.043588,-0.1409265,0.49425399999999997,0.028843,-0.2212265,0.700784,-0.039362999999999995,0.1417435,0.49164399999999997,0.031126,0.2302235,0.698964,-0.017798999999999995,-0.2431265,0.912454,-0.127859,0.2651635,0.915064,-0.090019,-0.0735005,0.0028600000000000014,0.0004880000000000023,0.0735005,-0.0028600000000000014,-0.00048799999999999885,-0.1326765,-0.39134599999999997,-0.015412999999999996,0.11826350000000001,-0.42253599999999997,0.009039000000000002,-0.1397565,-0.6948759999999999,-0.032000999999999995,0.1286135,-0.725176,-0.023920999999999998
141,-0.0004465000000000007,0.714764,0.0451065,-0.1411695,0.49425399999999997,0.0303655,-0.2220895,0.700634,-0.037878499999999996,0.1415205,0.49164399999999997,0.0326495,0.2298905,0.698964,-0.015379499999999997,-0.24436950000000002,0.912744,-0.12619350000000001,0.2649005,0.915204,-0.08773349999999999,-0.0733975,0.0028600000000000014,0.0002944999999999996,0.0733975,-0.0028600000000000014,-0.0002944999999999996,-0.13275949999999997,-0.391076,-0.0153335,0.1181905,-0.422046,0.009999500000000001,-0.1398395,-0.694636,-0.0305435,0.1285305,-0.724736,-0.0225765
142,-0.0007235000000000019,0.7150015000000001,0.0467225,-0.1412575,0.49346149999999994,0.0317875,-0.2229075,0.6996215,-0.036295499999999994,0.1413725,0.49129149999999994,0.034272500000000004,0.2298725,0.6982315,-0.013642499999999995,-0.24548750000000003,0.9119515,-0.1246275,0.2647825,0.9147315,-0.0857375,-0.0733825,0.0028004999999999974,4.450000000000287e-05,0.0733825,-0.0028004999999999974,-4.449999999999593e-05,-0.1327775,-0.39144850000000003,-0.015000499999999993,0.1181225,-0.4221285,0.011115500000000004,-0.1398675,-0.6950084999999999,-0.029169499999999994,0.12846249999999998,-0.7248585,-0.0211335
