sb224sc-HT22-VT27/4dt907/src/data/kinect_good_preprocessed_A9_mediapipe/A18_kinect_mirrored.csv
FrameNo,nose_3d_x,nose_3d_y,nose_3d_z,left_shoulder_3d_x,left_shoulder_3d_y,left_shoulder_3d_z,left_elbow_3d_x,left_elbow_3d_y,left_elbow_3d_z,right_shoulder_3d_x,right_shoulder_3d_y,right_shoulder_3d_z,right_elbow_3d_x,right_elbow_3d_y,right_elbow_3d_z,left_wrist_3d_x,left_wrist_3d_y,left_wrist_3d_z,right_wrist_3d_x,right_wrist_3d_y,right_wrist_3d_z,left_hip_3d_x,left_hip_3d_y,left_hip_3d_z,right_hip_3d_x,right_hip_3d_y,right_hip_3d_z,left_knee_3d_x,left_knee_3d_y,left_knee_3d_z,right_knee_3d_x,right_knee_3d_y,right_knee_3d_z,left_ankle_3d_x,left_ankle_3d_y,left_ankle_3d_z,right_ankle_3d_x,right_ankle_3d_y,right_ankle_3d_z
54,1.0014975,0.7167935,0.0719155,0.8608555000000001,0.4849335,0.0472835,0.7881755,0.6968935,-0.0120405,1.1416455,0.4989435,0.0525125,1.2238155,0.7060735,-0.0081945,0.7511155,0.9143435,-0.0787775,1.2624655,0.9207835,-0.0835775,0.9280825,-0.0030265,0.0030915,1.0719175,0.0030265,-0.0030914999999999,0.8859855000000001,-0.4370064999999999,0.0061205,1.1240155,-0.4113365,-0.0148275,0.8755955,-0.7399065,-0.0237595,1.1245155,-0.7147965,-0.0172985
55,1.0017555,0.7162035,0.071069,0.8607765,0.4838335,0.046493,0.7886565,0.6958235,-0.011992,1.1414265,0.4991135,0.052479,1.2234965,0.7062935,-0.008121,0.7527665,0.9133835,-0.07877,1.2620865000000001,0.9210535,-0.0835,0.9280435,-0.0030054999999999,0.0031609999999999,1.0719565,0.0030055,-0.003161,0.8858365,-0.4370165,0.0056529999999999,1.1238664999999999,-0.4124265,-0.015012,0.8755364999999999,-0.7399565,-0.023991,1.1243865,-0.7158565,-0.016897
56,1.001984,0.715772,0.0701415,0.860641,0.482792,0.0457185,0.789021,0.694782,-0.0120035,1.141241,0.4993419999999999,0.0522805,1.223191,0.706572,-0.0081115,0.754281,0.912342,-0.0788165,1.261681,0.921322,-0.0834965,0.927998,-0.0029899999999999,0.0031625,1.072002,0.00299,-0.0031624999999999,0.885711,-0.437098,0.0050985,1.123701,-0.4134379999999999,-0.0152624999999999,0.875471,-0.740078,-0.0242744999999999,1.124271,-0.716868,-0.0166144999999999
57,1.002295,0.7155845000000001,0.0695915,0.8606199999999999,0.4823044999999999,0.0453004999999999,0.78942,0.6945144999999999,-0.0120215,1.14123,0.4994945,0.0520565,1.22296,0.7069345,-0.0081095,0.75589,0.9119945,-0.0788715,1.26131,0.9215345,-0.0834815,0.9279880000000001,-0.0029644999999999,0.0031684999999999,1.072012,0.0029645,-0.0031685,0.88568,-0.4370755,0.0045194999999999,1.1236599999999999,-0.4135655,-0.0154255,0.8754500000000001,-0.7400555,-0.0245435,1.1242699999999999,-0.7169855,-0.0164745
58,1.002581,0.7153825,0.0689045,0.86061,0.4816924999999999,0.0449935,0.78973,0.6941625,-0.0125634999999999,1.14122,0.4996425,0.0518125,1.22282,0.7069225,-0.0098164999999999,0.7573,0.9116725,-0.0794525,1.26065,0.9214525,-0.0858724999999999,0.9279880000000001,-0.0029344999999999,0.0031695,1.072012,0.0029344999999999,-0.0031694999999999,0.88562,-0.4370974999999999,0.0039005,1.12365,-0.4136475,-0.0155184999999999,0.87544,-0.7400975,-0.0248884999999999,1.1242699999999999,-0.7170775,-0.0164054999999999
59,1.002825,0.715251,0.0678739999999999,0.8605659999999999,0.481031,0.044505,0.790016,0.6937209999999999,-0.013461,1.141186,0.4996609999999999,0.051274,1.222636,0.706881,-0.011885,0.758566,0.911281,-0.0808099999999999,1.259946,0.921241,-0.08892,0.927973,-0.002914,0.003202,1.072027,0.002914,-0.003202,0.885466,-0.437239,0.0029509999999999,1.123616,-0.413869,-0.01584,0.875406,-0.7402690000000001,-0.025605,1.124246,-0.7172890000000001,-0.016613
60,1.0033265,0.715093,0.0662365,0.8606075000000001,0.480773,0.0435235,0.7903675,0.693423,-0.0150954999999999,1.1414475,0.4999629999999999,0.0502535,1.2225975,0.706993,-0.0148075,0.7596975000000001,0.910483,-0.0835235,1.2593174999999999,0.920973,-0.0928934999999999,0.9279205,-0.00293,0.0032904999999999,1.0720795,0.00293,-0.0032905,0.8848975,-0.437337,0.0014104999999999,1.1232875,-0.414157,-0.0166545,0.8748875,-0.7403770000000001,-0.0268284999999999,1.1238275,-0.7175670000000001,-0.0173035
61,1.003861,0.714963,0.0640735,0.860346,0.480333,0.0421685,0.7906759999999999,0.692843,-0.0173625,1.141746,0.500603,0.0486844999999999,1.222326,0.707373,-0.0182315,0.759686,0.909583,-0.0874415,1.258656,0.920923,-0.0975215,0.927841,-0.00293,0.0033594999999999,1.072159,0.00293,-0.0033595,0.884376,-0.437337,-0.0007035,1.122996,-0.414197,-0.0179165,0.874456,-0.7403770000000001,-0.0285055,1.123446,-0.717607,-0.0188045
62,1.004404,0.714823,0.061361,0.860102,0.4797329999999999,0.040376,0.7909120000000001,0.692153,-0.020297,1.1420919999999999,0.5013029999999999,0.046474,1.222022,0.707693,-0.022228,0.7597119999999999,0.908503,-0.092175,1.257762,0.920813,-0.103045,0.927725,-0.00293,0.0034439999999999,1.072275,0.00293,-0.0034439999999999,0.8838820000000001,-0.437337,-0.003405,1.122742,-0.414477,-0.019752,0.8741019999999999,-0.7403770000000001,-0.030691,1.123042,-0.717887,-0.020991
63,1.0048759999999999,0.714553,0.0581955,0.8598120000000001,0.478973,0.0380205,0.791012,0.6914129999999999,-0.0240215,1.142432,0.501953,0.0437625,1.221702,0.707763,-0.0269135,0.759722,0.907283,-0.0980134999999999,1.256882,0.920653,-0.1090334999999999,0.927579,-0.00293,0.0033335,1.072421,0.00293,-0.0033334999999999,0.883422,-0.437337,-0.0066174999999999,1.122462,-0.414757,-0.0221974999999999,0.873692,-0.7403770000000001,-0.0334815,1.122752,-0.718167,-0.0237264999999999
64,1.0052575,0.7141660000000001,0.0538805,0.8594235,0.478176,0.0344675,0.7910335,0.690606,-0.0291454999999999,1.1427235,0.5026360000000001,0.0399035,1.2213535,0.7078460000000001,-0.0330215,0.7593235,0.905836,-0.1058105,1.2559434999999999,0.920536,-0.1166405,0.9273565,-0.002928,0.0031835,1.0726435,0.002928,-0.0031834999999999,0.8829435,-0.437574,-0.0109635,1.1220235,-0.415304,-0.0258055,0.8732935,-0.740634,-0.0372894999999999,1.1224535,-0.7187239999999999,-0.0277125
65,1.0055405,0.71384,0.0489905,0.8589245,0.47766,0.0303545,0.7910145,0.69013,-0.0351075,1.1429845,0.50357,0.0355365,1.2209444999999999,0.7082,-0.0397555,0.7589045,0.90444,-0.1144195,1.2550245,0.92052,-0.1251295,0.9271564999999999,-0.002971,0.0031265,1.0728435,0.002971,-0.0031265,0.8824145,-0.43783,-0.0158435,1.1214945,-0.41563,-0.0299855,0.8728545,-0.74093,-0.0416944999999999,1.1221744999999999,-0.71905,-0.0320715
66,1.005706,0.713407,0.043753,0.858581,0.477217,0.025964,0.790961,0.689547,-0.041661,1.143161,0.504447,0.030875,1.220551,0.708717,-0.047177,0.758421,0.903577,-0.1238629999999999,1.254071,0.920657,-0.1343929999999999,0.926992,-0.0029909999999999,0.002897,1.073008,0.002991,-0.002897,0.881841,-0.438053,-0.021105,1.120931,-0.416023,-0.034538,0.8723609999999999,-0.741163,-0.046559,1.121891,-0.719443,-0.03681
67,1.005671,0.712986,0.038648,0.858176,0.477326,0.02172,0.790186,0.6892459999999999,-0.04808,1.143296,0.5052859999999999,0.026281,1.220186,0.709286,-0.054584,0.757776,0.902396,-0.1332279999999999,1.253276,0.920626,-0.143768,0.926877,-0.00301,0.0025129999999999,1.073123,0.0030099999999999,-0.0025129999999999,0.8813660000000001,-0.438254,-0.026227,1.1203859999999999,-0.416114,-0.039075,0.871896,-0.741384,-0.051335,1.1215060000000001,-0.7195440000000001,-0.041847
68,1.0056714999999998,0.7126035000000001,0.0332545,0.8578545,0.4776935,0.0171645,0.7894245,0.6890335,-0.0548085,1.1433944999999999,0.5061235,0.0213285,1.2198844999999998,0.7099235,-0.0623035,0.7571545,0.9011135,-0.1431945,1.2524445,0.9205335,-0.1536245,0.9268355,-0.0030644999999999,0.0022104999999999,1.0731645,0.0030644999999999,-0.0022105,0.8809945,-0.4383765,-0.0315705,1.1199744999999999,-0.4159765,-0.0440225,0.8714645,-0.7415065,-0.0564795,1.1211545,-0.7194265,-0.0473025
69,1.0055865,0.712163,0.026739,0.8576025,0.478163,0.011442,0.7884025,0.6886329999999999,-0.062705,1.1433324999999999,0.5072129999999999,0.015537,1.2194525,0.710013,-0.070693,0.7564124999999999,0.899293,-0.154776,1.2513725,0.919353,-0.165166,0.9268315,-0.003069,0.0017079999999999,1.0731685,0.003069,-0.0017079999999999,0.8807125,-0.4383769999999999,-0.037943,1.1199025,-0.4157869999999999,-0.049964,0.8712125,-0.7414970000000001,-0.06265,1.1210525,-0.7192470000000001,-0.054194
70,1.005466,0.7117844999999999,0.0198635,0.857249,0.4786944999999999,0.0055844999999999,0.787249,0.6880744999999999,-0.0711835,1.143259,0.5085544999999999,0.0095955,1.218909,0.7097344999999999,-0.0793715,0.755629,0.8973745,-0.1665174999999999,1.250149,0.9176545,-0.1772274999999999,0.926816,-0.0030664999999999,0.0012624999999999,1.073184,0.0030665,-0.0012624999999999,0.880369,-0.4381155,-0.0444315,1.119819,-0.4150955,-0.0562225,0.871059,-0.7412355,-0.0693515,1.120949,-0.7185855,-0.0612895
71,1.005168,0.711149,0.01177,0.85716,0.4794789999999999,-0.0012339999999999,0.7858,0.687389,-0.081244,1.14316,0.510069,0.002742,1.21837,0.7088990000000001,-0.0896349999999999,0.75466,0.894969,-0.180415,1.24881,0.915209,-0.190935,0.9268149999999999,-0.0029949999999999,0.0009,1.073185,0.0029949999999999,-0.0008999999999999,0.87984,-0.437301,-0.051876,1.11972,-0.414241,-0.063437,0.87091,-0.740421,-0.0771979999999999,1.12082,-0.7177509999999999,-0.069176
72,1.0044549999999999,0.7095135,0.0027979999999999,0.8571170000000001,0.4802035,-0.008878,0.784087,0.6862435,-0.092666,1.1426669999999999,0.5097435,-0.004934,1.217577,0.7071235,-0.100802,0.753477,0.8922335,-0.195669,1.246927,0.9118935,-0.205839,0.926737,-0.0027194999999999,0.000726,1.073263,0.0027194999999999,-0.000726,0.879327,-0.4352264999999999,-0.060435,1.1196769999999998,-0.4118064999999999,-0.071811,0.8708670000000001,-0.7383265,-0.086125,1.121017,-0.7153365,-0.078039
73,1.0037025,0.707954,-0.0056604999999999,0.8571485,0.480634,-0.0157785,0.7824585,0.684564,-0.1035234999999999,1.1421885,0.5092139999999999,-0.0118555,1.2166885,0.7052039999999999,-0.1115395,0.7524085,0.885424,-0.2095985,1.2451085,0.908564,-0.2200285,0.9266665000000001,-0.0025639999999999,0.0008155,1.0733335,0.002564,-0.0008155,0.8787485,-0.432996,-0.0686625,1.1196985,-0.408796,-0.0795265,0.8708785,-0.7360960000000001,-0.0945395,1.1212785,-0.7123360000000001,-0.0862185
74,1.002957,0.706418,-0.014211,0.85727,0.480968,-0.022904,0.7809200000000001,0.682638,-0.114723,1.14171,0.5094479999999999,-0.018855,1.21576,0.703658,-0.122562,0.7514000000000001,0.8791779999999999,-0.223451,1.24326,0.905518,-0.234481,0.926554,-0.0022889999999999,0.0007309999999999,1.073446,0.0022889999999999,-0.000731,0.87804,-0.4298119999999999,-0.077418,1.11993,-0.405522,-0.088044,0.87095,-0.7329420000000001,-0.103177,1.12165,-0.7090420000000001,-0.094505
75,1.0021414999999998,0.704225,-0.0231169999999999,0.8572505,0.481185,-0.0304949999999999,0.7793705000000001,0.680895,-0.126105,1.1411205,0.507795,-0.0265119999999999,1.2148405,0.700985,-0.1334489999999999,0.7503205,0.8742449999999999,-0.239737,1.2418705,0.901395,-0.248857,0.9263665,-0.0019189999999999,0.000648,1.0736335,0.001919,-0.0006479999999999,0.8771605,-0.425385,-0.086642,1.1201405,-0.401235,-0.0970109999999999,0.8709705,-0.728545,-0.112009,1.1219705,-0.704725,-0.102958
76,1.0012109999999999,0.702378,-0.03225,0.857219,0.481518,-0.038292,0.779099,0.679248,-0.137959,1.140519,0.505898,-0.034372,1.213629,0.698018,-0.144229,0.7499089999999999,0.870278,-0.255808,1.240149,0.897038,-0.262938,0.9261560000000001,-0.0015839999999999,0.000592,1.0738439999999998,0.001584,-0.000592,0.876029,-0.420242,-0.096298,1.120369,-0.396862,-0.1065069999999999,0.870869,-0.723412,-0.120861,1.122229,-0.700302,-0.111229
77,1.00035,0.7005220000000001,-0.041594,0.857388,0.4824519999999999,-0.046152,0.778648,0.677802,-0.150378,1.139788,0.504062,-0.042256,1.212388,0.694882,-0.155428,0.7494980000000001,0.866762,-0.272179,1.238318,0.892202,-0.277729,0.925922,-0.00119,0.000446,1.074078,0.00119,-0.000446,0.874958,-0.414488,-0.1060359999999999,1.120778,-0.392218,-0.11657,0.870798,-0.717688,-0.129687,1.122548,-0.695568,-0.119562
78,0.999339,0.69676,-0.0523215,0.857442,0.48315,-0.0551485,0.777952,0.67493,-0.1649475,1.1388619999999998,0.5026,-0.0513005,1.210942,0.69021,-0.1698075,0.748792,0.86119,-0.2910475,1.236812,0.88557,-0.2956275,0.925836,-0.000868,0.0004984999999999,1.074164,0.0008679999999999,-0.0004984999999999,0.873522,-0.40447,-0.1173475,1.121332,-0.3822,-0.1297115,0.870602,-0.70767,-0.1395805,1.122782,-0.68555,-0.1287625
79,0.9984440000000001,0.6928005,-0.063254,0.857629,0.4801705,-0.06487,0.7771790000000001,0.6699105000000001,-0.17974,1.1379190000000001,0.4991505,-0.060994,1.209609,0.6854205,-0.1842099999999999,0.747749,0.8537805,-0.31049,1.235579,0.8789805,-0.31345,0.925814,-0.0006385,0.0005389999999999,1.074186,0.0006385,-0.0005389999999999,0.8720289999999999,-0.3925295,-0.129254,1.121959,-0.3697895,-0.143403,0.8705890000000001,-0.6957295,-0.149436,1.122989,-0.6731395,-0.138236
80,0.997469,0.689329,-0.078999,0.85773,0.479319,-0.0795749999999999,0.7765299999999999,0.665639,-0.19894,1.13686,0.495439,-0.0757289999999999,1.20815,0.680559,-0.20282,0.74665,0.846939,-0.33409,1.2342,0.871769,-0.33513,0.92577,-0.000436,0.0004969999999999,1.07423,0.0004359999999999,-0.0004969999999999,0.87032,-0.377321,-0.146506,1.12242,-0.354371,-0.1624769999999999,0.87056,-0.680521,-0.1639459999999999,1.12292,-0.657721,-0.153145
81,0.9965310000000001,0.6878585,-0.0936965,0.857847,0.4781885,-0.0932105,0.775817,0.6611485,-0.2169404999999999,1.135477,0.4917285,-0.0895425,1.206507,0.6754585,-0.2201705,0.7457670000000001,0.8395085,-0.3564605,1.2328469999999998,0.8625785,-0.3562705,0.925538,-0.0003604999999999,0.0005404999999999,1.074462,0.0003604999999999,-0.0005404999999999,0.867247,-0.3584414999999999,-0.1656254999999999,1.123087,-0.3375515,-0.1831015,0.870537,-0.6612015,-0.1776835,1.122507,-0.6399615,-0.1677305
82,0.9955555000000001,0.6858900000000001,-0.108526,0.8578055,0.47727,-0.107107,0.7751055,0.6580600000000001,-0.234895,1.1339455,0.48891,-0.103537,1.2048255,0.67029,-0.237175,0.7447555,0.8367800000000001,-0.3791449999999999,1.2314155,0.8548100000000001,-0.377005,0.9252885,-0.000244,0.0005649999999999,1.0747115,0.000244,-0.000565,0.8642055000000001,-0.33705,-0.1848759999999999,1.1237055,-0.31842,-0.204075,0.8703555000000001,-0.6393200000000001,-0.191395,1.1219355,-0.6197900000000001,-0.182265
83,0.994701,0.6827155,-0.1231749999999999,0.857604,0.4755955,-0.1207999999999999,0.774984,0.6545555000000001,-0.25226,1.132494,0.4831555,-0.1174809999999999,1.203084,0.6638055,-0.25377,0.7438739999999999,0.8328454999999999,-0.40168,1.230044,0.8459155,-0.39674,0.924981,-1.7500000000003624e-05,0.00073,1.075019,1.7500000000003624e-05,-0.0007299999999999,0.861234,-0.3150445,-0.203733,1.124164,-0.2987545,-0.2243699999999999,0.870094,-0.6167545000000001,-0.204587,1.121244,-0.5990945000000001,-0.196314
84,0.993569,0.6805595,-0.137953,0.857417,0.4731795,-0.134466,0.774877,0.6500895,-0.26975,1.130757,0.4799295,-0.131347,1.201207,0.6580195,-0.2709399999999999,0.7431369999999999,0.8269795,-0.42209,1.228297,0.8377295,-0.41732,0.9247990000000001,4.949999999999399e-05,0.00103,1.0752009999999999,-4.950000000000787e-05,-0.00103,0.8578070000000001,-0.2899905,-0.222967,1.124327,-0.2760205,-0.24481,0.8694670000000001,-0.5910705,-0.217785,1.120147,-0.5752605,-0.210567
85,0.992585,0.6776549999999999,-0.152211,0.857374,0.471015,-0.147742,0.774894,0.645775,-0.28686,1.129554,0.476935,-0.144757,1.1998339999999998,0.6526350000000001,-0.2875,0.7426440000000001,0.820165,-0.44277,1.2267839999999999,0.8296349999999999,-0.43785,0.92453,0.000155,0.0014099999999999,1.07547,-0.000155,-0.0014099999999999,0.854684,-0.265405,-0.241747,1.124534,-0.254285,-0.26493,0.868904,-0.565755,-0.230623,1.119304,-0.552435,-0.224639
86,0.991568,0.6741199999999999,-0.16585,0.857255,0.46777,-0.160962,0.774915,0.6408699999999999,-0.303235,1.1283949999999998,0.47207,-0.158168,1.198375,0.64667,-0.303295,0.742185,0.81263,-0.462595,1.225145,0.8208099999999999,-0.457365,0.924293,0.0002999999999999,0.001785,1.075707,-0.0002999999999999,-0.001785,0.851625,-0.24005,-0.260515,1.124555,-0.23105,-0.284395,0.8682650000000001,-0.5396000000000001,-0.243097,1.118455,-0.52822,-0.238379
87,0.9904565,0.672475,-0.176865,0.8570065,0.464225,-0.172021,0.7748765,0.637195,-0.315975,1.1272165,0.4671349999999999,-0.169508,1.1971665,0.642625,-0.315365,0.7417165,0.807265,-0.477705,1.2244865,0.815285,-0.471585,0.9241425,0.000455,0.002195,1.0758575,-0.000455,-0.002195,0.8488465000000001,-0.2170649999999999,-0.276875,1.1241065,-0.2100749999999999,-0.300025,0.8674364999999999,-0.5157349999999999,-0.253457,1.1174365,-0.506255,-0.25009
88,0.989426,0.67211,-0.187688,0.856726,0.46574,-0.182278,0.774796,0.63578,-0.328775,1.126166,0.4632,-0.18023,1.196016,0.63812,-0.327295,0.7412160000000001,0.8039,-0.492855,1.223916,0.80891,-0.485955,0.92406,0.0009899999999999,0.0025149999999999,1.07594,-0.00099,-0.0025149999999999,0.846406,-0.19339,-0.292835,1.123726,-0.1875399999999999,-0.3151049999999999,0.866536,-0.49114,-0.263236,1.116486,-0.48275,-0.261607
89,0.9888625,0.668585,-0.192473,0.8569175,0.463255,-0.187383,0.7748375000000001,0.6327849999999999,-0.33575,1.1253475,0.459345,-0.185155,1.1950375,0.633485,-0.33423,0.7411875,0.798845,-0.50143,1.2233375,0.802945,-0.49538,0.9240105,0.0013249999999999,0.00287,1.0759895,-0.001325,-0.00287,0.8445075000000001,-0.170425,-0.30259,1.1234875,-0.165495,-0.3239499999999999,0.8658975,-0.467225,-0.267157,1.1158275,-0.459765,-0.267255
90,0.9885955,0.66431,-0.197397,0.8573955,0.46055,-0.192441,0.7751955,0.63001,-0.34232,1.1247555,0.45714,-0.190085,1.1942555,0.62961,-0.3413,0.7412455,0.79433,-0.50996,1.2224855,0.7983199999999999,-0.5050600000000001,0.9240315,0.0015199999999999,0.0032299999999999,1.0759685,-0.0015199999999999,-0.00323,0.8437355,-0.1468399999999999,-0.3092,1.1229955,-0.1419099999999999,-0.32974,0.8654855000000001,-0.44364,-0.270291,1.1152755,-0.4361799999999999,-0.2718
91,0.9881285,0.65967,-0.201255,0.8577005,0.45723,-0.196931,0.7748905,0.62557,-0.348385,1.1238104999999998,0.45335,-0.194715,1.1934605,0.62512,-0.348025,0.7407505,0.78761,-0.517995,1.2215805,0.79126,-0.513615,0.9240415,0.00169,0.0034549999999999,1.0759585,-0.0016899999999999,-0.003455,0.8426205,-0.1224099999999999,-0.314635,1.1220405,-0.1174799999999999,-0.334725,0.8647305000000001,-0.4192099999999999,-0.272403,1.1140905,-0.4117499999999999,-0.275414
92,0.987768,0.6565000000000001,-0.204409,0.857871,0.45483,-0.200581,0.7751610000000001,0.62167,-0.353945,1.123081,0.45183,-0.198545,1.192631,0.6218,-0.353855,0.7405010000000001,0.78176,-0.525325,1.221091,0.78539,-0.522485,0.924026,0.0016,0.0036349999999999,1.075974,-0.0015999999999999,-0.0036349999999999,0.841421,-0.0989199999999999,-0.319295,1.121061,-0.0939899999999999,-0.3388649999999999,0.863901,-0.3957199999999999,-0.274049,1.112651,-0.3882599999999999,-0.278397
93,0.9877845,0.6532250000000001,-0.206609,0.8579935,0.4528650000000001,-0.203426,0.7749635,0.6175550000000001,-0.358665,1.1231335,0.449485,-0.201448,1.1923035,0.6189250000000001,-0.358535,0.7405135,0.7765150000000001,-0.5314650000000001,1.2204135,0.779525,-0.529325,0.9240065000000001,0.001545,0.0038249999999999,1.0759934999999998,-0.0015449999999999,-0.0038249999999999,0.8409435000000001,-0.0807649999999999,-0.322715,1.1200435,-0.0758649999999999,-0.341855,0.8633235,-0.376935,-0.274643,1.1111834999999999,-0.369985,-0.280028
94,0.988353,0.6505650000000001,-0.208692,0.858495,0.449655,-0.2062949999999999,0.775285,0.613445,-0.362795,1.123745,0.446625,-0.204345,1.192375,0.615055,-0.363305,0.741115,0.7695350000000001,-0.536825,1.220055,0.771645,-0.535525,0.923976,0.001425,0.003825,1.076024,-0.001425,-0.0038249999999999,0.841025,-0.0602149999999999,-0.325925,1.1194849999999998,-0.0556049999999999,-0.3444049999999999,0.863545,-0.3557649999999999,-0.275108,1.110495,-0.3494449999999999,-0.281961
95,0.98858,0.648785,-0.210163,0.858718,0.4475349999999999,-0.208955,0.775348,0.610455,-0.36689,1.123988,0.445642,-0.206946,1.192398,0.612465,-0.36799,0.741468,0.764405,-0.54195,1.219558,0.7665649999999999,-0.5414,0.923941,0.0012749999999999,0.00383,1.076059,-0.001275,-0.00383,0.841038,-0.040005,-0.32848,1.118788,-0.035625,-0.3466599999999999,0.8635079999999999,-0.334985,-0.275103,1.109708,-0.329135,-0.283614
96,0.9885215,0.646605,-0.211717,0.8587165000000001,0.446307,-0.211759,0.7751365,0.6081449999999999,-0.371265,1.1240965,0.444256,-0.209484,1.1921065,0.610275,-0.372275,0.7415265,0.760655,-0.547095,1.2189665,0.761895,-0.547515,0.9238905,0.0012649999999999,0.0038549999999999,1.0761095,-0.001265,-0.0038549999999999,0.8409565000000001,-0.019995,-0.330605,1.1179765,-0.016015,-0.348875,0.8630865,-0.3144949999999999,-0.275062,1.1087365,-0.309355,-0.285335
97,0.9883205,0.643165,-0.212057,0.8586305,0.444758,-0.213803,0.7747105,0.6059749999999999,-0.374005,1.1239205,0.442759,-0.211274,1.1917305,0.607915,-0.375565,0.7413905000000001,0.7571950000000001,-0.549985,1.2180605,0.758275,-0.5521750000000001,0.9237505,0.0014149999999999,0.004285,1.0762495,-0.0014149999999999,-0.004285,0.8405104999999999,-0.0013349999999999,-0.331275,1.1172605,0.0027249999999999,-0.349685,0.8625505,-0.295365,-0.2743649999999999,1.1077105,-0.2905149999999999,-0.286675
98,0.987779,0.642115,-0.2109039999999999,0.858481,0.443891,-0.214771,0.7740810000000001,0.604805,-0.375675,1.123041,0.444276,-0.212078,1.191051,0.608935,-0.377165,0.740731,0.756335,-0.552315,1.217501,0.758345,-0.554845,0.9239510000000001,0.0006049999999999,0.004615,1.0760489999999998,-0.000605,-0.0046149999999999,0.8396610000000001,0.018905,-0.330665,1.116471,0.0229849999999999,-0.3487449999999999,0.861841,-0.274055,-0.272267,1.106621,-0.2700749999999999,-0.285895
99,0.9872785,0.6410100000000001,-0.209359,0.8583435,0.443589,-0.21514,0.7734735,0.60394,-0.37689,1.1221835,0.44545,-0.212324,1.1902235,0.6097,-0.37814,0.7401635,0.75558,-0.55337,1.2163735,0.7594700000000001,-0.55569,0.9241745000000001,1.000000000001e-05,0.0048299999999999,1.0758254999999999,-1.000000000001e-05,-0.00483,0.8390935000000002,0.0365099999999999,-0.3291,1.1157835,0.04071,-0.34724,0.8611935,-0.2558999999999999,-0.269803,1.1058735,-0.2521899999999999,-0.2846
100,0.9871045,0.640305,-0.207606,0.8584255000000001,0.443453,-0.214902,0.7726255,0.603095,-0.37726,1.1216655,0.446266,-0.21219,1.1896055,0.610395,-0.37836,0.7401555,0.755735,-0.55338,1.2156255,0.760425,-0.5569999999999999,0.9243435,-0.0003949999999999,0.0050499999999999,1.0756565,0.000395,-0.0050499999999999,0.8388155000000002,0.051655,-0.32744,1.1153355,0.055905,-0.34548,0.8615655,-0.240025,-0.266196,1.1054955,-0.2370449999999999,-0.28286
101,0.9868870000000001,0.63857,-0.205656,0.858514,0.442968,-0.214456,0.771714,0.60239,-0.377245,1.1210639999999998,0.44708,-0.211972,1.189084,0.61059,-0.378805,0.7399640000000001,0.7561,-0.553205,1.214814,0.76073,-0.557445,0.924542,-0.0009399999999999,0.005245,1.075458,0.0009399999999999,-0.005245,0.8384940000000001,0.06884,-0.325515,1.114714,0.07306,-0.344925,0.8631340000000001,-0.22201,-0.261624,1.105064,-0.2199299999999999,-0.282245
102,0.9863125000000001,0.63646,-0.203681,0.8581925,0.44234,-0.213775,0.7707725,0.6021,-0.3770449999999999,1.1202425,0.448242,-0.211473,1.1886125,0.61051,-0.378985,0.7395425,0.756,-0.552915,1.2136025,0.7612,-0.558055,0.9247965000000001,-0.0015,0.0054249999999999,1.0752035,0.0015,-0.005425,0.8378225,0.0841399999999999,-0.323745,1.1140124999999999,0.08782,-0.344375,0.8644324999999999,-0.20579,-0.256989,1.1045224999999999,-0.20525,-0.281765
103,0.9856265,0.63353,-0.202073,0.8579055,0.442016,-0.213402,0.7697655,0.600814,-0.377395,1.1193655,0.448733,-0.211076,1.1880155000000001,0.61101,-0.379165,0.7390855000000001,0.75736,-0.553315,1.2125655,0.76309,-0.5589550000000001,0.9250045,-0.00197,0.005635,1.0749955,0.00197,-0.005635,0.8371155,0.09753,-0.322595,1.1132755,0.10029,-0.344075,0.8655755,-0.19152,-0.25289,1.1039055,-0.1930999999999999,-0.281655
104,0.984633,0.63039,-0.201462,0.8571980000000001,0.441206,-0.213526,0.768738,0.5988910000000001,-0.377835,1.118348,0.449212,-0.211283,1.187098,0.610665,-0.379475,0.738218,0.75676,-0.5535950000000001,1.211778,0.7631600000000001,-0.559705,0.925249,-0.0024999999999999,0.005775,1.074751,0.0025,-0.005775,0.8362480000000001,0.1098,-0.322365,1.112278,0.1058899999999999,-0.3437449999999999,0.866818,-0.17861,-0.249663,1.1029879999999999,-0.1877999999999999,-0.281425
105,0.9836835,0.62737,-0.200635,0.8564134999999999,0.4402289999999999,-0.2135989999999999,0.7677535,0.596806,-0.377905,1.1173635,0.4497259999999999,-0.211535,1.1862735,0.609466,-0.379695,0.7372935,0.7553799999999999,-0.553625,1.2105035,0.7624399999999999,-0.559595,0.9255025,-0.00313,0.0057649999999999,1.0744975,0.0031299999999999,-0.0057649999999999,0.8352835000000001,0.1213399999999999,-0.322015,1.1113134999999998,0.1105899999999999,-0.3431849999999999,0.8679335,-0.1664200000000001,-0.246744,1.1021035,-0.1833300000000001,-0.281255
106,0.982861,0.6243500000000001,-0.199553,0.855708,0.43838,-0.213652,0.766858,0.594786,-0.37798,1.116428,0.449963,-0.211618,1.185348,0.608971,-0.3798,0.736208,0.75407,-0.55389,1.209278,0.76182,-0.55956,0.925842,-0.0041099999999999,0.0057599999999999,1.074158,0.00411,-0.0057599999999999,0.834318,0.13208,-0.3214599999999999,1.110488,0.11426,-0.3423199999999999,0.869138,-0.15525,-0.2438799999999999,1.101268,-0.1797899999999999,-0.28145
107,0.9820170000000001,0.6203500000000001,-0.198558,0.8549450000000001,0.4368000000000001,-0.213862,0.7652950000000001,0.5923130000000001,-0.37825,1.115395,0.4460200000000001,-0.211819,1.184665,0.6050150000000001,-0.38001,0.735275,0.7516400000000001,-0.55419,1.208105,0.7568800000000001,-0.55975,0.926005,-0.0040899999999999,0.0059899999999999,1.073995,0.00409,-0.00599,0.833225,0.1402100000000001,-0.32142,1.109625,0.11438,-0.34161,0.8702650000000001,-0.1466599999999999,-0.24218,1.1005049999999998,-0.1797899999999999,-0.28166
108,0.981179,0.6165160000000001,-0.19785,0.854334,0.435215,-0.214337,0.763784,0.590443,-0.378705,1.1143539999999998,0.442395,-0.212281,1.184054,0.601623,-0.380485,0.7346440000000001,0.749965,-0.554665,1.207014,0.7533650000000001,-0.560575,0.926176,-0.004205,0.0063149999999999,1.0738240000000001,0.004205,-0.006315,0.832264,0.147605,-0.321885,1.108714,0.114175,-0.340865,0.871394,-0.1389049999999999,-0.240984,1.099894,-0.1800849999999999,-0.282135
109,0.98033,0.613393,-0.198001,0.853715,0.43399,-0.215532,0.7624150000000001,0.5885630000000001,-0.3793,1.113125,0.4399,-0.213457,1.183435,0.599364,-0.38168,0.734065,0.74822,-0.55467,1.205975,0.75136,-0.56181,0.926355,-0.00446,0.0064299999999999,1.073645,0.00446,-0.00643,0.831365,0.15345,-0.32307,1.107545,0.11823,-0.34065,0.871955,-0.1325699999999999,-0.241767,1.099305,-0.17598,-0.28228
110,0.9793295,0.6112710000000001,-0.1987769999999999,0.8527395,0.433035,-0.216694,0.7613695,0.5857960000000001,-0.380935,1.1120695,0.4371650000000001,-0.2150929999999999,1.1828495,0.5975440000000001,-0.383155,0.7335395,0.7453750000000001,-0.556335,1.2049395,0.749805,-0.5632349999999999,0.9265005,-0.0045049999999999,0.0065449999999999,1.0734995,0.004505,-0.0065449999999999,0.8305395,0.1562050000000001,-0.324725,1.1062895,0.119445,-0.340995,0.8717515,-0.1292149999999999,-0.242994,1.0986295,-0.1747149999999999,-0.2828549999999999
111,0.978055,0.6094050000000001,-0.199427,0.8517570000000001,0.43245,-0.2175949999999999,0.761097,0.5836520000000001,-0.3816,1.110947,0.43429,-0.2163739999999999,1.182167,0.5964980000000001,-0.38399,0.733587,0.74356,-0.55706,1.203977,0.74909,-0.56402,0.926673,-0.0045099999999999,0.0066599999999999,1.073327,0.00451,-0.0066599999999999,0.830137,0.15844,-0.32619,1.104737,0.12051,-0.34172,0.871639,-0.1264299999999999,-0.244419,1.097327,-0.1735999999999999,-0.28347
112,0.976965,0.6094050000000001,-0.199048,0.8511420000000001,0.43245,-0.217057,0.759882,0.5836520000000001,-0.379265,1.110282,0.43429,-0.21583,1.181412,0.5964980000000001,-0.383095,0.733522,0.74356,-0.554435,1.203412,0.74909,-0.562465,0.9265480000000001,-0.0045099999999999,0.0066649999999999,1.0734519999999999,0.00451,-0.006665,0.830342,0.15869,-0.327035,1.103132,0.12045,-0.341975,0.871601,-0.1253599999999999,-0.244417,1.096202,-0.1735999999999999,-0.283565
113,0.9758850000000001,0.6094050000000001,-0.198301,0.850552,0.43245,-0.216511,0.7597119999999999,0.5836520000000001,-0.377515,1.109972,0.43429,-0.215129,1.1805620000000001,0.5964980000000001,-0.381505,0.733112,0.74356,-0.552565,1.202652,0.74909,-0.560555,0.9265480000000001,-0.0045099999999999,0.0066649999999999,1.0734519999999999,0.00451,-0.006665,0.830662,0.1587,-0.328275,1.101632,0.1203,-0.343145,0.871587,-0.1254699999999999,-0.244864,1.095332,-0.1735999999999999,-0.284265
114,0.974885,0.6094050000000001,-0.197411,0.850035,0.43245,-0.215925,0.759525,0.5836520000000001,-0.374635,1.109405,0.43429,-0.214439,1.180115,0.5964980000000001,-0.379815,0.732785,0.74356,-0.549535,1.202075,0.74909,-0.558755,0.926515,-0.0045099999999999,0.0066649999999999,1.073485,0.00451,-0.006665,0.830705,0.15886,-0.329795,1.100155,0.12013,-0.344665,0.871612,-0.12527,-0.245338,1.093985,-0.1735999999999999,-0.284105
115,0.973381,0.612877,-0.195599,0.849045,0.434105,-0.213861,0.758945,0.586713,-0.370415,1.108905,0.435485,-0.211959,1.179945,0.597901,-0.376985,0.731905,0.746305,-0.5458449999999999,1.201435,0.751135,-0.5561149999999999,0.926445,-0.0040949999999999,0.0066849999999999,1.073555,0.004095,-0.0066849999999999,0.8307450000000001,0.155465,-0.331015,1.098485,0.116295,-0.345985,0.871559,-0.1289249999999999,-0.246132,1.092875,-0.1771849999999999,-0.284425
116,0.9727795000000001,0.617571,-0.193831,0.8490145,0.43655,-0.211862,0.7590345000000001,0.5902149999999999,-0.36683,1.1093345000000001,0.4363599999999999,-0.209448,1.1805245,0.6000209999999999,-0.37403,0.7313745,0.75003,-0.54118,1.2022145,0.75386,-0.55349,0.9261755,-0.0034199999999999,0.0065399999999999,1.0738245,0.0034199999999999,-0.00654,0.8315645,0.1494299999999999,-0.33281,1.0975545,0.1152399999999999,-0.34681,0.8706445,-0.13523,-0.247253,1.0927645,-0.1775499999999999,-0.28282
117,0.9723765,0.623092,-0.192064,0.8489605,0.4382399999999999,-0.209326,0.7593105,0.5934229999999999,-0.361955,1.1099005,0.4373999999999999,-0.20634,1.1811805,0.602997,-0.370105,0.7312305,0.7536099999999999,-0.535925,1.2032604999999998,0.7569299999999999,-0.5497650000000001,0.9259395,-0.00294,0.0064249999999999,1.0740605,0.0029399999999999,-0.006425,0.8326605,0.1410899999999999,-0.334405,1.0967205,0.1117699999999999,-0.347585,0.8696705,-0.14388,-0.248331,1.0929305,-0.18032,-0.281115
118,0.9719475000000001,0.632085,-0.1893819999999999,0.8489225,0.443378,-0.205999,0.7595825,0.599811,-0.3561999999999999,1.1105325,0.442247,-0.2020399999999999,1.1821424999999999,0.6085510000000001,-0.36417,0.7308224999999999,0.761015,-0.5302,1.2044825,0.7635350000000001,-0.54313,0.9258275,-0.0024049999999999,0.00612,1.0741725,0.0024049999999999,-0.0061199999999999,0.8339825,0.122525,-0.33668,1.0960825,0.098385,-0.34897,0.8682825000000001,-0.1625449999999999,-0.2508499999999999,1.0933825,-0.1925749999999999,-0.2792199999999999
119,0.972416,0.63889,-0.184484,0.8497600000000001,0.4455369999999999,-0.201002,0.76139,0.6026499999999999,-0.348815,1.11207,0.4450809999999999,-0.195841,1.18376,0.6124499999999999,-0.356175,0.7314,0.76452,-0.520715,1.2063,0.7694,-0.534095,0.925287,-0.00185,0.0056849999999999,1.074713,0.0018499999999999,-0.005685,0.8364,0.0936999999999999,-0.337185,1.09652,0.0763499999999999,-0.349665,0.8677900000000001,-0.19121,-0.25166,1.0948499999999999,-0.21354,-0.276725
120,0.9731215,0.64732,-0.179135,0.8506385000000001,0.448585,-0.195463,0.7630285,0.60888,-0.3413,1.1135784999999998,0.449267,-0.189065,1.1858685,0.61806,-0.34711,0.7319685,0.77248,-0.51086,1.2084485,0.77518,-0.52359,0.9246945,-0.0013099999999999,0.0051599999999999,1.0753055,0.00131,-0.0051599999999999,0.8389584999999999,0.06387,-0.3367,1.0974585,0.0536099999999999,-0.3496,0.8672885,-0.22087,-0.252055,1.0967585,-0.2352999999999999,-0.2737
121,0.9739080000000001,0.655545,-0.1729969999999999,0.851402,0.451721,-0.189157,0.764582,0.614425,-0.333335,1.1149619999999998,0.453443,-0.181671,1.1879019999999998,0.622805,-0.337385,0.732402,0.779795,-0.501635,1.210612,0.781635,-0.512165,0.924145,-0.000775,0.0044949999999999,1.075855,0.0007749999999999,-0.0044949999999999,0.841592,0.031575,-0.335045,1.099112,0.022905,-0.348525,0.866762,-0.252685,-0.251926,1.098662,-0.264995,-0.270435
122,0.9748410000000001,0.66604,-0.1658629999999999,0.852259,0.453572,-0.1818739999999999,0.766139,0.62014,-0.324545,1.1164889999999998,0.456998,-0.1736319999999999,1.189989,0.62849,-0.3263549999999999,0.7330289999999999,0.78763,-0.490595,1.212939,0.78957,-0.498745,0.9236330000000001,-0.0003799999999999,0.0037149999999999,1.0763669999999999,0.0003799999999999,-0.0037149999999999,0.844409,-0.00306,-0.3312049999999999,1.101009,-0.01049,-0.346105,0.866589,-0.2876799999999999,-0.250791,1.100689,-0.29749,-0.2664149999999999
123,0.975836,0.67548,-0.158483,0.852873,0.458204,-0.174041,0.7680629999999999,0.62748,-0.3157,1.118093,0.46268,-0.165221,1.192313,0.63501,-0.31519,0.733293,0.7969299999999999,-0.4791,1.215903,0.79835,-0.48517,0.923123,0.0001399999999999,0.0030399999999999,1.076877,-0.00014,-0.00304,0.8472729999999999,-0.04121,-0.3272,1.102923,-0.04681,-0.34229,0.866603,-0.32642,-0.248454,1.102753,-0.3331,-0.26239
124,0.977077,0.6815549999999999,-0.152169,0.853632,0.460225,-0.168587,0.769022,0.631025,-0.3087,1.119392,0.464955,-0.159544,1.194362,0.6390849999999999,-0.30604,0.733812,0.8026249999999999,-0.46898,1.218452,0.804635,-0.47317,0.922882,8.500000000000174e-05,0.0026599999999999,1.077118,-8.500000000000174e-05,-0.00266,0.849852,-0.075615,-0.32495,1.104312,-0.078935,-0.34,0.866212,-0.361615,-0.246598,1.105022,-0.365185,-0.26013
125,0.977855,0.687125,-0.1440239999999999,0.85391,0.462095,-0.161733,0.76913,0.634925,-0.3013749999999999,1.1202,0.467615,-0.1525919999999999,1.1958199999999999,0.642925,-0.294875,0.73419,0.808215,-0.458975,1.21992,0.810835,-0.458025,0.922925,-0.0001349999999999,0.002165,1.077075,0.0001349999999999,-0.002165,0.85244,-0.1113049999999999,-0.321635,1.10507,-0.113145,-0.3366249999999999,0.86677,-0.399055,-0.243222,1.1064999999999998,-0.399715,-0.2567149999999999
126,0.9786135,0.69319,-0.134768,0.8542375,0.46497,-0.154175,0.7693075,0.63967,-0.292025,1.1209575,0.47154,-0.144793,1.1972575,0.64708,-0.282745,0.7343375,0.81573,-0.446225,1.2212175,0.8146,-0.440215,0.9229465,-0.0001299999999999,0.0017349999999999,1.0770534999999999,0.00013,-0.001735,0.8551375,-0.14609,-0.316395,1.1058675,-0.1471299999999999,-0.332435,0.8673275,-0.43466,-0.238942,1.1078875,-0.43415,-0.251535
127,0.979429,0.696135,-0.125627,0.854553,0.464365,-0.1464449999999999,0.7694030000000001,0.641445,-0.2805649999999999,1.121643,0.472565,-0.1373349999999999,1.198243,0.648245,-0.2707349999999999,0.734423,0.819605,-0.431755,1.222583,0.813875,-0.423855,0.923003,-0.0002349999999999,0.001515,1.076997,0.000235,-0.0015149999999999,0.857723,-0.172205,-0.3096049999999999,1.106633,-0.1725249999999999,-0.324995,0.8682030000000001,-0.462375,-0.234419,1.108773,-0.4607449999999999,-0.2454049999999999
128,0.980162,0.704095,-0.1174519999999999,0.854635,0.466805,-0.139423,0.769115,0.647375,-0.27088,1.122015,0.476135,-0.13077,1.196795,0.651725,-0.25948,0.7344649999999999,0.828615,-0.41931,1.223235,0.8200149999999999,-0.40864,0.92339,-0.000285,0.0012,1.07661,0.000285,-0.0011999999999999,0.859925,-0.189075,-0.30074,1.107275,-0.189825,-0.31532,0.868615,-0.4804049999999999,-0.230068,1.109095,-0.479425,-0.23931
129,0.9811355,0.70856,-0.108674,0.8552205000000002,0.47067,-0.132048,0.7693505,0.6518499999999999,-0.26007,1.1227205,0.48046,-0.123598,1.1979805,0.6532,-0.24774,0.7348505000000001,0.83499,-0.4051,1.2251705,0.82478,-0.39371,0.9240845,-0.0003199999999999,0.0011299999999999,1.0759155,0.0003199999999999,-0.00113,0.8624404999999999,-0.20762,-0.2899899999999999,1.1081604999999999,-0.2093,-0.30415,0.8692605,-0.5002300000000001,-0.224574,1.1099904999999999,-0.50038,-0.23308
130,0.9820805000000001,0.713975,-0.1007689999999999,0.8557985000000001,0.473645,-0.1256129999999999,0.7705285,0.656815,-0.2501899999999999,1.1235184999999999,0.484075,-0.1172759999999999,1.1990085,0.654995,-0.2369899999999999,0.7359884999999999,0.842035,-0.39098,1.2273684999999999,0.828765,-0.37964,0.9247845,-0.000395,0.00127,1.0752155,0.000395,-0.0012699999999999,0.8650785000000001,-0.223925,-0.27778,1.1089185,-0.226815,-0.29172,0.8699885,-0.5179349999999999,-0.21758,1.1108985,-0.519475,-0.226414
131,0.983136,0.717125,-0.092265,0.85667,0.477815,-0.118328,0.7709400000000001,0.661955,-0.2397,1.12442,0.487985,-0.109941,1.19989,0.655515,-0.22541,0.73645,0.849005,-0.3771,1.22906,0.831035,-0.3654,0.9254930000000001,-0.0002999999999999,0.00118,1.0745069999999999,0.0003,-0.00118,0.86778,-0.2386149999999999,-0.26379,1.10932,-0.242495,-0.27733,0.87058,-0.534065,-0.209096,1.11138,-0.536685,-0.217581
132,0.9843805,0.7216045,-0.0841399999999999,0.8572295,0.4794345,-0.111653,0.7717395,0.6658945,-0.2293299999999999,1.1253695,0.4901545,-0.103113,1.2010295,0.6597045,-0.214284,0.7375195,0.8553045,-0.36338,1.2312895,0.8363545,-0.35115,0.9262335,-0.0005155,0.0010499999999999,1.0737665,0.0005154999999999,-0.0010499999999999,0.8703795,-0.2606055,-0.2490899999999999,1.1098895,-0.2619655,-0.2621,0.8712395,-0.5567155,-0.200558,1.1117795,-0.5580255000000001,-0.208528
133,0.9856715,0.7264619999999999,-0.076115,0.8579654999999999,0.481892,-0.104237,0.7729155,0.671022,-0.2181,1.1264954999999999,0.492122,-0.095578,1.2022755,0.663802,-0.202563,0.7388555,0.861502,-0.34679,1.2338954999999998,0.842752,-0.33575,0.9270225,-0.0005889999999999,0.00078,1.0729775,0.0005889999999999,-0.00078,0.8730154999999999,-0.282268,-0.23267,1.1105355,-0.281558,-0.24448,0.8721155,-0.578408,-0.191243,1.1122255,-0.5792080000000001,-0.198133
134,0.98697,0.72888,-0.0646424999999999,0.8586710000000001,0.48368,-0.0932025,0.774101,0.67479,-0.2026335,1.127561,0.492,-0.0843035,1.204091,0.66625,-0.1882605,0.740211,0.86851,-0.3261735,1.236431,0.84781,-0.3176235,0.9276000000000001,-0.0006429999999999,0.0004365,1.0723999999999998,0.0006429999999999,-0.0004364999999999,0.874841,-0.30029,-0.2125035,1.110951,-0.29842,-0.2227135,0.873081,-0.59643,-0.1773874999999999,1.112561,-0.59684,-0.1834895
135,0.988368,0.729525,-0.0535664999999999,0.859222,0.486765,-0.0824034999999999,0.775692,0.679945,-0.1878635,1.129792,0.4951649999999999,-0.0730685,1.205392,0.6707850000000001,-0.1748334999999999,0.741892,0.875895,-0.3071374999999999,1.238232,0.8579950000000001,-0.3022275,0.928167,-0.000936,0.0002575,1.071833,0.0009359999999999,-0.0002574999999999,0.876412,-0.317165,-0.1897875,1.111212,-0.315145,-0.1990575,0.873902,-0.6141949999999999,-0.1642664999999999,1.112852,-0.613715,-0.1684235
136,0.9899595,0.730348,-0.0426554999999999,0.8597135,0.4892979999999999,-0.0717974999999999,0.7771335,0.6843980000000001,-0.1739724999999999,1.1320435,0.4982279999999999,-0.0620714999999999,1.2067235,0.676338,-0.1624975,0.7435135000000002,0.8825780000000001,-0.2890275,1.2396935,0.8695780000000001,-0.2879475,0.9285785,-0.001212,-3.449999999999287e-05,1.0714215,0.001212,3.450000000000675e-05,0.8778535,-0.332292,-0.1677575,1.1116035,-0.330152,-0.1768245,0.8745535,-0.630792,-0.1512655,1.1131535,-0.628732,-0.1536485
137,0.9915295000000001,0.7296185000000001,-0.031746,0.8602565,0.4923985,-0.061241,0.7784265000000001,0.6887685,-0.160187,1.1342065,0.5017485,-0.0512,1.2080465,0.6822985,-0.150204,0.7455665,0.8884085,-0.271437,1.2407265,0.8770585000000001,-0.273077,0.9290625000000001,-0.0015094999999999,-0.000323,1.0709374999999999,0.0015095,0.000323,0.8791265,-0.3488715,-0.146989,1.1120865,-0.3446715,-0.155414,0.8749765,-0.6485015,-0.138417,1.1134465,-0.6437514999999999,-0.138842
138,0.993029,0.730854,-0.0213155,0.860521,0.492954,-0.0512385,0.779881,0.691704,-0.1473255,1.136131,0.503084,-0.0408025,1.208961,0.689364,-0.1385315,0.7469410000000001,0.893344,-0.2549385,1.241701,0.885914,-0.2582985,0.929304,-0.00186,-0.0004355,1.070696,0.0018599999999999,0.0004354999999999,0.880151,-0.363096,-0.1272535,1.112491,-0.355536,-0.1351345,0.874981,-0.6637460000000001,-0.1261755,1.113571,-0.655936,-0.1245715
139,0.9946355,0.7310490000000001,-0.0111039999999999,0.8608955,0.494109,-0.041578,0.7814155,0.694689,-0.134556,1.1378955,0.504729,-0.0306739999999999,1.2099155,0.696289,-0.1270939999999999,0.7483755000000001,0.8980290000000001,-0.238283,1.2425755,0.894579,-0.243673,0.9294795,-0.002182,-0.0004659999999999,1.0705205,0.002182,0.000466,0.8810855,-0.377081,-0.108318,1.1128855,-0.3661609999999999,-0.115839,0.8748955,-0.678581,-0.1142929999999999,1.1137455,-0.667561,-0.110577
140,0.9960035,0.7307305,-0.0010704999999999,0.8610895000000001,0.4947705,-0.0320784999999999,0.7824395,0.6972205,-0.1219295,1.1394495,0.5059905,-0.0206764999999999,1.2129395,0.7031904999999999,-0.1162644999999999,0.7493495,0.9023405,-0.2215255,1.2442495,0.9033905,-0.2291555,0.9295015000000001,-0.0025225,-0.0003774999999999,1.0704984999999998,0.0025224999999999,0.0003775,0.8818995000000001,-0.3907595,-0.0903134999999999,1.1135694999999999,-0.3759694999999999,-0.0978594999999999,0.8750195000000001,-0.6928295,-0.1033505,1.1143494999999999,-0.6781395,-0.0977695
141,0.997383,0.729907,0.0087929999999999,0.861275,0.495047,-0.022824,0.783745,0.699117,-0.109341,1.140875,0.506537,-0.01097,1.2133749999999999,0.704937,-0.105264,0.750555,0.906227,-0.2046069999999999,1.244805,0.908067,-0.214177,0.92943,-0.0026679999999999,-3.100000000000325e-05,1.07057,0.002668,3.099999999999631e-05,0.882485,-0.404033,-0.073226,1.114185,-0.385303,-0.080956,0.875085,-0.706433,-0.0925,1.114825,-0.688083,-0.085328
142,0.9988440000000001,0.7272495000000001,0.0186095,0.861497,0.4952095,-0.0136794999999999,0.784937,0.7000995000000001,-0.0968595,1.142127,0.5074495000000001,-0.0013664999999999,1.213867,0.7069795000000001,-0.0940265,0.751857,0.9101195,-0.1893945,1.245437,0.9122795,-0.1987445,0.9292940000000001,-0.0028624999999999,0.0002455,1.070706,0.0028625,-0.0002454999999999,0.8830870000000001,-0.4162205,-0.0574565,1.114797,-0.3941805,-0.0661775,0.875247,-0.7188205000000001,-0.0819405,1.115347,-0.6974505,-0.0731835
143,1.0000365,0.7263565,0.0234179999999999,0.8612585,0.4950765,-0.0092039999999999,0.7856785,0.7014065,-0.089602,1.1429585,0.5102265,0.003452,1.2141185,0.7105065,-0.087348,0.7525185,0.9129865,-0.178461,1.2458084999999999,0.9177865,-0.188511,0.9292655,-0.0031394999999999,0.000677,1.0707345,0.0031395,-0.000677,0.8836285000000001,-0.4283235,-0.047488,1.1152485,-0.4025135,-0.056934,0.8751285,-0.7310435,-0.077088,1.1157585,-0.7062235,-0.066367
144,1.001146,0.7263029999999999,0.0277325,0.861351,0.4932129999999999,-0.0052905,0.786411,0.700653,-0.0827405,1.143131,0.5083829999999999,0.0072735,1.214121,0.711333,-0.0808785,0.753201,0.913513,-0.1681325,1.244691,0.919943,-0.1783925,0.9292380000000001,-0.0031839999999999,0.0009235,1.070762,0.0031839999999999,-0.0009234999999999,0.8840010000000001,-0.430417,-0.0415414999999999,1.115731,-0.404467,-0.0510345,0.874991,-0.7331470000000001,-0.0730635,1.116231,-0.7081770000000001,-0.0611895
145,1.0020049999999998,0.7259964999999999,0.0319585,0.8613060000000001,0.4917064999999999,-0.0013044999999999,0.786546,0.7002364999999999,-0.0757315,1.143186,0.5069565,0.0111005,1.213926,0.7119765,-0.0745204999999999,0.7534460000000001,0.9142965,-0.1576344999999999,1.243346,0.9220565,-0.1678145,0.929094,-0.0032345,0.0011065,1.070906,0.0032345,-0.0011064999999999,0.8841060000000001,-0.4320635,-0.0352395,1.116146,-0.4059735,-0.0451185,0.874826,-0.7348135,-0.0689705,1.116626,-0.7096835,-0.0559945
146,1.0025675,0.7256520000000001,0.036152,0.8611155,0.4904519999999999,0.0028679999999999,0.7869755,0.699822,-0.068678,1.1430755,0.5057020000000001,0.0151169999999999,1.2136755,0.7123320000000001,-0.06768,0.7539255,0.914972,-0.147164,1.2418355,0.923792,-0.1568939999999999,0.9287655,-0.003227,0.0009979999999999,1.0712345,0.003227,-0.000998,0.8840155,-0.433438,-0.029026,1.1164455,-0.407228,-0.039341,0.8745855,-0.7362179999999999,-0.064702,1.1168755,-0.710938,-0.050744
147,1.003029,0.725009,0.0401339999999999,0.860998,0.4894389999999999,0.006831,0.787308,0.699469,-0.061953,1.142468,0.504549,0.018949,1.212878,0.712019,-0.061227,0.754338,0.915579,-0.137348,1.240478,0.925029,-0.146288,0.928507,-0.0031949999999999,0.000862,1.071493,0.003195,-0.0008619999999999,0.8838779999999999,-0.433581,-0.023357,1.116558,-0.4069709999999999,-0.033997,0.874418,-0.736241,-0.060751,1.117108,-0.710691,-0.045828
148,1.0032249999999998,0.7241915,0.043841,0.860834,0.4886115,0.01061,0.787214,0.6990915,-0.055809,1.141824,0.5035315,0.022526,1.212024,0.7118915,-0.054948,0.754594,0.9160115,-0.1283869999999999,1.2392139999999998,0.9261615,-0.136427,0.928276,-0.0031524999999999,0.000633,1.071724,0.0031525,-0.000633,0.8836140000000001,-0.4335485,-0.018296,1.116704,-0.4065084999999999,-0.029088,0.874144,-0.7360985,-0.056877,1.117404,-0.7102285,-0.041419
149,1.0032794999999999,0.723815,0.0470105,0.8607115,0.488355,0.0139815,0.7872115,0.6987949999999999,-0.0501325,1.1412415,0.503105,0.0257655,1.2112915,0.7117749999999999,-0.0490315,0.7548615,0.916335,-0.1202415,1.2381415,0.927225,-0.1270214999999999,0.9280245,-0.003078,0.0003365,1.0719755,0.0030779999999999,-0.0003365,0.8834015,-0.433055,-0.0138434999999999,1.1169915,-0.405895,-0.0246155,0.8740015,-0.735465,-0.0531925,1.1177815,-0.7096250000000001,-0.0373385
150,1.003141,0.7237785,0.049798,0.860554,0.4883484999999999,0.016911,0.787114,0.6987785,-0.045291,1.140634,0.5029885,0.028547,1.210544,0.7118685,-0.0436579999999999,0.7549840000000001,0.9165485,-0.113412,1.237184,0.9279685,-0.118652,0.927786,-0.0030365,-0.0001729999999999,1.072214,0.0030364999999999,0.000173,0.883174,-0.4322515,-0.0101719999999999,1.117284,-0.4052015,-0.020876,0.873874,-0.7345615,-0.0499499999999999,1.118124,-0.7089415,-0.0337359999999999
151,1.002951,0.7234165,0.051892,0.86023,0.4881765,0.019082,0.78699,0.6990465,-0.040918,1.14006,0.5027864999999999,0.030632,1.20991,0.7119665,-0.039086,0.7550600000000001,0.9166765,-0.107589,1.23648,0.9284965,-0.111849,0.927564,-0.0030085,-0.000431,1.072436,0.0030084999999999,0.0004309999999999,0.8829400000000001,-0.4314635,-0.007494,1.11759,-0.4048935,-0.018213,0.87373,-0.7337035000000001,-0.047357,1.1184,-0.7086435,-0.03126
152,1.0027564999999998,0.7228755,0.053565,0.8598545,0.4876454999999999,0.020973,0.7868245,0.6991855,-0.037401,1.1395644999999999,0.5022355000000001,0.032411,1.2093945,0.7121655,-0.035351,0.7549745,0.9169555,-0.102865,1.2359844999999998,0.9290855,-0.106555,0.9273945000000001,-0.0029754999999999,-0.0006449999999999,1.0726054999999999,0.0029755,0.0006449999999999,0.8827345,-0.4309745,-0.005346,1.1177245,-0.4046945,-0.016061,0.8735845,-0.7332145,-0.045,1.1184945,-0.7084445,-0.0290599999999999
153,1.0025834999999998,0.7221625,0.054883,0.8594515,0.4870424999999999,0.0225189999999999,0.7865314999999999,0.6990824999999999,-0.034187,1.1390915,0.5016125,0.033829,1.2089415,0.7122525,-0.032161,0.7548815,0.9173025,-0.09891,1.2356215,0.9296925,-0.102,0.9273025,-0.0029705,-0.000858,1.0726975,0.0029705,0.0008579999999999,0.8825715,-0.4302075,-0.003861,1.1177815,-0.4044975,-0.014409,0.8734615,-0.7324975,-0.0431,1.1185415,-0.7082475,-0.027301
154,1.002394,0.72177,0.0558865,0.859047,0.4867599999999999,0.0237345,0.786187,0.69894,-0.0313525,1.138887,0.50129,0.0348925,1.208657,0.71236,-0.0294404999999999,0.754827,0.91757,-0.0954685,1.235447,0.93044,-0.0982085,0.9272130000000001,-0.0029549999999999,-0.0009364999999999,1.072787,0.0029549999999999,0.0009364999999999,0.8824470000000001,-0.42971,-0.0028995,1.1178569999999999,-0.40397,-0.0131415,0.873367,-0.73202,-0.0418165,1.118627,-0.70773,-0.0261135
155,1.0023515,0.7211925,0.05637,0.8587545,0.4866125,0.024331,0.7859445,0.6991725,-0.029079,1.1388845,0.5011725,0.035433,1.2085545,0.7125125,-0.027562,0.7549045,0.9179425,-0.092858,1.2354545,0.9307325,-0.095758,0.9272085,-0.0029735,-0.00077,1.0727915,0.0029735,0.0007699999999999,0.8823245000000001,-0.4293774999999999,-0.002355,1.1179645,-0.4038575,-0.012334,0.8733545,-0.7317275,-0.041033,1.1187445,-0.7076175,-0.025542
156,1.0022575,0.7206095,0.0568059999999999,0.8584515,0.4863895,0.0248639999999999,0.7856615,0.6993095,-0.02691,1.1388915,0.5009995,0.035914,1.2085115,0.7125895,-0.026027,0.7549715000000001,0.9183095,-0.090447,1.2354215,0.9309295,-0.0937669999999999,0.9272045,-0.0029904999999999,-0.0006399999999999,1.0727955,0.0029905,0.0006399999999999,0.8821815000000001,-0.4290905,-0.001869,1.1180515,-0.4037305,-0.011622,0.8732215,-0.7314505,-0.040429,1.1188615,-0.7075005,-0.025033
157,1.002133,0.7200394999999999,0.057152,0.858174,0.4863194999999999,0.025493,0.7853140000000001,0.6995594999999999,-0.024862,1.138874,0.5008995,0.036429,1.208484,0.7126595,-0.024705,0.754934,0.9186495,-0.088237,1.235364,0.9310795,-0.092117,0.927209,-0.0030225,-0.000507,1.072791,0.0030224999999999,0.000507,0.8819740000000001,-0.4291205,-0.0016319999999999,1.118134,-0.4036305,-0.0110559999999999,0.873054,-0.7315404999999999,-0.03991,1.118924,-0.7074005000000001,-0.024623
158,1.0020259999999999,0.7193725,0.0574675,0.857966,0.4864324999999999,0.0261975,0.784966,0.6998025,-0.0229795,1.138946,0.5007825,0.0369185,1.208516,0.7126925,-0.0236394999999999,0.7548360000000001,0.9189425,-0.0862074999999999,1.235296,0.9311125,-0.0909374999999999,0.927152,-0.0030545,-0.0003884999999999,1.072848,0.0030545,0.0003884999999999,0.8818360000000001,-0.4291175,-0.0014805,1.118256,-0.4036575,-0.0106535,0.872946,-0.7316275,-0.0393565,1.119056,-0.7074275,-0.0242564999999999
159,1.0018254999999998,0.7187790000000001,0.0577069999999999,0.8577595,0.4865989999999999,0.026839,0.7845695,0.700099,-0.0213009999999999,1.1390295,0.5007189999999999,0.037345,1.2085195,0.712769,-0.022767,0.7547195,0.919269,-0.084459,1.2351495,0.931209,-0.090045,0.9271055,-0.003096,-0.0002599999999999,1.0728945,0.0030959999999999,0.0002599999999999,0.8817195,-0.429051,-0.0013929999999999,1.1183395,-0.403651,-0.010342,0.8728295,-0.731651,-0.0389739999999999,1.1191894999999998,-0.7074309999999999,-0.0239649999999999
160,1.0015415,0.718264,0.057788,0.8576085,0.486794,0.0274589999999999,0.7842985,0.7002740000000001,-0.0205629999999999,1.1390085,0.5007440000000001,0.037727,1.2084285,0.712924,-0.022313,0.7546185,0.919444,-0.083633,1.2348284999999999,0.931354,-0.089705,0.9270545,-0.0031349999999999,-0.0002059999999999,1.0729454999999999,0.0031349999999999,0.0002059999999999,0.8816585,-0.428856,-0.001421,1.1183985,-0.403686,-0.010122,0.8727085,-0.731536,-0.038702,1.1193184999999999,-0.7074659999999999,-0.0237469999999999
161,1.001172,0.718161,0.057827,0.857495,0.486911,0.027952,0.783935,0.7003510000000001,-0.020023,1.138975,0.500841,0.0380459999999999,1.208255,0.7130610000000001,-0.02214,0.754365,0.919521,-0.083044,1.234365,0.931531,-0.0895189999999999,0.92703,-0.0031329999999999,-0.0001399999999999,1.07297,0.0031329999999999,0.00014,0.881595,-0.428739,-0.0017779999999999,1.118455,-0.403709,-0.009956,0.872575,-0.731499,-0.038686,1.119435,-0.7074889999999999,-0.0237259999999999
162,1.000815,0.7180110000000001,0.0578755,0.857405,0.486911,0.0285195,0.783615,0.7003510000000001,-0.0194625,1.139015,0.500841,0.0384064999999999,1.208105,0.7130610000000001,-0.0218145,0.754055,0.919521,-0.0823495,1.233885,0.931531,-0.0892505,0.927002,-0.0031329999999999,-0.0001844999999999,1.072998,0.0031329999999999,0.0001845,0.881685,-0.428739,-0.0022305,1.118605,-0.403709,-0.0097784999999999,0.872675,-0.731499,-0.0385375,1.119635,-0.7074889999999999,-0.0236865
163,1.0004155,0.7180110000000001,0.057796,0.8573545,0.486911,0.029011,0.7832844999999999,0.7003510000000001,-0.0191089999999999,1.1390545,0.500841,0.038637,1.2082345,0.7130610000000001,-0.021554,0.7536145,0.919521,-0.081727,1.2332745,0.931531,-0.08907,0.9269595,-0.0031329999999999,-0.0002859999999999,1.0730405,0.0031329999999999,0.000286,0.8816945,-0.428739,-0.0027669999999999,1.1187745,-0.403709,-0.0097779999999999,0.8729945,-0.731499,-0.038318,1.1198345,-0.7074889999999999,-0.0238199999999999
164,0.999933,0.7177235000000001,0.0577985,0.8573140000000001,0.4869134999999999,0.0295755,0.7829340000000001,0.7003535000000001,-0.0187495,1.139134,0.5008235000000001,0.0389835,1.2084139999999999,0.7130635000000001,-0.0212105,0.753034,0.9195235,-0.0813595,1.232534,0.9315335,-0.0886965,0.926876,-0.0031354999999999,-0.0004674999999999,1.073124,0.0031354999999999,0.0004675,0.8817240000000001,-0.4287365,-0.0036115,1.118984,-0.4037765,-0.0097905,0.873164,-0.7314965,-0.0382385,1.120104,-0.7075465,-0.0239645
165,0.998824,0.717511,0.057712,0.857012,0.487201,0.0301509999999999,0.781722,0.700021,-0.018346,1.138892,0.5008509999999999,0.039357,1.2085919999999999,0.713121,-0.020912,0.750812,0.919081,-0.080925,1.230942,0.931681,-0.088397,0.9267970000000001,-0.0031609999999999,-0.000688,1.073203,0.0031609999999999,0.0006879999999999,0.881742,-0.4294789999999999,-0.005082,1.119122,-0.403899,-0.010016,0.873132,-0.732319,-0.038516,1.120832,-0.707659,-0.0244139999999999
166,0.9974145000000001,0.7175444999999999,0.0568965,0.8563765,0.4876745,0.0308385,0.7769865,0.6985245,-0.0175294999999999,1.1388465,0.5012344999999999,0.0400255,1.2103665000000001,0.7124545,-0.0220155,0.7475265,0.9178145,-0.0801535,1.2292265,0.9310445,-0.0901995,0.9267145,-0.0031885,-0.0008754999999999,1.0732855,0.0031884999999999,0.0008755,0.8821165,-0.4298855,-0.0071784999999999,1.1196965,-0.4036254999999999,-0.0100974999999999,0.8735165,-0.7328155000000001,-0.0388875,1.1219465,-0.7073855,-0.0243974999999999
167,0.995529,0.7175115,0.055511,0.854746,0.4881514999999999,0.031743,0.770216,0.6965315,-0.016597,1.138766,0.5015415,0.040469,1.213146,0.7108614999999999,-0.0234319999999999,0.743336,0.9160115,-0.079402,1.2275260000000001,0.9294015,-0.092443,0.9266580000000001,-0.0032165,-0.0010399999999999,1.0733419999999998,0.0032164999999999,0.0010399999999999,0.882626,-0.4303384999999999,-0.009492,1.120446,-0.4033285,-0.010065,0.8741560000000002,-0.7333685,-0.039037,1.123026,-0.7070685,-0.02458
