sb224sc-HT22-VT27/4dt907/src/data/kinect_good_preprocessed_A9_mediapipe/A21_kinect_mirrored.csv
FrameNo,nose_3d_x,nose_3d_y,nose_3d_z,left_shoulder_3d_x,left_shoulder_3d_y,left_shoulder_3d_z,left_elbow_3d_x,left_elbow_3d_y,left_elbow_3d_z,right_shoulder_3d_x,right_shoulder_3d_y,right_shoulder_3d_z,right_elbow_3d_x,right_elbow_3d_y,right_elbow_3d_z,left_wrist_3d_x,left_wrist_3d_y,left_wrist_3d_z,right_wrist_3d_x,right_wrist_3d_y,right_wrist_3d_z,left_hip_3d_x,left_hip_3d_y,left_hip_3d_z,right_hip_3d_x,right_hip_3d_y,right_hip_3d_z,left_knee_3d_x,left_knee_3d_y,left_knee_3d_z,right_knee_3d_x,right_knee_3d_y,right_knee_3d_z,left_ankle_3d_x,left_ankle_3d_y,left_ankle_3d_z,right_ankle_3d_x,right_ankle_3d_y,right_ankle_3d_z
24,0.9965375,0.7246265,0.0493064999999999,0.8534545,0.4895365,0.0505264999999999,0.7434345,0.7421665,0.0074384999999999,1.1461445000000001,0.5076565,0.0464975,1.2481844999999998,0.7500765,-0.0133945,0.7112944999999999,0.9424365,-0.0449865,1.2799845,0.9487765,-0.0685265,0.9269315,-0.0026344999999999,-0.0001425,1.0730685,0.0026345,0.0001424999999999,0.8886745,-0.4375135,0.0094254999999999,1.1269645,-0.3978935,-0.0215295,0.8809745,-0.7920735,-0.0198015,1.1369245000000001,-0.7801635,-0.0221265
25,0.9973270000000001,0.724687,0.0483954999999999,0.8537060000000001,0.488927,0.0493064999999999,0.7437659999999999,0.7414270000000001,0.0065724999999999,1.146456,0.507507,0.0458984999999999,1.248406,0.750207,-0.0142525,0.712186,0.942077,-0.0458925,1.2801960000000001,0.948837,-0.0693845,0.9268730000000001,-0.00261,-0.0003195,1.073127,0.00261,0.0003195,0.8883860000000001,-0.4378329999999999,0.0080414999999999,1.126616,-0.398933,-0.0226515,0.880816,-0.792303,-0.0208585,1.136756,-0.781153,-0.0240605
26,0.9984495000000001,0.725136,0.04636,0.8540755,0.488496,0.047139,0.7441154999999999,0.7418760000000001,0.0040189999999999,1.1470055000000001,0.507646,0.044391,1.2488755,0.750656,-0.015984,0.7131354999999999,0.942526,-0.048137,1.2800055000000001,0.949286,-0.071077,0.9267605,-0.0025929999999999,-0.000323,1.0732395,0.0025929999999999,0.0003229999999999,0.8880355,-0.438204,0.0053789999999999,1.1262555,-0.400224,-0.02461,0.8807455,-0.7924439999999999,-0.022991,1.1367755,-0.781694,-0.026056
27,0.9996590000000001,0.725845,0.04365,0.854473,0.488245,0.044377,0.7446429999999999,0.742255,0.00088,1.147673,0.507825,0.042226,1.249433,0.751355,-0.018276,0.713973,0.943115,-0.051615,1.279893,0.949995,-0.0733149999999999,0.92662,-0.002512,-0.000399,1.07338,0.002512,0.000399,0.887653,-0.438575,0.001969,1.125793,-0.402035,-0.027115,0.880583,-0.792405,-0.0257599999999999,1.136593,-0.782505,-0.029608
28,1.0007594999999998,0.7268435,0.040181,0.8546665,0.4882135,0.041033,0.7449065,0.7426435,-0.003294,1.1481965,0.5081834999999999,0.039398,1.2494965,0.7523934999999999,-0.021285,0.7144965,0.9437635,-0.05621,1.2797365,0.9509735,-0.07713,0.9264384999999999,-0.0024295,-0.0004439999999999,1.0735615,0.0024295,0.0004439999999999,0.8869565,-0.4388965,-0.002158,1.1250565,-0.4038365,-0.030139,0.8803665,-0.7921465000000001,-0.0290659999999999,1.1364165,-0.7832565,-0.0336599999999999
29,1.0017544999999999,0.727697,0.035099,0.8546595,0.488287,0.036543,0.7449995,0.742977,-0.008825,1.1485695,0.508767,0.035518,1.2492595,0.753477,-0.026473,0.7146095,0.944097,-0.062819,1.2792195,0.951957,-0.083828,0.9262105,-0.0023239999999999,-0.000459,1.0737895,0.002324,0.0004589999999999,0.8859195,-0.438843,-0.007337,1.1240495,-0.405193,-0.034262,0.8799595,-0.791833,-0.034005,1.1359795,-0.7824530000000001,-0.038071
30,1.0026214999999998,0.7282660000000001,0.0281545,0.8544435000000001,0.4884259999999999,0.0304715,0.7446135,0.743096,-0.0162814999999999,1.1488435,0.509406,0.0301245,1.2487235,0.754356,-0.0342774999999999,0.7145935,0.943966,-0.0718004999999999,1.2781734999999999,0.952956,-0.0937915,0.9260805,-0.0022199999999999,-0.0004844999999999,1.0739195,0.0022199999999999,0.0004845,0.8846735,-0.438494,-0.0140484999999999,1.1229335,-0.406024,-0.0399425,0.8791535,-0.7911239999999999,-0.0405035,1.1354535000000001,-0.7814540000000001,-0.0437105
31,1.0035255,0.727706,0.019631,0.8541255,0.488386,0.0231439999999999,0.7441455,0.742806,-0.02543,1.1491755,0.509726,0.023493,1.2475654999999999,0.751366,-0.043797,0.7145055,0.943076,-0.0830529999999999,1.2766155000000001,0.953456,-0.1064809999999999,0.9259995,-0.0021139999999999,-0.000254,1.0740005,0.002114,0.0002539999999999,0.8832655,-0.437884,-0.022069,1.1218855,-0.406834,-0.046823,0.8783055,-0.790304,-0.048227,1.1349255,-0.7801939999999999,-0.050455
32,1.0043345,0.726738,0.0104285,0.8536725000000001,0.488468,0.0155615,0.7438225,0.741078,-0.0353985,1.1493325,0.509918,0.0163805,1.2463025,0.748568,-0.0543005,0.7142325,0.941668,-0.0949275,1.2748825,0.953888,-0.1206785,0.9259995,-0.00197,-0.0001834999999999,1.0740005,0.0019699999999999,0.0001835,0.8818025,-0.437152,-0.0304285,1.1209525,-0.407452,-0.0540205,0.8773825000000001,-0.789412,-0.0562875,1.1342525,-0.7787919999999999,-0.0574915
33,1.0051025,0.7251845,0.0002634999999999,0.8531135,0.4887945,0.0073534999999999,0.7432835,0.7379545,-0.0467215,1.1492935,0.5104545,0.0086255,1.2448335,0.7447545,-0.0660425,0.7132135,0.9393845,-0.1080795,1.2728735,0.9537945,-0.1366595,0.9259535,-0.0018675,0.0001835,1.0740465,0.0018674999999999,-0.0001835,0.8805535,-0.4358555,-0.0395865,1.1203135,-0.4067755,-0.0619285,0.8766935,-0.7877455,-0.0648995,1.1335835,-0.7777455,-0.0658385
34,1.0054715,0.7233665,-0.0107975,0.8533155,0.4884665,-0.0018434999999999,0.7424455,0.7348365,-0.0588604999999999,1.1489855,0.5103965,-0.0002854999999999,1.2432055,0.7405065,-0.0785205,0.7120955,0.9371865,-0.1221425,1.2706355,0.9538765,-0.1538624999999999,0.9257995,-0.0017045,0.0004994999999999,1.0742005,0.0017045,-0.0004994999999999,0.8794655,-0.4338835,-0.0494594999999999,1.1195255,-0.4052635,-0.0704955,0.8758655,-0.7852735000000001,-0.0739635,1.1327655,-0.7759435,-0.0746945
35,1.0055655,0.72153,-0.0215365,0.8535495,0.48766,-0.0107214999999999,0.7412795,0.73151,-0.0707565,1.1484495,0.50976,-0.0088534999999999,1.2413095,0.73633,-0.0905695,0.7107295,0.9348,-0.1362634999999999,1.2680795,0.95379,-0.1708535,0.9255245,-0.001468,0.0005985,1.0744755,0.0014679999999999,-0.0005984999999999,0.8783895,-0.43088,-0.0592414999999999,1.1185495,-0.40262,-0.0790805,0.8749595,-0.7817999999999999,-0.0825225,1.1317695,-0.77359,-0.0836195
36,1.0052215,0.7190455,-0.032328,0.8537485,0.4866055,-0.01953,0.7397385000000001,0.7275055,-0.082536,1.1475285,0.5091355,-0.017498,1.2391385,0.7317155,-0.102393,0.7089485,0.9298155,-0.151046,1.2651585,0.9535455,-0.187076,0.9252495000000001,-0.0013775,0.0008099999999999,1.0747505,0.0013775,-0.00081,0.8769485,-0.4272945,-0.069282,1.1174784999999998,-0.3998045,-0.088534,0.8739285,-0.7778645,-0.0911559999999999,1.1307285,-0.7699545,-0.0924889999999999
37,1.004568,0.7167665000000001,-0.0430145,0.85375,0.4860165,-0.0284695,0.7378899999999999,0.7232665,-0.0943405,1.14628,0.5084965,-0.0263065,1.23667,0.7269665000000001,-0.1140785,0.70667,0.9252965,-0.1655944999999999,1.26177,0.9518765,-0.2033745,0.92497,-0.0013204999999999,0.0010994999999999,1.07503,0.0013205,-0.0010995,0.87522,-0.4230235,-0.0794275,1.11634,-0.3965435,-0.0983885,0.87305,-0.7731935,-0.0998945,1.12978,-0.7656835,-0.1010215
38,1.003565,0.714675,-0.0527775,0.853598,0.485315,-0.0367315,0.7358280000000001,0.718625,-0.1053875,1.144798,0.5076849999999999,-0.0344835,1.233948,0.721155,-0.1245775,0.7043280000000001,0.920925,-0.1789285,1.258678,0.949755,-0.2178284999999999,0.924775,-0.001295,0.0014274999999999,1.075225,0.001295,-0.0014274999999999,0.873308,-0.418835,-0.0889515,1.115268,-0.393525,-0.1076075,0.872098,-0.768425,-0.1075075,1.128758,-0.7612650000000001,-0.1088365
39,1.0023594999999998,0.7125485,-0.0616375,0.8531625,0.4840885,-0.0440075,0.7333925,0.7148485,-0.1155835,1.1432925,0.5067685000000001,-0.0418005,1.2308925,0.7155385000000001,-0.1339905,0.7017025,0.9182485,-0.1914765,1.2555725,0.9474885,-0.2313565,0.9245295,-0.0011795,0.0016274999999999,1.0754705,0.0011795,-0.0016275,0.8712025,-0.4139215,-0.0977515,1.1142925,-0.3906915,-0.1167785,0.8711325,-0.7629615,-0.1141895,1.1273724999999999,-0.7555915,-0.1156905
40,1.0011189999999999,0.71118,-0.0696695,0.85283,0.48289,-0.0504665,0.73119,0.71131,-0.1248254999999999,1.14197,0.50563,-0.0482914999999999,1.22861,0.71399,-0.1426715,0.69933,0.91384,-0.2031465,1.25289,0.9459,-0.2434664999999999,0.9242900000000001,-0.0011069999999999,0.0016905,1.07571,0.001107,-0.0016904999999999,0.86943,-0.40818,-0.1058794999999999,1.1136,-0.38713,-0.1253635,0.87029,-0.75672,-0.1200875,1.12606,-0.74917,-0.1217294999999999
41,0.9998415,0.7096575,-0.077408,0.8525155,0.4818475,-0.056789,0.7289555,0.7079675000000001,-0.133972,1.1409055,0.5042675,-0.054704,1.2263355,0.7117475000000001,-0.151705,0.6971655,0.9099775,-0.214143,1.2502255,0.9440075,-0.255853,0.9240575,-0.0009774999999999,0.0017919999999999,1.0759425,0.0009774999999999,-0.001792,0.8678655,-0.4017225,-0.113982,1.1132054999999998,-0.3829525,-0.134051,0.8694855,-0.7500024999999999,-0.125833,1.1250655,-0.7414624999999999,-0.127652
42,0.9982765,0.708337,-0.084839,0.8520595,0.480617,-0.0630009999999999,0.7261795,0.7055669999999999,-0.142701,1.1395995,0.502307,-0.0611069999999999,1.2238895,0.7099169999999999,-0.160661,0.6946695,0.907417,-0.2266409999999999,1.2474095,0.942487,-0.2683609999999999,0.9237705,-0.0009189999999999,0.001709,1.0762295,0.0009189999999999,-0.0017089999999999,0.8662695,-0.3944229999999999,-0.121974,1.1128095,-0.378803,-0.142963,0.8686294999999999,-0.742453,-0.131318,1.1238895,-0.732813,-0.132456
43,0.9968205,0.7062525,-0.091502,0.8506575000000001,0.4796325,-0.0684569999999999,0.7235975,0.7029225,-0.15109,1.1381375,0.5008724999999999,-0.0665419999999999,1.2213375,0.7077325,-0.16931,0.6920675000000001,0.9020025,-0.23858,1.2445575,0.9408725,-0.28037,0.9235115,-0.0009134999999999,0.001491,1.0764885,0.0009135,-0.0014909999999999,0.8647475,-0.3875174999999999,-0.129288,1.1124675,-0.3750575,-0.151664,0.8678275,-0.7349575,-0.136437,1.1226174999999998,-0.7246775000000001,-0.137066
44,0.9954120000000001,0.7038945,-0.098089,0.849333,0.4789045,-0.073699,0.7209829999999999,0.6997845,-0.159279,1.136353,0.4995245,-0.071764,1.218983,0.7048545,-0.177916,0.689623,0.8964545,-0.249446,1.241603,0.9389045,-0.291236,0.923324,-0.0009904999999999,0.0013309999999999,1.076676,0.0009904999999999,-0.0013309999999999,0.8630530000000001,-0.3787554999999999,-0.135907,1.112283,-0.3662255,-0.160293,0.8669430000000001,-0.7267655,-0.141252,1.121303,-0.7179055,-0.142534
45,0.9940260000000001,0.7019145,-0.1047355,0.847972,0.4774644999999999,-0.0791805,0.718852,0.6968645,-0.1677555,1.134412,0.4979444999999999,-0.0770465,1.216962,0.7024445,-0.1868955,0.687392,0.8931645,-0.2594155,1.239112,0.9300845,-0.3025755,0.92311,-0.0010664999999999,0.0009725,1.07689,0.0010664999999999,-0.0009725,0.8610720000000001,-0.3705955,-0.1422455,1.111902,-0.3582055,-0.1682025,0.865182,-0.7187454999999999,-0.1451845,1.119442,-0.7098855,-0.1471665
46,0.9922065000000001,0.698314,-0.1167389999999999,0.8463345000000001,0.475934,-0.0898979999999999,0.7163245,0.6946640000000001,-0.1821419999999999,1.1321145,0.495764,-0.0879219999999999,1.2146245,0.699774,-0.2016299999999999,0.6849845,0.890714,-0.2755999999999999,1.2361045,0.924284,-0.31865,0.9228745,-0.0012699999999999,0.000522,1.0771255,0.00127,-0.0005219999999999,0.8587545,-0.360726,-0.153662,1.1112045,-0.348336,-0.181335,0.8631044999999999,-0.708876,-0.1541529999999999,1.1172645,-0.700016,-0.1566909999999999
47,0.9904165,0.6947650000000001,-0.12853,0.8448355,0.474205,-0.100621,0.7137355000000001,0.693255,-0.196737,1.1297855,0.492665,-0.098679,1.2121055,0.6986350000000001,-0.216177,0.6825155,0.8887849999999999,-0.293387,1.2330554999999999,0.918865,-0.334277,0.9226735000000001,-0.0014779999999999,0.000198,1.0773264999999999,0.001478,-0.000198,0.8561354999999999,-0.346775,-0.16867,1.1104455,-0.3367549999999999,-0.196887,0.8610655,-0.697805,-0.16307,1.1150555,-0.6889449999999999,-0.165998
48,0.98877,0.690758,-0.141809,0.8440449999999999,0.472018,-0.112606,0.7117249999999999,0.6916779999999999,-0.212985,1.128185,0.488678,-0.111002,1.209905,0.6961879999999999,-0.232185,0.681655,0.886328,-0.3133249999999999,1.230655,0.909738,-0.351985,0.922555,-0.0016369999999999,0.0002249999999999,1.077445,0.0016369999999999,-0.000225,0.8533950000000001,-0.328702,-0.185416,1.109905,-0.319982,-0.212605,0.859515,-0.680462,-0.172348,1.112785,-0.673942,-0.175887
49,0.9874155,0.68676,-0.154879,0.8434825000000001,0.46934,-0.124814,0.7101325,0.68872,-0.229515,1.1267625,0.48483,-0.123297,1.2079825,0.6916199999999999,-0.247745,0.6811024999999999,0.88595,-0.332995,1.2284724999999999,0.90021,-0.369305,0.9223875,-0.0018099999999999,5.499999999999949e-05,1.0776125,0.00181,-5.499999999999949e-05,0.8506724999999999,-0.31033,-0.202284,1.1095324999999998,-0.30275,-0.2283649999999999,0.8582525,-0.6627399999999999,-0.181451,1.1108325,-0.65819,-0.185628
50,0.986311,0.6817549999999999,-0.16785,0.8432980000000001,0.467575,-0.136839,0.708948,0.6854549999999999,-0.246255,1.125628,0.4821249999999999,-0.135431,1.2063679999999999,0.685935,-0.263585,0.680998,0.884225,-0.353825,1.226528,0.891405,-0.3870349999999999,0.922312,-0.001965,-5.000000000005e-06,1.077688,0.0019649999999999,5.000000000005e-06,0.848008,-0.291345,-0.219266,1.109398,-0.284845,-0.2443449999999999,0.857208,-0.6439950000000001,-0.190498,1.109098,-0.641405,-0.195261
51,0.9853885,0.6772499999999999,-0.180134,0.8432505000000001,0.46365,-0.14873,0.7083105000000001,0.6824600000000001,-0.26199,1.1242705,0.47815,-0.147253,1.2051005,0.68167,-0.27833,0.6813205,0.8824099999999999,-0.37238,1.2243405,0.88392,-0.40381,0.9221995000000001,-0.0020499999999999,-4.000000000001225e-05,1.0778005,0.00205,3.999999999998449e-05,0.8453405,-0.2724499999999999,-0.23594,1.1093005,-0.26558,-0.2598,0.8564805,-0.6250899999999999,-0.198977,1.1074704999999998,-0.62432,-0.204636
52,0.984402,0.673485,-0.192366,0.843095,0.460875,-0.160342,0.7077250000000002,0.680005,-0.27787,1.122955,0.4737449999999999,-0.159033,1.203645,0.677015,-0.2931,0.681555,0.879815,-0.39057,1.221995,0.875275,-0.42058,0.922065,-0.0020749999999999,9.999999999982244e-06,1.077935,0.0020749999999999,-1.000000000001e-05,0.842305,-0.253125,-0.25277,1.108925,-0.246405,-0.27524,0.855745,-0.605475,-0.207123,1.105775,-0.606385,-0.213959
53,0.9835075,0.6691050000000001,-0.204169,0.8430205,0.458675,-0.171755,0.7076104999999999,0.675865,-0.29296,1.1215205,0.470505,-0.170577,1.2023005,0.672585,-0.3075799999999999,0.6817504999999999,0.877855,-0.40847,1.2199605,0.866585,-0.4377,0.9218895,-0.0020749999999999,9.9999999999989e-05,1.0781105,0.002075,-9.9999999999989e-05,0.8391505000000001,-0.2334549999999999,-0.26977,1.1085205,-0.2264049999999999,-0.29041,0.8550805,-0.585565,-0.215089,1.1041204999999998,-0.588085,-0.223292
54,0.9829725,0.663855,-0.216022,0.8431405000000001,0.4551349999999999,-0.183351,0.7077705000000001,0.672995,-0.307725,1.1202505,0.464825,-0.182589,1.2013505,0.666555,-0.321465,0.6824905,0.873645,-0.426345,1.2180505,0.8634649999999999,-0.455015,0.9216995,-0.001945,0.0002649999999999,1.0783005,0.001945,-0.000265,0.8358305,-0.211505,-0.287065,1.1081105,-0.203725,-0.306025,0.8543905,-0.5632750000000001,-0.222741,1.1028505,-0.567755,-0.232531
55,0.982923,0.66011,-0.221913,0.8437410000000001,0.45147,-0.1891229999999999,0.708321,0.6697500000000001,-0.315565,1.119581,0.45982,-0.1886439999999999,1.200971,0.66046,-0.328775,0.683511,0.86921,-0.437485,1.216991,0.85952,-0.465625,0.921499,-0.0016599999999999,0.000455,1.078501,0.0016599999999999,-0.0004549999999999,0.8327910000000001,-0.1894199999999999,-0.2992749999999999,1.1080409999999998,-0.18051,-0.316305,0.8540610000000001,-0.54063,-0.2245829999999999,1.1019709999999998,-0.54726,-0.236605
56,0.9827955000000002,0.65566,-0.227155,0.8442054999999999,0.44817,-0.194405,0.7088955,0.6660600000000001,-0.3224749999999999,1.1189054999999999,0.45607,-0.194183,1.2006554999999999,0.65291,-0.335215,0.6847055,0.8644100000000001,-0.446225,1.2159555,0.85297,-0.475765,0.9213445,-0.0014199999999999,0.000455,1.0786555,0.00142,-0.0004549999999999,0.8302555,-0.1693099999999999,-0.307795,1.1079255,-0.1604,-0.323905,0.8536855,-0.51891,-0.225927,1.1009955,-0.52742,-0.2405399999999999
57,0.982944,0.65274,-0.22995,0.84457,0.4464899999999999,-0.197674,0.70991,0.6596299999999999,-0.32589,1.11842,0.4532699999999999,-0.1977249999999999,1.20059,0.6468700000000001,-0.33877,0.68544,0.85974,-0.4513,1.21559,0.8511199999999999,-0.48254,0.92118,-0.00123,0.00042,1.07882,0.0012299999999999,-0.00042,0.82855,-0.15164,-0.31404,1.10798,-0.14273,-0.3299999999999999,0.8533999999999999,-0.5012400000000001,-0.226578,1.10056,-0.50962,-0.243336
58,0.9830004999999999,0.6488050000000001,-0.232259,0.8450175,0.444805,-0.200127,0.7109175000000001,0.656055,-0.328265,1.1181275,0.450965,-0.200597,1.2006175,0.642995,-0.341895,0.6862874999999999,0.8558749999999999,-0.454785,1.2154375,0.847165,-0.488395,0.9210925000000001,-0.001045,0.0004049999999999,1.0789075,0.001045,-0.000405,0.8270075,-0.1336549999999999,-0.319765,1.1082175,-0.124745,-0.335595,0.8531775,-0.483255,-0.226846,1.1001575,-0.491635,-0.24561
59,0.983338,0.646355,-0.2343239999999999,0.845616,0.441365,-0.2025509999999999,0.712016,0.653385,-0.3299299999999999,1.118566,0.447675,-0.2033239999999999,1.200766,0.640795,-0.34392,0.687106,0.853655,-0.45708,1.215166,0.8443449999999999,-0.4925,0.920934,-0.0010149999999999,0.00046,1.079066,0.0010149999999999,-0.0004599999999999,0.825796,-0.118985,-0.32536,1.108496,-0.109885,-0.3408299999999999,0.853036,-0.4646849999999999,-0.2271139999999999,1.0997359999999998,-0.473655,-0.2465509999999999
60,0.983676,0.64355,-0.236129,0.846231,0.4409999999999999,-0.204241,0.7128909999999999,0.64947,-0.33134,1.119381,0.4454899999999999,-0.20551,1.200401,0.63768,-0.34571,0.687981,0.85,-0.45836,1.214461,0.8419099999999999,-0.4954,0.920699,-0.0008,0.0004799999999999,1.079301,0.0007999999999999,-0.00048,0.8248610000000001,-0.10296,-0.33059,1.108631,-0.09472,-0.34597,0.853151,-0.44676,-0.227119,1.099421,-0.4555100000000001,-0.247263
61,0.984018,0.640965,-0.237693,0.846811,0.440075,-0.2058499999999999,0.7138610000000001,0.6449149999999999,-0.33198,1.120111,0.4444149999999999,-0.207557,1.200841,0.634285,-0.34702,0.688741,0.8475849999999999,-0.45908,1.213661,0.840665,-0.49768,0.9204289999999999,-0.000785,0.0005,1.079571,0.0007849999999999,-0.0005,0.8241010000000001,-0.087645,-0.33568,1.108721,-0.080365,-0.3507599999999999,0.8534010000000001,-0.4299550000000001,-0.2271369999999999,1.099051,-0.438385,-0.248222
62,0.9840055,0.637995,-0.2390469999999999,0.8472835,0.437645,-0.2073739999999999,0.7140535,0.6434949999999999,-0.332805,1.1206135,0.442025,-0.2096589999999999,1.2008235,0.6315850000000001,-0.348215,0.6892134999999999,0.846495,-0.4599649999999999,1.2128634999999999,0.838945,-0.499405,0.9200965,-0.000645,0.000525,1.0799035,0.000645,-0.0005249999999999,0.8231935000000001,-0.069525,-0.340175,1.1085235,-0.063415,-0.355375,0.8534935000000001,-0.410935,-0.2268569999999999,1.0986135,-0.420265,-0.249496
63,0.9833115,0.634855,-0.2395419999999999,0.8474205,0.437597,-0.2080099999999999,0.7142205000000001,0.6410750000000001,-0.3328299999999999,1.1207905,0.441396,-0.2106199999999999,1.2003105,0.630055,-0.3492699999999999,0.6889905000000001,0.844265,-0.46051,1.2119405,0.837365,-0.5013099999999999,0.9197295,-0.0003049999999999,0.00107,1.0802705,0.0003049999999999,-0.0010699999999999,0.8223005,-0.0502849999999999,-0.34234,1.1082305,-0.0460749999999999,-0.35853,0.8529905,-0.391735,-0.2268639999999999,1.0978504999999998,-0.402055,-0.249187
64,0.9826435000000001,0.63144,-0.239456,0.8474174999999999,0.4374409999999999,-0.208155,0.7144275,0.63603,-0.332625,1.1208275,0.4408809999999999,-0.210954,1.2000175,0.62782,-0.350165,0.6887275000000002,0.83995,-0.460555,1.2108775,0.83412,-0.502805,0.9195325,-0.00012,0.001645,1.0804675,0.0001199999999999,-0.001645,0.8215175,-0.03321,-0.343145,1.1080575,-0.03095,-0.360495,0.8522775000000001,-0.37545,-0.226661,1.0971075,-0.38656,-0.248558
65,0.981825,0.629015,-0.2392969999999999,0.847364,0.437934,-0.208358,0.714294,0.631855,-0.332735,1.120174,0.44094,-0.211252,1.199814,0.625305,-0.3513349999999999,0.6882440000000001,0.836055,-0.4607549999999999,1.2096040000000001,0.832515,-0.504115,0.919346,0.000105,0.002425,1.080654,-0.000105,-0.0024249999999999,0.820724,-0.016755,-0.342635,1.107874,-0.0157649999999999,-0.361515,0.8514539999999999,-0.359975,-0.2266599999999999,1.096384,-0.3717549999999999,-0.2481249999999999
66,0.980889,0.6257,-0.2386749999999999,0.847869,0.437001,-0.2082589999999999,0.713429,0.63083,-0.3322699999999999,1.119369,0.440411,-0.2109519999999999,1.198969,0.62395,-0.35151,0.687569,0.8325800000000001,-0.46052,1.208569,0.8277100000000001,-0.50484,0.919251,0.00053,0.00329,1.080749,-0.0005299999999999,-0.0032899999999999,0.820809,0.00185,-0.34178,1.107529,0.00196,-0.36151,0.850349,-0.34248,-0.228323,1.095869,-0.35507,-0.2477029999999999
67,0.979841,0.622635,-0.2378659999999999,0.8481380000000001,0.437068,-0.2081449999999999,0.712448,0.628185,-0.331465,1.118368,0.440015,-0.2107589999999999,1.197998,0.621365,-0.352815,0.6868879999999999,0.828855,-0.460265,1.207468,0.8251649999999999,-0.505675,0.919162,0.000975,0.004035,1.080838,-0.000975,-0.0040349999999999,0.821048,0.018965,-0.341055,1.107028,0.0187149999999999,-0.3607549999999999,0.849798,-0.326325,-0.2275479999999999,1.095218,-0.339515,-0.2473359999999999
68,0.9787030000000001,0.62024,-0.237597,0.848175,0.437453,-0.208174,0.711435,0.62669,-0.3312049999999999,1.117475,0.438838,-0.211091,1.197715,0.6196,-0.354595,0.6858950000000001,0.8262700000000001,-0.460695,1.206065,0.8225899999999999,-0.507465,0.919305,0.00118,0.0050449999999999,1.080695,-0.00118,-0.0050449999999999,0.8219650000000001,0.03625,-0.340065,1.106445,0.0357,-0.360525,0.849165,-0.30958,-0.227261,1.094735,-0.32378,-0.247631
69,0.977638,0.617665,-0.23774,0.847886,0.436493,-0.2086039999999999,0.7104159999999999,0.626005,-0.332175,1.116606,0.438409,-0.2116759999999999,1.197236,0.617355,-0.356985,0.684886,0.820315,-0.4616449999999999,1.204636,0.818755,-0.510445,0.919494,0.001165,0.005655,1.080506,-0.0011649999999999,-0.0056549999999999,0.823226,0.051965,-0.338835,1.105716,0.051485,-0.360915,0.849896,-0.2945449999999999,-0.225015,1.094626,-0.309945,-0.24916
70,0.976493,0.6144000000000001,-0.2385029999999999,0.847475,0.43544,-0.2094189999999999,0.7093150000000001,0.62535,-0.3334049999999999,1.115535,0.43766,-0.2124439999999999,1.196465,0.61548,-0.3596749999999999,0.683855,0.81674,-0.462065,1.202845,0.81366,-0.513925,0.9197450000000001,0.00117,0.006485,1.080255,-0.00117,-0.0064849999999999,0.8247550000000001,0.0678099999999999,-0.3368449999999999,1.104685,0.0671899999999999,-0.361695,0.851645,-0.2803299999999999,-0.2226129999999999,1.0944749999999999,-0.2961899999999999,-0.251649
71,0.9754175,0.611715,-0.239141,0.8469245000000001,0.435462,-0.210441,0.7082345,0.622915,-0.334765,1.1142845,0.437432,-0.213416,1.1953345,0.612165,-0.362575,0.6829045,0.812785,-0.462515,1.2008745,0.8086949999999999,-0.517495,0.9199155,0.000975,0.007525,1.0800845,-0.000975,-0.007525,0.8256845000000002,0.081365,-0.334125,1.1038145,0.0808749999999999,-0.361885,0.8538345,-0.269155,-0.219935,1.0942045,-0.283045,-0.253119
72,0.9749935000000001,0.610135,-0.2396829999999999,0.8471065,0.434053,-0.211476,0.7077365,0.620985,-0.336735,1.1136065,0.437489,-0.2148749999999999,1.1951165,0.609665,-0.365575,0.6827565,0.8132550000000001,-0.463665,1.1999465,0.8051349999999999,-0.520895,0.9200235,9.499999999995624e-05,0.009025,1.0799765,-9.499999999995624e-05,-0.009025,0.8272965000000001,0.093135,-0.330575,1.1039165,0.092665,-0.361365,0.8574465,-0.2602949999999999,-0.2177339999999999,1.0946165,-0.2715349999999999,-0.254377
73,0.97463,0.60831,-0.240307,0.847144,0.432501,-0.212815,0.707264,0.6209290000000001,-0.339225,1.112884,0.435316,-0.216581,1.194014,0.6078880000000001,-0.368745,0.682534,0.8114950000000001,-0.465865,1.199004,0.801815,-0.524845,0.920126,-0.0005249999999999,0.0104249999999999,1.079874,0.0005249999999999,-0.010425,0.828414,0.105285,-0.326735,1.104304,0.104635,-0.360535,0.8620300000000001,-0.2526849999999999,-0.215742,1.095184,-0.2595649999999999,-0.255321
74,0.9743160000000001,0.6049189999999999,-0.240761,0.847225,0.4300499999999999,-0.213833,0.706895,0.618489,-0.3416749999999999,1.112215,0.4322399999999999,-0.2180849999999999,1.193235,0.606107,-0.3718249999999999,0.682315,0.8080799999999999,-0.4684049999999999,1.198095,0.79785,-0.529185,0.9202750000000001,-0.00114,0.011295,1.079725,0.0011399999999999,-0.011295,0.828795,0.1125199999999999,-0.323235,1.104875,0.1107299999999999,-0.358755,0.8671139999999999,-0.24642,-0.213302,1.096155,-0.2539500000000001,-0.257302
75,0.9743855,0.6023919999999999,-0.238643,0.8474835000000001,0.4290699999999999,-0.212721,0.7068535,0.6183839999999999,-0.34159,1.1113035,0.4300799999999999,-0.217999,1.1925035,0.603474,-0.37227,0.6823135,0.8053699999999999,-0.46903,1.1972535,0.79682,-0.5317000000000001,0.9209065,-0.00155,0.0114299999999999,1.0790935,0.0015499999999999,-0.01143,0.8293435,0.1193799999999999,-0.31818,1.1056335,0.1164099999999999,-0.35499,0.8708125,-0.24025,-0.215664,1.0977035,-0.24885,-0.25683
76,0.9751265,0.602388,-0.236583,0.8486225000000001,0.4283800000000001,-0.211273,0.7075125,0.620283,-0.342,1.1111725,0.4278700000000001,-0.217988,1.1925925,0.603296,-0.37293,0.6831525,0.8041800000000001,-0.46994,1.1969925,0.79708,-0.53409,0.9224375,-0.0008199999999999,0.0114999999999999,1.0775625,0.00082,-0.0115,0.8307325,0.12838,-0.31315,1.1069324999999999,0.12757,-0.35109,0.8749795,-0.2319999999999999,-0.21829,1.0996024999999998,-0.2377499999999999,-0.258854
77,0.9761145,0.6022419999999999,-0.2347739999999999,0.8501275,0.4293649999999999,-0.209992,0.7084775,0.6216519999999999,-0.342665,1.1116275,0.4262049999999999,-0.218218,1.1932075,0.6029049999999999,-0.373765,0.6842675,0.8017649999999998,-0.471105,1.1967975,0.793955,-0.536535,0.9239825,0.0001949999999999,0.0113949999999999,1.0760175,-0.000195,-0.0113949999999999,0.8313675,0.1360349999999999,-0.309975,1.1083775,0.1426749999999998,-0.347755,0.8779555,-0.2260050000000001,-0.224982,1.1014374999999998,-0.223235,-0.259027
78,0.9774345,0.6058420000000001,-0.230649,0.8512635,0.43474,-0.206279,0.7097535000000001,0.627013,-0.341555,1.1124935,0.42729,-0.215885,1.1942735,0.606577,-0.372375,0.6857735,0.8070700000000001,-0.470295,1.1969435,0.7943600000000001,-0.536535,0.9253665000000001,0.00045,0.0107949999999999,1.0746334999999998,-0.0004499999999999,-0.0107949999999999,0.8309335,0.14687,-0.304905,1.1100735,0.16113,-0.342125,0.8830835,-0.2162399999999998,-0.224781,1.1040335,-0.2044399999999999,-0.260251
79,0.9789100000000001,0.609026,-0.2266059999999999,0.8526770000000001,0.4405,-0.2026609999999999,0.7115370000000001,0.631814,-0.3397449999999999,1.113327,0.42899,-0.213535,1.194987,0.610104,-0.371055,0.687487,0.81136,-0.469445,1.197197,0.79494,-0.5361750000000001,0.926683,0.00107,0.010395,1.073317,-0.00107,-0.0103949999999999,0.8304270000000001,0.15807,-0.3004449999999999,1.107967,0.1744399999999999,-0.334015,0.885772,-0.20553,-0.223768,1.109767,-0.19096,-0.2655849999999999
80,0.980789,0.612554,-0.2221909999999999,0.854481,0.446195,-0.198738,0.713681,0.637414,-0.33742,1.1145509999999998,0.429635,-0.210608,1.1959710000000001,0.614467,-0.3690799999999999,0.689581,0.814095,-0.46784,1.197881,0.795965,-0.53559,0.927889,0.0017749999999999,0.00947,1.072111,-0.0017749999999999,-0.0094699999999999,0.829731,0.168785,-0.2955799999999999,1.105691,0.185585,-0.32528,0.888464,-0.195365,-0.221962,1.1158009999999998,-0.179505,-0.2702799999999999
81,0.982687,0.61602,-0.218133,0.856499,0.453145,-0.195419,0.7157789999999999,0.6424690000000001,-0.334945,1.115729,0.430195,-0.207865,1.197139,0.6182730000000001,-0.367015,0.691649,0.8158650000000001,-0.466725,1.1982789999999999,0.796805,-0.535195,0.929071,0.002985,0.008445,1.070929,-0.002985,-0.008445,0.828569,0.178235,-0.291495,1.103339,0.195145,-0.317145,0.8907580000000002,-0.186145,-0.220138,1.121739,-0.169875,-0.274465
82,0.984619,0.619799,-0.213827,0.858639,0.4599499999999999,-0.191742,0.7185090000000001,0.644474,-0.32998,1.1169889999999998,0.43259,-0.204809,1.198179,0.62242,-0.3645899999999999,0.6936990000000001,0.81987,-0.46546,1.198409,0.79814,-0.53466,0.9302370000000001,0.0040799999999999,0.0073,1.0697629999999998,-0.0040799999999999,-0.0073,0.8271390000000001,0.18712,-0.28691,1.101119,0.20471,-0.3089699999999999,0.8925190000000001,-0.17554,-0.224843,1.127729,-0.16031,-0.27704
83,0.986805,0.624531,-0.209461,0.861015,0.46692,-0.188148,0.7215750000000001,0.647451,-0.32515,1.118545,0.43498,-0.201763,1.199605,0.627033,-0.36222,0.6962350000000002,0.82479,-0.46369,1.198845,0.80072,-0.53382,0.931393,0.00519,0.00614,1.068607,-0.00519,-0.00614,0.826595,0.19854,-0.28257,1.0988749999999998,0.2133799999999999,-0.30141,0.894608,-0.16412,-0.2291989999999999,1.133535,-0.1517699999999999,-0.27899
84,0.9880285,0.628447,-0.2046299999999999,0.8623905000000001,0.4731549999999999,-0.1840159999999999,0.7236705,0.6483089999999999,-0.31971,1.1196005,0.4369649999999999,-0.1982149999999999,1.2003105,0.631023,-0.3589799999999999,0.6978705000000001,0.8276749999999999,-0.46126,1.1987005,0.8025249999999999,-0.53223,0.9319765,0.0058249999999999,0.00493,1.0680235,-0.005825,-0.0049299999999999,0.8252105000000001,0.2067549999999999,-0.27771,1.0958105,0.2192949999999999,-0.29318,0.8957265000000001,-0.155835,-0.231396,1.1383805,-0.146315,-0.28003
85,0.988629,0.630665,-0.199563,0.86292,0.4787,-0.1799369999999999,0.7250300000000001,0.647005,-0.31409,1.11992,0.43873,-0.194675,1.2004,0.633467,-0.3553699999999999,0.6987300000000001,0.82856,-0.45894,1.19797,0.80301,-0.53048,0.931805,0.00536,0.00403,1.068195,-0.0053599999999999,-0.00403,0.82352,0.21261,-0.2727199999999999,1.09207,0.22499,-0.28484,0.895057,-0.15005,-0.2338489999999999,1.14246,-0.14027,-0.28078
86,0.9892145,0.632287,-0.1945,0.8634405,0.482975,-0.175828,0.7257804999999999,0.6451330000000001,-0.3093599999999999,1.1202505,0.441015,-0.191225,1.2007705,0.6351,-0.35176,0.6997405,0.828855,-0.45598,1.1977505,0.805265,-0.52893,0.9316335,0.004935,0.0035399999999999,1.0683665,-0.0049349999999999,-0.00354,0.8237005,0.218305,-0.26796,1.0882405,0.233485,-0.27669,0.8946985000000001,-0.145625,-0.237124,1.1468605,-0.131575,-0.28276
87,0.9891925,0.6307010000000001,-0.193381,0.8634795,0.483115,-0.175446,0.7265895,0.6402410000000001,-0.30773,1.1200195,0.439465,-0.191437,1.2006595,0.633506,-0.35187,0.7001195,0.8260350000000001,-0.45632,1.1972495,0.8039350000000001,-0.53087,0.9317345,0.004985,0.00353,1.0682655,-0.004985,-0.00353,0.8236495,0.219695,-0.26712,1.0846495,0.238285,-0.27287,0.8945945,-0.1453449999999999,-0.237127,1.1500195,-0.1267549999999999,-0.28873
88,0.9891695,0.6296200000000001,-0.192412,0.8635565000000001,0.48326,-0.1751019999999999,0.7276365,0.635731,-0.305735,1.1201065,0.43887,-0.191634,1.2005565,0.6323390000000001,-0.351995,0.7006565,0.82332,-0.456535,1.1970265,0.80284,-0.532595,0.9318275,0.00502,0.003525,1.0681725,-0.0050199999999999,-0.003525,0.8236065,0.22102,-0.266435,1.0845865,0.2406,-0.272105,0.8944925,-0.1450699999999999,-0.237141,1.1500565,-0.12361,-0.288745
89,0.9892720000000002,0.6290500000000001,-0.191193,0.863494,0.4830400000000001,-0.174379,0.728774,0.6313710000000001,-0.30327,1.120074,0.4389,-0.191245,1.200444,0.6315870000000001,-0.35163,0.701454,0.8212300000000001,-0.4563,1.196854,0.80239,-0.53313,0.931827,0.00506,0.0034899999999999,1.068173,-0.0050599999999999,-0.0034899999999999,0.8235140000000001,0.2220100000000001,-0.26591,1.084414,0.2416200000000001,-0.27135,0.894327,-0.1437699999999999,-0.237587,1.150574,-0.1216699999999999,-0.2888199999999999
90,0.989551,0.6290779999999999,-0.1903669999999999,0.863557,0.4835549999999999,-0.1739859999999999,0.729627,0.6303369999999999,-0.30226,1.120017,0.4399649999999999,-0.191046,1.200537,0.631154,-0.35167,0.702377,0.8198949999999999,-0.45641,1.196877,0.801885,-0.5331899999999999,0.931728,0.0052449999999999,0.00375,1.0682719999999999,-0.005245,-0.00375,0.8235870000000001,0.2227549999999999,-0.26581,1.084527,0.2426949999999999,-0.27001,0.894937,-0.142305,-0.2374359999999999,1.151397,-0.119695,-0.28913
91,0.989875,0.627343,-0.189604,0.863716,0.4829299999999999,-0.173611,0.730046,0.628414,-0.3009699999999999,1.119996,0.44049,-0.190771,1.200856,0.630414,-0.35168,0.7033860000000001,0.8184899999999999,-0.45628,1.197166,0.80057,-0.53321,0.931739,0.0048599999999999,0.00375,1.068261,-0.0048599999999999,-0.00375,0.823786,0.2233,-0.26582,1.084806,0.2422599999999999,-0.27004,0.895676,-0.14214,-0.2374899999999999,1.151716,-0.1201299999999999,-0.28915
92,0.9901175,0.626023,-0.189617,0.8638575,0.48306,-0.1734129999999999,0.7305775,0.627094,-0.301,1.1200775,0.44037,-0.190464,1.2014075,0.629094,-0.35174,0.7043075,0.81717,-0.4563399999999999,1.1979574999999998,0.79925,-0.53378,0.9316345,0.0049299999999999,0.00376,1.0683655,-0.0049299999999999,-0.00376,0.8241175000000001,0.22328,-0.2658399999999999,1.0857175,0.2399,-0.2703,0.8963985,-0.14256,-0.237537,1.1516575,-0.1235899999999999,-0.28893
93,0.9903815,0.62559,-0.189637,0.8639845000000002,0.4835399999999999,-0.173314,0.7307545000000001,0.626274,-0.301015,1.1203144999999999,0.44081,-0.190384,1.2021145,0.628984,-0.351985,0.7051545,0.8163499999999999,-0.456405,1.1992545,0.7987599999999999,-0.534065,0.9315205,0.00512,0.0037649999999999,1.0684795,-0.00512,-0.003765,0.8247545000000001,0.2230599999999999,-0.265885,1.0866245,0.2386599999999999,-0.270745,0.8970875,-0.1429599999999999,-0.237588,1.1516145,-0.12535,-0.288605
94,0.9907300000000001,0.62559,-0.1879779999999999,0.8641840000000001,0.4835399999999999,-0.171644,0.730274,0.627894,-0.30091,1.120634,0.44167,-0.187971,1.2031640000000001,0.628984,-0.3504899999999999,0.706054,0.8163499999999999,-0.45499,1.201204,0.7987599999999999,-0.5326,0.931322,0.00512,0.00353,1.068678,-0.00512,-0.00353,0.825684,0.2230599999999999,-0.2657,1.088554,0.2054599999999999,-0.2777,0.897155,-0.1429599999999999,-0.236781,1.151754,-0.14454,-0.2868
95,0.9912705,0.628897,-0.185432,0.8641004999999999,0.48065,-0.168507,0.7303405000000001,0.6291720000000001,-0.299525,1.1208704999999999,0.44351,-0.18416,1.2036405000000001,0.626626,-0.347595,0.7064805000000001,0.81589,-0.452265,1.2030105,0.79747,-0.530385,0.9304015,0.0044399999999999,0.0030949999999999,1.0695985,-0.0044399999999999,-0.003095,0.8289505,0.22926,-0.263605,1.0913404999999998,0.168,-0.276195,0.8969875,-0.1383099999999999,-0.233412,1.1525505,-0.1721199999999999,-0.283935
96,0.9916200000000001,0.6326399999999999,-0.184075,0.863753,0.4776749999999999,-0.166013,0.729603,0.6320449999999999,-0.299035,1.120883,0.4461549999999999,-0.18072,1.204013,0.6254579999999998,-0.345585,0.706723,0.8154849999999999,-0.450605,1.204533,0.7966449999999999,-0.528565,0.929307,0.0037049999999999,0.002805,1.070693,-0.003705,-0.002805,0.831013,0.2256049999999999,-0.263755,1.093953,0.1301449999999999,-0.274935,0.896301,-0.1389950000000001,-0.234335,1.153123,-0.201525,-0.281715
97,0.9914675,0.63464,-0.1835419999999999,0.8631355,0.47634,-0.164479,0.7286555,0.633958,-0.3002,1.1207354999999999,0.44965,-0.178047,1.2034955,0.624981,-0.34428,0.7067155,0.81515,-0.44977,1.2056855,0.79522,-0.52727,0.9284315,0.0030999999999999,0.00192,1.0715685,-0.0030999999999999,-0.00192,0.8322955,0.21914,-0.26519,1.0960055,0.09447,-0.27766,0.8905285000000001,-0.14168,-0.2354899999999999,1.1515055,-0.23124,-0.27557
98,0.9913855,0.6373439999999999,-0.185044,0.8623795,0.4750699999999999,-0.164818,0.7277994999999999,0.6368839999999999,-0.302985,1.1209995,0.4540999999999999,-0.1774669999999999,1.2034495,0.6253169999999999,-0.3439649999999999,0.7065395,0.81704,-0.452145,1.2067095,0.7968,-0.527345,0.9273075,0.0023499999999999,0.0019849999999999,1.0726925,-0.00235,-0.001985,0.8344595000000001,0.2088499999999999,-0.268635,1.0967595,0.0784899999999999,-0.283555,0.8863755,-0.15048,-0.237615,1.1461295,-0.23941,-0.272655
99,0.9906395000000001,0.6422159999999999,-0.186489,0.8615425000000001,0.47356,-0.165114,0.7270325,0.64198,-0.30507,1.1210425,0.4578399999999999,-0.176477,1.2033025,0.626706,-0.34366,0.7061425,0.8213499999999999,-0.4545,1.2075924999999998,0.7987599999999999,-0.52647,0.9260174999999999,0.0019099999999999,0.0020499999999999,1.0739825,-0.00191,-0.0020499999999999,0.8362125,0.2006399999999999,-0.27256,1.0976124999999999,0.0651699999999999,-0.29037,0.8823615,-0.15659,-0.23735,1.1403825,-0.25087,-0.26789
100,0.989926,0.6458780000000001,-0.18755,0.860736,0.47178,-0.16537,0.726386,0.646794,-0.306745,1.121156,0.46116,-0.175347,1.203266,0.62844,-0.3431349999999999,0.7055359999999999,0.82413,-0.455635,1.2083059999999999,0.80061,-0.5252749999999999,0.924754,0.0007599999999999,0.0021249999999999,1.075246,-0.0007599999999999,-0.002125,0.837826,0.18975,-0.278535,1.098486,0.04975,-0.2971749999999999,0.878196,-0.16562,-0.237065,1.134596,-0.2651399999999999,-0.262545
101,0.9892905,0.6451380000000001,-0.191168,0.8598435,0.4655250000000001,-0.167995,0.7254335000000001,0.6459990000000001,-0.311235,1.1209035,0.4602550000000001,-0.1767729999999999,1.2030335,0.6250260000000001,-0.345175,0.7047734999999999,0.8224950000000001,-0.458265,1.2085635,0.8000250000000001,-0.525975,0.9235065,0.000465,0.0017749999999999,1.0764935,-0.0004649999999999,-0.0017749999999999,0.8390934999999999,0.164215,-0.2866849999999999,1.0991635,0.019435,-0.306285,0.8736524999999999,-0.1889549999999998,-0.2384649999999999,1.1287435000000001,-0.2943349999999999,-0.2594849999999999
102,0.9891565,0.6464099999999999,-0.1924969999999999,0.8593155,0.4610599999999999,-0.168785,0.7256155,0.646062,-0.31183,1.1207555,0.4610499999999999,-0.176624,1.2028855,0.624284,-0.3448099999999999,0.7045954999999999,0.82358,-0.45874,1.2088355,0.80177,-0.52382,0.9222545,-0.00019,0.0015799999999999,1.0777455,0.00019,-0.0015799999999999,0.8408855,0.1361899999999999,-0.29178,1.1003455,-0.01326,-0.3149699999999999,0.8693655,-0.2157799999999999,-0.23757,1.1223755,-0.32691,-0.25487
103,0.9892175000000001,0.6495250000000001,-0.192619,0.8587615,0.4557930000000001,-0.16876,0.7246414999999999,0.647035,-0.311765,1.1209615,0.4583890000000001,-0.176051,1.2031515,0.623893,-0.343655,0.7045515,0.8275250000000001,-0.458275,1.2096414999999998,0.8029850000000001,-0.520025,0.9210685,-0.0005849999999999,0.0014549999999999,1.0789315,0.000585,-0.001455,0.8427415,0.108445,-0.294765,1.1009815,-0.0473549999999999,-0.319765,0.8650815000000001,-0.2436249999999998,-0.235745,1.1162315,-0.3608549999999999,-0.249015
104,0.9897455,0.64871,-0.192309,0.8587065,0.455278,-0.1682799999999999,0.7243665,0.64961,-0.31139,1.1215265,0.457514,-0.175256,1.2040765,0.62515,-0.34117,0.7052265000000001,0.82863,-0.45751,1.2111365,0.80314,-0.5145299999999999,0.9205035,-0.00034,0.0012999999999999,1.0794965,0.00034,-0.0012999999999999,0.8438464999999999,0.0817999999999999,-0.29638,1.1017465,-0.08079,-0.32336,0.8613665,-0.2723799999999999,-0.232812,1.1109265,-0.39419,-0.24233
105,0.9899595,0.6493599999999999,-0.1903959999999999,0.8584065,0.455246,-0.166176,0.7242965,0.65179,-0.308045,1.1221964999999998,0.457416,-0.1720769999999999,1.2048365,0.62695,-0.335595,0.7058165000000001,0.83336,-0.453165,1.2127665,0.80098,-0.507255,0.9204035,-0.00018,0.001255,1.0795965,0.0001799999999999,-0.0012549999999999,0.8446765,0.0460499999999999,-0.294505,1.1021965,-0.12123,-0.3218249999999999,0.8574465,-0.31194,-0.22774,1.1055665,-0.43504,-0.233365
106,0.9901045,0.654105,-0.189958,0.8578295,0.454891,-0.165096,0.7244495,0.6537250000000001,-0.306525,1.1228295,0.457565,-0.169889,1.2056495,0.6300250000000001,-0.3310349999999999,0.7061995,0.8396650000000001,-0.449555,1.2157695,0.808575,-0.500565,0.9203605,-0.0001649999999999,0.0013549999999999,1.0796395,0.000165,-0.0013549999999999,0.8450795,0.009075,-0.294085,1.1024695,-0.1272449999999999,-0.316825,0.8572195,-0.353575,-0.223072,1.1019395,-0.4569149999999999,-0.228511
107,0.9896270000000001,0.65752,-0.187969,0.8569370000000001,0.45447,-0.163727,0.724127,0.65923,-0.30229,1.123307,0.4569499999999999,-0.167954,1.206487,0.63249,-0.32627,0.706477,0.8464499999999999,-0.44459,1.2188469999999998,0.81148,-0.49281,0.920443,7.999999999996898e-05,0.0013499999999999,1.079557,-8.00000000000245e-05,-0.0013499999999999,0.844697,-0.03583,-0.29347,1.102287,-0.13165,-0.31396,0.856887,-0.40073,-0.216546,1.102307,-0.47073,-0.226182
108,0.989239,0.660015,-0.1860009999999999,0.855736,0.455095,-0.161738,0.724306,0.6585350000000001,-0.29904,1.123806,0.4578149999999999,-0.165541,1.207626,0.634555,-0.3201699999999999,0.7067559999999999,0.8485849999999999,-0.43886,1.221996,0.8123549999999999,-0.4825,0.9205639999999999,-7.499999999999174e-05,0.00134,1.079436,7.499999999999174e-05,-0.0013399999999999,0.844286,-0.0824349999999999,-0.29183,1.102186,-0.138135,-0.30926,0.856276,-0.450065,-0.210563,1.102606,-0.4880849999999999,-0.223908
109,0.9887605,0.66621,-0.183638,0.8542315,0.4563399999999999,-0.159354,0.7245015,0.6632100000000001,-0.29467,1.1240415,0.45926,-0.162891,1.2087415,0.63617,-0.31287,0.7066815,0.85362,-0.43211,1.2250714999999999,0.81332,-0.47152,0.9208385,0.00051,0.0013199999999999,1.0791615,-0.00051,-0.00132,0.8437015,-0.1272499999999999,-0.29015,1.1022615,-0.14467,-0.30435,0.8568815,-0.49449,-0.205693,1.1025015,-0.5034,-0.222644
110,0.9886135000000001,0.677305,-0.181135,0.8531385,0.463945,-0.156043,0.7242985,0.669575,-0.28733,1.1245085,0.466265,-0.159731,1.2103885,0.645725,-0.30494,0.7070485,0.863315,-0.42226,1.2286285000000001,0.821865,-0.45944,0.9211815,0.0001349999999999,0.0015799999999999,1.0788185,-0.0001349999999999,-0.0015799999999999,0.8434785,-0.1633049999999999,-0.28888,1.1017785,-0.161935,-0.3035,0.8571685,-0.530375,-0.203146,1.1023585,-0.532695,-0.220468
111,0.9887165000000001,0.685315,-0.176181,0.8521325,0.468725,-0.151456,0.7250624999999999,0.677825,-0.278295,1.1250525,0.4706249999999999,-0.155265,1.2124025,0.651985,-0.296765,0.7074825,0.870705,-0.410545,1.2325025,0.8323849999999999,-0.448915,0.9217875,0.000115,0.0016249999999999,1.0782125,-0.000115,-0.001625,0.8443125,-0.187435,-0.280925,1.1013525,-0.185845,-0.301815,0.8574725,-0.5601050000000001,-0.199914,1.1024825,-0.561405,-0.216865
112,0.989423,0.69194,-0.16967,0.851551,0.47365,-0.145357,0.726071,0.68306,-0.268235,1.125861,0.47621,-0.14907,1.214531,0.6575300000000001,-0.286915,0.708321,0.8758400000000001,-0.398225,1.236151,0.842,-0.437165,0.9222290000000001,-0.0001599999999999,0.0022649999999999,1.0777709999999998,0.0001599999999999,-0.002265,0.845691,-0.21147,-0.2707549999999999,1.101551,-0.20912,-0.294755,0.8582010000000001,-0.58963,-0.195295,1.102991,-0.58959,-0.213737
113,0.9901965,0.700295,-0.158269,0.8512245,0.4791649999999999,-0.133966,0.7269145,0.6883349999999999,-0.25331,1.1266945,0.480095,-0.138072,1.2165145,0.663785,-0.27343,0.7091845,0.886915,-0.38136,1.2397445,0.852715,-0.42242,0.9230255,-0.0003149999999999,0.0022799999999999,1.0769745,0.0003149999999999,-0.00228,0.8468945,-0.232695,-0.25678,1.1027045,-0.2302149999999999,-0.28067,0.8581045,-0.616735,-0.185811,1.1037545,-0.615455,-0.203755
114,0.991014,0.7069635,-0.147793,0.8508249999999999,0.4836335,-0.123951,0.7274849999999999,0.6936135,-0.240585,1.127605,0.4837235,-0.128856,1.218845,0.6706035,-0.2620949999999999,0.709695,0.8940735,-0.368175,1.242925,0.8656035,-0.407605,0.923815,-0.0005195,0.002115,1.076185,0.0005194999999999,-0.002115,0.848425,-0.2482464999999999,-0.241665,1.103505,-0.2451565,-0.264915,0.8578250000000001,-0.6375665,-0.17787,1.104485,-0.6349165,-0.1955049999999999
115,0.9916445,0.7118905,-0.137855,0.8505885,0.4866205,-0.114862,0.7280185,0.7009004999999999,-0.22878,1.1282984999999999,0.4868905,-0.120547,1.2209285,0.6757205,-0.25143,0.7102085,0.9003405,-0.35579,1.2446085,0.8694405,-0.39365,0.9246815,-0.0008734999999999,0.0019399999999999,1.0753185,0.0008734999999999,-0.00194,0.8498085,-0.2619194999999999,-0.22667,1.1040585,-0.2582795,-0.24947,0.8571885,-0.6553095,-0.170637,1.1050885,-0.6515995,-0.188169
116,0.9922575000000001,0.718008,-0.128359,0.8503485,0.490498,-0.106419,0.7289485,0.703858,-0.217463,1.1292585,0.490168,-0.112575,1.2231585,0.684898,-0.241483,0.7111785000000002,0.904188,-0.343333,1.2455085,0.8769279999999999,-0.380433,0.9255615000000001,-0.001291,0.0016469999999999,1.0744384999999999,0.001291,-0.0016469999999999,0.8512685,-0.281242,-0.211553,1.1045285,-0.276792,-0.233823,0.8568485,-0.674632,-0.163938,1.1055484999999998,-0.6693020000000001,-0.180935
117,0.993061,0.7235054999999999,-0.120218,0.850634,0.4933555,-0.09996,0.7299440000000001,0.7113855,-0.207616,1.130264,0.4931355,-0.106485,1.225304,0.6936855,-0.234006,0.712314,0.9107055,-0.332766,1.2465439999999999,0.8868355,-0.370326,0.926118,-0.0017134999999999,0.0012929999999999,1.073882,0.0017134999999999,-0.001293,0.852874,-0.2944945,-0.198286,1.104964,-0.2900445,-0.220006,0.856744,-0.6878845,-0.158477,1.106294,-0.6810645000000001,-0.175035
118,0.9944995,0.7252784999999999,-0.1065235,0.8515085,0.4956385,-0.0878655,0.7316885,0.7121284999999999,-0.1924485,1.1317885,0.4944584999999999,-0.0947795,1.2270785,0.7021885,-0.2214485,0.7139584999999999,0.9147185,-0.3162585,1.2481085,0.8965885,-0.3549085,0.9265355,-0.0022234999999999,0.0007385,1.0734645,0.0022234999999999,-0.0007385,0.8550285,-0.3090415,-0.1788005,1.1058885,-0.3045915,-0.2002285,0.8573284999999999,-0.7024315,-0.1467235,1.1074685,-0.6951815,-0.1630335
119,0.995733,0.725633,-0.093569,0.852376,0.496133,-0.076752,0.7329559999999999,0.716043,-0.17941,1.1337959999999998,0.496543,-0.083693,1.228456,0.707273,-0.20996,0.715356,0.917883,-0.30124,1.249226,0.903193,-0.339,0.926854,-0.0025489999999999,0.0006379999999999,1.073146,0.002549,-0.0006379999999999,0.857336,-0.322607,-0.157962,1.106556,-0.315827,-0.17964,0.8580760000000001,-0.713807,-0.13556,1.108586,-0.706507,-0.150818
120,0.9969565000000001,0.7267849999999999,-0.081629,0.8532615,0.497525,-0.065946,0.7345515,0.715885,-0.166481,1.1358715,0.499225,-0.0728989999999999,1.2296215,0.712405,-0.198861,0.7167915,0.920355,-0.286421,1.2502015,0.904735,-0.323421,0.9271685000000001,-0.0027749999999999,0.000611,1.0728315,0.0027749999999999,-0.000611,0.8595915000000001,-0.335955,-0.1378039999999999,1.1074115,-0.326745,-0.160135,0.8591015000000001,-0.724445,-0.124694,1.1098115,-0.7158950000000001,-0.138877
121,0.9983375,0.7278635,-0.068477,0.8543525000000001,0.4996835,-0.054264,0.7363525,0.7188635,-0.1522049999999999,1.1382125,0.5009335,-0.0614139999999999,1.2310825,0.7165935,-0.185217,0.7188625,0.9233735,-0.268607,1.2514925,0.9076135,-0.3059469999999999,0.9274115,-0.0027405,0.000529,1.0725885,0.0027405,-0.000529,0.8622925000000001,-0.3488265,-0.116394,1.1085225,-0.3372064999999999,-0.14026,0.8604225,-0.7354065,-0.112937,1.1112025,-0.7254465,-0.12624
122,0.9996895,0.7271095,-0.055496,0.8553915,0.4991294999999999,-0.043109,0.7381815,0.7218494999999999,-0.138091,1.1403515,0.5028094999999999,-0.049919,1.2325415,0.7209795,-0.171265,0.7211415000000001,0.9236195,-0.250645,1.2527715,0.9114395,-0.287355,0.9274825,-0.0029534999999999,0.0005869999999999,1.0725175,0.0029534999999999,-0.000587,0.8652615,-0.3616005,-0.095832,1.1097115,-0.3477505,-0.120924,0.8617315,-0.7459705000000001,-0.101111,1.1126215,-0.7337805000000001,-0.113696
123,1.001091,0.726458,-0.0434424999999999,0.856554,0.4990779999999999,-0.0322355,0.739824,0.723778,-0.1246095,1.142544,0.5038180000000001,-0.0388235,1.233884,0.7234480000000001,-0.1578645,0.723564,0.924408,-0.2332545,1.253364,0.914988,-0.2703145,0.927469,-0.0030469999999999,0.0007144999999999,1.072531,0.003047,-0.0007144999999999,0.868374,-0.373632,-0.0766105,1.111054,-0.358002,-0.1035794999999999,0.863104,-0.755312,-0.0894814999999999,1.114154,-0.741662,-0.1009345
124,1.0024925,0.725178,-0.0315525,0.8577835,0.499038,-0.0213954999999999,0.7415435,0.725148,-0.1114125,1.1449535,0.504088,-0.0278245,1.2349234999999998,0.7256480000000001,-0.1442775,0.7263135000000001,0.924608,-0.2162275,1.2540235,0.918488,-0.2537675,0.9273534999999999,-0.00297,0.0007375,1.0726465,0.00297,-0.0007374999999999,0.8713035,-0.3851819999999999,-0.0580274999999999,1.1125734999999999,-0.368162,-0.0867555,0.8645335000000001,-0.764312,-0.0777265,1.1159534999999998,-0.749512,-0.0878835
125,1.003825,0.7233474999999999,-0.0199235,0.859089,0.4980775,-0.0107494999999999,0.743409,0.7261675,-0.0984105,1.147139,0.5040175,-0.0169295,1.2359289999999998,0.7239675,-0.1306675,0.728899,0.9248775,-0.1997475,1.254669,0.9202675,-0.2371275,0.927242,-0.0029124999999999,0.0009715,1.072758,0.0029124999999999,-0.0009715,0.873989,-0.3970825,-0.0402665,1.114149,-0.3780325,-0.0707365,0.8658589999999999,-0.7735925,-0.0660024999999999,1.117639,-0.7570025,-0.0754084999999999
126,1.005319,0.7211345,-0.0083675,0.860514,0.4973745,-7.049999999999938e-05,0.7455240000000001,0.7264545,-0.0854815,1.149584,0.5035445000000001,-0.0060005,1.237354,0.7225345000000001,-0.1170705,0.7317940000000001,0.9247945,-0.1837205,1.255464,0.9216345,-0.2209605,0.926938,-0.0027804999999999,0.0011695,1.073062,0.0027805,-0.0011694999999999,0.876654,-0.4092955,-0.0232215,1.115924,-0.3881955,-0.0550574999999999,0.867444,-0.7824555,-0.0546295,1.1195339999999998,-0.7641954999999999,-0.0629705
127,1.0063985,0.7202135,-0.0027895,0.8615685,0.4969235,0.0047874999999999,0.7472685,0.7282135,-0.0785505,1.1517585,0.5045835,-0.0008785,1.2386985,0.7216535,-0.1095825,0.7343284999999999,0.9262035,-0.1739425,1.2559685,0.9234635,-0.2106724999999999,0.9264825,-0.0025874999999999,0.0016784999999999,1.0735175,0.0025874999999999,-0.0016784999999999,0.8787385,-0.4193564999999999,-0.0131625,1.1173185,-0.3963764999999999,-0.0460265,0.8687385,-0.7891865,-0.0497405,1.1210485,-0.7692565,-0.0564454999999999
128,1.0074215,0.7201725,0.002244,0.8625655,0.4963625,0.009035,0.7488355,0.7306425,-0.072245,1.1528955,0.5035525000000001,0.0034119999999999,1.2394555,0.7216225000000001,-0.102193,0.7364655,0.9281225,-0.1650229999999999,1.2571855,0.9235925,-0.201793,0.9260105,-0.0024785,0.0017729999999999,1.0739895,0.0024785,-0.0017729999999999,0.8802155,-0.4213375,-0.007249,1.1185055,-0.3981074999999999,-0.040712,0.8698655,-0.7917175,-0.045469,1.1224455,-0.7717875,-0.051245
129,1.0082205,0.7201805,0.0071515,0.8634375,0.4958205,0.0131955,0.7501075,0.7332405,-0.0662055,1.1538675,0.5027404999999999,0.0076225,1.2400575,0.7219905,-0.0949425,0.7382075,0.9300605,-0.1565725,1.2582275,0.9242905,-0.1928225,0.9256435000000001,-0.0024155,0.0018765,1.0743565,0.0024155,-0.0018764999999999,0.8815075,-0.4228195,-0.0015665,1.1195475,-0.3993994999999999,-0.0355264999999999,0.8708175,-0.7936895,-0.0414654999999999,1.1237175,-0.7738995000000001,-0.0463745
130,1.0086419999999998,0.7198289999999999,0.0103345,0.863962,0.4953889999999999,0.0160005,0.750822,0.733579,-0.0619565,1.1544819999999998,0.502339,0.0104945,1.240622,0.722619,-0.0907165,0.739072,0.930739,-0.1514665,1.258802,0.925039,-0.1866765,0.925478,-0.002416,0.0020535,1.074522,0.002416,-0.0020534999999999,0.882132,-0.423651,0.0015735,1.120212,-0.400041,-0.0319805,0.871422,-0.794331,-0.0387365,1.124552,-0.775171,-0.0427795
131,1.0088455,0.7195495000000001,0.0130135,0.8643855,0.4951095,0.0183195,0.7514155,0.7336895,-0.0582745,1.1549855,0.5021095,0.0129665,1.2410255000000001,0.7233295000000001,-0.0871465,0.7397155,0.9312295,-0.1471865,1.2592055,0.9255595,-0.1815765,0.9253355,-0.0024055,0.0021265,1.0746645,0.0024054999999999,-0.0021265,0.8827655000000001,-0.4223105,0.0039835,1.1211355,-0.3993405,-0.0291565,0.8717855,-0.7947605,-0.0364425,1.1254955,-0.7754504999999999,-0.0396124999999999
132,1.008914,0.7193735,0.0155399999999999,0.864706,0.4948935,0.0204899999999999,0.7519560000000001,0.7337035,-0.054794,1.155366,0.5019835,0.0152709999999999,1.241376,0.7241434999999999,-0.0834159999999999,0.7402960000000001,0.9316235,-0.143041,1.259516,0.9262435,-0.176821,0.92521,-0.0023714999999999,0.0021439999999999,1.07479,0.0023715,-0.002144,0.883286,-0.4218665,0.0060529999999999,1.121936,-0.3986665,-0.0266619999999999,0.872236,-0.7950865,-0.034209,1.126296,-0.7755365000000001,-0.036749
133,1.008903,0.7195145,0.017737,0.86499,0.4948545,0.022358,0.75244,0.7336145,-0.051501,1.15558,0.5020745,0.017289,1.24166,0.7252645,-0.079914,0.74085,0.9322145,-0.139182,1.25975,0.9271145,-0.172332,0.925117,-0.0023695,0.0022199999999999,1.074883,0.0023694999999999,-0.0022199999999999,0.88374,-0.4215455,0.007849,1.1226099999999999,-0.3979654999999999,-0.024682,0.87269,-0.7949855,-0.032327,1.12703,-0.7749355,-0.034486
134,1.0087225,0.7197264999999999,0.01987,0.8650935,0.4947265,0.0242,0.7527435,0.7332164999999999,-0.04841,1.1556935,0.5022365,0.019263,1.2417435,0.7259365,-0.076523,0.7411335,0.9327565,-0.135401,1.2597334999999998,0.9280665,-0.168111,0.9250775,-0.0023885,0.002372,1.0749225,0.0023885,-0.0023719999999999,0.8841535,-0.4215434999999999,0.009619,1.1233435,-0.3972535,-0.022882,0.8730435,-0.7948935,-0.0304399999999999,1.1277435,-0.7745435,-0.0321879999999999
135,1.008471,0.7199145,0.0218205,0.865129,0.4946144999999999,0.0258935,0.752919,0.7328245,-0.0456814999999999,1.155739,0.5023845,0.0210605,1.241739,0.7261745000000001,-0.0733445,0.741209,0.9332745,-0.1317745,1.2596289999999999,0.9290645,-0.1640744999999999,0.925068,-0.0024064999999999,0.0024915,1.074932,0.0024064999999999,-0.0024914999999999,0.8842790000000001,-0.4214455,0.0109835,1.123929,-0.3966555,-0.0212634999999999,0.873289,-0.7949055,-0.0287904999999999,1.128329,-0.7749455,-0.0300384999999999
136,1.0081684999999998,0.7201775,0.0237765,0.8650985,0.4944874999999999,0.0276255,0.7530785,0.7321475,-0.0421395,1.1557385,0.5024974999999999,0.0227905,1.2417585,0.7264275,-0.0700244999999999,0.7410985,0.9339475,-0.1278965,1.2594785,0.9296575,-0.1599665,0.9250965,-0.0024295,0.0025345,1.0749035,0.0024295,-0.0025344999999999,0.8844285000000001,-0.4216225,0.0120085,1.1244085,-0.3962225,-0.0195694999999999,0.8734885,-0.7950925,-0.0272484999999999,1.1288485,-0.7746425,-0.0278425
137,1.0078809999999998,0.7204495000000001,0.0255475,0.865088,0.4943194999999999,0.0293765,0.753138,0.7319695,-0.0391264999999999,1.155748,0.5026195,0.0245395,1.241628,0.7266895,-0.0674604999999999,0.7408779999999999,0.9345895,-0.1239784999999999,1.259328,0.9304295,-0.1560885,0.925116,-0.0024525,0.0025365,1.074884,0.0024525,-0.0025365,0.884568,-0.4223005,0.0129594999999999,1.1248779999999998,-0.3959505,-0.0178525,0.873578,-0.7953604999999999,-0.0257225,1.129498,-0.7746204999999999,-0.0259014999999999
138,1.007483,0.7207195000000001,0.0273865,0.865034,0.4943095,0.0311915,0.753004,0.7315695000000001,-0.0363285,1.155724,0.5026195,0.0263525,1.241284,0.7271895,-0.0654385,0.7404040000000001,0.9351695,-0.1201874999999999,1.2591139999999998,0.9314095,-0.1526275,0.925135,-0.0024525,0.0024955,1.074865,0.0024525,-0.0024955,0.884694,-0.4223005,0.0139945,1.125144,-0.3959005,-0.0163255,0.8736539999999999,-0.7953604999999999,-0.0241355,1.129964,-0.7748605,-0.0241244999999999
139,1.006932,0.7211395,0.0294714999999999,0.864939,0.4942795,0.0332335,0.752589,0.7312295000000001,-0.0337995,1.155359,0.5027495000000001,0.0282965,1.2408190000000001,0.7276095,-0.0633585,0.7397389999999999,0.9356195,-0.1167705,1.2585989999999998,0.9321495,-0.1497805,0.925146,-0.0024525,0.0023434999999999,1.074854,0.0024525,-0.0023435,0.884779,-0.4227105,0.0148094999999999,1.125359,-0.3959005,-0.0149745,0.873589,-0.7953905,-0.0222565,1.130379,-0.7752104999999999,-0.0222255
140,1.0058785,0.7216565,0.0316275,0.8639805,0.4942864999999999,0.0352765,0.7514405,0.7306965,-0.0309645,1.1544105,0.5029665,0.0298935,1.2400405,0.7279565,-0.0607355,0.7382205,0.9360765,-0.1131794999999999,1.2576505,0.9328065,-0.1471395,0.9252135,-0.0024685,0.0021685,1.0747865,0.0024684999999999,-0.0021685,0.8848905,-0.4231535,0.0152275,1.1256405,-0.3958635,-0.0136755,0.8736105000000001,-0.7953535,-0.0202005,1.1307205,-0.7757135000000001,-0.0200475
141,1.0047735,0.7220219999999999,0.0337004999999999,0.8627295,0.4943019999999999,0.0373514999999999,0.7501595,0.730192,-0.0276515,1.1533695,0.5031920000000001,0.0314015,1.2396295,0.728272,-0.0577295,0.7365895,0.936502,-0.1096315,1.2570195,0.933332,-0.1441215,0.9252385,-0.0025159999999999,0.0019734999999999,1.0747615,0.002516,-0.0019735,0.8850095,-0.423288,0.0147464999999999,1.1261695,-0.3957279999999999,-0.0123775,0.8739295,-0.795658,-0.0179485,1.1314795,-0.7770980000000001,-0.0178925
142,1.003535,0.7223155,0.0353455,0.8611690000000001,0.4941954999999999,0.0393655,0.7485390000000001,0.7295455,-0.0243014999999999,1.152189,0.5034555,0.0325235,1.2390789999999998,0.7283554999999999,-0.0551234999999999,0.7345290000000001,0.9368855,-0.1062715,1.256359,0.9335655,-0.1409415,0.925292,-0.0025944999999999,0.0018215,1.074708,0.0025944999999999,-0.0018214999999999,0.885219,-0.4235645,0.0141115,1.126809,-0.3956345,-0.0111744999999999,0.874619,-0.7959345000000001,-0.0155544999999999,1.132479,-0.7784845,-0.0157584999999999
