sb224sc-HT22-VT27/4dt907/src/data/kinect_good_preprocessed_A9_mediapipe/A25_kinect_mirrored.csv
FrameNo,nose_3d_x,nose_3d_y,nose_3d_z,left_shoulder_3d_x,left_shoulder_3d_y,left_shoulder_3d_z,left_elbow_3d_x,left_elbow_3d_y,left_elbow_3d_z,right_shoulder_3d_x,right_shoulder_3d_y,right_shoulder_3d_z,right_elbow_3d_x,right_elbow_3d_y,right_elbow_3d_z,left_wrist_3d_x,left_wrist_3d_y,left_wrist_3d_z,right_wrist_3d_x,right_wrist_3d_y,right_wrist_3d_z,left_hip_3d_x,left_hip_3d_y,left_hip_3d_z,right_hip_3d_x,right_hip_3d_y,right_hip_3d_z,left_knee_3d_x,left_knee_3d_y,left_knee_3d_z,right_knee_3d_x,right_knee_3d_y,right_knee_3d_z,left_ankle_3d_x,left_ankle_3d_y,left_ankle_3d_z,right_ankle_3d_x,right_ankle_3d_y,right_ankle_3d_z
32,0.994886,0.7224305,0.0624775,0.8455690000000001,0.4841905000000001,0.0577305,0.739859,0.7388005000000001,0.0310744999999999,1.144789,0.5072105,0.0626125,1.2522389999999999,0.7595005,0.0341545,0.713889,0.9529205,-0.0051875,1.287919,0.9689005,0.0089255,0.927193,-0.0023284999999999,-0.0020874999999999,1.072807,0.0023284999999999,0.0020874999999999,0.888489,-0.4356695,0.0020834999999999,1.1234790000000001,-0.4019595,-0.0155945,0.880879,-0.7844095,-0.0261675,1.126319,-0.7671494999999999,-0.0173765
33,0.9950725,0.7221909999999999,0.0619614999999999,0.8463015,0.484031,0.0578285,0.7411415,0.740861,0.0341355,1.1437915,0.5076609999999999,0.0634764999999999,1.2503915,0.759691,0.0378234999999999,0.7161515,0.955021,0.0018494999999999,1.2862515,0.970541,0.0143324999999999,0.9272245000000001,-0.0023709999999999,-0.0022835,1.0727754999999999,0.0023709999999999,0.0022834999999999,0.8887315000000001,-0.436129,0.0018234999999999,1.1236315000000001,-0.4024189999999999,-0.0158765,0.8812415000000001,-0.785049,-0.0266045,1.1268315,-0.767629,-0.0179605
34,0.9951895,0.721796,0.0614515,0.8470295000000001,0.483866,0.0578875,0.7424895,0.741166,0.0371615,1.1428895,0.5081760000000001,0.0644204999999999,1.2490595,0.7594660000000001,0.0411105,0.7181495,0.956576,0.0081145,1.2849995,0.971976,0.0196035,0.9272545000000001,-0.0024119999999999,-0.0025274999999999,1.0727455,0.002412,0.0025275,0.8889695,-0.4366139999999999,0.0014745,1.1237495,-0.403594,-0.0162785,0.8816195,-0.786374,-0.0271664999999999,1.1273495,-0.7689539999999999,-0.0187174999999999
35,0.9954335,0.7214875000000001,0.0609325,0.8478615,0.4838975,0.0578965,0.7438415,0.7408275,0.0395685,1.1427915,0.5079375,0.0648435,1.2484115,0.7595575,0.0435135,0.7199515000000001,0.9576575,0.0125335,1.2845715,0.9727375,0.0233455,0.9272875,-0.0023904999999999,-0.0028315,1.0727125,0.0023904999999999,0.0028315,0.8892815000000001,-0.4369725,0.0009515,1.1239615,-0.4048225,-0.0168515,0.8820215,-0.7876124999999999,-0.0279995,1.1278515,-0.7704925,-0.0196795
36,0.9957440000000001,0.7211395,0.0603719999999999,0.848645,0.4840195,0.0578309999999999,0.7449250000000001,0.7405995,0.041372,1.142755,0.5077495,0.065189,1.2483149999999998,0.7596495,0.04532,0.7215450000000001,0.9581295,0.015099,1.284875,0.9729895,0.02593,0.9273270000000001,-0.0023035,-0.00314,1.072673,0.0023035,0.00314,0.889585,-0.4373605,0.000344,1.124125,-0.4064305,-0.01746,0.882455,-0.7888005,-0.028896,1.128235,-0.7728205,-0.021048
37,0.99611,0.7205125,0.0596504999999999,0.849251,0.4846525,0.0575065,0.7459009999999999,0.7399825,0.0423925,1.143051,0.5078325,0.0652145,1.2487409999999999,0.7594125,0.0462955,0.722871,0.9579725,0.0158955,1.285301,0.9723725,0.0266035,0.927342,-0.0022464999999999,-0.0033144999999999,1.0726580000000001,0.0022464999999999,0.0033144999999999,0.889801,-0.4381675,-0.0004585,1.124211,-0.4083374999999999,-0.0182055,0.882841,-0.7902475,-0.0300504999999999,1.128771,-0.7754575,-0.0226035
38,0.9965945,0.7197279999999999,0.0587174999999999,0.8499645,0.485328,0.0570205,0.7470745000000001,0.739278,0.0426885,1.1435644999999999,0.507798,0.0648645,1.2492745,0.759328,0.0467365,0.7242945000000001,0.957648,0.0150724999999999,1.2857945,0.971878,0.0259454999999999,0.9273615,-0.002132,-0.0034355,1.0726385,0.0021319999999999,0.0034354999999999,0.8900045,-0.4389119999999999,-0.0017335,1.1242945,-0.410342,-0.0191625,0.8832945000000001,-0.791802,-0.0312635,1.1294445,-0.7778520000000001,-0.0244155
39,0.9971505,0.718889,0.0576785,0.8507065,0.486499,0.0563205,0.7482765,0.738679,0.0422735,1.1441365000000001,0.508109,0.0644325,1.2498165,0.7589090000000001,0.0467305,0.7258565,0.957449,0.0138795,1.2863464999999998,0.971679,0.0247915,0.9273565,-0.0019609999999999,-0.0035075,1.0726435,0.0019609999999999,0.0035075,0.8901665,-0.439471,-0.0033924999999999,1.1244064999999999,-0.412051,-0.0203945,0.8838064999999999,-0.793171,-0.0330035,1.1301765,-0.779821,-0.0266575
40,0.9980060000000001,0.718361,0.056179,0.851688,0.486821,0.055282,0.749838,0.737931,0.040977,1.144968,0.508061,0.064217,1.250618,0.758681,0.0458159999999999,0.7277480000000001,0.957601,0.012219,1.288218,0.971161,0.023132,0.927393,-0.0018799999999999,-0.0036439999999999,1.072607,0.0018799999999999,0.0036439999999999,0.890468,-0.439709,-0.005845,1.124698,-0.4132989999999999,-0.022107,0.884498,-0.794109,-0.035305,1.131178,-0.781359,-0.029164
41,0.999219,0.718001,0.0538275,0.853104,0.4869409999999999,0.0534865,0.7516640000000001,0.737221,0.0386815,1.146064,0.507991,0.0634035,1.251774,0.7585609999999999,0.0438985,0.730064,0.957711,0.0098755,1.290814,0.970431,0.0207775,0.927387,-0.00186,-0.0038835,1.072613,0.00186,0.0038835,0.890754,-0.440179,-0.0097295,1.124944,-0.414919,-0.0244915,0.885384,-0.7948890000000001,-0.0385045,1.1324239999999999,-0.7834490000000001,-0.0330965
42,1.0007715,0.7177025,0.0505925,0.8547715000000001,0.4867224999999999,0.0507075,0.7539815,0.7361325,0.0354485,1.1472715,0.5079224999999999,0.0617225,1.2533015,0.7565324999999999,0.0406954999999999,0.7327615000000001,0.9578925,0.0058315,1.2937615,0.9695325,0.0170695,0.9273545,-0.0018024999999999,-0.0042755,1.0726455,0.0018024999999999,0.0042755,0.8909615,-0.4407775,-0.0151295,1.1250715,-0.4169675,-0.0278094999999999,0.8862814999999999,-0.7956875,-0.0429405,1.1336514999999998,-0.7859075,-0.0385245
43,1.00253,0.7178515000000001,0.0470455,0.856472,0.4865314999999999,0.0471625,0.7564420000000001,0.7356815000000001,0.0318735,1.1484320000000001,0.5078715,0.0595815,1.254992,0.7540914999999999,0.0371495,0.735562,0.9583515,0.0009445,1.296832,0.9690915,0.0125205,0.927308,-0.0017775,-0.0047735,1.072692,0.0017775,0.0047735,0.891122,-0.4401185,-0.0211115,1.125202,-0.4172185,-0.0314825,0.887022,-0.7950284999999999,-0.0479755,1.134632,-0.7865584999999999,-0.0440795
44,1.0045555,0.717856,0.043094,0.8581885000000001,0.486556,0.043236,0.7591185,0.7347360000000001,0.027912,1.1495885000000001,0.507946,0.057032,1.2567184999999998,0.751796,0.033224,0.7384485000000001,0.958516,-0.004902,1.2998585,0.9683460000000002,0.007114,0.9272675,-0.0017519999999999,-0.00528,1.0727325,0.001752,0.00528,0.8911985,-0.439364,-0.027706,1.1252585,-0.417064,-0.035655,0.8876985,-0.7942739999999999,-0.053587,1.1356385,-0.786744,-0.049811
45,1.0068979999999998,0.717177,0.0385205,0.860082,0.486687,0.0387625,0.762182,0.733047,0.0230795,1.1509019999999999,0.507987,0.0539695,1.258582,0.7487469999999999,0.0286795,0.741572,0.958697,-0.0118564999999999,1.302932,0.967377,0.0005054999999999,0.927142,-0.0015629999999999,-0.0056045,1.072858,0.001563,0.0056045,0.891302,-0.438633,-0.0352535,1.125472,-0.416703,-0.0407115,0.888502,-0.793543,-0.0597655,1.136742,-0.7869630000000001,-0.0560455
46,1.009814,0.7162965,0.0319895,0.8627400000000001,0.4872665,0.0332555,0.76558,0.7310365000000001,0.0158255,1.15252,0.5083065,0.0500095,1.26041,0.7455265000000001,0.0218575,0.74497,0.9589865,-0.0210325,1.30616,0.9661665,-0.0091574999999999,0.926898,-0.0013705,-0.0059184999999999,1.073102,0.0013704999999999,0.0059185,0.8913000000000001,-0.4377535,-0.0444424999999999,1.1259299999999999,-0.4165735,-0.0470364999999999,0.8891500000000001,-0.7928434999999999,-0.0669525,1.1379,-0.7872534999999999,-0.0631005
47,1.0128325,0.71476,0.0249709999999999,0.8654045000000001,0.48719,0.0270319999999999,0.7687245,0.72924,0.0079189999999999,1.1539645,0.50884,0.045655,1.2619445,0.7418199999999999,0.0142869999999999,0.7482945000000001,0.95946,-0.030998,1.3092745,0.96468,-0.019908,0.9266755,-0.001124,-0.006068,1.0733245,0.001124,0.006068,0.8911745000000001,-0.43662,-0.054811,1.1265245,-0.4162,-0.054341,0.8897145,-0.79171,-0.074558,1.1389145,-0.78708,-0.070503
48,1.0158615,0.7128985,0.0174585,0.8680835,0.4873785,0.0201395,0.7718235,0.7277285,-0.0008644999999999,1.1556135,0.5087485,0.0407285,1.2633635,0.7376085,0.0059975,0.7515835,0.9606785,-0.0417235,1.3121935,0.9634985,-0.0316324999999999,0.9264755000000001,-0.0008055,-0.0062934999999999,1.0735245,0.0008055,0.0062935,0.8909735,-0.4343315,-0.0661555,1.1271035,-0.4152415,-0.0625014999999999,0.8902635,-0.7894415,-0.0825015,1.1398234999999999,-0.7857715,-0.0781544999999999
49,1.0188505,0.7106699999999999,0.009792,0.8705925,0.48815,0.013287,0.7745625,0.7260599999999999,-0.0100679999999999,1.1569924999999999,0.50916,0.0352009999999999,1.2645425000000001,0.7323,-0.0024709999999999,0.7546625,0.96198,-0.0526149999999999,1.3147825,0.96254,-0.043755,0.9262305,-0.000459,-0.0064899999999999,1.0737695,0.000459,0.00649,0.8905325,-0.4316299999999999,-0.077849,1.1276424999999999,-0.41405,-0.071045,0.8907825,-0.78659,-0.090388,1.1405325,-0.78371,-0.085576
50,1.0217375,0.709024,0.0021479999999999,0.8731515,0.487534,0.006148,0.7771415,0.725304,-0.019432,1.1582515,0.510374,0.0299139999999999,1.2655315,0.726934,-0.010942,0.7573915,0.964214,-0.063183,1.3170215,0.962344,-0.056377,0.9260655,-0.000133,-0.006484,1.0739345,0.000133,0.0064839999999999,0.8899415,-0.427596,-0.089287,1.1279915,-0.411136,-0.080011,0.8911815,-0.781796,-0.097979,1.1410515,-0.779356,-0.092416
51,1.024706,0.7064525,-0.0057215,0.875815,0.4877425,-0.0011615,0.780025,0.7224925000000001,-0.0295475,1.159835,0.5079525,0.0240644999999999,1.266775,0.7240025,-0.0202205,0.760325,0.9670525,-0.0744885,1.319405,0.9582925,-0.0699465,0.9258510000000001,0.0005194999999999,-0.0067125,1.0741489999999998,-0.0005194999999999,0.0067124999999999,0.889345,-0.4209475,-0.1026865,1.128495,-0.4051975,-0.0898445,0.8917750000000001,-0.7738474999999999,-0.1053925,1.141875,-0.7720075,-0.0990105
52,1.0276525,0.7038455,-0.01354,0.8786715,0.4871255,-0.008553,0.7826715,0.7208355,-0.039394,1.1614815,0.5057355,0.0180739999999999,1.2679615,0.7206655,-0.029425,0.7631715,0.9708755,-0.086087,1.3216415000000001,0.9547155,-0.083303,0.9256465,0.0009385,-0.006659,1.0743535,-0.0009385,0.0066589999999999,0.8887715,-0.4135345,-0.116169,1.1290615,-0.3982445,-0.100128,0.8923715,-0.7648645000000001,-0.112312,1.1427615,-0.7636545,-0.105585
53,1.030727,0.7012569999999999,-0.0214215,0.881839,0.486527,-0.0160525,0.785419,0.720117,-0.0495205,1.163459,0.503907,0.0120134999999999,1.269529,0.716707,-0.0387285,0.766329,0.975097,-0.0979615,1.324099,0.951567,-0.0970225,0.925496,0.0014359999999999,-0.0065935,1.074504,-0.001436,0.0065934999999999,0.888469,-0.403103,-0.1299475,1.130429,-0.388163,-0.1109105,0.893389,-0.754413,-0.1189965,1.144279,-0.7538330000000001,-0.1127525
54,1.033948,0.698585,-0.029297,0.88532,0.484505,-0.023609,0.78805,0.7206349999999999,-0.060325,1.16546,0.500165,0.0059619999999999,1.27143,0.714195,-0.048985,0.7695,0.972865,-0.110137,1.32657,0.948065,-0.111698,0.925257,0.00197,-0.006496,1.074743,-0.0019699999999999,0.006496,0.88814,-0.388785,-0.145011,1.1324,-0.3738749999999999,-0.122443,0.89463,-0.7401650000000001,-0.125739,1.14563,-0.739965,-0.119595
55,1.036505,0.6952900000000001,-0.035633,0.8881390000000001,0.48289,-0.030017,0.7905890000000001,0.71992,-0.070066,1.167239,0.4962499999999999,0.000558,1.273789,0.7072700000000001,-0.057865,0.7723990000000001,0.97008,-0.121109,1.3288389999999999,0.93998,-0.124341,0.925152,0.0027129999999999,-0.006287,1.074848,-0.002713,0.006287,0.8879589999999999,-0.37272,-0.1593089999999999,1.134459,-0.35834,-0.133123,0.895939,-0.7252599999999999,-0.131345,1.146929,-0.7246499999999999,-0.12561
56,1.0388035,0.695784,-0.047679,0.8910325,0.484064,-0.04206,0.7932425000000001,0.723784,-0.085548,1.1688425,0.494674,-0.010817,1.2762225,0.707384,-0.07301,0.7751025,0.972824,-0.13757,1.3308425,0.937474,-0.142991,0.9250465,0.0032139999999999,-0.00585,1.0749535,-0.003214,0.0058499999999999,0.8874725000000001,-0.347896,-0.181123,1.1384425,-0.336446,-0.154199,0.8973125,-0.703226,-0.14217,1.1479225,-0.702576,-0.1369
57,1.0410065,0.697172,-0.0598385,0.8939535,0.485322,-0.0534895,0.7966835000000001,0.720342,-0.1003185,1.1702035,0.494152,-0.0216635,1.2791035,0.707652,-0.0890505,0.7781235000000001,0.972932,-0.1533085,1.3331235,0.933212,-0.1623875,0.9248825,0.0036049999999999,-0.0053085,1.0751175,-0.003605,0.0053084999999999,0.8870335,-0.324478,-0.2019885,1.1425635,-0.315218,-0.1747125,0.8987635,-0.6810080000000001,-0.1524445,1.1489335,-0.680968,-0.1476075
58,1.042871,0.6972400000000001,-0.072399,0.896745,0.4854,-0.065476,0.7999149999999999,0.71858,-0.114806,1.171565,0.49014,-0.03401,1.2819150000000001,0.7088699999999999,-0.105746,0.7809550000000001,0.97426,-0.169542,1.335165,0.93011,-0.18469,0.924559,0.0042579999999999,-0.004625,1.075441,-0.0042579999999999,0.004625,0.887015,-0.30182,-0.222787,1.146855,-0.29383,-0.195917,0.900275,-0.65689,-0.162803,1.1497950000000001,-0.65771,-0.158509
59,1.0442865,0.696135,-0.0847585,0.8993925,0.484685,-0.0774705,0.8028325000000001,0.716125,-0.1300805,1.1727025,0.486765,-0.0465485,1.2846025,0.708205,-0.1236305,0.7833025,0.972855,-0.1868875,1.3369625,0.929825,-0.2082415,0.9239825,0.0046549999999999,-0.0038885,1.0760175,-0.0046549999999999,0.0038884999999999,0.8870225,-0.276555,-0.2442915,1.1513825,-0.269465,-0.2180815,0.9016025,-0.630685,-0.1731265,1.1503425,-0.631605,-0.1692045
60,1.045298,0.6954,-0.097283,0.901526,0.48349,-0.088558,0.804766,0.71467,-0.144119,1.173276,0.48756,-0.058711,1.285426,0.70679,-0.140877,0.784826,0.97035,-0.203128,1.337096,0.93359,-0.229515,0.923597,0.0045899999999999,-0.002755,1.076403,-0.00459,0.0027549999999999,0.886756,-0.25419,-0.262555,1.155556,-0.24775,-0.238655,0.9024760000000001,-0.6072000000000001,-0.182472,1.1504059999999998,-0.60817,-0.178782
61,1.046403,0.6933900000000001,-0.11022,0.903672,0.48172,-0.10092,0.806692,0.71343,-0.159461,1.173642,0.48496,-0.072768,1.286372,0.70664,-0.160717,0.786222,0.9622,-0.220649,1.337082,0.92768,-0.253855,0.923249,0.00491,-0.001965,1.076751,-0.0049099999999999,0.0019649999999999,0.886422,-0.2274499999999999,-0.281465,1.159822,-0.22154,-0.260055,0.903212,-0.5794199999999999,-0.192209,1.150422,-0.58047,-0.188212
62,1.0475725,0.69057,-0.124098,0.9056635,0.4796,-0.114126,0.8085435,0.70979,-0.175659,1.1737935,0.48143,-0.088669,1.2859734999999999,0.70534,-0.181765,0.7872535,0.9583,-0.23892,1.3365434999999999,0.92073,-0.27926,0.9231785,0.0051,-0.0011099999999999,1.0768215,-0.0050999999999999,0.0011099999999999,0.8858635,-0.1967299999999999,-0.3005,1.1638534999999999,-0.1909699999999999,-0.28163,0.9041535,-0.54741,-0.202243,1.1501635000000001,-0.54849,-0.197757
63,1.0495665,0.68523,-0.137909,0.9074135000000001,0.47722,-0.127556,0.8101635,0.7055400000000001,-0.191417,1.1736835,0.47761,-0.10541,1.2849735,0.69704,-0.201787,0.7881335,0.95343,-0.257815,1.3354035,0.90883,-0.302895,0.9229665,0.00515,-0.0003549999999999,1.0770335,-0.0051499999999999,0.0003549999999999,0.8853135,-0.1671499999999999,-0.317485,1.1673935,-0.15942,-0.301515,0.9049635,-0.51542,-0.2121779999999999,1.1494735,-0.51651,-0.207208
64,1.0515,0.67855,-0.1527,0.909272,0.475,-0.141001,0.811722,0.7012700000000001,-0.206896,1.173552,0.47446,-0.121853,1.284062,0.6941299999999999,-0.221425,0.788742,0.95051,-0.27602,1.3342019999999999,0.90267,-0.32648,0.922686,0.0052599999999999,0.0003599999999999,1.0773139999999999,-0.00526,-0.0003599999999999,0.884742,-0.13726,-0.33353,1.170812,-0.12739,-0.32092,0.905762,-0.48331,-0.221568,1.148862,-0.4846399999999999,-0.216634
65,1.0534995,0.66964,-0.161376,0.9107785,0.47109,-0.148035,0.8128085,0.69309,-0.216139,1.1733685,0.4680499999999999,-0.131721,1.2844385,0.68076,-0.234112,0.7890285,0.9442,-0.28792,1.3328484999999999,0.8904599999999999,-0.34392,0.9220025000000001,0.0056899999999999,0.0005099999999999,1.0779975,-0.00569,-0.00051,0.8839085000000001,-0.11178,-0.34015,1.1712985,-0.09946,-0.32755,0.9064185,-0.45602,-0.224884,1.1481585,-0.4577,-0.219898
66,1.055316,0.6594800000000001,-0.169123,0.911321,0.46606,-0.15466,0.812411,0.69282,-0.225151,1.172781,0.46315,-0.1413289999999999,1.284071,0.66995,-0.2451189999999999,0.7882310000000001,0.93777,-0.3004,1.330741,0.8775000000000001,-0.35919,0.92152,0.0056599999999999,0.00048,1.0784799999999999,-0.0056599999999999,-0.00048,0.8824610000000002,-0.0833599999999999,-0.34608,1.170901,-0.0688599999999999,-0.33318,0.907491,-0.4270699999999999,-0.2276139999999999,1.146601,-0.4285099999999999,-0.2227879999999999
67,1.056591,0.651735,-0.176018,0.9113170000000002,0.462425,-0.160543,0.8114870000000001,0.689335,-0.233981,1.171807,0.460605,-0.149558,1.2838370000000001,0.659585,-0.2554,0.787027,0.930045,-0.31199,1.328897,0.8629249999999999,-0.37091,0.920895,0.0056049999999999,0.0003699999999999,1.079105,-0.005605,-0.00037,0.880757,-0.054735,-0.35073,1.169567,-0.039295,-0.33681,0.908527,-0.399065,-0.229416,1.144687,-0.400905,-0.225612
68,1.057918,0.6450400000000001,-0.182729,0.911222,0.4608109999999999,-0.166011,0.81109,0.68615,-0.2413799999999999,1.17078,0.456696,-0.157241,1.2827199999999999,0.65405,-0.2670099999999999,0.78688,0.92576,-0.32244,1.32693,0.84888,-0.38234,0.920392,0.0058799999999999,0.00027,1.079608,-0.0058799999999999,-0.0002699999999999,0.8801700000000001,-0.0306,-0.35322,1.1684,-0.01094,-0.33928,0.91035,-0.37169,-0.230203,1.14364,-0.3735,-0.229212
69,1.057748,0.6394650000000001,-0.188325,0.910933,0.459203,-0.1715,0.810459,0.684955,-0.248524,1.169839,0.452342,-0.164957,1.281429,0.6501250000000001,-0.27859,0.7862290000000001,0.919105,-0.33209,1.325839,0.8360350000000001,-0.39412,0.919845,0.006225,0.0001999999999999,1.080155,-0.0062249999999999,-0.0002,0.8797290000000001,-0.0040849999999999,-0.3557,1.167379,0.018385,-0.34174,0.909759,-0.3416749999999999,-0.229054,1.143159,-0.3445049999999999,-0.233056
70,1.057163,0.635025,-0.1930469999999999,0.910318,0.457997,-0.1754019999999999,0.809476,0.679515,-0.2541409999999999,1.168926,0.450534,-0.170365,1.280646,0.646485,-0.2870549999999999,0.7854559999999999,0.916965,-0.3395049999999999,1.325116,0.833235,-0.4025649999999999,0.919506,0.0063249999999999,0.000265,1.080494,-0.006325,-0.0002649999999999,0.878956,0.0196849999999999,-0.357425,1.166406,0.0429749999999999,-0.3434549999999999,0.909152,-0.316225,-0.2272679999999999,1.142876,-0.320085,-0.2362139999999999
71,1.0564225,0.628595,-0.1969,0.9096455000000001,0.456172,-0.179204,0.8086935,0.678635,-0.259103,1.1681635,0.4469,-0.174683,1.2801535,0.643745,-0.29564,0.7848135,0.912145,-0.34606,1.3242335,0.831565,-0.41026,0.9194865,0.0065649999999999,0.0001499999999999,1.0805135,-0.0065649999999999,-0.00015,0.8784935,0.0426349999999999,-0.35737,1.1653434999999999,0.064875,-0.34338,0.9086175000000001,-0.2928849999999999,-0.225687,1.1434834999999999,-0.297695,-0.240601
72,1.0560175,0.624795,-0.201066,0.9092555,0.456255,-0.182968,0.8082655000000001,0.674015,-0.263919,1.1677655,0.446732,-0.1786,1.2795155,0.647285,-0.304295,0.7843455,0.909995,-0.351855,1.3237454999999998,0.834125,-0.418475,0.9195585,0.006655,0.0001049999999999,1.0804415,-0.0066549999999999,-0.0001049999999999,0.8784155,0.0639549999999999,-0.356755,1.1645355,0.078205,-0.343845,0.9112605,-0.274795,-0.222631,1.1451755000000001,-0.2770249999999999,-0.249281
73,1.055756,0.6228049999999999,-0.20415,0.908981,0.455804,-0.18638,0.807951,0.6707449999999999,-0.268371,1.167491,0.446053,-0.182169,1.278961,0.649925,-0.3128999999999999,0.783981,0.906775,-0.35752,1.323311,0.8354550000000001,-0.42611,0.919655,0.0066149999999999,-3.0000000000002247e-05,1.0803449999999999,-0.006615,3.0000000000002247e-05,0.878481,0.0833149999999999,-0.35526,1.163451,0.0901249999999999,-0.34319,0.913836,-0.257995,-0.219716,1.1468809999999998,-0.257605,-0.257724
74,1.0555625,0.619944,-0.206788,0.9088455,0.454967,-0.189594,0.8074085,0.66673,-0.272249,1.1671285,0.446206,-0.185445,1.2786085,0.65652,-0.32095,0.7837785000000002,0.90147,-0.36269,1.3230585000000001,0.8375300000000001,-0.43239,0.9196585,0.0064199999999999,-0.00014,1.0803415,-0.0064199999999999,0.00014,0.8785485000000001,0.1005,-0.35319,1.1621685,0.09918,-0.34199,0.9161355,-0.2428199999999999,-0.216658,1.1485285,-0.2405399999999999,-0.265889
75,1.054011,0.6179690000000001,-0.2093449999999999,0.908304,0.455061,-0.1925869999999999,0.806276,0.6618600000000001,-0.27579,1.166976,0.444397,-0.1884209999999999,1.279546,0.6607200000000001,-0.32941,0.782756,0.89707,-0.36717,1.3240859999999999,0.84148,-0.43903,0.91967,0.00673,-0.0002399999999999,1.08033,-0.0067299999999999,0.00024,0.878656,0.11519,-0.35104,1.160506,0.10551,-0.34095,0.917911,-0.2305499999999999,-0.213769,1.150766,-0.2272299999999999,-0.272285
76,1.051865,0.615351,-0.211758,0.907154,0.4543609999999999,-0.195361,0.804405,0.65856,-0.27892,1.166455,0.4431699999999999,-0.191219,1.279915,0.66441,-0.33726,0.7812250000000001,0.89299,-0.37156,1.3247849999999999,0.84554,-0.4457399999999999,0.919681,0.0067099999999999,-0.0003799999999999,1.080319,-0.0067099999999999,0.00038,0.8784350000000001,0.12816,-0.3483699999999999,1.158465,0.1105599999999999,-0.33979,0.9195380000000001,-0.21987,-0.2115729999999999,1.152445,-0.21604,-0.27891
77,1.049601,0.612333,-0.214077,0.9058980000000001,0.453685,-0.197749,0.8025380000000001,0.654927,-0.28183,1.165858,0.441965,-0.193669,1.280078,0.664915,-0.34214,0.779748,0.887035,-0.37521,1.325558,0.8455050000000001,-0.45061,0.919834,0.006595,-0.0006,1.080166,-0.0065949999999999,0.0005999999999999,0.8783580000000001,0.137235,-0.34549,1.157268,0.110985,-0.33946,0.9189620000000001,-0.2092049999999999,-0.211433,1.153848,-0.2096749999999999,-0.28389
78,1.0471715,0.6088340000000001,-0.216344,0.9053245,0.45261,-0.200083,0.8008945000000001,0.6499810000000001,-0.28436,1.1654745,0.4406000000000001,-0.196055,1.2805045,0.6644500000000001,-0.34628,0.7784345,0.8836300000000001,-0.37883,1.3270745,0.8443800000000001,-0.45529,0.9198485,0.00645,-0.00076,1.0801515,-0.0064499999999999,0.0007599999999999,0.8787845,0.14521,-0.34258,1.1566245,0.10975,-0.33928,0.9167645,-0.1981599999999999,-0.21323,1.1539645,-0.2027599999999999,-0.28916
79,1.0450374999999998,0.6053310000000001,-0.2188979999999999,0.9050195,0.451675,-0.2024979999999999,0.7995695,0.648105,-0.28698,1.1651295,0.439385,-0.1984689999999999,1.2808195,0.6629700000000001,-0.3507599999999999,0.7771995,0.880465,-0.3832,1.3285495,0.842325,-0.46001,0.9200615,0.006335,-0.0007699999999999,1.0799385,-0.0063349999999999,0.00077,0.8793495,0.152625,-0.34023,1.1563695,0.108085,-0.33984,0.9148625,-0.1879949999999999,-0.2151719999999999,1.1542495,-0.1963349999999999,-0.2944799999999999
80,1.043019,0.60463,-0.220303,0.9044989999999999,0.451665,-0.2035739999999999,0.797809,0.643845,-0.28859,1.165039,0.440575,-0.199573,1.280759,0.662218,-0.35345,0.775229,0.875175,-0.38697,1.329329,0.839845,-0.46348,0.920103,0.006105,-0.0007399999999999,1.0798969999999999,-0.006105,0.00074,0.879659,0.155965,-0.3393899999999999,1.155939,0.1036349999999999,-0.34073,0.914378,-0.185085,-0.214507,1.154159,-0.193505,-0.2977499999999999
81,1.04244,0.60427,-0.220803,0.9042479999999999,0.4515,-0.203896,0.796268,0.6433340000000001,-0.28964,1.1649479999999999,0.4405,-0.199914,1.2805279999999999,0.6610550000000001,-0.35545,0.773868,0.87324,-0.38971,1.329408,0.83829,-0.46618,0.9201060000000001,0.00605,-0.00064,1.079894,-0.00605,0.00064,0.879898,0.15688,-0.33916,1.155538,0.10374,-0.34097,0.914397,-0.1846799999999999,-0.21527,1.153638,-0.1918799999999999,-0.29862
82,1.0419725,0.604051,-0.221109,0.9040695,0.451365,-0.204175,0.7949094999999999,0.643371,-0.29084,1.1648695,0.440505,-0.200187,1.2803295000000001,0.6600469999999999,-0.35568,0.7725695,0.871245,-0.39234,1.3293395000000001,0.836815,-0.46788,0.9201095,0.0059949999999999,-0.00055,1.0798905,-0.0059949999999999,0.0005499999999999,0.8800895,0.1573149999999999,-0.33922,1.1552695,0.1036849999999999,-0.34118,0.9140405,-0.183545,-0.21742,1.1548895,-0.190595,-0.30011
83,1.041492,0.60389,-0.222018,0.903919,0.45121,-0.20437,0.793639,0.643382,-0.29207,1.164779,0.44051,-0.2003849999999999,1.280309,0.6591,-0.35588,0.771319,0.86931,-0.39495,1.329259,0.8353700000000001,-0.4696599999999999,0.920125,0.00595,-0.0005,1.079875,-0.0059499999999999,0.0005,0.8802490000000001,0.15769,-0.33942,1.155509,0.10342,-0.34147,0.91402,-0.1838399999999999,-0.2176199999999999,1.155739,-0.1888699999999999,-0.30142
84,1.040728,0.6037290000000001,-0.222985,0.903452,0.45109,-0.204545,0.7923720000000001,0.643382,-0.29322,1.1643620000000001,0.44051,-0.200561,1.279912,0.65825,-0.35606,0.770352,0.86802,-0.39694,1.3288820000000001,0.83419,-0.47104,0.920212,0.00595,-0.00046,1.079788,-0.0059499999999999,0.0004599999999999,0.879982,0.15769,-0.3396099999999999,1.1551719999999999,0.10314,-0.34165,0.915417,-0.1881999999999999,-0.217233,1.155552,-0.1892499999999999,-0.30069
85,1.0397975,0.6035290000000001,-0.22401,0.9028365,0.450945,-0.204714,0.7908665000000001,0.643325,-0.294575,1.1638365,0.4404450000000001,-0.200767,1.2781465,0.6506550000000001,-0.352855,0.7694465,0.8668550000000002,-0.398675,1.3278865,0.8316050000000001,-0.472155,0.9202655,0.005885,-0.0004149999999999,1.0797345,-0.0058849999999999,0.0004149999999999,0.8795865,0.157585,-0.339855,1.1547165,0.102945,-0.341845,0.9151075,-0.1878449999999999,-0.217895,1.1553265,-0.1895149999999998,-0.299955
86,1.0388279999999999,0.60322,-0.22514,0.902184,0.450745,-0.204926,0.7894140000000001,0.643457,-0.29597,1.1633040000000001,0.440345,-0.201023,1.276264,0.643132,-0.34982,0.768594,0.867005,-0.40023,1.326794,0.829405,-0.47301,0.920294,0.005735,-0.00037,1.079706,-0.005735,0.0003699999999999,0.8791840000000001,0.157115,-0.34005,1.154224,0.1028149999999999,-0.34205,0.914774,-0.188255,-0.217832,1.1552239999999998,-0.189705,-0.29921
87,1.0378485,0.602885,-0.226207,0.9014915,0.45053,-0.205164,0.7880315000000001,0.6433519999999999,-0.297515,1.1627415,0.4402699999999999,-0.201306,1.2754014999999999,0.6409279999999999,-0.351385,0.7678815000000001,0.86575,-0.401565,1.3254315,0.8272999999999999,-0.474015,0.9203105,0.0055899999999999,-0.000345,1.0796895,-0.0055899999999999,0.0003449999999999,0.8787415000000001,0.1565599999999999,-0.340525,1.1541115,0.1025099999999999,-0.342205,0.9134285,-0.18697,-0.219288,1.1551915,-0.1899199999999999,-0.299165
88,1.0371665,0.6026619999999999,-0.227181,0.9010994999999999,0.4503399999999999,-0.205401,0.7869095,0.6432979999999999,-0.299085,1.1624794999999999,0.4402699999999999,-0.201598,1.2738595,0.6337349999999999,-0.348875,0.7673895,0.8648,-0.4021949999999999,1.3242995,0.8253699999999999,-0.474895,0.9203215,0.0055099999999999,-0.000335,1.0796785,-0.00551,0.000335,0.8785495,0.1564799999999999,-0.341455,1.1543995,0.1021599999999999,-0.342335,0.9131515,-0.1870400000000001,-0.221617,1.1556195,-0.1901400000000001,-0.299115
89,1.03631,0.602438,-0.228349,0.900589,0.45023,-0.2056299999999999,0.785099,0.643412,-0.30137,1.162089,0.44027,-0.201879,1.272979,0.633391,-0.35001,0.7661290000000001,0.86469,-0.4034999999999999,1.323219,0.82526,-0.47578,0.92033,0.00546,-0.0002999999999999,1.07967,-0.00546,0.0002999999999999,0.878179,0.15581,-0.34247,1.154519,0.10242,-0.34229,0.912805,-0.1874299999999999,-0.223871,1.155659,-0.18964,-0.2981399999999999
90,1.035251,0.602322,-0.230045,0.900022,0.45016,-0.205871,0.783332,0.644564,-0.303425,1.161702,0.4402,-0.202155,1.271202,0.633251,-0.350835,0.7647619999999999,0.8650599999999999,-0.404785,1.322112,0.8252299999999999,-0.476765,0.9203520000000001,0.0054199999999999,-0.000295,1.079648,-0.0054199999999999,0.0002949999999999,0.8777820000000001,0.1549499999999999,-0.343545,1.154902,0.1025599999999999,-0.342245,0.913606,-0.18842,-0.225911,1.154952,-0.1888499999999999,-0.298105
91,1.034003,0.602287,-0.232026,0.899429,0.450125,-0.206129,0.781649,0.6458849999999999,-0.305195,1.161199,0.440165,-0.202447,1.269379,0.633216,-0.3515049999999999,0.763339,0.8650249999999999,-0.406115,1.320889,0.8251949999999999,-0.477765,0.920373,0.0053849999999999,-0.0002949999999999,1.079627,-0.0053849999999999,0.000295,0.8773190000000001,0.1536349999999999,-0.344685,1.155269,0.1025249999999999,-0.3423549999999999,0.914295,-0.1914949999999999,-0.2281389999999999,1.153999,-0.188865,-0.298075
92,1.0325034999999998,0.602128,-0.234213,0.8987415,0.44987,-0.206419,0.7798615,0.647064,-0.306935,1.1606715,0.4401199999999999,-0.202785,1.2675915,0.632961,-0.350525,0.7612215,0.86598,-0.407495,1.3196015,0.82576,-0.478545,0.9204095,0.00529,-0.0002749999999999,1.0795905,-0.00529,0.0002749999999999,0.8767915,0.15203,-0.345805,1.1557415,0.1062199999999999,-0.342455,0.9163965000000001,-0.19744,-0.229041,1.1521314999999999,-0.18912,-0.297725
93,1.0308035,0.602916,-0.236822,0.8979505,0.44957,-0.206666,0.7778404999999999,0.648961,-0.30843,1.1600605,0.44,-0.2031,1.2656304999999999,0.633148,-0.34891,0.7588505,0.86832,-0.40905,1.3182905,0.8263400000000001,-0.47843,0.9204825000000001,0.00521,-0.0002,1.0795175,-0.0052099999999999,0.0002,0.8761805,0.14969,-0.34677,1.1562505,0.10936,-0.3423899999999999,0.9179325,-0.20306,-0.229555,1.1524205,-0.1908799999999999,-0.29636
94,1.028439,0.606681,-0.238388,0.8967620000000001,0.449235,-0.205491,0.7756620000000001,0.6518510000000001,-0.308325,1.1591420000000001,0.439725,-0.201989,1.263412,0.63375,-0.343215,0.755812,0.871445,-0.409325,1.316872,0.8265150000000001,-0.4760449999999999,0.920563,0.005215,-0.000365,1.079437,-0.0052149999999999,0.000365,0.8750720000000001,0.145565,-0.3472349999999999,1.156612,0.110805,-0.341435,0.9170860000000001,-0.2060149999999999,-0.229111,1.151702,-0.1942649999999999,-0.292615
95,1.0245615,0.611105,-0.2379499999999999,0.8941574999999999,0.449345,-0.2028869999999999,0.7729475,0.653124,-0.3061999999999999,1.1572275,0.440935,-0.1989789999999999,1.2609575,0.632167,-0.3359799999999999,0.7511975000000001,0.877705,-0.4075,1.3143675,0.825125,-0.4714799999999999,0.9207515,0.004645,-0.0002899999999999,1.0792485,-0.004645,0.00029,0.8729475,0.134695,-0.34862,1.1573875,0.105865,-0.3427,0.9152955,-0.214805,-0.2283239999999999,1.1505975,-0.2043849999999999,-0.2860899999999999
96,1.021543,0.616436,-0.2348289999999999,0.891548,0.449373,-0.19876,0.770358,0.65529,-0.3028849999999999,1.155408,0.44266,-0.1946679999999999,1.259248,0.628851,-0.326535,0.746668,0.88204,-0.404155,1.311508,0.82167,-0.466255,0.920974,0.0040499999999999,-0.000365,1.079026,-0.0040499999999999,0.000365,0.8706380000000001,0.12234,-0.348915,1.157538,0.09775,-0.343155,0.912969,-0.2265899999999999,-0.227099,1.149558,-0.2167399999999999,-0.278995
97,1.0186769999999998,0.623943,-0.231087,0.888937,0.451225,-0.194341,0.767567,0.6606000000000001,-0.298465,1.153637,0.446374,-0.190281,1.256997,0.6340300000000001,-0.322125,0.7421770000000001,0.8897600000000001,-0.400355,1.308547,0.82403,-0.461825,0.921232,0.00379,-0.000395,1.078768,-0.0037899999999999,0.0003949999999999,0.868087,0.10426,-0.348775,1.1572269999999998,0.08414,-0.343355,0.910249,-0.2431499999999999,-0.224845,1.146957,-0.23451,-0.270723
98,1.01616,0.6304949999999999,-0.226608,0.886568,0.4512919999999999,-0.189867,0.765518,0.6659249999999999,-0.294,1.151888,0.4487899999999999,-0.185831,1.2558880000000001,0.641805,-0.3186,0.738558,0.895165,-0.39584,1.305568,0.827575,-0.45733,0.92145,0.0031949999999999,-0.00039,1.07855,-0.003195,0.0003899999999999,0.8661080000000001,0.0831249999999999,-0.34723,1.156268,0.0678949999999999,-0.34272,0.90611,-0.260175,-0.223162,1.144308,-0.2549150000000001,-0.262268
99,1.013908,0.637755,-0.220202,0.883926,0.453739,-0.183447,0.763036,0.671765,-0.28759,1.150326,0.453858,-0.179247,1.254406,0.6475949999999999,-0.31222,0.734936,0.905025,-0.38938,1.302986,0.827745,-0.4472,0.9216650000000001,0.0026249999999999,-0.00042,1.0783349999999998,-0.002625,0.00042,0.864446,0.050485,-0.34319,1.155586,0.0419649999999999,-0.33974,0.903605,-0.290115,-0.218874,1.141726,-0.286745,-0.25153
100,1.0114905,0.646145,-0.213341,0.8810344999999999,0.4565,-0.176502,0.7604145,0.678685,-0.280505,1.1484645,0.458564,-0.172017,1.2517844999999999,0.648335,-0.304705,0.7311245,0.912535,-0.382465,1.2997545,0.833545,-0.435835,0.9219995,0.0020749999999999,-0.000425,1.0780005,-0.0020749999999999,0.0004249999999999,0.8627645000000002,0.016345,-0.336685,1.1546845000000001,0.014475,-0.334615,0.9024095,-0.3262649999999999,-0.214038,1.1387245,-0.320885,-0.240235
101,1.00928,0.6556150000000001,-0.2047069999999999,0.877786,0.461221,-0.1678909999999999,0.756956,0.687665,-0.2711249999999999,1.146666,0.464281,-0.162547,1.249356,0.6544650000000001,-0.295725,0.727886,0.916685,-0.3725849999999999,1.296606,0.8388450000000001,-0.4229449999999999,0.922304,0.001785,-0.0004949999999999,1.077696,-0.0017849999999999,0.000495,0.861116,-0.0211349999999999,-0.329005,1.153616,-0.0214649999999999,-0.328375,0.901034,-0.3680449999999999,-0.2083919999999999,1.135786,-0.3595349999999999,-0.228906
102,1.0070709999999998,0.6656,-0.194929,0.874468,0.46589,-0.158957,0.753798,0.6954800000000001,-0.261445,1.144838,0.46937,-0.152875,1.247058,0.6593100000000001,-0.280765,0.724628,0.92102,-0.361995,1.293258,0.84396,-0.407585,0.922479,0.00148,-0.000535,1.077521,-0.0014799999999999,0.000535,0.859598,-0.0592399999999999,-0.321045,1.151988,-0.0580699999999999,-0.320625,0.8985170000000001,-0.4089499999999999,-0.201893,1.132788,-0.3992899999999999,-0.2179269999999999
103,1.005725,0.672745,-0.183906,0.87123,0.471485,-0.149052,0.7511800000000001,0.701055,-0.2503,1.14334,0.474725,-0.142874,1.24547,0.6613249999999999,-0.26724,0.72167,0.927335,-0.35097,1.29057,0.846665,-0.38929,0.922666,0.001035,-0.00057,1.077334,-0.001035,0.0005699999999999,0.85858,-0.0995749999999999,-0.31329,1.14977,-0.097065,-0.31282,0.8944799999999999,-0.4505849999999999,-0.195041,1.13029,-0.442385,-0.207989
104,1.0044915,0.680225,-0.174213,0.8685905,0.476475,-0.140997,0.7482805,0.708375,-0.24048,1.1420205,0.478655,-0.134682,1.2431505,0.669345,-0.25281,0.7194705,0.933445,-0.3399,1.2879304999999999,0.856805,-0.37241,0.9229685,0.0012449999999999,-0.0008999999999999,1.0770315,-0.0012449999999999,0.0008999999999999,0.8576305,-0.133275,-0.30745,1.1473404999999999,-0.129575,-0.30692,0.8905005,-0.487255,-0.189626,1.1282805,-0.4838849999999999,-0.200551
105,1.0032325,0.68699,-0.161645,0.8662525,0.48152,-0.130916,0.7455725,0.71389,-0.22714,1.1407125,0.48338,-0.124206,1.2424425000000001,0.67642,-0.23596,0.7172324999999999,0.93942,-0.32646,1.2862325000000001,0.86674,-0.3527,0.9234755,0.0013199999999999,-0.00097,1.0765245,-0.0013199999999999,0.0009699999999999,0.8573325,-0.16703,-0.29803,1.1442625,-0.16362,-0.29976,0.8870625,-0.52525,-0.18245,1.1264525,-0.5285299999999999,-0.191847
106,1.002107,0.691505,-0.148086,0.8641490000000001,0.484575,-0.120589,0.744129,0.7164950000000001,-0.21365,1.139569,0.485885,-0.113501,1.241279,0.6840950000000001,-0.22086,0.715849,0.942095,-0.31227,1.2845689999999998,0.879135,-0.33354,0.923998,0.001045,-0.00106,1.076002,-0.0010449999999999,0.00106,0.857229,-0.1951049999999999,-0.28699,1.140539,-0.192075,-0.29154,0.8846890000000001,-0.559515,-0.17519,1.125189,-0.562805,-0.183416
107,1.0016075,0.698265,-0.133465,0.8621475000000001,0.489205,-0.1091719999999999,0.7426075000000001,0.720455,-0.199434,1.1387475,0.489435,-0.102272,1.2404575,0.689385,-0.206025,0.7146375,0.947035,-0.296765,1.2834075,0.890015,-0.313965,0.9248155,0.0010749999999999,-0.0012049999999999,1.0751845,-0.0010749999999999,0.0012049999999999,0.8573675000000001,-0.2205849999999999,-0.271905,1.1356875,-0.2178149999999999,-0.277705,0.8827575,-0.591565,-0.1673549999999999,1.1242175,-0.594265,-0.174859
108,1.0012124999999998,0.705265,-0.1220115,0.8606315,0.493145,-0.0991015,0.7419315,0.723585,-0.1860385,1.1388315,0.492405,-0.0926915,1.2396815,0.7020550000000001,-0.1922654999999999,0.7142715,0.946535,-0.2824935,1.2821114999999998,0.904165,-0.2988335,0.9254964999999999,0.0009849999999999,-0.0011974999999999,1.0745035,-0.0009849999999999,0.0011975,0.8578115,-0.2452949999999999,-0.2572135,1.1310715,-0.240155,-0.2642535,0.8817615,-0.6168849999999999,-0.1605955,1.1233015,-0.618945,-0.1680015
109,1.0012934999999998,0.71149,-0.108908,0.8597055,0.49608,-0.087889,0.7418055,0.72634,-0.170418,1.1394055,0.49455,-0.082009,1.2399855,0.7135199999999999,-0.177396,0.7146855,0.94734,-0.263891,1.2820155,0.9125,-0.279101,0.9258245,0.001242,-0.001797,1.0741755,-0.0012419999999999,0.0017969999999999,0.8599355,-0.27192,-0.237491,1.1268555,-0.26448,-0.245841,0.8811455,-0.6436599999999999,-0.152579,1.1227254999999998,-0.6448099999999999,-0.159883
110,1.0010389999999998,0.7161584999999999,-0.0931999999999999,0.858914,0.4959385,-0.074122,0.741844,0.7277785000000001,-0.151656,1.139594,0.4945385,-0.0693309999999999,1.239174,0.7170985000000001,-0.159183,0.7149840000000001,0.9493785,-0.242899,1.281604,0.9205685,-0.255529,0.926475,0.0007124999999999,-0.001929,1.073525,-0.0007125,0.001929,0.861624,-0.2950115,-0.214949,1.123354,-0.2859115,-0.224169,0.880414,-0.6669415000000001,-0.140868,1.121974,-0.6669915,-0.1483789999999999
111,1.000182,0.7191715000000001,-0.076821,0.85824,0.4967015,-0.05888,0.74219,0.7302715000000001,-0.131931,1.13983,0.4984515,-0.054848,1.23923,0.7213615000000001,-0.140678,0.71557,0.9530515,-0.219695,1.28138,0.9264815,-0.231975,0.927051,0.0001615,-0.0021219999999999,1.072949,-0.0001614999999999,0.0021219999999999,0.8642600000000001,-0.3185285,-0.187295,1.12015,-0.3085485,-0.198255,0.87977,-0.6910685,-0.127149,1.12131,-0.6900685,-0.134562
112,0.9993075000000001,0.721949,-0.0624259999999999,0.8579325000000001,0.496449,-0.0456209999999999,0.7424425,0.733389,-0.114434,1.1400425,0.501869,-0.041702,1.2394125,0.7286189999999999,-0.125466,0.7160625,0.953999,-0.197654,1.2810525,0.935489,-0.211934,0.9275855000000001,-0.0003219999999999,-0.0020359999999999,1.0724144999999998,0.0003219999999999,0.002036,0.8667325000000001,-0.336001,-0.161984,1.1179825,-0.325461,-0.1746039999999999,0.8791625000000001,-0.7093510000000001,-0.114289,1.1206025,-0.707681,-0.121403
113,0.9983745,0.72376,-0.0481054999999999,0.8575105000000001,0.49641,-0.0322284999999999,0.7428905,0.7363999999999999,-0.0972615,1.1401705,0.50506,-0.0284364999999999,1.2385505,0.7321599999999999,-0.1099405,0.7164105000000001,0.95209,-0.1768885,1.2804105,0.93891,-0.1911485,0.9280115,-0.0008749999999999,-0.0019184999999999,1.0719885,0.000875,0.0019185,0.8691005,-0.35401,-0.1362765,1.1161205,-0.34195,-0.1505584999999999,0.8786405,-0.7274700000000001,-0.1011644999999999,1.1198505,-0.7255600000000001,-0.1081405
114,0.9980020000000001,0.7250464999999999,-0.035744,0.857289,0.4961565,-0.020696,0.743449,0.7399764999999999,-0.083097,1.140489,0.5065965,-0.017232,1.237949,0.7382464999999999,-0.096853,0.7169290000000001,0.9514465,-0.157846,1.279859,0.9445665,-0.173566,0.9279340000000001,-0.0012645,-0.001826,1.072066,0.0012645,0.0018259999999999,0.871789,-0.3669435,-0.113777,1.115289,-0.3525135,-0.128852,0.8783190000000001,-0.7396535000000001,-0.089203,1.119589,-0.7371235,-0.096089
115,0.9976480000000001,0.7261700000000001,-0.023605,0.8570590000000001,0.49593,-0.009225,0.743959,0.74295,-0.068867,1.140899,0.5081300000000001,-0.006092,1.237829,0.7423000000000001,-0.0835819999999999,0.717949,0.95045,-0.138482,1.279359,0.94383,-0.155512,0.927899,-0.0016599999999999,-0.001718,1.072101,0.00166,0.001718,0.874609,-0.38162,-0.090903,1.115109,-0.36367,-0.107146,0.878099,-0.75174,-0.077078,1.119339,-0.7485499999999999,-0.083766
116,0.9972600000000001,0.7256444999999999,-0.0120699999999999,0.856774,0.4956145,0.002129,0.744244,0.7435045,-0.054917,1.141104,0.5094544999999999,0.005041,1.237154,0.7464244999999999,-0.070138,0.718954,0.9481245,-0.119991,1.278254,0.9442745,-0.137081,0.9278919999999999,-0.0021234999999999,-0.001548,1.072108,0.0021235,0.001548,0.877404,-0.3950754999999999,-0.068253,1.1154439999999999,-0.3747454999999999,-0.086098,0.878304,-0.7628755,-0.0652109999999999,1.119434,-0.7597255,-0.0712899999999999
117,0.9969650000000001,0.724226,-0.0009935,0.856773,0.493646,0.0122435,0.7445930000000001,0.7442259999999999,-0.0416374999999999,1.141613,0.508726,0.0152424999999999,1.236893,0.7452259999999999,-0.0572955,0.720323,0.946646,-0.1026235,1.277283,0.944816,-0.1192845,0.927893,-0.0024989999999999,-0.0015315,1.072107,0.002499,0.0015314999999999,0.880163,-0.409184,-0.0468424999999999,1.116053,-0.385144,-0.0661315,0.878583,-0.773944,-0.0539825,1.119703,-0.769974,-0.0585995
118,0.99661,0.7224535,0.007936,0.856669,0.4923735,0.020898,0.7447890000000001,0.7443535,-0.03133,1.142019,0.5092635,0.024121,1.2365490000000001,0.7450435,-0.04664,0.720979,0.9458235,-0.089381,1.275439,0.9455135,-0.1059679999999999,0.92789,-0.0032435,-0.001079,1.07211,0.0032434999999999,0.001079,0.882179,-0.4195765,-0.029731,1.116469,-0.3923365,-0.050155,0.878709,-0.7814365,-0.044471,1.119959,-0.7768665,-0.046928
119,0.9960625000000001,0.7214175,0.012848,0.8564815,0.4923775,0.025707,0.7449915,0.7435275,-0.024525,1.1423815,0.5109475,0.029047,1.2363315,0.7459375,-0.039781,0.7215214999999999,0.9457675,-0.079879,1.2733815,0.9444875,-0.095753,0.9277545000000001,-0.0034294999999999,-0.001124,1.0722455,0.0034295,0.001124,0.8841815000000001,-0.4284925,-0.017414,1.1168415,-0.3986325,-0.038986,0.8788315000000001,-0.7882625,-0.039292,1.1201815,-0.7824625,-0.0397
120,0.995305,0.7206145,0.016423,0.856085,0.4916844999999999,0.028625,0.744965,0.7427245,-0.019135,1.142275,0.5102945,0.0318689999999999,1.235255,0.7468845,-0.034436,0.721545,0.9449745,-0.073134,1.271385,0.9458145,-0.0874099999999999,0.92752,-0.0035704999999999,-0.001167,1.07248,0.0035704999999999,0.0011669999999999,0.884965,-0.4295755,-0.0109439999999999,1.116965,-0.4002155,-0.032672,0.878725,-0.7907455,-0.036015,1.120125,-0.7836855,-0.035047
121,0.9943465000000001,0.720275,0.0196205,0.8554385,0.491455,0.0311555,0.7444685000000001,0.742475,-0.0142884999999999,1.1419285,0.510095,0.0342825,1.2342184999999999,0.747315,-0.0297085,0.7213185000000001,0.944735,-0.0670675,1.2693485,0.946925,-0.0801585,0.9270595000000001,-0.003693,-0.0012595,1.0729404999999999,0.003693,0.0012595,0.8855085,-0.4301049999999999,-0.0053005,1.1175485,-0.4009649999999999,-0.0270895,0.8785585,-0.792575,-0.0332135,1.1202385,-0.7844150000000001,-0.0310225
122,0.9934695000000001,0.720125,0.0224935,0.8548175,0.4914649999999999,0.0334794999999999,0.7439675,0.742405,-0.0097515,1.1416075,0.5100049999999999,0.0363944999999999,1.2333775,0.747705,-0.0253815,0.7211274999999999,0.944715,-0.0613595,1.2676675,0.947815,-0.0739355,0.9266475,-0.003802,-0.0013415,1.0733525,0.003802,0.0013414999999999,0.8860675000000001,-0.430465,-0.0002675,1.1182775,-0.401155,-0.0221235,0.8783875,-0.793535,-0.0310095,1.1205175,-0.784945,-0.0269425
123,0.9925385,0.719937,0.0246905,0.8540805,0.491587,0.0353065,0.7433004999999999,0.741717,-0.0057424999999999,1.1408105,0.5092669999999999,0.0379395,1.2325405,0.747927,-0.0218015,0.7206705,0.943707,-0.0563655,1.2660605,0.948527,-0.0685104999999999,0.9263775,-0.0037949999999999,-0.0015265,1.0736225,0.0037949999999999,0.0015265,0.8862705,-0.429753,0.0038094999999999,1.1192505,-0.400303,-0.0179755,0.8780505,-0.7944929999999999,-0.0293155,1.1207905,-0.784913,-0.0234995
124,0.9916815,0.719411,0.0266355,0.8533785,0.491441,0.0369565,0.7427985000000001,0.740471,-0.0021274999999999,1.1400685,0.508521,0.0392885,1.2318485,0.747921,-0.0187064999999999,0.7200785000000001,0.941911,-0.0522254999999999,1.2647985,0.948661,-0.0638374999999999,0.9261375000000001,-0.0037919999999999,-0.0017474999999999,1.0738625,0.003792,0.0017475,0.8863084999999999,-0.429729,0.0070315,1.1200584999999998,-0.4000289999999999,-0.0145675,0.8777685000000001,-0.795489,-0.0276815,1.1210785,-0.7849090000000001,-0.0207534999999999
125,0.9909305,0.7187195,0.0283185,0.8527895,0.4911095,0.0384115,0.7422995,0.7389495,0.0010155,1.1394395,0.5077495,0.0404285,1.2313394999999998,0.7479195,-0.0160665,0.7194795,0.9401295,-0.0484374999999999,1.2639695,0.9486595,-0.0601565,0.9259575,-0.0037924999999999,-0.0020015,1.0740425,0.0037925,0.0020015,0.8862495,-0.4291405,0.0092395,1.1207695,-0.3999905,-0.0118764999999999,0.8775195,-0.7964305,-0.0262745,1.1213994999999999,-0.7847005,-0.0184125
126,0.9903015000000001,0.718176,0.029543,0.8523365,0.4908559999999999,0.039567,0.7418465000000001,0.737856,0.003572,1.1389265,0.507196,0.041262,1.2309965,0.748146,-0.0138779999999999,0.7189065,0.939206,-0.045,1.2633765000000001,0.948886,-0.057175,0.9258235,-0.003935,-0.002217,1.0741765,0.003935,0.002217,0.8861965,-0.428514,0.010554,1.1213665,-0.399654,-0.010116,0.8773565000000001,-0.7971739999999999,-0.02534,1.1217165,-0.784114,-0.0168089999999999
127,0.9897810000000001,0.7177855,0.030199,0.851972,0.4907154999999999,0.040376,0.741452,0.7373455,0.005762,1.138572,0.5068954999999999,0.041731,1.230782,0.7483655,-0.012659,0.7183820000000001,0.9388255,-0.042226,1.263212,0.9493355,-0.0556109999999999,0.925728,-0.0040535,-0.0022749999999999,1.0742720000000001,0.0040535,0.002275,0.886062,-0.4275945,0.010663,1.121532,-0.3989045,-0.0099569999999999,0.877352,-0.7976745,-0.0248009999999999,1.122112,-0.7836845,-0.015979
128,0.989431,0.7177855,0.03031,0.851836,0.4907154999999999,0.040564,0.741206,0.7373455,0.00645,1.138576,0.5068954999999999,0.041829,1.2306359999999998,0.7482755,-0.0125549999999999,0.717946,0.9388255,-0.0413409999999999,1.2630759999999999,0.9491555,-0.055507,0.925726,-0.0040535,-0.002326,1.074274,0.0040535,0.002326,0.886066,-0.4273845,0.010761,1.1215359999999999,-0.3985745,-0.0098589999999999,0.877376,-0.7976745,-0.0243789999999999,1.122146,-0.7834645,-0.0152059999999999
129,0.9889900000000001,0.7177855,0.0304615,0.8516710000000001,0.4907154999999999,0.0407045,0.7406910000000001,0.7373455,0.0068765,1.138541,0.5068954999999999,0.0419655,1.230491,0.7481955,-0.0124144999999999,0.7173309999999999,0.9388255,-0.0411835,1.262621,0.9489355,-0.0553555,0.925725,-0.0040535,-0.0023485,1.074275,0.0040535,0.0023485,0.886071,-0.4270445,0.0108955,1.121541,-0.3985745,-0.0097244999999999,0.877381,-0.7976745,-0.0242445,1.1221809999999999,-0.7834645,-0.0141824999999999
130,0.9884035,0.7177855,0.030622,0.8515064999999999,0.4907154999999999,0.04085,0.7399565,0.7373455,0.007169,1.1384965,0.5068954999999999,0.042106,1.2303565,0.7480855,-0.0122709999999999,0.7166065000000001,0.9388255,-0.041017,1.2620465,0.9486755,-0.055195,0.9257245000000001,-0.0040535,-0.0023749999999999,1.0742755,0.0040535,0.002375,0.8860665,-0.4266945,0.010564,1.1215465,-0.3985745,-0.0095859999999999,0.8773865,-0.7976745,-0.02412,1.1222165,-0.7834645,-0.01327
131,0.9878235,0.7178990000000001,0.0303255,0.8516695,0.491399,0.0413045,0.7392395,0.736799,0.0076575,1.1387595,0.507379,0.0422685,1.2305295,0.7474190000000001,-0.0122114999999999,0.7157395,0.938299,-0.0405235,1.2623095,0.947729,-0.0563395,0.9256945,-0.0039799999999999,-0.0023155,1.0743055,0.0039799999999999,0.0023155,0.8857595,-0.427211,0.0099025,1.1215895,-0.3984109999999999,-0.0094795,0.8773495,-0.797511,-0.0236574999999999,1.1223694999999998,-0.783941,-0.0128145
