sb224sc-HT22-VT27/4dt907/src/data/kinect_good_preprocessed_A9_mediapipe/A29_kinect.csv
FrameNo,nose_3d_x,nose_3d_y,nose_3d_z,left_shoulder_3d_x,left_shoulder_3d_y,left_shoulder_3d_z,left_elbow_3d_x,left_elbow_3d_y,left_elbow_3d_z,right_shoulder_3d_x,right_shoulder_3d_y,right_shoulder_3d_z,right_elbow_3d_x,right_elbow_3d_y,right_elbow_3d_z,left_wrist_3d_x,left_wrist_3d_y,left_wrist_3d_z,right_wrist_3d_x,right_wrist_3d_y,right_wrist_3d_z,left_hip_3d_x,left_hip_3d_y,left_hip_3d_z,right_hip_3d_x,right_hip_3d_y,right_hip_3d_z,left_knee_3d_x,left_knee_3d_y,left_knee_3d_z,right_knee_3d_x,right_knee_3d_y,right_knee_3d_z,left_ankle_3d_x,left_ankle_3d_y,left_ankle_3d_z,right_ankle_3d_x,right_ankle_3d_y,right_ankle_3d_z
34,-0.0029154999999999993,0.7294025,0.07511999999999999,-0.1490245,0.5034925,0.06229,-0.2427845,0.7494225,0.029799,0.14348550000000002,0.4921025,0.068434,0.23726550000000002,0.7376524999999999,0.038804000000000005,-0.2765645,0.9729424999999999,-0.004591999999999999,0.2590255,0.9624425,-0.003362999999999998,-0.0732255,0.0018875000000000003,0.0003569999999999997,0.0732255,-0.0018875000000000003,-0.0003569999999999997,-0.1263445,-0.4012875,-0.008335999999999996,0.10579550000000001,-0.4393575,0.014367000000000001,-0.1294045,-0.7594975,0.00016700000000000048,0.1103655,-0.7854975000000001,0.00018699999999999967
35,-0.002885999999999997,0.728743,0.0748,-0.14852700000000002,0.503383,0.06304799999999999,-0.24268699999999999,0.753193,0.034749999999999996,0.14347300000000002,0.491343,0.06864,0.23545300000000002,0.738533,0.044487,-0.274217,0.975533,0.008523999999999997,0.257183,0.963333,0.006572999999999999,-0.073188,0.0019880000000000037,0.0005109999999999976,0.073188,-0.0019879999999999967,-0.000511000000000001,-0.12639699999999998,-0.402187,-0.008058000000000003,0.105653,-0.439877,0.014743,-0.130127,-0.760707,0.0007429999999999971,0.109753,-0.787017,0.0005219999999999982
36,-0.002840999999999994,0.7281985,0.0746095,-0.148255,0.5032485,0.06380949999999999,-0.242955,0.7569885,0.039760500000000004,0.143475,0.4905585,0.0688985,0.234005,0.7398485,0.0499075,-0.272435,0.9776885000000001,0.0205515,0.255665,0.9643885,0.0163965,-0.073136,0.0020165000000000044,0.0006805000000000005,0.073136,-0.0020164999999999975,-0.0006805000000000005,-0.126445,-0.4029815,-0.007705499999999997,0.10547500000000001,-0.4401215,0.015112500000000001,-0.130855,-0.7616515,0.0013225000000000008,0.10913500000000001,-0.7883215,0.0007185000000000004
37,-0.002734000000000006,0.7278954999999999,0.0745055,-0.148099,0.5033255,0.06460550000000001,-0.24316900000000002,0.7588054999999999,0.0444865,0.143561,0.48987549999999996,0.0691805,0.232901,0.7404854999999999,0.05484750000000001,-0.271509,0.9793655,0.029636500000000003,0.254701,0.9656655,0.025019500000000004,-0.07308,0.0020565000000000028,0.0008135000000000017,0.07308,-0.0020565000000000028,-0.0008134999999999983,-0.126509,-0.40370449999999997,-0.0073114999999999986,0.10531099999999999,-0.4402045,0.015440500000000003,-0.131309,-0.7636845,0.0014875000000000027,0.108541,-0.7892945,0.0008895000000000014
38,-0.002623500000000005,0.7276085,0.074408,-0.14807450000000003,0.5033885,0.0655,-0.2434645,0.7621085000000001,0.048608,0.14378549999999998,0.48926849999999994,0.06948499999999999,0.23275549999999998,0.7402385,0.058259,-0.2712645,0.9801585000000002,0.037166,0.2543255,0.9666585000000001,0.032542999999999996,-0.07302449999999999,0.0021105000000000013,0.0009139999999999981,0.07302449999999999,-0.0021104999999999943,-0.0009140000000000016,-0.12658450000000002,-0.4042615,-0.006935000000000004,0.10515549999999999,-0.4403515,0.015778,-0.1317645,-0.7653915,0.001677999999999999,0.10773549999999998,-0.7901014999999999,0.0010859999999999967
39,-0.0024920000000000038,0.727259,0.0744345,-0.148072,0.5037090000000001,0.0663135,-0.243612,0.7648090000000001,0.052083500000000005,0.144228,0.48891899999999994,0.06973850000000001,0.232628,0.740139,0.0614195,-0.271552,0.980909,0.0431035,0.254008,0.967509,0.0390705,-0.072978,0.002114999999999999,0.0011005000000000008,0.072978,-0.002114999999999999,-0.0011005000000000008,-0.126702,-0.404411,-0.006604499999999999,0.10500799999999999,-0.440361,0.0160915,-0.132172,-0.766521,0.0017935,0.107358,-0.7904509999999999,0.0012124999999999983
40,-0.002511999999999995,0.7271544999999999,0.074359,-0.14809399999999998,0.5039745,0.066834,-0.244144,0.7661844999999999,0.054319,0.14466600000000002,0.48857449999999997,0.070029,0.232516,0.7400844999999999,0.063601,-0.271764,0.9814645000000001,0.047003,0.253736,0.9688644999999999,0.044016,-0.07292799999999999,0.0021265000000000034,0.0012010000000000007,0.07292799999999999,-0.0021264999999999964,-0.0012010000000000007,-0.126694,-0.4045355,-0.006224999999999998,0.104996,-0.4403255,0.016391,-0.13239399999999998,-0.7662255,0.0023630000000000005,0.107326,-0.7907955,0.0017399999999999985
41,-0.002526999999999998,0.7270530000000001,0.074291,-0.14810399999999999,0.5042530000000001,0.06728100000000001,-0.244704,0.767203,0.055481,0.144796,0.48822299999999996,0.070244,0.23283600000000002,0.741793,0.06454,-0.271774,0.982013,0.047356,0.253876,0.9689129999999999,0.045123,-0.072884,0.002144,0.0013000000000000025,0.072884,-0.002144,-0.001299999999999999,-0.126704,-0.404717,-0.0058999999999999955,0.104996,-0.440297,0.016642000000000004,-0.132814,-0.766787,0.002428000000000003,0.10706600000000001,-0.7911469999999999,0.002087000000000002
42,-0.002514499999999995,0.727085,0.07423350000000001,-0.14833049999999998,0.504685,0.0676185,-0.2453505,0.767475,0.0557405,0.1448695,0.48806499999999997,0.07046849999999999,0.2333395,0.743905,0.0651435,-0.2717505,0.982455,0.0476145,0.2543495,0.9690550000000001,0.0458215,-0.07285849999999999,0.002145000000000001,0.001393499999999999,0.07285849999999999,-0.002145000000000001,-0.0013935000000000024,-0.1266805,-0.40473499999999996,-0.005695499999999999,0.10501950000000002,-0.44031499999999996,0.016774499999999998,-0.13310049999999998,-0.767165,0.0024554999999999993,0.10678950000000001,-0.791115,0.0024234999999999986
43,-0.002510499999999997,0.7270960000000001,0.0737975,-0.1485705,0.5051760000000001,0.0680325,-0.2463605,0.767036,0.0559675,0.1449895,0.48799599999999993,0.07047049999999999,0.2339795,0.745556,0.06550349999999999,-0.2724805,0.981366,0.0478575,0.2552695,0.968566,0.0461565,-0.0728435,0.002125999999999996,0.0014704999999999996,0.0728435,-0.002126000000000003,-0.0014704999999999996,-0.1266305,-0.405024,-0.0054885,0.1051395,-0.44059400000000004,0.016899499999999998,-0.1331105,-0.768834,0.002413499999999999,0.1067495,-0.791484,0.002526500000000001
44,-0.002476,0.727571,0.07310449999999999,-0.148785,0.505621,0.0683385,-0.247675,0.766431,0.056029499999999996,0.145175,0.488221,0.0703535,0.235065,0.747081,0.0656995,-0.274235,0.9801709999999999,0.046920500000000004,0.256715,0.9679709999999999,0.0463745,-0.072829,0.002114999999999999,0.0015284999999999986,0.072829,-0.002114999999999999,-0.001528500000000002,-0.126585,-0.405229,-0.005448500000000002,0.105275,-0.441009,0.0168835,-0.133095,-0.770139,0.0022384999999999974,0.106745,-0.791779,0.002510499999999999
45,-0.002674000000000006,0.7279884999999999,0.0722115,-0.14918,0.5060485,0.0684595,-0.24938000000000002,0.7658784999999999,0.0559335,0.14537999999999998,0.48833850000000006,0.0701795,0.23609999999999998,0.7477685,0.0657585,-0.27607,0.9788784999999999,0.045468499999999995,0.25835,0.9670785000000001,0.0464665,-0.072831,0.0021154999999999993,0.0015284999999999986,0.072831,-0.0021154999999999993,-0.0015284999999999986,-0.12635000000000002,-0.40590149999999997,-0.005535499999999999,0.10561999999999999,-0.4414615,0.0166865,-0.13306,-0.7717215000000001,0.002089500000000001,0.10688,-0.7921215,0.0024764999999999995
46,-0.002782000000000006,0.728507,0.071267,-0.149653,0.506447,0.06854,-0.250933,0.765257,0.055278,0.14557699999999998,0.488607,0.070051,0.237157,0.747787,0.065818,-0.277803,0.9776969999999999,0.043015,0.260207,0.9662970000000001,0.046446,-0.072838,0.002142000000000005,0.0015280000000000016,0.072838,-0.002141999999999998,-0.0015279999999999981,-0.126113,-0.406983,-0.005622999999999996,0.10596699999999999,-0.441863,0.016453000000000002,-0.13284300000000002,-0.772873,0.0020100000000000014,0.107067,-0.792553,0.0020820000000000005
47,-0.0028470000000000006,0.729142,0.070277,-0.150091,0.507032,0.068608,-0.25233099999999997,0.764942,0.054099,0.14577900000000002,0.489012,0.06994500000000001,0.238239,0.747582,0.065485,-0.279431,0.976312,0.039844000000000004,0.262229,0.965512,0.045767,-0.07285,0.0021919999999999995,0.0015280000000000016,0.07285,-0.0021919999999999995,-0.0015279999999999981,-0.125821,-0.408068,-0.005752,0.106319,-0.442588,0.016157,-0.132631,-0.774298,0.001908,0.10735900000000001,-0.7931779999999999,0.0016989999999999991
48,-0.002868500000000005,0.7299545,0.0690395,-0.1505015,0.5077845,0.0684905,-0.2536815,0.7647145,0.051991499999999996,0.1459285,0.48961449999999995,0.0696935,0.23939850000000001,0.7480245,0.0646355,-0.2810015,0.9748945,0.0354055,0.2644185,0.9646945,0.0438205,-0.07284650000000001,0.0022065,0.001452499999999999,0.07284650000000001,-0.0022065,-0.001452499999999999,-0.1254715,-0.4090855,-0.006197499999999998,0.10670849999999998,-0.4433055,0.0154505,-0.1325315,-0.7763255,0.0014624999999999985,0.1073285,-0.7936155,0.0015475000000000003
49,-0.002868500000000002,0.7309715,0.067047,-0.15092250000000001,0.5087515,0.067799,-0.2550125,0.7640615,0.048492,0.1460675,0.49050150000000003,0.068914,0.2406075,0.7485315,0.06290899999999999,-0.2826125,0.9734415000000001,0.029236,0.2666775,0.9639415,0.040603,-0.07284850000000001,0.002174499999999996,0.0013240000000000023,0.07284850000000001,-0.002174500000000003,-0.0013239999999999988,-0.12511250000000002,-0.4099585,-0.007488999999999996,0.1071175,-0.44395850000000003,0.013656000000000001,-0.1325325,-0.7771485,0.0004180000000000017,0.1073375,-0.7940485,0.0008520000000000021
50,-0.002788500000000001,0.7321234999999999,0.0646515,-0.1512915,0.5100735000000001,0.0666085,-0.2560915,0.7638134999999999,0.0443855,0.14622849999999998,0.49174350000000006,0.0678475,0.2416485,0.7483335,0.060755500000000004,-0.2840915,0.9724435,0.022402500000000002,0.2686885,0.9637435000000001,0.036624500000000004,-0.07285050000000001,0.002074500000000007,0.001123500000000003,0.07285050000000001,-0.002074499999999993,-0.0011234999999999995,-0.12477150000000001,-0.4105465,-0.009237499999999996,0.1076385,-0.44422649999999997,0.011135500000000003,-0.1325115,-0.7773464999999999,-0.0007984999999999971,0.1076685,-0.7941164999999999,-0.00021049999999999888
51,-0.0027025,0.7329334999999999,0.0618445,-0.1515805,0.5113335000000001,0.0650905,-0.2569805,0.7637535,0.0396245,0.1463995,0.4930535,0.0664685,0.2429695,0.7483335,0.057846499999999995,-0.28548049999999997,0.9715435000000001,0.014812500000000001,0.27086950000000004,0.9635435000000001,0.0317645,-0.0728915,0.002074500000000007,0.0008785000000000008,0.0728915,-0.002074499999999993,-0.0008785000000000008,-0.1243805,-0.4112665,-0.011512499999999998,0.1082495,-0.4443265,0.007900500000000001,-0.1325005,-0.7773464999999999,-0.002322499999999998,0.10786950000000001,-0.7941164999999999,-0.0019004999999999994
52,-0.0026195000000000007,0.7329334999999999,0.058980000000000005,-0.15171050000000003,0.5113335000000001,0.063224,-0.2567805,0.7634434999999999,0.034669,0.1465995,0.4930535,0.064728,0.2441795,0.7483335,0.054862999999999995,-0.2862905,0.9696435000000001,0.007096999999999999,0.2730795,0.9631435000000002,0.026576,-0.0729335,0.002074500000000007,0.0006630000000000004,0.0729335,-0.002074499999999993,-0.0006630000000000004,-0.1242905,-0.4125965,-0.014527000000000002,0.10865949999999999,-0.4447865,0.0036489999999999995,-0.1325905,-0.7773965,-0.004767,0.1080695,-0.7941164999999999,-0.004334000000000001
53,-0.002491000000000004,0.7329334999999999,0.055557499999999996,-0.151795,0.5113335000000001,0.061025499999999996,-0.25653499999999996,0.7630135,0.028946499999999997,0.146815,0.4930535,0.0625465,0.24540499999999998,0.7482035,0.0510345,-0.28674499999999997,0.9677435000000001,-0.0013255000000000038,0.27531500000000003,0.9629435,0.020356499999999996,-0.072985,0.002074500000000007,0.0005534999999999984,0.072985,-0.002074499999999993,-0.0005535000000000019,-0.12415500000000002,-0.4141365,-0.018307500000000004,0.109185,-0.4454165,-0.0014395000000000033,-0.132725,-0.7775665,-0.007623500000000002,0.108175,-0.7941164999999999,-0.0074795000000000035
54,-0.0023354999999999973,0.733019,0.051948,-0.15174349999999998,0.5114190000000001,0.058448,-0.2562735,0.762219,0.022577000000000003,0.1470665,0.493139,0.059864,0.24656650000000002,0.747339,0.046793,-0.28734350000000003,0.9657290000000001,-0.010621999999999996,0.27737649999999997,0.962529,0.013592000000000003,-0.0730335,0.002007999999999996,0.0004080000000000021,0.0730335,-0.002008000000000003,-0.00040799999999999864,-0.12399349999999999,-0.41515100000000005,-0.022988999999999996,0.1098465,-0.445041,-0.007045999999999997,-0.13293349999999998,-0.778471,-0.011224999999999999,0.1082665,-0.794351,-0.010797999999999999
55,-0.001806999999999998,0.7335290000000001,0.048004500000000005,-0.151668,0.5128790000000001,0.055697500000000004,-0.256118,0.758189,0.015732500000000003,0.147532,0.49452900000000005,0.0571375,0.247642,0.746489,0.0422785,-0.28782800000000003,0.963659,-0.020678499999999995,0.279302,0.962159,0.006148500000000001,-0.073106,0.0019470000000000043,0.0002695000000000024,0.073106,-0.0019470000000000043,-0.0002694999999999989,-0.123808,-0.416431,-0.0286075,0.110822,-0.444731,-0.0133665,-0.133238,-0.7791110000000001,-0.015612500000000001,0.108342,-0.7941609999999999,-0.015464499999999999
56,-0.001145499999999997,0.7327100000000001,0.0436725,-0.15160449999999998,0.51431,0.0527305,-0.2558545,0.7541500000000001,0.008852500000000001,0.14806550000000002,0.49543,0.054254500000000004,0.24865550000000003,0.7446900000000001,0.037601499999999996,-0.28826450000000003,0.9612800000000001,-0.0312905,0.2811655,0.9613800000000001,-0.0013644999999999977,-0.0731745,0.001908,6.850000000000085e-05,0.0731745,-0.001908,-6.849999999999912e-05,-0.1239045,-0.4167,-0.0357015,0.11218550000000001,-0.44356,-0.0207375,-0.1330845,-0.77889,-0.018515499999999997,0.1084455,-0.79323,-0.020463500000000003
57,-0.0004454999999999982,0.730512,0.037684999999999996,-0.15158549999999998,0.5132720000000001,0.047249,-0.2557255,0.7488520000000001,-0.001507999999999999,0.14781450000000002,0.49584199999999995,0.050460000000000005,0.2500745,0.742542,0.029838,-0.28856550000000003,0.960402,-0.04754799999999999,0.28308449999999996,0.9612020000000001,-0.013340000000000001,-0.0734045,0.0016590000000000008,-0.00022099999999999898,0.0734045,-0.0016589999999999938,0.0002210000000000007,-0.1258955,-0.411638,-0.04871399999999999,0.1152645,-0.43691800000000003,-0.033823000000000006,-0.13409549999999998,-0.773878,-0.024844,0.10831450000000001,-0.787018,-0.026586000000000002
58,-2.949999999999947e-05,0.7278445,0.031562,-0.15158449999999998,0.5123445,0.041809,-0.25568450000000004,0.7439644999999999,-0.012127999999999998,0.14748550000000002,0.49584449999999997,0.046575000000000005,0.25153549999999997,0.7405345000000001,0.021621,-0.2888445,0.9601744999999999,-0.06377400000000001,0.28500549999999997,0.9584744999999999,-0.025885,-0.07363349999999999,0.0013654999999999987,-0.0005540000000000007,0.07363349999999999,-0.0013655000000000056,0.0005539999999999998,-0.1285945,-0.4032055,-0.06173,0.1187955,-0.4280055,-0.047908,-0.1352045,-0.7642355000000001,-0.032028,0.1080055,-0.7780655000000001,-0.03201
59,0.0002584999999999983,0.724285,0.0251945,-0.15162250000000002,0.511105,0.0361085,-0.2559425,0.738705,-0.022880499999999998,0.1470775,0.495575,0.0425815,0.2529675,0.738465,0.0128995,-0.28926250000000003,0.960125,-0.0802385,0.2867675,0.956305,-0.0379955,-0.0738895,0.0009660000000000016,-0.0008415000000000002,0.0738895,-0.0009659999999999981,0.0008414999999999994,-0.13183250000000002,-0.393115,-0.07455250000000001,0.1222975,-0.417445,-0.0619665,-0.1368325,-0.753485,-0.038968499999999996,0.10770750000000001,-0.766955,-0.0369515
60,0.000544000000000002,0.7207325,0.018129,-0.151536,0.5093325,0.029482,-0.255806,0.7330425,-0.034541,0.146754,0.4944125,0.037284,0.25430400000000003,0.7362124999999999,0.0031060000000000003,-0.28948599999999997,0.9569624999999999,-0.097941,0.288734,0.9523824999999999,-0.051832,-0.074088,0.0005835000000000007,-0.001134,0.074088,-0.000583499999999999,0.001134,-0.135986,-0.3806275,-0.087902,0.12624400000000002,-0.4036175,-0.077099,-0.14013599999999998,-0.7384774999999999,-0.045142,0.107414,-0.7523875,-0.041617
61,0.0007999999999999982,0.7162004999999999,0.0109425,-0.151575,0.5064504999999999,0.0227425,-0.25489500000000004,0.7275505,-0.046358500000000004,0.146405,0.4933305,0.0320795,0.25547499999999995,0.7334004999999999,-0.007213499999999999,-0.28963500000000003,0.9549504999999999,-0.11509549999999999,0.290695,0.9473204999999999,-0.0657345,-0.074439,0.00029350000000000003,-0.0016064999999999999,0.074439,-0.00029350000000000003,0.0016065,-0.140765,-0.3675595,-0.1012855,0.130355,-0.3887195,-0.0919035,-0.143375,-0.7233495000000001,-0.051035500000000004,0.107185,-0.7364295000000001,-0.045367500000000005
62,0.0011780000000000002,0.7116895,0.00295,-0.15137499999999998,0.5034095,0.014813999999999999,-0.253585,0.7221495,-0.059104,0.146335,0.4918195,0.025627,0.256645,0.7307895,-0.018698,-0.289425,0.9500095,-0.13299999999999998,0.292605,0.9433794999999999,-0.080198,-0.074666,-0.0001815000000000011,-0.001823,0.074666,0.0001815000000000011,0.001823,-0.146115,-0.35374049999999996,-0.11629,0.134915,-0.37257049999999997,-0.10772000000000001,-0.14620499999999997,-0.7072205,-0.056983,0.107545,-0.7192505,-0.050394999999999995
63,0.001689999999999998,0.7080249999999999,-0.006255500000000001,-0.150457,0.5014350000000001,0.007178499999999999,-0.252357,0.714785,-0.0725195,0.146413,0.490615,0.0190455,0.25771299999999997,0.7284250000000001,-0.0308435,-0.288997,0.945085,-0.15052149999999997,0.29401299999999997,0.9398150000000001,-0.0955005,-0.07466500000000001,-0.0005319999999999978,-0.0019804999999999996,0.07466500000000001,0.0005320000000000047,0.0019805,-0.151647,-0.339555,-0.1313415,0.139973,-0.355945,-0.1243215,-0.14724700000000002,-0.690175,-0.0627935,0.10781299999999999,-0.700915,-0.0553805
64,0.0022120000000000056,0.7037385,-0.015332499999999999,-0.149339,0.4969585,-0.0022205000000000003,-0.25148899999999996,0.7095685,-0.0859325,0.146251,0.4881185,0.010968499999999999,0.259231,0.7251885,-0.0440585,-0.28866899999999995,0.9418985,-0.16855450000000002,0.29500099999999996,0.9335785,-0.1117445,-0.074669,-0.0010314999999999977,-0.0021035,0.074669,0.0010314999999999977,0.0021035000000000003,-0.15803899999999999,-0.3228015,-0.1472445,0.145091,-0.3364515,-0.1419245,-0.148219,-0.6709115,-0.0684495,0.108091,-0.6797615,-0.0600335
65,0.003183499999999999,0.7019175,-0.027681499999999998,-0.14790150000000002,0.4949275,-0.014665500000000001,-0.2502715,0.7068975,-0.1025245,0.1464085,0.4880875,-0.0003005000000000004,0.2605985,0.7230475,-0.060687500000000005,-0.2878715,0.9408475,-0.1899395,0.2963685,0.9284775,-0.1310295,-0.07485449999999999,-0.0012355000000000005,-0.0026305,0.07485449999999999,0.0012355000000000005,0.002630499999999999,-0.1637515,-0.3038725,-0.1655795,0.1505485,-0.3146425,-0.1618895,-0.1483915,-0.6487125,-0.0771415,0.1087485,-0.6555925,-0.0673795
66,0.004274000000000001,0.70249,-0.041482000000000005,-0.14667000000000002,0.49341999999999997,-0.026723,-0.24846000000000001,0.70489,-0.117934,0.1466,0.48878,-0.012085,0.26187,0.71972,-0.077037,-0.28718,0.93567,-0.207654,0.29774,0.9264399999999999,-0.149254,-0.075194,-0.0015399999999999997,-0.0027670000000000004,0.075194,0.0015399999999999997,0.0027670000000000004,-0.16948000000000002,-0.28661000000000003,-0.184674,0.15531,-0.29382,-0.182614,-0.14782,-0.62714,-0.08428,0.1093,-0.63202,-0.074302
67,0.0056645,0.703065,-0.055212,-0.1450505,0.491985,-0.039995,-0.2473105,0.704805,-0.133411,0.1469495,0.48841500000000004,-0.025197999999999998,0.2636695,0.720265,-0.09356400000000001,-0.2860005,0.933125,-0.225381,0.2996795,0.9289850000000001,-0.168181,-0.0756385,-0.0014849999999999863,-0.0030159999999999996,0.0756385,0.001485000000000014,0.0030160000000000013,-0.1741405,-0.268015,-0.204911,0.1604595,-0.271275,-0.202831,-0.1470805,-0.6034849999999999,-0.090385,0.1100995,-0.606285,-0.08116399999999999
68,0.006986499999999998,0.703295,-0.06840450000000001,-0.1433345,0.490145,-0.0529085,-0.24608449999999998,0.701355,-0.14916849999999998,0.14709550000000002,0.488305,-0.0381875,0.2656155,0.7180850000000001,-0.11053550000000001,-0.2845145,0.926205,-0.2436785,0.3013255,0.928615,-0.1883485,-0.0760325,-0.0014949999999999963,-0.0032955,0.0760325,0.0014949999999999963,0.0032955000000000033,-0.1784045,-0.24939500000000003,-0.2246685,0.16560550000000002,-0.248755,-0.22243849999999998,-0.14614449999999998,-0.5791649999999999,-0.0963955,0.11153550000000001,-0.5795349999999999,-0.08702950000000001
69,0.008321499999999999,0.70494,-0.082033,-0.1418395,0.48826,-0.065101,-0.2445195,0.69579,-0.16304200000000002,0.1475905,0.48802999999999996,-0.050322000000000006,0.26717050000000003,0.71663,-0.126512,-0.2826595,0.92345,-0.260552,0.3026105,0.93072,-0.207322,-0.0763165,-0.0015300000000000036,-0.003588000000000001,0.0763165,0.0015300000000000036,0.003588000000000001,-0.18182949999999998,-0.23077,-0.24372200000000002,0.17103049999999997,-0.22807000000000002,-0.240622,-0.1445595,-0.55577,-0.10181899999999999,0.1131805,-0.55367,-0.09178399999999999
70,0.009031999999999998,0.70312,-0.09569,-0.14018,0.48653,-0.078096,-0.2426,0.69221,-0.17955200000000002,0.14764,0.48627,-0.063665,0.26861,0.7150599999999999,-0.14472200000000002,-0.28049999999999997,0.91599,-0.279692,0.30328,0.93231,-0.22915200000000002,-0.076539,-0.0015600000000000058,-0.003769999999999999,0.076539,0.0015600000000000058,0.003769999999999999,-0.18448,-0.20909000000000003,-0.262842,0.17727,-0.20391,-0.258302,-0.1427,-0.52862,-0.107838,0.11472,-0.5246500000000001,-0.096242
71,0.009911500000000004,0.70089,-0.11059,-0.13818249999999999,0.48426,-0.09215799999999999,-0.24042249999999998,0.68743,-0.19744599999999998,0.1477575,0.48485,-0.07769799999999999,0.2694675,0.7106699999999999,-0.164656,-0.2781325,0.90991,-0.301626,0.3038475,0.93105,-0.25430600000000003,-0.0766555,-0.00138000000000002,-0.004255999999999996,0.0766555,0.0013799999999999923,0.004256000000000003,-0.18719249999999998,-0.18424000000000001,-0.281316,0.1845175,-0.17686000000000002,-0.27545600000000003,-0.1406625,-0.50075,-0.11464999999999999,0.1172975,-0.49153,-0.101155
72,0.010729000000000002,0.69702,-0.12417,-0.136166,0.48057,-0.10647999999999999,-0.23852600000000002,0.68378,-0.21504,0.14795400000000003,0.48336,-0.09162999999999999,0.270364,0.70722,-0.18371,-0.275586,0.90402,-0.32498,0.30380399999999996,0.9275,-0.27948,-0.076725,-0.0014100000000000223,-0.004629000000000001,0.076725,0.0014100000000000223,0.004629000000000001,-0.189786,-0.15787,-0.29874,0.191874,-0.14904,-0.29104,-0.13802599999999998,-0.47127,-0.1207,0.119894,-0.45761999999999997,-0.10583100000000001
73,0.011590999999999997,0.69505,-0.1383105,-0.134358,0.47831,-0.1193165,-0.23657799999999998,0.68204,-0.23311150000000003,0.14794200000000002,0.48222,-0.10451750000000001,0.27116199999999996,0.70392,-0.2021615,-0.272778,0.8969499999999999,-0.34830150000000004,0.30375199999999997,0.9275800000000001,-0.3039215,-0.076799,-0.0013199999999999878,-0.0049525000000000055,0.076799,0.0013199999999999878,0.004952499999999999,-0.191668,-0.13161,-0.3149115,0.199412,-0.12151,-0.30489150000000004,-0.135288,-0.44283999999999996,-0.1263255,0.12268199999999999,-0.42489000000000005,-0.1099485
74,0.011927499999999997,0.69025,-0.1477655,-0.1334035,0.47375,-0.1280385,-0.23533350000000003,0.67733,-0.2476355,0.1472965,0.4786,-0.1130585,0.2713565,0.69983,-0.2157755,-0.2703935,0.8881600000000001,-0.3674155,0.3028565,0.92552,-0.3247255,-0.0767775,-0.0015099999999999558,-0.005406500000000002,0.0767775,0.0015100000000000113,0.005406500000000002,-0.1942435,-0.10707,-0.3260455,0.2064265,-0.09617999999999999,-0.3140355,-0.1328935,-0.41515,-0.1277505,0.1241965,-0.39591,-0.1113365
75,0.012070499999999998,0.6866099999999999,-0.155372,-0.1332455,0.47064,-0.136482,-0.2353155,0.67415,-0.262582,0.1460345,0.47508,-0.121565,0.2702545,0.69634,-0.226952,-0.2682655,0.88201,-0.385452,0.3013345,0.92058,-0.342992,-0.0770795,-0.0015000000000000013,-0.005662,0.0770795,0.0015000000000000013,0.005661999999999993,-0.1954955,-0.08023999999999998,-0.331222,0.2125545,-0.06930000000000003,-0.31692200000000004,-0.1306355,-0.38816999999999996,-0.13322699999999998,0.1259245,-0.36569,-0.112523
76,0.010926499999999999,0.6801349999999999,-0.16217,-0.13363350000000002,0.466896,-0.143178,-0.23617349999999998,0.665505,-0.27601,0.14442649999999999,0.47274099999999997,-0.127974,0.2689065,0.689315,-0.23685,-0.2671135,0.867645,-0.40174,0.2993465,0.9120950000000001,-0.35853999999999997,-0.0773505,-0.0018549999999999955,-0.005742000000000004,0.0773505,0.0018549999999999955,0.005741999999999997,-0.1973235,-0.056584999999999996,-0.33426,0.2183265,-0.05319499999999999,-0.31803000000000003,-0.12894350000000002,-0.36505499999999996,-0.138605,0.1272965,-0.339385,-0.113248
77,0.010506000000000005,0.6759850000000001,-0.168461,-0.133313,0.464857,-0.149371,-0.235913,0.662435,-0.287711,0.143827,0.471435,-0.13364700000000002,0.268017,0.6843250000000001,-0.24489100000000003,-0.265033,0.859395,-0.415971,0.298417,0.9071750000000001,-0.372061,-0.078033,-0.002904999999999991,-0.006093000000000001,0.078033,0.002904999999999991,0.006093000000000001,-0.199153,-0.03783500000000001,-0.339281,0.225387,-0.034165,-0.318391,-0.12622299999999997,-0.34604499999999994,-0.14324,0.129027,-0.31594500000000003,-0.116115
78,0.009918500000000004,0.669635,-0.172813,-0.1334115,0.46299999999999997,-0.15487299999999998,-0.2356915,0.660315,-0.29945299999999997,0.1434985,0.4708,-0.138235,0.2675185,0.6792549999999999,-0.251913,-0.2632215,0.849915,-0.42950299999999997,0.2980985,0.9017649999999999,-0.384003,-0.0786415,-0.0037650000000000183,-0.006814000000000001,0.0786415,0.003764999999999963,0.006813999999999994,-0.2002415,-0.02023500000000006,-0.34363299999999997,0.2320085,-0.01847500000000002,-0.317843,-0.12477150000000001,-0.328315,-0.14780300000000002,0.1307085,-0.29486500000000004,-0.11365
79,0.009936,0.667755,-0.176709,-0.133474,0.461989,-0.15919899999999998,-0.23572400000000002,0.655365,-0.307759,0.143556,0.47129599999999994,-0.141486,0.267466,0.6765749999999999,-0.255739,-0.262064,0.844305,-0.440639,0.298216,0.8968449999999999,-0.392139,-0.079134,-0.004715000000000025,-0.007564999999999995,0.079134,0.004714999999999969,0.007565000000000002,-0.201384,-0.006575000000000053,-0.347219,0.237896,-0.007205000000000017,-0.317069,-0.123414,-0.3150550000000001,-0.152309,0.134196,-0.27917500000000006,-0.117545
80,0.009686999999999998,0.666605,-0.17944100000000002,-0.133823,0.46136299999999997,-0.162041,-0.23631299999999997,0.651675,-0.314161,0.143527,0.471624,-0.14377099999999998,0.267937,0.676855,-0.257321,-0.26206300000000005,0.8404849999999999,-0.449851,0.29849699999999996,0.8929849999999999,-0.396561,-0.07961299999999999,-0.005645000000000011,-0.008350000000000003,0.07961299999999999,0.005644999999999956,0.008350000000000003,-0.200323,0.009814999999999963,-0.349331,0.242587,0.0066549999999999665,-0.316291,-0.122363,-0.300485,-0.15685100000000002,0.136357,-0.26859500000000003,-0.121606
81,0.009194000000000004,0.667365,-0.18128750000000002,-0.134054,0.460933,-0.1639475,-0.23715399999999998,0.649525,-0.3182775,0.143376,0.47155199999999997,-0.1452175,0.268506,0.678045,-0.2585075,-0.26323399999999997,0.8377749999999999,-0.4561575,0.299206,0.893195,-0.3986775,-0.080034,-0.006525000000000003,-0.009431500000000002,0.080034,0.006525000000000003,0.009431500000000002,-0.199164,0.023544999999999983,-0.3512075,0.24674600000000002,0.01847500000000002,-0.3151975,-0.122264,-0.28891500000000003,-0.1611175,0.138976,-0.25658499999999995,-0.12217349999999999
82,0.008633000000000002,0.668,-0.1814955,-0.134548,0.463336,-0.1642755,-0.238738,0.64767,-0.32010550000000004,0.143412,0.47353,-0.1453955,0.269132,0.68018,-0.2591755,-0.265358,0.83662,-0.4591155,0.299852,0.89407,-0.3989055,-0.080258,-0.007329999999999948,-0.010512499999999998,0.080258,0.007330000000000059,0.010512500000000001,-0.198128,0.03306999999999999,-0.35256550000000003,0.25014200000000003,0.026009999999999978,-0.3134055,-0.122638,-0.28125999999999995,-0.1645455,0.141332,-0.24855000000000005,-0.1218475
83,0.008070000000000004,0.671255,-0.180188,-0.134938,0.46662000000000003,-0.163078,-0.239498,0.6485650000000001,-0.318498,0.143482,0.477088,-0.144278,0.269662,0.683555,-0.25813800000000003,-0.267798,0.837915,-0.458548,0.300572,0.898105,-0.396898,-0.080258,-0.008114999999999983,-0.011327,0.080258,0.008114999999999983,0.011326999999999997,-0.196768,0.03889500000000001,-0.353608,0.25286200000000003,0.029135000000000022,-0.310958,-0.122348,-0.277145,-0.163568,0.14219199999999999,-0.24310500000000002,-0.116983
84,0.007430000000000003,0.671255,-0.178564,-0.13478199999999999,0.46662000000000003,-0.161414,-0.23965199999999998,0.6485650000000001,-0.316854,0.143978,0.477088,-0.142594,0.270408,0.683555,-0.25719400000000003,-0.270352,0.837915,-0.457034,0.301278,0.898105,-0.395204,-0.079882,-0.008114999999999983,-0.012039999999999999,0.07988200000000001,0.008114999999999983,0.012040000000000002,-0.195912,0.04096500000000003,-0.35460400000000003,0.254768,0.028105000000000047,-0.309064,-0.121642,-0.277145,-0.161934,0.141688,-0.24687499999999996,-0.117762
85,0.007763500000000003,0.671255,-0.178265,-0.13444849999999997,0.46662000000000003,-0.161115,-0.2393185,0.6485650000000001,-0.31655500000000003,0.1443115,0.477088,-0.142295,0.2707415,0.683555,-0.256895,-0.27166850000000003,0.837915,-0.45682500000000004,0.3016115,0.898105,-0.39490499999999995,-0.0795385,-0.008114999999999983,-0.011895,0.07953850000000001,0.008114999999999983,0.011895000000000003,-0.1955285,0.04168500000000003,-0.355125,0.2550915,0.028105000000000047,-0.30849499999999996,-0.12129849999999999,-0.277145,-0.161835,0.1428915,-0.24687499999999996,-0.116592
86,0.007752000000000005,0.671255,-0.178105,-0.13445999999999997,0.46662000000000003,-0.16095500000000001,-0.23933,0.6485650000000001,-0.316395,0.1443,0.477088,-0.142135,0.27071,0.683555,-0.256315,-0.27267,0.837915,-0.45672500000000005,0.30154,0.898105,-0.39375499999999997,-0.07954,-0.008114999999999983,-0.011827000000000004,0.07954,0.008114999999999983,0.011826999999999997,-0.19540000000000002,0.04359500000000005,-0.354955,0.25505,0.028105000000000047,-0.307875,-0.12130999999999999,-0.277145,-0.161675,0.14285,-0.2472749999999999,-0.118395
87,0.007642000000000003,0.673705,-0.1761045,-0.13452,0.471211,-0.15982449999999998,-0.23944999999999997,0.649335,-0.3129945,0.14426,0.481344,-0.1413645,0.27158,0.690835,-0.2553145,-0.27284,0.841185,-0.45361450000000003,0.30230999999999997,0.903985,-0.3908245,-0.07955000000000001,-0.008774999999999977,-0.011707499999999996,0.07955000000000001,0.008774999999999977,0.011707500000000003,-0.19447,0.04183500000000001,-0.3546745,0.25503,0.024944999999999995,-0.3074945,-0.12067,-0.27815500000000004,-0.15782449999999998,0.14283,-0.250675,-0.1199225
88,0.006957500000000002,0.6777599999999999,-0.17319449999999997,-0.1351075,0.47480399999999995,-0.1567545,-0.2399975,0.6535799999999999,-0.3073245,0.1438625,0.48373999999999995,-0.1390745,0.2719325,0.6944199999999999,-0.2524245,-0.2737475,0.8473499999999999,-0.4481745,0.3027925,0.9093899999999999,-0.3855645,-0.0789375,-0.008620000000000072,-0.012012499999999995,0.0789375,0.008619999999999961,0.012012500000000002,-0.1918375,0.031859999999999944,-0.3537345,0.25401250000000003,0.02067999999999992,-0.30618449999999997,-0.12013750000000001,-0.2874000000000001,-0.1532945,0.1420225,-0.2620800000000001,-0.1196385
89,0.0051175000000000075,0.67998,-0.168845,-0.1366175,0.476071,-0.152785,-0.2420075,0.6553,-0.300345,0.1425925,0.484488,-0.135905,0.2714125,0.69974,-0.250415,-0.2764275,0.8492500000000001,-0.440135,0.3018225,0.91294,-0.379075,-0.0781375,-0.007900000000000018,-0.011904999999999999,0.0781375,0.007900000000000018,0.011904999999999999,-0.18769750000000002,0.01901999999999998,-0.351485,0.2501225,0.007859999999999978,-0.305255,-0.1206375,-0.30029999999999996,-0.150455,0.1416825,-0.27797999999999995,-0.118105
90,0.003497499999999997,0.68378,-0.1640225,-0.13800849999999998,0.477129,-0.1484125,-0.24351849999999997,0.65828,-0.29190249999999995,0.14142149999999998,0.48488000000000003,-0.1325195,0.2705915,0.7049300000000001,-0.2478125,-0.2791885,0.8559000000000001,-0.43076250000000005,0.3003715,0.91837,-0.3721725,-0.0772885,-0.007319999999999993,-0.0119645,0.0772885,0.007320000000000049,0.011964500000000003,-0.1829285,0.005740000000000023,-0.34825249999999996,0.24599149999999997,-0.005619999999999958,-0.30410250000000005,-0.1210585,-0.31487999999999994,-0.1468825,0.1413415,-0.2948299999999999,-0.1164925
91,0.0020900000000000016,0.688265,-0.1579605,-0.13907999999999998,0.479175,-0.1424005,-0.24484,0.665175,-0.28148049999999997,0.14077,0.48622,-0.1276975,0.26889,0.707635,-0.24232050000000002,-0.28149,0.866475,-0.4188405,0.29855,0.926725,-0.3629805,-0.07657,-0.0065850000000000075,-0.0117715,0.07657,0.0065850000000000075,0.011771499999999997,-0.17737,-0.013004999999999989,-0.3441305,0.24125000000000002,-0.023175,-0.30269050000000003,-0.12147,-0.335605,-0.1424805,0.14184,-0.31768500000000005,-0.1144465
92,0.0011859999999999996,0.693935,-0.147495,-0.13989600000000002,0.48326800000000003,-0.132885,-0.24559599999999998,0.674265,-0.264595,0.140154,0.489281,-0.119679,0.266694,0.714815,-0.229655,-0.282956,0.877175,-0.395785,0.296174,0.934555,-0.34451499999999996,-0.075906,-0.005745,-0.010744,0.075906,0.005745,0.010744000000000004,-0.17158600000000002,-0.045294999999999974,-0.336495,0.235964,-0.05252499999999999,-0.298145,-0.12197600000000001,-0.372005,-0.137085,0.142044,-0.35037499999999994,-0.111496
93,0.0005795000000000002,0.7008099999999999,-0.13613150000000002,-0.1406375,0.48746999999999996,-0.1222925,-0.24599750000000004,0.68404,-0.2470515,0.1396325,0.49274999999999997,-0.1105965,0.2639325,0.71933,-0.2151015,-0.2834875,0.88601,-0.3709015,0.2934625,0.93987,-0.3229915,-0.07525950000000001,-0.0050200000000000244,-0.009662500000000001,0.07525950000000001,0.005019999999999969,0.009662500000000001,-0.1658675,-0.07958000000000004,-0.3276615,0.2305825,-0.08318000000000003,-0.2920915,-0.1224075,-0.40931000000000006,-0.12994150000000002,0.1416325,-0.388,-0.1121795
94,-8.000000000000368e-05,0.70628,-0.1238805,-0.141214,0.48966000000000004,-0.11149250000000001,-0.246834,0.6925600000000001,-0.2289315,0.139246,0.49527000000000004,-0.1004715,0.261056,0.7239500000000001,-0.1976115,-0.284194,0.89648,-0.3444215,0.290406,0.94377,-0.2988515,-0.074662,-0.004239999999999966,-0.008720500000000003,0.074662,0.0042400000000000215,0.008720499999999999,-0.16004400000000002,-0.11453999999999998,-0.31743150000000003,0.224376,-0.11458999999999997,-0.2845415,-0.12293400000000002,-0.44780999999999993,-0.1220585,0.139016,-0.42643,-0.1064385
95,-0.0006375000000000026,0.712195,-0.1113635,-0.1415325,0.49092500000000006,-0.1008435,-0.2477825,0.699245,-0.2107985,0.1389775,0.495335,-0.0905565,0.2585375,0.7282150000000001,-0.1801785,-0.2846625,0.905575,-0.3185885,0.2878275,0.954065,-0.2755185,-0.07410549999999999,-0.003444999999999976,-0.007783499999999999,0.07410549999999999,0.0034450000000000314,0.007783499999999999,-0.1541825,-0.147445,-0.3069185,0.2182075,-0.143955,-0.2769585,-0.12320250000000002,-0.485135,-0.1161525,0.1389075,-0.46231500000000003,-0.1002245
96,-0.0017200000000000028,0.714105,-0.0983035,-0.142991,0.49329500000000004,-0.0894235,-0.24970099999999998,0.7014450000000001,-0.1910625,0.138469,0.496695,-0.0793895,0.255789,0.727225,-0.1614425,-0.28579099999999996,0.9139649999999999,-0.2921025,0.28486900000000004,0.9584250000000001,-0.2515525,-0.073908,-0.002714999999999995,-0.006832499999999998,0.073908,0.002715000000000023,0.006832500000000002,-0.148611,-0.180695,-0.2937125,0.210969,-0.17377499999999996,-0.2668325,-0.12323100000000001,-0.523085,-0.1099805,0.135649,-0.5026249999999999,-0.0926985
97,-0.0028035000000000004,0.719735,-0.0844305,-0.14439149999999998,0.495195,-0.0772355,-0.2516915,0.7099549999999999,-0.17122949999999998,0.1384385,0.500355,-0.0666275,0.2534885,0.731525,-0.14091949999999998,-0.2869915,0.9237150000000001,-0.26485949999999997,0.2823385,0.9623949999999999,-0.2252795,-0.0741575,-0.002604999999999996,-0.0055295,0.0741575,0.002604999999999996,0.005529500000000001,-0.14303149999999998,-0.21219500000000002,-0.2766695,0.20437850000000002,-0.20292500000000002,-0.2515495,-0.1228115,-0.560065,-0.10241650000000001,0.1327585,-0.5428949999999999,-0.08225350000000001
98,-0.0038979999999999987,0.725515,-0.067984,-0.145914,0.49695500000000004,-0.062195,-0.253734,0.717665,-0.14899800000000002,0.13809600000000002,0.503035,-0.051168,0.251386,0.7342150000000001,-0.116628,-0.288514,0.935085,-0.236318,0.280016,0.966305,-0.196308,-0.073885,-0.002134999999999998,-0.003905,0.073885,0.0021350000000000258,0.003905,-0.138904,-0.238495,-0.25485800000000003,0.198516,-0.22825499999999999,-0.230798,-0.122454,-0.592095,-0.091043,0.131016,-0.580955,-0.072266
99,-0.005143499999999995,0.72783,-0.05046200000000001,-0.14756550000000002,0.50162,-0.045048000000000005,-0.2556955,0.72569,-0.12645900000000002,0.1376545,0.50484,-0.034484,0.24906450000000002,0.73822,-0.09140899999999999,-0.2908355,0.94087,-0.207039,0.2778245,0.96643,-0.16628900000000002,-0.0736025,-0.0020600000000000063,-0.0024030000000000006,0.0736025,0.0020599999999999924,0.0024030000000000006,-0.13380550000000002,-0.26927,-0.228359,0.18901450000000003,-0.25829,-0.204079,-0.1218955,-0.62744,-0.075568,0.1288845,-0.61996,-0.057407
100,-0.006593499999999997,0.730377,-0.032415,-0.1494765,0.504767,-0.028287000000000003,-0.2577465,0.731757,-0.10400700000000002,0.1365635,0.505067,-0.01801,0.2473035,0.742697,-0.06747700000000001,-0.2933365,0.945117,-0.176837,0.2756135,0.967217,-0.136597,-0.0733135,-0.0019559999999999994,-0.0022450000000000005,0.0733135,0.0019559999999999994,0.0022450000000000005,-0.1295265,-0.294563,-0.200757,0.17955349999999998,-0.285463,-0.176547,-0.1219165,-0.657103,-0.05924800000000001,0.1262635,-0.6543129999999999,-0.04589
101,-0.008208,0.731243,-0.018942,-0.151137,0.505933,-0.015423,-0.259417,0.734873,-0.087977,0.135803,0.5057429999999999,-0.004858000000000001,0.245813,0.743803,-0.050796999999999995,-0.29529700000000003,0.948913,-0.156407,0.27397299999999997,0.968383,-0.11627699999999999,-0.07277700000000001,-0.001908,-0.0020890000000000006,0.07277700000000001,0.001908,0.0020890000000000006,-0.126217,-0.31388699999999997,-0.176747,0.17077299999999998,-0.307017,-0.152117,-0.121947,-0.6779970000000001,-0.045505000000000004,0.124383,-0.6787270000000001,-0.034647
102,-0.009799499999999997,0.7301475,-0.006009500000000001,-0.1525725,0.5071975,-0.0031524999999999956,-0.2608825,0.7364075,-0.0727575,0.1350375,0.5055975,0.007480500000000001,0.24456750000000002,0.7457575,-0.0351095,-0.29714250000000003,0.9541175,-0.1373375,0.2724675,0.9696975,-0.0987175,-0.0722235,-0.0016524999999999977,-0.0019274999999999987,0.0722235,0.0016525000000000012,0.0019275000000000056,-0.1228525,-0.33204249999999996,-0.15268749999999998,0.16188750000000002,-0.32760249999999996,-0.1276275,-0.12209249999999999,-0.6983125,-0.0326345,0.1226875,-0.7015825,-0.0236325
103,-0.011800499999999995,0.7299895,0.006253500000000002,-0.1542055,0.5077995,0.008401500000000006,-0.2626555,0.7382495,-0.058554499999999995,0.13402450000000002,0.5050895,0.018993500000000003,0.2433245,0.7466495,-0.021330500000000002,-0.2991655,0.9550895,-0.1208245,0.2707845,0.9704795,-0.0836345,-0.0718795,-0.0014755000000000002,-0.001628499999999998,0.0718795,0.0014755000000000002,0.001628500000000005,-0.1200555,-0.3492605,-0.12888449999999999,0.1529845,-0.3473305,-0.1031445,-0.1226855,-0.7173805,-0.0202725,0.12066450000000001,-0.7228305,-0.012928499999999996
104,-0.013807000000000003,0.7282385,0.017511,-0.156005,0.5080085,0.019559,-0.265005,0.7395484999999999,-0.045764,0.132955,0.5053985,0.030331999999999998,0.241805,0.7467985,-0.008500000000000008,-0.30168500000000004,0.9544985,-0.10512400000000001,0.26881499999999997,0.9629085,-0.06924400000000001,-0.071659,-0.0013935000000000006,-0.001359000000000006,0.071659,0.001393499999999999,0.001358999999999999,-0.117605,-0.3663615,-0.10521400000000002,0.143895,-0.3670415,-0.07870400000000001,-0.123515,-0.7361215,-0.007004999999999997,0.116255,-0.7433815,0.0013609999999999942
105,-0.0157015,0.7289304999999999,0.027616500000000002,-0.1577825,0.5063004999999999,0.029671499999999996,-0.26712250000000004,0.7444005,-0.0350765,0.1317475,0.5034004999999999,0.040066500000000005,0.2405775,0.7492205,0.002842499999999998,-0.30400249999999995,0.9525005,-0.09152650000000001,0.26691750000000003,0.9585305,-0.0559365,-0.0715945,-0.0012055000000000017,-0.0010855000000000031,0.0715945,0.0012055000000000017,0.0010855000000000031,-0.1156525,-0.38112949999999995,-0.0835765,0.1355575,-0.38368949999999996,-0.056306499999999995,-0.12481249999999999,-0.7528595,0.0046124999999999985,0.1123875,-0.7603095000000001,0.014207499999999998
106,-0.016828500000000003,0.727308,0.03573250000000001,-0.1592615,0.505708,0.03786950000000001,-0.2687415,0.742598,-0.025818499999999994,0.1308085,0.500988,0.047225500000000004,0.2400785,0.749288,0.010654500000000011,-0.3055415,0.950658,-0.08012749999999999,0.26554849999999997,0.956438,-0.046707499999999985,-0.07174849999999999,-0.0011659999999999934,-0.001176499999999997,0.07174849999999999,0.0011660000000000004,0.0011765000000000109,-0.1152415,-0.390712,-0.0654275,0.12813850000000002,-0.394222,-0.03784749999999999,-0.1263015,-0.763402,0.014114500000000009,0.1089485,-0.770912,0.02458650000000001
107,-0.017440999999999998,0.7261755000000001,0.03948399999999999,-0.160234,0.5063755,0.041836999999999985,-0.26989399999999997,0.7424255000000001,-0.020996000000000015,0.130576,0.5000555,0.05054499999999999,0.240256,0.7499355,0.01388099999999999,-0.30639400000000006,0.9495555,-0.07368100000000002,0.264726,0.9551555,-0.04228100000000001,-0.072226,-0.0012015000000000012,-0.0013260000000000077,0.072226,0.0012015000000000012,0.0013259999999999939,-0.114924,-0.39894450000000004,-0.051831000000000016,0.121296,-0.40320449999999997,-0.02441900000000001,-0.12720399999999998,-0.7723745,0.01886899999999999,0.106166,-0.7801445,0.03008799999999999
108,-0.017426499999999998,0.7276305,0.042126,-0.1605115,0.5045605,0.043697,-0.2704215,0.7420905,-0.017203999999999997,0.1309385,0.5006305,0.052559999999999996,0.2406185,0.7492004999999999,0.015801999999999997,-0.3067215,0.9493805000000001,-0.068579,0.2643085,0.9557805,-0.039168999999999995,-0.0723625,-0.0008504999999999971,-0.0013340000000000019,0.0723625,0.000850500000000004,0.0013340000000000019,-0.1157515,-0.4027095,-0.042769,0.1185285,-0.4092295,-0.016616000000000006,-0.1273715,-0.7774195,0.019615,0.1055485,-0.7866095,0.031421
109,-0.016795499999999998,0.727952,0.04456750000000001,-0.1607235,0.503182,0.0456015,-0.2698935,0.7411420000000001,-0.01346449999999999,0.13160650000000002,0.5018320000000001,0.05468150000000001,0.24095650000000002,0.748652,0.017880500000000007,-0.3064935,0.9473820000000001,-0.0643745,0.2643565,0.954082,-0.036574499999999996,-0.0724435,-0.0006330000000000016,-0.0013384999999999925,0.0724435,0.0006330000000000016,0.0013385000000000064,-0.1163835,-0.407208,-0.033414499999999986,0.1159165,-0.41510800000000003,-0.008428499999999992,-0.1275335,-0.782098,0.02059450000000001,0.1051665,-0.791928,0.032851500000000006
110,-0.016014499999999997,0.7281525,0.047040500000000006,-0.16082349999999998,0.5019125,0.04729850000000001,-0.26929349999999996,0.7405825,-0.009934499999999999,0.13224650000000002,0.5006125,0.056407500000000006,0.2411865,0.7468925000000001,0.019994500000000005,-0.3062435,0.9451824999999999,-0.06011449999999999,0.2645265,0.9529825,-0.0342045,-0.0724435,-0.00038350000000000883,-0.0013384999999999925,0.0724435,0.00038349999999999496,0.0013385000000000064,-0.1169335,-0.4105075,-0.023753499999999997,0.11356650000000001,-0.41974750000000005,0.0001325000000000076,-0.1275635,-0.7853975,0.022609500000000005,0.10493650000000002,-0.7954574999999999,0.03398650000000001
111,-0.0150845,0.7281785000000001,0.04914749999999998,-0.1602505,0.5005285,0.04837049999999998,-0.2688505,0.7402085,-0.006848500000000007,0.1329295,0.49988850000000007,0.057682499999999984,0.2414495,0.7453585,0.021711499999999988,-0.3060105,0.9426884999999999,-0.056312500000000015,0.2647295,0.9522885,-0.03241250000000001,-0.07245650000000001,-0.00019049999999999623,-0.0011035000000000073,0.07245650000000001,0.0001905000000000101,0.0011034999999999934,-0.1178505,-0.41153150000000005,-0.014596500000000012,0.1115195,-0.4231015,0.007847499999999993,-0.1280105,-0.7879915,0.02413549999999999,0.10482949999999999,-0.7980514999999999,0.03455549999999999
112,-0.014129,0.727887,0.050355500000000004,-0.159779,0.500027,0.0489735,-0.26854900000000004,0.740277,-0.004327499999999998,0.133421,0.49940699999999993,0.0581045,0.24179099999999998,0.744397,0.022745500000000002,-0.305889,0.9411869999999999,-0.0531625,0.265011,0.952087,-0.0314325,-0.072477,-1.0999999999997123e-05,-0.0007414999999999922,0.072477,1.0999999999997123e-05,0.000741500000000006,-0.119059,-0.411463,-0.00713649999999999,0.109751,-0.425233,0.014039500000000003,-0.128189,-0.789493,0.025400500000000006,0.104791,-0.799563,0.0346585
113,-0.012835,0.727395,0.051212999999999995,-0.159004,0.499955,0.049810999999999994,-0.267984,0.7405949999999999,-0.0026440000000000075,0.134186,0.49930499999999994,0.058383,0.242556,0.744075,0.023253999999999997,-0.30546399999999996,0.940475,-0.05093700000000001,0.26568600000000003,0.952575,-0.03116300000000001,-0.07258,0.0002289999999999931,-0.00043600000000000583,0.07258,-0.00022900000000000698,0.00043599999999999195,-0.120094,-0.411095,-0.000908000000000006,0.10850599999999999,-0.426765,0.019648,-0.128034,-0.7892349999999999,0.027537,0.10502600000000001,-0.8002750000000001,0.034312999999999996
114,-0.011468999999999998,0.7270684999999999,0.051590500000000004,-0.158268,0.49999849999999996,0.05042050000000001,-0.267408,0.7410285000000001,-0.0014774999999999927,0.135032,0.49931849999999994,0.05845750000000001,0.243512,0.7440484999999999,0.023362500000000008,-0.305008,0.9398484999999999,-0.04930649999999999,0.266562,0.9522484999999998,-0.03140649999999999,-0.072736,0.0004074999999999912,-4.349999999998799e-05,0.072736,-0.0004075000000000051,4.350000000000187e-05,-0.12117800000000001,-0.4102715,0.004334500000000005,0.107462,-0.4279115,0.024457500000000007,-0.127758,-0.7886115,0.028984500000000003,0.105352,-0.8005914999999999,0.0336185
115,-0.0100845,0.7270684999999999,0.051574999999999996,-0.1573545,0.5003584999999999,0.050617999999999996,-0.2666545,0.7412684999999999,-0.0010819999999999996,0.13602550000000002,0.49945849999999997,0.058352,0.24472549999999998,0.7442785000000001,0.023015999999999995,-0.3043945,0.9397484999999999,-0.04949200000000001,0.26774549999999997,0.9522484999999998,-0.03209000000000001,-0.0729305,0.0004074999999999912,0.0004099999999999937,0.0729305,-0.0004075000000000051,-0.0004100000000000076,-0.1219745,-0.40929150000000003,0.007888,0.1069955,-0.4284215,0.027795999999999994,-0.12722450000000002,-0.7877415000000001,0.030114999999999996,0.1057655,-0.8004315,0.032192
116,-0.008777,0.7270684999999999,0.0512595,-0.15645299999999998,0.5006885000000001,0.0506285,-0.265903,0.7413185,-0.001056499999999995,0.136857,0.49946850000000004,0.0578935,0.246007,0.7445085,0.0225285,-0.303773,0.9395484999999999,-0.0498955,0.269087,0.9522484999999998,-0.033014499999999995,-0.07314799999999999,0.0004074999999999912,0.0007855000000000015,0.07314799999999999,-0.0004075000000000051,-0.0007855000000000015,-0.12257299999999999,-0.4083415,0.0105535,0.106707,-0.42905150000000003,0.030498500000000005,-0.126693,-0.7869014999999999,0.030976500000000004,0.106157,-0.8002615,0.0306525
117,-0.007567500000000006,0.7269684999999999,0.0508925,-0.1556335,0.5009185,0.0505955,-0.26520350000000004,0.7413285000000001,-0.001305500000000001,0.13767649999999998,0.49946850000000004,0.0577125,0.2472865,0.7447585000000001,0.0218355,-0.3031235,0.9395484999999999,-0.0505775,0.27093649999999997,0.9520484999999999,-0.0334995,-0.07335749999999999,0.0004074999999999912,0.0011395000000000016,0.07335749999999999,-0.0004075000000000051,-0.0011395000000000016,-0.12302350000000001,-0.4073015,0.0122735,0.10651649999999999,-0.4298115,0.0325125,-0.1261635,-0.7862515000000001,0.031661499999999995,0.1065265,-0.8000915,0.0289525
118,-0.006685500000000004,0.726654,0.0502795,-0.1549575,0.501174,0.050666499999999996,-0.26461749999999995,0.741584,-0.001994500000000003,0.1383025,0.499594,0.0575365,0.24833249999999998,0.745024,0.020928499999999996,-0.3025675,0.939804,-0.0517365,0.27258249999999995,0.951704,-0.034371500000000006,-0.0735035,0.0006010000000000043,0.0014225000000000002,0.0735035,-0.0006009999999999904,-0.0014225000000000002,-0.1232375,-0.406426,0.013122500000000002,0.10659249999999999,-0.430246,0.0337465,-0.1257575,-0.785496,0.0319765,0.1069725,-0.799636,0.0270925
119,-0.006265500000000003,0.7261895,0.049668500000000004,-0.15468150000000003,0.5011095000000001,0.0509065,-0.26443150000000004,0.7417995,-0.0028304999999999997,0.1385185,0.4996995,0.0575965,0.24902849999999999,0.7450695,0.020188500000000005,-0.3023115,0.9399895,-0.0537595,0.2738585,0.9511895000000001,-0.03516849999999999,-0.0735165,0.0007565000000000072,0.0016475000000000031,0.0735165,-0.0007564999999999933,-0.0016474999999999962,-0.1236715,-0.4065805,0.013288500000000002,0.10650849999999999,-0.4306405,0.0339305,-0.12575150000000002,-0.7852105,0.030823500000000004,0.1069685,-0.7995005,0.025261500000000003
120,-0.005859500000000002,0.725738,0.049065,-0.15442250000000002,0.5010680000000001,0.0513,-0.2642325,0.742008,-0.004200000000000002,0.13884749999999998,0.499788,0.057991999999999995,0.24979749999999998,0.745098,0.019467999999999992,-0.3020325,0.940168,-0.055867,0.2754575,0.950268,-0.03593600000000001,-0.07351350000000001,0.0009289999999999993,0.0016009999999999983,0.07351350000000001,-0.0009289999999999993,-0.0016010000000000052,-0.12383250000000001,-0.406632,0.012610999999999997,0.10654749999999999,-0.430792,0.033103999999999995,-0.12575250000000002,-0.784972,0.029501999999999994,0.10695750000000001,-0.799472,0.023507999999999994
121,-0.005359999999999999,0.7252190000000001,0.047885,-0.154139,0.5012490000000001,0.051544,-0.264079,0.742239,-0.006212000000000002,0.139371,0.499799,0.058714,0.250831,0.7453190000000001,0.019066,-0.301919,0.940319,-0.057881999999999996,0.277171,0.9496190000000001,-0.037122999999999996,-0.073512,0.0010729999999999906,0.001569000000000001,0.073512,-0.0010730000000000045,-0.001569000000000001,-0.12378900000000001,-0.406381,0.011763999999999997,0.106651,-0.430901,0.031363,-0.125639,-0.784721,0.027486999999999998,0.10695099999999999,-0.799221,0.021494
122,-0.0040825,0.7245875,0.046334999999999994,-0.1535165,0.5020175,0.05076599999999999,-0.2632265,0.7421375,-0.007951000000000007,0.14087349999999998,0.49995750000000005,0.059399999999999994,0.25304350000000003,0.7455675,0.019137999999999995,-0.3006465,0.9407475000000001,-0.059599,0.2806235,0.9484475000000001,-0.038589,-0.0735865,0.0012404999999999916,0.0014039999999999955,0.0735865,-0.0012405000000000055,-0.0014040000000000025,-0.1238365,-0.4053825,0.010778999999999997,0.1066435,-0.43054250000000005,0.029575999999999995,-0.12589650000000002,-0.7841325,0.025685999999999994,0.1067735,-0.7987124999999999,0.019697999999999997
123,-0.0029019999999999944,0.723997,0.04546,-0.153073,0.5027969999999999,0.049849,-0.262513,0.741987,-0.008851999999999999,0.142157,0.5004569999999999,0.060464,0.255447,0.7457370000000001,0.019979999999999998,-0.298593,0.9411770000000002,-0.061637,0.284127,0.9471769999999999,-0.03933300000000001,-0.073587,0.0013989999999999975,0.0010700000000000015,0.073587,-0.0013990000000000113,-0.0010700000000000015,-0.12431299999999999,-0.404743,0.009925999999999997,0.106477,-0.430243,0.028624999999999998,-0.12656299999999998,-0.7839229999999999,0.024707,0.10624700000000001,-0.7982229999999999,0.018726
124,-0.0016725000000000038,0.7236365,0.045122499999999996,-0.15275850000000002,0.5037065,0.0494605,-0.2625285,0.7416165,-0.009846500000000001,0.14364149999999998,0.5010565,0.0618175,0.2588315,0.7452965,0.021284499999999994,-0.29664850000000004,0.9415465,-0.0649755,0.2878015,0.9458464999999999,-0.0395325,-0.07360549999999999,0.0016044999999999948,0.0006614999999999954,0.07360549999999999,-0.0016045000000000087,-0.0006615000000000024,-0.1255785,-0.4043035,0.009447499999999998,0.10590150000000001,-0.4301035,0.028185499999999995,-0.1280185,-0.7847035,0.024122499999999995,0.10480149999999999,-0.7978835,0.018237499999999997
125,-0.0006020000000000001,0.723361,0.045171499999999996,-0.152879,0.504501,0.0494405,-0.26348900000000003,0.741001,-0.011311500000000002,0.14510099999999998,0.5016510000000001,0.0628465,0.26243099999999997,0.743611,0.0229545,-0.295109,0.9415310000000001,-0.0687585,0.292661,0.942331,-0.03927050000000001,-0.073597,0.0017759999999999998,0.0006504999999999983,0.073597,-0.0017760000000000067,-0.0006504999999999983,-0.12722899999999998,-0.403949,0.009342499999999997,0.104901,-0.429909,0.0272805,-0.13021899999999997,-0.786399,0.0224245,0.102501,-0.7975289999999999,0.0178515
126,0.0006855000000000055,0.723017,0.044445,-0.1536295,0.504957,0.048755999999999994,-0.26718949999999997,0.737337,-0.015367000000000006,0.1476105,0.502577,0.06298899999999999,0.26959049999999996,0.738317,0.024790999999999994,-0.2932795,0.940237,-0.07578700000000001,0.29753050000000003,0.937217,-0.03912600000000001,-0.0733795,0.001922,0.0006629999999999969,0.0733795,-0.001922,-0.0006630000000000039,-0.1296895,-0.404173,0.009203999999999997,0.1033005,-0.429903,0.025242999999999995,-0.1340095,-0.787523,0.020725999999999994,0.0986405,-0.796813,0.017129999999999996
