sb224sc-HT22-VT27/4dt907/src/data/kinect_good_preprocessed_A9_mediapipe/A33_kinect_mirrored.csv
FrameNo,nose_3d_x,nose_3d_y,nose_3d_z,left_shoulder_3d_x,left_shoulder_3d_y,left_shoulder_3d_z,left_elbow_3d_x,left_elbow_3d_y,left_elbow_3d_z,right_shoulder_3d_x,right_shoulder_3d_y,right_shoulder_3d_z,right_elbow_3d_x,right_elbow_3d_y,right_elbow_3d_z,left_wrist_3d_x,left_wrist_3d_y,left_wrist_3d_z,right_wrist_3d_x,right_wrist_3d_y,right_wrist_3d_z,left_hip_3d_x,left_hip_3d_y,left_hip_3d_z,right_hip_3d_x,right_hip_3d_y,right_hip_3d_z,left_knee_3d_x,left_knee_3d_y,left_knee_3d_z,right_knee_3d_x,right_knee_3d_y,right_knee_3d_z,left_ankle_3d_x,left_ankle_3d_y,left_ankle_3d_z,right_ankle_3d_x,right_ankle_3d_y,right_ankle_3d_z
25,0.9952265,0.7225199999999999,0.0671265,0.8531075,0.4835199999999999,0.0578995,0.7574175,0.7429899999999999,0.0344375,1.1418275,0.51586,0.0628145,1.2339575,0.7509,0.0267725,0.7357575000000001,0.95204,0.0087845,1.2569575,0.96714,-0.0032344999999999,0.9284255,-0.003076,-0.0020405,1.0715745,0.0030759999999999,0.0020405,0.8926075,-0.44794,0.0101565,1.1219075,-0.41129,-0.0105544999999999,0.8936875,-0.79579,-0.0128314999999999,1.1249675,-0.78161,-0.0070784999999999
26,0.9951465,0.721642,0.067047,0.8532455,0.4834919999999999,0.0582219999999999,0.7586155,0.7432219999999999,0.039129,1.1407455,0.516192,0.0639319999999999,1.2314655,0.751482,0.032143,0.7367954999999999,0.953832,0.0177369999999999,1.2529854999999999,0.969532,0.0056629999999999,0.9284745000000001,-0.0032159999999999,-0.002167,1.0715255,0.0032159999999999,0.0021669999999999,0.8926355,-0.448908,0.0102709999999999,1.1217555,-0.411728,-0.010717,0.8936655,-0.797278,-0.012816,1.1249655,-0.783018,-0.007308
27,0.9950660000000001,0.720886,0.0667799999999999,0.853323,0.483856,0.058255,0.7595130000000001,0.742936,0.042803,1.139733,0.516826,0.064524,1.229713,0.7520560000000001,0.036334,0.737393,0.954926,0.0244269999999999,1.249833,0.972026,0.0127749999999999,0.92853,-0.0033369999999999,-0.0022769999999999,1.07147,0.0033369999999999,0.0022769999999999,0.892653,-0.449714,0.0102699999999999,1.121623,-0.412114,-0.010913,0.893643,-0.798284,-0.012815,1.124953,-0.7840239999999999,-0.007223
28,0.994993,0.720129,0.0665365,0.853456,0.484229,0.0582935,0.760166,0.742489,0.0457365,1.138726,0.5173989999999999,0.0650495,1.2283359999999999,0.7521789999999999,0.0397575,0.7376560000000001,0.955459,0.0290455,1.248506,0.971759,0.0170305,0.928582,-0.00343,-0.0023444999999999,1.071418,0.0034299999999999,0.0023445,0.8926860000000001,-0.450541,0.0102035,1.121486,-0.412621,-0.0111094999999999,0.8936459999999999,-0.799351,-0.0128804999999999,1.125016,-0.785091,-0.0068974999999999
29,0.994969,0.7197745,0.066272,0.853548,0.4844545,0.058255,0.760548,0.7420645,0.047685,1.138228,0.5174245000000001,0.065354,1.227448,0.7526245,0.042121,0.737878,0.9556945,0.031813,1.247548,0.9712945,0.020412,0.9286000000000001,-0.0035025,-0.0024379999999999,1.0714,0.0035024999999999,0.0024379999999999,0.8927080000000001,-0.4509554999999999,0.01011,1.121378,-0.4127555,-0.011274,0.893608,-0.8000155,-0.012971,1.125088,-0.7852155,-0.006493
30,0.994992,0.7192850000000001,0.066025,0.8536500000000001,0.484225,0.058155,0.7607300000000001,0.742035,0.0487709999999999,1.13808,0.517115,0.065299,1.22691,0.753245,0.043338,0.73807,0.956155,0.0331189999999999,1.2473,0.970555,0.021556,0.928537,-0.0036139999999999,-0.002533,1.071463,0.003614,0.0025329999999999,0.89273,-0.451395,0.0101929999999999,1.12133,-0.412705,-0.01137,0.89368,-0.800705,-0.012873,1.12518,-0.784955,-0.005893
31,0.9950475,0.718816,0.0657295,0.8537715,0.483776,0.0579825,0.7609315,0.7421260000000001,0.0495044999999999,1.1380914999999998,0.516436,0.0651305,1.2265815,0.7537360000000001,0.0440765,0.7381215,0.956756,0.0337035,1.2474714999999998,0.969556,0.0218205,0.9284435,-0.003659,-0.0026785,1.0715565,0.0036589999999999,0.0026784999999999,0.8927615,-0.4517839999999999,0.0102364999999999,1.1213115,-0.412794,-0.0115375,0.8937315,-0.801234,-0.0128624999999999,1.1253515,-0.784654,-0.0057105
32,0.9951230000000001,0.7182740000000001,0.0654105,0.8536870000000001,0.483224,0.0577015,0.761107,0.742204,0.0498895,1.138247,0.515884,0.0648405,1.2264769999999998,0.7541840000000001,0.0443034999999999,0.737777,0.957204,0.0334315,1.2476269999999998,0.968804,0.0215305,0.928315,-0.003713,-0.0028815,1.071685,0.0037129999999999,0.0028814999999999,0.892767,-0.451976,0.0102725,1.121287,-0.412756,-0.0118214999999999,0.893767,-0.801176,-0.0129024999999999,1.125507,-0.784396,-0.0060064999999999
33,0.995244,0.718137,0.0650895,0.853575,0.482677,0.0572145,0.761115,0.742457,0.0495845,1.138385,0.515477,0.0644505,1.2266149999999998,0.754617,0.0439935,0.7370749999999999,0.957517,0.0331515,1.2477649999999998,0.968717,0.0212205,0.928171,-0.0036769999999999,-0.0030024999999999,1.071829,0.0036769999999999,0.0030025,0.8927450000000001,-0.451783,0.0103835,1.121295,-0.412543,-0.0120795,0.893805,-0.800453,-0.0126765,1.125525,-0.783183,-0.0061424999999999
34,0.9954105000000001,0.7180365,0.064691,0.8535695,0.4821864999999999,0.056673,0.7610795,0.7427665,0.049142,1.1385395,0.5149064999999999,0.063786,1.2267795,0.7551065,0.043544,0.7362895,0.9580565,0.032736,1.2479295,0.9685565,0.0207709999999999,0.9279904999999999,-0.0036694999999999,-0.003077,1.0720095,0.0036694999999999,0.003077,0.8927295000000001,-0.4515035,0.010384,1.1213195,-0.4122035,-0.012382,0.8939295,-0.7996635,-0.012618,1.1255795,-0.7818835000000001,-0.006234
35,0.995587,0.7180435000000001,0.06409,0.853746,0.4818135,0.056004,0.761016,0.7430635,0.048558,1.138516,0.5141235000000001,0.0628239999999999,1.226956,0.7552135,0.042951,0.735486,0.9581835,0.03196,1.248536,0.9681835,0.0196399999999999,0.927841,-0.0036375,-0.003129,1.072159,0.0036375,0.003129,0.892736,-0.4513365,0.0103229999999999,1.121366,-0.4125765,-0.012823,0.894026,-0.7991965,-0.012892,1.125546,-0.7807164999999999,-0.006385
36,0.995722,0.7181545,0.06319,0.853872,0.4815545,0.054984,0.760952,0.7434645,0.047663,1.138642,0.5135745,0.061542,1.227362,0.7552745000000001,0.04178,0.734612,0.9584245,0.0295269999999999,1.249552,0.9683245,0.0172319999999999,0.927704,-0.0036804999999999,-0.0031219999999999,1.072296,0.0036805,0.0031219999999999,0.892712,-0.4512255,0.0099829999999999,1.121372,-0.4129155,-0.013399,0.894112,-0.7987155,-0.013531,1.125542,-0.7797554999999999,-0.0076509999999999
37,0.995952,0.7183695,0.0620229999999999,0.8540449999999999,0.4813195,0.053738,0.760935,0.7438895,0.0462,1.138805,0.5130695000000001,0.0599139999999999,1.227815,0.7553495,0.04001,0.733825,0.9585895,0.026627,1.250495,0.9688895,0.013654,0.927541,-0.0036934999999999,-0.003098,1.072459,0.0036935,0.003098,0.892695,-0.4511104999999999,0.0094659999999999,1.121455,-0.4133105,-0.014201,0.894305,-0.7982905,-0.0143559999999999,1.1254549999999999,-0.7779805,-0.008533
38,0.9962515,0.718955,0.0601815,0.8546914999999999,0.4816750000000001,0.0520595,0.7608815000000001,0.744255,0.0440305,1.1390315,0.512555,0.0580205,1.2283615,0.7556550000000001,0.0374115,0.7333315,0.958505,0.0228625,1.2515315,0.970105,0.0091245,0.9273525,-0.003672,-0.0031034999999999,1.0726475,0.003672,0.0031035,0.8927115,-0.451115,0.0085775,1.1215715,-0.413995,-0.0154614999999999,0.8945615000000001,-0.797945,-0.0157515,1.1255515,-0.776505,-0.0100734999999999
39,0.9966065,0.719135,0.057735,0.8554375,0.4816750000000001,0.0499499999999999,0.7607775,0.744255,0.041276,1.1392275,0.512555,0.05588,1.2288475,0.755715,0.033986,0.7330175,0.958505,0.018451,1.2524275,0.971405,0.00347,0.9271745,-0.003672,-0.003327,1.0728255,0.003672,0.003327,0.8926375,-0.451115,0.0068489999999999,1.1216175,-0.414855,-0.017425,0.8946775,-0.797945,-0.017838,1.1257675,-0.776505,-0.012164
40,0.996998,0.719165,0.054987,0.856012,0.4816750000000001,0.047586,0.760642,0.744255,0.038102,1.139622,0.512225,0.053419,1.229292,0.755715,0.030104,0.7328319999999999,0.958505,0.013561,1.2532619999999999,0.972005,-0.002644,0.926974,-0.003672,-0.0034339999999999,1.073026,0.003672,0.0034339999999999,0.892512,-0.451115,0.00458,1.121602,-0.4155549999999999,-0.019618,0.894872,-0.797945,-0.020163,1.125932,-0.776505,-0.014488
41,0.9973635000000001,0.719165,0.051949,0.8565105,0.481605,0.044959,0.7605005000000001,0.744255,0.034385,1.1400805,0.511965,0.050689,1.2298405,0.755715,0.025418,0.7327005,0.958505,0.008216,1.2539405000000001,0.972305,-0.009183,0.9267485,-0.003672,-0.0034059999999999,1.0732515,0.003672,0.003406,0.8923505,-0.451115,0.0020109999999999,1.1215405,-0.416425,-0.022114,0.8950005,-0.797945,-0.022742,1.1260505,-0.776505,-0.017143
42,0.9978055,0.7198720000000001,0.048212,0.8569315,0.482022,0.041591,0.7603015,0.744422,0.029691,1.1404315,0.511812,0.047184,1.2304614999999999,0.756352,0.019788,0.7325015,0.957732,0.001651,1.2545815,0.973032,-0.016576,0.9265515,-0.003581,-0.0032709999999999,1.0734485,0.003581,0.003271,0.8920315,-0.451318,-0.001312,1.1213315,-0.4180779999999999,-0.0254109999999999,0.8949515,-0.797688,-0.0265149999999999,1.1261215,-0.775698,-0.0213459999999999
43,0.9982385000000001,0.7208265,0.043529,0.8572595000000001,0.4822464999999999,0.037389,0.7599994999999999,0.7449165000000001,0.023615,1.1407595,0.5121465000000001,0.042869,1.2310095,0.7574365000000001,0.01288,0.7321895,0.9567865,-0.006611,1.2551895,0.9742865,-0.025735,0.9264165,-0.0034835,-0.002973,1.0735835,0.0034835,0.002973,0.8915595000000001,-0.4519035,-0.0054149999999999,1.1210295,-0.4195835,-0.0295199999999999,0.8947895,-0.7972535,-0.031098,1.1260695,-0.7759535,-0.0269319999999999
44,0.998575,0.7219690000000001,0.038297,0.857478,0.482589,0.032907,0.759568,0.745379,0.016889,1.1409379999999998,0.512529,0.038298,1.231538,0.758619,0.005404,0.7317680000000001,0.955779,-0.015489,1.255668,0.975879,-0.035438,0.9263399999999999,-0.0033799999999999,-0.002685,1.07366,0.00338,0.002685,0.890998,-0.452271,-0.009914,1.120688,-0.420941,-0.03392,0.894668,-0.797051,-0.036077,1.125958,-0.775451,-0.032786
45,0.9990115,0.722267,0.0318185,0.8577925,0.483127,0.0275545,0.7593125000000001,0.745737,0.0084134999999999,1.1411825,0.512927,0.0329024999999999,1.2321325,0.7596769999999999,-0.0036345,0.7313625,0.954557,-0.0267435,1.2562825,0.977157,-0.0471065,0.9262745,-0.00323,-0.0025035,1.0737255,0.0032299999999999,0.0025035,0.8904125,-0.452033,-0.0155744999999999,1.1204125,-0.421993,-0.0391765,0.8943325,-0.7967230000000001,-0.0427405,1.1258525,-0.7758430000000001,-0.0397995
46,0.999516,0.7221635000000001,0.0247989999999999,0.858077,0.4836135,0.021827,0.759017,0.7459035,-0.001039,1.141417,0.5132235,0.0271359999999999,1.2324869999999999,0.7604135000000001,-0.013329,0.730847,0.9531335,-0.0388979999999999,1.257007,0.9778335,-0.05909,0.926224,-0.0030655,-0.002382,1.073776,0.0030654999999999,0.002382,0.889847,-0.4518565,-0.021793,1.120287,-0.4230665,-0.044804,0.893947,-0.7963165,-0.049692,1.125877,-0.7761865,-0.0471549999999999
47,1.0000285,0.7219135,0.0174135,0.8580745,0.4840735,0.0158035,0.7587145,0.7459435,-0.0109354999999999,1.1416245,0.5135835,0.0210955,1.2328245,0.7596235,-0.0236265,0.7302645000000001,0.9515035,-0.0514755,1.2576445,0.9782035,-0.0713844999999999,0.9262235,-0.0029025,-0.0023374999999999,1.0737765,0.0029024999999999,0.0023375,0.8892745,-0.4519265,-0.0283835,1.1201245,-0.4235265,-0.0507045,0.8937745,-0.7957665,-0.0568885,1.1259945,-0.7764065,-0.0548225
48,1.0006715,0.7210605,0.008846,0.8582655,0.4843605,0.008988,0.7584155,0.7435305000000001,-0.022612,1.1420054999999998,0.5140705000000001,0.0144269999999999,1.2332555,0.7593105,-0.035346,0.7297255,0.9481105,-0.065603,1.2584555,0.9772505,-0.085386,0.9261565,-0.0027184999999999,-0.002049,1.0738435,0.0027184999999999,0.0020489999999999,0.8887555,-0.4509495,-0.035836,1.1200155,-0.4230295,-0.057276,0.8934455,-0.7946595,-0.064599,1.1262355,-0.7762895,-0.063142
49,1.0012634999999999,0.719131,-0.0012039999999999,0.8583835,0.484791,0.001187,0.7578535,0.741131,-0.035634,1.1423235,0.514921,0.006776,1.2336835,0.754111,-0.048683,0.7291035,0.944761,-0.081984,1.2592934999999998,0.974031,-0.101723,0.9260855,-0.002479,-0.0018789999999999,1.0739144999999999,0.002479,0.001879,0.8879535000000001,-0.449159,-0.0444679999999999,1.1197834999999998,-0.422039,-0.0652099999999999,0.8929835,-0.7927390000000001,-0.073166,1.1263235,-0.775359,-0.072088
50,1.0018094999999998,0.7165195,-0.0119909999999999,0.8583135,0.4847295,-0.0071239999999999,0.7572335,0.7378195,-0.0492429999999999,1.1428335,0.5156995,-0.001496,1.2338835,0.7495795,-0.062007,0.7283335,0.9417295,-0.0991409999999999,1.2601535,0.9715695,-0.119246,0.9259065,-0.0022795,-0.0017849999999999,1.0740935,0.0022794999999999,0.001785,0.8868635,-0.4467005,-0.0538489999999999,1.1195235000000001,-0.4203905,-0.073691,0.8924035,-0.7901805,-0.082079,1.1263135,-0.7737105,-0.081384
51,1.00247,0.7134675,-0.0248185,0.858562,0.4843375,-0.0172385,0.756542,0.7336375,-0.0648415,1.143252,0.5138775,-0.0115135,1.2339419999999999,0.7437375,-0.0776425,0.7273620000000001,0.9385075,-0.1189045,1.261282,0.9650875,-0.1402275,0.925731,-0.0020494999999999,-0.0017425,1.074269,0.0020495,0.0017424999999999,0.885682,-0.4427325,-0.0639185,1.119272,-0.4178425,-0.0833615,0.891722,-0.7863625,-0.0919805,1.126202,-0.7710524999999999,-0.0909365
52,1.0032325,0.7105085000000001,-0.0392725,0.8594235,0.4834885,-0.0291664999999999,0.7558335,0.7296885000000001,-0.0821075,1.1434735,0.5115685000000001,-0.0232534999999999,1.2339935,0.7375385000000001,-0.0953405,0.7260135,0.9359785,-0.1406454999999999,1.2627035,0.9593385,-0.1630845,0.9255405,-0.0017794999999999,-0.0018374999999999,1.0744595,0.0017794999999999,0.0018375,0.8845335,-0.4367215,-0.0746864999999999,1.1190435,-0.4133915,-0.0941115,0.8912635,-0.7802414999999999,-0.1025935,1.1261135,-0.7660815,-0.1011924999999999
53,1.003835,0.706768,-0.0543079999999999,0.860222,0.482458,-0.0418189999999999,0.754962,0.725278,-0.100087,1.143462,0.5089279999999999,-0.035581,1.233832,0.7304579999999999,-0.1137249999999999,0.724302,0.933218,-0.163411,1.264142,0.953438,-0.187031,0.925489,-0.001503,-0.0020269999999999,1.074511,0.001503,0.002027,0.883092,-0.4304219999999999,-0.085951,1.118672,-0.408672,-0.1052849999999999,0.890782,-0.7735120000000001,-0.1135269999999999,1.125622,-0.760722,-0.1117819999999999
54,1.004413,0.703387,-0.0712365,0.861064,0.481607,-0.0549375,0.754014,0.7188869999999999,-0.1192125,1.1427139999999998,0.506817,-0.0482035,1.233194,0.7215469999999999,-0.1332775,0.722164,0.929897,-0.1877295,1.264734,0.946637,-0.2133995,0.925392,-0.001287,-0.0021015,1.074608,0.001287,0.0021014999999999,0.881454,-0.422313,-0.0972865,1.118434,-0.400563,-0.1168865,0.890284,-0.7654030000000001,-0.1237425,1.125164,-0.754613,-0.1221045
55,1.0049949999999999,0.6972689999999999,-0.0900865,0.861928,0.479929,-0.0701865,0.752738,0.711669,-0.1411715,1.141788,0.5018389999999999,-0.0634635,1.232658,0.712519,-0.1553475,0.7198180000000001,0.921029,-0.2146425,1.265078,0.940289,-0.2437325,0.9252009999999999,-0.000808,-0.0021735,1.074799,0.0008079999999999,0.0021734999999999,0.879678,-0.410521,-0.1099015,1.118418,-0.389471,-0.1300045,0.889458,-0.754401,-0.1352075,1.124608,-0.7450410000000001,-0.1333435
56,1.0047635,0.6924465,-0.1130674999999999,0.8626525,0.4783064999999999,-0.0896304999999999,0.7512725,0.7047365,-0.1670875,1.1406125,0.4973964999999999,-0.0826845,1.2314125,0.7055165,-0.1811105,0.7172125,0.9126965,-0.2449105,1.2650825,0.9310665,-0.2776505,0.9249315,-0.0005395,-0.0017034999999999,1.0750685,0.0005394999999999,0.0017035,0.8776225,-0.3972135,-0.1267434999999999,1.1182725,-0.3770135,-0.1471825,0.8883725000000001,-0.7423835,-0.1508225,1.1235825,-0.7337135,-0.1480635
57,1.0038014999999998,0.6874195,-0.135841,0.8633115,0.4750295,-0.1094719999999999,0.7494415,0.7012995,-0.1923019999999999,1.1390815,0.4900894999999999,-0.1022039999999999,1.2296615,0.6939495,-0.206612,0.7142014999999999,0.9087895,-0.27607,1.2646415,0.9200995,-0.3103399999999999,0.9247325,-0.0001395,-0.0013399999999999,1.0752675,0.0001394999999999,0.00134,0.8745915,-0.3779505,-0.146727,1.1187715,-0.3610105,-0.1667719999999999,0.8872215,-0.7276505,-0.1658,1.1222915,-0.7197405,-0.163094
58,1.0023805,0.681957,-0.15791,0.8637675000000001,0.471117,-0.129403,0.7472274999999999,0.696397,-0.218473,1.1369075,0.482897,-0.12168,1.2273675,0.688387,-0.23138,0.7107275,0.903777,-0.3073099999999999,1.2635174999999998,0.910817,-0.34257,0.9245765,1.0999999999997123e-05,-0.00091,1.0754235,-1.1000000000004062e-05,0.0009099999999999,0.8714475,-0.358183,-0.166731,1.1189375,-0.344383,-0.18581,0.8858175000000001,-0.711783,-0.18046,1.1208175,-0.704733,-0.177807
59,1.0008275,0.67408,-0.179905,0.8642695000000001,0.4657,-0.149723,0.7445595,0.69113,-0.24495,1.1344895,0.47422,-0.141924,1.2251295,0.6800999999999999,-0.25769,0.7070395,0.8975799999999999,-0.33984,1.2622195,0.89715,-0.37412,0.9243304999999999,0.00022,-0.00044,1.0756695,-0.0002199999999999,0.0004399999999999,0.8684695,-0.3362199999999999,-0.187685,1.1192595,-0.32543,-0.205895,0.8845395,-0.69328,-0.195286,1.1192295,-0.68666,-0.192819
60,0.9988950000000001,0.66572,-0.200938,0.8639410000000001,0.46041,-0.168738,0.741501,0.68527,-0.271275,1.131961,0.4679,-0.161045,1.223191,0.6711,-0.282275,0.7030810000000001,0.89063,-0.371615,1.259711,0.8862,-0.406155,0.924106,0.0002799999999999,-3.500000000000725e-05,1.075894,-0.00028,3.500000000000725e-05,0.865361,-0.3127,-0.209079,1.119721,-0.3051899999999999,-0.225842,0.883201,-0.67223,-0.20943,1.117521,-0.66627,-0.207225
61,0.9967960000000001,0.6570105,-0.219389,0.8629840000000001,0.4559005,-0.185157,0.738674,0.6788805,-0.2948199999999999,1.129064,0.4625605,-0.177626,1.221794,0.6598105000000001,-0.3037499999999999,0.700134,0.8828705,-0.4,1.257884,0.8741005000000001,-0.43478,0.923925,0.0001805,0.00037,1.076075,-0.0001805,-0.0003699999999999,0.8622640000000001,-0.2907795,-0.2288569999999999,1.120474,-0.2859995,-0.244048,0.882214,-0.6522395,-0.222055,1.115924,-0.6469995,-0.2200369999999999
62,0.9947295,0.64935,-0.237109,0.8619845000000002,0.4517599999999999,-0.200716,0.7361145,0.67001,-0.317415,1.1261145,0.45862,-0.1934499999999999,1.2204045,0.6491899999999999,-0.325395,0.6975045,0.87062,-0.4276649999999999,1.2560745,0.86003,-0.462465,0.9237425,-9.000000000000674e-05,0.000865,1.0762575,8.999999999999286e-05,-0.000865,0.8592645000000001,-0.26858,-0.248216,1.1212745,-0.26653,-0.2617819999999999,0.8808545,-0.63142,-0.234088,1.1143845,-0.62705,-0.232327
63,0.9928885,0.639615,-0.252572,0.8611385,0.4447149999999999,-0.216373,0.7339685,0.663575,-0.338125,1.1236485,0.449905,-0.209326,1.2189785,0.6406449999999999,-0.346685,0.6950784999999999,0.860285,-0.453285,1.2545385,0.8476549999999999,-0.488215,0.9235025,9.4999999999984e-05,0.001305,1.0764974999999999,-9.500000000001174e-05,-0.001305,0.8563285,-0.243755,-0.268049,1.1223285,-0.243185,-0.280262,0.8802185,-0.607105,-0.244498,1.1132184999999999,-0.6038250000000001,-0.243854
64,0.9910785,0.633575,-0.265467,0.8605695,0.438725,-0.229842,0.7323095,0.656595,-0.355305,1.1215795,0.444225,-0.222829,1.2183095,0.6298250000000001,-0.364715,0.6928795,0.8511550000000001,-0.475935,1.2533195,0.832055,-0.509775,0.9233925000000001,-0.000365,0.001815,1.0766075,0.000365,-0.0018149999999999,0.8537195,-0.219335,-0.286925,1.1233894999999998,-0.219575,-0.297518,0.8797195,-0.582945,-0.253223,1.1123995,-0.580805,-0.2537129999999999
65,0.9896435000000001,0.625945,-0.273876,0.8604674999999999,0.433695,-0.238519,0.7310475000000001,0.643695,-0.367795,1.1199075,0.438925,-0.231786,1.2177575,0.618345,-0.377915,0.6913975,0.8412850000000001,-0.494035,1.2524075,0.816665,-0.527215,0.9232385,-0.000565,0.0018749999999999,1.0767615,0.000565,-0.001875,0.8514375000000001,-0.195455,-0.301525,1.1248675,-0.1961949999999999,-0.310495,0.8795875000000001,-0.559375,-0.257579,1.1120675,-0.558365,-0.25952
66,0.9882545,0.616885,-0.282325,0.8606635,0.428505,-0.2462339999999999,0.7304035,0.630595,-0.3795199999999999,1.1193434999999998,0.434585,-0.240153,1.2176835,0.609335,-0.38913,0.6906435,0.827475,-0.5104,1.2514735,0.805205,-0.54375,0.9229785000000001,-0.000805,0.0019699999999999,1.0770214999999999,0.000805,-0.0019699999999999,0.8499734999999999,-0.171225,-0.3122,1.1260435,-0.1719649999999999,-0.32059,0.8800335,-0.534745,-0.260558,1.1121534999999998,-0.534135,-0.264107
67,0.98758,0.60994,-0.289799,0.860986,0.42402,-0.25268,0.730046,0.61988,-0.3886199999999999,1.119016,0.43056,-0.247303,1.2178959999999999,0.59824,-0.39942,0.690266,0.81548,-0.52459,1.2508460000000001,0.79083,-0.55923,0.922912,-0.00084,0.00199,1.077088,0.00084,-0.0019899999999999,0.848706,-0.14825,-0.32164,1.127456,-0.1490999999999999,-0.3297899999999999,0.880716,-0.51139,-0.262905,1.112426,-0.51127,-0.268024
68,0.987335,0.605695,-0.296355,0.861259,0.421045,-0.257968,0.729849,0.611105,-0.397355,1.118809,0.4285049999999999,-0.252885,1.217889,0.589085,-0.408045,0.689829,0.802955,-0.5364949999999999,1.250399,0.781045,-0.573795,0.922902,-0.000945,0.002005,1.0770979999999999,0.0009449999999999,-0.002005,0.8475090000000001,-0.127525,-0.329065,1.128759,-0.128535,-0.336955,0.881439,-0.4903350000000001,-0.264401,1.112839,-0.490705,-0.270809
69,0.9872245,0.59926,-0.301508,0.8621525,0.41645,-0.263231,0.7298625000000001,0.60286,-0.4034999999999999,1.1187825,0.42299,-0.2584349999999999,1.2190325,0.5813900000000001,-0.41623,0.6898225,0.79098,-0.54585,1.2509725,0.77061,-0.58492,0.9227505,-0.00068,0.00203,1.0772495,0.00068,-0.0020299999999999,0.8464925,-0.11208,-0.3347299999999999,1.1299125,-0.11329,-0.34253,0.8820425,-0.47163,-0.265745,1.1130825,-0.47237,-0.2734149999999999
70,0.987381,0.5927899999999999,-0.3075799999999999,0.8632070000000001,0.41149,-0.269139,0.731107,0.59127,-0.40975,1.119367,0.4166999999999999,-0.264913,1.220327,0.57345,-0.42582,0.6903170000000001,0.7783899999999999,-0.55646,1.2516969999999998,0.75679,-0.59799,0.92231,-0.0003199999999999,0.00204,1.07769,0.0003199999999999,-0.0020399999999999,0.8457669999999999,-0.09459,-0.34057,1.1310769999999999,-0.09676,-0.34829,0.882377,-0.4518999999999999,-0.266987,1.113617,-0.4536,-0.276633
71,0.989381,0.586595,-0.313492,0.864008,0.406033,-0.274812,0.7317480000000001,0.582215,-0.41552,1.120128,0.409055,-0.271463,1.222038,0.565625,-0.43434,0.690768,0.769675,-0.5662,1.252408,0.744775,-0.6109100000000001,0.921726,0.0001349999999999,0.00214,1.078274,-0.0001349999999999,-0.00214,0.8449380000000001,-0.076585,-0.34593,1.132078,-0.0800049999999999,-0.3537599999999999,0.882678,-0.432165,-0.26847,1.113748,-0.4351849999999999,-0.279996
72,0.9915905000000002,0.583855,-0.3184249999999999,0.8646735,0.4036169999999999,-0.278478,0.7324935,0.571735,-0.4199699999999999,1.1207035,0.4057079999999999,-0.276333,1.2230135,0.5552549999999999,-0.44059,0.6912935,0.758505,-0.57376,1.2525534999999999,0.730985,-0.62215,0.9212985,0.0002049999999999,0.0022,1.0787015,-0.000205,-0.0021999999999999,0.8439435,-0.061745,-0.34906,1.1326035,-0.066165,-0.35665,0.8825135,-0.416535,-0.2693319999999999,1.1137335,-0.420625,-0.282275
73,0.994318,0.580395,-0.323025,0.865702,0.401007,-0.28118,0.733402,0.562145,-0.423485,1.121622,0.402248,-0.280055,1.223662,0.546865,-0.446735,0.691592,0.7509950000000001,-0.580635,1.253152,0.717975,-0.6321950000000001,0.920806,0.000595,0.002285,1.079194,-0.000595,-0.0022849999999999,0.843272,-0.0488049999999999,-0.3507249999999999,1.133392,-0.0544749999999999,-0.358395,0.8826620000000001,-0.4032249999999999,-0.2693419999999999,1.114042,-0.4084649999999999,-0.284005
74,0.9952365,0.57701,-0.32741,0.8663164999999999,0.395538,-0.284714,0.7338565,0.55809,-0.4279699999999999,1.1219564999999998,0.396412,-0.284655,1.2241564999999999,0.53762,-0.4535099999999999,0.6913865,0.74377,-0.58868,1.2530765,0.70804,-0.64299,0.9206125000000001,0.0009199999999999,0.0023799999999999,1.0793875,-0.0009199999999999,-0.0023799999999999,0.8427965,-0.0355699999999999,-0.3515,1.1339665,-0.0412799999999999,-0.35926,0.8824265,-0.38945,-0.269652,1.1140564999999998,-0.39507,-0.284955
75,0.9945565,0.57646,-0.330195,0.8675904999999999,0.393047,-0.288118,0.7341405,0.5556099999999999,-0.432665,1.1223205,0.393111,-0.288673,1.2245504999999999,0.53052,-0.460185,0.6910805,0.7364299999999999,-0.596455,1.2528705,0.69736,-0.653525,0.9203574999999999,0.0011299999999999,0.002415,1.0796425,-0.00113,-0.002415,0.8424505,-0.0229,-0.352335,1.1344405,-0.02893,-0.360825,0.8813505,-0.3753000000000001,-0.269862,1.1146205,-0.3831300000000001,-0.285831
76,0.994145,0.57672,-0.3329499999999999,0.869238,0.3907609999999999,-0.291433,0.7344280000000001,0.55211,-0.43721,1.122698,0.389343,-0.292707,1.224528,0.5257,-0.4668299999999999,0.6904780000000001,0.72815,-0.60348,1.252738,0.6884699999999999,-0.66309,0.920098,0.0014599999999999,0.00251,1.079902,-0.00146,-0.0025099999999999,0.842068,-0.0094,-0.35316,1.1348880000000001,-0.0158699999999999,-0.36167,0.880278,-0.35747,-0.270028,1.115458,-0.37035,-0.2866959999999999
77,0.9935870000000001,0.570675,-0.33567,0.87088,0.387486,-0.294651,0.73428,0.544995,-0.43984,1.12315,0.384519,-0.296625,1.2241,0.519595,-0.47262,0.68952,0.721095,-0.61,1.25245,0.679365,-0.67151,0.919824,0.0018349999999999,0.00256,1.080176,-0.0018349999999999,-0.00256,0.84126,0.007535,-0.35336,1.13502,0.0007849999999999,-0.3625,0.8799,-0.340165,-0.269787,1.11592,-0.354005,-0.287532
78,0.99311,0.566595,-0.337975,0.871619,0.3857849999999999,-0.296655,0.733479,0.538555,-0.442395,1.122849,0.3831929999999999,-0.299349,1.222909,0.5129389999999999,-0.477605,0.688429,0.715025,-0.616055,1.2519390000000001,0.670315,-0.678905,0.919681,0.0018449999999999,0.002615,1.080319,-0.001845,-0.0026149999999999,0.840199,0.0231849999999999,-0.352715,1.134719,0.0130849999999999,-0.3632849999999999,0.8790789999999999,-0.324125,-0.269541,1.116239,-0.339825,-0.2873
79,0.9935300000000001,0.562195,-0.338615,0.871909,0.3841759999999999,-0.297635,0.732529,0.534185,-0.444625,1.122269,0.381969,-0.3008119999999999,1.221629,0.50784,-0.481105,0.6874290000000001,0.708905,-0.619755,1.251159,0.664155,-0.684265,0.919763,0.001875,0.0026549999999999,1.080237,-0.001875,-0.0026549999999999,0.839139,0.0369749999999999,-0.3516249999999999,1.134329,0.0236049999999999,-0.363035,0.8771990000000001,-0.3087149999999999,-0.270095,1.116699,-0.327065,-0.286677
80,0.9941705000000001,0.55794,-0.33934,0.8721915,0.383859,-0.29868,0.7316815,0.530117,-0.44697,1.1216615,0.381766,-0.302071,1.2212115,0.502366,-0.48414,0.6863915,0.70351,-0.62322,1.2510415,0.65627,-0.68879,0.9198765,0.0018599999999999,0.0026499999999999,1.0801235,-0.00186,-0.00265,0.8382815,0.05119,-0.35,1.1340515,0.03493,-0.36272,0.8753115,-0.29283,-0.270731,1.1172615,-0.31389,-0.286119
81,0.9944995000000001,0.552173,-0.340355,0.8721885,0.383554,-0.29992,0.7306684999999999,0.527002,-0.449295,1.1208685,0.38188,-0.303491,1.2201885,0.499079,-0.486505,0.6847885,0.699045,-0.626375,1.2508884999999998,0.650085,-0.6919649999999999,0.9200965,0.001715,0.0027149999999999,1.0799035,-0.001715,-0.002715,0.8358185,0.060985,-0.348475,1.1335485,0.046285,-0.362045,0.8731185,-0.276995,-0.272311,1.1175885,-0.3004949999999999,-0.28541
82,0.994165,0.5441819999999999,-0.34156,0.872108,0.381973,-0.301743,0.729348,0.52482,-0.45203,1.120008,0.380976,-0.305356,1.219158,0.4969099999999999,-0.48895,0.6831579999999999,0.6935899999999999,-0.6292800000000001,1.250648,0.64696,-0.69538,0.920384,0.0015299999999999,0.0027999999999999,1.079616,-0.00153,-0.0027999999999999,0.833288,0.07077,-0.34663,1.133048,0.0579799999999999,-0.36095,0.869818,-0.26095,-0.279387,1.118098,-0.28678,-0.285305
83,0.9923375000000001,0.53697,-0.342655,0.8724415,0.3826199999999999,-0.303144,0.7284815,0.523046,-0.453915,1.1194614999999999,0.38177,-0.306727,1.2184815,0.4957499999999999,-0.491045,0.6819215000000001,0.68841,-0.6312150000000001,1.2508115,0.64381,-0.697755,0.9208735,0.0013299999999999,0.002945,1.0791265,-0.0013299999999999,-0.002945,0.8310315,0.0794499999999999,-0.344725,1.1327015,0.0688099999999999,-0.359815,0.8691715,-0.24728,-0.280234,1.1189715,-0.2739,-0.284938
84,0.9903155,0.529629,-0.34303,0.8719745,0.38255,-0.304439,0.7277745,0.519055,-0.4552,1.1190345,0.38202,-0.308024,1.2179845,0.494534,-0.49314,0.6809445000000001,0.6846800000000001,-0.63249,1.2511445,0.6406700000000001,-0.69929,0.9213055,0.00108,0.0030799999999999,1.0786945000000001,-0.00108,-0.0030799999999999,0.8289145,0.08495,-0.34275,1.1325144999999999,0.07642,-0.35856,0.8700645000000001,-0.2373099999999999,-0.278632,1.1193745,-0.2642899999999999,-0.284181
85,0.9885155,0.521605,-0.34167,0.8718015,0.382335,-0.304309,0.7273514999999999,0.51782,-0.45545,1.1188915,0.382135,-0.307895,1.2177815,0.492736,-0.49301,0.6802815,0.684155,-0.63234,1.2517814999999999,0.638055,-0.69919,0.9214885,0.000835,0.0031599999999999,1.0785115,-0.000835,-0.0031599999999999,0.8280915,0.0939849999999999,-0.33921,1.1325915,0.0822149999999999,-0.35687,0.8716315,-0.229615,-0.27569,1.1197315,-0.256465,-0.281965
86,0.9870170000000001,0.52305,-0.340595,0.871374,0.38378,-0.304298,0.726734,0.519265,-0.455495,1.118464,0.38358,-0.307918,1.217354,0.494181,-0.493065,0.6793640000000001,0.6856,-0.632375,1.252094,0.6395,-0.699275,0.9217160000000001,0.0001999999999999,0.0029349999999999,1.0782839999999998,-0.0001999999999999,-0.002935,0.8269839999999999,0.0956799999999999,-0.338075,1.132254,0.08368,-0.355495,0.870034,-0.22375,-0.274822,1.119624,-0.25502,-0.281437
87,0.9861200000000001,0.5232100000000001,-0.3397799999999999,0.870991,0.38394,-0.303888,0.726541,0.519425,-0.45503,1.118471,0.3837400000000001,-0.307917,1.217351,0.4943410000000001,-0.49334,0.6788609999999999,0.68576,-0.6316299999999999,1.2527409999999999,0.6396600000000001,-0.6992799999999999,0.921945,4.000000000004e-05,0.00268,1.078055,-3.999999999992898e-05,-0.0026799999999999,0.826341,0.09592,-0.3377699999999999,1.132171,0.08384,-0.35446,0.8697010000000001,-0.2200399999999999,-0.273513,1.119881,-0.25476,-0.281721
88,0.9853685,0.5232100000000001,-0.338635,0.8710074999999999,0.38394,-0.30323,0.7264575,0.519425,-0.454175,1.1185375,0.3837400000000001,-0.307546,1.2176875,0.4943410000000001,-0.493065,0.6785975,0.68576,-0.630195,1.2533675,0.6396600000000001,-0.698255,0.9222235,4.000000000004e-05,0.002645,1.0777765,-3.999999999992898e-05,-0.002645,0.8257875,0.0962,-0.337765,1.1321875,0.08454,-0.354285,0.8708875,-0.2237199999999999,-0.274216,1.1199774999999998,-0.25259,-0.281748
89,0.9848325,0.5261490000000001,-0.33761,0.8690614999999999,0.38685,-0.30175,0.7258415,0.5208440000000001,-0.45254,1.1181415,0.3857900000000001,-0.306184,1.2182515,0.497399,-0.4916399999999999,0.6782015,0.68837,-0.62866,1.2545614999999999,0.6429,-0.69632,0.9226655,4.000000000004e-05,0.0025399999999999,1.0773345,-3.999999999992898e-05,-0.0025399999999999,0.8241115,0.0957,-0.33763,1.1321815,0.08369,-0.35426,0.8735115,-0.2289199999999999,-0.271363,1.1199015,-0.2539499999999999,-0.281663
90,0.9856545,0.530943,-0.33724,0.8679635,0.39048,-0.3011729999999999,0.7257835,0.52449,-0.45154,1.1183235,0.38842,-0.305568,1.2184535,0.501871,-0.49024,0.6782435,0.69272,-0.62774,1.2563335,0.64779,-0.6947,0.9228665,-0.00024,0.00248,1.0771335,0.00024,-0.0024799999999999,0.8245035000000001,0.09419,-0.33831,1.1324135,0.08578,-0.3549299999999999,0.8745935,-0.23397,-0.272541,1.1202835,-0.25287,-0.282737
91,0.986243,0.5359720000000001,-0.33737,0.8669830000000001,0.393955,-0.300857,0.725583,0.5307350000000001,-0.44994,1.118503,0.390955,-0.305107,1.219273,0.5088980000000001,-0.48824,0.678113,0.6995650000000001,-0.6264700000000001,1.258283,0.655405,-0.6922200000000001,0.9228540000000001,-0.0008049999999999,0.0023799999999999,1.077146,0.000805,-0.0023799999999999,0.824713,0.091845,-0.33889,1.132453,0.087175,-0.35539,0.8754230000000001,-0.2365249999999999,-0.273624,1.120433,-0.2529149999999999,-0.28491
92,0.9869990000000001,0.546303,-0.336215,0.866392,0.398395,-0.299975,0.725762,0.53898,-0.446985,1.119042,0.396105,-0.304082,1.220592,0.517734,-0.485905,0.6780619999999999,0.708975,-0.623015,1.261022,0.6671050000000001,-0.688685,0.922916,-0.0009249999999999,0.0023749999999999,1.077084,0.000925,-0.002375,0.825252,0.085135,-0.340265,1.132842,0.084775,-0.355575,0.8742719999999999,-0.2415849999999999,-0.276722,1.1209419999999999,-0.257795,-0.287035
93,0.988246,0.553679,-0.333835,0.8661490000000001,0.399624,-0.298176,0.726289,0.544797,-0.443065,1.120099,0.396965,-0.301797,1.222769,0.524431,-0.480615,0.6782790000000001,0.7169449999999999,-0.617745,1.264649,0.678815,-0.6824749999999999,0.922758,-0.000755,0.002255,1.077242,0.000755,-0.002255,0.827389,0.074625,-0.340405,1.133689,0.0731749999999999,-0.355145,0.873679,-0.255845,-0.27892,1.121029,-0.271875,-0.288396
94,0.9886045000000001,0.563236,-0.330215,0.8658835,0.402282,-0.295407,0.7269635,0.549724,-0.437705,1.1211935,0.399729,-0.298326,1.2250435,0.53106,-0.4757949999999999,0.6785235000000001,0.7292,-0.611265,1.2683935,0.688,-0.673745,0.9226595,-0.00067,0.002075,1.0773405,0.00067,-0.0020749999999999,0.8294035000000001,0.0617099999999999,-0.340595,1.1343635,0.0588599999999999,-0.354915,0.8768535000000001,-0.27532,-0.2718299999999999,1.1206635,-0.28915,-0.288726
95,0.9887795,0.574515,-0.326414,0.8651854999999999,0.405538,-0.292057,0.7273455,0.5577150000000001,-0.43213,1.1219855,0.402394,-0.2944839999999999,1.2271854999999998,0.5378080000000001,-0.4690999999999999,0.6784455,0.740835,-0.60419,1.2720755,0.698855,-0.6633899999999999,0.9226995,-0.0005649999999999,0.00177,1.0773005,0.000565,-0.0017699999999999,0.8313055,0.047015,-0.34029,1.1345255,0.042835,-0.35435,0.8789255,-0.297045,-0.269155,1.1199754999999998,-0.3084949999999999,-0.288759
96,0.989003,0.58543,-0.322337,0.864614,0.408686,-0.288609,0.727794,0.5645899999999999,-0.426085,1.122674,0.40506,-0.290456,1.228634,0.54416,-0.462155,0.6783239999999999,0.7530399999999999,-0.5954550000000001,1.275914,0.7094400000000001,-0.652585,0.9227,-0.00039,0.0015349999999999,1.0773,0.00039,-0.001535,0.8333740000000001,0.0300799999999999,-0.339985,1.134614,0.02399,-0.353405,0.880874,-0.32155,-0.267527,1.119144,-0.33067,-0.288673
97,0.989371,0.5958950000000001,-0.318599,0.864262,0.412192,-0.285584,0.7283920000000002,0.5700149999999999,-0.420585,1.123702,0.408365,-0.28676,1.2299120000000001,0.5566450000000001,-0.455715,0.6787620000000001,0.763525,-0.586425,1.2801719999999999,0.723635,-0.642255,0.9226600000000001,-0.0002449999999999,0.0014649999999999,1.07734,0.0002449999999999,-0.001465,0.835572,0.0075749999999999,-0.339935,1.134632,0.003205,-0.352195,0.881982,-0.346795,-0.266357,1.118422,-0.3545149999999999,-0.289007
98,0.990143,0.6006199999999999,-0.3137649999999999,0.864892,0.412303,-0.282402,0.729572,0.5764,-0.414895,1.124772,0.409002,-0.283294,1.232072,0.56251,-0.449225,0.679202,0.77339,-0.576585,1.283772,0.7287999999999999,-0.630825,0.9226080000000001,0.0002399999999999,0.001375,1.077392,-0.00024,-0.0013749999999999,0.837172,-0.01483,-0.338215,1.134542,-0.01946,-0.3504049999999999,0.8813920000000001,-0.3711,-0.267938,1.117752,-0.37828,-0.28745
99,0.9909180000000001,0.606185,-0.3085449999999999,0.8655570000000001,0.41327,-0.278865,0.730537,0.5856650000000001,-0.4092,1.125697,0.410615,-0.279223,1.234277,0.567805,-0.44253,0.6797770000000001,0.782805,-0.56623,1.287307,0.7360850000000001,-0.61873,0.922625,0.000625,0.00143,1.077375,-0.0006249999999999,-0.0014299999999999,0.8387370000000001,-0.0387349999999999,-0.33618,1.134237,-0.0433949999999999,-0.34831,0.8821970000000001,-0.3967849999999999,-0.2665559999999999,1.117067,-0.4034949999999999,-0.285581
100,0.9910865000000001,0.61366,-0.303469,0.8656635,0.4161209999999999,-0.274912,0.7308435000000001,0.59223,-0.4036849999999999,1.1260335,0.4137119999999999,-0.274641,1.2360034999999998,0.57176,-0.434575,0.6798235,0.7906,-0.5554749999999999,1.2895435,0.74474,-0.606715,0.9227505,0.00123,0.0012949999999999,1.0772495,-0.00123,-0.0012949999999999,0.8398535000000001,-0.06551,-0.3340849999999999,1.1334635,-0.06879,-0.345635,0.8824835,-0.4234,-0.265173,1.1160035,-0.42955,-0.283408
101,0.9924665,0.6166149999999999,-0.298445,0.8671155,0.4160549999999999,-0.270368,0.7319755,0.6000749999999999,-0.39797,1.1272555,0.413285,-0.269612,1.2371555,0.5778049999999999,-0.42538,0.6809555,0.802045,-0.54559,1.2922855,0.7531049999999999,-0.59385,0.9226135,0.0014149999999999,0.0011399999999999,1.0773865,-0.0014149999999999,-0.00114,0.8421255,-0.092295,-0.33121,1.1335355,-0.095475,-0.34186,0.8839255,-0.451185,-0.262726,1.1158454999999998,-0.457335,-0.280455
102,0.9926045000000001,0.62483,-0.292478,0.8668885,0.4224299999999999,-0.264436,0.7316585,0.6134999999999999,-0.39113,1.1274084999999998,0.41932,-0.263506,1.2374485,0.5865400000000001,-0.41585,0.6812785,0.81511,-0.53444,1.2936684999999999,0.76416,-0.58047,0.9228195,0.00135,0.00136,1.0771805,-0.00135,-0.00136,0.8436185,-0.1132099999999999,-0.32674,1.1327384999999999,-0.11574,-0.3368799999999999,0.8843385,-0.47361,-0.259334,1.1156485,-0.47976,-0.276603
103,0.9924935000000001,0.6325000000000001,-0.285964,0.8665535,0.42774,-0.258156,0.7310935000000001,0.62676,-0.38426,1.1274035,0.42451,-0.2572669999999999,1.2373435,0.59529,-0.4068699999999999,0.6816335,0.82701,-0.52227,1.2952335,0.77593,-0.56695,0.9230585,0.00136,0.0017199999999999,1.0769415,-0.0013599999999999,-0.0017199999999999,0.8451935000000002,-0.13295,-0.3212,1.1320635000000001,-0.13493,-0.3308999999999999,0.8844835,-0.49526,-0.255165,1.1157235,-0.50141,-0.271319
104,0.9920405,0.639445,-0.279914,0.8657495,0.434005,-0.252988,0.7305595,0.638785,-0.3774,1.1274495,0.431005,-0.25187,1.2372295,0.6070150000000001,-0.39816,0.6820395,0.840785,-0.5096700000000001,1.2967495,0.7915650000000001,-0.55474,0.9233185,0.001455,0.0022699999999999,1.0766815,-0.0014549999999999,-0.0022699999999999,0.8469595,-0.152385,-0.31569,1.1314695,-0.1534049999999999,-0.32557,0.8845995,-0.518205,-0.252379,1.1158895,-0.524555,-0.266558
105,0.9915080000000001,0.647235,-0.270045,0.864941,0.439855,-0.243898,0.730081,0.651705,-0.36664,1.1277309999999998,0.437445,-0.242589,1.237921,0.618655,-0.38542,0.682411,0.855035,-0.49402,1.297921,0.8058749999999999,-0.5391600000000001,0.923741,0.001455,0.0023499999999999,1.076259,-0.001455,-0.00235,0.848701,-0.169475,-0.3061,1.130891,-0.170595,-0.3161,0.884691,-0.540815,-0.245969,1.1162709999999998,-0.5461450000000001,-0.257964
106,0.9909575,0.654945,-0.259827,0.8641095,0.445515,-0.234402,0.7295595,0.664095,-0.354835,1.1277195,0.443395,-0.232982,1.2381895,0.626285,-0.372265,0.6829095000000001,0.868175,-0.478115,1.2986795,0.821325,-0.523575,0.9241295,0.001395,0.0024049999999999,1.0758705,-0.001395,-0.002405,0.8504795,-0.186435,-0.295775,1.1303595,-0.1875349999999999,-0.305925,0.8846995,-0.562715,-0.239132,1.1165695,-0.566655,-0.248754
107,0.9905405,0.66327,-0.249651,0.8634605000000001,0.45112,-0.22476,0.7290805,0.6746800000000001,-0.342735,1.1277605,0.44976,-0.222911,1.2384005,0.63473,-0.358975,0.6835105,0.87824,-0.460845,1.2995205,0.8377,-0.508455,0.9245675,0.0013299999999999,0.002425,1.0754325,-0.0013299999999999,-0.0024249999999999,0.8522205,-0.20228,-0.284895,1.1298805,-0.20344,-0.295065,0.8846005,-0.5829799999999999,-0.2320269999999999,1.1169405000000001,-0.5858099999999999,-0.2391599999999999
108,0.990094,0.671225,-0.2389609999999999,0.862723,0.4574149999999999,-0.215002,0.728703,0.681935,-0.32954,1.128103,0.457165,-0.212882,1.238353,0.6443249999999999,-0.3454399999999999,0.683933,0.890205,-0.4429999999999999,1.300203,0.852105,-0.49278,0.925081,0.0012349999999999,0.00262,1.074919,-0.001235,-0.00262,0.854113,-0.217455,-0.273308,1.129313,-0.218305,-0.28385,0.884583,-0.602005,-0.224708,1.117273,-0.603545,-0.2295039999999999
109,0.9899040000000001,0.67772,-0.227047,0.861789,0.4627799999999999,-0.204427,0.7292890000000001,0.6920999999999999,-0.31525,1.128669,0.46267,-0.2025739999999999,1.238019,0.6549499999999999,-0.33224,0.684569,0.90159,-0.42371,1.300849,0.8649899999999999,-0.47491,0.92534,0.001,0.00261,1.07466,-0.001,-0.00261,0.856179,-0.23317,-0.260019,1.128829,-0.2332499999999999,-0.27095,0.8846890000000001,-0.62114,-0.2166159999999999,1.117989,-0.6216700000000001,-0.219193
110,0.989733,0.683459,-0.215964,0.860985,0.469299,-0.194398,0.729645,0.698819,-0.30103,1.1294449999999998,0.468489,-0.19284,1.237695,0.661569,-0.31879,0.685485,0.906819,-0.4041599999999999,1.301695,0.877009,-0.45854,0.925469,0.000722,0.00256,1.074531,-0.000722,-0.00256,0.857985,-0.2466209999999999,-0.247166,1.1283249999999998,-0.246021,-0.25856,0.884865,-0.637621,-0.208403,1.1186749999999999,-0.637471,-0.210083
111,0.9895935000000001,0.6893915,-0.2057439999999999,0.8607345,0.4726415,-0.185381,0.7299745,0.7033615,-0.286965,1.1300845,0.4721115,-0.1842269999999999,1.2386645,0.6676215,-0.305455,0.6866045000000001,0.9123915,-0.385795,1.3021745,0.8856515,-0.442735,0.9255795,0.0004684999999999,0.002585,1.0744205,-0.0004684999999999,-0.0025849999999999,0.8596145,-0.2582785,-0.234742,1.1276945,-0.2572185,-0.246462,0.8851845,-0.6520585,-0.2006869999999999,1.1193145,-0.6508885,-0.201616
112,0.989683,0.6963235000000001,-0.195987,0.8606050000000001,0.4766235,-0.176672,0.730925,0.7097635,-0.272595,1.130795,0.4753035,-0.1759089999999999,1.240205,0.6734335,-0.292185,0.687695,0.9175635,-0.367475,1.302195,0.8957634999999999,-0.427265,0.9259850000000001,0.0003994999999999,0.0024349999999999,1.074015,-0.0003994999999999,-0.0024349999999999,0.861255,-0.2701365,-0.222296,1.127165,-0.2675065,-0.234375,0.885495,-0.6663064999999999,-0.193244,1.120015,-0.6631165000000001,-0.194186
113,0.9904255,0.7022904999999999,-0.186033,0.8609055,0.4807405,-0.167359,0.7320355000000001,0.7151704999999999,-0.257985,1.1320055,0.4790305,-0.167526,1.2412455,0.6761204999999999,-0.278475,0.6892155,0.9216105,-0.348925,1.3024354999999999,0.9026805,-0.410125,0.9265775,0.0002584999999999,0.0022449999999999,1.0734225,-0.0002585,-0.002245,0.8636455000000001,-0.2853595,-0.208679,1.1273355,-0.2827294999999999,-0.221216,0.8866755,-0.6814795,-0.185824,1.1211655,-0.6769795000000001,-0.186045
114,0.9912365,0.7080255,-0.176169,0.8612045,0.4855455,-0.158306,0.7332445000000001,0.7218955,-0.24353,1.1335245,0.4833055,-0.159437,1.2422445,0.6852455,-0.26543,0.6903545,0.9261355,-0.32995,1.3027045,0.9151455,-0.393,0.9270484999999999,0.0001654999999999,0.002,1.0729515,-0.0001654999999999,-0.002,0.8667644999999999,-0.2981645,-0.19451,1.1272545,-0.2955345,-0.208586,0.8878745,-0.6942845,-0.178723,1.1223145,-0.6897845,-0.178609
115,0.9923325000000001,0.713719,-0.162349,0.8617465000000001,0.4897789999999999,-0.145448,0.7346064999999999,0.728289,-0.22515,1.1352165,0.487189,-0.147516,1.2434965,0.691539,-0.24838,0.6918265,0.930879,-0.30742,1.3032865,0.922249,-0.3712999999999999,0.9273845000000001,-5.999999999999756e-05,0.0015799999999999,1.0726155,6.000000000000103e-05,-0.0015799999999999,0.8702165,-0.3098309999999999,-0.176205,1.1273365,-0.3072009999999999,-0.192157,0.8893165000000001,-0.705951,-0.16761,1.1236065,-0.701451,-0.167381
116,0.9934415,0.716033,-0.146357,0.8619835,0.492773,-0.130005,0.7362535,0.733373,-0.205035,1.1369034999999998,0.490033,-0.132819,1.2447835,0.697933,-0.229815,0.6932535,0.934303,-0.283935,1.3034035,0.928213,-0.347075,0.9277495,-0.0006969999999999,0.001735,1.0722505,0.0006969999999999,-0.001735,0.8737334999999999,-0.329067,-0.153601,1.1270335,-0.322557,-0.1712,0.8906735,-0.718787,-0.154466,1.1248935,-0.714287,-0.153807
117,0.9944805,0.7187250000000001,-0.1310555,0.8622515,0.495305,-0.1150765,0.7378315,0.738425,-0.1859735,1.1387114999999999,0.491785,-0.1188305,1.2457814999999999,0.7040850000000001,-0.2120834999999999,0.6947915,0.935985,-0.2607835,1.3034015,0.934195,-0.3231435,0.9280685,-0.001282,0.0018444999999999,1.0719315,0.001282,-0.0018444999999999,0.8772515,-0.348475,-0.1324175,1.1269015,-0.337725,-0.1514625,0.8921615,-0.731125,-0.1414955,1.1260214999999998,-0.725155,-0.1408565
118,0.9954075,0.7208625,-0.1172785,0.8628865,0.4970425,-0.1015175,0.7393865,0.7420125,-0.1680444999999999,1.1404665,0.4941125,-0.1059275,1.2466265,0.7090025,-0.1953805,0.6961565000000001,0.9384425,-0.2399205,1.3030565,0.9401025,-0.3011304999999999,0.9282615,-0.0017775,0.0019664999999999,1.0717385,0.0017774999999999,-0.0019665,0.8806465,-0.3653975,-0.1128835,1.1270665,-0.3494775,-0.1338305,0.8936365,-0.7412575,-0.1294805,1.1271365,-0.7337075,-0.1290425
119,0.9962755,0.7228785,-0.1033709999999999,0.8634875,0.4987184999999999,-0.088256,0.7409875,0.7460985,-0.150925,1.1421175,0.4962885,-0.093274,1.2474475,0.7150885,-0.1791829999999999,0.6975675,0.9411985,-0.219713,1.3025175,0.9454685,-0.278883,0.9283785,-0.0021075,0.0019109999999999,1.0716215,0.0021075,-0.0019109999999999,0.8841175,-0.3810715,-0.093449,1.1275375,-0.3600115,-0.116659,0.8950075,-0.7507215,-0.117409,1.1283675,-0.7413115,-0.117262
120,0.9971255,0.723114,-0.0896445,0.8640915,0.499924,-0.0754114999999999,0.7425014999999999,0.749254,-0.1346035,1.1436715,0.4980839999999999,-0.0806645,1.2481715,0.7217640000000001,-0.1635755,0.6992615,0.943914,-0.2000555,1.3021915,0.951864,-0.2572755,0.9283885000000001,-0.0024019999999999,0.0017905,1.0716115,0.002402,-0.0017905,0.8876315,-0.3963959999999999,-0.0745775,1.1283115,-0.370836,-0.1001305,0.8963814999999999,-0.760286,-0.1057365,1.1296415,-0.749306,-0.1057395
121,0.997543,0.7231464999999999,-0.076123,0.8642470000000001,0.5013765,-0.062538,0.743557,0.7512565,-0.118722,1.144757,0.5003065,-0.067948,1.248487,0.7287064999999999,-0.147906,0.700607,0.9457965,-0.1810439999999999,1.301427,0.9589265,-0.235174,0.92833,-0.0027904999999999,0.0016369999999999,1.07167,0.0027905,-0.0016369999999999,0.890757,-0.4122234999999999,-0.055887,1.128697,-0.3821334999999999,-0.08334,0.897447,-0.7703935000000001,-0.0939369999999999,1.130527,-0.7578735,-0.094212
122,0.9974685000000001,0.7226965,-0.0643045,0.8640035,0.5010865,-0.0516515,0.7439635,0.7522765,-0.1050245,1.1451935,0.5004265,-0.0566715,1.2485534999999999,0.7357465,-0.1342025,0.7014535,0.9473865,-0.1651175,1.3002335,0.9637265,-0.2164775,0.9283025,-0.0031875,0.0014454999999999,1.0716975,0.0031874999999999,-0.0014455,0.8930135,-0.4261135,-0.0399405,1.1285735,-0.3916635,-0.0687725,0.8980235,-0.7787135000000001,-0.0836985,1.1309235,-0.7645435,-0.0838925
123,0.9973655000000001,0.7216094999999999,-0.0530415,0.8635035,0.5003394999999999,-0.0408064999999999,0.7442234999999999,0.7521095,-0.0920995,1.1455834999999999,0.4999195,-0.0457615,1.2488635,0.7365594999999999,-0.1205955,0.7022035,0.9474995,-0.1508085,1.2989935,0.9646295,-0.1980285,0.9282954999999999,-0.0035805,0.0012505,1.0717045,0.0035805,-0.0012504999999999,0.8944935,-0.4396905,-0.0257395,1.1288335,-0.4012405,-0.0545825,0.8985035,-0.7867505,-0.0739644999999999,1.1313135,-0.7712405,-0.0734275
124,0.9972295000000001,0.720296,-0.046311,0.8630085000000001,0.499626,-0.034534,0.7444785,0.751546,-0.083846,1.1459484999999998,0.499496,-0.039154,1.2495785,0.737476,-0.111103,0.7027685,0.947286,-0.141117,1.2980985,0.966046,-0.183937,0.9282935,-0.00386,0.0011989999999999,1.0717065,0.00386,-0.001199,0.8954885,-0.451024,-0.016699,1.1288985,-0.409534,-0.045094,0.8986985000000001,-0.792654,-0.068689,1.1313485,-0.776764,-0.067246
125,0.9966955,0.7212265,-0.0425055,0.8625085,0.4998165,-0.0314975,0.7443785,0.7519965000000001,-0.0781735,1.1458485,0.4996565,-0.0360365,1.2498985,0.7395065000000001,-0.1040775,0.7030185,0.9480165,-0.1339305,1.2976385,0.9664465,-0.1732705,0.9280635,-0.0037075,0.0005614999999999,1.0719365,0.0037074999999999,-0.0005615,0.8959585,-0.4516234999999999,-0.0132995,1.1285485,-0.4101335,-0.0414055,0.8984785,-0.7934534999999999,-0.0661825,1.1310085,-0.7776835,-0.0641635
126,0.996304,0.721677,-0.038966,0.8620840000000001,0.4997469999999999,-0.028507,0.744254,0.752007,-0.072456,1.145754,0.500077,-0.032858,1.249554,0.7410869999999999,-0.097083,0.7029639999999999,0.948417,-0.1272039999999999,1.297264,0.966467,-0.1635539999999999,0.927753,-0.003775,-0.000118,1.072247,0.003775,0.000118,0.896224,-0.452503,-0.009901,1.128204,-0.411243,-0.037747,0.8981540000000001,-0.794333,-0.0635,1.130664,-0.778623,-0.0609539999999999
127,0.9959600000000001,0.7218665000000001,-0.0349374999999999,0.861621,0.4996465,-0.0250365,0.744061,0.7525365,-0.0666905,1.145581,0.5000465000000001,-0.0291835,1.249381,0.7430165000000001,-0.0900145,0.702781,0.9493465,-0.1202555,1.296931,0.9651265,-0.1543755,0.9274900000000001,-0.0037195,-0.0006815,1.0725099999999999,0.0037195,0.0006815,0.896421,-0.4538434999999999,-0.0066335,1.127821,-0.4125835,-0.0340225,0.897531,-0.7956734999999999,-0.0605085,1.130201,-0.7799634999999999,-0.0572675
128,0.9956725,0.7227045000000001,-0.0312285,0.8611725,0.4996744999999999,-0.0216775,0.7440025,0.7535845,-0.0608745,1.1453025000000001,0.4996244999999999,-0.0255005,1.2492025,0.7449345,-0.0835655,0.7029225,0.9507945,-0.1132595,1.2968725,0.9645245,-0.1445505,0.9271995000000001,-0.0034645,-0.0010795,1.0728004999999998,0.0034645,0.0010795,0.8965125,-0.4521655,-0.0037935,1.1280325,-0.4107255,-0.0307595,0.8966725000000001,-0.7962754999999999,-0.0574444999999999,1.1299425,-0.7805154999999999,-0.0537664999999999
129,0.995335,0.7226905,-0.027614,0.860704,0.4995904999999999,-0.018188,0.744074,0.7538505,-0.055062,1.144954,0.4995404999999999,-0.021951,1.248964,0.7456605,-0.0772699999999999,0.7033739999999999,0.9514405,-0.106248,1.296734,0.9631905,-0.135413,0.92687,-0.0034205,-0.001283,1.07313,0.0034205,0.0012829999999999,0.896424,-0.4505095,-0.000785,1.128194,-0.4092095,-0.027761,0.895894,-0.7968595,-0.05424,1.129484,-0.7811595,-0.04999
130,0.9949075000000001,0.722596,-0.0240085,0.8601915,0.4995759999999999,-0.0145545,0.7440515,0.754216,-0.0492205,1.1445315,0.4994559999999999,-0.0183165,1.2486115,0.745776,-0.0715035,0.7037715,0.952056,-0.0995014999999999,1.2964514999999999,0.961436,-0.1278105,0.9265665,-0.003339,-0.0014344999999999,1.0734335,0.003339,0.0014345,0.8961815,-0.449144,0.0023905,1.1281415,-0.409364,-0.0245925,0.8950415,-0.797244,-0.0508965,1.1290115,-0.781754,-0.0459805
131,0.9944350000000001,0.7224745,-0.020876,0.8596950000000001,0.4996445,-0.011108,0.743975,0.7545945000000001,-0.043716,1.144095,0.4993545,-0.01496,1.248405,0.7456845000000001,-0.066578,0.7040649999999999,0.9526745,-0.09315,1.296125,0.9594445,-0.12129,0.926355,-0.0032454999999999,-0.0014029999999999,1.073645,0.0032454999999999,0.0014029999999999,0.895895,-0.4482454999999999,0.0049869999999999,1.127875,-0.4102654999999999,-0.021569,0.8942550000000001,-0.7973454999999999,-0.047855,1.128465,-0.7823355,-0.042509
132,0.9940475,0.722506,-0.0176525,0.8592355,0.4994959999999999,-0.0076675,0.7438755,0.754926,-0.0381195,1.1437054999999998,0.4993459999999999,-0.0115455,1.2483455,0.745416,-0.0620815,0.7042755,0.953126,-0.0868065,1.2960155,0.956956,-0.1156145,0.9261235,-0.003137,-0.0013385,1.0738765,0.003137,0.0013384999999999,0.8955855,-0.447624,0.0072654999999999,1.1275555,-0.411354,-0.0184295,0.8936555,-0.797284,-0.0446245,1.1279555,-0.7830440000000001,-0.0392815
133,0.9938750000000001,0.722438,-0.0141615,0.858749,0.499388,-0.0040395,0.7433890000000001,0.753958,-0.0326365,1.143379,0.499228,-0.0080474999999999,1.248669,0.744698,-0.0581025,0.7044090000000001,0.952388,-0.0805045,1.296419,0.953288,-0.1111715,0.92594,-0.003018,-0.0012634999999999,1.07406,0.003018,0.0012634999999999,0.895249,-0.447132,0.0091765,1.127169,-0.4124219999999999,-0.0162465,0.8930490000000001,-0.797152,-0.0411165,1.127369,-0.783922,-0.0357745
134,0.993951,0.72236,-0.010661,0.858326,0.4992899999999999,-0.000422,0.742896,0.75292,-0.027542,1.143196,0.49913,-0.00448,1.249536,0.74366,-0.05437,0.704236,0.95135,-0.0746069999999999,1.2974059999999998,0.94925,-0.107263,0.925809,-0.002896,-0.001154,1.074191,0.0028959999999999,0.001154,0.894846,-0.44691,0.010509,1.126806,-0.41346,-0.01484,0.892506,-0.79699,-0.037702,1.126716,-0.7850499999999999,-0.032249
135,0.9943215,0.7223545,-0.007108,0.8581155,0.4993144999999999,0.0035699999999999,0.7423955,0.7522145,-0.02242,1.1431755,0.4993745,-0.00053,1.2516455,0.7430445,-0.050496,0.7037555,0.9507345,-0.068798,1.2991255,0.9453245,-0.103374,0.9256985000000001,-0.0027205,-0.00079,1.0743014999999998,0.0027205,0.0007899999999999,0.8943355,-0.4466255,0.0118269999999999,1.1261655,-0.4141155,-0.013773,0.8919855,-0.7967055,-0.03386,1.1261455,-0.7856654999999999,-0.028584
