sb224sc-HT22-VT27/4dt907/src/data/kinect_good_preprocessed_A9_mediapipe/A33_kinect.csv
FrameNo,nose_3d_x,nose_3d_y,nose_3d_z,left_shoulder_3d_x,left_shoulder_3d_y,left_shoulder_3d_z,left_elbow_3d_x,left_elbow_3d_y,left_elbow_3d_z,right_shoulder_3d_x,right_shoulder_3d_y,right_shoulder_3d_z,right_elbow_3d_x,right_elbow_3d_y,right_elbow_3d_z,left_wrist_3d_x,left_wrist_3d_y,left_wrist_3d_z,right_wrist_3d_x,right_wrist_3d_y,right_wrist_3d_z,left_hip_3d_x,left_hip_3d_y,left_hip_3d_z,right_hip_3d_x,right_hip_3d_y,right_hip_3d_z,left_knee_3d_x,left_knee_3d_y,left_knee_3d_z,right_knee_3d_x,right_knee_3d_y,right_knee_3d_z,left_ankle_3d_x,left_ankle_3d_y,left_ankle_3d_z,right_ankle_3d_x,right_ankle_3d_y,right_ankle_3d_z
25,0.0047735,0.7225199999999999,0.0671265,-0.1418275,0.51586,0.0628145,-0.2339575,0.7509,0.026772500000000005,0.1468925,0.48351999999999995,0.057899500000000007,0.2425825,0.7429899999999999,0.0344375,-0.2569575,0.9671399999999999,-0.0032344999999999943,0.2642425,0.95204,0.008784500000000004,-0.0715745,0.0030759999999999954,0.002040500000000004,0.0715745,-0.0030760000000000023,-0.0020405000000000006,-0.1219075,-0.41129000000000004,-0.010554499999999994,0.1073925,-0.44794,0.010156500000000002,-0.1249675,-0.78161,-0.0070784999999999945,0.1063125,-0.79579,-0.012831499999999996
26,0.0048535000000000045,0.721642,0.067047,-0.1407455,0.516192,0.06393199999999999,-0.2314655,0.751482,0.032143,0.1467545,0.4834919999999999,0.058221999999999996,0.2413845,0.7432219999999999,0.039129,-0.25298550000000003,0.969532,0.005662999999999998,0.2632045,0.9538319999999999,0.017736999999999996,-0.07152549999999999,0.0032159999999999966,0.002166999999999999,0.07152549999999999,-0.0032159999999999966,-0.0021670000000000023,-0.12175549999999999,-0.411728,-0.010717000000000004,0.1073645,-0.448908,0.010270999999999999,-0.12496550000000001,-0.783018,-0.007308000000000002,0.1063345,-0.797278,-0.012816000000000001
27,0.004933999999999996,0.720886,0.06677999999999999,-0.13973300000000002,0.516826,0.064524,-0.229713,0.7520560000000001,0.036334,0.146677,0.48385600000000006,0.058255,0.24048699999999998,0.742936,0.042803,-0.249833,0.9720260000000001,0.012774999999999998,0.262607,0.9549259999999999,0.024426999999999997,-0.07147,0.0033369999999999997,0.0022769999999999978,0.07147,-0.0033369999999999997,-0.0022769999999999978,-0.12162300000000001,-0.412114,-0.010913000000000003,0.107347,-0.449714,0.010269999999999998,-0.12495300000000001,-0.7840239999999999,-0.007223000000000004,0.10635700000000001,-0.798284,-0.012815000000000003
28,0.005007,0.720129,0.0665365,-0.138726,0.5173989999999999,0.06504950000000001,-0.22833599999999998,0.7521789999999999,0.0397575,0.146544,0.484229,0.0582935,0.23983400000000002,0.742489,0.0457365,-0.248506,0.9717589999999999,0.017030500000000004,0.26234399999999997,0.955459,0.029045500000000002,-0.07141800000000001,0.0034299999999999956,0.002344500000000003,0.07141800000000001,-0.0034300000000000025,-0.0023444999999999994,-0.12148600000000001,-0.412621,-0.011109499999999994,0.10731399999999999,-0.450541,0.010203500000000004,-0.125016,-0.785091,-0.006897499999999994,0.106354,-0.799351,-0.012880499999999996
29,0.0050310000000000025,0.7197745,0.066272,-0.13822800000000002,0.5174245000000001,0.065354,-0.227448,0.7526245,0.042121,0.146452,0.4844545,0.058255,0.239452,0.7420645,0.047685000000000005,-0.247548,0.9712945,0.020412,0.262122,0.9556945000000001,0.031813,-0.07139999999999999,0.0035024999999999987,0.002437999999999999,0.07139999999999999,-0.0035025000000000056,-0.002437999999999999,-0.12137799999999999,-0.41275550000000005,-0.011274000000000003,0.107292,-0.45095549999999995,0.010110000000000001,-0.125088,-0.7852155,-0.006493000000000002,0.10639200000000001,-0.8000155,-0.012971
30,0.005008,0.7192850000000001,0.066025,-0.13808,0.517115,0.065299,-0.22691,0.753245,0.043338,0.14634999999999998,0.484225,0.058155,0.23926999999999998,0.742035,0.048770999999999995,-0.24730000000000002,0.970555,0.021556,0.26193,0.956155,0.033118999999999996,-0.071463,0.003614000000000006,0.002532999999999997,0.071463,-0.003613999999999999,-0.0025330000000000005,-0.12133,-0.412705,-0.011370000000000005,0.10727,-0.451395,0.010192999999999997,-0.12518,-0.784955,-0.005893000000000002,0.10632,-0.800705,-0.012873000000000002
31,0.0049525000000000055,0.718816,0.0657295,-0.13809149999999998,0.516436,0.06513050000000001,-0.2265815,0.7537360000000001,0.0440765,0.1462285,0.483776,0.0579825,0.23906850000000002,0.7421260000000001,0.04950449999999999,-0.24747149999999998,0.969556,0.0218205,0.2618785,0.956756,0.0337035,-0.0715565,0.0036589999999999956,0.002678499999999997,0.0715565,-0.0036590000000000025,-0.0026785000000000003,-0.12131149999999999,-0.412794,-0.0115375,0.10723850000000001,-0.45178399999999996,0.010236499999999999,-0.1253515,-0.784654,-0.0057105,0.10626850000000002,-0.801234,-0.012862499999999999
32,0.004876999999999994,0.7182740000000001,0.0654105,-0.138247,0.515884,0.0648405,-0.22647699999999998,0.7541840000000001,0.044303499999999996,0.14631299999999997,0.483224,0.0577015,0.23889300000000002,0.742204,0.0498895,-0.24762699999999999,0.968804,0.0215305,0.262223,0.9572039999999999,0.0334315,-0.071685,0.003712999999999994,0.0028814999999999986,0.071685,-0.003713000000000001,-0.002881500000000002,-0.121287,-0.412756,-0.011821499999999999,0.107233,-0.45197600000000004,0.0102725,-0.125507,-0.784396,-0.006006499999999998,0.106233,-0.801176,-0.012902499999999997
33,0.004756000000000003,0.718137,0.0650895,-0.13838499999999998,0.515477,0.0644505,-0.22661499999999998,0.754617,0.043993500000000005,0.146425,0.482677,0.0572145,0.23888500000000001,0.742457,0.049584500000000004,-0.24776499999999999,0.9687169999999999,0.021220500000000003,0.262925,0.9575170000000001,0.0331515,-0.071829,0.0036769999999999997,0.0030025000000000017,0.071829,-0.0036769999999999928,-0.0030024999999999982,-0.12129499999999999,-0.412543,-0.0120795,0.10725499999999999,-0.451783,0.0103835,-0.125525,-0.783183,-0.006142499999999995,0.10619500000000001,-0.800453,-0.0126765
34,0.004589499999999998,0.7180365,0.064691,-0.1385395,0.5149064999999999,0.063786,-0.2267795,0.7551065,0.043544,0.1464305,0.48218649999999996,0.056673,0.2389205,0.7427665,0.049142,-0.2479295,0.9685564999999999,0.020770999999999998,0.2637105,0.9580565,0.032736,-0.0720095,0.003669499999999992,0.003077,0.0720095,-0.003669499999999999,-0.003077,-0.1213195,-0.4122035,-0.012382,0.10727049999999999,-0.4515035,0.010384000000000001,-0.1255795,-0.7818835000000001,-0.006234,0.1060705,-0.7996635,-0.012618
35,0.004413000000000002,0.7180435000000001,0.06409000000000001,-0.138516,0.5141235000000001,0.06282399999999999,-0.226956,0.7552135,0.042951,0.146254,0.4818135,0.056004,0.238984,0.7430635,0.048558000000000004,-0.248536,0.9681835,0.019639999999999998,0.264514,0.9581835,0.03196,-0.072159,0.003637500000000002,0.003129,0.072159,-0.003637500000000002,-0.003129,-0.121366,-0.4125765,-0.012823000000000001,0.107264,-0.45133650000000003,0.010322999999999999,-0.125546,-0.7807164999999999,-0.006385000000000002,0.105974,-0.7991965,-0.012892
36,0.004278000000000004,0.7181545,0.06319,-0.138642,0.5135745,0.061542,-0.227362,0.7552745000000001,0.04178,0.146128,0.4815545,0.054984,0.239048,0.7434645,0.047663,-0.249552,0.9683244999999999,0.017231999999999997,0.265388,0.9584245000000001,0.029526999999999998,-0.072296,0.003680500000000003,0.0031219999999999998,0.072296,-0.0036804999999999963,-0.0031219999999999998,-0.121372,-0.4129155,-0.013399000000000001,0.10728800000000001,-0.4512255,0.009982999999999999,-0.125542,-0.7797554999999999,-0.007650999999999998,0.10588800000000001,-0.7987155,-0.013531000000000001
37,0.004048000000000001,0.7183695,0.062022999999999995,-0.138805,0.5130695000000001,0.059913999999999995,-0.227815,0.7553495,0.040010000000000004,0.145955,0.4813195,0.053738,0.23906500000000003,0.7438895,0.046200000000000005,-0.250495,0.9688895000000001,0.013654,0.266175,0.9585895000000001,0.026627,-0.072459,0.0036935000000000023,0.003098,0.072459,-0.0036934999999999954,-0.003098,-0.121455,-0.4133105,-0.014201000000000002,0.107305,-0.45111049999999997,0.009465999999999999,-0.12545499999999998,-0.7779805,-0.008533000000000002,0.105695,-0.7982905,-0.014355999999999997
38,0.003748500000000002,0.718955,0.0601815,-0.1390315,0.512555,0.0580205,-0.2283615,0.7556550000000001,0.0374115,0.1453085,0.4816750000000001,0.0520595,0.23911849999999998,0.744255,0.0440305,-0.25153149999999996,0.9701050000000001,0.0091245,0.26666850000000003,0.958505,0.0228625,-0.0726475,0.0036720000000000017,0.003103500000000002,0.0726475,-0.0036720000000000017,-0.0031034999999999986,-0.1215715,-0.413995,-0.015461499999999996,0.10728850000000001,-0.451115,0.008577500000000002,-0.1255515,-0.776505,-0.010073499999999999,0.10543849999999999,-0.797945,-0.0157515
39,0.0033935000000000007,0.719135,0.057735,-0.1392275,0.512555,0.05588,-0.2288475,0.755715,0.033986,0.1445625,0.4816750000000001,0.049949999999999994,0.2392225,0.744255,0.041276,-0.2524275,0.971405,0.003470000000000001,0.2669825,0.958505,0.018451,-0.0728255,0.0036720000000000017,0.003327,0.0728255,-0.0036720000000000017,-0.003327,-0.1216175,-0.414855,-0.017425000000000003,0.1073625,-0.451115,0.0068489999999999975,-0.1257675,-0.776505,-0.012164000000000001,0.1053225,-0.797945,-0.017838
40,0.0030020000000000047,0.719165,0.054987,-0.139622,0.512225,0.053419,-0.229292,0.755715,0.030104,0.143988,0.4816750000000001,0.047586,0.239358,0.744255,0.038102,-0.253262,0.9720050000000001,-0.0026440000000000005,0.267168,0.958505,0.013561,-0.07302600000000001,0.0036720000000000017,0.0034339999999999996,0.07302600000000001,-0.0036720000000000017,-0.0034339999999999996,-0.12160199999999999,-0.41555499999999995,-0.019618000000000003,0.107488,-0.451115,0.004580000000000001,-0.125932,-0.776505,-0.014488000000000001,0.105128,-0.797945,-0.020163
41,0.0026364999999999974,0.719165,0.051949,-0.1400805,0.511965,0.050689,-0.2298405,0.755715,0.025418,0.1434895,0.48160500000000006,0.044959,0.23949949999999998,0.744255,0.034385,-0.2539405,0.9723050000000001,-0.009183,0.2672995,0.958505,0.008216000000000001,-0.0732515,0.0036720000000000017,0.003406000000000001,0.0732515,-0.0036720000000000017,-0.0034059999999999993,-0.1215405,-0.416425,-0.022114,0.1076495,-0.451115,0.002010999999999999,-0.1260505,-0.776505,-0.017143,0.1049995,-0.797945,-0.022742
42,0.0021945000000000037,0.7198720000000001,0.048212,-0.1404315,0.511812,0.047184000000000004,-0.23046149999999999,0.756352,0.019788,0.14306850000000002,0.48202200000000006,0.041591,0.2396985,0.744422,0.029691000000000002,-0.2545815,0.9730320000000001,-0.016576,0.26749850000000003,0.957732,0.0016510000000000014,-0.0734485,0.003581000000000001,0.0032710000000000013,0.0734485,-0.003581000000000008,-0.0032709999999999996,-0.1213315,-0.41807799999999995,-0.025410999999999996,0.10796850000000001,-0.451318,-0.0013120000000000007,-0.1261215,-0.775698,-0.021345999999999997,0.1050485,-0.797688,-0.026514999999999997
43,0.0017614999999999983,0.7208265,0.043529000000000005,-0.14075949999999998,0.5121465000000001,0.042869000000000004,-0.2310095,0.7574365000000001,0.01288,0.1427405,0.48224649999999997,0.037389,0.2400005,0.7449165000000001,0.023615,-0.2551895,0.9742864999999999,-0.025735,0.2678105,0.9567865000000001,-0.0066110000000000006,-0.0735835,0.0034835000000000005,0.002973000000000001,0.0735835,-0.0034835000000000005,-0.002973,-0.12102950000000001,-0.4195835,-0.029519999999999998,0.1084405,-0.4519035,-0.005414999999999998,-0.1260695,-0.7759535,-0.026931999999999998,0.10521050000000001,-0.7972535,-0.031098
44,0.0014250000000000027,0.7219690000000001,0.038297,-0.14093799999999998,0.512529,0.038298,-0.231538,0.758619,0.005404,0.142522,0.482589,0.032907,0.240432,0.745379,0.016889,-0.255668,0.9758789999999999,-0.035438,0.26823199999999997,0.9557789999999999,-0.015489,-0.07366,0.003380000000000001,0.002685,0.07366,-0.003379999999999994,-0.002685,-0.12068799999999999,-0.420941,-0.03392,0.10900200000000002,-0.45227100000000003,-0.009914,-0.125958,-0.775451,-0.032786,0.10533200000000001,-0.797051,-0.036077
45,0.0009885000000000007,0.722267,0.0318185,-0.1411825,0.512927,0.032902499999999994,-0.2321325,0.7596769999999999,-0.0036345,0.1422075,0.483127,0.0275545,0.2406875,0.745737,0.008413499999999999,-0.25628249999999997,0.9771569999999999,-0.0471065,0.2686375,0.954557,-0.0267435,-0.0737255,0.0032299999999999968,0.0025035,0.0737255,-0.0032300000000000037,-0.0025035,-0.1204125,-0.421993,-0.0391765,0.1095875,-0.452033,-0.015574499999999998,-0.1258525,-0.7758430000000001,-0.0397995,0.1056675,-0.7967230000000001,-0.0427405
46,0.0004840000000000009,0.7221635000000001,0.024798999999999998,-0.141417,0.5132235,0.027135999999999997,-0.232487,0.7604135000000001,-0.013329,0.141923,0.4836135,0.021827,0.240983,0.7459035,-0.001039,-0.257007,0.9778335000000001,-0.05909,0.269153,0.9531335,-0.038897999999999995,-0.073776,0.0030654999999999988,0.0023820000000000004,0.073776,-0.0030655000000000057,-0.002382,-0.120287,-0.4230665,-0.044804,0.110153,-0.4518565,-0.021793,-0.12587700000000002,-0.7761865,-0.047154999999999996,0.106053,-0.7963165,-0.049692
47,-2.849999999999641e-05,0.7219135,0.017413500000000002,-0.1416245,0.5135835,0.021095500000000003,-0.2328245,0.7596235,-0.0236265,0.1419255,0.4840735,0.0158035,0.2412855,0.7459435,-0.010935499999999999,-0.2576445,0.9782035,-0.07138449999999999,0.26973549999999996,0.9515035000000001,-0.0514755,-0.0737765,0.0029024999999999954,0.002337500000000001,0.0737765,-0.0029025000000000023,-0.0023374999999999993,-0.1201245,-0.4235265,-0.0507045,0.1107255,-0.4519265,-0.0283835,-0.1259945,-0.7764065,-0.0548225,0.1062255,-0.7957665,-0.0568885
48,-0.000671499999999998,0.7210605,0.008846,-0.14200549999999998,0.5140705000000001,0.014426999999999999,-0.2332555,0.7593105,-0.035346,0.1417345,0.4843605,0.008988,0.2415845,0.7435305000000001,-0.022612,-0.2584555,0.9772505,-0.085386,0.27027450000000003,0.9481105000000001,-0.065603,-0.0738435,0.0027184999999999987,0.0020489999999999987,0.0738435,-0.0027184999999999987,-0.0020490000000000005,-0.1200155,-0.4230295,-0.05727600000000001,0.1112445,-0.4509495,-0.035836,-0.1262355,-0.7762895,-0.063142,0.1065545,-0.7946595,-0.064599
49,-0.0012634999999999964,0.719131,-0.0012039999999999967,-0.1423235,0.514921,0.006776000000000001,-0.23368350000000002,0.754111,-0.048683,0.1416165,0.484791,0.001187000000000004,0.2421465,0.741131,-0.035634,-0.25929349999999995,0.974031,-0.101723,0.27089650000000004,0.944761,-0.081984,-0.0739145,0.002479000000000002,0.0018790000000000022,0.0739145,-0.002479000000000002,-0.0018789999999999987,-0.11978349999999999,-0.422039,-0.06520999999999999,0.1120465,-0.449159,-0.044467999999999994,-0.1263235,-0.775359,-0.072088,0.10701650000000001,-0.7927390000000001,-0.073166
50,-0.0018094999999999977,0.7165195,-0.011990999999999998,-0.1428335,0.5156995,-0.0014960000000000008,-0.2338835,0.7495795,-0.062007,0.14168650000000002,0.48472950000000004,-0.007123999999999998,0.2427665,0.7378195,-0.049242999999999995,-0.26015350000000004,0.9715695000000001,-0.119246,0.2716665,0.9417295,-0.09914099999999999,-0.0740935,0.002279499999999997,0.0017850000000000019,0.0740935,-0.0022795000000000037,-0.0017849999999999984,-0.1195235,-0.4203905,-0.073691,0.1131365,-0.4467005,-0.053848999999999994,-0.1263135,-0.7737105,-0.081384,0.10759650000000001,-0.7901805,-0.082079
51,-0.0024699999999999965,0.7134675,-0.024818500000000004,-0.143252,0.5138775,-0.011513500000000003,-0.23394199999999998,0.7437375,-0.0776425,0.141438,0.4843375,-0.017238500000000004,0.243458,0.7336375,-0.0648415,-0.261282,0.9650875,-0.1402275,0.27263800000000005,0.9385075,-0.11890450000000001,-0.074269,0.0020495000000000027,0.001742499999999994,0.074269,-0.0020494999999999958,-0.001742500000000001,-0.119272,-0.4178425,-0.0833615,0.114318,-0.4427325,-0.0639185,-0.12620199999999998,-0.7710524999999999,-0.0909365,0.108278,-0.7863625,-0.0919805
52,-0.003232500000000005,0.7105085000000001,-0.0392725,-0.1434735,0.5115685000000001,-0.023253499999999996,-0.2339935,0.7375385000000001,-0.0953405,0.1405765,0.48348850000000004,-0.029166499999999998,0.2441665,0.7296885000000001,-0.0821075,-0.2627035,0.9593385000000001,-0.1630845,0.2739865,0.9359785,-0.14064549999999998,-0.0744595,0.0017794999999999964,0.0018375000000000058,0.0744595,-0.0017794999999999998,-0.0018374999999999989,-0.11904350000000001,-0.4133915,-0.0941115,0.1154665,-0.4367215,-0.07468649999999999,-0.1261135,-0.7660815,-0.10119249999999999,0.1087365,-0.7802414999999999,-0.1025935
53,-0.003835,0.706768,-0.054307999999999995,-0.143462,0.5089279999999999,-0.035581,-0.233832,0.7304579999999999,-0.11372499999999999,0.13977799999999999,0.482458,-0.041818999999999995,0.245038,0.725278,-0.100087,-0.264142,0.9534379999999999,-0.187031,0.275698,0.933218,-0.163411,-0.074511,0.0015030000000000009,0.002027000000000001,0.074511,-0.0015030000000000009,-0.002026999999999994,-0.118672,-0.408672,-0.10528499999999999,0.11690800000000001,-0.43042199999999997,-0.085951,-0.125622,-0.760722,-0.11178199999999999,0.10921800000000001,-0.7735120000000001,-0.11352699999999999
54,-0.004412999999999993,0.703387,-0.07123650000000001,-0.14271399999999998,0.506817,-0.04820350000000001,-0.23319399999999998,0.7215469999999999,-0.1332775,0.138936,0.481607,-0.05493750000000001,0.245986,0.7188869999999999,-0.1192125,-0.264734,0.946637,-0.21339950000000002,0.27783599999999997,0.929897,-0.1877295,-0.07460800000000001,0.001287,0.0021014999999999923,0.07460800000000001,-0.0012870000000000017,-0.002101500000000006,-0.11843399999999998,-0.400563,-0.1168865,0.11854600000000001,-0.422313,-0.09728650000000001,-0.125164,-0.754613,-0.1221045,0.10971600000000001,-0.7654030000000001,-0.1237425
55,-0.004994999999999998,0.6972689999999999,-0.0900865,-0.141788,0.5018389999999999,-0.0634635,-0.232658,0.712519,-0.1553475,0.138072,0.47992900000000005,-0.0701865,0.247262,0.711669,-0.1411715,-0.26507800000000004,0.9402889999999999,-0.2437325,0.28018200000000004,0.921029,-0.2146425,-0.074799,0.0008079999999999997,0.002173499999999995,0.074799,-0.0008080000000000006,-0.0021735000000000088,-0.118418,-0.389471,-0.1300045,0.120322,-0.410521,-0.1099015,-0.124608,-0.7450410000000001,-0.1333435,0.110542,-0.754401,-0.1352075
56,-0.004763500000000002,0.6924465,-0.11306749999999999,-0.1406125,0.49739649999999996,-0.0826845,-0.2314125,0.7055165,-0.1811105,0.1373475,0.47830649999999997,-0.08963049999999999,0.24872750000000002,0.7047365,-0.1670875,-0.2650825,0.9310665,-0.2776505,0.28278749999999997,0.9126965,-0.2449105,-0.07506850000000001,0.0005394999999999992,0.0017035000000000106,0.07506850000000001,-0.0005395,-0.0017034999999999967,-0.1182725,-0.3770135,-0.1471825,0.1223775,-0.3972135,-0.12674349999999998,-0.12358250000000001,-0.7337135,-0.1480635,0.11162749999999999,-0.7423835,-0.1508225
57,-0.0038014999999999985,0.6874195,-0.135841,-0.13908150000000002,0.49008949999999996,-0.10220399999999999,-0.22966150000000002,0.6939495,-0.206612,0.1366885,0.4750295,-0.10947199999999999,0.2505585,0.7012995,-0.19230199999999997,-0.26464150000000003,0.9200995,-0.31033999999999995,0.2857985,0.9087895,-0.27607,-0.0752675,0.00013949999999999727,0.0013400000000000079,0.0752675,-0.00013950000000000073,-0.001339999999999994,-0.1187715,-0.3610105,-0.16677199999999998,0.1254085,-0.3779505,-0.146727,-0.1222915,-0.7197405,-0.163094,0.1127785,-0.7276505,-0.1658
58,-0.002380500000000004,0.681957,-0.15791,-0.13690750000000002,0.482897,-0.12168000000000001,-0.2273675,0.688387,-0.23138000000000003,0.13623249999999998,0.471117,-0.12940300000000002,0.2527725,0.696397,-0.21847300000000003,-0.26351749999999996,0.910817,-0.34257000000000004,0.28927250000000004,0.9037769999999999,-0.30730999999999997,-0.0754235,-1.1000000000004062e-05,0.0009099999999999941,0.0754235,1.0999999999997123e-05,-0.000910000000000008,-0.1189375,-0.344383,-0.18581000000000003,0.1285525,-0.35818300000000003,-0.16673100000000002,-0.1208175,-0.704733,-0.17780700000000002,0.11418249999999999,-0.711783,-0.18046
59,-0.0008274999999999975,0.67408,-0.179905,-0.13448949999999998,0.47422,-0.14192400000000002,-0.22512949999999998,0.6800999999999999,-0.25769000000000003,0.13573049999999998,0.4657,-0.14972300000000002,0.2554405,0.69113,-0.24495,-0.2622195,0.89715,-0.37412,0.2929605,0.8975799999999999,-0.33984000000000003,-0.0756695,-0.00021999999999999797,0.00043999999999999595,0.0756695,0.00022000000000000491,-0.0004400000000000237,-0.1192595,-0.32543,-0.20589500000000002,0.1315305,-0.33621999999999996,-0.18768500000000002,-0.1192295,-0.68666,-0.19281900000000002,0.11546050000000001,-0.69328,-0.19528600000000002
60,0.0011049999999999975,0.66572,-0.200938,-0.131961,0.4679,-0.161045,-0.22319100000000003,0.6711,-0.282275,0.13605899999999999,0.46041,-0.168738,0.258499,0.68527,-0.271275,-0.259711,0.8862,-0.40615500000000004,0.296919,0.89063,-0.37161500000000003,-0.075894,-0.00028000000000000247,3.500000000000725e-05,0.075894,0.0002799999999999886,-3.500000000000725e-05,-0.11972100000000001,-0.30518999999999996,-0.225842,0.134639,-0.3127,-0.20907900000000001,-0.117521,-0.66627,-0.207225,0.116799,-0.67223,-0.20943
61,0.0032039999999999968,0.6570105,-0.219389,-0.129064,0.4625605,-0.177626,-0.221794,0.6598105000000001,-0.30374999999999996,0.13701599999999997,0.4559005,-0.185157,0.261326,0.6788805,-0.29481999999999997,-0.257884,0.8741005000000001,-0.43478,0.299866,0.8828705,-0.4,-0.076075,-0.0001805000000000001,-0.00036999999999998145,0.076075,0.0001805000000000001,0.0003700000000000092,-0.12047400000000001,-0.2859995,-0.244048,0.13773599999999997,-0.2907795,-0.22885699999999998,-0.115924,-0.6469995,-0.22003699999999998,0.117786,-0.6522395,-0.222055
62,0.005270500000000004,0.64935,-0.237109,-0.1261145,0.45862,-0.19344999999999998,-0.2204045,0.6491899999999999,-0.325395,0.13801549999999999,0.45175999999999994,-0.200716,0.26388550000000005,0.67001,-0.317415,-0.2560745,0.86003,-0.462465,0.30249550000000003,0.87062,-0.42766499999999996,-0.0762575,8.999999999999286e-05,-0.0008650000000000047,0.0762575,-9.000000000000674e-05,0.0008650000000000047,-0.12127450000000001,-0.26653000000000004,-0.26178199999999996,0.14073549999999999,-0.26858000000000004,-0.248216,-0.1143845,-0.62705,-0.232327,0.11914550000000002,-0.63142,-0.234088
63,0.007111500000000001,0.639615,-0.252572,-0.1236485,0.449905,-0.209326,-0.2189785,0.6406449999999999,-0.346685,0.1388615,0.44471499999999997,-0.216373,0.2660315,0.663575,-0.338125,-0.2545385,0.8476549999999999,-0.488215,0.3049215,0.860285,-0.453285,-0.0764975,-9.500000000001174e-05,-0.0013050000000000006,0.0764975,9.499999999998399e-05,0.0013050000000000006,-0.1223285,-0.24318500000000004,-0.280262,0.1436715,-0.243755,-0.268049,-0.1132185,-0.6038250000000001,-0.24385400000000002,0.1197815,-0.607105,-0.244498
64,0.008921500000000002,0.633575,-0.265467,-0.12157950000000001,0.444225,-0.222829,-0.2183095,0.6298250000000001,-0.364715,0.1394305,0.438725,-0.229842,0.26769050000000005,0.656595,-0.355305,-0.25331950000000003,0.832055,-0.509775,0.3071205,0.8511550000000001,-0.475935,-0.0766075,0.0003650000000000042,-0.0018149999999999833,0.0766075,-0.0003650000000000042,0.001815000000000011,-0.12338949999999999,-0.21957500000000002,-0.297518,0.1462805,-0.219335,-0.286925,-0.11239949999999999,-0.580805,-0.25371299999999997,0.1202805,-0.582945,-0.253223
65,0.010356499999999998,0.625945,-0.273876,-0.1199075,0.438925,-0.23178600000000002,-0.2177575,0.618345,-0.377915,0.1395325,0.433695,-0.23851900000000004,0.2689525,0.643695,-0.367795,-0.2524075,0.816665,-0.527215,0.3086025,0.8412850000000001,-0.494035,-0.0767615,0.0005650000000000099,-0.0018750000000000155,0.0767615,-0.0005650000000000099,0.0018749999999999878,-0.12486749999999999,-0.19619499999999998,-0.310495,0.1485625,-0.19545500000000002,-0.30152500000000004,-0.11206750000000001,-0.558365,-0.25952000000000003,0.12041249999999999,-0.559375,-0.257579
66,0.011745500000000006,0.616885,-0.282325,-0.11934349999999999,0.434585,-0.240153,-0.21768349999999997,0.609335,-0.38913,0.1393365,0.428505,-0.24623399999999998,0.2695965,0.630595,-0.37951999999999997,-0.25147349999999996,0.805205,-0.54375,0.30935650000000003,0.827475,-0.5104,-0.07702149999999999,0.0008050000000000002,-0.0019699999999999995,0.07702149999999999,-0.0008050000000000002,0.0019699999999999995,-0.12604349999999998,-0.17196499999999998,-0.32059,0.1500265,-0.17122500000000002,-0.3122,-0.11215349999999999,-0.534135,-0.264107,0.1199665,-0.534745,-0.260558
67,0.01242,0.60994,-0.289799,-0.119016,0.43056,-0.247303,-0.21789599999999998,0.59824,-0.39942,0.139014,0.42402,-0.25268,0.269954,0.61988,-0.38861999999999997,-0.250846,0.79083,-0.55923,0.309734,0.81548,-0.52459,-0.077088,0.0008400000000000074,-0.0019899999999999918,0.077088,-0.0008400000000000074,0.0019900000000000195,-0.12745599999999999,-0.14909999999999998,-0.32978999999999997,0.151294,-0.14825000000000002,-0.32164,-0.11242600000000001,-0.51127,-0.268024,0.119284,-0.51139,-0.262905
68,0.012665,0.605695,-0.29635500000000004,-0.11880900000000001,0.42850499999999997,-0.252885,-0.217889,0.589085,-0.408045,0.138741,0.421045,-0.257968,0.27015100000000003,0.611105,-0.397355,-0.250399,0.781045,-0.573795,0.31017100000000003,0.802955,-0.5364949999999999,-0.077098,0.0009449999999999736,-0.0020050000000000068,0.077098,-0.0009450000000000292,0.0020050000000000068,-0.128759,-0.128535,-0.336955,0.152491,-0.12752500000000005,-0.329065,-0.11283900000000001,-0.49070500000000006,-0.270809,0.118561,-0.4903350000000001,-0.264401
69,0.0127755,0.59926,-0.301508,-0.1187825,0.42299,-0.25843499999999997,-0.21903250000000002,0.5813900000000001,-0.41623,0.1378475,0.41645,-0.263231,0.27013750000000003,0.60286,-0.40349999999999997,-0.2509725,0.77061,-0.58492,0.3101775,0.79098,-0.54585,-0.0772495,0.0006800000000000139,-0.0020299999999999763,0.0772495,-0.0006800000000000139,0.002030000000000004,-0.1299125,-0.11329,-0.34253,0.15350750000000002,-0.11208000000000001,-0.33472999999999997,-0.11308249999999999,-0.47237,-0.27341499999999996,0.1179575,-0.47163000000000005,-0.265745
70,0.012619000000000002,0.5927899999999999,-0.30757999999999996,-0.119367,0.41669999999999996,-0.264913,-0.220327,0.57345,-0.42582,0.136793,0.41149,-0.269139,0.26889300000000005,0.59127,-0.40975,-0.25169699999999995,0.75679,-0.59799,0.30968300000000004,0.7783899999999999,-0.55646,-0.07769,0.00031999999999998696,-0.0020399999999999863,0.07769,-0.00031999999999998696,0.002040000000000014,-0.131077,-0.09676000000000001,-0.34829,0.154233,-0.09459000000000001,-0.34057,-0.113617,-0.4536,-0.276633,0.117623,-0.45189999999999997,-0.266987
71,0.010619,0.586595,-0.313492,-0.120128,0.409055,-0.271463,-0.222038,0.565625,-0.43434,0.135992,0.40603300000000003,-0.274812,0.268252,0.582215,-0.41552,-0.252408,0.744775,-0.6109100000000001,0.309232,0.769675,-0.5662,-0.078274,-0.00013499999999999623,-0.002140000000000003,0.078274,0.00013499999999999623,0.002140000000000003,-0.13207799999999997,-0.08000499999999999,-0.35375999999999996,0.15506199999999998,-0.07658500000000001,-0.34593,-0.113748,-0.43518499999999993,-0.279996,0.117322,-0.432165,-0.26847
72,0.008409499999999997,0.583855,-0.31842499999999996,-0.12070350000000002,0.40570799999999996,-0.276333,-0.2230135,0.5552549999999999,-0.44059,0.1353265,0.40361699999999995,-0.278478,0.2675065,0.571735,-0.41996999999999995,-0.2525535,0.730985,-0.62215,0.3087065,0.758505,-0.57376,-0.07870150000000001,-0.00020500000000001073,-0.0021999999999999797,0.07870150000000001,0.00020499999999995522,0.0022000000000000075,-0.1326035,-0.06616500000000003,-0.35665,0.1560565,-0.06174500000000005,-0.34906,-0.11373350000000002,-0.420625,-0.282275,0.1174865,-0.416535,-0.26933199999999996
73,0.005682000000000003,0.580395,-0.323025,-0.12162200000000001,0.402248,-0.280055,-0.223662,0.546865,-0.446735,0.134298,0.401007,-0.28118,0.266598,0.562145,-0.423485,-0.253152,0.717975,-0.6321950000000001,0.308408,0.7509950000000001,-0.580635,-0.079194,-0.0005950000000000122,-0.0022849999999999815,0.079194,0.0005950000000000122,0.0022850000000000092,-0.133392,-0.054474999999999996,-0.358395,0.156728,-0.04880499999999999,-0.35072499999999995,-0.114042,-0.40846499999999997,-0.284005,0.117338,-0.40322499999999994,-0.26934199999999997
74,0.004763500000000006,0.57701,-0.32741,-0.12195649999999998,0.396412,-0.284655,-0.22415649999999998,0.53762,-0.45350999999999997,0.1336835,0.395538,-0.284714,0.2661435,0.55809,-0.42796999999999996,-0.2530765,0.70804,-0.64299,0.3086135,0.74377,-0.58868,-0.0793875,-0.0009199999999999764,-0.0023799999999999932,0.0793875,0.0009199999999999764,0.0023799999999999932,-0.1339665,-0.04127999999999998,-0.35926,0.1572035,-0.03556999999999999,-0.35150000000000003,-0.11405649999999999,-0.39507,-0.284955,0.11757350000000001,-0.38945,-0.269652
75,0.0054435,0.57646,-0.330195,-0.1223205,0.393111,-0.288673,-0.2245505,0.53052,-0.460185,0.1324095,0.393047,-0.288118,0.2658595,0.5556099999999999,-0.432665,-0.2528705,0.69736,-0.653525,0.3089195,0.7364299999999999,-0.596455,-0.0796425,-0.0011300000000000199,-0.0024150000000000005,0.0796425,0.0011299999999999644,0.0024150000000000005,-0.1344405,-0.02893000000000001,-0.360825,0.1575495,-0.02290000000000003,-0.352335,-0.11462049999999999,-0.3831300000000001,-0.285831,0.1186495,-0.3753000000000001,-0.269862
76,0.0058550000000000026,0.57672,-0.33294999999999997,-0.122698,0.389343,-0.292707,-0.224528,0.5257,-0.46682999999999997,0.130762,0.39076099999999997,-0.291433,0.26557200000000003,0.55211,-0.43721,-0.252738,0.6884699999999999,-0.66309,0.30952199999999996,0.72815,-0.60348,-0.079902,-0.0014600000000000168,-0.0025099999999999845,0.079902,0.0014599999999999613,0.0025100000000000122,-0.134888,-0.015869999999999995,-0.36167,0.157932,-0.00940000000000002,-0.35316,-0.115458,-0.37035000000000007,-0.28669599999999995,0.11972200000000001,-0.35747000000000007,-0.270028
77,0.0064129999999999986,0.570675,-0.33567,-0.12315,0.384519,-0.296625,-0.22410000000000002,0.519595,-0.47262,0.12912,0.387486,-0.294651,0.26572,0.544995,-0.43984,-0.25245,0.679365,-0.67151,0.31048000000000003,0.721095,-0.61,-0.080176,-0.0018349999999999755,-0.0025600000000000067,0.080176,0.0018349999999999755,0.0025600000000000067,-0.13501999999999997,0.0007849999999999802,-0.3625,0.15874,0.007535000000000014,-0.35336,-0.11592000000000001,-0.354005,-0.287532,0.1201,-0.34016500000000005,-0.269787
78,0.006889999999999995,0.566595,-0.337975,-0.12284900000000001,0.38319299999999995,-0.299349,-0.222909,0.5129389999999999,-0.477605,0.128381,0.38578499999999993,-0.296655,0.266521,0.538555,-0.442395,-0.251939,0.670315,-0.678905,0.31157100000000004,0.715025,-0.616055,-0.080319,-0.001845000000000041,-0.0026149999999999785,0.080319,0.0018449999999999855,0.002615000000000006,-0.134719,0.013084999999999958,-0.36328499999999997,0.159801,0.023184999999999956,-0.352715,-0.11623900000000001,-0.33982500000000004,-0.2873,0.120921,-0.324125,-0.269541
79,0.006469999999999998,0.562195,-0.338615,-0.12226899999999999,0.381969,-0.30081199999999997,-0.221629,0.50784,-0.481105,0.128091,0.38417599999999996,-0.297635,0.267471,0.534185,-0.444625,-0.251159,0.664155,-0.684265,0.31257100000000004,0.708905,-0.619755,-0.080237,-0.0018750000000000155,-0.0026549999999999907,0.080237,0.0018750000000000155,0.0026549999999999907,-0.134329,0.023604999999999987,-0.363035,0.160861,0.03697499999999998,-0.35162499999999997,-0.116699,-0.32706500000000005,-0.286677,0.122801,-0.30871499999999996,-0.270095
80,0.005829499999999998,0.55794,-0.33934,-0.1216615,0.381766,-0.302071,-0.2212115,0.502366,-0.48414,0.1278085,0.383859,-0.29868,0.2683185,0.530117,-0.44697,-0.2510415,0.65627,-0.68879,0.3136085,0.70351,-0.62322,-0.0801235,-0.0018600000000000283,-0.0026500000000000135,0.0801235,0.0018599999999999728,0.0026499999999999857,-0.13405150000000002,0.03493000000000002,-0.36272000000000004,0.1617185,0.05119000000000001,-0.35,-0.11726150000000002,-0.31389,-0.286119,0.1246885,-0.29283000000000003,-0.270731
81,0.0055004999999999984,0.552173,-0.340355,-0.12086850000000002,0.38188,-0.303491,-0.2201885,0.499079,-0.486505,0.1278115,0.383554,-0.29992,0.2693315,0.527002,-0.449295,-0.25088849999999996,0.650085,-0.6919649999999999,0.31521150000000003,0.699045,-0.626375,-0.0799035,-0.001715000000000022,-0.002715000000000023,0.0799035,0.001715000000000022,0.002714999999999995,-0.13354850000000001,0.04628500000000002,-0.362045,0.1641815,0.06098500000000001,-0.348475,-0.11758850000000001,-0.30049499999999996,-0.28541,0.1268815,-0.276995,-0.272311
82,0.005835000000000003,0.5441819999999999,-0.34156,-0.12000799999999999,0.380976,-0.305356,-0.219158,0.49690999999999996,-0.48895,0.127892,0.381973,-0.301743,0.270652,0.52482,-0.45203000000000004,-0.250648,0.64696,-0.69538,0.316842,0.6935899999999999,-0.6292800000000001,-0.079616,-0.0015300000000000313,-0.002799999999999997,0.079616,0.0015299999999999758,0.002799999999999997,-0.133048,0.057979999999999976,-0.36095,0.16671200000000003,0.07077,-0.34663,-0.118098,-0.28678000000000003,-0.28530500000000003,0.13018200000000002,-0.26095,-0.279387
83,0.007662499999999999,0.53697,-0.34265500000000004,-0.11946150000000001,0.38177,-0.306727,-0.2184815,0.49574999999999997,-0.491045,0.1275585,0.38261999999999996,-0.303144,0.2715185,0.523046,-0.453915,-0.2508115,0.64381,-0.697755,0.3180785,0.68841,-0.6312150000000001,-0.0791265,-0.0013299999999999979,-0.002945000000000003,0.0791265,0.0013299999999999979,0.002945000000000003,-0.1327015,0.06880999999999998,-0.359815,0.16896850000000002,0.07944999999999997,-0.344725,-0.1189715,-0.27390000000000003,-0.284938,0.13082850000000001,-0.24728000000000006,-0.280234
84,0.0096845,0.529629,-0.34303,-0.1190345,0.38202,-0.308024,-0.21798450000000003,0.49453400000000003,-0.49314,0.12802550000000001,0.38255000000000006,-0.304439,0.2722255,0.519055,-0.4552,-0.2511445,0.6406700000000001,-0.69929,0.3190555,0.6846800000000001,-0.63249,-0.0786945,-0.0010800000000000254,-0.0030799999999999994,0.0786945,0.0010800000000000254,0.0030799999999999994,-0.13251449999999998,0.07642000000000004,-0.35856,0.1710855,0.08495000000000003,-0.34275,-0.11937450000000001,-0.26428999999999997,-0.284181,0.12993549999999998,-0.23730999999999997,-0.278632
85,0.011484500000000003,0.521605,-0.34167000000000003,-0.1188915,0.382135,-0.30789500000000003,-0.21778150000000002,0.492736,-0.49301000000000006,0.1281985,0.382335,-0.304309,0.2726485,0.51782,-0.45545,-0.2517815,0.638055,-0.69919,0.3197185,0.684155,-0.63234,-0.0785115,-0.0008350000000000302,-0.003159999999999996,0.0785115,0.0008350000000000302,0.003159999999999996,-0.1325915,0.08221499999999998,-0.35687,0.1719085,0.09398499999999999,-0.33921,-0.1197315,-0.25646500000000005,-0.281965,0.1283685,-0.229615,-0.27569
86,0.012982999999999998,0.52305,-0.340595,-0.11846400000000001,0.38358000000000003,-0.307918,-0.21735400000000002,0.49418100000000004,-0.49306500000000003,0.128626,0.38378,-0.304298,0.273266,0.519265,-0.455495,-0.252094,0.6395,-0.699275,0.320636,0.6856,-0.632375,-0.07828399999999999,-0.00019999999999997797,-0.002935000000000021,0.07828399999999999,0.00019999999999997797,0.002934999999999993,-0.132254,0.08368000000000003,-0.355495,0.173016,0.09567999999999999,-0.338075,-0.11962400000000001,-0.25502,-0.281437,0.129966,-0.22375,-0.274822
87,0.013879999999999998,0.5232100000000001,-0.33977999999999997,-0.11847099999999999,0.3837400000000001,-0.307917,-0.21735100000000002,0.4943410000000001,-0.49334,0.129009,0.38394000000000006,-0.303888,0.273459,0.519425,-0.45503,-0.252741,0.6396600000000001,-0.6992799999999999,0.321139,0.68576,-0.6316299999999999,-0.078055,-3.999999999992898e-05,-0.002679999999999988,0.078055,4.0000000000040004e-05,0.0026800000000000157,-0.132171,0.08384000000000008,-0.35446,0.173659,0.09592000000000006,-0.33776999999999996,-0.11988100000000002,-0.25476,-0.281721,0.130299,-0.2200399999999999,-0.273513
88,0.014631500000000004,0.5232100000000001,-0.338635,-0.11853749999999999,0.3837400000000001,-0.307546,-0.2176875,0.4943410000000001,-0.493065,0.1289925,0.38394000000000006,-0.30323,0.2735425,0.519425,-0.454175,-0.25336749999999997,0.6396600000000001,-0.698255,0.3214025,0.68576,-0.630195,-0.0777765,-3.999999999992898e-05,-0.0026450000000000085,0.0777765,4.0000000000040004e-05,0.0026450000000000085,-0.13218749999999999,0.08454000000000006,-0.354285,0.17421250000000002,0.09620000000000006,-0.337765,-0.11997749999999999,-0.25259,-0.281748,0.1291125,-0.22371999999999992,-0.274216
89,0.0151675,0.5261490000000001,-0.33761,-0.11814150000000001,0.3857900000000001,-0.306184,-0.2182515,0.49739900000000004,-0.49163999999999997,0.1309385,0.38685,-0.30175,0.27415849999999997,0.5208440000000001,-0.45254,-0.2545615,0.6429,-0.69632,0.3217985,0.68837,-0.62866,-0.0773345,-3.999999999992898e-05,-0.0025399999999999867,0.0773345,4.0000000000040004e-05,0.0025399999999999867,-0.1321815,0.08369000000000004,-0.35426,0.1758885,0.09570000000000006,-0.33763,-0.1199015,-0.2539499999999999,-0.281663,0.1264885,-0.2289199999999999,-0.271363
90,0.014345500000000004,0.530943,-0.33724,-0.1183235,0.38842,-0.305568,-0.2184535,0.501871,-0.49024,0.1320365,0.39048,-0.30117299999999997,0.27421650000000003,0.52449,-0.45154,-0.2563335,0.64779,-0.6947,0.3217565,0.69272,-0.62774,-0.0771335,0.00024000000000001798,-0.0024799999999999822,0.0771335,-0.00024000000000001798,0.00248000000000001,-0.13241350000000002,0.08578000000000002,-0.35492999999999997,0.1754965,0.09419,-0.33831,-0.12028350000000002,-0.25287000000000004,-0.282737,0.1254065,-0.23397,-0.272541
91,0.013757000000000002,0.5359720000000001,-0.33737,-0.118503,0.39095500000000005,-0.305107,-0.219273,0.5088980000000001,-0.48824,0.133017,0.39395500000000006,-0.300857,0.274417,0.5307350000000001,-0.44994,-0.258283,0.655405,-0.6922200000000001,0.321887,0.6995650000000001,-0.6264700000000001,-0.07714599999999999,0.0008050000000000557,-0.0023799999999999932,0.07714599999999999,-0.0008049999999999446,0.0023799999999999932,-0.13245300000000002,0.08717500000000006,-0.35539,0.175287,0.09184500000000007,-0.33889,-0.12043300000000001,-0.2529149999999999,-0.28491,0.124577,-0.23652499999999999,-0.273624
92,0.013000999999999999,0.546303,-0.33621500000000004,-0.119042,0.39610500000000004,-0.304082,-0.22059199999999998,0.517734,-0.48590500000000003,0.133608,0.39839500000000005,-0.299975,0.274238,0.53898,-0.446985,-0.261022,0.6671050000000001,-0.688685,0.321938,0.708975,-0.623015,-0.077084,0.0009250000000000647,-0.002375000000000016,0.077084,-0.0009249999999999536,0.0023749999999999882,-0.132842,0.08477500000000004,-0.35557500000000003,0.17474800000000001,0.08513500000000002,-0.34026500000000004,-0.12094200000000001,-0.257795,-0.28703500000000004,0.125728,-0.24158499999999994,-0.276722
93,0.011754000000000004,0.553679,-0.333835,-0.120099,0.396965,-0.301797,-0.222769,0.524431,-0.480615,0.133851,0.399624,-0.298176,0.27371100000000004,0.544797,-0.44306500000000004,-0.26464899999999997,0.678815,-0.6824749999999999,0.32172100000000003,0.7169449999999999,-0.617745,-0.077242,0.0007550000000000057,-0.002255000000000007,0.077242,-0.0007550000000000057,0.002255000000000007,-0.13368899999999997,0.07317499999999999,-0.355145,0.17261100000000001,0.074625,-0.340405,-0.12102900000000001,-0.271875,-0.288396,0.12632100000000002,-0.255845,-0.27892
94,0.011395499999999998,0.563236,-0.330215,-0.12119350000000001,0.399729,-0.298326,-0.2250435,0.53106,-0.47579499999999997,0.1341165,0.402282,-0.295407,0.2730365,0.549724,-0.437705,-0.2683935,0.688,-0.673745,0.3214765,0.7292,-0.611265,-0.0773405,0.0006700000000000039,-0.0020749999999999935,0.0773405,-0.0006700000000000039,0.0020750000000000213,-0.1343635,0.05885999999999997,-0.354915,0.17059649999999998,0.06170999999999999,-0.340595,-0.1206635,-0.28915,-0.288726,0.12314649999999999,-0.27532,-0.27182999999999996
95,0.0112205,0.574515,-0.326414,-0.1219855,0.40239400000000003,-0.29448399999999997,-0.22718549999999998,0.5378080000000001,-0.46909999999999996,0.1348145,0.40553800000000007,-0.292057,0.2726545,0.5577150000000001,-0.43213,-0.27207549999999997,0.698855,-0.6633899999999999,0.3215545,0.740835,-0.60419,-0.0773005,0.0005650000000000377,-0.0017699999999999938,0.0773005,-0.0005649999999999822,0.0017700000000000216,-0.1345255,0.04283500000000001,-0.35435,0.1686945,0.04701500000000003,-0.34029,-0.11997549999999998,-0.30849499999999996,-0.288759,0.1210745,-0.297045,-0.269155
96,0.010997,0.58543,-0.322337,-0.122674,0.40506,-0.29045600000000005,-0.228634,0.54416,-0.462155,0.135386,0.408686,-0.288609,0.272206,0.5645899999999999,-0.42608500000000005,-0.275914,0.7094400000000001,-0.652585,0.321676,0.7530399999999999,-0.5954550000000001,-0.07730000000000001,0.00039000000000000146,-0.0015350000000000086,0.07730000000000001,-0.00039000000000000146,0.0015349999999999808,-0.13461399999999998,0.02399000000000001,-0.353405,0.166626,0.030079999999999996,-0.33998500000000004,-0.119144,-0.33067,-0.288673,0.11912600000000001,-0.32155,-0.267527
97,0.010629,0.5958950000000001,-0.318599,-0.123702,0.40836500000000003,-0.28676,-0.229912,0.5566450000000001,-0.455715,0.135738,0.412192,-0.285584,0.27160799999999996,0.5700149999999999,-0.420585,-0.28017200000000003,0.723635,-0.642255,0.32123799999999997,0.763525,-0.586425,-0.07733999999999999,0.0002449999999999952,-0.0014650000000000218,0.07733999999999999,-0.0002449999999999952,0.001464999999999994,-0.134632,0.0032050000000000134,-0.35219500000000004,0.164428,0.007574999999999998,-0.339935,-0.118422,-0.35451499999999997,-0.289007,0.118018,-0.346795,-0.266357
98,0.009857,0.6006199999999999,-0.31376499999999996,-0.124772,0.409002,-0.283294,-0.232072,0.56251,-0.449225,0.135108,0.412303,-0.282402,0.270428,0.5764,-0.414895,-0.28377199999999997,0.7287999999999999,-0.630825,0.320798,0.77339,-0.576585,-0.07739199999999999,-0.00024000000000001798,-0.0013749999999999873,0.07739199999999999,0.00023999999999996247,0.001375000000000015,-0.134542,-0.019460000000000033,-0.35040499999999997,0.162828,-0.01483000000000001,-0.338215,-0.117752,-0.37828000000000006,-0.28745,0.11860799999999999,-0.3711,-0.267938
99,0.009081999999999996,0.606185,-0.30854499999999996,-0.125697,0.41061500000000006,-0.279223,-0.234277,0.567805,-0.44253,0.13444299999999998,0.41327,-0.278865,0.269463,0.5856650000000001,-0.4092,-0.287307,0.7360850000000001,-0.61873,0.320223,0.782805,-0.56623,-0.077375,-0.0006249999999999867,-0.0014299999999999868,0.077375,0.0006250000000000422,0.0014300000000000146,-0.134237,-0.04339499999999996,-0.34831,0.161263,-0.038734999999999964,-0.33618,-0.117067,-0.40349499999999994,-0.285581,0.11780299999999999,-0.39678499999999994,-0.26655599999999996
100,0.008913499999999996,0.61366,-0.303469,-0.12603350000000002,0.41371199999999997,-0.274641,-0.23600349999999998,0.57176,-0.434575,0.1343365,0.41612099999999996,-0.274912,0.26915649999999997,0.59223,-0.40368499999999996,-0.2895435,0.74474,-0.606715,0.3201765,0.7906,-0.5554749999999999,-0.0772495,-0.0012300000000000089,-0.0012949999999999906,0.0772495,0.0012300000000000089,0.0012949999999999906,-0.1334635,-0.06879000000000002,-0.345635,0.16014649999999997,-0.06551000000000001,-0.33408499999999997,-0.1160035,-0.42955000000000004,-0.283408,0.1175165,-0.42340000000000005,-0.265173
101,0.007533500000000001,0.6166149999999999,-0.298445,-0.1272555,0.413285,-0.269612,-0.2371555,0.5778049999999999,-0.42538,0.13288450000000002,0.41605499999999995,-0.270368,0.2680245,0.6000749999999999,-0.39797000000000005,-0.2922855,0.7531049999999999,-0.59385,0.31904449999999995,0.802045,-0.54559,-0.0773865,-0.0014149999999999996,-0.0011400000000000021,0.0773865,0.0014149999999999996,0.0011399999999999744,-0.1335355,-0.09547500000000003,-0.34186000000000005,0.1578745,-0.09229500000000002,-0.33121,-0.11584549999999999,-0.45733500000000005,-0.280455,0.1160745,-0.45118500000000006,-0.262726
102,0.0073954999999999976,0.62483,-0.292478,-0.12740849999999998,0.41932,-0.263506,-0.2374485,0.5865400000000001,-0.41585,0.1331115,0.42242999999999997,-0.264436,0.2683415,0.6134999999999999,-0.39113,-0.2936685,0.76416,-0.58047,0.3187215,0.81511,-0.53444,-0.0771805,-0.0013500000000000179,-0.00136,0.0771805,0.0013500000000000179,0.00136,-0.13273849999999998,-0.11574000000000001,-0.33687999999999996,0.1563815,-0.11320999999999998,-0.32674,-0.1156485,-0.47976,-0.276603,0.1156615,-0.47361000000000003,-0.259334
103,0.0075064999999999975,0.6325000000000001,-0.285964,-0.1274035,0.42451,-0.25726699999999997,-0.2373435,0.59529,-0.40686999999999995,0.1334465,0.42774,-0.258156,0.2689065,0.62676,-0.38426,-0.2952335,0.77593,-0.56695,0.3183665,0.82701,-0.52227,-0.0769415,-0.0013599999999999723,-0.0017199999999999993,0.0769415,0.0013600000000000279,0.0017199999999999993,-0.1320635,-0.13493,-0.33089999999999997,0.15480649999999999,-0.13295,-0.3212,-0.1157235,-0.50141,-0.271319,0.1155165,-0.49526000000000003,-0.255165
104,0.007959500000000003,0.639445,-0.279914,-0.1274495,0.431005,-0.25187000000000004,-0.2372295,0.6070150000000001,-0.39816,0.1342505,0.43400500000000003,-0.252988,0.26944049999999997,0.638785,-0.3774,-0.2967495,0.7915650000000001,-0.55474,0.3179605,0.840785,-0.5096700000000001,-0.0766815,-0.001454999999999984,-0.0022699999999999942,0.0766815,0.0014550000000000118,0.0022699999999999942,-0.1314695,-0.15340499999999996,-0.32557,0.1530405,-0.152385,-0.31569,-0.1158895,-0.524555,-0.266558,0.1154005,-0.518205,-0.252379
105,0.008492,0.647235,-0.270045,-0.12773099999999998,0.437445,-0.242589,-0.237921,0.618655,-0.38542,0.135059,0.439855,-0.243898,0.269919,0.651705,-0.36664,-0.297921,0.8058749999999999,-0.5391600000000001,0.317589,0.855035,-0.49402,-0.076259,-0.0014550000000000118,-0.0023500000000000187,0.076259,0.0014550000000000118,0.002349999999999991,-0.130891,-0.170595,-0.3161,0.15129900000000002,-0.169475,-0.30610000000000004,-0.11627099999999999,-0.5461450000000001,-0.257964,0.115309,-0.540815,-0.245969
106,0.0090425,0.654945,-0.25982700000000003,-0.12771949999999999,0.443395,-0.23298200000000002,-0.2381895,0.626285,-0.372265,0.13589050000000003,0.445515,-0.234402,0.2704405,0.664095,-0.354835,-0.2986795,0.821325,-0.523575,0.3170905,0.868175,-0.478115,-0.0758705,-0.0013950000000000073,-0.0024050000000000182,0.0758705,0.0013950000000000073,0.0024049999999999905,-0.13035950000000002,-0.18753499999999998,-0.305925,0.1495205,-0.186435,-0.295775,-0.1165695,-0.566655,-0.24875400000000003,0.1153005,-0.562715,-0.239132
107,0.009459499999999996,0.66327,-0.249651,-0.1277605,0.44976,-0.222911,-0.23840050000000002,0.63473,-0.358975,0.13653949999999998,0.45112,-0.22476,0.2709195,0.6746800000000001,-0.342735,-0.2995205,0.8377,-0.508455,0.3164895,0.87824,-0.460845,-0.0754325,-0.0013299999999999979,-0.0024249999999999827,0.0754325,0.0013299999999999979,0.0024250000000000105,-0.1298805,-0.20344,-0.295065,0.1477795,-0.20228000000000002,-0.284895,-0.11694050000000002,-0.5858099999999999,-0.23915999999999998,0.1153995,-0.5829799999999999,-0.23202699999999998
108,0.009906,0.671225,-0.23896099999999998,-0.128103,0.457165,-0.212882,-0.238353,0.6443249999999999,-0.34543999999999997,0.137277,0.45741499999999996,-0.215002,0.271297,0.681935,-0.32954,-0.300203,0.852105,-0.49278,0.316067,0.890205,-0.44299999999999995,-0.074919,-0.0012350000000000139,-0.002620000000000011,0.074919,0.0012349999999999861,0.002620000000000011,-0.129313,-0.21830500000000003,-0.28385,0.145887,-0.217455,-0.273308,-0.11727299999999999,-0.603545,-0.22950399999999999,0.115417,-0.602005,-0.224708
109,0.010095999999999999,0.67772,-0.227047,-0.128669,0.46267,-0.20257399999999998,-0.238019,0.6549499999999999,-0.33224,0.138211,0.46277999999999997,-0.204427,0.27071100000000003,0.6920999999999999,-0.31525000000000003,-0.300849,0.8649899999999999,-0.47491,0.315431,0.90159,-0.42371,-0.07466,-0.0010000000000000009,-0.002610000000000001,0.07466,0.0010000000000000009,0.002610000000000001,-0.128829,-0.23324999999999999,-0.27095,0.143821,-0.23317000000000002,-0.260019,-0.11798900000000001,-0.6216700000000001,-0.219193,0.115311,-0.62114,-0.21661599999999998
110,0.010267000000000005,0.683459,-0.215964,-0.12944499999999998,0.468489,-0.19284,-0.237695,0.661569,-0.31879,0.139015,0.469299,-0.19439800000000002,0.270355,0.698819,-0.30103,-0.301695,0.877009,-0.45854,0.31451500000000004,0.906819,-0.40415999999999996,-0.074531,-0.0007220000000000004,-0.0025600000000000067,0.074531,0.0007220000000000004,0.0025600000000000067,-0.12832499999999997,-0.246021,-0.25856,0.142015,-0.24662099999999998,-0.247166,-0.11867499999999999,-0.637471,-0.21008300000000002,0.115135,-0.637621,-0.208403
111,0.010406499999999999,0.6893915,-0.20574399999999998,-0.1300845,0.4721115,-0.18422699999999997,-0.2386645,0.6676215,-0.305455,0.13926550000000001,0.4726415,-0.185381,0.2700255,0.7033615,-0.286965,-0.3021745,0.8856515,-0.442735,0.3133955,0.9123915,-0.385795,-0.0744205,-0.0004684999999999967,-0.002584999999999976,0.0744205,0.0004684999999999967,0.002585000000000004,-0.1276945,-0.2572185,-0.246462,0.1403855,-0.2582785,-0.234742,-0.11931449999999999,-0.6508885,-0.201616,0.11481549999999999,-0.6520585,-0.20068699999999998
112,0.010317,0.6963235000000001,-0.195987,-0.130795,0.4753035,-0.17590899999999998,-0.240205,0.6734335,-0.29218500000000003,0.139395,0.4766235,-0.176672,0.269075,0.7097635,-0.27259500000000003,-0.302195,0.8957634999999999,-0.427265,0.312305,0.9175635,-0.367475,-0.074015,-0.0003994999999999971,-0.0024349999999999927,0.074015,0.0003994999999999971,0.0024349999999999927,-0.12716499999999997,-0.2675065,-0.234375,0.138745,-0.2701365,-0.222296,-0.120015,-0.6631165000000001,-0.194186,0.114505,-0.6663064999999999,-0.193244
113,0.0095745,0.7022904999999999,-0.186033,-0.1320055,0.4790305,-0.167526,-0.2412455,0.6761204999999999,-0.27847500000000003,0.1390945,0.4807405,-0.167359,0.2679645,0.7151704999999999,-0.257985,-0.30243549999999997,0.9026805,-0.410125,0.3107845,0.9216105,-0.34892500000000004,-0.0734225,-0.0002585000000000018,-0.0022450000000000248,0.0734225,0.00025849999999999485,0.002244999999999997,-0.1273355,-0.28272949999999997,-0.22121600000000002,0.1363545,-0.2853595,-0.208679,-0.1211655,-0.6769795000000001,-0.18604500000000002,0.1133245,-0.6814795,-0.18582400000000002
114,0.008763500000000004,0.7080255,-0.17616900000000002,-0.1335245,0.4833055,-0.159437,-0.24224449999999997,0.6852455,-0.26543,0.13879550000000002,0.4855455,-0.158306,0.26675550000000003,0.7218955,-0.24353000000000002,-0.3027045,0.9151455,-0.393,0.3096455,0.9261355,-0.32995,-0.0729515,-0.00016549999999999898,-0.0020000000000000018,0.0729515,0.00016549999999999898,0.0020000000000000018,-0.1272545,-0.2955345,-0.208586,0.1332355,-0.2981645,-0.19451000000000002,-0.1223145,-0.6897845,-0.17860900000000002,0.1121255,-0.6942845,-0.17872300000000002
115,0.007667499999999996,0.713719,-0.16234900000000002,-0.13521650000000002,0.487189,-0.147516,-0.2434965,0.691539,-0.24838,0.13825349999999997,0.48977899999999996,-0.145448,0.2653935,0.728289,-0.22515000000000002,-0.3032865,0.922249,-0.37129999999999996,0.3081735,0.930879,-0.30742,-0.0726155,6.0000000000001025e-05,-0.001579999999999998,0.0726155,-5.9999999999997555e-05,0.001579999999999998,-0.12733650000000002,-0.30720099999999995,-0.19215700000000002,0.1297835,-0.30983099999999997,-0.176205,-0.1236065,-0.701451,-0.167381,0.11068349999999999,-0.705951,-0.16761
116,0.006558500000000004,0.716033,-0.14635700000000001,-0.13690349999999998,0.490033,-0.13281900000000002,-0.2447835,0.697933,-0.229815,0.13801650000000001,0.492773,-0.130005,0.2637465,0.733373,-0.20503500000000002,-0.3034035,0.9282130000000001,-0.347075,0.30674650000000003,0.934303,-0.283935,-0.0722505,0.0006969999999999997,-0.0017350000000000004,0.0722505,-0.0006969999999999997,0.0017350000000000004,-0.1270335,-0.322557,-0.17120000000000002,0.1262665,-0.329067,-0.15360100000000002,-0.12489349999999999,-0.714287,-0.153807,0.1093265,-0.718787,-0.154466
117,0.005519500000000004,0.7187250000000001,-0.1310555,-0.1387115,0.491785,-0.1188305,-0.24578149999999999,0.7040850000000001,-0.21208349999999998,0.13774850000000002,0.49530500000000005,-0.1150765,0.2621685,0.738425,-0.1859735,-0.3034015,0.934195,-0.32314350000000003,0.3052085,0.9359850000000001,-0.2607835,-0.07193150000000001,0.0012820000000000002,-0.001844499999999999,0.07193150000000001,-0.0012820000000000002,0.001844499999999999,-0.1269015,-0.337725,-0.1514625,0.12274850000000001,-0.348475,-0.1324175,-0.12602149999999998,-0.725155,-0.1408565,0.1078385,-0.731125,-0.1414955
118,0.004592500000000001,0.7208625,-0.11727850000000001,-0.1404665,0.49411250000000007,-0.10592750000000001,-0.2466265,0.7090025,-0.1953805,0.1371135,0.49704250000000005,-0.10151750000000001,0.2606135,0.7420125,-0.16804449999999999,-0.3030565,0.9401025000000001,-0.30113049999999997,0.3038435,0.9384425000000001,-0.2399205,-0.07173850000000001,0.0017774999999999996,-0.00196650000000001,0.07173850000000001,-0.0017775000000000004,0.001966499999999996,-0.1270665,-0.3494775,-0.13383050000000002,0.1193535,-0.3653975,-0.1128835,-0.12713649999999999,-0.7337075,-0.1290425,0.1063635,-0.7412575,-0.1294805
119,0.0037245000000000047,0.7228785,-0.10337099999999999,-0.14211749999999998,0.4962885,-0.093274,-0.2474475,0.7150885,-0.17918299999999998,0.1365125,0.49871849999999995,-0.088256,0.2590125,0.7460985,-0.150925,-0.3025175,0.9454685,-0.278883,0.3024325,0.9411984999999999,-0.219713,-0.0716215,0.0021075,-0.001910999999999996,0.0716215,-0.0021075,0.001910999999999996,-0.1275375,-0.3600115,-0.116659,0.1158825,-0.3810715,-0.093449,-0.1283675,-0.7413115,-0.117262,0.10499250000000002,-0.7507215,-0.117409
120,0.0028745000000000047,0.723114,-0.0896445,-0.14367149999999998,0.49808399999999997,-0.0806645,-0.2481715,0.7217640000000001,-0.1635755,0.13590850000000002,0.49992400000000004,-0.07541149999999999,0.2574985,0.749254,-0.1346035,-0.3021915,0.951864,-0.2572755,0.3007385,0.943914,-0.2000555,-0.0716115,0.0024020000000000014,-0.0017905000000000004,0.0716115,-0.002401999999999998,0.0017905000000000004,-0.1283115,-0.370836,-0.1001305,0.11236850000000001,-0.39639599999999997,-0.0745775,-0.1296415,-0.749306,-0.1057395,0.1036185,-0.760286,-0.1057365
121,0.002457,0.7231464999999999,-0.076123,-0.144757,0.5003065,-0.06794800000000001,-0.248487,0.7287064999999999,-0.147906,0.13575299999999998,0.5013765,-0.062538,0.256443,0.7512565,-0.118722,-0.301427,0.9589265,-0.235174,0.299393,0.9457964999999999,-0.18104399999999998,-0.07167000000000001,0.0027905000000000013,-0.0016369999999999996,0.07167000000000001,-0.002790499999999998,0.0016369999999999996,-0.128697,-0.38213349999999996,-0.08334,0.109243,-0.41222349999999996,-0.055887,-0.130527,-0.7578735,-0.094212,0.102553,-0.7703935000000001,-0.09393699999999999
122,0.0025314999999999973,0.7226965,-0.0643045,-0.14519349999999998,0.5004265,-0.0566715,-0.24855349999999998,0.7357465,-0.1342025,0.13599650000000002,0.5010865,-0.0516515,0.2560365,0.7522765,-0.1050245,-0.3002335,0.9637264999999999,-0.2164775,0.2985465,0.9473865,-0.1651175,-0.0716975,0.003187499999999996,-0.0014455000000000023,0.0716975,-0.003187500000000003,0.0014454999999999954,-0.1285735,-0.39166350000000005,-0.0687725,0.1069865,-0.42611350000000003,-0.039940500000000004,-0.13092350000000003,-0.7645435,-0.08389250000000001,0.1019765,-0.7787135000000001,-0.08369850000000001
123,0.0026344999999999997,0.7216094999999999,-0.0530415,-0.14558349999999998,0.4999195,-0.0457615,-0.24886350000000002,0.7365594999999999,-0.1205955,0.13649650000000002,0.5003394999999999,-0.040806499999999996,0.2557765,0.7521095,-0.0920995,-0.29899349999999997,0.9646294999999999,-0.1980285,0.2977965,0.9474994999999999,-0.1508085,-0.0717045,0.0035805000000000003,-0.0012504999999999981,0.0717045,-0.0035805000000000003,0.0012505000000000016,-0.1288335,-0.4012405,-0.0545825,0.1055065,-0.4396905,-0.0257395,-0.13131350000000003,-0.7712405,-0.0734275,0.1014965,-0.7867505,-0.07396449999999999
124,0.0027704999999999987,0.720296,-0.046311000000000005,-0.14594849999999998,0.49949600000000005,-0.039154,-0.24957849999999998,0.737476,-0.11110300000000001,0.13699150000000002,0.499626,-0.034534,0.25552149999999996,0.751546,-0.083846,-0.29809850000000004,0.966046,-0.18393700000000002,0.2972315,0.947286,-0.141117,-0.0717065,0.0038600000000000023,-0.0011990000000000021,0.0717065,-0.0038600000000000023,0.0011989999999999987,-0.1288985,-0.409534,-0.045094,0.10451150000000001,-0.451024,-0.016699,-0.1313485,-0.776764,-0.067246,0.10130149999999999,-0.792654,-0.068689
125,0.0033045,0.7212265,-0.0425055,-0.1458485,0.49965650000000006,-0.0360365,-0.24989850000000002,0.7395065000000001,-0.1040775,0.1374915,0.4998165,-0.0314975,0.2556215,0.7519965000000001,-0.0781735,-0.29763850000000003,0.9664465000000001,-0.1732705,0.2969815,0.9480165,-0.1339305,-0.0719365,0.0037074999999999955,-0.000561500000000003,0.0719365,-0.0037075000000000025,0.0005614999999999995,-0.1285485,-0.41013350000000004,-0.0414055,0.1040415,-0.45162349999999996,-0.0132995,-0.13100850000000003,-0.7776835,-0.0641635,0.1015215,-0.7934534999999999,-0.0661825
126,0.0036960000000000014,0.721677,-0.038966,-0.145754,0.500077,-0.032858,-0.249554,0.7410869999999999,-0.097083,0.13791599999999998,0.49974699999999994,-0.028507,0.25574600000000003,0.752007,-0.072456,-0.297264,0.966467,-0.16355399999999998,0.297036,0.948417,-0.12720399999999998,-0.072247,0.0037750000000000006,0.00011800000000000005,0.072247,-0.0037750000000000006,-0.00011800000000000005,-0.128204,-0.411243,-0.037747,0.10377600000000001,-0.452503,-0.009901,-0.130664,-0.778623,-0.060953999999999994,0.10184599999999999,-0.794333,-0.0635
127,0.0040399999999999985,0.7218665000000001,-0.034937499999999996,-0.14558100000000002,0.5000465000000001,-0.0291835,-0.24938100000000002,0.7430165000000001,-0.0900145,0.138379,0.4996465,-0.0250365,0.255939,0.7525365,-0.0666905,-0.296931,0.9651265,-0.1543755,0.297219,0.9493465,-0.1202555,-0.07250999999999999,0.0037195000000000006,0.0006815000000000015,0.07250999999999999,-0.0037195000000000006,-0.0006815000000000015,-0.127821,-0.4125835,-0.0340225,0.103579,-0.45384349999999996,-0.0066335000000000005,-0.130201,-0.7799634999999999,-0.0572675,0.102469,-0.7956734999999999,-0.0605085
128,0.0043275000000000015,0.7227045000000001,-0.0312285,-0.1453025,0.49962449999999997,-0.025500500000000002,-0.2492025,0.7449345,-0.0835655,0.13882750000000002,0.49967449999999997,-0.0216775,0.2559975,0.7535845,-0.0608745,-0.2968725,0.9645245,-0.1445505,0.2970775,0.9507945,-0.1132595,-0.07280049999999999,0.0034645000000000023,0.0010795000000000006,0.07280049999999999,-0.0034645000000000023,-0.0010795000000000006,-0.1280325,-0.4107255,-0.0307595,0.10348750000000001,-0.4521655,-0.0037935,-0.1299425,-0.7805154999999999,-0.053766499999999995,0.10332749999999999,-0.7962754999999999,-0.057444499999999996
129,0.004665000000000001,0.7226905,-0.027614,-0.144954,0.49954049999999994,-0.021951,-0.24896400000000002,0.7456605,-0.07726999999999999,0.139296,0.49959049999999994,-0.018188000000000003,0.255926,0.7538505,-0.055062,-0.296734,0.9631905,-0.135413,0.296626,0.9514405,-0.106248,-0.07313,0.0034205,0.0012829999999999994,0.07313,-0.0034205,-0.0012830000000000012,-0.128194,-0.4092095,-0.027761,0.103576,-0.4505095,-0.000785000000000001,-0.129484,-0.7811595,-0.04999000000000001,0.104106,-0.7968595,-0.05424
130,0.005092500000000005,0.722596,-0.024008500000000002,-0.1445315,0.49945599999999996,-0.0183165,-0.24861149999999999,0.745776,-0.0715035,0.1398085,0.49957599999999996,-0.0145545,0.2559485,0.754216,-0.0492205,-0.2964515,0.9614360000000001,-0.1278105,0.2962285,0.952056,-0.09950149999999999,-0.0734335,0.0033390000000000017,0.0014345,0.0734335,-0.0033390000000000017,-0.0014344999999999991,-0.1281415,-0.409364,-0.0245925,0.10381850000000001,-0.449144,0.0023905000000000003,-0.1290115,-0.781754,-0.0459805,0.10495850000000001,-0.797244,-0.0508965
131,0.005564999999999995,0.7224745,-0.020876,-0.144095,0.49935450000000003,-0.014960000000000001,-0.24840500000000001,0.7456845000000001,-0.066578,0.14030499999999999,0.49964450000000005,-0.011108,0.256025,0.7545945000000001,-0.043716,-0.296125,0.9594444999999999,-0.12129,0.295935,0.9526745,-0.09315,-0.073645,0.0032454999999999984,0.0014029999999999997,0.073645,-0.0032454999999999984,-0.0014029999999999997,-0.12787500000000002,-0.41026549999999995,-0.021569,0.104105,-0.44824549999999996,0.004986999999999999,-0.128465,-0.7823355,-0.042509,0.10574499999999999,-0.7973454999999999,-0.047855
132,0.005952500000000001,0.722506,-0.0176525,-0.14370549999999999,0.49934599999999996,-0.0115455,-0.2483455,0.745416,-0.062081500000000005,0.14076450000000001,0.49949599999999994,-0.0076675,0.25612450000000003,0.754926,-0.0381195,-0.2960155,0.956956,-0.1156145,0.2957245,0.953126,-0.0868065,-0.07387650000000001,0.003137000000000001,0.0013384999999999998,0.07387650000000001,-0.003137000000000001,-0.0013385,-0.1275555,-0.411354,-0.0184295,0.1044145,-0.447624,0.007265499999999999,-0.1279555,-0.7830440000000001,-0.039281500000000004,0.10634450000000001,-0.797284,-0.044624500000000004
133,0.006124999999999995,0.722438,-0.0141615,-0.14337899999999998,0.499228,-0.008047499999999999,-0.24866900000000003,0.744698,-0.0581025,0.14125100000000002,0.49938800000000005,-0.0040395,0.25661100000000003,0.753958,-0.032636500000000006,-0.296419,0.9532879999999999,-0.1111715,0.295591,0.952388,-0.0805045,-0.07406,0.003018,0.0012634999999999999,0.07406,-0.003018,-0.0012634999999999999,-0.127169,-0.41242199999999996,-0.0162465,0.104751,-0.447132,0.0091765,-0.127369,-0.783922,-0.0357745,0.10695099999999999,-0.797152,-0.0411165
134,0.006049000000000004,0.72236,-0.010661,-0.143196,0.49913,-0.00448,-0.249536,0.74366,-0.05437,0.141674,0.49928999999999996,-0.0004220000000000005,0.257104,0.75292,-0.027542000000000004,-0.29740599999999995,0.94925,-0.107263,0.295764,0.95135,-0.07460699999999999,-0.07419100000000001,0.002895999999999996,0.001154,0.07419100000000001,-0.0028960000000000027,-0.0011540000000000005,-0.126806,-0.41346,-0.01484,0.105154,-0.44691000000000003,0.010509000000000001,-0.126716,-0.7850499999999999,-0.032249,0.107494,-0.79699,-0.037702
135,0.005678500000000004,0.7223545,-0.007108000000000003,-0.1431755,0.4993745,-0.000530000000000001,-0.25164549999999997,0.7430445,-0.050496,0.1418845,0.49931449999999994,0.0035699999999999985,0.2576045,0.7522145,-0.022420000000000002,-0.2991255,0.9453245,-0.103374,0.2962445,0.9507345,-0.068798,-0.07430149999999999,0.0027205000000000007,0.000789999999999999,0.07430149999999999,-0.0027205000000000007,-0.0007900000000000008,-0.12616549999999999,-0.4141155,-0.013773,0.1056645,-0.4466255,0.011826999999999999,-0.1261455,-0.7856654999999999,-0.028584,0.10801450000000001,-0.7967055,-0.03386
