sb224sc-HT22-VT27/4dt907/src/data/kinect_good_preprocessed_A9_mediapipe/A42_kinect.csv
FrameNo,nose_3d_x,nose_3d_y,nose_3d_z,left_shoulder_3d_x,left_shoulder_3d_y,left_shoulder_3d_z,left_elbow_3d_x,left_elbow_3d_y,left_elbow_3d_z,right_shoulder_3d_x,right_shoulder_3d_y,right_shoulder_3d_z,right_elbow_3d_x,right_elbow_3d_y,right_elbow_3d_z,left_wrist_3d_x,left_wrist_3d_y,left_wrist_3d_z,right_wrist_3d_x,right_wrist_3d_y,right_wrist_3d_z,left_hip_3d_x,left_hip_3d_y,left_hip_3d_z,right_hip_3d_x,right_hip_3d_y,right_hip_3d_z,left_knee_3d_x,left_knee_3d_y,left_knee_3d_z,right_knee_3d_x,right_knee_3d_y,right_knee_3d_z,left_ankle_3d_x,left_ankle_3d_y,left_ankle_3d_z,right_ankle_3d_x,right_ankle_3d_y,right_ankle_3d_z
55,0.010962,0.7204394999999999,0.063395,-0.139907,0.5064095,0.064152,-0.240487,0.7445795,0.035603,0.151673,0.4758995,0.063028,0.255363,0.7320895000000001,0.057746000000000006,-0.26959700000000003,1.0048994999999998,0.006711999999999999,0.284603,1.0099995,0.040233000000000005,-0.072925,0.004025500000000001,0.0021100000000000008,0.072925,-0.004025500000000001,-0.0021100000000000008,-0.12671700000000002,-0.4143105,-0.024099999999999996,0.12159299999999999,-0.4425305,-0.0001329999999999977,-0.13788699999999998,-0.7996205000000001,-0.027450000000000002,0.129923,-0.8099405,-0.019212
56,0.010513999999999997,0.720206,0.06314449999999999,-0.140006,0.5066459999999999,0.0649975,-0.24057599999999998,0.745826,0.0364235,0.151454,0.476216,0.0630815,0.255064,0.732206,0.0577535,-0.269726,1.001486,0.0087805,0.284234,1.010086,0.0405325,-0.07294400000000001,0.004009000000000006,0.002142500000000002,0.07294400000000001,-0.004008999999999999,-0.0021424999999999986,-0.12642599999999998,-0.41566400000000003,-0.025418499999999997,0.12198400000000001,-0.44324399999999997,-0.0026774999999999993,-0.137616,-0.799934,-0.028742499999999997,0.130264,-0.810484,-0.020803499999999996
57,0.0100985,0.7199804999999999,0.0628765,-0.1399955,0.5067704999999999,0.06541050000000001,-0.2405255,0.7469405,0.0367605,0.1513245,0.4764905,0.06302450000000001,0.2548245,0.7323605,0.0577155,-0.26960550000000005,0.9969705,0.010451500000000002,0.28379449999999995,1.0102704999999998,0.040773500000000004,-0.0729745,0.003997500000000001,0.0021905000000000015,0.0729745,-0.003997500000000001,-0.002190499999999998,-0.1261455,-0.4170195,-0.026789499999999994,0.1223845,-0.4437495,-0.005100499999999997,-0.1372555,-0.8004995,-0.0299865,0.1307045,-0.8110295000000001,-0.022515499999999994
58,0.0097235,0.719818,0.06252250000000001,-0.1399725,0.5069779999999999,0.0655085,-0.2404725,0.7480279999999999,0.0369195,0.15116749999999998,0.476898,0.0628695,0.2546475,0.732618,0.057598500000000004,-0.2694125,0.992468,0.0117855,0.28335750000000004,1.0105680000000001,0.0408975,-0.0729995,0.0039949999999999986,0.0022305,0.0729995,-0.0039949999999999986,-0.0022305,-0.1258525,-0.418242,-0.028276499999999996,0.12277750000000001,-0.444002,-0.0074065,-0.1370525,-0.800732,-0.031322499999999996,0.1311075,-0.811492,-0.0241585
59,0.009539499999999996,0.719697,0.062276,-0.1399455,0.5071869999999999,0.065427,-0.2403555,0.748827,0.036819,0.1510945,0.47717699999999996,0.062676,0.25461449999999997,0.732797,0.057483,-0.2691055,0.9879570000000001,0.012236999999999998,0.2834345,1.010357,0.039728,-0.07301250000000001,0.003978999999999996,0.0021829999999999974,0.07301250000000001,-0.003979000000000003,-0.002183000000000001,-0.1257155,-0.419413,-0.029685000000000003,0.12300449999999999,-0.444213,-0.008808000000000003,-0.13691550000000002,-0.801113,-0.03275,0.1315045,-0.8117530000000001,-0.025830000000000006
60,0.009446999999999999,0.719627,0.061956,-0.139819,0.507277,0.065084,-0.240359,0.748687,0.036587999999999996,0.151031,0.477457,0.062356999999999996,0.254611,0.733057,0.057183,-0.268899,0.984317,0.012214999999999998,0.283531,1.0102170000000001,0.038306,-0.073015,0.003964999999999996,0.0021009999999999987,0.073015,-0.003965000000000003,-0.002101000000000002,-0.125579,-0.420613,-0.031109000000000005,0.123231,-0.44444300000000003,-0.010281000000000002,-0.136779,-0.8014030000000001,-0.03438,0.131901,-0.8118930000000001,-0.027552
61,0.009463499999999996,0.7196064999999999,0.061417,-0.1396595,0.5073664999999999,0.06448899999999999,-0.2403195,0.7485965,0.035812,0.15106050000000001,0.4776465,0.061662,0.2546405,0.7333765,0.056485,-0.2685195,0.9799265,0.011286000000000001,0.2836605,1.0101265000000001,0.036545,-0.0730255,0.003976500000000001,0.002083999999999999,0.0730255,-0.003976500000000001,-0.002083999999999999,-0.1254395,-0.4211735,-0.032668,0.1235105,-0.4447835,-0.012027,-0.1365095,-0.8018135000000001,-0.036978,0.1323805,-0.8119835000000001,-0.029648
62,0.009489999999999998,0.7198264999999999,0.060513,-0.13942500000000002,0.5075664999999999,0.06354699999999999,-0.24012499999999998,0.7485965,0.034439,0.151105,0.4781065,0.060599,0.254685,0.7339065,0.055373000000000006,-0.268075,0.9751264999999999,0.009572999999999998,0.28379499999999996,1.0057265000000002,0.034466,-0.073058,0.003976500000000001,0.0020929999999999994,0.073058,-0.003976500000000001,-0.002093000000000001,-0.125245,-0.4216035,-0.03447,0.123905,-0.4455135,-0.014038000000000002,-0.13626500000000002,-0.8021335,-0.03962,0.13281500000000002,-0.8119735,-0.032238
63,0.0094815,0.7198665,0.0595895,-0.1391935,0.5075664999999999,0.0622375,-0.2394635,0.7484065,0.0328585,0.1511265,0.4781065,0.059394499999999996,0.2547465,0.7341664999999999,0.0538555,-0.2679435,0.9747264999999999,0.007561499999999999,0.2839065,1.0014265,0.032452499999999995,-0.0731095,0.003976500000000001,0.0021304999999999987,0.0731095,-0.003976500000000001,-0.0021305000000000004,-0.1251035,-0.4222135,-0.036284500000000004,0.12425649999999999,-0.4462035,-0.0160425,-0.1361335,-0.8024635,-0.0420875,0.1331965,-0.8119735,-0.0346985
64,0.009476500000000002,0.7198665,0.058395,-0.1389155,0.5075664999999999,0.060778,-0.2388055,0.7480165,0.030957,0.1511645,0.4781065,0.058066000000000006,0.2549245,0.7342465,0.051951,-0.2678155,0.9744265,0.005426,0.2841245,0.9968265,0.029995,-0.0731735,0.003976500000000001,0.0022070000000000006,0.0731735,-0.003976500000000001,-0.0022070000000000006,-0.12489549999999999,-0.4226135,-0.038413,0.1246245,-0.44694350000000005,-0.018186,-0.1360255,-0.8024635,-0.044386999999999996,0.13360450000000001,-0.8118135000000001,-0.037328
65,0.009546500000000003,0.7199145,0.056927,-0.13854450000000001,0.5076444999999999,0.059161,-0.23808449999999998,0.7472545,0.028843,0.15123550000000002,0.4781845,0.056522,0.25515550000000004,0.7343245,0.049884,-0.2676845,0.9743045,0.003104,0.28440550000000003,0.9923045,0.027218,-0.0732695,0.003969499999999994,0.0024029999999999998,0.0732695,-0.003969500000000001,-0.0024030000000000006,-0.12467450000000001,-0.4231355,-0.040727,0.1250055,-0.4473755,-0.020599,-0.1359345,-0.8029455,-0.047605,0.13397550000000003,-0.8115455,-0.040155
66,0.009794999999999996,0.7202584999999999,0.055044499999999996,-0.138044,0.5079285,0.0571715,-0.237344,0.7466185,0.026104500000000003,0.151406,0.47850850000000006,0.0545255,0.255586,0.7347285,0.0470905,-0.26740400000000003,0.9747085,-0.0008384999999999998,0.285026,0.9878084999999999,0.0230915,-0.073346,0.003972499999999997,0.0026095,0.073346,-0.003972500000000004,-0.0026095000000000007,-0.12456400000000001,-0.4234615,-0.0436635,0.125386,-0.4475515,-0.023538499999999997,-0.135744,-0.8031715,-0.051348500000000005,0.134326,-0.8110915000000001,-0.043680500000000004
67,0.010087999999999998,0.7204115,0.0531685,-0.137488,0.5079015,0.0551985,-0.236438,0.7452415,0.0233615,0.151602,0.47866149999999996,0.0524725,0.256092,0.7351314999999999,0.044171499999999995,-0.267088,0.9751615,-0.0049345,0.28589200000000003,0.9830615,0.018315500000000002,-0.073433,0.003962500000000001,0.0027625,0.073433,-0.003962500000000001,-0.0027624999999999998,-0.124478,-0.42369850000000003,-0.0466285,0.125742,-0.4477085,-0.026554499999999998,-0.135708,-0.8034085,-0.0551695,0.134672,-0.8107585,-0.0472445
68,0.010394000000000006,0.7207979999999999,0.0508575,-0.136851,0.507788,0.0529665,-0.235211,0.7433379999999999,0.0198935,0.15179900000000002,0.478228,0.0498555,0.25644900000000004,0.734078,0.0406225,-0.26656100000000005,0.975898,-0.0099355,0.28690899999999997,0.978598,0.0122465,-0.073574,0.003909000000000003,0.0027645,0.073574,-0.003908999999999996,-0.0027645,-0.12407099999999999,-0.42266200000000004,-0.0509905,0.126369,-0.446642,-0.030734499999999998,-0.135481,-0.802762,-0.059479500000000005,0.13508900000000001,-0.809512,-0.0515235
69,0.0107425,0.7205555,0.048645,-0.1361275,0.5074855,0.050758000000000005,-0.2339375,0.7414055,0.016215,0.1520225,0.4773755,0.046983000000000004,0.25696250000000004,0.7327855000000001,0.036875000000000005,-0.2657175,0.9767255000000001,-0.015494,0.2881925,0.9740255,0.005488999999999999,-0.07370550000000001,0.0037114999999999995,0.002854,0.07370550000000001,-0.0037114999999999995,-0.002854,-0.1235675,-0.4214045,-0.056570999999999996,0.1273625,-0.4454145,-0.035862,-0.1351575,-0.8017044999999999,-0.06399200000000001,0.13551249999999998,-0.8079445,-0.055834999999999996
70,0.011074,0.720537,0.046573,-0.13536900000000002,0.5068269999999999,0.048671,-0.23262899999999997,0.7391869999999999,0.012724000000000001,0.152221,0.476447,0.04464,0.257561,0.731447,0.033314,-0.26476900000000003,0.9775069999999999,-0.021103999999999998,0.28946099999999997,0.9693069999999999,-0.0013640000000000006,-0.073799,0.0036240000000000022,0.002831,0.073799,-0.0036240000000000022,-0.002831,-0.123029,-0.419913,-0.062382,0.12838100000000002,-0.44393299999999997,-0.041067,-0.134739,-0.8007230000000001,-0.068841,0.13567099999999999,-0.8060130000000001,-0.059473
71,0.011123000000000003,0.7203725000000001,0.0445135,-0.13471,0.5065925,0.0467105,-0.23131999999999997,0.7370224999999999,0.008994499999999999,0.15234999999999999,0.47551249999999995,0.042537500000000006,0.2581,0.7302825,0.0293315,-0.26371,0.9784425000000001,-0.0273125,0.29036,0.9694425,-0.0078035000000000005,-0.073889,0.003519499999999995,0.002805499999999999,0.073889,-0.003519500000000002,-0.0028055000000000007,-0.1226,-0.4185075,-0.06854350000000001,0.12969999999999998,-0.4423575,-0.04678450000000001,-0.13429999999999997,-0.7991975,-0.0734945,0.13587,-0.8036775,-0.0631485
72,0.0114085,0.720092,0.042107500000000006,-0.1339555,0.505502,0.044299500000000006,-0.2302355,0.736182,0.0044475,0.1525845,0.47428200000000004,0.0402555,0.2587745,0.729212,0.024602500000000003,-0.2621955,0.9798619999999999,-0.034546499999999994,0.2914145,0.9700619999999999,-0.015519499999999999,-0.0739705,0.0032340000000000008,0.0028655,0.0739705,-0.0032340000000000008,-0.0028654999999999983,-0.1219455,-0.416448,-0.0764415,0.1312445,-0.440118,-0.0542845,-0.1336955,-0.797108,-0.0785395,0.1362945,-0.8008580000000001,-0.0675355
73,0.011668000000000005,0.7199209999999999,0.0398375,-0.13322099999999998,0.504451,0.041965499999999996,-0.229091,0.734941,-5.6500000000000994e-05,0.15269900000000003,0.473141,0.0380485,0.259379,0.728281,0.0198285,-0.260631,0.981731,-0.0416705,0.292319,0.9711309999999999,-0.0231575,-0.074059,0.0030029999999999987,0.0028275,0.074059,-0.0030029999999999987,-0.002827500000000002,-0.121281,-0.41356899999999996,-0.0846345,0.13277899999999998,-0.437369,-0.0621825,-0.13309100000000001,-0.794429,-0.0834165,0.13675900000000002,-0.797489,-0.0716235
74,0.011957500000000001,0.7203035000000001,0.037651000000000004,-0.1326465,0.5024035,0.039496,-0.22799650000000002,0.7336535000000001,-0.004601000000000001,0.15286349999999999,0.47227349999999996,0.035793000000000005,0.2600335,0.7266535000000001,0.014848999999999998,-0.2589665,0.9842935,-0.04893,0.29322349999999997,0.9725935,-0.031166,-0.07414950000000001,0.0027845000000000023,0.0025629999999999993,0.07414950000000001,-0.0027844999999999988,-0.0025629999999999993,-0.1205765,-0.4099965,-0.09394799999999999,0.13440349999999998,-0.4337065,-0.070925,-0.1324465,-0.7904764999999999,-0.08816299999999999,0.1372735,-0.7932465,-0.075931
75,0.012075499999999994,0.718885,0.0357605,-0.1323745,0.5008349999999999,0.0372665,-0.2271045,0.7325149999999999,-0.0089755,0.1529455,0.47144500000000006,0.0338755,0.26056549999999995,0.725255,0.010270500000000002,-0.25747450000000005,0.9872949999999999,-0.0556745,0.29381549999999995,0.974595,-0.0384605,-0.0741925,0.0025589999999999988,0.0022224999999999988,0.0741925,-0.0025590000000000022,-0.0022224999999999988,-0.11997450000000001,-0.40580499999999997,-0.10332649999999999,0.1359955,-0.42927499999999996,-0.0796715,-0.1318945,-0.785775,-0.0924275,0.1375355,-0.7883450000000001,-0.0797445
76,0.012167999999999998,0.718089,0.0337965,-0.132233,0.49975899999999995,0.034845499999999995,-0.226493,0.731379,-0.013653499999999999,0.15301700000000001,0.47051899999999997,0.031885500000000004,0.261097,0.723859,0.0053775,-0.256053,0.9899889999999999,-0.06281049999999999,0.294467,0.977389,-0.0460075,-0.07422899999999999,0.002377999999999998,0.0018205000000000027,0.07422899999999999,-0.0023780000000000016,-0.0018204999999999992,-0.11941299999999999,-0.401611,-0.1139745,0.137687,-0.423271,-0.0896245,-0.131383,-0.779491,-0.09658449999999999,0.137777,-0.782011,-0.0835745
77,0.012249999999999999,0.716992,0.031951999999999994,-0.13210899999999998,0.498612,0.032600000000000004,-0.226169,0.730772,-0.017984,0.153001,0.470362,0.030389,0.261591,0.7242919999999999,0.0009979999999999989,-0.255029,0.9923319999999999,-0.0694,0.295231,0.9776119999999999,-0.052890000000000006,-0.074278,0.0022450000000000005,0.0015469999999999998,0.074278,-0.0022450000000000005,-0.0015469999999999998,-0.118949,-0.397198,-0.12360600000000001,0.139121,-0.417228,-0.098635,-0.13116899999999998,-0.772968,-0.100616,0.13815100000000002,-0.775598,-0.087058
78,0.012495500000000003,0.7160715,0.03017700000000001,-0.1318605,0.4976815,0.030359999999999998,-0.2256705,0.7306915,-0.022164999999999997,0.1530995,0.4706115,0.029143000000000002,0.26208950000000003,0.7242515,-0.0030639999999999973,-0.2537605,0.9951315,-0.07565,0.2961295,0.9780015,-0.05895299999999999,-0.0742845,0.0022424999999999997,0.0011610000000000023,0.0742845,-0.0022424999999999997,-0.0011609999999999954,-0.1185005,-0.39276849999999996,-0.132502,0.1400595,-0.41080849999999997,-0.10699199999999999,-0.13078050000000002,-0.7664585,-0.104359,0.13836949999999998,-0.7688285,-0.09035199999999999
79,0.012734,0.7148145,0.028482999999999994,-0.131598,0.4970545,0.028061000000000003,-0.225188,0.7308645,-0.026632999999999997,0.153222,0.4706045,0.027556999999999998,0.262552,0.7241145,-0.007108,-0.252468,0.9979645,-0.08208,0.297052,0.9785945,-0.064798,-0.074325,0.0021705,0.0007250000000000034,0.074325,-0.0021705,-0.0007249999999999965,-0.117958,-0.3885655,-0.141317,0.141052,-0.4041655,-0.115734,-0.130528,-0.7596655,-0.108088,0.138612,-0.7616355,-0.093504
80,0.012828500000000001,0.7135785,0.026748499999999995,-0.1314345,0.4960485,0.0256865,-0.22477450000000002,0.7309985,-0.0306735,0.1533655,0.4699185,0.0258395,0.2631155,0.7234484999999999,-0.010748500000000001,-0.25183449999999996,1.0005085,-0.0880855,0.2977655,0.9752185,-0.0698445,-0.07434450000000001,0.0020875,0.0002015000000000003,0.07434450000000001,-0.0020875,-0.0002015000000000003,-0.11745449999999999,-0.3834815,-0.1506225,0.1419855,-0.3968215,-0.1249875,-0.13005450000000002,-0.7512015000000001,-0.1124925,0.1389755,-0.7533215000000001,-0.09710150000000001
81,0.012922500000000002,0.7121385,0.025578499999999997,-0.13137549999999998,0.4962585,0.023918500000000002,-0.2245955,0.7311885,-0.0341975,0.1534845,0.4690685,0.024516500000000004,0.26394449999999997,0.7225385000000001,-0.013759500000000001,-0.25122550000000005,1.0030485,-0.0932825,0.29863449999999997,0.9723385,-0.0738055,-0.0743305,0.0022085000000000004,-0.0003275000000000014,0.0743305,-0.0022084999999999987,0.0003275000000000014,-0.11742549999999999,-0.37833150000000004,-0.1587815,0.1428345,-0.3887515,-0.1328785,-0.13018549999999998,-0.7405514999999999,-0.11673349999999999,0.13874450000000002,-0.7443814999999999,-0.1005025
82,0.013048500000000001,0.7105104999999999,0.024373500000000006,-0.13132549999999998,0.49642050000000004,0.022041500000000006,-0.22457549999999998,0.7317205,-0.0379465,0.1536045,0.4680805,0.023038500000000003,0.2648245,0.7213005,-0.016992499999999997,-0.2506955,1.0050705,-0.0986265,0.2995145,0.9697905,-0.0779205,-0.07430149999999999,0.0022775000000000017,-0.0007104999999999959,0.07430149999999999,-0.0022774999999999983,0.0007105000000000028,-0.1173855,-0.3734995,-0.16687950000000001,0.1437145,-0.3807195,-0.14062449999999999,-0.1303055,-0.7295395,-0.1210395,0.1383445,-0.7355195,-0.1039805
83,0.0131385,0.707836,0.022951,-0.13132549999999998,0.496396,0.020170000000000007,-0.22449550000000001,0.732706,-0.041634,0.1536745,0.466836,0.021521,0.2656245,0.720736,-0.020112999999999995,-0.2500755,1.002086,-0.10407999999999999,0.3009345,0.965976,-0.08199499999999998,-0.0743125,0.0022869999999999974,-0.0009339999999999973,0.0743125,-0.0022870000000000043,0.0009340000000000043,-0.1175955,-0.36870400000000003,-0.174643,0.14426450000000002,-0.372514,-0.148313,-0.1312855,-0.718574,-0.12579,0.1377645,-0.726414,-0.10789699999999999
84,0.013187999999999995,0.706834,0.021668000000000007,-0.131452,0.495924,0.018552,-0.22462200000000002,0.7335539999999999,-0.045129999999999997,0.153718,0.46555399999999997,0.019887000000000002,0.26606799999999997,0.719604,-0.023204,-0.249922,0.997274,-0.109096,0.302308,0.961924,-0.085973,-0.074337,0.0022869999999999974,-0.0011029999999999998,0.074337,-0.0022870000000000043,0.0011029999999999998,-0.117842,-0.364136,-0.181965,0.144878,-0.364396,-0.155695,-0.132392,-0.707726,-0.130899,0.137108,-0.717406,-0.111426
85,0.013255000000000001,0.70496,0.020214499999999996,-0.131519,0.49572,0.016857499999999997,-0.224969,0.73467,-0.0485495,0.153691,0.46448,0.018188499999999996,0.266821,0.7183700000000001,-0.0261745,-0.24991899999999997,0.99275,-0.1137295,0.303681,0.9571200000000001,-0.0896435,-0.074385,0.002348999999999997,-0.0013314999999999994,0.074385,-0.002348999999999997,0.0013314999999999994,-0.118149,-0.35892,-0.1879715,0.145481,-0.35708,-0.1620415,-0.133619,-0.6978599999999999,-0.1359345,0.13659100000000002,-0.70948,-0.1150045
86,0.013595500000000003,0.7038314999999999,0.018659500000000002,-0.1316425,0.4945615,0.014892499999999996,-0.2253425,0.7359815000000001,-0.0522445,0.1537375,0.46335149999999997,0.0162855,0.2673175,0.7171215,-0.0294405,-0.24986250000000002,0.9890915,-0.1183565,0.3048275,0.9556715,-0.0933705,-0.0744255,0.0023524999999999935,-0.0015555000000000013,0.0744255,-0.0023525000000000074,0.0015555000000000013,-0.1183825,-0.3530285,-0.1939005,0.1462275,-0.3496085,-0.1683705,-0.1348525,-0.6871484999999999,-0.1406125,0.13610750000000002,-0.7005984999999999,-0.1185725
87,0.013720999999999997,0.702755,0.017232000000000004,-0.131708,0.49372499999999997,0.012995,-0.225388,0.737025,-0.056019,0.153452,0.46196499999999996,0.014367999999999999,0.267792,0.716315,-0.032741,-0.249888,0.984485,-0.123169,0.305902,0.9541550000000001,-0.097391,-0.074487,0.0023330000000000017,-0.0017010000000000011,0.074487,-0.0023330000000000017,0.0017010000000000011,-0.118688,-0.34640499999999996,-0.199531,0.146982,-0.342005,-0.174881,-0.136288,-0.676215,-0.145323,0.135482,-0.691545,-0.122144
88,0.013821,0.7017075,0.0158525,-0.131728,0.49299750000000003,0.011127500000000005,-0.225568,0.7355675,-0.0597425,0.153222,0.4610575,0.0124815,0.268352,0.7155875,-0.036443500000000004,-0.249888,0.9798675,-0.12771949999999999,0.306942,0.9531175000000001,-0.10173650000000001,-0.074543,0.0022685000000000066,-0.0018335000000000018,0.074543,-0.0022684999999999927,0.0018335000000000018,-0.11901800000000001,-0.3353425,-0.2049805,0.147792,-0.3309425,-0.18120050000000001,-0.13744800000000001,-0.6654925,-0.1496115,0.134942,-0.6812225,-0.12468850000000001
89,0.014009999999999998,0.700565,0.014235999999999999,-0.131553,0.492125,0.009510999999999992,-0.225523,0.734585,-0.06331,0.153047,0.460495,0.010831999999999994,0.269057,0.712435,-0.039832000000000006,-0.24961300000000003,0.975395,-0.132032,0.307877,0.953805,-0.106652,-0.074626,0.0022049999999999986,-0.0018850000000000047,0.074626,-0.0022049999999999986,0.0018849999999999978,-0.11916300000000002,-0.324855,-0.209511,0.14873699999999998,-0.320455,-0.18640099999999998,-0.137873,-0.655505,-0.152337,0.13449699999999998,-0.671205,-0.126363
90,0.014051500000000005,0.69954,0.012714000000000003,-0.1313735,0.49055,0.007669999999999996,-0.2254035,0.73145,-0.06659,0.1526665,0.46029,0.009002999999999997,0.2695365,0.71008,-0.043147,-0.2495135,0.97065,-0.136301,0.30873649999999997,0.94959,-0.111849,-0.07473350000000001,0.0020899999999999946,-0.001904999999999997,0.07473350000000001,-0.0020899999999999946,0.001905000000000004,-0.1189935,-0.31577,-0.214379,0.1497365,-0.31137,-0.19139899999999999,-0.1373335,-0.64642,-0.154021,0.1345765,-0.66212,-0.127881
91,0.014556500000000003,0.7000550000000001,0.006399000000000002,-0.1305565,0.488575,0.0006120000000000014,-0.2240765,0.732035,-0.074852,0.1525235,0.460775,0.0019609999999999905,0.2705335,0.710115,-0.051636,-0.24863649999999998,0.9653849999999999,-0.145902,0.3102235,0.9486650000000001,-0.12181600000000001,-0.07495650000000001,0.0019750000000000045,-0.0021780000000000063,0.07495650000000001,-0.0019750000000000045,0.0021779999999999994,-0.1182765,-0.303665,-0.226987,0.1520335,-0.298835,-0.203897,-0.1361565,-0.6339049999999999,-0.16067599999999999,0.1349835,-0.649265,-0.134187
92,0.0151705,0.701865,-1.6500000000002624e-05,-0.1296475,0.48860499999999996,-0.006687500000000013,-0.22263750000000002,0.733305,-0.08346150000000001,0.15222249999999998,0.461885,-0.005455500000000002,0.27144250000000003,0.710135,-0.06075450000000001,-0.24750750000000002,0.9658249999999999,-0.1554135,0.31179250000000003,0.950755,-0.1320595,-0.07512949999999999,0.0018350000000000033,-0.0027155000000000096,0.07512949999999999,-0.0018350000000000033,0.0027154999999999957,-0.1175175,-0.290995,-0.23942650000000001,0.1543825,-0.286505,-0.21639650000000002,-0.1349075,-0.620855,-0.16741650000000002,0.1354525,-0.6359250000000001,-0.1406135
93,0.015354499999999997,0.7018900000000001,-0.008149000000000003,-0.1285415,0.48785,-0.015576000000000007,-0.2209915,0.7335499999999999,-0.09409700000000001,0.1518085,0.46264,-0.014447000000000008,0.2719685,0.7097800000000001,-0.071414,-0.2464315,0.96923,-0.167454,0.31210849999999996,0.95354,-0.144999,-0.07534450000000001,0.001710000000000017,-0.0031090000000000007,0.07534450000000001,-0.0017099999999999893,0.0031090000000000007,-0.11659149999999999,-0.27336,-0.25343899999999997,0.15813850000000002,-0.26885,-0.230359,-0.1333915,-0.60381,-0.174355,0.1361685,-0.61687,-0.14686
94,0.015404000000000003,0.701885,-0.01651699999999999,-0.127467,0.48607500000000003,-0.02465599999999999,-0.21970699999999999,0.733585,-0.10544499999999998,0.151373,0.462155,-0.023770999999999994,0.272073,0.709085,-0.08246799999999999,-0.244747,0.973435,-0.18098799999999998,0.312363,0.9541850000000001,-0.158165,-0.075629,0.0016150000000000053,-0.0034239999999999965,0.075629,-0.0016150000000000053,0.0034240000000000104,-0.11560699999999999,-0.253965,-0.267826,0.161903,-0.249905,-0.244696,-0.131747,-0.584925,-0.181485,0.13683299999999998,-0.595335,-0.153661
95,0.015404999999999999,0.7012,-0.024888000000000007,-0.126225,0.48529,-0.033816,-0.218245,0.73333,-0.116907,0.15104499999999998,0.46264,-0.033138,0.272195,0.7090700000000001,-0.093933,-0.24281500000000003,0.97736,-0.194988,0.31262500000000004,0.9544900000000001,-0.171678,-0.076008,0.0014000000000000123,-0.0035580000000000056,0.076008,-0.0013999999999999846,0.0035580000000000056,-0.11444499999999999,-0.23465999999999998,-0.282238,0.165665,-0.23103,-0.25919800000000004,-0.129635,-0.56575,-0.189055,0.137925,-0.57365,-0.161142
96,0.015355500000000003,0.701475,-0.03361599999999999,-0.1250885,0.48421500000000006,-0.042935,-0.2167885,0.7327250000000001,-0.128654,0.1509015,0.46401499999999996,-0.04219,0.2725315,0.709165,-0.105833,-0.2411685,0.981465,-0.209609,0.3128015,0.9543750000000001,-0.185329,-0.0763355,0.0010550000000000004,-0.003721000000000002,0.0763355,-0.0010550000000000004,0.003721000000000002,-0.1133085,-0.21539499999999998,-0.29644899999999996,0.16910150000000002,-0.212535,-0.273119,-0.1274285,-0.546875,-0.196048,0.1387915,-0.5521349999999999,-0.16788399999999998
97,0.015250500000000004,0.70018,-0.043114000000000006,-0.1238085,0.48262,-0.05318300000000001,-0.2149485,0.73378,-0.141216,0.15084150000000002,0.46363,-0.052258000000000006,0.27370150000000004,0.70832,-0.11861100000000001,-0.23962849999999997,0.9806900000000001,-0.224875,0.3131915,0.95113,-0.200162,-0.0766825,0.0009000000000000119,-0.003814999999999999,0.0766825,-0.0009000000000000119,0.003814999999999999,-0.11204850000000001,-0.19268,-0.311525,0.17239150000000003,-0.19068,-0.287785,-0.1250985,-0.52478,-0.20348100000000002,0.1393315,-0.52789,-0.17505
98,0.015247499999999995,0.69937,-0.052897,-0.12258549999999999,0.48073,-0.063735,-0.2130355,0.73119,-0.15412700000000001,0.1508145,0.46338999999999997,-0.06269,0.2745345,0.70995,-0.132231,-0.2383555,0.97306,-0.240225,0.3138745,0.95068,-0.21509499999999998,-0.07704749999999999,0.0007800000000000029,-0.0039949999999999986,0.07704749999999999,-0.0007800000000000029,0.0039949999999999986,-0.11070549999999998,-0.16906000000000004,-0.326725,0.1753945,-0.16705000000000003,-0.302655,-0.12274550000000001,-0.5013700000000001,-0.211067,0.13976449999999999,-0.5027699999999999,-0.182223
99,0.0153675,0.69782,-0.06260099999999999,-0.12138850000000001,0.47888,-0.07420299999999999,-0.2109385,0.7316100000000001,-0.166998,0.1510115,0.46362000000000003,-0.072848,0.2756915,0.71098,-0.146172,-0.2370585,0.96636,-0.256025,0.3146115,0.95358,-0.23006500000000002,-0.07743549999999999,0.0006400000000000294,-0.004254999999999995,0.07743549999999999,-0.0006399999999999739,0.004254999999999995,-0.1092285,-0.14544,-0.341175,0.17831149999999998,-0.14349,-0.31738500000000003,-0.12028850000000002,-0.47819,-0.217928,0.1402615,-0.4788,-0.189719
100,0.015092999999999999,0.6944999999999999,-0.067532,-0.120755,0.47686999999999996,-0.079462,-0.209895,0.72693,-0.175058,0.151145,0.46387,-0.077611,0.27612499999999995,0.7085899999999999,-0.154881,-0.236055,0.9607399999999999,-0.26600999999999997,0.314655,0.9497599999999999,-0.24012,-0.077721,0.00022999999999995246,-0.0042099999999999915,0.077721,-0.00023000000000000798,0.0042099999999999915,-0.10827500000000001,-0.12542000000000003,-0.34751,0.179485,-0.12354000000000004,-0.32430000000000003,-0.11841499999999999,-0.45938,-0.219439,0.140115,-0.45864000000000005,-0.19247799999999998
101,0.014844000000000003,0.69038,-0.072666,-0.12017699999999999,0.47379,-0.084515,-0.208917,0.7213,-0.182534,0.15139300000000003,0.46247,-0.082289,0.276473,0.70504,-0.162522,-0.234997,0.95498,-0.276845,0.314763,0.94512,-0.249775,-0.078046,-2.999999999997449e-05,-0.003924999999999998,0.078046,2.999999999997449e-05,0.003925000000000012,-0.107467,-0.10587000000000002,-0.353045,0.18033300000000002,-0.1033,-0.330315,-0.116777,-0.44055999999999995,-0.220393,0.139413,-0.4384,-0.193081
102,0.014850999999999998,0.6873,-0.07647399999999999,-0.11988100000000002,0.47163,-0.088004,-0.208661,0.71592,-0.187633,0.151699,0.46083,-0.085704,0.276549,0.70326,-0.168652,-0.234031,0.94844,-0.285175,0.315159,0.93972,-0.25660499999999997,-0.078246,-0.00014999999999998348,-0.003924999999999998,0.078246,0.00014999999999998348,0.003924999999999998,-0.10694100000000001,-0.08804000000000001,-0.356565,0.180889,-0.08532000000000001,-0.334185,-0.115451,-0.42516,-0.220301,0.138269,-0.42042,-0.19323
103,0.014744000000000002,0.684355,-0.080416,-0.12003499999999999,0.469295,-0.091719,-0.207675,0.7124250000000001,-0.192467,0.151835,0.460202,-0.08926,0.276845,0.700825,-0.17491600000000002,-0.23294499999999996,0.943145,-0.29336,0.31555500000000003,0.9363750000000001,-0.26393,-0.0785,-0.0003449999999999842,-0.003839999999999996,0.0785,0.0003450000000000397,0.00384000000000001,-0.10604499999999999,-0.073015,-0.35963999999999996,0.18140499999999998,-0.06881499999999996,-0.33765,-0.112615,-0.409185,-0.217908,0.13655499999999998,-0.403145,-0.194999
104,0.014506500000000004,0.682,-0.084153,-0.12031349999999999,0.46651300000000007,-0.095183,-0.2065835,0.70912,-0.196413,0.1519665,0.458805,-0.09265799999999999,0.2768165,0.69742,-0.180652,-0.2325835,0.93781,-0.300725,0.3158265,0.93272,-0.27071500000000004,-0.0787615,-0.00045999999999996044,-0.003835000000000005,0.0787615,0.00046000000000001595,0.003835000000000005,-0.10515349999999998,-0.058189999999999964,-0.362145,0.18170650000000002,-0.05277999999999994,-0.340275,-0.11004349999999999,-0.39386,-0.216222,0.1349265,-0.38691999999999993,-0.197214
105,0.0139895,0.67834,-0.08744899999999999,-0.12074750000000001,0.464523,-0.09894199999999999,-0.2060475,0.7042900000000001,-0.200006,0.1519625,0.45621700000000004,-0.09631499999999998,0.2770025,0.6952100000000001,-0.185807,-0.23222750000000003,0.93232,-0.305525,0.3162425,0.9320400000000001,-0.27719499999999997,-0.07924049999999999,-0.00042999999999998595,-0.003804999999999989,0.07924049999999999,0.00043000000000004146,0.003805000000000003,-0.1043375,-0.03977999999999998,-0.364415,0.18083249999999998,-0.033249999999999946,-0.342865,-0.10815750000000002,-0.37542,-0.215909,0.1325325,-0.3684299999999999,-0.199704
106,0.013628999999999997,0.675675,-0.09008500000000001,-0.12111600000000002,0.462673,-0.101553,-0.20605600000000002,0.697435,-0.20291800000000002,0.152094,0.455326,-0.099028,0.277164,0.694075,-0.18915200000000001,-0.231846,0.9289850000000001,-0.309385,0.316284,0.932385,-0.28203500000000004,-0.079634,-0.0005649999999999822,-0.0037550000000000083,0.079634,0.0005649999999999822,0.0037549999999999806,-0.10348600000000001,-0.024505,-0.365255,0.17970399999999997,-0.016644999999999965,-0.343905,-0.106916,-0.36038499999999996,-0.215895,0.12823400000000001,-0.35648499999999994,-0.20194700000000002
107,0.013190499999999997,0.6723,-0.092719,-0.12169250000000001,0.461358,-0.10380199999999999,-0.2059125,0.69347,-0.20478,0.1523175,0.45469899999999996,-0.10140899999999999,0.27691750000000004,0.69323,-0.191796,-0.2318025,0.9301699999999999,-0.31288,0.31577750000000004,0.93144,-0.28619,-0.0799125,-0.0006700000000000039,-0.0037799999999999917,0.0799125,0.0006700000000000039,0.0037800000000000056,-0.1026025,-0.009040000000000048,-0.36587000000000003,0.1783275,-0.00029000000000001247,-0.34446,-0.10574249999999999,-0.34598000000000007,-0.21583999999999998,0.1238275,-0.34508000000000005,-0.202355
108,0.0127205,0.6701050000000001,-0.09545000000000001,-0.1223115,0.45970500000000003,-0.105945,-0.20639149999999998,0.688555,-0.207425,0.1524585,0.454052,-0.103725,0.2766685,0.692415,-0.19456299999999999,-0.23200149999999997,0.924795,-0.31579,0.3149985,0.9306350000000001,-0.28979,-0.0801815,-0.0008650000000000047,-0.003799999999999998,0.0801815,0.0008650000000000047,0.003799999999999998,-0.10164150000000001,0.005645000000000011,-0.36624,0.17687850000000002,0.015495000000000037,-0.3449,-0.1057615,-0.33144499999999993,-0.216811,0.1207685,-0.332015,-0.20263399999999998
109,0.012254000000000001,0.6679600000000001,-0.09770500000000001,-0.122877,0.458801,-0.107796,-0.206687,0.6863600000000001,-0.209461,0.152603,0.452736,-0.105878,0.276893,0.69028,-0.197078,-0.23263699999999998,0.92027,-0.318905,0.31406300000000004,0.93249,-0.293065,-0.080357,-0.0007499999999999729,-0.0037850000000000106,0.080357,0.0007500000000000284,0.003784999999999983,-0.100547,0.021150000000000058,-0.366315,0.175433,0.03229000000000004,-0.344955,-0.105807,-0.31572,-0.217462,0.11775,-0.31775999999999993,-0.202081
110,0.011726,0.6657150000000001,-0.098933,-0.123545,0.458385,-0.10888899999999999,-0.20708500000000002,0.684665,-0.211235,0.15265499999999999,0.45231,-0.107152,0.27653500000000003,0.689855,-0.19871,-0.233415,0.915195,-0.320215,0.312855,0.9338150000000001,-0.295235,-0.080495,-0.0007249999999999757,-0.0037750000000000006,0.080495,0.0007250000000000312,0.0037750000000000006,-0.099565,0.03665499999999999,-0.365785,0.174115,0.048375,-0.344635,-0.10588499999999999,-0.30120499999999995,-0.217324,0.11506000000000001,-0.304535,-0.199633
111,0.011020500000000004,0.6642649999999999,-0.09883399999999999,-0.1241945,0.4572069999999999,-0.10933099999999998,-0.20722449999999998,0.683055,-0.21129399999999998,0.15218550000000003,0.4526319999999999,-0.107259,0.2756155,0.6869649999999999,-0.19824799999999998,-0.23430449999999997,0.9090649999999999,-0.320515,0.3114055,0.9347349999999999,-0.295525,-0.0806245,-0.0009050000000000447,-0.0037549999999999945,0.0806245,0.0009049999999999336,0.0037550000000000083,-0.0986345,0.05072499999999991,-0.365155,0.17278549999999998,0.06244499999999992,-0.344215,-0.1064645,-0.28862500000000013,-0.21812399999999998,0.1125105,-0.2930450000000001,-0.198371
112,0.010510500000000004,0.663035,-0.09815999999999998,-0.12469149999999998,0.45760800000000007,-0.10888099999999998,-0.2076615,0.6809850000000001,-0.210613,0.1516385,0.45319400000000004,-0.10658799999999999,0.27452849999999995,0.6863450000000001,-0.197627,-0.2352115,0.901775,-0.32009,0.3100885,0.936625,-0.29492999999999997,-0.0807315,-0.0009749999999999481,-0.0038399999999999823,0.0807315,0.0009750000000000592,0.00384000000000001,-0.09793149999999999,0.061795000000000044,-0.36436999999999997,0.1717485,0.07351500000000005,-0.34335,-0.10771149999999999,-0.2787449999999999,-0.21920199999999998,0.11094350000000001,-0.283145,-0.19664099999999998
113,0.010047500000000004,0.6611500000000001,-0.097484,-0.12524549999999998,0.45826800000000006,-0.108214,-0.2083755,0.6781100000000001,-0.21130300000000002,0.1512145,0.45332700000000004,-0.105909,0.27349450000000003,0.68544,-0.197004,-0.23599549999999997,0.90153,-0.31944,0.3088145,0.9380000000000001,-0.29433,-0.0808155,-0.0009399999999999409,-0.003920000000000007,0.0808155,0.0009400000000000519,0.003920000000000007,-0.0971455,0.07210000000000005,-0.36356,0.1706945,0.08382000000000006,-0.34236,-0.1092155,-0.2696399999999999,-0.22054200000000002,0.10969450000000001,-0.27374,-0.195045
114,0.009428999999999998,0.66022,-0.096477,-0.12595299999999998,0.458151,-0.107215,-0.209363,0.68034,-0.211468,0.150727,0.454217,-0.10489,0.27097699999999997,0.68034,-0.19500099999999998,-0.236803,0.89769,-0.318445,0.307307,0.93333,-0.29340499999999997,-0.080749,-0.0008900000000000574,-0.004125000000000004,0.080749,0.0008899999999999464,0.004125000000000004,-0.09627300000000001,0.08246999999999999,-0.361415,0.169687,0.09465999999999997,-0.339525,-0.112553,-0.26127,-0.223775,0.10869,-0.26436000000000004,-0.19147599999999998
115,0.008673000000000002,0.660055,-0.09497699999999999,-0.126675,0.45889899999999995,-0.106177,-0.21005500000000002,0.685975,-0.21065499999999998,0.150475,0.455441,-0.10363399999999999,0.268515,0.6757249999999999,-0.191933,-0.237925,0.9046449999999999,-0.31616,0.305915,0.930795,-0.29184,-0.080687,-0.0008949999999999791,-0.004369999999999999,0.080687,0.0008949999999999791,0.004369999999999999,-0.09558499999999999,0.09330499999999997,-0.35879,0.168785,0.10567499999999996,-0.33596,-0.11759499999999999,-0.2528250000000001,-0.22998,0.10821900000000001,-0.254915,-0.188211
116,0.007823999999999996,0.6600900000000001,-0.09293399999999999,-0.127303,0.459579,-0.105169,-0.211093,0.69067,-0.209127,0.15023699999999998,0.456569,-0.102239,0.266147,0.671,-0.18851099999999998,-0.23866300000000001,0.91152,-0.3124,0.30488699999999996,0.92898,-0.28972,-0.0806,-0.0009200000000000319,-0.0046599999999999975,0.0806,0.0009200000000000319,0.0046599999999999975,-0.09495300000000001,0.10289000000000004,-0.35617,0.16805699999999998,0.11525000000000002,-0.33245,-0.122423,-0.24600999999999995,-0.23573,0.108068,-0.24714000000000003,-0.187356
117,0.007179999999999999,0.6600000000000001,-0.091663,-0.12784199999999998,0.4611480000000001,-0.10384099999999999,-0.211892,0.6952500000000001,-0.207888,0.150088,0.4575300000000001,-0.100548,0.264278,0.6663600000000001,-0.184861,-0.239492,0.91791,-0.309245,0.304048,0.9277500000000001,-0.287025,-0.08053199999999999,-0.0008399999999999519,-0.004914999999999989,0.08053199999999999,0.0008400000000000629,0.004915000000000003,-0.094312,0.1127800000000001,-0.35341500000000003,0.167428,0.1247100000000001,-0.32891499999999996,-0.126652,-0.23909999999999987,-0.240365,0.107938,-0.23943999999999988,-0.18541
118,0.006535000000000001,0.660155,-0.09020900000000001,-0.128368,0.4622350000000001,-0.102395,-0.21340800000000001,0.6982750000000001,-0.20733000000000001,0.149922,0.4584050000000001,-0.09866,0.26235200000000003,0.6641890000000001,-0.180824,-0.240508,0.9238350000000002,-0.30593,0.303382,0.926695,-0.28391,-0.080433,-0.0008049999999999446,-0.005260000000000001,0.080433,0.0008050000000000557,0.005260000000000001,-0.093808,0.1216250000000001,-0.35072000000000003,0.166842,0.13313500000000011,-0.32548,-0.130228,-0.23307499999999992,-0.24367,0.10924099999999999,-0.23031499999999994,-0.182058
119,0.005855000000000004,0.659863,-0.088145,-0.129075,0.46288499999999994,-0.100484,-0.214815,0.701635,-0.20672000000000001,0.149525,0.45869499999999996,-0.09603400000000001,0.260375,0.662121,-0.176466,-0.241525,0.924355,-0.302995,0.302665,0.925635,-0.280775,-0.080334,-0.0005950000000000122,-0.005495,0.080334,0.0005949999999999012,0.005495,-0.093385,0.13069499999999995,-0.34769500000000003,0.166095,0.14162499999999995,-0.321745,-0.133835,-0.22695500000000002,-0.24650500000000003,0.11056400000000001,-0.22107500000000002,-0.17936200000000002
120,0.0050925000000000015,0.659554,-0.085618,-0.1297535,0.46398,-0.098339,-0.21621349999999998,0.70584,-0.205927,0.1490765,0.45896,-0.09325,0.2585465,0.661621,-0.17263499999999998,-0.24249349999999997,0.9306399999999999,-0.30035,0.3019865,0.9248799999999999,-0.27764,-0.0802385,-0.00031000000000003247,-0.005749999999999991,0.0802385,0.00031000000000003247,0.005750000000000005,-0.0929035,0.13792,-0.34614,0.16532650000000002,0.15034999999999998,-0.31781,-0.13579349999999998,-0.22067000000000003,-0.24578999999999998,0.1111065,-0.21333000000000002,-0.176836
121,0.004418,0.6593169999999999,-0.083115,-0.130332,0.46445499999999995,-0.096164,-0.217532,0.709075,-0.20468799999999998,0.14857800000000002,0.45924499999999996,-0.090473,0.257178,0.660123,-0.169033,-0.243532,0.935645,-0.29779999999999995,0.301398,0.923505,-0.27471,-0.08016200000000001,-0.00015500000000001624,-0.005949999999999997,0.08016200000000001,0.00015500000000001624,0.005950000000000011,-0.09249199999999999,0.14425499999999997,-0.34475,0.16464800000000002,0.15807499999999997,-0.31420000000000003,-0.137712,-0.21552500000000008,-0.24514,0.111783,-0.20658500000000002,-0.174543
122,0.003682499999999995,0.659341,-0.08066999999999999,-0.13088450000000001,0.465215,-0.094022,-0.2184945,0.714255,-0.203974,0.14789549999999999,0.45970500000000003,-0.087699,0.2558455,0.659085,-0.16535,-0.24524449999999998,0.940345,-0.2953,0.3008155,0.9224049999999999,-0.27156,-0.0800905,-1.4999999999987246e-05,-0.006169999999999995,0.0800905,1.4999999999987246e-05,0.006169999999999995,-0.0922945,0.15054499999999998,-0.3436,0.1640355,0.165505,-0.31051,-0.1391245,-0.21038500000000004,-0.24447,0.1124665,-0.19964499999999996,-0.172404
123,0.0034095000000000045,0.659052,-0.079456,-0.1311205,0.46567000000000003,-0.092803,-0.2192605,0.7146,-0.20280700000000002,0.1477495,0.45985,-0.086132,0.2558395,0.661172,-0.164462,-0.24686049999999998,0.94181,-0.29318,0.3007895,0.92468,-0.27031,-0.0800245,0.000140000000000029,-0.006169999999999995,0.0800245,-0.000140000000000029,0.006169999999999995,-0.09210049999999999,0.15182,-0.34329,0.1635995,0.16908,-0.3086,-0.1391905,-0.21280999999999994,-0.24427,0.11306650000000001,-0.19682999999999995,-0.172145
124,0.0033045000000000036,0.6587979999999999,-0.078365,-0.1313125,0.4656449999999999,-0.091543,-0.21985249999999998,0.7141949999999999,-0.201661,0.1476875,0.45967499999999994,-0.084675,0.2558375,0.662809,-0.163618,-0.24846249999999998,0.9432049999999998,-0.291185,0.3007575,0.9265249999999999,-0.269135,-0.07996349999999999,0.0003149999999999542,-0.0061350000000000016,0.07996349999999999,-0.00031500000000006523,0.0061350000000000016,-0.0919025,0.1525249999999999,-0.34304500000000004,0.1631775,0.1722749999999999,-0.30688499999999996,-0.1392225,-0.2154250000000001,-0.24396500000000002,0.11370250000000001,-0.19440500000000005,-0.171917
125,0.0032809999999999957,0.658642,-0.077203,-0.13137300000000002,0.46560499999999994,-0.090331,-0.220003,0.7138749999999999,-0.200538,0.14763700000000002,0.459545,-0.08323900000000001,0.255857,0.6646259999999999,-0.162893,-0.249803,0.9445749999999999,-0.29095,0.300757,0.928455,-0.26826,-0.079898,0.0004950000000000232,-0.006089999999999998,0.079898,-0.0004950000000000232,0.006089999999999998,-0.09159300000000001,0.15236499999999997,-0.34285,0.162827,0.17567499999999997,-0.30494,-0.139243,-0.21820499999999998,-0.24283,0.11412,-0.19248500000000002,-0.171567
126,0.0033574999999999994,0.658264,-0.076093,-0.1313095,0.46523,-0.089087,-0.2198995,0.7164499999999999,-0.20046199999999997,0.1476805,0.45931999999999995,-0.081847,0.2564805,0.666485,-0.162171,-0.2507895,0.94634,-0.29081,0.3009205,0.93034,-0.26773,-0.0798355,0.0007099999999999884,-0.006059999999999996,0.0798355,-0.0007099999999999884,0.00606000000000001,-0.09119949999999999,0.15171999999999997,-0.34294,0.1627205,0.17885999999999996,-0.30298,-0.13926950000000002,-0.22098000000000007,-0.24059,0.1150525,-0.18938,-0.170062
127,0.003466500000000001,0.658263,-0.075284,-0.1312285,0.465465,-0.087967,-0.2198685,0.719195,-0.200669,0.1477615,0.459155,-0.080701,0.2571415,0.668245,-0.161586,-0.25155849999999996,0.948015,-0.29076,0.3012115,0.9321349999999999,-0.26742,-0.0797805,0.0009350000000000191,-0.006030000000000008,0.0797805,-0.0009350000000000191,0.006029999999999994,-0.09089850000000001,0.155285,-0.34167000000000003,0.1626115,0.181925,-0.30103,-0.1389385,-0.21846500000000002,-0.23987999999999998,0.1153785,-0.18691499999999994,-0.168607
128,0.0036754999999999965,0.658165,-0.074899,-0.13109949999999998,0.465635,-0.08745800000000001,-0.2196595,0.719125,-0.200424,0.1479705,0.45938500000000004,-0.080413,0.2578605,0.669123,-0.161315,-0.2522795,0.942575,-0.290835,0.3015205,0.9330750000000001,-0.267385,-0.0797195,0.0010149999999999881,-0.006025000000000003,0.0797195,-0.0010149999999999881,0.006025000000000003,-0.0903895,0.15326500000000004,-0.342215,0.16260049999999998,0.18384500000000004,-0.299675,-0.13863950000000003,-0.22197499999999992,-0.238495,0.1156775,-0.18545499999999993,-0.16761
129,0.004052999999999996,0.658159,-0.07486,-0.130923,0.465735,-0.087294,-0.219443,0.718935,-0.200398,0.148207,0.459565,-0.08038699999999999,0.258627,0.669517,-0.16124,-0.25296300000000005,0.943125,-0.290885,0.301817,0.933465,-0.267355,-0.07969,0.0011250000000000426,-0.006024999999999989,0.07969,-0.0011249999999999316,0.006025000000000003,-0.089923,0.150345,-0.343025,0.162667,0.18517500000000003,-0.29849499999999995,-0.138303,-0.22621499999999994,-0.236875,0.115685,-0.18606499999999992,-0.16404
130,0.004421499999999998,0.658143,-0.074795,-0.1307615,0.46553500000000003,-0.087248,-0.2192015,0.718655,-0.200345,0.14844849999999998,0.459685,-0.080334,0.2593485,0.669813,-0.161143,-0.2533615,0.9372550000000001,-0.29120999999999997,0.3020985,0.933745,-0.2673,-0.0796825,0.0011849999999999916,-0.00606000000000001,0.0796825,-0.0011849999999999916,0.006059999999999996,-0.08983150000000001,0.14887500000000004,-0.34282999999999997,0.1626785,0.18607500000000005,-0.29758,-0.13821150000000001,-0.22846499999999992,-0.23615000000000003,0.1155485,-0.18691499999999994,-0.160866
131,0.004909500000000004,0.657901,-0.074752,-0.13031749999999998,0.46528,-0.087209,-0.2190375,0.71822,-0.200332,0.14883249999999998,0.45964,-0.080301,0.2601325,0.669992,-0.161073,-0.25308749999999997,0.93765,-0.29155,0.3024925,0.93388,-0.26732,-0.0796525,0.0012499999999999734,-0.006099999999999994,0.0796525,-0.0012499999999999734,0.006099999999999994,-0.0894375,0.14783000000000002,-0.3427,0.16281250000000003,0.18678,-0.29691,-0.13796750000000002,-0.22975999999999996,-0.23613,0.11552950000000001,-0.18796999999999997,-0.15798099999999998
132,0.005596500000000001,0.657768,-0.07489499999999999,-0.1298335,0.46524,-0.087228,-0.2187535,0.71804,-0.200772,0.1492165,0.45968,-0.080534,0.2611165,0.670079,-0.161354,-0.2527235,0.93777,-0.29289,0.3030965,0.93379,-0.26812,-0.0796395,0.0013100000000000334,-0.006150000000000003,0.0796395,-0.0013100000000000334,0.006150000000000003,-0.0891435,0.14690999999999999,-0.34268,0.1629365,0.18751,-0.2964,-0.1377235,-0.23056,-0.23617,0.11561249999999999,-0.18913000000000002,-0.156577
133,0.006643500000000004,0.6579820000000001,-0.07524499999999999,-0.12895749999999997,0.464885,-0.087349,-0.2182275,0.717385,-0.20138099999999998,0.14996250000000003,0.459695,-0.080956,0.2624825,0.669625,-0.16177999999999998,-0.2520075,0.937195,-0.29434,0.30425250000000004,0.933155,-0.26914,-0.0796575,0.0013250000000000206,-0.006199999999999997,0.0796575,-0.0013250000000000206,0.006200000000000011,-0.0885675,0.147895,-0.34279,0.1634025,0.18771500000000002,-0.29635,-0.1374675,-0.22957499999999997,-0.23625,0.1156885,-0.19101499999999993,-0.155779
134,0.007788999999999999,0.6583950000000001,-0.076012,-0.12819000000000003,0.46493000000000007,-0.087813,-0.21767999999999998,0.7170200000000001,-0.202281,0.15065,0.45965000000000006,-0.081644,0.2639,0.6700400000000001,-0.16259099999999999,-0.25114,0.93598,-0.296255,0.30553,0.93357,-0.270385,-0.07969,0.0012900000000000134,-0.006265000000000007,0.07969,-0.0012899999999999023,0.006264999999999993,-0.0881,0.14831000000000005,-0.343085,0.16383999999999999,0.18708000000000008,-0.296425,-0.13729999999999998,-0.22915999999999992,-0.23683500000000002,0.115676,-0.19359999999999988,-0.155882
135,0.008936000000000003,0.6583950000000001,-0.07683400000000001,-0.12754600000000002,0.46493000000000007,-0.088289,-0.21707600000000002,0.71689,-0.203157,0.151284,0.45965000000000006,-0.08230100000000001,0.265174,0.6700400000000001,-0.16351500000000002,-0.250316,0.9345300000000001,-0.29835500000000004,0.306784,0.93357,-0.271695,-0.079746,0.0012900000000000134,-0.006375000000000006,0.079746,-0.0012899999999999023,0.006374999999999992,-0.08763599999999999,0.15019000000000005,-0.342325,0.164214,0.18586000000000008,-0.296505,-0.13725600000000002,-0.22604999999999997,-0.23877500000000002,0.115121,-0.19689999999999996,-0.154587
136,0.010187500000000004,0.6583950000000001,-0.078064,-0.1268995,0.46493000000000007,-0.08907699999999999,-0.2164095,0.71689,-0.204476,0.1519405,0.45965000000000006,-0.083121,0.2664805,0.670135,-0.164605,-0.2496395,0.9345300000000001,-0.300095,0.3081605,0.93371,-0.273235,-0.0797395,0.0012900000000000134,-0.0064649999999999985,0.0797395,-0.0012899999999999023,0.006465000000000012,-0.0870795,0.15169000000000005,-0.34240499999999996,0.1647505,0.18455000000000005,-0.29657500000000003,-0.1362995,-0.2224799999999999,-0.239985,0.1153285,-0.1970599999999999,-0.153933
137,0.011492999999999998,0.6583950000000001,-0.079731,-0.126078,0.4649400000000001,-0.08999399999999999,-0.215718,0.71689,-0.20454699999999998,0.152622,0.45965000000000006,-0.08410899999999999,0.269642,0.6728290000000001,-0.167544,-0.24892799999999998,0.9345300000000001,-0.302115,0.309952,0.9345600000000001,-0.275755,-0.079738,0.0012900000000000134,-0.006554999999999991,0.079738,-0.0012899999999999023,0.006555000000000005,-0.08648800000000001,0.15200000000000008,-0.342485,0.165472,0.1827100000000001,-0.297195,-0.135378,-0.21850999999999998,-0.240035,0.11494599999999999,-0.19781999999999988,-0.154103
138,0.012709000000000002,0.658884,-0.08146500000000001,-0.125398,0.46503,-0.09104100000000001,-0.215398,0.71662,-0.205034,0.153292,0.45938999999999997,-0.085148,0.272812,0.6752859999999999,-0.170903,-0.24821800000000002,0.93406,-0.304265,0.31175200000000003,0.93523,-0.278375,-0.079738,0.0011700000000000044,-0.006635000000000002,0.079738,-0.0011700000000000044,0.006635000000000002,-0.086048,0.15192,-0.342825,0.165992,0.18042999999999998,-0.298475,-0.134478,-0.21330000000000005,-0.24011500000000002,0.115536,-0.19828999999999997,-0.154213
139,0.013989,0.660977,-0.083288,-0.12464999999999998,0.4644150000000001,-0.092096,-0.21476,0.7156750000000001,-0.20515899999999998,0.15396,0.45829500000000006,-0.08612299999999999,0.27532,0.677192,-0.174449,-0.2476,0.930895,-0.306425,0.31343,0.936995,-0.281715,-0.07973,0.0010150000000000992,-0.006675,0.07973,-0.0010149999999999881,0.006675,-0.08573,0.15089500000000006,-0.343325,0.16692,0.17523500000000009,-0.301255,-0.1334,-0.21061499999999989,-0.24018499999999998,0.116144,-0.2015149999999999,-0.15456199999999998
140,0.015394000000000003,0.6618519999999999,-0.08552399999999999,-0.12365099999999998,0.4637999999999999,-0.09403199999999999,-0.214491,0.70678,-0.20573799999999998,0.154759,0.45680999999999994,-0.088363,0.27756899999999995,0.6776369999999999,-0.178771,-0.247511,0.9255799999999998,-0.30845999999999996,0.314809,0.93543,-0.28675,-0.07977100000000001,0.0009199999999999209,-0.0065699999999999925,0.07977100000000001,-0.0009200000000000319,0.006570000000000006,-0.08577099999999999,0.13775999999999994,-0.34481,0.16803900000000002,0.15823999999999994,-0.30579999999999996,-0.129331,-0.22022000000000008,-0.23743,0.117902,-0.2155100000000001,-0.158621
141,0.016595,0.663708,-0.08729100000000001,-0.122892,0.464265,-0.095446,-0.214302,0.7052849999999999,-0.20582,0.155448,0.45614499999999997,-0.08987600000000001,0.280028,0.678815,-0.182631,-0.247992,0.927275,-0.30959000000000003,0.315848,0.934045,-0.29097,-0.079732,0.0008549999999999391,-0.0064700000000000035,0.079732,-0.0008550000000000502,0.00646999999999999,-0.085962,0.12325499999999995,-0.34579000000000004,0.16944800000000002,0.14040499999999995,-0.31010000000000004,-0.125532,-0.23275500000000005,-0.23479,0.11928,-0.23241500000000004,-0.160981
142,0.0174375,0.665965,-0.088458,-0.12250149999999999,0.4639160000000001,-0.09620999999999999,-0.2138215,0.7003450000000001,-0.205629,0.1558285,0.4555930000000001,-0.09135299999999999,0.2811685,0.6816650000000001,-0.185802,-0.24885149999999998,0.9253550000000001,-0.31033,0.3165785,0.9355150000000001,-0.29507,-0.0796515,0.0006850000000000467,-0.00646999999999999,0.0796515,-0.0006849999999999357,0.0064700000000000035,-0.0865715,0.09971500000000005,-0.34770999999999996,0.17104850000000002,0.11686500000000005,-0.31377,-0.1224115,-0.25395499999999993,-0.23084,0.1224625,-0.2504049999999999,-0.165548
143,0.018068999999999995,0.66972,-0.089294,-0.122278,0.464545,-0.096678,-0.213408,0.6999500000000001,-0.205155,0.156132,0.45375200000000004,-0.092744,0.282762,0.68329,-0.188865,-0.24903799999999998,0.92135,-0.310265,0.317312,0.93662,-0.299465,-0.079468,0.0008099999999999774,-0.006445000000000006,0.079468,-0.0008099999999999774,0.006444999999999992,-0.087288,0.07416,-0.348135,0.172662,0.08890999999999999,-0.31693499999999997,-0.11946799999999999,-0.27613999999999994,-0.227655,0.12556799999999999,-0.27218999999999993,-0.169858
144,0.018602999999999998,0.67343,-0.089392,-0.12226599999999999,0.466399,-0.096804,-0.21365599999999998,0.69708,-0.203019,0.15640400000000002,0.454501,-0.093534,0.284074,0.68697,-0.190984,-0.250116,0.92302,-0.31102,0.317944,0.9356599999999999,-0.30339,-0.07919599999999999,0.0007499999999999729,-0.0063600000000000045,0.07919599999999999,-0.0007500000000000284,0.0063600000000000045,-0.087976,0.04504999999999998,-0.34781,0.17419400000000002,0.05802999999999997,-0.31978,-0.11630599999999999,-0.30133,-0.22455999999999998,0.128664,-0.29671000000000003,-0.172932
145,0.018884500000000002,0.677905,-0.088761,-0.12230949999999999,0.468869,-0.096467,-0.2135695,0.692755,-0.20045800000000003,0.1566205,0.45322999999999997,-0.09354900000000001,0.2851305,0.6899249999999999,-0.191611,-0.2509195,0.922715,-0.31049000000000004,0.3179505,0.938125,-0.30573,-0.07900950000000001,0.0010049999999999781,-0.00606000000000001,0.07900950000000001,-0.0010050000000000336,0.006059999999999996,-0.08814949999999999,0.012644999999999962,-0.3479,0.1757805,0.023444999999999938,-0.32144,-0.1124995,-0.330025,-0.22021000000000002,0.1321405,-0.32460500000000003,-0.175096
146,0.018997999999999998,0.6822950000000001,-0.08730099999999999,-0.122496,0.47153300000000004,-0.09533599999999999,-0.213396,0.687045,-0.19666699999999998,0.156764,0.45291200000000004,-0.09245799999999998,0.285844,0.6893750000000001,-0.190436,-0.252396,0.922385,-0.30901999999999996,0.317704,0.938455,-0.30589999999999995,-0.078776,0.0011349999999999971,-0.005849999999999994,0.078776,-0.0011349999999999971,0.005850000000000008,-0.088676,-0.021955000000000002,-0.34709999999999996,0.177064,-0.01289499999999999,-0.32159,-0.10891600000000001,-0.36123500000000003,-0.21411999999999998,0.135494,-0.35483499999999996,-0.17601299999999998
147,0.019169,0.6867650000000001,-0.08563799999999999,-0.122505,0.473939,-0.09398699999999999,-0.213915,0.685255,-0.19313,0.156935,0.45333599999999996,-0.09112899999999999,0.286245,0.689545,-0.18875199999999998,-0.253895,0.925475,-0.30679,0.317445,0.9390350000000001,-0.30496,-0.078485,0.0012949999999999906,-0.0055599999999999955,0.078485,-0.0012949999999999906,0.005560000000000009,-0.089165,-0.057035,-0.34572,0.178295,-0.04908499999999999,-0.32105,-0.10533500000000001,-0.393095,-0.20712999999999998,0.13914500000000002,-0.38523500000000005,-0.176449
148,0.019113,0.69075,-0.082838,-0.12257299999999999,0.47656,-0.09139,-0.21473299999999998,0.68145,-0.187629,0.156927,0.45568,-0.088405,0.286877,0.6902699999999999,-0.185969,-0.255453,0.92716,-0.30289,0.317007,0.93852,-0.30228,-0.07814299999999999,0.0013499999999999623,-0.00535999999999999,0.07814299999999999,-0.0013500000000000179,0.005360000000000004,-0.08949299999999999,-0.09247,-0.34302,0.179087,-0.08512000000000003,-0.31825000000000003,-0.10262299999999999,-0.42763000000000007,-0.199597,0.142497,-0.41911,-0.174426
149,0.018611999999999997,0.6959500000000001,-0.079045,-0.12298500000000001,0.47909,-0.088341,-0.21479499999999999,0.68786,-0.182413,0.15662500000000001,0.45857000000000003,-0.08524400000000001,0.286255,0.69455,-0.181892,-0.25690500000000005,0.9321900000000001,-0.29815,0.31615499999999996,0.94106,-0.29917000000000005,-0.078035,0.0013000000000000234,-0.005100000000000007,0.078035,-0.0012999999999999678,0.005099999999999993,-0.089985,-0.11651999999999996,-0.33988,0.179115,-0.10990999999999995,-0.31506,-0.102885,-0.45216,-0.196071,0.144925,-0.44294999999999995,-0.172027
150,0.018104999999999996,0.700875,-0.07461,-0.123336,0.480545,-0.08469,-0.214726,0.691235,-0.175925,0.15634399999999998,0.460035,-0.08158699999999999,0.285554,0.6975150000000001,-0.177066,-0.257926,0.931905,-0.292748,0.315324,0.9443750000000001,-0.295558,-0.077906,0.0012350000000000416,-0.004802000000000001,0.077906,-0.0012349999999999861,0.004802000000000001,-0.090476,-0.139675,-0.33623800000000004,0.178874,-0.13446499999999995,-0.311398,-0.10316600000000001,-0.4766849999999999,-0.191824,0.146194,-0.466905,-0.16945300000000002
151,0.017293999999999997,0.704785,-0.06828300000000001,-0.12362800000000002,0.482615,-0.079699,-0.214698,0.695615,-0.16736499999999999,0.156212,0.462415,-0.076576,0.284742,0.7003250000000001,-0.17097400000000001,-0.259008,0.9365650000000001,-0.285666,0.314622,0.9477549999999999,-0.289616,-0.077698,0.0012550000000000061,-0.004474000000000006,0.077698,-0.0012550000000000061,0.004473999999999992,-0.09120800000000001,-0.158455,-0.329886,0.178192,-0.15459499999999998,-0.305586,-0.103628,-0.499825,-0.18629,0.146372,-0.491735,-0.164866
152,0.015801500000000003,0.708105,-0.05951699999999999,-0.1249035,0.483625,-0.07229599999999999,-0.2163235,0.691495,-0.157708,0.1556665,0.467685,-0.06860699999999999,0.28288650000000004,0.7045250000000001,-0.15988999999999998,-0.2609435,0.938665,-0.27304399999999995,0.3128765,0.952095,-0.278674,-0.0770435,0.0008250000000000202,-0.004087999999999994,0.0770435,-0.0008249999999999924,0.004088000000000008,-0.0928135,-0.17694499999999996,-0.318874,0.1763965,-0.175155,-0.294114,-0.1050835,-0.524425,-0.179537,0.1458065,-0.518925,-0.158127
153,0.014316999999999998,0.71193,-0.0505065,-0.12585600000000002,0.48569,-0.06492150000000001,-0.217626,0.69029,-0.1461105,0.155084,0.46959,-0.0605875,0.28055399999999997,0.70605,-0.1486015,-0.263226,0.93787,-0.25939049999999997,0.311004,0.95829,-0.2663005,-0.076335,0.0007599999999999829,-0.0038305000000000006,0.076335,-0.0007600000000000107,0.0038305000000000006,-0.094316,-0.19439,-0.3072905,0.174724,-0.19379000000000002,-0.2818805,-0.106556,-0.54773,-0.1733295,0.144534,-0.5445300000000001,-0.1522015
154,0.0129485,0.71466,-0.042378,-0.12697450000000002,0.48682,-0.058346999999999996,-0.2193145,0.69054,-0.135568,0.15460549999999998,0.47324,-0.053292,0.2792255,0.70872,-0.137422,-0.2651845,0.93899,-0.24643700000000002,0.30921550000000003,0.96138,-0.253517,-0.07560449999999999,0.0005000000000000004,-0.0037689999999999946,0.07560449999999999,-0.0005000000000000004,0.0037689999999999946,-0.0959345,-0.21027,-0.295837,0.1724455,-0.21003,-0.269727,-0.1080045,-0.56931,-0.166932,0.1439755,-0.5672,-0.145597
155,0.011204500000000003,0.71716,-0.0345905,-0.12905149999999999,0.48673,-0.051978500000000004,-0.22105149999999998,0.69188,-0.12616549999999999,0.15397850000000002,0.47596,-0.046448500000000004,0.27797849999999996,0.71108,-0.1265975,-0.2679115,0.94043,-0.23349150000000002,0.3077085,0.9645400000000001,-0.24076150000000002,-0.0748015,0.0002700000000000202,-0.0035624999999999962,0.0748015,-0.00026999999999999247,0.0035624999999999962,-0.0977415,-0.2298,-0.2841215,0.1697085,-0.22945,-0.2574115,-0.1096515,-0.59284,-0.1603785,0.1428285,-0.59123,-0.1383625
156,0.009543000000000003,0.721985,-0.026866499999999995,-0.13097799999999998,0.486765,-0.0452105,-0.22289799999999999,0.695635,-0.11661849999999999,0.153292,0.477255,-0.039557499999999995,0.276282,0.714535,-0.1156455,-0.270698,0.9448449999999999,-0.2206535,0.306622,0.968505,-0.2276935,-0.074113,0.00033500000000000196,-0.0035834999999999964,0.074113,-0.00033500000000000196,0.0035835000000000033,-0.099808,-0.249165,-0.2703935,0.166792,-0.248765,-0.2440935,-0.11140800000000001,-0.616225,-0.1529705,0.141852,-0.6148250000000001,-0.1311525
157,0.007440000000000002,0.723615,-0.015106000000000001,-0.133389,0.486125,-0.034305,-0.225909,0.698415,-0.103207,0.152261,0.478045,-0.028696,0.27488100000000004,0.7172550000000001,-0.100956,-0.27400899999999995,0.9487450000000001,-0.204147,0.305501,0.969325,-0.210837,-0.073524,0.0003449999999999981,-0.0031930000000000014,0.073524,-0.0003449999999999981,0.0031930000000000014,-0.102349,-0.268895,-0.251887,0.163281,-0.269465,-0.225457,-0.113569,-0.639705,-0.141434,0.140551,-0.638305,-0.11930099999999999
158,0.005542000000000002,0.7248209999999999,-0.003494999999999998,-0.135422,0.488521,-0.023341,-0.22859200000000002,0.7011109999999999,-0.089783,0.151318,0.477951,-0.017802,0.273548,0.717231,-0.08643200000000001,-0.27700199999999997,0.9504509999999999,-0.187811,0.304738,0.971881,-0.19328099999999998,-0.072975,0.0003500000000000031,-0.002716999999999997,0.072975,-0.0003500000000000031,0.002716999999999997,-0.104542,-0.288689,-0.230101,0.159028,-0.290239,-0.202691,-0.11578200000000001,-0.662749,-0.129089,0.13934800000000003,-0.6613490000000001,-0.107445
159,0.0038045000000000015,0.726118,0.007921000000000004,-0.13725749999999998,0.490058,-0.012627999999999997,-0.23062749999999999,0.698978,-0.077165,0.15049250000000003,0.478418,-0.007051999999999996,0.2722425,0.718688,-0.072329,-0.2796475,0.9503780000000001,-0.171177,0.3041325,0.973878,-0.176097,-0.0725085,0.0003060000000000007,-0.0021039999999999982,0.0725085,-0.0003060000000000007,0.0021040000000000017,-0.1067375,-0.308832,-0.208237,0.15472249999999999,-0.31182200000000004,-0.179587,-0.1180375,-0.685592,-0.116817,0.13810250000000002,-0.684842,-0.095752
160,0.002559999999999998,0.727799,0.0177155,-0.139094,0.491209,-0.003100499999999999,-0.23331400000000002,0.6998190000000001,-0.0667385,0.14962599999999998,0.477479,0.0024705000000000005,0.271246,0.718739,-0.0599295,-0.28251400000000004,0.9490190000000001,-0.1563325,0.30380599999999996,0.9732190000000001,-0.1607025,-0.072086,0.000341000000000001,-0.0015415000000000012,0.072086,-0.000341000000000001,0.0015415000000000012,-0.108644,-0.325801,-0.18703250000000002,0.150706,-0.33111100000000004,-0.1575125,-0.120044,-0.7043309999999999,-0.1056535,0.137106,-0.7046709999999999,-0.0852395
161,0.001996999999999998,0.7286725000000001,0.025857500000000002,-0.140162,0.4932025,0.005027500000000001,-0.235372,0.7040425,-0.0585865,0.14920799999999998,0.47574249999999996,0.0103205,0.270548,0.7193925,-0.0504555,-0.28432199999999996,0.9562325,-0.14578750000000001,0.304008,0.9723825,-0.1483075,-0.07200200000000001,0.0006204999999999995,-0.0010845000000000004,0.07200200000000001,-0.0006204999999999995,0.0010844999999999987,-0.10980200000000001,-0.3374475,-0.16857750000000002,0.147508,-0.3446675,-0.1386975,-0.121482,-0.7180375,-0.0961095,0.136408,-0.7190175,-0.0763325
162,0.0015394999999999983,0.729044,0.033772,-0.14118550000000002,0.49320400000000003,0.012889999999999999,-0.2365855,0.707704,-0.050678,0.1490245,0.475214,0.017935,0.2700145,0.7210340000000001,-0.041649,-0.2859955,0.960524,-0.13553300000000001,0.3043345,0.972244,-0.137373,-0.0719875,0.0008559999999999991,-0.0005980000000000004,0.0719875,-0.0008560000000000009,0.0005979999999999996,-0.1109155,-0.346596,-0.150463,0.14439449999999998,-0.356886,-0.11980299999999999,-0.12281550000000001,-0.729706,-0.08687800000000001,0.13583450000000002,-0.731866,-0.06758900000000001
163,0.0011050000000000035,0.729308,0.0416035,-0.14228999999999997,0.494208,0.0205805,-0.23775999999999997,0.711338,-0.0429005,0.14888,0.474568,0.025215500000000002,0.26951,0.722328,-0.0330485,-0.28731999999999996,0.964838,-0.1254185,0.30444000000000004,0.971978,-0.1264885,-0.072008,0.001084,-3.500000000000031e-06,0.072008,-0.001084,3.500000000000031e-06,-0.11209,-0.355842,-0.1324885,0.14131,-0.368232,-0.1005785,-0.12416,-0.741172,-0.0777175,0.13539,-0.744652,-0.0594905
164,0.0009845000000000027,0.72979,0.049027,-0.1433895,0.49538000000000004,0.02821,-0.23955949999999998,0.7178300000000001,-0.035314,0.1490805,0.47400000000000003,0.032388,0.2694605,0.72394,-0.024693000000000003,-0.2887895,0.9696600000000001,-0.11567000000000001,0.3050905,0.97141,-0.11571000000000001,-0.0721755,0.0015300000000000001,0.00046199999999999887,0.0721755,-0.0015299999999999992,-0.0004620000000000006,-0.11345949999999999,-0.36656,-0.11223000000000001,0.1379605,-0.38165,-0.079222,-0.12537949999999998,-0.7537499999999999,-0.06806200000000001,0.13500050000000002,-0.7571599999999999,-0.050348000000000004
165,0.0007405000000000007,0.727959,0.0560515,-0.1444185,0.496699,0.0353145,-0.2407185,0.716129,-0.027944499999999997,0.14931149999999999,0.47416899999999995,0.0392035,0.26952149999999997,0.7239289999999999,-0.0168175,-0.2902185,0.968409,-0.1062595,0.3054015,0.964789,-0.10531950000000001,-0.0724375,0.0017169999999999998,0.0011094999999999994,0.0724375,-0.0017169999999999998,-0.0011094999999999994,-0.1150085,-0.37734100000000004,-0.09344949999999999,0.1344615,-0.39605100000000004,-0.058185499999999994,-0.12685849999999999,-0.7662610000000001,-0.057265500000000004,0.13452150000000002,-0.769771,-0.0411525
166,0.001047500000000005,0.7282550000000001,0.057984,-0.14472949999999998,0.49903499999999995,0.037249000000000004,-0.2412695,0.7180650000000001,-0.025906,0.14979050000000002,0.47368499999999997,0.041311,0.2697005,0.7245950000000001,-0.014227000000000004,-0.2909695,0.9703750000000001,-0.10197600000000001,0.3061305,0.9618850000000001,-0.10050600000000001,-0.07266449999999999,0.0021290000000000024,0.0013710000000000007,0.07266449999999999,-0.002128999999999999,-0.0013710000000000007,-0.11636949999999999,-0.384955,-0.08082400000000001,0.13167050000000002,-0.406675,-0.043492,-0.12779949999999998,-0.775195,-0.051667,0.13433050000000002,-0.7792549999999999,-0.037242
167,0.0014620000000000037,0.72899,0.059522000000000005,-0.14504,0.49840999999999996,0.038862,-0.24162,0.7179200000000001,-0.024267,0.15031,0.47408999999999996,0.04303,0.26999,0.72604,-0.012043000000000002,-0.29153999999999997,0.97332,-0.098034,0.30706,0.9575,-0.096094,-0.07284199999999999,0.002572000000000005,0.0014669999999999996,0.07284199999999999,-0.002571999999999998,-0.0014669999999999996,-0.11742,-0.39073,-0.071286,0.12991,-0.41247,-0.033194,-0.12861,-0.78075,-0.04680100000000001,0.1343,-0.7843500000000001,-0.034814
168,0.0017915000000000001,0.728896,0.060671,-0.14527250000000003,0.49863599999999997,0.040195,-0.24190250000000002,0.718376,-0.022885999999999997,0.1507575,0.47458599999999995,0.044407,0.2703375,0.7266859999999999,-0.010431,-0.2916425,0.972176,-0.09490799999999999,0.3081675,0.956916,-0.09168799999999999,-0.0729465,0.003038000000000006,0.0013840000000000033,0.0729465,-0.003037999999999999,-0.0013839999999999998,-0.1183925,-0.39507400000000004,-0.061841,0.12826749999999998,-0.416974,-0.023103,-0.12941249999999999,-0.784694,-0.042051,0.1342875,-0.788334,-0.032635
169,0.0022720000000000014,0.72854,0.061658,-0.14538900000000002,0.49893000000000004,0.04135,-0.242099,0.7179800000000001,-0.021815,0.151371,0.47523,0.045629,0.27082100000000003,0.72743,-0.008093000000000003,-0.29195899999999997,0.97435,-0.091513,0.309371,0.9555499999999999,-0.087123,-0.073134,0.003479000000000003,0.0012459999999999971,0.073134,-0.003478999999999996,-0.0012460000000000006,-0.119419,-0.39862,-0.052608,0.126911,-0.42096,-0.013409000000000004,-0.130109,-0.7886899999999999,-0.037926,0.134241,-0.79202,-0.030580000000000003
170,0.002757500000000002,0.728302,0.0623895,-0.14505249999999997,0.498522,0.0421555,-0.24195250000000001,0.717892,-0.0202255,0.15180749999999998,0.475152,0.046768500000000005,0.2713275,0.727342,-0.005825500000000001,-0.2921125,0.9750219999999999,-0.0888515,0.3106175,0.955642,-0.0824415,-0.0732845,0.003820999999999998,0.0010394999999999988,0.0732845,-0.003821000000000005,-0.0010394999999999988,-0.1209725,-0.39911800000000003,-0.044253499999999994,0.1256475,-0.423828,-0.004178500000000002,-0.1308225,-0.790778,-0.0335325,0.1345575,-0.794768,-0.0292575
171,0.0032394999999999993,0.727986,0.062962,-0.1447485,0.497986,0.042786000000000005,-0.24217850000000002,0.719346,-0.019274,0.1521015,0.47479599999999994,0.047813,0.2717715,0.727056,-0.0036199999999999982,-0.29224849999999997,0.9741460000000001,-0.086733,0.31188150000000003,0.956846,-0.077913,-0.0734225,0.004036999999999999,0.0008780000000000003,0.0734225,-0.004036999999999999,-0.0008780000000000003,-0.12248850000000001,-0.399334,-0.036699999999999997,0.1245115,-0.426554,0.003831000000000001,-0.1314885,-0.7922239999999999,-0.029656999999999996,0.1347915,-0.796674,-0.027197
172,0.0037679999999999975,0.7276954999999999,0.063439,-0.144422,0.4971555,0.043329,-0.24236200000000002,0.7213155,-0.018477999999999998,0.15243800000000002,0.4747755,0.048817,0.272258,0.7270555,-0.0014440000000000008,-0.292342,0.9744655000000001,-0.08480499999999999,0.31323799999999996,0.9593655,-0.073684,-0.073507,0.004202500000000005,0.000614,0.073507,-0.004202499999999998,-0.000614,-0.124042,-0.39916450000000003,-0.029859,0.123598,-0.4277345,0.010552,-0.132162,-0.7923045,-0.025663000000000002,0.134938,-0.7974945,-0.025427
173,0.0042589999999999946,0.7275849999999999,0.06345100000000001,-0.14408100000000001,0.49704499999999996,0.043535000000000004,-0.242601,0.7227549999999999,-0.018224,0.152769,0.474835,0.049556,0.272779,0.727055,0.0008830000000000018,-0.29246099999999997,0.974955,-0.083469,0.31433900000000004,0.9617549999999999,-0.070213,-0.073561,0.004245000000000006,0.00041400000000000117,0.073561,-0.004244999999999999,-0.00041400000000000117,-0.125411,-0.39827500000000005,-0.02637,0.123349,-0.427875,0.013796000000000001,-0.132751,-0.7917350000000001,-0.022297,0.135099,-0.797605,-0.024197
174,0.004736499999999994,0.7274379999999999,0.063334,-0.1438035,0.496908,0.043659,-0.2427435,0.723298,-0.018104999999999996,0.1530365,0.474928,0.050153,0.2732565,0.726908,0.003106000000000001,-0.29252350000000005,0.975208,-0.08284,0.31547650000000005,0.958708,-0.06692,-0.0735595,0.004276999999999996,0.0001910000000000002,0.0735595,-0.004277000000000003,-0.0001910000000000002,-0.1266735,-0.39823200000000003,-0.023999,0.1231665,-0.427852,0.015689,-0.1332535,-0.791192,-0.020270999999999997,0.1351765,-0.797682,-0.023187
175,0.005278500000000005,0.7274379999999999,0.06315699999999999,-0.1435145,0.496908,0.0438,-0.2432745,0.723298,-0.017889000000000002,0.15333549999999999,0.47513799999999995,0.050809,0.2738155,0.726908,0.005305999999999998,-0.2925745,0.975208,-0.082453,0.3168255,0.954548,-0.063696,-0.07355149999999999,0.004276999999999996,-5.9000000000000025e-05,0.07355149999999999,-0.004277000000000003,5.9000000000000025e-05,-0.1277945,-0.39823200000000003,-0.021943999999999998,0.12308550000000001,-0.42762200000000006,0.016377,-0.1335845,-0.791192,-0.019584999999999998,0.1352355,-0.797902,-0.022406000000000002
176,0.005885999999999999,0.7271255,0.0629165,-0.143155,0.4965855,0.0438905,-0.243305,0.7213655,-0.0175185,0.153705,0.47583549999999997,0.0514605,0.274425,0.7268455,0.0073644999999999995,-0.292555,0.9740354999999999,-0.08201549999999999,0.317955,0.9498555,-0.0614115,-0.073532,0.004313499999999998,-0.00027249999999999844,0.073532,-0.004313499999999998,0.0002725000000000019,-0.128515,-0.3978045,-0.0207035,0.123165,-0.4273945,0.0168245,-0.133845,-0.7907645,-0.019167499999999997,0.135325,-0.7976445,-0.0217925
177,0.0068925,0.7267115,0.06226,-0.1427015,0.4963715,0.043844,-0.2434815,0.7206014999999999,-0.017710999999999998,0.1543285,0.4757915,0.052109,0.2760085,0.7262815,0.009746000000000001,-0.2925315,0.9700215000000001,-0.08140800000000001,0.3200985,0.9452815000000001,-0.059727999999999996,-0.0735545,0.0043435,-0.0004860000000000003,0.0735545,-0.0043435,0.0004860000000000003,-0.1286115,-0.3971085,-0.020106,0.1233085,-0.4268685,0.017444,-0.1341915,-0.7904385,-0.018593,0.1353085,-0.7973984999999999,-0.021186999999999998
