sb224sc-HT22-VT27/4dt907/src/data/kinect_good_preprocessed_A9_mediapipe/A43_kinect.csv
FrameNo,nose_3d_x,nose_3d_y,nose_3d_z,left_shoulder_3d_x,left_shoulder_3d_y,left_shoulder_3d_z,left_elbow_3d_x,left_elbow_3d_y,left_elbow_3d_z,right_shoulder_3d_x,right_shoulder_3d_y,right_shoulder_3d_z,right_elbow_3d_x,right_elbow_3d_y,right_elbow_3d_z,left_wrist_3d_x,left_wrist_3d_y,left_wrist_3d_z,right_wrist_3d_x,right_wrist_3d_y,right_wrist_3d_z,left_hip_3d_x,left_hip_3d_y,left_hip_3d_z,right_hip_3d_x,right_hip_3d_y,right_hip_3d_z,left_knee_3d_x,left_knee_3d_y,left_knee_3d_z,right_knee_3d_x,right_knee_3d_y,right_knee_3d_z,left_ankle_3d_x,left_ankle_3d_y,left_ankle_3d_z,right_ankle_3d_x,right_ankle_3d_y,right_ankle_3d_z
25,0.014478500000000002,0.7006865,0.0826855,-0.1290685,0.49358649999999993,0.06145249999999999,-0.1894585,0.7520565,0.016565499999999997,0.1429215,0.4689964999999999,0.0581965,0.2088215,0.7161164999999999,0.016968499999999994,-0.2107585,0.9753865,-0.014776500000000005,0.2405515,0.9371665,-0.019367500000000003,-0.0725505,0.0038294999999999996,0.0004694999999999977,0.0725505,-0.0038294999999999996,-0.00046950000000000464,-0.1279785,-0.41788349999999996,-0.018028500000000003,0.1129315,-0.45053350000000003,0.005866499999999997,-0.1366785,-0.8012835,-0.019483500000000008,0.1244815,-0.8149535,-0.0266305
26,0.015438999999999998,0.6985665,0.082455,-0.12795399999999998,0.49507650000000003,0.062583,-0.187364,0.7538665,0.023081999999999995,0.142456,0.46864649999999997,0.05821599999999999,0.204536,0.7104165,0.024343999999999994,-0.208064,0.9776465000000001,-0.001587000000000005,0.23702600000000001,0.9395665,-0.007288000000000003,-0.072188,0.003918500000000005,0.000787999999999997,0.072188,-0.003918499999999998,-0.000788000000000004,-0.12795399999999998,-0.4200235,-0.018468000000000005,0.112986,-0.45282350000000005,0.005697999999999995,-0.136684,-0.8045235000000001,-0.020013000000000003,0.124466,-0.8175435,-0.027034000000000002
27,0.016488999999999997,0.6970545,0.08253350000000001,-0.12680200000000003,0.49671450000000006,0.0636945,-0.18591200000000002,0.7553945000000001,0.028700500000000004,0.14200800000000002,0.46871450000000003,0.058161500000000005,0.20107799999999998,0.7048145,0.0299125,-0.20611200000000002,0.9796245,0.009659500000000001,0.23409799999999997,0.9420244999999999,0.0025845000000000035,-0.071854,0.003972500000000004,0.0011795,0.071854,-0.003972499999999997,-0.0011795,-0.127932,-0.42204549999999996,-0.0189975,0.113068,-0.45473549999999996,0.005436500000000004,-0.13664199999999999,-0.8065055,-0.020455499999999995,0.124418,-0.8199455,-0.0275025
28,0.017265000000000003,0.6955185,0.0825845,-0.12603799999999998,0.4976785,0.0647675,-0.18501800000000002,0.7569385000000001,0.0335645,0.141322,0.4678285,0.0580315,0.19785200000000003,0.6980985000000001,0.0341815,-0.204938,0.9811584999999999,0.018516499999999998,0.231172,0.9436585000000001,0.010587499999999996,-0.071643,0.004062499999999997,0.001523499999999997,0.071643,-0.004062499999999997,-0.001523500000000004,-0.12775799999999998,-0.42336149999999995,-0.0194075,0.113312,-0.45590149999999996,0.005264499999999998,-0.136498,-0.8076715,-0.0206845,0.124652,-0.8212815,-0.0278655
29,0.0180425,0.694269,0.08267550000000001,-0.1254375,0.499259,0.0655975,-0.1843975,0.759259,0.0383005,0.1405725,0.46753900000000004,0.0578105,0.1947625,0.692509,0.038240500000000004,-0.2049775,0.983609,0.026517500000000003,0.22860250000000001,0.9456089999999999,0.0179995,-0.0714595,0.004131999999999997,0.0018295000000000047,0.0714595,-0.004131999999999997,-0.0018294999999999978,-0.1276175,-0.42461099999999996,-0.019755499999999995,0.1135325,-0.457151,0.005080500000000005,-0.1363975,-0.808921,-0.020880499999999996,0.1248725,-0.822531,-0.028137499999999996
30,0.018777500000000003,0.6929244999999999,0.082759,-0.12483249999999999,0.5010845,0.066557,-0.1840725,0.7621845,0.041718,0.1398475,0.4674745,0.05764999999999999,0.1918975,0.6872145,0.041911,-0.2044625,0.9846744999999999,0.033769999999999994,0.2268075,0.9480744999999999,0.023455999999999998,-0.0712985,0.0041624999999999995,0.0020989999999999967,0.0712985,-0.0041624999999999995,-0.0020990000000000036,-0.1275025,-0.4258455,-0.020101,0.1137275,-0.4583855,0.004879999999999999,-0.1362625,-0.8101355,-0.020753,0.1250775,-0.8237655,-0.02846
31,0.019275000000000004,0.6921295,0.0826485,-0.12438899999999999,0.5027695,0.0675325,-0.184039,0.7646295,0.0447055,0.139131,0.4680695,0.0573775,0.19066100000000002,0.6812995,0.044992500000000005,-0.20420899999999997,0.9853995000000001,0.0398055,0.225771,0.9475995,0.0284345,-0.071077,0.004117499999999996,0.0023355000000000008,0.071077,-0.004117500000000003,-0.0023354999999999973,-0.127459,-0.4271105,-0.020450499999999996,0.113911,-0.45962050000000004,0.0047705000000000004,-0.136129,-0.8106905,-0.020379500000000002,0.125191,-0.8252105000000001,-0.0287795
32,0.019588500000000005,0.6913929999999999,0.08261,-0.12436849999999999,0.5027630000000001,0.068219,-0.1842285,0.7669330000000001,0.047545000000000004,0.1386915,0.46765300000000004,0.057199,0.1881515,0.6756629999999999,0.048053,-0.2041385,0.9857829999999999,0.044968,0.2244215,0.9468829999999999,0.032613,-0.0709095,0.004031999999999994,0.0025490000000000027,0.0709095,-0.004032000000000001,-0.0025489999999999957,-0.1275085,-0.427927,-0.020748999999999997,0.1140015,-0.460237,0.004728000000000003,-0.1361085,-0.8112870000000001,-0.020284999999999997,0.12525150000000002,-0.826247,-0.029093999999999995
33,0.019781999999999998,0.6907139999999999,0.0826995,-0.124394,0.5028239999999999,0.0688915,-0.184394,0.770344,0.05010149999999999,0.138276,0.46713399999999994,0.0571485,0.186096,0.669984,0.0507665,-0.204164,0.985714,0.0497195,0.223386,0.945214,0.0366745,-0.070748,0.003975999999999993,0.002746499999999999,0.070748,-0.003976000000000007,-0.002746499999999999,-0.127544,-0.428616,-0.0210385,0.114136,-0.460636,0.004645499999999997,-0.136014,-0.811746,-0.020346500000000003,0.125336,-0.827176,-0.029347500000000006
34,0.019762,0.6901820000000001,0.0829455,-0.12444200000000001,0.502722,0.0695365,-0.18448199999999998,0.7713220000000001,0.0512065,0.13785799999999998,0.46663200000000005,0.0571485,0.18563799999999997,0.667952,0.0516275,-0.204152,0.9853719999999999,0.0506185,0.22321799999999997,0.943972,0.0389045,-0.070614,0.003928999999999988,0.0028975000000000008,0.070614,-0.003929000000000002,-0.0028975000000000042,-0.12758200000000003,-0.42966800000000005,-0.0212785,0.114248,-0.460708,0.0045825,-0.13596200000000003,-0.812188,-0.020535499999999998,0.125408,-0.8279679999999999,-0.0295365
35,0.019766,0.689832,0.083286,-0.124479,0.5027320000000001,0.069923,-0.184539,0.772632,0.052219999999999996,0.137701,0.46612200000000004,0.057222999999999996,0.184811,0.666922,0.052344,-0.204559,0.9847920000000001,0.050797999999999996,0.22312099999999999,0.9428920000000001,0.040637,-0.070521,0.0038750000000000034,0.0029369999999999986,0.070521,-0.0038750000000000034,-0.002937000000000002,-0.127579,-0.430488,-0.021515000000000006,0.114361,-0.46064799999999995,0.0046009999999999975,-0.135919,-0.812288,-0.020733,0.125521,-0.828438,-0.029773
36,0.019738,0.68947,0.08362449999999999,-0.124544,0.5029399999999999,0.0702425,-0.18480400000000002,0.7739199999999999,0.052638500000000005,0.137546,0.4655,0.0572895,0.18476599999999999,0.66609,0.0528855,-0.205154,0.9839600000000001,0.050612500000000005,0.22304600000000002,0.94206,0.041667499999999996,-0.070458,0.0037869999999999987,0.0028945000000000012,0.070458,-0.0037869999999999987,-0.0028945000000000012,-0.12758399999999998,-0.43127000000000004,-0.021804499999999997,0.114436,-0.46055,0.004578499999999999,-0.135874,-0.81291,-0.021289500000000003,0.12562600000000002,-0.82882,-0.030005499999999997
37,0.019631,0.689249,0.084035,-0.124564,0.503179,0.07037199999999999,-0.18541400000000002,0.7743089999999999,0.0525,0.13751600000000003,0.46493900000000005,0.057387999999999995,0.18380600000000002,0.666159,0.052856,-0.205094,0.982099,0.050385,0.222476,0.9414990000000001,0.041786,-0.070433,0.003717999999999999,0.002787999999999999,0.070433,-0.003717999999999999,-0.002787999999999999,-0.12758399999999998,-0.431831,-0.022054000000000004,0.114646,-0.460501,0.004594999999999998,-0.13595400000000002,-0.8129310000000001,-0.021768000000000003,0.125726,-0.8290109999999999,-0.030317000000000004
38,0.019423500000000003,0.6889435,0.0844465,-0.12478349999999999,0.5033735,0.0702565,-0.1860435,0.7745135,0.0521595,0.1375065,0.46448350000000005,0.0574505,0.18492650000000002,0.6663835,0.053113499999999994,-0.20511349999999998,0.9816435,0.0504595,0.2231465,0.9410435,0.041542499999999996,-0.07041349999999999,0.003666500000000003,0.0026574999999999967,0.07041349999999999,-0.003666500000000003,-0.0026575,-0.12757349999999998,-0.4322865,-0.022346500000000005,0.11492650000000001,-0.4604765,0.004574499999999995,-0.1360035,-0.8128165,-0.0223285,0.1257865,-0.8290665,-0.030610500000000006
39,0.019168,0.6885304999999999,0.084607,-0.124943,0.5035105,0.069879,-0.186513,0.7750604999999999,0.051638,0.137337,0.4643205,0.057287000000000005,0.185177,0.6673905,0.053302,-0.205963,0.9823905,0.049909999999999996,0.22353699999999999,0.9404905,0.041139,-0.07034299999999999,0.0036864999999999953,0.002593999999999999,0.07034299999999999,-0.0036864999999999953,-0.002593999999999999,-0.127603,-0.4329895,-0.022833,0.115207,-0.4604895,0.004330999999999998,-0.136043,-0.8123795,-0.022594999999999997,0.125877,-0.8291495,-0.031246999999999997
40,0.018732999999999996,0.6880995,0.08444499999999999,-0.125127,0.5034394999999999,0.069244,-0.187237,0.7750595,0.050628,0.137083,0.46404950000000006,0.0569,0.18521300000000002,0.6684795,0.053321999999999994,-0.207127,0.9845495,0.049126,0.223983,0.9396495,0.040521,-0.07027,0.0036904999999999993,0.002522,0.07027,-0.0036904999999999993,-0.0025220000000000034,-0.127687,-0.4337505,-0.023487,0.115343,-0.4605005,0.003689999999999999,-0.13609700000000002,-0.8124305,-0.023322000000000002,0.12584299999999998,-0.8290705,-0.03206
41,0.018141499999999998,0.688006,0.0842055,-0.1252895,0.5035959999999999,0.0685975,-0.1874095,0.774846,0.0490975,0.13688050000000002,0.46414599999999995,0.0563745,0.18530049999999998,0.669796,0.0531755,-0.20773950000000002,0.987936,0.0481385,0.2247905,0.939936,0.0398305,-0.0702005,0.00370100000000001,0.0024185000000000005,0.0702005,-0.003700999999999996,-0.0024185000000000005,-0.12774950000000002,-0.43424399999999996,-0.0242045,0.1154905,-0.460534,0.0029514999999999993,-0.1361095,-0.812464,-0.024153499999999998,0.1258105,-0.829094,-0.0329565
42,0.017511499999999996,0.687878,0.083579,-0.1254745,0.5033679999999999,0.06766,-0.1874945,0.774618,0.046832,0.1366655,0.464128,0.055869,0.1854155,0.671038,0.052326,-0.2082345,0.9915080000000001,0.046279,0.2253455,0.937308,0.037734,-0.07015450000000001,0.00371500000000001,0.002369999999999997,0.07015450000000001,-0.003714999999999996,-0.0023700000000000006,-0.1278245,-0.434592,-0.025245000000000004,0.11559549999999999,-0.46051200000000003,0.001918999999999997,-0.1360045,-0.812692,-0.025472,0.1257055,-0.829132,-0.034140000000000004
43,0.016502,0.688061,0.082244,-0.12586000000000003,0.5032409999999999,0.066213,-0.18775000000000003,0.774491,0.043681,0.13617,0.465541,0.055276000000000006,0.18541000000000002,0.672621,0.050683000000000006,-0.20869,0.9950809999999999,0.04174,0.22571000000000002,0.9346810000000001,0.034955,-0.070133,0.003603999999999996,0.002212000000000002,0.070133,-0.003603999999999996,-0.0022119999999999987,-0.12774999999999997,-0.435329,-0.026887,0.11578,-0.460629,0.00013000000000000164,-0.13596999999999998,-0.813249,-0.027762000000000002,0.12567,-0.829259,-0.035887999999999996
44,0.015427499999999997,0.688298,0.0807545,-0.1262355,0.503238,0.06460450000000001,-0.18806550000000002,0.773188,0.040398500000000004,0.1355845,0.46676799999999996,0.0546075,0.18541449999999998,0.674288,0.048925500000000004,-0.2087455,0.9947779999999999,0.037056500000000006,0.2259945,0.931778,0.031975500000000004,-0.0701135,0.0035110000000000002,0.002083500000000002,0.0701135,-0.0035110000000000002,-0.0020834999999999985,-0.1276855,-0.436592,-0.0287095,0.1159445,-0.460742,-0.001900499999999996,-0.1359555,-0.813612,-0.0301385,0.1256145,-0.829352,-0.037794499999999995
45,0.014184499999999997,0.6886755,0.078663,-0.1266545,0.5029655,0.062429,-0.18840450000000003,0.7698054999999999,0.03655,0.13491550000000002,0.4678655,0.053378,0.18597550000000002,0.6749555,0.047061,-0.20931450000000001,0.9979055000000001,0.031538,0.22616550000000002,0.9303055,0.027414,-0.0701425,0.0034964999999999996,0.0018770000000000002,0.0701425,-0.0034964999999999996,-0.0018770000000000002,-0.12773450000000003,-0.4378045,-0.031114999999999997,0.1160355,-0.4607645,-0.004744000000000002,-0.13610450000000002,-0.8141045,-0.033189,0.1254255,-0.8292744999999999,-0.040294
46,0.013083999999999997,0.688855,0.076164,-0.12715400000000002,0.5026250000000001,0.060020000000000004,-0.188624,0.765665,0.032286999999999996,0.134216,0.46883500000000006,0.051819000000000004,0.185606,0.6755450000000001,0.043905,-0.20988400000000001,1.000685,0.025395,0.225996,0.928885,0.02231,-0.07023199999999999,0.0034520000000000106,0.001753000000000001,0.07023199999999999,-0.0034519999999999967,-0.001753000000000001,-0.127634,-0.439145,-0.034002000000000004,0.11605599999999999,-0.460745,-0.008236,-0.13623400000000002,-0.8151250000000001,-0.036732,0.125296,-0.829375,-0.043259000000000006
47,0.012046999999999999,0.6890025000000001,0.07349449999999999,-0.12744,0.5016725000000001,0.057597499999999996,-0.18881,0.7610825,0.0279405,0.13358,0.4694225000000001,0.0501905,0.18572,0.6774825,0.0407395,-0.21022,1.0007325,0.0189685,0.22647,0.9262325,0.0169025,-0.070387,0.0034015000000000017,0.0017424999999999993,0.070387,-0.0034015000000000017,-0.001742500000000001,-0.12746,-0.44070750000000003,-0.0372385,0.11615,-0.4607375,-0.0121205,-0.1364,-0.8160175,-0.0404855,0.12516,-0.8295075,-0.0463695
48,0.011233999999999997,0.6894805,0.07019800000000001,-0.127442,0.5006705,0.054691000000000004,-0.188652,0.7573405,0.02297,0.13312800000000002,0.4699105,0.048191,0.18669799999999998,0.6794305,0.037052,-0.21028200000000002,1.0010105,0.011145,0.227618,0.9250305,0.009886,-0.07067,0.0032604999999999995,0.0015880000000000009,0.07067,-0.0032604999999999995,-0.0015879999999999991,-0.12719200000000003,-0.4418295,-0.041362,0.116558,-0.4606595,-0.016956,-0.136382,-0.8170995,-0.045263,0.125168,-0.8290095,-0.050228
49,0.010470500000000006,0.68969,0.066855,-0.12732949999999998,0.49877999999999995,0.051842,-0.1883895,0.75331,0.017924000000000002,0.13272050000000002,0.47023999999999994,0.04627100000000001,0.1868205,0.68506,0.033218,-0.2102595,1.0011,0.003027,0.22863050000000001,0.92411,0.002974,-0.0710275,0.0031230000000000008,0.0014590000000000002,0.0710275,-0.0031230000000000008,-0.0014590000000000002,-0.12696949999999999,-0.44263,-0.045765,0.1170505,-0.46073000000000003,-0.022127,-0.13631949999999998,-0.8181499999999999,-0.050210000000000005,0.1252405,-0.82851,-0.054328
50,0.009899999999999996,0.6893754999999999,0.063235,-0.12707200000000002,0.4957955,0.048805999999999995,-0.187982,0.7491654999999999,0.012944,0.132398,0.4707455,0.044211,0.18783799999999998,0.6900354999999999,0.028346000000000003,-0.209632,0.9977055,-0.006879,0.22977799999999998,0.9234555,-0.003986999999999999,-0.071458,0.002860500000000002,0.0014520000000000002,0.071458,-0.002860500000000002,-0.0014520000000000002,-0.12671200000000002,-0.4427545,-0.050941,0.117778,-0.4606845,-0.028321,-0.136182,-0.8190545,-0.055827,0.125378,-0.8277545000000001,-0.05867000000000001
51,0.009418,0.6891875000000001,0.059376,-0.126804,0.49290750000000005,0.045325,-0.187564,0.7452375,0.0075650000000000005,0.132156,0.4714975,0.041566,0.18895599999999999,0.6887175,0.021234,-0.20888400000000001,0.9945375000000001,-0.017213000000000003,0.230296,0.9231775,-0.012523999999999999,-0.071871,0.0026505,0.001539,0.071871,-0.0026505,-0.001539,-0.126504,-0.4430125,-0.057416,0.118696,-0.4604425,-0.035679,-0.136204,-0.8199425,-0.062299,0.125506,-0.8267225,-0.06372
52,0.009298499999999998,0.6885410000000001,0.055859,-0.1264255,0.48945099999999997,0.042198,-0.1871355,0.741811,0.0027129999999999997,0.1320445,0.472341,0.038793,0.19150450000000002,0.691041,0.014533,-0.2083955,0.991901,-0.025012,0.23181449999999998,0.924141,-0.020673,-0.0721805,0.002347999999999989,0.00184,0.0721805,-0.002348000000000003,-0.00184,-0.1263755,-0.44267900000000004,-0.064187,0.1196445,-0.46026900000000004,-0.043117,-0.13614549999999997,-0.820569,-0.068384,0.1254745,-0.825569,-0.06848800000000001
53,0.009250999999999995,0.6877665,0.0521765,-0.12589,0.4862265,0.0388945,-0.18680000000000002,0.7402065,-0.0024565,0.13221999999999998,0.47225649999999997,0.0357175,0.19324999999999998,0.6894165,0.0078725,-0.20764000000000002,0.9853565,-0.0329065,0.23348,0.9244764999999999,-0.0285665,-0.07242799999999999,0.0020434999999999898,0.0020494999999999992,0.07242799999999999,-0.0020435000000000036,-0.0020495,-0.12604,-0.44209350000000003,-0.0719405,0.12067,-0.4597835,-0.051166500000000004,-0.13591,-0.8207935000000001,-0.0746275,0.12561,-0.8239935,-0.0734725
54,0.009305000000000004,0.6872115000000001,0.0485015,-0.125411,0.4830515000000001,0.0356045,-0.186591,0.7400515000000001,-0.0077595,0.132549,0.4710715000000001,0.032994499999999996,0.19611900000000002,0.6925115000000001,0.0010434999999999993,-0.207071,0.9800515000000001,-0.0406465,0.235369,0.9268715000000001,-0.0366215,-0.072616,0.0017115000000000047,0.0021895000000000005,0.072616,-0.0017114999999999908,-0.0021894999999999996,-0.125581,-0.43985850000000004,-0.0806065,0.121709,-0.45836849999999996,-0.060051499999999994,-0.135661,-0.8187485,-0.0806245,0.12581900000000001,-0.8210685,-0.07867049999999999
55,0.009508499999999998,0.68606,0.0449755,-0.12514750000000002,0.47935999999999995,0.0323795,-0.1862375,0.74006,-0.0129515,0.1331025,0.46881,0.0305425,0.19929249999999998,0.6953900000000001,-0.0057655,-0.20653749999999998,0.9750600000000001,-0.0481595,0.23751250000000002,0.92949,-0.0447855,-0.0728265,0.0013969999999999955,0.0022275000000000003,0.0728265,-0.0013970000000000024,-0.0022275000000000003,-0.1250575,-0.43707,-0.0894275,0.1227925,-0.45626,-0.06902549999999999,-0.13548749999999998,-0.81555,-0.0863265,0.1259325,-0.81772,-0.0837455
56,0.009957,0.6845695,0.040909,-0.124669,0.47760949999999996,0.028636,-0.18556899999999998,0.7412995,-0.019270000000000002,0.133941,0.46777949999999996,0.027456,0.202741,0.6994095,-0.013894000000000002,-0.205729,0.9710395,-0.056462,0.240121,0.9319495000000001,-0.053977000000000004,-0.073048,0.0011164999999999994,0.0024959999999999982,0.073048,-0.0011164999999999994,-0.0024960000000000017,-0.12428900000000001,-0.4325705,-0.09977,0.12423100000000001,-0.4529405,-0.079539,-0.13502899999999998,-0.8109105,-0.092753,0.126111,-0.8129204999999999,-0.089364
57,0.010479000000000002,0.6837625,0.037141999999999994,-0.124078,0.47574250000000007,0.025609999999999997,-0.18528799999999998,0.7422125,-0.025041,0.13495200000000002,0.4662225,0.024669,0.20589200000000002,0.7047825,-0.021601,-0.204818,0.9683025,-0.063907,0.242572,0.9364525,-0.062,-0.07342599999999999,0.0009185000000000026,0.0026510000000000006,0.07342599999999999,-0.0009184999999999957,-0.0026510000000000006,-0.12345799999999998,-0.42664749999999996,-0.109878,0.125812,-0.44813749999999997,-0.089754,-0.13441799999999998,-0.8042475,-0.098191,0.12582200000000002,-0.8067575,-0.094391
58,0.011006,0.6836865,0.0333875,-0.123575,0.4752065,0.022356499999999998,-0.18505500000000003,0.7435065,-0.0311395,0.13603500000000002,0.46474649999999995,0.0217215,0.20854499999999998,0.7097165,-0.029763500000000002,-0.204005,0.9669764999999999,-0.0716845,0.24494500000000002,0.9423465,-0.0706635,-0.073918,0.0006034999999999999,0.0028105000000000005,0.073918,-0.0006034999999999999,-0.0028105000000000005,-0.122705,-0.4206335,-0.12091149999999999,0.12755499999999997,-0.4413435,-0.10063949999999999,-0.13383499999999998,-0.7956935,-0.1035585,0.125685,-0.7983735,-0.0993975
59,0.011444000000000006,0.683248,0.0297445,-0.12321499999999999,0.476248,0.0191705,-0.185085,0.745248,-0.037558499999999995,0.136915,0.464198,0.018799500000000004,0.211075,0.714928,-0.0375495,-0.203835,0.967928,-0.0786805,0.247025,0.949478,-0.0806785,-0.074364,0.00042199999999999876,0.002977500000000001,0.074364,-0.00042199999999999876,-0.0029774999999999975,-0.12218499999999999,-0.413742,-0.1320445,0.12921500000000002,-0.43369199999999997,-0.1122015,-0.13359500000000002,-0.785722,-0.1092775,0.12537500000000001,-0.7887919999999999,-0.1042855
60,0.011728499999999996,0.682477,0.026507000000000003,-0.12307950000000001,0.476727,0.016416,-0.18530950000000002,0.7462770000000001,-0.043258,0.13759049999999998,0.464117,0.0162,0.2124005,0.7211669999999999,-0.043289,-0.20387950000000002,0.969657,-0.085031,0.2487905,0.955187,-0.089453,-0.0746195,0.00017800000000000107,0.003036999999999998,0.0746195,-0.0001779999999999976,-0.003036999999999998,-0.12175949999999999,-0.406543,-0.142566,0.1306705,-0.425383,-0.12351100000000001,-0.13360950000000002,-0.7746930000000001,-0.113922,0.1247905,-0.778173,-0.108567
61,0.0121445,0.681941,0.023023500000000002,-0.1224655,0.47857099999999997,0.013201499999999998,-0.18554549999999997,0.747661,-0.0490235,0.1382545,0.464891,0.013174499999999999,0.21326450000000002,0.728071,-0.0492605,-0.2038355,0.972031,-0.0917725,0.2499945,0.955481,-0.0975925,-0.0748915,5.299999999999923e-05,0.002874500000000002,0.0748915,-5.3000000000000096e-05,-0.002874500000000002,-0.1211755,-0.398859,-0.1529925,0.1321945,-0.41619900000000004,-0.1344955,-0.13347550000000002,-0.762849,-0.1186525,0.1243045,-0.767019,-0.11292250000000001
62,0.012324,0.6813859999999999,0.019513500000000003,-0.12243199999999999,0.479776,0.009806500000000003,-0.18554199999999998,0.748486,-0.0547505,0.138798,0.465966,0.010052499999999999,0.21407800000000002,0.732316,-0.0552415,-0.204722,0.975646,-0.0987755,0.251018,0.956346,-0.10563349999999999,-0.07519600000000001,-0.00010700000000000032,0.0028585,0.07519600000000001,0.00010699999999999946,-0.0028585,-0.12068200000000001,-0.39069400000000004,-0.1629345,0.133598,-0.406384,-0.1453145,-0.133452,-0.7505040000000001,-0.1233495,0.12404799999999999,-0.755254,-0.11712049999999999
63,0.012380999999999998,0.6803950000000001,0.016588,-0.122614,0.481975,0.007123999999999998,-0.185954,0.749565,-0.060096000000000004,0.139026,0.468005,0.0073659999999999975,0.214746,0.733565,-0.060808,-0.205734,0.9772550000000001,-0.105766,0.252106,0.955455,-0.113146,-0.075516,-0.00016800000000000148,0.002894999999999995,0.075516,0.00016800000000000148,-0.0028950000000000017,-0.120294,-0.38410500000000003,-0.17191800000000002,0.134836,-0.397035,-0.155028,-0.133644,-0.7389049999999999,-0.127773,0.12353599999999999,-0.7448049999999999,-0.120657
64,0.012140000000000005,0.6803595,0.013673999999999999,-0.12299199999999999,0.4848595,0.004504000000000001,-0.186112,0.7518395,-0.065366,0.139158,0.4665595,0.0047820000000000015,0.215008,0.7318095,-0.066477,-0.206732,0.9796395,-0.11274100000000001,0.25357799999999997,0.9540595000000001,-0.12035799999999999,-0.075809,-4.500000000001031e-06,0.002822999999999999,0.075809,4.4999999999975615e-06,-0.002822999999999999,-0.12002199999999999,-0.3766105,-0.180728,0.135888,-0.3866005,-0.164508,-0.133972,-0.7261704999999999,-0.132567,0.12310800000000001,-0.7331305,-0.124079
65,0.011758999999999997,0.680978,0.011341499999999997,-0.12348699999999999,0.483428,0.002531499999999999,-0.186937,0.750268,-0.0695915,0.139203,0.465298,0.0024645000000000014,0.215193,0.730218,-0.0708025,-0.207877,0.983398,-0.1188165,0.25486299999999995,0.951438,-0.12644149999999998,-0.07609099999999999,6.800000000000556e-05,0.0023485000000000034,0.07609099999999999,-6.799999999999862e-05,-0.0023484999999999964,-0.11996699999999999,-0.369812,-0.1885015,0.136683,-0.375982,-0.17273149999999998,-0.13447699999999999,-0.712902,-0.1368035,0.122893,-0.720742,-0.12741550000000001
66,0.011473999999999998,0.6800265000000001,0.008590000000000007,-0.12359600000000001,0.4837965,0.0005990000000000023,-0.186786,0.7503665,-0.07414599999999999,0.139544,0.4652865,2.4000000000003185e-05,0.215584,0.7296465000000001,-0.073905,-0.208626,0.9795765000000001,-0.12516,0.256224,0.9489265,-0.133322,-0.076196,2.0499999999999685e-05,0.002156000000000005,0.076196,-2.0499999999999685e-05,-0.002155999999999998,-0.119746,-0.3568635,-0.19638099999999997,0.137744,-0.3630335,-0.181431,-0.134236,-0.6987534999999999,-0.140741,0.122804,-0.7077935,-0.129686
67,0.011135000000000004,0.6793155,0.005781000000000001,-0.123334,0.4825555,-0.0017780000000000018,-0.18642399999999998,0.7491155,-0.077484,0.139856,0.4646455,-0.0027700000000000016,0.21588600000000002,0.7287455,-0.07641200000000001,-0.209204,0.9760455,-0.13089,0.25713600000000003,0.9465155,-0.13893899999999998,-0.07627400000000001,6.749999999999812e-05,0.0019909999999999997,0.07627400000000001,-6.749999999999812e-05,-0.0019909999999999997,-0.119534,-0.3441945,-0.203227,0.13883600000000001,-0.3500545,-0.189637,-0.133904,-0.6846445,-0.144262,0.122646,-0.6948145,-0.131625
68,0.010958500000000003,0.6806654999999999,-0.0009330000000000033,-0.1230315,0.4823155,-0.008270000000000007,-0.18583149999999998,0.7485854999999999,-0.084978,0.14015850000000002,0.4649855,-0.009030000000000003,0.21593849999999998,0.7289755,-0.083255,-0.20920149999999998,0.9792255000000001,-0.139792,0.25805849999999997,0.9401455000000001,-0.146862,-0.0765145,0.00026349999999999985,0.0013689999999999952,0.0765145,-0.00026349999999999985,-0.0013690000000000022,-0.1190215,-0.3312345,-0.213584,0.14016850000000003,-0.3360145,-0.20050400000000002,-0.13341150000000002,-0.6695644999999999,-0.15046500000000002,0.1226985,-0.6807745000000001,-0.13726
69,0.010721000000000003,0.683619,-0.008386499999999998,-0.12249000000000002,0.48268900000000003,-0.015996499999999997,-0.18517,0.7483690000000001,-0.0931835,0.14062,0.467859,-0.016732499999999997,0.21637,0.7235590000000001,-0.0909835,-0.20891,0.984399,-0.1494625,0.25888,0.9368890000000001,-0.1562915,-0.076547,-3.799999999999637e-05,0.0006715000000000054,0.076547,3.800000000001025e-05,-0.0006714999999999985,-0.11801999999999999,-0.316281,-0.2271595,0.14207999999999998,-0.318791,-0.2135795,-0.1326,-0.6525209999999999,-0.1575925,0.12309,-0.663931,-0.1439125
70,0.010527500000000002,0.68714,-0.015960000000000002,-0.12197849999999999,0.48331999999999997,-0.024307000000000002,-0.1847285,0.74359,-0.102326,0.1408215,0.47080999999999995,-0.024880000000000006,0.21628150000000002,0.7185,-0.09959000000000001,-0.2086385,0.9817600000000001,-0.159991,0.25903149999999997,0.9398500000000001,-0.166263,-0.0765125,2.0000000000006124e-05,-1.4000000000000123e-05,0.0765125,-2.0000000000006124e-05,1.4000000000000123e-05,-0.11699849999999999,-0.30078000000000005,-0.24098000000000003,0.1440915,-0.30081,-0.22707,-0.1318185,-0.63433,-0.164979,0.1232715,-0.64561,-0.150735
71,0.010135499999999995,0.689905,-0.0234015,-0.1216865,0.483985,-0.032709499999999996,-0.1843865,0.7402150000000001,-0.1111965,0.1401735,0.474395,-0.0332485,0.2157635,0.713465,-0.1080255,-0.2084765,0.980205,-0.1702825,0.2596835,0.943085,-0.1759095,-0.07664750000000001,-6.50000000000095e-05,-0.0007204999999999989,0.07664750000000001,6.499999999998174e-05,0.0007204999999999989,-0.1159965,-0.284245,-0.25486949999999997,0.1457835,-0.28114500000000003,-0.24081950000000002,-0.1307865,-0.6156349999999999,-0.1725795,0.12331349999999999,-0.626115,-0.1573995
72,0.009415500000000004,0.6926950000000001,-0.031030000000000002,-0.1214375,0.483845,-0.041147,-0.1841675,0.738885,-0.12012500000000001,0.1393725,0.47581500000000004,-0.041981000000000004,0.2157825,0.706895,-0.116392,-0.2083075,0.9796750000000001,-0.181021,0.2599925,0.9435150000000001,-0.184142,-0.07677149999999999,-9.499999999998399e-05,-0.0011960000000000026,0.07677149999999999,9.500000000001174e-05,0.0011960000000000026,-0.11500749999999998,-0.265995,-0.268592,0.1474725,-0.26124499999999995,-0.254952,-0.1295875,-0.5953949999999999,-0.18027300000000002,0.1238425,-0.604805,-0.16434300000000002
73,0.008979500000000003,0.69312,-0.0396135,-0.12089050000000001,0.48045000000000004,-0.0504285,-0.1835505,0.73443,-0.1298115,0.1388495,0.47890999999999995,-0.0511375,0.2162295,0.7078099999999999,-0.1250395,-0.20790050000000002,0.9771799999999999,-0.19241950000000002,0.26086950000000003,0.9468,-0.1949795,-0.0770795,-0.0004899999999999904,-0.001632500000000009,0.0770795,0.0004899999999999904,0.001632499999999995,-0.11376049999999999,-0.24487,-0.2834295,0.1495495,-0.23881,-0.26997950000000004,-0.1281605,-0.57255,-0.1870685,0.1247295,-0.58068,-0.1713335
74,0.008817000000000002,0.69416,-0.048388499999999994,-0.12012299999999998,0.48075,-0.059449499999999995,-0.182743,0.73309,-0.1394715,0.13839700000000002,0.48109,-0.060338499999999996,0.21662700000000001,0.70844,-0.1345825,-0.208393,0.9709399999999999,-0.2051515,0.26219699999999996,0.9521999999999999,-0.2073015,-0.077399,-0.0007300000000000084,-0.0019845,0.077399,0.0007300000000000084,0.0019845,-0.112563,-0.22414,-0.2977315,0.15163700000000002,-0.21676,-0.2847815,-0.126363,-0.55009,-0.1946485,0.125787,-0.55684,-0.1786295
75,0.008624500000000005,0.69536,-0.0568455,-0.1194775,0.47985,-0.0684675,-0.18186750000000002,0.72824,-0.1492975,0.13782250000000001,0.48192999999999997,-0.0696905,0.2166825,0.70799,-0.1456285,-0.2088375,0.97241,-0.2171905,0.2632825,0.9575499999999999,-0.2191805,-0.0778895,-0.0009100000000000219,-0.0024694999999999995,0.0778895,0.0009099999999999941,0.0024694999999999995,-0.1115675,-0.20325000000000004,-0.3117805,0.1533925,-0.19487000000000004,-0.29886050000000003,-0.12439750000000001,-0.5276799999999999,-0.2021905,0.1265325,-0.53345,-0.18595050000000002
76,0.008364499999999997,0.69537,-0.06529300000000002,-0.11871150000000001,0.4798,-0.07724600000000001,-0.1809615,0.72466,-0.15865600000000002,0.13721850000000002,0.48416000000000003,-0.07867900000000001,0.2168485,0.70905,-0.15591300000000002,-0.20914149999999998,0.9728300000000001,-0.22967500000000002,0.2645185,0.96218,-0.23040500000000003,-0.0782765,-0.0011700000000000044,-0.0029650000000000093,0.0782765,0.0011700000000000044,0.0029649999999999954,-0.1104015,-0.18325000000000002,-0.325715,0.15481849999999997,-0.17381000000000002,-0.312515,-0.12226150000000001,-0.5076,-0.209465,0.12716850000000002,-0.5112300000000001,-0.193113
77,0.007981499999999999,0.694075,-0.07014299999999998,-0.1181905,0.479025,-0.08198899999999999,-0.1808905,0.7206049999999999,-0.164579,0.1364395,0.48406499999999997,-0.08394499999999999,0.2166395,0.708425,-0.162418,-0.2095105,0.967935,-0.238155,0.2654595,0.970305,-0.237905,-0.0787025,-0.001354999999999995,-0.0031149999999999928,0.0787025,0.001354999999999995,0.0031150000000000067,-0.1092905,-0.163265,-0.335435,0.1559195,-0.15390500000000001,-0.322105,-0.12036050000000001,-0.489105,-0.212775,0.1272395,-0.490395,-0.195907
78,0.008076500000000002,0.690295,-0.074437,-0.1177225,0.475465,-0.086371,-0.1803925,0.717625,-0.170394,0.1360175,0.480765,-0.08865,0.2162675,0.7129749999999999,-0.167597,-0.2100725,0.963015,-0.24585,0.26647750000000003,0.975335,-0.24428,-0.0790245,-0.0012250000000000316,-0.00315,0.0790245,0.001224999999999976,0.00315,-0.10813249999999999,-0.143005,-0.34164,0.1570475,-0.133855,-0.32887,-0.11885249999999999,-0.47165500000000005,-0.21483000000000002,0.1274575,-0.46980500000000003,-0.19781100000000001
79,0.008119500000000002,0.68586,-0.07885600000000001,-0.11733949999999999,0.47163,-0.090242,-0.1803295,0.71634,-0.175644,0.1357605,0.47774000000000005,-0.092878,0.2158705,0.70935,-0.173038,-0.2107295,0.9585100000000001,-0.253145,0.26679050000000004,0.97016,-0.24932500000000002,-0.0793205,-0.0015399999999999858,-0.003025,0.0793205,0.0015400000000000413,0.003025,-0.1071095,-0.12334999999999996,-0.346985,0.1580405,-0.11387999999999998,-0.334705,-0.11767949999999999,-0.45482,-0.216565,0.12750050000000002,-0.44975,-0.200447
80,0.008057000000000002,0.6811849999999999,-0.08366,-0.11708,0.46787499999999993,-0.094527,-0.17994,0.7151449999999999,-0.181062,0.1357,0.473145,-0.09762699999999999,0.2156,0.707165,-0.177926,-0.21050000000000002,0.954205,-0.260385,0.26701,0.967115,-0.256485,-0.079592,-0.0015550000000000286,-0.0029750000000000054,0.079592,0.001554999999999973,0.0029750000000000054,-0.10623,-0.10334500000000002,-0.352065,0.15894999999999998,-0.09365500000000004,-0.339855,-0.11703999999999999,-0.43769500000000006,-0.218085,0.12751,-0.42969500000000005,-0.202969
81,0.007725499999999995,0.676835,-0.088343,-0.1168415,0.46469499999999997,-0.098853,-0.1798015,0.712445,-0.187212,0.1357285,0.47070499999999993,-0.102085,0.21576849999999997,0.706655,-0.184275,-0.21062150000000002,0.9497049999999999,-0.26707000000000003,0.2672285,0.9669449999999999,-0.26385000000000003,-0.0798585,-0.001595000000000013,-0.0031199999999999978,0.0798585,0.0015949999999999576,0.0031199999999999978,-0.1052815,-0.08860500000000004,-0.35689000000000004,0.15925849999999997,-0.07827500000000004,-0.34421999999999997,-0.11586149999999999,-0.421315,-0.21873,0.12784849999999998,-0.41127500000000006,-0.20680900000000002
82,0.007206,0.6746099999999999,-0.091922,-0.116835,0.46463,-0.10215199999999999,-0.179685,0.71089,-0.192471,0.135575,0.47075,-0.105699,0.216755,0.69982,-0.18871300000000002,-0.210785,0.94643,-0.27376,0.267665,0.96255,-0.27012,-0.080072,-0.0015800000000000258,-0.0032299999999999968,0.080072,0.0015799999999999703,0.0032299999999999968,-0.104625,-0.07579999999999998,-0.35994,0.159095,-0.06530999999999998,-0.3471,-0.11477500000000002,-0.40807000000000004,-0.21953,0.128255,-0.39636000000000005,-0.210602
83,0.006576000000000003,0.67059,-0.095111,-0.11691099999999999,0.46433599999999997,-0.104936,-0.179511,0.7075499999999999,-0.19716899999999998,0.13547900000000002,0.470589,-0.10880200000000001,0.217219,0.69344,-0.19206600000000001,-0.210501,0.94411,-0.278665,0.268049,0.95865,-0.273995,-0.080317,-0.0015900000000000358,-0.003265000000000004,0.080317,0.0015899999999999803,0.00326499999999999,-0.104021,-0.06204000000000004,-0.36251500000000003,0.158749,-0.05155000000000004,-0.34931500000000004,-0.114181,-0.39319000000000004,-0.221885,0.128249,-0.38243000000000005,-0.211927
84,0.005844999999999996,0.6675150000000001,-0.09773100000000001,-0.117244,0.463444,-0.107265,-0.179574,0.7079150000000001,-0.201193,0.135146,0.470197,-0.11119100000000001,0.21854600000000002,0.690025,-0.193735,-0.20988400000000001,0.942335,-0.28463,0.269136,0.955025,-0.27782,-0.080623,-0.001585000000000003,-0.0032900000000000013,0.080623,0.001585000000000003,0.0032899999999999874,-0.103644,-0.04796499999999998,-0.36412,0.15789599999999998,-0.036665,-0.35069,-0.11378400000000001,-0.379775,-0.22374,0.127896,-0.36911499999999997,-0.21194600000000002
85,0.005056,0.664875,-0.100219,-0.11774500000000002,0.462409,-0.10922200000000001,-0.179895,0.7075549999999999,-0.205335,0.134665,0.469375,-0.113517,0.218915,0.685075,-0.19715500000000002,-0.209465,0.9400949999999999,-0.28984,0.270295,0.9490350000000001,-0.28271,-0.08083399999999999,-0.001475000000000004,-0.0033000000000000113,0.08083399999999999,0.001475000000000004,0.0032999999999999974,-0.10353499999999999,-0.03441499999999997,-0.3658,0.156645,-0.02204499999999998,-0.35209999999999997,-0.11455500000000002,-0.366215,-0.22616,0.125425,-0.35873499999999997,-0.21286300000000002
86,0.004450499999999996,0.662455,-0.102625,-0.11814450000000001,0.460982,-0.11114199999999999,-0.1796145,0.7066749999999999,-0.209416,0.1343155,0.46909599999999996,-0.115605,0.2189855,0.6798949999999999,-0.20048,-0.2087445,0.939725,-0.29499,0.2708155,0.942245,-0.28820999999999997,-0.08092150000000001,-0.001395000000000035,-0.0033099999999999935,0.08092150000000001,0.0013949999999999796,0.0033100000000000074,-0.10360450000000002,-0.021475000000000022,-0.36754,0.1554055,-0.008165000000000033,-0.35357,-0.11615450000000002,-0.35402500000000003,-0.22979,0.12250549999999999,-0.349105,-0.213588
87,0.003785499999999997,0.660935,-0.10429500000000001,-0.11852050000000001,0.46167800000000003,-0.11213200000000001,-0.17964049999999998,0.7041550000000001,-0.21239200000000003,0.13381949999999998,0.47034,-0.11693400000000001,0.2183695,0.678085,-0.201885,-0.2077005,0.937765,-0.299615,0.27084949999999997,0.938665,-0.292435,-0.0809035,-0.0012550000000000061,-0.0032950000000000063,0.0809035,0.0012550000000000061,0.0032949999999999924,-0.10415050000000001,-0.007904999999999995,-0.36853500000000006,0.1539295,0.006004999999999983,-0.354215,-0.11794049999999999,-0.341835,-0.23262500000000003,0.1190595,-0.33884499999999995,-0.21349400000000002
88,0.00289,0.65932,-0.104659,-0.118926,0.462079,-0.112383,-0.179776,0.70543,-0.214091,0.133284,0.470192,-0.11776099999999999,0.217774,0.68466,-0.201631,-0.20646599999999998,0.94092,-0.30261499999999997,0.27034400000000003,0.9458599999999999,-0.293685,-0.080867,-0.0010000000000000009,-0.0033450000000000008,0.080867,0.0010000000000000009,0.0033450000000000008,-0.10486599999999999,0.006159999999999999,-0.368545,0.152654,0.020069999999999977,-0.35379499999999997,-0.119926,-0.32968,-0.235345,0.116624,-0.32711,-0.2128
89,0.002144499999999999,0.658395,-0.10446299999999999,-0.1191995,0.462929,-0.11187899999999999,-0.1799195,0.701715,-0.21517999999999998,0.1331905,0.47174799999999995,-0.11757999999999999,0.2174005,0.691365,-0.20148,-0.2054395,0.9427449999999999,-0.30545999999999995,0.26989050000000003,0.9503949999999999,-0.29456,-0.0808355,-0.0008850000000000247,-0.0033899999999999902,0.0808355,0.0008849999999999691,0.003390000000000004,-0.1055395,0.01891499999999996,-0.36792,0.15150049999999998,0.03282499999999994,-0.35294000000000003,-0.12162949999999999,-0.31864500000000007,-0.23807,0.1165105,-0.31435500000000005,-0.21112999999999998
90,0.001677999999999999,0.6577500000000001,-0.103792,-0.119665,0.463108,-0.11082199999999999,-0.180135,0.69851,-0.21559999999999999,0.133185,0.472992,-0.116849,0.217245,0.6897800000000001,-0.200532,-0.204225,0.94428,-0.30748,0.269965,0.94878,-0.29486,-0.08073,-0.0008900000000000019,-0.0034099999999999964,0.08073,0.0008900000000000019,0.0034100000000000102,-0.10605500000000001,0.03147,-0.36658999999999997,0.150555,0.04594999999999999,-0.3513,-0.123665,-0.30773999999999996,-0.24095,0.11394199999999999,-0.30294000000000004,-0.208811
91,0.0014874999999999992,0.6566799999999999,-0.103049,-0.12007350000000001,0.463366,-0.109637,-0.18027349999999998,0.69712,-0.215255,0.13310650000000002,0.47375399999999995,-0.115625,0.2177965,0.6899,-0.199989,-0.20309349999999998,0.94302,-0.307705,0.2703565,0.9445399999999999,-0.295315,-0.0806225,-0.0007199999999999984,-0.003494999999999998,0.0806225,0.0007199999999999984,0.003494999999999998,-0.1065835,0.04333999999999999,-0.364875,0.1495165,0.05936999999999998,-0.349615,-0.12626350000000003,-0.29711000000000004,-0.245595,0.1133375,-0.29108000000000006,-0.20468799999999998
92,0.0014050000000000017,0.65635,-0.102099,-0.12051999999999999,0.463327,-0.108476,-0.1805,0.69737,-0.21474500000000002,0.13302999999999998,0.473859,-0.11407300000000001,0.21848,0.6883699999999999,-0.199241,-0.20231,0.94287,-0.308435,0.27089,0.93885,-0.296115,-0.080456,-0.0005800000000000249,-0.003604999999999997,0.080456,0.0005799999999999694,0.003604999999999997,-0.10692,0.05432999999999999,-0.363195,0.14894,0.07156999999999997,-0.347855,-0.12887,-0.28808999999999996,-0.250145,0.112845,-0.28437,-0.20309
93,0.001235999999999994,0.6556299999999999,-0.10088200000000001,-0.120985,0.463669,-0.107229,-0.180705,0.6964699999999999,-0.21385500000000002,0.132815,0.47471399999999997,-0.11224400000000001,0.219115,0.6853499999999999,-0.198262,-0.201955,0.93672,-0.307585,0.271395,0.9318,-0.296285,-0.080372,-0.0005600000000000049,-0.0036650000000000016,0.080372,0.0005600000000000049,0.0036649999999999877,-0.10731500000000001,0.06456999999999996,-0.36136500000000005,0.14864499999999997,0.08296999999999999,-0.346015,-0.131535,-0.27960000000000007,-0.25434500000000004,0.112187,-0.27953000000000006,-0.20156800000000002
94,0.0012969999999999978,0.6542049999999999,-0.099716,-0.121248,0.46502399999999994,-0.106031,-0.18079800000000001,0.6945349999999999,-0.21273,0.133282,0.47497999999999996,-0.110446,0.219982,0.6826049999999999,-0.19648,-0.20191800000000001,0.934315,-0.30623,0.27230200000000004,0.9278649999999999,-0.29548,-0.080133,-0.00022500000000003073,-0.003689999999999999,0.080133,0.0002249999999999197,0.003689999999999999,-0.107418,0.07727499999999993,-0.35919,0.148552,0.09672499999999995,-0.34282,-0.132918,-0.26883500000000005,-0.25793,0.11218299999999999,-0.271895,-0.20199899999999998
95,0.0019580000000000014,0.65256,-0.098307,-0.121442,0.465559,-0.104896,-0.180922,0.6922,-0.211313,0.133808,0.475756,-0.108693,0.220938,0.6804,-0.19482300000000002,-0.202222,0.9336599999999999,-0.305583,0.274158,0.92581,-0.29453300000000004,-0.079907,-0.000260000000000038,-0.003847000000000003,0.079907,0.000260000000000038,0.003847000000000003,-0.107682,0.09172000000000002,-0.356143,0.148388,0.11158000000000001,-0.338453,-0.133762,-0.25588,-0.25806300000000004,0.11199999999999999,-0.25856999999999997,-0.19575900000000002
96,0.0027925000000000016,0.651175,-0.097461,-0.1215455,0.46681799999999996,-0.10414200000000001,-0.1809155,0.690325,-0.21033200000000002,0.1343045,0.475298,-0.107618,0.2219345,0.6757949999999999,-0.193772,-0.2020055,0.9279649999999999,-0.305472,0.2760545,0.921055,-0.293732,-0.0797335,-9.500000000006725e-05,-0.004018000000000008,0.0797335,9.499999999995623e-05,0.004017999999999994,-0.1079055,0.10295499999999996,-0.353592,0.1483445,0.12265499999999996,-0.334592,-0.1345055,-0.24648500000000007,-0.26074200000000003,0.1124165,-0.24399500000000007,-0.190197
97,0.003695999999999998,0.650172,-0.09703650000000001,-0.12158100000000001,0.46735599999999994,-0.1037565,-0.180761,0.6868299999999999,-0.2099085,0.134849,0.47512999999999994,-0.10711350000000001,0.22257899999999997,0.6687799999999999,-0.1918415,-0.202341,0.9255099999999999,-0.3060085,0.278109,0.91487,-0.2934585,-0.079564,3.999999999992898e-05,-0.0041715000000000085,0.079564,-4.0000000000040004e-05,0.004171499999999995,-0.108031,0.11238999999999993,-0.3514085,0.148389,0.13237999999999994,-0.3310385,-0.13515100000000002,-0.23847000000000007,-0.2639185,0.11538899999999999,-0.2278,-0.1833275
98,0.0047075,0.649837,-0.0964805,-0.12163850000000001,0.46778800000000004,-0.1032775,-0.1803985,0.6872550000000001,-0.2090495,0.1354515,0.47492500000000004,-0.1065105,0.2231515,0.6618550000000001,-0.18958350000000002,-0.2025585,0.922345,-0.3066195,0.28041150000000004,0.909815,-0.2922595,-0.0791855,0.00020500000000001073,-0.004360500000000003,0.0791855,-0.00020500000000001073,0.004360500000000003,-0.1078585,0.12194500000000003,-0.34888949999999996,0.1485515,0.14202500000000007,-0.3269295,-0.1360985,-0.23018499999999997,-0.2660095,0.1188215,-0.21181499999999998,-0.18058249999999998
99,0.005798999999999999,0.649228,-0.0961335,-0.121395,0.468513,-0.1029935,-0.179925,0.686445,-0.20792349999999998,0.136195,0.474544,-0.1059465,0.223735,0.662814,-0.1890015,-0.202575,0.918405,-0.3070235,0.282935,0.910445,-0.2912035,-0.078898,0.0004049999999999887,-0.004486500000000004,0.078898,-0.0004049999999999887,0.004486500000000004,-0.10714499999999999,0.13023500000000005,-0.3463235,0.149145,0.15036500000000003,-0.32287350000000004,-0.136685,-0.22312500000000002,-0.2679335,0.12190499999999999,-0.19870500000000002,-0.17777949999999998
100,0.007313999999999996,0.6487700000000001,-0.095763,-0.12104300000000001,0.469275,-0.102653,-0.179323,0.684725,-0.207057,0.13710699999999998,0.474179,-0.104849,0.22486699999999998,0.663844,-0.188414,-0.203433,0.917125,-0.307157,0.28524700000000003,0.915745,-0.290047,-0.078752,0.0005749999999999922,-0.004593,0.078752,-0.0005749999999999922,0.004593,-0.106203,0.13814500000000002,-0.343787,0.150027,0.15799500000000005,-0.318467,-0.136473,-0.21648499999999993,-0.267667,0.124527,-0.186465,-0.17407699999999998
101,0.0088245,0.6481539999999999,-0.0948585,-0.12089549999999999,0.4692449999999999,-0.1018905,-0.1789355,0.6824349999999999,-0.20651150000000001,0.1377945,0.4742949999999999,-0.1034505,0.2260845,0.6656209999999999,-0.1878815,-0.2043255,0.9161849999999999,-0.3070915,0.28729449999999995,0.921195,-0.2888415,-0.0785805,0.0007049999999999557,-0.004698499999999994,0.0785805,-0.0007050000000000667,0.004698499999999994,-0.10542549999999999,0.1459149999999999,-0.3409315,0.15103450000000002,0.1655049999999999,-0.3137715,-0.1362455,-0.20920500000000009,-0.2675915,0.1268645,-0.1736850000000001,-0.1704795
102,0.010302999999999996,0.647435,-0.09361699999999999,-0.12077099999999999,0.46876,-0.10121999999999999,-0.178621,0.678744,-0.205313,0.13838899999999998,0.47421,-0.101865,0.227439,0.667435,-0.187242,-0.205521,0.91808,-0.306963,0.289619,0.92661,-0.288053,-0.078436,0.0008500000000000174,-0.004966999999999999,0.078436,-0.0008500000000000174,0.004966999999999999,-0.104681,0.15305000000000002,-0.338303,0.152149,0.17248000000000002,-0.309423,-0.135851,-0.20233999999999996,-0.267713,0.12778899999999999,-0.16105000000000003,-0.167435
103,0.011351,0.647545,-0.09220400000000001,-0.12086999999999999,0.46781,-0.100548,-0.17851,0.676784,-0.20375100000000002,0.13871,0.47463,-0.10043200000000001,0.22835999999999998,0.6689970000000001,-0.186617,-0.20697000000000002,0.9193100000000001,-0.306611,0.29139,0.92989,-0.287751,-0.078398,0.0006899999999999684,-0.005179000000000003,0.078398,-0.0006899999999999684,0.005179000000000003,-0.10411,0.15789999999999998,-0.336391,0.15336,0.17718,-0.306531,-0.1356,-0.19776000000000005,-0.267621,0.12819,-0.15188000000000001,-0.163978
104,0.0118635,0.6478489999999999,-0.09086000000000001,-0.1210085,0.467255,-0.099856,-0.1784585,0.6750109999999999,-0.202287,0.1389715,0.47472499999999995,-0.099279,0.2287615,0.6705629999999999,-0.186005,-0.2084385,0.920395,-0.306197,0.2921815,0.931635,-0.287557,-0.0784185,0.0006749999999999812,-0.005312999999999998,0.0784185,-0.0006750000000000922,0.005312999999999998,-0.1034185,0.16081499999999993,-0.335247,0.1542215,0.17975499999999994,-0.304997,-0.1354185,-0.19504500000000002,-0.267407,0.12800150000000002,-0.1497750000000001,-0.163507
105,0.012056500000000001,0.6480110000000001,-0.0895445,-0.12137049999999999,0.46642000000000006,-0.0991485,-0.1786505,0.673502,-0.2008765,0.1389995,0.4749300000000001,-0.09820050000000001,0.2288395,0.6719040000000001,-0.1854115,-0.2101805,0.9213200000000001,-0.30618650000000003,0.2924295,0.93306,-0.2869665,-0.0784365,0.0006400000000000849,-0.0054535,0.0784365,-0.0006399999999999739,0.0054535,-0.1027905,0.16287000000000007,-0.3342565,0.1548295,0.18181000000000008,-0.3038265,-0.1353205,-0.1932799999999999,-0.26726649999999996,0.12888950000000002,-0.1445399999999999,-0.1634865
106,0.012240999999999998,0.648183,-0.0882085,-0.121786,0.46579,-0.0983525,-0.17888600000000002,0.672181,-0.19948549999999998,0.138784,0.4753,-0.0971465,0.228894,0.673281,-0.1847815,-0.210836,0.92243,-0.3061035,0.292464,0.93448,-0.2860735,-0.078449,0.0005899999999999794,-0.005586499999999994,0.078449,-0.0005899999999999794,0.005586499999999994,-0.102256,0.16493999999999998,-0.33335349999999997,0.155404,0.18345999999999996,-0.3027935,-0.135226,-0.19161000000000006,-0.26712349999999996,0.128684,-0.14842,-0.1641405
107,0.012277499999999998,0.648086,-0.086955,-0.1221935,0.465055,-0.09761600000000001,-0.17922349999999998,0.670613,-0.198139,0.1385765,0.475545,-0.096128,0.22886649999999997,0.674317,-0.184182,-0.21163349999999997,0.923435,-0.305818,0.2923965,0.935515,-0.285048,-0.0784585,0.0005249999999999977,-0.005592,0.0784585,-0.0005249999999999977,0.005592,-0.1019335,0.16575499999999999,-0.332548,0.1559165,0.184085,-0.301968,-0.1352135,-0.190925,-0.267068,0.12855650000000002,-0.14726499999999998,-0.163781
108,0.0123535,0.6487379999999999,-0.085714,-0.12258849999999999,0.46524499999999996,-0.096968,-0.1795685,0.669157,-0.196717,0.1383815,0.47570499999999993,-0.095102,0.2288415,0.6753,-0.18338,-0.2125185,0.9242349999999999,-0.305137,0.29234150000000003,0.936645,-0.283807,-0.0784885,0.0004349999999999632,-0.005632999999999999,0.0784885,-0.0004350000000000742,0.005632999999999999,-0.1013985,0.16711499999999996,-0.33181700000000003,0.1564115,0.18501499999999993,-0.30117700000000003,-0.1350185,-0.18954500000000007,-0.267157,0.1291815,-0.140355,-0.162547
109,0.012504999999999999,0.64981,-0.0848465,-0.12292399999999999,0.4653299999999999,-0.0964765,-0.179964,0.668025,-0.1954925,0.138266,0.47562999999999994,-0.09425850000000001,0.22872599999999998,0.6757899999999999,-0.18262050000000002,-0.21328400000000003,0.92462,-0.3050205,0.292296,0.9372499999999999,-0.2826505,-0.078554,0.00034999999999996145,-0.005679500000000004,0.078554,-0.0003500000000000725,0.005679500000000004,-0.100814,0.16784999999999994,-0.3314205,0.156806,0.18524999999999997,-0.3009405,-0.13479400000000002,-0.18867,-0.2674405,0.12962600000000002,-0.1386400000000001,-0.1614715
110,0.012294500000000003,0.6503050000000001,-0.08453899999999999,-0.12336150000000001,0.46582500000000004,-0.09637399999999999,-0.1805615,0.6675200000000001,-0.194763,0.1379685,0.4751350000000001,-0.093829,0.2283085,0.6755720000000001,-0.181929,-0.2143515,0.9241950000000001,-0.30403,0.29170850000000004,0.9372050000000001,-0.2817,-0.0786605,0.0002950000000000452,-0.005729999999999999,0.0786605,-0.0002949999999999342,0.005730000000000013,-0.1004015,0.16812500000000008,-0.33125,0.1567385,0.1851850000000001,-0.30081,-0.1344515,-0.1881949999999999,-0.26778,0.1291785,-0.13878499999999994,-0.161198
111,0.012084000000000001,0.6503050000000001,-0.084306,-0.123757,0.46582500000000004,-0.096215,-0.181057,0.6675200000000001,-0.194497,0.13775300000000001,0.4745950000000001,-0.093658,0.227843,0.6755720000000001,-0.181402,-0.215087,0.9234450000000001,-0.303338,0.290983,0.9370350000000001,-0.281058,-0.078765,0.0002950000000000452,-0.005732000000000001,0.078765,-0.0002949999999999342,0.005732000000000001,-0.10019700000000001,0.16782500000000006,-0.331048,0.156563,0.18454500000000007,-0.300638,-0.134127,-0.18823499999999993,-0.267528,0.128343,-0.1398149999999999,-0.161529
112,0.011879,0.6503050000000001,-0.0840795,-0.124098,0.46582500000000004,-0.0960515,-0.18160800000000002,0.6675200000000001,-0.19407649999999999,0.137552,0.4745950000000001,-0.0934845,0.227302,0.6755720000000001,-0.18092350000000001,-0.215528,0.9234450000000001,-0.3027345,0.290182,0.9369350000000001,-0.2804445,-0.078884,0.0002950000000000452,-0.0057254999999999945,0.078884,-0.0002949999999999342,0.005725500000000008,-0.100038,0.1673650000000001,-0.3308545,0.156412,0.18331500000000006,-0.3006145,-0.133778,-0.18834499999999987,-0.2671845,0.126722,-0.14550499999999988,-0.1614585
113,0.011649000000000003,0.651074,-0.0838915,-0.12432700000000001,0.4659750000000001,-0.09593549999999999,-0.18217699999999998,0.6675200000000001,-0.19394050000000002,0.137383,0.4745950000000001,-0.0933185,0.226673,0.6755720000000001,-0.18052249999999997,-0.21602700000000002,0.9234450000000001,-0.3022185,0.289403,0.9367150000000001,-0.2799785,-0.079041,0.0002950000000000452,-0.0057315000000000005,0.079041,-0.0002949999999999342,0.0057315000000000005,-0.099937,0.1664750000000001,-0.33110850000000003,0.15637299999999998,0.1820150000000001,-0.30119850000000004,-0.13344699999999998,-0.18898499999999996,-0.2668485,0.122313,-0.15121499999999988,-0.1618335
114,0.011324,0.6521929999999999,-0.0840095,-0.12447399999999999,0.466815,-0.09619749999999999,-0.18276399999999998,0.667623,-0.19376549999999998,0.137216,0.474475,-0.0933845,0.22592600000000002,0.675573,-0.1803095,-0.21649400000000002,0.923405,-0.3018635,0.288506,0.936655,-0.2797635,-0.079208,0.0002449999999999397,-0.005746500000000002,0.079208,-0.00024500000000005073,0.005746500000000002,-0.099754,0.16532499999999994,-0.3319435,0.15628599999999998,0.18062499999999998,-0.30238349999999997,-0.13245400000000002,-0.18925500000000006,-0.2667735,0.120086,-0.156605,-0.1658895
115,0.010955500000000003,0.6542600000000001,-0.0842015,-0.1244535,0.4663050000000001,-0.0965105,-0.1831535,0.667417,-0.1935885,0.1373165,0.47228500000000007,-0.0936705,0.2250865,0.674803,-0.1799985,-0.2167735,0.924615,-0.3013455,0.2871865,0.934345,-0.2791755,-0.0792085,0.00012500000000004174,-0.0057445,0.0792085,-0.00012499999999993072,0.0057445,-0.09933349999999999,0.16178500000000007,-0.3338855,0.1566365,0.17704500000000006,-0.3049855,-0.1310635,-0.19176499999999996,-0.2666655,0.1184065,-0.16356499999999996,-0.1700815
116,0.010853499999999999,0.656496,-0.084448,-0.12442349999999999,0.46549,-0.096883,-0.1835835,0.6717420000000001,-0.19343,0.1375065,0.46944,-0.09407399999999999,0.2250465,0.6735490000000001,-0.180002,-0.2175435,0.92998,-0.300365,0.2866365,0.93068,-0.279215,-0.07924149999999999,2.0000000000020002e-05,-0.005745,0.07924149999999999,-2.0000000000020002e-05,0.005745,-0.0988435,0.15651000000000004,-0.33664499999999997,0.1570265,0.1719,-0.30832499999999996,-0.1293035,-0.19570999999999994,-0.263395,0.1186965,-0.17104999999999992,-0.174222
117,0.010993499999999996,0.660188,-0.0864355,-0.12411049999999998,0.46257000000000004,-0.09940349999999999,-0.1838305,0.6716610000000001,-0.1951215,0.13795949999999998,0.46654,-0.09665449999999999,0.2247095,0.671084,-0.1811735,-0.2182505,0.93076,-0.3009385,0.2858095,0.92857,-0.2798385,-0.07940549999999999,-0.00021999999999999797,-0.005821499999999993,0.07940549999999999,0.00021999999999999797,0.005821500000000007,-0.0982605,0.14278000000000002,-0.3405585,0.1574895,0.1583,-0.3132685,-0.1266205,-0.20736999999999994,-0.2587885,0.11913950000000001,-0.18564000000000003,-0.17927749999999998
118,0.011075000000000002,0.662588,-0.0877105,-0.123815,0.4626999999999999,-0.1009545,-0.18382500000000002,0.6695599999999999,-0.1958185,0.138395,0.46457999999999994,-0.0986115,0.22473500000000002,0.6677,-0.1821215,-0.21886499999999998,0.9295199999999999,-0.3002765,0.28574499999999997,0.9253699999999999,-0.2795565,-0.079499,-3.0000000000085514e-05,-0.0057035,0.079499,2.999999999997449e-05,0.0057035,-0.097755,0.12426999999999994,-0.34291649999999996,0.157895,0.1395499999999999,-0.3172165,-0.12405499999999998,-0.22445000000000004,-0.2524265,0.119525,-0.20523000000000002,-0.18322850000000002
119,0.011174,0.66532,-0.08879400000000001,-0.12347400000000001,0.46231,-0.10193700000000001,-0.183834,0.67097,-0.196011,0.138846,0.462642,-0.09997400000000001,0.224756,0.66986,-0.182755,-0.219214,0.93069,-0.29908999999999997,0.28571599999999997,0.92618,-0.27949,-0.079487,-0.00012000000000000899,-0.005520000000000011,0.079487,0.00012000000000000899,0.005519999999999997,-0.097264,0.10574,-0.34439,0.158276,0.12,-0.32016,-0.121604,-0.24270999999999998,-0.24595,0.119776,-0.22562000000000004,-0.186276
120,0.011904500000000004,0.668035,-0.089126,-0.1229485,0.461668,-0.102285,-0.18385849999999998,0.675485,-0.195825,0.1396715,0.46127700000000005,-0.100895,0.2249315,0.669065,-0.183992,-0.2192885,0.936135,-0.297338,0.2857615,0.922425,-0.279118,-0.0794305,-0.00020500000000001073,-0.0052320000000000005,0.0794305,0.00020500000000001073,0.0052320000000000005,-0.0968585,0.08051500000000006,-0.345148,0.1586415,0.09406500000000007,-0.322608,-0.1191985,-0.266015,-0.23857799999999998,0.1197615,-0.25280499999999995,-0.188697
121,0.012875999999999999,0.670975,-0.0893065,-0.121861,0.461969,-0.1024565,-0.18374100000000002,0.677025,-0.19540649999999998,0.14063900000000001,0.460689,-0.1015995,0.225779,0.674905,-0.1843575,-0.219731,0.936735,-0.2952975,0.286059,0.9290149999999999,-0.2781575,-0.0794,-0.0002750000000000252,-0.005012500000000003,0.0794,0.0002750000000000252,0.005012500000000003,-0.09649100000000001,0.05039500000000002,-0.3456275,0.159109,0.06394500000000003,-0.3248875,-0.116761,-0.29383499999999996,-0.2307075,0.12404899999999999,-0.279585,-0.1900185
122,0.0138555,0.6742,-0.089274,-0.1209375,0.462341,-0.102428,-0.1839575,0.67652,-0.194283,0.1416225,0.460935,-0.10189600000000001,0.2266125,0.68154,-0.183871,-0.2205475,0.93466,-0.292476,0.2865325,0.93579,-0.276886,-0.0795325,-0.00029999999999996696,-0.004984000000000002,0.0795325,0.00030000000000002247,0.0049839999999999884,-0.09644749999999999,0.017400000000000027,-0.34566600000000003,0.1590325,0.030950000000000033,-0.325656,-0.1146275,-0.32431999999999994,-0.22238600000000003,0.1259925,-0.30899,-0.190797
123,0.014929499999999998,0.67816,-0.088923,-0.11997650000000001,0.46412,-0.102077,-0.1841365,0.67684,-0.192517,0.1425835,0.46083199999999996,-0.101642,0.2271335,0.68596,-0.183149,-0.2208665,0.93719,-0.28944000000000003,0.2865335,0.94109,-0.27534000000000003,-0.0796375,-0.00018000000000001348,-0.004860000000000003,0.0796375,0.00018000000000001348,0.004860000000000003,-0.0963765,-0.016680000000000028,-0.34547,0.1591235,-0.0037599999999999856,-0.32562,-0.1133265,-0.35597999999999996,-0.21427000000000002,0.1256835,-0.3437,-0.190636
124,0.016176,0.682555,-0.088131,-0.119016,0.46682399999999996,-0.101516,-0.184306,0.680985,-0.190257,0.143464,0.46140899999999996,-0.10126399999999999,0.227664,0.691345,-0.18212299999999998,-0.22156599999999999,0.940815,-0.286285,0.286544,0.9487049999999999,-0.273625,-0.079611,0.00019500000000000073,-0.004714999999999997,0.079611,-0.00019500000000000073,0.004714999999999997,-0.09621600000000001,-0.04861500000000002,-0.34514500000000004,0.159194,-0.036985000000000046,-0.325295,-0.112336,-0.38611500000000004,-0.205955,0.125314,-0.377535,-0.19035000000000002
125,0.017529,0.68697,-0.086814,-0.11805700000000001,0.46904999999999997,-0.100624,-0.18465700000000002,0.6780200000000001,-0.187618,0.14409300000000003,0.46529,-0.100699,0.22852299999999998,0.69466,-0.180317,-0.22203699999999998,0.9375,-0.283088,0.286713,0.95474,-0.271458,-0.079345,-6.0000000000004494e-05,-0.0044420000000000015,0.079345,6.0000000000004494e-05,0.0044420000000000015,-0.096367,-0.08218999999999999,-0.343918,0.159153,-0.07195000000000001,-0.324778,-0.11198699999999999,-0.41883000000000004,-0.200218,0.125063,-0.41417000000000004,-0.190505
126,0.0190975,0.691585,-0.084598,-0.1173535,0.47418499999999997,-0.099065,-0.1850135,0.681005,-0.184021,0.1446865,0.467605,-0.099748,0.2295265,0.698625,-0.177377,-0.22269350000000002,0.939445,-0.27729499999999996,0.2872465,0.9588949999999999,-0.26715500000000003,-0.0791705,0.00023499999999998522,-0.004025000000000001,0.0791705,-0.00023499999999998522,0.004025000000000001,-0.09666350000000001,-0.108925,-0.341595,0.1589265,-0.100715,-0.323905,-0.1125535,-0.446415,-0.19704,0.1263265,-0.44152500000000006,-0.18767299999999998
127,0.021211,0.69649,-0.08090249999999999,-0.11659300000000002,0.47706,-0.09577549999999999,-0.185193,0.6874899999999999,-0.1781785,0.145577,0.47014,-0.09688749999999999,0.231247,0.70234,-0.1731935,-0.223853,0.93953,-0.2706915,0.288597,0.96302,-0.2612415,-0.078686,6.999999999995898e-05,-0.003668499999999991,0.078686,-7.00000000000145e-05,0.003668500000000005,-0.096953,-0.13343,-0.3366715,0.158567,-0.12716,-0.3195415,-0.11282299999999999,-0.47273,-0.1938955,0.127167,-0.46799,-0.1835655
128,0.022930499999999996,0.701705,-0.0765565,-0.1160225,0.480205,-0.0921155,-0.1854425,0.690505,-0.17212850000000002,0.14633749999999998,0.471885,-0.0936665,0.2325175,0.703765,-0.1688195,-0.2247925,0.937175,-0.2620625,0.2895875,0.966335,-0.2552125,-0.0781675,0.0002850000000000352,-0.003424499999999997,0.0781675,-0.0002849999999999797,0.003424499999999997,-0.0974825,-0.157275,-0.3304225,0.1580175,-0.152735,-0.3140225,-0.11323250000000001,-0.49914499999999995,-0.1902995,0.1269775,-0.495715,-0.1792675
129,0.023511999999999998,0.7061649999999999,-0.0692185,-0.115912,0.483865,-0.0848395,-0.185952,0.688485,-0.1629485,0.146868,0.475865,-0.0867015,0.23429799999999998,0.713535,-0.1616885,-0.225692,0.933265,-0.2507795,0.29083800000000004,0.979515,-0.2460095,-0.07751,0.0002949999999999897,-0.0030654999999999988,0.07751,-0.00029500000000001747,0.0030654999999999988,-0.098382,-0.17527500000000001,-0.3213095,0.15708799999999998,-0.172315,-0.3047395,-0.114162,-0.523235,-0.18536049999999998,0.126438,-0.520445,-0.1726185
130,0.023780500000000003,0.71087,-0.061051999999999995,-0.11648950000000001,0.48661,-0.07719599999999999,-0.18715949999999998,0.68926,-0.152685,0.1472005,0.47792,-0.07927999999999999,0.2352305,0.71557,-0.15308499999999997,-0.22700949999999998,0.93637,-0.239058,0.2915105,0.98148,-0.235508,-0.0770695,0.00039000000000000146,-0.002892999999999993,0.0770695,-0.00039000000000000146,0.0028930000000000067,-0.09952949999999999,-0.19045,-0.31173799999999996,0.1559005,-0.18897000000000003,-0.294238,-0.11523950000000001,-0.5447,-0.18039899999999998,0.1257105,-0.54294,-0.166387
131,0.023868500000000004,0.71545,-0.05280699999999999,-0.11709649999999999,0.48917,-0.069887,-0.18835649999999998,0.69197,-0.142286,0.14723350000000002,0.47846,-0.072138,0.2357235,0.71651,-0.142855,-0.22831649999999998,0.94254,-0.227222,0.29221349999999996,0.9829600000000001,-0.225092,-0.0765335,0.0005000000000000004,-0.002809999999999993,0.0765335,-0.0005000000000000004,0.002810000000000007,-0.10066649999999999,-0.20405,-0.30226200000000003,0.1546235,-0.20344,-0.284012,-0.1162965,-0.56381,-0.17529,0.12491350000000001,-0.5630499999999999,-0.16017199999999998
132,0.0235245,0.7192649999999999,-0.04414300000000001,-0.11814050000000001,0.490305,-0.06228900000000001,-0.1895905,0.694665,-0.132086,0.1472395,0.480915,-0.06430300000000001,0.2365195,0.719145,-0.132693,-0.2299205,0.942665,-0.214305,0.29277949999999997,0.984015,-0.213395,-0.07582649999999999,0.0003949999999999787,-0.0027870000000000117,0.07582649999999999,-0.00039500000000000646,0.002786999999999998,-0.1018705,-0.225395,-0.29108500000000004,0.15307949999999998,-0.22503500000000004,-0.271505,-0.1175505,-0.586725,-0.16818,0.1241795,-0.586645,-0.15318900000000002
133,0.022587499999999996,0.72237,-0.034846999999999996,-0.11947250000000001,0.49276,-0.05397,-0.19147250000000002,0.6936100000000001,-0.121478,0.1470175,0.48466,-0.055734,0.23678749999999998,0.7197199999999999,-0.120958,-0.2325325,0.94018,-0.20012799999999997,0.2929875,0.9838899999999999,-0.20041799999999999,-0.07503850000000001,0.00017999999999998573,-0.0025410000000000016,0.07503850000000001,-0.00018000000000001348,0.0025410000000000016,-0.10340250000000001,-0.24839,-0.277628,0.15108749999999999,-0.24816,-0.257438,-0.11908250000000001,-0.61093,-0.160636,0.12333749999999999,-0.6117300000000001,-0.145451
134,0.020994000000000002,0.72439,-0.020943000000000003,-0.12121500000000002,0.49374,-0.040742,-0.193965,0.69291,-0.106495,0.146555,0.48508,-0.042294,0.236695,0.71984,-0.10517,-0.236065,0.93664,-0.18133899999999997,0.29229499999999997,0.98375,-0.18167899999999998,-0.07445199999999999,0.0006499999999999978,-0.0022980000000000014,0.07445199999999999,-0.0006499999999999978,0.0022980000000000014,-0.10527500000000001,-0.27195,-0.258649,0.14865499999999998,-0.27185000000000004,-0.23772900000000002,-0.12098500000000001,-0.63535,-0.148258,0.122165,-0.6368900000000001,-0.132825
135,0.0194725,0.725166,-0.007926999999999997,-0.1227385,0.496166,-0.028107999999999998,-0.1969185,0.697586,-0.092369,0.14628149999999998,0.487186,-0.029400999999999997,0.2373515,0.726616,-0.090918,-0.2394485,0.938606,-0.165064,0.2920115,0.982946,-0.165414,-0.0739485,0.0006630000000000108,-0.002029999999999997,0.0739485,-0.0006629999999999969,0.002030000000000004,-0.1071685,-0.294324,-0.236954,0.1451215,-0.294744,-0.213954,-0.1227385,-0.658344,-0.135693,0.12114150000000001,-0.660124,-0.119645
136,0.017943999999999995,0.727268,0.003780500000000006,-0.12429100000000001,0.497268,-0.017037499999999997,-0.199941,0.7001379999999999,-0.0806325,0.145949,0.487988,-0.018167499999999996,0.238339,0.7343679999999999,-0.0778855,-0.24239100000000002,0.943848,-0.14999849999999998,0.291799,0.982648,-0.1504285,-0.073578,0.0006529999999999869,-0.0017604999999999982,0.073578,-0.0006530000000000008,0.0017605000000000051,-0.10916100000000001,-0.312182,-0.2165185,0.141649,-0.313742,-0.1921485,-0.12471100000000002,-0.677902,-0.1242515,0.12009899999999998,-0.6798919999999999,-0.1080125
137,0.016606500000000003,0.7284145,0.0149905,-0.1259845,0.4987745,-0.006335500000000001,-0.20293450000000002,0.7044045000000001,-0.0691305,0.1457855,0.4891245,-0.0070805,0.2396255,0.7383845,-0.0650215,-0.24501449999999997,0.9487345,-0.1367605,0.29168550000000004,0.9786945,-0.1356905,-0.0730735,0.0006175,-0.0014295000000000002,0.0730735,-0.0006175,0.0014295000000000002,-0.11111449999999999,-0.3298255,-0.19600050000000002,0.1384955,-0.3316755,-0.1702605,-0.12652449999999998,-0.6970354999999999,-0.1128865,0.1195255,-0.6994655000000001,-0.0969145
138,0.0150815,0.7296545,0.025494000000000003,-0.1276845,0.49928449999999996,0.0034850000000000003,-0.20579450000000002,0.7100845,-0.058668,0.1454155,0.48813449999999997,0.003049999999999999,0.2397955,0.7377144999999999,-0.053343999999999996,-0.2476545,0.9529445,-0.12361899999999999,0.2908255,0.9720345,-0.121639,-0.0726105,0.0008855000000000043,-0.0010889999999999997,0.0726105,-0.0008854999999999974,0.0010889999999999997,-0.1129145,-0.34490550000000003,-0.175889,0.1352755,-0.3471455,-0.149209,-0.12830450000000002,-0.7143655,-0.102051,0.1190755,-0.7173555,-0.086751
139,0.013486999999999999,0.7297855,0.034776,-0.129202,0.4995055,0.012320000000000001,-0.20844200000000002,0.7156855,-0.049715999999999996,0.145038,0.4886855,0.012289000000000001,0.239788,0.7383755,-0.042779,-0.250102,0.9548355,-0.111543,0.289918,0.9660955,-0.108333,-0.072183,0.0009954999999999999,-0.0007990000000000002,0.072183,-0.0009954999999999999,0.0007990000000000002,-0.11460200000000001,-0.35820450000000004,-0.156873,0.132248,-0.36103450000000004,-0.12948300000000001,-0.129992,-0.7288845,-0.092064,0.118728,-0.7319345,-0.077451
140,0.0122725,0.7298315000000001,0.0437235,-0.1306235,0.4997515,0.0209585,-0.2109035,0.7208715,-0.041029499999999997,0.14475649999999998,0.4901215,0.0213095,0.2399165,0.7399115,-0.0325945,-0.2515535,0.9544215,-0.1002045,0.28932650000000004,0.9630915,-0.0949275,-0.07191449999999999,0.0011064999999999998,-0.0005114999999999998,0.07191449999999999,-0.0011064999999999998,0.0005114999999999998,-0.1162735,-0.3713185,-0.1377945,0.1293165,-0.3751685,-0.1095045,-0.1315735,-0.7428984999999999,-0.0823445,0.11842649999999999,-0.7460785,-0.06785050000000001
141,0.011091999999999998,0.7298939999999999,0.051604,-0.131839,0.500134,0.028671,-0.213309,0.725034,-0.033227999999999994,0.144621,0.490304,0.029288,0.240181,0.741694,-0.023951999999999998,-0.25270899999999996,0.955094,-0.090211,0.28881100000000004,0.961854,-0.083044,-0.071712,0.001347,-0.0002889999999999993,0.071712,-0.001347,0.00028900000000000106,-0.117699,-0.38140599999999997,-0.12024100000000001,0.12667099999999998,-0.38673599999999997,-0.091321,-0.132929,-0.7536660000000001,-0.073408,0.118241,-0.756936,-0.05925
142,0.009890000000000003,0.7291265,0.0587115,-0.133042,0.49933649999999996,0.0354975,-0.215222,0.7291665,-0.026092499999999998,0.14449800000000002,0.49038650000000006,0.0365465,0.240068,0.7455665,-0.016212499999999998,-0.253592,0.9546765,-0.0816175,0.288278,0.9614865,-0.0724095,-0.071975,0.0015045000000000006,-0.00022849999999999954,0.071975,-0.001504499999999999,0.000228500000000003,-0.119102,-0.3913835,-0.1045905,0.124028,-0.3974735,-0.0742275,-0.13428199999999998,-0.7642835,-0.0650355,0.118058,-0.7673935,-0.051364499999999993
143,0.008910500000000005,0.729134,0.0604855,-0.1338375,0.500834,0.0371035,-0.21663749999999998,0.735414,-0.0247345,0.1446425,0.49088400000000004,0.0385215,0.24025249999999998,0.750834,-0.0137035,-0.2541175,0.957654,-0.0779275,0.2881725,0.963774,-0.0678735,-0.0722125,0.0016690000000000003,-0.00040849999999999914,0.0722125,-0.0016690000000000003,0.00040849999999999914,-0.1200475,-0.39810599999999996,-0.0950675,0.1218125,-0.405136,-0.0635965,-0.1352175,-0.771076,-0.061837500000000004,0.11825250000000001,-0.774526,-0.048645499999999994
144,0.008012499999999999,0.7284765,0.062182499999999995,-0.1344425,0.49999649999999995,0.0385665,-0.2171625,0.7346564999999999,-0.0230895,0.1445875,0.4912965,0.0403125,0.2399375,0.7509165,-0.011465500000000003,-0.2546925,0.9540565,-0.0747225,0.2879075,0.9665965,-0.06393650000000001,-0.0724665,0.0018834999999999998,-0.0006445000000000027,0.0724665,-0.0018834999999999998,0.0006444999999999992,-0.1208625,-0.40305349999999995,-0.0887475,0.1207275,-0.41071349999999995,-0.057232500000000006,-0.13610250000000002,-0.7760235,-0.05932950000000001,0.1184075,-0.7797035,-0.046518500000000004
145,0.007217499999999998,0.7273055,0.06368599999999999,-0.1350095,0.49993550000000003,0.039898,-0.2176495,0.7343855,-0.021563,0.1444905,0.49175549999999996,0.041983,0.2394405,0.7499955,-0.009223000000000002,-0.2554695,0.9534355,-0.071633,0.2875905,0.9699455,-0.06039699999999999,-0.07266449999999999,0.0021734999999999983,-0.0008959999999999975,0.07266449999999999,-0.002173500000000002,0.000896000000000001,-0.12174950000000001,-0.4075645,-0.082368,0.11961050000000001,-0.41537450000000004,-0.050407999999999994,-0.1367295,-0.7805344999999999,-0.056901999999999994,0.1183305,-0.7842144999999999,-0.044406
146,0.006562000000000001,0.7263,0.06515599999999999,-0.135488,0.49972,0.041250999999999996,-0.218008,0.7314999999999999,-0.020067,0.144442,0.4926,0.043574,0.239062,0.74923,-0.0073690000000000005,-0.25651799999999997,0.9530799999999999,-0.068805,0.287322,0.9735499999999999,-0.057229,-0.07292499999999999,0.0023899999999999998,-0.0011110000000000009,0.07292499999999999,-0.0023899999999999998,0.0011109999999999974,-0.122668,-0.41147999999999996,-0.076362,0.11854200000000001,-0.41929,-0.043601,-0.137238,-0.78445,-0.054452,0.11838199999999999,-0.78813,-0.042308
147,0.005952000000000002,0.7248605,0.066761,-0.135919,0.49883050000000007,0.042776,-0.21834900000000002,0.7295605000000001,-0.018283,0.144181,0.4925705,0.045204999999999995,0.238321,0.7481905,-0.004681000000000001,-0.256729,0.9511305,-0.066171,0.286931,0.9743204999999999,-0.054762000000000005,-0.07311899999999999,0.002529499999999997,-0.0013640000000000006,0.07311899999999999,-0.0025295000000000005,0.0013640000000000006,-0.12359899999999999,-0.41163950000000005,-0.070455,0.117671,-0.4209695,-0.036371,-0.137689,-0.7875495,-0.051144999999999996,0.118861,-0.7918594999999999,-0.04062399999999999
148,0.005351500000000004,0.723684,0.0682815,-0.1363275,0.49807399999999996,0.044202500000000006,-0.2186775,0.7277739999999999,-0.016592499999999996,0.1438925,0.492314,0.0467485,0.2373525,0.747054,-0.002146499999999999,-0.2570675,0.949824,-0.06304749999999999,0.2865425,0.9755240000000001,-0.0522725,-0.07330249999999999,0.0027300000000000033,-0.0016604999999999988,0.07330249999999999,-0.0027299999999999963,0.0016605000000000023,-0.12447749999999999,-0.411846,-0.0649385,0.11684250000000002,-0.42209599999999997,-0.029409499999999998,-0.1381375,-0.7897660000000001,-0.04785349999999999,0.1190525,-0.7947160000000001,-0.039044499999999996
149,0.0048180000000000054,0.722406,0.069685,-0.13669399999999998,0.49721599999999994,0.045611,-0.218964,0.726326,-0.014513999999999999,0.14361600000000002,0.49192600000000003,0.048337,0.236336,0.745286,0.00032099999999999837,-0.257474,0.948986,-0.060004999999999996,0.286196,0.974336,-0.050012999999999995,-0.073464,0.0028639999999999985,-0.001923000000000001,0.073464,-0.0028639999999999985,0.001923000000000001,-0.12547399999999997,-0.411244,-0.059161,0.116096,-0.42350400000000005,-0.022845999999999998,-0.13856400000000002,-0.7914939999999999,-0.044498,0.119206,-0.7970539999999999,-0.037306
150,0.003994500000000006,0.720724,0.0706115,-0.1372875,0.49592400000000003,0.0468835,-0.2194275,0.723724,-0.0121775,0.1432025,0.49133400000000005,0.0497725,0.2348825,0.742464,0.002989499999999999,-0.2582175,0.945594,-0.057014499999999996,0.28532250000000003,0.9733140000000001,-0.0475805,-0.0734755,0.002915000000000001,-0.002059499999999999,0.0734755,-0.002915000000000001,0.002059499999999999,-0.12663750000000001,-0.411016,-0.0530905,0.11525250000000001,-0.424886,-0.016369500000000002,-0.1389675,-0.792886,-0.039956500000000006,0.1194625,-0.799146,-0.0348455
151,0.0032720000000000023,0.719252,0.0713565,-0.13775500000000002,0.49481200000000003,0.048086500000000004,-0.219805,0.721372,-0.010118500000000002,0.142875,0.49039200000000005,0.0511235,0.23330499999999998,0.739972,0.0055885,-0.25891499999999995,0.942022,-0.0542755,0.28447500000000003,0.9725820000000001,-0.0451745,-0.07337199999999999,0.0029710000000000014,-0.0021995,0.07337199999999999,-0.0029710000000000014,0.0021995,-0.127705,-0.410478,-0.0473925,0.11458499999999999,-0.425948,-0.010468499999999999,-0.139355,-0.793828,-0.035386499999999994,0.11977499999999999,-0.800868,-0.031968500000000004
152,0.0026479999999999976,0.7178525,0.071854,-0.13819199999999998,0.4937425,0.049185,-0.220132,0.7191225,-0.008457,0.14257799999999998,0.4896625,0.052307,0.231898,0.7375925,0.008045999999999998,-0.259482,0.9394625,-0.052728000000000004,0.283248,0.9721425,-0.042791,-0.073258,0.0029424999999999937,-0.0022959999999999994,0.073258,-0.0029425000000000007,0.0022959999999999994,-0.128662,-0.4097275,-0.042244,0.113998,-0.42652749999999995,-0.005170000000000001,-0.139722,-0.7944074999999999,-0.031059999999999997,0.120138,-0.8023275,-0.029210000000000007
153,0.0020754999999999975,0.7165094999999999,0.07235,-0.1386365,0.49266950000000004,0.050272,-0.22041650000000002,0.7171695,-0.006904,0.14231349999999998,0.4889895,0.05352899999999999,0.23134349999999998,0.7357895000000001,0.00989,-0.2601265,0.9365295,-0.0512,0.2821135,0.9718795,-0.04043,-0.0731645,0.0029184999999999975,-0.002350999999999999,0.0731645,-0.0029185000000000044,0.002350999999999999,-0.1295765,-0.4091705,-0.037469999999999996,0.1134935,-0.4271605,-0.0005390000000000048,-0.14007650000000002,-0.7949305,-0.026892000000000006,0.1205235,-0.8035604999999999,-0.026458000000000002
154,0.0017230000000000032,0.715451,0.072808,-0.138952,0.49136099999999994,0.051342,-0.220772,0.715421,-0.005398000000000007,0.142068,0.488421,0.05466499999999999,0.230528,0.733641,0.011934999999999998,-0.26074200000000003,0.934651,-0.04971300000000001,0.281188,0.9717809999999999,-0.038192000000000004,-0.073075,0.0028809999999999947,-0.0024250000000000035,0.073075,-0.0028810000000000016,0.0024249999999999966,-0.130332,-0.408789,-0.03303600000000001,0.113138,-0.42745900000000003,0.0032859999999999973,-0.140372,-0.795469,-0.023013000000000006,0.120908,-0.804619,-0.023742000000000006
155,0.0015345000000000011,0.7142885,0.0731755,-0.1392995,0.4900685,0.0524515,-0.2212595,0.7138885,-0.0038445000000000007,0.1418105,0.4879685,0.0558655,0.2302905,0.7315785,0.013506500000000001,-0.26196949999999997,0.9355285,-0.0485515,0.28040050000000005,0.9717085000000001,-0.035906499999999994,-0.0729455,0.0028334999999999957,-0.002516499999999998,0.0729455,-0.0028335000000000027,0.002516499999999998,-0.1310795,-0.40847150000000004,-0.028869500000000006,0.1128805,-0.4283515,0.006676500000000002,-0.1406895,-0.7965115,-0.0193525,0.1211605,-0.8056115,-0.0211885
156,0.0014049999999999948,0.7136315000000001,0.0732685,-0.139611,0.4893715,0.0533275,-0.22177100000000002,0.7129815,-0.002549500000000003,0.141569,0.48792149999999995,0.0568405,0.23004899999999998,0.7299215,0.015165499999999998,-0.26294100000000004,0.9372815,-0.048059500000000005,0.280009,0.9721615000000001,-0.0339435,-0.07288800000000001,0.0028385000000000007,-0.002544499999999998,0.07288800000000001,-0.0028385000000000007,0.002544499999999998,-0.13174100000000002,-0.4080385,-0.025350499999999998,0.11280899999999999,-0.4286285,0.0086725,-0.14092100000000002,-0.7972984999999999,-0.016806500000000002,0.12143899999999999,-0.8061085,-0.018854500000000003
