sb224sc-HT22-VT27/4dt907/src/data/kinect_good_preprocessed_A9_mediapipe/A50_kinect.csv
FrameNo,nose_3d_x,nose_3d_y,nose_3d_z,left_shoulder_3d_x,left_shoulder_3d_y,left_shoulder_3d_z,left_elbow_3d_x,left_elbow_3d_y,left_elbow_3d_z,right_shoulder_3d_x,right_shoulder_3d_y,right_shoulder_3d_z,right_elbow_3d_x,right_elbow_3d_y,right_elbow_3d_z,left_wrist_3d_x,left_wrist_3d_y,left_wrist_3d_z,right_wrist_3d_x,right_wrist_3d_y,right_wrist_3d_z,left_hip_3d_x,left_hip_3d_y,left_hip_3d_z,right_hip_3d_x,right_hip_3d_y,right_hip_3d_z,left_knee_3d_x,left_knee_3d_y,left_knee_3d_z,right_knee_3d_x,right_knee_3d_y,right_knee_3d_z,left_ankle_3d_x,left_ankle_3d_y,left_ankle_3d_z,right_ankle_3d_x,right_ankle_3d_y,right_ankle_3d_z
37,-0.012156,0.639163,0.064558,-0.133078,0.465423,0.053543,-0.201608,0.723553,0.002689999999999998,0.147192,0.49440300000000004,0.041776999999999995,0.228612,0.724163,0.019319,-0.217418,0.947273,0.028935,0.258302,0.947523,0.036211,-0.066122,-0.0021560000000000017,0.009679,0.066122,0.002155999999999998,-0.009679,-0.131118,-0.370797,-0.035223,0.124032,-0.37133700000000003,-0.03194,-0.201348,-0.772597,-0.031631,0.173352,-0.781617,-0.026785000000000003
38,-0.011749500000000003,0.638741,0.062843,-0.13346650000000002,0.465021,0.052636999999999996,-0.2017065,0.725131,-0.0004770000000000052,0.14697349999999998,0.49378099999999997,0.040542999999999996,0.2285235,0.723511,0.016120999999999996,-0.21717650000000002,0.949091,0.024109,0.2567835,0.947911,0.03158,-0.0661165,-0.0020750000000000005,0.008484999999999996,0.0661165,0.002074999999999997,-0.008485,-0.1318465,-0.371299,-0.03697000000000001,0.12419349999999998,-0.372089,-0.033853,-0.20185650000000002,-0.774439,-0.03344500000000001,0.1730835,-0.7828390000000001,-0.028401000000000003
39,-0.011295,0.6385430000000001,0.060417,-0.133914,0.465043,0.051234,-0.201904,0.725453,-0.003886000000000004,0.146796,0.493613,0.038729,0.22839600000000002,0.723493,0.012392999999999998,-0.217184,0.9497230000000001,0.019046,0.255266,0.948423,0.026722,-0.06604299999999999,-0.0020529999999999993,0.007661999999999999,0.06604299999999999,0.0020529999999999993,-0.007661999999999999,-0.132694,-0.371357,-0.039534,0.12445600000000001,-0.37245700000000004,-0.036496,-0.202424,-0.775887,-0.036031999999999995,0.173016,-0.783917,-0.030932000000000005
40,-0.010826,0.6382220000000001,0.057811,-0.13428099999999998,0.46511199999999997,0.049724000000000004,-0.201961,0.725682,-0.007458999999999997,0.14674900000000002,0.49354200000000004,0.036767,0.228359,0.723012,0.008634,-0.217571,0.9502820000000001,0.014024,0.254019,0.949132,0.022894,-0.06606100000000001,-0.0019839999999999997,0.006754,0.06606100000000001,0.0019839999999999997,-0.006754,-0.13356099999999999,-0.37140799999999996,-0.042392,0.125029,-0.372548,-0.039488999999999996,-0.203001,-0.777338,-0.03887,0.173109,-0.785028,-0.033699999999999994
41,-0.010384000000000001,0.6376575,0.054719500000000004,-0.134607,0.4651975,0.0478035,-0.202227,0.7255575,-0.011514499999999997,0.14669300000000002,0.49349750000000003,0.0346295,0.228353,0.7222975,0.0043774999999999994,-0.217967,0.9505875,0.0089045,0.25277299999999997,0.9496275,0.018471500000000002,-0.06614400000000001,-0.0019234999999999981,0.0056965,0.06614400000000001,0.0019235000000000016,-0.0056965,-0.134797,-0.3717025,-0.0459835,0.125783,-0.37246250000000003,-0.042898500000000006,-0.20360699999999998,-0.7785225,-0.042027499999999995,0.173453,-0.7859225,-0.0367145
42,-0.009624,0.636706,0.050978499999999996,-0.134725,0.465296,0.045814499999999994,-0.202325,0.7256659999999999,-0.0159365,0.147025,0.49343600000000004,0.0322875,0.228625,0.7216359999999999,-0.00019950000000000176,-0.218095,0.950696,0.003433499999999999,0.25178500000000004,0.9497359999999999,0.014133499999999998,-0.066355,-0.0018939999999999999,0.0047705000000000004,0.066355,0.0018939999999999999,-0.0047705000000000004,-0.136045,-0.371934,-0.050014499999999996,0.127175,-0.372374,-0.0467025,-0.204215,-0.779874,-0.0454975,0.174345,-0.786904,-0.0400125
43,-0.008983499999999998,0.6370709999999999,0.046399499999999996,-0.1348445,0.466781,0.043090500000000004,-0.20251450000000001,0.727521,-0.021198500000000002,0.1473455,0.494741,0.029302500000000002,0.2289255,0.720901,-0.0054675,-0.2181045,0.952551,-0.0043855000000000005,0.2511455,0.951481,0.010344500000000001,-0.0665045,-0.0017189999999999983,0.0035755000000000023,0.0665045,0.0017190000000000018,-0.003575499999999999,-0.1376245,-0.37044900000000003,-0.0548155,0.1288955,-0.370679,-0.051144499999999996,-0.2049145,-0.779509,-0.049673499999999995,0.1753355,-0.785869,-0.0438645
44,-0.0083005,0.6374775,0.041484999999999994,-0.13499450000000002,0.46817749999999997,0.039487999999999995,-0.20262449999999999,0.7299975,-0.026382000000000003,0.1477255,0.4963575,0.026442,0.22888550000000002,0.7201275,-0.010667000000000003,-0.2183445,0.9550275,-0.010488000000000004,0.2509155,0.9536175,0.0070459999999999984,-0.0666305,-0.0017055000000000004,0.0029009999999999973,0.0666305,0.0017055000000000004,-0.002901000000000001,-0.13960450000000002,-0.3684025,-0.059555,0.1310755,-0.3685025,-0.05548,-0.20582450000000002,-0.7775725,-0.053769,0.1768055,-0.7833925,-0.048021999999999995
45,-0.007588499999999998,0.6381315000000001,0.035529,-0.1352465,0.4706815,0.034373,-0.2027565,0.7336815,-0.032093,0.1481235,0.4945415,0.020753999999999998,0.2288135,0.7195615000000001,-0.016401,-0.2186665,0.9589915,-0.016986,0.25082350000000003,0.9571315,0.003421999999999998,-0.0667535,-0.0016745000000000006,0.0022219999999999983,0.0667535,0.001674499999999999,-0.0022220000000000018,-0.1420465,-0.3646885,-0.064806,0.1338035,-0.36463850000000003,-0.060324,-0.20706650000000001,-0.7733585,-0.058203000000000005,0.1787035,-0.7791785,-0.052791000000000005
46,-0.007546,0.6388895,0.029112000000000002,-0.135517,0.4735495,0.029196000000000003,-0.203237,0.7340595,-0.038778,0.14849299999999999,0.49277950000000004,0.014902000000000002,0.228763,0.7199095,-0.021947999999999995,-0.218707,0.9591995,-0.023497999999999998,0.250043,0.9609995,-0.0004329999999999959,-0.06684599999999999,-0.0016385000000000002,0.0017150000000000012,0.06684599999999999,0.0016385000000000002,-0.0017149999999999978,-0.144767,-0.3606105,-0.06997099999999999,0.136953,-0.3603305,-0.064954,-0.208567,-0.7686605,-0.063058,0.180763,-0.7744105,-0.057599
47,-0.007615499999999999,0.6417445,0.0198775,-0.13604549999999999,0.47381449999999997,0.0181095,-0.2039455,0.7388145,-0.0475825,0.1490445,0.4940445,0.006088499999999998,0.2286545,0.7223945,-0.030263500000000002,-0.21941549999999999,0.9639045,-0.0319415,0.24929450000000003,0.9697345,-0.006340500000000002,-0.0672085,-0.0018265,0.003008499999999999,0.0672085,0.0018264999999999996,-0.0030085000000000008,-0.1499555,-0.35389550000000003,-0.0789355,0.1421445,-0.3512955,-0.07224950000000001,-0.2104855,-0.7579954999999999,-0.0704705,0.1832745,-0.7635955,-0.0647345
48,-0.007713500000000003,0.643752,0.010018,-0.1364415,0.474202,0.006895,-0.2046515,0.738162,-0.057795,0.14893849999999997,0.49504200000000004,-0.0027799999999999995,0.2285485,0.724112,-0.038891999999999996,-0.22029150000000003,0.966512,-0.040569999999999995,0.24852849999999999,0.977552,-0.012576,-0.0676085,-0.0018790000000000005,0.004274000000000001,0.0676085,0.0018790000000000005,-0.004274,-0.15517150000000002,-0.347058,-0.087633,0.14825850000000002,-0.343858,-0.080379,-0.2133115,-0.746188,-0.079612,0.1859885,-0.7520479999999999,-0.072103
49,-0.007612500000000003,0.644227,1.9000000000000787e-05,-0.1365285,0.473757,-0.004331,-0.20526850000000002,0.739107,-0.067661,0.14903149999999998,0.494797,-0.012415,0.2285815,0.722157,-0.049086000000000005,-0.2210085,0.967587,-0.051002,0.2483215,0.976137,-0.021702,-0.0681715,-0.0017219999999999978,0.005459,0.0681715,0.0017220000000000013,-0.005459,-0.1601785,-0.338013,-0.096016,0.1547515,-0.335253,-0.088556,-0.2158785,-0.731933,-0.088784,0.1893215,-0.738533,-0.079905
50,-0.0077384999999999945,0.64402,-0.010053999999999999,-0.1370535,0.47322000000000003,-0.015238,-0.20630349999999997,0.74067,-0.077404,0.1489065,0.49376000000000003,-0.022215000000000002,0.22824650000000002,0.72016,-0.058757000000000004,-0.2217635,0.96926,-0.061003999999999996,0.24813649999999998,0.97549,-0.031118,-0.0685495,-0.0016670000000000018,0.006678,0.0685495,0.0016670000000000018,-0.006678,-0.1652135,-0.32852,-0.10389,0.1611165,-0.32594,-0.096575,-0.2185935,-0.71596,-0.09767999999999999,0.1925365,-0.7235699999999999,-0.088013
51,-0.007742500000000001,0.6433019999999999,-0.019482,-0.13700849999999998,0.47100200000000003,-0.02708,-0.2069185,0.743072,-0.08718000000000001,0.14919149999999998,0.49005200000000004,-0.032414,0.22885149999999999,0.719692,-0.06869900000000001,-0.22125850000000002,0.971762,-0.071244,0.24854149999999997,0.9763419999999999,-0.040898,-0.0689415,-0.0015420000000000017,0.006827,0.0689415,0.0015420000000000017,-0.006827,-0.16930850000000003,-0.317218,-0.111396,0.1680315,-0.31493800000000005,-0.104216,-0.22058850000000002,-0.701128,-0.10603599999999999,0.19748149999999998,-0.704388,-0.09795599999999999
52,-0.0081665,0.6410585,-0.027657,-0.1373055,0.4681185,-0.038189,-0.2079655,0.7443785,-0.097012,0.1490545,0.4861685,-0.042507,0.2287345,0.7167684999999999,-0.079336,-0.2210855,0.9732084999999999,-0.08047,0.24860450000000003,0.9768684999999999,-0.051063000000000004,-0.06883249999999999,-0.0014954999999999968,0.007162,0.06883249999999999,0.0014954999999999968,-0.007162,-0.17353549999999998,-0.3062615,-0.118119,0.17440450000000002,-0.3045215,-0.111289,-0.2228155,-0.6865515,-0.11355900000000001,0.2020245,-0.6859415,-0.107559
53,-0.00904,0.6372015,-0.0364845,-0.137903,0.46474150000000003,-0.0482995,-0.209283,0.7375815,-0.1082655,0.148877,0.4817015,-0.0534125,0.228577,0.7149015,-0.0900265,-0.220913,0.9731815,-0.0903625,0.248567,0.9785215,-0.0620635,-0.06870499999999999,-0.0014765000000000056,0.007563499999999999,0.06870499999999999,0.0014764999999999917,-0.007563500000000001,-0.177693,-0.2942285,-0.1247455,0.180627,-0.29333850000000006,-0.1182755,-0.22475299999999998,-0.6709385,-0.1211555,0.204927,-0.6701285,-0.1147655
54,-0.009933499999999994,0.638075,-0.052387500000000004,-0.13820849999999998,0.46099500000000004,-0.0668285,-0.2115285,0.731785,-0.12827149999999998,0.14598150000000001,0.48472499999999996,-0.0701205,0.22874150000000001,0.712975,-0.1102065,-0.2207785,0.9676549999999999,-0.1113315,0.2482415,0.981865,-0.0844445,-0.0685355,-0.0017149999999999943,0.006987500000000001,0.0685355,0.0017150000000000082,-0.006987500000000001,-0.1845685,-0.27410500000000004,-0.1422415,0.1876815,-0.273925,-0.1339715,-0.2263285,-0.647695,-0.1358915,0.2074415,-0.645395,-0.1288815
55,-0.011185,0.6283399999999999,-0.0682055,-0.138444,0.46051,-0.0861035,-0.213484,0.73299,-0.14770250000000001,0.14318599999999998,0.48846,-0.0880315,0.228626,0.7118099999999999,-0.13072250000000002,-0.220734,0.96919,-0.13274249999999999,0.247916,0.9776,-0.1097875,-0.06820300000000001,-0.00248000000000001,0.0065985,0.06820300000000001,0.0024799999999999822,-0.0065985,-0.191074,-0.25021000000000004,-0.1601925,0.194956,-0.25131000000000003,-0.1511025,-0.227434,-0.62071,-0.1508225,0.20971599999999999,-0.6166200000000001,-0.1432425
56,-0.012214000000000001,0.61744,-0.081941,-0.138552,0.46045,-0.100984,-0.215542,0.72612,-0.16725700000000002,0.140548,0.48660000000000003,-0.103725,0.229028,0.7081799999999999,-0.150167,-0.220602,0.96392,-0.153717,0.247808,0.97077,-0.13363,-0.068005,-0.0026400000000000035,0.004954,0.068005,0.0026400000000000035,-0.004954,-0.195532,-0.22752000000000003,-0.17649700000000001,0.200528,-0.2307,-0.167307,-0.227682,-0.59563,-0.16339700000000001,0.211628,-0.59257,-0.155567
57,-0.013263500000000003,0.608145,-0.09473200000000001,-0.1387875,0.46038500000000004,-0.115791,-0.21800750000000002,0.722905,-0.185597,0.1375025,0.48435500000000004,-0.119567,0.22926249999999998,0.701585,-0.170037,-0.2207175,0.960655,-0.174767,0.2475425,0.9614550000000001,-0.159037,-0.06766749999999999,-0.002924999999999983,0.0033079999999999984,0.06766749999999999,0.002925000000000011,-0.0033080000000000054,-0.2002275,-0.20466499999999999,-0.193477,0.20495249999999998,-0.208125,-0.182877,-0.22730750000000002,-0.569915,-0.174047,0.2129025,-0.5676749999999999,-0.16719699999999998
58,-0.013894999999999996,0.5993649999999999,-0.106623,-0.13907199999999997,0.46330499999999997,-0.130523,-0.22021200000000002,0.717805,-0.203628,0.13441799999999998,0.483555,-0.134787,0.229698,0.701845,-0.18753799999999998,-0.220972,0.9572750000000001,-0.195598,0.247678,0.9663250000000001,-0.180818,-0.067092,-0.002845000000000014,0.001920999999999999,0.067092,0.0028449999999999864,-0.001920999999999999,-0.204772,-0.179035,-0.210578,0.209358,-0.182155,-0.19802799999999998,-0.226682,-0.5406550000000001,-0.184068,0.213598,-0.539255,-0.177238
59,-0.0141,0.59185,-0.1182635,-0.139342,0.46144,-0.14515650000000002,-0.222002,0.71285,-0.22106550000000003,0.131378,0.48285,-0.1493425,0.230608,0.7004900000000001,-0.2052655,-0.220442,0.95391,-0.2160955,0.248878,0.9710399999999999,-0.20169550000000003,-0.066121,-0.003070000000000017,0.0007744999999999974,0.066121,0.003070000000000017,-0.0007744999999999974,-0.209062,-0.15461999999999998,-0.2284855,0.214028,-0.15664,-0.21330549999999998,-0.225562,-0.5127599999999999,-0.1935755,0.214718,-0.5116099999999999,-0.1862655
60,-0.013563499999999997,0.5846100000000001,-0.129712,-0.1395165,0.46133,-0.157916,-0.2242965,0.70408,-0.238513,0.12916350000000001,0.48374,-0.162682,0.2315435,0.69775,-0.221573,-0.2204065,0.94739,-0.236573,0.25022350000000004,0.9731400000000001,-0.221103,-0.0652925,-0.003390000000000004,-5.1999999999996493e-05,0.0652925,0.003390000000000004,5.1999999999996493e-05,-0.2135365,-0.13230999999999998,-0.246523,0.2191335,-0.13423000000000002,-0.229763,-0.2239765,-0.48928,-0.201623,0.2159835,-0.48574,-0.19389299999999998
61,-0.012813999999999996,0.57904,-0.14139000000000002,-0.13943299999999997,0.46001000000000003,-0.170427,-0.226323,0.6962999999999999,-0.25461900000000004,0.128307,0.48246999999999995,-0.175148,0.23281700000000002,0.6939500000000001,-0.23613900000000002,-0.21995299999999998,0.94248,-0.254909,0.251807,0.9726,-0.239439,-0.064531,-0.0037000000000000366,-0.0006120000000000014,0.064531,0.003699999999999981,0.0006120000000000014,-0.21764299999999998,-0.1094,-0.264069,0.224497,-0.1109,-0.245719,-0.22197299999999998,-0.46467,-0.20907900000000001,0.217617,-0.46087,-0.20069900000000002
62,-0.011030000000000002,0.576855,-0.152352,-0.13877199999999998,0.459545,-0.182225,-0.227512,0.6925049999999999,-0.269174,0.127658,0.48150499999999996,-0.186057,0.235068,0.689265,-0.249544,-0.220362,0.9324650000000001,-0.274034,0.253548,0.961535,-0.259044,-0.063989,-0.0037550000000000083,-0.0014129999999999976,0.063989,0.0037550000000000083,0.0014129999999999976,-0.221332,-0.08725500000000003,-0.280924,0.230018,-0.08776499999999998,-0.261034,-0.219582,-0.43936500000000006,-0.215464,0.219338,-0.43626499999999996,-0.206454
63,-0.009612000000000002,0.569455,-0.15812149999999997,-0.138539,0.456728,-0.18687349999999997,-0.227939,0.6875450000000001,-0.2770135,0.129131,0.47738500000000006,-0.19148349999999997,0.236931,0.684145,-0.2555435,-0.22136899999999998,0.9283250000000001,-0.2838435,0.254861,0.9487650000000001,-0.2687035,-0.063723,-0.004054999999999975,-0.001411499999999996,0.063723,0.004055000000000031,0.00141150000000001,-0.222469,-0.07369499999999995,-0.28866349999999996,0.233861,-0.07345499999999994,-0.2697135,-0.21753899999999998,-0.4187449999999999,-0.2160735,0.219331,-0.422435,-0.2042935
64,-0.008020500000000003,0.57335,-0.1648985,-0.1379985,0.451062,-0.1920215,-0.22815850000000001,0.67547,-0.2857215,0.1308115,0.470198,-0.19614150000000002,0.2391715,0.68007,-0.2628515,-0.2237585,0.92509,-0.2955815,0.2565015,0.9465600000000001,-0.2778915,-0.0633145,-0.003019999999999967,-0.001408500000000007,0.0633145,0.0030200000000000227,0.001408499999999993,-0.22396850000000001,-0.059679999999999955,-0.2973615,0.2372815,-0.05839,-0.27818149999999997,-0.2152885,-0.39737,-0.21667150000000002,0.2191715,-0.40859,-0.2022115
65,-0.005917999999999996,0.57666,-0.17160949999999997,-0.13696099999999997,0.447743,-0.1968165,-0.227571,0.66964,-0.2929765,0.132949,0.467659,-0.20089649999999998,0.24197900000000003,0.67903,-0.26966650000000003,-0.226791,0.92625,-0.3074065,0.258979,0.9449500000000001,-0.2869865,-0.063283,-0.0029000000000000137,-0.001408499999999993,0.063283,0.0029000000000000137,0.001408500000000007,-0.22461099999999998,-0.04485,-0.3045365,0.24072900000000003,-0.04342999999999997,-0.2856265,-0.21251099999999998,-0.37685,-0.2168365,0.22060900000000003,-0.38939,-0.2017065
66,-0.0048185,0.579935,-0.1766025,-0.1369755,0.444983,-0.1992515,-0.22792549999999998,0.663915,-0.29846150000000005,0.1336745,0.46682300000000004,-0.20296150000000002,0.2434445,0.682005,-0.27392150000000004,-0.2314155,0.926945,-0.31661150000000005,0.2609945,0.947725,-0.2919315,-0.0624475,-0.002794999999999992,-0.0012435000000000085,0.0624475,0.002794999999999992,0.0012434999999999946,-0.22657549999999999,-0.029044999999999987,-0.3089115,0.24273450000000002,-0.027964999999999962,-0.2907715,-0.21063549999999998,-0.355665,-0.2150215,0.2213545,-0.36972499999999997,-0.19936150000000002
67,-0.002881500000000002,0.584455,-0.1807405,-0.1360905,0.4377,-0.2002225,-0.2277005,0.661165,-0.30269250000000003,0.1358495,0.46413899999999997,-0.2035725,0.24563949999999998,0.683205,-0.2777725,-0.23562049999999998,0.929785,-0.3250925,0.26380950000000003,0.946835,-0.2962625,-0.06286549999999999,-0.003265000000000018,-0.001296500000000006,0.06286549999999999,0.0032649999999999624,0.001296499999999992,-0.22800050000000002,-0.014885000000000037,-0.3115025,0.2449395,-0.014805000000000013,-0.2945025,-0.20810050000000002,-0.33674500000000007,-0.2116825,0.2227095,-0.352395,-0.1957625
68,-0.0010509999999999964,0.588883,-0.1834785,-0.135077,0.437186,-0.2001185,-0.227867,0.659365,-0.30662849999999997,0.137153,0.46244300000000005,-0.20348850000000002,0.247753,0.6883750000000001,-0.2807985,-0.24017699999999997,0.926685,-0.3328485,0.26637299999999997,0.9442550000000001,-0.3026585,-0.063149,-0.003134999999999999,-0.0012665000000000037,0.063149,0.0031350000000000544,0.0012664999999999899,-0.22952699999999998,0.0016950000000000576,-0.31206849999999997,0.246813,0.00015500000000001624,-0.2970685,-0.20596699999999998,-0.315585,-0.2074685,0.22387300000000002,-0.333495,-0.1915785
69,0.0002815000000000005,0.593307,-0.1852335,-0.1342575,0.43483800000000006,-0.19973349999999998,-0.22757750000000002,0.66047,-0.30954349999999997,0.1383025,0.460782,-0.20278349999999998,0.2494225,0.69386,-0.2832035,-0.2441575,0.9253800000000001,-0.3395135,0.2688825,0.9421900000000001,-0.3088735,-0.0633975,-0.003029999999999977,-0.001283499999999993,0.0633975,0.003029999999999977,0.0012835000000000069,-0.23082750000000002,0.01872000000000007,-0.3111635,0.2485325,0.01658000000000004,-0.2970935,-0.2040575,-0.29447999999999996,-0.2031635,0.2249525,-0.31438999999999995,-0.1881835
70,0.001417500000000002,0.596956,-0.1858375,-0.1336645,0.43352999999999997,-0.1985675,-0.2277445,0.65846,-0.3122575,0.1390455,0.460544,-0.20153749999999998,0.2511755,0.70352,-0.2846975,-0.24835449999999998,0.92058,-0.3459375,0.2712055,0.9421200000000001,-0.3143475,-0.0635505,-0.003070000000000017,-0.0013594999999999996,0.0635505,0.003070000000000017,0.0013594999999999996,-0.2320045,0.03530999999999995,-0.3094875,0.2499555,0.03249999999999997,-0.2966175,-0.2024345,-0.27393999999999996,-0.1988375,0.2256455,-0.29452999999999996,-0.1836975
71,0.001782499999999996,0.598385,-0.18520150000000002,-0.1332165,0.4333199999999999,-0.1970615,-0.2282265,0.6625759999999999,-0.31383150000000004,0.1399735,0.46193999999999996,-0.1999215,0.2526335,0.7061,-0.2860515,-0.2515965,0.9242999999999999,-0.34988149999999996,0.2733735,0.94635,-0.3167715,-0.0635825,-0.003090000000000037,-0.0014495000000000063,0.0635825,0.003089999999999926,0.0014495000000000063,-0.2327665,0.05332999999999999,-0.30688150000000003,0.2503935,0.049309999999999965,-0.29572149999999997,-0.20095649999999998,-0.25268,-0.1941815,0.2260735,-0.27361,-0.17887150000000002
72,0.0016650000000000033,0.600535,-0.183701,-0.133054,0.43484,-0.19505100000000003,-0.229074,0.6641090000000001,-0.314931,0.140616,0.46308000000000005,-0.197401,0.25385599999999997,0.7074,-0.28719100000000003,-0.255104,0.92611,-0.354081,0.275386,0.95021,-0.319621,-0.063565,-0.0027800000000000047,-0.0013960000000000014,0.063565,0.0027800000000000047,0.0013959999999999945,-0.23321399999999998,0.07105000000000006,-0.303901,0.249696,0.06594,-0.294231,-0.199814,-0.23851,-0.187641,0.225546,-0.25661999999999996,-0.174231
73,0.0011894999999999996,0.603114,-0.181302,-0.13327450000000002,0.43545500000000004,-0.19252199999999997,-0.23024450000000002,0.6708200000000001,-0.31509200000000004,0.14073549999999999,0.4651350000000001,-0.194892,0.2550755,0.709397,-0.287362,-0.2575745,0.9261250000000001,-0.356672,0.2771555,0.9542250000000001,-0.320422,-0.0636735,-0.0029850000000000154,-0.0014829999999999982,0.0636735,0.0029850000000000154,0.0014830000000000051,-0.2330645,0.08630500000000008,-0.300232,0.2483655,0.08042500000000008,-0.292142,-0.1985845,-0.228615,-0.181012,0.2240955,-0.245185,-0.170072
74,0.0006670000000000044,0.605983,-0.17921399999999998,-0.133545,0.436465,-0.189774,-0.231515,0.676009,-0.315214,0.140855,0.46587500000000004,-0.192504,0.257165,0.7113200000000001,-0.288104,-0.259365,0.925335,-0.35845400000000005,0.278425,0.955975,-0.321404,-0.063759,-0.0028650000000000064,-0.0015300000000000036,0.063759,0.0028650000000000064,0.0015299999999999966,-0.232675,0.09959499999999999,-0.297034,0.24679500000000001,0.09379500000000007,-0.289994,-0.19730499999999998,-0.220615,-0.174824,0.224495,-0.23580499999999993,-0.168004
75,0.0002525000000000027,0.6078410000000001,-0.1764525,-0.1337605,0.436415,-0.18708249999999998,-0.2328505,0.681234,-0.3143825,0.1412695,0.465395,-0.1902625,0.2590595,0.7118610000000001,-0.2869725,-0.26093049999999995,0.925895,-0.3599625,0.27990950000000003,0.956575,-0.32217250000000003,-0.0638745,-0.0027849999999999264,-0.0014715000000000006,0.0638745,0.0027850000000000374,0.0014715000000000006,-0.2322605,0.11231500000000005,-0.2940125,0.2450395,0.10688500000000001,-0.2874525,-0.19583050000000002,-0.21398499999999998,-0.1687825,0.2249195,-0.22882499999999995,-0.1663125
76,-0.00016250000000000292,0.6111650000000001,-0.1735775,-0.1337765,0.44069,-0.1842175,-0.2342765,0.684312,-0.3131275,0.1408535,0.46845000000000003,-0.1873975,0.2594335,0.7136600000000001,-0.2840975,-0.2615865,0.9291200000000001,-0.3584375,0.2818035,0.9583600000000001,-0.3217175,-0.0642675,-0.0026800000000000157,-0.0014645000000000005,0.0642675,0.0026800000000000157,0.0014645000000000005,-0.2318865,0.12505,-0.2906875,0.2430935,0.12082000000000004,-0.2845875,-0.1899865,-0.21299999999999997,-0.16257749999999999,0.2234935,-0.22158,-0.1625275
77,-0.000613499999999996,0.614083,-0.171182,-0.1336605,0.44297000000000003,-0.181812,-0.23550049999999997,0.6853870000000001,-0.311772,0.14045950000000001,0.47131,-0.184992,0.26008950000000003,0.71009,-0.281692,-0.26221049999999996,0.9380000000000001,-0.357282,0.28334950000000003,0.96145,-0.319492,-0.0646825,-0.0027800000000000047,-0.0014460000000000028,0.0646825,0.0027800000000000047,0.001445999999999996,-0.23116050000000002,0.13541999999999998,-0.287052,0.2411895,0.13309000000000004,-0.282202,-0.1839605,-0.21436999999999995,-0.160132,0.2220095,-0.21746,-0.158482
78,-0.0004080000000000021,0.6170640000000001,-0.1689175,-0.133319,0.44628000000000007,-0.1795475,-0.23639899999999997,0.6860900000000001,-0.3099175,0.140591,0.4748300000000001,-0.1827275,0.261081,0.7019320000000001,-0.2794175,-0.262619,0.9454600000000001,-0.3556775,0.285051,0.96282,-0.3172175,-0.065,-0.002789999999999959,-0.0014795000000000016,0.065,0.00279000000000007,0.0014795000000000016,-0.22967900000000002,0.1454200000000001,-0.28301750000000003,0.239671,0.14507000000000003,-0.2799475,-0.18151899999999999,-0.21424999999999994,-0.15683750000000002,0.220271,-0.21405999999999992,-0.1566575
79,-0.00013100000000000264,0.6194900000000001,-0.16738750000000002,-0.132891,0.44760000000000005,-0.17753750000000001,-0.236981,0.6890360000000001,-0.30887749999999997,0.14046899999999998,0.4762700000000001,-0.18071750000000003,0.262189,0.691963,-0.2780475,-0.26299100000000003,0.94796,-0.35571749999999996,0.28668899999999997,0.95872,-0.3160675,-0.065243,-0.0027800000000000047,-0.0016685000000000033,0.065243,0.0027800000000000047,0.0016684999999999964,-0.22740100000000002,0.15515,-0.2793275,0.238419,0.15716000000000008,-0.2786075,-0.178881,-0.21384999999999998,-0.1548875,0.218719,-0.20463999999999993,-0.1531575
80,0.0001910000000000002,0.6218049999999999,-0.166658,-0.13254100000000002,0.447295,-0.17677800000000002,-0.237591,0.689008,-0.30897800000000003,0.140299,0.47595499999999996,-0.179768,0.263219,0.6883509999999999,-0.27716799999999997,-0.263441,0.9476549999999999,-0.35687800000000003,0.288179,0.957545,-0.315908,-0.065549,-0.0031649999999999734,-0.0017770000000000008,0.065549,0.0031649999999999734,0.0017770000000000008,-0.224841,0.16227499999999995,-0.27660799999999997,0.237669,0.16686499999999993,-0.278008,-0.172411,-0.21872500000000006,-0.154738,0.217059,-0.20132499999999998,-0.151318
81,0.0007584999999999988,0.623645,-0.166014,-0.13191550000000002,0.446835,-0.176114,-0.2378855,0.690035,-0.309204,0.1403345,0.47496499999999997,-0.178864,0.2643745,0.685101,-0.275744,-0.2631755,0.9473849999999999,-0.357624,0.2891145,0.955055,-0.315324,-0.0658125,-0.003415000000000057,-0.0017790000000000028,0.0658125,0.003414999999999946,0.0017789999999999959,-0.2220455,0.16845500000000002,-0.27389399999999997,0.23739449999999998,0.17577500000000001,-0.277444,-0.1711955,-0.218005,-0.15473399999999998,0.2166545,-0.20082500000000003,-0.14840399999999998
82,0.0012859999999999955,0.624375,-0.16531,-0.131354,0.44649500000000003,-0.17539,-0.23811400000000002,0.688965,-0.30933,0.140536,0.475395,-0.17793,0.265856,0.6797880000000001,-0.27429000000000003,-0.263404,0.943995,-0.35888,0.28969599999999995,0.949735,-0.31473,-0.065991,-0.003944999999999976,-0.0017799999999999969,0.065991,0.003944999999999976,0.0017800000000000038,-0.219544,0.17242500000000005,-0.27142,0.237256,0.182145,-0.27682,-0.170084,-0.218935,-0.15787,0.216406,-0.197905,-0.14583000000000002
83,0.0018425000000000039,0.62496,-0.165002,-0.1308045,0.44577999999999995,-0.17494200000000001,-0.2382245,0.686921,-0.30974199999999996,0.1407555,0.47530999999999995,-0.17722200000000002,0.2673155,0.673729,-0.273572,-0.26348449999999995,0.93953,-0.360392,0.2912655,0.9436899999999999,-0.314712,-0.0661375,-0.004350000000000076,-0.002045999999999999,0.0661375,0.004349999999999965,0.002045999999999999,-0.21737449999999997,0.17594999999999994,-0.269602,0.23710550000000002,0.18752000000000002,-0.276362,-0.16353449999999997,-0.22122000000000008,-0.162852,0.2156055,-0.19606,-0.145172
84,0.0023085000000000015,0.6257600000000001,-0.16464800000000002,-0.13033350000000002,0.44533000000000006,-0.174648,-0.23820349999999998,0.6862710000000001,-0.310288,0.1408965,0.4753300000000001,-0.176638,0.2684965,0.6669100000000001,-0.272938,-0.2635335,0.9340900000000001,-0.361988,0.29265650000000004,0.9373,-0.314768,-0.0662855,-0.004709999999999992,-0.0024090000000000014,0.0662855,0.004710000000000103,0.0024090000000000014,-0.21548350000000002,0.17905000000000004,-0.268108,0.2370265,0.19225000000000003,-0.275878,-0.15717350000000002,-0.22455999999999998,-0.170378,0.2148765,-0.19453999999999994,-0.14490799999999998
85,0.002649000000000002,0.6251599999999999,-0.164724,-0.13000499999999998,0.44331999999999994,-0.174894,-0.238115,0.6853809999999999,-0.311234,0.140915,0.47378999999999993,-0.176664,0.269375,0.6615199999999999,-0.272604,-0.26344500000000004,0.9258,-0.363844,0.293855,0.9283199999999999,-0.315134,-0.06631000000000001,-0.0050600000000000644,-0.0028849999999999987,0.06631000000000001,0.005059999999999953,0.0028849999999999987,-0.214005,0.1798599999999999,-0.267254,0.236935,0.19418999999999997,-0.27584400000000003,-0.14990499999999998,-0.2269500000000001,-0.175334,0.213705,-0.1949900000000001,-0.14291
86,0.002987,0.624645,-0.1649755,-0.129715,0.441465,-0.1754755,-0.23810499999999998,0.684916,-0.3121755,0.14088499999999998,0.47224499999999997,-0.1770055,0.269635,0.651925,-0.2712555,-0.263355,0.917325,-0.3657955,0.294945,0.919275,-0.3156055,-0.066384,-0.005375000000000019,-0.0032814999999999997,0.066384,0.005375000000000019,0.0032814999999999997,-0.212945,0.18120499999999995,-0.2668855,0.236895,0.196025,-0.2761055,-0.148935,-0.22760500000000006,-0.1839655,0.214895,-0.19454500000000008,-0.1415625
87,0.003321499999999998,0.6241749999999999,-0.165048,-0.1293175,0.439855,-0.175988,-0.23809750000000002,0.684515,-0.313128,0.1408925,0.470615,-0.177298,0.26989250000000004,0.650735,-0.271068,-0.2633275,0.910365,-0.367438,0.2958825,0.912005,-0.316198,-0.0664265,-0.005624999999999991,-0.0036440000000000014,0.0664265,0.005624999999999991,0.0036440000000000014,-0.2119575,0.182415,-0.266418,0.2369025,0.19762499999999994,-0.276298,-0.1447575,-0.2271350000000001,-0.183748,0.2138325,-0.19237500000000007,-0.143591
88,0.0035735000000000003,0.62361,-0.1659,-0.1290415,0.43989999999999996,-0.17751,-0.2381415,0.683642,-0.31479,0.14106849999999999,0.47086999999999996,-0.17889,0.2701385,0.65057,-0.27248,-0.2633415,0.9097999999999999,-0.3691,0.2965085,0.9097,-0.31772,-0.0665345,-0.005610000000000004,-0.003907000000000001,0.0665345,0.005609999999999893,0.003907000000000001,-0.2113815,0.18264999999999998,-0.26677,0.2370785,0.19782,-0.27717,-0.1444615,-0.22767000000000004,-0.18889999999999998,0.2138885,-0.19469000000000003,-0.14746399999999998
89,0.003950000000000002,0.6230199999999999,-0.16653400000000002,-0.128716,0.43990999999999997,-0.17898399999999998,-0.23808599999999996,0.6828339999999999,-0.316444,0.141314,0.47111,-0.18047400000000002,0.270374,0.6505,-0.273864,-0.26333599999999996,0.9091699999999999,-0.370754,0.297254,0.90883,-0.31918399999999997,-0.066614,-0.005570000000000075,-0.0042150000000000035,0.066614,0.005569999999999964,0.0042149999999999965,-0.21089599999999997,0.18289,-0.267314,0.237214,0.19794,-0.278084,-0.14701599999999998,-0.22743000000000002,-0.19885399999999998,0.210984,-0.19839000000000007,-0.147565
90,0.004241000000000005,0.6224149999999999,-0.1671105,-0.128429,0.439975,-0.1804605,-0.23806899999999998,0.68213,-0.31801050000000003,0.141501,0.471335,-0.1820905,0.27053099999999997,0.650655,-0.2753105,-0.263439,0.908485,-0.3724405,0.297881,0.908465,-0.3206505,-0.066536,-0.005525000000000002,-0.004514499999999998,0.066536,0.005525000000000002,0.004514499999999998,-0.210509,0.18311500000000003,-0.2680105,0.237301,0.19803499999999996,-0.27916050000000003,-0.150169,-0.22980499999999993,-0.2064905,0.209171,-0.202195,-0.1485125
91,0.0046124999999999985,0.6223100000000001,-0.1672575,-0.1281415,0.44005000000000005,-0.1815875,-0.23787149999999999,0.6817300000000001,-0.3191075,0.1417685,0.4713800000000001,-0.1833175,0.2712285,0.6505500000000001,-0.2763875,-0.26324149999999996,0.90807,-0.3731875,0.2984585,0.9080400000000001,-0.3219275,-0.0664455,-0.005699999999999927,-0.004540500000000003,0.0664455,0.005700000000000038,0.004540499999999996,-0.2101415,0.18301000000000012,-0.2684475,0.2373885,0.19786000000000004,-0.2798975,-0.1525515,-0.23210999999999982,-0.2184975,0.2098985,-0.20238999999999996,-0.15001350000000002
92,0.004917500000000002,0.6222300000000001,-0.1664045,-0.1279225,0.43996999999999997,-0.18163449999999998,-0.2377625,0.68165,-0.3190645,0.1419375,0.47144,-0.18351450000000002,0.2716975,0.65047,-0.2765445,-0.2631925,0.90799,-0.3728345,0.2990475,0.90772,-0.3220445,-0.06643550000000001,-0.005780000000000007,-0.004469500000000001,0.06643550000000001,0.005780000000000007,0.004469500000000001,-0.20984250000000002,0.18296999999999997,-0.2680245,0.2374775,0.19742000000000004,-0.2795245,-0.1560625,-0.22929,-0.22553450000000003,0.2085375,-0.20586000000000004,-0.15086650000000001
93,0.005299000000000002,0.62201,-0.1652765,-0.127707,0.43975,-0.18150650000000002,-0.237667,0.68143,-0.3186265,0.142123,0.47133,-0.1835765,0.27203299999999997,0.65025,-0.2764465,-0.263077,0.90777,-0.3721965,0.29963300000000004,0.9074,-0.3219665,-0.066428,-0.005820000000000047,-0.004337500000000001,0.066428,0.005820000000000047,0.004337500000000001,-0.209567,0.18283000000000005,-0.2677965,0.237623,0.19682999999999995,-0.2792465,-0.149357,-0.23351,-0.2351165,0.209003,-0.20818000000000003,-0.1492725
94,0.005594000000000005,0.621895,-0.163972,-0.12756599999999998,0.43959499999999996,-0.18138200000000002,-0.237666,0.681205,-0.31779199999999996,0.142234,0.47133499999999995,-0.183682,0.272324,0.650185,-0.276372,-0.26312599999999997,0.9075449999999999,-0.37124199999999996,0.300044,0.907175,-0.321802,-0.066429,-0.005875000000000075,-0.004240000000000001,0.066429,0.005874999999999964,0.004240000000000001,-0.209566,0.18276499999999996,-0.268002,0.237704,0.19638499999999992,-0.279062,-0.14832599999999999,-0.23373500000000003,-0.235312,0.209504,-0.20840500000000006,-0.149474
95,0.005944500000000002,0.62247,-0.16258050000000002,-0.1273745,0.44004999999999994,-0.1812105,-0.2374545,0.6814129999999999,-0.3166005,0.1423955,0.47164999999999996,-0.1838305,0.2726455,0.6505799999999999,-0.2761905,-0.2631345,0.9077599999999999,-0.3697405,0.3004555,0.9070699999999999,-0.3216005,-0.0664285,-0.005770000000000053,-0.004209500000000005,0.0664285,0.005769999999999942,0.004209499999999998,-0.20956450000000001,0.18284,-0.2682505,0.2377755,0.1962799999999999,-0.2790705,-0.1540445,-0.22984000000000004,-0.23314050000000003,0.21166549999999998,-0.20633,-0.1510515
96,0.006270999999999995,0.6237299999999999,-0.161017,-0.127103,0.44060999999999995,-0.18099700000000002,-0.237013,0.682191,-0.315167,0.142567,0.47193999999999997,-0.183957,0.272937,0.6511199999999999,-0.275827,-0.263143,0.90906,-0.367537,0.300867,0.9064599999999999,-0.321227,-0.066429,-0.005530000000000035,-0.004174999999999998,0.066429,0.005529999999999924,0.004174999999999998,-0.209563,0.1826399999999999,-0.268477,0.23791700000000002,0.1956699999999999,-0.278987,-0.153313,-0.2279500000000001,-0.22886700000000001,0.211667,-0.20693000000000006,-0.15179
97,0.006732999999999999,0.624455,-0.15969450000000002,-0.126974,0.44161500000000004,-0.1802145,-0.236764,0.683485,-0.3133645,0.142436,0.47176500000000005,-0.1838545,0.273006,0.650675,-0.2756745,-0.26362399999999997,0.9102250000000001,-0.3656745,0.301366,0.9118850000000001,-0.3204645,-0.06636600000000001,-0.005024999999999946,-0.0038785,0.06636600000000001,0.005025000000000057,0.0038785,-0.210104,0.17939500000000008,-0.2694745,0.237556,0.191075,-0.27916450000000004,-0.153924,-0.22463499999999992,-0.2188545,0.210996,-0.21037499999999998,-0.1509435
98,0.006948499999999996,0.6242400000000001,-0.1593475,-0.12697550000000002,0.4417800000000001,-0.1799375,-0.2366855,0.6833960000000001,-0.3121375,0.1420645,0.4710500000000001,-0.1841175,0.2725745,0.6539400000000001,-0.2762675,-0.2642855,0.91351,-0.36417750000000004,0.3016145,0.9153600000000001,-0.3204575,-0.0662665,-0.0043999999999999595,-0.003229500000000003,0.0662665,0.0044000000000000705,0.0032294999999999963,-0.2112255,0.17391000000000012,-0.2718975,0.2372445,0.18383000000000005,-0.2801075,-0.1607455,-0.21806999999999988,-0.21479750000000003,0.2101745,-0.21136999999999995,-0.1521565
99,0.007057999999999995,0.62414,-0.15943649999999998,-0.12721300000000002,0.44093,-0.1800965,-0.23674300000000004,0.682932,-0.3115165,0.141527,0.46967,-0.1848465,0.272107,0.654474,-0.27732650000000003,-0.26504300000000003,0.9135599999999999,-0.3630365,0.30172699999999997,0.91625,-0.3212065,-0.066199,-0.0043199999999999905,-0.0029015000000000013,0.066199,0.0043199999999999905,0.0029015000000000013,-0.213213,0.16662999999999994,-0.2757265,0.237087,0.17376000000000003,-0.2816665,-0.16671300000000003,-0.21497,-0.2117965,0.21031699999999998,-0.21663,-0.1538785
100,0.007056499999999997,0.6240649999999999,-0.1604425,-0.1279875,0.4400949999999999,-0.1809925,-0.2369475,0.6841149999999999,-0.31174250000000003,0.14087249999999998,0.4684149999999999,-0.18642250000000002,0.2715125,0.6545169999999999,-0.2791725,-0.26590749999999996,0.9146249999999999,-0.3628225,0.3017725,0.9152149999999999,-0.3226425,-0.06611349999999999,-0.003945000000000087,-0.0024754999999999985,0.06611349999999999,0.003944999999999976,0.0024754999999999985,-0.21553750000000002,0.15736499999999987,-0.2802825,0.23723249999999999,0.16203499999999993,-0.2841825,-0.17243750000000002,-0.2125950000000001,-0.2130025,0.2126625,-0.21707500000000013,-0.1592595
101,0.007182999999999998,0.6234589999999999,-0.161814,-0.128537,0.4396199999999999,-0.182263,-0.23699699999999999,0.6835799999999999,-0.31261300000000003,0.140413,0.46623999999999993,-0.18859299999999998,0.271053,0.6538579999999999,-0.281473,-0.26664699999999997,0.9139999999999999,-0.36334299999999997,0.301933,0.9118799999999999,-0.32470299999999996,-0.066093,-0.0034000000000000696,-0.0019449999999999953,0.066093,0.0033999999999999586,0.0019450000000000023,-0.217677,0.14603999999999995,-0.285033,0.237773,0.14837999999999996,-0.287213,-0.174707,-0.21374000000000004,-0.204733,0.212033,-0.2206300000000001,-0.165323
102,0.007018000000000003,0.6227689999999999,-0.1638145,-0.129162,0.43831,-0.18417850000000002,-0.237232,0.6815669999999999,-0.3137885,0.14016800000000001,0.46556999999999993,-0.1909085,0.270368,0.654125,-0.2844685,-0.267532,0.91179,-0.36451849999999997,0.302218,0.9087,-0.32741850000000006,-0.06603300000000001,-0.0032600000000000406,-0.001511499999999999,0.06603300000000001,0.0032599999999999296,0.001511499999999999,-0.219832,0.13285999999999998,-0.2897185,0.23852800000000002,0.13290999999999997,-0.29092850000000003,-0.178972,-0.21705000000000008,-0.2091585,0.213768,-0.22387,-0.17084850000000001
103,0.0065794999999999985,0.622721,-0.1674985,-0.1298645,0.4378349999999999,-0.18705850000000002,-0.2377445,0.67931,-0.3161485,0.1398455,0.4640849999999999,-0.1943585,0.2698355,0.6520039999999999,-0.28869849999999997,-0.2683945,0.9102549999999999,-0.36622849999999996,0.3028955,0.9068649999999999,-0.33121849999999997,-0.0659955,-0.0028250000000000774,-0.000960500000000003,0.0659955,0.0028249999999999664,0.000960500000000003,-0.2218045,0.1155449999999999,-0.29562849999999996,0.23967549999999999,0.11369499999999988,-0.2962785,-0.1833345,-0.22448500000000005,-0.2153385,0.2149955,-0.23238500000000006,-0.17800850000000001
104,0.005667999999999996,0.622382,-0.1713745,-0.130754,0.4382499999999999,-0.1900445,-0.238684,0.67812,-0.3189345,0.139296,0.46203999999999995,-0.1979345,0.268986,0.654473,-0.2926345,-0.26985400000000004,0.91398,-0.3687845,0.303736,0.9061699999999999,-0.3354745,-0.06587699999999999,-0.0023100000000000342,-0.00037750000000000283,0.06587699999999999,0.0023099999999999232,0.00037749999999998896,-0.22384400000000002,0.09721999999999997,-0.3016745,0.240816,0.0938199999999999,-0.3020845,-0.187724,-0.24072000000000005,-0.2165545,0.216186,-0.24248000000000003,-0.1858745
105,0.004688500000000002,0.621684,-0.175423,-0.1318535,0.43801,-0.19323099999999999,-0.2401835,0.6769270000000001,-0.322071,0.13815650000000002,0.46004,-0.20132099999999997,0.2682965,0.65512,-0.296821,-0.2714435,0.91383,-0.372471,0.30434649999999996,0.9097999999999999,-0.339181,-0.0658765,-0.0019799999999999818,0.0002410000000000051,0.0658765,0.0019799999999999818,-0.00024099999999999122,-0.22546349999999998,0.07732000000000006,-0.308081,0.2416665,0.07223999999999997,-0.307481,-0.1920035,-0.25332999999999994,-0.21407099999999998,0.2175165,-0.25603,-0.193801
106,0.003444499999999996,0.6230629999999999,-0.17919649999999998,-0.1326905,0.43818999999999997,-0.1969255,-0.2409405,0.674754,-0.3255355,0.1374195,0.45947,-0.2047755,0.2674095,0.658253,-0.3003255,-0.2726905,0.91211,-0.3759755,0.3042895,0.90551,-0.3431955,-0.0659255,-0.0020700000000000163,0.00044550000000000145,0.0659255,0.0020700000000000163,-0.00044550000000000145,-0.22669050000000002,0.05908000000000002,-0.31459550000000003,0.24236950000000002,0.05340999999999996,-0.3124755,-0.1958105,-0.26431000000000004,-0.2200155,0.2184195,-0.27027,-0.20209549999999998
107,0.0023049999999999998,0.6252110000000001,-0.1811555,-0.133517,0.43740500000000004,-0.1998625,-0.242077,0.6743650000000001,-0.3273625,0.136913,0.45756500000000006,-0.2075825,0.266263,0.6575570000000001,-0.3020625,-0.273947,0.9080250000000001,-0.3781025,0.304133,0.9021750000000001,-0.3453925,-0.066062,-0.0021649999999999725,0.0002324999999999966,0.066062,0.0021650000000000835,-0.0002324999999999966,-0.227807,0.04137500000000005,-0.3201225,0.242673,0.03546500000000008,-0.3161925,-0.19875700000000002,-0.282655,-0.2251125,0.219493,-0.285635,-0.2104925
108,0.0011810000000000015,0.6277560000000001,-0.180562,-0.134348,0.4395900000000001,-0.200652,-0.243198,0.6769800000000001,-0.32716,0.135832,0.45782000000000006,-0.20831,0.265142,0.6627100000000001,-0.30165,-0.275598,0.9096700000000001,-0.37864,0.30397199999999996,0.9052500000000001,-0.34384,-0.06614500000000001,-0.0017999999999999128,0.0004699999999999982,0.06614500000000001,0.0018000000000000238,-0.0004699999999999982,-0.228908,0.021730000000000027,-0.32343,0.242512,0.017000000000000126,-0.31766,-0.20246799999999998,-0.3026699999999999,-0.22964,0.220272,-0.30301999999999996,-0.21700999999999998
109,-0.00041899999999999576,0.63056,-0.17771699999999999,-0.13541,0.44368899999999994,-0.199689,-0.24488000000000001,0.6757899999999999,-0.324675,0.13469,0.46180299999999996,-0.206535,0.26341000000000003,0.66901,-0.298355,-0.27773000000000003,0.90835,-0.375395,0.30325,0.9099299999999999,-0.339585,-0.06622,-0.001980000000000093,0.0005050000000000054,0.06622,0.0019799999999999818,-0.0005049999999999916,-0.22985,0.0017800000000000038,-0.324075,0.24109,-0.0013000000000000789,-0.31649499999999997,-0.20504999999999998,-0.32515000000000005,-0.233905,0.2199,-0.32614,-0.22086499999999998
110,-0.0022215000000000047,0.6382,-0.173878,-0.1366545,0.449699,-0.19741,-0.2468545,0.68264,-0.319565,0.13326549999999998,0.46667600000000004,-0.203569,0.26179549999999996,0.67752,-0.293245,-0.28023450000000005,0.91543,-0.369155,0.3030055,0.92318,-0.332345,-0.0664775,-0.0021299999999999653,0.0002849999999999936,0.0664775,0.0021300000000000208,-0.0002849999999999936,-0.2301645,-0.01658000000000004,-0.322885,0.2396255,-0.018159999999999954,-0.313925,-0.2071945,-0.34692999999999996,-0.23629499999999998,0.2194955,-0.34948999999999997,-0.223485
111,-0.0042235000000000016,0.644505,-0.168453,-0.13779750000000002,0.454059,-0.193803,-0.24888749999999998,0.687065,-0.313655,0.1318625,0.46728000000000003,-0.199521,0.2601925,0.682805,-0.28639499999999996,-0.2826975,0.9198850000000001,-0.36161499999999996,0.30242250000000004,0.9305950000000001,-0.324175,-0.0667215,-0.0018549999999999955,0.00021500000000000685,0.0667215,0.0018549999999999955,-0.00021499999999999297,-0.22933750000000003,-0.03757499999999997,-0.31960500000000003,0.2382225,-0.03784500000000002,-0.31003499999999995,-0.2089975,-0.37188499999999997,-0.23796499999999998,0.2181225,-0.37674499999999994,-0.22524499999999997
112,-0.0061685,0.651225,-0.160823,-0.1392495,0.458824,-0.18858799999999998,-0.2508395,0.692035,-0.30552,0.1310805,0.47105600000000003,-0.193448,0.2591905,0.692035,-0.27720999999999996,-0.2850495,0.923925,-0.35267,0.3017105,0.936365,-0.31362,-0.0670235,-0.0019449999999999745,0.00021000000000000185,0.0670235,0.00194500000000003,-0.00021000000000000185,-0.2277795,-0.055105000000000015,-0.3143,0.2368405,-0.05313499999999999,-0.30282,-0.2106495,-0.39398500000000003,-0.23865999999999998,0.2178905,-0.40029499999999996,-0.22544
113,-0.008504999999999999,0.656725,-0.152383,-0.141105,0.46279899999999996,-0.182925,-0.253155,0.6967049999999999,-0.29615,0.129755,0.47425399999999995,-0.187245,0.25782499999999997,0.698485,-0.26782,-0.288015,0.923195,-0.3432,0.300785,0.942725,-0.30291999999999997,-0.067316,-0.002275000000000027,0.00020999999999998797,0.067316,0.0022749999999999715,-0.00021000000000000185,-0.225895,-0.073345,-0.3085,0.234615,-0.069635,-0.29534000000000005,-0.212575,-0.41722500000000007,-0.23915,0.217365,-0.42540500000000003,-0.22545
114,-0.0108095,0.661045,-0.14298,-0.14262149999999998,0.46700400000000003,-0.17729899999999998,-0.2555215,0.705355,-0.2858,0.1281785,0.476335,-0.181604,0.2563885,0.709165,-0.25757,-0.2907515,0.9299550000000001,-0.33004,0.3000485,0.949605,-0.29003,-0.0675855,-0.0022949999999999915,0.00021000000000000185,0.0675855,0.0022949999999999915,-0.00021000000000000185,-0.2234015,-0.089505,-0.30271,0.23179850000000002,-0.08370499999999997,-0.28797,-0.2142615,-0.43839500000000003,-0.23934,0.21686850000000002,-0.44932500000000003,-0.22541
115,-0.012521499999999998,0.661425,-0.132447,-0.1434775,0.471055,-0.17007,-0.2572875,0.7111050000000001,-0.27463000000000004,0.1273125,0.48226500000000005,-0.173692,0.2553325,0.719095,-0.24669000000000002,-0.2937275,0.935065,-0.31604,0.3003825,0.957155,-0.27661,-0.0676385,-0.002444999999999975,-1.0000000000010001e-05,0.0676385,0.0024450000000000305,9.999999999996123e-06,-0.2202975,-0.10833499999999996,-0.29639000000000004,0.2282825,-0.09946499999999997,-0.27964,-0.2152575,-0.46365499999999993,-0.23887,0.2161725,-0.47499499999999995,-0.2249
116,-0.013719500000000003,0.665645,-0.120982,-0.14408749999999998,0.47775500000000004,-0.161533,-0.2588575,0.7183250000000001,-0.261965,0.12669249999999999,0.48941500000000004,-0.16487600000000002,0.2543625,0.728025,-0.235265,-0.2959775,0.9421750000000001,-0.301105,0.3005425,0.9674550000000001,-0.261035,-0.0675935,-0.0024949999999999695,-0.00026500000000000135,0.0675935,0.002495000000000025,0.00026500000000000135,-0.21645750000000002,-0.12463499999999994,-0.288675,0.22476249999999998,-0.11465499999999995,-0.270675,-0.21584750000000003,-0.48765499999999995,-0.237605,0.21610249999999998,-0.500165,-0.224145
117,-0.014883499999999997,0.66814,-0.10961099999999999,-0.14481449999999998,0.48127999999999993,-0.153565,-0.2603245,0.72377,-0.248495,0.1260155,0.49407,-0.15642399999999998,0.2534455,0.7346999999999999,-0.223045,-0.2979545,0.94794,-0.283555,0.3005655,0.9727899999999999,-0.247465,-0.0676945,-0.0023900000000000032,-0.0004949999999999954,0.0676945,0.0023899999999999477,0.0004950000000000093,-0.21302449999999998,-0.13762000000000002,-0.28085499999999997,0.22092550000000002,-0.12715000000000004,-0.262005,-0.2164845,-0.50763,-0.23560499999999998,0.2154655,-0.52131,-0.22214499999999998
118,-0.015743000000000004,0.6750849999999999,-0.098025,-0.145426,0.484875,-0.14374900000000002,-0.26063600000000003,0.730315,-0.234005,0.125794,0.498145,-0.145761,0.253054,0.739855,-0.21035500000000001,-0.299146,0.954505,-0.265955,0.301174,0.9766050000000001,-0.234105,-0.067717,-0.001994999999999969,-0.0004149999999999987,0.067717,0.0019950000000000245,0.0004149999999999987,-0.209176,-0.151055,-0.272125,0.216754,-0.140295,-0.25278500000000004,-0.21673599999999998,-0.5276649999999999,-0.231905,0.21521400000000002,-0.543435,-0.218435
119,-0.016277499999999997,0.67858,-0.0859655,-0.1457155,0.48575999999999997,-0.1343575,-0.2612555,0.73083,-0.22043249999999998,0.12602449999999998,0.50146,-0.1351905,0.2528245,0.74341,-0.19782450000000001,-0.30061550000000004,0.95484,-0.2497925,0.30226450000000005,0.97399,-0.2219425,-0.0677175,-0.0017699999999999938,-0.0002974999999999922,0.0677175,0.0017699999999999938,0.0002975000000000061,-0.2050455,-0.16419000000000003,-0.2630925,0.2128045,-0.15286000000000002,-0.2438125,-0.2167555,-0.54746,-0.2278025,0.2151845,-0.56539,-0.2141525
120,-0.016699,0.67954,-0.073398,-0.14596,0.48573,-0.124154,-0.26173,0.7310300000000001,-0.205409,0.12714999999999999,0.50761,-0.122741,0.25254,0.74912,-0.184287,-0.30203,0.9551400000000001,-0.232499,0.30365,0.97695,-0.207229,-0.067718,-0.0017399999999999916,-0.00028700000000000947,0.067718,0.0017400000000000193,0.0002869999999999956,-0.20066,-0.17665999999999998,-0.252359,0.20756,-0.16437999999999997,-0.23280900000000002,-0.21643,-0.5676300000000001,-0.222529,0.21508,-0.5851599999999999,-0.209099
121,-0.016846,0.67811,-0.061158500000000005,-0.14649800000000002,0.48419,-0.11481050000000001,-0.26179800000000003,0.7297899999999999,-0.19085950000000002,0.128202,0.5112300000000001,-0.1112755,0.252712,0.7532699999999999,-0.1720485,-0.303008,0.9549700000000001,-0.2164945,0.305772,0.9803599999999999,-0.1938645,-0.067674,-0.001689999999999997,-0.0001784999999999981,0.067674,0.001689999999999997,0.0001784999999999981,-0.195688,-0.18675000000000003,-0.2413745,0.20305199999999998,-0.17672,-0.2236145,-0.215618,-0.5875900000000001,-0.21670450000000002,0.214962,-0.60355,-0.2043945
122,-0.016479,0.678365,-0.048636,-0.146715,0.484165,-0.104838,-0.261465,0.7331449999999999,-0.176336,0.129435,0.515625,-0.099803,0.253585,0.754845,-0.159253,-0.303305,0.9582849999999999,-0.19971,0.307775,0.981635,-0.179437,-0.067838,-0.0012950000000000184,-8.999999999995123e-06,0.067838,0.0012949999999999906,8.999999999995123e-06,-0.19065500000000002,-0.196395,-0.23026000000000002,0.198175,-0.18822500000000003,-0.21353,-0.214375,-0.605965,-0.21039,0.214055,-0.6201450000000001,-0.19769
123,-0.016067,0.6791100000000001,-0.036957500000000004,-0.147017,0.48426,-0.0947915,-0.26099700000000003,0.7316400000000001,-0.1627105,0.130713,0.52105,-0.0880025,0.254203,0.75386,-0.1466985,-0.303427,0.95669,-0.1854745,0.309843,0.97838,-0.1666105,-0.06791,-0.0010799999999999976,0.0001265000000000016,0.06791,0.0010800000000000254,-0.0001265000000000016,-0.186047,-0.21253,-0.2191445,0.192973,-0.20546999999999999,-0.20332450000000002,-0.212987,-0.62365,-0.20343450000000002,0.212613,-0.6363300000000001,-0.1900945
124,-0.01576,0.681705,-0.026384500000000005,-0.147069,0.48368500000000003,-0.0861905,-0.260589,0.733045,-0.1499255,0.131851,0.521205,-0.07873150000000001,0.254621,0.756425,-0.1341435,-0.303439,0.9580649999999999,-0.1708735,0.312261,0.980155,-0.1542775,-0.067954,-0.0005549999999999999,0.0003024999999999972,0.067954,0.0005549999999999999,-0.0003025000000000111,-0.181569,-0.225125,-0.2082175,0.187831,-0.22061500000000003,-0.1937975,-0.211619,-0.637175,-0.19658750000000003,0.210361,-0.650605,-0.1822375
125,-0.015419999999999996,0.679935,-0.016666000000000007,-0.147362,0.48521499999999995,-0.07671900000000001,-0.260262,0.7320949999999999,-0.138366,0.132998,0.5213949999999999,-0.069618,0.255268,0.759245,-0.122133,-0.303122,0.957185,-0.15671200000000002,0.314898,0.979305,-0.143752,-0.067937,-0.00015500000000000236,0.0004259999999999958,0.067937,0.00015500000000000236,-0.0004260000000000097,-0.17710199999999998,-0.23920500000000003,-0.197713,0.182028,-0.235625,-0.183673,-0.209972,-0.6515150000000001,-0.18923299999999998,0.207838,-0.664535,-0.173994
126,-0.015230499999999998,0.6812910000000001,-0.0021165000000000073,-0.1478255,0.486741,-0.06049650000000001,-0.2594455,0.726101,-0.1215485,0.1337545,0.521131,-0.05400950000000001,0.2557845,0.757221,-0.10433150000000001,-0.3024155,0.950921,-0.1380375,0.3173745,0.975701,-0.12487050000000001,-0.0678595,-0.0002370000000000011,0.0004804999999999948,0.0678595,0.0002370000000000011,-0.0004805000000000087,-0.1699255,-0.257239,-0.1785055,0.1743945,-0.254739,-0.1659445,-0.20713549999999997,-0.6696789999999999,-0.1742855,0.20477450000000003,-0.682009,-0.15964850000000003
127,-0.014898499999999999,0.6781495000000001,0.011745000000000005,-0.1481705,0.4861995,-0.046279,-0.25866049999999996,0.7218395000000001,-0.10558999999999999,0.1344695,0.5173195,-0.041385,0.2564895,0.7565995000000001,-0.08816399999999999,-0.3016405,0.9464795,-0.121244,0.31970950000000004,0.9747795,-0.106531,-0.06797249999999999,-0.0003635000000000027,0.00036699999999999927,0.06797249999999999,0.0003635000000000027,-0.00036699999999999927,-0.1631305,-0.27255050000000003,-0.16036499999999998,0.1678095,-0.27084050000000004,-0.149616,-0.2044205,-0.6847504999999999,-0.159895,0.2014895,-0.6954705,-0.145789
128,-0.014578500000000001,0.674519,0.02484349999999999,-0.14850750000000001,0.485979,-0.03220250000000001,-0.25796749999999996,0.7172689999999999,-0.0900085,0.1349225,0.513949,-0.028856500000000004,0.2574925,0.756149,-0.07215450000000001,-0.3008475,0.9415089999999999,-0.1043125,0.3219225,0.9741789999999999,-0.0886225,-0.06811049999999999,-0.0005450000000000038,0.0002994999999999942,0.06811049999999999,0.0005450000000000038,-0.00029950000000000115,-0.15669750000000002,-0.286861,-0.14266050000000002,0.16127249999999999,-0.28601099999999996,-0.1333115,-0.20190750000000002,-0.6992010000000001,-0.1453815,0.19851249999999998,-0.7079310000000001,-0.13227250000000002
129,-0.014278499999999996,0.674762,0.036296999999999996,-0.1487075,0.489112,-0.019783000000000005,-0.25714750000000003,0.716792,-0.07622500000000001,0.1350425,0.510242,-0.019282000000000007,0.25854249999999995,0.756202,-0.05783100000000001,-0.3008275,0.940642,-0.088856,0.3243625,0.973742,-0.07331300000000002,-0.0682295,-0.0005510000000000029,0.00016999999999999654,0.0682295,0.0005510000000000029,-0.00017000000000000348,-0.1508475,-0.295658,-0.12705,0.1561225,-0.295518,-0.11977600000000001,-0.1996575,-0.708548,-0.13214,0.1955025,-0.716838,-0.119578
130,-0.014107499999999999,0.675404,0.0472355,-0.1489385,0.49225399999999997,-0.007147499999999998,-0.2562885,0.716964,-0.0631495,0.13507149999999998,0.506484,-0.009781499999999999,0.2593415,0.7564540000000001,-0.043228499999999996,-0.3000985,0.9394840000000001,-0.0728345,0.32660150000000004,0.9735240000000001,-0.0572885,-0.06840450000000001,-0.0005669999999999981,9.35000000000033e-05,0.06840450000000001,0.0005669999999999981,-9.349999999999636e-05,-0.1458685,-0.303756,-0.1121495,0.1508515,-0.304996,-0.10602349999999999,-0.1976385,-0.7172759999999999,-0.11934349999999999,0.1923415,-0.725066,-0.1065815
131,-0.014037999999999998,0.6755965,0.0564105,-0.14932800000000002,0.4934965,0.0039334999999999995,-0.255568,0.7113965,-0.0516465,0.134932,0.5029565,-0.0009874999999999988,0.260132,0.7574565,-0.030304499999999998,-0.299628,0.9339665,-0.0579215,0.328722,0.9739565,-0.0410045,-0.06856799999999999,-0.0008514999999999981,0.00011850000000000055,0.06856799999999999,0.0008514999999999981,-0.00011850000000000055,-0.14141800000000002,-0.3111735,-0.0982795,0.146292,-0.31414349999999996,-0.0935075,-0.195808,-0.7245834999999999,-0.1067825,0.190032,-0.7318534999999999,-0.0955855
132,-0.013772500000000003,0.675842,0.0651095,-0.1495225,0.495042,0.014882499999999996,-0.2546425,0.706412,-0.0402065,0.13487749999999998,0.499272,0.007529499999999998,0.2610575,0.759132,-0.0180215,-0.2992925,0.9287120000000001,-0.0435925,0.3305475,0.9751120000000001,-0.0260815,-0.0685685,-0.0011590000000000003,0.0002004999999999993,0.0685685,0.0011590000000000003,-0.0002004999999999993,-0.1370325,-0.320258,-0.0847955,0.1424875,-0.324948,-0.0814485,-0.1939225,-0.7310979999999999,-0.0945645,0.1881975,-0.7383679999999999,-0.0851085
133,-0.013504500000000003,0.676661,0.07348,-0.1496755,0.49650099999999997,0.025411000000000003,-0.2543455,0.701931,-0.028767,0.1347645,0.496011,0.015894,0.2619045,0.756531,-0.0069500000000000004,-0.29926549999999996,0.923871,-0.029658999999999998,0.3311645,0.972441,-0.010941000000000001,-0.0686295,-0.0014700000000000026,0.000307,0.0686295,0.001469999999999999,-0.000307,-0.1329955,-0.331379,-0.07175100000000001,0.1391745,-0.33592900000000003,-0.069943,-0.1921655,-0.7376790000000001,-0.082318,0.1869145,-0.744869,-0.07523099999999999
134,-0.013822500000000001,0.6781245,0.081679,-0.1504035,0.49491450000000003,0.034431,-0.2540135,0.6979945,-0.017654,0.1340465,0.4933145,0.024118,0.26215649999999996,0.7548745,0.004111,-0.29967350000000004,0.9194845,-0.016227,0.33082649999999997,0.9706745,0.0039299999999999995,-0.06876449999999999,-0.0018834999999999998,0.00049,0.06876449999999999,0.0018834999999999998,-0.00049,-0.1300835,-0.3417655,-0.05935,0.1361065,-0.34606549999999997,-0.059206999999999996,-0.19127349999999999,-0.7433655,-0.07087,0.1853065,-0.7505355,-0.065871
135,-0.013933000000000001,0.6778175,0.0845515,-0.15099100000000001,0.4946275,0.036977499999999996,-0.253681,0.6983575,-0.0121805,0.133469,0.4930175,0.025882500000000003,0.262289,0.7572274999999999,0.0084765,-0.300101,0.9193574999999999,-0.009461500000000001,0.330639,0.9728975,0.0109895,-0.068743,-0.0018854999999999983,0.0006724999999999995,0.068743,0.0018855000000000018,-0.0006724999999999999,-0.13007100000000002,-0.34265249999999997,-0.0561095,0.13519899999999999,-0.3469325,-0.0564285,-0.19157100000000002,-0.7444225,-0.0673115,0.184189,-0.7514525000000001,-0.06258949999999999
136,-0.013921000000000003,0.677597,0.0873005,-0.15146500000000002,0.494407,0.0394445,-0.253265,0.698157,-0.0072715,0.133045,0.493207,0.0275895,0.261785,0.759027,0.0129095,-0.300615,0.919137,-0.0027635000000000003,0.330545,0.974237,0.0180075,-0.06869800000000001,-0.0018809999999999973,0.0008124999999999999,0.06869800000000001,0.0018810000000000007,-0.0008125000000000003,-0.13001500000000002,-0.343423,-0.0530575,0.134385,-0.347623,-0.0537355,-0.19179500000000002,-0.744373,-0.06401749999999999,0.18323499999999998,-0.751863,-0.0596195
137,-0.013822500000000001,0.6774020000000001,0.0899845,-0.1514915,0.494212,0.0418605,-0.2527415,0.697972,-0.0026095,0.13268850000000001,0.493942,0.0292535,0.2613185,0.7606820000000001,0.0167455,-0.3010615,0.9189419999999999,0.0033625,0.3303685,0.9752620000000001,0.0248665,-0.06865550000000001,-0.0018519999999999995,0.0009645000000000001,0.06865550000000001,0.001852000000000003,-0.0009645,-0.1300315,-0.344138,-0.0503695,0.1336585,-0.348198,-0.0512015,-0.1920415,-0.7447680000000001,-0.0612745,0.1824185,-0.7520579999999999,-0.0569765
138,-0.013661499999999993,0.6770095,0.0924775,-0.1514755,0.49366950000000004,0.0443065,-0.2522455,0.6977295,0.0017505,0.1324845,0.4936995,0.0309235,0.26111449999999997,0.7617395,0.020045499999999997,-0.3016255,0.9186995,0.0091125,0.3299545,0.9761095000000001,0.031675499999999995,-0.0685985,-0.0018184999999999972,0.0011034999999999999,0.0685985,0.0018185000000000007,-0.0011034999999999999,-0.1301755,-0.3443805,-0.0482335,0.1329745,-0.3486205,-0.0488445,-0.1922855,-0.7451105,-0.0587135,0.1816645,-0.7519305,-0.054629500000000004
139,-0.013506500000000005,0.6762465,0.0948655,-0.1515235,0.4931765,0.0465065,-0.2518935,0.6972065000000001,0.0057845,0.1323665,0.4934265,0.033148500000000004,0.2607665,0.7624065,0.0232305,-0.3020935,0.9177264999999999,0.014418499999999999,0.3294765,0.9765865,0.0377355,-0.0685385,-0.0017654999999999997,0.0011935,0.0685385,0.0017654999999999997,-0.0011935,-0.1304035,-0.3446535,-0.0464275,0.13229649999999998,-0.3490335,-0.0467705,-0.1923635,-0.7454035000000001,-0.0564125,0.18094649999999998,-0.7516735000000001,-0.052477499999999996
140,-0.013443,0.675078,0.0972505,-0.15162399999999998,0.492738,0.0485805,-0.25164400000000003,0.696688,0.0095915,0.13242600000000002,0.493128,0.0359095,0.26029599999999997,0.762848,0.0262815,-0.303134,0.916688,0.0194015,0.328596,0.976928,0.0421275,-0.06844900000000001,-0.001731,0.0011975,0.06844900000000001,0.001731,-0.0011974999999999998,-0.130704,-0.344952,-0.0449165,0.13162600000000002,-0.349472,-0.045075500000000004,-0.192544,-0.745542,-0.0546035,0.180186,-0.751812,-0.0506105
141,-0.013410499999999995,0.6738529999999999,0.0994925,-0.15175750000000002,0.49239299999999997,0.0504995,-0.2515375,0.696213,0.013216499999999999,0.1326425,0.493143,0.038858500000000004,0.25978249999999997,0.763123,0.0291645,-0.3044875,0.9156529999999999,0.0240515,0.3280225,0.977183,0.0462185,-0.06836149999999999,-0.0017099999999999997,0.0011214999999999997,0.06836149999999999,0.0017099999999999997,-0.0011215,-0.1310275,-0.345577,-0.0437025,0.1309825,-0.34981700000000004,-0.043761499999999995,-0.1927775,-0.7455470000000001,-0.052976499999999996,0.1794525,-0.751827,-0.049125499999999996
142,-0.013534499999999994,0.6726215,0.101655,-0.15193849999999998,0.49182149999999997,0.052346,-0.2515085,0.6961015,0.016624,0.1327615,0.4934015,0.041843,0.2591715,0.7634915,0.031914,-0.3060585,0.9154815,0.027899,0.3271115,0.9774714999999999,0.050013,-0.06826750000000001,-0.001690500000000001,0.000974,0.06826750000000001,0.0016904999999999993,-0.000974,-0.1313985,-0.3462285,-0.042712,0.1302915,-0.35015850000000004,-0.042633000000000004,-0.19320849999999998,-0.7458585,-0.051572,0.1786115,-0.7519085,-0.047816000000000004
143,-0.013745500000000004,0.67138,0.103597,-0.1521855,0.49118,0.054023,-0.2515855,0.6960999999999999,0.019809,0.1328945,0.49395,0.04488,0.25850449999999997,0.7638499999999999,0.034599,-0.3076255,0.9153899999999999,0.031694,0.3260145,0.97783,0.053578,-0.0681775,-0.0016730000000000009,0.0007619999999999997,0.0681775,0.0016730000000000009,-0.0007620000000000005,-0.1317955,-0.34692999999999996,-0.041853,0.1295545,-0.35041,-0.041747000000000006,-0.1936455,-0.74565,-0.050254999999999994,0.1777445,-0.7521,-0.046576000000000006
144,-0.014066500000000001,0.6708725,0.1048805,-0.1524695,0.4907625,0.0551755,-0.2518395,0.6961925,0.0221295,0.1330305,0.49467249999999996,0.0476115,0.2578105,0.7642225,0.0366875,-0.3089095,0.9153725,0.0347085,0.3249305,0.9781625,0.0562835,-0.0681105,-0.0016404999999999996,0.0005465000000000001,0.0681105,0.0016404999999999996,-0.0005465000000000001,-0.1321995,-0.3471175,-0.041177500000000006,0.1287805,-0.3505075,-0.04105350000000001,-0.1940795,-0.7451274999999999,-0.049145499999999995,0.1768405,-0.7523475,-0.0456095
145,-0.014495000000000003,0.6704289999999999,0.1060355,-0.15288600000000002,0.49041900000000005,0.0562745,-0.251706,0.6981689999999999,0.0267525,0.133154,0.495559,0.0503295,0.25707399999999997,0.764639,0.0385965,-0.309986,0.916509,0.0403495,0.323854,0.978569,0.0587385,-0.068044,-0.0016170000000000004,0.00034049999999999966,0.068044,0.0016170000000000004,-0.00034049999999999966,-0.132586,-0.34728099999999995,-0.0405185,0.12795399999999998,-0.350541,-0.0403935,-0.19451600000000002,-0.7444310000000001,-0.0480955,0.175904,-0.752471,-0.0446395
146,-0.015021,0.670257,0.107077,-0.153358,0.490277,0.057298,-0.251738,0.700107,0.031233999999999998,0.13326200000000002,0.49667700000000004,0.052957000000000004,0.256282,0.764737,0.040438,-0.310898,0.917687,0.046417,0.322952,0.978557,0.061385,-0.06798599999999999,-0.001582,0.00010600000000000019,0.06798599999999999,0.0015820000000000018,-0.00010600000000000019,-0.13297799999999999,-0.347253,-0.03998,0.127032,-0.35051299999999996,-0.039802,-0.195128,-0.743283,-0.047184,0.174922,-0.752773,-0.04384
147,-0.015544000000000004,0.669692,0.1079755,-0.15378799999999998,0.489692,0.0580945,-0.251738,0.7019519999999999,0.035514500000000004,0.133392,0.497992,0.0554105,0.25558200000000003,0.7645019999999999,0.0420955,-0.311758,0.918962,0.0521245,0.322112,0.9782919999999999,0.0635935,-0.067937,-0.0015399999999999997,-9.150000000000044e-05,0.067937,0.0015399999999999997,9.149999999999957e-05,-0.13335799999999998,-0.347648,-0.0395455,0.12618200000000002,-0.350808,-0.0393335,-0.19591799999999998,-0.742498,-0.046656500000000004,0.17397200000000002,-0.752888,-0.0431625
148,-0.016056000000000004,0.669166,0.1086265,-0.154182,0.48908599999999997,0.0587955,-0.251622,0.703806,0.0397185,0.13347799999999999,0.498886,0.0572615,0.25494799999999995,0.764196,0.0435375,-0.31255200000000005,0.920296,0.057589499999999995,0.321338,0.977986,0.0657235,-0.067886,-0.0015000000000000013,-0.00027250000000000017,0.067886,0.0014999999999999996,0.0002724999999999993,-0.133712,-0.348094,-0.0391875,0.12539799999999998,-0.35111400000000004,-0.0389455,-0.196682,-0.7428039999999999,-0.046235500000000006,0.173138,-0.7531439999999999,-0.0426655
149,-0.016279,0.668498,0.10900950000000001,-0.154328,0.488388,0.0593785,-0.251108,0.705758,0.0438755,0.133862,0.499368,0.058826500000000004,0.254282,0.7639779999999999,0.04439749999999999,-0.31285799999999997,0.921818,0.0628455,0.32037200000000005,0.977768,0.0668565,-0.06787299999999999,-0.0014970000000000018,-0.00038950000000000096,0.06787299999999999,0.001497,0.0003894999999999992,-0.133998,-0.34867200000000004,-0.038943500000000006,0.124662,-0.35133200000000003,-0.038697499999999996,-0.197348,-0.7426820000000001,-0.0458625,0.172132,-0.753332,-0.0422565
150,-0.016502499999999996,0.6679094999999999,0.1093865,-0.1544315,0.48771950000000003,0.059922500000000004,-0.2504615,0.7076695,0.0479145,0.13415849999999999,0.4996895,0.0602055,0.2540585,0.7637894999999999,0.0453055,-0.3126715,0.9233794999999999,0.0678725,0.3194985,0.9775594999999999,0.0684055,-0.06785050000000001,-0.0015115000000000024,-0.0004585000000000006,0.06785050000000001,0.001511499999999999,0.0004585000000000006,-0.1342715,-0.3491505,-0.0387135,0.12399850000000001,-0.35153049999999997,-0.038482499999999996,-0.1979415,-0.7427705,-0.0454955,0.1711985,-0.7535205,-0.0418915
151,-0.016668500000000003,0.667334,0.1097,-0.1544565,0.487124,0.060366,-0.2496565,0.7096439999999999,0.051835000000000006,0.1346535,0.500204,0.061630000000000004,0.2539535,0.7635139999999999,0.045989,-0.3121165,0.925064,0.072608,0.3188935,0.977254,0.069618,-0.0678115,-0.0015490000000000018,-0.000503,0.0678115,0.001549,0.000503,-0.13454649999999999,-0.34959599999999996,-0.038548,0.1234535,-0.351716,-0.038335999999999995,-0.1988365,-0.743616,-0.045357999999999996,0.1704035,-0.753916,-0.041580000000000006
152,-0.016732,0.6667514999999999,0.1099965,-0.154371,0.4866215,0.0607565,-0.24871100000000002,0.7116515,0.0555635,0.13524899999999998,0.5006915,0.0629305,0.254019,0.7623915,0.046449500000000005,-0.311251,0.9268215,0.0769515,0.318489,0.9761515,0.0705325,-0.06776399999999999,-0.0015744999999999995,-0.0005024999999999995,0.06776399999999999,0.0015744999999999995,0.0005025000000000012,-0.134751,-0.3499385,-0.038392499999999996,0.123059,-0.3518985,-0.038225499999999996,-0.199491,-0.7440885,-0.0452705,0.169799,-0.7543685,-0.041285499999999996
153,-0.016686,0.666196,0.11017099999999999,-0.154196,0.486186,0.061117000000000005,-0.247636,0.713816,0.05914,0.13591399999999998,0.501166,0.064197,0.254164,0.761286,0.046818,-0.310146,0.9286559999999999,0.08119799999999999,0.31825400000000004,0.975036,0.071359,-0.06769900000000001,-0.0016000000000000007,-0.0004809999999999988,0.06769900000000001,0.0016000000000000007,0.0004810000000000005,-0.134916,-0.350154,-0.038269,0.122774,-0.35211400000000004,-0.038123000000000004,-0.19981600000000002,-0.743534,-0.045195,0.169324,-0.754804,-0.040999999999999995
154,-0.016633499999999996,0.6656725,0.1101955,-0.15392650000000002,0.4858225,0.0614435,-0.24695650000000002,0.7138425,0.060075500000000004,0.13664350000000003,0.5016425,0.0654465,0.25442349999999997,0.7602725,0.047162499999999996,-0.3088365,0.9286925,0.0825105,0.3182135,0.9739925,0.0720385,-0.0676315,-0.0016334999999999995,-0.00041550000000000094,0.0676315,0.0016335000000000013,0.0004154999999999992,-0.1349865,-0.3503375,-0.0381305,0.12257350000000002,-0.3523375,-0.0380335,-0.20022649999999997,-0.7432875,-0.045106499999999994,0.16895349999999998,-0.7551475,-0.04069350000000001
155,-0.016585999999999997,0.6651199999999999,0.110022,-0.15365299999999998,0.48548,0.061744999999999994,-0.246263,0.7138599999999999,0.060838,0.13738699999999998,0.5020899999999999,0.066655,0.254697,0.75926,0.047464000000000006,-0.30755299999999997,0.9287399999999999,0.083079,0.318267,0.97296,0.072601,-0.067617,-0.001693,-0.0003039999999999987,0.067617,0.0016930000000000018,0.00030400000000000045,-0.13500299999999998,-0.3505,-0.038021,0.12241700000000001,-0.35261,-0.03794,-0.20060299999999998,-0.7434099999999999,-0.045126,0.168597,-0.7553700000000001,-0.040566000000000005
156,-0.016571000000000002,0.6645415,0.1096255,-0.153395,0.4852015,0.062087500000000004,-0.245585,0.7138415,0.06152149999999999,0.138135,0.5025015,0.0678555,0.254975,0.7582715,0.047784499999999994,-0.306295,0.9287615,0.0836055,0.318355,0.9719215,0.0729245,-0.067618,-0.0017525000000000006,-0.00016550000000000072,0.067618,0.0017524999999999989,0.00016549999999999898,-0.135005,-0.3506585,-0.037942500000000004,0.122245,-0.3529085,-0.037837499999999996,-0.20098500000000002,-0.7431785,-0.045130500000000004,0.168275,-0.7556585,-0.04040150000000001
157,-0.016568000000000003,0.663967,0.10910700000000001,-0.15320699999999998,0.484977,0.062546,-0.245587,0.713527,0.061917,0.138843,0.502867,0.069084,0.255253,0.757317,0.048060000000000005,-0.305127,0.9285570000000001,0.084009,0.318463,0.970917,0.073329,-0.067619,-0.0018180000000000002,-1.000000000001e-06,0.067619,0.001818000000000002,9.999999999992654e-07,-0.135077,-0.35083299999999995,-0.037808999999999995,0.12205300000000001,-0.353233,-0.03769599999999999,-0.20131700000000002,-0.743603,-0.045013,0.16796299999999997,-0.7560629999999999,-0.040148
158,-0.016497,0.6636705,0.10851050000000001,-0.153143,0.4848005,0.0630175,-0.24552300000000002,0.7132005,0.0623095,0.139187,0.5032305,0.0699245,0.25555700000000003,0.7567605000000001,0.0482125,-0.30432299999999995,0.9283705,0.0844055,0.318817,0.9704105,0.07346649999999999,-0.067553,-0.0018685000000000004,0.00015850000000000065,0.067553,0.0018685000000000004,-0.00015849999999999892,-0.135163,-0.3510095,-0.0376465,0.12203699999999998,-0.3534395,-0.0374755,-0.201693,-0.7450195,-0.0450015,0.168007,-0.7562595,-0.0398315
159,-0.016359000000000002,0.6634335,0.107824,-0.15301199999999998,0.48456350000000004,0.06346,-0.245392,0.7128034999999999,0.062757,0.13950800000000002,0.5034635,0.070523,0.255688,0.7555835,0.048311999999999994,-0.30370199999999997,0.9280335,0.084856,0.318948,0.9693335,0.07353900000000001,-0.067466,-0.0019334999999999995,0.00032000000000000084,0.067466,0.0019334999999999995,-0.0003199999999999991,-0.13514199999999998,-0.35118649999999996,-0.037489999999999996,0.12214799999999999,-0.3536765,-0.037176,-0.201932,-0.7457265000000001,-0.044556,0.168138,-0.7564965,-0.039384
160,-0.016204500000000004,0.6631725,0.10716400000000001,-0.1528385,0.4843025,0.063849,-0.2455085,0.7109925,0.060991000000000004,0.1397715,0.5034725,0.070947,0.25587150000000003,0.7553225,0.048303,-0.30312849999999997,0.9267025,0.08292200000000001,0.3191315,0.9690725,0.073403,-0.06738050000000001,-0.0019955000000000007,0.000504000000000001,0.06738050000000001,0.001995499999999999,-0.0005039999999999992,-0.1350785,-0.3513575,-0.037351999999999996,0.1223215,-0.3539375,-0.03690399999999999,-0.2020185,-0.7463175,-0.04413399999999999,0.1683115,-0.7567575,-0.038959999999999995
161,-0.016326500000000008,0.662798,0.1064575,-0.15267550000000002,0.484138,0.0642045,-0.2459555,0.7092879999999999,0.0591035,0.1400045,0.503308,0.0714245,0.2553745,0.754948,0.048494499999999996,-0.3025655,0.925438,0.08083649999999999,0.3188545,0.968698,0.0733475,-0.0673015,-0.0020529999999999993,0.0006665000000000004,0.0673015,0.0020529999999999993,-0.0006665000000000004,-0.1350055,-0.351372,-0.0371585,0.12250449999999999,-0.354282,-0.03658550000000001,-0.20193550000000002,-0.746692,-0.0436565,0.1685245,-0.7570920000000001,-0.0385095
162,-0.016576500000000004,0.6623125000000001,0.10537200000000001,-0.1518485,0.4836125,0.063896,-0.2429285,0.7130425,0.064376,0.1403215,0.5032325,0.072272,0.25625149999999997,0.7545725000000001,0.048743999999999996,-0.3019985,0.9286125000000001,0.086135,0.3198215,0.9683725000000001,0.073463,-0.0672195,-0.0021364999999999995,0.0008959999999999992,0.0672195,0.0021365000000000012,-0.000896000000000001,-0.1352485,-0.35123750000000004,-0.037075,0.1223315,-0.3543675,-0.03644,-0.20056849999999998,-0.7373274999999999,-0.043334,0.16857149999999999,-0.7572574999999999,-0.038285
163,-0.0164295,0.6616464999999999,0.104706,-0.1519665,0.4836265,0.065079,-0.2425165,0.7126965,0.065041,0.1408035,0.5027665,0.073012,0.25659350000000003,0.7545664999999999,0.048877,-0.30134649999999996,0.9283564999999999,0.086644,0.32020350000000003,0.9682364999999999,0.074273,-0.0671245,-0.0022274999999999986,0.001084,0.0671245,0.0022275000000000003,-0.001084,-0.1348765,-0.3509635,-0.037021,0.12267349999999999,-0.35515349999999996,-0.035942,-0.2009465,-0.7418535,-0.043148,0.16890349999999998,-0.7581435000000001,-0.037574
164,-0.0164365,0.661363,0.1045855,-0.1521665,0.483823,0.0656785,-0.25106649999999997,0.689493,0.0432675,0.1411335,0.502693,0.0732955,0.25681350000000003,0.754993,0.049271499999999996,-0.3002665,0.907743,0.0644365,0.3206335,0.968623,0.0744945,-0.0671145,-0.002202000000000001,0.0011405000000000009,0.0671145,0.002201999999999999,-0.0011404999999999992,-0.1348165,-0.351647,-0.036888500000000005,0.12286349999999999,-0.355597,-0.035864499999999994,-0.2026065,-0.754437,-0.0429335,0.1690835,-0.758707,-0.0373565
165,-0.016777999999999994,0.660808,0.1036745,-0.152282,0.483918,0.0665975,-0.250602,0.6888880000000001,0.0438145,0.14128800000000002,0.502238,0.0739185,0.25679799999999997,0.755168,0.049673499999999995,-0.299902,0.907128,0.0648775,0.320448,0.968878,0.0747145,-0.06711400000000001,-0.002078,0.0010045000000000002,0.06711400000000001,0.002078,-0.0010045000000000002,-0.13461199999999998,-0.351502,-0.0370525,0.12309800000000001,-0.356162,-0.035424500000000005,-0.20241199999999998,-0.754852,-0.0423335,0.169388,-0.758822,-0.0372265
166,-0.018042000000000006,0.659733,0.100379,-0.153064,0.483643,0.06631899999999999,-0.251164,0.6884330000000001,0.04235799999999999,0.140896,0.501883,0.07337099999999999,0.243726,0.7206330000000001,0.043767,-0.300554,0.906713,0.062789,0.308106,0.934763,0.065854,-0.067101,-0.002133,0.0008899999999999984,0.067101,0.0021330000000000003,-0.0008900000000000019,-0.13415400000000002,-0.35285700000000003,-0.035263,0.12367599999999998,-0.356167,-0.033999,-0.20200400000000002,-0.7579269999999999,-0.038681,0.170086,-0.757347,-0.034238000000000005
167,-0.0184475,0.6595415,0.099718,-0.15321749999999998,0.4836515,0.06689,-0.2512475,0.6884515,0.042335,0.1409225,0.5016815,0.073916,0.2505325,0.7517815,0.045691999999999997,-0.3003375,0.9068314999999999,0.062557,0.3167725,0.9646315,0.071026,-0.06708349999999999,-0.0020095,0.0006250000000000006,0.06708349999999999,0.0020095,-0.0006250000000000006,-0.1341975,-0.3529385,-0.035081,0.1237425,-0.3566485,-0.034143999999999994,-0.2018675,-0.7574185000000001,-0.038519,0.1705025,-0.7582185,-0.034435999999999994
168,-0.0187375,0.659042,0.09972,-0.1533695,0.48366200000000004,0.06758700000000001,-0.2513195,0.688492,0.042882,0.1411805,0.501122,0.07466500000000001,0.2509805,0.752232,0.046546000000000004,-0.3001695,0.9068620000000001,0.063522,0.3168605,0.965212,0.07171,-0.0670205,-0.002008,0.000623000000000002,0.0670205,0.002008,-0.0006229999999999986,-0.1340095,-0.353458,-0.034448,0.1238905,-0.356378,-0.033943,-0.20041949999999997,-0.7494379999999999,-0.036999,0.1706005,-0.757588,-0.033866
