sb224sc-HT22-VT27/4dt907/src/data/kinect_good_preprocessed_A9_mediapipe/A56_kinect_mirrored.csv
FrameNo,nose_3d_x,nose_3d_y,nose_3d_z,left_shoulder_3d_x,left_shoulder_3d_y,left_shoulder_3d_z,left_elbow_3d_x,left_elbow_3d_y,left_elbow_3d_z,right_shoulder_3d_x,right_shoulder_3d_y,right_shoulder_3d_z,right_elbow_3d_x,right_elbow_3d_y,right_elbow_3d_z,left_wrist_3d_x,left_wrist_3d_y,left_wrist_3d_z,right_wrist_3d_x,right_wrist_3d_y,right_wrist_3d_z,left_hip_3d_x,left_hip_3d_y,left_hip_3d_z,right_hip_3d_x,right_hip_3d_y,right_hip_3d_z,left_knee_3d_x,left_knee_3d_y,left_knee_3d_z,right_knee_3d_x,right_knee_3d_y,right_knee_3d_z,left_ankle_3d_x,left_ankle_3d_y,left_ankle_3d_z,right_ankle_3d_x,right_ankle_3d_y,right_ankle_3d_z
67,1.0065484999999998,0.6559515,0.0226815,0.8661985,0.4480515,-2.0499999999999905e-05,0.7775885,0.6526115,-0.0653925,1.1431385,0.4764115,0.0219655,1.2248585,0.6761115,-0.0472865,0.7093785,0.9113315,-0.1078945,1.2877385000000001,0.9340615,-0.0698815,0.9374085,-0.0009124999999999,-0.0036105,1.0625915,0.0009124999999999,0.0036105,0.8755585,-0.4772185,-0.0437015,1.1275685,-0.4596285,-0.0409395,0.8306685,-0.9301385,-0.0670935,1.1815985,-0.9210585,-0.0788715
68,1.006908,0.6554234999999999,0.0196819999999999,0.86609,0.4475235,-0.0014459999999999,0.7783800000000001,0.6511035000000001,-0.06639,1.14298,0.4759135,0.0204099999999999,1.22454,0.6769835,-0.04829,0.7099599999999999,0.9097935,-0.108896,1.2887,0.9342335000000002,-0.070877,0.937412,-0.0009134999999999,-0.003473,1.062588,0.0009134999999999,0.003473,0.87547,-0.4774565,-0.045388,1.12791,-0.4603165,-0.0423319999999999,0.8311100000000001,-0.9306665,-0.068093,1.18205,-0.9209265,-0.079476
69,1.0072875,0.654959,0.016353,0.8659265,0.4469489999999999,-0.0029159999999999,0.7792565,0.650459,-0.067645,1.1428465,0.475449,0.018631,1.2241465,0.676989,-0.049552,0.7106165,0.909129,-0.110146,1.2890865,0.934069,-0.072135,0.9374115000000001,-0.000902,-0.0033889999999999,1.0625885,0.000902,0.003389,0.8752865,-0.477601,-0.047373,1.1282965,-0.460771,-0.044125,0.8315665,-0.931271,-0.06935,1.1826165,-0.919441,-0.08002
70,1.007662,0.6545965,0.0125335,0.86571,0.4462865,-0.0049285,0.78026,0.6498165,-0.0694935,1.1428,0.4750865000000001,0.0163675,1.22417,0.6771965000000001,-0.0514054999999999,0.7113700000000001,0.9084165,-0.1119995,1.28953,0.9342065,-0.0739865,0.93745,-0.0008094999999999,-0.0033704999999999,1.0625499999999999,0.0008095,0.0033705,0.87492,-0.4773834999999999,-0.0499644999999999,1.1287099999999999,-0.4611134999999999,-0.0465654999999999,0.83202,-0.9320035,-0.0713125,1.1831800000000001,-0.9174435,-0.0811544999999999
71,1.0080874999999998,0.6542875,0.0083109999999999,0.8654505,0.4454774999999999,-0.007291,0.7812505,0.6492675,-0.071813,1.1427405,0.4748175,0.0136799999999999,1.2241705,0.6774275000000001,-0.054007,0.7122005,0.9077875,-0.114369,1.2899405,0.9345975,-0.076348,0.9375255,-0.0006705,-0.003337,1.0624745,0.0006704999999999,0.003337,0.8743704999999999,-0.4768825,-0.052988,1.1291505,-0.4612925,-0.049558,0.8323605000000001,-0.9317425,-0.073819,1.1832205,-0.9174425,-0.0834029999999999
72,1.0085469999999999,0.653739,0.0036694999999999,0.8651410000000002,0.444619,-0.0100575,0.7820210000000001,0.647769,-0.0750595,1.142711,0.474439,0.0106125,1.224151,0.677699,-0.0577495,0.713271,0.906239,-0.1180575,1.289921,0.934979,-0.0812265,0.9376030000000001,-0.0005519999999999,-0.0032675,1.0623969999999998,0.0005519999999999,0.0032674999999999,0.873681,-0.476061,-0.0563285,1.129671,-0.461381,-0.0530225,0.8325210000000001,-0.932261,-0.0767065,1.183171,-0.919671,-0.0870145
73,1.009144,0.652772,-0.0015364999999999,0.8649290000000001,0.443682,-0.0132495,0.782909,0.645672,-0.0792905,1.142669,0.474342,0.0071085,1.224159,0.677672,-0.0633025,0.714459,0.903972,-0.1235855,1.289799,0.934952,-0.0872565,0.937687,-0.0005249999999999,-0.0032285,1.062313,0.0005249999999999,0.0032284999999999,0.872769,-0.474948,-0.0599815,1.1300189999999999,-0.461318,-0.0569574999999999,0.832479,-0.932458,-0.0799115,1.183139,-0.920918,-0.0905685
74,1.0097545,0.651592,-0.0071225,0.8648135,0.4428919999999999,-0.0166705,0.7838835,0.643162,-0.0840465,1.1426435,0.4742119999999999,0.0032224999999999,1.2241535,0.677672,-0.0695815,0.7160835,0.901552,-0.1301145,1.2896135,0.934952,-0.0941555,0.9377535000000001,-0.0005249999999999,-0.0033635,1.0622464999999999,0.0005249999999999,0.0033634999999999,0.8717535000000001,-0.473568,-0.0638805,1.1304835,-0.461198,-0.0612915,0.8324535,-0.933578,-0.0838525,1.1833935,-0.919398,-0.0935305
75,1.0104245,0.650171,-0.0130394999999999,0.8647325,0.442251,-0.0200785,0.7845625,0.640641,-0.0895175,1.1426125,0.4739109999999999,-0.0008994999999999,1.2241724999999999,0.6777610000000001,-0.0763075,0.7173025,0.898861,-0.1379324999999999,1.2892625,0.934941,-0.1022585,0.9378035,-0.000472,-0.0034744999999999,1.0621965,0.000472,0.0034745,0.8697025,-0.471999,-0.0681905,1.1310725,-0.460949,-0.0658914999999999,0.8324225000000001,-0.933769,-0.0876305,1.1836725,-0.917679,-0.0963884999999999
76,1.011285,0.6484865,-0.0192259999999999,0.864689,0.4416164999999999,-0.023638,0.785339,0.6378465,-0.0953649999999999,1.1426589999999999,0.4734165,-0.0053079999999999,1.224539,0.6774165,-0.083491,0.7185090000000001,0.8959765,-0.145712,1.289289,0.9347465,-0.110998,0.937862,-0.0003665,-0.0035029999999999,1.062138,0.0003665,0.003503,0.8675490000000001,-0.4704435,-0.072581,1.131739,-0.4606935,-0.070698,0.832179,-0.9339035,-0.091558,1.183609,-0.9154135,-0.098926
77,1.012218,0.6465725,-0.0255525,0.864712,0.4410324999999999,-0.0272015,0.7859820000000001,0.6353725,-0.1012955,1.142742,0.4727025,-0.0097885,1.225112,0.6767825,-0.0907525,0.719672,0.8934225,-0.1531705,1.289522,0.9346125,-0.1198315,0.937914,-0.0002095,-0.0035094999999999,1.062086,0.0002095,0.0035094999999999,0.8655120000000001,-0.4700175,-0.0767895,1.132472,-0.4605074999999999,-0.0754055,0.831962,-0.9344675,-0.0955665,1.183242,-0.9151375,-0.1025825
78,1.0130205,0.6446470000000001,-0.0320545,0.8647255,0.4405570000000001,-0.0310445,0.7864055,0.632997,-0.1073554999999999,1.1428055,0.4721270000000001,-0.0143845,1.2257655,0.675907,-0.0980105,0.7204955,0.8910370000000001,-0.1601805,1.2897455,0.934157,-0.1290725,0.9380035000000001,-5.3999999999998494e-05,-0.0035005,1.0619964999999998,5.400000000001237e-05,0.0035004999999999,0.8634955,-0.469383,-0.0810635,1.1331955,-0.4600729999999999,-0.0801965,0.8317355000000001,-0.934423,-0.0996745,1.1828055,-0.916833,-0.1075225
79,1.0139855,0.6426985,-0.038168,0.8648075,0.4401585,-0.034828,0.7866975,0.6308285,-0.113072,1.1429375,0.4715984999999999,-0.018803,1.2264975,0.6748385,-0.105047,0.7213375,0.8886284999999999,-0.167391,1.2900375,0.9336785,-0.137301,0.9380605000000001,0.0001214999999999,-0.003429,1.0619394999999998,-0.0001215,0.003429,0.8616275,-0.4685415,-0.085115,1.1339975,-0.4594515,-0.084819,0.8316875,-0.9337115,-0.103447,1.1826775,-0.9162815,-0.111322
80,1.0150755,0.6405825,-0.044391,0.8651405,0.4396325,-0.039047,0.7869005,0.6289725,-0.118735,1.1430704999999999,0.4709425,-0.0232169999999999,1.2273205,0.6736025,-0.111852,0.7215005,0.8866425,-0.174637,1.2902605,0.9331225,-0.145387,0.9381745,0.0003005,-0.003435,1.0618255,-0.0003004999999999,0.003435,0.8598205,-0.4660275,-0.089368,1.1348205,-0.4583475,-0.0896329999999999,0.8313305,-0.9330175,-0.10751,1.1830705,-0.9127975,-0.1145219999999999
81,1.016196,0.638427,-0.0503485,0.865569,0.439177,-0.0435415,0.787079,0.627297,-0.1242195,1.143249,0.4702769999999999,-0.0276424999999999,1.228229,0.672437,-0.1183454999999999,0.721679,0.884837,-0.1815525,1.290589,0.932807,-0.1532825,0.9383240000000002,0.0004499999999999,-0.0034704999999999,1.0616759999999998,-0.00045,0.0034705,0.858099,-0.463283,-0.0937225,1.135619,-0.457043,-0.0944474999999999,0.831079,-0.932123,-0.1115435,1.183399,-0.908733,-0.1171615
82,1.017345,0.636393,-0.0560075,0.866115,0.438833,-0.0481345,0.787325,0.626033,-0.1295485,1.143475,0.469553,-0.0319254999999999,1.228985,0.671403,-0.1237994999999999,0.7219350000000001,0.8837229999999999,-0.1875135,1.290905,0.931853,-0.1607235,0.9385190000000001,0.0004849999999999,-0.0034285,1.061481,-0.0004849999999999,0.0034285,0.856595,-0.459407,-0.0980145,1.1364049999999999,-0.455557,-0.0991015,0.830925,-0.929387,-0.1154365,1.183325,-0.905097,-0.1204945
83,1.0186015,0.634221,-0.0613974999999999,0.8667875,0.438621,-0.0526414999999999,0.7876275,0.625221,-0.1347875,1.1437675,0.4683009999999999,-0.0366764999999999,1.2298775,0.670241,-0.1292285,0.7220975000000001,0.8823409999999999,-0.1942375,1.2914275,0.930771,-0.1679375,0.9386815,0.000458,-0.0032764999999999,1.0613185,-0.000458,0.0032765,0.8551575000000001,-0.455429,-0.1021485,1.1373175,-0.453919,-0.1035585,0.8308774999999999,-0.925999,-0.1191224999999999,1.1834075,-0.899869,-0.1227444999999999
84,1.0197885,0.631991,-0.0665815,0.8673124999999999,0.438371,-0.0571285,0.7879825,0.6244409999999999,-0.1399485,1.1440825000000001,0.4671909999999999,-0.0413505,1.2307925,0.669091,-0.1345625,0.7222325,0.8813409999999999,-0.2001165,1.2920125,0.929651,-0.1749065,0.9388465,0.0004139999999999,-0.0030895,1.0611535,-0.0004139999999999,0.0030895,0.8546825,-0.448119,-0.1058975,1.1382325,-0.452389,-0.1077675,0.8308425,-0.922059,-0.1229225,1.1835125,-0.896839,-0.1252194999999999
85,1.0208265,0.63012,-0.0715965,0.8679425000000001,0.43845,-0.0617135,0.7881525,0.62373,-0.1451335,1.1444525,0.46659,-0.0460435,1.2312825,0.66857,-0.1400325,0.7223525,0.88046,-0.2059535,1.2925125,0.92908,-0.1818035,0.9390205,0.000461,-0.0030924999999999,1.0609795,-0.0004609999999999,0.0030924999999999,0.8540025,-0.44077,-0.1099775,1.1392425,-0.4505,-0.1119904999999999,0.8309325000000001,-0.91735,-0.1266475,1.1836825,-0.89347,-0.1278595
86,1.021536,0.6279835,-0.07622,0.868596,0.4385235,-0.0660729999999999,0.7880860000000001,0.6229635,-0.150139,1.144786,0.4661235,-0.050537,1.231956,0.6680235,-0.145455,0.721846,0.8795235,-0.211706,1.292706,0.9284735,-0.188686,0.939173,0.0005054999999999,-0.003089,1.060827,-0.0005054999999999,0.003089,0.853326,-0.4393165,-0.1138639999999999,1.140336,-0.4488465,-0.116171,0.830966,-0.9158865,-0.130207,1.184096,-0.8878765,-0.1292019999999999
87,1.022121,0.6263105,-0.080796,0.869292,0.4376805,-0.071725,0.7877620000000001,0.6230505,-0.15541,1.145122,0.4649204999999999,-0.056218,1.233002,0.6684905,-0.151117,0.721352,0.8789005,-0.218215,1.292762,0.9289605,-0.195135,0.9393009999999999,0.0006185,-0.003039,1.060699,-0.0006185,0.003039,0.8526819999999999,-0.4317995,-0.117843,1.141462,-0.4463495,-0.120381,0.830982,-0.9113495,-0.134028,1.184572,-0.8813495,-0.130585
88,1.0226965,0.624282,-0.085375,0.8699565,0.436862,-0.077141,0.7873065,0.622982,-0.160631,1.1454765,0.463672,-0.061617,1.2343465,0.668692,-0.15686,0.7209065,0.878342,-0.224061,1.2929765,0.929202,-0.2017209999999999,0.9394035000000001,0.0007059999999999,-0.0030099999999999,1.0605965,-0.0007059999999999,0.0030099999999999,0.8520565,-0.426308,-0.121526,1.1426165,-0.444048,-0.124397,0.8309865000000001,-0.908048,-0.137599,1.1850265,-0.875868,-0.132319
89,1.023255,0.6235269999999999,-0.090224,0.8704970000000001,0.435937,-0.083245,0.786517,0.624087,-0.166484,1.145857,0.463147,-0.067702,1.235847,0.6704669999999999,-0.1630869999999999,0.7206870000000001,0.879137,-0.230034,1.293177,0.924867,-0.209544,0.93946,0.0007899999999999,-0.0030419999999999,1.06054,-0.0007899999999999,0.003042,0.851217,-0.419213,-0.1257019999999999,1.143797,-0.440013,-0.128486,0.831087,-0.903493,-0.1411629999999999,1.185127,-0.871333,-0.134684
90,1.023647,0.62244,-0.0948064999999999,0.870958,0.4351699999999999,-0.0887405,0.7854280000000001,0.62493,-0.1722564999999999,1.146168,0.46225,-0.0735484999999999,1.237258,0.67194,-0.1691765,0.720398,0.8798699999999999,-0.2361265,1.293408,0.92061,-0.2167865,0.939405,0.0009219999999999,-0.0030764999999999,1.060595,-0.0009219999999999,0.0030765,0.850248,-0.41368,-0.1294175,1.144948,-0.43618,-0.1322335,0.831048,-0.90072,-0.1444355,1.185068,-0.86685,-0.1370934999999999
91,1.024062,0.6206505,-0.099148,0.871368,0.4346305,-0.093825,0.784448,0.6251005000000001,-0.17792,1.146368,0.4610205,-0.079373,1.238648,0.6730605000000001,-0.17531,0.720638,0.8800405,-0.24225,1.2936079999999999,0.9163705,-0.22359,0.939272,0.0011294999999999,-0.003143,1.060728,-0.0011294999999999,0.0031429999999999,0.849098,-0.4084895,-0.13317,1.146178,-0.4324795,-0.136014,0.830898,-0.8981595,-0.147745,1.185128,-0.8623395,-0.139358
92,1.0244125,0.6192575,-0.1035635,0.8717295,0.4347275,-0.0988115,0.7835195,0.6244175,-0.1835375,1.1465695,0.4608375,-0.0844775,1.2397895,0.6747875,-0.1814575,0.7209395000000001,0.8798875,-0.2472775,1.2935895,0.9128375,-0.2301775,0.9392245,0.0013965,-0.0032835,1.0607755,-0.0013964999999999,0.0032834999999999,0.8480295,-0.4021525,-0.1368865,1.1473795,-0.4284125,-0.1398055,0.8307195,-0.8935025,-0.1510385,1.1852295,-0.8566825,-0.1413565
93,1.024981,0.618885,-0.1080154999999999,0.8720950000000001,0.4324949999999999,-0.1049735,0.7826150000000001,0.6255149999999999,-0.1892674999999999,1.1467749999999999,0.460285,-0.0899915,1.240285,0.677725,-0.1879875,0.721255,0.881415,-0.2526775,1.293495,0.910385,-0.2368775,0.939186,0.00152,-0.0035965,1.060814,-0.00152,0.0035965,0.846885,-0.390935,-0.1408345,1.148585,-0.421805,-0.1437875,0.8305550000000002,-0.8848050000000001,-0.1542204999999999,1.185525,-0.8491650000000001,-0.1432175
94,1.025445,0.6182865000000001,-0.11245,0.87245,0.4304365,-0.1110469999999999,0.78175,0.6264665,-0.194786,1.147,0.4592465,-0.095499,1.24076,0.6803765,-0.1943059999999999,0.72159,0.8832265,-0.258046,1.29332,0.9080165,-0.2435959999999999,0.93915,0.0015525,-0.0038149999999999,1.06085,-0.0015525,0.003815,0.84602,-0.3804135,-0.144474,1.14975,-0.4147935,-0.147604,0.8304199999999999,-0.8756735,-0.157327,1.18583,-0.8419234999999999,-0.144975
95,1.025831,0.618292,-0.1203994999999999,0.872802,0.429072,-0.1206645,0.780932,0.6287919999999999,-0.2036035,1.147202,0.457812,-0.1044445,1.241242,0.682782,-0.2037735,0.722682,0.8863219999999999,-0.2668235,1.293082,0.906552,-0.2535635,0.939104,0.001552,-0.0039285,1.060896,-0.001552,0.0039285,0.845052,-0.369158,-0.1516885,1.150832,-0.406588,-0.1547784999999999,0.830332,-0.865298,-0.1638445,1.185932,-0.833678,-0.1506735
96,1.0261855,0.619892,-0.130711,0.8738954999999999,0.4314719999999999,-0.131506,0.7807255,0.6331019999999999,-0.21611,1.1467555,0.4562219999999999,-0.115618,1.2418655,0.678082,-0.21489,0.7237655000000001,0.8918619999999999,-0.27892,1.2922055,0.901992,-0.26592,0.9389835,0.001345,-0.003983,1.0610165,-0.0013449999999999,0.003983,0.8419855,-0.356668,-0.16548,1.1530455,-0.392548,-0.167434,0.8284755,-0.852758,-0.1743259999999999,1.1850055,-0.818238,-0.1584169999999999
97,1.026581,0.621465,-0.141045,0.875258,0.433575,-0.142486,0.7810480000000001,0.636775,-0.228402,1.146318,0.4542049999999999,-0.126985,1.243028,0.674395,-0.225892,0.724808,0.896495,-0.290992,1.291578,0.898305,-0.278672,0.938901,0.001248,-0.0039679999999999,1.061099,-0.0012479999999999,0.0039679999999999,0.8389380000000001,-0.346565,-0.179594,1.155328,-0.378255,-0.1803509999999999,0.826648,-0.842605,-0.185161,1.184188,-0.802465,-0.166395
98,1.0269805,0.6213635,-0.150775,0.8768185,0.4359035,-0.1524049999999999,0.7813384999999999,0.6385235,-0.2397649999999999,1.1458785,0.4502635,-0.137566,1.2437885,0.6697135,-0.2359349999999999,0.7258985,0.8989135,-0.302455,1.2912785,0.8997035,-0.290095,0.9388345,0.0012825,-0.0038249999999999,1.0611655,-0.0012824999999999,0.003825,0.8361085,-0.3380865,-0.192998,1.1577685,-0.3650865,-0.1930359999999999,0.8248285,-0.8340465,-0.1956069999999999,1.1834685,-0.7884565,-0.174003
99,1.0273295,0.6217870000000001,-0.160622,0.8785225,0.438197,-0.162623,0.7804525,0.6372070000000001,-0.252005,1.1454125,0.445977,-0.1481279999999999,1.2442825,0.6661269999999999,-0.246215,0.7276325,0.8980570000000001,-0.313695,1.2909424999999999,0.901857,-0.302215,0.9386745,0.001351,-0.0037349999999999,1.0613255,-0.0013509999999999,0.003735,0.8331625,-0.329423,-0.206791,1.1602525,-0.351483,-0.2060719999999999,0.8228825,-0.8252729999999999,-0.206394,1.1827625,-0.773803,-0.181888
100,1.02788,0.623197,-0.170516,0.880879,0.436667,-0.173237,0.779639,0.637867,-0.26389,1.144909,0.442377,-0.158695,1.2448190000000001,0.663347,-0.25719,0.729309,0.898977,-0.32495,1.290709,0.904397,-0.31545,0.9385200000000001,0.0012199999999999,-0.00367,1.06148,-0.00122,0.0036699999999999,0.830159,-0.320143,-0.22084,1.162849,-0.336933,-0.219293,0.820949,-0.815883,-0.217148,1.182179,-0.758413,-0.190305
101,1.0286425,0.62422,-0.1803059999999999,0.8832535,0.43459,-0.1839159999999999,0.7788835000000001,0.6399400000000001,-0.2762249999999999,1.1443935,0.43784,-0.169227,1.2453735,0.66034,-0.2677349999999999,0.7312434999999999,0.9001,-0.336715,1.2910835,0.90663,-0.3284549999999999,0.9384625,0.001029,-0.0035049999999999,1.0615375,-0.001029,0.003505,0.8270635,-0.30886,-0.2350149999999999,1.1655935,-0.32241,-0.232705,0.8191235,-0.80446,-0.227705,1.1816235,-0.74288,-0.1985559999999999
102,1.0294055,0.624312,-0.189855,0.8856075,0.434902,-0.193306,0.7792875000000001,0.6401319999999999,-0.28823,1.1441875,0.433542,-0.179267,1.2457975000000001,0.655932,-0.27761,0.7331575,0.900002,-0.34985,1.2909975,0.907502,-0.34111,0.9383715,0.001059,-0.0031599999999999,1.0616285,-0.001059,0.0031599999999999,0.8241575000000001,-0.2997379999999999,-0.24895,1.1685175,-0.309118,-0.24621,0.8185975,-0.792618,-0.23537,1.1811075,-0.728388,-0.206548
103,1.0300995,0.6236585,-0.198867,0.8878505,0.4349785,-0.202289,0.7796305,0.6403185,-0.2998,1.1437905,0.4295385,-0.188779,1.2457505,0.6518085,-0.28739,0.7348805,0.8997185,-0.36268,1.2906305,0.9083485,-0.35328,0.9383345,0.0010214999999999,-0.00285,1.0616655,-0.0010214999999999,0.0028499999999999,0.8212005,-0.2902615,-0.26262,1.1714505,-0.2964215,-0.2595,0.8179105,-0.7798815,-0.24283,1.1805305,-0.7145315000000001,-0.214298
104,1.0308725,0.6223455,-0.204278,0.8901475,0.4348955,-0.207584,0.7799575000000001,0.6398555,-0.307885,1.1436974999999998,0.4264555,-0.194609,1.2460574999999998,0.6481155,-0.294135,0.7366174999999999,0.8972355,-0.372095,1.2905975,0.9060255,-0.362455,0.9382565,0.0011225,-0.002655,1.0617435,-0.0011224999999999,0.0026549999999999,0.8183775,-0.2826745,-0.272775,1.1745675,-0.2847145,-0.269435,0.8172875,-0.7689045,-0.246805,1.1800475,-0.7012145,-0.218494
105,1.031351,0.61947,-0.207112,0.891568,0.43033,-0.2105949999999999,0.780528,0.63766,-0.31203,1.143848,0.42284,-0.19713,1.246258,0.6473,-0.29863,0.738278,0.89366,-0.37721,1.290428,0.90503,-0.36879,0.938232,0.0013799999999999,-0.0025099999999999,1.061768,-0.00138,0.00251,0.8175479999999999,-0.27541,-0.27656,1.176838,-0.27661,-0.27423,0.8173779999999999,-0.75848,-0.24864,1.180128,-0.69311,-0.220463
106,1.0318705,0.61598,-0.209793,0.8929065,0.42634,-0.213308,0.7808265,0.6325799999999999,-0.31582,1.1440265,0.4197099999999999,-0.199366,1.2464565,0.64496,-0.30311,0.7399365,0.88873,-0.38202,1.2906265000000001,0.90263,-0.37448,0.9382135,0.0014099999999999,-0.00242,1.0617865,-0.00141,0.00242,0.8166465,-0.26797,-0.2802,1.1791165000000001,-0.2687,-0.27868,0.8175065,-0.74855,-0.25013,1.1802065,-0.6852,-0.222124
107,1.032422,0.6134649999999999,-0.2124519999999999,0.894127,0.423235,-0.215804,0.781247,0.629365,-0.3195949999999999,1.144247,0.417675,-0.2017509999999999,1.246687,0.6430149999999999,-0.3073049999999999,0.741587,0.885575,-0.386675,1.290507,0.9006050000000001,-0.3796349999999999,0.938249,0.0016049999999999,-0.0022949999999999,1.0617510000000001,-0.001605,0.002295,0.815827,-0.260015,-0.2837849999999999,1.181587,-0.260345,-0.2833249999999999,0.8176770000000001,-0.7383850000000001,-0.2514949999999999,1.180417,-0.6768449999999999,-0.2236439999999999
108,1.0328875,0.6108549999999999,-0.2150969999999999,0.8953605,0.418185,-0.218471,0.7825805,0.6288549999999999,-0.322105,1.1449605,0.416585,-0.204325,1.2471805,0.640495,-0.311035,0.7421805,0.885025,-0.3911949999999999,1.2910905,0.898045,-0.384335,0.9382874999999999,0.001595,-0.0021049999999999,1.0617125,-0.001595,0.0021049999999999,0.8149305,-0.255495,-0.287555,1.1841105,-0.254545,-0.287925,0.8188105000000001,-0.729835,-0.251005,1.1809005,-0.6702650000000001,-0.225355
109,1.0336695,0.607275,-0.217588,0.8957235,0.417285,-0.220593,0.7839335000000001,0.627615,-0.324755,1.1458135,0.415055,-0.206681,1.2478635,0.637045,-0.313565,0.7429635,0.883735,-0.396045,1.2914634999999999,0.891115,-0.3876549999999999,0.9384295,0.001895,-0.001905,1.0615705,-0.0018949999999999,0.0019049999999999,0.8143535,-0.2512149999999999,-0.290765,1.1866035,-0.2492249999999999,-0.292155,0.8201435,-0.721855,-0.250189,1.1815235,-0.664345,-0.227274
110,1.0345075,0.60393,-0.220216,0.8961085,0.41698,-0.222378,0.7852085,0.62498,-0.326555,1.1466085,0.4142599999999999,-0.208923,1.2485385,0.63087,-0.3159349999999999,0.7433585,0.8821,-0.400565,1.2921785,0.88406,-0.3909249999999999,0.9386005000000001,0.00228,-0.001725,1.0613994999999998,-0.00228,0.001725,0.8138185,-0.2468,-0.293925,1.1890685,-0.24393,-0.2961249999999999,0.8216985,-0.7139,-0.249017,1.1821285,-0.65762,-0.229312
111,1.035327,0.600865,-0.223075,0.896431,0.417685,-0.223944,0.785391,0.623245,-0.32875,1.147341,0.413925,-0.21094,1.249191,0.625395,-0.31817,0.7430410000000001,0.880245,-0.40451,1.292511,0.877935,-0.39394,0.938742,0.002665,-0.00154,1.061258,-0.002665,0.0015399999999999,0.8131910000000001,-0.242405,-0.297,1.191551,-0.238565,-0.29993,0.823441,-0.705525,-0.247521,1.1828210000000001,-0.6509849999999999,-0.23139
112,1.0362745,0.598305,-0.226295,0.8966745,0.415105,-0.226855,0.7855245,0.623025,-0.3316,1.1481945,0.411875,-0.213998,1.2495045,0.620895,-0.32035,0.7425045,0.879815,-0.40875,1.2925445,0.8734649999999999,-0.39706,0.9389665,0.0029949999999999,-0.00123,1.0610335,-0.0029949999999999,0.0012299999999999,0.8124145,-0.236565,-0.30105,1.1942045000000001,-0.231845,-0.30457,0.8252345,-0.694835,-0.246211,1.1834645,-0.641105,-0.232613
113,1.037029,0.5955550000000001,-0.229423,0.896987,0.412875,-0.229634,0.7857370000000001,0.622965,-0.335785,1.149277,0.409835,-0.216857,1.250237,0.616565,-0.322105,0.7420070000000001,0.881335,-0.412865,1.292917,0.8713949999999999,-0.399105,0.939272,0.003305,-0.000945,1.060728,-0.003305,0.000945,0.811917,-0.2304149999999999,-0.304995,1.196857,-0.224815,-0.308995,0.827017,-0.6833750000000001,-0.244991,1.184177,-0.6325149999999999,-0.2348859999999999
114,1.0378619999999998,0.592285,-0.232539,0.897253,0.413165,-0.232057,0.786373,0.622775,-0.33984,1.1497929999999998,0.4096349999999999,-0.219432,1.251023,0.613915,-0.32393,0.743283,0.882055,-0.4171,1.293463,0.868795,-0.40113,0.939647,0.0035749999999999,-0.00066,1.060353,-0.003575,0.0006599999999999,0.811523,-0.224175,-0.30895,1.199213,-0.218085,-0.31299,0.827693,-0.673455,-0.245614,1.184963,-0.626455,-0.237844
115,1.038566,0.589575,-0.235784,0.897374,0.4136849999999999,-0.234547,0.786704,0.626895,-0.343975,1.150124,0.409435,-0.222029,1.251824,0.612725,-0.325745,0.744034,0.885615,-0.421775,1.293994,0.8676949999999999,-0.403285,0.939956,0.0040449999999999,-0.000405,1.060044,-0.004045,0.0004049999999999,0.811184,-0.217555,-0.313045,1.201464,-0.211185,-0.317255,0.828254,-0.662965,-0.246208,1.185664,-0.620315,-0.24122
116,1.0389504999999999,0.586255,-0.239243,0.8972925,0.413865,-0.237069,0.7870625,0.630015,-0.347985,1.1502925,0.408945,-0.224166,1.2525225,0.610805,-0.327855,0.7447725000000001,0.888095,-0.426425,1.2941725,0.8659549999999999,-0.405085,0.9401215,0.004255,-0.000335,1.0598785,-0.004255,0.000335,0.8108625,-0.211425,-0.317315,1.2032225,-0.204565,-0.321205,0.8286725,-0.6528550000000001,-0.246695,1.1861625,-0.615475,-0.245163
117,1.03961,0.5827450000000001,-0.242401,0.897,0.410485,-0.240265,0.78732,0.629865,-0.352445,1.15054,0.405215,-0.226252,1.25319,0.609415,-0.3300349999999999,0.7452799999999999,0.887675,-0.4312749999999999,1.29441,0.864625,-0.407385,0.940284,0.004255,-0.000395,1.059716,-0.004255,0.000395,0.81084,-0.204395,-0.3217649999999999,1.20485,-0.196905,-0.325065,0.82896,-0.6421349999999999,-0.247317,1.18654,-0.609645,-0.24856
118,1.0399399999999999,0.58021,-0.245993,0.896956,0.40778,-0.243604,0.7874260000000001,0.62919,-0.357195,1.150626,0.40268,-0.228439,1.253776,0.6082799999999999,-0.333045,0.744556,0.88715,-0.435895,1.294826,0.8671,-0.410215,0.940355,0.0040999999999999,-0.000425,1.059645,-0.0040999999999999,0.000425,0.810946,-0.19672,-0.326745,1.206326,-0.18841,-0.3293049999999999,0.829296,-0.63057,-0.248085,1.186936,-0.60222,-0.251851
119,1.040008,0.577395,-0.2493079999999999,0.896962,0.404705,-0.2469,0.7874620000000001,0.625635,-0.361885,1.150522,0.3999749999999999,-0.230721,1.254202,0.608625,-0.3364049999999999,0.743582,0.883745,-0.440165,1.295162,0.8672449999999999,-0.4139049999999999,0.940481,0.0038249999999999,-0.0003849999999999,1.059519,-0.0038249999999999,0.0003849999999999,0.810982,-0.188855,-0.331775,1.207532,-0.179795,-0.333465,0.8296420000000001,-0.618795,-0.2487559999999999,1.187302,-0.5944550000000001,-0.254595
120,1.040009,0.57349,-0.252482,0.8964390000000001,0.401,-0.25051,0.787179,0.6227199999999999,-0.366705,1.150449,0.39669,-0.233177,1.254749,0.60814,-0.340315,0.7424390000000001,0.88125,-0.4439349999999999,1.296119,0.85943,-0.418335,0.940626,0.0035599999999999,-0.0003849999999999,1.059374,-0.00356,0.0003849999999999,0.810989,-0.18057,-0.337175,1.208489,-0.1708299999999999,-0.337775,0.829819,-0.60665,-0.2494549999999999,1.187489,-0.58646,-0.257125
121,1.0399965,0.5693299999999999,-0.256207,0.8961275,0.39898,-0.253932,0.7865375,0.61988,-0.372805,1.1495375,0.39274,-0.236043,1.2548675,0.60583,-0.345145,0.7412775,0.8781599999999999,-0.450715,1.2968175,0.85019,-0.424315,0.9408565,0.0035299999999999,-0.000455,1.0591435,-0.00353,0.0004549999999999,0.8110875000000001,-0.17081,-0.342795,1.2096175,-0.15974,-0.342275,0.8300675,-0.5924200000000001,-0.249939,1.1876475,-0.57593,-0.259485
122,1.039935,0.565355,-0.25982,0.895769,0.397005,-0.257252,0.785629,0.6167149999999999,-0.3777,1.1485189999999998,0.3889249999999999,-0.2388529999999999,1.254829,0.603485,-0.35048,0.7399789999999999,0.874525,-0.4576,1.2978290000000001,0.841835,-0.43048,0.941026,0.003585,-0.00051,1.058974,-0.003585,0.00051,0.8113589999999999,-0.160975,-0.34831,1.210709,-0.148705,-0.3467099999999999,0.830309,-0.578275,-0.250377,1.187659,-0.5633750000000001,-0.26106
123,1.0395105,0.561285,-0.263555,0.8956485000000001,0.394335,-0.260615,0.7848885,0.608355,-0.382675,1.1475885,0.385244,-0.2417699999999999,1.2548985,0.600635,-0.356545,0.7390685,0.865965,-0.464585,1.2981885,0.836175,-0.437415,0.9411705,0.0034549999999999,-0.000595,1.0588295,-0.003455,0.0005949999999999,0.8116985,-0.150945,-0.353605,1.2118985,-0.137335,-0.350975,0.8306785,-0.564015,-0.250765,1.1877285,-0.553265,-0.263315
124,1.0386465,0.556925,-0.26742,0.8956995000000001,0.391972,-0.26387,0.7841695,0.600155,-0.3875999999999999,1.1466095,0.382019,-0.2446899999999999,1.2550395,0.596295,-0.36246,0.7380295,0.857485,-0.47184,1.2986695,0.8304849999999999,-0.44558,0.9412805,0.0033449999999999,-0.0007099999999999,1.0587195,-0.0033449999999999,0.00071,0.8125695,-0.140965,-0.35863,1.2129794999999999,-0.125805,-0.35495,0.8311395,-0.5498449999999999,-0.2511549999999999,1.1879695,-0.540475,-0.2643299999999999
125,1.037159,0.553175,-0.27086,0.8955050000000001,0.385888,-0.26758,0.783065,0.593005,-0.3934499999999999,1.145375,0.378196,-0.247989,1.2551350000000001,0.592105,-0.36826,0.737035,0.850185,-0.48004,1.2987549999999999,0.8250949999999999,-0.45487,0.941346,0.0028549999999999,-0.0007999999999999,1.058654,-0.0028549999999999,0.0007999999999999,0.813355,-0.130435,-0.36335,1.214005,-0.1129749999999999,-0.35861,0.831615,-0.5347249999999999,-0.251424,1.1881249999999999,-0.5258449999999999,-0.26495
126,1.035499,0.550445,-0.2747949999999999,0.895207,0.386579,-0.2701349999999999,0.781477,0.590355,-0.3997349999999999,1.144117,0.377479,-0.2510829999999999,1.254797,0.586435,-0.3746649999999999,0.735737,0.846695,-0.489795,1.298817,0.818065,-0.465255,0.941429,0.002935,-0.0008749999999999,1.058571,-0.002935,0.000875,0.814047,-0.120085,-0.367405,1.214877,-0.1008149999999999,-0.361915,0.832057,-0.520815,-0.2517899999999999,1.188137,-0.5120849999999999,-0.2657549999999999
127,1.033445,0.5467500000000001,-0.278775,0.894601,0.386131,-0.272905,0.779531,0.58752,-0.406295,1.1425809999999998,0.376065,-0.254284,1.2539909999999999,0.58052,-0.381135,0.734301,0.8428100000000001,-0.499635,1.2986309999999999,0.80808,-0.477095,0.94142,0.0028799999999999,-0.0008849999999999,1.05858,-0.0028799999999999,0.0008849999999999,0.8144210000000001,-0.11092,-0.371155,1.215511,-0.0891799999999999,-0.364955,0.832251,-0.50767,-0.252391,1.188041,-0.49941,-0.266725
128,1.0313865,0.543335,-0.282365,0.8940465,0.38572,-0.275595,0.7775765,0.588005,-0.413275,1.1410365,0.373088,-0.257108,1.2529565,0.575995,-0.387595,0.7329065,0.842605,-0.509455,1.2984265,0.801635,-0.4878949999999999,0.9413975,0.003195,-0.0008749999999999,1.0586025000000001,-0.003195,0.000875,0.8145565,-0.101465,-0.374275,1.2161165,-0.076705,-0.3675049999999999,0.8323665,-0.4939349999999999,-0.2527749999999999,1.1877665,-0.486025,-0.266935
129,1.029137,0.53984,-0.285895,0.893444,0.3853209999999999,-0.277915,0.775254,0.58671,-0.419975,1.139564,0.3704449999999999,-0.259675,1.251914,0.56959,-0.3937549999999999,0.730804,0.83446,-0.519155,1.297844,0.79889,-0.498105,0.94137,0.0032299999999999,-0.000905,1.05863,-0.00323,0.0009049999999999,0.814454,-0.0926,-0.376755,1.216594,-0.06493,-0.369455,0.8324540000000001,-0.48096,-0.253005,1.187494,-0.47379,-0.267195
130,1.0270365,0.537165,-0.288635,0.8925365000000001,0.383879,-0.2791949999999999,0.7733165,0.583335,-0.424995,1.1389265,0.370184,-0.261435,1.2509765,0.5650850000000001,-0.399105,0.7295665,0.827175,-0.525795,1.2970665000000001,0.797255,-0.5067349999999999,0.9413975,0.002985,-0.0009049999999999,1.0586025000000001,-0.0029849999999999,0.0009049999999999,0.8143165,-0.0847349999999999,-0.378295,1.2167965,-0.0548749999999999,-0.370505,0.8325565,-0.4701449999999999,-0.253173,1.1874065,-0.4643149999999999,-0.267775
131,1.024951,0.534915,-0.29133,0.89167,0.382043,-0.28052,0.77153,0.578415,-0.4303,1.1382999999999999,0.369824,-0.26329,1.2499500000000001,0.560595,-0.40431,0.72834,0.819975,-0.5325200000000001,1.29555,0.795145,-0.5158100000000001,0.941343,0.002475,-0.00084,1.058657,-0.002475,0.0008399999999999,0.8142199999999999,-0.076905,-0.37993,1.21709,-0.044735,-0.37146,0.83265,-0.459435,-0.253428,1.18733,-0.4548149999999999,-0.26849
132,1.0234249999999998,0.53263,-0.293795,0.891016,0.379928,-0.2819049999999999,0.769946,0.57823,-0.435435,1.137686,0.368973,-0.265165,1.249056,0.55881,-0.408905,0.7271259999999999,0.8173900000000001,-0.539635,1.294896,0.79017,-0.524565,0.941296,0.00217,-0.0007849999999999,1.058704,-0.00217,0.000785,0.814126,-0.0690899999999999,-0.381425,1.2174859999999998,-0.0347899999999999,-0.372345,0.832716,-0.44914,-0.253784,1.187226,-0.4456,-0.269505
133,1.0222525,0.530705,-0.2957,0.8900965000000001,0.377841,-0.28321,0.7682964999999999,0.5777,-0.44085,1.1369164999999999,0.368436,-0.26696,1.2480465,0.5581499999999999,-0.41258,0.7256965,0.81487,-0.54669,1.2931465,0.78502,-0.53182,0.9413275,0.0018599999999999,-0.00074,1.0586725,-0.00186,0.0007399999999999,0.8135465,-0.06098,-0.38282,1.2177864999999999,-0.0248599999999999,-0.37287,0.8325965,-0.43873,-0.254135,1.1868465,-0.43653,-0.27041
134,1.0213305,0.527821,-0.2975399999999999,0.8891875,0.379719,-0.28374,0.7671175,0.576,-0.44486,1.1361875,0.369481,-0.26825,1.2472175,0.55356,-0.41578,0.7239575,0.80673,-0.5536300000000001,1.2917174999999999,0.7796000000000001,-0.53807,0.9413095,0.00196,-0.0009199999999999,1.0586905,-0.00196,0.00092,0.8126075,-0.05279,-0.38371,1.2180075,-0.01599,-0.373,0.8324075,-0.4292499999999999,-0.254411,1.1863875,-0.42843,-0.27115
135,1.020468,0.5253369999999999,-0.298915,0.888055,0.3785579999999999,-0.284345,0.7662050000000001,0.5718949999999999,-0.447395,1.135465,0.3693659999999999,-0.269395,1.246445,0.552632,-0.418105,0.722425,0.801295,-0.558235,1.290465,0.776095,-0.542935,0.941449,0.0014949999999999,-0.001075,1.058551,-0.001495,0.0010749999999999,0.8113250000000001,-0.043205,-0.384435,1.218075,-0.005565,-0.373045,0.8319650000000001,-0.417825,-0.254533,1.185725,-0.419355,-0.271745
136,1.0197605,0.524386,-0.2999,0.8869454999999999,0.3779809999999999,-0.28485,0.7654755,0.5689029999999999,-0.44908,1.1348055,0.3692649999999999,-0.27051,1.2455855,0.550734,-0.41913,0.7209755,0.796755,-0.56238,1.2892855,0.7758149999999999,-0.54499,0.9415085,0.0013449999999999,-0.00125,1.0584915,-0.001345,0.00125,0.8095955,-0.032615,-0.3851799999999999,1.2181555,0.0051549999999999,-0.37305,0.8315255,-0.4062950000000001,-0.254536,1.1850654999999999,-0.409565,-0.27219
137,1.0189495,0.523729,-0.3003699999999999,0.8859105,0.37725,-0.28452,0.7648705,0.56637,-0.44905,1.1340805,0.3701,-0.27003,1.2446605,0.549739,-0.41912,0.7197105000000001,0.79264,-0.5656,1.2881405,0.77542,-0.54636,0.9416485,0.00096,-0.0013499999999999,1.0583515000000001,-0.00096,0.00135,0.8079705,-0.0213899999999999,-0.38503,1.2176905,0.01562,-0.3725699999999999,0.8310305,-0.3953399999999999,-0.2546319999999999,1.1843805,-0.40025,-0.2726099999999999
138,1.01812,0.5237620000000001,-0.300515,0.884887,0.37641,-0.284005,0.764107,0.5632670000000001,-0.448935,1.1331769999999999,0.37151,-0.269375,1.2435969999999998,0.55057,-0.418955,0.7181770000000001,0.7944800000000001,-0.5679350000000001,1.287427,0.77839,-0.547355,0.941804,0.00065,-0.001485,1.058196,-0.0006499999999999,0.0014849999999999,0.806387,-0.00988,-0.384755,1.217237,0.02605,-0.371885,0.8304670000000001,-0.38442,-0.254529,1.183577,-0.391,-0.272965
139,1.017522,0.523163,-0.30039,0.884317,0.378195,-0.28323,0.763587,0.5604300000000001,-0.44813,1.132527,0.373475,-0.26839,1.2427570000000001,0.548591,-0.4187299999999999,0.716747,0.794025,-0.57019,1.2869169999999999,0.778375,-0.54819,0.941901,0.0003549999999999,-0.00164,1.058099,-0.0003549999999999,0.00164,0.805077,0.000275,-0.38408,1.216887,0.035005,-0.3710799999999999,0.830117,-0.374965,-0.254255,1.182677,-0.382695,-0.27292
140,1.0170295,0.525201,-0.30001,0.8838745,0.377445,-0.28251,0.7636345000000001,0.561324,-0.44741,1.1320345,0.372025,-0.26783,1.2422245,0.549617,-0.4186299999999999,0.7154845000000001,0.795585,-0.57152,1.2864745,0.781145,-0.5483399999999999,0.9420545,0.001125,-0.00181,1.0579455,-0.001125,0.00181,0.8046045,0.0151649999999999,-0.38336,1.2166744999999999,0.0473049999999999,-0.36967,0.8298545000000002,-0.362075,-0.254027,1.1817045,-0.372175,-0.27348
141,1.0164975,0.5275519999999999,-0.2993099999999999,0.8833995,0.3773099999999999,-0.28181,0.7637995000000001,0.561896,-0.44652,1.1315295,0.3710099999999999,-0.26722,1.2416495,0.550839,-0.4188,0.7142995,0.7968599999999999,-0.5723199999999999,1.2861194999999999,0.7862199999999999,-0.54828,0.9421695,0.0016199999999999,-0.0019499999999999,1.0578305,-0.00162,0.00195,0.8041294999999999,0.0294899999999999,-0.38266,1.2162195,0.0589899999999999,-0.36812,0.8302095,-0.35074,-0.253857,1.1806795,-0.36221,-0.27385
142,1.016182,0.530411,-0.298665,0.883186,0.3767549999999999,-0.281165,0.7632260000000001,0.561448,-0.445875,1.1310959999999999,0.3696449999999999,-0.265975,1.241106,0.5524239999999999,-0.418155,0.713056,0.796025,-0.572385,1.286406,0.7892049999999999,-0.547635,0.942227,0.0017149999999999,-0.002195,1.057773,-0.001715,0.002195,0.803696,0.0433549999999999,-0.381955,1.215786,0.0705549999999999,-0.366365,0.830596,-0.3398650000000001,-0.25369,1.179636,-0.3524050000000001,-0.274315
143,1.015868,0.5347299999999999,-0.298,0.882952,0.3763649999999999,-0.28041,0.763102,0.561827,-0.4441,1.130672,0.3691249999999999,-0.26452,1.240322,0.5589719999999999,-0.41659,0.7117519999999999,0.799855,-0.57172,1.286752,0.7932049999999999,-0.54696,0.942211,0.0012749999999999,-0.00236,1.057789,-0.001275,0.00236,0.803202,0.0577449999999999,-0.38061,1.215252,0.0826149999999999,-0.36435,0.8309219999999999,-0.328625,-0.25346,1.178362,-0.3424450000000001,-0.27467
144,1.0155524999999999,0.538312,-0.2971399999999999,0.8828655,0.378745,-0.27932,0.7629855,0.565217,-0.4422699999999999,1.1302955,0.371135,-0.26278,1.2395955,0.5638340000000001,-0.41452,0.7104955,0.802215,-0.57102,1.2871555,0.797455,-0.54584,0.9420165,0.0013549999999999,-0.0026599999999999,1.0579835,-0.0013549999999999,0.0026599999999999,0.8029955,0.0708149999999999,-0.3790099999999999,1.2147155,0.092975,-0.36221,0.8311955,-0.317535,-0.25272,1.1770755,-0.3336749999999999,-0.2749499999999999
145,1.0153325,0.5412600000000001,-0.295875,0.8829025,0.38112,-0.278235,0.7629025,0.5684100000000001,-0.439915,1.1300325,0.37365,-0.260965,1.2390025,0.565334,-0.411595,0.7092925,0.80416,-0.570335,1.2877225,0.79895,-0.543705,0.9417584999999999,0.00123,-0.0029349999999999,1.0582415,-0.0012299999999999,0.0029349999999999,0.8034825000000001,0.08493,-0.377005,1.2139925,0.10328,-0.360165,0.8315625,-0.3062399999999999,-0.251965,1.1758625,-0.3253699999999999,-0.274625
146,1.0151005,0.5432150000000001,-0.294255,0.8828545,0.3830350000000001,-0.277105,0.7625945000000001,0.5714090000000001,-0.437905,1.1298545,0.3759650000000001,-0.259175,1.2383644999999999,0.5656780000000001,-0.409115,0.7079545,0.8052250000000001,-0.568845,1.2881945,0.7993150000000001,-0.541335,0.9415775,0.001025,-0.003335,1.0584225,-0.0010249999999999,0.003335,0.8045445,0.0980250000000001,-0.374615,1.2131445,0.1122550000000001,-0.358265,0.8320245,-0.2960049999999998,-0.251375,1.1743345,-0.3188149999999998,-0.274105
147,1.014865,0.5453950000000001,-0.2925649999999999,0.882587,0.384695,-0.275455,0.762267,0.575806,-0.4359849999999999,1.129807,0.377565,-0.256885,1.237767,0.5666100000000001,-0.406385,0.706727,0.8069950000000001,-0.566825,1.288687,0.800165,-0.538515,0.941369,0.000895,-0.0035449999999999,1.058631,-0.0008949999999999,0.0035449999999999,0.8059769999999999,0.110795,-0.371795,1.212287,0.121085,-0.356205,0.8324670000000001,-0.2856049999999999,-0.2492329999999999,1.172717,-0.3122549999999999,-0.273355
148,1.014488,0.547871,-0.290115,0.8823570000000001,0.3863299999999999,-0.2735849999999999,0.761887,0.5808,-0.433985,1.129697,0.3786299999999999,-0.2543649999999999,1.237177,0.569278,-0.403485,0.7055370000000001,0.8090999999999999,-0.5643050000000001,1.289037,0.80262,-0.535635,0.941228,0.0009899999999999,-0.0037449999999999,1.058772,-0.00099,0.003745,0.807677,0.1237999999999999,-0.368745,1.2113369999999999,0.1295299999999999,-0.3541849999999999,0.8328570000000001,-0.27579,-0.246687,1.171027,-0.30637,-0.272695
149,1.0141604999999998,0.548721,-0.28746,0.8821605,0.3910949999999999,-0.27208,0.7615305,0.584106,-0.43212,1.1295405,0.383735,-0.2529099999999999,1.2367405,0.569831,-0.40026,0.7044605000000002,0.809695,-0.56109,1.2894505,0.803045,-0.5324,0.9409995,0.0001149999999999,-0.0037,1.0590005,-0.0001149999999999,0.0037,0.8092205,0.133975,-0.36575,1.2105005,0.134895,-0.35296,0.8333405,-0.269105,-0.243312,1.1694505,-0.302715,-0.27207
150,1.0138445,0.5494410000000001,-0.2847699999999999,0.8818755,0.395495,-0.27061,0.7610055,0.587165,-0.43025,1.1293355,0.388365,-0.25154,1.2363455,0.569949,-0.39714,0.7032054999999999,0.8100350000000001,-0.55745,1.2898855,0.8029750000000001,-0.52869,0.9408185,-0.0004949999999999,-0.00367,1.0591815,0.000495,0.00367,0.8105955,0.143805,-0.36275,1.2096855,0.139845,-0.35177,0.8333555,-0.2643249999999999,-0.24018,1.1678055,-0.2993049999999999,-0.27152
151,1.013544,0.5499250000000001,-0.282325,0.8815570000000001,0.3994700000000001,-0.2693649999999999,0.760337,0.5908200000000001,-0.428525,1.129137,0.3925900000000001,-0.2503849999999999,1.235927,0.5695850000000001,-0.394375,0.702467,0.8120500000000002,-0.553725,1.289847,0.8047000000000001,-0.525095,0.940666,-0.0008399999999999,-0.0035449999999999,1.059334,0.00084,0.003545,0.811947,0.1529300000000001,-0.359975,1.208777,0.14428,-0.3507749999999999,0.833407,-0.2587399999999998,-0.236999,1.166877,-0.2964499999999999,-0.271205
152,1.013359,0.5494619999999999,-0.279975,0.881251,0.4027799999999999,-0.268305,0.759601,0.5936429999999999,-0.426765,1.1290909999999998,0.3957599999999999,-0.249575,1.235751,0.5681589999999999,-0.391815,0.701911,0.8139999999999998,-0.550155,1.289941,0.8054299999999999,-0.521235,0.940584,-0.00067,-0.0033549999999999,1.059416,0.0006699999999999,0.0033549999999999,0.812841,0.1596499999999999,-0.357635,1.208061,0.1476699999999999,-0.350125,0.833501,-0.2539100000000001,-0.233937,1.165981,-0.29451,-0.270455
153,1.0130845,0.548675,-0.277805,0.8808985,0.40518,-0.267305,0.7587785,0.5953510000000001,-0.424835,1.1289185,0.39774,-0.248805,1.2355384999999999,0.565604,-0.388695,0.7015285,0.81484,-0.5461050000000001,1.2900085,0.8051400000000001,-0.5163150000000001,0.9405745,-0.0006399999999999,-0.003115,1.0594255,0.00064,0.0031149999999999,0.8136384999999999,0.16489,-0.355295,1.2071285,0.15016,-0.349435,0.8339084999999999,-0.24888,-0.2305,1.1652885,-0.2935799999999999,-0.269775
154,1.0127864999999998,0.5476899999999999,-0.27571,0.8804815,0.4069699999999999,-0.26636,0.7579515,0.5964189999999999,-0.42266,1.1285915,0.3989499999999999,-0.24806,1.2352315,0.5680939999999999,-0.38673,0.7010115,0.8158,-0.54165,1.2900715,0.80763,-0.51174,0.9405535,-0.00058,-0.0028999999999999,1.0594465,0.0005799999999999,0.0029,0.8140915,0.1684399999999999,-0.35313,1.2060215,0.1521099999999999,-0.34878,0.8340415000000001,-0.24599,-0.2283089999999999,1.1639615,-0.2931800000000001,-0.26951
155,1.0124615,0.54728,-0.273715,0.8799845,0.40905,-0.2654849999999999,0.7574545,0.597686,-0.420155,1.1281545,0.40098,-0.2471649999999999,1.2347445,0.5705640000000001,-0.3844649999999999,0.7004945,0.81684,-0.536735,1.2901145,0.8101,-0.506445,0.9404785,-0.0006399999999999,-0.0026449999999999,1.0595215,0.0006399999999999,0.002645,0.8142645,0.17177,-0.351145,1.2050845,0.1540699999999999,-0.3480749999999999,0.8336945,-0.2421099999999999,-0.2258199999999999,1.1634845,-0.29201,-0.269835
156,1.011765,0.5472300000000001,-0.2718549999999999,0.8791329999999999,0.41085,-0.264335,0.756283,0.5993350000000001,-0.417475,1.127453,0.4032200000000001,-0.2462649999999999,1.2341630000000001,0.572991,-0.381795,0.699473,0.8191400000000001,-0.531895,1.289853,0.8125300000000001,-0.500685,0.940562,-0.0008999999999999,-0.0025049999999999,1.059438,0.0009,0.002505,0.814063,0.17476,-0.3491849999999999,1.203723,0.15621,-0.3477249999999999,0.833653,-0.2382699999999999,-0.2237389999999999,1.162643,-0.2907299999999999,-0.270355
157,1.0108875,0.54734,-0.27035,0.8780654999999999,0.41237,-0.26348,0.7549255,0.6010230000000001,-0.41479,1.1265955,0.40526,-0.24566,1.2334355,0.575339,-0.37917,0.6983455000000001,0.82145,-0.52728,1.2894255000000001,0.8151,-0.49483,0.9407785000000001,-0.0012799999999999,-0.0023699999999999,1.0592214999999998,0.00128,0.00237,0.8136955,0.17765,-0.3476599999999999,1.2022855,0.1583900000000001,-0.34775,0.8333455,-0.2344199999999999,-0.221904,1.1616155,-0.2883199999999999,-0.27105
158,1.009848,0.546705,-0.2689749999999999,0.876905,0.413095,-0.262455,0.753525,0.601926,-0.410765,1.125655,0.4063449999999999,-0.245075,1.232705,0.576785,-0.376375,0.697355,0.822715,-0.522215,1.288865,0.816755,-0.488635,0.9410700000000001,-0.0017749999999999,-0.002445,1.05893,0.0017749999999999,0.002445,0.8132150000000001,0.179315,-0.346465,1.200955,0.159435,-0.347865,0.832945,-0.232995,-0.220227,1.159915,-0.287585,-0.271495
159,1.008845,0.54618,-0.26764,0.875766,0.41376,-0.26144,0.7519560000000001,0.6029709999999999,-0.4069899999999999,1.124716,0.40742,-0.24451,1.232036,0.578135,-0.3732299999999999,0.696366,0.82402,-0.51727,1.288336,0.81826,-0.48223,0.9413590000000001,-0.00223,-0.0025,1.058641,0.0022299999999999,0.0025,0.8127460000000001,0.1808199999999999,-0.34539,1.1996859999999998,0.1603199999999999,-0.3478799999999999,0.8327860000000001,-0.2319999999999999,-0.218542,1.158736,-0.28672,-0.27242
160,1.00783,0.54585,-0.26632,0.874611,0.4144299999999999,-0.26042,0.750821,0.603677,-0.40327,1.123751,0.40847,-0.24393,1.231371,0.579404,-0.36983,0.6954010000000002,0.82468,-0.51207,1.287861,0.81973,-0.47581,0.941658,-0.0026399999999999,-0.0025699999999999,1.058342,0.0026399999999999,0.0025699999999999,0.812241,0.1822399999999999,-0.34439,1.198481,0.1613899999999999,-0.34786,0.832551,-0.23107,-0.216918,1.157571,-0.28596,-0.2733299999999999
161,1.0068314999999999,0.54562,-0.26504,0.8734335,0.41453,-0.25943,0.7496635,0.604243,-0.39974,1.1227935,0.40914,-0.24333,1.2306834999999998,0.580546,-0.36632,0.6944235000000001,0.82532,-0.50718,1.2873635,0.82106,-0.4696099999999999,0.9419555,-0.0031299999999999,-0.0026599999999999,1.0580445,0.0031299999999999,0.0026599999999999,0.8117535000000001,0.18345,-0.3435,1.1972435,0.1621599999999999,-0.34782,0.8328635,-0.23055,-0.215461,1.1571135,-0.2849399999999999,-0.27419
162,1.0059034999999998,0.545415,-0.26385,0.8723305,0.414485,-0.25844,0.7495005,0.601191,-0.39411,1.1219405,0.409605,-0.2426999999999999,1.2300505,0.581571,-0.36284,0.6941005,0.824205,-0.50229,1.2869305,0.822275,-0.46397,0.9422215,-0.003665,-0.0027699999999999,1.0577785,0.003665,0.00277,0.8113405,0.1845149999999999,-0.34278,1.1960205,0.1627349999999999,-0.34762,0.8317805,-0.229535,-0.2140929999999999,1.1570505,-0.283845,-0.2749399999999999
163,1.005151,0.5454,-0.2628749999999999,0.87144,0.4143899999999999,-0.257445,0.74956,0.598244,-0.388625,1.1213,0.4100299999999999,-0.242065,1.22956,0.582606,-0.359375,0.69406,0.8224499999999999,-0.496535,1.28666,0.82355,-0.458775,0.94242,-0.00417,-0.0029049999999999,1.05758,0.00417,0.0029049999999999,0.81111,0.1855599999999999,-0.342275,1.1949699999999999,0.1634599999999999,-0.3474049999999999,0.83238,-0.22958,-0.212515,1.1570299999999998,-0.28297,-0.275405
164,1.00467,0.545755,-0.26215,0.870804,0.414285,-0.25612,0.7499439999999999,0.595464,-0.38355,1.121124,0.410325,-0.2411,1.229324,0.58371,-0.35614,0.694914,0.817175,-0.48972,1.286664,0.824995,-0.45406,0.94252,-0.004495,-0.0030699999999999,1.05748,0.004495,0.0030699999999999,0.811084,0.1866649999999999,-0.34203,1.1941739999999998,0.1643249999999999,-0.3472,0.831764,-0.2281649999999999,-0.211069,1.156754,-0.282045,-0.27543
165,1.004549,0.5461250000000001,-0.26155,0.870507,0.414885,-0.25504,0.750707,0.5928530000000001,-0.3787399999999999,1.121097,0.4106950000000001,-0.240181,1.229447,0.5848350000000001,-0.3533199999999999,0.696107,0.8119050000000001,-0.4832999999999999,1.286907,0.8262550000000001,-0.44974,0.9425209999999999,-0.0045949999999999,-0.0032099999999999,1.057479,0.004595,0.0032099999999999,0.811207,0.187805,-0.3418799999999999,1.193787,0.165135,-0.347,0.832457,-0.2259849999999998,-0.209841,1.156587,-0.281265,-0.27534
166,1.00466,0.5463950000000001,-0.2610449999999999,0.870414,0.415185,-0.253855,0.7516840000000001,0.590387,-0.374225,1.121254,0.410995,-0.239122,1.229714,0.585817,-0.350545,0.697484,0.806385,-0.477265,1.287294,0.8271850000000001,-0.445705,0.9425270000000001,-0.0046049999999999,-0.0032649999999999,1.0574729999999999,0.004605,0.0032649999999999,0.811444,0.188975,-0.341685,1.193654,0.165965,-0.346725,0.832074,-0.2242949999999999,-0.208814,1.156924,-0.280355,-0.275225
167,1.0049645,0.54659,-0.260735,0.8704135,0.41587,-0.252925,0.7527735,0.588125,-0.371345,1.1214435,0.41129,-0.23821,1.2299835,0.586742,-0.348075,0.6989434999999999,0.8007,-0.472345,1.2877235,0.82803,-0.442245,0.9425275000000001,-0.0045399999999999,-0.003275,1.0574724999999998,0.0045399999999999,0.003275,0.8116635,0.19004,-0.341545,1.1936335,0.16679,-0.346375,0.8316435,-0.2207099999999999,-0.2079909999999999,1.1576935,-0.2791,-0.275285
168,1.0052745,0.5467,-0.260475,0.8704025,0.41674,-0.251905,0.7539425,0.585237,-0.3684349999999999,1.1216825,0.4116599999999999,-0.2372739999999999,1.2302425,0.587642,-0.345935,0.7004625000000001,0.79482,-0.467775,1.2880825,0.82884,-0.439345,0.9425275000000001,-0.0045,-0.0033149999999999,1.0574724999999998,0.0044999999999999,0.003315,0.8119525,0.19105,-0.341615,1.1936725,0.1673299999999999,-0.346055,0.8311225,-0.21699,-0.20705,1.1584725,-0.2779899999999999,-0.275305
169,1.0056085,0.54699,-0.26013,0.8704015,0.4170999999999999,-0.25082,0.7553215,0.5822529999999999,-0.36561,1.1219115,0.4119699999999999,-0.236331,1.2305115,0.5884919999999999,-0.34419,0.7020815,0.7887099999999999,-0.46373,1.2883415,0.82968,-0.43687,0.9425275000000001,-0.00436,-0.0033199999999999,1.0574724999999998,0.0043599999999999,0.0033199999999999,0.8122615,0.1919899999999999,-0.34175,1.1936715,0.1678499999999999,-0.34572,0.8308515,-0.21273,-0.206152,1.1588315,-0.27705,-0.27514
170,1.0062855,0.5473949999999999,-0.25994,0.8706685000000001,0.4178249999999999,-0.24994,0.7555985000000001,0.5831979999999999,-0.36479,1.1223785,0.4123749999999999,-0.235403,1.2310885,0.5893569999999999,-0.34273,0.7032885000000001,0.7856749999999999,-0.45967,1.2888285,0.8305349999999999,-0.4348,0.9424495,-0.004175,-0.0033299999999999,1.0575505,0.0041749999999999,0.0033299999999999,0.8128285,0.1929349999999999,-0.34186,1.1939485,0.1685849999999998,-0.34529,0.8311185,-0.209185,-0.205457,1.1588284999999998,-0.2765550000000001,-0.27456
171,1.0070184999999998,0.54789,-0.25977,0.8709775,0.4185999999999999,-0.24915,0.7576475,0.5794729999999999,-0.36143,1.1228875,0.4126999999999999,-0.234467,1.2317075,0.5902989999999999,-0.34142,0.7053674999999999,0.7797499999999999,-0.45599,1.2892674999999998,0.8315199999999999,-0.43296,0.9423785,-0.00392,-0.00338,1.0576215,0.0039199999999999,0.0033799999999999,0.8134475,0.1939899999999999,-0.34197,1.1943075,0.16945,-0.34492,0.8305875,-0.20629,-0.204988,1.1592675,-0.27609,-0.27462
172,1.0079084999999999,0.54847,-0.259425,0.8714805,0.4201000000000001,-0.248215,0.7586505,0.5798120000000001,-0.360375,1.1235505,0.41336,-0.233456,1.2325005,0.5913170000000001,-0.340125,0.7070105,0.7760500000000001,-0.453395,1.2898105,0.8324,-0.431285,0.9423015,-0.0036899999999999,-0.003415,1.0576985,0.00369,0.003415,0.8142005,0.19528,-0.341875,1.1948604999999999,0.17036,-0.344345,0.8310204999999999,-0.2044199999999999,-0.204644,1.1599404999999998,-0.27474,-0.2744649999999999
173,1.009047,0.54869,-0.25911,0.872293,0.42087,-0.24774,0.759993,0.5797410000000001,-0.35922,1.1242329999999998,0.41375,-0.232817,1.233493,0.591515,-0.3389,0.7081230000000001,0.7760600000000001,-0.45258,1.290603,0.8326,-0.4299,0.942226,-0.0035399999999999,-0.00345,1.057774,0.0035399999999999,0.0034499999999999,0.815163,0.1959,-0.34169,1.195553,0.17066,-0.34371,0.830423,-0.2035899999999999,-0.204216,1.160633,-0.2738199999999999,-0.27464
174,1.010151,0.5487249999999999,-0.258955,0.873122,0.4210449999999999,-0.247445,0.761502,0.5786939999999999,-0.358105,1.1249319999999998,0.4135149999999999,-0.232419,1.234502,0.59097,-0.337935,0.7092420000000002,0.775285,-0.451985,1.291442,0.8329549999999999,-0.429505,0.9421940000000001,-0.003485,-0.003475,1.0578059999999998,0.0034849999999999,0.0034749999999999,0.815972,0.1957249999999999,-0.341555,1.196252,0.1700649999999999,-0.343415,0.829442,-0.203365,-0.20393,1.161022,-0.274455,-0.274645
175,1.011251,0.5487249999999999,-0.259115,0.873977,0.4210449999999999,-0.247375,0.762767,0.57921,-0.357735,1.125657,0.4135149999999999,-0.232349,1.235487,0.590425,-0.337445,0.710357,0.77443,-0.451785,1.292327,0.8329549999999999,-0.429435,0.9421800000000001,-0.003485,-0.003505,1.05782,0.0034849999999999,0.003505,0.8166870000000002,0.1953049999999999,-0.341685,1.196957,0.169435,-0.343345,0.828357,-0.203775,-0.20405,1.161727,-0.274865,-0.2747549999999999
176,1.0126645,0.5487249999999999,-0.2595699999999999,0.8752355,0.4211949999999999,-0.24739,0.7647255,0.579105,-0.35712,1.1267355000000001,0.4135149999999999,-0.232364,1.2367655,0.5901879999999999,-0.33718,0.7116055,0.77443,-0.4518,1.2935955,0.833005,-0.42945,0.9419955,-0.003485,-0.0035299999999999,1.0580045,0.0034849999999999,0.00353,0.8178455,0.1947149999999999,-0.34197,1.1980655,0.1686949999999999,-0.34336,0.8285655000000001,-0.203955,-0.2058769999999999,1.1617255,-0.276155,-0.2748
177,1.0143155,0.5487249999999999,-0.2601549999999999,0.8765515,0.4216649999999999,-0.2471649999999999,0.7668515000000001,0.5791139999999999,-0.356485,1.1279215,0.413585,-0.2323879999999999,1.2381415,0.5901879999999999,-0.337205,0.7131315,0.7739769999999999,-0.451825,1.2950915,0.8335349999999999,-0.429475,0.9416935,-0.003485,-0.0035549999999999,1.0583065,0.0034849999999999,0.003555,0.8189915,0.1940049999999999,-0.3423349999999999,1.1993515,0.1680749999999999,-0.343395,0.8298415,-0.208205,-0.2078169999999999,1.1617215,-0.2770450000000001,-0.2743649999999999
178,1.015924,0.5483450000000001,-0.26072,0.8778150000000001,0.421505,-0.24707,0.7689450000000001,0.578495,-0.35584,1.129055,0.413145,-0.232574,1.239425,0.589537,-0.3372,0.714505,0.773227,-0.45181,1.296545,0.8333950000000001,-0.42976,0.941379,-0.0036249999999999,-0.00356,1.058621,0.0036249999999999,0.0035599999999999,0.820085,0.192515,-0.3428,1.200825,0.166495,-0.34364,0.8304150000000001,-0.208955,-0.210307,1.161625,-0.2782249999999999,-0.27368
179,1.017432,0.5469999999999999,-0.262195,0.879095,0.4198199999999999,-0.248145,0.769985,0.576246,-0.356725,1.130155,0.4115,-0.23369,1.240605,0.587324,-0.3380849999999999,0.715545,0.7708619999999999,-0.452885,1.2978049999999999,0.8319099999999999,-0.431135,0.941134,-0.00389,-0.0032149999999999,1.058866,0.0038899999999999,0.0032149999999999,0.821115,0.18922,-0.344245,1.202255,0.1635499999999999,-0.344845,0.831245,-0.21559,-0.213917,1.162715,-0.28044,-0.274665
180,1.017818,0.54591,-0.263785,0.87975,0.41795,-0.248865,0.76999,0.5730970000000001,-0.357755,1.13045,0.4102700000000001,-0.234803,1.24151,0.5909040000000001,-0.340645,0.71556,0.7729400000000001,-0.455795,1.2978399999999999,0.8303800000000001,-0.433095,0.941132,-0.0042699999999999,-0.0028549999999999,1.058868,0.0042700000000001,0.0028549999999999,0.82081,0.18478,-0.345855,1.20281,0.15939,-0.346435,0.8310500000000001,-0.22085,-0.217892,1.16307,-0.2833799999999999,-0.275645
181,1.0181449999999999,0.54626,-0.265525,0.880575,0.41639,-0.249905,0.770155,0.5691269999999999,-0.358805,1.131025,0.4090499999999999,-0.235981,1.242395,0.593569,-0.343085,0.7157450000000001,0.77484,-0.459085,1.298195,0.82826,-0.435215,0.940971,-0.00409,-0.0024949999999999,1.059029,0.00409,0.0024949999999999,0.819665,0.1769799999999999,-0.348375,1.203565,0.15483,-0.3481849999999999,0.8310150000000001,-0.22945,-0.222172,1.162855,-0.28717,-0.276285
182,1.0183065,0.5465,-0.2676699999999999,0.8812385000000001,0.41433,-0.25087,0.7699285,0.5729770000000001,-0.36246,1.1315085,0.40727,-0.237358,1.2429185,0.595842,-0.34547,0.7156985,0.77793,-0.4631499999999999,1.2984985,0.8258000000000001,-0.4375099999999999,0.9409665,-0.0037099999999999,-0.0021299999999999,1.0590335,0.0037099999999999,0.0021299999999999,0.8181985,0.16872,-0.35151,1.2041385,0.15014,-0.3500299999999999,0.8308385,-0.2383199999999999,-0.2265849999999999,1.1623985000000001,-0.2918199999999999,-0.27675
183,1.018268,0.544045,-0.2707199999999999,0.881874,0.410395,-0.25263,0.769204,0.5735560000000001,-0.36757,1.131834,0.402935,-0.2395769999999999,1.243144,0.5934550000000001,-0.34824,0.7155040000000001,0.777155,-0.4682199999999999,1.2987440000000001,0.8192550000000001,-0.4407299999999999,0.940913,-0.0029649999999999,-0.00245,1.059087,0.0029649999999999,0.00245,0.816604,0.154995,-0.3555399999999999,1.204704,0.140785,-0.35278,0.830654,-0.251765,-0.231947,1.162344,-0.300995,-0.27793
184,1.018047,0.5420280000000001,-0.27456,0.882466,0.40634,-0.25519,0.7689160000000002,0.5724340000000001,-0.37231,1.132066,0.39856,-0.242471,1.243896,0.590326,-0.3526899999999999,0.714966,0.7759900000000001,-0.4743199999999999,1.298786,0.81732,-0.4464499999999999,0.940767,-0.0022699999999999,-0.0026699999999999,1.059233,0.0022699999999999,0.00267,0.814816,0.13883,-0.35994,1.205056,0.12919,-0.35624,0.8303060000000001,-0.2656199999999999,-0.2377679999999999,1.162806,-0.3098799999999999,-0.28008
185,1.017628,0.5400729999999999,-0.278695,0.88289,0.4030049999999999,-0.257805,0.76866,0.5711419999999999,-0.376865,1.13219,0.3952449999999999,-0.245715,1.24461,0.5871879999999999,-0.357825,0.7137100000000001,0.779785,-0.481055,1.2983799999999999,0.8151349999999999,-0.4523749999999999,0.9405870000000001,-0.001755,-0.002665,1.059413,0.0017549999999999,0.002665,0.81294,0.122085,-0.364195,1.20516,0.1169149999999999,-0.359875,0.82989,-0.278345,-0.242354,1.16315,-0.318925,-0.282575
186,1.0171755,0.5376369999999999,-0.2829899999999999,0.8832075,0.39907,-0.26049,0.7670175,0.5712349999999999,-0.38281,1.1322575,0.3928399999999999,-0.248993,1.2451074999999998,0.583218,-0.36321,0.7122975,0.78214,-0.4876,1.2979275000000001,0.81051,-0.4571,0.9403965,-0.0015399999999999,-0.0025599999999999,1.0596035,0.0015399999999999,0.00256,0.8112475,0.1037899999999999,-0.3681999999999999,1.2052075,0.1036599999999999,-0.36366,0.8294375,-0.29251,-0.247134,1.1626975,-0.32957,-0.28464
187,1.016845,0.535771,-0.286895,0.883812,0.395575,-0.263215,0.765462,0.569498,-0.389255,1.132572,0.389155,-0.2520449999999999,1.245082,0.5849829999999999,-0.367735,0.711012,0.783015,-0.4941449999999999,1.297752,0.804735,-0.4617949999999999,0.940212,-0.0007249999999999,-0.002445,1.059788,0.0007249999999999,0.002445,0.809862,0.083905,-0.371415,1.205272,0.0890449999999999,-0.3672149999999999,0.8290620000000001,-0.308355,-0.251603,1.162432,-0.341825,-0.286725
188,1.016051,0.535961,-0.28932,0.884095,0.39257,-0.26525,0.763625,0.5682820000000001,-0.39493,1.132685,0.38581,-0.254467,1.245275,0.587358,-0.37202,0.7093849999999999,0.78464,-0.49761,1.2973949999999999,0.79989,-0.46517,0.9402550000000001,0.00017,-0.0025499999999999,1.059745,-0.00017,0.0025499999999999,0.8082750000000001,0.0644299999999999,-0.37385,1.204825,0.07551,-0.36998,0.8284050000000001,-0.3238099999999999,-0.254984,1.163805,-0.3513799999999999,-0.28791
189,1.0150835,0.5349999999999999,-0.291875,0.8839085,0.3891999999999999,-0.267575,0.7620285,0.5720939999999999,-0.398295,1.1324885,0.3834499999999999,-0.25702,1.2454085,0.5820569999999999,-0.374685,0.7077585,0.7804499999999999,-0.500175,1.2968985,0.8014299999999999,-0.467735,0.9403865,0.0009099999999999,-0.002515,1.0596135,-0.00091,0.0025149999999999,0.8069284999999999,0.0462799999999998,-0.376405,1.2043285,0.0606899999999999,-0.372535,0.8277885,-0.34094,-0.258346,1.1650885,-0.36274,-0.289115
190,1.0142055,0.532753,-0.2946649999999999,0.8835445000000001,0.389745,-0.2699749999999999,0.7601145,0.57767,-0.402225,1.1321345,0.3798750000000001,-0.259552,1.2454844999999999,0.5804410000000001,-0.3773649999999999,0.7065445,0.778085,-0.502865,1.2963145,0.805825,-0.470415,0.9404795,0.0017450000000001,-0.002415,1.0595205,-0.0017449999999999,0.002415,0.8065745,0.027725,-0.378945,1.2039745,0.044875,-0.3752149999999999,0.8273145,-0.3584849999999999,-0.261181,1.1662845,-0.3743849999999999,-0.289745
191,1.013348,0.530971,-0.29741,0.8833330000000001,0.38963,-0.27246,0.758443,0.57474,-0.40497,1.131923,0.37757,-0.26201,1.245273,0.579646,-0.3801,0.705653,0.77761,-0.50471,1.295893,0.81149,-0.47316,0.940512,0.00216,-0.00225,1.059488,-0.00216,0.00225,0.8063629999999999,0.0087199999999999,-0.38168,1.203763,0.0291899999999999,-0.37795,0.826973,-0.3761,-0.263916,1.167383,-0.38661,-0.29049
192,1.0125899999999999,0.530772,-0.2993599999999999,0.883404,0.38967,-0.2742,0.757764,0.5745790000000001,-0.40705,1.131934,0.37704,-0.263694,1.244374,0.5826190000000001,-0.38095,0.704834,0.7799800000000001,-0.50678,1.295564,0.8203600000000001,-0.47523,0.940508,0.00204,-0.00148,1.059492,-0.0020399999999999,0.00148,0.806374,-0.0079299999999999,-0.3835,1.203374,0.01603,-0.37954,0.826734,-0.3910399999999999,-0.265988,1.1685839999999998,-0.3966999999999999,-0.29061
193,1.0122235,0.531472,-0.29999,0.8833125,0.389545,-0.27529,0.7571425,0.577325,-0.4085499999999999,1.1315925,0.377855,-0.264733,1.2436725,0.583585,-0.38076,0.7040825,0.7809349999999999,-0.50645,1.2951525,0.821925,-0.4755899999999999,0.9405045,0.0017449999999999,-0.0009099999999999,1.0594955,-0.0017449999999999,0.0009099999999999,0.8066125,-0.0234149999999999,-0.38317,1.2027325,0.0014049999999999,-0.38036,0.8264425,-0.407285,-0.267489,1.1695125,-0.4092949999999999,-0.29045
194,1.011807,0.533898,-0.30044,0.883309,0.388489,-0.27611,0.756099,0.58079,-0.40745,1.131229,0.377983,-0.265516,1.243509,0.58562,-0.37942,0.703569,0.77753,-0.5042,1.294789,0.82467,-0.47468,0.940503,0.00178,-0.0006599999999999,1.059497,-0.00178,0.0006599999999999,0.806979,-0.0375899999999999,-0.38215,1.2019090000000001,-0.01234,-0.38077,0.826079,-0.42245,-0.268528,1.170119,-0.42184,-0.28995
195,1.0122495,0.5362119999999999,-0.29983,0.8839405,0.388772,-0.27589,0.7560605,0.58117,-0.40546,1.1313905,0.375631,-0.265572,1.2438604999999998,0.58856,-0.37756,0.7038905,0.7809699999999999,-0.50084,1.2953505,0.82775,-0.47262,0.9403065,0.0023399999999999,-0.00051,1.0596935,-0.00234,0.0005099999999999,0.8081105,-0.05131,-0.3808,1.2016805,-0.02689,-0.38003,0.8264705,-0.43838,-0.268684,1.1714605,-0.43528,-0.28874
196,1.012947,0.53739,-0.298265,0.88432,0.390495,-0.275145,0.7565200000000001,0.58781,-0.403255,1.13168,0.37516,-0.264976,1.24443,0.5895600000000001,-0.375505,0.7047400000000001,0.7838,-0.496825,1.29586,0.82986,-0.467795,0.9404340000000001,0.00253,-0.0003049999999999,1.0595659999999998,-0.0025299999999999,0.0003049999999999,0.80967,-0.0651899999999999,-0.378585,1.20143,-0.0419799999999999,-0.378565,0.8270900000000001,-0.45528,-0.268696,1.17277,-0.4495399999999999,-0.287505
197,1.0137919999999998,0.5385599999999999,-0.295585,0.88472,0.392306,-0.273635,0.75736,0.5943799999999999,-0.400105,1.13229,0.376148,-0.263247,1.24563,0.5913299999999999,-0.372535,0.7055899999999999,0.7865,-0.4909949999999999,1.29661,0.8366499999999999,-0.461535,0.940401,0.0025699999999999,-0.000195,1.059599,-0.00257,0.000195,0.81128,-0.07859,-0.376005,1.20116,-0.05752,-0.376245,0.82791,-0.47229,-0.268143,1.17391,-0.46498,-0.285665
198,1.0146225,0.54122,-0.29264,0.8851355,0.39271,-0.272168,0.7574855,0.59548,-0.39683,1.1327255,0.377063,-0.261124,1.2467355,0.59381,-0.3698,0.7064155,0.78894,-0.4845899999999999,1.2970555,0.83612,-0.45507,0.9403405,0.00256,-0.00018,1.0596595,-0.00256,0.00018,0.8128755,-0.09093,-0.37343,1.2007455,-0.07227,-0.37349,0.8287755,-0.48876,-0.267532,1.1750654999999999,-0.4803099999999999,-0.28411
199,1.0153205,0.545585,-0.289625,0.8853905,0.390226,-0.270228,0.7572205000000001,0.594395,-0.392525,1.1330105,0.37913,-0.258711,1.2468105,0.592345,-0.365205,0.7068004999999999,0.7887850000000001,-0.477055,1.2972905,0.832025,-0.448485,0.9402825,0.0021249999999999,-0.0001849999999999,1.0597175,-0.0021249999999999,0.000185,0.8143305000000001,-0.1027549999999999,-0.370595,1.1999805000000001,-0.086695,-0.370425,0.8295605,-0.505685,-0.266911,1.1760605,-0.4964349999999999,-0.283125
200,1.015375,0.549505,-0.28659,0.885702,0.392346,-0.267955,0.757242,0.592295,-0.38791,1.133102,0.383381,-0.25636,1.2467519999999999,0.595915,-0.36077,0.706742,0.7921050000000001,-0.47092,1.2971519999999999,0.827655,-0.44142,0.940146,0.001915,-0.00019,1.059854,-0.001915,0.0001899999999999,0.815472,-0.115655,-0.36721,1.199022,-0.102655,-0.36686,0.830232,-0.524475,-0.266332,1.176862,-0.513645,-0.28183
201,1.015238,0.5561200000000001,-0.28311,0.885927,0.395219,-0.265613,0.757057,0.59822,-0.38338,1.132897,0.387605,-0.253895,1.246537,0.59987,-0.3553199999999999,0.706467,0.79589,-0.46458,1.297197,0.82391,-0.43385,0.940014,0.0017699999999999,-0.00014,1.059986,-0.0017699999999999,0.00014,0.8165169999999999,-0.1293699999999999,-0.36367,1.198007,-0.11739,-0.36334,0.8307370000000001,-0.54226,-0.265626,1.177367,-0.5298499999999999,-0.28028
202,1.0150169999999998,0.560575,-0.278895,0.8862369999999999,0.397521,-0.262471,0.7581370000000001,0.601105,-0.3786549999999999,1.1329069999999999,0.389221,-0.250763,1.2464870000000001,0.603795,-0.349265,0.7065969999999999,0.806945,-0.4574749999999999,1.296667,0.827395,-0.4246149999999999,0.939729,0.0019449999999999,-0.0003249999999999,1.060271,-0.001945,0.0003249999999999,0.8175669999999999,-0.142505,-0.359085,1.196917,-0.131805,-0.359145,0.831217,-0.560045,-0.264518,1.177507,-0.543215,-0.277005
203,1.0145255,0.56462,-0.27407,0.8864495,0.40015,-0.2587939999999999,0.7585195,0.6037399999999999,-0.37282,1.1326495,0.3910869999999999,-0.247203,1.2462195,0.60839,-0.34304,0.7062995000000001,0.81683,-0.4508299999999999,1.2967595,0.82841,-0.41493,0.9394915000000001,0.00191,-0.0004899999999999,1.0605084999999999,-0.00191,0.0004899999999999,0.8183495000000001,-0.15671,-0.35397,1.1952795,-0.1469599999999999,-0.35402,0.8310195000000001,-0.57925,-0.263165,1.1769395,-0.55805,-0.27326
204,1.0141324999999999,0.570945,-0.268236,0.8866365,0.403285,-0.254758,0.7584664999999999,0.610935,-0.3656049999999999,1.1322765,0.396115,-0.242826,1.2456265,0.612735,-0.335545,0.7062065,0.821755,-0.442215,1.2963165,0.834215,-0.403875,0.9392865,0.0016849999999999,-0.000565,1.0607135,-0.0016849999999999,0.000565,0.8188765,-0.169775,-0.3483549999999999,1.1935365,-0.161255,-0.348325,0.8306365,-0.597315,-0.261445,1.1761964999999999,-0.572215,-0.269291
205,1.0135925,0.57823,-0.262088,0.8863035000000001,0.4043299999999999,-0.250707,0.7585935,0.61388,-0.357565,1.1320635000000001,0.40076,-0.238562,1.2453235,0.6182,-0.327555,0.7062235,0.82844,-0.432405,1.2958835,0.84197,-0.392645,0.9392205,0.00129,-0.0005549999999999,1.0607795,-0.00129,0.0005549999999999,0.8193334999999999,-0.18173,-0.342165,1.1915935,-0.17443,-0.342445,0.8301035,-0.61578,-0.259708,1.1751935,-0.58513,-0.2645969999999999
206,1.0129255,0.585825,-0.255217,0.8859215,0.406885,-0.246112,0.7587215,0.618005,-0.3495,1.1318315,0.4054649999999999,-0.233854,1.2454915,0.624075,-0.31922,0.7061615,0.834935,-0.42171,1.2949815,0.847635,-0.38072,0.9392215,0.001055,-0.00069,1.0607785,-0.001055,0.0006899999999999,0.8196915000000001,-0.1938649999999999,-0.33542,1.1895115,-0.1880949999999999,-0.3362,0.8295015,-0.634545,-0.257526,1.1741115,-0.598695,-0.259661
207,1.0121805,0.593195,-0.2474799999999999,0.8856115,0.411895,-0.2408509999999999,0.7585915,0.623325,-0.340205,1.1316315000000001,0.409275,-0.2290809999999999,1.2457714999999998,0.629945,-0.309645,0.7057415,0.841195,-0.410095,1.2941515,0.852975,-0.368265,0.9391365,0.001145,-0.000785,1.0608635,-0.001145,0.000785,0.8202214999999999,-0.205785,-0.328005,1.1870815000000001,-0.201345,-0.3290849999999999,0.8288115,-0.653015,-0.254926,1.1729115,-0.6115349999999999,-0.254109
208,1.0112735,0.599285,-0.238407,0.8855025,0.419455,-0.234381,0.7592025,0.627605,-0.33029,1.1309525,0.414615,-0.223166,1.2450325,0.640025,-0.29927,0.7045525,0.847875,-0.39735,1.2930225,0.865975,-0.35396,0.9388155000000001,0.0010149999999999,-0.0008599999999999,1.0611845,-0.0010149999999999,0.0008599999999999,0.8208025000000001,-0.217905,-0.31976,1.1842525,-0.2152849999999999,-0.32133,0.8273025,-0.672245,-0.252649,1.1713325,-0.624575,-0.247769
209,1.0106195,0.605475,-0.228829,0.8850795,0.4224949999999999,-0.227606,0.7595594999999999,0.632485,-0.31973,1.1301795000000001,0.418145,-0.216395,1.2434995,0.645325,-0.28819,0.7028695,0.853255,-0.3829599999999999,1.2917695,0.877255,-0.33927,0.9385075,0.0007149999999999,-0.0010499999999999,1.0614925,-0.0007149999999999,0.0010499999999999,0.8214295,-0.2295549999999999,-0.31116,1.1811194999999999,-0.2286049999999999,-0.31343,0.8255695000000001,-0.6910350000000001,-0.250013,1.1695395,-0.637935,-0.241196
210,1.0099069999999999,0.611395,-0.2185109999999999,0.884639,0.426345,-0.220153,0.760069,0.637875,-0.3086399999999999,1.129479,0.422225,-0.208968,1.241999,0.650945,-0.2773,0.700969,0.859715,-0.3682999999999999,1.2905090000000001,0.891635,-0.3245699999999999,0.938235,0.000475,-0.0012899999999999,1.061765,-0.000475,0.00129,0.822109,-0.241655,-0.30203,1.178049,-0.2418449999999999,-0.30499,0.823859,-0.709985,-0.2466379999999999,1.167699,-0.651805,-0.2342189999999999
211,1.0089065,0.619255,-0.20789,0.8840715,0.430775,-0.21285,0.7600415,0.644615,-0.297375,1.1285915,0.427595,-0.201533,1.2404315,0.659265,-0.266155,0.6984315,0.864035,-0.354095,1.2894115,0.901195,-0.311515,0.9380715,0.000145,-0.001475,1.0619285,-0.000145,0.0014749999999999,0.8227515000000001,-0.252395,-0.293165,1.1746714999999999,-0.251345,-0.296245,0.8216015,-0.7265349999999999,-0.243362,1.1658015,-0.6664749999999999,-0.228079
212,1.0084324999999998,0.62651,-0.196768,0.8833985,0.43633,-0.205043,0.7599485,0.6507000000000001,-0.285575,1.1276785,0.4330199999999999,-0.193224,1.2389785,0.66793,-0.254595,0.6966285,0.87139,-0.3389649999999999,1.2877285,0.91361,-0.298525,0.9379595000000001,-9.000000000000674e-05,-0.001645,1.0620405,8.999999999999286e-05,0.001645,0.8233985,-0.26305,-0.2840249999999999,1.1717184999999999,-0.26121,-0.2877349999999999,0.8201685000000001,-0.74164,-0.239256,1.1644585,-0.68059,-0.22136
213,1.0079975,0.6326615,-0.185195,0.8826645,0.4399814999999999,-0.197252,0.7596845,0.6537314999999999,-0.273675,1.1267045,0.4365414999999999,-0.185085,1.2372945,0.6766515,-0.243265,0.6947345,0.8780515,-0.324895,1.2861444999999998,0.9216215,-0.285785,0.9379465,-0.0003095,-0.001725,1.0620535,0.0003094999999999,0.0017249999999999,0.8243145000000001,-0.2732485,-0.274535,1.1687945,-0.2706585,-0.278945,0.8185445,-0.7563685,-0.235,1.1630544999999999,-0.6936184999999999,-0.213913
214,1.007355,0.6397280000000001,-0.173393,0.8818,0.443828,-0.189357,0.75927,0.6569780000000001,-0.261545,1.12596,0.439718,-0.176839,1.23583,0.6808080000000001,-0.231515,0.6935899999999999,0.885488,-0.311335,1.2842500000000001,0.931418,-0.271845,0.938174,-0.000421,-0.001785,1.061826,0.000421,0.001785,0.82534,-0.281482,-0.265005,1.16594,-0.279412,-0.270085,0.81681,-0.768502,-0.230301,1.16167,-0.705982,-0.2066609999999999
215,1.006901,0.6405775,-0.159774,0.880889,0.4487175,-0.178459,0.758689,0.6546475,-0.2471249999999999,1.125739,0.4421075,-0.166031,1.234489,0.6845475,-0.217947,0.692159,0.8883275,-0.296485,1.2819690000000001,0.9389775,-0.256535,0.938402,-0.0005074999999999,-0.001655,1.061598,0.0005075,0.001655,0.827109,-0.2923325,-0.252285,1.163009,-0.2899624999999999,-0.257575,0.815059,-0.7829125,-0.223815,1.160369,-0.7223925,-0.197185
216,1.006557,0.641644,-0.146713,0.880004,0.452774,-0.168556,0.758264,0.660544,-0.234245,1.125604,0.444274,-0.155651,1.233384,0.689354,-0.205488,0.689064,0.901224,-0.2816349999999999,1.2791139999999999,0.948194,-0.240985,0.938654,-0.000614,-0.001515,1.061346,0.0006139999999999,0.001515,0.828754,-0.302196,-0.240495,1.160594,-0.299416,-0.246055,0.813584,-0.795336,-0.217345,1.159184,-0.737376,-0.188143
217,1.006211,0.6422755,-0.134139,0.8793110000000001,0.4526155,-0.160148,0.7581910000000001,0.6680955000000001,-0.222825,1.125371,0.4450855,-0.146324,1.231851,0.6911755,-0.193986,0.6860010000000001,0.9143455,-0.268625,1.276211,0.9509855,-0.226885,0.938735,-0.0007395,-0.0015349999999999,1.061265,0.0007395,0.0015349999999999,0.830161,-0.3126244999999999,-0.229795,1.1586509999999999,-0.3085644999999999,-0.234875,0.812291,-0.8071545,-0.2100449999999999,1.158251,-0.7503345,-0.179412
218,1.005625,0.643274,-0.1226395,0.878467,0.453204,-0.1511515,0.757797,0.676424,-0.2124315,1.125477,0.444914,-0.1371885,1.230247,0.6921539999999999,-0.1825545,0.683057,0.922084,-0.2568015,1.273457,0.954894,-0.2133515,0.938759,-0.000785,-0.0016484999999999,1.061241,0.000785,0.0016484999999999,0.8317770000000001,-0.325666,-0.2194215,1.157137,-0.321606,-0.2235515,0.811727,-0.819716,-0.2025914999999999,1.157687,-0.763376,-0.1719585
219,1.005144,0.6426045,-0.1113435,0.877306,0.4534745,-0.1419825,0.7575360000000001,0.6767945,-0.2013715,1.125736,0.4452945,-0.1278065,1.229046,0.6937245,-0.1710425,0.6802159999999999,0.9286845,-0.2444515,1.2708059999999999,0.9563545,-0.2000115,0.9387530000000001,-0.0010394999999999,-0.0016914999999999,1.0612469999999998,0.0010395,0.0016914999999999,0.833316,-0.3378755,-0.2085415,1.155666,-0.3338155,-0.2117915,0.811286,-0.8319255,-0.1947815,1.157236,-0.7755855,-0.1627325
220,1.0048255,0.64083,-0.0946895,0.8769945,0.4534499999999999,-0.1271435,0.7568545,0.67729,-0.1842045,1.1262045,0.4450699999999999,-0.1126814999999999,1.2278145,0.69539,-0.1541235,0.6783045,0.93196,-0.2261545,1.2683445,0.95816,-0.1807544999999999,0.9386185,-0.001543,-0.0015455,1.0613815,0.0015429999999999,0.0015455,0.8351945000000001,-0.34897,-0.1906245,1.1542845,-0.34491,-0.1940445,0.8114545,-0.84302,-0.1798245,1.1569445,-0.78668,-0.1491455
221,1.0040699999999998,0.6403025,-0.0775245,0.875604,0.4538225,-0.1107455,0.755934,0.6751125,-0.1666214999999999,1.126814,0.4493925,-0.0956825,1.226914,0.6952625,-0.1368525,0.676824,0.9296725,-0.2061115,1.265844,0.9578525,-0.1595995,0.938501,-0.0014795,-0.0020265,1.061499,0.0014794999999999,0.0020265,0.839754,-0.3664374999999999,-0.1693815,1.151204,-0.3615475,-0.1725015,0.812634,-0.8578675,-0.1619435,1.158074,-0.8064475,-0.1345655
222,1.0032135,0.6392505,-0.061508,0.8740555,0.4553305,-0.094961,0.7558655000000001,0.6738005,-0.150273,1.1273755,0.4544505,-0.079339,1.2262655,0.6960205,-0.120469,0.6755154999999999,0.9284205,-0.186853,1.2636555,0.9584805,-0.139651,0.9384115,-0.0013794999999999,-0.0025599999999999,1.0615885,0.0013795,0.0025599999999999,0.8442155,-0.3836695,-0.149022,1.1482355,-0.3776995,-0.152103,0.8138455,-0.8727795,-0.144637,1.1593155,-0.8279195,-0.121078
223,1.002285,0.6371629999999999,-0.046302,0.872423,0.4573429999999999,-0.079513,0.755933,0.672573,-0.134849,1.127993,0.4597529999999999,-0.063322,1.225703,0.697323,-0.104996,0.6743330000000001,0.927463,-0.167953,1.261963,0.958133,-0.121511,0.9384370000000001,-0.0012959999999999,-0.003175,1.0615629999999998,0.0012959999999999,0.0031749999999999,0.848523,-0.4007469999999999,-0.129326,1.1453929999999999,-0.395387,-0.131643,0.815023,-0.887217,-0.127699,1.160693,-0.8495170000000001,-0.108166
224,1.001147,0.6400999999999999,-0.0336125,0.870683,0.4578699999999999,-0.0665755,0.755653,0.67669,-0.1215125,1.128383,0.46517,-0.0500015,1.225213,0.69878,-0.0914194999999999,0.673203,0.93196,-0.1513324999999999,1.261083,0.95789,-0.1056105,0.938524,-0.001275,-0.0038834999999999,1.061476,0.0012749999999999,0.0038835,0.852213,-0.41311,-0.1129415,1.142823,-0.40773,-0.1152455,0.816223,-0.8965399999999999,-0.1128105,1.162133,-0.86572,-0.0976914999999999
225,0.999928,0.6426525,-0.0209199999999999,0.86909,0.4581324999999999,-0.053357,0.75522,0.6725425,-0.107539,1.12897,0.4702425,-0.036429,1.22496,0.7001825,-0.07737,0.67294,0.9279525,-0.1353919999999999,1.25999,0.9593825,-0.089114,0.9386580000000001,-0.0012915,-0.0046939999999999,1.0613419999999998,0.0012915,0.004694,0.85606,-0.4266675,-0.095922,1.14043,-0.4204775,-0.0985099999999999,0.8175100000000001,-0.9062775,-0.097437,1.16384,-0.8775875,-0.085014
226,0.9985,0.6451695,-0.0080925,0.867543,0.4584695,-0.0403365,0.7551030000000001,0.6684295,-0.0935135,1.129183,0.4753094999999999,-0.0230905,1.224683,0.7014495,-0.0635235,0.672733,0.9240795,-0.1192705,1.258953,0.9608595,-0.0726675,0.938701,-0.0013454999999999,-0.0053644999999999,1.061299,0.0013454999999999,0.0053644999999999,0.859993,-0.4419705,-0.0786935,1.1380029999999999,-0.4333505,-0.0817155,0.8190430000000001,-0.9163605,-0.0817625,1.165633,-0.8936005,-0.0743375
227,0.996905,0.6475485,0.0044685,0.865818,0.4591785,-0.0274344999999999,0.754918,0.6647285,-0.0794495,1.1290079999999998,0.4803085,-0.0099234999999999,1.2242579999999998,0.7029585,-0.0499245,0.672428,0.9206085,-0.1034405,1.257868,0.9624085,-0.0563825,0.938523,-0.0013765,-0.0058775,1.061477,0.0013765,0.0058775,0.863498,-0.4593815,-0.0616285,1.135768,-0.4486015,-0.0652415,0.820298,-0.9286015,-0.0661755,1.167348,-0.9097815,-0.0638005
